JuanDHNZ/ProyectoFinalCD/preprocessing/sports_trials_csv/14_03.csv
root1,root2,root3,root4,root5,root6,lowerback1,lowerback2,lowerback3,upperback1,upperback2,upperback3,thorax1,thorax2,thorax3,lowerneck1,lowerneck2,lowerneck3,upperneck1,upperneck2,upperneck3,head1,head2,head3,rclavicle1,rclavicle2,rhumerus1,rhumerus2,rhumerus3,rradius1,rwrist1,rhand1,rhand2,rfingers1,rthumb1,rthumb2,lclavicle1,lclavicle2,lhumerus1,lhumerus2,lhumerus3,lradius1,lwrist1,lhand1,lhand2,lfingers1,lthumb1,lthumb2,rfemur1,rfemur2,rfemur3,rtibia1,rfoot1,rfoot2,rtoes1,lfemur1,lfemur2,lfemur3,ltibia1,lfoot1,lfoot2,ltoes1
4.57898,17.3021,-5.51109,8.38873,-11.7521,3.13413,6.4208,-2.12135,-8.48399,1.36766,-3.36357,1.04244,-1.62304,-1.65492,6.1002,-18.6066,-7.042,-12.5141,21.1797,-7.696,6.25359,10.6357,-3.83058,3.14261,-2.14936e-15,1.84124e-14,11.644,-2.92959,-77.2053,122.532,2.72268,-21.5409,24.8881,7.12502,4.85207,-5.03639,-2.14936e-15,1.84124e-14,14.3405,-7.53787,85.3751,113.567,-1.93218,-13.1066,10.0617,7.12502,12.9904,39.6372,-31.6696,1.30711,5.97838,44.6584,-16.4611,-0.0516918,2.60957,-16.479,0.428697,-20.8613,35.5379,-22.7974,3.74496,-12.2371
4.57739,17.303,-5.51036,8.3907,-11.7758,3.16871,6.43804,-2.09612,-8.47709,1.35073,-3.33267,1.00383,-1.65835,-1.63716,6.05537,-18.482,-7.00686,-12.4047,21.1145,-7.68926,6.23693,10.5818,-3.82254,3.12248,-3.88686e-14,-1.50082e-14,11.6087,-2.93441,-77.2453,122.526,2.80159,-21.5988,24.8604,7.12502,4.79613,-5.06529,-3.88686e-14,-1.50082e-14,14.2695,-7.63918,85.3726,113.535,-1.9579,-13.1789,9.74686,7.12502,12.9208,39.3268,-31.7024,1.16444,5.99777,44.7102,-16.3738,-0.0778911,1.2115,-16.4043,0.4538,-20.9168,35.5844,-22.684,3.86692,-13.2318
4.57588,17.3027,-5.50604,8.39633,-11.7694,3.22142,6.40623,-2.08092,-8.45035,1.35226,-3.30829,0.976915,-1.64626,-1.62564,6.00878,-18.4057,-7.02945,-12.5081,21.0698,-7.73126,6.36473,10.5659,-3.83631,3.1801,-7.25378e-14,-6.4605e-16,11.5934,-2.94726,-77.2494,122.457,2.94222,-21.7698,25.0179,7.12502,4.63108,-4.91147,-7.25378e-14,-6.4605e-16,14.2195,-7.72899,85.44,113.47,-2.05181,-13.2534,9.44462,7.12502,12.849,39.0291,-31.742,0.962453,5.97656,44.7992,-16.2526,0.00399239,0.301982,-16.3309,0.391319,-20.9733,35.4539,-22.6238,3.90816,-13.636
4.57475,17.3004,-5.50075,8.45063,-11.7743,3.26527,6.30844,-2.05891,-8.41979,1.35946,-3.26808,0.963242,-1.59335,-1.60838,5.96944,-18.3974,-7.07677,-12.6061,21.0445,-7.79188,6.45683,10.5702,-3.86097,3.21942,-2.18663e-14,-2.13321e-14,11.5849,-3.03564,-77.2275,122.409,3.04781,-21.7592,25.1837,7.12502,4.64129,-4.74545,-2.18663e-14,-2.13321e-14,14.1996,-7.85159,85.5027,113.463,-2.08822,-13.324,9.46075,7.12502,12.7809,39.0495,-31.8438,0.780041,5.93141,44.8975,-16.1387,0.200543,0.47305,-16.3975,0.240369,-21.0024,35.3463,-22.7749,3.95414,-13.2583
4.57378,17.2991,-5.49719,8.47905,-11.7682,3.28511,6.30045,-2.0452,-8.38136,1.3475,-3.24755,0.941765,-1.60828,-1.59709,5.92397,-18.375,-7.08677,-12.5891,21.0448,-7.81383,6.45576,10.5676,-3.87022,3.21321,9.07576e-15,6.07536e-15,11.5378,-3.06064,-77.2733,122.413,3.12512,-21.6856,25.1531,7.12502,4.71236,-4.77449,9.07576e-15,6.07536e-15,14.14,-7.93765,85.5351,113.484,-2.12849,-13.2247,9.38698,7.12502,12.8766,38.9698,-31.9324,0.563737,5.9194,45.0194,-15.9316,0.441119,0.473362,-16.3839,0.0790048,-21.0018,35.2121,-22.888,3.96744,-12.7222
4.57163,17.3002,-5.49597,8.48219,-11.7592,3.37666,6.35382,-2.03555,-8.45971,1.31445,-3.24632,0.930465,-1.66903,-1.59223,5.96008,-18.3786,-7.06821,-12.6059,21.1582,-7.78731,6.45241,10.6076,-3.86125,3.21985,-5.34156e-14,2.06798e-14,11.4847,-3.03058,-77.2885,122.463,3.07948,-21.4766,24.9783,7.12502,4.91417,-4.94475,-5.34156e-14,2.06798e-14,14.0243,-7.98891,85.5942,113.543,-2.08367,-13.1062,9.2549,7.12502,12.9909,38.8304,-32.0405,0.398825,5.82827,45.1723,-15.7091,0.60626,0.305148,-16.3376,0.0355987,-21.0862,35.0944,-22.8766,3.97549,-12.7386
4.56904,17.3022,-5.49474,8.49256,-11.7981,3.41267,6.3553,-2.01403,-8.5006,1.3302,-3.21988,0.931906,-1.65529,-1.58009,5.98274,-18.4666,-7.0171,-12.5158,21.2914,-7.72802,6.41734,10.6605,-3.83083,3.20155,-4.60715e-14,-3.39145e-14,11.5018,-3.02237,-77.2593,122.51,2.9549,-21.3213,24.8982,7.12502,5.06414,-5.02126,-4.60715e-14,-3.39145e-14,13.9797,-8.04069,85.638,113.572,-2.04039,-13.0526,9.28681,7.12502,13.0425,38.8591,-32.1868,0.290486,5.78567,45.3527,-15.5145,0.743058,0.418845,-16.2982,0.0696078,-21.1184,35.0136,-22.8257,3.98678,-12.9001
4.56761,17.3027,-5.49506,8.53456,-11.8701,3.38052,6.34318,-1.99643,-8.44056,1.37214,-3.18999,0.917978,-1.61384,-1.56871,5.93052,-18.6123,-6.9721,-12.3746,21.3697,-7.68754,6.40314,10.7046,-3.80043,3.17793,-3.18257e-14,-2.09345e-15,11.5514,-3.02541,-77.279,122.506,2.91203,-21.3542,24.9188,7.12502,5.03236,-5.00148,-3.18257e-14,-2.09345e-15,14.0166,-8.05262,85.5949,113.575,-1.99654,-12.8644,9.39151,7.12502,13.2239,38.9521,-32.3922,0.139045,5.81217,45.5654,-15.2207,0.93324,0.587938,-16.3048,0.117203,-21.0729,34.9608,-22.8599,3.94951,-12.9293
4.56604,17.3043,-5.49661,8.57189,-11.9049,3.34297,6.40855,-1.97171,-8.36578,1.38232,-3.15806,0.903101,-1.65004,-1.5516,5.87389,-18.7606,-6.95217,-12.2785,21.469,-7.67693,6.41588,10.7637,-3.78428,3.16664,-4.57888e-14,-1.40143e-14,11.5607,-3.07959,-77.2963,122.439,2.9771,-21.3821,24.9735,7.12502,5.00542,-4.94734,-4.57888e-14,-1.40143e-14,14.0544,-8.08903,85.5509,113.505,-2.02639,-12.7771,9.36191,7.12502,13.308,38.917,-32.5912,-0.053785,5.84449,45.8146,-14.8917,1.26055,0.867959,-16.3217,0.103857,-21.0045,34.925,-22.9326,3.92069,-13.0633
4.56375,17.3057,-5.49861,8.57654,-11.9173,3.33636,6.54075,-1.94186,-8.35674,1.36118,-3.13029,0.918646,-1.7501,-1.53243,5.89092,-18.7726,-6.90687,-12.2254,21.516,-7.6217,6.38372,10.7734,-3.7589,3.15565,6.31918e-15,2.65253e-15,11.5016,-3.09574,-77.2397,122.418,2.95243,-21.3113,24.9369,7.12502,5.07381,-4.98239,6.31918e-15,2.65253e-15,14.0114,-8.14688,85.5687,113.469,-2.01639,-12.8051,9.13917,7.12502,13.2811,38.696,-32.783,-0.282005,5.84145,46.1086,-14.4443,1.64049,0.95585,-16.2772,0.128874,-20.9691,34.891,-22.9253,3.88891,-13.4709
4.56058,17.3035,-5.50057,8.59607,-11.9886,3.32933,6.63208,-1.90622,-8.36381,1.34348,-3.0917,0.950378,-1.82369,-1.50918,5.93114,-18.6828,-6.83877,-12.2284,21.4857,-7.53392,6.37808,10.736,-3.72148,3.17026,-1.46689e-14,6.22444e-15,11.4482,-3.07164,-77.1908,122.432,2.92324,-21.2148,24.8912,7.12502,5.16698,-5.02584,-1.46689e-14,6.22444e-15,13.9885,-8.17774,85.5999,113.541,-1.91753,-12.7054,9.02993,7.12502,13.3771,38.5805,-33.0357,-0.500225,5.83052,46.4638,-13.9442,2.0541,1.23439,-16.2217,0.17288,-20.9352,34.8411,-22.9442,3.84994,-13.6057
4.55787,17.2995,-5.50083,8.6293,-12.13,3.37746,6.64961,-1.83686,-8.36865,1.35079,-3.00201,0.91475,-1.8422,-1.46377,5.89138,-18.5899,-6.7862,-12.124,21.4173,-7.48974,6.33735,10.6821,-3.69872,3.14723,-6.15207e-14,-1.50455e-14,11.3664,-3.11582,-77.1513,122.447,2.92157,-21.3444,24.9303,7.12502,5.04186,-4.98976,-6.15207e-14,-1.50455e-14,14.0579,-8.26627,85.6168,113.579,-1.79339,-12.6237,8.83545,7.12502,13.4559,38.3808,-33.3685,-0.658965,5.73066,46.8782,-13.5035,2.47288,1.49414,-16.2356,0.246146,-20.9774,34.773,-23.0057,3.77715,-13.1512
4.55343,17.2965,-5.50452,8.63809,-12.3021,3.45744,6.77555,-1.77738,-8.42998,1.31634,-2.94108,0.879924,-1.95721,-1.42654,5.89258,-18.495,-6.708,-12.076,21.4195,-7.39553,6.29338,10.6512,-3.65912,3.14086,-6.42338e-14,-1.07716e-14,11.2432,-3.07387,-77.1037,122.433,2.99798,-21.6182,25.0889,7.12502,4.77748,-4.83728,-6.42338e-14,-1.07716e-14,14.0549,-8.28464,85.6184,113.521,-1.83884,-12.6097,8.90476,7.12502,13.4694,38.4492,-33.7681,-0.681907,5.54432,47.3432,-13.0104,2.87693,2.60851,-16.2478,0.346984,-21.0489,34.6792,-23.0238,3.723,-12.7758
4.54872,17.2965,-5.50955,8.67294,-12.4511,3.48415,6.92459,-1.75046,-8.46134,1.27962,-2.92236,0.898572,-2.07935,-1.41006,5.93699,-18.5452,-6.6295,-12.2034,21.5425,-7.26209,6.35464,10.7,-3.60221,3.20571,2.72024e-14,-4.96962e-17,11.1841,-2.9523,-77.0456,122.443,2.98595,-21.6324,25.0478,7.12502,4.76371,-4.87868,2.72024e-14,-4.96962e-17,13.9899,-8.23732,85.6079,113.566,-1.87868,-12.5944,9.45376,7.12502,13.4842,38.9972,-34.225,-0.779731,5.41443,47.8325,-12.3423,3.29959,3.71561,-16.2509,0.530516,-21.0632,34.6088,-23.0402,3.63416,-12.8596
4.54365,17.2986,-5.5106,8.79603,-12.5589,3.51539,6.90664,-1.73622,-8.48581,1.28705,-2.9027,0.91982,-2.06234,-1.40119,5.97081,-18.8095,-6.55662,-12.3026,21.7533,-7.12378,6.43086,10.8201,-3.53579,3.26946,-6.91398e-15,-2.48481e-16,11.1959,-2.85486,-76.9837,122.518,2.76477,-21.4713,25.0364,7.12502,4.91925,-4.88645,-6.91398e-15,-2.48481e-16,14.0261,-8.21739,85.554,113.675,-1.81684,-12.6775,9.69935,7.12502,13.4041,39.2481,-34.75,-1.02412,5.32911,48.3387,-11.7673,3.53547,3.47484,-16.3469,0.679225,-21.0829,34.5683,-23.1014,3.53642,-12.982
4.53542,17.2916,-5.5186,8.89867,-12.5895,3.49456,7.03457,-1.71772,-8.48158,1.28368,-2.88926,0.937131,-2.13886,-1.39075,5.99199,-19.0569,-6.44041,-12.191,21.943,-6.96181,6.39961,10.9133,-3.45406,3.26419,2.44443e-14,-7.15625e-15,11.1667,-2.79998,-76.9862,122.586,2.66293,-21.5067,25.1336,7.12502,4.88515,-4.79009,2.44443e-14,-7.15625e-15,14.0799,-8.22044,85.485,113.717,-1.65632,-12.7486,9.46584,7.12502,13.3355,39.0191,-35.2119,-1.24898,5.33068,48.8453,-11.3207,3.77085,3.24089,-16.4874,0.740924,-21.0027,34.5693,-23.1114,3.43271,-13.432
4.52364,17.2851,-5.52937,8.93371,-12.6544,3.5213,7.27879,-1.66028,-8.57465,1.25649,-2.84382,0.934949,-2.30674,-1.35853,6.05151,-19.1502,-6.31834,-12.0145,22.0493,-6.82444,6.35133,10.946,-3.38224,3.2401,1.00324e-14,-2.97929e-14,11.0093,-2.77272,-76.9747,122.641,2.73701,-21.749,25.0945,7.12502,4.65112,-4.83448,1.00324e-14,-2.97929e-14,14.0642,-8.23936,85.4004,113.717,-1.45971,-12.8088,9.4017,7.12502,13.2775,38.9588,-35.6577,-1.34304,5.26874,49.3651,-10.9029,3.97948,2.0821,-16.6084,0.901693,-20.9602,34.6203,-23.0967,3.26991,-13.6729
4.51046,17.2826,-5.53634,8.93661,-12.794,3.61101,7.49745,-1.55343,-8.67767,1.21989,-2.73411,0.86773,-2.48409,-1.29333,6.0417,-19.1337,-6.23103,-11.8496,22.181,-6.73895,6.26777,10.9725,-3.34162,3.1984,4.28008e-14,2.43014e-14,10.7423,-2.86248,-76.9478,122.691,2.76891,-21.8456,24.9814,7.12502,4.55785,-4.94959,4.28008e-14,2.43014e-14,14.023,-8.33442,85.2972,113.648,-1.35116,-12.7992,9.30743,7.12502,13.2868,38.8639,-36.0908,-1.40627,5.13436,49.8836,-10.434,4.20769,1.15747,-16.7044,1.20326,-21.0105,34.7321,-23.1402,3.07673,-13.5091
4.49465,17.2712,-5.54058,9.01837,-12.917,3.72289,7.51592,-1.46125,-8.74384,1.22687,-2.62164,0.761613,-2.50802,-1.23601,5.95874,-19.0918,-6.11295,-11.6453,22.2317,-6.6093,6.14011,10.9565,-3.28218,3.14072,3.4799e-15,5.42698e-15,10.4984,-2.96778,-76.9711,122.782,2.75206,-21.9324,24.9094,7.12502,4.47408,-5.02333,3.4799e-15,5.42698e-15,14.0641,-8.54104,85.1846,113.607,-1.42062,-13.033,9.27122,7.12502,13.0613,38.8423,-36.5393,-1.5273,4.96469,50.406,-10.0054,4.71786,2.25799,-16.8909,1.49036,-21.0837,34.8804,-23.2399,2.87128,-13.3894
4.48054,17.2592,-5.5415,9.05662,-12.9776,3.7634,7.56191,-1.42521,-8.69837,1.30212,-2.57324,0.694682,-2.46806,-1.21686,5.85847,-19.1947,-5.99495,-11.5573,22.2845,-6.44951,6.10489,10.9743,-3.20505,3.13861,-2.33261e-14,4.30742e-14,10.4217,-2.9451,-77.04,122.869,2.68106,-21.9389,24.8919,7.12502,4.46774,-5.04094,-2.33261e-14,4.30742e-14,14.1732,-8.65244,85.1139,113.597,-1.61507,-13.3201,9.41677,7.12502,12.7846,39.0053,-36.896,-1.63688,4.86368,50.9201,-9.77137,5.2177,1.73641,-17.0098,1.68762,-21.0797,35.041,-23.3465,2.67319,-13.1017
4.46374,17.2487,-5.54687,9.07851,-12.9811,3.78293,7.77562,-1.40888,-8.71404,1.31833,-2.57215,0.711667,-2.56907,-1.21184,5.894,-19.3825,-5.89545,-11.6548,22.4885,-6.27296,6.14082,11.0731,-3.12824,3.19641,4.62205e-14,1.3977e-14,10.3262,-2.82155,-77.005,122.914,2.54038,-21.9127,24.917,7.12502,4.49306,-5.01534,4.62205e-14,1.3977e-14,14.262,-8.57912,85.1726,113.555,-1.71299,-13.3271,9.40893,7.12502,12.7779,38.9979,-37.2553,-1.68881,4.80956,51.4314,-9.73559,5.55263,-0.554693,-17.1531,1.83329,-21.0226,35.2317,-23.4186,2.49099,-13.2198
4.4448,17.2408,-5.55514,9.10389,-12.9013,3.87848,8.01853,-1.40174,-8.78831,1.32147,-2.59294,0.689161,-2.69569,-1.2155,5.92447,-19.5008,-5.76583,-11.6115,22.6879,-6.08018,6.07869,11.1466,-3.04539,3.19892,1.38e-14,2.10215e-14,10.137,-2.76046,-76.9929,122.943,2.47455,-21.8678,24.9106,7.12502,4.53638,-5.02084,1.38e-14,2.10215e-14,14.3415,-8.52675,85.1495,113.555,-1.61004,-13.1583,9.50797,7.12502,12.9406,39.0867,-37.6007,-1.79577,4.67236,51.9448,-9.76976,5.8588,-2.91721,-17.3422,1.88898,-21.0298,35.4476,-23.5127,2.33045,-13.7193
4.42433,17.2321,-5.56083,9.11655,-12.7708,3.98932,8.25203,-1.38372,-8.81091,1.34612,-2.59468,0.625325,-2.80192,-1.21186,5.87946,-19.4945,-5.64821,-11.5404,22.7291,-5.92578,6.0313,11.1406,-2.97576,3.19584,-2.1183e-14,2.37299e-14,9.89355,-2.82523,-76.9524,122.994,2.44544,-21.715,24.8713,7.12502,4.68399,-5.05696,-2.1183e-14,2.37299e-14,14.3981,-8.63695,85.0905,113.555,-1.57733,-13.1094,9.77766,7.12502,12.9877,39.3534,-37.8809,-1.85666,4.47572,52.4562,-9.85697,6.17643,-4.33439,-17.519,1.91182,-21.0414,35.6912,-23.6282,2.10152,-13.5709
4.40118,17.216,-5.56941,9.14924,-12.6475,4.06122,8.56295,-1.36806,-8.82106,1.32005,-2.60801,0.579347,-3.0025,-1.20766,5.85217,-19.4655,-5.53826,-11.5037,22.781,-5.77956,6.00146,11.1372,-2.91132,3.20394,-2.67117e-15,-3.65515e-14,9.52578,-2.73272,-76.9124,123.011,2.59726,-21.9394,24.841,7.12502,4.46727,-5.09188,-2.67117e-15,-3.65515e-14,14.3412,-8.66118,85.1201,113.475,-1.7549,-13.0557,9.52911,7.12502,13.0395,39.1015,-38.1692,-1.81901,4.30615,52.937,-10.1045,6.50035,-4.17435,-17.7379,1.98841,-21.0043,35.9546,-23.7298,1.89055,-13.1584
4.3735,17.1987,-5.58325,9.18465,-12.555,4.13835,8.88258,-1.33879,-8.86416,1.34853,-2.60645,0.494675,-3.1533,-1.20011,5.80008,-19.5403,-5.44573,-11.3555,22.846,-5.67428,5.94821,11.1578,-2.85673,3.17708,2.40157e-14,-9.44227e-16,9.19931,-2.5912,-76.9782,123.021,2.75559,-22.4019,24.7059,7.12502,4.02068,-5.23589,2.40157e-14,-9.44227e-16,14.4838,-8.65824,85.0336,113.363,-1.79466,-12.9529,9.32611,7.12502,13.1386,38.8922,-38.4785,-1.6475,4.13004,53.361,-10.5,6.72893,-3.48539,-17.9974,2.16805,-20.9516,36.2278,-23.797,1.60311,-13.1243
4.34381,17.1895,-5.59066,9.26101,-12.4414,4.09805,9.09818,-1.2992,-8.74325,1.42837,-2.56246,0.421175,-3.20562,-1.17985,5.65691,-19.7473,-5.38197,-11.1626,22.9504,-5.59055,5.82759,11.2174,-2.81427,3.11305,1.57661e-14,1.44616e-14,8.9028,-2.56562,-77.0018,123.03,2.72234,-22.6417,24.7568,7.12502,3.78909,-5.18922,1.57661e-14,1.44616e-14,14.7308,-8.72059,84.9071,113.293,-1.67605,-12.7184,9.49285,7.12502,13.3647,39.0442,-38.735,-1.39613,4.06996,53.7043,-11.1186,6.63879,-4.36109,-18.2397,2.29436,-20.7658,36.5013,-23.8664,1.3298,-13.4729
4.31403,17.1827,-5.59508,9.35095,-12.2842,4.10972,9.34943,-1.27391,-8.65331,1.44678,-2.54595,0.361594,-3.33581,-1.16704,5.55176,-19.876,-5.30624,-11.1075,23.0826,-5.48459,5.80763,11.2787,-2.76354,3.1143,-3.32219e-14,1.78409e-14,8.45193,-2.52692,-76.9577,123.097,2.71243,-22.5989,24.8043,7.12502,3.8304,-5.14105,-3.32219e-14,1.78409e-14,14.7788,-8.8402,84.852,113.276,-1.71921,-12.8174,9.78198,7.12502,13.2693,39.3396,-38.9677,-1.26573,3.97386,53.9758,-11.8961,6.1391,-6.65897,-18.4968,2.33514,-20.6373,36.7588,-23.9249,1.06009,-13.2719
4.27944,17.1712,-5.6044,9.44474,-12.0897,4.21631,9.62002,-1.24868,-8.70002,1.48586,-2.54361,0.313731,-3.44594,-1.16136,5.5378,-19.9009,-5.24899,-11.2007,23.0212,-5.38492,5.87437,11.2557,-2.71692,3.16993,1.29955e-14,-6.55989e-15,7.90161,-2.51594,-76.8132,123.307,2.69459,-22.5986,24.7473,7.12502,3.83075,-5.19805,1.29955e-14,-6.55989e-15,14.8517,-8.98855,84.8651,113.264,-1.81475,-13.0938,9.71618,7.12502,13.0028,39.291,-39.2239,-1.17089,3.78315,54.1924,-12.6777,5.46305,-8.42755,-18.8163,2.33181,-20.5839,37.025,-23.9584,0.800168,-13.132
4.24186,17.1573,-5.6137,9.55225,-11.904,4.26259,9.84625,-1.22679,-8.67081,1.57921,-2.53172,0.249415,-3.47964,-1.15736,5.45918,-19.9229,-5.1799,-11.1812,22.8222,-5.28123,5.87384,11.1741,-2.66459,3.18052,1.63749e-14,2.52457e-14,7.2565,-2.57651,-76.7032,123.605,2.51812,-22.6669,24.8874,7.12502,3.7648,-5.05907,1.63749e-14,2.52457e-14,15.0252,-9.09292,84.813,113.262,-1.79074,-13.0773,9.65792,7.12502,13.0187,39.2317,-39.4662,-0.98528,3.62822,54.3676,-13.3861,4.83937,-8.06303,-19.1464,2.38644,-20.464,37.3108,-23.9837,0.581659,-13.4546
4.20221,17.1444,-5.62,9.69198,-11.7479,4.18831,10.0639,-1.20346,-8.55711,1.65264,-2.50691,0.234095,-3.53288,-1.14616,5.38336,-19.9877,-5.11634,-11.2372,22.7241,-5.1781,5.93953,11.143,-2.61186,3.229,1.92821e-14,5.66536e-15,6.67738,-2.48948,-76.5993,123.721,2.40702,-22.7695,24.9349,7.12502,3.66568,-5.01335,1.92821e-14,5.66536e-15,15.0631,-9.22589,84.8245,113.217,-2.30391,-13.5381,9.88977,7.12502,12.5745,39.4913,-39.7083,-0.737946,3.60441,54.515,-14.0364,4.0944,-7.31986,-19.4343,2.5952,-20.2302,37.595,-23.9683,0.371397,-13.9414
4.15974,17.1332,-5.62452,9.89169,-11.539,4.19575,10.2173,-1.20145,-8.52659,1.68849,-2.51377,0.235386,-3.58056,-1.14866,5.37386,-20.0634,-5.06166,-11.3481,22.7057,-5.06254,5.97274,11.1437,-2.56333,3.27752,5.17337e-14,1.71949e-14,6.19072,-2.29117,-76.475,123.647,2.63061,-23.0196,24.818,7.12502,3.42414,-5.13425,5.17337e-14,1.71949e-14,15.0124,-9.33128,84.9255,113.178,-2.70151,-14.1026,9.78308,7.12502,12.0301,39.4173,-40.0002,-0.506842,3.48043,54.638,-14.7641,3.22584,-7.01383,-19.7934,2.86762,-20.0765,37.8751,-23.9936,0.0495209,-14.4457
4.11569,17.1205,-5.62983,10.1102,-11.2854,4.34364,10.386,-1.20434,-8.58059,1.6975,-2.54194,0.170368,-3.66118,-1.15847,5.34573,-20.0329,-4.99881,-11.3405,22.6028,-4.9666,5.94131,11.0886,-2.52162,3.27895,1.46355e-14,3.06128e-14,5.66031,-2.10529,-76.4678,123.511,2.93196,-23.2976,24.7318,7.12502,3.15566,-5.22461,1.46355e-14,3.06128e-14,15.0707,-9.18495,85.0718,113.409,-1.24754,-12.8094,9.33995,7.12502,13.2769,38.8971,-40.324,-0.349855,3.19401,54.7412,-15.6272,2.22941,-7.411,-20.2459,3.01067,-20.0444,38.1441,-24.1314,-0.398011,-14.3201
4.06879,17.1068,-5.63495,10.3775,-11.0816,4.31691,10.55,-1.19384,-8.48137,1.7352,-2.533,0.119589,-3.72073,-1.15363,5.24098,-20.0695,-4.92836,-11.2061,22.4443,-4.87342,5.84611,11.0204,-2.47582,3.23378,-2.00276e-14,1.40143e-14,5.2548,-1.82885,-76.6925,123.17,3.40342,-23.5521,24.8012,7.12502,2.90992,-5.15871,-2.00276e-14,1.40143e-14,15.1725,-9.30795,85.0365,113.405,-1.2924,-12.8919,9.40788,7.12502,13.1974,38.9702,-40.6869,-0.165798,3.11732,54.8018,-16.423,1.1301,-7.99296,-20.7337,3.2096,-19.8198,38.4202,-24.2216,-0.813961,-14.1472
4.01755,17.0918,-5.64081,10.6196,-10.8878,4.26768,10.7362,-1.16816,-8.40431,1.80952,-2.50503,0.10326,-3.75398,-1.14141,5.18277,-20.2624,-4.87923,-11.1952,22.3747,-4.77755,5.83743,11.021,-2.4278,3.24143,2.55438e-14,4.57205e-15,4.9686,-1.51114,-76.9071,122.705,3.71272,-23.6575,24.9682,7.12502,2.80813,-4.99305,2.55438e-14,4.57205e-15,15.336,-9.3906,85.0093,113.459,-1.17962,-13.4589,9.98186,7.12502,12.6508,39.5787,-41.021,0.0885011,3.05224,54.8292,-17.1299,0.125063,-7.33225,-21.167,3.4637,-19.5689,38.6974,-24.2703,-1.08594,-14.7554
3.96615,17.0776,-5.64632,10.8507,-10.654,4.25248,10.9294,-1.14372,-8.31139,1.88511,-2.47699,0.0914052,-3.79014,-1.12921,5.12046,-20.4739,-4.87215,-11.2505,22.375,-4.72066,5.83377,11.0573,-2.40342,3.25651,-2.13694e-14,3.08116e-15,4.45275,-1.30171,-76.9758,122.469,3.64632,-23.4654,24.9616,7.12502,2.99367,-4.99715,-2.13694e-14,3.08116e-15,15.4497,-9.43875,85.1001,113.473,-0.914221,-13.8909,10.4771,7.12502,12.2343,40.0992,-41.336,0.309867,2.95614,54.8295,-17.746,-0.902512,-6.64439,-21.5891,3.63731,-19.343,39.0017,-24.3761,-1.28996,-15.4124
3.91274,17.0605,-5.64865,11.0703,-10.4892,4.35959,11.0564,-1.05052,-8.31199,1.93445,-2.36762,-0.00481079,-3.82886,-1.07512,5.00896,-20.3996,-4.88994,-11.2354,22.2237,-4.75514,5.84078,10.99,-2.41509,3.2494,3.8763e-15,6.36111e-15,3.64935,-1.26865,-76.9944,122.3,3.4807,-23.2901,25.0819,7.12502,3.16297,-4.87443,3.8763e-15,6.36111e-15,15.4998,-9.61071,85.2083,113.426,-0.632067,-13.138,9.89109,7.12502,12.9602,39.4686,-41.6828,0.527529,2.70347,54.8337,-18.2619,-1.83336,-6.03436,-21.9563,3.81774,-19.2525,39.2801,-24.4942,-1.52185,-15.8812
3.85423,17.0408,-5.65227,11.3234,-10.334,4.45336,11.1775,-0.905871,-8.28815,1.96476,-2.18978,-0.141329,-3.8965,-0.985837,4.83186,-20.1999,-4.93915,-11.1456,21.9788,-4.87424,5.86361,10.8708,-2.45747,3.22214,1.54058e-15,-4.96962e-15,2.7691,-1.31882,-77.067,121.995,3.59708,-23.4493,25.2274,7.12502,3.00923,-4.73108,1.54058e-15,-4.96962e-15,15.5924,-10.0389,85.2212,113.43,-0.575308,-12.6737,9.49046,7.12502,13.4077,39.039,-42.0646,0.727289,2.46598,54.8451,-18.6774,-2.61134,-4.77172,-22.3444,4.06159,-19.134,39.4828,-24.5544,-1.82288,-16.3618
3.79262,17.0251,-5.65288,11.6245,-10.1598,4.47136,11.2417,-0.825598,-8.219,2.04632,-2.08034,-0.206162,-3.8666,-0.936561,4.71044,-20.4353,-4.97572,-11.0968,21.9543,-4.8935,5.80113,10.9049,-2.46492,3.18525,4.60683e-14,-2.38542e-15,2.06173,-1.16781,-77.2042,121.609,3.90067,-23.7711,25.2303,7.12502,2.69838,-4.73235,4.60683e-14,-2.38542e-15,15.8206,-10.2593,85.233,113.422,-0.531329,-12.717,10.3556,7.12502,13.366,39.9069,-42.4756,0.894883,2.36082,54.8491,-18.9378,-3.51123,-4.52938,-22.7667,4.33423,-18.9117,39.5677,-24.6031,-2.31331,-16.2943
3.73086,17.0105,-5.63439,11.8901,-10.0807,4.73467,11.0747,-0.777542,-8.36108,2.18733,-2.01536,-0.324939,-3.63352,-0.917858,4.64787,-20.869,-4.98078,-11.1045,21.9329,-4.83034,5.75608,10.9717,-2.43465,3.17556,-1.8487e-14,3.65764e-14,1.46015,-0.8929,-77.3901,121.19,4.01562,-23.8374,25.1949,7.12502,2.63443,-4.76859,-1.8487e-14,3.65764e-14,16.0673,-10.2323,85.2881,113.526,-0.256456,-12.4736,11.1286,7.12502,13.6005,40.6644,-42.8218,0.903494,1.99367,54.8586,-18.9149,-4.12988,-4.51299,-23.042,4.57435,-18.9946,39.5993,-24.7702,-2.8044,-16.0108
3.66898,16.9957,-5.60192,12.1023,-10.0092,5.2612,10.6887,-0.741163,-8.67281,2.37471,-1.96167,-0.513607,-3.22511,-0.912984,4.60105,-21.1384,-5.01317,-11.2566,21.7488,-4.80644,5.84147,10.9585,-2.41849,3.23082,-3.49861e-14,-2.98177e-14,0.794727,-0.591579,-77.5462,120.698,4.04221,-23.9211,25.1886,7.12502,2.55359,-4.77589,-3.49861e-14,-2.98177e-14,16.3312,-10.2577,85.3978,113.625,-0.0949124,-13.2952,10.1563,7.12502,12.8087,39.7434,-43.0824,0.708741,1.32737,54.9042,-18.7561,-4.24879,-4.10864,-23.1942,4.71498,-19.383,39.7061,-24.9757,-3.16318,-16.2021
3.5981,16.9752,-5.59679,12.3118,-9.79665,5.38355,10.6738,-0.747352,-8.67289,2.56203,-1.96039,-0.581875,-3.02194,-0.927164,4.52495,-21.3875,-5.04156,-11.3516,21.4857,-4.79337,5.91977,10.9111,-2.40224,3.27131,1.56543e-14,1.51076e-14,0.215896,-0.209087,-77.8311,120.118,4.06687,-24.1251,25.1869,7.12502,2.3565,-4.77984,1.56543e-14,1.51076e-14,16.6489,-10.1488,85.4113,113.603,-0.245211,-14.3148,8.82861,7.12502,11.8256,38.4747,-43.3925,0.803779,1.13343,54.9769,-18.5523,-4.34803,-3.49364,-23.4346,4.7927,-19.2012,39.7792,-24.969,-3.61704,-16.3832
3.51307,16.938,-5.63587,12.5907,-9.64178,4.92277,11.3549,-0.635966,-8.3714,2.61287,-1.84111,-0.483918,-3.36849,-0.856136,4.46398,-21.8453,-5.07207,-11.2872,21.4001,-4.79653,5.92098,10.9629,-2.38905,3.25534,-9.19379e-15,-1.17283e-14,-0.39706,0.0487451,-78.229,119.552,4.0104,-23.944,25.2176,7.12502,2.53142,-4.7471,-9.19379e-15,-1.17283e-14,17.0077,-10.4377,85.1844,113.371,-1.96977,-15.1351,9.93773,7.12502,11.0345,39.6277,-44.0018,1.48419,1.57866,55.1287,-18.0836,-4.67714,-3.49641,-24.0298,4.95968,-18.262,40.0241,-24.8161,-3.95961,-16.6477
3.43999,16.9246,-5.59071,12.9922,-9.72984,5.27159,10.6307,-0.600333,-8.66389,2.64532,-1.75498,-0.554886,-2.93853,-0.831768,4.52076,-21.8774,-5.0376,-11.5032,21.3342,-4.66461,5.91157,10.938,-2.34656,3.30766,-1.55052e-14,7.85199e-15,-1.37753,0.598333,-78.4081,118.939,3.94519,-23.7601,25.3227,7.12502,2.70901,-4.63989,-1.55052e-14,7.85199e-15,17.1206,-10.3122,85.2439,113.24,-2.33709,-14.5364,10.42,7.12502,11.6119,40.0782,-44.3861,1.37367,1.0902,55.293,-17.3124,-3.87444,-3.39382,-24.3075,5.1789,-18.4817,40.1723,-25.0773,-4.08732,-17.399
3.35223,16.897,-5.58977,13.3267,-9.62198,5.0264,10.9158,-0.660604,-8.84723,2.24398,-1.88982,-0.169316,-3.4802,-0.859202,5.06363,-20.9602,-4.784,-12.1617,21.0732,-4.21372,5.95781,10.6465,-2.19973,3.50847,-4.69132e-14,1.88845e-15,-2.84464,1.91904,-78.4371,118.324,3.79654,-23.7743,25.1732,7.12502,2.69531,-4.78954,-4.69132e-14,1.88845e-15,16.5207,-9.36509,85.6536,113.376,-1.64094,-13.9747,9.70889,7.12502,12.1535,39.3359,-44.8658,1.77605,1.29602,55.5509,-16.3586,-3.3408,-3.3357,-24.6704,5.41697,-17.8598,40.2661,-25.0261,-4.34817,-18.2406
3.26203,16.8773,-5.57002,13.4414,-9.55305,5.21199,11.0467,-0.499541,-8.99043,2.28376,-1.71162,-0.326069,-3.53812,-0.768755,4.95879,-21.3251,-4.86752,-12.0094,21.1098,-4.32941,5.94779,10.7348,-2.23603,3.45931,-4.07509e-15,2.98177e-16,-3.88673,2.1016,-78.8409,117.842,3.37231,-23.2417,24.6602,7.12502,3.20967,-5.29541,-4.07509e-15,2.98177e-16,16.8345,-9.09908,85.6859,113.749,0.613303,-13.2647,8.67131,7.12502,12.838,38.2565,-45.0504,1.95386,1.09818,55.8719,-15.6598,-2.35524,-5.09185,-24.6522,5.45589,-17.7116,40.1528,-25.0204,-4.53206,-18.5125
3.17359,16.8662,-5.51808,13.4643,-9.54523,5.8982,10.6223,-0.422677,-9.48366,2.44856,-1.62219,-0.631051,-3.13631,-0.745765,4.88757,-21.7112,-4.92999,-11.9464,21.0747,-4.39064,5.97164,10.7983,-2.24894,3.44448,-3.47873e-14,-1.55052e-14,-4.97432,2.40083,-79.2306,117.49,2.90494,-23.0065,24.3306,7.12502,3.43681,-5.62141,-3.47873e-14,-1.55052e-14,17.2099,-9.03583,85.5239,114.037,1.61554,-13.7967,9.00656,7.12502,12.3252,38.6233,-44.9597,1.68578,0.434,56.2754,-15.5838,-0.883048,-7.34162,-24.4168,5.31906,-18.1739,40.0725,-25.2476,-4.4872,-19.0565
3.07412,16.8497,-5.49515,13.634,-9.21656,5.92956,10.6164,-0.413981,-9.41375,2.5314,-1.59802,-0.655565,-3.05207,-0.740893,4.81799,-22.1273,-5.03217,-12.1235,20.958,-4.44426,6.09339,10.8456,-2.26388,3.50472,2.77802e-14,2.08724e-15,-5.98283,2.85419,-79.5444,117.065,2.66707,-23.3767,24.7933,7.12502,3.07935,-5.16418,2.77802e-14,2.08724e-15,17.6325,-8.87852,85.4084,114.395,2.72379,-12.7768,10.0972,7.12502,13.3083,39.6522,-44.9354,1.68365,0.571865,56.7333,-16.0247,-0.21883,-7.50102,-24.42,5.08267,-17.7664,39.9431,-25.2627,-4.49629,-19.8969
2.9626,16.8326,-5.49574,13.7648,-8.69219,5.45542,11.1768,-0.395225,-9.0543,2.35326,-1.5962,-0.463743,-3.55616,-0.712486,4.83638,-21.7947,-5.03375,-12.37,20.6671,-4.4367,6.24136,10.6868,-2.26182,3.59848,-4.39314e-14,-8.15017e-15,-7.3174,3.45297,-79.9712,116.789,2.46674,-23.822,25.2131,7.12502,2.6493,-4.75021,-4.39314e-14,-8.15017e-15,17.5633,-8.68429,85.4132,114.774,3.64567,-12.0108,11.2375,7.12502,14.0466,40.7429,-44.8907,2.07893,1.29147,57.1927,-16.7126,-0.327852,-7.28066,-24.4835,4.80291,-16.6592,39.798,-25.0746,-4.56231,-20.7696
2.84896,16.8238,-5.47754,13.7077,-8.09267,5.34097,11.6355,-0.406566,-8.9556,2.22771,-1.65142,-0.395092,-3.93571,-0.718423,4.87567,-21.626,-5.02568,-12.5018,20.5521,-4.41671,6.30489,10.6167,-2.25592,3.64593,2.58917e-14,2.3556e-14,-8.66324,3.99115,-80.4566,116.627,2.59359,-24.3066,25.2586,7.12502,2.18126,-4.70995,2.58917e-14,2.3556e-14,17.4998,-8.65143,85.3143,114.531,2.69942,-13.384,10.6422,7.12502,12.723,40.2346,-44.5229,2.20866,1.68549,57.5967,-17.281,-0.107586,-8.11172,-24.3455,4.33654,-15.9423,39.6176,-25.0735,-4.4807,-22.0522
2.73328,16.8199,-5.44306,13.6768,-7.50486,5.41084,11.7786,-0.434448,-8.88503,2.20418,-1.6971,-0.433329,-4.03655,-0.736147,4.80622,-21.8617,-5.11987,-12.6941,20.5827,-4.49967,6.49499,10.6901,-2.28281,3.73314,7.60351e-15,7.45443e-15,-9.76638,4.43399,-80.9396,116.455,3.08823,-24.2066,25.1225,7.12502,2.27787,-4.84505,7.60351e-15,7.45443e-15,17.6197,-8.72175,85.1688,114.548,1.80052,-14.3301,10.0373,7.12502,11.8108,39.6842,-44.0438,2.19034,1.9211,57.8819,-17.707,0.564849,-8.89646,-24.0918,3.74506,-15.4655,39.3469,-25.1398,-4.10007,-23.8321
2.61149,16.824,-5.40038,13.6636,-7.05007,5.4138,11.7545,-0.388708,-8.8598,2.1698,-1.63294,-0.439606,-4.07009,-0.702076,4.77615,-21.8435,-5.24041,-12.9553,20.4521,-4.64271,6.74944,10.6683,-2.33564,3.84456,4.02539e-15,3.18055e-15,-10.9131,4.82015,-81.3072,116.528,3.73605,-23.7493,24.9932,7.12502,2.71944,-4.96917,4.02539e-15,3.18055e-15,17.6684,-8.86425,85.0647,114.732,0.842719,-14.4966,9.72631,7.12502,11.6502,39.3824,-43.5903,2.30964,2.27292,58.0052,-18.1344,0.971172,-9.45606,-23.6695,3.02284,-14.9083,38.8659,-24.8691,-3.73461,-24.2824
2.48403,16.8258,-5.35665,13.8833,-7.25811,5.11825,11.3223,-0.135994,-8.87966,2.09759,-1.25921,-0.401307,-3.96052,-0.520519,4.7658,-21.8526,-5.30631,-13.0481,20.3217,-4.7184,6.8325,10.6355,-2.36462,3.8756,1.77912e-14,1.799e-14,-12.0698,5.18783,-81.6488,116.882,4.43173,-23.3929,25.1283,7.12502,3.06365,-4.82946,1.77912e-14,1.799e-14,17.8005,-8.79624,85.0079,115.019,0.62046,-13.916,10.0718,7.12502,12.2101,39.6954,-43.6844,2.90247,2.86592,57.9845,-18.5406,0.879568,-9.69134,-23.3917,2.53765,-14.1162,38.3604,-24.4258,-3.32654,-23.5934
2.36268,16.842,-5.29268,13.5117,-5.91827,5.36539,11.486,-0.414899,-8.72608,2.24817,-1.6186,-0.451998,-3.8449,-0.70897,4.67713,-22.143,-5.36086,-13.0135,20.3026,-4.78152,6.90275,10.6894,-2.37667,3.88331,-3.01407e-14,-2.73329e-14,-13.1648,5.46676,-82.1347,117.351,5.14727,-22.6917,25.4347,7.12502,3.74079,-4.51219,-3.01407e-14,-2.73329e-14,18.1061,-8.50152,84.9297,115.51,1.2558,-13.0623,10.4916,7.12502,13.0332,40.0644,-42.4639,2.24581,3.37859,57.8803,-19.3724,0.460118,-10.0716,-22.7197,0.623935,-13.5594,37.7987,-23.9922,-2.92581,-24.2575
2.23339,16.8561,-5.22989,13.1333,-5.22938,5.21524,11.7126,-0.473586,-8.55861,2.32865,-1.69338,-0.442661,-3.87922,-0.748228,4.60809,-22.4328,-5.38675,-12.9332,20.3107,-4.84205,7.04949,10.7532,-2.37516,3.9131,2.53947e-14,2.98177e-15,-14.4013,5.81171,-82.6645,118.026,5.48299,-21.9718,25.6742,7.12502,4.43604,-4.25939,2.53947e-14,2.98177e-15,18.047,-8.2345,84.7947,116.158,1.4783,-12.1565,10.5139,7.12502,13.9062,40.0289,-41.5279,2.08165,4.31236,57.7605,-19.8879,-0.105935,-10.8952,-21.7623,-0.808636,-12.7338,37.2774,-23.5676,-1.88546,-26.9175
2.09379,16.8764,-5.16458,12.7952,-4.56189,4.78586,11.963,-0.509716,-8.31233,2.22995,-1.73329,-0.297859,-4.11969,-0.756353,4.63725,-22.3749,-5.35654,-12.873,20.3548,-4.85494,7.1421,10.7607,-2.367,3.93707,9.39258e-15,-3.47873e-15,-15.881,6.30512,-83.1639,118.815,5.40585,-21.6088,26.1485,7.12502,4.78649,-3.77743,9.39258e-15,-3.47873e-15,17.412,-8.13873,84.752,116.87,1.01748,-11.7932,10.233,7.12502,14.2563,39.7237,-40.6096,2.03355,5.6319,57.6635,-20.5342,-0.788285,-10.0849,-20.9252,-2.13326,-11.6096,36.7526,-22.9545,-0.869474,-29.8168
1.94947,16.9023,-5.09628,12.5665,-3.98592,4.45513,12.0389,-0.509024,-8.22403,2.02739,-1.7337,-0.196765,-4.37597,-0.739844,4.70045,-22.1225,-5.34094,-12.9009,20.4218,-4.92121,7.36879,10.7531,-2.37798,4.01841,1.75924e-14,-1.09332e-15,-17.2976,6.80676,-83.7197,119.546,5.21336,-21.449,26.45,7.12502,4.94079,-3.47241,1.75924e-14,-1.09332e-15,17.008,-8.17834,84.6824,117.374,0.547424,-11.9785,9.72028,7.12502,14.0777,39.2235,-39.8097,1.89518,6.90047,57.5451,-21.3432,-1.49457,-8.06901,-20.3122,-3.36509,-10.6387,36.3066,-22.1724,-0.062339,-31.5158
1.80405,16.934,-5.02847,12.3655,-3.40099,4.31805,11.7617,-0.521725,-8.38329,2.07829,-1.73776,-0.134827,-4.16072,-0.750412,4.84738,-22.2868,-5.44361,-12.9843,20.4786,-5.1038,7.70771,10.8373,-2.42459,4.12877,3.23025e-15,2.93207e-14,-18.1296,7.25627,-84.1916,120.259,4.88277,-21.3288,26.3155,7.12502,5.05689,-3.60418,3.23025e-15,2.93207e-14,17.449,-8.11214,84.4299,117.601,0.359378,-12.239,9.17539,7.12502,13.8267,38.6958,-39.0118,1.62772,8.01922,57.341,-22.1044,-2.19394,-6.19253,-19.7725,-4.74054,-9.91707,35.8938,-21.0885,0.851011,-32.2751
1.65562,16.9786,-4.9593,12.0465,-2.75178,4.0737,11.7178,-0.526565,-8.44398,2.10072,-1.74218,-0.0589998,-4.10744,-0.754438,4.96094,-22.4923,-5.57768,-12.9867,20.6186,-5.34907,8.01389,10.9652,-2.49721,4.20486,1.48592e-14,-2.28602e-15,-19.1256,7.67745,-84.6643,121.098,4.38129,-21.3254,26.0223,7.12502,5.0602,-3.89726,1.48592e-14,-2.28602e-15,17.8639,-8.08534,84.1395,117.793,0.388722,-12.0236,8.96468,7.12502,14.0342,38.4709,-38.0008,1.42488,9.26048,56.9813,-22.6475,-2.86451,-4.58008,-19.1454,-6.19415,-9.11548,35.5703,-19.7769,1.8974,-32.8486
1.50488,17.0392,-4.88516,11.714,-2.1236,3.79717,11.718,-0.543246,-8.47835,2.01737,-1.76951,0.00172999,-4.18875,-0.760806,5.0502,-22.4781,-5.65322,-12.9678,20.7459,-5.55082,8.31629,11.0429,-2.55275,4.28473,-2.82274e-14,-2.127e-14,-20.2968,8.13012,-85.1702,122.013,3.81486,-21.3395,25.8419,7.12502,5.04654,-4.07802,-2.82274e-14,-2.127e-14,17.8969,-8.21759,83.9535,118.243,0.494709,-11.5809,9.13311,7.12502,14.4609,38.6092,-36.9295,1.2776,10.4688,56.4542,-22.9878,-3.69286,-3.65072,-18.518,-7.51491,-8.35811,35.3571,-18.3468,3.10099,-33.8069
1.35452,17.1087,-4.80984,11.5001,-1.54169,3.55525,11.601,-0.592713,-8.49124,1.81137,-1.83694,-0.0283975,-4.33314,-0.780956,5.03521,-22.1747,-5.65612,-12.9463,20.7865,-5.72965,8.77481,11.0377,-2.58416,4.42727,-5.86415e-15,-1.09332e-14,-21.46,8.52202,-85.7774,122.934,3.18964,-20.8378,25.4482,7.12502,5.53094,-4.45961,-5.86415e-15,-1.09332e-14,17.6179,-8.45529,83.7186,118.819,0.594252,-11.3976,9.02354,7.12502,14.6374,38.4869,-35.9414,1.23524,11.5281,55.7632,-23.074,-4.60445,-3.88527,-18.0558,-8.69606,-7.70877,35.2704,-16.7339,4.55141,-35.2706
1.20309,17.1837,-4.73057,11.3306,-0.973402,3.40156,11.289,-0.65625,-8.58975,1.67074,-1.91356,-0.112047,-4.29747,-0.815006,5.00531,-21.9138,-5.66282,-12.8749,20.7376,-5.93281,9.28382,11.0112,-2.61528,4.5742,3.30976e-14,-3.97569e-16,-22.4032,8.77406,-86.3451,123.859,2.485,-19.7955,24.8522,7.12502,6.53726,-5.02694,3.30976e-14,-3.97569e-16,17.5557,-8.72785,83.3859,119.318,0.67881,-11.262,8.89324,7.12502,14.7681,38.3471,-34.875,1.27616,12.3698,54.9208,-22.9798,-5.06481,-3.50563,-17.7711,-9.8677,-7.22472,35.3324,-14.9772,6.28586,-36.1838
1.05095,17.2623,-4.65037,11.0856,-0.307502,3.29688,10.9524,-0.765473,-8.79219,1.63673,-2.05089,-0.135402,-4.11956,-0.8871,5.10249,-21.7924,-5.70289,-12.7718,20.6752,-6.12279,9.60417,10.9977,-2.65757,4.64532,-7.7526e-15,-1.94809e-14,-23.3407,9.27128,-86.6768,124.729,2.31553,-20.1204,25.2702,7.12502,6.2236,-4.61842,-7.7526e-15,-1.94809e-14,17.6923,-8.91771,83.0616,119.81,0.758562,-11.1603,8.94139,7.12502,14.8661,38.388,-33.6049,1.22919,13.0833,53.9594,-22.7452,-4.95835,-2.09586,-17.5845,-10.8867,-6.88409,35.5463,-13.1573,7.76438,-35.4629
0.901428,17.3481,-4.5678,10.8006,0.40484,3.25496,10.6697,-0.904139,-8.98737,1.55289,-2.23509,-0.198337,-4.01824,-0.977631,5.16115,-21.5408,-5.75738,-12.6586,20.6483,-6.34183,9.87335,10.9752,-2.7225,4.69206,6.26172e-15,-5.96354e-15,-24.5417,10.0231,-86.9529,125.469,3.01999,-22.6543,26.9939,7.12502,3.77696,-2.95239,6.26172e-15,-5.96354e-15,17.6636,-9.15423,82.7716,120.298,0.827452,-11.2411,8.89022,7.12502,14.7882,38.3426,-32.2596,1.14124,13.6614,52.907,-22.1349,-4.86618,-2.21108,-17.4103,-11.6875,-6.76154,35.8654,-11.0895,8.99877,-34.4666
0.755614,17.447,-4.48383,10.5156,1.08111,3.0762,10.4112,-1.0353,-8.90828,1.46994,-2.38238,-0.311447,-3.94788,-1.05276,5.00737,-21.4017,-5.88636,-12.608,20.6909,-6.65215,10.2087,11.0173,-2.82404,4.76007,1.2921e-14,-1.59028e-15,-25.5358,10.4048,-87.3442,126.336,3.23589,-22.8858,26.9992,7.12502,3.5534,-2.95089,1.2921e-14,-1.59028e-15,17.6007,-9.4241,82.44,120.757,0.907375,-11.1032,8.89223,7.12502,14.921,38.3348,-30.9759,1.11845,14.2946,51.8233,-21.1342,-4.80681,-2.70407,-17.2883,-12.2355,-6.65162,36.3369,-8.66401,10.3723,-32.9082
0.613396,17.5555,-4.4021,10.2563,1.74235,2.84899,9.78291,-1.16015,-8.76544,1.72105,-2.45615,-0.398202,-3.33183,-1.1282,4.81388,-21.526,-6.13128,-12.6232,20.3968,-7.04974,10.5649,11.0014,-2.95909,4.8204,-1.15295e-14,-1.27222e-14,-25.7221,10.5528,-87.5766,127.127,3.49708,-22.5033,26.555,7.12502,3.92271,-3.38868,-1.15295e-14,-1.27222e-14,18.1262,-9.65118,82.0963,121.137,0.983225,-10.7966,8.95518,7.12502,15.2165,38.3756,-29.8347,0.96169,14.9105,50.7909,-19.7192,-4.5222,-2.41563,-17.3376,-12.7012,-6.59829,36.988,-6.06942,11.8452,-29.1226
0.481094,17.6579,-4.32143,10.0112,2.42317,2.69333,9.48734,-1.33521,-8.65973,1.7143,-2.64798,-0.421366,-3.15259,-1.23233,4.73923,-21.6773,-6.24969,-12.7058,20.4006,-7.24854,10.8569,11.0751,-3.01742,4.90985,1.07344e-14,-1.27222e-14,-26.2406,10.9417,-87.6728,128.001,3.6254,-22.2862,26.6269,7.12502,4.13237,-3.31279,1.07344e-14,-1.27222e-14,18.0911,-9.78956,81.9111,121.563,1.06544,-10.752,9.04731,7.12502,15.2594,38.4645,-28.7641,0.499715,15.3916,49.8688,-17.995,-3.75775,-0.944498,-17.4661,-13.0528,-6.74218,37.8337,-3.99245,13.4204,-24.7383
0.360786,17.748,-4.24387,9.70892,3.00875,2.47208,9.65674,-1.53768,-8.40619,1.38333,-2.92558,-0.409325,-3.56802,-1.34367,4.65604,-21.7109,-6.20116,-12.7114,20.7224,-7.22281,10.9365,11.2011,-2.9972,4.955,5.22804e-14,7.95139e-16,-26.9887,11.6258,-87.7614,128.767,3.8124,-22.4043,26.9196,7.12502,4.0184,-3.02227,5.22804e-14,7.95139e-16,17.4008,-9.85597,81.8315,122.046,1.2066,-10.927,9.15485,7.12502,15.0908,38.5848,-27.7573,-0.0625223,15.8712,49.1128,-16.2655,-2.72441,0.275963,-17.5199,-13.2385,-6.97444,38.9017,-3.13478,15.2915,-22.5204
0.250233,17.8365,-4.1726,9.36062,3.46849,1.92101,9.16417,-1.71157,-7.76495,1.53153,-3.03522,-0.355781,-3.15331,-1.42785,4.33786,-21.7961,-6.2199,-12.7229,20.6454,-7.28207,11.1343,11.2065,-2.99903,5.01949,3.57812e-15,8.34896e-15,-26.831,12.1541,-87.6679,129.407,4.07468,-22.5689,26.849,7.12502,3.85945,-3.09576,3.57812e-15,8.34896e-15,17.5073,-9.96406,81.5899,122.49,1.38467,-11.161,9.3029,7.12502,14.8654,38.7496,-26.9363,-0.761842,16.6661,48.5462,-14.4282,-1.68866,-0.385509,-17.5916,-13.1808,-6.98567,40.2028,-3.29353,17.0919,-23.2706
0.151989,17.9219,-4.10501,9.03913,3.7905,1.39204,9.1793,-1.8378,-7.09357,1.28235,-3.147,-0.247836,-3.43909,-1.47266,4.09476,-21.8011,-6.19513,-12.8569,21.01,-7.27008,11.2737,11.354,-2.98925,5.10941,-3.26007e-14,-7.95139e-16,-27.2766,12.7779,-87.4999,130.224,4.08288,-22.5904,26.7186,7.12502,3.83864,-3.22662,-3.26007e-14,-7.95139e-16,16.9487,-10.0989,81.5953,123.054,1.46737,-11.3491,9.50287,7.12502,14.6842,38.9629,-26.3381,-1.7589,17.3688,48.1781,-12.1972,-0.463713,0.132443,-17.7389,-12.899,-7.17633,41.6513,-3.85784,16.6479,-22.4168
0.0647302,18.0003,-4.04329,8.63176,3.93358,1.05179,9.03825,-1.90823,-6.61349,1.25682,-3.18062,-0.16522,-3.4047,-1.49598,3.90982,-21.897,-6.10464,-12.8097,21.1309,-7.16767,11.3141,11.4026,-2.93189,5.13865,1.92821e-14,1.74931e-14,-27.2843,13.4234,-87.0649,131.016,3.79172,-22.6222,26.7131,7.12502,3.80792,-3.23264,1.92821e-14,1.74931e-14,16.6126,-10.1905,81.6802,123.549,1.4649,-11.6174,9.63153,7.12502,14.4257,39.1102,-25.8341,-2.95095,17.7842,48.0121,-9.38615,0.820034,2.36344,-17.8137,-12.4485,-7.74633,43.1513,-4.19958,15.4082,-21.4851
-0.0203662,18.0782,-3.98574,8.19287,3.92755,0.597254,8.90055,-1.91627,-6.10728,1.27489,-3.12576,0.00504667,-3.33286,-1.47768,3.7911,-21.9942,-5.9578,-12.6125,21.2075,-6.99843,11.2271,11.4135,-2.84682,5.10366,-3.50855e-14,3.57812e-15,-27.1241,14.0464,-86.4473,131.723,3.53837,-22.859,26.8306,7.12502,3.57925,-3.11913,-3.50855e-14,3.57812e-15,16.282,-10.2658,81.9508,124.053,1.40269,-11.6312,9.59731,7.12502,14.4123,39.0769,-25.5023,-4.12396,18.2723,48.0314,-6.13565,1.731,3.92209,-17.846,-11.7266,-8.26783,44.6067,-4.61709,13.3073,-22.0041
-0.107023,18.1556,-3.93221,7.83255,3.69984,0.112757,8.84074,-1.85413,-5.72584,1.16352,-2.99804,0.257068,-3.43562,-1.41256,3.82728,-21.9638,-5.87267,-12.5522,21.3438,-6.88363,11.1151,11.435,-2.80482,5.07505,2.73329e-14,-2.78299e-15,-27.0389,14.5929,-85.8366,132.417,3.23184,-23.1281,27.0502,7.12502,3.31938,-2.90372,2.73329e-14,-2.78299e-15,15.7402,-10.3436,82.3769,124.634,1.29628,-11.5407,9.62442,7.12502,14.4996,39.0978,-25.4692,-5.08281,18.7428,48.21,-2.58121,2.2541,4.59913,-17.847,-10.7445,-8.78747,45.8998,-5.44409,10.8032,-22.6462
-0.195027,18.2261,-3.87818,7.54087,3.20886,-0.208868,8.6367,-1.72509,-5.6313,1.12637,-2.7973,0.509684,-3.37361,-1.3149,4.00862,-22.0592,-5.86186,-12.6016,21.3966,-6.81866,11.024,11.4619,-2.788,5.06089,1.43125e-14,1.03368e-14,-26.6596,15.0189,-85.1582,133.127,2.67089,-23.0818,27.1348,7.12502,3.36413,-2.81838,1.43125e-14,1.03368e-14,15.2636,-10.3676,82.8171,125.244,1.16381,-11.4689,9.67117,7.12502,14.5687,39.1395,-25.6761,-5.75682,18.9478,48.5006,1.26293,2.48144,5.06785,-17.7203,-9.52357,-9.56034,46.9375,-6.44385,8.05185,-22.864
-0.282502,18.2902,-3.82122,7.20504,2.60021,-0.296941,8.36068,-1.58261,-5.75878,1.20862,-2.5946,0.677909,-3.14221,-1.22214,4.2213,-22.2678,-5.8058,-12.4893,21.3727,-6.70204,10.8486,11.4642,-2.74092,4.99282,-6.4605e-15,7.95139e-16,-26.0613,15.4591,-84.5128,133.811,2.06304,-23.0044,27.0537,7.12502,3.43889,-2.89827,-6.4605e-15,7.95139e-16,14.9284,-10.3475,83.1278,125.851,1.00112,-11.5146,9.74541,7.12502,14.5248,39.217,-25.8926,-6.22691,18.7626,48.8629,5.37745,2.46935,6.12964,-17.3438,-8.3147,-10.6547,47.64,-7.2904,5.09025,-21.7019
-0.372307,18.346,-3.76592,6.80424,1.93052,-0.271394,8.2283,-1.41913,-6.02114,1.22929,-2.38826,0.794254,-3.05433,-1.12022,4.46471,-22.3875,-5.71649,-12.3124,21.4574,-6.5731,10.6422,11.4853,-2.68993,4.90811,-2.127e-14,1.59028e-15,-25.5055,15.8279,-84.0283,134.326,1.57369,-23.2079,27.118,7.12502,3.24234,-2.83705,-2.127e-14,1.59028e-15,14.4307,-10.3724,83.3977,126.4,0.747223,-11.8452,9.39994,7.12502,14.2061,38.8941,-26.0937,-6.37488,18.3551,49.2823,9.24897,2.12714,7.94701,-16.7297,-7.35576,-11.8812,47.9589,-8.02766,2.35223,-19.5003
-0.462574,18.3919,-3.70788,6.35679,1.10841,-0.253182,8.08197,-1.23516,-6.22584,1.26439,-2.14937,0.859148,-2.95454,-1.00387,4.61887,-22.462,-5.61206,-12.2116,21.5604,-6.46255,10.65,11.5196,-2.62921,4.91669,2.10712e-14,-1.59028e-15,-24.8593,16.1151,-83.6868,134.652,1.31033,-23.6037,27.1121,7.12502,2.8601,-2.84851,2.10712e-14,-1.59028e-15,13.8748,-10.3598,83.5529,126.97,0.590195,-12.1188,9.15292,7.12502,13.9425,38.6654,-26.2765,-6.19655,17.897,49.7681,12.2228,2.15728,9.31187,-15.8927,-6.47692,-13.0921,47.895,-8.7949,-0.0329615,-20.4351
-0.552529,18.4285,-3.64702,5.92691,0.14806,-0.0594615,7.95213,-1.05661,-6.6085,1.27271,-1.9355,0.881776,-2.88623,-0.896698,4.83397,-22.5991,-5.44858,-12.0582,21.7344,-6.28844,10.6691,11.5827,-2.53262,4.93431,-1.2921e-15,1.39149e-14,-24.1571,16.4561,-83.3783,134.918,1.0505,-23.8322,26.8245,7.12502,2.63942,-3.13894,-1.2921e-15,1.39149e-14,13.2451,-10.1872,83.6555,127.562,0.482381,-12.117,9.27021,7.12502,13.9443,38.7826,-26.4721,-5.84518,17.2085,50.3482,13.9944,3.33749,9.77529,-14.9304,-5.6776,-14.4732,47.4753,-9.38771,-2.11908,-26.568
-0.64467,18.4488,-3.58792,5.51347,-0.859458,0.194001,7.86565,-0.892732,-7.06615,1.18472,-1.75285,0.903724,-2.93906,-0.797065,5.0979,-22.7089,-5.23964,-11.8514,22.0654,-6.05398,10.5766,11.6861,-2.41962,4.91576,-3.18552e-14,2.98177e-15,-23.5456,16.8462,-83.187,135.093,0.800709,-23.9511,26.6675,7.12502,2.52456,-3.2973,-3.18552e-14,2.98177e-15,12.3778,-9.99252,83.7576,128.183,0.325215,-12.304,9.57028,7.12502,13.7641,39.095,-26.7077,-5.30264,16.4404,51.0367,14.4378,4.66944,8.91005,-13.918,-5.03036,-15.8636,46.7978,-9.82474,-4.07053,-26.6098
-0.736119,18.456,-3.52775,5.15087,-1.80008,0.409646,7.5753,-0.759224,-7.35094,1.13268,-1.57887,0.89672,-2.8478,-0.710094,5.22808,-22.6744,-5.06047,-11.6291,22.3025,-5.85829,10.418,11.7295,-2.33442,4.859,-1.04859e-14,-4.96962e-15,-22.9422,17.1463,-83.125,135.108,0.87142,-24.3831,26.74,7.12502,2.10738,-3.22937,-1.04859e-14,-4.96962e-15,11.5912,-9.861,83.8114,128.83,0.246745,-12.4865,9.87157,7.12502,13.5882,39.4081,-27.0299,-4.5581,15.6862,51.8027,13.8615,4.7208,8.7978,-12.9544,-4.63272,-17.167,45.9022,-10.1492,-5.99415,-28.0675
-0.822254,18.4485,-3.4687,4.87481,-2.5347,0.589952,7.23427,-0.705942,-7.39486,1.07699,-1.48751,0.864733,-2.72822,-0.66771,5.20266,-22.6298,-4.93634,-11.3532,22.4766,-5.72607,10.1539,11.7506,-2.28604,4.73855,-4.17448e-15,-1.53064e-14,-22.2357,17.3742,-83.1346,134.988,1.18646,-24.8378,26.6243,7.12502,1.66824,-3.34891,-4.17448e-15,-1.53064e-14,11.0892,-9.66091,83.7882,129.322,0.330973,-12.5844,10.0839,7.12502,13.4938,39.6268,-27.4157,-3.90751,14.9339,52.5385,10.7667,2.73209,1.7798,-12.151,-4.53023,-18.3674,44.8666,-10.1421,-7.97664,-28.4802
-0.9044,18.43,-3.4064,4.62794,-3.1248,0.76641,6.87181,-0.734045,-7.35703,1.02826,-1.49491,0.863194,-2.57633,-0.676614,5.17127,-22.6935,-4.79614,-11.2051,22.6652,-5.54922,10.0175,11.8022,-2.2103,4.69769,-8.34896e-15,1.98785e-15,-21.483,17.6741,-83.1563,134.861,1.4893,-25.2697,26.3861,7.12502,1.2511,-3.59001,-8.34896e-15,1.98785e-15,10.7967,-9.28755,83.7335,129.61,0.525614,-12.8501,10.127,7.12502,13.2377,39.6867,-27.7582,-3.42939,14.1226,53.1234,7.73746,0.893779,-1.59282,-11.3748,-4.62524,-19.5365,43.7185,-9.90536,-10.1363,-27.4813
-0.98811,18.4047,-3.34122,4.30804,-3.54115,0.742682,6.59824,-0.805498,-7.12293,0.992098,-1.55053,0.948333,-2.45694,-0.709966,5.12572,-22.7496,-4.62649,-11.1375,22.93,-5.33468,9.9767,11.8832,-2.11367,4.71711,-2.14687e-14,-2.45499e-14,-20.7738,17.9737,-83.1638,134.746,1.825,-25.9743,26.5002,7.12502,0.570583,-3.47876,-2.14687e-14,-2.45499e-14,10.508,-8.91945,83.7237,129.755,0.671619,-13.2336,9.79867,7.12502,12.868,39.382,-27.94,-2.8453,13.4917,53.4578,5.08696,-0.591999,-2.99855,-10.5337,-4.92166,-20.4326,42.4947,-9.59034,-12.4787,-25.9136
-1.07125,18.3683,-3.27602,3.98143,-3.79878,0.520214,6.49293,-0.882139,-6.68014,0.848773,-1.61319,1.12284,-2.54581,-0.737308,5.06245,-22.5519,-4.50933,-11.1372,23.168,-5.19543,9.93063,11.9167,-2.06402,4.73169,-1.21134e-14,1.71949e-14,-20.1304,18.0994,-83.093,134.538,1.97681,-26.8959,27.4995,7.12502,-0.319592,-2.48003,-1.21134e-14,1.71949e-14,10.0861,-8.68118,83.8789,129.882,0.9333,-13.3594,9.67781,7.12502,12.7467,39.2687,-28.009,-2.24788,13.0364,53.4996,3.11966,-1.66188,-2.85761,-9.71255,-5.37836,-21.0671,41.2588,-9.30638,-14.4471,-25.2709
-1.15386,18.3199,-3.21033,3.72586,-3.89034,0.315048,6.38321,-1.01086,-6.28787,0.655987,-1.74853,1.34486,-2.67137,-0.798191,5.08385,-22.2754,-4.38526,-11.0493,23.3838,-5.0369,9.71894,11.9161,-2.02053,4.66891,1.27626e-14,-8.79622e-15,-19.4135,18.1933,-82.9828,134.19,2.13613,-27.4937,28.2844,7.12502,-0.896898,-1.69342,1.27626e-14,-8.79622e-15,9.72896,-8.46371,84.1662,130.033,1.17864,-13.3221,9.86472,7.12502,12.7827,39.4534,-28.033,-1.81164,12.5148,53.2716,1.72774,-2.29347,-2.22479,-9.01462,-6.01826,-21.6808,40.0679,-8.85596,-16.0804,-24.6191
-1.23658,18.266,-3.14239,3.55336,-3.85159,0.0353811,6.15961,-1.15864,-5.79514,0.551717,-1.89301,1.58529,-2.64284,-0.873122,5.06239,-22.1842,-4.31341,-10.8484,23.4972,-4.92687,9.37765,11.9118,-1.9993,4.52441,1.49275e-14,1.07841e-14,-18.6647,18.188,-82.8167,133.884,2.56531,-26.9929,27.5063,7.12502,-0.413208,-2.47306,1.49275e-14,1.07841e-14,9.69515,-8.36969,84.4928,130.149,1.21579,-13.3683,10.1727,7.12502,12.7381,39.7641,-28.0499,-1.40672,12.0554,52.8281,0.569814,-2.60888,-3.27907,-8.50487,-6.83384,-22.1637,38.9875,-8.06142,-17.6254,-23.0887
-1.32099,18.2087,-3.07349,3.40339,-3.76347,-0.345368,5.94458,-1.27972,-5.21627,0.471053,-1.9981,1.84189,-2.60286,-0.930459,5.00489,-22.3202,-4.3205,-10.9166,23.7561,-4.94141,9.46432,12.045,-2.00018,4.57652,2.58047e-14,-7.85199e-15,-18.1019,17.9977,-82.5745,133.712,3.0334,-26.1539,26.438,7.12502,0.397121,-3.54141,2.58047e-14,-7.85199e-15,9.79726,-8.435,84.8122,130.158,0.998833,-13.6123,10.4192,7.12502,12.503,40.0252,-28.0607,-0.98897,11.7141,52.2564,-0.546945,-2.93507,-5.49022,-8.13657,-7.69345,-22.4948,38.0353,-6.8122,-19.1536,-17.067
-1.41022,18.1346,-3.00953,3.19062,-3.62286,-0.704884,5.87482,-1.4107,-4.76703,0.394365,-2.13305,2.12255,-2.63205,-0.999198,5.05284,-22.5339,-4.32292,-11.0281,24.0277,-4.95228,9.64062,12.2029,-1.99034,4.67313,1.38901e-14,6.16232e-15,-17.6215,17.8432,-82.3458,133.527,3.5936,-26.132,26.175,7.12502,0.418234,-3.8043,1.38901e-14,6.16232e-15,9.96735,-8.46835,85.1425,130.043,0.746051,-13.9438,10.4915,7.12502,12.1833,40.1167,-28.012,-0.605999,11.3666,51.6551,-1.67245,-3.53171,-5.80182,-7.77028,-8.50917,-22.823,37.2598,-5.45247,-20.4015,-14.4412
-1.50458,18.0469,-2.94914,2.97129,-3.51814,-1.05909,5.80235,-1.52306,-4.4255,0.352611,-2.25011,2.41038,-2.62191,-1.05999,5.16705,-22.551,-4.31411,-10.7867,23.9316,-4.93015,9.33519,12.1494,-1.99583,4.51212,2.21148e-15,3.18055e-15,-16.9508,17.7363,-82.1669,133.292,4.01551,-26.3733,26.0654,7.12502,0.185176,-3.91425,2.21148e-15,3.18055e-15,10.3019,-8.51307,85.48,129.911,0.615507,-14.1585,10.48,7.12502,11.9763,40.1174,-27.9562,-0.177323,11.0345,51.0643,-2.71611,-4.44192,-4.46707,-7.48005,-9.22261,-23.1225,36.8218,-4.55667,-21.1926,-17.1553
-1.60042,17.956,-2.89074,2.7868,-3.46119,-1.28789,5.66336,-1.63574,-4.30161,0.274345,-2.37948,2.72728,-2.60105,-1.12397,5.43455,-22.4463,-4.29466,-10.6631,23.7882,-4.85434,9.01,12.0504,-1.99352,4.37198,1.09332e-14,-1.27222e-14,-16.3459,17.7506,-81.9264,133.167,4.24965,-26.5336,25.9019,7.12502,0.0303527,-4.07785,1.09332e-14,-1.27222e-14,10.647,-8.48458,85.8043,129.767,0.546369,-14.5246,10.4639,7.12502,11.6232,40.1215,-27.9298,0.276144,10.5751,50.4905,-4.00014,-5.51905,-2.64567,-7.25285,-9.5743,-23.5224,36.9166,-4.41785,-21.1023,0.474225
-1.69815,17.8712,-2.83957,2.59409,-3.33778,-1.35511,5.57035,-1.679,-4.37011,0.242797,-2.43345,2.92632,-2.56346,-1.15003,5.68346,-22.6213,-4.37602,-10.6069,23.8262,-4.97992,9.02523,12.1135,-2.03871,4.34767,-1.0461e-14,2.38542e-15,-15.8718,17.4894,-81.7087,133.188,4.46139,-26.7568,25.6408,7.12502,-0.18516,-4.3389,-1.0461e-14,2.38542e-15,11.086,-8.76977,86.0566,129.619,0.57132,-14.8781,10.3522,7.12502,11.2823,40.0288,-27.8527,0.613504,9.99681,49.9224,-5.82386,-6.85222,-1.5275,-6.82645,-9.66908,-24.0356,37.5927,-5.04109,-19.6615,3.48559
-1.79419,17.7905,-2.79712,2.39084,-3.24029,-1.55026,5.6082,-1.76871,-4.44259,0.124512,-2.55172,3.21948,-2.67578,-1.20097,6.04717,-22.4014,-4.34366,-10.6329,23.7745,-4.97896,9.13715,12.0543,-2.03126,4.39422,2.03754e-15,-9.14409e-15,-15.4061,17.4426,-81.5086,133.16,4.5686,-26.9834,25.4673,7.12502,-0.404013,-4.5121,2.03754e-15,-9.14409e-15,11.4306,-8.91756,86.309,129.524,0.589568,-15.0253,10.2614,7.12502,11.1404,39.9456,-27.7525,0.802979,9.64971,49.3617,-7.3734,-8.73898,-0.743413,-6.26308,-9.63739,-24.2915,38.7318,-7.60301,-15.418,-5.83517
-1.88953,17.7028,-2.75419,2.19457,-3.18873,-1.73967,5.69424,-1.78026,-4.41685,0.141593,-2.56314,3.41397,-2.69703,-1.20605,6.24244,-22.7408,-4.41558,-10.4868,23.7617,-5.11509,9.19393,12.1297,-2.06298,4.36728,3.21037e-14,2.78299e-15,-14.593,17.0415,-81.2745,133.133,4.61114,-27.1652,25.242,7.12502,-0.579612,-4.73698,3.21037e-14,2.78299e-15,12.45,-9.22304,86.2936,129.286,0.699932,-15.216,10.5563,7.12502,10.9564,40.2504,-27.6341,0.927311,9.33691,48.8333,-8.35158,-10.8241,2.02878,-5.88082,-9.47917,-24.4455,40.0655,-9.71248,-12.6175,-8.96581
-1.98665,17.6112,-2.71099,2.02434,-3.14918,-1.88054,5.75491,-1.7875,-4.50205,-0.01956,-2.57583,3.56985,-2.88617,-1.20023,6.4655,-22.2192,-4.43133,-10.3192,23.438,-5.23977,9.2179,11.9127,-2.1108,4.31584,-1.15792e-14,0,-14.2974,16.6631,-81.2176,133.148,4.65387,-27.4035,24.9969,7.12502,-0.809838,-4.9813,-1.15792e-14,0,13.0093,-9.57763,86.2823,129.046,0.884693,-15.4195,10.6226,7.12502,10.7602,40.327,-27.4982,0.941432,9.0217,48.3631,-8.83289,-12.2964,6.25856,-5.69797,-9.28954,-24.5579,41.2962,-11.6679,-11.1457,-7.71725
-2.08734,17.5241,-2.66721,1.73333,-3.15175,-2.04069,5.7884,-1.78568,-4.62396,0.0864563,-2.57954,3.70132,-2.78286,-1.20631,6.67365,-22.2764,-4.48193,-10.163,23.2327,-5.39252,9.37032,11.8632,-2.14323,4.31522,-9.34288e-15,1.70955e-14,-13.5054,16.2303,-81.1534,133.099,4.3847,-27.4406,25.0408,7.12502,-0.845665,-4.93728,-9.34288e-15,1.70955e-14,13.8653,-9.94372,86.1635,128.819,1.15708,-15.4463,10.5957,7.12502,10.7343,40.3014,-27.2664,0.798523,8.85124,48.0751,-8.8215,-12.6216,7.99599,-5.46574,-9.10137,-24.5134,42.2333,-13.601,-9.83872,-7.88162
-2.19001,17.4296,-2.62244,1.32922,-3.19193,-2.33183,5.20531,-1.79252,-4.5327,0.795794,-2.5675,3.7248,-1.72379,-1.25656,6.59589,-22.9656,-4.56257,-10.0098,22.9117,-5.62477,9.90794,11.9159,-2.14638,4.44633,1.04362e-15,-1.98785e-14,-11.7573,15.5423,-81.0951,132.974,3.8047,-27.1152,24.9912,7.12502,-0.531331,-4.98788,1.04362e-15,-1.98785e-14,15.6488,-10.3202,85.5679,128.597,1.49609,-15.3848,10.7414,7.12502,10.7936,40.4441,-26.9197,0.464161,8.94637,47.9864,-8.68723,-11.4068,5.63025,-5.02316,-9.07623,-24.229,42.9803,-15.5189,-8.31943,-9.29443
-2.29739,17.3019,-2.58521,0.974162,-3.2643,-2.71108,4.60459,-1.85053,-4.22764,1.44124,-2.61728,3.64941,-0.729814,-1.33073,6.29829,-23.3312,-4.58825,-9.70584,22.435,-5.8342,10.3751,11.8373,-2.14386,4.52306,-2.73329e-14,2.34566e-14,-10.1345,14.9864,-81.3566,132.744,3.53421,-26.8068,24.7996,7.12502,-0.233481,-5.18,-2.73329e-14,2.34566e-14,17.1746,-10.6253,84.7304,128.48,1.79738,-15.2838,10.9224,7.12502,10.8911,40.62,-26.7306,-0.0707506,9.24368,48.3949,-8.83127,-8.95282,1.4085,-4.27095,-8.95074,-23.7727,43.6056,-18.0012,-6.71049,-12.6018
-2.40065,17.1966,-2.54456,0.624446,-3.34505,-2.99053,4.79232,-1.86635,-4.29692,1.51903,-2.64654,3.78128,-0.740169,-1.34813,6.48502,-23.2743,-4.57816,-9.47616,22.2385,-5.89406,10.3758,11.7511,-2.15246,4.46695,-2.2413e-14,2.34566e-14,-9.37049,14.7697,-81.5377,132.502,3.44576,-26.6646,24.7849,7.12502,-0.096193,-5.19478,-2.2413e-14,2.34566e-14,17.6328,-10.9319,84.4342,128.37,1.87146,-15.3952,10.8025,7.12502,10.7836,40.5056,-26.4893,-0.723477,9.51607,49.2456,-9.34029,-6.24116,0.153776,-3.86738,-9.44767,-23.3194,44.2151,-19.7867,-6.5593,-9.7873
-2.5076,17.062,-2.50747,0.330108,-3.45011,-3.04587,6.94135,-1.77839,-5.15136,0.118749,-2.62985,4.32453,-3.33702,-1.20096,7.70692,-22.5277,-4.46694,-9.76703,23.2535,-5.68417,10.0181,11.9657,-2.14983,4.44883,2.36057e-14,-1.74931e-14,-10.9274,15.2318,-81.5484,132.481,3.2953,-26.6329,24.7437,7.12502,-0.0655111,-5.23607,2.36057e-14,-1.74931e-14,15.5454,-11.1593,85.329,128.432,1.58386,-15.6256,10.3667,7.12502,10.5614,40.0813,-26.5142,-1.59827,9.62585,50.6175,-9.72905,-3.85768,-0.64513,-3.28255,-9.92129,-23.1477,44.7231,-21.9246,-5.51557,-11.375
-2.61322,16.932,-2.46741,0.0505667,-3.65308,-3.11738,7.21695,-1.76307,-5.44663,0.0274907,-2.63991,4.43383,-3.56784,-1.18803,8.01573,-22.4127,-4.41575,-9.83879,23.2663,-5.65224,10.204,11.9534,-2.12198,4.53956,3.80921e-14,-2.06736e-14,-10.5367,15.223,-81.8286,132.192,3.21047,-26.5603,24.7403,7.12502,0.00455853,-5.23942,3.80921e-14,-2.06736e-14,15.5722,-11.2704,85.1582,128.396,1.53349,-15.5591,10.0374,7.12502,10.6254,39.7488,-26.6343,-2.4275,9.83474,52.1565,-10.0617,-1.57604,-5.03617,-2.62931,-10.4234,-22.9664,45.085,-24.1838,-4.38763,-12.6418
-2.71585,16.826,-2.41969,-0.291228,-3.98205,-3.1636,7.43699,-1.72696,-5.66438,0.0236887,-2.61756,4.47786,-3.68809,-1.16733,8.20054,-22.2368,-4.35803,-9.84365,23.2283,-5.6004,10.2657,11.9003,-2.09649,4.57201,1.93567e-14,-4.41302e-14,-10.1113,15.2331,-82.1825,131.936,3.00301,-26.3981,24.8724,7.12502,0.16127,-5.10729,1.93567e-14,-4.41302e-14,15.6146,-11.3584,84.97,128.439,1.39074,-15.501,9.8051,7.12502,10.6816,39.5136,-26.798,-2.98827,10.0488,53.6725,-10.5191,0.663883,-8.79755,-1.84961,-10.8045,-22.8115,45.2177,-26.5561,-3.19953,-15.2796
-2.81551,16.7316,-2.36509,-0.628755,-4.39878,-2.98819,7.56408,-1.64984,-6.00933,0.0663196,-2.55335,4.39476,-3.71563,-1.12962,8.31094,-22.202,-4.27604,-9.68566,23.2736,-5.53206,10.2113,11.8954,-2.05949,4.53716,-6.11263e-14,4.73108e-14,-9.72641,15.1668,-82.6008,131.631,2.90298,-26.455,25.3602,7.12502,0.106272,-4.61955,-6.11263e-14,4.73108e-14,15.6076,-11.5091,84.801,128.463,1.08606,-15.5297,9.48927,7.12502,10.6539,39.1992,-27.0237,-3.47426,10.0822,54.9955,-11.103,2.34664,-10.0781,-0.934062,-11.0876,-22.9622,45.1553,-28.3541,-1.86812,-17.571
-2.91169,16.6447,-2.31111,-0.97809,-4.90965,-2.97987,7.75368,-1.55168,-6.1618,0.149048,-2.44615,4.3494,-3.75096,-1.07463,8.34778,-22.3918,-4.1741,-9.34076,23.4061,-5.43336,9.96541,11.9522,-2.00983,4.40427,3.67006e-14,1.07344e-14,-9.46308,15.1227,-83.0608,131.334,3.08267,-26.6364,25.8006,7.12502,-0.0688846,-4.17911,3.67006e-14,1.07344e-14,15.5585,-11.6007,84.6808,128.455,0.728734,-15.5782,9.28385,7.12502,10.6071,38.9962,-27.1562,-3.90456,10.3988,56.1217,-11.8422,3.37384,-8.50179,0.0566394,-11.2734,-23.0017,44.9938,-29.5914,-0.669758,-18.1112
-3.00169,16.5677,-2.25709,-1.19073,-5.56479,-3.10604,7.81031,-1.44897,-6.09806,0.196359,-2.30659,4.32824,-3.76256,-1.00719,8.2757,-22.6207,-4.09486,-9.06919,23.6326,-5.36667,9.78975,12.0623,-1.97148,4.30894,2.73329e-16,2.70347e-14,-9.29156,15.2016,-83.5828,131.106,3.38295,-26.7465,25.7111,7.12502,-0.175271,-4.26857,2.73329e-16,2.70347e-14,15.3278,-11.6537,84.6083,128.462,0.333592,-15.4282,9.10875,7.12502,10.7517,38.8136,-27.3647,-4.31994,10.9584,57.1343,-12.6652,4.0934,-6.84862,0.900567,-11.2864,-22.928,44.7973,-30.6384,0.338307,-17.6781
-3.08272,16.4991,-2.1974,-1.18071,-6.35206,-3.14115,7.47215,-1.34506,-6.02258,0.232795,-2.14771,4.2719,-3.56865,-0.939562,8.13793,-22.8176,-4.01183,-8.96165,23.8681,-5.29621,9.80859,12.1819,-1.92264,4.31865,1.3654e-14,-2.50469e-14,-9.15732,15.3483,-84.0698,130.89,3.64934,-27.0124,25.6457,7.12502,-0.432102,-4.33356,1.3654e-14,-2.50469e-14,15.0443,-11.7372,84.5963,128.558,-0.00782536,-15.2581,9.00834,7.12502,10.9158,38.7046,-27.7666,-4.81887,11.4933,58.0473,-13.5057,4.75435,-7.14034,1.56586,-11.2,-23.0249,44.6029,-31.5598,1.5713,-17.045
-3.15605,16.442,-2.13293,-1.1485,-7.12352,-3.04262,7.06106,-1.24283,-6.04087,0.249255,-1.99638,4.19674,-3.35021,-0.874357,8.03445,-22.8385,-3.91787,-8.95615,24.0026,-5.2116,9.9353,12.2328,-1.8678,4.38711,-7.14382e-15,-2.18663e-14,-9.22779,15.5168,-84.447,130.755,3.67898,-27.3581,25.7498,7.12502,-0.765928,-4.22862,-7.14382e-15,-2.18663e-14,14.7726,-11.821,84.7029,128.733,-0.132725,-14.9573,9.09973,7.12502,11.206,38.7805,-28.1516,-5.27991,11.8992,58.8259,-14.3659,5.06993,-6.72099,2.21534,-10.9975,-23.3193,44.3994,-32.2101,3.01893,-16.9959
-3.22357,16.4022,-2.06642,-1.13518,-7.87186,-2.83122,6.79255,-1.14418,-6.10956,0.162705,-1.86108,4.08331,-3.31637,-0.804819,7.93136,-22.6718,-3.84149,-8.96215,24.1144,-5.15501,10.0363,12.2404,-1.83489,4.44139,-3.34952e-14,-2.0276e-14,-9.59314,15.7535,-84.8589,130.717,3.63962,-27.5455,25.637,7.12502,-0.946949,-4.34066,-3.34952e-14,-2.0276e-14,14.3359,-11.9288,84.8793,128.932,-0.126031,-14.7719,9.09495,7.12502,11.3847,38.7659,-28.4671,-5.59239,12.1488,59.4509,-15.2324,5.10287,-5.37737,2.81344,-10.7185,-23.7413,44.1736,-32.5141,4.41893,-17.3967
-3.28671,16.3778,-2.00094,-1.00641,-8.57826,-2.45683,6.15529,-1.09706,-6.22328,0.253756,-1.78224,3.85037,-2.881,-0.786927,7.71197,-22.6753,-3.77388,-8.80912,24.0264,-5.12442,10.0918,12.2006,-1.79989,4.43883,-6.31141e-15,-3.53837e-14,-9.57099,15.9683,-85.2993,130.659,3.52075,-27.6495,25.604,7.12502,-1.04735,-4.37316,-6.31141e-15,-3.53837e-14,14.1756,-12.0596,84.896,129.096,-0.117608,-14.6797,8.87658,7.12502,11.4736,38.5426,-28.8223,-5.77833,12.1504,59.9265,-15.8923,5.31619,-4.79689,3.18571,-10.5281,-24.3307,43.9394,-32.4523,5.69178,-17.4458
-3.34697,16.3667,-1.93881,-0.803204,-9.26556,-2.10233,5.93955,-1.01962,-6.50262,0.0198314,-1.69006,3.77537,-3.01557,-0.723411,7.78469,-22.5453,-3.6744,-8.70053,24.2047,-5.00884,9.95818,12.2231,-1.75897,4.39408,-1.57413e-14,0,-10.0684,16.2604,-85.5378,130.756,3.00598,-27.5716,25.6056,7.12502,-0.972125,-4.37196,-1.57413e-14,0,13.5114,-12.1644,85.3851,129.301,-0.232362,-14.5864,8.65646,7.12502,11.5637,38.3174,-29.1511,-5.68899,12.0815,60.2275,-16.2685,5.73815,-4.71691,3.38641,-10.3508,-24.8551,43.7674,-32.1647,6.68886,-17.7858
-3.4046,16.3728,-1.87667,-0.687362,-9.97619,-1.92554,5.85637,-0.958538,-6.55048,-0.168414,-1.61031,3.70705,-3.18116,-0.669381,7.73473,-22.4553,-3.56191,-8.46999,24.4065,-4.9053,9.78245,12.26,-1.7162,4.31057,-5.56597e-14,2.66371e-14,-10.6041,16.6015,-85.8378,130.893,2.41623,-27.4387,25.604,7.12502,-0.843839,-4.37407,-5.56597e-14,2.66371e-14,12.8722,-12.2899,85.805,129.566,-0.278239,-14.5078,8.53694,7.12502,11.6394,38.1937,-29.2499,-5.2633,12.1179,60.3126,-16.4396,6.00224,-4.57838,3.60909,-10.0269,-25.1323,43.7057,-31.6563,7.56509,-19.837
-3.45914,16.3934,-1.81564,-0.603022,-10.616,-1.83338,5.74094,-0.931246,-6.45551,-0.200929,-1.56363,3.62682,-3.16312,-0.647846,7.58646,-22.6243,-3.48437,-8.19073,24.5451,-4.84757,9.6197,12.3287,-1.68074,4.21425,5.08765e-15,-1.55052e-14,-10.8567,16.9151,-86.1315,130.968,2.08489,-27.2754,25.5266,7.12502,-0.68607,-4.45205,5.08765e-15,-1.55052e-14,12.5049,-12.4471,86.109,129.727,-0.235723,-14.3081,8.3753,7.12502,11.832,38.021,-29.1473,-4.71498,12.1657,60.1571,-16.3984,6.22876,-5.09335,3.71424,-9.67903,-25.2362,43.8059,-30.9153,7.94711,-21.1379
-3.51122,16.4313,-1.75547,-0.479579,-11.1602,-1.67966,5.51096,-0.938446,-6.42387,-0.173745,-1.56119,3.53463,-3.00876,-0.655371,7.46031,-22.8639,-3.40518,-7.99622,24.658,-4.7926,9.59989,12.409,-1.63422,4.18756,-3.41661e-15,7.95139e-15,-10.9413,17.1735,-86.3434,131.034,1.80405,-26.9239,25.4184,7.12502,-0.34659,-4.56105,-3.41661e-15,7.95139e-15,12.3683,-12.6672,86.275,129.943,-0.414792,-13.9501,8.86355,7.12502,12.1772,38.4891,-28.9524,-4.10519,12.0733,59.7631,-16.121,6.69517,-5.11295,3.59792,-9.36791,-25.3065,44.0898,-29.8571,7.83864,-21.8431
-3.55962,16.4849,-1.69705,-0.346918,-11.73,-1.56804,5.29639,-0.968516,-6.37889,-0.16404,-1.58829,3.48348,-2.87552,-0.676034,7.37376,-22.8954,-3.28473,-7.91164,24.6788,-4.66893,9.65655,12.4093,-1.56325,4.21789,1.7754e-14,-3.57812e-15,-11.0522,17.4956,-86.5019,131.09,1.57969,-26.6517,25.4106,7.12502,-0.083696,-4.56914,1.7754e-14,-3.57812e-15,12.2521,-12.7703,86.3992,130.313,-0.513298,-13.4564,9.17506,7.12502,12.6532,38.7718,-28.67,-3.30634,11.9914,59.1619,-15.681,7.16227,-4.3522,3.31086,-9.02346,-25.2543,44.6007,-28.5015,7.38595,-23.7275
-3.60339,16.5474,-1.64362,-0.140205,-12.3572,-1.58189,5.29978,-0.996956,-6.33072,-0.289684,-1.62187,3.57746,-3.00159,-0.68365,7.45212,-22.8487,-3.14135,-7.90688,24.7345,-4.45709,9.60253,12.3963,-1.4773,4.23477,1.70334e-14,5.56597e-15,-11.3022,17.9896,-86.5066,131.089,1.41931,-26.4488,25.2724,7.12502,0.112325,-4.70726,1.70334e-14,5.56597e-15,11.8275,-12.7351,86.7732,130.677,-0.579135,-12.9828,9.04936,7.12502,13.1098,38.6173,-28.3927,-2.39638,12.0386,58.383,-15.0769,7.51475,-2.99236,2.77484,-8.522,-24.9851,45.3656,-26.9263,6.04191,-25.518
-3.64032,16.6183,-1.59093,0.0830358,-12.9159,-1.67564,5.21846,-1.06589,-6.07382,-0.297144,-1.693,3.60927,-2.95702,-0.724948,7.33956,-22.9343,-2.97481,-7.8006,24.7196,-4.26852,9.65954,12.3857,-1.37396,4.2717,2.07481e-15,6.36111e-15,-11.3178,18.3952,-86.5858,130.997,1.42079,-26.2722,25.2631,7.12502,0.282858,-4.71643,2.07481e-15,6.36111e-15,11.5005,-12.7684,86.9776,131,-0.883988,-13.0311,8.95519,7.12502,13.0632,38.5261,-28.0042,-1.62892,12.169,57.4402,-14.4193,7.77725,-1.6854,2.00597,-7.85709,-24.5516,46.3854,-24.9918,4.02033,-25.778
-3.67149,16.7008,-1.53787,0.248551,-13.3035,-1.73884,5.21165,-1.20608,-5.78478,-0.269353,-1.86181,3.62592,-2.90326,-0.817127,7.20032,-23.0451,-2.78161,-7.6146,24.6643,-4.04474,9.64379,12.3566,-1.2561,4.27094,-5.80203e-15,4.37326e-15,-11.3085,18.8226,-86.7162,130.862,1.67231,-26.2066,25.4029,7.12502,0.346229,-4.57653,-5.80203e-15,4.37326e-15,11.1809,-12.8973,87.0576,131.21,-1.71498,-13.8043,8.69909,7.12502,12.3178,38.3163,-27.4726,-1.11379,12.2721,56.3562,-13.7346,7.82602,-1.64457,1.0326,-7.25792,-24.0932,47.6305,-22.771,2.11311,-25.6321
-3.69894,16.7989,-1.48578,0.432824,-13.537,-1.77436,5.21557,-1.39911,-5.53528,-0.23534,-2.10304,3.69482,-2.83572,-0.945291,7.14465,-23.2488,-2.60204,-7.51057,24.7282,-3.77448,9.50232,12.3868,-1.13985,4.24844,3.96203e-14,-3.18055e-14,-11.1716,19.3424,-86.5979,130.763,1.81772,-26.1212,25.3557,7.12502,0.428684,-4.62364,3.96203e-14,-3.18055e-14,11.0244,-12.8918,87.2133,131.362,-2.03581,-14.1287,8.48018,7.12502,12.005,38.1159,-26.9014,-0.871589,12.3692,55.1435,-12.9638,7.70685,-2.22726,-0.201848,-6.74671,-23.5876,49.0308,-20.1894,-0.0156755,-25.131
-3.72155,16.9028,-1.43242,0.672099,-13.7379,-1.86536,5.16926,-1.64779,-5.28691,-0.356971,-2.4148,3.84377,-2.88898,-1.09912,7.18178,-22.7465,-2.3242,-7.43692,24.6112,-3.35924,9.26801,12.189,-0.990565,4.20628,4.44781e-14,1.59028e-15,-11.2312,20.0907,-86.403,130.728,1.75207,-26.0423,25.1749,7.12502,0.504901,-4.8042,4.44781e-14,1.59028e-15,10.6294,-12.5317,87.4852,131.58,-1.02279,-13.5083,8.17783,7.12502,12.6032,37.7776,-26.3,-0.782223,12.5167,53.8422,-12.0551,7.63361,-2.07128,-1.61092,-6.17786,-23.0061,50.5053,-17.1601,-2.32492,-24.7798
-3.73923,17.0065,-1.37923,0.880782,-13.9423,-1.90459,5.16135,-1.81246,-5.03401,-0.379211,-2.61623,3.96069,-2.88051,-1.20331,7.17362,-22.4628,-2.17273,-7.34422,24.3957,-3.11195,9.03794,12.0163,-0.907446,4.13172,-1.25234e-14,2.70347e-14,-11.0495,20.6667,-86.0967,130.647,1.76977,-26.1501,25.0198,7.12502,0.400806,-4.95956,-1.25234e-14,2.70347e-14,10.5643,-12.3695,87.7089,131.654,-0.0688751,-12.9224,8.0633,7.12502,13.168,37.6275,-25.6539,-0.742886,12.5659,52.4691,-11.0298,7.61797,-1.21028,-3.05213,-5.47341,-22.4915,51.9887,-13.8935,-4.47716,-25.5503
-3.75165,17.1165,-1.32712,1.08244,-14.1418,-1.81854,5.14556,-1.9432,-4.92799,-0.425874,-2.7803,4.10797,-2.89169,-1.28496,7.28078,-22.1692,-2.07388,-7.36273,24.2555,-2.90321,8.79646,11.8782,-0.853331,4.06838,2.05494e-14,2.38542e-15,-10.8574,21.2103,-85.6456,130.57,1.65308,-26.2192,25.0052,7.12502,0.334059,-4.9743,2.05494e-14,2.38542e-15,10.4895,-12.4909,87.9627,131.658,0.0765686,-13.005,8.56247,7.12502,13.0884,38.1318,-25.0364,-0.674217,12.4346,51.0168,-9.83283,7.57437,0.499054,-4.61266,-4.72046,-22.1157,53.4447,-10.323,-6.5652,-25.3529
-3.75557,17.2378,-1.27023,1.32144,-14.3615,-1.60874,5.07066,-2.08167,-4.86837,-0.47421,-2.95663,4.21796,-2.86875,-1.37352,7.37233,-22.1279,-1.95023,-7.42942,24.3652,-2.66963,8.64841,11.887,-0.775692,4.06485,1.7667e-14,4.77083e-15,-10.5488,21.8011,-85.1451,130.502,1.35764,-26.174,25.1396,7.12502,0.377704,-4.83985,1.7667e-14,4.77083e-15,10.4499,-12.5794,88.1273,131.551,-0.00756229,-13.1628,9.0482,7.12502,12.9363,38.6272,-24.4776,-0.620451,12.117,49.5038,-8.53024,7.43708,1.95865,-6.34022,-4.04794,-21.9308,54.8245,-6.13247,-8.57437,-23.8139
-3.75549,17.3673,-1.215,1.52729,-14.747,-1.39137,5.02616,-2.11922,-4.55887,-0.40974,-2.98931,4.11282,-2.79195,-1.3997,7.07849,-22.3956,-1.87382,-7.28815,24.553,-2.59597,8.61291,12.0025,-0.729406,4.04859,4.52235e-15,1.82882e-14,-10.1687,22.1286,-84.9056,130.574,1.08112,-25.9122,24.8885,7.12502,0.6305,-5.09027,4.52235e-15,1.82882e-14,10.7474,-12.7534,87.9,131.184,0.105226,-13.3595,9.08604,7.12502,12.7466,38.677,-23.9281,-0.382626,11.781,47.9678,-7.18416,7.31174,2.35202,-8.12093,-3.34589,-21.8166,56.1202,-1.40422,-10.2748,-21.7468
-3.75207,17.4922,-1.16629,1.63272,-15.3087,-1.05325,5.26685,-2.06909,-4.27814,-0.445535,-2.91656,3.88806,-3.00082,-1.35993,6.68765,-22.4436,-1.79485,-6.96402,24.6744,-2.55766,8.44284,12.0485,-0.703164,3.93834,-5.34731e-14,1.90833e-14,-10.0366,22.4475,-84.8785,130.645,0.903566,-25.6655,24.7089,7.12502,0.868858,-5.26909,-5.34731e-14,1.90833e-14,10.9814,-12.8995,87.5298,130.802,0.477903,-13.2093,9.22322,7.12502,12.8915,38.8051,-23.4066,0.163447,11.2873,46.4761,-5.82533,7.21505,2.34406,-9.82869,-2.46196,-21.8804,57.3123,3.01571,-11.4895,-19.1779
-3.74402,17.6055,-1.12042,1.68637,-16.0379,-0.615138,5.44957,-1.9891,-4.22303,-0.356868,-2.81495,3.75723,-3.0351,-1.31146,6.51687,-22.6832,-1.68781,-6.81739,24.7563,-2.3958,8.26598,12.1076,-0.635671,3.87723,-2.05742e-14,0,-9.52274,22.9516,-84.624,130.576,0.707234,-25.5113,24.8828,7.12502,1.01774,-5.09451,-2.05742e-14,0,11.4541,-12.8402,87.177,130.469,0.683038,-13.0494,9.56638,7.12502,13.0456,39.1384,-22.9949,0.856405,10.6529,45.0701,-4.37953,6.87249,2.7733,-11.4495,-1.47955,-22.1234,58.4126,7.03156,-12.3475,-15.6194
-3.73182,17.7113,-1.07479,1.75041,-16.9,-0.196206,5.49487,-1.88072,-4.27299,-0.202373,-2.67447,3.8037,-2.91545,-1.24815,6.58255,-22.9058,-1.58087,-7.01639,24.807,-2.10853,8.10723,12.1437,-0.543843,3.90234,-4.47266e-15,-7.15625e-15,-8.81157,23.6053,-84.0408,130.5,0.557556,-25.4342,24.69,7.12502,1.09219,-5.28698,-4.47266e-15,-7.15625e-15,12.0051,-12.5301,87.0213,130,0.558443,-13.2125,9.56664,7.12502,12.8884,39.1487,-22.6864,1.66946,10.0387,43.7449,-2.8802,6.26219,4.36633,-13.069,-0.476014,-22.3999,59.4494,10.8746,-13.1173,-11.5148
-3.71375,17.8138,-1.0296,1.8052,-17.8654,0.17549,5.66969,-1.71011,-4.15701,-0.185847,-2.44355,3.80332,-3.03455,-1.13068,6.50771,-22.7474,-1.45701,-7.13652,24.8443,-1.8316,7.88041,12.0989,-0.465279,3.88082,-2.49475e-14,-1.90833e-14,-8.47924,24.2136,-83.6258,130.563,0.586092,-25.5054,24.269,7.12502,1.02349,-5.70827,-2.49475e-14,-1.90833e-14,12.3158,-12.2446,86.8536,129.477,0.419975,-13.3664,9.61405,7.12502,12.7399,39.2054,-22.4509,2.58728,9.48656,42.5008,-1.63708,5.58281,4.74518,-14.6799,0.504629,-22.6875,60.4555,14.0725,-13.9274,-8.29826
-3.69102,17.9156,-0.983889,1.79517,-18.8186,0.457751,5.9928,-1.50842,-3.7914,-0.122947,-2.1605,3.68518,-3.20842,-0.991276,6.1641,-22.6774,-1.35255,-7.07559,24.8718,-1.64072,7.64396,12.0749,-0.407028,3.81084,2.56432e-14,-8.74653e-15,-8.03779,24.6262,-83.4007,130.6,0.538097,-25.4734,24.009,7.12502,1.05436,-5.96811,2.56432e-14,-8.74653e-15,12.7723,-12.1344,86.4451,128.946,0.228193,-13.5486,9.56964,7.12502,12.5644,39.1718,-22.1617,3.50508,9.0575,41.3644,-0.939182,4.7325,2.4058,-16.2107,1.42003,-22.9228,61.4377,15.9721,-14.9076,-7.08757
-3.66668,18.0076,-0.938588,1.75316,-19.7506,0.677843,6.02054,-1.31831,-3.17829,0.270159,-1.87564,3.43424,-2.88084,-0.877173,5.51591,-22.9312,-1.30128,-6.72802,24.6956,-1.53315,7.18835,12.04,-0.380043,3.59083,6.26172e-15,2.06736e-14,-7.02754,24.7948,-83.139,130.563,0.544444,-25.3752,23.8595,7.12502,1.14924,-6.11717,6.26172e-15,2.06736e-14,13.7771,-12.1015,85.6621,128.385,0.041989,-13.3636,9.83669,7.12502,12.7426,39.4279,-21.8517,4.49174,8.72571,40.4113,-0.853798,3.77735,0.0313101,-17.6913,2.29152,-23.1164,62.3823,16.2873,-16.0897,-6.37994
-3.64168,18.0787,-0.896995,1.77407,-20.6891,0.90839,6.24036,-1.13508,-2.72579,0.473715,-1.60959,3.29183,-2.84073,-0.755594,5.0895,-23.0766,-1.17565,-6.29103,24.6722,-1.28057,6.43175,12.0296,-0.323661,3.26911,5.35725e-14,-6.36111e-15,-6.43501,25.101,-82.8569,130.628,0.642369,-25.4899,24.1512,7.12502,1.03838,-5.82606,5.35725e-14,-6.36111e-15,14.524,-11.8504,85.0518,127.868,0.00427992,-12.4843,10.4221,7.12502,13.5902,39.9585,-21.7076,5.31844,8.43943,39.7511,-1.331,2.79919,-1.80395,-19.2608,3.05902,-23.3349,63.281,15.423,-17.2447,-4.76277
-3.6177,18.1316,-0.858699,1.84343,-21.6266,1.07647,6.55896,-0.962907,-2.39586,0.572921,-1.36192,3.28168,-2.95093,-0.635493,4.87795,-23.0136,-0.995062,-6.19032,24.5992,-0.942465,6.03088,11.9597,-0.21674,3.15218,-1.66979e-14,3.4191e-14,-5.92164,25.5234,-82.4891,130.654,0.726636,-25.5689,24.2657,7.12502,0.96212,-5.71183,-1.66979e-14,3.4191e-14,15.073,-11.4834,84.5655,127.38,-0.0165847,-12.1444,10.406,7.12502,13.9178,39.9202,-21.7638,5.71776,8.35687,39.4876,-2.13002,1.5613,-4.50993,-20.8746,3.77287,-23.4691,64.1188,13.8456,-18.2197,-4.77618
-3.59716,18.1701,-0.819577,1.91136,-22.5132,1.23464,6.88142,-0.792255,-2.15869,0.64767,-1.11982,3.31636,-3.08247,-0.516279,4.76535,-22.8058,-0.836072,-6.29075,24.3634,-0.634132,5.86457,11.8045,-0.110465,3.14752,5.86415e-15,-1.59028e-15,-5.35557,25.9411,-82.063,130.607,0.745929,-25.4802,24.0451,7.12502,1.04782,-5.93211,5.86415e-15,-1.59028e-15,15.511,-11.1979,84.1271,126.927,0.000769043,-12.4158,10.0487,7.12502,13.6562,39.5807,-21.9135,5.7202,8.41187,39.6819,-3.20566,0.0904615,-5.95402,-22.4922,4.48173,-23.5843,64.8784,11.924,-18.6478,-7.3658
-3.58022,18.1937,-0.779643,1.92171,-23.2702,1.44521,7.19347,-0.634191,-2.06071,0.744608,-0.904189,3.35849,-3.1786,-0.409777,4.7397,-22.6986,-0.71238,-6.29074,24.2217,-0.369998,5.55507,11.7094,-0.0326242,3.06806,-4.83047e-14,2.54444e-14,-4.79911,26.3026,-81.6016,130.596,0.632723,-25.3573,23.803,7.12502,1.16648,-6.17353,-4.83047e-14,2.54444e-14,16.0201,-10.9315,83.6709,126.505,0.248474,-12.5269,9.78166,7.12502,13.5492,39.3208,-22.0072,5.47772,8.4982,40.3264,-4.96307,-1.6402,-6.52759,-24.0768,5.17669,-23.7304,65.5221,10.1074,-18.7265,-9.14194
-3.56623,18.2019,-0.743826,1.84329,-23.9548,1.60682,7.59416,-0.494245,-1.98482,0.869261,-0.714359,3.422,-3.29197,-0.316084,4.75148,-22.5561,-0.590903,-6.32101,24.1079,-0.0961603,5.22229,11.6191,0.0433888,2.98705,3.18055e-15,0,-4.08455,26.5927,-81.1517,130.36,0.481055,-25.2231,23.4626,7.12502,1.29609,-6.51319,3.18055e-15,0,16.54,-10.6131,83.2087,126.024,0.558395,-12.6051,9.29819,7.12502,13.4739,38.8424,-22.0358,4.94519,8.75408,41.3845,-7.16409,-3.46866,-7.82572,-25.6014,5.92534,-23.7948,66.0659,8.62423,-18.8999,-9.2287
-3.55404,18.2025,-0.707681,1.61413,-24.6722,1.85116,8.09535,-0.335181,-2.01193,0.990177,-0.508908,3.45052,-3.46592,-0.212275,4.78376,-22.3136,-0.47789,-6.34843,23.9921,0.156916,4.88564,11.5117,0.109494,2.89972,-2.20651e-14,6.36111e-15,-3.32049,26.8535,-80.7688,129.861,0.222779,-25.1534,23.4911,7.12502,1.36338,-6.48433,-2.20651e-14,6.36111e-15,16.9676,-10.3573,82.7572,125.491,0.752482,-13.0085,8.77332,7.12502,13.085,38.3428,-21.9739,4.19481,8.98165,42.7612,-9.25394,-4.88025,-7.35548,-26.9191,6.70438,-23.9683,66.4365,6.98456,-19.2195,-9.72814
-3.54396,18.1944,-0.671521,1.47311,-25.3032,2.05528,8.51896,-0.179197,-2.00174,1.10074,-0.30477,3.45404,-3.60751,-0.110301,4.76494,-22.1322,-0.405069,-6.32457,23.8737,0.328995,4.57862,11.422,0.149106,2.80301,-5.54609e-14,1.59028e-14,-2.59434,26.9859,-80.4682,129.359,-0.21546,-24.9932,23.6088,7.12502,1.51811,-6.36554,-5.54609e-14,1.59028e-14,17.4277,-10.2262,82.2787,125.049,0.808774,-13.3721,8.47785,7.12502,12.7345,38.0695,-21.9503,3.25457,9.2402,44.3089,-10.7711,-5.63301,-4.636,-28.2323,7.35021,-24.1217,66.6336,5.24156,-19.2972,-10.0657
-3.53574,18.179,-0.63747,1.35833,-25.9042,2.20245,8.98453,-0.0324421,-2.01661,1.21735,-0.115376,3.4705,-3.76429,-0.0152666,4.77427,-21.943,-0.272254,-6.37475,23.7135,0.561096,4.4488,11.3105,0.233524,2.79319,4.87022e-14,1.90833e-14,-1.86805,27.1593,-80.2336,128.899,-0.598637,-24.7846,23.3409,7.12502,1.71962,-6.63192,4.87022e-14,1.90833e-14,17.9195,-10.0227,81.735,124.585,0.715488,-13.6289,8.07506,7.12502,12.4869,37.682,-21.8869,2.45368,9.52759,45.8675,-11.5121,-6.21963,-1.85249,-29.5472,7.99582,-24.1597,66.6528,4.07471,-18.8668,-9.6701
-3.52931,18.1575,-0.604684,1.16835,-26.5688,2.39426,9.54459,0.144594,-2.1365,1.3056,0.103217,3.4814,-4.00617,0.0978192,4.83346,-21.7099,-0.133634,-6.50303,23.6125,0.796454,4.4136,11.2122,0.32368,2.83254,4.4329e-14,-1.59028e-15,-1.18901,27.3735,-80.0746,128.267,-0.791617,-24.692,23.0996,7.12502,1.809,-6.87252,4.4329e-14,-1.59028e-15,18.3502,-9.8034,81.214,124.151,0.48441,-13.7448,7.65275,7.12502,12.3752,37.2665,-21.7018,1.99454,9.73557,47.2627,-11.5551,-6.68694,-1.24543,-30.7557,8.66548,-24.1898,66.4754,3.33847,-17.9531,-9.76944
-3.52607,18.1387,-0.568652,0.95084,-27.2453,2.61718,10.0805,0.298512,-2.33708,1.36431,0.282191,3.5087,-4.26248,0.193538,4.95884,-21.4412,-0.0018429,-6.59948,23.5329,1.0281,4.30097,11.1164,0.404703,2.8368,-3.37934e-14,1.90833e-14,-0.528179,27.6494,-79.9578,127.488,-0.927769,-24.651,22.9578,7.12502,1.84859,-7.01392,-3.37934e-14,1.90833e-14,18.5931,-9.51361,80.7899,123.881,0.238585,-13.6019,7.49288,7.12502,12.5129,37.0982,-21.4463,1.69521,9.84553,48.3275,-10.7883,-6.61442,-3.79647,-31.8272,9.34921,-24.2165,66.1104,2.38516,-16.962,-11.4157
-3.52263,18.1192,-0.526694,0.692327,-27.9277,2.75824,10.6398,0.430063,-2.38155,1.44421,0.444739,3.50821,-4.50746,0.27768,4.96541,-21.0558,0.164553,-6.58901,23.3016,1.28991,4.09403,10.9421,0.500081,2.78714,7.95139e-16,-2.38542e-14,0.0465017,27.9334,-79.9226,126.69,-0.94398,-24.641,22.9386,7.12502,1.85829,-7.03306,7.95139e-16,-2.38542e-14,18.7753,-9.16795,80.3938,123.595,0.0432842,-13.256,7.10668,7.12502,12.8464,36.6914,-20.9573,1.60381,9.91997,48.9158,-9.39078,-5.50401,-6.26916,-32.7096,9.9845,-24.1068,65.5884,1.50934,-16.0444,-12.9153
-3.51852,18.0808,-0.477412,0.49179,-28.5682,2.7992,11.0064,0.537141,-2.22209,1.62029,0.595618,3.46972,-4.54025,0.345863,4.81209,-20.7671,0.315392,-6.48239,23.0686,1.52138,3.82061,10.7907,0.583364,2.69386,8.24956e-14,-4.6118e-14,0.629377,28.0942,-79.9313,125.845,-0.850965,-24.5563,23.0482,7.12502,1.94009,-6.92269,8.24956e-14,-4.6118e-14,19.0243,-8.84663,79.9645,123.364,-0.298935,-12.8097,6.85575,7.12502,13.2766,36.4129,-20.258,1.53707,10.0276,48.958,-7.82828,-3.71481,-8.36069,-33.5645,10.5618,-23.8522,65.0106,0.647946,-15.0888,-14.3185
-3.51892,18.0212,-0.421499,0.365206,-29.17,2.86405,11.1887,0.607023,-2.08292,1.79007,0.696378,3.42451,-4.47125,0.388,4.66899,-20.4501,0.470513,-6.46186,22.8091,1.76688,3.61113,10.6237,0.674796,2.63929,-4.69132e-14,-2.70347e-14,1.1102,28.2622,-79.9714,124.987,-0.706376,-24.4646,23.216,7.12502,2.02867,-6.75413,-4.69132e-14,-2.70347e-14,19.1432,-8.48704,79.5098,123.34,-0.603757,-12.374,7.03849,7.12502,13.6966,36.5678,-19.4459,1.36525,10.1147,48.4622,-6.84139,-1.72118,-9.64303,-34.4735,11.0167,-23.5676,64.4081,-0.580067,-14.0053,-16.7369
-3.52095,17.954,-0.365338,0.389817,-29.6349,2.86025,11.3203,0.619459,-1.97164,1.86029,0.724784,3.4696,-4.47263,0.398755,4.64905,-20.2,0.652223,-6.62176,22.7057,2.07896,3.52052,10.5201,0.79327,2.67153,2.42517e-14,-9.54166e-15,1.42709,28.5337,-79.9403,124.099,-0.546636,-24.4906,23.49,7.12502,2.00357,-6.48033,2.42517e-14,-9.54166e-15,19.0859,-8.06021,79.1869,123.25,-0.928252,-12.1524,6.852,7.12502,13.9102,36.3668,-18.5555,1.1729,10.2518,47.5561,-7.33684,0.272729,-8.26632,-35.4935,11.216,-23.1278,63.7666,-1.71434,-12.8935,-18.7903
-3.52525,17.8832,-0.303044,0.551467,-30.0779,2.81286,11.2937,0.613139,-1.8749,1.87518,0.730288,3.54337,-4.44269,0.39927,4.67101,-20.1148,0.823157,-6.72239,22.7804,2.38922,3.34788,10.5152,0.902305,2.67041,-5.80451e-14,3.49861e-14,1.56384,28.8014,-79.9455,123.255,-0.32849,-24.5456,23.6618,7.12502,1.95044,-6.30905,-5.80451e-14,3.49861e-14,18.9245,-7.64082,78.9942,123.06,-1.34579,-12.1074,6.39731,7.12502,13.9535,35.9091,-17.6809,0.934326,10.3597,46.4409,-8.86072,2.00461,5.23942,-36.5605,11.3405,-22.5645,63.0417,-2.29157,-11.784,-18.9464
-3.5349,17.7982,-0.234562,0.844087,-30.5926,2.75967,11.2406,0.67046,-1.90954,1.71211,0.81254,3.66837,-4.59472,0.44704,4.8122,-19.9599,0.98041,-6.70259,22.9679,2.67255,3.0366,10.5451,0.988717,2.59695,4.81059e-14,-4.45278e-14,1.2198,28.9818,-80.1336,122.567,-0.221082,-24.233,23.6658,7.12502,2.25232,-6.3021,4.81059e-14,-4.45278e-14,18.4274,-7.29173,79.0174,122.988,-1.61683,-11.8423,6.14802,7.12502,14.209,35.642,-17.0315,0.599564,10.4268,45.34,-12.4302,1.16967,-4.2417,-37.6413,11.4192,-21.9297,62.2127,-2.74756,-10.5752,-19.4996
-3.54564,17.7024,-0.168702,1.182,-31.1192,2.75951,11.0738,0.744376,-1.95808,1.62135,0.909547,3.70199,-4.60829,0.498186,4.86113,-19.8893,1.11589,-6.70375,22.981,2.88218,2.94093,10.5267,1.07185,2.59129,2.52457e-14,-3.18055e-14,0.938846,29.0308,-80.347,121.927,-0.219646,-23.8396,23.8192,7.12502,2.63229,-6.14435,2.52457e-14,-3.18055e-14,18.1059,-7.05014,78.9238,122.939,-2.26197,-11.935,6.34455,7.12502,14.1197,35.8448,-16.7001,0.301777,10.4443,44.5714,-14.3111,1.27046,-10.3777,-38.6358,11.3775,-21.2672,61.1103,-3.14322,-9.28971,-21.3063
-3.55225,17.606,-0.103656,1.45879,-31.6975,2.74388,10.9465,0.855395,-1.88318,1.64814,1.06152,3.62068,-4.52162,0.569496,4.70854,-19.9966,1.20683,-6.60043,22.9001,2.99179,2.91497,10.513,1.13035,2.58023,1.94809e-14,-1.43125e-14,0.678169,28.9582,-80.5841,121.395,-0.121465,-23.6981,23.878,7.12502,2.76895,-6.0838,1.94809e-14,-1.43125e-14,17.9868,-6.9945,78.6477,122.881,-3.31739,-12.4614,6.71146,7.12502,13.6124,36.2464,-16.4656,0.0620217,10.4616,44.0581,-15.3277,2.56455,-8.03115,-39.423,11.2214,-20.4544,59.9153,-3.23447,-7.93358,-22.6873
-3.55292,17.5869,-0.0351592,1.71364,-32.4547,2.7388,10.9056,1.00317,-1.83969,1.65166,1.26016,3.56867,-4.51224,0.666347,4.59873,-20.1282,1.3317,-6.48232,22.8271,3.17778,2.76833,10.5061,1.20958,2.53486,9.52179e-14,1.59028e-14,0.259594,29.0158,-80.8397,120.952,0.0542056,-23.726,23.8496,7.12502,2.74202,-6.11255,9.52179e-14,1.59028e-14,17.7647,-6.78743,78.5387,122.963,-3.9458,-12.5652,6.76587,7.12502,13.5123,36.3075,-16.6606,0.595653,10.2307,43.9218,-16.7662,3.38667,-3.88067,-39.7672,10.8823,-19.4755,58.3869,-2.98854,-6.42747,-21.8827
-3.54324,17.4829,0.0300877,1.9255,-33.3918,2.85274,10.9987,1.18706,-1.89658,1.54669,1.49949,3.55301,-4.69793,0.79042,4.57813,-20.1055,1.47777,-6.63801,22.7443,3.44216,2.72241,10.4559,1.31352,2.57865,8.66701e-14,-1.59028e-14,-0.38244,29.1682,-81.0961,120.592,-0.00481152,-23.7883,24.1131,7.12502,2.68181,-5.84974,8.66701e-14,-1.59028e-14,17.3783,-6.39417,78.6262,123.195,-4.2312,-12.1718,6.83078,7.12502,13.8914,36.3468,-16.8308,0.431841,10.0982,43.9174,-18.7743,3.61455,-6.52334,-40.417,10.3488,-18.3757,57.074,-2.34875,-4.89846,-18.3399
-3.52314,17.367,0.0981873,2.07846,-34.5667,2.99853,11.1145,1.48109,-1.88215,1.51599,1.88859,3.48771,-4.82875,0.984217,4.43929,-20.1093,1.56484,-6.82685,22.5423,3.62704,2.70907,10.3702,1.38634,2.62564,-5.70512e-14,1.27222e-14,-1.03377,29.181,-81.2255,120.398,-0.194374,-24.025,24.6156,7.12502,2.45322,-5.35005,-5.70512e-14,1.27222e-14,17.0975,-6.11485,78.7664,123.539,-4.62606,-11.6243,7.08322,7.12502,14.419,36.5623,-17.266,0.173697,9.93633,44.1504,-20.4257,3.55327,-10.8266,-40.9123,9.81243,-17.1629,55.7382,-1.69326,-3.46098,-15.286
-3.49584,17.2744,0.168023,2.34585,-35.7764,2.90187,11.2462,1.75649,-1.62846,1.57124,2.27745,3.40411,-4.86658,1.16955,4.143,-20.3374,1.68403,-6.80078,22.3563,3.82063,2.641,10.3369,1.47473,2.62383,-5.92378e-14,-7.95139e-15,-1.53356,29.1417,-81.4214,120.257,-0.242124,-24.036,24.7963,7.12502,2.44263,-5.16945,-5.92378e-14,-7.95139e-15,16.9346,-5.83012,78.7925,123.935,-5.03838,-11.55,7.09382,7.12502,14.4906,36.5678,-17.8628,0.121912,9.92774,44.4771,-21.5232,3.95979,-9.59545,-41.1946,9.11139,-15.6254,54.4649,-1.08599,-2.31717,-15.1783
-3.46137,17.1837,0.232919,2.68137,-36.9716,2.61778,11.5296,1.96273,-1.29466,1.64065,2.58554,3.35913,-4.96071,1.31348,3.8508,-20.6513,1.88685,-6.64545,22.1662,4.1054,2.53374,10.3168,1.61119,2.60146,-3.45885e-14,-2.22639e-14,-1.88643,29.2077,-81.646,120.11,-0.232355,-23.6846,24.5643,7.12502,2.78198,-5.39728,-3.45885e-14,-2.22639e-14,16.7681,-5.36354,78.775,124.33,-5.37665,-11.5835,6.77654,7.12502,14.4583,36.2529,-18.5103,0.382591,10.0951,45.0399,-22.6827,4.22504,-8.04258,-41.3095,8.28963,-13.8297,53.1075,-0.0230339,-1.39217,-16.5165
-3.4305,17.1054,0.302589,2.72192,-38.2133,2.604,11.8157,2.18298,-1.24667,1.76701,2.87289,3.25218,-5.0012,1.45054,3.65761,-20.799,2.08421,-6.46353,21.803,4.35813,2.4205,10.2062,1.74001,2.56029,-9.14409e-15,-3.97569e-14,-2.309,29.258,-81.893,120.101,-0.171827,-23.2906,24.3592,7.12502,3.16248,-5.59713,-9.14409e-15,-3.97569e-14,16.6577,-4.882,78.7613,124.726,-5.59733,-11.4497,6.6868,7.12502,14.5872,36.1538,-19.1287,0.798103,9.99019,45.8584,-23.8411,3.94635,-10.0183,-41.0049,7.48025,-12.2005,51.6165,1.4369,-0.523903,-16.8716
-3.40774,17.0331,0.380676,2.57872,-39.3747,2.81646,11.8822,2.36475,-1.43576,1.96019,3.07573,3.11396,-4.85222,1.54768,3.58602,-21.0157,2.34826,-6.17792,21.5329,4.69599,2.22397,10.1441,1.90298,2.48881,-1.06151e-13,-4.77083e-15,-2.64306,29.3575,-82.1415,120.134,-0.0204968,-23.1971,24.5429,7.12502,3.25279,-5.41201,-1.06151e-13,-4.77083e-15,16.5912,-4.39337,78.7465,125.144,-5.73225,-11.3864,6.75377,7.12502,14.6482,36.2164,-19.7633,1.13924,9.6252,46.8978,-24.8202,3.83359,-11.1567,-40.452,6.64389,-10.7505,50.1165,3.06117,-0.0399903,-16.8917
-3.38659,16.9525,0.460801,2.38488,-40.397,3.11931,11.9129,2.51516,-1.72646,2.12077,3.22686,2.994,-4.72073,1.62175,3.60081,-21.2256,2.60532,-5.97001,21.3409,5.03975,2.05981,10.1073,2.06354,2.44464,2.14687e-14,-2.22639e-14,-2.99045,29.5017,-82.3833,120.198,0.0364992,-23.1022,24.4947,7.12502,3.3444,-5.45878,2.14687e-14,-2.22639e-14,16.5077,-3.94198,78.7396,125.592,-5.70213,-11.3775,6.83948,7.12502,14.6568,36.3015,-20.4656,1.62791,9.10093,48.1508,-25.6295,4.31464,-9.69616,-39.8738,5.80137,-9.43711,48.6864,4.66106,-0.0641313,-17.445
-3.36516,16.8744,0.542725,2.0271,-41.3562,3.64554,11.8972,2.63453,-2.19086,2.26886,3.31601,2.85388,-4.58096,1.66756,3.7046,-21.3607,2.8482,-5.96638,21.1823,5.37335,2.09749,10.0575,2.22715,2.5025,-3.53837e-14,2.22639e-14,-3.21842,29.6968,-82.574,120.211,0.0562685,-22.6588,24.1061,7.12502,3.77258,-5.84024,-3.53837e-14,2.22639e-14,16.4144,-3.45402,78.8114,125.963,-5.63424,-11.5101,6.64298,7.12502,14.5291,36.1142,-21.2331,2.16145,8.32416,49.5902,-26.1789,5.04788,-9.39346,-39.321,5.09317,-8.49279,47.4079,5.89147,-0.544418,-19.4376
-3.34191,16.7973,0.635075,1.45149,-42.1879,4.32124,11.8059,2.645,-2.74476,2.45632,3.25407,2.76848,-4.35374,1.63726,3.94544,-21.401,3.13504,-6.08499,21.087,5.81824,2.06963,10.007,2.42215,2.57121,3.18055e-15,4.77083e-15,-3.20226,30.1493,-82.5395,120.173,0.13472,-22.6082,23.9141,7.12502,3.82144,-6.03138,3.18055e-15,4.77083e-15,16.2246,-2.78295,78.9848,126.312,-5.63081,-11.7173,6.2804,7.12502,14.3294,35.7659,-21.8816,2.50535,7.372,51.1055,-26.5861,5.59319,-11.2847,-38.7013,4.431,-7.88173,46.3842,6.67223,-1.36086,-22.194
-3.3191,16.7052,0.740357,0.622909,-42.8312,5.06148,11.8279,2.58789,-3.24425,2.6326,3.10825,2.67127,-4.18772,1.56384,4.15264,-21.3004,3.43922,-6.06616,21.043,6.27401,1.87488,9.95986,2.61134,2.55779,-5.725e-14,-1.27222e-14,-3.29039,30.6391,-82.494,120.233,0.208855,-22.9024,23.8737,7.12502,3.53737,-6.07673,-5.725e-14,-1.27222e-14,15.9638,-2.18071,79.1767,126.615,-5.54285,-11.9243,5.96239,7.12502,14.1299,35.4619,-22.2426,2.59512,6.32147,52.5945,-26.9812,6.20962,-13.0905,-37.8905,3.74209,-7.48848,45.6974,6.93089,-2.07326,-24.3383
-3.29863,16.6181,0.848784,-0.238277,-43.2514,5.78941,11.8538,2.51314,-3.50111,2.77418,2.96394,2.43807,-4.03912,1.48793,4.07743,-21.0879,3.69264,-6.1238,20.9642,6.58527,2.03643,9.86857,2.77485,2.65645,1.94809e-13,-6.36111e-15,-3.51181,30.8386,-82.7535,120.319,0.47271,-23.1371,23.801,7.12502,3.31071,-6.15302,1.94809e-13,-6.36111e-15,15.9,-1.87685,79.2383,126.78,-5.25779,-11.6018,6.32474,7.12502,14.4407,35.8023,-22.4193,2.40943,5.29024,53.9122,-27.2395,6.95691,-14.4936,-37.2267,3.33878,-7.43778,45.4309,6.22715,-3.28833,-28.071
-3.27865,16.5407,0.960351,-0.945,-43.4058,6.27178,11.8936,2.35645,-3.58779,2.87947,2.73662,2.30424,-3.92521,1.37082,4.02261,-20.8695,3.95493,-6.38007,20.9251,6.91641,2.42541,9.7708,2.95899,2.86795,6.75868e-15,-9.54166e-15,-3.62969,31.12,-82.8032,120.493,0.581821,-23.1979,23.787,7.12502,3.25198,-6.16797,6.75868e-15,-9.54166e-15,15.9259,-1.62491,79.4607,126.793,-5.16189,-10.6889,6.95506,7.12502,15.3202,36.3676,-22.362,2.22154,4.4771,54.9916,-27.515,7.5844,-15.5567,-36.8019,3.32845,-7.61262,45.6162,4.65203,-5.08151,-31.8366
-3.25993,16.4667,1.07977,-1.37785,-43.2978,6.36105,12.0032,2.20522,-3.38562,2.84502,2.55575,2.25475,-3.99301,1.28112,3.88106,-20.723,4.10218,-6.3937,21.2034,7.09035,2.54217,9.82759,3.04332,2.93781,1.98785e-14,1.59028e-15,-3.93053,31.2845,-82.6302,120.882,0.531617,-23.3174,23.7364,7.12502,3.13659,-6.22026,1.98785e-14,1.59028e-15,15.8604,-1.7385,79.8903,126.759,-5.23058,-10.2145,7.01148,7.12502,15.777,36.3885,-22.018,2.18864,3.96717,55.7985,-28.0179,7.93506,-16.5449,-36.5359,3.46164,-7.72345,46.2254,2.8952,-6.51173,-32.7372
-3.24255,16.3969,1.20469,-1.58956,-42.9876,6.2291,12.0232,1.96858,-3.04405,2.70863,2.2874,2.27698,-4.10987,1.15031,3.7512,-20.621,4.28377,-6.28528,21.7713,7.32822,2.47982,10.0063,3.13296,2.94617,-1.59028e-14,3.18055e-15,-4.17533,31.5634,-82.4052,121.333,0.652953,-23.2976,23.4759,7.12502,3.15566,-6.48047,-1.59028e-14,3.18055e-15,15.6618,-1.89741,80.346,126.725,-5.45327,-10.2291,7.02509,7.12502,15.763,36.4032,-21.4721,2.12994,3.61763,56.3261,-28.6517,8.09947,-17.7387,-36.4381,3.739,-7.87954,47.1391,1.1722,-7.52214,-32.8277
-3.22307,16.3305,1.33158,-1.61372,-42.4836,5.9414,11.9308,1.62677,-2.72008,2.56334,1.88877,2.47959,-4.1724,0.954823,3.84458,-20.6341,4.50409,-6.36145,22.371,7.70806,2.35303,10.2088,3.26135,2.98596,3.57812e-15,2.22639e-14,-4.09824,32.1294,-81.8482,121.804,0.832945,-23.0043,23.256,7.12502,3.43892,-6.69601,3.57812e-15,2.22639e-14,15.3619,-1.92952,80.9338,126.73,-5.8904,-10.1977,7.19568,7.12502,15.7933,36.5714,-20.785,1.96881,3.39583,56.5849,-29.2441,8.11309,-18.8945,-36.4946,4.11282,-8.14058,48.165,-0.644465,-8.60776,-33.1818
-3.20458,16.2773,1.46014,-1.54306,-41.9777,5.53416,11.5529,1.34803,-2.33592,2.56381,1.58347,2.73763,-3.93408,0.796942,3.95067,-20.7348,4.6438,-6.44939,22.804,8.00848,2.13945,10.3777,3.34524,2.98468,5.88403e-14,-1.74931e-14,-3.60512,32.5197,-80.9894,122.31,0.978218,-22.6708,23.4383,7.12502,3.76103,-6.50825,5.88403e-14,-1.74931e-14,15.2192,-2.06509,81.6578,126.723,-6.32864,-10.036,7.05799,7.12502,15.949,36.4213,-19.9568,1.96205,3.32317,56.5623,-29.8733,7.96293,-20.0474,-36.5654,4.52641,-8.41317,49.1416,-2.17504,-9.47267,-32.2648
-3.19193,16.2448,1.58674,-1.41897,-41.5441,5.03575,10.9138,1.16427,-1.96433,2.70265,1.39677,3.02481,-3.41921,0.691332,4.07594,-20.6328,4.74145,-6.60322,22.8487,8.2493,1.90949,10.37,3.41136,2.95827,9.70069e-14,-2.70347e-14,-2.75297,32.644,-79.8982,122.974,0.840888,-22.0322,23.7123,7.12502,4.3777,-6.22247,9.70069e-14,-2.70347e-14,15.2488,-2.36515,82.4014,126.726,-6.61025,-9.85768,6.74359,7.12502,16.1207,36.0931,-19.0063,2.23143,3.44332,56.2763,-30.5399,7.35683,-21.9376,-36.5621,4.9783,-8.66622,49.9101,-3.24186,-9.6108,-29.914
-3.18638,16.2264,1.71076,-1.17566,-41.0664,4.4779,10.5932,1.02738,-1.84689,2.56197,1.24795,3.41418,-3.38252,0.619438,4.44221,-20.5721,4.88952,-6.66576,23.1404,8.54318,1.68278,10.4615,3.49848,2.93638,-4.21423e-14,-1.59028e-15,-2.38252,32.8046,-78.9241,123.904,0.624044,-21.017,23.7039,7.12502,5.35793,-6.20833,-4.21423e-14,-1.59028e-15,14.7815,-2.7707,83.1466,126.833,-6.75408,-9.80764,6.38368,7.12502,16.1689,35.7293,-17.9868,2.50483,3.7234,55.7484,-31.1417,6.48695,-23.1099,-36.465,5.41988,-8.9646,50.3809,-4.52775,-9.28566,-28.6521
-3.18301,16.2206,1.83256,-0.926963,-40.447,4.09838,10.6251,0.891825,-2.02353,2.11875,1.07763,3.79882,-3.85804,0.554966,4.97459,-20.6429,5.04777,-6.54751,23.6713,8.83529,1.38672,10.6796,3.57782,2.87575,-7.31528e-14,3.49861e-14,-2.35436,33.2148,-78.1232,124.803,0.859693,-20.745,23.7399,7.12502,5.62057,-6.16554,-7.31528e-14,3.49861e-14,13.8211,-3.19663,83.8748,127.097,-6.75582,-9.60613,6.09429,7.12502,16.3629,35.424,-16.967,2.58917,3.91874,55.013,-31.5688,5.60249,-23.3338,-36.247,5.56155,-9.41188,50.5087,-5.96274,-8.84789,-29.3306
-3.17894,16.2332,1.95317,-0.510442,-39.6852,3.53346,10.5024,0.752769,-2.01007,1.76474,0.922345,4.19705,-4.15136,0.492656,5.41444,-20.8607,5.16433,-6.38074,24.0575,9.0878,1.00489,10.885,3.63585,2.7726,-4.09496e-14,6.99722e-14,-2.01161,33.539,-77.1181,125.677,1.30813,-20.8829,23.8468,7.12502,5.48742,-6.06212,-4.09496e-14,6.99722e-14,13.1392,-3.71738,84.5739,127.37,-6.66452,-9.1448,6.00546,7.12502,16.807,35.2981,-15.8454,2.72523,4.3406,54.0722,-31.8471,4.69062,-22.9679,-35.9513,5.27068,-9.56353,50.3161,-7.07557,-8.38475,-28.9225
-3.1755,16.2645,2.0766,-0.136927,-38.7602,2.94053,10.3397,0.613012,-1.94463,1.4644,0.770737,4.60149,-4.36445,0.429507,5.8327,-21.0667,5.23375,-6.37876,24.37,9.27089,0.826349,11.0453,3.67747,2.75461,-1.78906e-15,-1.59028e-15,-1.73867,33.7235,-76.1346,126.7,1.81904,-20.4577,23.5167,7.12502,5.89791,-6.38125,-1.78906e-15,-1.59028e-15,12.5865,-4.35295,85.2783,127.632,-6.58475,-8.65028,5.81172,7.12502,17.2831,35.0632,-14.4965,2.89967,4.84362,52.9433,-31.9927,3.60672,-22.9654,-35.4997,4.48019,-9.53663,49.8314,-8.01931,-7.89826,-27.6348
-3.17316,16.3115,2.20332,0.100611,-37.6382,2.56495,9.93188,0.444993,-1.75018,1.30705,0.578425,4.72498,-4.27925,0.333668,5.87794,-21.2974,5.23416,-6.33364,24.4686,9.24837,0.953766,11.1208,3.68204,2.80296,7.7526e-14,-3.18055e-14,-1.49162,33.7269,-75.5494,127.766,2.9674,-20.1949,22.7148,7.12502,6.15164,-7.17586,7.7526e-14,-3.18055e-14,12.3053,-5.20562,85.5974,127.88,-6.61144,-8.23389,5.64788,7.12502,17.6838,34.8637,-13.0291,2.86995,5.19249,51.6454,-31.9355,2.15312,-23.9233,-34.9716,3.13826,-9.57674,49.1259,-8.9287,-7.4512,-27.4571
-3.17312,16.3732,2.32701,0.20595,-36.2497,2.33618,9.51151,0.298912,-1.66158,1.18976,0.398261,4.76761,-4.14635,0.243497,5.89342,-21.5217,5.16173,-6.23074,24.506,9.08339,1.13766,11.1773,3.63871,2.83972,-3.75703e-14,3.65764e-14,-1.40524,33.6263,-75.0513,128.961,4.21003,-19.9829,21.7624,7.12502,6.35633,-8.12227,-3.75703e-14,3.65764e-14,12.1932,-6.24783,85.8568,128.092,-6.63637,-7.73852,5.85827,7.12502,18.1604,35.0305,-11.4236,2.50109,5.4888,50.2363,-31.7246,0.293978,-25.6864,-34.434,1.32805,-9.66009,48.288,-9.33514,-7.10894,-27.4261
-3.17595,16.449,2.44291,0.369408,-34.667,2.1245,8.97748,0.181501,-1.63149,1.12796,0.245442,4.77194,-3.89492,0.164201,5.89405,-21.9534,5.02574,-6.05697,24.5914,8.81497,1.34712,11.2985,3.55429,2.8696,3.45885e-14,-2.22639e-14,-1.3017,33.3911,-74.5206,130.356,5.18928,-19.4414,20.8654,7.12502,6.87904,-9.00288,3.45885e-14,-2.22639e-14,12.3885,-7.40693,85.9916,128.158,-6.62844,-7.36037,6.07967,7.12502,18.5242,35.2177,-9.87107,1.88167,5.81081,48.8148,-31.3589,-1.10064,-25.8961,-34.1034,-0.772729,-9.64223,47.4303,-8.80083,-7.03072,-26.0415
-3.18054,16.5243,2.54823,0.60264,-32.9423,1.90883,8.5588,0.15584,-1.82471,0.974929,0.202586,4.90612,-3.81716,0.149211,6.15074,-22.457,4.75738,-5.95554,24.7864,8.45503,1.34274,11.491,3.3866,2.82627,1.23246e-14,-4.29375e-14,-1.22163,33.162,-73.7406,131.938,6.10923,-19.0729,20.317,7.12502,7.23474,-9.53932,1.23246e-14,-4.29375e-14,12.593,-8.63619,86.3137,128.065,-6.76232,-7.67926,5.45309,7.12502,18.2174,34.62,-8.28231,1.20381,6.19775,47.1981,-30.8728,-2.35586,-25.0582,-33.9802,-2.9294,-9.54632,46.6868,-7.78659,-7.14471,-24.2839
-3.18513,16.5874,2.6446,0.902364,-31.0215,1.68601,8.01787,0.160725,-1.87053,0.869702,0.208119,4.90193,-3.625,0.15196,6.16617,-22.9641,4.34303,-5.84368,24.8605,7.863,1.38816,11.6464,3.12881,2.75736,-1.11319e-13,2.22639e-14,-0.927914,32.7791,-72.917,133.631,6.80969,-18.8027,19.8252,7.12502,7.49559,-10.022,-1.11319e-13,2.22639e-14,13.035,-10.1103,86.4156,127.891,-6.68884,-8.15707,4.91949,7.12502,17.7577,34.1287,-6.62558,0.520209,6.63711,45.4474,-30.3925,-3.1824,-21.5829,-33.9939,-4.86454,-9.56106,46.1011,-7.1455,-7.14609,-26.692
-3.19342,16.7348,2.74402,1.21205,-28.9565,1.55567,7.40793,0.237863,-1.9377,0.806948,0.30468,4.80951,-3.36012,0.197676,6.08944,-23.4408,3.79989,-5.97849,24.7306,7.0486,1.83836,11.6967,2.8153,2.8309,-2.08724e-14,7.95139e-15,-0.335748,32.3862,-71.8525,135.302,7.33633,-18.1656,18.9576,7.12502,8.11055,-10.8668,-2.08724e-14,7.95139e-15,13.7445,-11.8471,86.3531,127.601,-6.29951,-8.28225,5.47881,7.12502,17.6372,34.6989,-4.88407,-0.30536,7.10695,43.4838,-29.8941,-3.99133,-16.4318,-34.5355,-6.904,-9.69537,45.6116,-5.80655,-7.25936,-28.1495
-3.20007,16.8699,2.83289,1.51713,-26.8521,1.42108,6.9326,0.43543,-1.96398,0.714099,0.566325,4.6596,-3.22027,0.328339,5.9156,-23.9219,3.16189,-6.14403,24.6267,6.07408,2.42489,11.7648,2.44606,2.93433,-2.0276e-14,-6.36111e-15,0.546613,31.9407,-70.4868,136.67,7.99759,-17.7459,18.0494,7.12502,8.51552,-11.7589,-2.0276e-14,-6.36111e-15,14.5634,-13.87,86.1485,127.062,-6.0309,-8.37573,6.34263,7.12502,17.5473,35.5707,-3.3271,-1.53371,7.63816,41.5573,-29.1611,-5.98039,-15.0108,-35.0973,-8.8112,-9.7865,45.1887,-4.42356,-7.67578,-31.1312
-3.20013,16.9536,2.90351,1.87095,-24.7959,1.27476,6.65289,0.729448,-1.95898,0.500496,0.962774,4.47497,-3.32844,0.532981,5.67831,-24.1809,2.41489,-6.50425,24.4796,4.93691,3.23702,11.7789,2.02041,3.11864,4.77083e-14,9.54166e-15,1.68294,31.3966,-68.7353,137.877,8.52282,-17.7444,17.3624,7.12502,8.51698,-12.4458,4.77083e-14,9.54166e-15,15.3492,-16.0091,85.8254,126.449,-5.56272,-8.36516,7.07963,7.12502,17.5575,36.3068,-1.92086,-2.64069,8.16625,39.725,-28.4945,-7.38726,-12.3178,-35.746,-10.6733,-9.47448,44.7269,-2.20956,-8.56404,-28.5719
-3.19796,17.0397,2.95808,2.34588,-22.7858,1.06152,6.48782,1.09998,-1.84213,0.274705,1.46657,4.20248,-3.51691,0.789479,5.27416,-24.5342,1.60289,-6.89416,24.3333,3.66767,4.26125,11.8301,1.56206,3.3693,1.33186e-14,9.54166e-15,3.40285,30.4802,-66.4766,138.942,8.44336,-17.8133,16.8662,7.12502,8.45051,-12.9447,1.33186e-14,9.54166e-15,16.4601,-18.1622,85.1424,125.885,-4.66986,-8.23191,7.94738,7.12502,17.6857,37.1631,-0.708466,-3.31071,8.82536,38.1539,-28.3466,-7.1458,-4.75961,-36.641,-11.9058,-9.1965,44.3084,0.238111,-9.80665,-27.7354
-3.19444,17.1279,3.00606,2.85232,-20.9465,0.875574,5.32973,1.43359,-1.12085,0.811815,1.91936,3.44274,-2.30785,0.976105,4.04598,-25.3902,0.853008,-6.76944,23.6888,2.35355,5.20125,11.8187,1.13506,3.48843,5.00937e-14,1.27222e-14,7.01937,28.6744,-63.8709,139.088,8.18142,-18.3651,16.4099,7.12502,7.91794,-13.4218,5.00937e-14,1.27222e-14,19.0786,-20.097,83.0772,125.321,-3.56538,-7.7465,8.89138,7.12502,18.1527,38.0643,0.197032,-3.90742,9.54095,36.8274,-28.098,-6.92447,-0.89162,-37.5672,-12.8985,-8.86449,43.8907,3.10402,-11.0494,-26.2574
-3.19113,17.2273,3.04525,3.31028,-19.3136,0.667709,3.71599,1.7152,0.0679487,1.65529,2.29673,2.41142,-0.479828,1.13853,2.34126,-25.9074,0.248659,-6.42972,22.727,1.1668,6.08059,11.6285,0.77659,3.54706,-1.97791e-14,-1.59028e-15,11.5675,26.3304,-61.4498,138.047,7.73095,-19.0885,15.9267,7.12502,7.21968,-13.9302,-1.97791e-14,-1.59028e-15,22.1524,-21.5573,80.1838,124.963,-2.58972,-7.72787,8.11933,7.12502,18.1707,37.2906,0.98933,-4.52262,10.3549,35.5367,-27.3214,-7.19797,-3.61768,-38.483,-13.4817,-8.5207,43.5696,6.17092,-12.2905,-24.394
-3.18964,17.3332,3.07441,3.64943,-17.9057,0.474038,6.00967,2.3698,-0.864719,-0.301959,3.20522,2.94159,-3.89998,1.63941,3.22966,-24.1145,-0.481921,-7.41563,23.5867,0.359382,6.13168,11.6801,0.300579,3.59632,4.80065e-14,-6.36111e-15,12.4474,25.7404,-58.3136,136.408,6.28411,-19.2521,15.1427,7.12502,7.06179,-14.7194,4.80065e-14,-6.36111e-15,20.0804,-23.3062,81.562,124.233,-4.03292,-8.90913,5.22087,7.12502,17.0339,34.494,1.80073,-4.93454,11.2167,34.3575,-26.3301,-6.80771,-8.29976,-39.3356,-13.5431,-8.3946,43.2257,9.22,-13.7961,-24.3181
-3.18979,17.4284,3.0978,3.86935,-16.6999,0.273053,6.61901,2.91668,-0.502923,-0.88884,3.96467,2.52079,-4.84817,2.01208,2.46888,-23.1061,-1.12611,-7.73172,23.5221,-0.684174,6.74248,11.5519,-0.126449,3.69582,-5.57591e-14,-1.35174e-14,15.4834,23.594,-56.0903,133.269,4.97108,-18.8891,14.3396,7.12502,7.41217,-15.5106,-5.57591e-14,-1.35174e-14,20.4821,-24.8519,80.5281,124.173,-4.41683,-8.69063,5.63211,7.12502,17.2442,34.887,2.68744,-4.98271,12.1298,33.4024,-25.6989,-5.27501,-10.7951,-40.051,-13.3132,-8.3903,42.7971,12.1062,-15.4179,-24.6263
-3.19253,17.5126,3.11781,4.0918,-15.5834,0.06401,7.15538,3.59752,0.122776,-0.93387,4.90076,1.86941,-5.13305,2.44643,1.30518,-24.3293,-2.01897,-7.73443,24.0332,-2.03642,7.3072,12.113,-0.644871,3.71815,-3.94091e-14,5.56597e-15,19.166,19.9895,-53.9909,128.93,4.00565,-17.7233,13.4304,7.12502,8.53737,-16.377,-3.94091e-14,5.56597e-15,22.4018,-26.2004,78.8189,123.97,-4.67086,-8.14121,5.69774,7.12502,17.773,34.9055,3.50637,-4.82783,13.067,32.8005,-25.1692,-4.78345,-10.3774,-40.7135,-12.9535,-8.42094,42.2639,14.6338,-17.1707,-24.2202
-3.19504,17.5852,3.13688,4.26597,-14.5328,-0.029328,7.39188,4.1664,0.851974,-0.89971,5.69016,1.15377,-5.10573,2.80394,0.0567546,-24.9101,-2.71752,-7.73394,24.2258,-3.13879,7.78938,12.4153,-1.06009,3.72397,-4.16454e-14,7.15625e-15,22.9309,16.3406,-52.3102,123.203,4.12632,-15.3275,12.1259,7.12502,10.8488,-17.5739,-4.16454e-14,7.15625e-15,24.0841,-27.1045,77.2502,123.858,-4.86773,-6.94019,5.89952,7.12502,18.9283,34.9985,4.22779,-4.87181,13.8014,32.6283,-24.4592,-6.33529,-8.92637,-41.2689,-12.7087,-8.55226,41.6497,16.2821,-18.1651,-23.1703
-3.19155,17.6381,3.15633,4.469,-13.5142,-0.00656741,7.5451,4.6793,1.52076,-0.967982,6.40507,0.484876,-5.11287,3.12773,-1.09506,-24.7196,-3.29291,-7.98302,24.0871,-4.03764,8.3598,12.4321,-1.40715,3.82345,4.9398e-14,-2.26615e-14,26.8838,13.0901,-50.8178,115.805,6.09456,-12.3028,10.4677,7.12502,13.7652,-19.057,4.9398e-14,-2.26615e-14,25.2408,-27.8465,76.0833,123.784,-5.03433,-6.07486,6.14832,7.12502,19.7604,35.1639,4.80682,-5.17802,14.3183,32.8369,-24.2095,-7.6842,-7.87231,-41.7481,-12.8022,-8.61418,40.9824,16.9083,-16.7432,-20.5143
-3.1834,17.6784,3.1805,4.741,-12.5994,0.0308558,7.66723,5.1643,2.18502,-1.18975,7.09045,-0.123907,-5.24005,3.43445,-2.18245,-24.3172,-3.74811,-8.20554,23.9952,-4.76099,8.81547,12.4121,-1.69515,3.90554,-4.47266e-15,-1.43125e-14,31.0738,10.3041,-49.3983,106.606,9.9451,-9.17659,9.23995,7.12502,16.7765,-20.0552,-4.47266e-15,-1.43125e-14,25.7928,-28.3808,75.2503,123.674,-5.121,-6.05776,6.31942,7.12502,19.7768,35.3333,5.26443,-5.57211,14.7381,33.269,-24.3469,-8.21779,-7.10885,-42.1222,-12.8484,-8.69354,40.2247,14.8008,-12.1859,-22.7757
