JuanDHNZ/ProyectoFinalCD/preprocessing/sports_trials_csv/14_07.csv
root1,root2,root3,root4,root5,root6,lowerback1,lowerback2,lowerback3,upperback1,upperback2,upperback3,thorax1,thorax2,thorax3,lowerneck1,lowerneck2,lowerneck3,upperneck1,upperneck2,upperneck3,head1,head2,head3,rclavicle1,rclavicle2,rhumerus1,rhumerus2,rhumerus3,rradius1,rwrist1,rhand1,rhand2,rfingers1,rthumb1,rthumb2,lclavicle1,lclavicle2,lhumerus1,lhumerus2,lhumerus3,lradius1,lwrist1,lhand1,lhand2,lfingers1,lthumb1,lthumb2,rfemur1,rfemur2,rfemur3,rtibia1,rfoot1,rfoot2,rtoes1,lfemur1,lfemur2,lfemur3,ltibia1,lfoot1,lfoot2,ltoes1
0.847372,17.7437,-5.2827,2.21542,-39.2985,3.35917,3.34114,-0.336749,-5.77629,0.537077,-0.634934,1.62818,-1.23958,-0.292564,4.95942,-23.3668,-5.85783,-12.9636,12.4582,-5.031,6.87064,8.15812,-2.33118,3.71228,6.68413e-14,-1.35174e-14,-31.5228,-0.721162,-79.8965,35.0249,13.3637,-18.2,6.84353,7.12502,8.0773,-22.9821,6.68413e-14,-1.35174e-14,-30.2942,12.7433,82.0492,28.4107,-12.0214,-13.2524,23.4919,7.12502,12.8499,53.0764,-9.9467,10.6341,14.9527,31.2396,-20.2499,2.73062,5.73158,-17.757,-0.277694,-20.2068,27.4258,-10.1721,5.28226,-9.68739
0.862528,17.7443,-5.24934,2.35308,-39.638,3.25839,3.3275,-0.288916,-5.82631,0.479801,-0.573266,1.61172,-1.29876,-0.258011,4.96838,-23.1403,-5.94669,-13.0418,11.6925,-5.11656,6.76935,7.86952,-2.37755,3.67396,-5.30755e-14,1.66979e-14,-31.3413,-0.335125,-79.8358,35.4937,12.7528,-18.1311,6.5689,7.12502,8.14382,-23.2542,-5.30755e-14,1.66979e-14,-30.4007,12.5147,81.9971,28.6194,-11.6622,-13.1831,23.5746,7.12502,12.9167,53.1548,-10.0333,10.7515,14.8765,31.1921,-20.1883,2.88207,5.36607,-17.8178,-0.175948,-20.2364,27.5824,-10.3348,5.36767,-10.1852
0.879896,17.7437,-5.21856,2.40569,-39.8329,3.19366,3.42564,-0.268442,-5.88516,0.402199,-0.555136,1.61971,-1.4358,-0.242015,5.0111,-22.7878,-6.08741,-13.3998,10.9283,-5.24202,6.87643,7.58154,-2.43676,3.74852,-3.76697e-14,-1.43125e-14,-31.2752,0.228411,-79.6965,36.2086,11.9865,-17.9249,6.17906,7.12502,8.34282,-23.6362,-3.76697e-14,-1.43125e-14,-30.5484,12.4469,81.9816,28.7367,-11.5328,-13.0371,23.5452,7.12502,13.0575,53.1165,-10.0281,10.8097,14.805,31.1673,-20.155,2.95154,4.78518,-17.8135,-0.250028,-20.2784,27.6986,-10.4811,5.53575,-9.81941
0.895313,17.7427,-5.18692,2.36608,-40.0779,3.20857,3.44009,-0.251292,-6.00543,0.41168,-0.537689,1.60656,-1.4354,-0.232913,5.06504,-22.404,-6.19531,-13.7554,9.91654,-5.31993,6.94936,7.2025,-2.47206,3.81802,4.90501e-14,-7.95139e-15,-31.0514,0.896612,-79.5649,36.92,11.243,-18.0372,6.17328,7.12502,8.23441,-23.6462,4.90501e-14,-7.95139e-15,-30.6133,12.6979,81.8668,28.8482,-11.6782,-12.8905,23.5383,7.12502,13.1988,53.1005,-9.9992,10.7795,14.6665,31.1481,-20.0662,3.08133,3.88499,-17.7637,-0.146926,-20.3972,27.8128,-10.6286,5.63911,-9.32153
0.909167,17.7412,-5.14916,2.29286,-40.3064,3.25424,3.38238,-0.261754,-6.10403,0.441495,-0.552027,1.54954,-1.36989,-0.24269,5.06117,-21.986,-6.31069,-13.9624,8.85946,-5.44769,6.93741,6.80514,-2.53176,3.83065,-3.04638e-14,3.18055e-15,-30.7187,1.26318,-79.4236,37.6391,10.8098,-18.3267,6.11242,7.12502,7.95501,-23.7179,-3.04638e-14,3.18055e-15,-30.6759,12.8664,81.6951,28.962,-11.7221,-12.8362,23.4955,7.12502,13.2511,53.0543,-9.95047,10.5902,14.4792,31.1482,-19.9181,3.40212,3.67704,-17.6598,-0.0504469,-20.5687,27.9053,-10.8036,5.70981,-9.1735
0.92403,17.7413,-5.11237,2.18617,-40.593,3.33105,3.36483,-0.241148,-6.17936,0.476718,-0.527244,1.42967,-1.32733,-0.232541,4.97713,-21.7116,-6.41792,-14.021,7.91142,-5.58399,6.86844,6.46403,-2.59409,3.80072,7.03201e-14,6.75868e-15,-30.3629,1.49624,-79.2175,38.4712,10.601,-18.2826,6.37318,7.12502,7.99756,-23.4555,7.03201e-14,6.75868e-15,-30.6422,12.5613,81.5967,29.0444,-11.3557,-13.0743,23.5986,7.12502,13.0216,53.1722,-9.90137,10.46,14.2693,31.1572,-19.8008,3.63767,2.7484,-17.5396,0.158613,-20.7697,28.0157,-10.9783,5.80234,-9.1616
0.939202,17.7414,-5.08031,2.15854,-40.8872,3.3684,3.35471,-0.277776,-6.32707,0.48086,-0.581211,1.39605,-1.30911,-0.259638,5.02795,-21.4242,-6.48368,-14.2065,6.8579,-5.63901,6.84745,6.08549,-2.61538,3.81962,8.97513e-14,-3.18055e-15,-29.9062,2.13777,-78.9497,39.3362,10.2331,-18.393,6.57923,7.12502,7.89103,-23.2535,8.97513e-14,-3.18055e-15,-30.6423,12.4709,81.5031,29.1839,-10.8955,-13.0833,24.0083,7.12502,13.0129,53.5825,-9.94293,10.4368,14.1008,31.1836,-19.6854,3.86267,2.48875,-17.5023,0.351522,-20.925,28.1331,-11.1023,5.95317,-9.19124
0.95063,17.7439,-5.05728,2.61665,-41.945,3.17047,3.06238,-0.118702,-6.58278,0.344375,-0.35939,1.52761,-1.31359,-0.142981,5.29991,-21.0987,-6.55603,-14.5116,5.7726,-5.67597,6.78711,5.69329,-2.6331,3.84863,-5.62561e-14,-2.70347e-14,-29.3396,2.9776,-78.5551,40.2135,9.81544,-18.5237,6.43511,7.12502,7.76487,-23.4023,-5.62561e-14,-2.70347e-14,-30.8794,12.8757,81.3576,29.4678,-10.7657,-12.8639,24.2282,7.12502,13.2244,53.7887,-10.5809,10.9258,13.9964,31.2421,-19.4316,4.30432,2.74469,-17.7617,0.961638,-20.8679,28.2427,-11.1991,6.41868,-8.85536
0.963987,17.7407,-5.02266,2.65329,-42.3455,3.1856,2.95648,-0.129123,-6.72891,0.333359,-0.371553,1.48946,-1.26316,-0.149887,5.34269,-20.8286,-6.64893,-14.6217,4.75311,-5.78886,6.70638,5.33517,-2.68289,3.8326,3.32467e-14,1.31198e-14,-28.7611,3.76386,-78.2472,41.2215,9.43423,-18.8806,6.16248,7.12502,7.42038,-23.6874,3.32467e-14,1.31198e-14,-31.0249,12.8349,81.2154,29.7127,-10.5798,-12.9201,24.0539,7.12502,13.1702,53.6179,-10.7141,11.0434,13.8284,31.305,-19.4257,4.46523,2.18647,-17.7539,1.08434,-21.0027,28.3443,-11.3065,6.67788,-8.29605
0.979818,17.7363,-4.98664,2.46078,-42.4675,3.29786,3.00899,-0.222693,-6.8643,0.386058,-0.504552,1.39649,-1.21877,-0.219214,5.32741,-20.6777,-6.73416,-14.7405,3.81543,-5.88987,6.76168,5.02721,-2.71643,3.86393,-8.41853e-14,7.95139e-15,-28.1682,4.37064,-77.8521,42.3764,9.08942,-18.8517,6.28702,7.12502,7.44834,-23.5619,-8.41853e-14,7.95139e-15,-31.0569,12.7018,81.0165,29.8516,-10.3298,-12.8701,23.8067,7.12502,13.2184,53.3676,-10.6176,10.8744,13.6445,31.3816,-19.4134,4.52333,0.975894,-17.6025,1.01021,-21.2099,28.4491,-11.4233,6.83097,-8.49182
0.994888,17.7368,-4.95131,2.40865,-42.7278,3.26936,3.01115,-0.269552,-6.9191,0.384448,-0.569986,1.32854,-1.21246,-0.252013,5.28983,-20.3289,-6.8293,-14.785,2.70494,-6.04432,6.71769,4.63655,-2.78159,3.85128,5.06901e-15,8.74653e-15,-27.5562,4.74543,-77.3941,43.5836,8.793,-19.1377,6.3736,7.12502,7.17225,-23.4849,5.06901e-15,8.74653e-15,-31.1625,12.482,80.8345,30.0374,-9.90693,-13.0474,23.7498,7.12502,13.0475,53.3217,-10.6117,10.8518,13.5762,31.4503,-19.3349,4.51602,0.176282,-17.4906,1.07914,-21.3012,28.5433,-11.5384,7.00077,-8.48913
1.01184,17.7352,-4.91734,2.39379,-43.0475,3.26528,3.03196,-0.294543,-6.9859,0.325294,-0.609824,1.24459,-1.28004,-0.267456,5.24198,-19.93,-6.94196,-14.8382,1.58771,-6.23045,6.66685,4.24194,-2.86329,3.83811,5.67779e-14,-3.97569e-15,-26.882,5.00061,-76.8731,44.8015,8.7499,-19.6725,6.95253,7.12502,6.65594,-22.9229,5.67779e-14,-3.97569e-15,-31.3722,12.1845,80.6681,30.2354,-9.49535,-13.3305,23.6054,7.12502,12.7746,53.1946,-10.6698,11.1607,13.4779,31.5256,-19.3781,4.36418,-0.58278,-17.4183,1.09725,-21.4077,28.6089,-11.697,7.19113,-7.78251
1.02736,17.736,-4.88187,2.44687,-43.3994,3.17048,2.98963,-0.283352,-6.9229,0.299025,-0.591944,1.13752,-1.28781,-0.257994,5.09321,-19.5562,-7.13126,-15.0834,0.509724,-6.4902,6.86691,3.88924,-2.96835,3.92913,7.15625e-15,1.47101e-14,-26.2062,5.39664,-76.3021,46.2017,8.6603,-19.8396,7.01042,7.12502,6.49468,-22.87,7.15625e-15,1.47101e-14,-31.4954,11.9575,80.4501,30.4771,-9.01635,-13.1066,23.9251,7.12502,12.9904,53.5007,-10.7188,11.4395,13.4389,31.5922,-19.3887,4.23619,-2.03078,-17.3345,1.09997,-21.4575,28.663,-11.8258,7.5095,-7.22016
1.04178,17.7398,-4.84712,2.40256,-43.7089,3.16579,2.92204,-0.291286,-6.96545,0.332511,-0.599916,1.00349,-1.21506,-0.265773,4.9765,-19.1915,-7.28678,-15.2135,-0.641251,-6.73363,7.10854,3.51546,-3.06224,4.02097,8.63471e-14,-1.25234e-14,-25.4777,5.79668,-75.7058,47.7469,8.50581,-20.0009,7.0794,7.12502,6.33894,-22.8057,8.63471e-14,-1.25234e-14,-31.4389,11.4633,80.2528,30.699,-8.22966,-12.9751,24.3015,7.12502,13.1172,53.869,-10.7293,11.4663,13.2905,31.6741,-19.2637,4.51648,-2.24805,-17.1991,1.11581,-21.5719,28.6969,-11.9692,7.75657,-6.45895
1.05757,17.7381,-4.81257,2.23496,-44.007,3.24972,2.96911,-0.312014,-7.06948,0.340048,-0.63603,0.893529,-1.22888,-0.283345,4.92231,-18.8987,-7.40794,-15.2781,-1.7124,-6.92546,7.16312,3.16337,-3.14165,4.04866,3.85766e-14,5.96354e-15,-24.7985,6.41248,-74.9665,49.4511,8.32815,-20.1335,7.08266,7.12502,6.21089,-22.8063,3.85766e-14,5.96354e-15,-31.4721,11.1586,80.0655,30.9064,-7.60634,-12.5489,24.5248,7.12502,13.528,54.0654,-10.6613,11.472,13.0766,31.7591,-19.1214,4.91528,-1.27692,-17.0007,1.29844,-21.7658,28.7232,-12.0798,7.86663,-6.14871
1.07088,17.736,-4.77176,2.03595,-44.4002,3.39627,2.96187,-0.313039,-7.26721,0.288089,-0.646113,0.824495,-1.27598,-0.284292,4.96273,-18.6141,-7.5211,-15.2343,-2.68178,-7.12254,7.00971,2.83266,-3.23507,3.99416,-9.59881e-14,2.05742e-14,-24.204,7.19024,-74.0793,51.2313,8.19598,-20.3178,7.07778,7.12502,6.03303,-22.8163,-9.59881e-14,2.05742e-14,-31.6425,11.0373,79.8982,30.9429,-7.61477,-12.5258,24.3187,7.12502,13.5503,53.8578,-10.6154,11.4727,12.7936,31.8671,-19.0074,5.36869,-0.368131,-16.7813,1.446,-22.019,28.7504,-12.2654,8.06742,-5.80336
1.08385,17.7347,-4.73354,2.01588,-44.7737,3.33121,2.92878,-0.345033,-7.34953,0.236467,-0.690691,0.812853,-1.30392,-0.303541,4.99876,-18.2766,-7.62612,-15.1916,-3.79555,-7.32343,6.89422,2.45297,-3.32675,3.95817,-6.18842e-14,1.47101e-14,-23.4531,7.88483,-73.1642,53.0219,8.31048,-20.4801,7.08631,7.12502,5.87635,-22.8122,-6.18842e-14,1.47101e-14,-31.7993,10.9846,79.7081,30.9278,-7.87136,-13.0813,23.9083,7.12502,13.0148,53.4823,-10.6346,11.5984,12.7095,31.987,-18.9809,5.4978,0.0663151,-16.657,1.55904,-22.1006,28.831,-12.3884,8.34497,-5.84008
1.10178,17.7327,-4.70659,2.13304,-44.9263,3.11234,3.07809,-0.434649,-7.36895,0.139569,-0.825659,0.840012,-1.46871,-0.361489,5.04602,-17.8071,-7.69927,-15.0757,-5.09125,-7.52312,6.76749,1.99729,-3.41726,3.91797,-4.51925e-14,-1.63003e-14,-22.6525,8.58062,-72.1366,54.8727,8.3458,-20.7134,7.36266,7.12502,5.65103,-22.542,-4.51925e-14,-1.63003e-14,-31.9139,11.0572,79.4606,30.8729,-8.14833,-13.4124,23.6532,7.12502,12.6957,53.2473,-10.7149,11.6071,12.7937,32.1012,-18.8891,5.3897,-0.611813,-16.6764,1.58432,-22.0404,28.9593,-12.4144,8.50725,-6.41737
1.12087,17.731,-4.68012,2.32001,-45.0264,2.76216,3.29337,-0.507409,-7.23485,0.0432194,-0.937868,0.855074,-1.67558,-0.407605,4.99468,-17.531,-7.83891,-15.0841,-6.0728,-7.75911,6.78057,1.68098,-3.52215,3.92923,-1.64059e-14,-1.73937e-15,-21.7628,9.10702,-71.0428,56.6517,8.39906,-21.158,7.58277,7.12502,5.22183,-22.3329,-1.64059e-14,-1.73937e-15,-31.9631,10.9835,79.2275,30.856,-8.15772,-13.5131,23.5731,7.12502,12.5985,53.1732,-10.7443,11.6182,12.977,32.1917,-18.7279,5.42095,-0.0898387,-16.7017,1.59062,-21.8755,29.1569,-12.48,8.63171,-6.77456
1.13487,17.7259,-4.64375,2.23007,-45.2676,2.74012,3.35354,-0.489741,-7.21061,0.000473709,-0.922823,0.698478,-1.75882,-0.396575,4.81807,-17.3743,-7.9995,-15.0122,-6.87367,-8.0182,6.87516,1.44221,-3.63931,3.94652,-3.51427e-14,-1.74293e-14,-20.9631,9.36823,-69.9963,58.5477,8.26351,-21.8715,7.4246,7.12502,4.53287,-22.5069,-3.51427e-14,-1.74293e-14,-31.9494,10.6592,78.9462,30.8663,-8.25165,-13.6275,23.475,7.12502,12.4883,53.0819,-10.6447,11.7506,12.8667,32.2908,-18.6144,5.75462,2.16923,-16.6039,1.76756,-21.9915,29.3697,-12.6945,8.72155,-6.83444
1.14938,17.7132,-4.6013,2.03488,-45.5082,2.71694,3.39776,-0.410647,-7.02983,0.0602986,-0.817771,0.420049,-1.74232,-0.349347,4.42111,-17.19,-8.23733,-14.7699,-7.80451,-8.41434,7.00593,1.17099,-3.82703,3.94258,-5.29885e-14,1.78906e-15,-20.2285,9.50212,-68.9181,60.6493,7.91097,-22.3835,7.47686,7.12502,4.03846,-22.4646,-5.29885e-14,1.78906e-15,-31.6679,9.93903,78.6668,30.7911,-8.08982,-13.6218,23.6036,7.12502,12.4938,53.2102,-10.3515,11.7555,12.7574,32.3756,-18.5388,6.2324,3.86445,-16.3665,1.89741,-22.1187,29.5781,-12.892,8.85773,-6.93544
1.16335,17.7044,-4.56836,1.96175,-45.5573,2.74767,3.43205,-0.43202,-7.07986,0.0304426,-0.855543,0.265705,-1.78942,-0.366071,4.29102,-16.9664,-8.48882,-14.775,-8.74847,-8.78956,7.15529,0.897293,-4.00075,3.98755,-8.16135e-14,1.18277e-14,-19.3206,9.67132,-67.6313,62.6171,7.76039,-22.8349,7.56108,7.12502,3.60253,-22.3882,-8.16135e-14,1.18277e-14,-31.4629,9.56011,78.4127,30.6981,-8.41876,-13.2899,23.3936,7.12502,12.8138,52.9804,-10.2839,11.6347,12.6341,32.4808,-18.448,6.41097,4.39183,-16.3397,1.8707,-22.2562,29.7397,-13.0207,8.97665,-6.43367
1.17473,17.7015,-4.53274,1.88851,-45.6401,2.79795,3.42337,-0.481544,-7.24385,-0.0285242,-0.930629,0.224346,-1.83455,-0.399061,4.34409,-16.8301,-8.67066,-15.0089,-9.52216,-9.01697,7.38882,0.686933,-4.09539,4.10052,-4.37202e-14,2.32578e-14,-18.1693,9.84094,-66.1477,64.3208,7.80017,-23.3478,7.61096,7.12502,3.10721,-22.3461,-4.37202e-14,2.32578e-14,-31.4134,9.53796,78.2131,30.7084,-8.72777,-12.8506,23.1772,7.12502,13.2372,52.7369,-10.2827,11.31,12.4975,32.6078,-18.3544,6.65554,4.56003,-16.2778,1.7948,-22.4208,29.8686,-13.1537,9.1531,-6.1683
1.18584,17.7,-4.49173,1.87315,-45.8057,2.85555,3.3104,-0.539789,-7.34112,-0.12617,-1.00806,0.156305,-1.86215,-0.433429,4.33053,-16.6133,-8.73635,-15.0842,-10.3603,-9.13515,7.51369,0.424108,-4.14189,4.17124,-6.05672e-14,2.5842e-15,-16.9878,9.98358,-64.7144,65.9556,7.94253,-23.8924,7.63962,7.12502,2.58125,-22.3245,-6.05672e-14,2.5842e-15,-31.398,9.20973,78.0469,30.7162,-8.47064,-12.7704,23.5142,7.12502,13.3145,53.0688,-10.4047,10.9697,12.3105,32.8022,-18.1911,6.91154,4.51963,-16.2309,1.84897,-22.6118,29.9283,-13.2807,9.2802,-5.96556
1.19392,17.6979,-4.45293,1.85172,-45.9454,2.83163,3.27704,-0.54892,-7.33833,-0.211002,-1.02382,0.028949,-1.93182,-0.437185,4.19736,-16.6139,-8.86806,-14.96,-10.8956,-9.33951,7.51653,0.277086,-4.24066,4.15209,1.33186e-14,-9.34288e-15,-15.9565,10.0307,-63.2094,67.757,7.98499,-24.3815,7.40161,7.12502,2.10887,-22.5677,1.33186e-14,-9.34288e-15,-31.2961,8.46208,77.8873,30.6768,-8.45654,-13.7207,23.3868,7.12502,12.3984,52.9992,-10.4406,10.8706,12.2344,33.0198,-18.0981,6.9034,4.31892,-16.1049,2.09524,-22.7392,29.9325,-13.3282,9.28836,-6.61183
1.2028,17.697,-4.42397,1.71257,-46.0622,2.92489,3.36247,-0.526847,-7.52095,-0.279761,-1.01527,-0.0869648,-2.05177,-0.425484,4.18105,-16.5652,-9.0228,-14.9471,-11.5083,-9.55949,7.65499,0.114375,-4.34207,4.19464,-1.49089e-15,-4.96962e-15,-14.9487,9.96528,-61.5773,69.7231,7.98466,-25.0019,6.80949,7.12502,1.50969,-23.1649,-1.49089e-15,-4.96962e-15,-31.1926,8.50282,77.4744,30.7165,-9.72992,-14.9034,22.7585,7.12502,11.2579,52.4364,-10.4724,10.758,12.0852,33.2675,-17.9996,6.98608,4.8863,-15.9579,2.33804,-22.9181,29.9191,-13.3376,9.25513,-7.22263
1.21216,17.7002,-4.39337,1.61111,-46.1081,3.01277,3.41639,-0.566607,-7.65025,-0.330761,-1.08491,-0.237669,-2.12711,-0.455678,4.10144,-16.659,-9.18895,-15.0055,-12.0134,-9.75072,8.01556,0.0198978,-4.42591,4.31049,2.6339e-15,2.62396e-14,-13.7974,9.73817,-60.0601,71.5797,8.0227,-25.4136,6.49214,7.12502,1.1121,-23.4847,2.6339e-15,2.62396e-14,-31.0735,8.71395,77.0199,30.8255,-10.5373,-15.3094,22.646,7.12502,10.8663,52.3449,-10.568,10.4831,11.9252,33.55,-17.8331,7.14723,5.38134,-15.8295,2.31716,-23.0812,29.8996,-13.4176,9.28689,-6.73439
1.2179,17.6974,-4.34977,1.47264,-46.269,2.97896,3.37577,-0.58758,-7.56341,-0.313076,-1.10911,-0.395568,-2.08735,-0.471968,3.8888,-16.7052,-9.2846,-14.9288,-12.557,-9.88692,8.1751,-0.116934,-4.48947,4.35243,8.44835e-15,1.15295e-14,-12.5251,9.44647,-58.5247,73.2021,8.03591,-25.844,6.47491,7.12502,0.696456,-23.5037,8.44835e-15,1.15295e-14,-30.9046,8.31796,76.7716,30.8342,-10.3763,-15.0674,22.7628,7.12502,11.0997,52.4493,-10.5372,10.3093,11.8433,33.8773,-17.6131,7.33692,5.73819,-15.501,2.16612,-23.1743,29.8888,-13.6031,9.55291,-6.41996
1.22346,17.6927,-4.3065,1.38174,-46.3984,2.94431,3.33734,-0.624042,-7.50251,-0.345688,-1.15666,-0.519187,-2.0974,-0.496107,3.72811,-16.8284,-9.39674,-14.9503,-12.8993,-10.0122,8.36042,-0.177766,-4.54543,4.40888,-7.82715e-14,7.55382e-15,-11.2137,9.12884,-56.8197,74.6678,8.20112,-26.0541,6.39562,7.12502,0.493529,-23.5836,-7.82715e-14,7.55382e-15,-30.8566,8.0364,76.5202,30.9534,-10.0476,-15.1269,22.8889,7.12502,11.0424,52.5784,-10.5364,10.3035,11.7827,34.2445,-17.5231,7.22837,5.50016,-15.2462,2.31892,-23.2634,29.8803,-13.7995,9.48937,-6.32425
1.23097,17.6919,-4.2811,1.47733,-46.3381,2.85526,3.34519,-0.70349,-7.58396,-0.398377,-1.27151,-0.602413,-2.14319,-0.550021,3.69323,-17.0805,-9.48217,-14.8389,-13.2283,-10.1117,8.41376,-0.234719,-4.59318,4.40234,1.20265e-14,-1.39149e-14,-9.7833,8.61001,-55.0853,75.9766,8.245,-26.1521,6.42601,7.12502,0.398865,-23.5534,1.20265e-14,-1.39149e-14,-30.7345,8.33421,76.1058,31.2043,-10.1044,-15.1668,22.8575,7.12502,11.0039,52.5491,-10.7237,10.1999,11.8022,34.6691,-17.4944,7.12554,6.1199,-15.252,2.5995,-23.266,29.8738,-13.8621,9.15046,-6.6296
1.23558,17.6945,-4.25619,1.5874,-46.2703,2.81047,3.30565,-0.810844,-7.72493,-0.46284,-1.42234,-0.684136,-2.169,-0.621539,3.69398,-17.4094,-9.57435,-14.8216,-13.4671,-10.1812,8.689,-0.236596,-4.62189,4.47449,-2.76311e-14,1.19271e-15,-8.28691,8.08923,-53.4357,77.3067,8.09077,-26.3723,6.37415,7.12502,0.186128,-23.6055,-2.76311e-14,1.19271e-15,-30.5979,8.45054,75.7321,31.3881,-10.1751,-15.0613,22.9257,7.12502,11.1056,52.6118,-10.9923,9.98266,11.7735,35.1421,-17.3459,7.16386,6.69947,-15.2814,2.78597,-23.3156,29.854,-13.9226,8.96229,-7.23811
1.23998,17.6943,-4.22558,1.43921,-46.2327,2.97616,3.32196,-0.920224,-7.8663,-0.515303,-1.58479,-0.896679,-2.21591,-0.699533,3.56064,-17.7304,-9.6045,-14.5485,-13.5878,-10.2197,8.81627,-0.227047,-4.64759,4.4615,5.17834e-14,7.95139e-16,-6.75869,7.58131,-51.933,78.504,7.60786,-26.9633,6.24281,7.12502,-0.384598,-23.7366,5.17834e-14,7.95139e-16,-30.5092,8.23754,75.3253,31.5686,-10.0038,-15.1714,23.0939,7.12502,10.9994,52.7858,-11.178,9.70438,11.5635,35.6563,-17.1523,7.20715,6.06387,-15.1499,2.81843,-23.5388,29.8083,-13.9841,8.89009,-7.63413
1.24592,17.6949,-4.19506,1.35859,-46.217,2.98113,3.39683,-0.989914,-7.84566,-0.530429,-1.69089,-1.08953,-2.26764,-0.752139,3.3559,-18.1714,-9.70363,-14.349,-13.645,-10.3205,8.94193,-0.174321,-4.69979,4.44732,-5.2827e-14,6.36111e-15,-5.26143,6.9234,-50.3539,79.6379,7.2357,-27.2955,5.82698,7.12502,-0.705474,-24.1516,-5.2827e-14,6.36111e-15,-30.4034,7.98359,74.9765,31.9043,-9.57376,-15.159,23.2195,7.12502,11.0114,52.9106,-11.354,9.35724,11.4775,36.2075,-16.8702,7.27393,5.43158,-14.9684,2.9672,-23.6383,29.7238,-13.9723,8.77188,-8.1335
1.25135,17.6969,-4.16838,1.33977,-46.2286,2.87195,3.539,-1.02631,-7.79879,-0.586173,-1.75818,-1.20842,-2.40304,-0.780953,3.21406,-18.5273,-9.77873,-14.3639,-13.6299,-10.3608,9.09772,-0.106717,-4.71329,4.48077,-7.54388e-14,-6.36111e-15,-3.76717,6.17766,-48.6448,80.575,6.89921,-27.3525,6.00956,7.12502,-0.760553,-23.9688,-7.54388e-14,-6.36111e-15,-30.2721,7.34775,74.8243,32.0761,-8.70359,-15.1839,23.1969,7.12502,10.9874,52.8894,-11.5317,9.1063,11.5007,36.7907,-16.534,7.33438,5.21781,-14.754,3.09705,-23.6301,29.6409,-14.0389,8.69699,-8.27232
1.25488,17.6987,-4.14223,1.27099,-46.1789,2.89083,3.63535,-1.0195,-7.87904,-0.651765,-1.76931,-1.30022,-2.52525,-0.780149,3.1675,-18.7324,-9.97435,-14.6152,-13.7079,-10.5295,9.4041,-0.053483,-4.78061,4.59249,1.06946e-13,6.36111e-15,-2.29303,5.26163,-46.7787,81.3733,6.47867,-27.5002,6.25483,7.12502,-0.903218,-23.723,1.06946e-13,6.36111e-15,-30.2066,7.23055,74.6911,32.3468,-8.57358,-15.2056,23.1685,7.12502,10.9665,52.8621,-11.7571,8.87922,11.4181,37.4164,-16.1971,7.36004,4.74121,-14.6019,3.22575,-23.7235,29.5761,-14.0929,8.58622,-8.47484
1.25853,17.6975,-4.11363,1.30238,-46.1141,2.77645,3.65451,-1.04222,-7.7852,-0.687811,-1.80312,-1.41379,-2.57606,-0.79681,3.00029,-18.838,-10.1703,-14.8294,-13.9479,-10.715,9.83849,-0.0503702,-4.8581,4.74484,3.02153e-14,-6.36111e-15,-0.810508,4.35184,-45.0103,82.1046,6.10593,-27.8367,6.1093,7.12502,-1.22819,-23.8669,3.02153e-14,-6.36111e-15,-30.24,7.37647,74.4217,32.7758,-8.62126,-14.9672,23.2713,7.12502,11.1964,52.9525,-11.9876,8.67844,11.4214,38.082,-15.92,7.40396,4.21057,-14.4508,3.18143,-23.7153,29.5129,-14.145,8.54856,-8.13341
1.26331,17.6966,-4.09114,1.31244,-46.0717,2.6987,3.60514,-1.07717,-7.5933,-0.61358,-1.84136,-1.69,-2.48146,-0.826924,2.60737,-19.1187,-10.3306,-14.7219,-14.1365,-10.8906,10.2417,-0.0234876,-4.94295,4.83147,7.30037e-14,-1.82882e-14,0.833701,3.24126,-43.4718,82.6379,5.85641,-28.2779,5.92264,7.12502,-1.6543,-24.0507,7.30037e-14,-1.82882e-14,-29.8107,6.70252,74.0955,32.9708,-8.00003,-15.1693,23.5107,7.12502,11.0015,53.2024,-12.2979,8.463,11.4208,38.7817,-15.6464,7.29496,2.68079,-14.3346,3.15471,-23.7133,29.4456,-14.1502,8.51842,-7.70191
1.26627,17.6963,-4.07187,1.18116,-46.0346,2.73663,3.64222,-1.10252,-7.5421,-0.544467,-1.88273,-1.97687,-2.43777,-0.854638,2.28449,-19.2656,-10.4521,-14.6319,-14.3499,-11.0301,10.6619,-0.0220768,-5.01143,4.93474,1.02374e-14,3.18055e-14,2.475,1.98022,-42.0176,82.9644,5.8199,-28.5388,6.02177,7.12502,-1.90631,-23.9495,1.02374e-14,3.18055e-14,-29.4948,6.11343,73.7541,33.279,-7.4944,-15.0763,23.7803,7.12502,11.0912,53.4673,-12.5414,8.51346,11.3797,39.4866,-15.1964,7.04456,1.55984,-14.1753,3.25202,-23.7872,29.4183,-14.1707,8.39363,-7.46064
1.26699,17.6975,-4.04717,1.03763,-45.9959,2.75256,3.7104,-1.11758,-7.56442,-0.524418,-1.9152,-2.1318,-2.45714,-0.87211,2.13994,-19.3645,-10.6349,-14.8493,-14.4452,-11.1919,11.2031,0.0356717,-5.07751,5.11664,6.01821e-14,3.97569e-15,4.15712,0.757806,-40.429,83.0985,5.82615,-28.6631,6.21372,7.12502,-2.02637,-23.7564,6.01821e-14,3.97569e-15,-29.4029,6.31468,73.4308,33.7131,-7.6377,-14.6391,23.982,7.12502,11.5128,53.6459,-12.7329,8.37703,11.3003,40.1838,-14.5653,7.12684,2.38317,-13.9787,3.40559,-23.861,29.4217,-14.2607,8.25548,-7.4607
1.27073,17.6992,-4.02327,1.17254,-45.9199,2.50336,3.79912,-1.18903,-7.36719,-0.581503,-2.01636,-2.21931,-2.56655,-0.921229,1.94863,-19.7521,-10.6417,-14.6065,-14.3246,-11.1989,11.1132,0.104381,-5.08433,5.0336,2.13197e-14,1.51076e-14,5.8715,-0.359458,-38.8392,83.1723,6.09651,-28.8307,6.37077,7.12502,-2.18821,-23.5978,2.13197e-14,1.51076e-14,-29.4252,6.52006,73.1438,34.1657,-7.66549,-14.6254,24.2105,7.12502,11.526,53.8736,-13.0207,8.09189,11.414,40.8675,-13.8976,7.33592,3.65263,-13.8893,3.39316,-23.7286,29.4405,-14.333,8.17896,-7.37826
1.27246,17.6975,-3.99867,1.25626,-45.9358,2.23734,3.90823,-1.22367,-7.15109,-0.586715,-2.06693,-2.32896,-2.64012,-0.948328,1.72149,-20.1089,-10.7094,-14.4548,-14.3013,-11.2644,11.2682,0.171322,-5.11551,5.03787,1.0138e-14,1.74931e-14,7.60481,-1.54674,-37.2653,83.183,6.44326,-29.0407,6.36699,7.12502,-2.39105,-23.5994,1.0138e-14,1.74931e-14,-29.2994,6.22603,72.9186,34.5427,-7.24393,-14.721,24.0137,7.12502,11.4338,53.6819,-13.2413,7.95476,11.5802,41.5402,-13.3272,7.47011,3.65462,-13.7183,3.38042,-23.5816,29.4653,-14.457,8.16261,-6.95062
1.27134,17.6973,-3.97387,1.37692,-45.9615,1.99242,4.00726,-1.24455,-7.00239,-0.663821,-2.10445,-2.40399,-2.7808,-0.964231,1.56761,-20.2133,-10.8443,-14.5255,-14.3856,-11.3982,11.6602,0.21193,-5.17396,5.1536,-1.0138e-14,5.24792e-14,9.36471,-2.76227,-35.6744,82.8997,6.75312,-29.1527,6.75591,7.12502,-2.49914,-23.2092,-1.0138e-14,5.24792e-14,-29.2368,5.98718,72.724,34.8808,-6.90211,-14.6056,23.6912,7.12502,11.5451,53.3532,-13.5321,7.92877,11.7178,42.2265,-12.8405,7.53599,3.87825,-13.604,3.42899,-23.4483,29.492,-14.5924,8.09861,-6.68602
1.27019,17.6981,-3.94871,1.25644,-45.9538,1.98481,4.19116,-1.28069,-7.02015,-0.727586,-2.17936,-2.50326,-2.94847,-0.996108,1.48545,-20.6452,-10.7964,-14.2121,-14.1542,-11.3533,11.3771,0.292858,-5.15734,5.00114,6.40087e-14,1.35174e-14,11.0998,-3.92193,-34.1377,82.4824,7.20515,-29.3766,7.18267,7.12502,-2.71538,-22.7798,6.40087e-14,1.35174e-14,-29.1463,5.61228,72.5603,35.1662,-6.58175,-14.574,23.9853,7.12502,11.5756,53.6456,-13.7662,7.78317,11.662,42.9088,-12.3632,7.60318,3.76393,-13.4159,3.51051,-23.4875,29.5386,-14.714,8.04648,-6.49275
1.27098,17.6992,-3.92754,1.17607,-45.8812,1.89054,4.40993,-1.32801,-6.87748,-0.751889,-2.26306,-2.64437,-3.10173,-1.03695,1.27262,-21.022,-10.7575,-13.9854,-13.9496,-11.3068,11.2174,0.373568,-5.13644,4.90296,2.2413e-14,2.06736e-14,12.8652,-5.10048,-32.6529,81.9674,7.7614,-29.9302,7.00399,7.12502,-3.25005,-22.951,2.2413e-14,2.06736e-14,-28.9772,5.07163,72.4384,35.5113,-6.36377,-14.6946,24.5637,7.12502,11.4593,54.2305,-14.0126,7.59387,11.6764,43.6212,-11.8427,7.63708,3.40004,-13.1999,3.53085,-23.4614,29.5389,-14.7848,8.01336,-6.52854
1.27139,17.6983,-3.90913,1.3158,-45.7616,1.47588,4.64191,-1.36812,-6.52073,-0.747396,-2.32074,-2.73168,-3.24035,-1.06914,0.995545,-21.0544,-10.9045,-13.9959,-14.1154,-11.4823,11.5284,0.374098,-5.21975,4.98526,2.88238e-14,-1.90833e-14,14.5469,-6.35669,-31.1741,81.415,8.1093,-30.3346,6.72482,7.12502,-3.64057,-23.2238,2.88238e-14,-1.90833e-14,-28.8194,4.33492,72.3763,35.9654,-5.98526,-14.8492,24.6505,7.12502,11.3102,54.3255,-14.2171,7.59121,11.9677,44.329,-11.4703,7.19443,2.91006,-12.9858,3.59168,-23.1745,29.5227,-14.831,7.88952,-6.5821
1.26916,17.7011,-3.88992,1.24078,-45.7291,1.41655,4.85145,-1.39158,-6.50212,-0.790301,-2.37679,-2.81568,-3.40419,-1.09322,0.909252,-21.2649,-11.0534,-13.9918,-14.1632,-11.6409,11.8501,0.432049,-5.2909,5.0599,3.06625e-14,2.70347e-14,16.3209,-7.643,-29.7489,80.6303,8.39168,-30.6224,6.81978,7.12502,-3.9185,-23.1239,3.06625e-14,2.70347e-14,-28.6522,3.46657,72.3898,36.3369,-5.10685,-15.2033,24.7082,7.12502,10.9686,54.4017,-14.4417,7.74308,11.956,45.0315,-11.137,6.47619,2.07881,-12.7936,3.76244,-23.1649,29.5088,-14.8708,7.77103,-6.87606
1.26698,17.7041,-3.87188,1.15641,-45.7067,1.40913,5.07658,-1.39914,-6.56268,-0.88397,-2.41911,-2.84644,-3.62556,-1.10565,0.922204,-21.6057,-11.0039,-13.6966,-13.9918,-11.605,11.5777,0.484666,-5.27955,4.91839,-2.50966e-14,-9.54166e-15,18.0995,-8.84142,-28.1972,79.6881,8.69807,-31.1076,6.70868,7.12502,-4.38709,-23.2259,-2.50966e-14,-9.54166e-15,-28.5383,2.47243,72.5066,36.7448,-4.07827,-15.2981,24.7797,7.12502,10.8772,54.478,-14.7108,7.83331,11.8859,45.7147,-10.695,6.15271,3.62001,-12.6307,3.78275,-23.1903,29.4979,-14.9405,7.72503,-6.69968
1.26439,17.7059,-3.85061,1.25961,-45.6875,1.1755,5.20721,-1.39004,-6.37656,-0.955991,-2.41348,-2.89093,-3.78381,-1.10187,0.777639,-21.8623,-10.9825,-13.5244,-13.8423,-11.585,11.4636,0.542042,-5.27065,4.84584,-1.23246e-13,-4.29375e-14,19.7833,-10.0453,-26.6157,78.7073,8.70211,-31.5447,6.53085,7.12502,-4.80914,-23.3946,-1.23246e-13,-4.29375e-14,-28.3673,2.05042,72.4891,37.1951,-3.83321,-14.9351,25.1092,7.12502,11.2273,54.7888,-15.0323,7.69467,12.0053,46.3894,-10.2746,5.97146,4.32355,-12.4529,3.80232,-23.0476,29.406,-14.9907,7.67966,-6.8844
1.25845,17.7076,-3.82831,1.2667,-45.6833,1.01313,5.29007,-1.37161,-6.22593,-0.939354,-2.39003,-2.98534,-3.82446,-1.09426,0.596951,-22.1493,-11.0878,-13.5445,-13.7241,-11.6767,11.6828,0.644146,-5.30418,4.8919,-1.96797e-14,1.59028e-14,21.518,-11.4424,-25.3436,77.4986,8.83751,-31.7438,6.92666,7.12502,-5.00133,-22.9943,-1.96797e-14,1.59028e-14,-27.9254,1.28634,72.4766,37.4761,-3.31286,-14.8812,25.1088,7.12502,11.2793,54.7856,-15.2958,7.52071,12.1194,47.0124,-10.0348,5.49294,2.783,-12.2359,3.91137,-22.9533,29.3466,-15.0237,7.55265,-6.80961
1.24883,17.7107,-3.81022,1.06018,-45.6012,1.09447,5.47536,-1.3599,-6.25944,-0.95242,-2.40274,-3.13957,-3.94807,-1.09907,0.46247,-22.5433,-11.1716,-13.4435,-13.4151,-11.76,11.7457,0.797259,-5.33598,4.8625,2.66868e-14,-3.18055e-15,23.1899,-12.8378,-24.1701,76.0624,8.97032,-32.0156,7.15066,7.12502,-5.26377,-22.764,2.66868e-14,-3.18055e-15,-27.4936,-0.0986517,72.5378,37.7114,-2.24271,-15.0149,25.4044,7.12502,11.1503,55.0882,-15.4834,7.454,12.0898,47.5817,-10.0286,4.8081,0.862949,-11.9938,3.90393,-23.025,29.3184,-15.0912,7.47836,-6.53073
1.23948,17.7149,-3.78697,1.31964,-45.5318,0.641435,5.50915,-1.36581,-5.78941,-0.952708,-2.38481,-3.22719,-3.98958,-1.10119,0.110764,-22.7755,-11.2242,-13.1577,-13.346,-11.8675,11.6752,0.83853,-5.39536,4.7752,4.88016e-14,-1.74931e-14,24.821,-14.1968,-23.1206,74.6038,8.93471,-32.4814,6.83676,7.12502,-5.71357,-23.0662,4.88016e-14,-1.74931e-14,-27.1118,-1.28375,72.526,38.1725,-1.4774,-14.7964,25.451,7.12502,11.3611,55.1232,-15.6895,7.41586,12.4668,48.0645,-9.96829,4.1653,-0.454262,-11.8218,3.94681,-22.6946,29.2876,-15.1873,7.35935,-6.37849
1.23197,17.7114,-3.76241,1.47263,-45.4857,0.415547,5.50145,-1.39029,-5.50867,-0.972587,-2.40143,-3.29084,-4.01862,-1.11602,-0.109443,-23.0005,-11.2549,-12.9734,-13.3555,-11.9232,11.6766,0.860336,-5.42501,4.73438,-1.27918e-13,-2.06736e-14,26.6212,-15.5745,-22.2286,73.0452,8.81611,-32.9193,6.46746,7.12502,-6.13631,-23.4237,-1.27918e-13,-2.06736e-14,-26.7651,-1.76622,72.4662,38.7332,-1.26141,-14.6902,25.5135,7.12502,11.4635,55.1801,-15.9098,7.19666,12.6187,48.49,-10.059,3.71808,-1.34217,-11.6908,3.9363,-22.5529,29.2167,-15.268,7.28306,-6.08884
1.21598,17.7116,-3.73722,1.43619,-45.4672,0.43707,5.51393,-1.41782,-5.48051,-1.06982,-2.44854,-3.38287,-4.1309,-1.1382,-0.21496,-23.1506,-11.2157,-12.7548,-13.3147,-11.9068,11.6036,0.872851,-5.42266,4.67473,-1.41634e-14,-2.70347e-14,28.3654,-16.7598,-21.3957,71.432,8.44753,-33.0852,6.2266,7.12502,-6.29644,-23.6598,-1.41634e-14,-2.70347e-14,-26.6426,-2.23464,72.4012,39.5012,-0.835755,-13.7864,25.9391,7.12502,12.3351,55.5553,-16.0873,6.92954,12.6169,48.8287,-10.3467,3.11137,-2.67776,-11.5171,3.95408,-22.5919,29.1529,-15.3829,7.238,-5.82551
1.19804,17.7143,-3.71191,1.38996,-45.4445,0.494654,5.4499,-1.41918,-5.44412,-1.1676,-2.45546,-3.49865,-4.20345,-1.14221,-0.355314,-23.0066,-11.3397,-12.9581,-13.4523,-12.0245,12.1137,0.88295,-5.46724,4.85641,-6.06542e-14,4.29375e-14,30.0516,-17.9142,-20.5198,69.7498,7.92577,-32.9484,6.1459,7.12502,-6.16444,-23.7444,-6.06542e-14,4.29375e-14,-26.5464,-2.83251,72.3776,40.3689,-0.251099,-12.4564,26.1337,7.12502,13.6172,55.6683,-16.2966,6.70163,12.6207,49.1404,-10.8124,2.47431,-4.56879,-11.3164,4.06246,-22.657,29.002,-15.5193,7.23593,-6.62748
1.18234,17.7157,-3.68739,1.27559,-45.4229,0.484882,5.44501,-1.36934,-5.33169,-1.1705,-2.38759,-3.61657,-4.21549,-1.11343,-0.545917,-22.8165,-11.5215,-13.2271,-13.7114,-12.203,12.7498,0.873444,-5.54019,5.08494,-3.00165e-14,1.74931e-14,31.7045,-19.2394,-19.805,67.9087,7.34228,-32.8337,6.37218,7.12502,-6.05362,-23.5213,-3.00165e-14,1.74931e-14,-26.1318,-3.7954,72.4135,41.1003,0.417455,-12.0308,26.4205,7.12502,14.0273,55.9272,-16.3815,6.4381,12.7337,49.3868,-11.3574,1.69698,-7.17244,-10.9607,4.14407,-22.6503,28.8012,-15.7045,7.37073,-7.42917
1.16668,17.7161,-3.65996,1.01431,-45.3363,0.606941,5.59154,-1.30611,-5.40482,-1.21064,-2.32828,-3.6963,-4.34317,-1.08078,-0.589078,-23.0482,-11.5504,-13.0102,-13.5026,-12.2667,12.5769,0.945336,-5.57283,4.97666,4.09745e-14,6.99722e-14,33.1263,-20.4369,-18.9166,66.1518,6.46201,-32.9396,6.45892,7.12502,-6.15587,-23.4316,4.09745e-14,6.99722e-14,-25.8374,-4.50454,72.5097,41.9135,0.45743,-12.0474,26.6983,7.12502,14.0113,56.2061,-16.3612,6.05896,12.7325,49.5668,-11.9881,0.883677,-9.54344,-10.5651,4.18034,-22.7453,28.6473,-15.9253,7.36778,-7.83425
1.1485,17.7212,-3.63917,0.934091,-45.2051,0.392383,5.99081,-1.26726,-5.42079,-1.32996,-2.31426,-3.61715,-4.6909,-1.063,-0.488394,-23.2256,-11.4688,-12.6557,-13.351,-12.2285,12.1474,0.950979,-5.56751,4.7858,-3.21907e-14,-3.49861e-14,34.5099,-21.4478,-18.0439,64.5012,5.47531,-33.2236,6.18605,7.12502,-6.43006,-23.6963,-3.21907e-14,-3.49861e-14,-25.6924,-4.97623,72.6731,42.8172,0.497723,-11.6317,26.7106,7.12502,14.4119,56.1903,-16.2361,5.84833,13.0269,49.6455,-12.7229,-0.136613,-11.3139,-10.197,4.24692,-22.5406,28.6361,-15.9802,7.19983,-8.62518
1.13126,17.7143,-3.6237,0.902074,-45.0242,0.164231,6.31489,-1.22445,-5.28691,-1.42612,-2.28029,-3.62999,-4.98219,-1.04303,-0.571047,-23.4518,-11.4735,-12.3263,-13.1079,-12.2908,11.8638,1.01661,-5.60586,4.62652,-3.4601e-14,7.95139e-15,35.7917,-22.448,-17.2597,62.7784,4.39807,-33.6351,5.75933,7.12502,-6.82737,-24.1106,-3.4601e-14,7.95139e-15,-25.3804,-5.73898,72.7592,43.7377,0.998433,-11.6484,26.8239,7.12502,14.3958,56.3047,-16.0801,5.64273,13.3235,49.6497,-13.4094,-0.789573,-10.9821,-9.95734,4.28566,-22.3177,28.7055,-15.946,7.06344,-9.78003
1.1158,17.702,-3.61199,1.00736,-44.8325,-0.0378531,6.42588,-1.23962,-5.13166,-1.49905,-2.30302,-3.65931,-5.12813,-1.05581,-0.682528,-23.6451,-11.5045,-12.1812,-13.0337,-12.3428,11.8614,1.06076,-5.63012,4.5889,1.06598e-14,3.81667e-14,37.3211,-23.5156,-16.7953,60.9342,3.54195,-33.8202,5.25165,7.12502,-7.00605,-24.6124,1.06598e-14,3.81667e-14,-24.8902,-6.20709,72.7132,44.6325,1.35267,-12.0428,26.5348,7.12502,14.0158,56.0423,-15.9932,5.54247,13.519,49.5936,-14.3013,-0.754226,-5.02729,-9.9405,4.37501,-22.1183,28.8326,-15.9979,6.76094,-9.43869
1.09831,17.6995,-3.60053,1.12511,-44.6593,-0.206143,6.49963,-1.29653,-5.06003,-1.58236,-2.38563,-3.68317,-5.25956,-1.09599,-0.736275,-23.7063,-11.5059,-12.1106,-13.0562,-12.3505,12.0786,1.07992,-5.63041,4.64205,8.26641e-14,-1.27222e-14,38.8977,-24.5189,-16.4684,59.1299,2.84422,-33.7368,4.99135,7.12502,-6.92553,-24.8754,8.26641e-14,-1.27222e-14,-24.5472,-6.51092,72.6019,45.6676,1.7517,-13.0643,25.7436,7.12502,13.0312,55.3165,-16.0044,5.41676,13.7006,49.5131,-15.1816,-0.832507,-0.0177136,-9.94163,4.42989,-21.9324,28.9626,-16.1946,6.42615,-8.48783
1.07584,17.7018,-3.57262,1.31343,-44.7338,-0.237545,6.22483,-1.21352,-4.98584,-1.73724,-2.26068,-3.73669,-5.27376,-1.03667,-0.852138,-23.6792,-11.5241,-12.0398,-13.0119,-12.3905,12.1139,1.09456,-5.65009,4.63649,1.79652e-14,-1.43125e-14,40.2299,-25.5256,-16.0545,57.4027,2.61064,-33.5223,4.94629,7.12502,-6.71842,-24.9271,1.79652e-14,-1.43125e-14,-24.1826,-7.01712,72.6651,46.626,2.2427,-13.1379,25.4411,7.12502,12.9603,55.0186,-16.2676,5.26954,13.737,49.408,-15.8566,-1.12501,2.19385,-9.9959,4.41083,-21.9336,29.0257,-16.3821,6.51117,-8.7409
1.05534,17.703,-3.55106,1.47005,-44.6189,-0.220928,6.04034,-1.13754,-4.95465,-1.89275,-2.15551,-3.78171,-5.33733,-0.984663,-0.930767,-23.7169,-11.6158,-12.0527,-12.8939,-12.4996,12.06,1.14152,-5.69869,4.60349,-7.79857e-14,4.77083e-15,41.5075,-26.5585,-15.6277,55.6104,2.73811,-33.4337,4.68617,7.12502,-6.63289,-25.19,-7.79857e-14,4.77083e-15,-23.7614,-7.62879,72.8189,47.71,3.03046,-13.0836,25.8146,7.12502,13.0126,55.3888,-16.505,4.96341,13.7719,49.2664,-16.547,-1.57026,3.97333,-10.0432,4.45438,-21.9463,29.01,-16.5161,6.31006,-8.47
1.03537,17.7011,-3.53004,1.44053,-44.473,-0.252953,6.04421,-1.05893,-4.84824,-1.90425,-2.04994,-3.88768,-5.36123,-0.938143,-1.11142,-23.8065,-11.7496,-12.1075,-12.9131,-12.6433,12.2502,1.18174,-5.75858,4.6496,-2.77677e-14,-4.29375e-14,42.7194,-27.6902,-15.3603,53.9112,3.13416,-33.3846,4.25722,7.12502,-6.58548,-25.6204,-2.77677e-14,-4.29375e-14,-23.166,-8.1309,72.8394,48.8837,3.56804,-13.0274,26.3492,7.12502,13.0668,55.9199,-16.5042,4.59039,13.8605,49.0715,-17.2255,-1.97521,5.55976,-9.86565,4.46688,-21.9061,28.972,-16.5822,6.1959,-8.57889
1.0144,17.7009,-3.50835,1.4612,-44.3514,-0.38222,6.10285,-0.966303,-4.68292,-1.96375,-1.92703,-3.97644,-5.46738,-0.883008,-1.3081,-23.8388,-11.8668,-12.086,-12.9193,-12.7905,12.3836,1.21051,-5.82535,4.66773,-5.36222e-14,1.11319e-14,43.7239,-28.6849,-15.0457,52.3257,3.58663,-33.3817,4.26291,7.12502,-6.58267,-25.6148,-5.36222e-14,1.11319e-14,-22.6638,-8.68519,72.8878,50.086,3.9897,-13.1235,26.7282,7.12502,12.9741,56.3048,-16.4817,4.16429,14.0223,48.8336,-17.7286,-2.26542,6.28488,-9.67651,4.48181,-21.7907,28.9259,-16.5895,6.08848,-8.26552
0.9914,17.7033,-3.48885,1.628,-44.2411,-0.586673,6.11088,-0.915457,-4.5543,-2.10465,-1.85842,-3.97991,-5.6249,-0.850381,-1.39082,-23.7086,-11.9423,-12.1762,-12.9758,-12.8734,12.5426,1.20635,-5.86089,4.72526,4.62423e-14,9.54166e-15,44.9777,-29.58,-14.9532,50.7263,4.23712,-33.3,4.17011,7.12502,-6.50386,-25.71,4.62423e-14,9.54166e-15,-22.2667,-9.2873,72.9664,51.2698,4.43061,-12.9228,27.3879,7.12502,13.1676,56.9521,-16.6048,3.69647,14.3368,48.5638,-18.0592,-3.03289,4.10381,-9.57606,4.4769,-21.6009,28.8779,-16.5763,5.98117,-7.49221
0.969127,17.7018,-3.4698,1.51509,-44.1577,-0.482839,6.12786,-0.887523,-4.58153,-2.16878,-1.83747,-4.09673,-5.70631,-0.840751,-1.50004,-23.7513,-11.9936,-12.1423,-12.9501,-12.9408,12.6204,1.2324,-5.89046,4.73293,-3.51103e-14,-5.24792e-14,46.4723,-30.4713,-15.1832,49.0637,4.98963,-33.505,3.91091,7.12502,-6.70171,-25.963,-3.51103e-14,-5.24792e-14,-21.8145,-9.71454,72.8704,52.5611,4.66291,-12.2764,27.8506,7.12502,13.7906,57.3735,-16.7328,3.00114,14.4781,48.2614,-18.0788,-4.29606,-1.54694,-9.42068,4.46553,-21.6502,28.8946,-16.7058,5.89737,-7.35087
0.943629,17.6975,-3.4503,1.19556,-44.1022,-0.393442,6.32902,-0.847033,-4.63479,-2.15697,-1.81034,-4.19983,-5.81173,-0.826712,-1.57856,-23.8502,-12.0245,-12.0524,-12.9271,-12.99,12.647,1.25446,-5.91307,4.71726,3.99557e-14,-1.59028e-15,47.8832,-31.2814,-15.4653,47.5793,5.84924,-33.659,3.32498,7.12502,-6.85042,-26.5442,3.99557e-14,-1.59028e-15,-21.3722,-10.0439,72.7663,53.9472,4.71229,-11.9137,28.5218,7.12502,14.1402,58.0206,-16.5483,2.4773,14.5873,47.9069,-18.1922,-5.11361,-4.94005,-9.0235,4.5008,-21.6794,28.9289,-16.8739,5.86179,-7.49583
0.915478,17.698,-3.4285,1.66726,-44.1179,-0.834811,6.06062,-0.832523,-4.36881,-2.23159,-1.74988,-4.16763,-5.74271,-0.806273,-1.70366,-24.2248,-12.0217,-11.7366,-12.7294,-13.0283,12.5085,1.33397,-5.93306,4.60408,-3.70733e-14,-2.70347e-14,49.478,-32.1574,-16.0734,46.119,6.9341,-33.733,3.02474,7.12502,-6.92186,-26.8421,-3.70733e-14,-2.70347e-14,-20.7915,-10.383,72.6643,55.277,4.79007,-12.9255,28.7453,7.12502,13.165,58.3097,-16.7308,2.2567,15.047,47.4923,-18.596,-5.29244,-4.493,-9.09803,4.6365,-21.3179,28.9768,-16.9978,5.81154,-7.81624
0.887054,17.699,-3.39826,1.86704,-44.0254,-1.2429,5.9715,-0.815437,-4.03848,-2.25834,-1.69173,-4.13816,-5.727,-0.788622,-1.86487,-24.4387,-12.0641,-11.6916,-12.559,-13.0731,12.5166,1.41504,-5.94592,4.58121,6.55989e-15,9.54166e-15,50.9601,-32.9471,-16.544,44.7034,7.85482,-33.8201,3.11959,7.12502,-7.00589,-26.7445,6.55989e-15,9.54166e-15,-20.2342,-10.8673,72.5931,56.5856,4.88943,-14.7479,28.1705,7.12502,11.4079,57.8402,-16.5789,1.82254,15.4446,47.0632,-18.9286,-5.19521,-3.97319,-8.87733,4.5961,-20.9749,29.0657,-17.2283,5.75616,-7.80653
0.855627,17.6969,-3.37227,1.86731,-43.8991,-1.48825,5.99958,-0.744073,-3.87461,-2.31121,-1.58642,-4.12238,-5.80166,-0.741042,-1.95139,-24.3169,-12.1756,-11.8514,-12.5136,-13.1864,12.6286,1.44536,-5.99233,4.62674,7.49915e-14,-1.27222e-14,52.2036,-33.6454,-16.82,43.4096,8.59522,-33.8259,3.15532,7.12502,-7.01148,-26.7086,7.49915e-14,-1.27222e-14,-19.7533,-11.3478,72.6139,57.9177,5.00287,-15.6048,27.4577,7.12502,10.5814,57.1713,-16.3654,1.32485,15.7479,46.6434,-19.2002,-5.14308,-4.55879,-8.58432,4.62468,-20.7284,29.1819,-17.4542,5.66246,-8.4204
0.831222,17.6942,-3.35963,2.02441,-43.8912,-1.51043,5.90751,-0.631498,-3.90607,-2.49216,-1.44529,-4.13807,-5.93901,-0.668966,-1.96761,-24.1749,-12.294,-11.9433,-12.5074,-13.3276,12.5742,1.44331,-6.06022,4.61037,-3.03147e-15,1.43125e-14,53.3598,-34.3301,-17.1221,42.2418,9.19513,-33.7043,3.29044,7.12502,-6.89415,-26.5773,-3.03147e-15,1.43125e-14,-19.3143,-11.79,72.7163,59.3248,4.84074,-15.8738,27.6061,7.12502,10.3219,57.3328,-16.6087,0.938084,15.8953,46.2564,-19.4326,-5.03363,-5.22018,-8.70972,4.44659,-20.7008,29.2842,-17.522,5.89133,-9.10889
0.80827,17.6911,-3.35017,2.04201,-43.7717,-1.45598,5.95518,-0.527334,-3.96804,-2.64774,-1.32794,-4.17859,-6.13039,-0.607583,-1.98943,-24.2535,-12.4197,-11.9385,-12.3011,-13.4833,12.3168,1.50457,-6.13404,4.50216,-6.71892e-14,0,54.4076,-34.9811,-17.3811,41.2078,9.80239,-33.4984,3.01922,7.12502,-6.69536,-26.8549,-6.71892e-14,0,-18.7049,-12.5481,72.8151,60.6538,4.61536,-15.9958,27.8242,7.12502,10.2042,57.5568,-16.7644,0.477809,16.0039,45.8844,-19.6928,-4.84884,-4.72863,-8.74471,4.0959,-20.7275,29.3899,-17.5991,6.17687,-9.92272
0.780635,17.6889,-3.32782,2.15232,-43.6982,-1.68223,5.91238,-0.465138,-3.74713,-2.6412,-1.22785,-4.25743,-6.10411,-0.569402,-2.20727,-24.7292,-12.4749,-11.607,-12.0662,-13.5892,12.066,1.60026,-6.18619,4.33969,3.27498e-14,3.97569e-14,55.5507,-35.742,-18.0173,40.3238,10.1819,-33.3844,2.63077,7.12502,-6.58532,-27.2468,3.27498e-14,3.97569e-14,-17.8558,-13.3965,72.528,62.0961,4.63173,-16.3569,28.1516,7.12502,9.85583,57.901,-16.7581,-0.0139708,16.3211,45.4983,-19.9599,-4.67319,-4.94306,-8.62348,3.87168,-20.5387,29.5427,-17.817,6.31133,-9.42717
0.752512,17.684,-3.30982,2.18607,-43.5946,-1.84787,5.97096,-0.500569,-3.62681,-2.65176,-1.27799,-4.37329,-6.1552,-0.601836,-2.39092,-25.3386,-12.4222,-11.1894,-11.6698,-13.5744,11.9705,1.76214,-6.17288,4.2171,-7.9663e-14,6.36111e-15,57.0361,-36.398,-19.2077,39.4194,10.5773,-33.3178,2.74699,7.12502,-6.52103,-27.1326,-7.9663e-14,6.36111e-15,-17.2089,-13.37,72.1866,63.4205,4.48734,-16.5494,27.4032,7.12502,9.67009,57.1613,-16.7193,-0.432635,16.6091,45.1064,-20.1359,-4.65688,-5.75834,-8.48378,3.77299,-20.3559,29.6879,-18.0251,6.23434,-8.66758
0.721368,17.6771,-3.2932,2.2453,-43.542,-2.06642,6.00185,-0.537603,-3.53868,-2.74857,-1.32808,-4.37185,-6.2781,-0.629046,-2.43413,-25.5348,-12.4059,-11.2417,-11.2997,-13.529,12.046,1.90708,-6.13331,4.23427,-2.28602e-15,1.59028e-14,58.5674,-36.7716,-20.3268,38.652,11.0056,-33.2927,2.60539,7.12502,-6.4968,-27.275,-2.28602e-15,1.59028e-14,-16.7248,-13.9628,71.8133,64.8896,5.05566,-16.8925,26.8603,7.12502,9.33907,56.6334,-16.6421,-0.835035,16.9499,44.6852,-20.2936,-4.40124,-5.43954,-8.33389,3.84496,-20.121,29.8507,-18.2117,6.1913,-9.30069
0.689234,17.6725,-3.27763,2.28083,-43.4192,-2.12595,5.95129,-0.557476,-3.59015,-2.92027,-1.3637,-4.32588,-6.42953,-0.641985,-2.35489,-25.3478,-12.4891,-11.6564,-11.0498,-13.5524,12.1841,2.00134,-6.12497,4.33141,9.54166e-15,-2.22639e-14,59.7395,-36.987,-20.9472,38.0813,11.0345,-33.3434,1.77535,7.12502,-6.54568,-28.1035,9.54166e-15,-2.22639e-14,-16.2834,-14.3507,71.6967,66.2496,5.0676,-16.6519,26.458,7.12502,9.57125,56.2206,-16.6558,-1.41485,17.1622,44.2837,-20.5747,-3.92702,-4.27833,-8.2809,3.86096,-20.0256,30.0149,-18.3366,6.21114,-10.4738
0.656338,17.6708,-3.26425,2.50199,-43.3059,-2.51323,5.95298,-0.559781,-3.39583,-3.09782,-1.35363,-4.2307,-6.61992,-0.640866,-2.36671,-25.2052,-12.59,-12.0019,-10.7431,-13.6139,12.2297,2.10893,-6.13862,4.38194,-2.18663e-14,-4.77083e-15,60.7471,-37.1303,-21.4269,37.5417,10.9977,-33.5233,1.1468,7.12502,-6.71944,-28.7266,-2.18663e-14,-4.77083e-15,-15.7602,-14.7784,71.5042,67.4875,4.71117,-16.0666,26.3689,7.12502,10.1359,56.1047,-16.6213,-1.88785,17.6693,43.8836,-20.7677,-3.66572,-3.524,-8.19103,3.85843,-19.6325,30.165,-18.4743,6.1452,-10.9422
0.623915,17.6679,-3.25416,2.7385,-43.2075,-2.93504,5.96143,-0.561402,-3.18914,-3.23916,-1.33749,-4.11573,-6.7754,-0.637321,-2.36492,-25.1579,-12.7093,-12.3896,-10.4283,-13.6794,12.3168,2.23736,-6.14961,4.44724,4.92986e-14,3.18055e-14,61.9519,-37.2975,-22.133,36.9441,11.2114,-33.6642,0.785606,7.12502,-6.85541,-29.0834,4.92986e-14,3.18055e-14,-15.1328,-15.2527,71.273,68.7549,4.74016,-15.6822,26.0177,7.12502,10.5067,55.7351,-16.5834,-2.30038,18.2155,43.4945,-20.8598,-3.4047,-2.80035,-8.09269,3.70798,-19.2134,30.2945,-18.5908,6.29032,-12.1348
0.593805,17.6649,-3.24116,2.6967,-43.046,-3.02746,6.09762,-0.585612,-3.20888,-3.40735,-1.38501,-4.04651,-7.03208,-0.655961,-2.27644,-25.0663,-12.8154,-12.8398,-10.0905,-13.7186,12.4451,2.37299,-6.14583,4.53849,-7.82218e-14,-3.97569e-14,63.1545,-37.3576,-22.838,36.3295,11.4855,-33.7533,0.695012,7.12502,-6.94141,-29.1712,-7.82218e-14,-3.97569e-14,-14.5534,-15.8843,71.0606,70.066,4.90834,-15.1589,26.8334,7.12502,11.0115,56.5246,-16.4943,-2.89133,18.4871,43.124,-20.896,-3.24029,-3.97919,-7.91246,3.47806,-19.0563,30.4014,-18.7699,6.36544,-13.0437
0.560996,17.6611,-3.23186,2.72666,-42.8738,-3.11484,6.17112,-0.64977,-3.26326,-3.58461,-1.48971,-4.01986,-7.26431,-0.702557,-2.20655,-25.0225,-12.8094,-12.9833,-9.77523,-13.6865,12.43,2.46913,-6.1218,4.55037,1.03368e-14,5.40694e-14,64.2859,-37.412,-23.5864,35.7301,11.6502,-33.7663,0.928621,7.12502,-6.95402,-28.9372,1.03368e-14,5.40694e-14,-13.8413,-16.4278,70.6591,71.2543,4.93994,-15.1898,27.2221,7.12502,10.9817,56.9149,-16.4786,-3.40459,18.7733,42.7942,-20.8757,-2.91132,-3.75007,-7.80945,3.34851,-18.8776,30.4634,-18.8704,6.27584,-13.4518
0.528951,17.6573,-3.22188,2.89187,-42.6882,-3.22683,6.06381,-0.755674,-3.19926,-3.71662,-1.63664,-4.12631,-7.35164,-0.781484,-2.33898,-25.239,-12.7401,-12.7261,-9.3826,-13.6518,12.3712,2.59506,-6.10208,4.47968,-1.53064e-14,-2.54444e-14,65.3987,-37.5569,-24.7069,35.2074,12.2019,-33.7915,1.0317,7.12502,-6.97826,-28.8333,-1.53064e-14,-2.54444e-14,-12.9335,-17.1159,69.9425,72.4448,5.47876,-16.2296,26.9035,7.12502,9.97866,56.6469,-16.5891,-3.91409,19.1071,42.4923,-20.7886,-2.65957,-3.91455,-7.83761,3.48021,-18.6482,30.4969,-18.9133,5.95231,-13.6736
0.495281,17.6474,-3.19752,2.67839,-42.7161,-3.23704,6.01745,-0.813349,-3.01206,-3.64536,-1.71228,-4.40371,-7.26563,-0.838314,-2.72804,-25.7172,-12.6304,-12.0751,-8.99888,-13.6425,12.2033,2.72019,-6.10251,4.30673,3.57812e-15,-1.43125e-14,66.913,-37.8453,-26.5398,34.544,13.307,-33.771,1.23421,7.12502,-6.95849,-28.6314,3.57812e-15,-1.43125e-14,-11.7548,-18.0666,68.7041,73.724,6.48664,-17.2668,26.6964,7.12502,8.97788,56.4854,-16.3366,-4.3686,19.2721,42.1858,-20.5581,-2.45689,-3.3554,-7.46012,3.33473,-18.5692,30.5729,-19.136,5.89941,-12.5971
0.453438,17.6478,-3.18637,3.09149,-42.7615,-3.59977,5.6608,-0.816273,-2.81773,-3.7335,-1.68822,-4.46268,-7.15969,-0.839412,-2.90628,-26.0066,-12.6487,-11.7567,-8.63939,-13.7299,12.0253,2.84076,-6.14576,4.17297,-3.33958e-14,-1.43125e-14,68.5571,-38.1146,-28.3645,33.7661,14.6763,-33.6206,1.0726,7.12502,-6.81333,-28.7978,-3.33958e-14,-1.43125e-14,-10.6806,-18.6171,67.8215,74.8549,6.57747,-17.3597,26.5483,7.12502,8.88821,56.3411,-16.5281,-4.62907,19.7992,41.8773,-20.3709,-2.48668,-1.52612,-7.55869,3.26201,-18.1951,30.695,-19.1819,5.65573,-10.3297
0.408163,17.6496,-3.16644,3.15431,-43.0577,-3.90261,5.53833,-0.701391,-2.72362,-3.83403,-1.52369,-4.43965,-7.19224,-0.762856,-2.95616,-25.9477,-12.707,-11.7969,-8.28662,-13.8064,11.8579,2.93682,-6.18332,4.10771,-1.3577e-13,-3.33958e-14,69.7517,-38.1203,-29.5381,33.1481,15.891,-33.3911,0.860792,7.12502,-6.59176,-29.0166,-1.3577e-13,-3.33958e-14,-10.1863,-18.6606,67.5376,76.0815,5.68142,-16.7796,25.9569,7.12502,9.44805,55.7251,-16.3502,-4.76667,20.2239,41.5868,-20.2215,-2.58121,0.658219,-7.22817,3.47189,-17.916,30.8248,-19.0587,5.59603,-9.20572
0.374119,17.6494,-3.17166,3.33475,-42.8311,-4.26144,5.80718,-0.754924,-2.58452,-4.06098,-1.61074,-4.4157,-7.59808,-0.81161,-3.00019,-25.4503,-12.9179,-12.3084,-8.25667,-14.0144,12.3501,2.98639,-6.26389,4.31721,3.93594e-14,-1.59028e-15,70.2187,-37.9835,-29.8161,32.7218,16.3611,-33.7143,0.458488,7.12502,-6.90376,-29.4089,3.93594e-14,-1.59028e-15,-9.66975,-18.9012,67.1511,77.2567,5.00684,-15.9768,25.7978,7.12502,10.2225,55.5294,-16.2734,-5.2392,20.8342,41.3026,-19.9336,-3.38728,2.80602,-7.21602,3.59047,-17.4338,31.0259,-19.0723,5.36591,-10.1311
0.33709,17.6461,-3.15559,3.49632,-42.8848,-4.51666,5.6558,-0.775809,-2.31862,-4.13764,-1.62177,-4.53875,-7.60443,-0.836484,-3.28131,-25.5614,-13.013,-12.3536,-7.9695,-14.1392,12.6581,3.13841,-6.30186,4.38665,5.76476e-15,6.83819e-14,70.8249,-38.0114,-30.4467,32.4004,17.0525,-34.007,-0.255756,7.12502,-7.1863,-30.1137,5.76476e-15,6.83819e-14,-8.59728,-19.2182,66.3334,78.1617,4.92499,-15.678,25.7433,7.12502,10.5108,55.4605,-16.2144,-5.70455,21.2544,41.0238,-19.313,-4.35411,5.56084,-7.17683,3.25168,-17.1979,31.2967,-19.4263,5.76736,-10.9524
0.301298,17.6504,-3.15572,3.58326,-42.6757,-4.799,5.79988,-0.921391,-2.17905,-4.16123,-1.82331,-4.65325,-7.73187,-0.94736,-3.45651,-26.7261,-12.7232,-11.253,-6.92524,-13.9473,11.7191,3.4303,-6.22122,3.89915,-2.24627e-14,2.22639e-14,71.7684,-38.0971,-31.5284,31.9039,17.9046,-34.3194,-0.654098,7.12502,-7.48786,-30.5016,-2.24627e-14,2.22639e-14,-7.09203,-19.6779,65.1474,78.8317,5.05374,-15.6259,25.7875,7.12502,10.5611,55.5021,-16.0085,-6.27442,21.7565,40.7618,-19.0702,-5.5434,7.58785,-7.13564,3.45708,-16.7889,31.5928,-19.2951,5.33705,-11.0587
0.266903,17.6623,-3.15984,3.92654,-42.5704,-5.31133,5.89857,-0.914004,-1.91098,-4.3669,-1.80328,-4.61921,-8.01736,-0.952623,-3.57635,-26.1636,-12.9617,-11.7798,-6.97117,-14.1954,12.3229,3.46472,-6.31822,4.14244,3.77691e-15,0,72.3273,-38.0155,-32.0285,31.3623,18.7244,-34.6255,-0.74652,7.12502,-7.78328,-30.5833,3.77691e-15,0,-5.89188,-20.3046,64.435,79.6008,5.0994,-15.57,25.68,7.12502,10.615,55.3919,-15.9426,-6.59554,22.4874,40.5513,-19.2938,-6.57699,8.71914,-7.17524,3.48891,-16.2172,31.7707,-19.075,5.05671,-10.1394
0.234185,17.6657,-3.16009,4.22766,-42.5139,-5.81963,6.02225,-0.842762,-1.53152,-4.626,-1.68531,-4.54023,-8.37226,-0.916414,-3.72525,-26.12,-12.8834,-11.8379,-6.25383,-14.0668,11.579,3.59909,-6.27619,3.92218,-6.55989e-15,-4.77083e-15,72.5324,-37.8102,-31.9521,30.8983,19.329,-34.8638,-1.11241,7.12502,-8.01336,-30.9405,-6.55989e-15,-4.77083e-15,-4.96971,-20.8183,64.0866,80.4082,4.89733,-15.5673,25.3928,7.12502,10.6176,55.1046,-15.7854,-6.86352,23.1693,40.3177,-19.5309,-7.22472,10.235,-7.16018,3.498,-15.6572,31.9542,-19.1499,5.08651,-11.8965
0.188939,17.669,-3.14012,3.7839,-42.613,-5.37922,5.92127,-0.801016,-1.82469,-4.73707,-1.67954,-4.73347,-8.43349,-0.906587,-3.76947,-26.1613,-12.864,-11.8332,-5.83472,-14.0497,11.4879,3.72618,-6.26304,3.88218,9.26337e-14,-1.43125e-14,72.9945,-37.6245,-32.3423,30.4673,19.9633,-34.963,-1.686,7.12502,-8.10902,-31.5104,9.26337e-14,-1.43125e-14,-3.95074,-21.2088,63.4349,81.2274,4.92563,-15.8151,25.4664,7.12502,10.3786,55.1903,-15.3963,-7.3138,22.9452,40.0819,-19.6071,-7.28199,11.3728,-6.87248,3.59381,-15.93,32.1449,-19.3039,5.2215,-13.8368
0.148691,17.6816,-3.13539,3.79581,-42.51,-5.55435,5.98677,-0.810798,-1.73036,-4.86771,-1.70138,-4.79791,-8.62132,-0.927777,-3.89136,-26.2448,-12.9159,-11.9951,-5.46361,-14.0848,11.6377,3.88264,-6.25934,3.93263,7.95139e-16,-4.29375e-14,73.3219,-37.5626,-32.5818,30.05,20.4633,-34.7192,-2.14382,7.12502,-7.87376,-31.9772,7.95139e-16,-4.29375e-14,-2.79925,-21.7415,62.6862,82.0804,5.33413,-16.2626,25.5978,7.12502,9.94679,55.3428,-15.082,-7.61032,23.2849,39.8358,-19.745,-7.52814,11.5673,-6.71582,3.83739,-15.6225,32.2282,-18.9285,4.83988,-14.2012
0.113454,17.6942,-3.14286,4.30072,-42.2569,-6.23408,6.07823,-0.819073,-1.35185,-5.10139,-1.68205,-4.68276,-8.93567,-0.940384,-3.98884,-26.144,-13.037,-12.3359,-5.18091,-14.1682,11.7043,3.99445,-6.28702,3.98467,1.24042e-13,3.02153e-14,73.3156,-37.4308,-32.3431,29.7719,20.7518,-34.6499,-2.78499,7.12502,-7.80686,-32.6209,1.24042e-13,3.02153e-14,-1.60029,-22.2881,62.0869,82.7329,5.64305,-16.727,25.3031,7.12502,9.4988,55.069,-14.9417,-7.78653,24.1419,39.4977,-19.8852,-8.14808,11.8154,-6.918,3.99952,-14.8678,32.4561,-18.4779,4.4323,-14.2958
0.0583862,17.7052,-3.11078,3.88545,-42.4132,-5.69292,5.60721,-0.698375,-1.67501,-5.14708,-1.55602,-4.90375,-8.69988,-0.869118,-4.06195,-26.5652,-13.0025,-12.0724,-4.63976,-14.1329,11.1563,4.14384,-6.28053,3.75412,4.09496e-14,1.74931e-14,73.3252,-37.3551,-32.1958,29.539,21.0676,-34.5039,-3.07454,7.12502,-7.66597,-32.9156,4.09496e-14,1.74931e-14,-0.288408,-22.6084,61.3849,83.2731,5.21696,-16.4765,25.0044,7.12502,9.74049,54.7592,-14.4532,-8.23617,23.7472,39.1271,-19.7495,-8.08512,11.9037,-6.63745,4.27113,-15.2584,32.6397,-18.4874,4.33512,-14.7678
0.0293899,17.7161,-3.13825,4.46964,-42.1054,-6.55409,6.03854,-0.771327,-1.27495,-5.34036,-1.63188,-4.76364,-9.17722,-0.92934,-4.13158,-27.1381,-13.0094,-11.7395,-4.08588,-14.1554,10.6252,4.32053,-6.29937,3.50459,-7.39479e-14,1.74931e-14,73.2437,-37.31,-31.8975,29.325,20.998,-34.3663,-3.2497,7.12502,-7.53313,-33.0956,-7.39479e-14,1.74931e-14,1.01614,-22.7925,60.7142,83.7159,4.44731,-15.9137,24.3577,7.12502,10.2834,54.0863,-14.2919,-7.93454,24.7931,38.698,-20.1119,-8.70717,13.6452,-6.93108,4.29949,-14.2857,32.8532,-18.1242,4.0393,-15.7324
-0.0232394,17.7334,-3.12057,4.12485,-42.1395,-6.11255,5.73365,-0.709048,-1.54059,-5.41175,-1.58631,-4.95593,-9.07288,-0.900105,-4.19629,-26.9034,-13.2236,-12.2064,-4.10752,-14.3458,11.0075,4.36814,-6.36888,3.66827,-7.7526e-14,-4.77083e-14,73.2434,-37.2569,-31.7577,29.0954,21.1498,-34.165,-3.06186,7.12502,-7.33883,-32.9146,-7.7526e-14,-4.77083e-14,2.06262,-22.9306,60.2616,84.2903,4.08216,-15.9089,24.0737,7.12502,10.288,53.8021,-13.8265,-7.96177,24.4889,38.3144,-20.153,-8.70925,13.6845,-6.69541,4.44479,-14.5267,32.8728,-18.0444,3.95327,-16.9869
-0.0756011,17.7513,-3.10205,3.75134,-42.1781,-5.71266,5.50353,-0.677159,-1.79786,-5.5184,-1.58308,-5.1248,-9.05404,-0.891952,-4.23546,-26.4571,-13.3122,-12.5788,-4.12216,-14.431,11.3673,4.37593,-6.39738,3.83423,-6.36111e-14,-5.08889e-14,73.2035,-37.0278,-31.6361,28.9504,21.1621,-33.9791,-3.13612,7.12502,-7.1594,-32.995,-6.36111e-14,-5.08889e-14,2.83474,-22.7979,60.0573,84.8296,3.65483,-15.9063,23.7843,7.12502,10.2905,53.5126,-13.2498,-7.88915,24.1859,37.8572,-20.2454,-8.68805,13.9052,-6.43569,4.54693,-14.7288,32.9829,-17.7838,3.81602,-18.0567
-0.120128,17.7685,-3.10128,3.71381,-42.0936,-5.68464,5.42507,-0.680207,-1.88719,-5.63722,-1.60863,-5.20004,-9.14099,-0.904536,-4.26553,-26.6691,-13.2901,-12.5086,-3.6297,-14.3915,11.0393,4.51834,-6.38359,3.70771,1.66979e-14,3.18055e-14,74.0494,-36.8507,-32.5456,28.4178,22.0164,-33.6861,-3.5581,7.12502,-6.87657,-33.4264,1.66979e-14,3.18055e-14,3.9577,-22.9718,59.4749,85.3158,3.53905,-15.8902,23.3624,7.12502,10.3061,53.0899,-12.8604,-7.58731,24.294,37.402,-20.3235,-8.99287,14.2008,-6.38902,4.64625,-14.5317,33.0083,-17.4428,3.42108,-18.6406
-0.16323,17.7909,-3.10308,3.74813,-41.9581,-5.72234,5.30667,-0.79682,-1.80169,-5.63323,-1.77362,-5.42026,-9.09044,-1.00198,-4.53034,-27.31,-13.3227,-12.2161,-3.39298,-14.4831,11.3426,4.6983,-6.38861,3.7183,9.14409e-15,6.67916e-14,75.4887,-36.756,-34.4405,27.7075,23.3637,-33.6279,-3.91573,7.12502,-6.82033,-33.7859,9.14409e-15,6.67916e-14,5.86298,-23.7049,57.4746,86.1478,4.12687,-16.2703,24.1399,7.12502,9.93935,53.8852,-12.4445,-7.17493,24.438,36.8769,-20.3646,-9.27942,14.1906,-6.42964,4.63541,-14.2839,33.1327,-17.1612,3.03747,-19.0322
-0.206987,17.8185,-3.10496,3.83255,-41.8202,-5.86696,5.24619,-1.02193,-1.55153,-5.59914,-2.07845,-5.72124,-9.06456,-1.18282,-4.95825,-27.6878,-13.2005,-11.5812,-3.50412,-14.5205,11.8063,4.72617,-6.37518,3.75677,3.65764e-14,-2.8625e-14,76.9412,-36.6313,-36.6437,27.0773,24.6628,-33.6873,-3.89028,7.12502,-6.87774,-33.7586,3.65764e-14,-2.8625e-14,7.19092,-23.5809,55.9319,86.7459,4.12732,-16.4394,24.4412,7.12502,9.77629,54.1943,-11.9671,-6.61764,24.6514,36.3125,-20.5322,-9.55423,14.4178,-6.46861,4.62936,-13.9489,33.3172,-16.5633,2.6146,-19.1098
-0.251445,17.8464,-3.10265,3.86992,-41.7575,-5.95524,5.1758,-1.02413,-1.43065,-5.70775,-2.08636,-5.8323,-9.15404,-1.20325,-5.14989,-27.9957,-13.156,-11.3068,-3.17308,-14.4964,11.4281,4.81262,-6.37213,3.58535,-7.67309e-14,-4.45278e-14,77.1828,-36.5022,-36.9671,26.7629,25.0089,-33.6583,-4.03143,7.12502,-6.84973,-33.9006,-7.67309e-14,-4.45278e-14,8.33339,-23.8051,55.1639,87.2227,3.87165,-16.5894,24.4705,7.12502,9.63151,54.2303,-11.4668,-6.09482,24.7922,35.7202,-20.4784,-9.79113,14.1446,-6.46386,4.45861,-13.7021,33.515,-15.8393,2.32362,-19.2187
-0.296437,17.8706,-3.1033,3.82539,-41.7316,-5.8797,5.18386,-0.84,-1.55914,-5.99918,-1.86793,-5.77589,-9.45525,-1.09199,-5.05209,-28.0282,-13.2921,-11.7241,-2.66142,-14.4945,10.8105,4.94085,-6.39386,3.43779,-3.81667e-14,7.31528e-14,76.6374,-36.3023,-35.954,26.6075,24.9522,-33.3177,-4.37441,7.12502,-6.52095,-34.254,-3.81667e-14,7.31528e-14,9.24692,-24.283,55.1769,87.6594,3.7251,-16.6444,24.4601,7.12502,9.57843,54.2224,-11.0246,-5.70846,24.8064,35.1144,-20.2518,-9.96703,14.0524,-6.5178,4.33036,-13.5617,33.741,-15.3204,2.01495,-19.5316
-0.341512,17.8945,-3.10285,3.93282,-41.7276,-5.9425,5.12726,-0.703401,-1.57255,-6.24407,-1.70059,-5.76698,-9.67878,-1.01496,-5.06441,-28.213,-13.4427,-12.1581,-2.13989,-14.5286,10.6303,5.14257,-6.40276,3.41709,-2.0276e-14,2.8625e-14,76.0934,-36.1456,-35.0365,26.4409,24.5544,-32.9695,-4.60011,7.12502,-6.18472,-34.4898,-2.0276e-14,2.8625e-14,10.3184,-24.6898,54.8699,88.0186,3.61662,-16.6549,24.3956,7.12502,9.56836,54.1583,-10.6727,-5.25145,24.9476,34.504,-19.9802,-10.1636,13.8803,-6.6556,4.38365,-13.2619,33.9696,-15.0664,1.53049,-20.1119
-0.383973,17.9155,-3.10168,4.01118,-41.6839,-6.10137,5.10636,-0.67441,-1.42742,-6.39568,-1.66229,-5.80565,-9.83834,-1.01315,-5.19938,-28.2884,-13.5333,-12.4167,-1.86216,-14.5738,10.7318,5.27268,-6.40804,3.46804,3.29983e-14,-6.67916e-14,76.3408,-35.9562,-35.2966,26.1021,24.7962,-32.6002,-4.36856,7.12502,-5.82825,-34.2684,3.29983e-14,-6.67916e-14,11.3516,-24.8552,54.3808,88.3864,3.42974,-16.6136,24.0974,7.12502,9.60816,53.8583,-10.2006,-4.80589,25.1534,33.9165,-19.7364,-10.3069,13.9967,-6.69546,4.45067,-12.8942,34.1858,-14.6497,1.04886,-21.3714
-0.427152,17.9388,-3.1018,4.07997,-41.5977,-6.27225,5.04811,-0.71621,-1.2279,-6.47927,-1.7109,-5.87975,-9.91107,-1.05822,-5.39032,-28.2125,-13.528,-12.4392,-1.93109,-14.5737,10.8198,5.25143,-6.40435,3.50321,-5.32743e-14,5.725e-14,76.6644,-35.825,-35.7987,25.8167,25.0037,-32.1304,-4.14842,7.12502,-5.37465,-34.0603,-5.32743e-14,5.725e-14,12.5107,-24.9024,53.6278,88.6268,3.34271,-16.626,23.9291,7.12502,9.59623,53.6905,-9.67815,-4.30516,25.3747,33.335,-19.74,-10.397,14.5667,-6.72187,4.35427,-12.5371,34.4071,-14.159,0.738818,-22.6085
-0.471062,17.9661,-3.10349,4.16644,-41.5896,-6.2943,4.89882,-0.707564,-1.17248,-6.6004,-1.70662,-5.97009,-9.96306,-1.06887,-5.52502,-28.3259,-13.5153,-12.4268,-1.80361,-14.5456,10.764,5.29793,-6.38836,3.48161,2.78299e-14,9.54166e-15,76.8229,-35.7791,-35.9582,25.5478,24.9798,-31.2016,-3.89963,7.12502,-4.47785,-33.8323,2.78299e-14,9.54166e-15,13.5945,-24.9917,52.9373,89.0431,3.375,-16.6942,24.2231,7.12502,9.53042,53.9875,-9.33269,-3.95159,25.4631,32.7877,-19.5688,-10.4294,14.8383,-6.84589,4.16451,-12.3173,34.6025,-13.6628,0.407857,-22.6574
-0.513457,17.9909,-3.1019,4.17611,-41.5672,-6.34533,4.87268,-0.611967,-1.10187,-6.74932,-1.5827,-5.98635,-10.1054,-1.01938,-5.60517,-28.2687,-13.6165,-12.7787,-1.67113,-14.5709,10.7641,5.3568,-6.39684,3.52543,-5.96354e-14,3.18055e-14,76.7513,-35.6702,-35.7343,25.3605,24.9904,-30.1006,-3.61271,7.12502,-3.41458,-33.5651,-5.96354e-14,3.18055e-14,14.5353,-25.2584,52.6016,89.4515,3.34944,-17.2341,24.9249,7.12502,9.00948,54.7125,-8.9296,-3.70891,25.5676,32.2835,-19.1507,-10.5949,14.0366,-6.86485,4.1338,-12.0603,34.7681,-13.0926,-0.029722,-23.1624
-0.557787,18.0159,-3.10369,4.15128,-41.5812,-6.27548,4.77626,-0.526549,-1.17506,-6.86606,-1.48433,-6.03101,-10.169,-0.971848,-5.62925,-28.3199,-13.6762,-12.9226,-1.6057,-14.5812,10.65,5.38147,-6.40499,3.50476,4.6118e-14,0,76.5796,-35.5582,-35.4321,25.2826,24.805,-29.0745,-3.26996,7.12502,-2.42366,-33.2359,4.6118e-14,0,15.4649,-25.3167,52.2699,89.7456,3.00509,-17.6002,24.559,7.12502,8.6562,54.3616,-8.58071,-3.37443,25.5928,31.821,-19.0138,-10.5943,14.6547,-6.90451,4.09892,-11.9098,34.8947,-12.4824,-0.353674,-23.8377
-0.599443,18.0356,-3.10794,4.19427,-41.5751,-6.29609,4.70405,-0.495447,-1.17311,-6.96288,-1.44956,-6.05677,-10.2323,-0.959574,-5.66641,-28.7372,-13.6493,-12.8702,-1.25695,-14.4846,10.3282,5.47817,-6.36438,3.40579,9.22361e-14,-1.59028e-14,76.6695,-35.4682,-35.5114,25.1858,24.6818,-27.7018,-2.63708,7.12502,-1.09788,-32.614,9.22361e-14,-1.59028e-14,16.5002,-25.1804,51.8537,89.918,2.62008,-17.6862,23.8306,7.12502,8.57316,53.6365,-8.26323,-2.93896,25.7283,31.3742,-19.0045,-10.7758,15.1253,-6.98807,4.26275,-11.6383,35.0336,-11.937,-0.861314,-24.5239
-0.641638,18.0572,-3.10594,4.26956,-41.5616,-6.34578,4.56003,-0.474843,-1.08194,-7.03764,-1.4169,-6.09974,-10.231,-0.955085,-5.77172,-28.8509,-13.6049,-12.9109,-1.15477,-14.3939,10.2667,5.51331,-6.31995,3.40076,5.56597e-14,9.85972e-14,76.8467,-35.3959,-35.781,25.1346,24.6351,-26.0982,-2.1269,7.12502,0.450939,-32.1062,5.56597e-14,9.85972e-14,17.534,-25.1215,51.2886,90.1281,2.2756,-17.7919,23.7337,7.12502,8.47113,53.5438,-7.98991,-2.59196,25.8583,30.9821,-18.8207,-10.9581,14.8396,-7.06262,4.18487,-11.402,35.1419,-11.3987,-1.1913,-24.6146
-0.682581,18.0776,-3.10777,4.25379,-41.5586,-6.37877,4.5596,-0.479397,-1.07804,-7.09364,-1.42728,-6.09815,-10.2948,-0.962525,-5.773,-28.8917,-13.5856,-13.0605,-1.08093,-14.3307,10.4049,5.55957,-6.27685,3.47341,4.37326e-14,2.22639e-14,76.7317,-35.2809,-35.597,25.2385,24.0203,-24.6423,-1.50829,7.12502,1.85702,-31.48,4.37326e-14,2.22639e-14,18.4223,-24.9497,50.7623,90.3908,2.25507,-17.9422,23.4773,7.12502,8.32609,53.2932,-7.65254,-2.27415,25.966,30.6316,-18.8515,-10.9611,16.0035,-7.03699,4.11129,-11.1906,35.2431,-10.9806,-1.40992,-25.4869
-0.723535,18.0952,-3.11222,4.28461,-41.6373,-6.36186,4.45288,-0.489534,-1.19241,-7.13171,-1.44581,-6.05356,-10.2698,-0.960723,-5.65612,-29.0448,-13.5374,-13.1014,-1.07501,-14.2303,10.3865,5.57083,-6.22538,3.48547,4.37326e-14,8.26944e-14,76.3856,-35.217,-35.0668,25.5743,23.0357,-23.2558,-0.843254,7.12502,3.19606,-30.799,4.37326e-14,8.26944e-14,19.2358,-24.5531,50.4129,90.7499,2.70775,-17.7229,23.3462,7.12502,8.53771,53.1536,-7.44452,-1.96988,26.0458,30.3362,-18.7164,-10.9874,16.7405,-7.06289,4.21836,-11.0108,35.3096,-10.4742,-1.69054,-26.3288
-0.766141,18.111,-3.11212,4.33646,-41.7266,-6.36978,4.34236,-0.510359,-1.28637,-7.1829,-1.47595,-5.99355,-10.2581,-0.96574,-5.53306,-29.3195,-13.3811,-12.9345,-1.01376,-14.0125,10.0692,5.56216,-6.13636,3.38695,-4.92986e-14,-3.49861e-14,76.4762,-35.0959,-35.027,25.7532,22.3753,-21.6405,-0.0635449,7.12502,4.75595,-29.9902,-4.92986e-14,-3.49861e-14,19.9163,-24.1251,50.0997,91.1282,2.98095,-17.3078,23.1655,7.12502,8.93834,52.9561,-7.23943,-1.61828,26.1497,30.0538,-18.5834,-11.134,16.4911,-7.08057,4.32103,-10.8195,35.4043,-10.0827,-1.95214,-27.5732
-0.808361,18.1242,-3.11208,4.31604,-41.8102,-6.22599,4.20961,-0.520468,-1.46594,-7.23572,-1.50504,-5.99101,-10.2351,-0.967064,-5.4246,-29.7251,-13.2357,-12.66,-0.777641,-13.8278,9.66644,5.61766,-6.06472,3.23131,-5.64548e-14,2.22639e-14,76.7715,-34.9365,-35.1442,25.8122,21.8435,-20.4353,0.461017,7.12502,5.91958,-29.4363,-5.64548e-14,2.22639e-14,20.5707,-23.7991,49.6912,91.4757,3.0521,-17.1925,22.9651,7.12502,9.04958,52.751,-7.08112,-1.28584,26.1291,29.8182,-18.6301,-11.2435,16.2966,-7.1297,4.26429,-10.791,35.4953,-9.79448,-2.07331,-29.1842
-0.846478,18.13,-3.11391,4.43477,-41.8647,-6.39973,4.00879,-0.536533,-1.24108,-7.11332,-1.49296,-6.05969,-9.98501,-0.977431,-5.62387,-30.1173,-13.1474,-12.4603,-0.615751,-13.7325,9.61076,5.69445,-6.01151,3.18556,4.92986e-14,2.8625e-14,77.1992,-35.0566,-35.6441,25.8979,21.624,-19.4623,1.00801,7.12502,6.85892,-28.8609,4.92986e-14,2.8625e-14,21.6001,-23.4087,48.9693,91.7822,3.16092,-17.1645,22.7029,7.12502,9.07657,52.4876,-6.87297,-1.14439,26.3666,29.6088,-18.6812,-11.3165,15.8559,-7.13279,4.1993,-10.4672,35.6128,-9.55124,-2.30587,-29.4053
-0.885582,18.1337,-3.11633,4.4195,-41.9138,-6.30374,3.77978,-0.598106,-1.26051,-7.0286,-1.56572,-6.11108,-9.76157,-1.01064,-5.65533,-30.4668,-12.964,-12.2916,-0.443282,-13.505,9.49916,5.75413,-5.90122,3.14946,-4.92986e-14,3.18055e-15,77.2641,-35.0939,-35.6688,26.2759,21.3261,-18.6039,1.49852,7.12502,7.68747,-28.3418,-4.92986e-14,3.18055e-15,22.3639,-22.9214,48.3785,92.0692,3.22782,-17.3325,22.5681,7.12502,8.91452,52.3598,-6.74453,-0.982396,26.3935,29.4574,-18.6321,-11.3742,15.0815,-7.17053,4.17629,-10.3954,35.7296,-9.31637,-2.44381,-29.1566
-0.923628,18.1356,-3.12541,4.3675,-41.994,-6.13105,3.70436,-0.673238,-1.50267,-7.00441,-1.68217,-6.09768,-9.69237,-1.04799,-5.48673,-30.9843,-12.7705,-12.0019,-0.152478,-13.2712,9.20905,5.85035,-5.79644,3.03181,-1.82882e-14,4.13472e-14,77.6238,-35.0256,-35.9863,26.5507,21.2563,-18.0889,1.90221,7.12502,8.18456,-27.9193,-1.82882e-14,4.13472e-14,22.9293,-22.2668,47.9082,92.3795,3.68937,-17.2457,21.9108,7.12502,8.99823,51.6989,-6.67245,-0.793343,26.3739,29.3625,-18.6308,-11.3521,14.8285,-7.25406,4.22523,-10.3842,35.8501,-9.09268,-2.53787,-29.3415
-0.960432,18.1318,-3.13514,4.35106,-42.0403,-6.04755,3.65196,-0.717476,-1.67052,-6.94627,-1.74891,-6.09533,-9.59681,-1.06625,-5.37815,-31.4118,-12.6001,-11.7089,-0.00407727,-13.0799,8.95328,5.89581,-5.71347,2.92379,6.44062e-14,2.54444e-14,77.6445,-35.1196,-35.9062,26.9162,20.9361,-17.9259,1.93432,7.12502,8.34184,-27.881,6.44062e-14,2.54444e-14,23.6221,-21.7086,47.4343,92.6673,4.01321,-17.1389,21.1846,7.12502,9.10131,50.9682,-6.61773,-0.693443,26.4225,29.3467,-18.7625,-11.2657,15.0062,-7.31175,4.24036,-10.2989,35.94,-8.98032,-2.6738,-29.7883
-0.995977,18.1231,-3.14154,4.18974,-42.1036,-5.88987,3.6492,-0.74614,-1.7467,-6.82586,-1.79494,-6.20162,-9.46844,-1.08602,-5.44164,-31.797,-12.3915,-11.2093,0.0666059,-12.9098,8.60132,5.89352,-5.65068,2.75439,3.02153e-14,3.49861e-14,77.318,-35.3544,-35.4476,27.2661,20.4544,-18.0929,2.07797,7.12502,8.18064,-27.7437,3.02153e-14,3.49861e-14,24.38,-21.3944,46.7172,93.1368,3.87652,-17.6068,21.9562,7.12502,8.64977,51.759,-6.48868,-0.716867,26.3753,29.3961,-18.7988,-11.0647,14.8006,-7.22432,4.3761,-10.2841,36.0128,-9.03215,-2.82012,-30.765
-1.03336,18.1135,-3.15187,4.11651,-42.2214,-5.77981,3.61289,-0.770934,-1.8731,-6.75045,-1.83592,-6.24876,-9.36504,-1.09763,-5.41374,-31.8893,-12.1961,-10.863,0.0382634,-12.7513,8.38553,5.84541,-5.59153,2.65916,-7.4743e-14,6.36111e-15,76.9637,-35.524,-34.9986,27.697,19.9088,-18.614,2.19876,7.12502,7.67768,-27.6419,-7.4743e-14,6.36111e-15,25.0034,-20.9952,46.1063,93.5814,3.8831,-17.8596,22.4882,7.12502,8.40583,52.3009,-6.44928,-0.735901,26.3868,29.4829,-18.8758,-10.8962,14.4096,-7.18753,4.31569,-10.2394,36.0852,-9.25246,-2.83014,-30.8774
-1.06885,18.094,-3.16553,3.96943,-42.2904,-5.76074,3.80524,-0.864384,-1.9552,-6.69849,-1.97195,-6.20853,-9.42886,-1.15556,-5.30529,-31.8466,-11.953,-10.6716,0.0298977,-12.4961,8.20901,5.7926,-5.48698,2.61719,-3.57812e-14,-5.08889e-14,77.3494,-35.4487,-35.5298,27.9373,20.1276,-19.7674,2.23361,7.12502,6.56441,-27.6447,-3.57812e-14,-5.08889e-14,25.3303,-20.3961,45.674,93.9032,4.16173,-17.9163,22.6106,7.12502,8.35107,52.4255,-6.29016,-0.714067,26.5012,29.5927,-19.0712,-10.7492,14.4877,-7.0299,4.18382,-10.0969,36.1855,-9.65111,-2.88967,-30.744
-1.09944,18.071,-3.17366,3.87581,-42.3109,-5.73063,3.92585,-0.973656,-1.88791,-6.6762,-2.12141,-6.22868,-9.4926,-1.23494,-5.34678,-31.5802,-11.7246,-10.5436,-0.0588878,-12.2769,8.1804,5.70578,-5.3934,2.63385,9.22361e-14,6.04305e-14,77.8979,-35.3608,-36.3488,28.1396,20.824,-20.9294,1.89899,7.12502,5.44248,-28.0111,9.22361e-14,6.04305e-14,25.5613,-19.8554,45.1551,94.3369,4.55786,-17.7908,22.7478,7.12502,8.47219,52.5579,-6.22335,-0.89901,26.5798,29.707,-19.0487,-10.6165,14.1491,-6.96935,3.95304,-10.0131,36.3661,-10.2317,-2.84743,-30.3573
-1.12992,18.0424,-3.18244,3.94622,-42.3212,-5.87015,3.98836,-1.0502,-1.69998,-6.65493,-2.21086,-6.23454,-9.52172,-1.29254,-5.44861,-31.4623,-11.479,-10.1716,-0.00285484,-12.0833,7.90273,5.65453,-5.32625,2.52231,-2.46493e-14,2.22639e-14,77.9384,-35.4651,-36.5178,28.4983,21.0989,-22.0443,1.43136,7.12502,4.36597,-28.5036,-2.46493e-14,2.22639e-14,25.9522,-19.4012,44.586,94.7198,4.94261,-17.7595,22.196,7.12502,8.5024,52.0049,-6.21191,-1.25006,26.7899,29.8239,-19.0745,-10.3636,13.9288,-6.95739,3.72502,-9.82724,36.6421,-10.8561,-2.61719,-29.7189
-1.15214,18.0054,-3.20566,4.38125,-42.1901,-6.58888,4.35392,-1.1701,-1.22047,-6.68301,-2.3297,-6.03839,-9.79,-1.37651,-5.49176,-31.3214,-11.2048,-9.81347,0.08772,-11.8399,7.53959,5.6032,-5.24212,2.39198,-2.70347e-14,-9.54166e-15,77.8707,-35.5934,-36.485,28.9142,21.2526,-23.4463,1.30301,7.12502,3.01207,-28.6555,-2.70347e-14,-9.54166e-15,26.2422,-18.8505,44.1214,95.0678,5.61771,-17.5265,21.4946,7.12502,8.72727,51.2942,-6.23077,-1.46018,27.5601,29.9351,-19.4379,-10.367,13.703,-7.06042,3.42038,-9.11771,36.9295,-11.2874,-2.50098,-28.7074
-1.16966,17.9653,-3.22908,4.83616,-42.0233,-7.30871,4.81369,-0.833084,-0.899821,-7.12812,-1.82202,-5.35816,-10.4912,-1.1273,-5.00914,-29.2048,-11.9121,-12.4561,-0.208366,-12.1167,8.12314,5.43973,-5.3815,2.97988,4.85035e-14,6.67916e-14,76.1078,-35.4459,-33.3615,29.6611,20.52,-24.9957,0.862506,7.12502,1.51569,-29.1119,4.85035e-14,6.67916e-14,26.0825,-19.2677,45.6932,95.2778,6.23332,-17.184,20.9404,7.12502,9.05783,50.7259,-6.26269,-1.68733,28.3164,29.997,-19.7645,-10.3467,13.6221,-7.21733,2.95843,-8.44795,37.2561,-11.7392,-2.24592,-28.0929
-1.20205,17.9349,-3.22309,4.68824,-41.9961,-7.1499,4.53374,-1.27966,-0.737803,-6.61983,-2.39151,-5.63908,-9.82809,-1.41732,-5.31907,-30.7965,-11.1302,-10.3902,0.254115,-11.5816,7.39073,5.59089,-5.14427,2.47562,-6.04305e-14,-3.49861e-14,78.1187,-35.8748,-36.2662,29.7672,21.4492,-26.3815,0.805389,7.12502,0.177318,-29.1743,-6.04305e-14,-3.49861e-14,26.6973,-17.7101,43.9919,95.4975,6.81727,-17.1486,20.6405,7.12502,9.09193,50.4245,-6.08312,-2.33865,28.1787,29.9951,-19.7842,-9.80643,13.1717,-7.14875,2.47849,-8.64782,37.6428,-12.4172,-1.70449,-28.4836
-1.22846,17.9078,-3.23048,4.76794,-41.9167,-7.33196,4.6821,-1.19584,-0.532866,-6.63467,-2.24173,-5.42642,-9.9147,-1.34761,-5.22285,-30.0813,-11.3478,-11.1277,0.131761,-11.6829,7.43765,5.50731,-5.20753,2.6024,1.31198e-14,-6.36111e-15,77.7583,-36.168,-35.4571,30.2291,21.2299,-27.6045,0.629431,7.12502,-1.00391,-29.348,1.31198e-14,-6.36111e-15,27.1171,-17.5129,44.047,95.782,7.09017,-17.3672,20.6031,7.12502,8.88104,50.3962,-5.93687,-2.46955,28.4043,29.9545,-19.9691,-9.40201,14.2059,-7.17246,2.05785,-8.53114,38.0045,-12.8925,-1.12254,-33.7075
-1.23879,17.8793,-3.27135,5.23576,-41.6875,-8.19888,5.50808,-1.14118,-0.0917948,-6.80104,-2.11094,-4.96832,-10.5775,-1.30019,-4.99173,-27.9993,-11.8003,-13.0135,-0.927258,-12.0124,8.85032,5.13176,-5.31374,3.36198,-4.09496e-14,3.49861e-14,77.4425,-36.3921,-34.6344,30.5806,20.9869,-28.8338,0.489328,7.12502,-2.19123,-29.4792,-4.09496e-14,3.49861e-14,27.3829,-17.5051,44.32,96.0914,7.28721,-17.5082,20.606,7.12502,8.74497,50.4048,-5.91907,-2.11468,29.388,29.9081,-20.2982,-9.69027,15.0843,-7.36247,1.73434,-7.70048,38.2428,-12.9125,-0.757026,-33.7118
-1.27101,17.8657,-3.28226,5.09169,-41.7622,-8.21675,5.72645,-1.23562,-0.0899139,-6.58831,-2.22359,-4.90775,-10.4769,-1.34516,-4.9039,-28.5726,-11.6451,-12.6653,-0.613418,-11.8341,8.57799,5.25119,-5.23464,3.22825,-1.31198e-14,3.49861e-14,78.1654,-36.8462,-35.4418,30.834,21.0165,-30.0411,0.0580531,7.12502,-3.35715,-29.8953,-1.31198e-14,3.49861e-14,27.8595,-16.7487,43.6951,96.2688,7.5872,-17.4388,20.227,7.12502,8.81191,50.023,-5.69259,-2.15761,29.5089,29.8578,-20.2415,-9.76147,14.3591,-7.17803,1.72797,-7.6717,38.4373,-13.0881,-0.28406,-29.046
-1.32309,17.8644,-3.25895,4.28846,-42.0979,-7.30163,5.39371,-1.26849,-0.588891,-6.2766,-2.31533,-5.1544,-9.9291,-1.35495,-4.87121,-28.5476,-11.5699,-12.535,-0.887882,-11.8203,8.97205,5.18395,-5.20325,3.34648,1.94809e-14,-3.18055e-15,78.7917,-37.2379,-36.2624,31.1077,20.6085,-31.1958,-0.13728,7.12502,-4.47216,-30.0701,1.94809e-14,-3.18055e-15,28.283,-15.9597,42.9389,96.4677,7.76935,-17.3236,20.1279,7.12502,8.92312,49.9192,-5.21997,-2.43994,28.6831,29.8261,-20.2239,-9.1478,14.8413,-6.65751,1.76976,-8.55767,38.6288,-13.4181,0.440809,-33.5799
-1.35728,17.8613,-3.26873,4.14072,-42.1876,-7.41027,5.69695,-1.21275,-0.540118,-6.22538,-2.23405,-5.08309,-10.0444,-1.31433,-4.82982,-27.6769,-11.775,-13.2208,-1.37689,-12.0376,9.73167,5.03273,-5.27841,3.69228,-5.52621e-14,4.13472e-14,78.5068,-37.5778,-35.876,31.5225,19.7762,-32.1159,-0.21552,7.12502,-5.36062,-30.1277,-5.52621e-14,4.13472e-14,28.5849,-15.7851,42.684,96.74,7.59453,-17.3323,19.9568,7.12502,8.91473,49.7485,-4.95828,-2.38972,28.8993,29.865,-20.2044,-9.2725,15.023,-6.38883,1.89752,-8.37121,38.726,-13.2926,0.515939,-34.433
-1.37625,17.8636,-3.31302,4.48467,-41.9598,-8.15542,6.42902,-1.33569,-0.218058,-6.21817,-2.36748,-4.89661,-10.4915,-1.39549,-4.78438,-27.3562,-11.7875,-13.2182,-1.59861,-12.1092,9.89602,4.96566,-5.31178,3.73316,-3.1408e-14,-5.40694e-14,78.3797,-37.9894,-35.8357,31.8375,19.2083,-33.0391,-0.324195,7.12502,-6.25193,-30.2119,-3.1408e-14,-5.40694e-14,28.9276,-15.5237,42.1012,97.0388,7.57442,-17.2259,19.6743,7.12502,9.01733,49.4616,-5.02398,-2.15036,29.8488,29.9736,-20.2217,-9.98623,14.7764,-6.51313,1.99032,-7.45479,38.7321,-12.6489,0.156539,-33.9775
-1.41924,17.8848,-3.3242,4.31211,-41.9586,-8.05265,6.57402,-1.44516,-0.374254,-6.11562,-2.54387,-5.00847,-10.4795,-1.47331,-4.7867,-27.4315,-11.799,-13.037,-1.64731,-12.2017,10.1904,4.98668,-5.33657,3.78561,-5.28767e-14,1.27222e-14,78.2216,-38.3663,-35.96,32.2027,18.6551,-34.2315,-0.70365,7.12502,-7.40302,-30.5541,-5.28767e-14,1.27222e-14,29.1865,-15.129,41.3154,97.33,7.65802,-16.9752,19.105,7.12502,9.25925,48.8817,-4.97609,-2.29511,29.9062,30.1427,-19.9668,-10.0851,14.7305,-6.37353,2.25779,-7.3252,38.6833,-12.1651,-0.124276,-34.2676
-1.48007,17.9225,-3.30467,3.73085,-42.2791,-7.09588,6.09116,-1.28607,-1.02478,-6.13796,-2.41599,-5.27655,-10.1901,-1.37723,-4.73366,-27.2753,-11.9274,-13.3236,-1.48368,-12.3194,10.341,5.05951,-5.38488,3.85787,5.1684e-15,6.36111e-15,77.9207,-38.5507,-35.7393,32.3373,18.4096,-35.039,-0.864535,7.12502,-8.18236,-30.6861,5.1684e-15,6.36111e-15,29.3025,-15.1348,40.9756,97.6231,7.65398,-16.8356,18.3939,7.12502,9.39399,48.1646,-4.93174,-2.68571,29.0609,30.3447,-19.3479,-9.6556,14.7275,-6.08447,2.53861,-8.03816,38.5559,-11.6024,-0.237785,-34.2344
-1.52953,17.9668,-3.29944,3.28722,-42.4805,-6.4197,5.90601,-1.14621,-1.48734,-6.24499,-2.29997,-5.47499,-10.1821,-1.30052,-4.70833,-27.3103,-11.9438,-13.4149,-0.989445,-12.289,9.97823,5.1933,-5.3896,3.74759,-9.70069e-14,-9.54166e-15,77.9078,-38.5685,-35.8346,32.2007,18.4752,-35.638,-0.448655,7.12502,-8.7605,-30.2468,-9.70069e-14,-9.54166e-15,29.1676,-15.3043,40.7235,97.9715,7.43264,-16.555,17.8782,7.12502,9.66467,47.6365,-4.9378,-2.89553,28.4975,30.5593,-18.644,-9.48052,14.613,-5.89163,2.78447,-8.40536,38.3422,-10.5443,-0.726755,-33.5468
-1.56973,18.0206,-3.30795,3.20805,-42.4597,-6.19468,5.87625,-1.18648,-1.62954,-6.33709,-2.392,-5.61339,-10.2777,-1.34529,-4.76766,-27.6103,-11.9111,-13.1654,-0.581026,-12.2629,9.61321,5.29523,-5.3924,3.59428,-6.71892e-14,-6.36111e-15,77.9958,-38.6068,-36.0234,32.0546,18.4078,-35.9512,-0.259973,7.12502,-9.06272,-30.0453,-6.71892e-14,-6.36111e-15,28.9336,-15.3074,40.2033,98.4123,7.1832,-16.1705,18.0565,7.12502,10.0357,47.7972,-5.12404,-3.06815,28.375,30.7376,-17.7058,-9.65526,14.0792,-6.00946,3.08809,-8.27382,38.1509,-8.94323,-1.63572,-32.8402
-1.60972,18.0862,-3.31668,3.20888,-42.3709,-6.05411,5.84756,-1.24793,-1.65902,-6.4399,-2.50517,-5.78143,-10.395,-1.41099,-4.92103,-27.4786,-12.024,-13.3008,-0.590938,-12.4151,9.89677,5.34474,-5.44832,3.67135,-2.42517e-14,-2.22639e-14,77.5736,-38.7706,-35.7902,32.0924,18.2078,-36.015,0.338332,7.12502,-9.12428,-29.4443,-2.42517e-14,-2.22639e-14,28.8146,-15.3464,39.6651,98.7834,7.10585,-15.4451,18.2472,7.12502,10.7354,47.9529,-5.29695,-3.34644,28.2595,30.8021,-16.5046,-9.67734,14.0022,-6.27001,3.28929,-8.05537,38.0564,-6.99135,-2.73965,-32.7869
-1.65472,18.1616,-3.32295,3.20931,-42.3726,-5.87403,5.68943,-1.24783,-1.75863,-6.511,-2.53533,-5.96647,-10.3905,-1.43113,-5.06589,-26.5616,-12.4967,-14.4037,-1.32665,-12.9431,11.4754,5.24745,-5.62505,4.29551,-2.94201e-14,-3.49861e-14,77.2451,-38.9861,-35.5971,32.0181,18.3076,-35.7485,0.72634,7.12502,-8.86714,-29.0674,-2.94201e-14,-3.49861e-14,28.7944,-15.4984,39.187,99.1229,6.78867,-15.3307,18.568,7.12502,10.8458,48.2679,-5.39616,-3.32688,28.0761,30.7579,-15.1845,-9.66071,14.4595,-6.57055,3.36724,-7.87872,37.9837,-4.91999,-3.70101,-32.9263
-1.70053,18.2477,-3.32349,3.27979,-42.3731,-5.78009,5.47434,-1.23391,-1.75333,-6.59487,-2.52927,-6.11703,-10.3654,-1.43987,-5.23891,-28.0024,-12.0389,-12.9126,0.211665,-12.4342,9.11763,5.56703,-5.49421,3.34097,1.35174e-14,7.31528e-14,77.2991,-39.0243,-35.7005,31.6713,18.74,-35.4157,0.537428,7.12502,-8.54596,-29.2696,1.35174e-14,7.31528e-14,28.7395,-16.0112,38.5731,99.5809,5.48596,-16.5155,20.7215,7.12502,9.70279,50.478,-5.47871,-3.3396,27.9249,30.6231,-13.5815,-9.73292,13.8418,-6.90549,3.35945,-7.64041,37.8614,-2.73206,-4.71226,-33.5284
-1.74467,18.3323,-3.32443,3.26017,-42.4363,-5.74983,5.41159,-1.11779,-1.72102,-6.69915,-2.38854,-6.2375,-10.4424,-1.38419,-5.41406,-27.7338,-12.3384,-13.5177,0.0419618,-12.7182,9.70575,5.58702,-5.59493,3.5846,2.38542e-15,6.67916e-14,76.9336,-39.1031,-35.1666,31.3948,18.8772,-34.8441,-0.0448839,7.12502,-7.99432,-29.8737,2.38542e-15,6.67916e-14,28.7538,-16.3757,38.3513,100.004,5.67643,-16.2686,20.775,7.12502,9.94102,50.5203,-5.42067,-3.39095,27.7986,30.4282,-11.9052,-9.82455,13.9322,-7.09852,3.36212,-7.32798,37.678,-0.211144,-5.82258,-33.2387
-1.78642,18.4231,-3.32912,3.14003,-42.447,-5.64169,5.39653,-1.15103,-1.71206,-6.6417,-2.45636,-6.48918,-10.3927,-1.43237,-5.68557,-27.8429,-12.2689,-13.1201,-0.111104,-12.7357,9.68548,5.53017,-5.60212,3.51873,1.19271e-14,1.43125e-13,77.2736,-39.3143,-35.7128,30.9654,19.2789,-34.3637,-0.125175,7.12502,-7.53063,-29.9711,1.19271e-14,1.43125e-13,28.6349,-16.4407,37.7623,100.387,5.28301,-16.2994,20.638,7.12502,9.91131,50.3847,-5.31939,-3.38982,27.6179,30.139,-10.0524,-10.048,13.4954,-7.33023,3.19261,-7.06983,37.454,2.60514,-6.67838,-31.368
-1.8258,18.5159,-3.33461,3.05642,-42.3985,-5.57187,5.43467,-1.2701,-1.66878,-6.59367,-2.63717,-6.70711,-10.3972,-1.53694,-5.92374,-28.3583,-12.3816,-12.9245,-0.0774069,-12.9316,10.1337,5.65744,-5.64789,3.58922,-1.19271e-14,3.18055e-14,78.0992,-39.375,-36.8438,30.4919,19.902,-33.8179,0.0945455,7.12502,-7.00379,-29.7696,-1.19271e-14,3.18055e-14,28.3489,-16.3661,37.0883,100.815,5.09723,-16.3953,20.5524,7.12502,9.81876,50.3035,-5.22607,-3.3783,27.4565,29.778,-8.05046,-10.3415,12.3934,-7.63007,2.90597,-6.78549,37.1508,5.68707,-7.15954,-30.328
-1.86569,18.6153,-3.33558,3.03668,-42.407,-5.43399,5.44104,-0.971032,-1.77024,-6.93576,-2.26695,-6.64258,-10.7422,-1.35515,-5.86083,-28.2823,-12.5444,-13.5826,0.567979,-12.8739,9.4677,5.82796,-5.66645,3.46326,2.54444e-14,2.8625e-14,77.1597,-39.2622,-35.1234,30.2569,19.7235,-33.1885,-0.744336,7.12502,-6.39614,-30.6278,2.54444e-14,2.8625e-14,28.0695,-17.2159,37.7871,101.186,5.44556,-15.79,19.9663,7.12502,10.4028,49.689,-5.23545,-3.33868,27.2227,29.3831,-5.84858,-10.6269,10.637,-8.03475,2.46563,-6.61315,36.752,9.34946,-7.31751,-29.7805
-1.90678,18.7133,-3.33124,3.10804,-42.4973,-5.40229,5.18305,-1.15576,-1.6427,-6.74996,-2.50948,-6.95368,-10.4281,-1.49728,-6.23722,-28.0547,-12.806,-13.8283,-0.357758,-13.3494,11.3347,5.75554,-5.77017,4.03725,3.89618e-14,-2.22639e-14,79.0408,-39.381,-37.5533,29.5272,20.834,-32.7358,-1.24597,7.12502,-5.95911,-31.1422,3.89618e-14,-2.22639e-14,28.0845,-16.744,36.7238,101.669,5.89964,-15.417,19.8286,7.12502,10.7625,49.5328,-5.23366,-3.08324,27.0432,28.9499,-3.99769,-11.0532,10.8049,-8.42387,1.82524,-6.37059,36.3064,13.2147,-6.78556,-26.9248
-1.94514,18.8016,-3.32697,3.28109,-42.5521,-5.48194,4.98991,-1.01048,-1.53763,-6.89391,-2.29879,-6.91106,-10.453,-1.40373,-6.28543,-28.983,-12.5217,-12.9979,0.56443,-12.9653,9.62743,5.90911,-5.67607,3.39746,1.03368e-14,0,79.7108,-39.1967,-37.9479,28.9916,21.4438,-32.5823,-1.42342,7.12502,-5.81091,-31.3237,1.03368e-14,0,27.9256,-17.1208,36.8877,102.149,5.90473,-15.2549,19.8982,7.12502,10.9189,49.5943,-5.23901,-2.65252,26.9765,28.4528,-2.28627,-11.7891,12.0115,-8.86469,1.17382,-6.01585,35.8993,16.5965,-5.76177,-22.2731
-1.98178,18.8894,-3.3269,3.2448,-42.5756,-5.42212,4.88648,-0.954149,-1.54919,-6.89468,-2.22386,-6.96502,-10.3865,-1.3691,-6.34911,-29.1254,-12.5628,-12.9998,0.63418,-13.002,9.641,5.95517,-5.68737,3.39053,4.29375e-14,-3.49861e-14,80.6953,-39.065,-38.9558,28.4941,22.1235,-32.518,-1.6345,7.12502,-5.74884,-31.5365,4.29375e-14,-3.49861e-14,27.9203,-17.2175,36.7117,102.617,5.98851,-15.3031,19.8698,7.12502,10.8724,49.5683,-5.12328,-2.28759,26.8148,27.8826,-0.631517,-12.9051,15.1011,-9.1593,0.579567,-5.76045,35.5719,19.0836,-5.41874,-18.8707
-2.01871,18.9795,-3.32996,3.21955,-42.623,-5.39723,4.74839,-1.08415,-1.49097,-6.6964,-2.39573,-7.20268,-10.1178,-1.46553,-6.61565,-29.5766,-12.5004,-12.5067,0.485181,-13.1157,10.3231,6.01263,-5.67562,3.51528,2.06736e-14,1.27222e-14,82.5246,-39.0497,-41.3571,27.839,23.2465,-32.4019,-1.80001,7.12502,-5.63681,-31.705,2.06736e-14,1.27222e-14,28.1642,-16.5764,35.8007,102.99,7.14132,-14.3023,18.3362,7.12502,11.8376,47.9816,-4.97875,-2.01395,26.6913,27.2463,0.766281,-14.3442,18.9065,-9.42879,0.21216,-5.46842,35.3871,20.7079,-6.44079,-18.9427
-2.05889,19.0678,-3.3175,3.21673,-42.7531,-5.28269,4.37475,-1.05443,-1.3906,-6.61834,-2.33832,-7.39134,-9.81661,-1.45196,-6.88804,-29.6015,-12.4926,-12.1357,0.335695,-13.2531,10.5268,5.97962,-5.72532,3.50799,-3.26007e-14,-9.54166e-15,83.313,-39.0506,-42.2471,27.449,23.4889,-32.3917,-2.44985,7.12502,-5.62694,-32.3551,-3.26007e-14,-9.54166e-15,28.3357,-16.4862,35.3206,103.376,7.67027,-14.0611,18.283,7.12502,12.0702,47.9149,-4.83436,-1.85946,26.4002,26.539,2.31686,-15.5058,20.4792,-9.70357,-0.127184,-5.33128,35.3845,22.0057,-7.13302,-17.4396
-2.09457,19.1526,-3.30859,3.23996,-42.8073,-5.12016,4.1311,-0.851599,-1.43634,-6.79206,-2.0698,-7.39172,-9.8314,-1.32149,-6.90269,-28.984,-12.6823,-12.4336,0.255126,-13.4619,10.4673,5.92695,-5.84776,3.49794,-7.4743e-14,6.04305e-14,82.8303,-38.996,-41.3235,27.3217,23.018,-32.0917,-2.74382,7.12502,-5.33729,-32.6566,-7.4743e-14,6.04305e-14,28.521,-17.0445,35.4141,103.794,7.63124,-14.2746,19.1417,7.12502,11.8643,48.7856,-4.78354,-1.66067,26.1028,25.8229,4.1238,-16.6068,19.8827,-10.0992,-0.681797,-5.28948,35.4956,23.3489,-7.53115,-14.9181
-2.11614,19.2245,-3.32455,3.34595,-42.633,-5.25612,4.45366,-0.660957,-1.48042,-7.11735,-1.83566,-7.14079,-10.3474,-1.20156,-6.64441,-28.3333,-12.8629,-13.1179,0.470599,-13.5118,10.1213,5.90286,-5.9154,3.50461,1.00983e-13,3.18055e-15,81.7617,-38.8014,-39.471,27.3593,22.3355,-31.3958,-2.57386,7.12502,-4.66538,-32.5025,1.00983e-13,3.18055e-15,28.6151,-17.7506,35.8505,104.087,7.53779,-14.6712,18.9579,7.12502,11.4818,48.6235,-4.76985,-1.19025,26.1978,25.1512,5.54134,-18.1864,19.6242,-10.5886,-1.39044,-4.94019,35.6312,24.7509,-8.10966,-13.1946
-2.13803,19.2865,-3.34153,3.24207,-42.4492,-5.15649,4.78994,-0.598043,-1.64364,-7.33747,-1.79358,-7.02652,-10.7839,-1.17118,-6.44238,-28.0628,-12.8784,-13.4331,0.718963,-13.4403,9.85636,5.93556,-5.9071,3.47735,-1.51076e-14,-2.22639e-14,81.2891,-38.5021,-38.4714,27.2779,21.8019,-30.7016,-2.46442,7.12502,-3.99496,-32.4067,-1.51076e-14,-2.22639e-14,28.8293,-18.0466,35.9379,104.151,7.79795,-14.5957,18.142,7.12502,11.5547,47.8034,-4.7366,-0.76281,26.1036,24.5577,6.36677,-19.9638,21.364,-11.0587,-1.89709,-4.7454,35.7582,26.1279,-9.02354,-10.8917
-2.16732,19.3471,-3.34313,2.99822,-42.3312,-4.92125,4.8557,-0.72997,-1.74272,-7.20918,-1.98567,-7.11936,-10.7014,-1.25896,-6.4569,-28.1017,-12.8791,-13.2637,0.540033,-13.5382,10.2614,5.94176,-5.92295,3.55615,7.4743e-14,9.85972e-14,81.8469,-38.3796,-38.9211,27.0988,21.7666,-30.1264,-2.56202,7.12502,-3.43952,-32.514,7.4743e-14,9.85972e-14,29.3546,-17.6716,35.184,104.222,7.84789,-14.8249,18.5178,7.12502,11.3337,48.1916,-4.59489,-0.432266,25.8273,24.0434,6.83152,-21.7206,24.4133,-11.3812,-2.41861,-4.74528,35.8717,27.4356,-9.97741,-8.08577
-2.1935,19.3997,-3.34453,2.85593,-42.2466,-4.84656,4.91024,-0.844942,-1.68924,-7.01556,-2.13124,-7.2101,-10.5387,-1.33355,-6.56046,-27.4238,-13.2302,-13.9686,-0.266745,-14.0153,11.8754,5.84189,-6.06512,4.13294,3.02153e-14,2.22639e-14,82.5529,-38.3481,-39.647,26.916,22.0956,-29.3515,-2.36912,7.12502,-2.69114,-32.3319,3.02153e-14,2.22639e-14,29.9803,-17.4596,34.2164,104.357,6.88076,-16.3536,20.9813,7.12502,9.85904,50.7305,-4.47345,-0.0543456,25.6856,23.6158,7.18543,-23.3399,26.5616,-11.652,-3.04318,-4.64465,35.9335,28.5735,-10.7267,-5.37338
-2.21635,19.4408,-3.3484,2.7674,-42.2367,-4.80688,4.99537,-0.694496,-1.68893,-7.06894,-1.92543,-7.11841,-10.6221,-1.22886,-6.49039,-28.2263,-13.0544,-13.3277,0.785199,-13.753,10.3507,6.07303,-6.01256,3.54804,-3.97569e-14,-7.31528e-14,82.5182,-38.1457,-39.2237,26.8036,22.3679,-28.4538,-2.26533,7.12502,-1.82416,-32.2373,-3.97569e-14,-7.31528e-14,30.5835,-17.453,34.2693,104.274,7.09085,-16.4095,20.1118,7.12502,9.8051,49.8635,-4.41783,0.146001,25.5922,23.2262,7.67883,-24.7137,27.7747,-11.9141,-3.73848,-4.53205,35.9617,29.2483,-11.4347,-4.26779
-2.24128,19.4738,-3.34991,2.68682,-42.2792,-4.66955,4.98487,-0.464494,-1.81104,-7.23458,-1.62596,-6.99695,-10.7603,-1.07022,-6.33462,-27.4667,-13.2808,-14.0394,0.731406,-13.9359,10.5183,6.03295,-6.11223,3.69603,5.08889e-14,-4.45278e-14,82.3951,-37.776,-38.667,26.6178,22.7316,-27.4959,-2.06971,7.12502,-0.899024,-32.0476,5.08889e-14,-4.45278e-14,31.1897,-17.7583,34.3763,104.338,7.02576,-16.6957,20.1345,7.12502,9.529,49.899,-4.4635,0.190405,25.4368,22.9469,8.56046,-25.6472,28.2154,-12.242,-4.30723,-4.48792,35.9737,29.5202,-12.1141,-3.58736
-2.26472,19.5009,-3.34883,2.60886,-42.3318,-4.4944,4.82698,-0.634575,-1.75134,-7.01536,-1.84749,-7.22297,-10.4551,-1.18959,-6.57803,-27.2656,-13.2567,-13.5916,0.00139522,-14.1706,11.5252,5.86926,-6.16516,3.93803,2.22639e-14,-2.54444e-14,83.5521,-37.621,-40.2637,26.332,23.1694,-26.2386,-1.61954,7.12502,0.315317,-31.5991,2.22639e-14,-2.54444e-14,31.9826,-17.0308,33.0339,104.371,6.6666,-17.1959,20.7008,7.12502,9.04629,50.4868,-4.52112,0.491303,25.2399,22.7881,8.77231,-26.5362,29.6104,-12.5984,-4.88306,-4.47307,35.9749,29.4051,-12.6011,-3.06756
-2.28487,19.5172,-3.34851,2.49256,-42.5395,-4.29186,4.90798,-0.263635,-1.91268,-7.33763,-1.36882,-6.99281,-10.8011,-0.93946,-6.31187,-26.9025,-13.1801,-13.9131,0.64299,-13.9002,10.3153,5.90002,-6.12758,3.63853,-6.2816e-14,-7.95139e-14,81.7055,-37.342,-37.418,26.7147,21.8479,-24.9647,-1.49904,7.12502,1.5457,-31.4732,-6.2816e-14,-7.95139e-14,32.5925,-17.2817,33.6609,104.242,7.39022,-16.4302,19.8714,7.12502,9.78507,49.6241,-4.62402,0.649595,24.9885,22.806,9.19683,-27.0024,30.628,-12.7909,-5.22591,-4.56432,35.9332,28.6619,-14.0163,-5.11448
-2.29775,19.5238,-3.34509,2.42728,-42.7994,-4.15375,4.81461,-0.238378,-1.83322,-7.23242,-1.31712,-7.04486,-10.6239,-0.919625,-6.41576,-27.3572,-12.889,-13.1183,0.848095,-13.6547,9.73113,5.90058,-6.03654,3.3603,3.02153e-14,5.40694e-14,81.7915,-37.2815,-37.4238,26.8212,21.4807,-23.8334,-1.37102,7.12502,2.63824,-31.3345,3.02153e-14,5.40694e-14,33.461,-16.6648,32.8875,104.018,7.18925,-16.8584,20.1329,7.12502,9.37202,49.9045,-4.77431,0.525811,24.7779,22.9374,9.79568,-27.1066,31.4034,-12.9544,-5.61123,-4.64702,35.8835,27.5392,-15.482,-7.23553
-2.30837,19.5188,-3.34408,2.26452,-43.1022,-3.9255,4.84951,-0.124052,-1.87096,-7.24283,-1.16675,-7.02212,-10.6391,-0.842382,-6.39074,-26.6996,-13.04,-13.5591,0.399822,-13.8541,10.3389,5.77155,-6.11222,3.61569,3.33958e-14,-8.26944e-14,81.8049,-37.0175,-37.1601,26.8601,21.1411,-22.3262,-1.44854,7.12502,4.09379,-31.3889,3.33958e-14,-8.26944e-14,34.4029,-16.2185,32.3032,103.756,7.23047,-17.5706,20.7816,7.12502,8.6847,50.5829,-4.88921,0.518279,24.5369,23.1969,9.55969,-27.2397,32.5264,-13.0471,-5.72667,-4.80225,35.8172,26.6107,-16.5232,-7.59992
-2.31883,19.506,-3.34459,2.11557,-43.4391,-3.72844,4.51711,-0.740298,-1.65114,-6.07303,-1.89395,-7.41135,-9.23234,-1.19492,-6.79574,-30.0068,-12.6049,-11.2327,0.283175,-13.7365,10.9845,6.07802,-5.90671,3.41634,-8.74653e-15,-2.54444e-14,86.2418,-37.4832,-42.6201,26.39,22.4982,-20.9916,-1.12879,7.12502,5.38247,-31.0404,-8.74653e-15,-2.54444e-14,35.897,-12.8015,29.6987,103.426,7.92263,-17.5189,21.3309,7.12502,8.7346,51.1301,-5.0076,0.509499,24.358,23.516,9.79255,-26.9536,32.3837,-13.1256,-5.58408,-4.92613,35.7523,25.7381,-16.8925,-8.35992
-2.33049,19.487,-3.34553,1.82521,-43.8231,-3.4274,4.70568,-0.446323,-1.88317,-6.34526,-1.53383,-7.21108,-9.59013,-1.00024,-6.49883,-29.6211,-12.4333,-11.3631,0.741491,-13.4073,10.0115,6.04148,-5.83119,3.19351,-1.66979e-14,-3.18055e-14,85.0251,-37.0382,-40.7371,26.7202,21.4956,-19.4961,-1.16947,7.12502,6.82623,-31.0394,-1.66979e-14,-3.18055e-14,36.5847,-12.6744,29.7515,103.288,8.4067,-17.4155,21.6459,7.12502,8.83441,51.441,-5.05774,0.559262,24.1106,23.9147,11.0566,-25.6788,29.8597,-13.074,-5.46692,-5.19698,35.6487,24.7841,-17.2238,-10.7055
-2.33902,19.4668,-3.34498,1.59018,-44.0994,-3.19156,5.04001,0.057823,-2.21807,-7.07293,-0.920159,-6.73681,-10.519,-0.671576,-5.90363,-26.4276,-12.8001,-13.6551,0.00866226,-13.5437,10.4415,5.59128,-5.97075,3.73131,-1.03368e-14,4.77083e-14,82.6404,-36.0558,-37.2477,27.2164,20.2553,-18.001,-1.15224,7.12502,8.2694,-30.9704,-1.03368e-14,4.77083e-14,37.173,-13.4596,30.4636,103.042,9.03241,-17.4331,21.7647,7.12502,8.81743,51.5605,-5.07375,0.436737,23.8999,24.2904,11.809,-24.419,28.458,-13.0899,-5.38249,-5.43811,35.5297,24.2746,-17.2209,-10.7329
-2.34533,19.4454,-3.34263,1.14945,-44.3665,-2.68913,5.13898,0.0894204,-2.45813,-6.99924,-0.897553,-6.69226,-10.4885,-0.63749,-5.71865,-26.2385,-12.7113,-13.6574,-0.246038,-13.4499,10.5095,5.4804,-5.92979,3.78048,-9.14409e-14,3.18055e-14,82.7013,-35.6885,-36.9936,27.3799,19.5189,-17.0779,-0.877883,7.12502,9.16019,-30.6589,-9.14409e-14,3.18055e-14,38.2775,-12.4249,29.762,102.402,9.5663,-17.709,21.7831,7.12502,8.5512,51.5899,-5.03824,0.216721,23.4953,24.6342,12.2168,-23.3758,27.9082,-13.0877,-5.24466,-5.93077,35.4005,24.0871,-16.8295,-9.03892
-2.35032,19.4262,-3.33177,0.779512,-44.7014,-2.22382,5.14054,0.150223,-2.5557,-6.95739,-0.814658,-6.62728,-10.4314,-0.584408,-5.60047,-26.1417,-12.6668,-13.7129,-0.347326,-13.3716,10.3987,5.41878,-5.9043,3.7712,7.79236e-14,3.18055e-14,82.3242,-35.3148,-36.1313,27.6803,18.5043,-16.5539,-0.528993,7.12502,9.6658,-30.2872,7.79236e-14,3.18055e-14,39.2352,-11.4663,29.4432,101.511,9.43451,-18.0183,21.3916,7.12502,8.25264,51.2104,-5.03509,-0.294666,23.0751,24.9752,13.0443,-21.9861,26.1661,-13.092,-5.268,-6.4408,35.2632,23.8681,-16.0237,-8.25594
-2.35672,19.4064,-3.32271,0.650045,-45.0218,-2.13236,5.1862,0.109373,-2.34172,-6.90601,-0.846798,-6.63052,-10.4064,-0.61595,-5.72007,-26.0515,-12.4336,-13.1641,-0.594629,-13.2131,10.142,5.25668,-5.85136,3.64461,-2.78299e-14,-3.49861e-14,82.0825,-34.9144,-35.8531,27.9756,17.9723,-16.011,-0.289967,7.12502,10.1896,-30.0232,-2.78299e-14,-3.49861e-14,40.1425,-10.2028,28.9636,100.842,9.82335,-17.3587,20.8655,7.12502,8.88921,50.6583,-4.97214,-0.611846,22.9622,25.2794,13.509,-20.6705,24.5752,-13.0974,-5.28553,-6.63574,35.1644,23.3918,-15.46,-8.82644
-2.36183,19.3835,-3.32303,0.314823,-45.2418,-1.86519,5.35442,0.122031,-2.40711,-6.78779,-0.83609,-6.62409,-10.3727,-0.602848,-5.6751,-26.2801,-12.3833,-12.9795,-0.73297,-13.1813,10.2647,5.23993,-5.82323,3.6583,-5.1684e-15,-1.59028e-14,81.7435,-34.7334,-35.4006,28.2457,17.7969,-15.3109,0.421604,7.12502,10.8649,-29.2773,-5.1684e-15,-1.59028e-14,41.3397,-8.94993,28.6129,100.17,9.9086,-17.0521,20.8942,7.12502,9.18509,50.6741,-4.82914,-0.638364,22.7695,25.536,13.684,-19.6176,23.6972,-13.1102,-5.21854,-6.93666,35.1053,22.7732,-14.8033,-9.15648
-2.36428,19.3577,-3.32143,0.253186,-45.4965,-1.97281,5.54031,0.107818,-2.22226,-6.71362,-0.828885,-6.52336,-10.3992,-0.606111,-5.67089,-26.4898,-12.3486,-12.9181,-0.811163,-13.1497,10.5001,5.2576,-5.78762,3.72479,7.55382e-15,-1.90833e-14,81.3753,-34.3874,-34.8943,28.5129,17.2793,-15.0072,0.861372,7.12502,11.1578,-28.822,7.55382e-15,-1.90833e-14,42.4987,-7.71438,28.2141,99.336,9.65437,-17.01,20.6363,7.12502,9.2257,50.4145,-4.68092,-0.647756,22.8471,25.7302,13.8317,-18.4793,23.2965,-13.1275,-5.16436,-6.94435,35.1119,21.7743,-13.9682,-10.045
-2.36656,19.3337,-3.31868,0.167516,-45.7389,-2.08448,5.72814,0.0752037,-2.06137,-6.61045,-0.839945,-6.37079,-10.3937,-0.612294,-5.59176,-26.3975,-12.3595,-13.1223,-1.07618,-13.1349,10.8247,5.19985,-5.76522,3.86879,-3.18055e-15,1.01778e-13,81.2401,-33.9848,-34.6413,28.7282,17.0428,-15.1759,1.07003,7.12502,10.9951,-28.622,-3.18055e-15,1.01778e-13,43.6611,-6.42181,27.939,98.3572,9.19939,-17.4448,20.4924,7.12502,8.80614,50.2887,-4.47733,-0.637144,22.8941,25.917,13.8534,-17.5033,23.3928,-13.0853,-5.05902,-6.96495,35.1463,20.6006,-13.3189,-10.9255
-2.36981,19.318,-3.30842,0.212427,-45.9917,-2.30725,5.80606,0.06764,-1.76132,-6.55506,-0.795245,-6.18682,-10.3716,-0.600662,-5.56564,-26.2455,-12.3669,-13.3114,-1.30005,-13.0981,10.8482,5.11576,-5.75327,3.91919,-3.57812e-15,1.27222e-14,80.9653,-33.554,-34.2013,28.9947,16.961,-15.0126,1.41209,7.12502,11.1526,-28.2715,-3.57812e-15,1.27222e-14,44.9677,-5.22623,27.6158,97.2384,8.79019,-18.1836,20.5239,7.12502,8.0931,50.3489,-4.29901,-0.761809,22.9804,26.0611,14.2512,-16.4583,22.9561,-13.0531,-5.07107,-6.94736,35.2474,19.2677,-12.5991,-10.7743
-2.37021,19.3002,-3.29499,0.395745,-46.3072,-2.62395,5.82646,0.0636357,-1.43028,-6.57146,-0.742161,-5.97509,-10.3944,-0.587767,-5.53017,-26.024,-12.367,-13.62,-1.52025,-13.0433,11.0449,5.04506,-5.72287,4.04686,-2.26615e-14,-7.95139e-15,80.2119,-33.093,-33.1285,29.3739,16.551,-14.7384,2.05254,7.12502,11.417,-27.6166,-2.26615e-14,-7.95139e-15,46.1638,-4.08501,27.4473,96.0697,8.46497,-18.5768,20.4638,7.12502,7.71359,50.3031,-4.27769,-0.797443,23.1277,26.2266,14.826,-15.4784,22.0188,-13.116,-5.04159,-6.84679,35.3501,18.0806,-11.5768,-9.81053
-2.36725,19.2771,-3.28592,0.780889,-46.6229,-3.11665,5.86977,0.0459241,-1.07055,-6.59756,-0.70783,-5.77763,-10.4449,-0.587837,-5.5253,-25.9681,-12.2933,-13.5622,-1.72838,-12.9755,11.1669,4.97215,-5.68724,4.09429,-4.01545e-14,-2.22639e-14,79.3434,-32.7103,-32.0439,29.7721,16.1298,-14.7637,2.60624,7.12502,11.3926,-27.0643,-4.01545e-14,-2.22639e-14,47.5334,-2.845,27.1521,94.8105,8.34008,-18.8316,20.6321,7.12502,7.46768,50.4803,-4.37785,-0.673779,23.4477,26.4002,15.1733,-14.7354,21.2597,-13.3343,-4.77844,-6.59779,35.4736,17.0043,-10.8417,-9.18152
-2.36395,19.2592,-3.27558,0.759815,-46.9173,-3.16444,6.07647,0.00974159,-1.04201,-6.60906,-0.748285,-5.63966,-10.5823,-0.60374,-5.38842,-26.2019,-12.1763,-13.3813,-1.6892,-12.849,11.1557,4.99117,-5.62123,4.07665,-3.93594e-14,-5.56597e-14,78.3868,-32.3614,-30.8885,30.2599,15.7988,-14.9356,2.77505,7.12502,11.2269,-26.9045,-3.93594e-14,-5.56597e-14,48.9241,-1.43536,26.7868,93.395,8.46538,-19.1607,20.9667,7.12502,7.15004,50.8259,-4.39898,-0.552325,23.4245,26.5929,15.3526,-14.1358,20.7294,-13.4328,-4.45618,-6.71798,35.5668,15.8753,-10.3379,-8.9533
-2.36486,19.2456,-3.26161,0.634977,-47.2195,-3.18135,6.21879,-0.0274166,-1.05815,-6.56493,-0.785904,-5.48538,-10.6165,-0.611211,-5.20461,-26.3342,-12.0896,-13.3269,-1.73974,-12.7362,11.1798,4.97942,-5.56327,4.09154,2.34566e-14,-1.90833e-14,77.3877,-32.0625,-29.6749,30.8092,15.2766,-14.9508,3.13632,7.12502,11.2122,-26.5441,2.34566e-14,-1.90833e-14,50.3105,-0.0710226,26.5212,91.8447,8.63634,-19.4574,21.189,7.12502,6.86364,51.0578,-4.29821,-0.35273,23.3834,26.763,15.3077,-13.7708,20.8967,-13.386,-4.17863,-6.87036,35.6458,14.757,-9.91459,-9.55009
-2.36591,19.2384,-3.24345,0.356033,-47.5573,-3.12321,6.38243,-0.0357224,-1.07546,-6.43535,-0.786287,-5.3943,-10.5662,-0.601511,-5.09241,-26.5657,-12.0428,-13.2458,-1.86733,-12.6744,11.2793,4.96652,-5.52301,4.11758,-5.00937e-14,2.38542e-14,76.8014,-31.7373,-28.9259,31.0687,15.1915,-15.2294,3.23627,7.12502,10.9435,-26.4585,-5.00937e-14,2.38542e-14,51.9488,1.26272,26.3023,89.9937,8.80779,-19.8505,21.4702,7.12502,6.48416,51.3509,-4.05867,-0.0841004,23.2755,26.9047,15.2035,-13.6323,21.1731,-13.1881,-4.04332,-7.11002,35.6775,13.9993,-9.32013,-9.94958
-2.36878,19.2362,-3.22016,0.361217,-47.9378,-3.2587,6.35219,-0.0122642,-0.964952,-6.33009,-0.721573,-5.29334,-10.4223,-0.568778,-5.04972,-26.9111,-12.0411,-13.1353,-1.87271,-12.6695,11.35,5.00932,-5.50708,4.11552,-3.89618e-14,-1.11319e-14,76.788,-31.3347,-28.8851,30.9957,15.7395,-15.4865,3.2959,7.12502,10.6955,-26.4119,-3.89618e-14,-1.11319e-14,53.7825,2.65882,26.0234,88.0304,9.26845,-19.9164,21.7932,7.12502,6.42051,51.6758,-3.97375,-0.0695838,23.2597,26.9696,15.572,-13.2247,20.6734,-13.1176,-4.1136,-7.21447,35.7278,13.6377,-8.3403,-9.37043
-2.37193,19.2369,-3.19682,0.260615,-48.3251,-3.13362,6.27633,0.00710595,-1.11796,-6.37193,-0.696045,-5.13743,-10.4146,-0.536976,-4.79559,-26.8669,-12.0169,-13.2692,-1.9072,-12.6076,11.4166,4.999,-5.47502,4.1682,-3.93594e-14,6.04305e-14,76.4568,-30.7738,-28.4184,31.1685,15.9406,-15.3933,3.42034,7.12502,10.7854,-26.2828,-3.93594e-14,6.04305e-14,55.3376,3.95165,25.9117,86.1027,9.73438,-19.9768,22.0597,7.12502,6.36223,51.9442,-3.99011,-0.0518164,23.0831,27.0369,15.97,-12.9966,20.2863,-13.1474,-4.03301,-7.50252,35.7506,13.5223,-7.49533,-9.37625
-2.37258,19.2411,-3.17548,0.282084,-48.6956,-3.24486,6.3113,-0.01336,-1.17854,-6.41375,-0.706978,-4.88318,-10.475,-0.524781,-4.48355,-26.8136,-11.932,-13.4147,-1.91657,-12.4556,11.3796,4.97656,-5.40646,4.20342,1.47498e-13,2.70347e-14,75.8125,-30.2011,-27.4527,31.6293,15.6298,-15.3486,3.27474,7.12502,10.8286,-26.4261,1.47498e-13,2.70347e-14,56.5146,5.14923,25.8104,84.4322,10.1278,-20.159,22.4463,7.12502,6.18635,52.3359,-3.95607,0.0724735,23.1062,27.0641,16.2849,-12.9674,20.1819,-13.1717,-3.61449,-7.57862,35.8026,13.5742,-7.31994,-10.5183
-2.37316,19.2475,-3.15295,0.0291383,-49.1636,-2.97646,6.33216,-0.0425539,-1.53466,-6.43905,-0.768847,-4.68377,-10.5099,-0.517764,-4.05556,-26.8442,-11.7988,-13.6137,-1.84196,-12.2351,11.5177,5.00347,-5.2905,4.30958,4.81059e-14,3.33958e-14,74.3476,-29.6673,-25.0516,32.4869,13.9474,-15.5364,2.85983,7.12502,10.6474,-26.8504,4.81059e-14,3.33958e-14,57.806,6.36507,25.7298,82.4494,10.242,-20.2055,22.6671,7.12502,6.14147,52.5581,-3.93695,0.337537,22.8415,27.1103,16.4496,-13.1153,21.0934,-13.1377,-3.48108,-7.95177,35.8307,13.7459,-7.22164,-11.6996
-2.37393,19.2577,-3.12819,-0.0268161,-49.6251,-2.9195,6.27997,-0.094336,-1.71885,-6.45811,-0.837962,-4.48652,-10.4956,-0.526874,-3.72587,-26.9718,-11.6669,-13.7299,-1.78355,-12.0344,11.7142,5.04051,-5.17789,4.41755,-3.85642e-14,-4.92986e-14,73.7557,-29.1318,-23.9894,32.9585,13.3333,-15.7549,3.16224,7.12502,10.4366,-26.5587,-3.85642e-14,-4.92986e-14,59.4461,7.60564,25.8716,80.057,10.1123,-20.2864,22.732,7.12502,6.06336,52.6252,-3.92509,0.779615,22.7513,27.1263,16.3865,-13.5907,22.1956,-13.1387,-3.43362,-8.18236,35.8774,14.0615,-7.16911,-11.7718
-2.37345,19.2717,-3.10377,-0.345004,-50.0386,-2.5546,6.27922,-0.107384,-2.03255,-6.48736,-0.887258,-4.41903,-10.5246,-0.524324,-3.46851,-26.9408,-11.5194,-13.669,-1.85172,-11.8713,11.7849,5.00024,-5.09799,4.45906,-1.94809e-14,4.29375e-14,73.6849,-28.5873,-23.9983,33.2081,13.8534,-15.789,3.63173,7.12502,10.4037,-26.0909,-1.94809e-14,4.29375e-14,61.3595,8.64846,26.2073,77.296,9.76456,-20.4322,22.5677,7.12502,5.92258,52.4649,-3.87063,1.14928,22.4434,27.1417,16.2733,-14.1208,23.2611,-13.1106,-3.37336,-8.61874,35.8965,14.484,-7.2639,-11.4016
-2.3705,19.2876,-3.07558,-0.629614,-50.4831,-2.06842,6.12418,-0.0898701,-2.32365,-6.52899,-0.892747,-4.41169,-10.4743,-0.505735,-3.29483,-26.7383,-11.4271,-13.5848,-2.13038,-11.7946,11.8063,4.87404,-5.07063,4.47539,-5.1684e-15,-4.29375e-14,73.6762,-28.0976,-24.1913,33.4888,14.5869,-15.6524,4.0121,7.12502,10.5355,-25.7039,-5.1684e-15,-4.29375e-14,63.3266,9.67145,26.536,74.5564,9.29062,-20.155,22.6351,7.12502,6.19015,52.5246,-3.95426,1.56828,22.0722,27.093,16.444,-14.4132,23.4927,-13.2399,-3.09614,-9.1561,35.9286,14.7094,-8.08044,-13.0371
-2.3677,19.3062,-3.04351,-1.00739,-50.9735,-1.50305,6.04724,-0.0715108,-2.71055,-6.61101,-0.907654,-4.34302,-10.5143,-0.481626,-3.00167,-26.5193,-11.3733,-13.7681,-2.34793,-11.7064,12.0037,4.79273,-5.02526,4.5894,1.53064e-13,-6.36111e-15,73.4866,-27.5598,-23.9884,33.9596,14.9368,-15.2834,4.53864,7.12502,10.8914,-25.1589,1.53064e-13,-6.36111e-15,65.1317,10.6919,26.9161,71.9201,8.82572,-19.6786,23.1142,7.12502,6.65014,52.9898,-4.03475,2.07732,21.6941,27.0601,16.7872,-14.4774,23.0052,-13.2698,-2.917,-9.764,35.8986,14.9192,-8.71578,-14.3861
-2.36881,19.3232,-3.00912,-1.29073,-51.5539,-1.06379,5.98279,-0.042933,-3.15355,-6.7484,-0.907227,-4.16074,-10.6203,-0.439423,-2.55862,-26.4079,-11.2405,-13.8541,-2.37992,-11.5228,12.0135,4.75224,-4.94053,4.63703,2.54444e-14,-2.8625e-14,72.9888,-26.9251,-23.0799,34.5915,14.8377,-15.253,4.83517,7.12502,10.9207,-24.8608,2.54444e-14,-2.8625e-14,66.811,11.6488,27.3865,69.173,8.27841,-19.0993,23.4462,7.12502,7.2093,53.3034,-4.08774,2.57513,21.3826,27.021,16.9202,-14.6424,23.3017,-13.2975,-2.73584,-10.2546,35.8254,15.429,-8.84919,-13.2154
-2.36828,19.3363,-2.97119,-1.65195,-52.1408,-0.502822,5.83482,-0.0444689,-3.60452,-6.74969,-0.947954,-4.11874,-10.5281,-0.423729,-2.25281,-26.625,-11.0023,-13.1859,-2.50708,-11.355,11.654,4.65838,-4.88229,4.44361,1.59028e-15,5.88403e-14,72.6612,-26.5828,-22.6186,35.2224,15.0018,-15.1483,5.02393,7.12502,11.0217,-24.6667,1.59028e-15,5.88403e-14,68.7537,12.8152,27.6624,66.2457,7.90727,-18.4049,23.5894,7.12502,7.87955,53.4226,-4.1722,3.03122,20.9846,27.0062,17.0385,-14.7957,23.2589,-13.3939,-2.69991,-10.8125,35.6815,16.0884,-8.47309,-11.2128
