JuanDHNZ/ProyectoFinalCD/preprocessing/sports_trials_csv/14_01.csv
root1,root2,root3,root4,root5,root6,lowerback1,lowerback2,lowerback3,upperback1,upperback2,upperback3,thorax1,thorax2,thorax3,lowerneck1,lowerneck2,lowerneck3,upperneck1,upperneck2,upperneck3,head1,head2,head3,rclavicle1,rclavicle2,rhumerus1,rhumerus2,rhumerus3,rradius1,rwrist1,rhand1,rhand2,rfingers1,rthumb1,rthumb2,lclavicle1,lclavicle2,lhumerus1,lhumerus2,lhumerus3,lradius1,lwrist1,lhand1,lhand2,lfingers1,lthumb1,lthumb2,rfemur1,rfemur2,rfemur3,rtibia1,rfoot1,rfoot2,rtoes1,lfemur1,lfemur2,lfemur3,ltibia1,lfoot1,lfoot2,ltoes1
3.0615,17.3489,-3.57989,3.9582,-39.2066,3.27989,2.12201,-0.982608,-7.05137,0.0444582,-1.4624,1.89437,-0.919739,-0.698302,5.97307,-18.6484,-3.5785,-11.9472,22.7846,-2.93108,5.57235,10.695,-1.7442,3.56843,3.09607e-14,-2.66371e-14,-37.2902,6.56481,-88.3448,106.514,15.8783,-23.0044,20.8578,7.12502,3.43884,-9.09418,3.09607e-14,-2.66371e-14,-31.5923,-14.8028,97.4329,100.124,-5.95747,-16.3558,16.834,7.12502,9.85692,46.5833,-19.4352,5.15641,13.0236,43.052,-25.0956,1.92135,-7.10778,-12.5491,-2.17279,-18.7769,34.0267,-21.43,8.99498,-14.6709
3.05911,17.3491,-3.57453,3.92096,-39.2472,3.31633,2.07029,-0.964654,-7.05857,0.0662921,-1.43468,1.8606,-0.873024,-0.686935,5.93953,-18.6941,-3.57767,-11.8703,22.8221,-2.94294,5.55168,10.7167,-1.74573,3.54691,-8.94531e-15,1.59028e-15,-37.2994,6.54353,-88.3574,106.523,15.9085,-23.0211,20.817,7.12502,3.42271,-9.13528,-8.94531e-15,1.59028e-15,-31.5923,-14.8701,97.4008,100.124,-5.86287,-16.4041,16.6864,7.12502,9.81029,46.4379,-19.3965,5.16237,12.9809,43.0495,-25.1313,1.95593,-7.22849,-12.4735,-2.18784,-18.8234,33.9746,-21.4581,9.00953,-14.5678
3.05816,17.3495,-3.57388,3.93075,-39.2401,3.32977,2.04612,-0.976445,-7.07468,0.0708677,-1.44906,1.84728,-0.85242,-0.69504,5.93434,-18.6868,-3.55806,-11.8756,22.8021,-2.93009,5.6126,10.7072,-1.73251,3.57188,7.73769e-14,-6.75868e-15,-37.2981,6.5498,-88.4049,106.538,15.9069,-22.9882,20.8225,7.12502,3.45449,-9.12928,7.73769e-14,-6.75868e-15,-31.5748,-14.8683,97.3616,100.136,-5.85307,-16.3879,16.687,7.12502,9.82591,46.4377,-19.4028,5.21978,12.967,43.0408,-25.1218,1.97246,-6.95033,-12.5009,-2.17471,-18.8359,33.9814,-21.4469,9.05987,-14.8203
3.05771,17.3492,-3.57216,3.95093,-39.2433,3.28251,2.04967,-0.97529,-7.03674,0.0866707,-1.44655,1.84275,-0.83945,-0.694942,5.90775,-18.6382,-3.54721,-11.8379,22.7226,-2.92751,5.60198,10.6674,-1.72774,3.56063,-6.1176e-14,-1.98785e-15,-37.2908,6.54794,-88.4199,106.562,15.8774,-22.9029,20.8324,7.12502,3.53689,-9.118,-6.1176e-14,-1.98785e-15,-31.5568,-14.8521,97.3419,100.143,-5.92649,-16.3719,16.7294,7.12502,9.84133,46.4794,-19.3834,5.21698,13.0104,43.0371,-25.0943,1.95006,-7.24052,-12.4831,-2.1416,-18.8011,33.9754,-21.4437,9.06862,-14.9285
3.05754,17.3483,-3.57072,3.97744,-39.2609,3.2741,2.05514,-0.960573,-7.03542,0.0680806,-1.42776,1.83693,-0.864892,-0.683941,5.90091,-18.5937,-3.53686,-11.8472,22.6899,-2.92288,5.6315,10.6469,-1.72263,3.57321,-2.59414e-14,-3.97569e-16,-37.3308,6.5257,-88.4118,106.583,15.8258,-22.8045,20.9446,7.12502,3.63187,-9.00417,-2.59414e-14,-3.97569e-16,-31.585,-14.8987,97.3466,100.161,-5.89616,-16.4971,16.7518,7.12502,9.72056,46.5075,-19.4097,5.17747,13.0148,43.0374,-25.0934,1.90605,-7.5931,-12.4951,-2.12301,-18.7975,33.9795,-21.4505,9.07495,-14.7595
3.05717,17.3483,-3.56996,3.9956,-39.2565,3.26009,2.08067,-0.969263,-7.04304,0.029791,-1.44209,1.85767,-0.916028,-0.68786,5.92852,-18.5345,-3.51233,-11.9212,22.7093,-2.88108,5.65534,10.6404,-1.70868,3.60102,1.88845e-14,-7.95139e-15,-37.4228,6.56267,-88.4056,106.631,15.7944,-22.82,20.9941,7.12502,3.61694,-8.95498,1.88845e-14,-7.95139e-15,-31.6563,-14.8555,97.392,100.185,-5.88501,-16.4687,16.7276,7.12502,9.74801,46.482,-19.4191,5.17882,13.0272,43.0369,-25.0876,1.89667,-7.3888,-12.5091,-2.13214,-18.7875,33.9825,-21.4056,9.08963,-14.644
3.05522,17.3486,-3.56867,3.97456,-39.2608,3.28311,2.08258,-0.983601,-7.08414,0.0117809,-1.46277,1.85973,-0.931534,-0.69685,5.95485,-18.4708,-3.4857,-11.9346,22.7056,-2.85267,5.67114,10.6244,-1.69593,3.61334,1.21209e-13,3.37934e-14,-37.474,6.62243,-88.4321,106.664,15.7633,-22.9447,20.9589,7.12502,3.49647,-8.99216,1.21209e-13,3.37934e-14,-31.7109,-14.8207,97.3968,100.197,-5.8915,-16.4636,16.7801,7.12502,9.75289,46.5343,-19.3999,5.25111,13.0066,43.0374,-25.1028,1.93987,-6.81867,-12.4928,-2.16227,-18.801,33.9797,-21.4267,9.04435,-14.167
3.05516,17.3493,-3.56866,3.95697,-39.2377,3.30837,2.10244,-0.996183,-7.09302,0.0113411,-1.48141,1.83805,-0.940605,-0.705783,5.93796,-18.4844,-3.47946,-11.9033,22.71,-2.85318,5.67686,10.6279,-1.69267,3.61024,-1.21507e-13,5.56597e-15,-37.4463,6.61908,-88.4755,106.653,15.732,-22.9183,20.9282,7.12502,3.52204,-9.02248,-1.21507e-13,5.56597e-15,-31.7123,-14.8156,97.3452,100.197,-5.88724,-16.426,16.8679,7.12502,9.78914,46.6203,-19.3902,5.2665,12.9932,43.0379,-25.1254,1.87718,-7.0608,-12.495,-2.227,-18.8247,33.9851,-21.4373,9.1021,-14.4093
3.05476,17.349,-3.56861,3.96144,-39.2248,3.31765,2.11089,-0.99124,-7.11167,0.00479002,-1.47607,1.83465,-0.952614,-0.702335,5.94521,-18.4695,-3.49925,-11.9332,22.6866,-2.87999,5.70286,10.6201,-1.70394,3.62037,-1.2921e-14,2.50469e-14,-37.439,6.5964,-88.4737,106.66,15.7451,-22.8113,20.8445,7.12502,3.62533,-9.10445,-1.2921e-14,2.50469e-14,-31.6914,-14.8358,97.3235,100.184,-5.9058,-16.4296,16.8618,7.12502,9.78572,46.6144,-19.3963,5.25912,12.9909,43.0383,-25.14,1.824,-7.36091,-12.5075,-2.32316,-18.8379,33.9995,-21.4498,9.21292,-14.6736
3.0542,17.3482,-3.56897,3.98775,-39.2337,3.32073,2.12825,-0.989081,-7.17431,-0.0349949,-1.47659,1.87464,-1.00099,-0.699061,6.02406,-18.4038,-3.50978,-12.0085,22.6743,-2.88191,5.70663,10.6052,-1.71165,3.63382,-4.99943e-14,-7.95139e-15,-37.4926,6.6441,-88.4132,106.668,15.7102,-22.7507,20.8518,7.12502,3.68383,-9.09609,-4.99943e-14,-7.95139e-15,-31.7186,-14.7931,97.3707,100.193,-5.89797,-16.3976,16.8352,7.12502,9.81655,46.5864,-19.4309,5.29139,12.9853,43.0316,-25.1439,1.82456,-7.1435,-12.5587,-2.22887,-18.8321,34.0369,-21.4505,9.14199,-14.6375
3.05417,17.3487,-3.56788,4.01592,-39.2096,3.33048,2.10339,-1.00053,-7.18604,-0.048779,-1.4906,1.88321,-0.998602,-0.705676,6.03967,-18.3618,-3.52152,-12.0694,22.6437,-2.89573,5.7479,10.5891,-1.71809,3.65653,-9.54166e-15,4.37326e-15,-37.5012,6.63439,-88.391,106.678,15.7224,-22.6975,20.8375,7.12502,3.73518,-9.10954,-9.54166e-15,4.37326e-15,-31.7504,-14.7478,97.4235,100.199,-5.92899,-16.383,16.7671,7.12502,9.83063,46.5176,-19.4636,5.28063,12.9734,43.0261,-25.1109,1.8793,-6.72464,-12.6184,-2.13701,-18.835,34.0783,-21.4682,9.04051,-14.6385
3.05435,17.3492,-3.56761,4.07608,-39.1593,3.24083,2.11081,-1.01249,-7.11142,-0.0395413,-1.50483,1.9064,-0.992182,-0.713721,6.02186,-18.3268,-3.54427,-12.1477,22.5886,-2.92608,5.8207,10.5679,-1.729,3.69079,7.9166e-14,1.59028e-15,-37.4631,6.6221,-88.3871,106.671,15.7598,-22.6616,20.7942,7.12502,3.7699,-9.15221,7.9166e-14,1.59028e-15,-31.733,-14.7617,97.4566,100.199,-5.87229,-16.4739,16.8013,7.12502,9.74293,46.5559,-19.455,5.25836,13.0593,43.0196,-25.0551,1.87066,-6.61364,-12.649,-2.11777,-18.7557,34.1139,-21.4464,9.04271,-14.9596
3.05444,17.3495,-3.56833,4.11565,-39.1606,3.16068,2.14776,-1.0047,-7.07255,-0.0450402,-1.49593,1.93916,-1.02014,-0.708144,6.03501,-18.2593,-3.56861,-12.2884,22.5375,-2.95173,5.92017,10.5432,-1.74065,3.74605,2.08724e-14,2.10712e-14,-37.4381,6.59341,-88.3592,106.651,15.8147,-22.5045,20.7978,7.12502,3.92162,-9.14582,2.08724e-14,2.10712e-14,-31.7222,-14.8004,97.4827,100.19,-5.77287,-16.6506,16.7884,7.12502,9.57247,46.551,-19.4381,5.27996,13.1349,43.0129,-25.0738,1.81961,-6.92155,-12.6462,-2.13747,-18.685,34.1304,-21.4423,9.08772,-15.0996
3.05391,17.3504,-3.56524,4.09774,-39.2112,3.1878,2.10523,-0.997246,-7.07061,-0.0331281,-1.4828,1.919,-0.986511,-0.703314,6.01116,-18.275,-3.56287,-12.2791,22.5738,-2.94403,5.91429,10.5584,-1.73786,3.74419,-5.11374e-14,4.37326e-15,-37.4078,6.59424,-88.3656,106.628,15.828,-22.4179,20.8495,7.12502,4.00524,-9.09262,-5.11374e-14,4.37326e-15,-31.7145,-14.7681,97.4351,100.208,-5.7403,-16.5606,16.7812,7.12502,9.6593,46.5397,-19.4346,5.31216,13.0935,43.0114,-25.1152,1.85319,-6.96736,-12.6193,-2.2002,-18.7272,34.1308,-21.4942,9.15637,-14.8684
3.05256,17.3506,-3.5606,4.11505,-39.2478,3.18362,2.02133,-0.997712,-7.03613,-0.00303492,-1.47609,1.89803,-0.910578,-0.7041,5.96679,-18.3188,-3.54851,-12.2523,22.5752,-2.93268,5.94157,10.5656,-1.72642,3.75145,4.0403e-14,-2.90226e-14,-37.3645,6.59537,-88.3996,106.631,15.8602,-22.4336,20.8068,7.12502,3.99004,-9.13559,4.0403e-14,-2.90226e-14,-31.6581,-14.7459,97.3918,100.211,-5.80056,-16.4532,16.7551,7.12502,9.76297,46.5088,-19.4475,5.30482,13.0805,43.0105,-25.1137,1.87751,-7.14597,-12.6057,-2.25813,-18.7427,34.1226,-21.5114,9.20769,-14.7332
3.05258,17.3482,-3.56073,4.16549,-39.1997,3.14833,2.00412,-1.00129,-7.00589,-0.00204075,-1.47887,1.90311,-0.900052,-0.706076,5.95451,-18.3428,-3.561,-12.2518,22.5659,-2.9465,5.9417,10.5682,-1.73197,3.74915,-8.84095e-14,1.27222e-14,-37.3254,6.56072,-88.3962,106.611,15.8695,-22.4764,20.7657,7.12502,3.94874,-9.17749,-8.84095e-14,1.27222e-14,-31.63,-14.8206,97.4112,100.201,-5.7788,-16.508,16.8041,7.12502,9.71001,46.5603,-19.4713,5.25809,13.1155,43.0079,-25.122,1.80396,-7.4967,-12.6479,-2.31918,-18.7028,34.1182,-21.4971,9.21739,-14.8257
3.05251,17.3481,-3.56185,4.24046,-39.151,3.06686,2.00341,-1.02347,-6.95719,-0.00552425,-1.50727,1.91736,-0.899708,-0.720424,5.94232,-18.3851,-3.54668,-12.1837,22.5776,-2.93083,5.90174,10.5769,-1.72332,3.72561,-4.07509e-15,-1.98785e-15,-37.3048,6.55941,-88.416,106.608,15.8456,-22.373,20.7642,7.12502,4.04855,-9.17706,-4.07509e-15,-1.98785e-15,-31.6299,-14.8542,97.4032,100.19,-5.68461,-16.7023,16.869,7.12502,9.5226,46.6338,-19.4804,5.2553,13.198,42.9922,-25.1574,1.69552,-7.6376,-12.7012,-2.35185,-18.6189,34.1294,-21.4898,9.20474,-14.6085
3.0522,17.3476,-3.56134,4.26116,-39.1625,3.01966,2.01732,-1.03814,-6.91403,0.0039098,-1.52669,1.90587,-0.896162,-0.730784,5.90619,-18.434,-3.51742,-12.0687,22.5798,-2.9062,5.85798,10.5814,-1.7066,3.69401,1.35024e-13,-7.55382e-15,-37.3095,6.60459,-88.4731,106.627,15.7915,-22.325,20.788,7.12502,4.09491,-9.15239,1.35024e-13,-7.55382e-15,-31.605,-14.8239,97.3184,100.199,-5.58895,-16.752,16.8497,7.12502,9.47462,46.6167,-19.4697,5.24641,13.2359,42.9758,-25.1294,1.75581,-7.33337,-12.6977,-2.35311,-18.5797,34.1477,-21.4905,9.20352,-14.3734
3.05101,17.3483,-3.55927,4.23558,-39.1605,3.02044,2.00768,-1.01962,-6.87655,0.0281977,-1.50018,1.87068,-0.871506,-0.719375,5.8467,-18.428,-3.537,-12.0833,22.5533,-2.94972,5.93685,10.576,-1.71763,3.71854,-1.08536e-13,2.22639e-14,-37.2901,6.52504,-88.5072,106.601,15.8337,-22.4399,20.7813,7.12502,3.98401,-9.16122,-1.08536e-13,2.22639e-14,-31.573,-14.8945,97.2689,100.191,-5.57561,-16.6375,16.7902,7.12502,9.58511,46.5521,-19.4232,5.23668,13.2368,42.9582,-25.1371,1.79964,-7.27255,-12.6622,-2.34966,-18.5829,34.1646,-21.4833,9.1811,-14.45
3.04998,17.3484,-3.55809,4.20484,-39.1539,3.0244,2.0264,-1.00511,-6.87235,0.0469333,-1.48173,1.85377,-0.865962,-0.710939,5.82636,-18.454,-3.55018,-12.0735,22.5717,-2.96848,5.93804,10.5895,-1.72528,3.71492,1.06002e-13,-1.27222e-14,-37.2579,6.47446,-88.5223,106.565,15.9138,-22.4695,20.7247,7.12502,3.95538,-9.21838,1.06002e-13,-1.27222e-14,-31.5693,-14.9399,97.269,100.206,-5.63265,-16.6018,16.8768,7.12502,9.61955,46.6372,-19.3737,5.26223,13.2403,42.944,-25.1318,1.822,-7.05059,-12.6308,-2.34771,-18.585,34.18,-21.5083,9.21731,-14.832
3.0493,17.3487,-3.5586,4.23613,-39.1338,3.0239,2.00979,-1.01234,-6.88824,0.0363654,-1.49078,1.85928,-0.865667,-0.715094,5.84114,-18.476,-3.55287,-12.1072,22.6142,-2.967,5.96284,10.6101,-1.72544,3.73074,-2.21148e-14,2.74323e-14,-37.2562,6.47604,-88.5289,106.552,15.9789,-22.4453,20.7561,7.12502,3.97873,-9.18651,-2.21148e-14,2.74323e-14,-31.5988,-14.937,97.2923,100.23,-5.64585,-16.7011,16.9645,7.12502,9.52373,46.7293,-19.3918,5.31118,13.247,42.9283,-25.1389,1.79484,-6.87758,-12.6785,-2.31169,-18.5722,34.1979,-21.5369,9.17312,-15.0164
3.04994,17.3489,-3.56071,4.26696,-39.1283,2.99779,2.02393,-1.02303,-6.88496,0.0359532,-1.50586,1.87185,-0.87149,-0.722426,5.85312,-18.4964,-3.54646,-12.1267,22.6116,-2.95256,5.97639,10.612,-1.71851,3.74103,7.26558e-14,8.74653e-15,-37.222,6.50835,-88.5526,106.526,16.0216,-22.4502,20.796,7.12502,3.97402,-9.14667,7.26558e-14,8.74653e-15,-31.5846,-14.9113,97.288,100.218,-5.60228,-16.8778,17.0322,7.12502,9.35322,46.8047,-19.4023,5.35943,13.2747,42.9145,-25.1445,1.70943,-6.83102,-12.7071,-2.3513,-18.5435,34.2105,-21.5712,9.15212,-14.5787
3.04949,17.3495,-3.5593,4.28658,-39.1728,2.96448,2.02996,-1.01421,-6.86723,0.0322105,-1.49414,1.8771,-0.880848,-0.716146,5.84852,-18.4497,-3.5344,-12.0924,22.5445,-2.942,5.94537,10.5764,-1.71324,3.72412,-1.59525e-14,2.5842e-14,-37.2565,6.55985,-88.5708,106.549,15.965,-22.5342,20.7935,7.12502,3.89291,-9.15071,-1.59525e-14,2.5842e-14,-31.5953,-14.8928,97.2915,100.205,-5.57797,-16.9505,17.0364,7.12502,9.28313,46.8121,-19.4035,5.34844,13.2965,42.902,-25.0976,1.78498,-6.65128,-12.6923,-2.33176,-18.5304,34.2126,-21.5834,9.21713,-14.8424
3.049,17.351,-3.55601,4.28235,-39.207,2.94479,2.01715,-1.011,-6.82815,0.0401601,-1.48797,1.86718,-0.867583,-0.713981,5.81527,-18.398,-3.52257,-12.0767,22.5119,-2.92943,5.91921,10.5528,-1.70917,3.71314,-8.19987e-15,9.93923e-15,-37.2779,6.59507,-88.5833,106.571,15.9224,-22.685,20.7626,7.12502,3.74725,-9.18417,-8.19987e-15,9.93923e-15,-31.614,-14.8573,97.2907,100.198,-5.6052,-16.9692,16.9689,7.12502,9.26507,46.7453,-19.3848,5.33722,13.3026,42.8968,-25.0677,1.87618,-6.50006,-12.6526,-2.32907,-18.5289,34.2,-21.6011,9.25235,-15.1937
3.04789,17.3495,-3.55316,4.3023,-39.2344,2.93609,1.95341,-1.00583,-6.8028,0.0512542,-1.47592,1.85813,-0.822956,-0.7101,5.78939,-18.4646,-3.52434,-12.0986,22.6014,-2.92611,5.94581,10.5985,-1.7079,3.72886,-3.68746e-14,2.34566e-14,-37.2792,6.58484,-88.5772,106.595,15.9212,-22.632,20.6875,7.12502,3.79851,-9.25839,-3.68746e-14,2.34566e-14,-31.5793,-14.8557,97.289,100.166,-5.6264,-17.1198,16.9809,7.12502,9.1197,46.7637,-19.4058,5.35254,13.3002,42.8998,-25.0791,1.90822,-6.28706,-12.6487,-2.37182,-18.5265,34.1776,-21.5801,9.2853,-14.9938
3.04788,17.3476,-3.55141,4.28569,-39.2377,2.95724,1.94906,-1.01176,-6.81919,0.0512543,-1.4839,1.85991,-0.818858,-0.71419,5.80063,-18.5069,-3.50653,-12.0917,22.6664,-2.90022,5.94821,10.6275,-1.6964,3.73375,-1.19271e-14,1.39149e-14,-37.2928,6.61005,-88.5837,106.605,15.9452,-22.5864,20.746,7.12502,3.8425,-9.19915,-1.19271e-14,1.39149e-14,-31.5964,-14.8286,97.2973,100.203,-5.60738,-17.1088,17.059,7.12502,9.13036,46.8414,-19.4012,5.36789,13.2763,42.9114,-25.1034,1.88747,-6.40119,-12.6275,-2.39505,-18.5488,34.1441,-21.5768,9.28236,-14.4502
3.04795,17.3474,-3.55061,4.20139,-39.2279,3.03499,1.98717,-1.0316,-6.88342,0.0682149,-1.51414,1.85132,-0.816722,-0.729703,5.82942,-18.4967,-3.48637,-12.0847,22.6324,-2.86715,5.92155,10.6093,-1.68306,3.72694,-1.28216e-14,-1.19271e-14,-37.2665,6.68568,-88.5972,106.594,15.9279,-22.5414,20.7467,7.12502,3.88593,-9.19758,-1.28216e-14,-1.19271e-14,-31.5945,-14.7992,97.2671,100.258,-5.63237,-17.0603,17.1287,7.12502,9.17713,46.909,-19.356,5.37934,13.2085,42.917,-25.1172,1.85599,-6.61286,-12.5745,-2.38536,-18.6177,34.1226,-21.5854,9.24036,-14.3448
3.04792,17.3482,-3.55024,4.17498,-39.2437,3.06657,2.00789,-1.02762,-6.91028,0.0691807,-1.51088,1.85013,-0.827209,-0.727588,5.84391,-18.4611,-3.4838,-12.1186,22.5921,-2.85623,5.91952,10.5873,-1.68065,3.73262,7.33515e-14,-1.27222e-14,-37.2837,6.70731,-88.5894,106.619,15.9069,-22.5205,20.7149,7.12502,3.90613,-9.22905,7.33515e-14,-1.27222e-14,-31.5728,-14.8082,97.2717,100.25,-5.63724,-17.066,17.1119,7.12502,9.17166,46.8925,-19.3507,5.42158,13.1791,42.9142,-25.1504,1.80012,-6.73995,-12.557,-2.44307,-18.6483,34.1118,-21.5976,9.28556,-14.1878
3.04728,17.3502,-3.54973,4.24196,-39.2659,3.00671,1.99423,-1.0046,-6.86551,0.0602535,-1.47829,1.86243,-0.834539,-0.710872,5.83052,-18.4857,-3.48712,-12.1153,22.6142,-2.85496,5.90378,10.5998,-1.68188,3.7269,1.80894e-14,-3.57812e-15,-37.301,6.68287,-88.5585,106.64,15.8787,-22.5539,20.7063,7.12502,3.87389,-9.2382,1.80894e-14,-3.57812e-15,-31.5686,-14.8722,97.3113,100.222,-5.62218,-17.1117,17.1198,7.12502,9.12752,46.9023,-19.3948,5.40572,13.2288,42.9047,-25.1906,1.81621,-6.78065,-12.5799,-2.46961,-18.5986,34.1018,-21.5765,9.33447,-14.279
3.04649,17.3498,-3.54828,4.29381,-39.321,2.9593,1.9399,-0.982505,-6.83494,0.0738258,-1.44398,1.87042,-0.79568,-0.695717,5.81938,-18.4995,-3.50474,-12.1247,22.5912,-2.87702,5.91526,10.5967,-1.69048,3.72892,3.66758e-14,7.55382e-15,-37.3133,6.67032,-88.5264,106.671,15.8742,-22.5581,20.7435,7.12502,3.86985,-9.20114,3.66758e-14,7.55382e-15,-31.5613,-14.9035,97.3139,100.246,-5.6086,-17.0902,17.1332,7.12502,9.14835,46.9148,-19.4258,5.38856,13.2623,42.8853,-25.1518,1.87872,-6.54919,-12.5912,-2.4298,-18.5635,34.1021,-21.5859,9.32561,-14.4148
3.04562,17.35,-3.54652,4.24111,-39.3498,3.04721,1.92863,-0.99666,-6.91739,0.0675417,-1.46416,1.85439,-0.791194,-0.705506,5.84969,-18.5193,-3.48396,-12.0389,22.6219,-2.84737,5.81998,10.6059,-1.68151,3.68453,1.13307e-14,3.57812e-15,-37.3436,6.72372,-88.5485,106.691,15.8564,-22.4918,20.7297,7.12502,3.93383,-9.21376,1.13307e-14,3.57812e-15,-31.6004,-14.8457,97.2878,100.268,-5.63228,-17.0536,17.129,7.12502,9.18358,46.909,-19.4116,5.3993,13.181,42.8589,-25.1197,1.93354,-6.13959,-12.5882,-2.38625,-18.6522,34.1102,-21.5963,9.35481,-14.8898
3.04542,17.3508,-3.54577,4.27672,-39.3457,3.00848,1.96545,-1.02698,-6.91488,0.0321441,-1.50781,1.87463,-0.84145,-0.724332,5.87174,-18.5674,-3.43302,-11.9188,22.6923,-2.77246,5.68404,10.6293,-1.65453,3.62696,-1.38752e-13,1.78906e-14,-37.3611,6.81058,-88.5912,106.686,15.847,-22.4871,20.7118,7.12502,3.93845,-9.23157,-1.38752e-13,1.78906e-14,-31.66,-14.7181,97.2678,100.288,-5.67282,-16.9964,17.1136,7.12502,9.23884,46.8912,-19.3914,5.39423,13.211,42.8274,-25.1443,1.99298,-6.14096,-12.5984,-2.30812,-18.6255,34.1237,-21.5957,9.37953,-14.9323
3.04535,17.3508,-3.54412,4.34702,-39.3364,2.95725,1.94955,-1.02721,-6.87799,0.00706235,-1.50654,1.90006,-0.858961,-0.722394,5.87743,-18.6057,-3.42989,-11.8948,22.7448,-2.75057,5.60332,10.6526,-1.65311,3.59746,-1.16289e-14,1.82882e-14,-37.3757,6.81107,-88.5658,106.702,15.8573,-22.4706,20.7108,7.12502,3.95434,-9.2323,-1.16289e-14,1.82882e-14,-31.7041,-14.6563,97.3399,100.314,-5.67713,-16.9939,17.0755,7.12502,9.24122,46.853,-19.4085,5.35817,13.2468,42.7996,-25.1773,2.02215,-6.39095,-12.6289,-2.36383,-18.5835,34.1339,-21.6184,9.40078,-14.3281
3.04541,17.3508,-3.54264,4.36379,-39.3366,2.93668,1.91874,-1.00352,-6.82982,0.0326185,-1.47124,1.88936,-0.822009,-0.707117,5.83696,-18.6089,-3.47256,-11.9584,22.7051,-2.81037,5.68369,10.6468,-1.67499,3.62795,3.28989e-14,-1.19271e-14,-37.3743,6.74278,-88.5269,106.726,15.8808,-22.5103,20.7418,7.12502,3.91603,-9.20195,3.28989e-14,-1.19271e-14,-31.6508,-14.7388,97.3487,100.327,-5.59332,-16.9585,17.0521,7.12502,9.2754,46.828,-19.3915,5.35608,13.2597,42.7706,-25.1588,2.01752,-6.39956,-12.641,-2.3361,-18.5673,34.1486,-21.619,9.39037,-14.5479
3.045,17.3507,-3.54269,4.44326,-39.3396,2.86901,1.87439,-1.00174,-6.77466,0.0690817,-1.46389,1.88123,-0.761978,-0.707058,5.79526,-18.723,-3.49404,-11.9094,22.7005,-2.83847,5.68104,10.6686,-1.68187,3.61438,-2.71341e-14,1.07344e-14,-37.3127,6.75049,-88.5429,106.727,15.8525,-22.5494,20.7277,7.12502,3.87823,-9.21676,-2.71341e-14,1.07344e-14,-31.5217,-14.8239,97.2525,100.282,-5.60531,-16.9605,17.0253,7.12502,9.27345,46.8013,-19.4347,5.36164,13.3239,42.749,-25.0843,1.94015,-6.50919,-12.7045,-2.27008,-18.4986,34.1601,-21.6509,9.33942,-15.0119
3.04454,17.35,-3.54189,4.47267,-39.3165,2.86584,1.84618,-1.01342,-6.79054,0.10777,-1.4771,1.8697,-0.70396,-0.717022,5.79117,-18.9092,-3.49667,-11.7519,22.7622,-2.83317,5.55408,10.7216,-1.67987,3.5431,6.97734e-14,-1.11319e-14,-37.2095,6.75717,-88.5534,106.718,15.8169,-22.5723,20.7053,7.12502,3.85611,-9.23951,6.97734e-14,-1.11319e-14,-31.4178,-14.8578,97.1727,100.269,-5.59134,-16.9249,16.9862,7.12502,9.30777,46.7608,-19.4541,5.35078,13.3246,42.7338,-25.0749,1.88859,-6.67703,-12.7388,-2.28302,-18.4881,34.1659,-21.6515,9.2739,-14.6134
3.04443,17.3509,-3.54127,4.49949,-39.296,2.82898,1.83449,-1.02985,-6.76401,0.131739,-1.49717,1.87037,-0.67019,-0.729177,5.77644,-18.9816,-3.48699,-11.6892,22.7857,-2.81754,5.50817,10.7407,-1.67237,3.51842,-8.64713e-14,2.62396e-14,-37.1384,6.75463,-88.5572,106.692,15.805,-22.5578,20.7834,7.12502,3.87014,-9.16117,-8.64713e-14,2.62396e-14,-31.3516,-14.8515,97.1245,100.257,-5.54549,-16.9509,17.0062,7.12502,9.28274,46.7818,-19.4284,5.40685,13.3521,42.7161,-25.1538,1.90273,-6.43745,-12.7396,-2.28232,-18.4544,34.18,-21.6585,9.2583,-14.4174
3.04453,17.3496,-3.54165,4.49666,-39.3006,2.82514,1.83386,-1.02232,-6.74922,0.144582,-1.48663,1.84828,-0.659082,-0.724737,5.74444,-18.9122,-3.49792,-11.6725,22.7196,-2.85296,5.53646,10.7065,-1.68277,3.5196,2.39536e-14,3.57812e-15,-37.057,6.59607,-88.6066,106.64,15.8553,-22.41,20.8906,7.12502,4.0129,-9.05137,2.39536e-14,3.57812e-15,-31.3403,-14.8675,97.0915,100.257,-5.52854,-16.8135,16.9589,7.12502,9.41533,46.7286,-19.4009,5.44494,13.3502,42.6902,-25.2253,1.9209,-6.32167,-12.7435,-2.25452,-18.4497,34.2009,-21.672,9.24963,-14.6721
3.04492,17.3482,-3.54089,4.49709,-39.3014,2.82541,1.82929,-1.00401,-6.73601,0.155831,-1.46149,1.82746,-0.649491,-0.712865,5.7144,-18.823,-3.52534,-11.7328,22.6279,-2.90919,5.63968,10.6637,-1.69995,3.55765,-9.88457e-14,-7.95139e-16,-36.9921,6.42586,-88.6326,106.641,15.8782,-22.2502,20.9028,7.12502,4.16717,-9.03615,-9.88457e-14,-7.95139e-16,-31.3665,-14.9151,97.1168,100.293,-5.55678,-16.7444,16.961,7.12502,9.48201,46.7277,-19.3749,5.47463,13.3467,42.6555,-25.2437,1.93301,-6.06338,-12.7614,-2.25298,-18.4563,34.2224,-21.6662,9.29807,-14.9337
3.04478,17.3481,-3.5403,4.48609,-39.2911,2.8079,1.86316,-1.00439,-6.734,0.170847,-1.46396,1.82298,-0.652766,-0.714436,5.70918,-18.9074,-3.52237,-11.7528,22.7015,-2.9123,5.72507,10.7083,-1.69356,3.59336,-3.37934e-14,-2.38542e-14,-36.9877,6.41772,-88.6507,106.653,15.8747,-22.2753,20.8721,7.12502,4.14294,-9.06737,-3.37934e-14,-2.38542e-14,-31.3849,-14.915,97.124,100.312,-5.59885,-16.7739,17.0116,7.12502,9.45348,46.7796,-19.3361,5.46566,13.3653,42.621,-25.2083,1.92689,-5.83131,-12.7486,-2.23389,-18.4469,34.2369,-21.6129,9.34298,-15.056
3.04492,17.3476,-3.53743,4.53939,-39.311,2.72261,1.86424,-0.984639,-6.67852,0.182935,-1.43613,1.8473,-0.645719,-0.701282,5.70251,-19.0348,-3.52667,-11.6696,22.7912,-2.9058,5.63466,10.7623,-1.69475,3.54867,-1.02871e-14,-1.66979e-14,-36.9061,6.29779,-88.6415,106.592,15.919,-22.2247,20.9604,7.12502,4.1918,-8.97815,-1.02871e-14,-1.66979e-14,-31.3876,-14.9238,97.166,100.33,-5.58489,-16.7899,17.0236,7.12502,9.43807,46.7922,-19.3299,5.42913,13.4322,42.5886,-25.1373,1.91239,-5.808,-12.7371,-2.21605,-18.3815,34.2479,-21.6551,9.32779,-15.034
3.04451,17.3461,-3.5377,4.55141,-39.2814,2.70314,1.91054,-0.978093,-6.70615,0.170069,-1.4312,1.87428,-0.684411,-0.696909,5.74775,-19.0446,-3.55457,-11.6667,22.8109,-2.93264,5.58669,10.7737,-1.71294,3.52673,1.74434e-14,1.23246e-14,-36.8767,6.20431,-88.6076,106.556,15.9659,-22.2758,20.9733,7.12502,4.14241,-8.96614,1.74434e-14,1.23246e-14,-31.3979,-14.9134,97.2314,100.329,-5.59445,-16.7675,16.9078,7.12502,9.4597,46.6755,-19.3141,5.44345,13.4487,42.562,-25.1563,1.91578,-6.0672,-12.7485,-2.18437,-18.3645,34.2543,-21.6478,9.31395,-15.0768
3.043,17.3458,-3.53892,4.61767,-39.2508,2.6451,1.92968,-0.984916,-6.74384,0.13569,-1.44271,1.93898,-0.726459,-0.699964,5.83835,-18.9745,-3.56784,-11.7107,22.7892,-2.92603,5.50909,10.7522,-1.7237,3.50602,2.65378e-14,-9.14409e-15,-36.9427,6.24695,-88.5154,106.592,15.9607,-22.2944,20.9449,7.12502,4.12448,-8.99488,2.65378e-14,-9.14409e-15,-31.4505,-14.8494,97.3191,100.337,-5.62838,-16.6982,16.8018,7.12502,9.52659,46.5665,-19.3184,5.50358,13.5047,42.5432,-25.193,1.9264,-6.13265,-12.7858,-2.18466,-18.2961,34.2577,-21.7075,9.22321,-14.9398
3.04271,17.3451,-3.53684,4.64301,-39.2458,2.58006,1.99284,-0.9776,-6.74453,0.115095,-1.43731,1.98954,-0.782777,-0.694495,5.89359,-18.9608,-3.56347,-11.7125,22.785,-2.908,5.45974,10.7458,-1.72172,3.49073,-3.08613e-14,1.03368e-14,-36.9706,6.26241,-88.4455,106.589,16.0175,-22.258,20.9409,7.12502,4.15962,-8.99819,-3.08613e-14,1.03368e-14,-31.4824,-14.7934,97.3921,100.322,-5.65179,-16.6191,16.7747,7.12502,9.60289,46.5359,-19.2682,5.50827,13.554,42.5267,-25.2092,1.96552,-6.0817,-12.7555,-2.19139,-18.2399,34.2714,-21.8439,9.16192,-14.898
3.04347,17.3435,-3.53316,4.61097,-39.2377,2.6074,2.03747,-0.998328,-6.78275,0.115036,-1.46876,2.00306,-0.801827,-0.709398,5.93126,-19.0178,-3.53068,-11.664,22.7961,-2.86201,5.43191,10.7548,-1.69937,3.47944,6.82825e-14,0,-36.9735,6.32135,-88.452,106.58,16.1246,-22.2636,20.9103,7.12502,4.15422,-9.0289,6.82825e-14,0,-31.4752,-14.7148,97.4029,100.316,-5.62608,-16.5172,16.7257,7.12502,9.70122,46.4823,-19.2256,5.39669,13.5178,42.5123,-25.2041,1.98214,-6.56317,-12.7456,-2.11043,-18.2806,34.292,-21.8436,9.22435,-15.4892
3.04553,17.3418,-3.53002,4.67601,-39.172,2.56946,2.00549,-1.04081,-6.72511,0.133348,-1.52159,2.01124,-0.758069,-0.738323,5.90689,-19.0695,-3.50503,-11.5858,22.7364,-2.82272,5.36319,10.7364,-1.68043,3.4458,-1.25731e-14,3.02153e-14,-36.8966,6.36466,-88.4794,106.575,16.131,-22.2048,20.9501,7.12502,4.21096,-8.98803,-1.25731e-14,3.02153e-14,-31.4196,-14.6947,97.362,100.339,-5.60145,-16.3992,16.8446,7.12502,9.81503,46.5959,-19.2478,5.33428,13.5396,42.4913,-25.2447,2.00647,-6.51402,-12.8185,-2.0208,-18.2536,34.3095,-21.7989,9.22323,-15.5429
3.0482,17.3391,-3.52866,4.69414,-39.0788,2.562,2.01821,-1.07937,-6.68916,0.150288,-1.57281,2.00326,-0.741065,-0.765276,5.87896,-19.1495,-3.50428,-11.5201,22.7396,-2.81741,5.31105,10.7503,-1.67748,3.41634,-6.15736e-14,-7.95139e-15,-36.79,6.37583,-88.4777,106.542,16.0991,-22.1031,20.9145,7.12502,4.3092,-9.02164,-6.15736e-14,-7.95139e-15,-31.3825,-14.6829,97.3443,100.36,-5.56264,-16.35,16.8932,7.12502,9.86248,46.6422,-19.2264,5.29913,13.5439,42.4661,-25.2695,2.04396,-6.20731,-12.8525,-2.02182,-18.2439,34.3127,-21.9622,9.1012,-14.7431
3.04965,17.3405,-3.52667,4.74475,-39.0447,2.55092,1.98435,-1.08365,-6.64951,0.152487,-1.57536,2.00183,-0.720488,-0.767521,5.854,-19.2183,-3.5498,-11.5551,22.7578,-2.86515,5.32442,10.7758,-1.70013,3.42001,6.4605e-15,8.34896e-15,-36.731,6.33889,-88.4324,106.558,16.0718,-21.9399,20.822,7.12502,4.46677,-9.11093,6.4605e-15,8.34896e-15,-31.378,-14.7296,97.3886,100.35,-5.55625,-16.417,16.8801,7.12502,9.79788,46.6322,-19.2452,5.2491,13.5424,42.4396,-25.2457,2.03765,-6.26016,-12.8848,-2.06867,-18.2471,34.3143,-22.1137,9.09877,-14.4161
3.05094,17.3426,-3.5239,4.82187,-39.0264,2.50779,1.97023,-1.07404,-6.59488,0.111541,-1.56103,2.02943,-0.757811,-0.757875,5.8519,-19.1403,-3.57856,-11.6604,22.7203,-2.89304,5.36531,10.7527,-1.71715,3.44777,-2.08277e-13,1.43125e-14,-36.8325,6.36027,-88.3465,106.638,16.0432,-21.9656,20.7566,7.12502,4.44203,-9.17686,-2.08277e-13,1.43125e-14,-31.4245,-14.7541,97.4723,100.292,-5.61354,-16.5332,16.6608,7.12502,9.68579,46.4181,-19.2906,5.1869,13.5635,42.4277,-25.2513,2.03505,-6.06549,-12.9034,-2.23693,-18.2428,34.3023,-22.1136,9.34891,-14.4421
3.05391,17.3389,-3.52324,4.88114,-38.9906,2.45398,2.0277,-1.05192,-6.52492,0.0597818,-1.53447,2.05431,-0.848831,-0.739846,5.83993,-19.0192,-3.59713,-11.8018,22.6773,-2.90899,5.43543,10.7193,-1.72883,3.49414,-2.13197e-14,-4.77083e-15,-36.9815,6.37256,-88.2586,106.704,16.0453,-22.0917,20.6993,7.12502,4.32021,-9.23663,-2.13197e-14,-4.77083e-15,-31.5316,-14.7626,97.5939,100.292,-5.72728,-16.4367,16.5371,7.12502,9.77887,46.2901,-19.3254,5.16147,13.6008,42.431,-25.2829,1.99071,-5.6121,-12.9487,-2.28387,-18.1991,34.3045,-22.1283,9.38578,-14.3318
3.0561,17.3339,-3.52176,4.8503,-38.9751,2.45877,2.11174,-1.03427,-6.51667,0.0477581,-1.51637,2.05137,-0.911498,-0.728092,5.83407,-18.9866,-3.60518,-11.7584,22.6671,-2.91876,5.36244,10.7088,-1.7385,3.45841,-2.31584e-14,-1.15295e-14,-37.1066,6.39426,-88.2282,106.763,15.9603,-22.1501,20.7274,7.12502,4.26382,-9.20972,-2.31584e-14,-1.15295e-14,-31.6083,-14.7412,97.6756,100.298,-5.81861,-16.3106,16.4428,7.12502,9.9005,46.19,-19.3098,5.10909,13.584,42.4524,-25.3271,2.01269,-5.52892,-12.9507,-2.12065,-18.1993,34.3292,-22.1709,9.2939,-14.5369
3.05966,17.3296,-3.51668,4.88672,-38.9801,2.38266,2.15697,-1.03928,-6.45206,0.0368603,-1.52431,2.0856,-0.947735,-0.730685,5.83466,-18.9524,-3.58771,-11.694,22.6205,-2.88988,5.25782,10.6799,-1.73156,3.41274,-3.77691e-15,1.59028e-15,-37.174,6.53386,-88.1743,106.788,15.7595,-22.2972,20.8149,7.12502,4.12181,-9.12493,-3.77691e-15,1.59028e-15,-31.6446,-14.7201,97.7265,100.307,-5.82567,-16.3745,16.3464,7.12502,9.83881,46.0965,-19.3059,5.05428,13.6192,42.483,-25.4055,2.10248,-5.35266,-12.9595,-1.92755,-18.1453,34.3889,-22.2425,9.19898,-14.8252
3.06349,17.3261,-3.5108,4.94144,-38.9803,2.34433,2.15371,-1.0492,-6.3985,0.0202514,-1.53624,2.09677,-0.962407,-0.735876,5.81629,-18.9201,-3.57806,-11.715,22.5674,-2.8879,5.31604,10.655,-1.72439,3.43709,-4.35835e-14,3.97569e-16,-37.1079,6.57801,-88.1567,106.751,15.6501,-22.3794,20.8555,7.12502,4.04237,-9.08586,-4.35835e-14,3.97569e-16,-31.6503,-14.772,97.7299,100.319,-5.78977,-16.5067,16.4765,7.12502,9.71134,46.2326,-19.3412,5.03578,13.6221,42.5034,-25.4359,2.13396,-5.18569,-13.0287,-1.71151,-18.1247,34.4752,-22.2709,9.05026,-15.0675
3.06638,17.3231,-3.50447,5.02367,-38.9398,2.32934,2.09016,-1.05665,-6.37747,-0.00627055,-1.54202,2.11698,-0.953307,-0.738427,5.82447,-18.9018,-3.60222,-11.7739,22.5382,-2.91887,5.36781,10.6457,-1.73679,3.46075,1.94312e-14,2.42517e-14,-37.0705,6.5955,-88.1137,106.71,15.6759,-22.526,20.7917,7.12502,3.9008,-9.15236,1.94312e-14,2.42517e-14,-31.6599,-14.8279,97.7996,100.325,-5.80369,-16.5541,16.6009,7.12502,9.66562,46.3591,-19.3971,5.00373,13.6045,42.5028,-25.4568,2.10992,-5.73734,-13.1748,-1.51571,-18.1155,34.6019,-22.3469,8.83679,-15.0238
3.07019,17.3202,-3.49816,5.06192,-38.8802,2.1971,2.15546,-1.08298,-6.25672,-0.0097721,-1.57799,2.15608,-0.990386,-0.755579,5.79917,-18.8768,-3.60272,-11.728,22.5355,-2.91647,5.28834,10.638,-1.74164,3.42426,2.09221e-14,-1.59028e-14,-37.1061,6.68244,-88.1033,106.694,15.7134,-22.5795,20.7809,7.12502,3.84916,-9.16411,2.09221e-14,-1.59028e-14,-31.7134,-14.7633,97.829,100.359,-5.75539,-16.5053,16.7405,7.12502,9.71269,46.4966,-19.3174,4.95046,13.6996,42.5034,-25.4958,2.15649,-6.28103,-13.1993,-1.38165,-18.007,34.7501,-22.4661,8.64682,-15.0088
3.07509,17.3156,-3.49555,5.0667,-38.8254,2.06626,2.26527,-1.1041,-6.12417,0.03335,-1.60859,2.16979,-1.00612,-0.772253,5.74083,-18.9731,-3.59321,-11.6214,22.5831,-2.89672,5.18386,10.6685,-1.73595,3.37172,7.50412e-15,2.90226e-14,-37.0394,6.74705,-88.1231,106.694,15.6404,-22.6762,20.8017,7.12502,3.75575,-9.14493,7.50412e-15,2.90226e-14,-31.6893,-14.7359,97.7989,100.372,-5.7038,-16.553,16.9438,7.12502,9.66666,46.702,-19.228,4.97491,13.8118,42.5238,-25.563,2.19215,-6.35141,-13.2149,-1.18472,-17.8852,34.9048,-22.584,8.41255,-15.004
3.07876,17.3108,-3.49325,5.12091,-38.811,2.02558,2.24779,-1.09964,-6.07813,0.056271,-1.60021,2.15187,-0.975535,-0.770018,5.69473,-19.0029,-3.57682,-11.5296,22.576,-2.89888,5.18851,10.6696,-1.72769,3.35775,-4.8901e-14,2.06736e-14,-36.962,6.70585,-88.1439,106.66,15.5873,-22.7788,20.8228,7.12502,3.65674,-9.12561,-4.8901e-14,2.06736e-14,-31.6248,-14.8519,97.7694,100.288,-5.68031,-16.7076,16.8891,7.12502,9.51751,46.6542,-19.2798,4.98066,13.8327,42.573,-25.6088,2.172,-6.32053,-13.346,-0.878523,-17.8319,35.0645,-22.6355,8.11238,-14.6422
3.08145,17.305,-3.48782,5.12703,-38.8313,2.05471,2.21514,-1.09291,-6.10048,0.0589342,-1.58993,2.1387,-0.955694,-0.765543,5.69252,-18.9365,-3.55321,-11.5535,22.515,-2.89834,5.31417,10.636,-1.71356,3.40718,5.01931e-15,8.74653e-15,-36.9413,6.67187,-88.1434,106.588,15.6168,-22.8376,20.768,7.12502,3.59997,-9.18132,5.01931e-15,8.74653e-15,-31.5895,-14.9127,97.7423,100.224,-5.68796,-16.6538,16.6842,7.12502,9.56935,46.4469,-19.3398,4.91377,13.7794,42.6401,-25.6456,2.23953,-6.23435,-13.4467,-0.676449,-17.8653,35.2182,-22.7149,7.95267,-14.5298
3.08391,17.2963,-3.47928,5.09449,-38.8654,2.05841,2.20649,-1.06733,-6.08621,0.0648255,-1.55482,2.13933,-0.950133,-0.74838,5.68396,-18.9442,-3.57427,-11.5683,22.5812,-2.92294,5.30764,10.6645,-1.72862,3.4047,-2.62893e-14,-7.95139e-16,-36.9555,6.58664,-88.092,106.543,15.5836,-22.7883,20.6761,7.12502,3.64757,-9.27248,-2.62893e-14,-7.95139e-16,-31.6184,-14.9243,97.7643,100.211,-5.76966,-16.3876,16.6811,7.12502,9.82623,46.4318,-19.3338,4.93671,13.738,42.7185,-25.7277,2.37624,-5.79881,-13.4596,-0.566684,-17.8987,35.3622,-22.8262,7.86324,-14.5664
3.08741,17.2905,-3.46837,5.09128,-38.9086,2.01037,2.19353,-1.0256,-5.97962,0.0739398,-1.49573,2.11812,-0.945143,-0.719668,5.59918,-18.9317,-3.60579,-11.5681,22.6294,-2.97265,5.31501,10.6848,-1.75192,3.40082,8.60738e-14,-1.63003e-14,-36.9817,6.45117,-88.0767,106.506,15.5508,-22.8024,20.666,7.12502,3.63396,-9.2828,8.60738e-14,-1.63003e-14,-31.6326,-15.008,97.7553,100.169,-5.7686,-16.3033,16.7539,7.12502,9.90756,46.5008,-19.3006,5.09181,13.7405,42.7899,-25.8182,2.38359,-5.68063,-13.4647,-0.41168,-17.8925,35.5157,-22.9463,7.68447,-14.3388
3.09354,17.2849,-3.45736,5.08697,-38.9104,1.92967,2.2841,-1.01517,-5.88529,0.0628464,-1.48463,2.1328,-1.01102,-0.71194,5.56297,-18.8298,-3.57769,-11.6356,22.5726,-2.9647,5.46821,10.6466,-1.73562,3.4689,-8.05078e-15,3.02153e-14,-37.0061,6.3955,-88.045,106.437,15.6399,-22.819,20.6031,7.12502,3.61792,-9.34591,-8.05078e-15,3.02153e-14,-31.6602,-15.0708,97.7485,100.133,-5.70964,-16.3991,16.8548,7.12502,9.81513,46.6061,-19.2441,5.1873,13.7694,42.8554,-25.9249,2.41529,-5.02763,-13.4782,-0.107273,-17.8444,35.6879,-23.0541,7.36805,-14.2201
3.10108,17.2774,-3.44839,5.0791,-38.8511,1.87313,2.42972,-1.05393,-5.88322,0.0186664,-1.54438,2.22191,-1.12777,-0.736603,5.66116,-18.7152,-3.52469,-11.6989,22.5038,-2.88513,5.47136,10.5932,-1.70429,3.49142,-3.26007e-14,1.51076e-14,-37.0631,6.52588,-87.917,106.399,15.6192,-22.6977,20.6415,7.12502,3.73506,-9.30554,-3.26007e-14,1.51076e-14,-31.7127,-14.9915,97.8581,100.123,-5.74022,-16.4825,16.8863,7.12502,9.73469,46.6414,-19.201,5.10317,13.7838,42.9202,-26.0056,2.53466,-3.93205,-13.5344,0.208562,-17.7998,35.8679,-23.1609,6.99718,-14.3403
3.10866,17.2728,-3.44078,5.10727,-38.7368,1.88918,2.41824,-1.08911,-5.87914,0.014752,-1.59033,2.25725,-1.11798,-0.759884,5.69688,-18.707,-3.54069,-11.6938,22.45,-2.88318,5.37454,10.5709,-1.71313,3.45425,2.15184e-14,6.36111e-15,-37.0939,6.6479,-87.797,106.405,15.4121,-22.6668,20.6676,7.12502,3.76485,-9.27888,2.15184e-14,6.36111e-15,-31.7042,-14.9877,97.9546,100.13,-5.65266,-16.4717,16.8596,7.12502,9.74509,46.6141,-19.2408,4.98786,13.7317,42.9855,-26.0863,2.60607,-3.25759,-13.6973,0.341709,-17.8223,36.056,-23.2512,6.69607,-14.592
3.11517,17.2688,-3.4305,5.13968,-38.7384,1.86537,2.35219,-1.07639,-5.80673,0.0539072,-1.56729,2.24781,-1.04581,-0.752326,5.64271,-18.7915,-3.56016,-11.6892,22.4692,-2.90264,5.38208,10.5959,-1.71992,3.4535,-1.0461e-13,-3.57812e-15,-37.0894,6.67451,-87.7995,106.354,15.2557,-22.7436,20.7269,7.12502,3.6907,-9.22086,-1.0461e-13,-3.57812e-15,-31.6625,-15.0654,97.9537,100.125,-5.57741,-16.3781,16.7508,7.12502,9.83536,46.5011,-19.2651,4.98572,13.6973,43.0449,-26.1419,2.6985,-2.81988,-13.812,0.438219,-17.8406,36.2694,-23.3734,6.57751,-14.636
3.12295,17.2629,-3.41874,5.17527,-38.8034,1.76352,2.38039,-1.06638,-5.7372,0.0752164,-1.55286,2.3065,-1.04183,-0.746196,5.6647,-18.8106,-3.54114,-11.7351,22.4172,-2.8631,5.40415,10.5777,-1.70139,3.47409,2.93207e-15,1.11319e-14,-37.028,6.7199,-87.8088,106.238,15.1725,-22.7854,20.6079,7.12502,3.65034,-9.34061,2.93207e-15,1.11319e-14,-31.6453,-15.0715,97.9867,100.091,-5.58627,-16.4497,16.658,7.12502,9.76633,46.4116,-19.2466,5.08576,13.7276,43.0993,-26.2141,2.7509,-2.67582,-13.8625,0.675199,-17.8,36.4916,-23.5478,6.42182,-14.7116
3.13241,17.2553,-3.40908,5.23109,-38.7956,1.57252,2.47496,-1.05893,-5.59758,0.111968,-1.54316,2.37472,-1.06004,-0.742455,5.65827,-18.7941,-3.53695,-11.566,22.2774,-2.85345,5.19962,10.5171,-1.70316,3.36999,-5.42185e-14,1.55052e-14,-36.9401,6.65195,-87.7976,106.161,14.9855,-22.7165,20.4989,7.12502,3.71691,-9.44847,-5.42185e-14,1.55052e-14,-31.6329,-15.1276,98.0453,100.083,-5.57336,-16.652,16.748,7.12502,9.57108,46.5106,-19.2045,5.14246,13.8623,43.1458,-26.2725,2.65195,-3.86485,-13.9131,0.914458,-17.6635,36.7192,-23.7122,6.14888,-14.6509
3.14129,17.2481,-3.40142,5.26544,-38.6702,1.53987,2.50875,-1.08034,-5.5546,0.124592,-1.57205,2.39036,-1.06264,-0.757412,5.6516,-18.8231,-3.53991,-11.4209,22.172,-2.85384,5.04238,10.4795,-1.70625,3.28649,-1.1619e-13,-5.1684e-15,-36.8761,6.57209,-87.73,106.135,14.7782,-22.5223,20.4947,7.12502,3.90438,-9.44924,-1.1619e-13,-5.1684e-15,-31.6254,-15.1691,98.1091,100.075,-5.54418,-16.7586,16.6363,7.12502,9.46827,46.4036,-19.2355,4.99133,13.8737,43.195,-26.2894,2.54371,-5.01448,-14.0749,1.06267,-17.6468,36.9314,-23.8032,5.8696,-14.6412
3.14968,17.2406,-3.38811,5.20663,-38.4499,1.5467,2.6248,-1.16145,-5.53238,0.109175,-1.68538,2.4389,-1.12718,-0.811768,5.69634,-18.886,-3.52951,-11.4995,22.1738,-2.81294,5.06704,10.4902,-1.69048,3.31438,4.46769e-14,-3.57812e-15,-36.9183,6.69474,-87.6273,106.103,14.6086,-22.3921,20.5179,7.12502,4.03015,-9.42377,4.46769e-14,-3.57812e-15,-31.6856,-15.0693,98.2203,100.121,-5.50894,-16.5699,16.5568,7.12502,9.6503,46.3158,-19.1369,4.8101,13.85,43.2515,-26.406,2.4895,-5.39463,-14.1233,1.06966,-17.674,37.1145,-23.8945,5.7149,-14.7606
3.16102,17.2312,-3.36742,4.97842,-38.1973,1.55088,2.84648,-1.24953,-5.44098,0.175543,-1.81041,2.47513,-1.16719,-0.875412,5.69104,-19.1314,-3.52352,-11.5341,22.352,-2.76222,5.05435,10.5976,-1.67349,3.32537,8.94034e-14,-1.23246e-14,-36.9347,6.91264,-87.5027,106.065,14.3569,-22.5711,20.5038,7.12502,3.85728,-9.44108,8.94034e-14,-1.23246e-14,-31.6912,-15.002,98.3223,100.155,-5.47846,-16.3732,16.574,7.12502,9.84011,46.324,-18.8127,4.72975,13.8192,43.3153,-26.6184,2.47688,-5.07645,-13.9518,0.859915,-17.7191,37.2462,-24.0096,5.58968,-14.3218
3.17316,17.2226,-3.34888,4.81757,-38.0601,1.5004,3.04081,-1.25546,-5.27849,0.243903,-1.82201,2.46382,-1.20936,-0.882505,5.59147,-19.3546,-3.53062,-11.4186,22.5072,-2.75189,4.9392,10.6924,-1.67409,3.26761,-2.89232e-14,2.70347e-14,-36.924,6.92564,-87.4537,106.006,14.2026,-22.7615,20.416,7.12502,3.67339,-9.53211,-2.89232e-14,2.70347e-14,-31.6561,-15.1524,98.3933,100.113,-5.57987,-16.3673,16.5253,7.12502,9.84584,46.2751,-18.577,4.72972,13.8319,43.3846,-26.7662,2.37196,-5.51365,-13.7966,0.771273,-17.7054,37.3369,-24.0823,5.37535,-13.5344
3.18154,17.2185,-3.33058,4.73698,-38.0754,1.50466,3.1473,-1.21638,-5.26866,0.230241,-1.7745,2.47932,-1.2895,-0.855768,5.60408,-19.3129,-3.5279,-11.3735,22.4974,-2.74278,4.84482,10.6784,-1.67779,3.22677,1.47101e-14,-7.95139e-15,-36.9548,6.84935,-87.3815,105.941,14.1596,-22.6596,20.2697,7.12502,3.77185,-9.67666,1.47101e-14,-7.95139e-15,-31.7682,-15.2419,98.5515,100.105,-5.70391,-16.3757,16.4669,7.12502,9.83767,46.2171,-18.4959,4.71314,13.7723,43.4652,-26.8218,2.3987,-5.57724,-13.7166,0.958658,-17.7539,37.4139,-24.129,5.23672,-13.3035
3.18787,17.2136,-3.31048,4.6555,-38.0708,1.56812,3.14812,-1.20585,-5.32809,0.234646,-1.76256,2.47476,-1.28539,-0.849705,5.63273,-19.2765,-3.53366,-11.3478,22.4432,-2.76263,4.84595,10.6528,-1.68338,3.21914,-3.13086e-14,1.98785e-15,-36.9847,6.86048,-87.362,105.843,14.0735,-22.6166,20.186,7.12502,3.81332,-9.75958,-3.13086e-14,1.98785e-15,-31.8045,-15.3341,98.6164,100.063,-5.71515,-16.3818,16.459,7.12502,9.83182,46.2095,-18.4375,4.68899,13.6552,43.5762,-26.9567,2.54058,-4.18582,-13.6503,1.09433,-17.8603,37.4594,-24.215,5.1221,-13.2885
3.19707,17.2037,-3.29442,4.53793,-37.9592,1.5943,3.20331,-1.21937,-5.31671,0.299167,-1.78273,2.43925,-1.24835,-0.862808,5.59008,-19.3527,-3.52704,-11.2935,22.4154,-2.77631,4.91238,10.6575,-1.6749,3.23189,8.12035e-14,-2.14687e-14,-36.9573,6.8774,-87.4643,105.69,14.0415,-22.7322,20.2615,7.12502,3.70175,-9.6861,8.12035e-14,-2.14687e-14,-31.6618,-15.5114,98.5324,100.005,-5.58973,-16.432,16.4953,7.12502,9.78338,46.2481,-18.3225,4.75558,13.5993,43.6899,-27.1626,2.51936,-3.05992,-13.5628,1.15969,-17.9107,37.4912,-24.3045,4.89215,-13.2582
3.20676,17.1951,-3.27634,4.37048,-37.8817,1.72855,3.29631,-1.23425,-5.42126,0.315893,-1.81088,2.42447,-1.27665,-0.87588,5.63766,-19.3662,-3.47597,-11.4369,22.3706,-2.73076,5.19727,10.6446,-1.63035,3.36648,5.12864e-14,-1.15295e-14,-36.95,6.93223,-87.5438,105.567,14.1421,-22.9383,20.2311,7.12502,3.50264,-9.71986,5.12864e-14,-1.15295e-14,-31.6589,-15.5294,98.5538,100.041,-5.52088,-16.5106,16.5495,7.12502,9.70751,46.3058,-18.2366,4.8068,13.4398,43.7993,-27.3224,2.37908,-3.73846,-13.4809,1.17145,-18.0686,37.5129,-24.3645,4.69632,-12.9379
3.21293,17.1897,-3.25469,4.2385,-37.9278,1.8094,3.36258,-1.2015,-5.57699,0.276137,-1.77588,2.48514,-1.35313,-0.853845,5.79183,-19.0684,-3.40016,-11.6892,22.1329,-2.66692,5.53583,10.5028,-1.57956,3.53827,1.10624e-13,-1.86858e-14,-37.1049,7.01641,-87.4568,105.528,14.1593,-22.9911,20.1831,7.12502,3.45171,-9.76872,1.10624e-13,-1.86858e-14,-31.8396,-15.4182,98.7663,100.082,-5.68906,-16.4652,16.6114,7.12502,9.75137,46.3656,-18.14,4.78748,13.3082,43.8784,-27.3603,2.4018,-4.41269,-13.347,1.21282,-18.2106,37.5487,-24.3693,4.70447,-12.7305
3.22041,17.1865,-3.22943,4.26251,-37.8332,1.81982,3.27148,-1.19963,-5.56517,0.226404,-1.76842,2.51547,-1.35393,-0.848764,5.8149,-18.8623,-3.36743,-11.7468,21.98,-2.64204,5.59589,10.4074,-1.56457,3.57079,-5.26779e-14,-3.4191e-14,-37.2863,7.02667,-87.3946,105.536,14.1543,-22.8617,20.1184,7.12502,3.57665,-9.83138,-5.26779e-14,-3.4191e-14,-31.985,-15.4434,98.9325,100.14,-5.74794,-16.1831,16.5942,7.12502,10.0235,46.3355,-18.1197,4.65181,13.2294,43.9298,-27.3952,2.45153,-4.30717,-13.3593,1.20987,-18.2953,37.6004,-24.3808,4.57308,-12.2149
3.22839,17.1824,-3.20375,4.2115,-37.8447,1.83,3.19253,-1.16907,-5.51101,0.276206,-1.72168,2.47516,-1.26752,-0.829958,5.73669,-18.846,-3.3625,-11.6663,21.8573,-2.65043,5.56777,10.3587,-1.56163,3.54359,3.97569e-14,-1.70955e-14,-37.2976,6.97063,-87.4289,105.531,14.1298,-22.7152,20.0752,7.12502,3.7181,-9.87211,3.97569e-14,-1.70955e-14,-32.0002,-15.5786,98.9362,100.207,-5.73265,-15.9236,16.539,7.12502,10.2739,46.268,-18.0211,4.79188,13.1471,43.9582,-27.514,2.45439,-3.89336,-13.2892,1.20561,-18.3899,37.6765,-24.4924,4.4778,-12.1086
3.23792,17.1766,-3.17888,4.11598,-37.7863,1.825,3.18412,-1.17034,-5.45633,0.337048,-1.72063,2.46845,-1.20182,-0.83361,5.69701,-18.8697,-3.36808,-11.6816,21.8047,-2.65591,5.59716,10.3452,-1.56003,3.55501,2.08724e-14,-1.11319e-14,-37.3247,6.95035,-87.4153,105.618,14.0917,-22.6125,20.0487,7.12502,3.81732,-9.89688,2.08724e-14,-1.11319e-14,-31.9972,-15.6497,98.9563,100.29,-5.73534,-15.9306,16.4428,7.12502,10.2671,46.1722,-17.8472,4.92195,13.0966,43.9862,-27.6551,2.38953,-3.36041,-13.1932,1.26332,-18.4499,37.771,-24.6224,4.30763,-12.2819
3.24652,17.1738,-3.15334,4.09803,-37.6428,1.87125,3.12552,-1.18486,-5.50846,0.314927,-1.73868,2.50831,-1.18651,-0.842352,5.76793,-18.9144,-3.42142,-11.7899,21.822,-2.70459,5.6467,10.3675,-1.58536,3.58415,-8.24956e-15,-4.77083e-15,-37.4678,6.92173,-87.3655,105.77,13.9262,-22.4056,19.9658,7.12502,4.01706,-9.97605,-8.24956e-15,-4.77083e-15,-32.1125,-15.6746,99.1777,100.408,-5.62952,-16.1905,16.3579,7.12502,10.0164,46.0995,-17.7771,4.83818,12.9994,44.019,-27.7692,2.29857,-2.98628,-13.2243,1.35045,-18.5549,37.8626,-24.6993,4.14263,-12.4646
3.25557,17.1716,-3.12707,4.06632,-37.5562,1.97264,3.05673,-1.20359,-5.60897,0.293511,-1.76361,2.52605,-1.16297,-0.854593,5.84312,-18.998,-3.42313,-11.8168,21.804,-2.68968,5.65966,10.3758,-1.57743,3.59506,-4.69132e-14,-2.38542e-14,-37.6074,7.00281,-87.4105,105.948,13.5477,-22.2578,19.7632,7.12502,4.15985,-10.176,-4.69132e-14,-2.38542e-14,-32.2071,-15.6192,99.3536,100.533,-5.40978,-16.2141,16.2771,7.12502,9.99361,46.0198,-17.7345,4.78815,12.8324,44.0405,-27.8337,2.37696,-1.79381,-13.2578,1.38399,-18.7333,37.9524,-24.74,4.10329,-12.6977
3.26503,17.1691,-3.10261,4.02196,-37.5665,1.97385,3.0224,-1.21174,-5.59029,0.328951,-1.77189,2.52126,-1.10658,-0.861766,5.82599,-19.0915,-3.38097,-11.7812,21.7525,-2.62694,5.66101,10.3676,-1.5426,3.59781,-1.06449e-13,-5.56597e-15,-37.6503,7.09795,-87.5326,106.168,12.9738,-22.1416,19.7028,7.12502,4.272,-10.2341,-1.06449e-13,-5.56597e-15,-32.1432,-15.5767,99.307,100.66,-5.14063,-15.9503,16.3357,7.12502,10.2481,46.066,-17.6315,4.90018,12.7584,44.0502,-27.8851,2.43956,-1.15898,-13.2043,1.43061,-18.8205,38.0412,-24.7711,4.09392,-12.7875
3.2748,17.1656,-3.07364,4.01289,-37.6475,1.91006,2.95915,-1.18771,-5.4937,0.351981,-1.73333,2.51708,-1.05574,-0.845214,5.76298,-19.1176,-3.35578,-11.7846,21.7007,-2.60039,5.72076,10.3514,-1.52172,3.6231,2.71341e-14,0,-37.7186,7.12971,-87.6364,106.421,12.2751,-21.965,19.6642,7.12502,4.44255,-10.2693,2.71341e-14,0,-32.1498,-15.5919,99.2738,100.886,-4.76734,-15.6489,16.4942,7.12502,10.5388,46.21,-17.52,5.07229,12.7172,44.0572,-27.9431,2.50373,-1.50228,-13.1203,1.56179,-18.8577,38.1213,-24.8639,4.01514,-12.665
3.2856,17.1624,-3.04226,3.94261,-37.5937,1.95596,3.00455,-1.19782,-5.55892,0.278252,-1.75136,2.57171,-1.15129,-0.848724,5.86092,-19.0867,-3.34995,-11.8951,21.7378,-2.57657,5.77074,10.3593,-1.51569,3.66394,3.71727e-14,3.18055e-15,-37.9738,7.26921,-87.629,106.757,11.3797,-21.6873,19.5828,7.12502,4.71069,-10.3448,3.71727e-14,3.18055e-15,-32.2482,-15.4904,99.3049,101.151,-4.36223,-15.3066,16.4209,7.12502,10.8691,46.1196,-17.3946,5.06308,12.5733,44.0765,-27.8876,2.38352,-2.89266,-13.0571,1.64089,-18.9887,38.193,-24.9273,3.91563,-12.8429
3.29741,17.1597,-3.0125,3.80831,-37.4348,2.13006,3.04063,-1.21021,-5.70651,0.218157,-1.77504,2.58383,-1.22551,-0.855566,5.96096,-19.1136,-3.38901,-11.9932,21.7911,-2.60014,5.77488,10.3883,-1.53535,3.67926,2.62396e-14,8.74653e-15,-38.2,7.33055,-87.6347,107.203,10.4515,-21.3537,19.2778,7.12502,5.03284,-10.6425,2.62396e-14,8.74653e-15,-32.3315,-15.442,99.3881,101.453,-4.05801,-15.0669,16.6068,7.12502,11.1002,46.2933,-17.2703,4.99091,12.3376,44.1091,-27.7545,1.98947,-5.55768,-13.0211,1.53841,-19.2389,38.256,-24.9544,3.94966,-13.1425
3.30941,17.157,-2.98676,3.76431,-37.3008,2.28678,2.93912,-1.19772,-5.77486,0.208966,-1.75615,2.49675,-1.18148,-0.846935,5.90491,-19.1505,-3.42925,-11.893,21.74,-2.67508,5.75433,10.3821,-1.56159,3.64304,1.53959e-13,-3.4191e-14,-38.2507,7.16038,-87.8194,107.673,9.68658,-21.032,19.0863,7.12502,5.34345,-10.8264,1.53959e-13,-3.4191e-14,-32.3497,-15.585,99.3727,101.8,-3.65719,-14.9184,16.7614,7.12502,11.2435,46.4401,-17.2659,4.91554,12.1217,44.1599,-27.6573,1.73592,-7.18327,-13.0743,1.44323,-19.4567,38.3063,-24.9023,3.92856,-13.1195
3.32398,17.1571,-2.95808,3.79121,-37.211,2.21027,2.89399,-1.17533,-5.59321,0.236406,-1.71823,2.44238,-1.14022,-0.830985,5.74106,-19.1241,-3.45108,-11.8262,21.5708,-2.73499,5.79789,10.3207,-1.57385,3.63578,5.9039e-14,-7.95139e-16,-38.2681,7.00364,-88.0191,108.193,9.03395,-20.8708,19.109,7.12502,5.49905,-10.7996,5.9039e-14,-7.95139e-16,-32.2666,-15.6614,99.2425,102.118,-3.44412,-14.6815,16.5472,7.12502,11.472,46.2133,-17.2178,4.83168,12.1056,44.2416,-27.5518,1.73777,-7.01422,-13.034,1.28565,-19.4751,38.3277,-24.8013,3.89145,-12.3548
3.33992,17.1584,-2.92244,3.73784,-37.1431,2.15354,2.87236,-1.17726,-5.39504,0.289739,-1.71317,2.42207,-1.08007,-0.832823,5.60493,-19.0737,-3.46371,-11.8287,21.3368,-2.74116,5.76031,10.2272,-1.57556,3.617,-4.2043e-14,1.59028e-14,-38.3873,7.08538,-88.1291,108.86,8.37196,-20.9528,19.0998,7.12502,5.41996,-10.8109,-4.2043e-14,1.59028e-14,-32.2019,-15.5793,99.1735,102.478,-3.39791,-14.601,16.2627,7.12502,11.5495,45.9245,-17.1026,4.73116,12.0344,44.3752,-27.4384,1.89413,-6.86595,-12.8552,1.02449,-19.5468,38.3069,-24.75,3.9049,-11.339
3.34504,17.1647,-2.89384,4.00722,-37.5794,2.15286,2.49439,-1.04799,-5.53278,0.241723,-1.52589,2.45512,-0.938667,-0.74181,5.70367,-19.1797,-3.47634,-11.8435,21.2353,-2.7273,5.72572,10.209,-1.57002,3.60674,-1.31198e-14,7.95139e-16,-38.4449,7.20217,-88.2661,109.563,7.86025,-20.9646,19.0656,7.12502,5.40854,-10.8454,-1.31198e-14,7.95139e-16,-32.2059,-15.4025,99.1506,102.989,-3.26207,-14.4035,16.0075,7.12502,11.74,45.6585,-17.5485,4.90648,11.8656,44.5794,-27.1331,1.97136,-7.64831,-12.9984,1.36082,-19.6582,38.2573,-24.7856,3.79788,-11.1025
3.3568,17.1676,-2.86487,3.92557,-37.6825,2.39609,2.43844,-1.04182,-5.82337,0.225251,-1.5227,2.45487,-0.91717,-0.739379,5.86811,-19.3741,-3.45369,-11.8731,21.2004,-2.66009,5.73315,10.2265,-1.53675,3.62326,-9.0447e-15,1.51076e-14,-38.4361,7.37987,-88.396,110.326,7.38626,-20.7499,19.2004,7.12502,5.61584,-10.7052,-9.0447e-15,1.51076e-14,-32.1618,-15.1112,99.0347,103.599,-2.98169,-14.049,15.7982,7.12502,12.0818,45.4294,-17.7471,4.85754,11.5214,44.8623,-26.9206,1.88253,-8.75136,-12.9756,1.48729,-19.9661,38.1925,-24.739,3.64133,-10.8441
3.37435,17.1658,-2.83654,3.71468,-37.611,2.6423,2.56267,-1.04295,-6.02262,0.229772,-1.53671,2.41943,-0.975955,-0.743625,5.94816,-19.5044,-3.44034,-11.8271,21.1509,-2.62223,5.67936,10.2277,-1.51856,3.60053,3.69739e-14,7.95139e-15,-38.4712,7.48493,-88.5051,111.198,6.98097,-20.766,19.2349,7.12502,5.60028,-10.6711,3.69739e-14,7.95139e-15,-32.0417,-15.03,98.8969,104.224,-2.59413,-13.5138,15.7616,7.12502,12.5979,45.3617,-17.8066,4.67922,11.1912,45.2128,-26.7226,1.87264,-9.52954,-12.8645,1.44777,-20.2788,38.1425,-24.6492,3.56244,-11.0258
3.39329,17.1635,-2.81104,3.56861,-37.5514,2.72874,2.74439,-1.01425,-6.04662,0.220129,-1.50978,2.38585,-1.09224,-0.725505,5.93066,-19.5334,-3.43338,-11.7912,21.0959,-2.60021,5.60995,10.2099,-1.51172,3.57148,9.8299e-14,-7.95139e-16,-38.5062,7.465,-88.6547,112.089,6.69823,-20.8006,19.4478,7.12502,5.56687,-10.4591,9.8299e-14,-7.95139e-16,-31.953,-14.9742,98.7849,104.873,-2.24893,-13.0045,15.7698,7.12502,13.0888,45.3391,-17.8697,4.52051,10.994,45.6393,-26.5457,2.08725,-9.08806,-12.7343,1.48306,-20.4408,38.118,-24.6123,3.36848,-11.6135
3.41109,17.1655,-2.78432,3.51151,-37.5126,2.70943,2.82147,-1.00632,-5.92498,0.255367,-1.4999,2.32723,-1.10519,-0.72164,5.80065,-19.5432,-3.42016,-11.7956,20.9983,-2.58681,5.65429,10.1756,-1.49775,3.58846,-5.05907e-14,1.19271e-14,-38.4456,7.45456,-88.8625,113.011,6.40898,-20.4982,19.6499,7.12502,5.8588,-10.2491,-5.05907e-14,1.19271e-14,-31.8137,-14.8728,98.5712,105.526,-1.78977,-12.6364,15.5976,7.12502,13.4437,45.1437,-17.9896,4.44913,10.8877,46.1631,-26.2955,2.35646,-8.18243,-12.6259,1.54185,-20.5037,38.1134,-24.5849,3.15984,-12.2762
3.42985,17.1677,-2.75615,3.42043,-37.503,2.83533,2.80572,-0.998174,-5.93549,0.314201,-1.48856,2.23252,-1.03935,-0.719859,5.70545,-19.6474,-3.41345,-11.6607,20.8713,-2.59096,5.61463,10.1465,-1.4883,3.5487,3.88624e-14,-8.74653e-15,-38.2845,7.47615,-89.0617,113.956,6.17733,-20.2583,19.6832,7.12502,6.09046,-10.2093,3.88624e-14,-8.74653e-15,-31.5599,-14.8525,98.2771,106.254,-1.03859,-12.323,15.4141,7.12502,13.7457,44.9401,-18.2781,4.29563,10.6399,46.8285,-25.7535,2.54576,-8.0989,-12.5659,1.54188,-20.7098,38.1002,-24.5243,3.01475,-12.356
3.44998,17.1704,-2.73215,3.27032,-37.4964,3.06573,2.81766,-0.972891,-6.07222,0.373758,-1.45967,2.13728,-0.987598,-0.708335,5.68194,-19.7907,-3.42919,-11.593,20.7728,-2.60378,5.58477,10.1373,-1.4874,3.52283,-1.17581e-13,3.18055e-15,-38.0585,7.45648,-89.2471,114.914,6.05786,-20.1488,19.7177,7.12502,6.19617,-10.1717,-1.17581e-13,3.18055e-15,-31.2483,-14.8337,98.0146,107.001,-0.394237,-11.9954,15.2979,7.12502,14.0614,44.8022,-18.7053,4.13205,10.3116,47.6542,-25.1883,2.51489,-8.63047,-12.5096,1.45718,-21.0146,38.0435,-24.3311,2.96535,-12.0318
3.47161,17.1735,-2.71033,3.17212,-37.4942,3.20002,2.85817,-0.934293,-6.0442,0.40761,-1.41027,2.01454,-0.986189,-0.684606,5.5362,-19.7317,-3.45846,-11.6013,20.5962,-2.65767,5.63882,10.0688,-1.50258,3.53269,7.68303e-14,-1.23246e-14,-37.8401,7.38496,-89.4559,115.893,5.88631,-19.9183,19.6459,7.12502,6.41866,-10.2368,7.68303e-14,-1.23246e-14,-30.9906,-14.822,97.666,107.739,0.290338,-11.7171,14.9546,7.12502,14.3296,44.44,-19.2289,3.92715,10.0615,48.6395,-24.5628,2.5666,-8.60225,-12.4473,1.49357,-21.217,37.9512,-24.1664,2.76201,-11.5624
3.49484,17.177,-2.68628,3.00545,-37.5914,3.37345,3.00637,-0.870924,-6.08718,0.389492,-1.33697,1.93454,-1.09936,-0.643203,5.47825,-19.5927,-3.47251,-11.6221,20.4523,-2.68082,5.62177,9.99428,-1.51514,3.52412,-4.70126e-14,3.97569e-15,-37.7362,7.48817,-89.538,116.903,5.65211,-19.9034,19.6942,7.12502,6.43309,-10.1881,-4.70126e-14,3.97569e-15,-30.8256,-14.8022,97.4057,108.499,1.01486,-11.5117,14.8677,7.12502,14.5275,44.3391,-19.8407,3.61889,9.75026,49.7703,-23.6443,2.75643,-8.48332,-12.3,1.63462,-21.4532,37.8289,-24.0653,2.39588,-10.5437
3.51655,17.1826,-2.66506,2.915,-37.691,3.40361,3.23616,-0.811485,-6.10146,0.329921,-1.27321,1.91304,-1.29911,-0.602485,5.46767,-19.541,-3.45722,-11.5832,20.4918,-2.65633,5.52651,9.99497,-1.51373,3.48762,1.88845e-14,-1.03368e-14,-37.6707,7.64985,-89.614,117.934,5.39583,-19.9814,19.741,7.12502,6.35779,-10.1435,1.88845e-14,-1.03368e-14,-30.6763,-14.7854,97.2196,109.266,1.57683,-11.4639,15.1131,7.12502,14.5735,44.5812,-20.5289,3.38523,9.56664,51.0287,-22.6458,3.04345,-7.36618,-12.129,1.82348,-21.5432,37.6918,-23.9834,2.0623,-10.2219
3.53582,17.1886,-2.64564,2.9016,-37.7769,3.43436,3.30709,-0.761463,-6.13951,0.336971,-1.21277,1.85559,-1.34053,-0.570803,5.42829,-19.543,-3.44244,-11.5284,20.4681,-2.64543,5.50196,9.98443,-1.50653,3.47091,-6.93262e-14,1.43125e-14,-37.3878,7.75028,-89.7416,118.886,5.21222,-20.1449,19.8263,7.12502,6.19996,-10.063,-6.93262e-14,1.43125e-14,-30.3266,-14.7686,96.8626,110.022,2.03221,-11.3202,15.1446,7.12502,14.712,44.6026,-21.3848,3.14141,9.39845,52.4058,-21.5016,3.11666,-7.13323,-12.0465,1.98231,-21.6166,37.5227,-23.8777,1.75166,-10.399
3.55631,17.1901,-2.62481,2.85329,-37.8664,3.58591,3.28884,-0.709067,-6.24247,0.367858,-1.146,1.77239,-1.30731,-0.538965,5.39634,-19.5148,-3.45015,-11.5859,20.3452,-2.65823,5.58342,9.93843,-1.50456,3.5058,-2.60408e-14,-8.74653e-15,-36.9505,7.84075,-89.8289,119.742,5.04324,-20.3634,20.0029,7.12502,5.98896,-9.89248,-2.60408e-14,-8.74653e-15,-29.8975,-14.7203,96.4716,110.794,2.43746,-11.0674,15.0288,7.12502,14.9555,44.4688,-22.3666,2.79119,9.11636,53.8871,-20.1246,3.11049,-7.16302,-11.9862,2.0559,-21.8245,37.3337,-23.7906,1.52409,-10.2392
3.57822,17.1904,-2.60411,2.66575,-38.0144,3.84248,3.42267,-0.655712,-6.49787,0.351039,-1.09325,1.76715,-1.40257,-0.507269,5.53706,-19.4718,-3.44445,-11.7616,20.2986,-2.60184,5.58779,9.91203,-1.49125,3.54358,-7.74763e-14,9.14409e-15,-36.5596,8.06824,-89.709,120.677,4.80714,-20.3627,19.9562,7.12502,5.9897,-9.93918,-7.74763e-14,9.14409e-15,-29.5999,-14.4042,96.2736,111.568,2.69293,-10.9119,14.913,7.12502,15.1054,44.3418,-23.3521,2.45702,8.71825,55.4319,-18.7378,3.13448,-6.41978,-11.8311,2.27153,-22.1128,37.1328,-23.7219,1.14071,-9.50821
3.59683,17.1919,-2.58497,2.40868,-38.1464,4.17222,3.58056,-0.620793,-6.91587,0.345794,-1.07338,1.7916,-1.49146,-0.491318,5.80328,-19.5138,-3.40239,-11.8247,20.3103,-2.48132,5.43509,9.91235,-1.45814,3.51634,4.72114e-14,1.66979e-14,-36.1386,8.32436,-89.4879,121.657,4.81421,-19.9932,19.7237,7.12502,6.34637,-10.1613,4.72114e-14,1.66979e-14,-29.2937,-13.9359,96.1394,112.29,2.81471,-10.949,14.6585,7.12502,15.0696,44.09,-24.3491,2.02907,8.26441,56.9834,-17.3793,3.04737,-6.29124,-11.6295,2.58285,-22.4489,36.908,-23.645,0.825953,-9.64048
3.61454,17.1938,-2.56857,2.26037,-38.1387,4.40731,3.68607,-0.614433,-7.17588,0.382054,-1.08347,1.70831,-1.50838,-0.495418,5.86591,-19.7296,-3.39774,-11.6996,20.429,-2.46865,5.36035,9.99019,-1.45141,3.47252,8.65707e-14,7.95139e-16,-35.5867,8.36538,-89.44,122.564,4.87536,-19.479,19.7455,7.12502,6.84273,-10.124,8.65707e-14,7.95139e-16,-28.7959,-13.7178,95.7377,112.972,2.81998,-10.9913,14.4207,7.12502,15.0289,43.8553,-25.409,1.49009,7.98928,58.4804,-16.0403,2.39695,-8.70006,-11.5009,2.73412,-22.6912,36.6644,-23.5433,0.546677,-10.1364
3.63072,17.1954,-2.55236,2.07026,-38.1136,4.61457,3.88677,-0.594762,-7.3534,0.388201,-1.08186,1.58012,-1.61424,-0.489678,5.83593,-19.7577,-3.40418,-11.6251,20.4779,-2.49938,5.36535,10.0144,-1.46001,3.4585,-4.57205e-15,-7.95139e-15,-35.1213,8.38411,-89.4747,123.407,4.75713,-19.3641,20.1124,7.12502,6.95372,-9.75338,-4.57205e-15,-7.95139e-15,-28.3714,-13.7122,95.2875,113.705,2.94863,-11.1516,14.457,7.12502,14.8744,43.903,-26.3761,1.05692,7.78179,59.8682,-14.7737,1.62344,-10.4093,-11.3133,2.83479,-22.9059,36.4229,-23.4699,0.347337,-10.6271
3.64246,17.1986,-2.53279,1.88754,-38.1341,4.80295,4.03217,-0.553659,-7.6148,0.37704,-1.05061,1.56274,-1.70809,-0.468081,5.9681,-19.6412,-3.41912,-11.6679,20.4216,-2.49789,5.26979,9.97295,-1.47399,3.43031,5.86415e-15,1.51076e-14,-34.7093,8.56945,-89.3435,124.245,4.61714,-19.5424,20.3361,7.12502,6.78154,-9.53531,5.86415e-15,1.51076e-14,-28.0484,-13.669,95.0988,114.518,3.33869,-11.418,14.8861,7.12502,14.6177,44.3509,-27.2178,0.769803,7.49902,61.1205,-13.9696,1.1298,-9.0663,-11.1077,2.90355,-23.1119,36.2304,-23.473,0.153444,-10.4463
3.65131,17.1976,-2.51322,1.75736,-38.0412,4.92813,4.13869,-0.550582,-7.84216,0.408773,-1.06472,1.55845,-1.72866,-0.473781,6.09559,-19.7067,-3.43584,-11.6548,20.4018,-2.49091,5.16874,9.97634,-1.48012,3.39219,5.41688e-14,-3.1408e-14,-34.2043,8.72085,-89.1783,125.079,4.51903,-19.6713,20.442,7.12502,6.65712,-9.43335,5.41688e-14,-3.1408e-14,-27.5355,-13.5286,94.7718,115.235,3.58847,-11.3521,15.1476,7.12502,14.6813,44.6078,-27.9769,0.403201,7.30571,62.2012,-13.8507,0.262819,-9.44686,-10.9637,3.01049,-23.2427,36.1038,-23.4684,-0.23469,-9.72378
3.65984,17.1839,-2.49793,1.62496,-37.8865,5.09191,4.257,-0.580537,-7.97482,0.420145,-1.12243,1.45711,-1.77342,-0.500428,6.06935,-19.7327,-3.43787,-11.7398,20.4153,-2.49658,5.30182,9.98905,-1.47382,3.45361,7.38485e-14,-2.78299e-14,-33.7219,8.78479,-89.1679,125.896,4.53772,-19.7237,20.5842,7.12502,6.60655,-9.2927,7.38485e-14,-2.78299e-14,-26.9784,-13.5051,94.2458,115.841,3.66295,-11.5024,15.1523,7.12502,14.5365,44.623,-28.714,-0.11535,7.18428,63.0754,-14.0934,-0.557781,-10.1072,-10.9171,3.23855,-23.3865,36.0645,-23.508,-0.671592,-9.40598
3.66588,17.172,-2.48314,1.53439,-37.6968,5.18344,4.39687,-0.614557,-8.05711,0.415284,-1.18552,1.37786,-1.84681,-0.528208,6.03885,-19.7211,-3.47928,-11.9612,20.4496,-2.54359,5.52844,10.0098,-1.48751,3.56571,9.159e-14,7.55382e-15,-33.1986,8.88214,-89.1182,126.64,4.50743,-19.8781,20.7206,7.12502,6.45746,-9.16098,9.159e-14,7.55382e-15,-26.4613,-13.5723,93.7509,116.429,3.81439,-12.0277,15.246,7.12502,14.0303,44.7524,-29.354,-0.636051,7.16604,63.7075,-14.5448,-0.962285,-8.87142,-10.8922,3.33496,-23.4908,36.1163,-23.6153,-0.821621,-9.69578
3.6691,17.1676,-2.46664,1.55605,-37.4803,5.073,4.61161,-0.654926,-8.15788,0.380515,-1.26231,1.46182,-1.98713,-0.558092,6.19441,-19.7551,-3.52871,-12.1107,20.5311,-2.55676,5.50062,10.0495,-1.51059,3.57961,1.67973e-14,-1.39149e-14,-32.7767,9.16117,-88.8315,127.396,4.26193,-20.0019,20.8996,7.12502,6.33797,-8.98554,1.67973e-14,-1.39149e-14,-25.8796,-13.5469,93.3962,116.956,4.03331,-12.4796,15.3793,7.12502,13.5948,44.9154,-29.9284,-1.09872,7.33745,64.0692,-15.0938,-1.35873,-7.54226,-10.8484,3.39963,-23.4144,36.1804,-23.6794,-0.996997,-9.81044
3.66846,17.1583,-2.44265,1.50432,-37.2583,5.05892,4.7239,-0.699612,-8.21609,0.338277,-1.33577,1.47539,-2.08044,-0.588543,6.24936,-19.676,-3.53119,-12.1036,20.6115,-2.52661,5.30038,10.0594,-1.52319,3.51173,1.20762e-14,-2.38542e-14,-32.5768,9.44643,-88.5771,128.131,3.93891,-20.1264,21.0736,7.12502,6.21776,-8.81514,1.20762e-14,-2.38542e-14,-25.3014,-13.5569,93.0193,117.444,4.41483,-12.7072,15.6721,7.12502,13.3754,45.2227,-30.4249,-1.5473,7.40721,64.2161,-15.733,-1.86285,-7.16062,-10.767,3.62338,-23.4064,36.2699,-23.8117,-1.39902,-9.66203
3.66398,17.1582,-2.4166,1.46684,-37.0512,5.10985,4.70619,-0.760887,-8.13981,0.308621,-1.41618,1.32966,-2.09341,-0.628285,6.05639,-19.5631,-3.50152,-11.9642,20.658,-2.51545,5.17831,10.0506,-1.52419,3.44734,-2.34069e-14,5.96354e-15,-32.4113,9.65039,-88.5568,128.828,3.64576,-20.3464,21.1974,7.12502,6.00538,-8.6975,-2.34069e-14,5.96354e-15,-24.6643,-13.623,92.4004,117.889,4.81078,-12.8676,15.7748,7.12502,13.2208,45.3355,-30.7958,-1.7383,7.34348,64.1145,-16.6387,-1.82347,-4.30788,-10.6878,3.29344,-23.5356,36.3119,-23.9479,-1.15765,-9.94578
3.65984,17.1499,-2.39829,1.55536,-36.846,5.10266,4.61998,-0.845364,-8.01414,0.300533,-1.51858,1.17109,-2.04405,-0.683022,5.82119,-19.5719,-3.47638,-11.8012,20.6926,-2.51728,5.1257,10.0611,-1.51903,3.40194,-8.16011e-14,-1.63003e-14,-31.9583,9.83677,-88.6257,129.399,3.58924,-20.6222,21.3812,7.12502,5.73907,-8.52109,-8.16011e-14,-1.63003e-14,-23.9145,-13.7322,91.6623,118.332,5.06685,-13.1138,15.8217,7.12502,12.9835,45.3977,-31.2024,-1.72337,7.23474,63.8658,-17.6697,-1.07362,1.6938,-10.7561,3.21157,-23.5587,36.3501,-24.0094,-1.20995,-10.0269
3.65478,17.1481,-2.37845,1.60617,-36.6783,5.12736,4.58282,-0.864309,-8.04077,0.275667,-1.54425,1.10965,-2.04605,-0.694885,5.7724,-19.567,-3.51418,-11.8202,20.7418,-2.56475,5.12084,10.0828,-1.54442,3.39719,-1.14798e-14,-8.74653e-15,-31.5145,9.90373,-88.5905,129.863,3.58532,-20.4208,21.3694,7.12502,5.9336,-8.5275,-1.14798e-14,-8.74653e-15,-23.2406,-13.6607,91.2234,118.681,4.82141,-12.8217,15.4493,7.12502,13.265,45.0072,-31.6446,-1.81052,7.12486,63.4351,-18.4121,-0.808412,3.98758,-10.7701,3.15589,-23.6019,36.348,-24.0183,-1.33333,-9.91341
3.6466,17.1512,-2.35641,1.70022,-36.6053,5.03233,4.62067,-0.820914,-8.05476,0.21638,-1.49223,1.12144,-2.13678,-0.662746,5.79191,-19.4416,-3.61934,-11.8374,20.6891,-2.71372,5.08622,10.0552,-1.61859,3.36505,8.99998e-14,7.95139e-15,-31.2437,9.95599,-88.4519,130.368,3.25344,-20.1502,21.1919,7.12502,6.19481,-8.69749,8.99998e-14,7.95139e-15,-22.603,-13.3673,90.9607,118.99,4.41226,-12.1168,14.9464,7.12502,13.9444,44.4588,-32.1244,-1.8479,7.18604,62.8412,-19.0405,-1.09077,2.95611,-10.7337,3.08722,-23.5414,36.3493,-24.1067,-1.31443,-10.0254
3.63788,17.1514,-2.33195,1.83226,-36.5084,4.86716,4.66644,-0.772356,-7.92716,0.147861,-1.42777,1.09247,-2.24797,-0.624835,5.68763,-19.2513,-3.72544,-11.8009,20.5769,-2.89001,5.06057,9.99586,-1.69925,3.32286,5.97845e-14,-6.75868e-15,-30.9389,9.91199,-88.2719,130.894,2.9369,-20.2029,20.8005,7.12502,6.14395,-9.09039,5.97845e-14,-6.75868e-15,-21.9826,-13.2042,90.6724,119.294,4.23543,-11.7462,14.8126,7.12502,14.3016,44.3001,-32.615,-1.88624,7.36149,62.1015,-19.4596,-1.78457,-0.22062,-10.666,2.94016,-23.4214,36.3088,-24.2527,-1.20909,-10.1909
3.62852,17.1481,-2.30514,1.83643,-36.313,4.84265,4.71411,-0.758077,-7.88083,0.105793,-1.41253,1.0634,-2.32284,-0.613247,5.63171,-19.1213,-3.74694,-12.0399,20.5564,-2.89569,5.18685,9.97166,-1.7073,3.40687,-5.12367e-14,-5.56597e-15,-30.6827,9.92047,-88.0502,131.295,2.88793,-20.5574,20.6976,7.12502,5.80164,-9.20301,-5.12367e-14,-5.56597e-15,-21.4818,-13.0726,90.4428,119.57,4.06352,-11.5104,14.6079,7.12502,14.5288,44.0791,-33.0407,-2.01078,7.4369,61.2544,-19.5572,-2.95842,-5.64809,-10.5321,2.77354,-23.4221,36.2638,-24.3501,-1.19403,-10.2835
3.61476,17.1416,-2.28312,1.69835,-36.1985,4.92102,4.8157,-0.744168,-7.98827,0.12087,-1.40925,1.02439,-2.36333,-0.609385,5.65372,-19.2439,-3.73445,-12.1792,20.6983,-2.83602,5.24414,10.0429,-1.68654,3.46099,-9.323e-14,-1.19271e-14,-30.4989,9.98438,-87.8922,131.578,2.85883,-20.8386,20.8262,7.12502,5.53016,-9.08165,-9.323e-14,-1.19271e-14,-20.8892,-12.9412,90.145,119.811,3.85465,-11.6388,14.2956,7.12502,14.4051,43.7758,-33.3454,-1.84235,7.32676,60.338,-19.6637,-3.61854,-8.32636,-10.309,2.683,-23.4876,36.2313,-24.4709,-1.1895,-10.2877
3.59903,17.1314,-2.26357,1.5849,-36.1349,4.90194,4.9324,-0.74444,-8.01221,0.164907,-1.4215,0.956146,-2.38227,-0.616243,5.59845,-19.3031,-3.72647,-12.1133,20.6822,-2.84651,5.28706,10.0479,-1.67974,3.4638,4.09496e-14,1.94809e-14,-30.2519,10.0097,-87.85,131.782,2.74441,-20.4938,20.8556,7.12502,5.86313,-9.04325,4.09496e-14,1.94809e-14,-20.2598,-12.876,89.7412,120.026,3.50841,-12.0893,14.2694,7.12502,13.971,43.7799,-33.5576,-1.48274,7.20704,59.3436,-19.8665,-3.52712,-8.1403,-10.0428,2.53466,-23.4611,36.2116,-24.6095,-1.11571,-10.184
3.58214,17.1253,-2.2437,1.61649,-35.9913,4.78437,5.00846,-0.757987,-7.90983,0.181347,-1.44237,0.861318,-2.40946,-0.627659,5.44363,-19.3316,-3.74804,-11.927,20.5881,-2.928,5.29225,10.0232,-1.69866,3.42164,-5.57839e-14,1.15295e-14,-30.0009,9.97691,-87.863,131.938,2.87499,-20.206,20.7908,7.12502,6.14089,-9.10016,-5.57839e-14,1.15295e-14,-19.6326,-12.8717,89.2502,120.288,3.22888,-12.2426,14.3244,7.12502,13.8232,43.845,-33.8148,-1.16395,7.15331,58.2715,-19.9822,-3.45919,-8.55014,-9.8804,2.37939,-23.3528,36.2163,-24.7605,-0.94327,-10.9602
3.56314,17.1194,-2.22237,1.67754,-35.8399,4.66036,5.08772,-0.765505,-7.8088,0.168513,-1.4555,0.802995,-2.4693,-0.632708,5.32817,-19.4264,-3.77403,-11.7997,20.5943,-2.98394,5.2674,10.0452,-1.71593,3.38338,-1.31198e-14,8.15017e-15,-29.8032,10.0329,-87.7838,132.081,3.27159,-20.2853,20.4045,7.12502,6.06434,-9.48866,-1.31198e-14,8.15017e-15,-19.0159,-12.8192,88.8813,120.56,2.81182,-12.3189,14.3016,7.12502,13.7497,43.8273,-34.0965,-0.810779,7.07319,57.1401,-20.0154,-3.41397,-9.32797,-9.74853,2.26389,-23.2289,36.2283,-24.9594,-0.779022,-11.7325
3.54056,17.1075,-2.19932,1.65983,-35.7635,4.6468,5.13499,-0.748239,-7.79197,0.143281,-1.43828,0.741809,-2.52675,-0.621452,5.25488,-19.3984,-3.79432,-11.8934,20.5788,-3.01508,5.38264,10.0408,-1.7242,3.43572,6.38596e-14,-2.10712e-14,-29.7444,10.0865,-87.6247,132.193,3.57755,-20.0443,20.1981,7.12502,6.29707,-9.68828,6.38596e-14,-2.10712e-14,-18.6197,-12.4871,88.8538,120.874,2.06799,-12.3502,14.0288,7.12502,13.7195,43.5566,-34.3786,-0.422795,6.86505,55.9676,-20.025,-3.12423,-9.59657,-9.58089,2.17784,-23.1988,36.2261,-25.1479,-0.671808,-11.8291
3.51516,17.0929,-2.17628,1.52817,-35.6661,4.77813,5.2034,-0.732242,-7.88324,0.128654,-1.43223,0.632085,-2.58215,-0.615221,5.19283,-19.3449,-3.81353,-12.0132,20.5468,-3.06841,5.61408,10.0298,-1.73116,3.53104,7.05686e-15,2.127e-14,-29.6936,10.0657,-87.5197,132.233,3.60716,-19.8135,20.377,7.12502,6.51983,-9.50265,7.05686e-15,2.127e-14,-18.3413,-12.1915,88.8568,121.215,1.56384,-12.3953,13.814,7.12502,13.6761,43.3447,-34.6083,-0.0722912,6.50457,54.7622,-19.8606,-2.74527,-9.85603,-9.36011,1.97396,-23.3067,36.2091,-25.3106,-0.537298,-11.3235
3.48978,17.08,-2.15419,1.40953,-35.5206,4.87642,5.32611,-0.760982,-7.99383,0.0992459,-1.49113,0.574103,-2.67213,-0.638824,5.20193,-19.2672,-3.79378,-12.0173,20.4542,-3.05133,5.62965,9.98081,-1.7205,3.53852,-3.62037e-14,4.37326e-15,-29.6283,10.2097,-87.4353,132.211,3.6787,-19.9284,20.4971,7.12502,6.40898,-9.38593,-3.62037e-14,4.37326e-15,-17.7471,-12.4213,88.427,121.541,1.57253,-12.799,14.3571,7.12502,13.287,43.9135,-34.7956,0.3025,6.14993,53.5228,-19.4196,-2.42753,-10.5844,-9.13537,1.67447,-23.3803,36.1816,-25.4458,-0.459579,-10.8632
3.46234,17.0712,-2.13527,1.43448,-35.3648,4.78161,5.39456,-0.791344,-8.0082,0.113243,-1.53706,0.605883,-2.68794,-0.661092,5.2481,-19.3084,-3.85641,-11.9886,20.3087,-3.10089,5.48148,9.9393,-1.75372,3.47036,9.59136e-15,3.97569e-15,-29.4859,10.3901,-87.2598,132.148,3.91426,-20.0701,20.454,7.12502,6.27218,-9.43319,9.59136e-15,3.97569e-15,-17.5839,-11.7519,88.6424,121.932,1.55428,-12.5825,13.8564,7.12502,13.4956,43.3991,-34.9997,0.79492,5.95097,52.2634,-18.7767,-2.09904,-10.9873,-8.96892,1.42315,-23.2519,36.1393,-25.5957,-0.410138,-11.0184
3.43079,17.0601,-2.11727,1.43058,-35.1355,4.76106,5.38793,-0.842318,-8.08739,0.17919,-1.60682,0.600757,-2.603,-0.700678,5.29089,-19.4946,-3.96765,-11.8941,20.1545,-3.22738,5.37152,9.92748,-1.81047,3.39335,-2.17421e-14,-1.35174e-14,-29.2015,10.468,-87.1197,132.085,3.99217,-19.7619,20.2654,7.12502,6.56965,-9.61268,-2.17421e-14,-1.35174e-14,-17.0192,-11.4748,88.4405,122.264,1.87878,-12.5942,13.4758,7.12502,13.4844,43.0193,-35.182,1.31847,5.65056,50.989,-18.0908,-1.84465,-11.2896,-8.83251,1.18219,-23.1598,36.1041,-25.7446,-0.530773,-10.9015
3.39473,17.047,-2.0984,1.43227,-34.8595,4.75938,5.35449,-0.919418,-8.17706,0.217776,-1.71147,0.564202,-2.52676,-0.756539,5.30841,-19.746,-3.96617,-11.8881,20.2317,-3.21741,5.46604,10.0011,-1.79264,3.42812,4.5149e-14,-1.15295e-14,-28.9463,10.548,-87.0747,131.986,3.91107,-19.3596,20.1481,7.12502,6.95808,-9.71756,4.5149e-14,-1.15295e-14,-16.3303,-11.5131,88.0372,122.606,2.17884,-12.6627,13.6621,7.12502,13.4183,43.21,-35.3445,1.84367,5.29393,49.7281,-17.3364,-1.69005,-11.8869,-8.69765,0.866054,-23.0754,36.0728,-25.8297,-0.626608,-10.2454
3.35518,17.0384,-2.07471,1.48107,-34.6264,4.60629,5.40282,-0.987514,-8.20177,0.199732,-1.80741,0.610525,-2.55598,-0.801906,5.37903,-20.0194,-3.88476,-11.968,20.5377,-3.05595,5.49071,10.1473,-1.72581,3.47819,2.55935e-15,-7.15625e-15,-28.9138,10.7844,-87.0193,131.918,3.98808,-19.2329,20.1116,7.12502,7.08037,-9.74999,2.55935e-15,-7.15625e-15,-15.9253,-11.3359,87.8822,122.965,2.20237,-12.4241,13.6487,7.12502,13.6483,43.1813,-35.43,2.39089,5.04627,48.4967,-16.5669,-1.32626,-11.6486,-8.48049,0.576326,-22.871,36.0464,-25.9854,-0.588974,-10.3498
3.31189,17.0267,-2.05059,1.46559,-34.3787,4.5323,5.57138,-1.02503,-8.39876,0.11669,-1.8852,0.729245,-2.7157,-0.827613,5.62734,-20.0004,-3.83655,-12.1418,20.5923,-2.92108,5.42194,10.1535,-1.68759,3.50271,-6.64189e-14,1.53064e-14,-29.0386,11.0843,-86.807,131.954,4.21201,-19.2816,19.888,7.12502,7.03331,-9.97517,-6.64189e-14,1.53064e-14,-15.7413,-10.9666,88.0235,123.338,2.14129,-12.2088,13.4897,7.12502,13.8558,43.0082,-35.5182,2.90053,4.73607,47.3205,-15.7579,-0.910264,-10.8732,-8.25808,0.402379,-22.7001,36.0404,-26.1402,-0.821477,-10.2521
3.26462,17.0102,-2.03193,1.46268,-33.957,4.56287,5.60888,-1.12985,-8.70267,0.0812102,-2.04694,0.809723,-2.73533,-0.901609,5.89699,-19.9061,-3.81732,-12.2449,20.4178,-2.86092,5.38326,10.0694,-1.66905,3.51168,-6.14245e-14,2.20651e-14,-29.057,11.3058,-86.5934,132.077,4.2291,-19.0223,19.6546,7.12502,7.28365,-10.2001,-6.14245e-14,2.20651e-14,-15.3944,-10.5707,88.0325,123.735,2.40697,-12.1411,13.5751,7.12502,13.9211,43.0891,-35.641,3.34629,4.30128,46.2006,-14.971,-0.640453,-10.6475,-8.16998,0.283746,-22.5524,36.0881,-26.2694,-1.26209,-10.3131
3.21392,16.999,-2.01669,1.3856,-33.3995,4.62346,5.68994,-1.25427,-8.99055,0.109959,-2.23798,0.815999,-2.70852,-0.995317,6.08147,-20.0834,-3.83084,-12.2,20.4431,-2.86502,5.36762,10.1103,-1.66737,3.49797,-4.35587e-14,-1.98785e-15,-29.0071,11.3489,-86.4926,132.293,3.99692,-18.2748,19.4202,7.12502,8.00509,-10.4082,-4.35587e-14,-1.98785e-15,-15.1808,-10.586,88.1546,124.224,1.05435,-12.71,14.7643,7.12502,13.3727,44.3151,-35.6253,3.72769,3.83485,45.1346,-14.2493,-0.401359,-10.723,-8.01888,0.103647,-22.4266,36.1061,-26.4153,-1.42915,-11.6717
3.1607,16.9919,-2.00501,1.53519,-32.7368,4.49175,5.82213,-1.39875,-9.14887,-0.0118634,-2.45721,0.889166,-2.8639,-1.08973,6.27114,-20.1779,-3.85678,-12.2672,20.6111,-2.89087,5.44829,10.193,-1.67848,3.53711,-1.73688e-14,3.3197e-14,-29.1853,11.3759,-86.4939,132.533,4.1082,-17.6552,19.2954,7.12502,8.60313,-10.5093,-1.73688e-14,3.3197e-14,-15.132,-10.1059,88.3567,124.548,0.589712,-12.5075,14.3509,7.12502,13.5679,43.8888,-35.6859,4.00265,3.5516,44.1201,-13.5084,-0.049423,-10.1674,-8.0167,-0.18764,-22.0956,36.1235,-26.5303,-1.69676,-12.3922
3.10107,16.9855,-1.97917,1.42373,-32.1373,4.38264,6.0393,-1.52252,-9.25544,-0.0709418,-2.65298,0.925283,-3.00777,-1.17588,6.39382,-20.0975,-3.84477,-12.3257,20.683,-2.87768,5.48275,10.2044,-1.67624,3.56272,6.56859e-14,3.97569e-16,-29.533,11.5053,-86.5575,132.793,4.61107,-17.443,19.5018,7.12502,8.80782,-10.2944,6.56859e-14,3.97569e-16,-14.9212,-9.30064,88.373,124.7,1.13889,-12.1031,12.8996,7.12502,13.9576,42.4111,-35.4035,4.49102,3.23435,43.1552,-12.8369,0.376703,-9.30275,-7.62902,-0.572294,-21.8206,36.0916,-26.7288,-1.87559,-12.8401
3.04104,16.9799,-1.9687,1.59315,-31.2047,4.174,6.15787,-1.73764,-9.31225,-0.0898693,-2.9544,0.98353,-3.03506,-1.32257,6.51423,-20.3043,-3.90185,-12.3908,20.7844,-2.93613,5.59033,10.2877,-1.69532,3.60516,2.02885e-14,1.08338e-14,-29.649,11.5711,-86.5853,133.175,4.95092,-17.2407,19.6526,7.12502,9.00307,-10.1353,2.02885e-14,1.08338e-14,-14.4222,-9.1745,88.3177,125.014,0.32171,-12.5053,13.5394,7.12502,13.57,43.0771,-35.252,4.86816,2.97777,42.2444,-12.2651,0.361126,-9.18942,-7.61893,-1.13539,-21.3584,36.0409,-26.7651,-2.36433,-12.7249
2.97713,16.9745,-1.95596,1.72888,-30.2727,3.97836,6.22953,-1.88235,-9.37949,-0.0633587,-3.15603,1.04243,-3.00439,-1.42419,6.63102,-20.6158,-4.02736,-12.4225,20.9259,-3.07554,5.65349,10.4123,-1.75349,3.61398,1.87106e-14,1.89839e-14,-29.724,11.4505,-86.5303,133.766,5.08623,-16.822,19.4937,7.12502,9.40712,-10.2764,1.87106e-14,1.89839e-14,-13.8095,-8.96055,88.2664,125.264,0.093254,-12.4356,13.3813,7.12502,13.6372,42.9146,-35.0478,5.198,2.74004,41.466,-11.6818,0.301745,-9.22066,-7.54716,-1.6439,-20.8909,35.8888,-26.7421,-2.99405,-11.8575
2.90763,16.9731,-1.93192,1.85483,-29.396,3.86597,6.07318,-2.04268,-9.44284,-0.0586156,-3.35741,1.04687,-2.87095,-1.53087,6.67579,-20.617,-4.09544,-12.4216,20.8705,-3.18176,5.70476,10.404,-1.79417,3.61533,-3.91854e-14,2.80286e-14,-29.9434,11.3674,-86.5835,134.436,5.16116,-16.3575,19.4759,7.12502,9.85526,-10.2735,-3.91854e-14,2.80286e-14,-13.2651,-8.66574,88.1642,125.462,-0.112286,-12.2707,12.8575,7.12502,13.7961,42.38,-34.8296,5.41548,2.44726,40.8503,-10.9296,0.465956,-8.49927,-7.46172,-2.0245,-20.5246,35.7661,-26.8225,-3.51771,-11.4665
2.8331,16.968,-1.90186,1.72876,-28.4612,3.87988,6.05893,-2.19832,-9.60484,-0.0564048,-3.57581,1.00541,-2.8138,-1.64073,6.73567,-20.3254,-4.15034,-12.5282,20.7448,-3.30066,5.85621,10.3212,-1.84004,3.66885,-4.22417e-16,1.59028e-15,-30.3274,11.361,-86.6639,135.195,5.17425,-15.9509,19.5375,7.12502,10.2476,-10.1929,-4.22417e-16,1.59028e-15,-12.7256,-8.3513,88.0079,125.546,-0.174902,-12.1971,12.5189,7.12502,13.8671,42.0366,-34.3518,5.52136,2.08094,40.4506,-10.0411,0.760486,-7.22086,-7.13072,-2.4955,-20.2721,35.6246,-26.9052,-4.20651,-10.6041
2.75633,16.9629,-1.89368,2.06517,-27.0183,3.71615,6.12537,-2.4545,-9.79743,-0.369894,-3.94813,1.14878,-3.09014,-1.795,7.03484,-19.8176,-4.24394,-12.8219,20.7784,-3.44243,5.96882,10.2634,-1.92424,3.73918,-3.80424e-14,2.48481e-15,-30.9995,11.3599,-86.4739,136.12,5.08024,-15.4953,19.4111,7.12502,10.687,-10.2971,-3.80424e-14,2.48481e-15,-12.3233,-8.13743,88.0467,125.648,-0.136199,-12.1133,12.3998,7.12502,13.9478,41.9119,-34.1184,5.29356,1.89948,40.2552,-9.30729,0.587557,-6.15772,-7.39491,-3.12891,-19.6864,35.5024,-26.8394,-5.17854,-10.3342
2.67729,16.9629,-1.87822,2.31333,-25.6649,3.48077,6.16628,-2.65553,-9.86699,-0.595856,-4.23173,1.28506,-3.28247,-1.91438,7.24801,-19.4758,-4.36662,-13.0062,20.8715,-3.61158,5.973,10.2571,-2.02423,3.74848,-6.88913e-14,1.18277e-14,-31.6381,11.3565,-86.2161,137.12,4.91508,-15.14,19.5822,7.12502,11.0297,-10.108,-6.88913e-14,1.18277e-14,-11.8847,-8.01137,88.091,125.887,-0.0569145,-12.044,12.514,7.12502,14.0146,42.0216,-33.758,4.97648,1.92148,40.2641,-8.67678,0.326883,-5.32294,-7.50312,-3.67634,-19.0435,35.3691,-26.812,-5.92132,-10.789
2.59566,16.9708,-1.8604,2.5232,-24.2641,3.26508,6.1525,-2.84991,-9.84437,-0.724808,-4.49225,1.33023,-3.35807,-2.03487,7.30312,-19.2359,-4.5245,-13.1757,20.8363,-3.8563,6.13871,10.2336,-2.13362,3.80056,-5.10752e-14,7.45443e-15,-32.1255,11.3202,-85.9717,138.14,4.93726,-14.9905,19.7379,7.12502,11.1739,-9.94458,-5.10752e-14,7.45443e-15,-11.3779,-7.93668,88.0951,126.169,-0.0771986,-11.7448,12.5964,7.12502,14.303,42.0838,-33.2818,4.43172,2.02899,40.4138,-8.32832,0.102098,-5.40572,-7.62523,-4.21883,-18.3826,35.2674,-26.7158,-6.87728,-10.7599
2.51082,16.9825,-1.84297,2.73495,-22.7436,3.07052,6.19746,-3.03699,-9.83266,-0.900437,-4.75259,1.37293,-3.51551,-2.14839,7.36846,-18.8739,-4.71236,-13.4627,20.7547,-4.14319,6.37656,10.1812,-2.26461,3.892,-3.98687e-14,-8.79622e-15,-32.6004,11.2491,-85.4772,139.29,4.87826,-14.783,19.56,7.12502,11.374,-10.1115,-3.98687e-14,-8.79622e-15,-10.9281,-7.86221,88.167,126.385,-0.0430885,-11.4546,12.3941,7.12502,14.5826,41.8615,-32.7095,3.79975,2.15939,40.6651,-8.40642,-0.0284548,-6.81248,-7.7967,-4.73023,-17.6964,35.1393,-26.5673,-8.04325,-10.7714
2.42166,16.9967,-1.82578,2.92819,-21.2079,2.84115,6.31976,-3.1874,-9.86452,-1.03173,-4.97259,1.44042,-3.67186,-2.2423,7.48718,-18.6832,-4.9261,-13.6717,20.7202,-4.45734,6.57871,10.1792,-2.40466,3.95345,2.8361e-14,-2.72832e-14,-32.9052,11.142,-84.6306,140.571,4.74811,-14.6668,19.2824,7.12502,11.4861,-10.383,2.8361e-14,-2.72832e-14,-10.3579,-7.8135,88.2507,126.61,0.122493,-11.1292,12.1583,7.12502,14.896,41.6027,-32.0348,3.31144,2.344,40.9297,-8.76224,0.174795,-7.88458,-7.97772,-5.21919,-16.9298,34.997,-26.2319,-9.44982,-9.91709
2.33185,17.011,-1.81233,3.17948,-19.6106,2.64354,6.37,-3.36152,-9.92289,-1.05055,-5.21373,1.48932,-3.66283,-2.36052,7.59094,-19.0115,-5.18734,-13.7089,20.8496,-4.79732,6.70915,10.3302,-2.54552,3.95502,1.04067e-14,-2.11209e-15,-32.6714,11.1267,-83.7744,141.679,4.93556,-14.4346,18.8062,7.12502,11.71,-10.8466,1.04067e-14,-2.11209e-15,-9.6429,-7.78187,88.3156,126.864,0.145576,-10.969,11.8471,7.12502,15.0503,41.28,-31.3969,2.73813,2.51189,41.1478,-9.04809,0.904177,-6.90774,-8.30637,-5.68449,-16.1515,34.8401,-25.7309,-10.9671,-9.10004
2.2402,17.0303,-1.79932,3.46095,-17.9191,2.32304,6.54882,-3.54169,-9.87953,-1.16617,-5.47051,1.61131,-3.82671,-2.47384,7.73311,-19.2901,-5.41957,-13.6943,21.0256,-5.07248,6.63997,10.4762,-2.6771,3.88462,-1.00643e-14,3.29237e-16,-32.2167,11.2976,-82.9964,142.501,5.5351,-14.1008,18.284,7.12502,12.0319,-11.3501,-1.00643e-14,3.29237e-16,-9.24069,-7.75533,88.5675,127.114,-0.192875,-11.1622,11.3629,7.12502,14.8642,40.8097,-30.7298,2.10787,2.86607,41.2506,-9.29332,1.59941,-4.57081,-8.67861,-6.19822,-15.2107,34.6811,-25.1012,-12.5203,-8.68837
2.14602,17.056,-1.78569,3.63329,-16.2617,2.16252,7.00214,-3.58644,-10.015,-1.41797,-5.5989,1.70672,-4.30365,-2.49328,7.97502,-19.3398,-5.63858,-13.7013,21.1527,-5.3469,6.53364,10.5617,-2.81727,3.80448,-2.16815e-14,9.57583e-15,-31.8144,11.3768,-81.8776,143.143,6.87019,-14.468,18.0173,7.12502,11.6779,-11.6372,-2.16815e-14,9.57583e-15,-8.82879,-8.01002,88.8916,127.319,-0.444944,-11.2417,11.2715,7.12502,14.7877,40.7239,-30.069,1.53468,3.14498,41.2477,-9.61098,1.5839,-3.47635,-9.0085,-6.73122,-14.4401,34.5152,-24.3429,-13.9478,-8.37136
2.05486,17.0865,-1.77316,3.83033,-14.5935,2.12078,7.01543,-3.64376,-9.99428,-1.42636,-5.67978,1.60409,-4.31563,-2.53382,7.8603,-19.3629,-5.93187,-13.8195,21.057,-5.77122,6.76113,10.5909,-2.99065,3.83797,-8.03867e-14,-8.94531e-15,-30.8724,11.2044,-80.4316,143.662,8.6005,-15.2331,17.8166,7.12502,10.94,-11.8784,-8.03867e-14,-8.94531e-15,-7.815,-8.44627,88.8627,127.553,-0.305404,-11.0338,11.6255,7.12502,14.988,41.0631,-29.498,0.845703,3.36661,41.1685,-9.96717,0.962294,-4.76117,-9.45131,-7.29279,-13.7956,34.3488,-23.4974,-15.2538,-8.04266
1.96586,17.1245,-1.76327,4.05778,-12.8912,2.06441,7.04955,-3.74942,-9.93767,-1.50752,-5.82657,1.53467,-4.40378,-2.60017,7.7717,-19.1919,-6.22928,-14.0592,21.0091,-6.18919,6.95796,10.6065,-3.1798,3.88343,3.92662e-14,-1.64991e-14,-29.6159,11.0024,-78.6605,144.133,9.72091,-15.4728,17.4199,7.12502,10.7087,-12.2872,3.92662e-14,-1.64991e-14,-7.01834,-8.78622,88.9387,127.8,-0.167018,-11.0436,11.5553,7.12502,14.9785,40.9936,-28.936,0.178317,3.61571,41.0739,-10.4006,0.283591,-5.32302,-9.98594,-7.78154,-13.1122,34.1911,-22.5718,-16.5748,-8.29808
1.87808,17.166,-1.75342,4.22969,-11.2147,2.06351,7.17399,-3.81961,-9.92543,-1.59472,-5.94195,1.42673,-4.55657,-2.64561,7.67434,-18.9375,-6.52281,-14.2659,20.9027,-6.64612,7.2425,10.5935,-3.37485,3.94981,1.50952e-14,3.16068e-14,-28.0638,10.5003,-76.5886,144.658,10.378,-15.0906,16.8496,7.12502,11.0774,-12.838,1.50952e-14,3.16068e-14,-6.28441,-9.2316,88.9803,127.968,-0.18471,-11.1812,11.1799,7.12502,14.8459,40.628,-28.3331,-0.371923,3.81646,41.0221,-10.8336,-0.220307,-4.43998,-10.5295,-8.16989,-12.4903,34.0766,-21.4084,-18.0111,-8.21482
1.79,17.2058,-1.74663,4.38939,-9.62227,2.09489,7.24792,-3.86313,-9.99172,-1.65561,-6.02174,1.33434,-4.65129,-2.67573,7.62908,-18.597,-6.81345,-14.5305,20.704,-7.10819,7.59305,10.5389,-3.57015,4.04902,-2.66496e-14,2.26615e-14,-26.2881,9.94789,-74.1277,145.023,10.7512,-14.6967,16.254,7.12502,11.4573,-13.4129,-2.66496e-14,2.26615e-14,-5.48299,-9.67468,88.9665,128.178,-0.142572,-11.226,11.1185,7.12502,14.8028,40.5698,-27.7912,-0.743089,3.99903,41.0131,-11.2846,-0.843574,-3.63501,-11.1446,-8.50693,-11.8889,34.0241,-19.8489,-19.6592,-6.7234
1.70166,17.2434,-1.74891,4.53549,-8.10513,2.14537,7.50726,-3.86574,-10.0854,-1.75744,-6.07206,1.25702,-4.89697,-2.67853,7.63426,-18.4334,-7.10413,-14.7513,20.6301,-7.52023,7.78006,10.5515,-3.75658,4.0875,1.09207e-13,1.27222e-14,-24.0603,9.38701,-71.4994,144.913,10.6193,-14.3753,15.7814,7.12502,11.7672,-13.868,1.09207e-13,1.27222e-14,-4.71384,-10.1241,89.0085,128.386,-0.0435107,-11.3384,11.1916,7.12502,14.6945,40.6508,-27.3203,-0.931456,4.16955,41.0222,-11.7975,-1.6919,-3.08446,-11.856,-8.77772,-11.2805,34.0521,-17.7791,-21.4479,-4.48982
1.6183,17.2841,-1.75184,4.6675,-6.68784,2.25613,7.22738,-3.78708,-10.0275,-1.40552,-5.92232,0.999625,-4.42499,-2.65223,7.26883,-18.5872,-7.53321,-14.806,20.3052,-8.13683,8.07733,10.5562,-3.99827,4.09553,-1.17854e-13,4.17448e-15,-20.7413,8.15462,-68.9329,144.339,10.132,-14.1851,15.1411,7.12502,11.9506,-14.4978,-1.17854e-13,4.17448e-15,-3.18709,-10.8519,88.7892,128.436,0.0890671,-11.3123,10.814,7.12502,14.7196,40.2714,-26.8593,-1.0795,4.27548,41.0049,-12.3297,-2.52722,-2.85329,-12.6185,-8.98003,-10.7883,34.1912,-15.6623,-22.945,-3.88586
1.53546,17.325,-1.75471,4.69221,-5.36068,2.29728,7.21186,-3.67916,-9.70741,-1.15483,-5.74931,0.636971,-4.24939,-2.59787,6.67859,-18.5362,-7.94005,-14.8669,20.0429,-8.78587,8.48668,10.5583,-4.2503,4.14388,7.07176e-14,2.06736e-14,-17.6112,6.72362,-66.3938,143.515,9.63482,-14.0637,14.3123,7.12502,12.0677,-15.3197,7.07176e-14,2.06736e-14,-1.94855,-11.6191,88.4535,128.515,0.236843,-11.1645,10.7295,7.12502,14.862,40.1765,-26.3211,-1.13819,4.49862,40.9454,-12.8398,-3.39497,-2.7301,-13.2944,-8.94524,-10.2739,34.4329,-13.7099,-24.2925,-4.30903
1.44843,17.3651,-1.7612,4.61137,-4.03671,2.11531,7.46601,-3.5499,-9.17187,-1.02297,-5.56186,0.328215,-4.36521,-2.51885,6.05746,-18.1904,-8.31468,-14.9571,19.8206,-9.41714,8.84118,10.5204,-4.51281,4.18573,6.5102e-15,1.70955e-14,-14.6977,5.09178,-63.6956,142.379,9.18027,-13.5302,13.4033,7.12502,12.582,-16.1978,6.5102e-15,1.70955e-14,-1.07107,-12.4274,88.1641,128.715,0.469183,-10.9658,11.0314,7.12502,15.0534,40.4641,-25.6756,-0.966196,5.0061,40.8569,-13.5118,-4.50144,-2.90402,-13.9178,-8.74653,-9.51222,34.7531,-11.6414,-25.6194,-4.34489
1.36518,17.4053,-1.76724,4.48302,-2.83235,2.113,7.80471,-3.36734,-8.91787,-0.96845,-5.33791,0.0936913,-4.5805,-2.40626,5.67792,-17.6749,-8.66465,-15.2545,19.5905,-9.97262,9.16591,10.4523,-4.7658,4.26645,-7.27552e-14,-2.90226e-14,-11.6953,3.56861,-60.7773,140.69,8.8158,-13.4819,12.3856,7.12502,12.6286,-17.2127,-7.27552e-14,-2.90226e-14,-0.426728,-13.2132,88.0931,128.917,0.544894,-11.0254,11.1341,7.12502,14.9961,40.5711,-25.0236,-0.81839,5.30643,40.7416,-14.0834,-5.52269,-3.03415,-14.5369,-8.46485,-8.9914,35.1429,-9.32278,-26.7137,-3.61658
1.2888,17.4425,-1.77474,4.41421,-1.75359,2.31787,8.59286,-3.16903,-8.91657,-1.21888,-5.17855,-0.0668254,-5.33406,-2.27951,5.57045,-17.2974,-8.93154,-15.5737,19.7095,-10.3489,9.24416,10.5019,-4.96542,4.29155,2.43511e-15,-1.63003e-14,-8.75115,2.41262,-57.7031,138.351,8.5204,-13.838,11.5589,7.12502,12.2854,-18.0603,2.43511e-15,-1.63003e-14,-0.243671,-13.8033,88.2313,129.04,0.346416,-11.251,11.0294,7.12502,14.7787,40.4824,-24.4872,-0.831753,5.35918,40.6108,-14.5594,-6.35385,-2.79585,-15.2271,-8.09481,-8.76482,35.599,-7.15445,-27.4561,-3.316
1.21767,17.4746,-1.78365,4.35249,-0.674002,2.50085,8.65964,-3.09172,-8.50764,-0.913037,-5.04377,-0.496019,-5.13894,-2.24998,4.86934,-17.5197,-9.21351,-15.4914,19.6399,-10.7777,9.4481,10.5851,-5.12495,4.27085,-6.88789e-14,-2.62396e-14,-4.96069,0.599142,-55.3289,135.275,8.36443,-13.6803,10.9054,7.12502,12.4374,-18.7046,-6.88789e-14,-2.62396e-14,0.915604,-14.363,87.5724,129.058,0.322715,-11.3121,10.7781,7.12502,14.7198,40.2355,-23.9408,-0.922494,5.41185,40.4611,-15.1241,-7.0207,-2.06974,-15.9177,-7.78004,-8.56304,36.102,-5.49251,-27.8282,-5.00981
1.1515,17.5033,-1.7902,4.10999,0.393234,2.55978,8.90468,-3.01395,-7.94053,-0.666772,-4.90706,-0.823221,-5.10883,-2.21052,4.20589,-17.4116,-9.47405,-15.6353,19.4779,-11.1525,9.62358,10.5797,-5.28924,4.29235,2.27111e-14,-3.97569e-15,-1.21909,-1.2292,-53.0395,131.495,8.10434,-13.0695,10.286,7.12502,13.0262,-19.2873,2.27111e-14,-3.97569e-15,1.7619,-14.8263,87.1433,129.202,0.463209,-11.3014,10.7207,7.12502,14.7301,40.1773,-23.19,-0.959894,5.58598,40.2784,-15.7171,-7.64481,-1.6337,-16.4179,-7.53778,-8.26268,36.6376,-4.29538,-27.8055,-7.5798
1.08854,17.5276,-1.79807,3.85373,1.24146,2.49752,9.16802,-2.85321,-7.1953,-0.503831,-4.64428,-1.11991,-5.19879,-2.10513,3.46643,-16.934,-9.72148,-15.8872,19.2105,-11.5269,9.77844,10.475,-5.47521,4.33339,4.62174e-15,1.35174e-14,2.34904,-3.04996,-50.8893,126.88,8.15071,-12.4941,9.72429,7.12502,13.5808,-19.8128,4.62174e-15,1.35174e-14,2.36991,-15.3393,86.8578,129.413,0.60646,-10.9546,10.903,7.12502,15.0642,40.3349,-22.5235,-0.792434,5.87171,40.0591,-16.1822,-8.2866,-1.51812,-16.8893,-7.17748,-7.84746,37.1933,-3.38863,-27.284,-10.5308
1.03146,17.5466,-1.80915,3.69723,1.9668,2.42686,9.29406,-2.69725,-6.30714,-0.357587,-4.36193,-1.46511,-5.23609,-1.99651,2.58465,-16.4865,-9.90049,-16.0886,18.9792,-11.8271,9.96976,10.3792,-5.62001,4.39324,4.1049e-14,6.36111e-15,5.96353,-4.80201,-49.0288,121.215,9.08,-12.4062,9.47503,7.12502,13.6655,-20.0563,4.1049e-14,6.36111e-15,2.98742,-15.8248,86.5263,129.431,0.422251,-10.7301,10.5635,7.12502,15.2804,39.9791,-22.0124,-0.713418,6.15004,39.8188,-16.5037,-8.79684,-1.58005,-17.5002,-6.85446,-7.45086,37.7668,-2.70054,-26.3154,-14.6322
0.977483,17.5587,-1.81868,3.53228,2.59204,2.40623,9.27247,-2.55999,-5.5349,-0.236937,-4.10376,-1.75997,-5.19296,-1.89776,1.81338,-15.854,-9.98328,-16.3742,18.7772,-12.004,10.1584,10.2491,-5.72197,4.49426,-1.19271e-14,-5.56597e-15,9.73248,-6.33886,-47.413,114.7,10.2572,-12.1067,9.13562,7.12502,13.9542,-20.3761,-1.19271e-14,-5.56597e-15,3.50108,-16.1868,86.2251,129.37,-0.0402064,-10.9735,10.2031,7.12502,15.046,39.6364,-21.5038,-0.658614,6.37017,39.5646,-16.8205,-9.19716,-1.57571,-18.0371,-6.52232,-7.14201,38.331,-2.1729,-25.2058,-18.3392
0.924129,17.5624,-1.82731,3.32557,3.07391,2.42304,9.22456,-2.3826,-4.9028,-0.140413,-3.80524,-2.00921,-5.14158,-1.77365,1.16109,-15.0487,-10.0457,-16.578,18.5538,-12.1488,10.1199,10.0545,-5.83227,4.51253,-3.3197e-14,-1.11319e-14,13.6849,-7.87608,-46.1064,107.435,11.0096,-10.6027,8.85716,7.12502,15.4032,-20.549,-3.3197e-14,-1.11319e-14,4.00894,-16.5357,85.9159,129.445,-0.405462,-11.1811,10.4291,7.12502,14.846,39.8772,-21.0107,-0.580174,6.55514,39.3175,-17.2688,-9.54487,-1.06591,-18.4091,-6.05676,-6.923,38.8795,-1.97307,-24.1614,-21.3634
0.872301,17.5703,-1.83493,3.09041,3.51526,2.42654,9.22536,-2.18703,-4.25305,-0.0816713,-3.48718,-2.27074,-5.1512,-1.63786,0.486281,-14.2957,-10.0924,-16.5746,18.5103,-12.296,9.93481,9.9094,-5.94326,4.44702,1.21259e-14,4.77083e-15,17.7185,-9.39457,-45.1683,99.0476,12.7627,-9.50373,9.10631,7.12502,16.4615,-20.2153,1.21259e-14,4.77083e-15,4.40419,-17.0236,85.7032,129.56,-0.872429,-11.3368,10.3318,7.12502,14.696,39.791,-20.4832,-0.661047,6.77302,39.0599,-17.6991,-9.78788,-0.824166,-18.7004,-5.69722,-6.69766,39.4149,-1.99451,-23.0867,-24.1431
0.820643,17.5745,-1.84372,2.87839,3.93648,2.52307,9.31031,-2.00986,-3.82921,-0.113981,-3.22466,-2.48726,-5.27821,-1.51978,-0.00509271,-13.6794,-10.1112,-16.5436,18.7428,-12.4019,9.71771,9.8767,-6.03374,4.37123,9.93923e-16,-3.10104e-14,21.9062,-10.6831,-44.606,89.6043,16.2011,-9.30906,9.61897,7.12502,16.6489,-19.687,9.93923e-16,-3.10104e-14,4.52032,-17.4374,85.674,129.589,-1.35339,-11.218,10.1392,7.12502,14.8105,39.59,-19.9767,-0.891864,6.90564,38.7827,-18.0377,-9.98481,-1.21442,-18.8774,-5.38474,-6.57381,39.9591,-2.78334,-22.0776,-27.1527
0.767986,17.5752,-1.8511,2.62515,4.2552,2.60287,9.49995,-1.81608,-3.56316,-0.192776,-2.95976,-2.61727,-5.49487,-1.39404,-0.316439,-13.0933,-10.1437,-16.4577,19.0357,-12.5023,9.35052,9.85537,-6.13134,4.23444,-6.36111e-15,2.78299e-14,26.2679,-11.7906,-44.302,79.5939,20.7062,-9.90715,10.1815,7.12502,16.0731,-19.1719,-6.36111e-15,2.78299e-14,4.4996,-17.8043,85.7445,129.471,-2.00153,-11.4242,10.1451,7.12502,14.6118,39.6104,-19.4552,-1.08538,7.08356,38.4886,-18.3605,-10.2493,-1.63654,-18.9115,-5.03409,-6.43543,40.4878,-4.14857,-21.1598,-28.5249
0.715675,17.5742,-1.85683,2.29795,4.53158,2.60406,9.65256,-1.62193,-3.3021,-0.212675,-2.6855,-2.6858,-5.62179,-1.26537,-0.566891,-12.4778,-10.1816,-16.4009,19.2795,-12.6147,9.0305,9.81802,-6.23199,4.11905,-9.44227e-15,-3.97569e-15,30.7241,-12.9289,-44.3236,69.2814,25.8832,-11.4784,10.9046,7.12502,14.5596,-18.5644,-9.44227e-15,-3.97569e-15,4.55737,-18.2451,85.8255,129.376,-2.89572,-12.1047,10.5941,7.12502,13.9561,40.1057,-18.8709,-1.15094,7.35292,38.1906,-18.7986,-10.5269,-1.54239,-18.8664,-4.71981,-6.19497,41.0133,-5.54121,-20.2184,-28.6849
0.662611,17.574,-1.85965,1.97122,4.81367,2.70317,9.75217,-1.4371,-3.22586,-0.229843,-2.43941,-2.72843,-5.70395,-1.14585,-0.686161,-11.9931,-10.2084,-16.4776,19.7259,-12.7067,8.84671,9.89297,-6.31712,4.07169,-4.37326e-15,4.53229e-14,34.8989,-13.8953,-44.2972,58.9789,30.8294,-13.1682,11.3566,7.12502,12.9311,-18.2228,-4.37326e-15,4.53229e-14,4.53255,-18.711,86.0578,129.403,-3.47806,-12.3337,10.9465,7.12502,13.7354,40.4731,-18.2607,-1.15134,7.50864,37.8824,-19.3011,-10.804,-1.21577,-18.7646,-4.42192,-6.06698,41.5438,-6.73246,-19.2249,-29.4894
0.612467,17.5772,-1.86057,1.79006,5.13153,2.78862,9.77014,-1.25155,-3.12265,-0.346806,-2.18926,-2.76703,-5.84506,-1.0242,-0.81907,-11.515,-10.255,-16.393,20.2175,-12.8143,8.46438,9.96158,-6.41711,3.92677,2.18663e-15,1.59028e-15,38.3595,-14.5856,-43.7786,49.2508,34.497,-14.0892,11.4552,7.12502,12.0431,-18.1783,2.18663e-15,1.59028e-15,4.33271,-19.1843,86.4403,129.488,-3.18848,-11.7365,10.7192,7.12502,14.311,40.206,-17.7599,-1.20033,7.66583,37.5502,-19.7463,-11.1324,-1.19444,-18.7999,-4.16801,-5.92498,42.0874,-7.6301,-18.0932,-30.0131
0.562581,17.5779,-1.86274,1.68064,5.53981,2.72796,9.74441,-1.04214,-2.91479,-0.405288,-1.88743,-2.76081,-5.90019,-0.881263,-0.97323,-11.2811,-10.4558,-16.1134,20.6456,-13.0965,7.94091,10.0512,-6.58772,3.6626,3.2054e-14,9.54166e-15,41.0546,-15.3299,-42.9765,40.7822,36.2672,-13.6543,11.4702,7.12502,12.4624,-18.1382,3.2054e-14,9.54166e-15,4.43953,-19.6202,86.7895,129.588,-1.87464,-10.3319,10.3476,7.12502,15.664,39.7335,-17.3455,-1.21645,7.96492,37.2323,-20.1239,-11.5323,-1.63974,-18.924,-3.92736,-5.58866,42.6366,-8.05521,-16.8072,-30.5963
0.512594,17.5768,-1.86026,1.59995,6.04904,2.66551,9.65427,-0.766136,-2.73879,-0.365917,-1.49313,-2.75595,-5.81253,-0.693658,-1.12562,-11.3177,-10.8198,-15.8341,21.0618,-13.6007,7.57805,10.2255,-6.83521,3.40521,-1.49089e-15,-1.43125e-14,42.4783,-15.8785,-41.3521,34.2114,35.4582,-12.0585,11.1018,7.12502,14.0006,-18.4067,-1.49089e-15,-1.43125e-14,4.61763,-20.8198,87.1016,129.415,-2.94567,-11.4747,10.6073,7.12502,14.5631,40.0761,-16.9402,-1.23262,8.24725,36.943,-20.6039,-11.8697,-1.53356,-19.0817,-3.78518,-5.23975,43.2158,-8.17239,-15.3542,-32.1387
0.462835,17.5763,-1.85324,1.53538,6.70282,2.66439,9.7651,-0.43468,-2.40282,-0.140914,-1.01819,-2.92232,-5.64623,-0.473824,-1.55653,-12.4455,-11.4497,-15.5411,21.7114,-14.4,7.5037,10.7467,-7.15148,3.13684,8.44835e-15,-8.74653e-15,42.4138,-16.3598,-38.6984,29.9411,33.0039,-9.48282,10.7606,7.12502,16.4816,-18.5593,8.44835e-15,-8.74653e-15,5.37861,-21.9939,87.1461,129.334,-2.42975,-10.8305,9.63536,7.12502,15.1838,39.0583,-16.4921,-1.30051,8.44889,36.7075,-21.1639,-12.1736,-0.777715,-19.2574,-3.75877,-4.96699,43.8259,-8.41414,-14.01,-33.0862
0.412245,17.5746,-1.84636,1.54532,7.53481,2.54352,10.071,-0.227922,-2.1333,-0.42879,-0.736508,-2.93052,-6.12322,-0.340928,-1.76016,-12.0683,-11.7631,-15.6679,21.9318,-14.9431,7.67965,10.8535,-7.40267,3.13897,-8.15017e-15,-1.82882e-14,40.8183,-15.5386,-35.3982,27.9635,30.972,-6.73272,10.9528,7.12502,19.1279,-18.1266,-8.15017e-15,-1.82882e-14,5.08215,-23.1389,87.5805,128.996,-3.47361,-11.1947,8.68363,7.12502,14.8329,38.1327,-16.1202,-1.45656,8.78148,36.55,-21.713,-12.4784,0.0290614,-19.5713,-3.74837,-4.55888,44.4452,-8.55243,-12.9576,-32.5624
0.36145,17.5721,-1.8413,1.59477,8.54262,2.31538,10.0643,-0.173503,-1.95696,-0.455814,-0.636253,-2.81467,-6.14643,-0.295197,-1.7531,-11.9496,-12.0855,-15.8261,21.7748,-15.4797,8.07671,10.8931,-7.62044,3.21287,-1.02374e-14,-3.26007e-14,39.3145,-15.1548,-33.0304,27.679,31.199,-5.01261,11.2909,7.12502,20.7813,-17.6163,-1.02374e-14,-3.26007e-14,5.27597,-24.0236,87.8147,128.848,-4.4962,-11.3719,8.42489,7.12502,14.6622,37.8865,-15.8616,-1.69627,9.22765,36.4969,-22.2437,-12.8883,0.207556,-20.0377,-3.83312,-4.03513,45.0507,-8.56693,-12.143,-31.3411
0.311821,17.5761,-1.83271,1.62263,9.68182,2.11196,9.77253,-0.224977,-1.93731,-0.240769,-0.674673,-2.67781,-5.7532,-0.313628,-1.61259,-11.8309,-12.3882,-15.9723,21.227,-16.0255,8.73766,10.8163,-7.81544,3.37793,-3.70236e-14,-4.45278e-14,38.0174,-15.6949,-32.1507,28.6922,33.3371,-4.61072,11.6004,7.12502,21.1674,-17.264,-3.70236e-14,-4.45278e-14,5.69757,-24.6176,87.8281,129.188,-4.53043,-10.5238,8.81835,7.12502,15.4792,38.2187,-15.6244,-2.09432,9.65191,36.55,-22.6338,-13.421,-0.39261,-20.5177,-4.0263,-3.55625,45.6215,-8.65005,-11.5228,-29.3337
0.26562,17.584,-1.82395,1.66783,10.9427,2.0039,9.4603,-0.353038,-2.08012,-0.0442646,-0.835266,-2.5667,-5.36874,-0.388636,-1.39219,-11.5441,-12.6297,-16.0548,20.589,-16.5223,9.43856,10.6719,-7.98965,3.56519,-1.70955e-14,-2.38542e-15,36.6528,-16.6967,-32.4416,30.7865,35.4382,-5.49431,11.5948,7.12502,20.3184,-17.3623,-1.70955e-14,-2.38542e-15,5.79676,-25.1959,87.9121,129.506,-5.01424,-9.89476,8.85683,7.12502,16.085,38.2093,-15.4022,-2.67865,9.95254,36.6788,-22.9784,-13.8841,-0.573173,-20.9854,-4.29695,-3.21205,46.1389,-8.53936,-11.0983,-27.598
0.22318,17.595,-1.82019,1.71902,12.2069,1.99575,9.33848,-0.544935,-2.4092,0.0767988,-1.11189,-2.48306,-5.16786,-0.516483,-1.08198,-11.3876,-12.8045,-16.0141,20.1234,-16.9257,10.0793,10.5892,-8.11646,3.72127,-3.35449e-14,-1.51076e-14,35.1583,-17.5852,-33.3348,33.8045,35.5766,-7.54948,11.2628,7.12502,18.3423,-17.8924,-3.35449e-14,-1.51076e-14,5.81068,-25.5059,87.9823,129.547,-5.46816,-9.48589,7.87697,7.12502,16.4787,37.1971,-15.2096,-3.29417,10.1024,36.8455,-23.2957,-14.2726,-0.666054,-21.393,-4.57381,-3.02174,46.6058,-8.04864,-10.7687,-26.3592
0.182488,17.6061,-1.81354,1.66183,13.4338,1.86572,9.35195,-0.783894,-2.65411,0.169881,-1.4476,-2.38976,-5.07004,-0.675569,-0.801506,-11.2492,-12.9186,-15.9182,19.6998,-17.239,10.6713,10.5055,-8.20503,3.8668,-1.61513e-14,-1.98785e-14,33.427,-17.939,-34.2316,37.5449,32.9508,-9.8719,10.6336,7.12502,16.107,-18.7171,-1.61513e-14,-1.98785e-14,5.72774,-25.7448,87.9148,129.58,-5.75922,-9.47494,6.83362,7.12502,16.4892,36.1529,-14.9311,-3.77792,10.3724,37.0212,-23.6716,-14.6384,-0.424161,-21.6467,-4.80181,-2.7233,46.9979,-7.30359,-10.529,-25.1391
0.144515,17.6134,-1.80152,1.5285,14.6054,1.50112,9.27009,-1.04577,-2.69234,0.22965,-1.78555,-2.22961,-4.95335,-0.840778,-0.569479,-10.885,-12.9455,-15.8502,19.2864,-17.4194,11.1317,10.3557,-8.25953,4.00761,-4.1049e-14,1.11319e-14,31.6416,-17.9912,-35.2009,41.714,28.435,-11.433,10.3652,7.12502,14.6034,-19.1007,-4.1049e-14,1.11319e-14,5.38989,-25.9963,87.8971,129.684,-6.00764,-9.63449,5.95088,7.12502,16.3356,35.2829,-14.6185,-4.10034,10.8964,37.1802,-24.1108,-15.0013,0.193421,-21.7924,-4.9446,-2.17629,47.3236,-6.66746,-10.2702,-24.979
0.11175,17.6209,-1.79082,1.40994,15.5855,1.2972,9.18488,-1.27985,-2.96134,0.220775,-2.11204,-2.04127,-4.89507,-0.993981,-0.181408,-10.369,-12.8768,-15.9094,19.0153,-17.4225,11.3892,10.1956,-8.26709,4.137,4.13472e-14,4.29375e-14,29.738,-17.7856,-36.2699,46.4477,23.4117,-12.1029,10.0779,7.12502,13.9578,-19.4336,4.13472e-14,4.29375e-14,4.81622,-26.1615,88.06,129.798,-6.15363,-9.853,5.70715,7.12502,16.1252,35.0563,-14.3257,-4.3493,11.1957,37.2927,-24.3739,-15.2644,0.184608,-21.774,-5.02092,-1.84711,47.5552,-6.06134,-9.9007,-25.3619
0.0818615,17.6267,-1.78349,1.31337,16.4919,1.09902,9.11565,-1.54297,-3.24472,0.150363,-2.4806,-1.8319,-4.90232,-1.16627,0.241756,-9.88864,-12.7113,-16.0006,18.9357,-17.2661,11.5204,10.0768,-8.21208,4.25376,2.06239e-14,-2.54444e-14,27.5555,-17.3112,-37.2784,51.7108,18.7534,-12.0717,9.60222,7.12502,13.9879,-19.9072,2.06239e-14,-2.54444e-14,4.06215,-26.1644,88.2389,129.903,-6.10482,-10.1641,5.76689,7.12502,15.8256,35.1401,-14.0539,-4.67815,11.4579,37.3521,-24.4482,-15.4574,0.256995,-21.7158,-5.07233,-1.55199,47.711,-5.20922,-9.59564,-25.3411
0.0540662,17.6307,-1.77691,1.21017,17.3871,0.822048,8.96132,-1.858,-3.37313,0.187482,-2.89367,-1.62438,-4.74876,-1.36783,0.575488,-9.91938,-12.5918,-15.9044,19.1071,-17.0649,11.2657,10.0778,-8.13326,4.186,6.32632e-14,-2.38542e-14,25.4124,-16.9233,-38.282,57.1209,15.3266,-11.4145,9.3499,7.12502,14.6212,-20.1147,6.32632e-14,-2.38542e-14,3.50013,-26.0403,88.2501,130.002,-5.87629,-10.6404,5.84138,7.12502,15.3668,35.2503,-13.8066,-5.03998,11.792,37.3704,-24.4723,-15.6944,0.0827682,-21.5841,-5.12931,-1.18717,47.804,-4.49982,-9.37512,-26.1258
0.0312965,17.6386,-1.76635,1.11764,18.0896,0.539545,8.76532,-2.14809,-3.42363,0.215835,-3.2637,-1.40321,-4.58112,-1.55076,0.869704,-10.668,-12.5548,-15.8506,19.9988,-16.823,10.5405,10.4239,-8.04595,3.92326,8.69683e-15,-4.77083e-15,23.2437,-16.5585,-39.3274,62.643,13.5262,-10.2115,9.17439,7.12502,15.7799,-20.2024,8.69683e-15,-4.77083e-15,2.96403,-25.7965,88.2657,130.044,-5.59717,-11.2295,6.10701,7.12502,14.7994,35.5586,-13.5893,-5.24308,12.1147,37.3309,-24.6177,-15.831,0.183056,-21.2785,-5.0833,-0.862001,47.85,-3.98622,-9.20391,-26.8694
0.0145004,17.6388,-1.75617,1.10094,18.5678,0.463118,8.58131,-2.31961,-3.54059,0.199007,-3.49132,-1.31733,-4.47461,-1.66202,1.0427,-11.7375,-12.5939,-15.6326,21.1776,-16.6306,9.57772,10.9117,-7.98381,3.52177,4.14963e-14,-4.77083e-15,20.6798,-16.1997,-40.2443,68.1751,12.8164,-9.2139,9.05904,7.12502,16.7405,-20.2392,4.14963e-14,-4.77083e-15,2.43974,-25.6965,88.2863,130.008,-5.38432,-11.6883,6.51149,7.12502,14.3574,35.995,-13.3701,-5.40906,12.2016,37.243,-24.737,-15.6943,0.897784,-20.8479,-4.94859,-0.802418,47.8561,-3.41291,-9.11478,-26.5104
0.000689545,17.6305,-1.74877,1.07303,19.0115,0.423052,8.467,-2.43821,-3.61567,0.159502,-3.65253,-1.32195,-4.44085,-1.74057,1.09381,-11.7637,-12.5208,-15.6311,21.3809,-16.4882,9.37593,10.952,-7.93752,3.47428,-3.59303e-14,-3.18055e-15,17.8641,-15.839,-41.0988,73.4307,12.771,-8.66177,9.24748,7.12502,17.272,-20.005,-3.59303e-14,-3.18055e-15,1.96252,-25.7141,88.3183,129.913,-5.25244,-11.8795,6.92759,7.12502,14.1731,36.4241,-13.0807,-5.54595,12.245,37.1325,-24.9438,-15.4173,1.5605,-20.3622,-4.83202,-0.803684,47.7977,-2.91344,-9.16995,-26.3934
-0.0130905,17.6247,-1.74178,1.03336,19.4202,0.270361,8.35593,-2.54304,-3.75959,0.0976,-3.79697,-1.19355,-4.41898,-1.80772,1.31916,-10.8528,-12.3358,-16.0361,20.7926,-16.3289,9.78324,10.6198,-7.89433,3.76089,-1.19122e-13,-1.51076e-14,15.1467,-15.4755,-41.937,78.4748,13.3019,-8.51013,9.82132,7.12502,17.4179,-19.4183,-1.19122e-13,-1.51076e-14,1.46182,-25.5765,88.5536,129.733,-5.22786,-11.94,7.44149,7.12502,14.1148,36.9421,-12.8704,-5.56203,12.4437,37.0283,-25.1694,-15.4354,0.936905,-19.8443,-4.63966,-0.6827,47.6482,-2.53117,-9.55195,-27.0959
-0.0226317,17.6208,-1.73819,1.06962,19.7896,0.207535,8.21179,-2.65356,-4.0891,0.0581657,-3.96128,-1.01134,-4.33648,-1.88185,1.70218,-10.4956,-12.2157,-16.3567,20.6145,-16.1794,9.96859,10.5145,-7.84655,3.92081,2.48481e-16,-1.59028e-15,12.7026,-15.2864,-42.9962,83.365,14.1664,-8.80024,10.5438,7.12502,17.1387,-18.7203,2.48481e-16,-1.59028e-15,1.15025,-25.2455,88.813,129.466,-5.3063,-11.9955,7.75471,7.12502,14.0613,37.259,-12.7785,-5.57456,12.552,36.9315,-25.5281,-15.5421,0.927783,-19.2782,-4.5384,-0.680909,47.398,-1.85656,-10.1002,-27.0838
-0.0289733,17.6171,-1.73468,1.08932,20.1305,0.2006,8.09818,-2.77051,-4.5052,0.0385327,-4.14224,-0.827387,-4.24037,-1.96326,2.13675,-10.5689,-12.1332,-16.5537,20.7512,-16.0154,9.93891,10.57,-7.78561,3.96444,-1.30701e-14,-1.35174e-14,10.1987,-14.9585,-44.0426,88.2446,14.3017,-9.10981,10.8815,7.12502,16.8407,-18.4082,-1.30701e-14,-1.35174e-14,1.0804,-24.8045,88.9655,129.193,-5.40393,-11.8952,7.91278,7.12502,14.158,37.4104,-12.6354,-5.60288,12.5788,36.8553,-26.1443,-15.3472,3.25287,-18.6042,-4.5572,-0.769876,47.0226,-1.08132,-10.7635,-26.7565
