JuanDHNZ/ProyectoFinalCD/preprocessing/sports_trials_csv/14_06.csv
root1,root2,root3,root4,root5,root6,lowerback1,lowerback2,lowerback3,upperback1,upperback2,upperback3,thorax1,thorax2,thorax3,lowerneck1,lowerneck2,lowerneck3,upperneck1,upperneck2,upperneck3,head1,head2,head3,rclavicle1,rclavicle2,rhumerus1,rhumerus2,rhumerus3,rradius1,rwrist1,rhand1,rhand2,rfingers1,rthumb1,rthumb2,lclavicle1,lclavicle2,lhumerus1,lhumerus2,lhumerus3,lradius1,lwrist1,lhand1,lhand2,lfingers1,lthumb1,lthumb2,rfemur1,rfemur2,rfemur3,rtibia1,rfoot1,rfoot2,rtoes1,lfemur1,lfemur2,lfemur3,ltibia1,lfoot1,lfoot2,ltoes1
-0.69914,17.6671,-2.24341,4.70291,-6.43291,1.2055,0.203612,-1.04825,-4.24865,0.412356,-1.40357,1.76005,0.456432,-0.722832,4.19308,-21.5241,-8.78094,-13.4704,18.8956,-9.72499,7.95041,10.6966,-4.5369,3.47819,-1.78906e-14,2.70347e-14,-29.3334,-17.2726,-76.9092,28.1624,24.2214,-20.3101,1.30314,7.12502,6.04039,-28.5908,-1.78906e-14,2.70347e-14,-33.6775,17.0029,78.7491,27.0831,-7.92557,-7.92008,27.2255,7.12502,17.9857,56.4138,-14.3611,6.99935,11.9764,33.4165,-20.1979,-1.12127,2.96515,-9.17891,0.380238,-19.4962,27.4184,-17.6062,12.3594,-21.3421
-0.697659,17.6689,-2.2379,4.78926,-6.4267,1.33847,0.183617,-1.05855,-4.39624,0.301147,-1.41762,1.76746,0.358586,-0.725659,4.28513,-21.531,-8.68633,-13.613,19.0448,-9.57409,8.02809,10.7472,-4.47064,3.55727,-1.2424e-15,2.94201e-14,-29.5643,-17.1565,-76.7911,28.3374,23.9357,-20.2669,1.4026,7.12502,6.08212,-28.4901,-1.2424e-15,2.94201e-14,-33.8273,17.1476,78.7129,26.9675,-8.31105,-7.32689,27.6306,7.12502,18.5564,56.7656,-14.4429,7.00275,11.8076,33.4215,-20.2307,-1.12201,2.95873,-9.22851,0.253951,-19.6487,27.3059,-17.5809,12.41,-21.1052
-0.69666,17.6702,-2.23446,4.8543,-6.40392,1.33758,0.261928,-1.08669,-4.44654,0.194089,-1.45968,1.82862,0.211891,-0.740996,4.37985,-21.5723,-8.52674,-13.5794,19.1691,-9.33007,7.89819,10.7621,-4.37243,3.54832,-1.23246e-14,4.37326e-15,-29.736,-17.05,-76.7029,28.4585,23.7712,-20.3378,1.45148,7.12502,6.01367,-28.4432,-1.23246e-14,4.37326e-15,-34.0136,17.2793,78.7069,26.9507,-8.666,-6.82914,28.0666,7.12502,19.0351,57.1551,-14.506,7.01874,11.8012,33.4511,-20.2835,-1.17482,2.82108,-9.28303,0.327174,-19.6368,27.2275,-17.587,12.3129,-21.211
-0.695994,17.6704,-2.23112,4.89959,-6.43704,1.47144,0.309516,-1.07527,-4.59436,0.114351,-1.44759,1.81938,0.105271,-0.730625,4.45606,-21.7125,-8.40815,-13.481,19.3459,-9.13887,7.71144,10.8144,-4.29803,3.4966,-1.3418e-15,1.98785e-15,-29.86,-17.1307,-76.615,28.5119,23.6658,-20.445,1.50883,7.12502,5.91019,-28.3887,-1.3418e-15,1.98785e-15,-34.1709,17.4532,78.6923,26.8027,-8.62763,-7.40279,27.2334,7.12502,18.4834,56.3753,-14.5841,7.10898,11.6349,33.4701,-20.3372,-1.19892,2.93267,-9.30362,0.268,-19.7976,27.1699,-17.6057,12.3924,-21.1431
-0.695637,17.6708,-2.22816,4.88691,-6.43868,1.48603,0.378768,-1.06949,-4.61326,0.0948062,-1.44314,1.81905,0.0462583,-0.726401,4.46818,-21.7536,-8.27799,-13.2357,19.3465,-8.95648,7.41747,10.772,-4.23058,3.38161,-3.64273e-14,2.34566e-14,-29.9393,-17.035,-76.6289,28.6016,23.4726,-20.7281,1.31297,7.12502,5.63686,-28.5921,-3.64273e-14,2.34566e-14,-34.2839,17.7273,78.5567,26.8413,-9.31945,-6.90939,27.4669,7.12502,18.958,56.563,-14.5767,7.14025,11.6207,33.476,-20.3229,-1.22157,2.92616,-9.25933,0.224237,-19.8196,27.149,-17.641,12.4233,-20.9321
-0.695425,17.6701,-2.22581,4.91039,-6.45482,1.40548,0.402278,-1.06348,-4.53751,0.099107,-1.43579,1.84692,0.0355181,-0.722521,4.45469,-21.8057,-8.14935,-13.1644,19.3346,-8.77783,7.36465,10.7502,-4.14901,3.38174,-4.12478e-15,2.8625e-14,-29.9609,-16.9881,-76.6614,28.6914,23.3399,-20.7815,1.32746,7.12502,5.58528,-28.5789,-4.12478e-15,2.8625e-14,-34.2661,18.0219,78.4235,26.8501,-10.1522,-5.91597,28.2873,7.12502,19.9131,57.2871,-14.5851,7.19243,11.7117,33.485,-20.3541,-1.23059,3.00049,-9.26597,0.263009,-19.7274,27.1419,-17.6658,12.3948,-20.862
-0.694915,17.6686,-2.22156,4.90252,-6.4117,1.41129,0.481454,-1.07005,-4.51131,0.0664111,-1.4481,1.83538,-0.0421536,-0.725895,4.42998,-21.8432,-7.98657,-13.1398,19.3682,-8.5715,7.43143,10.7479,-4.04512,3.43883,3.01656e-14,2.42517e-14,-30.1186,-16.9092,-76.6717,28.8716,23.1119,-20.7578,1.22587,7.12502,5.60823,-28.6799,3.01656e-14,2.42517e-14,-34.3709,17.983,78.4,26.8582,-10.2592,-6.03017,28.4535,7.12502,19.8034,57.4646,-14.5201,7.2528,11.7086,33.4714,-20.4267,-1.23124,3.54174,-9.24888,0.23165,-19.7292,27.1647,-17.6458,12.3678,-20.9302
-0.691579,17.6689,-2.21638,4.93673,-6.36242,1.40987,0.475735,-1.07586,-4.45,0.062656,-1.45533,1.83232,-0.0436283,-0.729384,4.392,-22.0715,-7.86055,-13.0038,19.4723,-8.38477,7.31951,10.7939,-3.95879,3.40539,-2.2413e-14,7.55382e-15,-30.1597,-16.9415,-76.6471,28.9712,22.9094,-20.6532,1.07096,7.12502,5.7092,-28.8321,-2.2413e-14,7.55382e-15,-34.3735,18.1886,78.3146,26.8897,-11.043,-5.6793,28.5906,7.12502,20.1406,57.5665,-14.5203,7.22199,11.6976,33.459,-20.4341,-1.24435,3.50166,-9.26916,0.187039,-19.7406,27.1721,-17.6297,12.3521,-20.7418
-0.689861,17.6671,-2.20949,4.94399,-6.41299,1.36844,0.514498,-1.05413,-4.39615,0.0580912,-1.42765,1.84761,-0.074025,-0.714643,4.37829,-22.3872,-7.69242,-12.7709,19.6932,-8.14166,7.11008,10.8839,-3.85057,3.32992,1.76421e-14,3.97569e-16,-30.2038,-16.9443,-76.6488,29.0262,22.7733,-20.6897,1.05871,7.12502,5.67396,-28.8453,1.76421e-14,3.97569e-16,-34.3829,18.1535,78.3483,26.8565,-10.9484,-6.24717,27.902,7.12502,19.5947,56.9345,-14.5129,7.32595,11.7326,33.4543,-20.4733,-1.30936,3.38674,-9.22186,0.20201,-19.7177,27.1679,-17.647,12.4225,-20.9099
-0.686404,17.6662,-2.19507,4.95243,-6.51638,1.45206,0.427697,-1.01749,-4.41012,0.0773489,-1.37511,1.79663,-0.0121448,-0.69026,4.33122,-22.6334,-7.50776,-12.6394,19.8178,-7.8872,7.06106,10.9379,-3.7267,3.33274,-1.16786e-14,1.51076e-14,-30.1836,-17.0937,-76.6127,28.9516,22.7799,-20.9688,1.38929,7.12502,5.40446,-28.5218,-1.16786e-14,1.51076e-14,-34.3238,17.9749,78.4486,26.6634,-10.2243,-6.28512,27.4426,7.12502,19.5582,56.4788,-14.4932,7.31003,11.6085,33.4547,-20.485,-1.20799,3.1642,-9.17868,0.178711,-19.8466,27.1644,-17.7248,12.5212,-20.7775
-0.68566,17.6648,-2.18712,4.95172,-6.57122,1.48547,0.437503,-1.01768,-4.45698,0.0708941,-1.37605,1.81318,-0.0226651,-0.690361,4.37522,-22.8046,-7.33104,-12.6284,19.9029,-7.62787,7.07803,10.9722,-3.60339,3.38137,-1.90833e-14,-3.57812e-15,-30.2316,-17.2616,-76.4725,28.9137,22.9338,-21.5369,2.18192,7.12502,4.85598,-27.7424,-1.90833e-14,-3.57812e-15,-34.3779,17.9417,78.4963,26.6455,-10.0699,-5.65361,27.8095,7.12502,20.1653,56.7828,-14.478,7.35463,11.5612,33.454,-20.5057,-1.17612,3.20991,-9.15527,0.138635,-19.8999,27.1614,-17.7132,12.606,-20.8728
-0.685162,17.6619,-2.17965,4.9946,-6.64373,1.47628,0.316786,-0.981522,-4.40425,0.155434,-1.32178,1.80257,0.124692,-0.66871,4.33099,-23.1063,-7.22503,-12.532,19.9666,-7.4503,6.98959,11.0229,-3.52017,3.36025,1.49089e-16,-1.70955e-14,-30.1395,-17.2731,-76.4951,28.9372,22.9432,-21.8839,2.45188,7.12502,4.52088,-27.4799,1.49089e-16,-1.70955e-14,-34.2013,17.7767,78.6536,26.5794,-9.76618,-6.50836,27.399,7.12502,19.3436,56.4569,-14.4999,7.35935,11.5531,33.4576,-20.503,-1.09319,3.16699,-9.14224,0.210258,-19.9072,27.1429,-17.7697,12.6223,-21.0238
-0.685461,17.662,-2.1744,5.00902,-6.6576,1.45693,0.258638,-0.957318,-4.34895,0.257215,-1.28602,1.80226,0.256943,-0.656199,4.29721,-23.3902,-7.09983,-12.4354,19.9498,-7.25481,6.94001,11.0404,-3.42378,3.35652,1.86858e-14,-2.78299e-15,-30.0154,-17.4628,-76.5349,29.0197,22.9919,-22.0289,2.24754,7.12502,4.38086,-27.6872,1.86858e-14,-2.78299e-15,-33.9853,17.6855,78.8138,26.5481,-9.46906,-7.38822,26.8578,7.12502,18.4974,55.9983,-14.4977,7.3587,11.5752,33.4547,-20.4995,-1.06299,3.44915,-9.13366,0.245258,-19.8882,27.1357,-17.7228,12.6349,-20.9993
-0.685498,17.6633,-2.17099,5.01184,-6.58885,1.46318,0.313725,-0.964229,-4.33419,0.248304,-1.29755,1.82058,0.218196,-0.660812,4.30898,-23.4037,-6.94364,-12.3482,19.8825,-7.02275,6.7931,10.9828,-3.329,3.32834,1.11319e-14,3.57812e-15,-30.0042,-17.438,-76.4969,28.9805,22.7492,-21.973,2.01884,7.12502,4.43483,-27.9147,1.11319e-14,3.57812e-15,-34.0394,17.6961,78.8534,26.6375,-9.69034,-6.59279,27.2246,7.12502,19.2624,56.2906,-14.4761,7.33002,11.5783,33.4465,-20.5356,-1.09251,3.67705,-9.13497,0.190841,-19.8841,27.1371,-17.6808,12.5896,-20.5187
-0.685848,17.666,-2.16835,5.03954,-6.51472,1.49837,0.376872,-0.975276,-4.37158,0.180795,-1.31556,1.82811,0.116269,-0.665911,4.33991,-23.2834,-6.76247,-12.1214,19.7532,-6.78582,6.50883,10.8671,-3.23997,3.22888,-1.16786e-14,-7.95139e-16,-30.0626,-17.4172,-76.4833,28.9114,22.4086,-21.9624,1.44683,7.12502,4.44504,-28.4865,-1.16786e-14,-7.95139e-16,-34.2667,17.7323,78.7643,26.9261,-10.6084,-4.3269,28.416,7.12502,21.44,57.2496,-14.4848,7.34588,11.5456,33.4435,-20.5972,-1.14216,3.7087,-9.17781,0.203431,-19.9075,27.1368,-17.7603,12.5262,-20.8803
-0.686779,17.665,-2.16386,5.03811,-6.48841,1.45851,0.482497,-0.952118,-4.28851,0.153312,-1.28877,1.82543,0.0239194,-0.649468,4.2925,-23.4512,-6.6367,-11.9748,19.8778,-6.60302,6.34775,10.9126,-3.16375,3.1765,1.44119e-15,-8.74653e-15,-30.1498,-17.4436,-76.495,28.9392,22.1726,-22.0357,1.24494,7.12502,4.37433,-28.6899,1.44119e-15,-8.74653e-15,-34.323,17.7198,78.7206,27.0623,-11.3227,-3.70157,28.9843,7.12502,22.0405,57.7483,-14.4589,7.35504,11.5994,33.4708,-20.6193,-1.17138,3.53874,-9.147,0.128125,-19.8722,27.1228,-17.808,12.6299,-21.3439
-0.68514,17.6632,-2.16301,5.11331,-6.49052,1.49045,0.560971,-0.92863,-4.26786,0.0564168,-1.26126,1.80758,-0.123572,-0.629949,4.26488,-23.4761,-6.48595,-11.9714,20.0137,-6.40318,6.37477,10.9479,-3.07095,3.22221,-4.32357e-14,5.96354e-15,-30.3028,-17.3076,-76.469,28.9951,21.9928,-21.9326,1.08499,7.12502,4.47389,-28.8478,-4.32357e-14,5.96354e-15,-34.4691,17.5951,78.7285,27.1759,-11.3748,-4.26183,28.7395,7.12502,21.5025,57.566,-14.5531,7.28067,11.5466,33.507,-20.6232,-1.08335,3.72108,-9.21028,0.0837564,-19.9208,27.1141,-17.8151,12.669,-21.2961
-0.683199,17.6618,-2.16138,5.16567,-6.49396,1.67828,0.574173,-0.926328,-4.41438,0.0100295,-1.26015,1.76751,-0.176569,-0.626974,4.30704,-23.5196,-6.30519,-11.8915,20.0769,-6.14077,6.24198,10.9445,-2.96227,3.20607,1.73937e-15,1.66979e-14,-30.4308,-17.1102,-76.4808,29.1604,21.7754,-21.9471,0.799055,7.12502,4.45983,-29.134,1.73937e-15,1.66979e-14,-34.5419,17.5269,78.8009,27.2091,-11.0618,-4.34733,28.6992,7.12502,21.4204,57.535,-14.6554,7.1647,11.3109,33.5552,-20.6027,-1.0074,3.65498,-9.28161,0.0392483,-20.1474,27.1001,-17.7806,12.7362,-21.3384
-0.682137,17.6616,-2.15554,5.22147,-6.47099,1.73098,0.523983,-0.90056,-4.40303,0.0311929,-1.22344,1.73637,-0.131498,-0.610166,4.26703,-23.6853,-6.20284,-11.7738,20.0982,-5.98335,6.10866,10.9576,-2.89541,3.16315,7.20594e-15,1.27222e-14,-30.4433,-17.1933,-76.4456,29.1776,21.7863,-22.0268,0.697643,7.12502,4.38288,-29.237,7.20594e-15,1.27222e-14,-34.4652,17.2515,78.9763,27.2575,-10.5174,-4.51077,28.5174,7.12502,21.2634,57.371,-14.7181,7.13106,11.2397,33.6131,-20.652,-1.00124,3.27965,-9.3219,0.0292436,-20.2158,27.0653,-17.7423,12.7369,-21.2841
-0.681394,17.6607,-2.14719,5.25618,-6.49889,1.73888,0.435669,-0.864453,-4.35927,0.100601,-1.17068,1.7194,-0.0174015,-0.588071,4.22226,-24.116,-6.12426,-11.7602,20.3514,-5.82791,6.09759,11.1136,-2.82111,3.18169,1.37658e-14,6.75868e-15,-30.3389,-17.5338,-76.3765,29.037,22.0281,-22.033,0.855025,7.12502,4.37688,-29.0797,1.37658e-14,6.75868e-15,-34.3596,17.1117,79.0996,27.4128,-10.301,-4.46205,28.5011,7.12502,21.3102,57.3494,-14.7629,7.11357,11.2107,33.6653,-20.6776,-0.924455,3.35687,-9.29676,-0.0123183,-20.2423,27.0219,-17.7336,12.7773,-21.125
-0.681937,17.6602,-2.14159,5.2936,-6.53501,1.82512,0.400695,-0.85574,-4.44835,0.105963,-1.15793,1.70049,0.00777974,-0.582455,4.2524,-24.2766,-5.97766,-11.7076,20.4377,-5.62288,6.09365,11.1524,-2.72318,3.20723,-2.83268e-15,-1.39149e-14,-30.3581,-17.5578,-76.3589,28.9864,22.0697,-22.0761,1.0895,7.12502,4.33525,-28.8461,-2.83268e-15,-1.39149e-14,-34.3601,17.1703,79.0825,27.5158,-10.458,-4.40926,28.5364,7.12502,21.3609,57.379,-14.8302,7.09772,11.1037,33.7063,-20.6681,-0.91844,3.21854,-9.31531,-0.0390117,-20.3451,27.0082,-17.7194,12.8358,-20.9222
-0.681436,17.6599,-2.13734,5.34186,-6.54149,1.85892,0.459065,-0.848743,-4.48054,0.0689811,-1.15159,1.72227,-0.0626099,-0.576719,4.29463,-24.3209,-5.84825,-11.6894,20.4204,-5.42765,6.04135,11.132,-2.6391,3.21843,-7.90169e-15,-2.3059e-14,-30.4587,-17.5167,-76.2939,29.0535,22.1144,-21.9738,1.0337,7.12502,4.43409,-28.8999,-7.90169e-15,-2.3059e-14,-34.4262,17.0941,79.2001,27.5913,-10.0673,-5.03009,28.2267,7.12502,20.7645,57.1358,-14.8949,7.09133,11.0565,33.7563,-20.7112,-0.86364,3.17299,-9.37201,-0.0683336,-20.3871,27.016,-17.6237,12.8721,-20.7709
-0.682516,17.6583,-2.13409,5.3978,-6.5086,1.85938,0.574658,-0.84297,-4.49564,-0.00620411,-1.14966,1.74257,-0.204336,-0.570477,4.32705,-24.2934,-5.73229,-11.5899,20.3436,-5.26542,5.90078,11.0746,-2.57484,3.17751,6.80837e-15,9.14409e-15,-30.5538,-17.5826,-76.2268,29.0477,22.1611,-21.9526,0.712945,7.12502,4.45458,-29.2202,6.80837e-15,9.14409e-15,-34.5398,16.8608,79.313,27.6589,-9.66526,-5.64996,27.769,7.12502,20.1688,56.742,-14.9541,7.08374,11.0576,33.8178,-20.7735,-0.853498,3.36078,-9.44414,0.0548356,-20.3834,27.0331,-17.6735,12.8265,-21.3097
-0.685008,17.6539,-2.12979,5.4659,-6.48115,1.8735,0.57525,-0.842686,-4.55527,-0.0307595,-1.14991,1.78079,-0.22796,-0.569415,4.40079,-24.5018,-5.63428,-11.6048,20.5126,-5.08817,5.8523,11.1573,-2.50135,3.19298,-8.59744e-15,1.55052e-14,-30.604,-17.5062,-76.196,29.1066,22.0515,-21.973,0.436426,7.12502,4.43485,-29.4971,-8.59744e-15,1.55052e-14,-34.5362,16.8273,79.3647,27.6757,-9.591,-5.4271,27.6714,7.12502,20.383,56.6217,-15.0308,7.06668,11.0422,33.8739,-20.8066,-0.837795,3.53194,-9.52947,0.148512,-20.3873,27.0721,-17.7546,12.7519,-21.7131
-0.684073,17.6531,-2.12607,5.51949,-6.42288,1.93135,0.571116,-0.864547,-4.58627,-0.0447977,-1.17924,1.79924,-0.235852,-0.583567,4.43769,-24.5841,-5.52237,-11.661,20.5987,-4.89905,5.83989,11.1873,-2.42219,3.23102,1.67476e-14,1.47101e-14,-30.6661,-17.2579,-76.219,29.2152,21.7097,-21.9225,0.427476,7.12502,4.48358,-29.5051,1.67476e-14,1.47101e-14,-34.5061,16.8257,79.4364,27.6542,-9.53597,-6.29525,27.2023,7.12502,19.5485,56.2395,-15.0983,6.93016,10.9736,33.9321,-20.8171,-0.817605,3.30558,-9.62087,0.143395,-20.4524,27.1117,-17.7273,12.7435,-21.7116
-0.683434,17.653,-2.1207,5.59292,-6.37389,1.99304,0.535832,-0.850796,-4.55311,-0.0391332,-1.15916,1.75762,-0.213965,-0.574234,4.37493,-24.6534,-5.49191,-11.8475,20.5986,-4.83455,6.05539,11.2049,-2.37951,3.35306,2.1916e-14,-4.77083e-15,-30.6867,-17.3454,-76.2172,29.2365,21.8546,-21.811,0.565718,7.12502,4.59126,-29.3645,2.1916e-14,-4.77083e-15,-34.4117,16.6987,79.5006,27.6328,-9.46718,-7.31255,26.2951,7.12502,18.5702,55.4287,-15.1881,6.90575,10.8978,34.002,-20.8815,-0.834543,3.15864,-9.71212,0.154347,-20.517,27.1385,-17.685,12.6666,-21.5204
-0.68246,17.651,-2.11389,5.66312,-6.32892,1.98961,0.497335,-0.833157,-4.48454,-0.0530704,-1.13371,1.75216,-0.210928,-0.561347,4.32984,-24.4818,-5.42974,-11.9175,20.4145,-4.7465,6.08761,11.0986,-2.34074,3.39039,1.93815e-15,-2.3059e-14,-30.7613,-17.5134,-76.1107,29.2737,22.2144,-21.6734,0.883159,7.12502,4.72409,-29.0442,1.93815e-15,-2.3059e-14,-34.4114,16.2897,79.7136,27.6146,-8.454,-7.88358,26.2255,7.12502,18.0209,55.4107,-15.2517,6.86305,10.8858,34.0723,-20.9492,-0.794341,3.28933,-9.7997,0.222373,-20.511,27.1795,-17.6992,12.5683,-21.4341
-0.681755,17.6481,-2.10851,5.62958,-6.29428,2.15274,0.565534,-0.840721,-4.6382,-0.0297727,-1.14751,1.72814,-0.221221,-0.568291,4.39289,-24.4411,-5.31057,-11.9165,20.2925,-4.58702,6.10914,11.0297,-2.26416,3.42441,6.70898e-15,2.5842e-14,-30.7389,-17.7546,-75.991,29.1652,22.4617,-21.7775,1.4424,7.12502,4.62363,-28.4871,6.70898e-15,2.5842e-14,-34.3283,16.221,79.8064,27.5117,-8.00327,-7.57858,26.6796,7.12502,18.3143,55.8375,-15.2257,6.75062,10.6986,34.1394,-20.9764,-0.665901,3.39224,-9.78655,0.2849,-20.6983,27.268,-17.7774,12.4684,-21.2787
-0.681545,17.6453,-2.10245,5.68757,-6.25403,2.17257,0.575784,-0.834143,-4.64281,-0.0667016,-1.13964,1.73018,-0.26573,-0.562354,4.39818,-24.4132,-5.20971,-11.7525,20.223,-4.45598,5.9107,10.9759,-2.21594,3.34525,-7.50412e-15,-4.37326e-15,-30.8498,-17.7865,-75.9857,29.2554,22.1286,-21.6534,1.37136,7.12502,4.74348,-28.5555,-7.50412e-15,-4.37326e-15,-34.2853,16.1041,79.8394,27.4936,-7.94948,-7.13492,27.0951,7.12502,18.7411,56.2123,-15.2752,6.63963,10.6674,34.1903,-21.0036,-0.610384,3.22758,-9.91197,0.410747,-20.7212,27.4376,-17.984,12.3548,-21.5486
-0.682425,17.6408,-2.09622,5.65146,-6.23147,2.01434,0.696741,-0.805766,-4.45676,-0.0853732,-1.10558,1.77502,-0.359183,-0.542734,4.34148,-24.3832,-5.13524,-11.6376,20.2097,-4.35234,5.73671,10.948,-2.18201,3.27943,7.8023e-15,-1.59028e-14,-30.9975,-17.88,-75.9327,29.2687,21.7998,-21.7204,1.17695,7.12502,4.67871,-28.7514,7.8023e-15,-1.59028e-14,-34.2396,16.1023,79.8583,27.3473,-7.31034,-7.62881,26.7549,7.12502,18.266,55.9172,-15.2219,6.67457,10.8631,34.2425,-21.0622,-0.597119,3.43774,-9.96211,0.590137,-20.5271,27.6758,-18.1586,12.1738,-21.3657
-0.687613,17.6359,-2.09038,5.55653,-6.19349,1.72582,0.84756,-0.786458,-4.21482,-0.0150128,-1.08255,1.889,-0.376126,-0.532673,4.32444,-24.5005,-5.04541,-11.5046,20.1814,-4.21208,5.55537,10.9372,-2.12846,3.21302,2.78795e-14,-1.19271e-15,-30.9832,-18.2604,-75.7546,29.1527,21.8744,-21.8264,1.36094,7.12502,4.57639,-28.5696,2.78795e-14,-1.19271e-15,-34.0718,16.2507,79.8768,27.2729,-6.93482,-7.28525,26.8785,7.12502,18.5965,56.0096,-15.0947,6.91851,11.247,34.3166,-21.2133,-0.792568,3.35536,-9.96542,0.742946,-20.1617,27.9739,-18.3215,11.9848,-21.0162
-0.690262,17.6296,-2.08659,5.52314,-6.15206,1.62336,0.93465,-0.755613,-4.10773,0.0595031,-1.04292,1.90535,-0.354137,-0.515043,4.28111,-24.5958,-4.9454,-11.335,20.093,-4.09321,5.45164,10.9032,-2.0711,3.16541,1.05853e-14,-2.5842e-14,-31.0516,-18.7061,-75.6384,29.2777,21.9252,-21.8697,1.44548,7.12502,4.53455,-28.486,1.05853e-14,-2.5842e-14,-33.7745,16.4491,79.7579,27.0917,-7.42503,-6.04778,27.5763,7.12502,19.7864,56.5892,-15.0803,7.03456,11.3929,34.4358,-21.321,-0.908849,3.38,-10.084,0.965669,-20.0167,28.3143,-18.6056,11.7514,-20.8868
-0.689322,17.6208,-2.08675,5.53869,-6.05357,1.67834,1.00225,-0.741731,-4.10586,0.115767,-1.02653,1.87886,-0.336425,-0.508379,4.25294,-24.8425,-4.92094,-11.3328,20.153,-4.03437,5.47108,10.9646,-2.03936,3.18169,6.85807e-15,-8.34896e-15,-31.0343,-19.3167,-75.4593,29.3158,22.0409,-21.8464,1.52786,7.12502,4.55709,-28.4031,6.85807e-15,-8.34896e-15,-33.5236,16.6759,79.6497,26.767,-7.79914,-5.63144,27.6373,7.12502,20.1866,56.6084,-15.156,6.89128,11.3431,34.6052,-21.4006,-0.913995,3.11507,-10.3314,1.17678,-20.0562,28.7151,-18.8807,11.5279,-21.1042
-0.686056,17.6107,-2.08982,5.55465,-5.96163,1.6556,1.11648,-0.733445,-3.97742,0.169401,-1.01781,1.85925,-0.348862,-0.504881,4.16107,-24.9904,-4.89356,-11.2721,20.1071,-3.9742,5.37955,10.9649,-2.01593,3.14646,2.00276e-14,-2.78299e-15,-30.9134,-20.0949,-75.2468,29.1864,22.2116,-21.7841,1.74268,7.12502,4.6172,-28.187,2.00276e-14,-2.78299e-15,-33.1853,16.8816,79.5541,26.2236,-7.51558,-6.06647,27.0445,7.12502,19.7685,56.0592,-15.3039,6.73952,11.3779,34.8709,-21.4672,-0.996066,2.3671,-10.5969,1.3317,-20.0186,29.1418,-19.1084,11.3023,-20.9083
-0.682848,17.6005,-2.0942,5.69005,-5.88867,1.49903,1.1708,-0.736077,-3.79192,0.135363,-1.02079,1.93509,-0.415896,-0.504391,4.13594,-25.0264,-4.81554,-11.1284,20.0363,-3.8471,5.12851,10.9246,-1.97708,3.05016,-6.65929e-15,1.47101e-14,-31.0214,-20.5562,-75.0048,29.3313,22.0249,-21.7088,1.44091,7.12502,4.68995,-28.4872,-6.65929e-15,1.47101e-14,-33.008,17.606,79.3226,25.6114,-7.18053,-6.63607,26.2823,7.12502,19.2208,55.3525,-15.6151,6.63418,11.5302,35.2374,-21.6104,-0.911905,2.4567,-11.0245,1.49419,-19.8363,29.6277,-19.2393,11.0976,-20.8683
-0.680549,17.5874,-2.10097,5.76242,-5.81247,1.67068,1.25688,-0.738878,-3.92762,0.0988733,-1.02966,1.89294,-0.499198,-0.505922,4.17093,-24.933,-4.73265,-11.2452,19.9234,-3.73952,5.29188,10.8619,-1.91564,3.14723,1.33683e-14,2.46493e-14,-31.1341,-20.9158,-74.8375,29.4828,21.5457,-21.9023,1.39968,7.12502,4.50315,-28.5325,1.33683e-14,2.46493e-14,-32.8741,18.2293,79.0093,25.1179,-6.80794,-6.64157,25.8955,7.12502,19.2155,54.9662,-15.9308,6.39519,11.3386,35.6812,-21.7416,-0.89622,1.45862,-11.4596,1.70903,-20.0123,30.2206,-19.5267,10.837,-20.7072
-0.676342,17.5697,-2.10991,5.85866,-5.69942,1.87802,1.32287,-0.741402,-4.0502,0.0941401,-1.03744,1.84121,-0.539085,-0.508497,4.18791,-25.0673,-4.70942,-11.5008,19.9772,-3.67673,5.60643,10.912,-1.86647,3.3168,2.19657e-14,7.15625e-15,-31.1604,-21.5726,-74.5529,29.5158,21.1692,-21.9061,1.78655,7.12502,4.49942,-28.1457,2.19657e-14,7.15625e-15,-32.7335,19.2564,78.6083,24.8092,-7.17296,-6.35815,25.67,7.12502,19.488,54.7134,-16.3203,6.07598,11.0842,36.2061,-21.8573,-0.702643,0.90585,-11.9705,2.08259,-20.241,30.9344,-19.8282,10.4996,-20.9747
-0.67358,17.546,-2.1162,5.90164,-5.66386,1.94328,1.43656,-0.732461,-4.08143,0.144907,-1.02978,1.83855,-0.550927,-0.505294,4.20408,-25.3452,-4.6482,-11.5013,20.0599,-3.55443,5.59841,10.9806,-1.80992,3.33505,1.22253e-14,-7.95139e-16,-31.0155,-22.6514,-74.1135,29.2555,21.4243,-21.8012,2.54579,7.12502,4.60069,-27.3843,1.22253e-14,-7.95139e-16,-32.477,20.8162,77.9734,24.3718,-8.03768,-6.64171,25.1012,7.12502,19.2154,54.1719,-16.6708,5.82734,10.9929,36.7827,-22.0097,-0.4498,0.627385,-12.4627,2.61271,-20.3083,31.7647,-20.2279,10.026,-20.7153
-0.672633,17.5179,-2.12265,5.85943,-5.63244,1.83577,1.71474,-0.719674,-3.96226,0.178874,-1.02018,1.87828,-0.674374,-0.4984,4.18192,-25.407,-4.56064,-11.352,19.8911,-3.43428,5.43595,10.9109,-1.76006,3.26767,1.12313e-14,2.8625e-14,-30.9438,-23.6388,-73.7142,29.0942,21.4934,-21.7813,2.72685,7.12502,4.61999,-27.2028,1.12313e-14,2.8625e-14,-32.2927,22.5692,77.2194,23.7316,-8.53815,-7.47933,24.5783,7.12502,18.4098,53.7272,-16.9216,5.66645,11.1137,37.4002,-22.2273,-0.258545,0.840151,-12.9211,3.10748,-20.1634,32.7243,-20.6823,9.55557,-20.398
-0.671204,17.4868,-2.13091,5.69732,-5.54719,1.52871,2.18948,-0.686565,-3.61816,0.209264,-0.983328,1.96735,-0.917354,-0.475823,4.08621,-25.3306,-4.51095,-11.3964,19.7052,-3.369,5.49537,10.8239,-1.72339,3.30539,9.34288e-15,-1.51076e-14,-30.9878,-24.4373,-73.3306,29.1507,21.1923,-21.759,2.66426,7.12502,4.64147,-27.2649,9.34288e-15,-1.51076e-14,-32.2186,23.9778,76.6128,23.1268,-8.15971,-7.95458,24.9176,7.12502,17.9525,54.109,-17.0404,5.52706,11.4844,38.0329,-22.503,-0.126745,1.03157,-13.3232,3.54894,-19.7767,33.8154,-21.1391,9.16743,-20.3707
-0.670913,17.4519,-2.14272,5.4724,-5.43109,1.12981,2.74187,-0.670107,-3.20407,0.315002,-0.964156,2.07879,-1.12513,-0.465056,3.97488,-25.4527,-4.45295,-11.2872,19.5832,-3.29075,5.4176,10.7891,-1.68503,3.26965,-1.49089e-15,-1.35174e-14,-30.9058,-25.092,-73.0602,29.2462,20.6533,-21.6471,2.86348,7.12502,4.74953,-27.0633,-1.49089e-15,-1.35174e-14,-32.0639,25.5304,75.9116,22.555,-7.99715,-7.94932,25.0126,7.12502,17.9576,54.2036,-17.1738,5.39377,11.9871,38.7667,-22.819,-0.198428,0.563851,-13.7257,3.98115,-19.2588,34.986,-21.5061,8.76002,-20.5877
-0.669131,17.4146,-2.15651,5.254,-5.36264,0.721176,3.28055,-0.647382,-2.75499,0.460139,-0.930336,2.15761,-1.28682,-0.449125,3.80864,-25.7357,-4.40652,-11.0423,19.4692,-3.24271,5.27086,10.7848,-1.65692,3.18094,1.88845e-15,1.51076e-14,-30.7459,-25.9139,-72.7937,29.3493,20.4323,-21.7639,2.68388,7.12502,4.63673,-27.2454,1.88845e-15,1.51076e-14,-31.8377,27.0658,75.1009,21.9935,-7.91295,-8.28177,24.9919,7.12502,17.6377,54.2119,-17.3697,5.18738,12.4869,39.5973,-23.1438,-0.277179,-1.20411,-14.1572,4.47661,-18.7333,36.2089,-21.9659,8.30969,-20.7315
-0.669061,17.3722,-2.17353,5.18903,-5.26043,0.624916,3.7298,-0.662848,-2.68175,0.488767,-0.956388,2.186,-1.50756,-0.458694,3.80521,-25.8518,-4.29457,-10.8177,19.3058,-3.11375,5.10992,10.7257,-1.59673,3.10391,-1.50082e-14,4.77083e-15,-30.6517,-26.3804,-72.5754,29.5662,19.702,-22.1006,2.13394,7.12502,4.31161,-27.8022,-1.50082e-14,4.77083e-15,-31.7308,28.3126,74.3671,21.6497,-7.58645,-8.61024,25.2422,7.12502,17.3216,54.4903,-17.7886,4.84397,12.6252,40.556,-23.4616,-0.229485,-2.22545,-14.8194,4.92917,-18.5557,37.4539,-22.4133,7.86361,-21.1409
-0.672321,17.3274,-2.19277,5.13002,-5.13845,0.488337,4.20193,-0.685302,-2.63348,0.491263,-0.991504,2.25884,-1.76602,-0.471497,3.86385,-25.9331,-4.17498,-10.6646,19.2293,-2.96294,4.98483,10.6933,-1.52982,3.05696,-1.30204e-14,-1.59028e-15,-30.541,-26.788,-72.2622,29.686,18.9181,-22.2039,1.93616,7.12502,4.21186,-28.0019,-1.30204e-14,-1.59028e-15,-31.7213,29.4826,73.6573,21.463,-7.36209,-8.97757,25.0806,7.12502,16.968,54.3595,-18.2654,4.60636,12.8307,41.6011,-23.8948,-0.212579,-3.11315,-15.513,5.30133,-18.3196,38.7142,-22.8592,7.49754,-21.5851
-0.672286,17.2778,-2.20462,5.00004,-5.13894,0.373949,4.60292,-0.630955,-2.56133,0.565454,-0.921844,2.30317,-1.92065,-0.435256,3.87162,-25.9672,-4.16697,-10.6323,19.1158,-2.95731,4.98359,10.6562,-1.52222,3.05049,2.75317e-14,7.95139e-16,-30.4338,-27.5836,-71.7632,29.7463,18.3187,-22.0011,2.48383,7.12502,4.4077,-27.4503,2.75317e-14,7.95139e-16,-31.5714,30.3269,73.1112,21.3016,-6.87611,-9.33172,25.2096,7.12502,16.6271,54.5174,-18.7233,4.39172,12.9719,42.7519,-24.2964,-0.00922164,-3.64105,-16.0427,5.71319,-18.136,40.0011,-23.3707,7.11389,-21.6379
-0.670641,17.2235,-2.21308,4.81345,-5.28108,0.321172,4.92836,-0.535234,-2.50771,0.775732,-0.798057,2.29338,-1.89769,-0.377403,3.82673,-26.1795,-4.16189,-10.5231,18.9029,-2.9573,4.96533,10.6123,-1.50947,3.02247,-3.67752e-15,-2.06736e-14,-30.0636,-28.2731,-71.4359,29.7882,17.7293,-21.9069,2.87822,7.12502,4.49868,-27.054,-3.67752e-15,-2.06736e-14,-31.1434,31.455,72.5154,21.0272,-6.66974,-9.60868,25.7323,7.12502,16.3605,55.0623,-19.1873,4.29969,13.0143,43.9996,-24.6864,0.30696,-3.34066,-16.4948,6.30191,-18.0408,41.3071,-23.8032,6.8213,-21.9037
-0.675575,17.1677,-2.23152,4.76527,-5.44188,0.326437,5.25643,-0.443263,-2.60559,0.884455,-0.687316,2.26905,-1.97767,-0.321658,3.85378,-26.4176,-4.11243,-10.4479,18.8197,-2.89316,4.98778,10.6164,-1.46725,3.02772,2.27608e-14,8.34896e-15,-29.7254,-28.5473,-71.2056,29.9235,16.8129,-22.0734,2.92056,7.12502,4.33787,-27.015,2.27608e-14,8.34896e-15,-30.8161,32.3464,71.8505,20.9569,-6.15151,-9.86552,26.3808,7.12502,16.1131,55.7309,-19.9633,4.2626,13.0192,45.3494,-24.9636,0.504957,-3.36383,-17.1907,6.99876,-17.984,42.6221,-24.2321,6.46188,-22.4013
-0.684024,17.1055,-2.2474,4.64294,-5.54017,0.576545,5.60258,-0.390257,-3.01602,0.985005,-0.648738,2.21667,-2.06671,-0.299697,4.03352,-26.5145,-4.02969,-10.3746,18.6522,-2.78414,4.95606,10.5603,-1.4117,3.01995,1.49089e-15,-1.86858e-14,-29.4552,-28.7243,-70.8941,30.1495,16.17,-22.0944,2.75951,7.12502,4.31762,-27.1765,1.49089e-15,-1.86858e-14,-30.6479,33.2223,71.047,21.0265,-5.39914,-9.95508,27.0186,7.12502,16.0269,56.3757,-20.668,4.15741,12.7798,46.793,-25.2565,0.781773,-3.35624,-17.8257,7.55559,-18.1722,43.9474,-24.5947,6.1322,-22.8883
-0.691221,17.0501,-2.25628,4.4609,-5.58605,0.790433,5.90497,-0.332169,-3.32711,1.11305,-0.59958,2.13758,-2.10552,-0.274712,4.12722,-26.5466,-3.98027,-10.2868,18.4543,-2.7496,4.98576,10.4888,-1.38138,3.01968,6.06293e-15,-6.75868e-15,-29.2454,-28.7229,-70.5497,30.4663,15.4485,-21.8026,2.68484,7.12502,4.5994,-27.2452,6.06293e-15,-6.75868e-15,-30.3518,33.5857,70.4034,21.2754,-4.42783,-9.95181,28.0207,7.12502,16.0301,57.3775,-21.2447,4.0695,12.5823,48.2728,-25.6662,0.921674,-3.8147,-18.3316,8.06837,-18.2946,45.283,-25.0559,5.54897,-22.6959
-0.700651,16.9903,-2.26733,4.30719,-5.58642,0.838314,6.20614,-0.287747,-3.47721,1.2575,-0.559349,2.08462,-2.12735,-0.255952,4.15702,-26.7677,-3.92071,-9.95409,18.3523,-2.72054,4.79137,10.4784,-1.36392,2.89757,-1.64991e-14,-1.31198e-14,-28.9632,-28.9565,-70.092,30.6647,15.0328,-21.6699,2.7612,7.12502,4.72755,-27.1661,-1.64991e-14,-1.31198e-14,-30.0082,34.2197,69.5412,21.6036,-3.82418,-10.161,28.456,7.12502,15.8286,57.8289,-21.8868,4.08274,12.573,49.7902,-26.1366,0.956878,-4.40109,-18.9018,8.54594,-18.2215,46.6297,-25.3628,5.07534,-22.943
-0.710967,16.9263,-2.27941,4.18969,-5.56668,0.841043,6.46484,-0.238206,-3.59423,1.41447,-0.508987,2.05917,-2.11348,-0.233458,4.19503,-27.0237,-3.85291,-9.79685,18.2617,-2.65687,4.78756,10.4811,-1.31925,2.87995,1.05356e-14,-1.39149e-14,-28.5634,-29.2907,-69.5479,30.8141,14.5988,-21.4073,2.50612,7.12502,4.98104,-27.4153,1.05356e-14,-1.39149e-14,-29.5262,34.9931,68.6281,21.7999,-3.4012,-10.9586,28.5267,7.12502,15.0604,57.9589,-22.5848,4.04293,12.6249,51.2953,-26.3943,1.01535,-4.62723,-19.5468,9.02682,-18.1061,48.0091,-25.6628,4.73207,-23.704
-0.722799,16.8564,-2.29315,4.0326,-5.52301,1.02608,6.717,-0.187608,-3.87043,1.57902,-0.470211,1.96218,-2.08603,-0.216697,4.24935,-27.2002,-3.85087,-9.82771,18.1409,-2.6717,4.99628,10.4716,-1.29736,2.95748,1.21259e-14,-2.78299e-15,-28.1849,-29.5751,-68.9533,31.0121,14.0904,-21.289,2.15719,7.12502,5.09529,-27.7615,1.21259e-14,-2.78299e-15,-28.9169,35.4783,67.7588,21.9364,-3.00962,-11.5544,28.6701,7.12502,14.4864,58.1444,-23.2922,3.94795,12.4651,52.8588,-26.4904,1.20591,-4.15661,-20.2084,9.43859,-18.1671,49.4538,-25.93,4.32834,-24.4159
-0.735858,16.7931,-2.30703,3.98116,-5.5492,1.01357,6.93796,-0.11378,-3.9848,1.64589,-0.388116,1.92773,-2.14769,-0.175072,4.27359,-27.107,-3.82381,-9.66886,17.8581,-2.68321,4.92394,10.3492,-1.29652,2.89957,-1.76918e-14,-1.59028e-14,-27.8972,-29.7198,-68.2464,31.2459,13.5805,-21.0114,1.84613,7.12502,5.36335,-28.066,-1.76918e-14,-1.59028e-14,-28.3047,35.7159,66.8173,21.8275,-2.58984,-11.9103,28.3596,7.12502,14.1435,57.8582,-24.0959,3.91186,12.5271,54.4147,-26.6001,1.18402,-4.76824,-20.9486,9.94479,-17.99,50.8896,-26.2394,3.68168,-24.7954
-0.748425,16.719,-2.31937,3.84828,-5.49747,0.901188,7.21944,-0.0795498,-3.94223,1.74264,-0.349761,1.89251,-2.20882,-0.156593,4.21175,-27.1664,-3.82288,-9.54855,17.7548,-2.73135,4.96855,10.324,-1.30183,2.88712,5.66536e-15,-9.14409e-15,-27.5825,-29.7759,-67.515,31.4718,13.2386,-21.1199,1.59406,7.12502,5.25859,-28.3207,5.66536e-15,-9.14409e-15,-27.6029,36.411,65.622,21.5383,-2.40896,-12.402,27.9387,7.12502,13.6696,57.4698,-24.7453,3.91568,12.6983,55.962,-26.7771,1.22285,-5.86311,-21.6048,10.393,-17.6716,52.3613,-26.5154,3.04899,-25.452
-0.758425,16.6519,-2.32129,3.56521,-5.41739,1.16981,7.46816,-0.0465606,-4.24205,1.87445,-0.340244,1.7546,-2.21032,-0.153307,4.23886,-27.0189,-3.81651,-9.57427,17.5279,-2.76615,5.14403,10.222,-1.29549,2.94694,1.55052e-14,1.31198e-14,-27.3144,-29.7205,-66.6373,31.7414,12.6655,-21.3725,1.50496,7.12502,5.0147,-28.4157,1.55052e-14,1.31198e-14,-26.9757,36.8664,64.3387,21.516,-2.08548,-12.7158,28.8973,7.12502,13.3671,58.4485,-25.1901,3.82773,12.4143,57.4002,-26.9008,1.09231,-8.41305,-22.0305,10.7283,-17.7755,53.7748,-26.8813,2.42815,-25.5489
-0.772088,16.586,-2.32337,3.43456,-5.21489,1.0462,7.63368,-0.0677327,-4.23746,1.93421,-0.372827,1.79894,-2.2367,-0.170111,4.28701,-26.9976,-3.79166,-9.57598,17.4879,-2.72667,5.11937,10.2002,-1.28024,2.94421,-8.44835e-15,-7.55382e-15,-27.0098,-29.8875,-65.4563,31.8672,12.276,-21.2784,1.74207,7.12502,5.10553,-28.1764,-8.44835e-15,-7.55382e-15,-26.4935,37.4017,62.9073,21.7363,-1.53398,-12.774,30.9419,7.12502,13.3111,60.4968,-25.6681,3.70501,12.6076,58.6993,-27.0517,0.836873,-10.537,-22.6134,10.9506,-17.4251,55.1727,-27.0988,1.72456,-25.5552
-0.787234,16.5177,-2.32681,3.36452,-4.98687,0.689145,7.7492,-0.119419,-3.98729,1.99662,-0.423696,1.88058,-2.23248,-0.197759,4.2359,-27.1645,-3.72471,-9.51253,17.5942,-2.64867,5.13858,10.2602,-1.23726,2.95538,-2.00773e-14,-4.37326e-15,-26.553,-30.0429,-64.247,31.9068,12.017,-21.2708,1.75457,7.12502,5.11289,-28.1637,-2.00773e-14,-4.37326e-15,-25.894,37.477,61.5465,22.1196,-0.26251,-12.8151,32.3596,7.12502,13.2714,61.917,-26.0841,3.58135,13.0507,59.8403,-27.2758,0.845912,-11.4014,-23.1931,11.193,-16.8006,56.4377,-27.2001,1.03362,-26.06
-0.802371,16.4491,-2.32606,3.24369,-4.71355,0.478112,7.81291,-0.174295,-3.86403,2.05704,-0.488007,1.90907,-2.19964,-0.232221,4.20201,-27.125,-3.67753,-9.61249,17.5784,-2.60183,5.35669,10.2486,-1.19551,3.05908,4.67144e-15,5.1684e-15,-26.0981,-30.2164,-62.9354,32.0085,11.8176,-21.2495,1.39799,7.12502,5.13342,-28.5198,4.67144e-15,5.1684e-15,-25.1889,37.4417,60.1248,22.3366,0.904468,-13.0896,32.276,7.12502,13.0068,61.8505,-26.3157,3.33539,13.3107,60.7913,-27.5923,1.01473,-12.0544,-23.5733,11.3725,-16.3296,57.4859,-27.5242,0.363659,-26.3135
-0.816283,16.3869,-2.3222,3.12207,-4.42208,0.409802,7.84658,-0.198145,-3.84522,2.07126,-0.519645,1.89074,-2.20081,-0.248249,4.17548,-26.9454,-3.65825,-9.60312,17.5196,-2.61108,5.41524,10.1981,-1.19302,3.07663,2.83268e-15,2.78299e-15,-25.7613,-30.8918,-61.3249,32.0656,11.9614,-21.1378,1.1419,7.12502,5.24133,-28.7733,2.83268e-15,2.78299e-15,-24.4422,37.3766,58.6424,22.4502,1.90799,-13.3817,32.0469,7.12502,12.7252,61.6391,-26.4605,2.99499,13.3754,61.5322,-27.8755,1.24616,-12.59,-23.7709,11.4635,-16.0333,58.2153,-27.9603,-0.300206,-25.7675
-0.831797,16.3468,-2.30921,3.00231,-4.12997,0.222079,7.85385,-0.261628,-3.73495,2.06906,-0.594405,1.9303,-2.20049,-0.285812,4.16136,-26.8641,-3.60846,-9.63134,17.6196,-2.55869,5.47989,10.2176,-1.16544,3.11508,1.92324e-14,-7.95139e-15,-25.4641,-31.4384,-59.6675,32.2746,11.8803,-21.3265,0.591715,7.12502,5.05914,-29.3279,1.92324e-14,-7.95139e-15,-23.8237,37.4211,57.0019,22.6297,2.61357,-12.9834,31.9683,7.12502,13.1092,61.5362,-26.4813,2.85094,13.5435,61.9848,-28.2786,1.66758,-12.4482,-23.7344,11.5873,-15.6267,58.6505,-28.4068,-0.861878,-25.6731
-0.84696,16.3221,-2.28886,2.91606,-3.82182,0.0664476,7.77782,-0.364594,-3.68259,2.01713,-0.723615,1.97767,-2.19927,-0.34944,4.19252,-26.765,-3.50444,-9.62569,17.7926,-2.43469,5.48748,10.2532,-1.11121,3.14016,-6.95746e-16,1.90833e-14,-25.2126,-31.6657,-57.9652,32.6202,11.3727,-21.6724,0.145636,7.12502,4.72506,-29.7817,-6.95746e-16,1.90833e-14,-23.3432,37.381,55.2406,22.9319,3.39473,-12.8306,32.0274,7.12502,13.2565,61.5859,-26.3693,2.66416,13.6768,62.1547,-28.6175,2.14598,-11.7435,-23.6243,11.7239,-15.3078,58.8232,-28.8239,-1.22578,-25.7912
-0.858714,16.2978,-2.26879,2.83926,-3.57638,0.0464274,7.6222,-0.42365,-3.76324,1.98556,-0.803158,1.99284,-2.13606,-0.389755,4.2591,-26.6677,-3.46548,-9.64261,17.9421,-2.38718,5.48129,10.2871,-1.09506,3.15083,-1.93815e-15,-2.14687e-14,-24.8915,-31.9961,-56.1652,33.0432,10.7065,-22.0153,-0.325297,7.12502,4.39397,-30.2597,-1.93815e-15,-2.14687e-14,-22.5337,36.7339,53.833,23.5241,5.19878,-13.5124,33.3901,7.12502,12.5992,62.9902,-26.0153,2.3278,13.7201,62.0311,-28.7602,2.54221,-10.9995,-23.5495,11.8672,-15.1918,58.826,-29.265,-1.44832,-25.837
-0.870687,16.2884,-2.24598,2.70514,-3.39277,0.00258698,7.50924,-0.460267,-3.85585,1.97441,-0.854206,2.03594,-2.07738,-0.416191,4.35937,-26.6731,-3.45811,-9.67965,18.1798,-2.36641,5.47467,10.3735,-1.09291,3.16182,2.21645e-14,2.74323e-14,-24.4474,-32.0711,-54.4038,33.5087,9.60341,-22.6166,-1.06053,7.12502,3.81337,-31.0062,2.21645e-14,2.74323e-14,-21.728,37.1449,52.0453,23.3908,6.11657,-14.2468,33.5374,7.12502,11.8911,63.1797,-25.3635,2.03935,13.8253,61.6752,-28.9891,2.88193,-10.6286,-23.3219,12.119,-15.0753,58.6311,-29.6075,-1.5865,-25.9097
-0.88031,16.2963,-2.21574,2.62896,-3.16419,-0.132676,7.28838,-0.55484,-3.80038,1.90066,-0.968009,2.07535,-2.01943,-0.473157,4.37555,-26.5602,-3.34681,-9.62475,18.4396,-2.23388,5.39903,10.4361,-1.04361,3.15136,2.08724e-14,-5.1684e-15,-24.1161,-32.1817,-52.5896,34.0392,8.51977,-22.906,-1.30134,7.12502,3.53392,-31.2518,2.08724e-14,-5.1684e-15,-21.0338,38.1968,49.8729,22.9179,6.05001,-14.4908,33.2188,7.12502,11.6559,62.8746,-24.7095,1.73894,14.0313,61.1054,-29.1265,3.00461,-10.3185,-22.9181,12.2423,-14.8895,58.1964,-29.9461,-1.68982,-25.4804
-0.886914,16.313,-2.18602,2.54062,-2.95576,-0.186532,7.11851,-0.625379,-3.7835,1.77759,-1.05554,2.08024,-2.04351,-0.513894,4.37657,-26.3264,-3.28012,-9.59992,18.6063,-2.16737,5.34651,10.45,-1.02367,3.14154,-1.19768e-14,3.97569e-16,-23.8918,-32.3632,-50.6108,34.5033,7.75018,-23.3265,-1.75957,7.12502,3.12781,-31.7164,-1.19768e-14,3.97569e-16,-20.4463,38.4087,47.8663,22.8849,6.66177,-14.7827,33.3826,7.12502,11.3743,63.0541,-24.0966,1.39845,14.1536,60.3664,-29.0567,2.82735,-10.7685,-22.3461,12.284,-14.8198,57.5366,-30.112,-1.63109,-25.0263
-0.895549,16.3502,-2.15727,2.45331,-2.79038,-0.246842,7.00329,-0.658779,-3.81538,1.63781,-1.09839,2.11092,-2.11835,-0.530559,4.42975,-26.1792,-3.24228,-9.61735,18.8336,-2.1281,5.34105,10.5045,-1.01341,3.15262,1.9133e-14,7.55382e-15,-23.6256,-32.6555,-48.5899,35.0136,7.39054,-23.629,-2.53205,7.12502,2.83568,-32.4929,1.9133e-14,7.55382e-15,-19.8419,38.0384,46.0364,22.9539,7.82571,-15.0381,33.3574,7.12502,11.128,63.0423,-23.4162,1.18851,14.2855,59.4534,-28.8765,2.9711,-9.44384,-21.7152,12.2887,-14.7391,56.6835,-30.0766,-1.48517,-25.1026
-0.902124,16.4124,-2.12935,2.41957,-2.5745,-0.359438,6.84579,-0.714251,-3.81078,1.49747,-1.16494,2.21018,-2.16686,-0.55978,4.53484,-26.128,-3.2094,-9.70938,19.0958,-2.049,5.30316,10.5861,-0.994419,3.17128,-1.63997e-15,-9.54166e-15,-23.1427,-32.8945,-46.6129,35.4491,7.34068,-24.395,-3.613,7.12502,2.09584,-33.5825,-1.63997e-15,-9.54166e-15,-19.321,38.3999,44.1474,22.8988,8.12365,-14.7105,33.0807,7.12502,11.444,62.7484,-22.7277,1.01532,14.4807,58.3966,-28.5094,3.00167,-8.27424,-21.1133,12.0965,-14.6129,55.6852,-29.6392,-1.36586,-25.3257
-0.908779,16.4907,-2.10073,2.41979,-2.28515,-0.541624,6.60848,-0.790936,-3.73194,1.41134,-1.25191,2.31654,-2.11375,-0.603202,4.60383,-26.0972,-3.17992,-9.76725,19.225,-1.98809,5.28764,10.6237,-0.975802,3.18735,-3.52346e-14,5.1684e-15,-22.6989,-33.1335,-44.7256,36.0313,7.48946,-25.2098,-4.55011,7.12502,1.30896,-34.5258,-3.52346e-14,5.1684e-15,-18.6718,38.2827,42.4656,23.0965,8.93046,-15.0065,33.2941,7.12502,11.1585,62.9774,-22.04,0.765136,14.7579,57.2177,-27.9391,2.73075,-8.18427,-20.5516,11.7641,-14.3904,54.6185,-28.8429,-1.51725,-25.4247
-0.914144,16.584,-2.06671,2.3481,-2.01188,-0.60852,6.40284,-0.864544,-3.78858,1.34728,-1.34592,2.39501,-2.05192,-0.650174,4.72117,-26.2004,-3.14278,-9.79263,19.4487,-1.91868,5.2817,10.7188,-0.949997,3.20527,-3.00662e-14,2.0276e-14,-22.2193,-33.3113,-42.8758,36.3907,8.1089,-26.2919,-4.78581,7.12502,0.263823,-34.7654,-3.00662e-14,2.0276e-14,-18.0274,38.4858,40.7854,23.2664,9.3289,-14.9072,33.8016,7.12502,11.2542,63.4797,-21.2131,0.655106,14.8942,55.9402,-27.1493,2.48903,-8.0822,-19.8658,11.3949,-14.2639,53.4706,-27.8255,-1.79226,-25.6511
-0.917844,16.6905,-2.03121,2.30166,-1.75828,-0.605618,6.14819,-0.929197,-3.94423,1.24757,-1.43261,2.48613,-1.99705,-0.692117,4.90642,-26.2879,-3.11576,-9.83793,19.7103,-1.84161,5.21375,10.8246,-0.931446,3.20551,5.26779e-15,-9.54166e-15,-21.6685,-33.3134,-41.0379,36.7829,8.37102,-26.9832,-5.18675,7.12502,-0.403859,-35.1661,5.26779e-15,-9.54166e-15,-17.4962,38.6918,39.166,23.4104,9.82003,-14.8172,33.6181,7.12502,11.341,63.2915,-20.3492,0.602491,14.9108,54.5728,-26.0587,2.4854,-7.30114,-19.2061,10.9885,-14.1949,52.2502,-26.5157,-2.44624,-25.1579
-0.920638,16.8225,-1.99374,2.38289,-1.4909,-0.598418,5.77064,-1.00031,-4.07064,1.10742,-1.52195,2.56342,-1.91541,-0.735411,5.05751,-26.3293,-3.08277,-9.80187,19.8907,-1.78275,5.11387,10.8928,-0.918057,3.17592,-1.66979e-14,3.57812e-15,-21.2504,-33.3602,-39.2014,37.433,8.31795,-27.4902,-5.81036,7.12502,-0.893532,-35.7882,-1.66979e-14,3.57812e-15,-16.9586,38.7407,37.672,23.6337,10.4696,-15.4006,33.0516,7.12502,10.7783,62.7551,-19.6533,0.629574,14.8886,53.1539,-24.7107,2.3765,-7.28448,-18.7303,10.5815,-14.155,50.9487,-24.8169,-3.1705,-24.694
-0.921081,16.9831,-1.94789,2.46189,-1.26675,-0.581607,5.29094,-1.06977,-4.20135,1.00557,-1.60514,2.64324,-1.73675,-0.77924,5.20886,-26.3584,-3.05657,-9.83956,20.0797,-1.72599,5.09161,10.9639,-0.901788,3.1871,-1.18774e-14,2.62396e-14,-20.888,-33.1538,-37.4868,38.3282,7.93351,-28.0092,-6.5343,7.12502,-1.39477,-36.5095,-1.18774e-14,2.62396e-14,-16.5076,38.5203,36.2993,24.128,11.6849,-15.9065,33.0324,7.12502,10.2903,62.7606,-18.9437,0.794454,14.7915,51.6948,-23.2036,2.32306,-6.99493,-18.1765,10.2469,-14.1126,49.5701,-22.7042,-4.16025,-23.4659
-0.92163,17.1376,-1.90729,2.44657,-1.00501,-0.547847,4.91972,-1.15469,-4.37275,0.922229,-1.71361,2.73421,-1.59411,-0.835106,5.39862,-26.3378,-3.0218,-9.94398,20.2282,-1.64705,5.11237,11.0104,-0.874997,3.2281,2.34566e-14,4.77083e-15,-20.3996,-33.0862,-35.8524,39.0253,8.08184,-28.5932,-6.86908,7.12502,-1.95883,-36.8398,2.34566e-14,4.77083e-15,-15.9927,38.0225,35.1084,24.6593,13.3806,-16.4311,33.3639,7.12502,9.78426,63.1166,-18.1483,0.922446,14.6779,50.2922,-21.2356,2.05016,-6.00269,-17.4353,9.95367,-14.0523,48.1509,-20.3156,-5.17869,-22.3469
-0.922668,17.2892,-1.87466,2.41541,-0.797485,-0.590827,4.63419,-1.17532,-4.40641,0.823567,-1.73202,2.79921,-1.53092,-0.843819,5.48011,-26.3593,-3.03459,-9.94388,20.4849,-1.64741,5.03907,11.1101,-0.89012,3.20585,0,-9.93923e-15,-20.0346,-33.4142,-34.2253,39.7099,8.39984,-28.8917,-6.86216,7.12502,-2.24707,-36.8301,0,-9.93923e-15,-15.1429,38.2774,34.0699,24.8982,13.96,-16.6564,33.4311,7.12502,9.56684,63.1939,-17.4068,0.989708,14.6627,48.9128,-18.7071,1.68416,-4.54292,-16.7118,9.64876,-13.8868,46.7214,-17.8919,-5.98254,-23.6202
-0.922574,17.4488,-1.84298,2.42416,-0.676129,-0.458659,4.29523,-1.1705,-4.55966,0.733553,-1.72156,2.76527,-1.43194,-0.838834,5.52272,-26.2727,-3.04406,-9.90567,20.5894,-1.68132,5.0165,11.1361,-0.908427,3.18727,1.25234e-14,-3.18055e-15,-19.7773,-33.4734,-32.7049,40.5409,8.29087,-28.813,-6.8237,7.12502,-2.17113,-36.7924,1.25234e-14,-3.18055e-15,-14.3006,38.9336,32.9069,25.0464,13.6792,-16.0646,33.1037,7.12502,10.1379,62.8394,-16.8184,1.09328,14.4078,47.5885,-16.3401,1.46366,-3.82404,-16.042,9.4934,-13.8969,45.276,-15.3759,-6.81896,-25.9798
-0.920347,17.6225,-1.80922,2.44552,-0.51067,-0.457426,3.95515,-1.18147,-4.5753,0.599966,-1.72463,2.77407,-1.37835,-0.838796,5.53325,-26.1801,-3.07023,-9.88532,20.8521,-1.73961,5.01122,11.2231,-0.940347,3.17717,8.99501e-15,1.98785e-15,-19.618,-33.1725,-31.1859,41.4694,7.67361,-28.7216,-6.65322,7.12502,-2.0828,-36.6228,8.99501e-15,1.98785e-15,-13.8233,39.1333,31.7376,25.5563,13.6431,-15.1835,32.5118,7.12502,10.9878,62.2043,-16.2529,1.17886,14.2613,46.2293,-14.2459,1.22111,-3.35107,-15.4248,9.25945,-13.7384,43.8548,-12.5719,-7.70849,-26.9578
-0.917028,17.803,-1.77294,2.42727,-0.377695,-0.363421,3.59415,-1.21394,-4.69816,0.487286,-1.75977,2.77853,-1.28402,-0.85611,5.60068,-26.155,-3.04486,-9.81082,21.1301,-1.70361,4.87263,11.3187,-0.942539,3.12452,5.41688e-15,-1.15295e-14,-19.2487,-32.9972,-29.8229,42.3285,7.15882,-28.6921,-6.57106,7.12502,-2.05431,-36.5409,5.41688e-15,-1.15295e-14,-13.4811,38.7841,30.5776,26.2508,14.0154,-14.4768,32.3118,7.12502,11.6694,61.9669,-15.617,1.15909,13.9884,44.8525,-11.7946,0.770267,-3.02768,-14.8,9.06786,-13.6369,42.3881,-9.36486,-8.71219,-26.8747
-0.908326,17.9787,-1.73682,2.42354,-0.249588,-0.356729,3.21405,-1.26245,-4.61266,0.345696,-1.80777,2.75171,-1.21439,-0.879323,5.51657,-26.1366,-2.96003,-9.81524,21.4877,-1.61948,4.97463,11.4444,-0.899286,3.18571,2.43511e-15,-1.47101e-14,-18.9446,-32.7747,-28.5488,43.2284,6.79406,-28.7244,-6.35772,7.12502,-2.08553,-36.3273,2.43511e-15,-1.47101e-14,-13.1157,39.0009,29.3545,26.888,13.7524,-13.6756,32.2409,7.12502,12.4419,61.8505,-14.9906,0.930769,13.7708,43.4586,-8.60023,0.233995,-1.33262,-14.2373,8.80236,-13.4254,40.8824,-5.73139,-9.58854,-26.4254
-0.90167,18.1523,-1.70383,2.38717,-0.223653,-0.393962,2.92545,-1.25976,-4.44438,0.200486,-1.78881,2.7053,-1.21155,-0.867329,5.36535,-26.1539,-2.92116,-9.86829,21.8887,-1.58557,5.10608,11.5989,-0.879535,3.25914,-1.0312e-14,1.63003e-14,-18.651,-32.5159,-27.3207,44.072,6.4446,-28.5833,-5.71502,7.12502,-1.9493,-35.6859,-1.0312e-14,1.63003e-14,-12.4592,38.8795,28.4125,27.6321,14.6215,-15.0029,33.0444,7.12502,11.1619,62.7276,-14.4627,0.857648,13.6113,42.0827,-5.38016,-0.807281,1.23732,-13.6059,8.47277,-13.1156,39.2527,-1.86165,-10.3174,-25.5032
-0.894244,18.3176,-1.66873,2.28065,-0.198691,-0.323673,2.74721,-1.27239,-4.40977,0.0482664,-1.79929,2.65099,-1.27014,-0.867638,5.28663,-26.1002,-2.88766,-9.96463,22.3266,-1.55234,5.24166,11.7561,-0.864995,3.34254,7.7526e-15,2.78299e-14,-18.2174,-32.2425,-26.1565,44.9116,6.19385,-28.0538,-5.53628,7.12502,-1.43792,-35.5112,7.7526e-15,2.78299e-14,-12.0508,37.4512,27.5124,28.9033,17.7399,-17.9567,34.59,7.12502,8.31212,64.4065,-13.9637,0.779294,13.2931,40.7261,-2.31914,-2.20549,3.38412,-12.8686,7.98131,-12.9092,37.5098,2.12081,-10.5784,-25.4007
-0.882876,18.4861,-1.63089,2.28976,-0.216176,-0.159223,2.40057,-1.28547,-4.44087,-0.105987,-1.80672,2.56481,-1.23567,-0.868821,5.2069,-25.9482,-2.84745,-10.0489,22.6664,-1.52652,5.38406,11.8584,-0.850769,3.4232,5.86415e-15,7.55382e-15,-17.5652,-32.184,-25.1045,45.5309,6.1766,-27.732,-5.23303,7.12502,-1.12704,-35.2098,5.86415e-15,7.55382e-15,-11.7443,36.1311,26.4787,30.2133,20.2084,-18.412,34.6894,7.12502,7.87271,64.5228,-13.6462,0.760824,12.8166,39.3927,0.626983,-3.95304,6.61765,-12.2295,7.22696,-12.8245,35.6523,6.22058,-10.3145,-24.4429
-0.868072,18.6491,-1.59351,2.21691,-0.214855,-0.3067,2.15365,-1.29319,-4.11081,-0.259147,-1.79971,2.56351,-1.26583,-0.863286,5.01317,-25.7252,-2.78332,-10.0512,22.9184,-1.46438,5.37963,11.9085,-0.831757,3.438,2.27857e-14,-4.77083e-15,-16.9295,-31.9139,-23.9908,46.2537,6.0856,-27.5053,-4.78066,7.12502,-0.908166,-34.7585,2.27857e-14,-4.77083e-15,-11.3184,35.8483,25.3693,31.1131,20.7403,-17.3356,34.1921,7.12502,8.91149,63.9839,-13.2592,0.808201,12.6737,38.1011,3.45851,-5.72933,8.57085,-11.5367,6.22115,-12.3705,33.7888,10.1847,-9.74987,-23.1646
-0.852842,18.7994,-1.55882,2.09445,-0.191527,-0.395093,2.08595,-1.33468,-3.84335,-0.483892,-1.84625,2.55045,-1.46265,-0.878812,4.85108,-25.6643,-2.65499,-10.0185,23.3496,-1.31398,5.38877,12.0503,-0.770941,3.47336,6.84565e-15,-3.29983e-14,-16.1906,-31.4109,-22.9373,46.9571,6.00604,-27.6808,-4.34028,7.12502,-1.07759,-34.3173,6.84565e-15,-3.29983e-14,-11.0151,35.448,24.0652,31.9866,20.9616,-16.5702,34.4211,7.12502,9.65008,64.1801,-12.8286,0.851805,12.4522,36.8747,5.80997,-7.36756,10.5633,-10.8304,5.04914,-11.9828,32.0176,13.4405,-9.24473,-22.5155
-0.838756,18.9345,-1.52694,2.03106,-0.158577,-0.461438,1.91349,-1.3544,-3.57915,-0.642399,-1.86118,2.50892,-1.53686,-0.883874,4.6561,-25.7042,-2.5523,-9.90354,23.7025,-1.21384,5.37856,12.1853,-0.72491,3.47783,1.44243e-14,-2.34566e-14,-15.3631,-31.0341,-21.8287,47.562,5.8445,-27.4191,-3.85227,7.12502,-0.824874,-33.8304,1.44243e-14,-2.34566e-14,-10.4881,35.0969,22.8584,32.8903,21.139,-16.0974,34.5845,7.12502,10.1062,64.3218,-12.4763,0.862264,12.2245,35.7715,7.55138,-8.34493,9.91763,-10.2538,3.78113,-11.6394,30.483,15.4673,-9.13867,-21.7105
-0.826322,19.0604,-1.49821,2.12754,-0.140634,-0.494021,1.60593,-1.37865,-3.38487,-0.814654,-1.88045,2.5128,-1.54532,-0.892053,4.54446,-25.8382,-2.46203,-9.99056,24.0675,-1.0471,5.39817,12.3401,-0.663851,3.54053,1.19892e-14,-2.38542e-15,-14.2397,-30.8278,-20.7397,47.9164,5.96138,-27.3999,-3.40247,7.12502,-0.806319,-33.3807,1.19892e-14,-2.38542e-15,-9.89634,35.0181,21.742,33.7281,21.206,-15.8599,34.6342,7.12502,10.3353,64.3602,-12.2962,1.02721,11.9617,34.8601,8.09727,-8.77035,9.06256,-9.92181,2.48252,-11.3544,29.237,16.3358,-9.30664,-20.6468
-0.810754,19.1701,-1.47198,2.18954,-0.139312,-0.590791,1.35608,-1.35977,-3.09657,-0.933952,-1.8421,2.54762,-1.53929,-0.873762,4.41127,-25.9193,-2.50089,-10.2352,24.3076,-1.03644,5.53072,12.4527,-0.669412,3.64255,-2.17607e-14,2.78299e-14,-13.0712,-30.836,-19.5938,48.2938,6.24323,-27.2276,-3.09824,7.12502,-0.639908,-33.077,-2.17607e-14,2.78299e-14,-9.12267,34.9318,20.7537,34.5392,21.2729,-15.3228,34.4758,7.12502,10.8534,64.1753,-12.0818,1.1202,11.7632,34.1384,7.46737,-8.87468,8.4269,-9.63131,1.25996,-11.0097,28.306,16.1842,-9.21115,-20.1715
-0.797441,19.2668,-1.44822,2.21511,-0.258433,-0.584386,1.12319,-1.30616,-2.9318,-1.00827,-1.76247,2.51326,-1.49857,-0.835446,4.27532,-26.0681,-2.47715,-10.0608,24.5182,-0.978547,5.26156,12.558,-0.668767,3.52568,3.43525e-15,-2.18663e-14,-11.9108,-30.7166,-18.4601,48.6971,6.25137,-26.8299,-2.95451,7.12502,-0.255823,-32.9341,3.43525e-15,-2.18663e-14,-8.29795,34.5248,19.6621,35.4417,21.5354,-14.8304,34.609,7.12502,11.3283,64.283,-11.9094,1.35906,11.4634,33.5997,5.99046,-8.89438,8.16792,-9.28483,0.161174,-10.7805,27.6045,15.1621,-8.43844,-21.1669
-0.786492,19.3524,-1.4315,2.20459,-0.423559,-0.60669,0.991592,-1.23702,-2.75424,-1.05849,-1.66488,2.45096,-1.49216,-0.788129,4.10567,-26.2799,-2.44157,-9.94285,24.7124,-0.94516,5.22901,12.6723,-0.650309,3.50664,-1.26353e-14,2.22639e-14,-10.6553,-30.8317,-17.4668,49.0154,6.34617,-26.5486,-2.6744,7.12502,0.0158444,-32.6541,-1.26353e-14,2.22639e-14,-7.23608,34.5268,18.6002,36.2188,21.3203,-14.2514,34.612,7.12502,11.8867,64.2545,-11.7852,1.82286,11.1857,33.2239,4.06108,-8.99418,9.77051,-8.91057,-0.695388,-10.5362,27.0861,13.6613,-6.75845,-21.9864
-0.773962,19.4337,-1.4159,2.16841,-0.576018,-0.373015,0.939815,-1.16293,-2.81158,-1.13632,-1.56709,2.34105,-1.55357,-0.736577,4.02238,-26.5196,-2.42327,-9.98041,24.9988,-0.899756,5.29442,12.8304,-0.630161,3.55752,-1.29987e-14,3.57812e-15,-9.2795,-30.798,-16.4112,49.1934,6.37145,-26.7736,-2.45192,7.12502,-0.201424,-32.4316,-1.29987e-14,3.57812e-15,-6.02055,34.888,17.7261,36.8777,20.8118,-14.0432,34.7481,7.12502,12.0875,64.3789,-11.6837,2.22822,10.5991,32.9786,2.19992,-8.8935,10.3111,-8.4962,-1.4157,-10.5946,26.6889,12.0781,-4.41959,-20.8419
-0.766376,19.5034,-1.4034,2.10622,-0.786479,-0.230575,0.958789,-1.0687,-2.86716,-1.1999,-1.44327,2.28013,-1.64104,-0.67145,3.98987,-26.7295,-2.41663,-9.87699,25.2356,-0.865123,5.14109,12.9633,-0.631116,3.49464,-2.02263e-14,9.54166e-15,-7.93619,-30.7319,-15.2924,49.4215,6.31508,-26.9384,-2.55186,7.12502,-0.360557,-32.5313,-2.02263e-14,9.54166e-15,-4.91296,34.945,16.8123,37.7536,20.6158,-14.3101,34.7914,7.12502,11.8301,64.4373,-11.6053,2.69857,10.1485,32.8024,0.451409,-8.90028,10.2968,-8.09073,-1.67891,-10.5311,26.3651,10.4023,-2.60484,-21.5277
-0.761551,19.5594,-1.40283,1.89417,-0.930654,-0.251458,1.3054,-0.968893,-2.80512,-1.24899,-1.31543,2.28434,-1.89914,-0.602206,3.96505,-26.9002,-2.43064,-9.81587,25.4468,-0.831948,4.94436,13.0797,-0.643085,3.4198,-5.42902e-15,8.34896e-15,-6.55758,-30.8681,-14.1345,49.6118,6.27374,-27.0494,-2.59377,7.12502,-0.467755,-32.573,-5.42902e-15,8.34896e-15,-3.83795,34.7269,15.8743,38.6879,20.4977,-14.5905,34.9804,7.12502,11.5597,64.6416,-11.4104,3.10899,9.91602,32.6634,-1.02225,-9.18943,10.6708,-7.61004,-1.74811,-10.2214,26.0471,9.08656,-0.882053,-22.5942
-0.757535,19.607,-1.40332,1.68482,-1.05316,-0.15966,1.67039,-0.903474,-2.86468,-1.29498,-1.23727,2.25563,-2.15827,-0.556396,3.97548,-27.0215,-2.41661,-9.83703,25.5955,-0.787275,4.93504,13.1607,-0.630175,3.43327,-2.28152e-14,1.31198e-14,-4.90388,-31.1003,-13.2185,49.6704,6.17671,-27.3567,-2.79737,7.12502,-0.764609,-32.7757,-2.28152e-14,1.31198e-14,-2.81108,34.549,14.8299,39.6462,20.3658,-14.8494,35.1623,7.12502,11.31,64.8374,-11.2426,3.602,9.56036,32.5546,-2.28726,-9.65438,11.404,-7.10631,-1.66755,-10.0408,25.6988,8.04756,0.353806,-24.7088
-0.747729,19.6467,-1.39584,1.47457,-1.19002,0.0757293,1.92154,-0.833801,-2.94225,-1.32399,-1.15431,2.12867,-2.33803,-0.510469,3.89054,-27.1262,-2.38828,-9.84126,25.758,-0.749059,4.98089,13.2446,-0.610921,3.46532,2.41182e-14,-2.18663e-14,-3.26628,-31.4349,-12.4144,49.7087,6.25642,-27.6263,-3.10235,7.12502,-1.02494,-33.0796,2.41182e-14,-2.18663e-14,-1.65651,34.6145,13.8694,40.6012,19.841,-15.0009,35.3302,7.12502,11.1639,65.0132,-11.033,3.75393,8.9715,32.4263,-2.80528,-9.8606,10.8927,-6.55029,-1.65184,-10.0561,25.3746,7.21485,1.59341,-24.8336
-0.737999,19.6737,-1.38294,1.33907,-1.37388,0.520558,1.93635,-0.750118,-3.26346,-1.30478,-1.05556,1.98778,-2.33273,-0.457394,3.92253,-27.2083,-2.41247,-9.96731,25.7833,-0.731408,5.01889,13.2708,-0.610745,3.5063,5.5815e-15,-2.46493e-14,-1.56035,-31.8213,-11.5315,49.7532,6.15969,-27.7045,-3.36477,7.12502,-1.10053,-33.3417,5.5815e-15,-2.46493e-14,-0.484471,34.8126,12.9769,41.5805,19.3093,-15.4756,35.3126,7.12502,10.706,65.0198,-10.8897,3.82859,8.11313,32.2702,-2.9322,-10.0301,9.91013,-6.06988,-1.75819,-10.3166,25.0878,6.23997,2.73545,-24.5716
-0.730811,19.6913,-1.37611,1.22074,-1.53332,0.594969,2.04106,-0.708956,-3.31343,-1.32798,-1.00468,2.00261,-2.41935,-0.428707,3.9666,-27.2772,-2.3467,-9.93916,25.8501,-0.599784,4.88811,13.2998,-0.570851,3.47634,-7.86131e-15,4.37326e-15,0.314828,-32.1916,-10.7465,49.7354,6.11119,-27.6832,-3.28312,7.12502,-1.07998,-33.2601,-7.86131e-15,4.37326e-15,0.47169,34.9717,11.9923,42.6983,18.8135,-16.2314,35.545,7.12502,9.97694,65.2885,-10.7595,4.10247,7.69717,32.1049,-2.98272,-10.4777,9.38712,-5.62333,-1.64647,-10.1188,24.8437,5.61169,3.42488,-23.403
-0.721851,19.6969,-1.37194,1.11054,-1.60333,0.603507,2.21774,-0.680537,-3.22046,-1.37857,-0.969384,1.96532,-2.57625,-0.408708,3.87775,-27.2842,-2.26292,-9.74375,25.86,-0.507757,4.71207,13.2956,-0.536449,3.39074,-6.70898e-16,-9.93923e-15,2.12709,-32.7069,-10.1305,49.7667,5.95242,-27.5865,-2.75917,7.12502,-0.986501,-32.7366,-6.70898e-16,-9.93923e-15,1.67847,35.3711,11.1888,43.8268,18.1194,-16.5548,35.5318,7.12502,9.66492,65.29,-10.6478,4.19041,7.35554,31.9465,-2.90132,-11.0908,9.51446,-5.25077,-1.62473,-9.85284,24.6961,5.64717,3.66735,-21.8918
-0.71448,19.6902,-1.36947,0.932827,-1.65633,0.630068,2.50593,-0.626918,-3.1784,-1.42496,-0.904782,1.93011,-2.79353,-0.372078,3.82027,-27.181,-2.23844,-9.80095,25.8178,-0.504948,4.85422,13.2574,-0.519708,3.45574,-6.17475e-15,-1.07344e-14,3.88196,-33.3543,-9.53319,49.8571,5.74925,-27.6101,-2.76203,7.12502,-1.00935,-32.7394,-6.17475e-15,-1.07344e-14,2.99215,35.7508,10.5176,44.9761,17.34,-16.5964,35.3141,7.12502,9.62474,65.0743,-10.4698,4.3139,7.01546,31.7898,-2.71383,-12.0031,8.70084,-4.95262,-1.70509,-9.60058,24.6776,5.73546,4.0994,-21.7529
-0.706872,19.674,-1.37101,0.805238,-1.64598,0.618111,2.78865,-0.624257,-3.10856,-1.50978,-0.905718,1.93688,-3.04141,-0.3672,3.7939,-27.082,-2.19736,-9.93636,25.8611,-0.44071,4.98432,13.2504,-0.488422,3.54296,2.00648e-15,-1.51076e-14,5.76479,-33.8868,-9.06719,50.0582,5.65528,-27.7414,-3.59102,7.12502,-1.13617,-33.5677,2.00648e-15,-1.51076e-14,4.21176,36.2507,9.93557,46.2068,16.2118,-16.7301,35.0428,7.12502,9.49575,64.8089,-10.3492,4.46318,6.71021,31.6437,-2.54346,-12.9823,8.41562,-4.75236,-1.68787,-9.26656,24.7243,5.74529,4.34356,-22.6413
-0.699409,19.6453,-1.37443,0.660497,-1.59978,0.771221,3.10909,-0.632388,-3.23138,-1.59555,-0.931157,1.91291,-3.30766,-0.370375,3.84678,-26.9961,-2.168,-9.97517,25.9288,-0.384909,4.96103,13.2566,-0.473914,3.55175,6.07536e-15,2.0276e-14,7.70733,-34.479,-8.73503,50.2783,5.59465,-27.8675,-4.38146,7.12502,-1.25791,-34.3575,6.07536e-15,2.0276e-14,5.40714,36.6302,9.34516,47.4882,15.1219,-16.9855,35.482,7.12502,9.24932,65.2591,-10.2068,4.63736,6.20645,31.5356,-2.38159,-13.7774,9.22685,-4.55576,-1.81398,-9.11194,24.796,6.48961,4.2869,-20.8127
-0.691614,19.6048,-1.37481,0.49308,-1.53456,0.720554,3.40085,-0.631615,-3.12169,-1.63945,-0.932431,1.92004,-3.51923,-0.368093,3.79828,-27.0853,-2.18336,-9.89691,26.0986,-0.373897,4.78175,13.3441,-0.491665,3.47485,-9.98893e-15,1.74931e-14,9.62794,-35.1603,-8.48998,50.5691,5.58672,-27.463,-5.01659,7.12502,-0.867292,-34.9946,-9.98893e-15,1.74931e-14,6.63534,37.0245,8.80064,48.7996,13.8118,-17.8857,35.1099,7.12502,8.38067,64.9236,-10.0142,4.87054,5.96215,31.4228,-1.73277,-14.5603,9.65631,-4.37107,-2.02863,-8.71902,24.967,7.35238,4.02217,-18.8204
-0.68324,19.5512,-1.37796,0.354335,-1.44452,0.687737,3.68741,-0.603954,-3.01437,-1.71128,-0.898281,1.8904,-3.76062,-0.347733,3.71094,-27.0557,-2.22329,-9.90179,26.2281,-0.454577,4.84667,13.3994,-0.521812,3.49054,-5.75233e-15,1.31198e-14,11.4471,-35.9859,-8.31046,50.9819,6.01458,-26.9393,-5.81871,7.12502,-0.361459,-35.7982,-5.75233e-15,1.31198e-14,8.12883,37.6107,8.57993,50.1067,12.0198,-18.8835,33.0369,7.12502,7.41757,62.8868,-9.81503,5.0226,5.69589,31.2908,-0.727209,-15.2249,10.0316,-4.27347,-2.32287,-8.35349,25.2151,7.90929,3.58092,-18.3272
-0.675567,19.4843,-1.38243,0.214153,-1.2925,0.529711,3.96965,-0.646505,-2.74254,-1.78447,-0.94602,1.91006,-3.99556,-0.372267,3.58745,-26.8395,-2.21694,-10.1074,26.2703,-0.44846,5.05189,13.3743,-0.513161,3.60806,-8.13775e-15,1.90833e-14,13.3412,-36.7135,-8.2735,51.5805,6.24367,-26.6233,-6.62115,7.12502,-0.0563057,-36.6009,-8.13775e-15,1.90833e-14,9.64664,38.2855,8.33349,51.2474,10.1856,-19.6105,31.9345,7.12502,6.7158,61.808,-9.60354,5.07178,5.58027,31.1597,0.0656171,-15.7374,10.2305,-4.2532,-2.37076,-7.81906,25.5318,8.40543,2.72493,-18.8475
-0.670991,19.409,-1.38688,0.0170948,-1.20512,0.380899,4.24102,-0.632247,-2.53358,-1.77017,-0.919446,1.92889,-4.13902,-0.361706,3.49211,-26.6824,-2.25223,-10.1863,26.1825,-0.486798,5.0638,13.311,-0.534744,3.61443,-1.3008e-14,-3.97569e-16,15.0783,-37.4633,-8.16924,52.2838,6.39047,-25.9825,-7.48523,7.12502,0.562616,-37.4642,-1.3008e-14,-3.97569e-16,11.4572,39.1205,8.36908,52.3138,8.19338,-19.1129,30.8753,7.12502,7.19619,60.7329,-9.38295,5.45793,5.49437,31.0654,0.514299,-15.9846,10.1,-4.15914,-2.37674,-7.29474,25.8883,8.8619,1.85576,-18.8556
-0.668882,19.3161,-1.39031,-0.190233,-1.07845,0.209304,4.45074,-0.596183,-2.27907,-1.67863,-0.861275,1.88401,-4.17084,-0.340814,3.29978,-26.6779,-2.33589,-10.0785,26.0677,-0.629233,4.99058,13.2756,-0.593058,3.5368,-8.74653e-15,-1.66979e-14,16.6828,-38.2626,-8.08118,53.0151,6.50812,-25.2493,-8.12517,7.12502,1.27081,-38.1011,-8.74653e-15,-1.66979e-14,13.5743,40.036,8.57581,53.4225,6.26046,-19.4775,30.7769,7.12502,6.84421,60.6462,-9.11901,5.87527,5.43694,31.0085,0.66987,-15.8609,9.89642,-4.10568,-2.41281,-6.72583,26.2928,9.21658,0.919668,-18.8733
-0.663286,19.2104,-1.39265,-0.34939,-0.87032,0.0866168,4.60969,-0.593841,-2.05013,-1.60621,-0.848166,1.83798,-4.18989,-0.341565,3.12346,-26.5912,-2.39583,-10.0816,25.9034,-0.742429,5.05287,13.2011,-0.629675,3.53543,1.03741e-14,1.59028e-14,18.2515,-38.9882,-8.04219,53.8506,6.75038,-24.9769,-8.81681,7.12502,1.53387,-38.791,1.03741e-14,1.59028e-14,15.6645,40.8288,8.80659,54.5721,4.4967,-19.7975,30.7856,7.12502,6.53528,60.6648,-8.87005,6.09655,5.30455,31.0068,0.9852,-15.293,7.83913,-4.17577,-2.68861,-6.23498,26.745,9.44535,0.115151,-19.4179
-0.657444,19.0926,-1.39305,-0.553302,-0.598195,-0.031345,4.82761,-0.644045,-1.84987,-1.55055,-0.906502,1.80614,-4.25452,-0.375904,2.98531,-26.6649,-2.44519,-10.0925,25.9555,-0.835545,5.16257,13.246,-0.656573,3.56631,-1.15916e-14,-7.15625e-15,19.9048,-39.665,-8.18016,54.808,7.20157,-24.8406,-9.4189,7.12502,1.66549,-39.3921,-1.15916e-14,-7.15625e-15,17.5827,41.3484,8.87881,55.8019,3.11794,-20.4601,31.0322,7.12502,5.89559,60.9302,-8.53272,6.30839,5.13846,31.061,1.02296,-14.5271,7.34997,-4.23171,-2.99613,-5.75567,27.3143,9.39929,-0.87216,-19.8237
-0.652535,18.9605,-1.39486,-0.766538,-0.357377,-0.079214,5.08358,-0.694051,-1.73827,-1.50445,-0.97036,1.76705,-4.34964,-0.410172,2.89139,-26.7531,-2.46799,-10.0637,26.0303,-0.888815,5.21744,13.2991,-0.670319,3.57681,-3.8266e-15,-1.27222e-14,21.7912,-40.3536,-8.55536,55.7345,7.69286,-24.7043,-9.58408,7.12502,1.79717,-39.5563,-3.8266e-15,-1.27222e-14,19.531,42.0245,9.01537,56.9947,1.38163,-21.0748,31.1979,7.12502,5.30215,61.1115,-8.22318,6.53645,4.92928,31.1719,1.18606,-13.4409,5.18467,-4.32984,-3.27223,-5.37278,28.0036,9.24903,-2.05075,-20.2232
-0.649663,18.8197,-1.40231,-0.966583,-0.104015,-0.291016,5.3756,-0.750255,-1.52853,-1.46579,-1.03126,1.82096,-4.47348,-0.443897,2.83993,-26.5914,-2.50252,-10.1052,25.8343,-0.940349,5.22766,13.1915,-0.691474,3.57067,3.10601e-15,-1.43125e-14,23.6786,-40.8934,-8.85756,56.7947,7.87975,-24.8218,-9.27275,7.12502,1.68372,-39.2459,3.10601e-15,-1.43125e-14,21.5489,42.7458,9.33569,58.1887,-0.553175,-21.016,30.0792,7.12502,5.35889,59.9914,-7.95786,6.88094,4.95335,31.3408,1.22929,-12.3204,2.42243,-4.51986,-3.42481,-4.77306,28.8317,9.05612,-3.29213,-20.508
-0.647117,18.67,-1.40883,-1.08294,0.0799503,-0.577231,5.56124,-0.784348,-1.28938,-1.41869,-1.05551,1.94487,-4.53002,-0.460372,2.83941,-26.633,-2.54558,-10.2086,25.7779,-0.950325,5.22305,13.1788,-0.705234,3.58273,4.50993e-15,-6.36111e-15,25.6286,-41.423,-9.17089,57.8337,8.0846,-25.0763,-9.2501,7.12502,1.43785,-39.225,4.50993e-15,-6.36111e-15,23.5293,43.4733,9.78805,59.5348,-2.22988,-20.5394,30.3709,7.12502,5.81903,60.271,-7.83911,7.25663,5.06067,31.6406,1.47081,-11.1039,0.661428,-4.81206,-3.5869,-4.10807,29.7626,8.73086,-4.43295,-21.0016
-0.645028,18.503,-1.4138,-1.34903,0.334019,-0.726558,5.79563,-0.818795,-1.16784,-1.27589,-1.09193,2.00183,-4.51304,-0.482403,2.83631,-26.7525,-2.60911,-10.3466,25.7465,-0.987544,5.28755,13.1947,-0.72452,3.62464,-3.11843e-15,-1.66979e-14,27.4796,-42.0285,-9.43064,58.9749,8.61632,-25.2158,-9.60631,7.12502,1.30317,-39.5821,-3.11843e-15,-1.66979e-14,25.8135,44.2314,10.5559,60.9228,-3.7908,-21.3648,30.5254,7.12502,5.0221,60.4459,-7.59033,7.44964,5.03698,32.0998,1.97979,-9.3957,-1.67551,-5.01941,-3.85305,-3.60517,30.7888,8.13423,-5.57942,-23.5435
-0.642299,18.3185,-1.41962,-1.64472,0.662862,-0.736597,6.01971,-0.873031,-1.15664,-1.10567,-1.16695,1.96827,-4.45918,-0.522515,2.80434,-26.8611,-2.64926,-10.3341,25.7001,-1.05672,5.35067,13.2035,-0.74219,3.63448,-1.47722e-14,-2.78299e-15,29.3208,-42.6655,-9.88078,60.3134,9.34939,-25.2048,-9.92569,7.12502,1.31378,-39.9014,-1.47722e-14,-2.78299e-15,28.0694,44.8444,11.224,62.4092,-5.18831,-21.3469,30.5261,7.12502,5.03937,60.4462,-7.37577,7.55205,4.89465,32.8628,2.11738,-7.17945,-4.92015,-5.29696,-4.26534,-3.28469,31.9295,6.88076,-6.74084,-27.9667
-0.638419,18.1262,-1.42985,-1.98288,0.909475,-0.813835,6.38771,-0.904728,-1.07254,-0.978817,-1.20629,1.92545,-4.53549,-0.54477,2.72276,-26.7877,-2.68526,-10.1845,25.4938,-1.16204,5.29862,13.1126,-0.77555,3.5621,5.684e-15,1.47101e-14,31.0969,-43.1811,-10.42,61.7551,10.0801,-25.2077,-9.76619,7.12502,1.31094,-39.7419,5.684e-15,1.47101e-14,30.305,45.3426,11.8506,63.9986,-6.35538,-21.102,30.2343,7.12502,5.27589,60.1487,-7.21182,7.52851,4.86939,33.9926,1.23103,-4.70127,-6.71166,-5.5333,-4.6197,-2.92987,33.2205,4.88161,-8.05786,-32.264
-0.636429,17.9178,-1.44916,-2.16227,1.14663,-0.925125,6.74957,-0.92639,-1.05358,-0.981252,-1.23178,1.97366,-4.74076,-0.554529,2.77395,-26.5818,-2.71617,-10.1402,25.337,-1.23119,5.24756,13.0141,-0.806263,3.51527,3.0998e-15,-1.59028e-15,32.7686,-43.4921,-10.724,63.2309,10.9038,-25.2085,-9.46853,7.12502,1.31019,-39.4443,3.0998e-15,-1.59028e-15,32.5677,45.7088,12.763,65.606,-7.59052,-21.1991,30.0909,7.12502,5.1821,60.0075,-7.32519,7.37391,4.88194,35.5337,-1.21664,-2.34736,-5.912,-5.98396,-4.74878,-2.51315,34.6993,2.09068,-9.40011,-35.7789
-0.638336,17.7113,-1.47582,-2.2813,1.33506,-1.16511,7.15342,-0.946044,-0.94709,-0.994511,-1.24331,2.08253,-4.98254,-0.558311,2.83936,-26.5052,-2.76135,-10.3398,25.2461,-1.27914,5.4401,12.9696,-0.818075,3.61316,1.12872e-14,1.59028e-15,34.3596,-43.7212,-10.8916,64.7705,11.6487,-25.4879,-9.26396,7.12502,1.04039,-39.2412,1.12872e-14,1.59028e-15,34.7788,46.0246,13.7415,67.2654,-8.73065,-21.7649,29.0692,7.12502,4.63578,58.9985,-7.67346,7.03968,5.05531,37.3676,-4.21503,-0.452474,-7.99617,-6.50601,-4.71796,-1.91829,36.3545,-1.242,-10.2383,-38.3441
-0.638042,17.5113,-1.49931,-2.44209,1.48783,-1.1659,7.52051,-0.94831,-1.05404,-0.905497,-1.25549,2.10927,-5.09389,-0.560089,2.93694,-26.7372,-2.79864,-10.4024,25.3022,-1.31746,5.56363,13.0427,-0.822899,3.66929,-4.93856e-15,1.07344e-14,35.976,-44.0901,-11.1819,66.4544,12.2375,-25.9728,-8.65823,7.12502,0.571982,-38.6372,-4.93856e-15,1.07344e-14,36.7468,46.3612,14.4054,69.058,-9.51254,-22.0519,28.3706,7.12502,4.35861,58.3057,-8.17315,6.54981,4.93384,39.4251,-6.72407,1.26136,-12.6095,-6.85978,-4.55902,-1.65419,38.1053,-4.66515,-10.6055,-35.6075
-0.636669,17.3164,-1.51263,-2.65924,1.67042,-1.10671,7.8954,-0.935706,-1.16998,-0.815022,-1.25299,2.06714,-5.21003,-0.555209,2.96622,-26.8326,-2.81877,-10.2987,25.2353,-1.3645,5.52131,13.0371,-0.836515,3.62503,1.47473e-14,-3.57812e-15,37.305,-44.3562,-11.3188,68.2485,13.2087,-26.6712,-8.48859,7.12502,-0.102496,-38.4683,1.47473e-14,-3.57812e-15,38.6797,46.5661,14.9581,70.842,-10.3095,-23.1034,28.9683,7.12502,3.34328,58.9218,-8.71026,6.06121,4.7975,41.5526,-8.81752,3.1057,-15.0906,-7.18173,-4.38303,-1.4797,39.8505,-7.66244,-10.6465,-36.9716
-0.634477,17.1254,-1.52189,-2.86917,1.82922,-0.83404,8.24243,-0.898191,-1.51686,-0.713621,-1.24391,1.97872,-5.2955,-0.541634,3.07573,-26.8199,-2.86434,-10.1899,25.0769,-1.44819,5.43633,12.9764,-0.870567,3.55255,1.4238e-14,-1.03368e-14,38.4171,-44.5291,-11.3798,70.2298,14.4114,-27.6121,-8.5218,7.12502,-1.01131,-38.4991,1.4238e-14,-1.03368e-14,40.514,46.7175,15.5737,72.6898,-11.3336,-24.5962,27.758,7.12502,1.90158,57.7293,-9.35955,5.36316,4.42382,43.7196,-11.0558,4.42613,-16.7863,-7.62234,-4.03998,-1.57708,41.5424,-10.7305,-10.6572,-39.5796
-0.629774,16.9406,-1.53277,-3.19122,1.88767,-0.778003,8.78419,-0.851534,-1.61247,-0.569084,-1.19804,1.9413,-5.45206,-0.515545,3.09614,-27.023,-2.92537,-10.058,25.0168,-1.54276,5.35946,12.9985,-0.90658,3.48186,-2.67459e-14,6.36111e-15,39.4699,-44.7251,-11.3912,72.325,15.3364,-28.8251,-8.1422,7.12502,-2.18284,-38.1108,-2.67459e-14,6.36111e-15,42.2789,46.8833,16.2015,74.594,-12.4455,-25.8749,27.0568,7.12502,0.666534,57.0356,-10.0047,4.75335,4.31785,45.9053,-13.8368,4.56908,-19.182,-7.96832,-3.54993,-1.47734,43.1757,-13.6016,-10.8018,-40.8595
-0.629865,16.7641,-1.54944,-3.54522,1.92924,-0.67904,9.50023,-0.806839,-1.81028,-0.482844,-1.16899,1.90093,-5.76522,-0.4914,3.17882,-27.0147,-2.94595,-10.0498,24.8924,-1.60758,5.46541,12.9527,-0.916086,3.50705,8.4732e-15,2.38542e-15,40.5416,-44.7749,-11.6767,74.5583,16.1866,-30.2183,-6.59296,7.12502,-3.5283,-36.5435,8.4732e-15,2.38542e-15,43.7199,46.9414,16.6097,76.5418,-13.6643,-27.5828,26.4022,7.12502,-0.982976,56.3797,-10.6813,4.34045,4.22194,48.1146,-16.5355,4.24654,-20.5974,-8.30188,-2.98095,-1.4299,44.7643,-15.976,-10.7348,-42.0687
-0.630063,16.5921,-1.5667,-3.9689,1.91375,-0.255353,10.3096,-0.718144,-2.30769,-0.450679,-1.12908,1.75635,-6.18568,-0.450868,3.32286,-26.645,-2.8997,-10.1024,24.6053,-1.62447,5.68421,12.768,-0.894333,3.58902,1.39677e-14,1.19271e-15,41.1445,-44.5657,-11.726,76.9227,17.0745,-32.7924,-4.66243,7.12502,-6.01379,-34.5571,1.39677e-14,1.19271e-15,44.7775,46.8339,16.669,78.5625,-14.7444,-31.1809,26.1673,7.12502,-4.45785,56.1004,-11.257,3.87784,3.75401,50.2806,-18.5801,4.40117,-19.895,-8.46631,-2.37936,-1.75581,46.3212,-18.1507,-10.1238,-41.4597
-0.636667,16.4261,-1.58517,-4.53263,1.81331,0.184897,11.2198,-0.58056,-2.91547,-0.341327,-1.0486,1.65143,-6.58274,-0.385835,3.56509,-26.5405,-2.88469,-10.061,24.5388,-1.63426,5.69408,12.7214,-0.892681,3.58165,3.80486e-15,0,41.3894,-44.3835,-11.5441,79.3615,17.6863,-36.2119,-2.13644,7.12502,-9.3143,-31.9107,3.80486e-15,0,45.5808,46.6871,16.6013,80.6257,-15.3725,-34.1891,24.553,7.12502,-7.36211,54.4049,-11.6743,3.48391,3.32164,52.3073,-20.3476,4.33349,-20.2811,-8.43322,-1.6692,-2.07205,47.8118,-20.1853,-9.45385,-37.7667
-0.647991,16.2722,-1.60406,-5.0843,1.72284,0.511272,11.9788,-0.454257,-3.36789,-0.113684,-0.971573,1.50364,-6.77145,-0.334105,3.66656,-26.6052,-2.90425,-9.96797,24.4079,-1.70733,5.74716,12.6872,-0.904721,3.5704,-7.24671e-15,2.78299e-15,41.7205,-44.4356,-11.6163,81.5008,18.1105,-40.2734,1.50358,7.12502,-13.2313,-28.0565,-7.24671e-15,2.78299e-15,46.1689,46.583,16.262,82.6403,-15.4104,-37.136,22.3379,7.12502,-10.2058,52.0703,-11.9887,3.21614,3.05065,54.1296,-22.1575,3.68784,-22.3796,-8.39351,-0.947788,-2.22305,49.1692,-21.943,-9.27121,-37.6286
-0.660554,16.1431,-1.62099,-5.50566,1.64872,0.931818,12.6566,-0.368004,-3.93961,0.0487316,-0.971157,1.35234,-6.97474,-0.314284,3.8437,-26.2108,-2.83945,-10.2927,23.8273,-1.68989,6.33706,12.386,-0.83711,3.83973,-1.46782e-14,3.97569e-15,42.135,-44.3052,-11.8653,83.4041,18.1209,-44.8465,6.18143,7.12502,-17.636,-23.0387,-1.46782e-14,3.97569e-15,46.1803,46.4717,15.4697,84.4691,-15.2523,-40.4186,20.4705,7.12502,-13.3713,50.0215,-12.3195,3.07516,2.61075,55.7044,-23.6517,3.48904,-22.4473,-8.4218,-0.1717,-2.46676,50.3383,-23.3594,-9.03601,-37.6262
-0.67621,16.034,-1.63252,-5.7171,1.47933,1.3155,13.0117,-0.277552,-4.55544,0.150707,-0.962172,1.26754,-7.05923,-0.289563,4.10861,-25.4726,-2.67344,-10.8833,23.0268,-1.52136,7.15987,11.9259,-0.69569,4.25631,-1.34288e-14,1.70955e-14,42.5127,-44.0125,-12.1666,84.9998,18.4074,-49.1125,10.7188,7.12502,-21.7371,-18.0807,-1.34288e-14,1.70955e-14,45.9174,46.4156,14.6259,85.9333,-15.4461,-42.8841,18.4943,7.12502,-15.7467,47.8737,-12.7778,3.14425,2.17919,57.0327,-24.7195,3.89156,-20.9445,-8.53771,0.671848,-2.60495,51.3146,-24.4318,-8.75946,-36.8435
-0.692516,15.9475,-1.63641,-5.76015,1.1249,1.29938,13.0275,-0.165545,-4.75387,0.224407,-0.840747,1.29476,-6.999,-0.22634,4.22743,-24.9698,-2.62803,-11.2946,22.5264,-1.49235,7.69255,11.6425,-0.644338,4.51339,-7.65166e-15,2.38542e-15,42.7481,-43.6536,-12.3554,86.1454,19.8375,-52.7691,14.164,7.12502,-25.2445,-14.1859,-7.65166e-15,2.38542e-15,45.699,46.3908,14.0111,87.0102,-15.9431,-44.4494,16.1,7.12502,-17.2538,45.3541,-13.3612,3.45722,2.24477,58.1043,-25.6415,3.76361,-22.1466,-8.67444,1.504,-2.28766,52.096,-25.4612,-8.41308,-37.0026
-0.700282,15.8798,-1.63015,-5.70757,0.925187,1.11831,12.8033,-0.172607,-4.65766,0.279528,-0.823224,1.30975,-6.81653,-0.227471,4.17958,-24.6707,-2.61266,-11.372,22.3696,-1.51444,7.84226,11.5305,-0.642338,4.57141,1.53716e-14,-4.37326e-15,42.9096,-43.2399,-12.6989,86.896,22.5135,-55.6896,16.0979,7.12502,-28.0395,-11.827,1.53716e-14,-4.37326e-15,45.2474,46.2451,13.17,87.6261,-16.3269,-45.394,13.923,7.12502,-18.1628,43.095,-13.821,3.66004,2.43328,58.9019,-26.4778,3.32811,-24.9669,-8.8961,2.06543,-1.84531,52.7349,-26.3886,-8.64215,-36.4731
-0.702798,15.8246,-1.61887,-5.73794,0.967163,1.15659,12.5843,-0.2264,-4.64337,0.332472,-0.888234,1.21273,-6.6314,-0.267987,4.0738,-24.6046,-2.49238,-11.2343,22.3223,-1.42035,7.90029,11.4878,-0.579943,4.58381,-1.35997e-14,-1.68967e-14,42.8061,-42.77,-12.968,87.2173,25.4101,-57.3791,16.3552,7.12502,-29.6534,-11.2943,-1.35997e-14,-1.68967e-14,44.7622,45.8464,12.4466,87.7536,-16.615,-46.0201,12.8144,7.12502,-18.765,41.9293,-13.938,3.77543,2.32425,59.4211,-27.0575,3.2934,-25.9741,-9.02384,2.27044,-1.70787,53.2238,-27.0535,-9.25694,-36.2592
-0.706145,15.7927,-1.61071,-5.8242,1.29724,1.21641,12.5418,-0.348903,-4.619,0.346116,-1.05282,1.10191,-6.57814,-0.352906,3.96965,-24.4092,-2.56069,-11.5097,22.4157,-1.53657,8.25071,11.5049,-0.615807,4.74703,-3.21161e-15,4.17448e-15,42.3443,-42.2496,-12.9131,87.1871,26.9544,-57.7735,15.7476,7.12502,-30.0298,-11.8343,-3.21161e-15,4.17448e-15,44.1023,45.284,11.7625,87.4154,-16.7281,-46.0875,12.803,7.12502,-18.8298,41.9116,-13.7541,3.61527,2.19084,59.6658,-27.3966,3.4502,-25.6727,-9.30516,2.13051,-1.70453,53.5941,-27.5326,-9.39012,-35.3691
-0.710811,15.786,-1.60009,-6.01366,1.76713,0.913186,12.6253,-0.54357,-4.24121,0.3327,-1.26126,1.09507,-6.62562,-0.465203,3.78685,-24.6363,-2.61227,-11.3255,22.9631,-1.61919,8.06038,11.7637,-0.669727,4.65235,1.40042e-14,-1.25234e-14,41.5575,-41.5226,-12.6772,86.9121,26.6684,-56.7617,13.9516,7.12502,-29.0639,-13.8011,1.40042e-14,-1.25234e-14,43.2929,44.5396,11.2402,86.6455,-16.6766,-45.6894,13.0324,7.12502,-18.4469,42.1777,-13.2658,3.34918,2.54051,59.6541,-27.554,3.44859,-25.5602,-9.53464,1.87961,-1.34323,53.7505,-27.7728,-9.35277,-33.2682
-0.720802,15.7911,-1.58841,-6.15967,2.15783,0.652672,12.617,-0.712344,-4.05508,0.268796,-1.45412,1.16891,-6.67303,-0.561805,3.79487,-25.1228,-2.71028,-11.0114,23.8302,-1.6813,7.46978,12.1935,-0.759616,4.39645,-1.50412e-14,4.77083e-15,40.625,-40.5688,-12.4039,86.4618,24.8765,-55.008,12.9097,7.12502,-27.3878,-15.12,-1.50412e-14,4.77083e-15,42.0874,43.5911,10.674,85.4816,-16.3904,-44.8869,13.4357,7.12502,-17.6748,42.6524,-12.8232,3.05613,2.88326,59.491,-27.608,3.26833,-26.1665,-9.5502,1.57707,-1.05523,53.6246,-27.8521,-9.36964,-32.7135
-0.730907,15.8076,-1.57503,-6.16751,2.52063,0.63294,12.3253,-0.809746,-4.1285,0.20228,-1.58203,1.18981,-6.56542,-0.623751,3.87349,-25.0621,-2.77406,-10.8097,24.3146,-1.73922,7.01304,12.374,-0.840147,4.1899,-2.58606e-14,1.11319e-14,39.4205,-39.6215,-12.095,85.7906,22.8059,-53.4558,11.7124,7.12502,-25.9023,-16.5431,-2.58606e-14,1.11319e-14,40.8403,42.5218,10.2473,83.958,-15.6006,-44.0439,13.8909,7.12502,-16.8634,43.1787,-12.4698,2.7836,2.94342,59.1627,-27.4366,3.2582,-25.7286,-9.34696,1.19078,-1.08804,53.1679,-27.7578,-9.47742,-31.9861
-0.735957,15.8386,-1.55887,-6.17256,2.80471,0.78113,11.9776,-0.85829,-4.28882,0.196011,-1.65787,1.14192,-6.36634,-0.66249,3.91531,-24.9145,-2.82004,-10.7883,24.6202,-1.7685,6.77624,12.4683,-0.892381,4.09725,-4.07819e-15,7.7526e-15,38.2075,-38.8018,-12.0229,84.8389,21.0537,-51.7524,10.5352,7.12502,-24.2702,-17.9486,-4.07819e-15,7.7526e-15,39.4785,41.5003,9.87955,82.2257,-14.4055,-42.8195,14.1269,7.12502,-15.6845,43.5113,-12.0536,2.52218,2.77972,58.6826,-27.1,3.38201,-24.6914,-8.84715,0.676833,-1.41468,52.4071,-27.484,-9.16255,-31.1428
-0.745396,15.9043,-1.53877,-6.19621,2.98777,0.749461,11.7702,-0.880505,-4.35446,0.11572,-1.68634,1.18177,-6.32937,-0.67356,3.99455,-24.8729,-2.84327,-10.8188,25.0167,-1.75373,6.60737,12.6166,-0.921845,4.05158,7.63147e-15,2.78299e-15,36.8856,-37.9513,-11.9379,83.6155,19.5285,-49.9565,9.26516,7.12502,-22.5473,-19.4383,7.63147e-15,2.78299e-15,38.0034,40.3509,9.5669,80.2842,-12.9708,-41.0868,14.3834,7.12502,-14.0153,43.8909,-11.5658,2.40618,2.91845,57.9976,-26.5552,3.4594,-23.1524,-8.39166,0.233837,-1.57757,51.4126,-26.7141,-8.90097,-30.5135
-0.75433,16.0049,-1.51266,-6.01825,3.09907,0.740022,11.333,-0.865873,-4.42508,-0.0772982,-1.65859,1.21518,-6.28833,-0.65512,4.05549,-24.5593,-2.87212,-10.9013,25.2547,-1.78229,6.52854,12.6545,-0.962937,4.03485,-6.49156e-15,-7.55382e-15,35.2061,-37.0212,-11.7509,82.3747,18.0437,-48.0492,8.11901,7.12502,-20.7156,-20.7953,-6.49156e-15,-7.55382e-15,36.3485,39.0738,9.27248,78.2264,-11.767,-39.3597,14.8385,7.12502,-12.3505,44.4537,-11.2581,2.34902,3.06624,57.1453,-25.8453,3.26936,-23.029,-8.03552,-0.162943,-1.82625,50.1978,-25.6788,-8.50987,-30.462
-0.762615,16.1033,-1.49154,-5.75052,3.17383,0.826345,10.7117,-0.841011,-4.59688,-0.219408,-1.62117,1.23352,-6.08762,-0.634828,4.14948,-24.3918,-2.88211,-10.8373,25.4611,-1.76922,6.27462,12.701,-0.992774,3.93151,-4.21175e-15,-1.45113e-14,33.604,-36.2662,-11.8091,80.9761,17.0151,-46.1319,7.15223,7.12502,-18.8725,-21.9522,-4.21175e-15,-1.45113e-14,34.6941,37.904,9.16885,76.0848,-11.1013,-37.4906,15.7184,7.12502,-10.5479,45.4337,-11.066,2.29078,3.06819,56.1711,-24.7952,3.04404,-23.689,-7.49403,-0.679028,-2.19565,48.8087,-24.6348,-8.01207,-31.6357
-0.770347,16.2122,-1.47136,-5.6451,3.19001,0.926163,10.2074,-0.80676,-4.80954,-0.289705,-1.57776,1.25938,-5.87606,-0.612026,4.27652,-24.2579,-2.85847,-10.8553,25.7031,-1.73236,6.21734,12.7682,-0.993634,3.92551,2.25993e-14,-1.21259e-14,31.9536,-35.5217,-12.0685,79.5247,16.2815,-44.6646,6.37833,7.12502,-17.4609,-22.8575,2.25993e-14,-1.21259e-14,32.8938,36.7743,9.2092,73.9896,-10.7813,-35.3979,16.1798,7.12502,-8.5288,45.9876,-10.6653,2.48911,3.07195,55.0667,-23.485,3.08411,-22.5952,-6.71305,-1.31732,-2.62414,47.319,-23.4716,-7.06312,-35.0553
-0.777215,16.345,-1.45191,-5.56256,3.16257,0.918844,9.7981,-0.75501,-4.81802,-0.369105,-1.49243,1.24357,-5.73831,-0.572884,4.2415,-24.0505,-2.84185,-10.9585,25.8998,-1.74665,6.3743,12.8102,-0.995754,4.00797,8.67198e-15,7.95139e-16,29.9964,-34.7506,-12.2683,78.0828,15.7052,-43.3174,5.39842,7.12502,-16.164,-23.9476,8.67198e-15,7.95139e-16,31.0591,35.5464,9.36776,72.1485,-10.3483,-33.6845,17.3598,7.12502,-6.87499,47.2281,-10.1656,2.89409,3.24858,53.8436,-22.1578,3.07434,-20.9366,-6.05565,-1.94031,-2.90905,45.8026,-21.832,-6.55736,-36.9312
-0.78301,16.4901,-1.43219,-5.3908,3.21027,0.826347,9.27774,-0.772144,-4.68381,-0.425673,-1.47714,1.22561,-5.50904,-0.575668,4.13006,-24.0066,-2.82819,-11.077,26.0228,-1.75412,6.58417,12.8547,-0.985574,4.1143,1.11816e-16,-1.03368e-14,27.9611,-34.0745,-12.6636,76.7838,15.3317,-41.4529,4.06647,7.12502,-14.368,-25.4163,1.11816e-16,-1.03368e-14,29.0204,34.3278,9.37546,70.3637,-9.83845,-31.9431,18.6617,7.12502,-5.19378,48.578,-9.7001,3.1485,3.4883,52.502,-20.5755,3.04709,-20.0919,-5.60757,-2.60734,-3.08942,44.367,-19.9071,-6.24978,-37.8176
-0.791621,16.6552,-1.41116,-5.26949,3.3098,0.831178,8.95061,-0.816076,-4.7698,-0.584422,-1.52966,1.27693,-5.48275,-0.5961,4.23331,-23.8941,-2.78486,-11.2422,26.2177,-1.68195,6.70085,12.9063,-0.96079,4.20781,2.69477e-14,-6.95746e-15,25.9727,-33.2902,-13.188,75.5857,14.9963,-40.0159,3.02905,7.12502,-12.9831,-26.547,2.69477e-14,-6.95746e-15,26.6598,32.9216,9.35843,68.5475,-9.36884,-30.3175,19.7776,7.12502,-3.6241,49.7265,-9.18662,3.53756,3.67294,51.061,-18.7687,2.56893,-20.5254,-5.14806,-3.44326,-3.4079,43.013,-17.7322,-6.0231,-38.6351
-0.798013,16.8349,-1.38925,-5.09832,3.42213,0.733867,8.56203,-0.873417,-4.76202,-0.775713,-1.58493,1.37436,-5.45619,-0.619277,4.33081,-23.6652,-2.72247,-11.3007,26.4255,-1.59157,6.6641,12.9354,-0.940096,4.22471,1.7754e-14,8.74653e-15,23.9746,-32.5673,-13.877,74.4341,14.9462,-38.911,1.99512,7.12502,-11.9179,-27.6457,1.7754e-14,8.74653e-15,24.234,31.4689,9.52623,66.9121,-8.91654,-28.6726,20.8464,7.12502,-2.03553,50.8165,-8.68587,3.80763,3.98507,49.5429,-16.6789,1.58866,-21.19,-4.83741,-4.18192,-3.59288,41.7376,-15.1486,-6.14266,-38.2936
-0.806047,17.0186,-1.36718,-4.9178,3.4697,0.531397,8.15331,-0.923614,-4.62352,-0.939907,-1.61785,1.44266,-5.3955,-0.637393,4.31906,-23.474,-2.62834,-11.2332,26.6195,-1.50063,6.63046,12.9644,-0.90483,4.22143,1.05604e-15,2.98177e-15,21.8656,-31.9519,-14.7281,73.2973,15.019,-37.7649,1.59157,7.12502,-10.8125,-28.1101,1.05604e-15,2.98177e-15,21.767,29.9644,9.64184,65.4612,-8.27497,-27.308,21.8765,7.12502,-0.717527,51.855,-8.18433,4.20431,4.45353,47.9672,-14.3752,0.313351,-19.7333,-4.58986,-4.8491,-3.63198,40.4809,-12.2891,-6.22037,-37.9908
-0.815456,17.208,-1.34574,-4.77993,3.55167,0.517032,7.82347,-0.942778,-4.6441,-1.02567,-1.63318,1.41695,-5.29734,-0.646157,4.29686,-23.5137,-2.61841,-11.2645,26.8048,-1.53076,6.811,13.0524,-0.900764,4.30155,-9.72802e-15,-8.94531e-15,19.6527,-31.5842,-15.685,72.055,15.0505,-36.8948,1.36273,7.12502,-9.97313,-28.381,-9.72802e-15,-8.94531e-15,19.5159,28.5966,10.021,63.9817,-7.67036,-26.0288,22.4293,7.12502,0.517895,52.4084,-7.68301,4.58663,4.69438,46.3772,-12.0418,-0.958187,-16.4461,-4.37126,-5.62141,-3.896,39.2523,-9.15152,-6.21952,-37.1704
-0.821903,17.3954,-1.32697,-4.64837,3.70488,0.321896,7.48157,-1.01401,-4.45194,-1.0733,-1.69295,1.46434,-5.15054,-0.684346,4.2348,-23.6979,-2.62586,-11.2488,26.9867,-1.52936,6.81312,13.1644,-0.901,4.30906,2.11209e-15,6.36111e-15,17.6406,-31.4799,-16.8897,70.7064,15.2645,-36.0558,1.1759,7.12502,-9.16363,-28.605,2.11209e-15,6.36111e-15,17.2262,27.4326,10.6431,62.598,-7.03317,-24.9634,22.7262,7.12502,1.54692,52.7003,-7.21383,4.86997,5.11147,44.7931,-9.95768,-2.43659,-13.8405,-4.23037,-6.46565,-3.98272,38.0413,-6.07474,-6.04208,-36.3893
-0.83001,17.5849,-1.30579,-4.39241,3.85734,0.344064,6.99421,-1.09931,-4.53444,-1.14767,-1.7918,1.51095,-4.9383,-0.735305,4.32677,-23.7766,-2.63491,-11.2934,27.0733,-1.48951,6.72884,13.2123,-0.901601,4.29387,6.80837e-15,-1.21259e-14,15.8625,-31.5304,-18.2655,69.2129,15.6915,-35.1887,0.986036,7.12502,-8.32692,-28.8298,6.80837e-15,-1.21259e-14,14.8168,26.3028,11.3341,61.2766,-6.06757,-24.3065,23.2869,7.12502,2.18134,53.2555,-6.90803,5.20373,5.30645,43.2649,-7.90676,-4.17705,-11.3534,-4.21173,-7.16176,-4.29938,36.8184,-3.04794,-5.73193,-36.3255
-0.838509,17.7704,-1.28429,-4.21117,3.92936,0.174347,6.5973,-1.18752,-4.3843,-1.18638,-1.87674,1.58144,-4.74677,-0.785785,4.31173,-23.8944,-2.6223,-11.2486,27.0666,-1.43861,6.61929,13.2269,-0.888498,4.25192,1.18774e-14,6.95746e-15,13.909,-31.6266,-19.5172,67.8429,15.6874,-34.4587,0.601743,7.12502,-7.62231,-29.2409,1.18774e-14,6.95746e-15,12.307,25.2649,11.9979,60.0187,-5.00489,-23.5732,23.6748,7.12502,2.88954,53.635,-6.55146,5.72844,5.78136,41.7532,-6.14835,-6.31653,-8.91202,-4.13938,-7.66982,-4.39568,35.6272,0.133522,-5.38773,-35.5058
-0.849155,17.9495,-1.26437,-4.05079,3.98451,0.0857528,6.26241,-1.23643,-4.29553,-1.20837,-1.92183,1.56642,-4.57833,-0.815427,4.2389,-24.0551,-2.61634,-11.1295,27.0732,-1.45549,6.61268,13.2625,-0.882653,4.22792,-1.12313e-14,1.23246e-14,11.8007,-31.8435,-20.6939,66.4532,15.6035,-33.6523,-0.150267,7.12502,-6.84395,-30.0196,-1.12313e-14,1.23246e-14,10.071,24.3378,12.7591,58.6981,-4.03269,-22.4454,24.1209,7.12502,3.97869,54.0635,-6.23398,6.1843,6.19949,40.2982,-4.70266,-8.71391,-5.19023,-4.07891,-8.19569,-4.60007,34.4506,3.545,-4.9108,-32.6646
-0.8548,18.1234,-1.24711,-3.81613,4.11185,-0.0355843,6.00213,-1.27447,-4.08496,-1.29438,-1.94739,1.55161,-4.52491,-0.83401,4.09961,-24.3322,-2.68087,-11.0683,27.208,-1.53294,6.58537,13.3832,-0.914657,4.20052,1.95803e-14,2.28602e-14,9.45567,-32.0797,-21.6228,65.0513,15.1921,-33.0806,-1.00957,7.12502,-6.29202,-30.8961,1.95803e-14,2.28602e-14,7.89894,23.4881,13.7235,57.3849,-2.79772,-21.6589,24.2873,7.12502,4.73811,54.2143,-6.05776,6.41545,6.63465,38.9155,-3.54373,-11.1899,-1.85303,-4.19164,-8.78333,-4.79206,33.3739,6.72485,-4.29365,-30.7938
-0.859521,18.2875,-1.22966,-3.43672,4.16578,0.138955,5.66806,-1.28353,-4.13146,-1.41331,-1.95752,1.41107,-4.46219,-0.839349,3.97095,-24.6863,-2.73293,-10.9357,27.3452,-1.62758,6.60312,13.5219,-0.939147,4.17684,-1.39025e-14,1.17283e-14,7.05397,-32.3576,-22.4359,63.5894,14.2399,-32.2982,-1.75536,7.12502,-5.53662,-31.663,-1.39025e-14,1.17283e-14,5.80498,22.6897,14.699,56.1232,-1.2957,-21.8525,24.8182,7.12502,4.55116,54.7493,-6.10064,6.67147,6.71444,37.6868,-2.63957,-13.3998,0.179696,-4.47107,-9.2184,-5.34256,32.4281,9.36869,-3.68632,-30.7939
-0.864687,18.4307,-1.21773,-3.0113,4.2338,0.172074,5.33279,-1.28652,-4.04886,-1.56261,-1.94709,1.34332,-4.43382,-0.835568,3.84458,-25.0011,-2.83783,-10.9229,27.4496,-1.75281,6.61617,13.6448,-0.989892,4.16395,7.57867e-15,-1.19271e-15,4.62667,-32.7755,-23.1578,62.1417,13.0334,-31.3309,-2.11977,7.12502,-4.60264,-32.0498,7.57867e-15,-1.19271e-15,3.80558,21.9084,15.8054,54.8293,0.566273,-22.7692,26.0154,7.12502,3.66597,55.9636,-6.2737,6.75945,6.9509,36.6739,-2.22346,-14.8384,0.606533,-4.87589,-9.56225,-5.71977,31.6853,11.1142,-2.92717,-29.8765
-0.871583,18.5583,-1.20919,-2.62886,4.30137,0.102567,5.0418,-1.30052,-3.88571,-1.67629,-1.94586,1.31413,-4.39337,-0.839081,3.71469,-25.1749,-2.9543,-10.9996,27.3532,-1.90143,6.72422,13.6587,-1.04308,4.19136,-2.09718e-14,-2.44505e-14,2.25661,-33.2989,-23.7894,60.5839,11.6276,-30.4789,-2.07185,7.12502,-3.77998,-32.0181,-2.09718e-14,-2.44505e-14,1.67586,21.2189,16.8873,53.6389,2.59635,-22.931,26.7899,7.12502,3.50976,56.7408,-6.49162,6.82472,7.36171,35.9244,-2.74812,-15.4792,1.54073,-5.28051,-9.70973,-5.97481,31.1967,11.6552,-1.82207,-29.8808
-0.878209,18.6718,-1.20335,-2.21823,4.31909,-0.0136614,4.78292,-1.30571,-3.68093,-1.79423,-1.93104,1.31164,-4.377,-0.836034,3.58942,-25.4353,-3.06926,-11.1197,27.2838,-2.03951,6.89478,13.7021,-1.087,4.25553,4.09993e-16,2.96189e-14,0.0267382,-33.7879,-24.3009,58.9152,10.0904,-29.3592,-2.32099,7.12502,-2.69865,-32.2837,4.09993e-16,2.96189e-14,-0.418434,20.7246,18.0924,52.4736,4.392,-22.438,27.523,7.12502,3.98585,57.4655,-6.85498,6.82318,7.84717,35.4656,-3.39344,-15.1211,1.56506,-5.77242,-9.71018,-6.19209,30.9715,11.0415,-0.657635,-30.4561
-0.882923,18.7716,-1.20283,-1.70316,4.40086,-0.207521,4.47418,-1.31293,-3.36445,-1.94668,-1.91038,1.33642,-4.371,-0.832265,3.42846,-25.6352,-3.19611,-11.29,27.135,-2.17594,7.05961,13.7007,-1.13489,4.32233,2.93704e-14,1.19271e-15,-2.23642,-34.306,-24.6354,57.2301,8.87169,-28.5681,-2.95649,7.12502,-1.93457,-32.9275,2.93704e-14,1.19271e-15,-2.35412,20.3183,19.323,51.2254,6.16604,-21.2802,27.442,7.12502,5.10378,57.3606,-7.43721,6.53592,8.37851,35.2594,-3.93013,-13.8031,1.35953,-6.53818,-9.38234,-6.30947,30.9386,9.76705,-0.232528,-30.4698
-0.887071,18.8598,-1.20289,-1.23683,4.42735,-0.188479,4.27148,-1.2969,-3.26439,-2.08008,-1.87904,1.30203,-4.40159,-0.817483,3.3303,-25.7998,-3.28391,-11.3326,26.9165,-2.27037,7.09968,13.6544,-1.16718,4.32076,-7.60351e-15,6.16232e-15,-4.52301,-34.7209,-24.9672,55.6304,7.39557,-28.0835,-3.86364,7.12502,-1.46651,-33.8383,-7.60351e-15,6.16232e-15,-4.33645,20.0092,20.5001,50.1011,7.92751,-20.2917,27.4479,7.12502,6.05821,57.3413,-8.07397,6.20474,8.69429,35.2549,-4.03121,-12.0268,-0.950543,-7.24657,-9.0096,-6.73636,31.0417,8.20061,-0.30742,-27.561
-0.893408,18.9393,-1.20479,-0.934597,4.39136,-0.143491,4.25215,-1.25337,-3.24002,-2.13051,-1.82026,1.27832,-4.44935,-0.78755,3.288,-25.9381,-3.40508,-11.4153,26.6509,-2.40969,7.177,13.5897,-1.21719,4.33066,6.17475e-15,5.36719e-15,-6.69326,-34.9826,-25.2203,53.9458,6.25761,-27.6806,-4.68155,7.12502,-1.07747,-34.6586,6.17475e-15,5.36719e-15,-6.31373,19.7137,21.7152,49.1011,9.8854,-20.3025,28.0346,7.12502,6.04775,57.9283,-8.61867,5.93995,9.05741,35.3971,-3.9517,-10.1578,-4.32944,-7.81997,-8.56178,-7.25718,31.2366,6.6301,-0.79006,-24.7686
-0.899031,19.0116,-1.20867,-0.713122,4.33435,-0.21986,4.37191,-1.2144,-3.10505,-2.17901,-1.76181,1.32396,-4.57486,-0.758376,3.25978,-26.054,-3.5105,-11.4999,26.4042,-2.47501,7.09206,13.5184,-1.25908,4.28879,-1.52816e-15,1.39149e-14,-8.76389,-35.0304,-25.3707,52.2927,5.56558,-27.5739,-6.13603,7.12502,-0.974339,-36.1135,-1.52816e-15,1.39149e-14,-8.26661,19.3062,23.0393,48.2409,12.0808,-20.75,29.363,7.12502,5.61575,59.2686,-9.14745,5.69383,9.58588,35.6772,-4.07929,-8.36383,-7.07256,-8.34132,-8.00702,-7.67385,31.4559,5.39208,-1.38761,-24.715
-0.905979,19.0673,-1.21512,-0.596334,4.36027,-0.0775248,4.66134,-1.18932,-3.17962,-2.23525,-1.74594,1.24127,-4.79994,-0.74368,3.22449,-25.9789,-3.5529,-11.4635,26.0573,-2.54635,7.07966,13.3662,-1.28065,4.25033,-3.8763e-15,-1.13307e-14,-10.9425,-35.2156,-25.6041,50.691,5.57894,-26.9906,-7.00275,7.12502,-0.411035,-36.9821,-3.8763e-15,-1.13307e-14,-10.1182,18.8351,24.3169,47.5123,14.2846,-21.362,30.7778,7.12502,5.0248,60.6982,-9.57427,5.25178,9.89397,36.0742,-4.29494,-6.64814,-7.57479,-8.76877,-7.4364,-8.35492,31.7003,4.254,-2.36675,-24.1863
-0.912471,19.1113,-1.2215,-0.395177,4.37053,0.0816404,4.81993,-1.13271,-3.22925,-2.24229,-1.68232,1.16103,-4.90358,-0.709415,3.16845,-26.1591,-3.66047,-11.5199,25.7961,-2.65129,7.09899,13.3077,-1.32086,4.23932,-1.44678e-14,6.95746e-15,-13.0326,-35.4303,-25.752,49.1367,5.83955,-25.7971,-7.2082,7.12502,0.741696,-37.1867,-1.44678e-14,6.95746e-15,-11.7389,18.7438,25.7778,46.7357,15.9039,-22.3472,32.3692,7.12502,4.07354,62.31,-10.1415,4.54217,10.1986,36.5739,-4.09695,-5.03581,-8.93366,-9.2971,-6.77916,-9.07629,32.0166,3.29214,-3.69995,-21.6539
-0.920824,19.1395,-1.23409,-0.263409,4.36608,0.264553,5.15686,-1.08864,-3.3823,-2.19696,-1.64579,1.13811,-5.04779,-0.683984,3.23655,-26.6411,-3.73869,-11.5818,25.6771,-2.65709,7.06022,13.3557,-1.32579,4.23139,-1.12127e-14,-9.54166e-15,-14.8788,-35.3705,-26.1077,47.7467,5.99202,-25.2833,-7.71633,7.12502,1.23797,-37.6925,-1.12127e-14,-9.54166e-15,-13.326,18.919,27.2724,45.9005,17.0007,-24.3187,34.1192,7.12502,2.16957,64.0879,-10.669,4.07455,10.5347,37.1896,-3.97795,-4.01049,-9.09077,-9.78754,-6.19407,-9.85887,32.3932,2.67565,-5.04583,-21.6617
-0.929629,19.1531,-1.24998,-0.104349,4.3218,0.326571,5.46945,-1.06471,-3.42431,-2.16859,-1.62696,1.14089,-5.19661,-0.670093,3.26993,-27.0244,-3.75856,-11.6074,25.5238,-2.61438,7.04781,13.3632,-1.3026,4.23554,1.50145e-14,-2.78299e-15,-16.6407,-35.0555,-26.6421,46.5197,6.0401,-25.0983,-8.16594,7.12502,1.41658,-38.141,1.50145e-14,-2.78299e-15,-15.0064,19.0978,28.692,45.2348,17.8226,-25.0196,35.0841,7.12502,1.49264,65.0586,-11.3307,3.47449,11.0107,37.9036,-3.58036,-3.28215,-9.16932,-10.3598,-5.53844,-10.5087,32.8194,2.41393,-6.32284,-25.939
-0.936603,19.1542,-1.26216,0.0452304,4.28079,0.34746,5.68442,-1.0167,-3.39098,-2.11244,-1.5665,1.14597,-5.26573,-0.640339,3.25576,-27.2075,-3.83519,-11.7223,25.2019,-2.64303,7.05998,13.2719,-1.31462,4.2436,-3.04513e-14,-1.8487e-14,-18.3827,-34.6943,-27.1847,45.3621,6.19811,-24.7808,-8.65854,7.12502,1.72325,-38.6313,-3.04513e-14,-1.8487e-14,-16.635,19.2651,30.1586,44.6685,18.0884,-23.2902,34.7502,7.12502,3.16287,64.7065,-11.9597,2.89227,11.5407,38.6581,-3.20999,-2.80592,-9.66691,-10.9345,-4.75149,-11.1325,33.2873,2.58432,-7.5595,-25.2798
-0.94201,19.1432,-1.27293,0.157931,4.20862,0.585786,5.87129,-0.952346,-3.56417,-1.98604,-1.50276,1.07289,-5.24278,-0.606619,3.2736,-27.3034,-3.91788,-11.7463,24.774,-2.70788,7.00865,13.122,-1.34091,4.19968,1.19892e-15,7.15625e-15,-20.1297,-34.1506,-27.8883,44.5022,6.10104,-25.1523,-9.19477,7.12502,1.36443,-39.1702,1.19892e-15,7.15625e-15,-18.1181,19.7898,31.5773,43.9719,17.6502,-20.6498,33.8212,7.12502,5.71248,63.7242,-12.5152,2.27404,11.856,39.4383,-2.71328,-2.18996,-12.2059,-11.4164,-3.9022,-12.0516,33.7815,2.69707,-8.70369,-26.0123
-0.946686,19.1226,-1.28175,0.368849,4.21195,0.720934,5.92654,-0.903065,-3.58999,-1.85662,-1.44182,1.02034,-5.14419,-0.58076,3.22639,-27.5573,-4.03041,-11.7898,24.4503,-2.80052,6.99504,13.0502,-1.37639,4.1739,-1.62817e-14,-5.96354e-15,-21.8594,-33.606,-28.6558,43.7794,5.98451,-25.5224,-9.58191,7.12502,1.00706,-39.5593,-1.62817e-14,-5.96354e-15,-19.4096,19.9985,33.1839,43.3634,17.8956,-19.7729,33.4409,7.12502,6.55902,63.3193,-13.158,1.55595,12.2846,40.2174,-2.29303,-1.25169,-14.1813,-12.0084,-3.10601,-12.8706,34.2909,2.67505,-9.68252,-27.8793
-0.953339,19.0896,-1.29377,0.480302,4.22893,0.928006,6.22467,-0.839157,-3.72977,-1.80147,-1.3803,0.97666,-5.25935,-0.544537,3.26008,-27.6581,-4.09391,-11.8435,24.0871,-2.83597,6.97584,12.9267,-1.38974,4.15657,-1.5572e-14,-7.35503e-15,-23.5268,-33.056,-29.4325,43.0573,5.96721,-25.6563,-9.43925,7.12502,0.87773,-39.4172,-1.5572e-14,-7.35503e-15,-20.9317,19.4121,34.986,43.2815,19.326,-20.6977,33.812,7.12502,5.66627,63.7162,-13.6967,0.990432,12.6555,40.996,-2.02557,-0.285775,-14.928,-12.4963,-2.34044,-13.7879,34.8286,2.66127,-10.7391,-29.3047
-0.960222,19.0446,-1.30638,0.594711,4.22178,1.0462,6.51027,-0.834269,-3.81811,-1.74898,-1.39216,0.963156,-5.36444,-0.545924,3.30338,-27.7709,-4.10015,-11.7403,23.7251,-2.82991,6.86932,12.7972,-1.38209,4.08657,-7.25486e-15,9.93923e-16,-24.9448,-32.2864,-30.5854,42.445,5.85991,-26.1244,-9.39592,7.12502,0.425575,-39.3752,-7.25486e-15,9.93923e-16,-22.6271,18.656,36.7163,43.3736,20.9673,-21.9906,34.5363,7.12502,4.41786,64.4702,-14.2138,0.433441,13.148,41.7456,-1.90681,0.676142,-14.7569,-13.0172,-1.70509,-14.6049,35.4361,2.64639,-11.6441,-29.6446
-0.967334,18.9853,-1.31652,0.707615,4.217,1.07177,6.70025,-0.843009,-3.83581,-1.63004,-1.40908,0.998745,-5.34495,-0.555421,3.35526,-28.043,-4.12874,-11.6929,23.5314,-2.80932,6.74216,12.7654,-1.37816,4.02675,1.51162e-14,-6.95746e-15,-26.1052,-31.4396,-31.9827,41.8829,5.31314,-26.8196,-9.48893,7.12502,-0.245807,-39.4685,1.51162e-14,-6.95746e-15,-23.9948,18.7884,38.5151,43.1356,21.6518,-22.3174,34.6634,7.12502,4.10225,64.6037,-14.7077,-0.158484,13.7676,42.479,-1.83837,1.57393,-14.1357,-13.5561,-0.949218,-15.3223,36.0956,2.6224,-12.4264,-28.9254
-0.974233,18.9161,-1.32289,0.877094,4.21935,0.911164,6.74045,-0.847131,-3.56733,-1.55658,-1.39112,1.00532,-5.29734,-0.557335,3.20851,-28.0689,-4.09667,-11.6606,23.2126,-2.78539,6.8113,12.6397,-1.34704,4.04388,-2.64011e-16,-1.21259e-14,-27.4687,-30.6797,-33.4469,41.585,4.61818,-26.8687,-9.35825,7.12502,-0.293284,-39.3378,-2.64011e-16,-1.21259e-14,-25.1656,19.1605,40.2746,42.7616,21.868,-22.2292,34.3168,7.12502,4.18742,64.2554,-15.2226,-0.619771,14.587,43.1857,-1.86219,2.19958,-12.4172,-14.1475,-0.0791387,-15.8461,36.7785,2.41296,-13.2919,-29.0515
-0.981419,18.8378,-1.32937,1.08977,4.24506,0.819696,6.74671,-0.849279,-3.38645,-1.55371,-1.37836,1.00411,-5.30254,-0.55674,3.10397,-27.7947,-4.06439,-11.6007,22.8192,-2.80359,6.85821,12.4329,-1.33789,4.03613,4.55962e-15,-2.5842e-15,-28.8431,-30.0232,-34.7786,41.1663,4.64745,-26.0451,-8.48194,7.12502,0.502223,-38.4611,4.55962e-15,-2.5842e-15,-26.4693,19.1178,42.0601,42.5186,22.213,-22.1624,34.1212,7.12502,4.25197,64.0585,-15.7777,-0.960478,15.3252,43.8593,-1.90009,2.39888,-11.3134,-14.7409,0.724206,-16.436,37.4718,2.15913,-14.0606,-28.8125
-0.988303,18.7464,-1.33449,1.18989,4.25413,0.818813,6.83989,-0.842343,-3.35771,-1.45463,-1.36772,1.01767,-5.2526,-0.554664,3.10144,-27.7966,-4.05083,-11.5027,22.5293,-2.79321,6.77864,12.3142,-1.32897,3.98191,-5.15908e-15,-1.39149e-14,-29.9602,-29.487,-36.2886,40.8666,4.72662,-25.5103,-8.21011,7.12502,1.01872,-38.1874,-5.15908e-15,-1.39149e-14,-27.6906,19.2267,43.9583,42.351,22.3376,-22.5052,34.2171,7.12502,3.92087,64.1607,-16.1815,-1.25739,15.9546,44.5121,-1.85666,2.35518,-11.2594,-15.1539,1.3235,-17.1224,38.1422,1.93426,-14.5507,-28.6666
-0.994365,18.6375,-1.3415,1.25157,4.28324,0.68792,6.94858,-0.863742,-3.15564,-1.29251,-1.37904,1.03532,-5.14711,-0.570707,3.00713,-27.9511,-4.05723,-11.4729,22.269,-2.82482,6.90977,12.2449,-1.31436,4.01589,6.1499e-16,-1.09332e-14,-30.93,-28.9988,-38.0293,40.6083,4.61627,-25.494,-7.93032,7.12502,1.03445,-37.9076,6.1499e-16,-1.09332e-14,-28.7969,19.3305,45.935,42.2845,22.4502,-23.2625,34.693,7.12502,3.18961,64.6489,-16.5373,-1.46795,16.72,45.1541,-1.77486,2.21928,-10.5659,-15.5553,1.80666,-17.648,38.8025,1.85774,-14.7949,-28.5636
-1.0022,18.5162,-1.35135,1.31717,4.28473,0.621397,7.08074,-0.863243,-3.05609,-1.17004,-1.37197,1.03854,-5.09624,-0.572787,2.95482,-27.9372,-4.04718,-11.4062,22.0213,-2.84659,6.9575,12.1468,-1.30651,4.01244,-2.48481e-17,-1.0138e-14,-32.0174,-28.1338,-39.8577,40.6865,3.93134,-25.3091,-7.84864,7.12502,1.21305,-37.8249,-2.48481e-17,-1.0138e-14,-29.857,19.7143,47.7769,42.0378,22.3181,-22.9024,34.6736,7.12502,3.53737,64.624,-16.9253,-1.4828,17.3879,45.7875,-1.6251,2.17166,-9.3536,-15.9398,2.27139,-18.2239,39.4999,1.85549,-14.8344,-28.4487
-1.01071,18.3867,-1.36212,1.43654,4.26353,0.632323,7.16442,-0.848566,-3.08765,-1.11313,-1.35589,1.062,-5.08405,-0.564541,2.99647,-27.658,-4.04435,-11.4181,21.6851,-2.89115,7.05887,11.9711,-1.3108,4.0351,-5.0628e-15,1.88845e-14,-33.1346,-27.2985,-41.6347,40.8811,3.39441,-25.2015,-7.60629,7.12502,1.317,-37.582,-5.0628e-15,1.88845e-14,-30.8539,20.4223,49.529,41.4409,21.8514,-21.7067,33.722,7.12502,4.69203,63.65,-17.3073,-1.37733,17.9445,46.4238,-1.72659,2.23246,-8.72188,-16.3644,2.78527,-18.8633,40.3259,1.71036,-14.9208,-27.8361
-1.01845,18.2466,-1.37154,1.5891,4.24297,0.491133,7.17125,-0.849993,-2.97424,-1.08901,-1.34345,1.14367,-5.06402,-0.561203,3.01619,-27.3097,-3.98639,-11.2994,21.3133,-2.86456,6.96638,11.757,-1.29906,3.97272,6.69656e-15,3.18055e-15,-34.1921,-26.8481,-43.3258,40.9591,3.10469,-24.9803,-7.4333,7.12502,1.53062,-37.4076,6.69656e-15,3.18055e-15,-31.9079,20.765,51.493,41.111,22.3033,-21.5134,33.7488,7.12502,4.87862,63.6727,-17.6683,-1.31025,18.6564,47.0621,-2.25144,2.53128,-4.32189,-16.8512,3.3802,-19.3397,41.3372,1.25376,-15.1345,-24.9572
-1.029,18.1014,-1.38269,1.74329,4.21555,0.435447,7.1195,-0.851006,-2.9373,-0.970897,-1.33787,1.16585,-4.9117,-0.563857,3.01454,-27.1484,-3.93855,-11.1172,20.9303,-2.86406,6.91051,11.5764,-1.28599,3.91053,9.33046e-15,-7.95139e-16,-35.0364,-26.5956,-45.2713,41.0793,2.62806,-25.0227,-7.7949,7.12502,1.48961,-37.7694,9.33046e-15,-7.95139e-16,-32.8366,21.0178,53.5578,41.0673,23.2337,-21.7002,35.0288,7.12502,4.69828,64.9567,-17.977,-1.20258,19.2613,47.7715,-3.90102,2.87283,3.46664,-17.2872,3.97511,-19.8904,42.5392,-0.361987,-15.0144,-12.0276
-1.03948,17.9631,-1.39354,1.75525,4.1614,0.430616,7.18478,-0.831822,-2.93928,-0.775763,-1.31249,1.16564,-4.74641,-0.557123,3.01096,-27.1585,-3.94476,-11.0937,20.6804,-2.9073,7.03718,11.489,-1.28181,3.94118,2.9445e-15,-1.39149e-15,-35.689,-26.471,-47.3243,41.1802,1.92505,-25.074,-8.0286,7.12502,1.44009,-38.0035,2.9445e-15,-1.39149e-15,-33.5836,21.1819,55.6573,40.9674,24.2885,-21.7706,35.898,7.12502,4.6303,65.8274,-18.07,-1.19736,19.7568,48.5931,-6.90404,3.16537,5.31751,-17.5556,4.6741,-20.428,43.8663,-3.89059,-14.0794,-11.8777
-1.04988,17.8179,-1.40386,1.77659,4.13316,0.510587,7.28836,-0.828775,-3.05581,-0.660614,-1.32061,1.16473,-4.68167,-0.56097,3.07725,-26.8684,-3.91136,-11.0724,20.3257,-2.90879,7.09864,11.3031,-1.27077,3.95073,2.64632e-15,-9.54166e-15,-36.3828,-26.1603,-49.3456,41.2977,0.991603,-24.8358,-7.55567,7.12502,1.67011,-37.5289,2.64632e-15,-9.54166e-15,-34.3932,21.2051,57.7756,40.8394,25.3293,-21.3686,35.8797,7.12502,5.01845,65.8003,-18.2082,-1.15187,20.0855,49.5596,-10.0635,3.11734,1.06916,-17.8446,5.19369,-20.9811,45.2353,-8.07245,-11.6762,-17.8087
-1.06241,17.6576,-1.41669,1.88784,4.14747,0.619511,7.33871,-0.869412,-3.26258,-0.554727,-1.39273,1.18234,-4.58916,-0.594735,3.21957,-26.9021,-3.81947,-10.8799,20.1567,-2.82086,6.9983,11.231,-1.22517,3.89211,-2.75441e-14,1.39149e-15,-36.8606,-25.8537,-51.5008,41.3228,0.0222093,-24.6836,-6.94925,7.12502,1.81715,-36.9213,-2.75441e-14,1.39149e-15,-35.1005,21.5534,59.8184,40.5973,26.2097,-20.7587,35.4123,7.12502,5.60728,65.3181,-18.5489,-0.945001,20.3194,50.6282,-12.743,3.33344,-2.82601,-18.2356,5.50305,-21.4913,46.5551,-11.3167,-9.10882,-18.3612
-1.07303,17.4913,-1.43119,1.96307,4.18744,0.634841,7.34717,-0.912396,-3.31261,-0.254066,-1.45112,1.18808,-4.27426,-0.633711,3.2549,-27.4436,-3.83839,-10.6948,19.975,-2.85178,7.00008,11.2588,-1.21254,3.85451,3.0178e-14,-1.31198e-14,-36.8666,-25.8465,-53.8162,41.1817,-0.773546,-24.1139,-6.80458,7.12502,2.36737,-36.7712,3.0178e-14,-1.31198e-14,-35.2022,22.166,61.9467,40.1159,27.0808,-20.1611,35.0454,7.12502,6.18425,64.9352,-18.9273,-0.64663,20.5765,51.7096,-14.9136,4.20255,-0.371839,-18.7203,5.74134,-21.81,47.8089,-13.7484,-8.20015,-13.3356
-1.08455,17.3381,-1.44471,2.0081,4.1836,0.654777,7.45967,-0.947072,-3.36422,-0.00496138,-1.50263,1.18558,-4.07266,-0.666286,3.28536,-27.69,-3.81886,-10.5673,19.619,-2.84423,7.03548,11.1659,-1.18471,3.84061,-6.55989e-15,-1.39149e-15,-36.7482,-25.9194,-56.0915,40.796,-1.19858,-23.6161,-6.80126,7.12502,2.84807,-36.762,-6.55989e-15,-1.39149e-15,-35.2176,22.6119,64.0512,39.5127,28.1194,-19.9556,35.2538,7.12502,6.3827,65.1376,-19.328,-0.31116,20.749,52.7945,-17.2405,4.78603,2.1799,-19.3113,5.8922,-22.0507,48.9871,-15.9391,-7.93665,-9.85153
-1.09423,17.1972,-1.46041,2.1328,4.2434,0.711139,7.6688,-0.999045,-3.4361,0.0412753,-1.58408,1.19209,-4.1334,-0.704413,3.34629,-27.6199,-3.78069,-10.5923,19.4061,-2.82706,7.20918,11.0752,-1.15388,3.90815,6.83322e-15,9.93923e-15,-36.7937,-25.4935,-58.2814,40.3997,-1.71408,-22.7377,-6.52417,7.12502,3.69642,-36.4719,6.83322e-15,9.93923e-15,-35.3947,22.7689,66.0174,38.8476,29.201,-19.5993,35.5298,7.12502,6.7266,65.403,-19.9283,-0.133359,20.8361,53.9161,-19.5789,4.80598,-0.464611,-20.1301,6.00549,-22.2743,50.1764,-17.8787,-7.18008,-9.18142
-1.10338,17.0531,-1.48279,2.15426,4.3141,0.894963,8.16339,-1.02939,-3.63926,0.0343162,-1.66209,1.14464,-4.40814,-0.732519,3.4347,-27.4661,-3.71765,-10.4477,19.1223,-2.80374,7.20477,10.9372,-1.13088,3.87927,-9.06955e-15,2.78299e-15,-36.8812,-25.3018,-60.2192,39.8725,-1.78017,-20.5393,-5.96926,7.12502,5.81915,-35.8693,-9.06955e-15,2.78299e-15,-35.3975,23.1535,67.7908,37.8132,29.7213,-19.0577,35.4419,7.12502,7.24944,65.2978,-20.5805,-0.166438,20.7788,55.1909,-21.2724,4.88228,-3.19243,-20.7446,5.89534,-22.5595,51.4028,-19.7318,-6.23556,-10.3647
-1.11388,16.9008,-1.51376,2.06014,4.34856,1.01284,8.90132,-1.04047,-3.75247,0.0195892,-1.71756,1.08689,-4.83241,-0.746993,3.46772,-27.3246,-3.73007,-10.3525,18.8229,-2.87988,7.26787,10.8085,-1.14807,3.8666,-2.36057e-14,1.8487e-14,-36.8524,-25.4818,-61.9526,39.046,-1.04309,-18.0861,-5.15619,7.12502,8.18721,-34.9776,-2.36057e-14,1.8487e-14,-35.1769,23.7666,69.2955,36.4062,29.4666,-18.4866,35.1705,7.12502,7.80067,65.0066,-21.2449,-0.137557,20.7714,56.6644,-22.4852,5.48972,-1.04536,-21.24,5.76235,-22.6816,52.7385,-21.6192,-5.91182,-11.5088
-1.12151,16.7639,-1.54514,2.09523,4.28175,0.880447,9.4228,-1.05807,-3.65416,-0.0256103,-1.74638,1.15577,-5.17148,-0.753348,3.50562,-27.255,-3.74719,-10.4116,18.6639,-2.90428,7.35716,10.7426,-1.15113,3.90157,3.6303e-14,7.95139e-16,-36.6247,-25.4741,-63.5643,37.9821,-0.000239478,-16.5466,-4.43074,7.12502,9.6728,-34.1886,3.6303e-14,7.95139e-16,-35.0625,24.6511,70.6099,35.1595,28.8513,-18.3992,35.857,7.12502,7.88509,65.69,-22.1312,-0.0920307,21.0104,58.2837,-23.8806,5.76502,0.99654,-22.0454,5.68194,-22.502,54.1742,-23.381,-6.0075,-12.7579
