JuanDHNZ/ProyectoFinalCD/preprocessing/sports_trials_csv/14_13.csv
root1,root2,root3,root4,root5,root6,lowerback1,lowerback2,lowerback3,upperback1,upperback2,upperback3,thorax1,thorax2,thorax3,lowerneck1,lowerneck2,lowerneck3,upperneck1,upperneck2,upperneck3,head1,head2,head3,rclavicle1,rclavicle2,rhumerus1,rhumerus2,rhumerus3,rradius1,rwrist1,rhand1,rhand2,rfingers1,rthumb1,rthumb2,lclavicle1,lclavicle2,lhumerus1,lhumerus2,lhumerus3,lradius1,lwrist1,lhand1,lhand2,lfingers1,lthumb1,lthumb2,rfemur1,rfemur2,rfemur3,rtibia1,rfoot1,rfoot2,rtoes1,lfemur1,lfemur2,lfemur3,ltibia1,lfoot1,lfoot2,ltoes1
-4.93848,17.9309,-1.3609,11.0346,8.1643,2.32303,2.97835,-2.07333,-1.62663,1.15101,-2.78143,3.89521,-0.212934,-1.40799,5.01396,-13.1559,-8.23294,-13.7593,26.1583,-9.07455,2.98141,11.5366,-5.09834,2.08028,-8.34896e-15,4.77083e-15,-20.0839,2.72237,-77.4069,36.7303,7.77382,-19.1972,-2.36351,7.12502,7.11484,-32.2239,-8.34896e-15,4.77083e-15,-27.7717,-3.64126,89.8796,41.5782,-3.57851,-0.800237,33.762,7.12502,24.8237,62.1707,-19.8176,-0.122736,17.5546,32.0598,-22.6346,-9.1183,5.52233,-15.6518,-3.96729,-18.8134,21.0106,-10.6408,10.5875,-20.7633
-4.94226,17.9322,-1.37007,11.161,8.3739,2.45159,3.04908,-2.01373,-1.62429,1.15339,-2.70148,3.86407,-0.259665,-1.36683,4.98121,-13.4772,-7.96428,-13.59,26.8358,-8.62443,2.73998,11.799,-4.91664,2.02249,2.06736e-14,4.77083e-15,-19.8768,2.61814,-77.3191,36.8291,7.91516,-19.6615,-2.16791,7.12502,6.66658,-32.043,2.06736e-14,4.77083e-15,-27.6009,-3.99978,90.0061,41.6619,-3.48776,-0.823206,33.7398,7.12502,24.8017,62.1515,-19.9794,-0.270167,17.4433,32.1478,-22.6795,-9.15882,5.53628,-15.7999,-3.99409,-18.9159,20.9247,-10.5421,10.4435,-20.876
-4.94703,17.9308,-1.37845,11.2477,8.56361,2.42351,3.14394,-1.95576,-1.53884,1.11983,-2.61978,3.90295,-0.357379,-1.32335,4.9761,-13.5521,-7.67621,-13.467,27.316,-8.17152,2.51734,11.943,-4.73705,1.98938,5.96354e-15,-2.8625e-14,-19.833,2.75188,-77.214,37.0467,7.87921,-19.2973,-2.54391,7.12502,7.01818,-32.4076,5.96354e-15,-2.8625e-14,-27.6052,-4.28179,90.1713,41.8398,-3.46921,-1.02518,33.9543,7.12502,24.6081,62.3925,-20.0875,-0.214323,17.5012,32.1644,-22.7919,-9.30716,5.66994,-16.0002,-4.00558,-18.8391,20.9338,-10.4543,10.308,-21.1269
-4.9507,17.9307,-1.38441,11.3553,8.74642,2.44784,3.20805,-1.93467,-1.52158,1.10452,-2.58978,3.95671,-0.410129,-1.30719,5.02474,-13.7559,-7.4025,-13.3604,27.9005,-7.7011,2.25284,12.156,-4.55841,1.94076,8.34896e-15,1.11319e-14,-19.68,3.09265,-77.106,37.2346,7.67443,-18.9744,-3.0472,7.12502,7.32986,-32.9002,8.34896e-15,1.11319e-14,-27.5542,-4.38372,90.3226,41.9763,-3.46452,-1.18341,33.9836,7.12502,24.4564,62.4424,-20.2208,-0.298721,17.5131,32.1698,-22.7828,-9.39921,5.53465,-16.1739,-4.0923,-18.8165,20.9634,-10.4135,10.2149,-21.157
-4.95181,17.9307,-1.38559,11.4868,8.88131,2.55775,3.17415,-1.85863,-1.46531,1.13946,-2.48787,3.88392,-0.371074,-1.25676,4.91166,-13.9802,-7.22442,-13.209,28.4742,-7.40171,2.08353,12.3895,-4.44003,1.89255,-1.31198e-14,-3.81667e-14,-19.5409,3.16219,-77.0572,37.4836,7.49353,-19.0379,-3.21495,7.12502,7.26857,-33.0701,-1.31198e-14,-3.81667e-14,-27.4544,-4.79425,90.3968,42.1656,-3.37732,-1.28343,33.7378,7.12502,24.3605,62.2094,-20.3481,-0.500352,17.412,32.1402,-22.64,-9.37529,5.35937,-16.3533,-4.07998,-18.9165,21.0429,-10.4195,10.0562,-21.024
-4.95426,17.9285,-1.38795,11.5603,9.06175,2.49895,3.13975,-1.76441,-1.29135,1.20838,-2.35842,3.87292,-0.301089,-1.19321,4.79494,-14.1647,-7.05559,-13.0395,29.0073,-7.10645,1.85909,12.5999,-4.32834,1.8211,5.56597e-15,1.59028e-14,-19.3079,3.08644,-76.9622,37.6308,7.30633,-19.006,-3.31718,7.12502,7.29931,-33.1713,5.56597e-15,1.59028e-14,-27.2971,-5.12905,90.4995,42.3401,-3.38217,-1.64654,33.5727,7.12502,24.0124,62.0907,-20.4029,-0.548131,17.4866,32.1032,-22.7426,-9.31446,6.20335,-16.5065,-4.07214,-18.8204,21.1152,-10.4463,9.9173,-20.9052
-4.9608,17.929,-1.38999,11.6286,9.23798,2.41981,3.09856,-1.71573,-1.21072,1.2768,-2.29262,3.9133,-0.21531,-1.16226,4.78655,-14.2695,-6.80554,-12.8407,29.3956,-6.70109,1.60101,12.7256,-4.16772,1.75319,2.0276e-14,-3.81667e-14,-19.0697,3.17518,-76.8963,37.8344,7.15331,-18.832,-3.22571,7.12502,7.46735,-33.0739,2.0276e-14,-3.81667e-14,-27.2297,-5.24547,90.5614,42.6068,-3.5022,-1.66431,33.3831,7.12502,23.9953,61.9033,-20.4564,-0.45125,17.6084,32.0645,-22.9503,-9.50778,6.36886,-16.6784,-4.09814,-18.6792,21.179,-10.4565,9.83969,-20.8796
-4.96687,17.9302,-1.39285,11.7432,9.37483,2.41214,3.00865,-1.69344,-1.21723,1.37012,-2.26594,3.94706,-0.0697678,-1.15258,4.8196,-14.5139,-6.55081,-12.5825,29.8204,-6.26216,1.27649,12.8911,-3.99496,1.65073,-1.98785e-15,-1.43125e-14,-18.7003,3.20973,-76.8637,37.9986,7.35977,-18.9749,-3.09234,7.12502,7.32933,-32.9454,-1.98785e-15,-1.43125e-14,-27.0884,-5.23556,90.5741,42.8358,-3.60292,-1.63743,33.0545,7.12502,24.0211,61.5714,-20.5684,-0.318297,17.6353,32.0473,-23.0855,-9.74548,6.21486,-16.8637,-4.0349,-18.6348,21.2036,-10.492,9.67727,-20.8548
-4.9711,17.9321,-1.40048,11.8742,9.6156,2.41574,3.04081,-1.68544,-1.16018,1.39963,-2.25371,3.97074,-0.0598147,-1.14667,4.81219,-14.6757,-6.31743,-12.3405,30.1464,-5.87358,0.993751,13.0086,-3.83981,1.56106,1.51076e-14,-1.74931e-14,-18.4269,3.33556,-76.8297,38.2128,7.63993,-19.4784,-2.6754,7.12502,6.84331,-32.5448,1.51076e-14,-1.74931e-14,-26.9319,-5.38065,90.6325,42.9531,-3.59487,-1.63378,32.9382,7.12502,24.0246,61.4546,-20.7047,-0.280454,17.6582,32.0654,-23.2396,-9.8838,6.46478,-17.0633,-4.17856,-18.5758,21.168,-10.4329,9.59779,-20.7243
-4.97407,17.933,-1.40847,11.9949,9.84577,2.57762,3.13902,-1.66005,-1.18385,1.44691,-2.22081,3.90213,-0.0710871,-1.13033,4.75569,-14.9057,-6.10296,-12.0969,30.4752,-5.51654,0.758987,13.1486,-3.69228,1.48233,2.82274e-14,-2.54444e-14,-18.051,3.3243,-76.8305,38.2298,7.71495,-19.7038,-2.31095,7.12502,6.62577,-32.1873,2.82274e-14,-2.54444e-14,-26.6726,-5.63042,90.6456,42.9989,-3.56136,-1.63175,33.1422,7.12502,24.0265,61.6583,-20.8229,-0.42283,17.5226,32.1154,-23.2638,-9.99863,6.2984,-17.1951,-4.3565,-18.7002,21.0979,-10.4221,9.58454,-20.1902
-4.97921,17.9331,-1.41176,12.1043,10.0413,2.66498,3.13856,-1.60737,-1.14499,1.49536,-2.15064,3.84768,-0.0311193,-1.09581,4.67401,-14.9433,-5.93213,-12.0234,30.7111,-5.23707,0.637141,13.2285,-3.58225,1.46785,-7.15625e-15,-7.95139e-15,-17.8413,3.38271,-76.8081,38.2807,7.37703,-19.4237,-2.74614,7.12502,6.89611,-32.6138,-7.15625e-15,-7.95139e-15,-26.5703,-5.9469,90.6862,43.2516,-3.49722,-1.62455,33.2355,7.12502,24.0335,61.7507,-20.9431,-0.366472,17.4585,32.1729,-23.385,-10.2201,6.16005,-17.3007,-4.44625,-18.7542,21.0235,-10.4919,9.53579,-19.3157
-4.98475,17.9318,-1.41202,12.1619,10.2041,2.69767,3.10576,-1.56773,-1.14213,1.55248,-2.09926,3.84721,0.041248,-1.0718,4.6684,-15.0003,-5.76964,-11.9536,31.0334,-4.95753,0.493489,13.3505,-3.47824,1.44428,-2.14687e-14,-6.36111e-15,-17.6599,3.49826,-76.7824,38.2791,7.06814,-19.1163,-3.05702,7.12502,7.19292,-32.9148,-2.14687e-14,-6.36111e-15,-26.4539,-6.14591,90.709,43.48,-3.46042,-1.47373,33.3023,7.12502,24.1781,61.7984,-21.0159,-0.325056,17.4566,32.2248,-23.482,-10.3405,6.48612,-17.3755,-4.43112,-18.7527,20.9822,-10.4528,9.39112,-19.4015
-4.98945,17.9306,-1.4122,12.223,10.3632,2.71767,3.05766,-1.53212,-1.15609,1.65568,-2.05493,3.86545,0.171568,-1.05303,4.69083,-15.3784,-5.64141,-11.9454,31.4328,-4.71639,0.517485,13.5851,-3.37789,1.48274,3.65764e-14,-2.70347e-14,-17.3256,3.62215,-76.7474,38.2301,7.165,-19.4627,-2.3571,7.12502,6.85848,-32.226,3.65764e-14,-2.70347e-14,-26.1147,-6.32492,90.7369,43.5145,-3.34601,-1.46954,33.1362,7.12502,24.1821,61.6318,-21.0679,-0.248611,17.4563,32.2575,-23.6455,-10.4104,7.19342,-17.4959,-4.41224,-18.7329,20.9826,-10.2503,9.18785,-20.7108
-4.99511,17.9298,-1.4161,12.2322,10.5516,2.60488,3.12552,-1.48433,-1.04028,1.73713,-1.98889,3.92609,0.20963,-1.02082,4.68754,-15.8367,-5.52196,-11.8707,31.9084,-4.47151,0.472826,13.869,-3.27972,1.48268,-3.33958e-14,1.74931e-14,-17.0314,3.6565,-76.661,38.2483,7.66129,-20.3567,-1.17346,7.12502,5.99541,-31.0686,-3.33958e-14,1.74931e-14,-25.9463,-6.49166,90.8313,43.6535,-3.23969,-1.623,33.1143,7.12502,24.0349,61.6294,-21.0937,-0.134125,17.6121,32.276,-23.7976,-10.6175,7.26148,-17.6083,-4.4295,-18.5644,21.0111,-10.1176,9.03658,-21.4844
-4.9986,17.9299,-1.42021,12.2488,10.671,2.57134,3.25384,-1.42423,-0.949215,1.75668,-1.90495,3.91893,0.14708,-0.977189,4.62989,-15.9612,-5.40038,-11.72,32.2437,-4.24572,0.277316,14.0175,-3.19842,1.41463,-1.59028e-15,-1.90833e-14,-16.8859,3.71265,-76.6731,38.2934,7.63382,-20.6339,-1.02455,7.12502,5.72779,-30.9271,-1.59028e-15,-1.90833e-14,-26.1216,-6.65499,90.9062,44.0243,-3.15862,-1.66787,33.2749,7.12502,23.9919,61.7957,-21.1408,-0.143533,17.6709,32.3016,-23.8676,-10.6433,7.49391,-17.6739,-4.42732,-18.5025,21.0204,-10.1378,8.91991,-21.5449
-5.00259,17.9294,-1.41929,12.2512,10.8127,2.58452,3.31267,-1.3849,-0.889735,1.79853,-1.85109,3.8778,0.149059,-0.949934,4.55285,-15.802,-5.33885,-11.7276,32.3115,-4.15796,0.239844,14.0062,-3.16766,1.41967,5.84427e-14,-2.54444e-14,-16.7008,3.76881,-76.7284,38.2474,7.35784,-19.996,-1.79571,7.12502,6.34365,-31.6807,5.84427e-14,-2.54444e-14,-26.2337,-6.84029,90.9136,44.3152,-3.06403,-1.9814,33.2812,7.12502,23.6912,61.8411,-21.1335,-0.209125,17.689,32.3419,-23.8969,-10.6727,7.40165,-17.6925,-4.41544,-18.4985,21.0166,-10.1191,8.79474,-21.8526
-5.00401,17.9299,-1.41755,12.3545,11.0056,2.69393,3.2283,-1.35648,-0.896308,1.81494,-1.81504,3.79786,0.207426,-0.93242,4.46952,-15.5791,-5.26343,-11.6712,32.3943,-4.08253,0.213296,13.9854,-3.13334,1.41782,-1.66979e-14,-2.06736e-14,-16.532,3.76807,-76.8035,38.2051,7.45058,-19.8048,-2.24387,7.12502,6.52827,-32.1232,-1.66979e-14,-2.06736e-14,-26.4107,-7.03333,90.9175,44.6397,-2.97434,-2.29116,33.0332,7.12502,23.3941,61.6313,-21.1971,-0.372302,17.6171,32.3965,-23.9539,-10.7452,7.25186,-17.7992,-4.48558,-18.5894,20.9836,-10.0438,8.71078,-22.2213
-5.00709,17.9282,-1.41762,12.4314,11.1641,2.79405,3.21683,-1.3342,-0.986351,1.81012,-1.78778,3.79382,0.209339,-0.919426,4.51544,-15.5744,-5.16498,-11.3682,32.6081,-3.83557,-0.333102,14.0425,-3.06818,1.18861,1.98785e-14,2.8625e-14,-16.3645,3.83648,-76.7525,38.1675,7.80642,-20.1911,-1.48381,7.12502,6.15534,-31.3744,1.98785e-14,2.8625e-14,-26.681,-7.08367,91.0423,44.9712,-2.92732,-2.55678,32.7481,7.12502,23.1393,61.3784,-21.253,-0.494664,17.5379,32.4425,-24.0244,-10.6814,7.89461,-17.8879,-4.50445,-18.6704,20.9641,-9.95389,8.56591,-22.3226
-5.01271,17.9277,-1.41663,12.4448,11.3633,2.82775,3.27816,-1.33579,-1.06112,1.82329,-1.79137,3.83003,0.192579,-0.921917,4.59731,-15.6392,-5.05543,-11.2033,32.7735,-3.57405,-0.720628,14.1029,-2.99146,1.04708,1.19271e-14,4.13472e-14,-16.1781,4.15863,-76.7221,38.1999,7.7874,-21.0002,-0.568039,7.12502,5.37415,-30.4799,1.19271e-14,4.13472e-14,-26.9018,-6.97748,91.1302,45.3032,-2.99977,-2.88032,32.5309,7.12502,22.8288,61.1999,-21.2567,-0.521918,17.5499,32.4719,-24.0923,-10.7606,8.24271,-17.9143,-4.61049,-18.6459,20.9619,-9.97783,8.4512,-22.2435
-5.01822,17.9293,-1.4146,12.4951,11.5698,2.77672,3.25113,-1.30286,-0.977903,1.88918,-1.74683,3.8336,0.269064,-0.900702,4.55088,-15.8612,-5.01809,-11.1286,32.9887,-3.46553,-0.820692,14.238,-2.95452,1.0064,-2.66371e-14,2.70347e-14,-15.8293,4.17461,-76.7421,38.1989,7.53068,-21.2846,-0.247053,7.12502,5.09955,-30.1657,-2.66371e-14,2.70347e-14,-26.7052,-7.08137,91.1195,45.3681,-2.95968,-3.08288,32.1975,7.12502,22.6344,60.8903,-21.308,-0.655604,17.6656,32.4928,-24.1342,-10.8649,8.037,-18.0221,-4.4904,-18.5616,20.9997,-10.0978,8.1663,-21.4624
-5.02171,17.9308,-1.41236,12.5206,11.7579,2.70551,3.28094,-1.23608,-0.859571,1.88292,-1.65378,3.81778,0.233822,-0.852257,4.46567,-15.7147,-4.95122,-10.8076,32.9518,-3.34932,-1.21125,14.1649,-2.91486,0.818774,1.19271e-15,-3.33958e-14,-15.7878,4.14912,-76.7406,38.1955,7.27319,-21.1876,-0.43837,7.12502,5.19324,-30.3547,1.19271e-15,-3.33958e-14,-26.4309,-7.3888,91.1075,45.276,-2.65424,-3.03094,32.0641,7.12502,22.6843,60.7508,-21.3249,-0.767984,17.785,32.5047,-24.1882,-10.9528,7.66301,-18.1081,-4.47774,-18.4584,21.0481,-10.2847,8.03654,-20.2928
-5.02631,17.9271,-1.40941,12.5239,11.8782,2.77925,3.31652,-1.16364,-0.8963,1.9101,-1.55864,3.73955,0.23252,-0.804713,4.40294,-15.6358,-4.84835,-10.615,33.0128,-3.21317,-1.35406,14.1576,-2.85209,0.754042,-2.82274e-14,1.43125e-14,-15.7385,3.97473,-76.8442,38.2791,7.2584,-20.7659,-0.996886,7.12502,5.60042,-30.9029,-2.82274e-14,1.43125e-14,-26.2789,-7.65397,91.0784,45.2956,-2.47726,-3.17603,32.0131,7.12502,22.545,60.7168,-21.2926,-0.774091,17.7364,32.5313,-24.2955,-11.0196,8.02434,-18.1336,-4.50669,-18.509,21.0816,-10.2746,7.94042,-20.2338
-5.03008,17.9237,-1.404,12.5022,12.0796,2.77064,3.2925,-1.1164,-0.842953,2.00664,-1.49673,3.71706,0.337978,-0.775482,4.34577,-15.7868,-4.85727,-10.7578,33.1898,-3.22336,-1.14436,14.279,-2.84999,0.856282,2.5842e-14,1.27222e-14,-15.46,3.90354,-76.8604,38.2455,7.15583,-20.8648,-0.987498,7.12502,5.50486,-30.896,2.5842e-14,1.27222e-14,-26.1827,-7.8741,91.0998,45.4266,-2.41864,-3.08559,31.9619,7.12502,22.6318,60.655,-21.2161,-0.827036,17.8005,32.5488,-24.4201,-11.0926,8.11698,-18.1654,-4.6061,-18.4389,21.1211,-10.1425,7.8149,-21.3924
-5.03413,17.9228,-1.40308,12.5105,12.276,2.74277,3.33155,-1.08936,-0.80426,2.05383,-1.46001,3.73993,0.361302,-0.75758,4.34704,-15.9059,-4.85592,-10.9813,33.3449,-3.19631,-0.939641,14.3856,-2.84225,0.977895,-3.97569e-15,-3.33958e-14,-15.2131,4.27572,-76.8386,38.1415,6.63367,-20.8248,-1.20467,7.12502,5.54351,-31.1122,-3.97569e-15,-3.33958e-14,-26.0929,-7.9217,91.1483,45.5248,-2.37258,-2.71254,32.1953,7.12502,22.9898,60.8443,-21.2066,-0.861129,17.8759,32.5695,-24.534,-11.1595,8.2675,-18.2426,-4.60065,-18.3698,21.1616,-10.0981,7.62523,-22.1402
-5.03732,17.9249,-1.40315,12.5045,12.4884,2.63072,3.41334,-1.09135,-0.684773,2.03317,-1.45717,3.8003,0.292649,-0.754128,4.34424,-15.7544,-4.81458,-11.1886,33.343,-3.13037,-0.817627,14.3566,-2.82217,1.07716,1.86858e-14,-1.74931e-14,-15.1595,4.9022,-76.8164,38.1283,6.14024,-20.7644,-1.61929,7.12502,5.60185,-31.5252,1.86858e-14,-1.74931e-14,-26.1203,-7.87508,91.2013,45.599,-2.28355,-2.42778,32.2306,7.12502,23.263,60.8454,-21.2054,-0.864037,18.0198,32.5798,-24.6952,-11.171,8.90976,-18.3255,-4.56971,-18.2128,21.2118,-10.1372,7.42876,-22.1972
-5.04122,17.9243,-1.40317,12.5474,12.6657,2.62094,3.4604,-1.09458,-0.682379,2.01513,-1.46004,3.81132,0.248269,-0.754783,4.35578,-15.7418,-4.76976,-11.3098,33.4582,-3.05598,-0.71791,14.4073,-2.79486,1.15077,-2.0276e-14,-1.59028e-15,-14.9723,5.26103,-76.8355,37.9588,6.27286,-20.8712,-1.77458,7.12502,5.49867,-31.6832,-2.0276e-14,-1.59028e-15,-26.189,-7.97271,91.2624,45.6714,-1.67911,-3.39803,31.2661,7.12502,22.3319,59.9955,-21.2503,-0.930267,18.0712,32.5934,-24.7352,-11.2799,8.80843,-18.4302,-4.53116,-18.1698,21.2621,-10.1666,7.20295,-21.9442
-5.0458,17.923,-1.40379,12.6103,12.8388,2.64022,3.50544,-1.06812,-0.66505,1.96979,-1.42229,3.795,0.172469,-0.734105,4.32943,-15.6548,-4.74364,-11.3691,33.5105,-2.99731,-0.740666,14.4106,-2.78067,1.16312,-3.61788e-14,-1.27222e-14,-14.6589,5.22997,-76.8328,37.5644,6.68768,-20.7998,-1.9056,7.12502,5.56767,-31.8125,-3.61788e-14,-1.27222e-14,-26.3769,-8.17406,91.3909,45.852,-0.987131,-4.83333,30.2169,7.12502,20.9535,59.1052,-21.3054,-1.08729,18.1177,32.6021,-24.7189,-11.3963,8.45108,-18.581,-4.48925,-18.168,21.3242,-10.1217,7.01274,-22.1223
-5.04982,17.922,-1.39816,12.5379,12.8743,2.67345,3.61288,-1.00455,-0.717193,2.01682,-1.33878,3.78177,0.155007,-0.6929,4.34454,-15.6953,-4.74425,-11.4539,33.5893,-2.95656,-0.746822,14.4571,-2.77636,1.18061,-3.69739e-14,2.38542e-14,-14.3873,5.3892,-76.8104,37.3747,6.55674,-20.5701,-2.07409,7.12502,5.78943,-31.975,-3.69739e-14,2.38542e-14,-26.4184,-8.24615,91.4799,46.0136,-0.814704,-4.56581,30.8975,7.12502,21.2105,59.757,-21.2107,-1.04269,18.0865,32.6398,-24.848,-11.3605,8.75525,-18.5014,-4.4832,-18.1938,21.3461,-10.1719,6.97527,-22.28
-5.05117,17.9196,-1.38884,12.4221,12.8392,2.67067,3.67497,-0.923927,-0.721525,2.11312,-1.2332,3.74411,0.209995,-0.641552,4.30469,-15.6636,-4.68086,-11.3445,33.5312,-2.85526,-0.876034,14.4118,-2.7339,1.12836,1.03368e-14,-1.59028e-14,-14.2857,5.44842,-76.8737,37.3931,6.44491,-20.6506,-2.08565,7.12502,5.71168,-31.9887,1.03368e-14,-1.59028e-14,-26.3415,-8.3119,91.4604,46.1211,-0.931272,-3.60027,31.7523,7.12502,22.1378,60.5049,-21.0775,-0.992702,18.0873,32.6817,-24.8514,-11.2845,9.05358,-18.3407,-4.47224,-18.1942,21.3722,-10.2447,6.99767,-22.2133
-5.0515,17.9176,-1.38046,12.4281,12.8305,2.74718,3.61591,-0.837501,-0.759786,2.17682,-1.12193,3.66728,0.298632,-0.587548,4.2411,-15.4888,-4.55014,-11.0683,33.3477,-2.68926,-1.12754,14.2666,-2.65455,1.01361,-1.35174e-14,2.38542e-14,-14.1775,5.32353,-76.9488,37.3381,6.50674,-20.8094,-2.0162,7.12502,5.55838,-31.9233,-1.35174e-14,2.38542e-14,-26.2904,-8.47396,91.4641,46.2047,-0.863377,-3.56563,31.7037,7.12502,22.171,60.4523,-21.0556,-1.0482,18.0251,32.7172,-24.7673,-11.3514,8.5316,-18.3066,-4.404,-18.2878,21.3941,-10.2977,6.92988,-22.3174
-5.05174,17.9153,-1.37425,12.513,12.9074,2.75885,3.47351,-0.785385,-0.715639,2.24113,-1.05471,3.63319,0.437412,-0.55559,4.17546,-15.5263,-4.50003,-10.8768,33.3083,-2.58293,-1.36967,14.243,-2.61544,0.901206,-2.90226e-14,2.54444e-14,-13.8953,5.16441,-76.9468,37.2225,6.69394,-20.7819,-1.8658,7.12502,5.58489,-31.7722,-2.90226e-14,2.54444e-14,-26.2474,-8.71743,91.5384,46.3474,-0.288266,-3.85662,31.4619,7.12502,21.8916,60.2434,-21.115,-1.17315,18.0349,32.7422,-24.8236,-11.2536,8.71274,-18.4186,-4.35309,-18.2965,21.4475,-10.2922,6.82032,-22.5273
-5.05372,17.9143,-1.3687,12.5118,13.0226,2.73201,3.47572,-0.743359,-0.628186,2.29113,-0.997394,3.59997,0.480807,-0.526658,4.08933,-15.5949,-4.48027,-10.903,33.3721,-2.53615,-1.35066,14.2857,-2.59741,0.919693,-1.98785e-15,6.36111e-15,-13.6735,4.966,-76.9857,37.0993,6.82145,-20.6482,-1.70474,7.12502,5.71403,-31.6077,-1.98785e-15,6.36111e-15,-26.2077,-8.90817,91.574,46.4858,0.0184866,-3.84868,31.5694,7.12502,21.8993,60.35,-21.0793,-1.219,18.0781,32.7528,-24.9351,-11.1649,9.35767,-18.4804,-4.444,-18.2315,21.5352,-10.3493,6.79886,-22.3367
-5.05577,17.913,-1.36303,12.4467,13.1427,2.65448,3.60941,-0.688664,-0.503611,2.27,-0.918334,3.56746,0.375548,-0.483986,3.98484,-15.4458,-4.43111,-10.8232,33.3741,-2.50802,-1.34711,14.2483,-2.57328,0.915957,-2.78299e-15,2.06736e-14,-13.7094,4.91056,-77.0559,37.154,6.82774,-20.5752,-1.8266,7.12502,5.78449,-31.7276,-2.78299e-15,2.06736e-14,-26.2971,-9.24473,91.6452,46.6042,0.381552,-4.28565,31.448,7.12502,21.4796,60.2771,-20.9739,-1.22699,18.1882,32.7434,-25.014,-11.1654,9.51109,-18.4866,-4.22917,-18.1571,21.6405,-10.4645,6.50033,-22.3195
-5.0573,17.9111,-1.35876,12.4408,13.3108,2.58946,3.69682,-0.666371,-0.420542,2.22301,-0.883379,3.56373,0.274363,-0.463979,3.93444,-15.3079,-4.41293,-10.8491,33.4504,-2.53437,-1.21303,14.2544,-2.5707,0.972749,1.74931e-14,-4.77083e-15,-13.7597,4.94135,-77.1355,37.2232,6.81134,-20.6409,-2.23494,7.12502,5.72106,-32.1377,1.74931e-14,-4.77083e-15,-26.3707,-9.47822,91.7328,46.6446,0.722034,-4.73777,31.4111,7.12502,21.0453,60.2891,-20.9424,-1.27474,18.2961,32.7257,-25.0895,-11.1962,9.66773,-18.5702,-4.03467,-18.0866,21.7407,-10.5219,6.1658,-22.324
-5.05792,17.9116,-1.35389,12.4802,13.451,2.58316,3.69443,-0.668602,-0.444973,2.2075,-0.886485,3.59965,0.261027,-0.465653,3.98581,-15.2353,-4.38061,-10.9256,33.4683,-2.47532,-1.1978,14.246,-2.5525,1.00316,3.57812e-15,2.38542e-14,-13.6998,5.16903,-77.1182,37.2652,6.4927,-20.8561,-2.44445,7.12502,5.51325,-32.3527,3.57812e-15,2.38542e-14,-26.3866,-9.35956,91.8029,46.7064,0.735305,-4.44835,31.4967,7.12502,21.3234,60.3436,-20.9447,-1.27358,18.323,32.7069,-25.1878,-11.2572,10.2789,-18.6855,-3.93487,-18.0749,21.8562,-10.5298,5.89865,-22.3184
-5.05652,17.9126,-1.35007,12.5535,13.5603,2.64735,3.64347,-0.633288,-0.449673,2.25114,-0.841558,3.56767,0.330622,-0.44414,3.95273,-15.3458,-4.37166,-10.9496,33.5641,-2.43638,-1.18421,14.313,-2.53947,1.01683,4.77083e-15,4.6118e-14,-13.5221,5.13585,-77.1112,37.2767,6.22107,-21.0802,-1.9991,7.12502,5.29691,-31.9129,4.77083e-15,4.6118e-14,-26.2342,-9.22698,91.8351,46.6878,0.773619,-4.33976,31.3458,7.12502,21.4277,60.1808,-20.9589,-1.43975,18.2832,32.6849,-25.1517,-11.211,10.4062,-18.8023,-3.96606,-18.1321,21.964,-10.5881,5.80375,-22.1858
-5.05401,17.9134,-1.34671,12.6406,13.6596,2.6692,3.64298,-0.564634,-0.332085,2.2565,-0.74684,3.49974,0.326805,-0.395044,3.81249,-15.4286,-4.36544,-10.8992,33.6471,-2.42868,-1.17127,14.3669,-2.52981,1.01327,1.94809e-14,-4.77083e-15,-13.4268,5.00347,-77.1327,37.3069,6.11285,-21.2453,-1.3143,7.12502,5.13748,-31.232,1.94809e-14,-4.77083e-15,-26.1867,-9.29982,91.8617,46.8314,0.804782,-3.94552,31.7413,7.12502,21.8063,60.5328,-20.9996,-1.6144,18.2769,32.6608,-25.1097,-11.0688,10.6023,-18.9413,-3.89424,-18.1601,22.0689,-10.6594,5.59809,-22.0907
-5.05445,17.9149,-1.34214,12.6448,13.8128,2.64538,3.75101,-0.525351,-0.227673,2.24443,-0.689045,3.46998,0.248236,-0.363922,3.72198,-15.405,-4.30913,-10.9004,33.7036,-2.3645,-1.10945,14.3834,-2.49473,1.05028,2.38542e-15,2.38542e-14,-13.3135,4.92235,-77.1492,37.1947,6.18084,-21.4006,-1.08722,7.12502,4.98757,-31.0085,2.38542e-15,2.38542e-14,-26.2228,-9.34978,91.9035,46.9565,0.756,-3.08152,32.8905,7.12502,22.6357,61.5832,-20.95,-1.69262,18.3338,32.6252,-25.0894,-11.1815,10.2679,-19.0344,-3.80034,-18.1302,22.2018,-10.7097,5.39436,-22.0503
-5.0566,17.9151,-1.33978,12.5876,13.976,2.62433,3.9144,-0.502358,-0.21226,2.27587,-0.655402,3.49937,0.187288,-0.346659,3.74442,-15.4139,-4.29202,-10.8992,33.736,-2.31824,-1.153,14.3976,-2.48066,1.04003,-1.11319e-14,-1.59028e-15,-13.286,4.99594,-77.1181,37.2232,6.0815,-21.5975,-1.50825,7.12502,4.79743,-31.4339,-1.11319e-14,-1.59028e-15,-26.2397,-9.28862,91.9826,47.1277,0.639627,-2.42982,33.6265,7.12502,23.2611,62.2415,-20.8358,-1.56238,18.3785,32.5718,-25.1247,-11.4478,10.3792,-19.0951,-3.70605,-18.1114,22.3578,-10.7881,5.21808,-21.7898
-5.05948,17.9169,-1.3393,12.5536,14.0895,2.66852,4.06576,-0.494931,-0.289662,2.31107,-0.646045,3.52015,0.139597,-0.342589,3.81111,-15.4459,-4.20466,-10.8496,33.8411,-2.16065,-1.24367,14.4421,-2.4219,1.02061,1.15295e-14,-3.33958e-14,-13.2554,5.18421,-77.1017,37.3434,5.66176,-21.6133,-2.19989,7.12502,4.78215,-32.1259,1.15295e-14,-3.33958e-14,-26.3427,-9.14639,92.0398,47.4367,0.633955,-2.35428,33.8506,7.12502,23.3336,62.4564,-20.7555,-1.53947,18.3541,32.5069,-25.2279,-11.5712,10.1515,-19.1362,-3.77404,-18.1251,22.5043,-10.9321,5.15023,-19.9723
-5.0577,17.9185,-1.3354,12.6485,14.1768,2.67874,4.02679,-0.452672,-0.215266,2.33438,-0.588623,3.48575,0.180089,-0.313478,3.73053,-15.5105,-4.12801,-10.7419,33.8738,-2.03572,-1.33293,14.4605,-2.36726,0.98646,0,2.22639e-14,-13.11,5.18084,-77.1548,37.3083,4.86552,-21.7546,-2.30045,7.12502,4.64575,-32.2295,0,2.22639e-14,-26.4175,-9.22183,92.0736,47.7676,0.795473,-2.40092,34.1569,7.12502,23.2888,62.7684,-20.8107,-1.74914,18.3722,32.4518,-25.1737,-11.5052,9.92815,-19.3004,-3.69424,-18.1403,22.6436,-11.0334,4.99021,-18.8887
-5.0534,17.9204,-1.33088,12.756,14.253,2.65956,3.98648,-0.38866,-0.0562232,2.36025,-0.499649,3.43438,0.221131,-0.267587,3.5834,-15.5908,-4.09883,-10.6905,33.9149,-1.98423,-1.35438,14.4927,-2.34217,0.976626,-3.97569e-15,-7.95139e-15,-12.9592,5.10735,-77.1716,37.236,3.97492,-21.8639,-2.20851,7.12502,4.54018,-32.1399,-3.97569e-15,-7.95139e-15,-26.3542,-9.41188,92.117,47.8793,0.9956,-2.54554,34.1144,7.12502,23.1501,62.7434,-20.8872,-1.98704,18.4077,32.4225,-25.1356,-11.3205,9.83277,-19.4758,-3.64543,-18.1307,22.7463,-10.9563,4.88553,-19.5978
-5.05176,17.922,-1.3276,12.8578,14.3083,2.73748,4.00702,-0.353454,-0.105131,2.38872,-0.454737,3.42355,0.236424,-0.245865,3.59827,-15.6444,-4.03894,-10.8135,33.9567,-1.87226,-1.27378,14.5219,-2.2998,1.04888,-2.22639e-14,-3.49861e-14,-12.8367,4.99753,-77.1232,37.3278,3.84423,-21.6218,-2.49603,7.12502,4.77397,-32.4222,-2.22639e-14,-3.49861e-14,-26.2823,-9.51249,92.1886,48.0715,1.36244,-2.61053,34.4355,7.12502,23.0877,63.0723,-20.9594,-2.19408,18.3592,32.4105,-25.038,-11.2777,9.42253,-19.631,-3.48218,-18.2389,22.8328,-10.8341,4.6544,-21.2424
-5.04928,17.9217,-1.32523,12.9253,14.4115,2.8651,4.03816,-0.339828,-0.187897,2.47347,-0.440904,3.40584,0.305873,-0.240929,3.62622,-15.7338,-3.97674,-10.9428,33.9825,-1.76501,-1.15281,14.5517,-2.25452,1.13778,-3.26007e-14,-3.33958e-14,-12.7478,4.94502,-77.0502,37.6383,3.78067,-21.4122,-3.15396,7.12502,4.97631,-33.0755,-3.26007e-14,-3.33958e-14,-26.1368,-9.57237,92.2437,48.388,1.94722,-2.37778,35.2088,7.12502,23.311,63.8174,-20.9604,-2.43988,18.2497,32.3882,-25.0331,-11.21,9.32187,-19.7722,-3.16334,-18.4287,22.9373,-10.7966,4.27702,-22.1471
-5.04572,17.924,-1.32437,13.0365,14.5387,2.92337,4.07574,-0.291159,-0.170651,2.49324,-0.37531,3.38267,0.30063,-0.207811,3.59025,-15.6867,-3.90683,-10.8619,33.9719,-1.66529,-1.22325,14.5277,-2.2091,1.11363,9.14409e-15,-3.81667e-14,-12.6801,4.95725,-76.9891,37.8379,3.07994,-21.7652,-3.2091,7.12502,4.63545,-33.1384,9.14409e-15,-3.81667e-14,-26.0791,-9.67845,92.3341,48.7284,2.47821,-2.15866,35.8318,7.12502,23.5212,64.4137,-21.0279,-2.73359,18.2183,32.3575,-25.0492,-11.1705,9.15676,-20.0126,-2.77557,-18.549,23.0682,-10.8105,3.80661,-22.3612
-5.04189,17.9267,-1.32237,13.1283,14.7268,2.89818,4.09876,-0.261498,-0.093468,2.4995,-0.332692,3.39553,0.29107,-0.185583,3.5585,-15.509,-3.79689,-10.6867,33.8423,-1.51897,-1.41062,14.4147,-2.14267,1.03614,3.06128e-14,1.59028e-15,-12.5661,4.97084,-76.9345,37.8707,2.04663,-22.372,-2.73385,7.12502,4.04956,-32.6751,3.06128e-14,1.59028e-15,-26.1057,-9.72593,92.4162,49.1819,2.99463,-1.82325,36.35,7.12502,23.8429,64.8902,-21.0873,-2.82035,18.271,32.3234,-25.1542,-11.3134,8.92214,-20.2421,-2.42172,-18.5588,23.2265,-10.7743,3.31082,-22.4954
-5.03995,17.9319,-1.32295,13.1874,14.9707,2.88353,4.19185,-0.304142,-0.0727455,2.50628,-0.386535,3.4554,0.249879,-0.212222,3.61165,-15.3988,-3.66328,-10.5548,33.7968,-1.29921,-1.6324,14.3546,-2.05858,0.962684,-1.43125e-14,-7.95139e-14,-12.455,4.97953,-76.8602,37.9965,1.37967,-22.3855,-2.77154,7.12502,4.03656,-32.7131,-1.43125e-14,-7.95139e-14,-26.162,-9.60222,92.5141,49.5647,3.3211,-1.36931,36.9468,7.12502,24.2782,65.4296,-21.121,-2.90253,18.3244,32.2972,-25.1917,-11.4647,8.86443,-20.4802,-2.07696,-18.5571,23.4207,-10.7745,2.81791,-22.2625
-5.03923,17.9337,-1.32826,13.3531,15.1866,2.99998,4.31656,-0.295263,-0.152603,2.45729,-0.373605,3.46624,0.129774,-0.205117,3.6687,-15.3387,-3.56149,-10.4745,33.885,-1.13181,-1.74968,14.3711,-1.99357,0.930236,2.42517e-14,1.90833e-14,-12.3673,4.77828,-76.7446,38.0613,0.823407,-22.5531,-3.07445,7.12502,3.87466,-33.019,2.42517e-14,1.90833e-14,-26.2019,-9.67743,92.6763,49.8429,3.66677,-0.936332,37.4642,7.12502,24.6932,65.8908,-21.2666,-3.052,18.2421,32.2996,-25.2137,-11.509,8.93234,-20.8325,-1.76121,-18.6964,23.6337,-10.7864,2.4544,-21.1171
-5.03935,17.9348,-1.33573,13.5593,15.429,3.12668,4.41113,-0.31435,-0.236137,2.42446,-0.399259,3.47349,0.0456573,-0.21767,3.72547,-15.2866,-3.41565,-10.3524,33.9391,-0.900317,-1.90349,14.3701,-1.89974,0.886595,4.21423e-14,9.54166e-15,-12.2217,4.67049,-76.6434,38.1582,0.122035,-23.0389,-3.34879,7.12502,3.4055,-33.3013,4.21423e-14,9.54166e-15,-26.2255,-9.75498,92.7978,50.186,4.13689,-0.869654,37.5141,7.12502,24.7571,65.9319,-21.4666,-3.2172,18.156,32.3483,-25.3335,-11.5872,8.90373,-21.2334,-1.3609,-18.854,23.8481,-10.7221,2.14197,-19.127
-5.03529,17.9329,-1.34257,13.7219,15.7274,3.25162,4.53665,-0.344402,-0.236589,2.42248,-0.436713,3.4648,-0.0239765,-0.235541,3.71947,-15.3153,-3.27405,-10.2608,34.0123,-0.683535,-1.97174,14.3973,-1.80589,0.879417,1.19271e-14,1.43125e-14,-12.0393,4.47608,-76.5211,38.3461,-0.581148,-23.0592,-4.12996,7.12502,3.38589,-34.0828,1.19271e-14,1.43125e-14,-26.2184,-9.851,92.9173,50.5628,4.60964,-0.99301,37.5336,7.12502,24.6389,65.9676,-21.6161,-3.58543,18.0884,32.4005,-25.3614,-11.6146,8.57619,-21.6248,-0.861309,-19.0331,24.1183,-10.8081,1.69674,-18.6477
-5.03066,17.9323,-1.34819,13.8923,16.041,3.30632,4.72745,-0.363429,-0.163252,2.39887,-0.454554,3.4668,-0.154112,-0.24224,3.68277,-15.3775,-3.18113,-10.2033,34.0494,-0.541843,-1.99418,14.42,-1.74148,0.883911,-1.86858e-14,9.54166e-15,-11.9079,4.27492,-76.3759,38.4092,-0.762894,-23.0196,-4.67604,7.12502,3.4242,-34.6283,-1.86858e-14,9.54166e-15,-26.1833,-10.0936,93.0477,50.9382,5.11125,-1.09409,38.0293,7.12502,24.542,66.4764,-21.7854,-3.84818,18.0846,32.4417,-25.3768,-11.676,8.79135,-22.0643,-0.481469,-19.1073,24.4518,-11.1066,1.27073,-19.3282
-5.02305,17.9336,-1.35351,14.0493,16.3071,3.24796,4.84407,-0.345469,-0.022684,2.38311,-0.420864,3.53895,-0.238019,-0.223503,3.67776,-15.4778,-3.07648,-10.1059,34.2029,-0.322418,-2.18093,14.5034,-1.66506,0.826113,-7.07673e-14,-2.38542e-14,-11.714,4.05583,-76.1297,38.454,-1.24889,-22.843,-5.13869,7.12502,3.59475,-35.0881,-7.07673e-14,-2.38542e-14,-26.2222,-10.3676,93.2756,51.4055,5.63563,-0.905397,38.7047,7.12502,24.7229,67.1272,-21.9598,-3.9802,18.1793,32.4539,-25.4087,-11.8897,8.34161,-22.5205,-0.139357,-19.0582,24.873,-11.5893,0.746821,-19.4432
-5.01429,17.9357,-1.35778,14.1814,16.6089,3.23467,4.90882,-0.336881,0.0664036,2.41947,-0.404097,3.60119,-0.237897,-0.214739,3.69167,-15.7455,-2.94806,-9.87116,34.5292,-0.0494971,-2.44365,14.7023,-1.56673,0.719533,6.75868e-14,-2.22639e-14,-11.3836,3.76924,-75.9271,38.438,-1.88511,-23.0147,-5.582,7.12502,3.42895,-35.5342,6.75868e-14,-2.22639e-14,-26.2231,-10.7257,93.5089,51.8607,6.26683,-0.837305,39.083,7.12502,24.7881,67.4966,-22.0493,-4.17913,18.2469,32.453,-25.479,-11.9315,8.56121,-22.9913,0.251524,-19.0746,25.3695,-12.059,0.051317,-20.1265
-5.0042,17.9388,-1.36022,14.263,16.8931,3.21132,5.01085,-0.365625,0.13788,2.47344,-0.437324,3.65895,-0.237118,-0.231209,3.71371,-16.0047,-2.81095,-9.73159,34.8205,0.201011,-2.53799,14.8862,-1.4672,0.69514,2.34566e-14,3.65764e-14,-11.0327,3.6968,-75.7932,38.3857,-2.5315,-23.2912,-6.11741,7.12502,3.16187,-36.0737,2.34566e-14,3.65764e-14,-26.2375,-10.9215,93.7031,52.3526,6.83483,-1.05314,39.4399,7.12502,24.5813,67.8817,-22.083,-4.37234,18.3234,32.4352,-25.4706,-12.0866,8.32954,-23.4305,0.647951,-19.0888,25.9302,-12.4637,-0.60996,-20.9758
-4.9944,17.9413,-1.36667,14.3825,17.0746,3.14065,5.05057,-0.359763,0.186388,2.55892,-0.427885,3.72215,-0.171631,-0.227333,3.75154,-16.168,-2.68187,-9.66353,34.9555,0.390995,-2.50205,14.977,-1.37849,0.729462,-4.09496e-14,1.43125e-14,-10.5989,3.91264,-75.577,38.3124,-3.20325,-23.4,-7.04207,7.12502,3.05683,-36.9999,-4.09496e-14,1.43125e-14,-26.1714,-11.1763,93.8617,52.8808,7.36992,-1.22653,39.6628,7.12502,24.4151,68.1271,-22.2483,-4.54577,18.4211,32.429,-25.3829,-12.2865,7.67272,-23.9278,1.1798,-19.0736,26.4947,-12.7464,-1.29022,-22.1373
-4.98477,17.9406,-1.37416,14.5572,17.2116,3.06979,5.09995,-0.312743,0.220772,2.55827,-0.361844,3.7682,-0.203884,-0.193847,3.77708,-16.0735,-2.54456,-9.53012,34.9554,0.55374,-2.53405,14.9456,-1.29359,0.723124,1.66979e-14,-1.27222e-14,-10.2087,3.89537,-75.3798,38.3062,-4.26938,-23.2613,-8.28311,7.12502,3.19071,-38.239,1.66979e-14,-1.27222e-14,-26.2995,-11.6851,94.0271,53.5527,8.16825,-1.13909,39.9538,7.12502,24.4989,68.4068,-22.4922,-4.59458,18.4948,32.4159,-25.2933,-12.5078,7.40052,-24.5113,1.68696,-19.0453,27.0716,-13.0383,-1.97294,-22.9035
-4.97693,17.9434,-1.37978,14.7638,17.4389,3.04955,5.14989,-0.267968,0.242379,2.54706,-0.299094,3.79642,-0.247205,-0.161848,3.79142,-15.9354,-2.45087,-9.50144,34.9076,0.646098,-2.47837,14.885,-1.23753,0.759533,-8.74653e-15,3.02153e-14,-9.8787,3.6439,-75.2415,38.1927,-4.92046,-23.8341,-8.3231,7.12502,2.6376,-38.2865,-8.74653e-15,3.02153e-14,-26.3671,-12.453,94.2569,54.1567,9.26824,-1.43331,40.3845,7.12502,24.2168,68.8754,-22.7063,-4.6356,18.542,32.3987,-25.2563,-12.7532,7.49902,-25.1168,1.95642,-18.9859,27.6462,-13.1975,-2.61386,-22.9229
-4.97043,17.9481,-1.38461,14.8981,17.8028,3.0814,5.27846,-0.288417,0.225057,2.63393,-0.325514,3.83037,-0.227248,-0.175874,3.83879,-16.0202,-2.3503,-9.43329,34.8463,0.789608,-2.49425,14.8683,-1.16723,0.766367,8.74653e-15,-2.8625e-14,-9.38762,3.62632,-75.1152,38.0939,-5.63669,-24.8234,-8.1279,7.12502,1.68211,-38.101,8.74653e-15,-2.8625e-14,-26.2009,-13.0425,94.437,54.6263,10.3206,-1.88228,40.801,7.12502,23.7863,69.3486,-22.7671,-4.64858,18.5423,32.344,-25.4277,-13.1599,7.12473,-25.622,2.04712,-18.9172,28.2061,-13.352,-3.14597,-22.2268
-4.95601,17.9508,-1.38975,15.1098,18.0748,3.18182,5.32715,-0.260505,0.226345,2.76915,-0.291258,3.78231,-0.117696,-0.160098,3.78621,-16.4576,-2.27231,-9.1733,34.9228,0.953054,-2.67615,14.9986,-1.09607,0.671503,-1.43125e-14,4.77083e-14,-8.79276,3.30145,-74.9601,38.0132,-5.72219,-25.0766,-8.48875,7.12502,1.43755,-38.4637,-1.43125e-14,4.77083e-14,-25.8782,-13.6383,94.5327,55.0697,11.3414,-1.8543,41.1044,7.12502,23.8131,69.6485,-22.9011,-4.78629,18.4503,32.2577,-25.5111,-13.351,7.01733,-26.1449,2.07237,-18.9118,28.729,-13.5191,-3.24647,-21.4596
-4.93631,17.9549,-1.39581,15.1858,18.2663,3.08416,5.42826,-0.215482,0.385465,2.88543,-0.224081,3.80798,-0.0591175,-0.125959,3.71974,-16.6952,-2.18978,-9.08645,35.0367,1.09466,-2.68973,15.1013,-1.03251,0.673978,2.62396e-14,-7.63333e-14,-8.40316,3.1936,-74.6898,38.1675,-5.95236,-24.9137,-9.39002,7.12502,1.59488,-39.3638,2.62396e-14,-7.63333e-14,-25.6937,-14.2267,94.6551,55.574,12.4953,-1.61476,41.5239,7.12502,24.0428,70.0379,-22.9378,-4.95652,18.5356,32.1228,-25.4482,-13.4072,6.70698,-26.5688,2.04231,-18.6459,29.2152,-13.6052,-2.93196,-20.8145
-4.91712,17.9604,-1.39911,15.272,18.4034,3.01838,5.47698,-0.171176,0.440002,2.95795,-0.163096,3.82066,-0.015424,-0.0955506,3.69899,-16.6319,-2.07533,-8.94653,35.0788,1.22209,-2.70556,15.0997,-0.961441,0.666469,2.8625e-14,2.06736e-14,-7.98575,3.17618,-74.5586,38.1171,-6.37038,-25.2228,-10.0569,7.12502,1.29635,-40.0327,2.8625e-14,2.06736e-14,-25.7051,-14.7942,94.8071,56.1566,13.3695,-1.54924,42.2314,7.12502,24.1057,70.7371,-22.9551,-4.99699,18.5743,31.9591,-25.3782,-13.5665,6.08403,-26.9632,1.99086,-18.4053,29.6179,-13.7023,-2.04594,-21.2186
-4.89866,17.9674,-1.39989,15.3008,18.604,2.93428,5.59883,-0.153052,0.469335,3.00701,-0.134894,3.86108,-0.0342633,-0.0813242,3.72359,-16.5718,-1.96438,-8.89148,35.1139,1.34577,-2.64932,15.095,-0.893197,0.702911,-1.43125e-14,-2.70347e-14,-7.53882,3.20502,-74.4594,37.9377,-6.91854,-25.5666,-10.2618,7.12502,0.964317,-40.2394,-1.43125e-14,-2.70347e-14,-25.745,-15.3444,94.9847,56.7018,14.2729,-1.79404,42.8295,7.12502,23.8709,71.3661,-22.8812,-5.15829,18.6677,31.7486,-25.2264,-13.7773,5.70016,-27.2537,1.85024,-18.0724,29.9411,-13.7077,-1.04994,-20.953
-4.87958,17.9768,-1.39741,15.2641,18.9038,2.95739,5.83417,-0.143537,0.455792,3.03502,-0.116947,3.83312,-0.137445,-0.0715293,3.70246,-16.3805,-1.84056,-8.78663,35.0883,1.4639,-2.62351,15.0312,-0.820348,0.717963,-2.62396e-14,-1.27222e-14,-7.18556,2.95241,-74.4328,37.8693,-7.65861,-25.7316,-10.7685,7.12502,0.805008,-40.7467,-2.62396e-14,-1.27222e-14,-25.8151,-15.9573,95.1174,57.2543,15.083,-1.94374,43.2392,7.12502,23.7274,71.7944,-22.6446,-5.25298,18.645,31.5399,-25.23,-14.0587,6.04906,-27.3986,1.59496,-17.7855,30.1482,-13.7546,-0.188922,-20.0554
-4.85841,17.9835,-1.39477,15.1342,19.224,2.81179,6.0404,-0.149728,0.584364,3.15422,-0.115088,3.87295,-0.129424,-0.0697652,3.67214,-16.31,-1.70576,-8.79407,35.0549,1.61142,-2.49483,14.9892,-0.737452,0.799544,5.88403e-14,1.90833e-14,-6.67714,3.02061,-74.3854,37.6028,-7.4955,-26.4462,-10.9384,7.12502,0.11483,-40.9181,5.88403e-14,1.90833e-14,-25.661,-16.5516,95.1878,57.646,15.8221,-1.85565,43.5584,7.12502,23.8118,72.1027,-22.3746,-5.31053,18.7865,31.3366,-25.3066,-14.3372,6.23383,-27.4903,1.46814,-17.3453,30.2191,-13.8267,0.656977,-19.541
-4.83737,17.9877,-1.39195,15.1201,19.3566,2.75144,6.08615,-0.0802111,0.55008,3.33198,-0.0282069,3.89078,0.0234534,-0.0286139,3.70507,-16.4414,-1.61809,-8.69416,35.0746,1.73053,-2.49683,15.0231,-0.675353,0.802314,2.94201e-14,-1.27222e-14,-6.04554,2.96561,-74.2929,37.4131,-7.87866,-27.1136,-10.3506,7.12502,-0.52985,-40.3296,2.94201e-14,-1.27222e-14,-25.3993,-17.0573,95.2911,58.037,16.3799,-1.62195,43.9572,7.12502,24.036,72.4721,-22.2538,-5.23956,18.7924,31.1618,-25.3548,-14.5647,5.92425,-27.6037,1.49131,-17.0188,30.1244,-13.6165,1.72774,-18.4271
-4.81216,17.9934,-1.38584,15.1908,19.493,2.81835,6.0791,-0.00405595,0.423343,3.45425,0.0621579,3.84211,0.147965,0.0138053,3.72085,-16.4604,-1.52629,-8.4892,35.1043,1.83312,-2.56604,15.0374,-0.614061,0.756432,4.45278e-14,-6.67916e-14,-5.50496,2.76947,-74.2625,37.2576,-8.43184,-27.7561,-9.65493,7.12502,-1.15039,-39.6316,4.45278e-14,-6.67916e-14,-25.2807,-17.5684,95.3699,58.5269,16.7825,-1.36938,44.0966,7.12502,24.2781,72.5793,-22.1692,-5.20616,18.6493,31.0118,-25.5073,-14.6923,6.16305,-27.719,1.59062,-16.8583,29.8817,-13.1603,3.03813,-17.2049
-4.78735,18.0018,-1.38153,15.3356,19.7062,2.99609,6.13043,0.0283558,0.218559,3.48955,0.0944992,3.76509,0.153699,0.0275598,3.75487,-16.3775,-1.3991,-8.35814,35.1316,1.96214,-2.53222,15.0236,-0.535591,0.770999,-1.51076e-14,-3.65764e-14,-5.00843,2.51087,-74.264,37.1746,-9.0637,-27.6988,-10.0844,7.12502,-1.09498,-40.0614,-1.51076e-14,-3.65764e-14,-25.268,-18.1036,95.4408,59.0116,17.1598,-1.44529,44.0923,7.12502,24.2053,72.5847,-22.1443,-5.49874,18.4467,30.9075,-25.6012,-14.6334,6.64238,-27.8394,1.64034,-16.807,29.4872,-12.6008,4.18784,-16.3176
-4.76393,18.0074,-1.37624,15.4358,19.926,3.01608,6.22465,0.0726331,0.10673,3.50106,0.149482,3.73849,0.109619,0.0541284,3.78741,-16.3063,-1.26766,-8.20845,35.1278,2.10912,-2.54812,14.9989,-0.452993,0.764576,-8.74653e-15,1.59028e-15,-4.55954,2.38821,-74.2479,37.267,-9.79894,-27.237,-11.447,7.12502,-0.649015,-41.4257,-8.74653e-15,1.59028e-15,-25.2487,-18.5121,95.4933,59.38,17.4069,-1.34972,43.8576,7.12502,24.297,72.3378,-22.1212,-5.62464,18.4013,30.8064,-25.6691,-14.7536,6.50055,-27.9261,1.6135,-16.5139,28.9888,-11.9512,5.11452,-15.0091
-4.73886,18.0092,-1.3707,15.5327,20.1121,3.03766,6.27933,0.11953,-0.0308183,3.54931,0.204446,3.71119,0.125241,0.0795681,3.83374,-16.2174,-1.11711,-8.05385,35.0947,2.27668,-2.55963,14.9557,-0.359152,0.762543,4.37326e-14,-3.18055e-15,-4.02979,2.30322,-74.2872,37.2417,-10.099,-27.2682,-12.3622,7.12502,-0.679126,-42.3409,4.37326e-14,-3.18055e-15,-25.1244,-18.8935,95.491,59.7125,17.6572,-1.08147,44.0402,7.12502,24.5541,72.4857,-22.0811,-5.51288,18.336,30.6869,-25.8045,-15.1144,6.30754,-27.9965,1.65784,-16.2224,28.401,-11.158,5.80459,-14.134
-4.71148,18.011,-1.36729,15.5528,20.3289,3.01064,6.43682,0.16164,-0.0817387,3.58377,0.260264,3.68988,0.0695935,0.10739,3.8371,-16.1042,-0.979511,-7.94704,35.1027,2.42426,-2.52308,14.926,-0.274354,0.785009,1.82882e-14,7.95139e-15,-3.57237,2.27012,-74.3039,37.1936,-10.4978,-27.4876,-12.8053,7.12502,-0.891072,-42.7832,1.82882e-14,7.95139e-15,-25.115,-19.1797,95.5473,60.1372,17.8186,-0.674914,44.0861,7.12502,24.9438,72.4781,-21.9437,-5.45152,18.3099,30.5284,-25.8681,-15.3326,6.42809,-28.0333,1.73558,-15.9076,27.7466,-10.0956,6.62396,-13.2983
-4.67983,18.0175,-1.35939,15.635,20.6062,3.0424,6.47866,0.203425,-0.0829858,3.62653,0.314903,3.60279,0.0870332,0.135055,3.74373,-16.1341,-0.90951,-7.94713,35.1687,2.45616,-2.29384,14.9543,-0.230574,0.886491,-1.59028e-14,2.38542e-14,-3.15748,2.02627,-74.4007,37.2826,-10.9358,-27.5171,-13.3573,7.12502,-0.919505,-43.3351,-1.59028e-14,2.38542e-14,-25.0276,-19.4739,95.5649,60.4852,17.9512,-0.562695,44.046,7.12502,25.0513,72.4231,-21.8083,-5.50843,18.2231,30.3391,-25.978,-15.5199,6.50051,-28.1202,1.62143,-15.6025,27.028,-8.89436,7.72368,-12.0928
-4.64456,18.0234,-1.34884,15.7532,20.9883,3.08247,6.44401,0.193351,-0.114961,3.65141,0.298919,3.59442,0.132903,0.126304,3.75425,-16.2631,-0.841488,-8.10454,35.3467,2.57729,-2.11403,15.0592,-0.182193,1.01053,-4.05521e-14,-6.36111e-15,-2.8402,1.78022,-74.4669,37.51,-11.1054,-27.5472,-13.832,7.12502,-0.9486,-43.8096,-4.05521e-14,-6.36111e-15,-24.8619,-19.7111,95.6467,60.7389,18.1328,-0.138714,44.3112,7.12502,25.4575,72.6309,-21.6782,-5.90989,18.1735,30.1268,-25.8805,-15.5692,5.94667,-28.2471,1.46068,-15.2709,26.2396,-7.63148,8.67787,-10.9529
-4.61169,18.0291,-1.34164,15.7693,21.4305,3.03374,6.5581,0.160041,-0.0686615,3.68434,0.259365,3.58236,0.106454,0.107641,3.71807,-16.402,-0.732913,-8.01104,35.469,2.74485,-2.1317,15.1444,-0.106804,1.0171,-3.4191e-14,0,-2.46219,1.86118,-74.524,37.5896,-11.2943,-27.7403,-13.7834,7.12502,-1.13508,-43.7601,-3.4191e-14,0,-24.7558,-19.9006,95.6124,61.0631,18.3161,0.240302,44.3671,7.12502,25.8205,72.6346,-21.4874,-6.16986,18.2187,29.9325,-25.6871,-15.8867,4.80516,-28.2624,1.21405,-14.7845,25.3758,-6.68255,9.60521,-9.17197
-4.57624,18.0332,-1.33231,15.8295,21.7714,3.03258,6.57106,0.165052,-0.0356496,3.73962,0.266207,3.48161,0.156134,0.111756,3.59425,-16.3791,-0.639428,-7.8324,35.4178,2.83024,-2.15442,15.1113,-0.0465775,0.991648,2.06736e-14,-1.74931e-14,-2.00295,2.01462,-74.6148,37.6547,-11.8413,-27.8616,-13.8463,7.12502,-1.25226,-43.8223,2.06736e-14,-1.74931e-14,-24.7496,-20.161,95.4646,61.5302,18.4632,0.676581,44.2358,7.12502,26.2383,72.4419,-21.3431,-6.15651,18.1644,29.7946,-25.7402,-16.2593,4.66436,-28.3144,1.12238,-14.4532,24.4627,-5.79402,10.6067,-9.33428
-4.53831,18.0336,-1.31847,15.8952,22.151,3.10089,6.56066,0.163839,-0.111076,3.80649,0.258529,3.40689,0.23134,0.10656,3.55992,-16.3431,-0.553818,-7.80642,35.3164,2.88232,-1.99976,15.0457,0.00576449,1.06066,-1.19271e-14,-1.11319e-14,-1.52123,2.13174,-74.6754,37.76,-12.1977,-27.8376,-14.4347,7.12502,-1.22909,-44.4109,-1.19271e-14,-1.11319e-14,-24.6692,-20.3404,95.3684,61.986,18.6765,1.11589,44.4264,7.12502,26.6588,72.5692,-21.1945,-6.23087,18.0329,29.7376,-25.9732,-16.4534,4.75774,-28.3541,1.19761,-14.303,23.5164,-5.00878,11.4853,-11.3336
-4.49858,18.0308,-1.30656,15.9319,22.6477,3.13425,6.66807,0.0560148,-0.165904,3.71572,0.115686,3.29112,0.0869714,0.037287,3.47961,-15.9493,-0.349489,-7.50971,35.2407,3.01117,-1.92113,14.9089,0.120284,1.06158,-7.95139e-16,-2.06736e-14,-1.33751,2.34761,-74.9773,37.8423,-12.2512,-28.0748,-14.8988,7.12502,-1.45819,-44.8735,-7.95139e-16,-2.06736e-14,-24.9643,-20.3391,95.1914,62.4851,18.7982,1.27367,44.5726,7.12502,26.8098,72.6923,-21.0704,-6.51501,17.9962,29.7525,-26.0748,-16.7486,4.46281,-28.307,0.97232,-13.9345,22.5162,-4.8951,12.379,-11.0882
-4.45622,18.0276,-1.30002,16.0865,23.0636,3.09733,6.68737,0.00696715,-0.133693,3.60474,0.0538724,3.1628,-0.0347663,0.00957387,3.33202,-15.6397,-0.152528,-7.01507,35.1709,3.15726,-2.05488,14.804,0.237699,0.942922,1.11319e-14,5.56597e-14,-1.19765,2.59311,-75.221,38.0587,-12.4339,-28.1919,-15.1561,7.12502,-1.57126,-45.1301,1.11319e-14,5.56597e-14,-25.1723,-20.3474,95.0025,62.9349,18.8519,1.45296,44.6649,7.12502,26.9813,72.7582,-21.1738,-6.95331,18.044,29.8205,-25.8513,-16.9611,3.49799,-28.4121,0.572708,-13.4281,21.5107,-5.10488,13.3965,-10.3693
-4.41262,18.0239,-1.29729,16.2393,23.3838,2.96529,6.6154,0.1402,0.0173197,3.6974,0.237006,3.20644,0.0902072,0.101613,3.28,-15.9329,-0.21911,-7.27794,35.1372,3.14475,-1.95932,14.8527,0.209799,1.02857,5.56597e-15,-6.36111e-15,-0.668456,2.5945,-74.9184,38.2185,-12.7212,-28.2354,-15.0619,7.12502,-1.61325,-45.0356,5.56597e-15,-6.36111e-15,-24.8529,-20.6491,95.1245,63.2994,18.8229,1.51337,44.8011,7.12502,27.0391,72.8855,-21.3263,-7.13226,18.1368,29.9114,-25.9699,-17.1001,3.39242,-28.5856,-0.108618,-12.7325,20.4864,-5.10552,14.7171,-10.2298
-4.36931,18.0164,-1.2897,16.2818,23.8321,2.82872,6.61237,0.212435,0.126522,3.85864,0.337645,3.33319,0.252721,0.150999,3.34405,-16.3702,-0.320429,-7.75934,35.1063,3.14501,-1.7961,14.9334,0.164968,1.18315,5.96354e-14,3.33958e-14,0.00893306,2.74609,-74.5108,38.3724,-13.1794,-28.1915,-15.3759,7.12502,-1.57089,-45.3499,5.96354e-14,3.33958e-14,-24.341,-20.7919,95.2563,63.4925,18.8501,1.79145,44.7908,7.12502,27.3051,72.8336,-21.3217,-7.28157,18.2365,30.0147,-26.2385,-17.2205,3.7621,-28.6927,-0.559708,-12.0941,19.4674,-4.97392,15.7097,-10.6928
-4.32388,18.0076,-1.27739,16.3016,24.2918,2.74596,6.61312,0.184903,0.110628,3.92241,0.300055,3.37627,0.320207,0.131131,3.40046,-16.3379,-0.262246,-7.90586,34.9126,3.23395,-1.71304,14.8275,0.203645,1.25657,-3.02153e-14,7.95139e-15,0.441779,2.86553,-74.4445,38.534,-13.2837,-27.9878,-15.3813,7.12502,-1.37411,-45.3566,-3.02153e-14,7.95139e-15,-24.1749,-20.6978,95.1964,63.8197,18.9653,1.99221,45.0943,7.12502,27.4971,73.1066,-21.2693,-7.38974,18.2783,30.12,-26.3704,-17.6026,3.32233,-28.7171,-1.06689,-11.4753,18.4245,-4.94302,16.7532,-11.7244
-4.27191,17.9969,-1.26555,16.3638,24.7757,2.76931,6.61566,0.205518,0.0989988,3.93664,0.326784,3.33253,0.331994,0.144807,3.35995,-16.2657,-0.264189,-7.88457,34.8196,3.19174,-1.65113,14.7659,0.203645,1.2706,2.06736e-14,1.90833e-14,0.477867,2.76286,-74.4489,38.9649,-13.5449,-27.8791,-15.1975,7.12502,-1.26918,-45.1735,2.06736e-14,1.90833e-14,-24.2061,-20.8065,95.1692,64.2675,18.9725,1.96459,45.2945,7.12502,27.4707,73.3111,-21.2078,-7.74592,18.2225,30.2245,-26.3644,-17.8897,2.59229,-28.7435,-1.68773,-10.9547,17.3941,-4.9489,17.8919,-12.013
-4.21955,17.988,-1.25426,16.4093,25.2635,2.77274,6.64332,0.243693,0.120011,3.96867,0.37868,3.27616,0.347032,0.171641,3.28634,-16.4746,-0.288671,-7.80161,35.0132,3.1413,-1.56502,14.9037,0.196604,1.28736,-6.36111e-15,2.06736e-14,0.285448,2.63196,-74.4689,39.7781,-13.729,-28.0431,-15.6518,7.12502,-1.42753,-45.6268,-6.36111e-15,2.06736e-14,-24.0953,-21.0225,95.1017,64.5983,18.9752,1.96522,45.1642,7.12502,27.4713,73.1807,-21.1469,-7.93365,18.1411,30.3364,-26.545,-18.1962,1.99333,-28.762,-2.27852,-10.4356,16.3457,-4.6682,18.9005,-12.5146
-4.16726,17.9796,-1.24135,16.3162,25.7805,2.71374,6.79471,0.263678,0.110278,4.02897,0.407599,3.2799,0.323818,0.186276,3.29381,-16.6601,-0.31062,-7.7963,35.1214,3.13017,-1.53139,14.9972,0.192216,1.30153,-8.74653e-15,7.95139e-15,0.443667,2.77254,-74.3825,40.1789,-13.9755,-28.1947,-16.1854,7.12502,-1.57399,-46.1593,-8.74653e-15,7.95139e-15,-23.9408,-21.0418,95.0603,64.8349,18.8655,2.03824,45.3787,7.12502,27.5412,73.3841,-20.9504,-8.07549,18.1225,30.4519,-26.7553,-18.5781,1.19422,-28.6769,-2.91196,-9.83228,15.3458,-4.41406,19.7136,-12.5176
-4.11336,17.9752,-1.22488,16.3115,26.4555,2.74773,6.84901,0.233062,0.0572539,4.04171,0.366003,3.28419,0.30905,0.165095,3.3309,-16.5317,-0.307481,-7.82211,35.0142,3.10086,-1.45894,14.9147,0.194572,1.32968,-3.26007e-14,-7.95139e-15,0.825219,3.36219,-74.1326,39.9954,-14.2451,-28.7186,-15.8191,7.12502,-2.07994,-45.7887,-3.26007e-14,-7.95139e-15,-23.8954,-21.0222,95.0413,65.0527,18.7913,1.62774,44.1438,7.12502,27.1485,72.2111,-20.7319,-8.37471,18.0582,30.5831,-27.0111,-18.8914,0.147001,-28.6466,-3.58603,-9.32207,14.3792,-4.26023,20.3843,-12.4031
-4.05854,17.9656,-1.21098,16.3361,27.2398,2.68641,6.8395,0.18005,0.158598,4.039,0.30265,3.29674,0.315527,0.135503,3.2908,-16.4146,-0.314709,-7.76073,34.9532,3.04958,-1.43219,14.8596,0.191012,1.32058,2.70347e-14,3.18055e-15,1.19957,3.7617,-73.9681,39.7903,-14.3089,-29.2374,-15.2997,7.12502,-2.58103,-45.2638,2.70347e-14,3.18055e-15,-23.9487,-21.1363,94.9706,65.5002,18.771,0.876513,41.602,7.12502,26.4297,69.7794,-20.5827,-8.74907,18.12,30.7247,-27.3099,-19.1299,-0.0937902,-28.7715,-4.38511,-8.65043,13.4613,-4.18159,21.32,-11.7737
-4.00077,17.9509,-1.20392,16.4122,28.0313,2.59218,6.83395,0.138437,0.322046,3.98167,0.25965,3.354,0.262185,0.11731,3.2605,-16.2483,-0.371918,-7.84787,34.9123,2.96827,-1.39471,14.8041,0.157282,1.33644,1.35174e-14,2.70347e-14,1.36906,4.01332,-73.725,39.9683,-14.5545,-29.4412,-15.4844,7.12502,-2.7778,-45.446,1.35174e-14,2.70347e-14,-24.0174,-21.2001,95.0512,65.9351,18.8461,0.19977,40.5321,7.12502,25.7817,68.8052,-20.5335,-9.00204,18.207,30.8784,-27.7572,-19.453,0.200183,-29.0227,-4.98156,-8.05647,12.558,-3.7845,22.2159,-12.0441
-3.93872,17.9352,-1.19541,16.4493,28.7255,2.542,6.84159,0.157575,0.339291,3.97156,0.288584,3.44452,0.245826,0.131939,3.34289,-16.1505,-0.450709,-8.07267,34.8542,2.86376,-1.24239,14.7533,0.111133,1.4201,-7.95139e-15,-2.06736e-14,1.56705,4.13457,-73.3931,40.2294,-14.9585,-29.7537,-15.7977,7.12502,-3.07961,-45.7552,-7.95139e-15,-2.06736e-14,-24.0422,-21.3023,95.227,66.2806,18.8811,-0.0870296,40.9322,7.12502,25.507,69.2449,-20.4354,-9.31555,18.2207,31.0487,-28.1224,-19.6417,0.892429,-29.1557,-6.08417,-7.32609,11.6727,-3.52792,23.7863,-13.3005
-3.87372,17.9205,-1.18192,16.3637,29.3923,2.39288,6.8448,0.208759,0.44141,4.00674,0.363199,3.48471,0.276593,0.170766,3.32219,-16.0674,-0.569611,-8.16694,34.7659,2.65945,-1.10079,14.6967,0.0386463,1.45983,6.20208e-14,1.11319e-14,1.85782,4.00017,-73.2299,40.2764,-15.1156,-29.9533,-16.07,7.12502,-3.2724,-46.0246,6.20208e-14,1.11319e-14,-24.1457,-21.5236,95.2655,66.7221,18.9904,-0.37985,41.1666,7.12502,25.2265,69.5192,-20.2384,-9.72476,18.3135,31.2169,-28.3795,-19.7299,0.643673,-29.1626,-7.48674,-6.37096,10.8155,-3.58845,25.68,-13.8941
-3.80799,17.9079,-1.17068,16.2917,30.0198,2.36416,6.95362,0.20317,0.433776,4.06208,0.358076,3.47936,0.273839,0.168532,3.32137,-16.1771,-0.626881,-8.15365,34.805,2.56634,-1.03164,14.7417,0.00921178,1.47223,-1.35174e-14,-6.36111e-14,2.15607,3.89859,-73.1777,40.3784,-15.1027,-29.936,-16.2328,7.12502,-3.25563,-46.1877,-1.35174e-14,-6.36111e-14,-24.0668,-21.5227,95.1973,67.018,19.1286,-0.493212,41.2989,7.12502,25.1179,69.6667,-20.0101,-10.1651,18.2545,31.3903,-28.6103,-19.7669,0.479895,-29.1305,-8.45988,-5.76642,10.024,-3.82596,27.2248,-12.9653
-3.74087,17.8926,-1.16184,16.1922,30.6115,2.21359,6.98802,0.184879,0.476404,4.17073,0.336735,3.54122,0.368373,0.157771,3.36352,-16.3264,-0.650908,-8.16712,34.7816,2.53737,-0.985624,14.7647,0.0014188,1.48989,-1.11319e-14,1.43125e-14,2.65387,3.96253,-73.0592,40.4118,-15.305,-29.7559,-16.3884,7.12502,-3.08168,-46.3459,-1.11319e-14,1.43125e-14,-23.9371,-21.347,95.1294,67.3871,19.2668,-0.506991,41.5275,7.12502,25.1047,69.8971,-19.829,-10.496,18.3091,31.5619,-28.8015,-20.0282,-0.340341,-29.045,-7.83808,-5.87321,9.26916,-3.84368,27.166,-12.1462
-3.6698,17.8743,-1.15132,16.1703,31.208,2.10362,6.91854,0.212206,0.445229,4.24632,0.369534,3.61729,0.482818,0.172468,3.45867,-16.3132,-0.707096,-8.1303,34.6815,2.45854,-1.03634,14.7202,-0.0284713,1.44871,1.98785e-14,-7.15625e-14,3.07086,3.97569,-72.8424,40.5264,-15.6858,-29.4403,-16.5971,7.12502,-2.77698,-46.5588,1.98785e-14,-7.15625e-14,-23.9747,-21.2895,95.1435,67.8218,19.2577,-0.519379,41.6407,7.12502,25.0928,70.012,-19.7054,-10.929,18.3256,31.7566,-28.9923,-20.1707,-0.907985,-29.0165,-7.22787,-6.02688,8.53784,-3.63516,27.0914,-11.8897
-3.59714,17.8563,-1.13848,16.039,31.8369,1.94584,6.99714,0.29384,0.504394,4.24321,0.484867,3.64285,0.429776,0.231857,3.44403,-16.1979,-0.802273,-8.1111,34.6828,2.26882,-0.927399,14.6991,-0.086809,1.45864,-5.40694e-14,1.43125e-14,3.19269,3.77225,-72.7752,40.785,-16.3898,-29.5799,-17.2999,7.12502,-2.91178,-47.2597,-5.40694e-14,1.43125e-14,-24.1383,-21.5218,95.1316,68.2264,19.4002,-0.789174,41.9554,7.12502,24.8343,70.3626,-19.4775,-11.3262,18.3808,31.9471,-29.1839,-20.4367,-1.46189,-29.0044,-6.6579,-6.14476,7.98435,-3.20748,26.8392,-11.8882
-3.52235,17.8396,-1.12693,15.9228,32.4924,1.80017,7.10525,0.32906,0.556622,4.21905,0.539978,3.68209,0.342041,0.26118,3.45106,-16.1094,-0.894357,-8.16668,34.6886,2.09948,-0.788311,14.6851,-0.143183,1.49751,1.11319e-14,2.38542e-14,3.35258,3.68076,-72.7456,40.9245,-17.2711,-30.0601,-17.8061,7.12502,-3.37547,-47.7591,1.11319e-14,2.38542e-14,-24.211,-21.581,95.0919,68.5304,19.5516,-1.04225,41.9121,7.12502,24.5917,70.3526,-19.2122,-11.6683,18.3958,32.152,-29.6193,-20.3777,-1.3776,-28.9796,-6.13508,-6.30357,7.46574,-3.41002,26.7107,-10.8666
-3.44194,17.8196,-1.12207,15.8713,33.1446,1.68544,7.20576,0.347258,0.704011,4.2325,0.576844,3.68038,0.299578,0.283028,3.3631,-16.1218,-0.995969,-8.22148,34.6124,1.90665,-0.617533,14.6565,-0.20467,1.54487,4.37326e-14,-5.56597e-14,3.73695,3.44836,-72.6612,40.7827,-17.3569,-29.773,-18.0888,7.12502,-3.0982,-48.046,4.37326e-14,-5.56597e-14,-24.2302,-21.6264,95.0451,68.8975,19.6927,-1.44312,41.9253,7.12502,24.2074,70.4175,-19.0116,-12.1322,18.3589,32.352,-29.8736,-20.3173,-1.59899,-28.9746,-5.6309,-6.53127,6.92432,-3.57181,26.5582,-10.0825
-3.36128,17.7986,-1.11413,15.8231,33.7785,1.55418,7.26852,0.387808,0.78793,4.23716,0.639212,3.71288,0.266908,0.31612,3.34486,-16.2004,-1.10262,-8.3045,34.6629,1.73058,-0.439603,14.7021,-0.266065,1.60477,1.01778e-13,-3.02153e-14,4.00028,3.10907,-72.5907,40.7419,-17.051,-29.3623,-18.1828,7.12502,-2.70165,-48.1455,1.01778e-13,-3.02153e-14,-24.2388,-21.6602,95.0735,69.1541,19.8333,-1.9111,41.9906,7.12502,23.7587,70.5419,-18.8665,-12.4363,18.3344,32.5631,-30.0465,-20.5608,-2.07262,-28.9968,-5.11602,-6.77393,6.35832,-3.2523,26.2421,-9.97896
-3.27835,17.7779,-1.09899,15.5683,34.4497,1.29385,7.40203,0.45638,0.937767,4.25027,0.745553,3.76189,0.202362,0.372439,3.30292,-16.1396,-1.23874,-8.24098,34.6361,1.49061,-0.389417,14.6858,-0.348464,1.57432,3.26007e-14,-1.43125e-14,4.09205,2.49017,-72.6821,40.723,-16.7921,-28.9777,-18.1255,7.12502,-2.33021,-48.0925,3.26007e-14,-1.43125e-14,-24.3275,-21.7769,95.0749,69.3363,19.9518,-2.13872,41.9521,7.12502,23.5403,70.5316,-18.5104,-12.6802,18.4198,32.7498,-30.1275,-20.9175,-2.83858,-28.9224,-4.65034,-6.93684,5.92883,-2.96482,25.8265,-10.1218
-3.19217,17.7587,-1.08241,15.4934,35.1279,1.275,7.50877,0.521482,0.881011,4.1861,0.834744,3.76666,0.0716198,0.417199,3.33205,-15.85,-1.34791,-8.16587,34.5694,1.26921,-0.357351,14.5982,-0.419674,1.5366,-3.73715e-14,-4.92986e-14,4.12841,2.00251,-72.7597,40.659,-17.0301,-28.9871,-18.4183,7.12502,-2.33926,-48.3852,-3.73715e-14,-4.92986e-14,-24.6121,-21.9285,95.1528,69.5697,19.9232,-2.17195,41.8516,7.12502,23.5085,70.4351,-18.1729,-12.8648,18.2642,32.9806,-30.5353,-21.0672,-2.87196,-28.8011,-4.25947,-7.33132,5.35971,-2.42742,25.3538,-10.3507
-3.10108,17.7377,-1.06656,15.3438,35.8268,1.10276,7.54811,0.530474,0.922357,4.17578,0.853478,3.83612,0.0379734,0.427532,3.37921,-15.6701,-1.38634,-8.01021,34.4991,1.17321,-0.428255,14.5294,-0.443346,1.46398,-3.57812e-14,2.54444e-14,4.27498,2.00703,-72.7875,40.6829,-18.0438,-30.1433,-18.2864,7.12502,-3.4558,-48.2381,-3.57812e-14,2.54444e-14,-24.8399,-21.8924,95.1437,69.8758,19.7366,-1.8531,41.85,7.12502,23.8143,70.3939,-17.8917,-13.1245,18.2416,33.2252,-30.5928,-21.4631,-3.79455,-28.7923,-3.87749,-7.64352,5.01956,-1.44943,24.6549,-11.3177
-3.0084,17.7123,-1.05291,15.2109,36.531,1.03828,7.62637,0.547712,0.882131,4.22026,0.878161,3.91371,0.0379775,0.439395,3.48068,-15.8112,-1.48516,-7.97204,34.5841,1.03839,-0.417325,14.6071,-0.495603,1.44119,-3.97569e-14,2.22639e-14,4.41352,1.90357,-72.7892,40.7697,-19.0338,-31.5151,-17.7876,7.12502,-4.78053,-47.7136,-3.97569e-14,2.22639e-14,-25.0417,-21.8944,95.1761,70.3048,19.6969,-1.77945,42.3786,7.12502,23.8849,70.9133,-17.5876,-13.4762,18.0874,33.513,-30.5315,-21.8054,-4.97407,-28.9205,-3.56326,-8.0964,5.02437,-0.424776,23.7182,-12.8551
-2.91043,17.6915,-1.04339,15.0024,37.3084,0.874899,7.72952,0.5898,1.02853,4.28023,0.949045,3.99955,0.0403268,0.477476,3.48165,-16.01,-1.6805,-8.00524,34.6087,0.759029,-0.333791,14.6765,-0.607418,1.43555,-3.57812e-14,-6.36111e-15,4.5253,1.35151,-72.8438,40.8062,-19.3626,-31.8041,-17.5255,7.12502,-5.05953,-47.4451,-3.57812e-14,-6.36111e-15,-25.1075,-22.0442,95.2882,70.551,19.7503,-2.30583,42.1696,7.12502,23.38,70.7695,-17.2275,-13.9885,18.0099,33.819,-30.5453,-21.8547,-5.86226,-29.273,-3.32494,-8.49781,5.49767,1.08475,22.2932,-15.1253
-2.8092,17.6761,-1.03354,14.9619,38.0731,0.905247,7.84998,0.61579,1.05002,4.26344,0.99154,4.00716,-0.0455734,0.500137,3.47283,-15.9794,-1.80424,-7.9849,34.6276,0.529321,-0.205386,14.6868,-0.681936,1.44726,5.24792e-14,-1.59028e-15,4.52967,0.661956,-73.0323,40.9646,-19.3525,-31.4945,-18.5778,7.12502,-4.76067,-48.5043,5.24792e-14,-1.59028e-15,-25.1923,-22.1052,95.391,70.5988,19.8458,-2.75056,41.6341,7.12502,22.9533,70.2877,-16.9341,-14.4678,17.7605,34.1932,-30.625,-21.9133,-5.83372,-29.7736,-3.11763,-9.07223,6.21599,3.14847,20.3072,-17.1065
-2.71327,17.6648,-1.02617,14.9405,38.9468,0.994264,8.12465,0.647547,0.969802,4.20419,1.04294,4.07216,-0.263499,0.526188,3.57859,-15.7951,-1.96437,-7.96502,34.5828,0.269177,-0.184541,14.6364,-0.78029,1.40921,4.37326e-14,4.77083e-15,4.47656,-0.0295276,-73.1383,41.2235,-19.2761,-31.278,-20.1234,7.12502,-4.55154,-50.0545,4.37326e-14,4.77083e-15,-25.4168,-22.1381,95.5874,70.8717,20.0542,-2.59359,42.7455,7.12502,23.104,71.3802,-16.6519,-14.8619,17.5042,34.6464,-30.8974,-22.0579,-5.39502,-30.4482,-3.00091,-9.60954,7.20838,5.1906,18.3024,-19.0107
-2.62002,17.6539,-1.02072,14.8994,39.7974,1.0905,8.21224,0.768086,0.696448,4.34881,1.18978,4.29849,-0.179306,0.594697,3.95813,-15.7946,-2.28233,-8.2647,34.4475,-0.127983,-0.106191,14.599,-0.970086,1.42608,1.43125e-14,-1.59028e-14,4.69507,-0.691522,-72.9531,41.2756,-19.3582,-31.4246,-20.3284,7.12502,-4.69313,-50.2565,1.43125e-14,-1.59028e-14,-25.3117,-22.1976,95.9388,71.112,20.238,-2.81056,44.034,7.12502,22.8958,72.6947,-16.4191,-15.2345,17.2446,35.199,-31.0188,-22.2861,-5.52477,-31.0965,-2.86195,-10.1432,8.21068,7.0199,16.3513,-21.1783
-2.52369,17.639,-1.01397,14.8856,40.5911,1.18229,8.62472,0.865729,0.651803,4.26032,1.33439,4.31289,-0.508743,0.669589,3.97979,-15.7369,-2.52787,-8.27099,34.4565,-0.514974,-0.0164401,14.6098,-1.11907,1.39997,-1.59028e-15,-1.74931e-14,4.54346,-1.40608,-73.1464,41.2818,-19.4713,-31.5606,-20.3876,7.12502,-4.82442,-50.3127,-1.59028e-15,-1.74931e-14,-25.5942,-22.4252,96.1276,71.1743,20.7035,-3.72879,44.1096,7.12502,22.0144,72.8767,-16.3008,-15.7352,16.9749,35.8708,-30.9257,-22.4518,-6.50283,-31.7577,-2.65301,-10.6884,9.18223,8.67431,14.1999,-20.9988
-2.42302,17.625,-1.00431,14.9598,41.4781,1.31794,8.80099,0.941155,0.696374,4.25311,1.44476,4.27038,-0.618416,0.727122,3.89728,-15.7694,-2.83111,-8.31871,34.4266,-1.0449,0.280321,14.6307,-1.30666,1.44109,-4.77083e-15,-2.38542e-14,4.53375,-2.51944,-73.5558,41.299,-19.0996,-31.547,-21.3461,7.12502,-4.81136,-51.2715,-4.77083e-15,-2.38542e-14,-25.7888,-22.6691,96.1587,71.2711,21.1716,-4.58132,43.8541,7.12502,21.1956,72.7153,-16.267,-16.3757,16.6897,36.6778,-31.1879,-22.4505,-7.54218,-32.4532,-2.5295,-11.2166,10.0668,9.59514,12.1904,-18.3434
-2.32114,17.6129,-0.992786,15.0895,42.4085,1.55286,8.87064,1.072,0.728296,4.29611,1.62261,4.22445,-0.621389,0.817413,3.81368,-15.6793,-3.24081,-8.57126,34.3102,-1.73691,0.737313,14.6018,-1.56485,1.55599,7.55382e-14,-6.36111e-15,4.48821,-3.87214,-73.9017,41.3543,-18.7735,-31.6991,-22.3142,7.12502,-4.95823,-52.2362,7.55382e-14,-6.36111e-15,-25.8564,-22.8628,96.2065,71.2746,21.3413,-4.6922,43.1915,7.12502,21.0891,72.0646,-16.2625,-17.0883,16.343,37.6062,-31.2616,-22.8129,-8.04214,-33.0895,-1.80894,-12.2228,10.9929,9.96046,9.93424,-17.4842
-2.22193,17.6002,-0.98152,15.4018,43.3331,2.02928,8.89973,1.19668,0.533508,4.34524,1.77379,4.21604,-0.601113,0.891058,3.9009,-15.3394,-3.56162,-8.75811,34.0019,-2.23809,0.890167,14.42,-1.77074,1.56733,-2.70347e-14,-1.59028e-14,4.4277,-4.96424,-74.1461,41.4287,-18.8338,-32.0348,-23.0142,7.12502,-5.28231,-52.9284,-2.70347e-14,-1.59028e-14,-25.778,-22.7513,96.3535,70.9914,20.937,-4.65772,43.027,7.12502,21.1222,71.8965,-16.3474,-17.7377,15.8272,38.6246,-30.9059,-23.4262,-7.40391,-33.7181,-0.989119,-13.5166,12.0223,10.1077,8.21615,-18.3625
-2.126,17.5914,-0.973543,15.8525,44.3058,2.46888,8.84346,1.24489,0.37913,4.35962,1.82567,4.22566,-0.563447,0.915379,3.99476,-14.9901,-3.80304,-8.93507,33.6465,-2.64338,1.08092,14.2124,-1.93103,1.60917,4.85035e-14,-3.18055e-15,4.45093,-5.7063,-74.4619,41.4435,-18.9658,-32.4229,-23.421,7.12502,-5.65701,-53.3255,4.85035e-14,-3.18055e-15,-25.8215,-22.371,96.3629,70.9074,20.7916,-5.14386,43.084,7.12502,20.6552,72.0049,-16.6943,-18.3111,15.4066,39.7051,-30.6597,-23.9659,-6.58866,-34.4546,-0.14084,-14.8201,13.0897,9.86674,6.52632,-19.3151
-2.03043,17.5869,-0.960892,16.2416,45.1837,2.84492,8.76912,1.35126,0.189614,4.42481,1.95137,4.2717,-0.470794,0.975271,4.14106,-14.8338,-4.13165,-9.23241,33.3799,-3.15154,1.37124,14.1045,-2.14021,1.69351,3.97569e-15,-2.06736e-14,4.6005,-6.47645,-74.8007,41.267,-19.4713,-33.0083,-23.0925,7.12502,-6.22221,-52.9812,3.97569e-15,-2.06736e-14,-25.9228,-21.9987,96.4079,70.892,21.4067,-5.84933,42.1013,7.12502,19.9772,71.0944,-17.0156,-18.7387,15.0312,40.8305,-30.6,-24.2016,-5.83638,-35.0515,0.609575,-15.9416,14.138,9.08815,4.47039,-18.5581
-1.93012,17.5824,-0.94813,16.3917,46.0655,3.11159,8.78346,1.54824,0.244469,4.57528,2.21574,4.26512,-0.339195,1.10779,4.08059,-14.7011,-4.619,-9.49682,33.1167,-3.9271,1.74868,14.0275,-2.44882,1.76219,0,-4.29375e-14,4.63367,-7.3028,-75.1069,41.3304,-20.4681,-33.8724,-23.1812,7.12502,-7.05642,-53.0436,0,-4.29375e-14,-25.9498,-21.8803,96.4563,70.7338,22.1624,-6.15416,41.7593,7.12502,19.6842,70.7827,-17.1358,-19.2002,14.6864,41.9527,-30.4015,-24.2776,-5.03153,-35.4599,1.01323,-16.7743,15.1526,8.23742,2.86643,-17.0529
-1.82822,17.5772,-0.936547,16.4801,47.0929,3.18193,8.7522,1.7016,0.691784,4.64476,2.451,4.19599,-0.245771,1.23296,3.73574,-14.373,-5.06435,-9.49396,32.7769,-4.69083,1.98746,13.8643,-2.73853,1.73413,-1.51076e-14,-6.04305e-14,4.47597,-8.20308,-75.575,41.4524,-21.3443,-34.5898,-23.3346,7.12502,-7.74888,-53.1726,-1.51076e-14,-6.04305e-14,-26.0921,-21.8451,96.3543,70.5963,22.5979,-6.43001,43.0089,7.12502,19.4189,72.0592,-17.3494,-19.8164,14.5739,43.0447,-29.9155,-24.846,-5.53395,-35.9344,1.23199,-17.3713,16.0306,7.91933,1.6762,-16.1997
-1.7321,17.5747,-0.923484,16.7344,48.1794,3.38898,8.69296,1.79788,1.0101,4.67966,2.60117,4.16158,-0.170963,1.31399,3.50919,-14.0305,-5.37464,-9.53548,32.4811,-5.23629,2.21718,13.7071,-2.94343,1.74821,1.11319e-14,1.59028e-14,4.55208,-8.96354,-76.0808,41.0604,-21.6526,-35.0367,-23.714,7.12502,-8.1802,-53.5356,1.11319e-14,1.59028e-14,-26.3345,-21.615,96.2595,70.5145,23.0161,-7.64345,44.9205,7.12502,18.2519,74.0842,-17.5821,-20.283,14.4197,44.0696,-29.7732,-25.4342,-4.83751,-36.3627,1.25069,-17.9857,16.7154,7.83771,0.613602,-15.8786
-1.63945,17.5734,-0.909811,16.8703,49.1369,3.77934,8.95436,1.91911,1.10233,4.78553,2.77828,4.15237,-0.20955,1.40575,3.42527,-13.81,-5.70853,-9.80959,32.3454,-5.7705,2.56389,13.6646,-3.15779,1.84903,5.24792e-14,-1.74931e-14,4.85631,-9.35613,-76.4404,40.3022,-21.8757,-35.078,-24.1083,7.12502,-8.22006,-53.9284,5.24792e-14,-1.74931e-14,-26.5722,-21.1875,96.1383,70.4662,23.402,-8.07234,45.5943,7.12502,17.8392,74.7961,-17.4905,-20.5378,14.0033,45.0413,-29.7611,-25.8241,-2.13237,-36.3499,1.09311,-18.6274,17.2215,7.58977,-0.275023,-14.7015
-1.54304,17.5803,-0.892343,16.7913,49.9771,3.95659,9.18613,2.10726,1.21428,4.90397,3.04858,4.29129,-0.229224,1.54377,3.47623,-13.3363,-6.08272,-10.2314,32.0868,-6.30663,2.79677,13.5234,-3.40625,1.93393,-1.1291e-13,-3.02153e-14,5.05759,-9.66188,-76.6348,39.6934,-22.0914,-35.131,-24.4256,7.12502,-8.2712,-54.2437,-1.1291e-13,-3.02153e-14,-26.9134,-20.5197,96.2169,70.3588,23.3999,-7.51788,45.3615,7.12502,18.3727,74.5139,-17.3385,-20.5988,13.7158,45.9522,-29.6213,-26.46,0.109283,-36.1766,1.05698,-19.1521,17.6118,7.33623,-1.40574,-13.9991
-1.44829,17.5849,-0.875206,16.954,50.841,4.21005,9.20537,2.29538,1.27264,5.00604,3.30674,4.42763,-0.151654,1.67434,3.56299,-13.0097,-6.43157,-10.4306,31.8391,-6.81965,2.91951,13.4052,-3.63272,1.93864,-1.19271e-14,-3.49861e-14,5.24214,-9.92991,-76.9676,39.2858,-22.6177,-35.5797,-24.317,7.12502,-8.70422,-54.1175,-1.19271e-14,-3.49861e-14,-27.2931,-19.9452,96.2841,70.315,23.4892,-7.39346,45.3352,7.12502,18.4924,74.4762,-17.4072,-20.5856,13.4674,46.8418,-29.4747,-27.2203,1.04717,-36.1445,0.821501,-19.6484,17.8689,7.21967,-2.21087,-13.6383
-1.3541,17.5874,-0.860018,17.2887,51.8046,4.54684,9.15037,2.46506,1.44193,5.05032,3.54565,4.49969,-0.0825599,1.79738,3.52403,-12.8662,-6.80596,-10.5185,31.771,-7.36908,3.01243,13.4016,-3.86473,1.9035,-3.10104e-14,4.13472e-14,5.4855,-10.2911,-77.3933,38.7669,-22.9736,-35.5089,-24.7358,7.12502,-8.63589,-54.5392,-3.10104e-14,4.13472e-14,-27.7582,-19.519,96.2943,70.3587,23.5203,-7.92447,45.4754,7.12502,17.9815,74.6642,-17.5742,-20.774,13.2195,47.6763,-29.0838,-27.9523,2.33853,-36.1549,0.394084,-20.1223,18.0019,7.09172,-2.82967,-13.6886
-1.26013,17.5935,-0.843047,17.9094,52.7296,5.2167,9.10449,2.63643,1.4464,5.05469,3.77343,4.52357,-0.065905,1.91194,3.52707,-12.6982,-7.17433,-10.6476,31.7744,-7.89836,3.10494,13.4258,-4.09251,1.87924,4.53229e-14,3.18055e-14,5.72784,-10.4133,-77.7238,38.2247,-22.9312,-34.72,-26.2692,7.12502,-7.87453,-56.1026,4.53229e-14,3.18055e-14,-28.3582,-19.0769,96.2602,70.5253,23.3501,-8.98925,45.6146,7.12502,16.9568,74.8944,-17.7516,-20.9526,12.7477,48.4778,-28.3501,-28.7594,4.59968,-36.1221,0.0120379,-20.8465,18.0717,6.8839,-3.47263,-13.5753
-1.16822,17.605,-0.821685,18.3332,53.576,5.82666,9.18895,2.8165,1.32313,5.17274,4.00996,4.68254,-0.0208572,2.02882,3.73932,-12.6009,-7.56443,-10.8984,31.7056,-8.39069,3.10383,13.4367,-4.33031,1.84065,2.38542e-14,-3.18055e-15,6.03393,-9.93777,-77.7831,37.7504,-23.2457,-34.5565,-26.9041,7.12502,-7.71672,-56.7433,2.38542e-14,-3.18055e-15,-28.9173,-18.532,96.2995,70.7978,22.866,-9.72846,45.9162,7.12502,16.2451,75.2556,-17.714,-20.8299,12.2802,49.2003,-27.7078,-29.6923,7.77603,-35.8594,-0.40072,-21.4361,18.1101,6.66237,-3.96951,-13.193
-1.08438,17.6117,-0.801213,18.5957,54.4772,6.18237,9.29156,2.92585,1.33934,5.2663,4.16787,4.907,-0.00342665,2.10902,3.94738,-12.3813,-7.89832,-11.2537,31.5316,-8.81647,3.18686,13.3831,-4.5432,1.86681,-5.08889e-14,2.22639e-14,6.56808,-9.6414,-78.2287,36.9906,-23.2813,-35.0936,-25.9085,7.12502,-8.23513,-55.728,-5.08889e-14,2.22639e-14,-29.5948,-17.9223,96.277,71.2529,22.5621,-10.1644,46.4346,7.12502,15.8253,75.8078,-17.704,-20.6275,12.084,49.8777,-27.4291,-30.504,9.48906,-35.6151,-1.06361,-21.6634,18.0794,6.55541,-4.26344,-13.3889
-1.00201,17.617,-0.7806,18.8839,55.3058,6.59279,9.44048,3.07803,1.43076,5.34462,4.38752,5.02964,-0.0189762,2.2218,3.99749,-12.2446,-8.23034,-11.4595,31.43,-9.27098,3.27031,13.3722,-4.75004,1.86101,-4.77083e-14,7.4743e-14,6.98229,-9.19532,-78.743,36.301,-23.5533,-34.8049,-25.7716,7.12502,-7.95645,-55.6018,-4.77083e-14,7.4743e-14,-30.3169,-17.4421,96.1124,71.6571,22.5445,-10.5812,46.6475,7.12502,15.4239,76.0521,-17.6808,-20.2544,11.8583,50.5375,-27.7187,-30.9541,10.5903,-35.3232,-1.61376,-21.9515,18.0263,6.41133,-4.7055,-13.9632
-0.921777,17.6243,-0.753374,19.3605,56.0358,7.16452,9.42983,3.21985,1.29445,5.51759,4.5669,5.18434,0.133792,2.30955,4.22575,-12.2815,-8.52657,-11.7812,31.2501,-9.65736,3.43784,13.3735,-4.93031,1.91049,1.27222e-14,2.54444e-14,7.4622,-8.12604,-79.0295,35.8366,-23.9903,-34.5905,-25.4199,7.12502,-7.74949,-55.2579,1.27222e-14,2.54444e-14,-30.8114,-16.742,95.7984,71.8906,22.3815,-10.8158,46.7381,7.12502,15.1979,76.1599,-17.7243,-19.8674,11.5735,51.2138,-27.6276,-30.9807,12.6831,-35.0636,-1.96394,-22.3923,17.9724,6.18668,-5.26336,-14.2323
-0.845423,17.6286,-0.728544,20.1452,56.8248,7.89453,9.28848,3.3801,1.07437,5.60449,4.76098,5.33967,0.258982,2.40206,4.50499,-12.1494,-8.85037,-11.9779,30.9758,-10.1181,3.55885,13.2954,-5.13639,1.91501,-2.06736e-14,-3.18055e-15,7.83421,-7.216,-79.2699,35.5797,-24.3798,-34.2096,-25.4469,7.12502,-7.38188,-55.2981,-2.06736e-14,-3.18055e-15,-31.4078,-16.2013,95.5468,72.2126,22.0649,-10.8583,47.0009,7.12502,15.157,76.4258,-17.9671,-19.6235,11.3022,51.8939,-26.697,-30.7907,14.6624,-35.0202,-2.46505,-22.8455,17.9437,6.04694,-5.64029,-13.8044
-0.772506,17.6322,-0.706103,21.0136,57.6032,8.56372,8.98372,3.71799,1.01922,5.62565,5.19273,5.35739,0.410673,2.61604,4.53374,-11.7599,-9.29497,-11.7987,30.602,-10.8915,3.74304,13.1261,-5.43186,1.84284,-5.24792e-14,6.36111e-15,8.08071,-7.1427,-79.7651,35.3912,-24.5329,-33.8797,-25.8529,7.12502,-7.06348,-55.7151,-5.24792e-14,6.36111e-15,-32.1022,-16.4112,95.2486,72.658,22.045,-10.6918,47.3759,7.12502,15.3174,76.7887,-18.3768,-19.2471,11.1366,52.5134,-25.4333,-30.3688,16.1285,-35.1664,-2.89175,-23.2485,18.001,5.9209,-5.94724,-12.6574
-0.706089,17.6336,-0.683296,21.4557,58.4735,8.89064,8.94788,3.99577,1.22375,5.60647,5.57804,5.4102,0.396518,2.81383,4.43985,-11.3644,-9.73062,-11.6727,30.3297,-11.6441,3.9639,13.0056,-5.72153,1.7986,4.45278e-14,-1.27222e-14,8.14658,-7.09184,-80.4136,35.357,-24.3792,-33.7201,-25.9366,7.12502,-6.90937,-55.8038,4.45278e-14,-1.27222e-14,-32.9362,-16.5616,94.8299,73.1713,22.0838,-10.3561,47.9068,7.12502,15.6407,77.2946,-18.5764,-18.8309,11.17,53.0279,-24.0602,-29.3365,18.263,-35.2298,-3.14545,-23.4746,18.1468,5.73003,-6.54022,-12.2868
-0.63658,17.6366,-0.653164,21.4165,59.172,8.86706,9.06879,4.21845,1.51626,5.65682,5.90494,5.54569,0.37551,2.98468,4.38104,-11.0484,-10.1018,-11.8498,30.1364,-12.2216,4.18843,12.9475,-5.96807,1.82892,-4.92986e-14,7.95139e-14,8.35619,-6.77376,-81.1119,35.3575,-24.4311,-33.2272,-25.7023,7.12502,-6.43354,-55.5846,-4.92986e-14,7.95139e-14,-33.7454,-16.4286,94.4307,73.7066,22.4415,-10.5678,48.5563,7.12502,15.4368,77.9598,-18.563,-18.1421,11.2962,53.4234,-22.6059,-27.9987,18.9823,-35.089,-3.04337,-23.6111,18.3767,5.36569,-7.19481,-12.0391
-0.561144,17.6449,-0.614895,21.4595,59.4425,9.07409,9.17026,4.55022,1.44075,5.84182,6.34285,5.67068,0.462582,3.2026,4.51342,-10.7754,-10.4502,-11.9682,29.819,-12.7522,4.33525,12.8336,-6.2003,1.82658,7.4743e-14,7.95139e-14,8.67819,-6.19715,-81.681,35.3745,-24.8667,-32.6133,-25.4985,7.12502,-5.84084,-55.398,7.4743e-14,7.95139e-14,-34.3805,-16.2646,94.0766,74.2003,23.1742,-11.3152,49.2648,7.12502,14.7168,78.7224,-18.4392,-17.0802,11.1204,53.7168,-21.1167,-26.3621,17.5388,-34.7773,-2.64009,-23.9808,18.6667,4.82099,-7.68479,-11.4162
-0.49136,17.65,-0.584323,21.7722,59.8101,9.48194,9.2666,4.8224,1.32013,5.98513,6.69981,5.79449,0.507282,3.37904,4.67445,-10.5242,-10.7591,-12.0895,29.4712,-13.2326,4.5144,12.7119,-6.40867,1.84483,-4.13472e-14,-1.59028e-14,9.00661,-5.46787,-82.1991,35.3359,-25.1356,-31.9679,-25.1536,7.12502,-5.21769,-55.0694,-4.13472e-14,-1.59028e-14,-35.157,-15.949,93.662,74.8467,23.692,-11.1989,49.749,7.12502,14.8289,79.1984,-18.457,-16.1936,10.8893,53.964,-19.8247,-24.5126,12.92,-34.6072,-2.42728,-24.3831,18.9927,4.39706,-8.12829,-10.5139
-0.429695,17.6538,-0.551769,22.2721,60.3805,10.0018,9.33861,5.05163,1.33863,6.06339,7.00803,5.82373,0.526137,3.5344,4.66233,-10.3011,-11.0791,-12.0716,29.177,-13.7612,4.7108,12.6134,-6.62093,1.83879,-4.29375e-14,-3.49861e-14,9.28752,-5.09084,-82.9343,35.285,-24.9231,-31.3487,-24.7933,7.12502,-4.61985,-54.7229,-4.29375e-14,-3.49861e-14,-35.8836,-15.8754,93.0964,75.4519,24.2559,-11.4905,50.3251,7.12502,14.548,79.795,-18.5579,-15.5083,10.7519,54.1665,-18.8029,-22.5272,8.08656,-34.599,-2.39736,-24.7408,19.3725,4.01358,-8.57196,-9.80339
-0.36798,17.652,-0.516225,22.6241,60.9085,10.3899,9.46445,5.27176,1.42391,6.12404,7.31253,5.86691,0.504027,3.6896,4.62143,-10.1439,-11.3947,-12.146,29.0236,-14.2557,4.90379,12.5935,-6.82484,1.84635,1.74931e-14,-7.95139e-14,9.54629,-4.73033,-83.7429,35.2621,-24.5476,-30.8419,-24.4565,7.12502,-4.13047,-54.3962,1.74931e-14,-7.95139e-14,-36.5846,-15.7348,92.5476,76.0267,24.728,-11.5873,50.751,7.12502,14.4546,80.2276,-18.6563,-14.8745,10.6762,54.3632,-17.6658,-20.4608,7.39544,-34.5995,-2.31438,-25.0313,19.8265,3.57478,-9.07132,-9.8513
-0.305399,17.6433,-0.486393,22.9546,61.464,10.6944,9.48951,5.44438,1.57337,6.21197,7.55613,5.96637,0.570991,3.81566,4.62206,-9.98095,-11.6835,-12.2925,28.7798,-14.7105,5.1468,12.5446,-7.01624,1.89031,-8.5875e-14,-2.54444e-14,9.87604,-4.13751,-84.3866,35.3386,-24.4925,-30.3441,-24.4673,7.12502,-3.64973,-54.4158,-8.5875e-14,-2.54444e-14,-37.1721,-15.3504,91.9887,76.4071,24.6699,-11.3893,50.8407,7.12502,14.6455,80.3035,-18.8398,-14.5624,10.6067,54.5193,-16.6321,-18.2893,7.59797,-34.6893,-2.32052,-25.2538,20.3163,3.19448,-9.53474,-9.827
-0.244215,17.6285,-0.460994,23.7264,62.2233,11.4381,9.45856,5.50208,1.69944,6.29336,7.64209,6.00527,0.678051,3.86275,4.59438,-9.9602,-11.9587,-12.2341,28.542,-15.1343,5.24175,12.4912,-7.18867,1.8455,-7.31528e-14,3.18055e-15,10.3091,-3.43374,-84.9883,35.4135,-24.73,-29.8361,-24.2915,7.12502,-3.15918,-54.2478,-7.31528e-14,3.18055e-15,-37.6776,-14.865,91.2463,76.7317,24.3475,-11.3161,51.0307,7.12502,14.7159,80.4884,-19.0549,-14.6155,10.4005,54.7014,-16.2664,-16.1642,6.49916,-34.8742,-2.68898,-25.5729,20.8401,2.85872,-9.91592,-9.63064
-0.185923,17.6219,-0.423327,24.4087,62.9838,12.1133,9.45658,5.55965,1.70295,6.34331,7.72271,6.07787,0.716585,3.90445,4.66381,-9.9319,-12.1956,-12.2108,28.4184,-15.504,5.35971,12.4832,-7.33551,1.8234,7.31528e-14,0,10.6209,-2.68394,-85.5842,35.5785,-24.9951,-29.1623,-24.144,7.12502,-2.50846,-54.109,7.31528e-14,0,-38.2376,-14.336,90.5812,77.0676,23.6561,-11.3052,51.4029,7.12502,14.7265,80.8598,-19.2027,-14.475,10.3419,54.8059,-16.3739,-14.5748,4.59002,-34.9481,-3.06338,-25.7739,21.3381,2.43017,-10.2543,-8.79826
-0.12968,17.6055,-0.407103,25.2835,63.8263,12.9033,9.53526,5.50419,1.9253,6.3248,7.6772,6.16131,0.675054,3.88865,4.62423,-9.92848,-12.4136,-12.2302,28.3161,-15.7918,5.32878,12.471,-7.46742,1.76469,1.1291e-13,-2.22639e-14,10.9612,-1.68836,-86.0598,35.7113,-25.0707,-28.4563,-24.0177,7.12502,-1.82665,-53.9896,1.1291e-13,-2.22639e-14,-38.6932,-13.5304,90.1401,77.2951,22.7247,-10.9346,52.1578,7.12502,15.0835,81.5882,-19.5355,-14.57,10.2349,54.9265,-16.5279,-13.0522,2.61566,-35.1731,-3.52692,-26.0534,21.768,2.18816,-10.5422,-8.27648
-0.0693773,17.6023,-0.368267,25.5493,64.4316,13.3707,9.761,5.5803,1.86389,6.43989,7.79381,6.38071,0.627074,3.94802,4.85879,-9.87129,-12.6389,-12.3371,28.2249,-16.0916,5.35365,12.4686,-7.60719,1.74008,-3.49861e-14,-9.54166e-15,11.2479,-0.594397,-86.3805,35.8834,-25.0605,-28.1485,-24.0972,7.12502,-1.52933,-54.0715,-3.49861e-14,-9.54166e-15,-39.1599,-12.8128,89.7965,77.5784,22.0789,-10.6128,52.9111,7.12502,15.3935,82.318,-19.4291,-14.3813,10.2068,54.944,-17.1111,-11.7491,1.61632,-34.9196,-3.63528,-26.2377,22.1415,1.76665,-10.886,-8.02274
-0.00989891,17.594,-0.341086,26.2994,65.0334,14.1593,9.88967,5.66788,1.89413,6.42905,7.9258,6.47952,0.526588,4.01616,4.91644,-9.61588,-12.8679,-12.5109,28.0445,-16.4504,5.56116,12.4226,-7.76513,1.79527,0,5.40694e-14,11.4777,0.379112,-86.6397,35.9442,-24.7612,-27.9418,-23.816,7.12502,-1.32974,-53.7916,0,5.40694e-14,-39.8036,-12.4735,89.542,78.1066,21.7894,-10.0421,53.7113,7.12502,15.9431,83.0751,-19.6091,-14.4224,10.0541,54.9694,-17.6226,-10.8022,0.369768,-34.8926,-3.54195,-26.6683,22.4799,1.42262,-11.564,-7.61557
0.0441441,17.5855,-0.316937,27.1251,65.7537,15.0563,10.1576,5.65574,2.10815,6.40599,7.94612,6.49123,0.382376,4.03316,4.77914,-9.44032,-13.0894,-12.641,27.9137,-16.8213,5.82921,12.4172,-7.91493,1.85799,2.06736e-14,-1.59028e-14,11.796,1.23387,-87.047,35.9644,-24.2885,-27.1924,-23.3413,7.12502,-0.605961,-53.3201,2.06736e-14,-1.59028e-14,-40.308,-11.9923,89.0635,78.4421,21.2503,-7.8706,53.2081,7.12502,18.0333,82.3921,-19.7705,-14.6244,9.90931,54.9407,-18.1988,-10.2046,-0.981074,-34.8621,-3.08425,-27.2912,22.7745,1.18163,-12.7649,-7.22746
0.0939341,17.577,-0.288673,27.7274,66.4384,15.9587,10.6504,5.59383,2.21177,6.44892,7.90892,6.5925,0.162467,4.02004,4.78301,-9.29524,-13.2248,-12.7542,27.7673,-17.037,5.98252,12.382,-8.00863,1.90214,7.95139e-15,1.27222e-14,12.0812,2.33089,-87.3315,36.0061,-23.7664,-26.0814,-23.0963,7.12502,0.467081,-53.0755,7.95139e-15,1.27222e-14,-40.8068,-11.2952,88.5072,78.6629,20.6752,-5.11118,52.0363,7.12502,20.6866,80.9538,-19.6962,-14.7058,9.71374,54.8674,-19.114,-9.92551,-1.43618,-34.5444,-3.41489,-27.5263,23.0615,0.861404,-13.0388,-7.5696
0.150671,17.5744,-0.256715,28.2322,66.7663,16.6285,10.8581,5.73347,2.05885,6.51449,8.09806,6.72994,0.0654817,4.11297,4.96986,-9.0755,-13.4107,-12.756,27.6138,-17.3124,6.0062,12.31,-8.13386,1.87816,-3.97569e-14,-1.27222e-14,12.3475,3.12095,-87.4949,35.9951,-23.2335,-25.0192,-22.796,7.12502,1.49304,-52.7705,-3.97569e-14,-1.27222e-14,-41.271,-10.9624,88.3213,79.1096,21.3587,-5.41726,52.4747,7.12502,20.3925,81.4239,-19.801,-14.5586,9.4846,54.7443,-20.0072,-9.8515,-2.08907,-34.2789,-3.78642,-27.631,23.3049,0.594812,-12.8069,-7.22405
0.216551,17.5787,-0.22432,28.4635,66.8089,16.7803,10.8193,6.22301,2.13661,6.48234,8.74011,6.59288,0.0384212,4.43312,4.70886,-8.71159,-13.8113,-12.0416,27.3995,-18.0385,6.03729,12.1524,-8.39237,1.6915,-1.43125e-14,-1.59028e-14,12.5654,2.87662,-87.8313,35.987,-22.8951,-24.4783,-22.4695,7.12502,2.01543,-52.4397,-1.43125e-14,-1.59028e-14,-41.6464,-11.8932,88.2744,79.8562,23.9184,-8.93474,54.0174,7.12502,17.0093,83.2927,-20.1911,-14.213,9.36773,54.5553,-20.8084,-9.89443,-1.98052,-34.2342,-3.51738,-27.8023,23.5775,0.211056,-12.9369,-7.07093
0.276771,17.5824,-0.195828,28.879,66.8937,17.0947,10.7647,6.29799,2.00658,6.5628,8.82735,6.69531,0.111156,4.47472,4.88797,-8.73941,-13.8827,-12.3014,27.3157,-18.1343,6.22318,12.1863,-8.43932,1.7747,0,1.27222e-14,12.9887,3.98729,-88.0137,35.9508,-22.7962,-24.1618,-22.1552,7.12502,2.32109,-52.1224,0,1.27222e-14,-42.0405,-11.4569,88.3527,80.596,26.0656,-11.9703,54.7217,7.12502,14.0857,84.2243,-20.6504,-13.9282,9.21067,54.3722,-21.7024,-10.1106,-1.43636,-34.2613,-3.47802,-27.9498,23.8948,-0.152852,-12.9856,-6.70838
0.330213,17.5816,-0.168176,28.9633,67.0965,17.1509,10.9625,6.46216,2.1125,6.55637,9.06726,6.74262,-0.0111956,4.59711,4.8262,-8.66558,-14.0722,-12.2495,27.2741,-18.4495,6.36087,12.1995,-8.55813,1.76633,-4.6118e-14,-3.18055e-15,13.3393,4.10869,-88.396,35.8776,-22.4086,-23.5595,-21.8608,7.12502,2.90278,-51.8208,-4.6118e-14,-3.18055e-15,-42.4184,-11.4936,88.198,81.1845,26.8336,-12.7771,54.9613,7.12502,13.3081,84.5163,-21.0236,-13.6992,9.18525,54.1659,-22.5386,-10.4644,-0.905137,-34.236,-3.49963,-27.9328,24.2404,-0.479517,-13.0568,-6.37567
0.379642,17.5784,-0.144091,29.1164,67.2986,17.3079,11.163,6.56073,2.23243,6.61822,9.22115,6.80179,-0.0562859,4.67746,4.78469,-8.68472,-14.2191,-12.4078,27.2186,-18.6634,6.51641,12.2421,-8.64937,1.8032,4.77083e-14,4.13472e-14,13.7785,4.30633,-88.6673,35.8364,-22.022,-22.9726,-21.7017,7.12502,3.46952,-51.6532,4.77083e-14,4.13472e-14,-42.6142,-11.245,88.0451,81.644,26.9432,-12.791,55.2203,7.12502,13.2947,84.7762,-21.4482,-13.5446,9.09312,53.983,-23.2127,-10.9333,-1.01205,-34.2021,-3.47485,-28.001,24.5534,-0.828076,-13.253,-6.55951
0.428117,17.5796,-0.120441,29.2619,67.5374,17.4931,11.3024,6.66731,2.46885,6.68682,9.38766,6.76543,-0.0273619,4.76626,4.58828,-8.35954,-14.3835,-12.4729,26.962,-18.9458,6.71079,12.1381,-8.77518,1.85746,-8.74653e-14,8.26944e-14,14.1666,4.29535,-88.9851,35.8729,-21.9011,-22.7822,-21.7077,7.12502,3.65343,-51.6562,-8.74653e-14,8.26944e-14,-42.8452,-11.0791,88.0537,82.0886,26.8277,-12.8409,55.4448,7.12502,13.2466,85.0039,-21.8174,-13.3317,8.99711,53.7713,-23.7631,-11.4102,-0.820366,-34.1229,-3.53701,-28.0299,24.8818,-1.21309,-13.3314,-6.79898
0.47672,17.5803,-0.0943525,29.6276,67.6857,17.8576,11.3952,6.59853,2.46239,6.75428,9.30353,6.8163,-0.0103557,4.7256,4.64942,-8.34413,-14.3414,-12.5686,26.9487,-18.8664,6.71619,12.133,-8.74877,1.88791,-3.81667e-14,-2.8625e-14,14.5377,4.79343,-89.3306,35.8092,-21.9332,-22.3919,-21.5305,7.12502,4.03035,-51.4721,-3.81667e-14,-2.8625e-14,-43.1022,-10.283,88.1505,82.4912,26.9309,-12.9515,55.4303,7.12502,13.14,84.9963,-22.2664,-13.1579,8.78232,53.573,-24.2346,-11.6421,-0.444032,-34.0688,-3.59165,-28.1392,25.1795,-1.55323,-13.3529,-6.80152
0.524967,17.5791,-0.0671473,29.9688,67.802,18.1462,11.4593,6.64842,2.49574,6.80437,9.37296,6.78548,0.0137083,4.7614,4.58735,-8.49024,-14.3942,-11.7977,26.8531,-19.0003,6.48464,12.018,-8.76044,1.67097,1.17681e-13,-7.63333e-14,14.9377,5.05209,-89.4826,35.7891,-22.3881,-22.1534,-21.5417,7.12502,4.26065,-51.4788,1.17681e-13,-7.63333e-14,-43.0707,-10.1152,88.1704,82.7784,27.0625,-13.0391,55.4996,7.12502,13.0555,85.071,-22.8351,-13.1069,8.57247,53.3681,-24.4745,-11.7985,-1.28161,-34.0767,-3.70912,-28.1788,25.4638,-1.73095,-13.3236,-5.97865
0.568127,17.5742,-0.0413824,30.3075,67.9003,18.3886,11.4948,6.6216,2.38085,6.84102,9.33339,6.87419,0.00298738,4.74009,4.74451,-8.46951,-14.3832,-11.7292,26.7607,-18.9708,6.40826,11.9569,-8.75363,1.64335,8.5875e-14,1.27222e-14,15.2818,5.3964,-89.5897,35.781,-22.6972,-22.0474,-21.3803,7.12502,4.36298,-51.3154,8.5875e-14,1.27222e-14,-43.1233,-9.48992,88.3993,83.0631,26.9901,-13.1231,55.6154,7.12502,12.9745,85.192,-23.5004,-12.9978,8.34498,53.169,-24.6321,-11.6792,-1.13371,-34.1582,-3.77105,-28.2158,25.7517,-1.93573,-13.3215,-5.35195
0.609276,17.5676,-0.0188881,30.4563,68.0372,18.463,11.5677,6.5436,2.37329,6.90278,9.23954,6.98273,0.0162496,4.69472,4.86979,-8.29113,-14.3133,-12.4749,26.6457,-18.8371,6.75219,11.9918,-8.73503,1.90182,1.43125e-14,4.45278e-14,15.5803,5.57747,-89.7372,35.8513,-22.6665,-21.7346,-21.6604,7.12502,4.66506,-51.5891,1.43125e-14,4.45278e-14,-43.1955,-8.68424,88.7536,83.4387,26.8251,-13.0546,55.6752,7.12502,13.0406,85.2476,-24.1392,-12.8899,8.16022,52.9535,-24.6402,-11.2529,-0.782953,-34.229,-3.78981,-28.1944,26.0682,-2.19189,-13.3529,-5.40747
0.651456,17.5619,0.0079985,30.7287,68.1078,18.7318,11.7049,6.54447,2.3614,6.97623,9.2422,6.92236,0.027711,4.69646,4.80274,-8.40752,-14.3316,-12.6268,26.7115,-18.8633,6.88336,12.0774,-8.74021,1.95395,-5.24792e-14,-6.36111e-15,15.923,5.47796,-89.8578,35.9141,-22.6627,-21.2555,-21.853,7.12502,5.12763,-51.771,-5.24792e-14,-6.36111e-15,-42.9984,-8.52579,88.9925,83.6466,26.9344,-13.1951,55.5939,7.12502,12.9051,85.1749,-24.6973,-12.7514,7.86407,52.7023,-24.6703,-10.7989,-1.67422,-34.2256,-3.78878,-28.2934,26.382,-2.65216,-13.4559,-6.77406
0.689043,17.5557,0.0392404,30.9607,68.2275,18.9411,11.8899,6.59499,2.42199,7.007,9.31779,6.79723,-0.0142191,4.7355,4.61046,-8.73738,-14.414,-11.9036,26.8117,-19.0562,6.75286,12.101,-8.75849,1.75132,1.17681e-13,1.04958e-13,16.2538,4.9303,-90.0773,35.9895,-22.5696,-21.0476,-21.7892,7.12502,5.32842,-51.7022,1.17681e-13,1.04958e-13,-42.583,-8.91792,89.1749,83.8171,27.2549,-13.3871,55.7772,7.12502,12.7201,85.3698,-25.2691,-12.5728,7.65664,52.4118,-24.6937,-10.4711,-3.49565,-34.2515,-3.84977,-28.2977,26.6863,-2.98092,-13.4993,-6.78878
0.723656,17.5525,0.0695273,31.1237,68.3074,19.0001,12.0054,6.56371,2.36391,7.01969,9.27703,6.78031,-0.066468,4.71412,4.61622,-8.94229,-14.4014,-11.3182,26.8363,-19.0704,6.52074,12.054,-8.72994,1.57407,-8.90555e-14,2.22639e-14,16.4477,4.60775,-90.3054,36.1147,-22.4411,-21.2087,-21.4082,7.12502,5.17287,-51.325,-8.90555e-14,2.22639e-14,-42.2091,-8.88774,89.5287,83.9556,27.5913,-13.8565,56.1548,7.12502,12.2674,85.775,-25.9563,-12.3029,7.45346,52.0888,-24.5926,-9.86049,-3.62475,-34.3392,-3.91471,-28.2289,26.9564,-3.16642,-13.4486,-6.3194
0.757743,17.5511,0.0964137,31.2026,68.4872,18.9079,12.0555,6.45953,2.42251,7.01154,9.1507,6.78461,-0.0852588,4.65291,4.59933,-8.8777,-14.3215,-11.2542,26.6596,-18.9952,6.6231,11.9678,-8.68998,1.62285,6.04305e-14,7.95139e-14,16.5895,4.5937,-90.2633,36.3646,-22.9814,-21.8171,-21.0228,7.12502,4.58541,-50.9531,6.04305e-14,7.95139e-14,-41.8607,-8.82018,89.9982,84.092,27.7523,-14.1567,56.3826,7.12502,11.978,86.0199,-26.6846,-12.0465,7.32299,51.736,-24.4769,-9.30745,-3.6664,-34.4962,-4.01385,-28.0731,27.2113,-3.41778,-13.356,-6.33667
0.786355,17.5509,0.123174,31.401,68.7345,18.9152,12.1214,6.41649,2.57386,6.97346,9.11095,6.70151,-0.121522,4.63612,4.42605,-8.74907,-14.3417,-11.1718,26.4956,-19.1231,6.9298,11.9179,-8.71525,1.70944,6.36111e-15,-3.49861e-14,16.7607,3.98136,-90.2348,36.6184,-23.352,-21.802,-20.9424,7.12502,4.59995,-50.8724,6.36111e-15,-3.49861e-14,-41.2514,-9.20664,90.5849,84.0161,27.5993,-14.3278,56.6238,7.12502,11.813,86.2706,-27.4441,-11.7414,7.13657,51.3518,-24.4666,-8.69594,-3.2491,-34.7067,-4.23387,-27.8954,27.473,-3.6084,-13.2702,-6.36629
0.815877,17.5502,0.154687,31.4446,68.8696,18.758,12.095,6.18604,2.42688,7.00741,8.80239,6.87083,-0.100783,4.48096,4.72828,-8.81068,-14.1153,-11.7688,26.5282,-18.7518,7.14238,11.9983,-8.58123,1.92521,-1.27222e-14,3.49861e-14,16.8915,4.18551,-89.9551,36.8724,-23.6519,-21.421,-21.019,7.12502,4.96783,-50.9407,-1.27222e-14,3.49861e-14,-40.6915,-8.78336,91.513,83.9875,27.5509,-14.6834,57.351,7.12502,11.4701,87.0173,-28.2688,-11.3973,6.98363,50.9327,-24.3813,-8.24855,-3.87922,-34.9122,-4.3235,-27.7164,27.729,-3.90587,-13.2564,-6.87908
0.84736,17.5472,0.187845,31.3493,68.9003,18.5253,12.1035,6.03028,2.28191,7.06356,8.58853,6.9662,-0.0670354,4.37251,4.93866,-8.89329,-13.939,-12.0061,26.6003,-18.451,7.12253,12.0347,-8.46903,1.9974,-5.24792e-14,-1.59028e-14,17.0118,3.97616,-89.7967,37.1291,-23.7282,-21.2554,-21.0867,7.12502,5.12776,-51.0046,-5.24792e-14,-1.59028e-14,-39.9235,-8.66141,92.2771,83.7685,27.9417,-15.3542,57.4594,7.12502,10.8231,87.1605,-29.0304,-11.1134,6.86481,50.4556,-24.0358,-8.18356,-6.42914,-35.0168,-4.34904,-27.5375,27.9739,-4.16987,-13.1278,-7.07957
0.881914,17.5457,0.218547,31.3411,68.7413,18.4197,12.1506,6.00727,2.16579,7.10643,8.54064,6.85152,-0.0430298,4.34561,4.88658,-8.85378,-13.8299,-11.8907,26.4852,-18.3572,7.26397,11.9732,-8.4084,2.05337,-5.08889e-14,6.36111e-15,17.0767,3.29306,-89.6968,37.4581,-23.9765,-21.2303,-21.0984,7.12502,5.15195,-51.0158,-5.08889e-14,6.36111e-15,-39.0188,-9.13961,92.8009,83.4465,28.0344,-15.5613,56.6291,7.12502,10.6233,86.3406,-29.7715,-10.6972,6.55204,49.9474,-23.6333,-7.84747,-7.55668,-35.0533,-4.41638,-27.4411,28.1975,-4.47629,-12.7037,-6.85835
0.919174,17.552,0.253808,31.0179,68.4954,17.9679,12.1169,6.08383,1.9971,7.15586,8.6162,6.79414,0.00616663,4.37874,4.91575,-8.83445,-13.7616,-11.6519,26.4541,-18.3122,7.29164,11.9273,-8.3656,2.04088,6.52014e-14,-4.77083e-14,17.0487,2.47111,-89.4544,37.829,-24.3121,-21.3573,-21.2849,7.12502,5.02937,-51.2053,6.52014e-14,-4.77083e-14,-38.0464,-9.8878,93.49,82.9807,27.293,-14.5532,56.0808,7.12502,11.5957,85.74,-30.5197,-10.1536,6.32369,49.3756,-23.2722,-7.49984,-7.61464,-35.0846,-4.17809,-27.3086,28.415,-4.78377,-12.5682,-6.45409
0.94931,17.5574,0.288319,30.7096,68.4219,17.5776,12.1858,6.03218,1.87053,7.20029,8.53851,6.79764,0.00325212,4.33747,4.99453,-8.89602,-13.6375,-11.4577,26.4993,-18.1351,7.15934,11.8999,-8.28161,1.99411,-1.11319e-14,3.49861e-14,17.0182,1.65523,-89.2238,38.2396,-24.458,-21.4073,-21.4179,7.12502,4.98105,-51.3394,-1.11319e-14,3.49861e-14,-36.9493,-10.5087,94.1544,82.3526,26.127,-12.8266,55.7783,7.12502,13.2603,85.3365,-31.2034,-9.69484,6.16115,48.7858,-22.8703,-7.40013,-8.17383,-35.0737,-4.03411,-27.1239,28.5903,-4.95212,-12.5348,-6.66856
0.971968,17.5611,0.319097,30.4611,68.5916,17.3003,12.452,5.8006,1.85201,7.20276,8.25118,6.83402,-0.122782,4.19538,5.05349,-8.97341,-13.3998,-11.3791,26.5191,-17.8076,7.13861,11.8751,-8.13085,2.02835,-5.725e-14,1.27222e-14,17.0376,0.990234,-88.966,38.524,-24.5397,-21.1772,-21.5199,7.12502,5.20323,-51.436,-5.725e-14,1.27222e-14,-35.8326,-11.1464,94.8157,81.75,25.4383,-11.7257,55.0069,7.12502,14.3214,84.493,-31.7624,-9.30761,6.011,48.1414,-22.5643,-7.32977,-8.70982,-35.0287,-4.27554,-26.8172,28.7423,-5.12861,-12.3659,-7.23956
0.997325,17.5617,0.355122,30.5708,68.6915,17.2808,12.6294,5.57362,1.61254,7.111,7.94431,6.87846,-0.328688,4.03761,5.24926,-9.01337,-13.1565,-11.4343,26.6665,-17.432,7.03986,11.8947,-7.9757,2.06289,1.27222e-14,5.40694e-14,16.8322,0.537453,-88.4685,38.8816,-24.9706,-21.2944,-21.6019,7.12502,5.09011,-51.5208,1.27222e-14,5.40694e-14,-34.7284,-11.9136,95.6023,81.0854,25.2197,-11.0287,53.9929,7.12502,14.9928,83.4302,-32.4611,-8.9416,5.75365,47.471,-22.2588,-7.17393,-8.62085,-35.1031,-4.48027,-26.6228,28.8984,-5.30894,-12.1966,-7.10472
1.02361,17.5645,0.392925,30.4827,68.7387,17.0853,12.7042,5.28498,1.36262,7.14038,7.5484,6.96016,-0.346843,3.83607,5.52569,-9.28616,-12.8945,-11.7407,26.9493,-16.9857,6.9893,12.039,-7.79816,2.14561,5.40694e-14,3.49861e-14,16.7512,0.378121,-87.8551,39.2554,-25.5365,-21.6115,-21.8056,7.12502,4.78387,-51.7316,5.40694e-14,3.49861e-14,-33.5238,-12.6346,96.4218,80.6041,25.4348,-11.0888,53.503,7.12502,14.935,82.9445,-33.1238,-8.4873,5.52262,46.7362,-22.0362,-6.88937,-7.65897,-35.1373,-4.78686,-26.2937,29.0659,-5.48988,-11.8312,-6.49223
1.04764,17.5675,0.423193,30.1291,68.8715,16.5477,12.6251,4.79354,1.30781,7.25777,6.89925,7.06807,-0.141039,3.51222,5.78067,-9.72488,-12.5029,-12.1726,27.199,-16.3198,6.94848,12.1921,-7.53595,2.28013,-1.59028e-15,5.725e-14,16.828,0.559873,-87.431,39.5934,-25.9197,-21.8354,-22.0855,7.12502,4.56768,-52.0163,-1.59028e-15,5.725e-14,-32.2526,-13.2263,97.1073,80.3462,26.1131,-12.5367,53.9734,7.12502,13.5397,83.5132,-33.8038,-8.20765,5.48962,45.942,-21.7215,-6.65199,-8.11429,-35.2528,-4.88466,-25.926,29.2244,-5.74211,-11.7133,-6.71524
1.07126,17.5761,0.458526,29.6363,68.8955,15.8112,12.5687,4.78841,1.46662,7.24183,6.89688,6.90431,-0.0898838,3.51381,5.52295,-9.76463,-12.4471,-11.586,27.1663,-16.3407,6.88907,12.1207,-7.49673,2.16849,-6.99722e-14,-3.18055e-14,16.6877,-1.02185,-87.176,40.0115,-26.4237,-22.4155,-22.2275,7.12502,4.00754,-52.1696,-6.99722e-14,-3.18055e-14,-30.865,-15.5198,97.573,79.7038,26.6215,-12.9097,53.7748,7.12502,13.1803,83.3382,-34.5476,-7.81524,5.50976,45.0975,-21.3921,-6.6644,-9.95413,-35.3993,-4.9162,-25.494,29.3772,-5.94747,-11.5882,-7.0998
1.09417,17.587,0.50179,29.0425,68.9902,15.0184,12.5115,4.6165,1.41384,7.23556,6.6662,6.94615,-0.0560428,3.39762,5.63387,-9.7259,-12.2013,-11.4777,27.1607,-16.0218,6.89472,12.064,-7.34821,2.21356,-4.77083e-15,2.22639e-14,16.4981,-1.90135,-86.5998,40.4277,-27.4164,-23.1805,-22.3752,7.12502,3.26883,-52.3299,-4.77083e-15,2.22639e-14,-29.4491,-17.2242,98.0906,78.985,26.878,-12.7234,53.1629,7.12502,13.3598,82.7146,-35.189,-7.2093,5.49621,44.239,-21.2757,-6.36892,-9.23698,-35.4979,-5.06115,-24.9572,29.564,-6.2072,-11.353,-7.62593
1.11814,17.5899,0.545208,28.9424,68.9156,14.7277,12.4461,4.39048,1.10193,7.2374,6.33049,6.89116,-0.0149064,3.22186,5.80264,-9.87898,-11.8711,-11.3934,27.2692,-15.5799,6.92644,12.0825,-7.13721,2.28029,3.97569e-14,9.54166e-14,16.3293,-2.73094,-86.1369,40.7547,-27.9546,-23.5288,-22.3379,7.12502,2.93239,-52.2975,3.97569e-14,9.54166e-14,-28.1697,-18.8838,98.4984,78.5452,27.3412,-13.2066,52.8822,7.12502,12.8941,82.4638,-35.95,-6.81956,5.27025,43.3873,-20.6615,-5.80536,-8.18532,-35.5977,-5.25485,-24.6411,29.7031,-6.39862,-11.0042,-7.63048
1.14111,17.5873,0.581654,28.9712,68.9105,14.5126,12.3998,4.23559,1.06347,7.21928,6.11121,6.71159,0.0266262,3.11066,5.66659,-10.2199,-11.7252,-11.2373,27.4863,-15.4449,7.09708,12.2228,-7.02969,2.32319,-4.29375e-14,1.27222e-14,16.2202,-4.2229,-85.7953,41.0196,-28.1889,-23.854,-22.3297,7.12502,2.61834,-52.2933,-4.29375e-14,1.27222e-14,-26.7882,-21.1312,98.7793,78.0956,27.8345,-13.4446,52.5652,7.12502,12.6646,82.1612,-36.7879,-6.8551,5.16301,42.5368,-19.5397,-5.1528,-9.40745,-35.7789,-5.50745,-24.3338,29.8105,-6.54461,-10.733,-7.97385
1.16399,17.593,0.627993,28.7508,68.8026,14.1089,12.3739,4.17002,0.830014,7.21765,5.99431,6.61981,0.03632,3.0458,5.71818,-10.4602,-11.6043,-11.0443,27.6483,-15.323,7.14541,12.3077,-6.94204,2.31979,-6.52014e-14,-4.13472e-14,16.0245,-5.73085,-85.3258,41.2808,-28.6592,-24.2582,-22.617,7.12502,2.22797,-52.5851,-6.52014e-14,-4.13472e-14,-25.4854,-23.533,99.1111,77.7344,28.6537,-14.3156,53.0889,7.12502,11.8248,82.7351,-37.4625,-6.55512,5.09124,41.6183,-19.0046,-4.79556,-11.5764,-35.8076,-5.48475,-24.0448,29.8664,-6.72097,-10.6309,-8.5651
1.185,17.5933,0.657549,29.2526,68.9849,14.2462,12.2083,3.89279,0.757559,7.10891,5.61223,6.51284,0.0509361,2.8525,5.70367,-10.5547,-11.4083,-11.0189,27.6302,-15.0829,7.25741,12.3004,-6.8225,2.39399,-2.54444e-14,-1.27222e-14,15.7848,-7.07867,-84.7855,41.4932,-28.9916,-24.5188,-22.8519,7.12502,1.97633,-52.8225,-2.54444e-14,-1.27222e-14,-24.2915,-25.8998,99.3492,77.5526,29.4063,-15.6046,54.1266,7.12502,10.5816,83.8402,-38.1906,-6.30365,4.80507,40.6138,-18.9821,-4.42787,-10.7309,-36.1572,-5.67365,-23.8849,29.9253,-6.78266,-10.6218,-8.69499
1.20765,17.6076,0.705254,28.9756,69.0367,13.8064,12.1779,3.68854,0.545631,7.1138,5.31802,6.44518,0.0886379,2.69999,5.79359,-10.8166,-11.1411,-10.9073,27.7623,-14.7778,7.44561,12.3784,-6.64753,2.48665,-4.13472e-14,1.59028e-14,15.6699,-8.66791,-84.5192,41.5996,-29.2433,-24.8638,-23.1537,7.12502,1.64308,-53.1271,-4.13472e-14,1.59028e-14,-22.94,-27.9999,99.2699,77.1393,29.4127,-15.3638,53.8698,7.12502,10.8139,83.5714,-38.6173,-5.67378,4.66754,39.4947,-18.8346,-4.14163,-8.91706,-36.1446,-5.78701,-23.4671,29.9289,-6.91611,-10.4543,-8.24812
1.22933,17.6181,0.750672,28.2771,69.1322,12.9649,12.178,3.50121,0.509867,7.13135,5.06766,6.4219,0.131028,2.57402,5.82382,-11.0314,-10.9095,-10.6893,27.8556,-14.5096,7.50124,12.4133,-6.49566,2.51016,3.81667e-14,9.22361e-14,15.5247,-10.4367,-84.2869,41.7284,-29.3377,-25.41,-23.636,7.12502,1.11563,-53.6128,3.81667e-14,9.22361e-14,-21.5536,-30.0644,99.0886,76.7152,29.2922,-14.0784,52.5152,7.12502,12.0535,82.1481,-38.9928,-5.26305,4.82448,38.3351,-18.1957,-4.00033,-9.27795,-36.1115,-5.78121,-22.9432,29.9449,-7.12398,-10.3885,-8.4303
1.25198,17.6267,0.792424,27.9325,69.2319,12.4851,12.1504,3.27857,0.468879,7.13048,4.76677,6.3461,0.177946,2.4225,5.80823,-11.0847,-10.6977,-10.5375,27.788,-14.2937,7.67205,12.3731,-6.36978,2.5853,6.52014e-14,2.22639e-14,15.3636,-12.2507,-84.0556,41.7554,-29.3134,-25.9402,-24.1428,7.12502,0.603502,-54.1217,6.52014e-14,2.22639e-14,-20.3168,-32.1188,98.9238,76.4908,29.406,-12.8292,51.3857,7.12502,13.2579,80.944,-39.3274,-5.0668,4.92773,37.1761,-17.4061,-4.04677,-10.2979,-36.1014,-5.75857,-22.6058,29.9504,-7.28481,-10.4245,-8.9194
1.27573,17.6326,0.838289,27.7897,69.4115,12.2232,12.1959,2.99741,0.362037,7.07584,4.38746,6.29072,0.130371,2.23112,5.85537,-11.088,-10.4255,-10.4822,27.7906,-13.9868,7.88196,12.3529,-6.20764,2.70875,-3.33958e-14,-7.31528e-14,15.1363,-13.7139,-83.5905,41.6262,-29.5932,-26.5752,-24.4415,7.12502,-0.00977594,-54.4213,-3.33958e-14,-7.31528e-14,-19.187,-34.1073,98.7885,76.2811,29.714,-12.3957,50.5933,7.12502,13.6756,80.124,-39.5907,-4.86445,4.95401,36.0971,-16.6484,-4.16221,-10.229,-36.0909,-5.8934,-22.2748,29.9789,-7.51161,-10.4302,-9.13781
1.29803,17.638,0.888605,27.6828,69.6094,12.0634,12.4102,2.75498,0.199549,6.96106,4.06001,6.22586,-0.0788497,2.06631,5.9073,-11.1257,-10.177,-10.2576,27.9216,-13.684,7.85587,12.3558,-6.05162,2.71548,-3.49861e-14,-1.90833e-14,14.7646,-15.3675,-83.1151,41.5055,-29.864,-27.3745,-25.2087,7.12502,-0.781822,-55.187,-3.49861e-14,-1.90833e-14,-18.0838,-36.1192,98.6674,76.1578,30.0899,-11.4844,50.7028,7.12502,14.5538,80.1723,-39.7906,-4.75077,5.0071,35.1085,-15.7423,-4.50756,-9.80288,-36.0174,-6.13482,-21.9224,30.0208,-7.71625,-10.315,-9.39768
1.31903,17.6394,0.937787,27.6005,69.8635,11.8397,12.4795,2.50285,0.136598,6.86147,3.72406,6.16608,-0.186304,1.89861,5.91847,-11.1796,-9.97972,-10.0919,28.0554,-13.4605,7.9006,12.3844,-5.92764,2.74336,3.18055e-15,6.52014e-14,14.4561,-17.1966,-82.7488,41.3859,-29.9264,-28.2036,-26.0986,7.12502,-1.58251,-56.0725,3.18055e-15,6.52014e-14,-17.0345,-38.1339,98.4566,76.3118,30.5975,-10.3339,51.6885,7.12502,15.662,81.0746,-40.0296,-4.74769,5.15205,34.2215,-15.0099,-4.93399,-9.66636,-36.0608,-6.36194,-21.5231,30.0763,-7.88529,-10.2636,-9.54331
1.34113,17.6368,0.988909,27.3052,70.123,11.4156,12.4634,2.21247,0.095904,6.84606,3.33913,6.16514,-0.155627,1.70549,5.99356,-11.2572,-9.72684,-9.9469,28.0707,-13.1393,7.91113,12.3581,-5.77084,2.77549,-5.88403e-14,-3.18055e-15,14.197,-18.6007,-82.2411,41.2326,-30.199,-29.5238,-26.6065,7.12502,-2.85756,-56.5671,-5.88403e-14,-3.18055e-15,-15.798,-39.9011,98.0741,76.3457,31.0315,-9.77876,52.0193,7.12502,16.1967,81.3627,-40.2472,-4.93481,5.49579,33.4328,-14.2285,-5.3045,-10.0294,-36.0765,-6.60054,-21.0341,30.1353,-8.08195,-10.2098,-9.61517
1.36279,17.6353,1.04275,27.3851,70.386,11.371,12.3938,1.96419,-0.0639969,6.85856,2.99217,6.1203,-0.0732506,1.52756,6.08688,-11.5023,-9.53177,-9.68893,28.1759,-12.9245,7.93438,12.4067,-5.64009,2.76974,2.8625e-14,-2.54444e-14,14.0414,-20.2601,-81.7778,40.9956,-29.9399,-30.5549,-27.1004,7.12502,-3.85333,-57.0453,2.8625e-14,-2.54444e-14,-14.5852,-41.6958,97.5711,76.4185,31.7366,-9.56085,51.9776,7.12502,16.4065,81.3038,-40.4598,-5.11371,5.71258,32.7698,-13.3831,-5.93539,-10.197,-36.1034,-6.84769,-20.694,30.1699,-8.31681,-10.2616,-9.96929
1.38455,17.6365,1.09677,27.595,70.7656,11.4581,12.3222,1.63464,-0.219572,6.83341,2.54328,6.14705,-0.0189347,1.29889,6.26628,-11.6448,-9.32743,-9.73832,28.2858,-12.6628,8.06272,12.4654,-5.51076,2.86583,-1.74931e-14,-2.70347e-14,13.9944,-22.1319,-81.4253,40.6752,-28.9565,-31.1915,-27.7588,7.12502,-4.46809,-57.6917,-1.74931e-14,-2.70347e-14,-13.5749,-43.112,97.2465,76.5803,32.647,-8.79515,50.8081,7.12502,17.1436,80.0718,-40.5988,-5.26458,5.90977,32.2793,-12.8035,-6.73399,-8.59535,-36.1257,-7.12581,-20.3601,30.1421,-8.48187,-10.493,-10.7288
1.40612,17.6429,1.15146,27.6933,71.1509,11.4877,12.2801,1.2677,-0.389917,6.84637,2.04688,6.21891,0.0670691,1.04536,6.50842,-11.7918,-9.10334,-9.90543,28.3545,-12.3394,8.17505,12.509,-5.37063,2.98502,3.18055e-15,-3.18055e-15,13.9753,-23.5653,-80.9843,40.321,-28.4492,-32.9029,-27.605,7.12502,-6.12049,-57.4965,3.18055e-15,-3.18055e-15,-12.5949,-44.2736,96.9222,76.9147,33.4956,-7.1318,47.7402,7.12502,18.7441,76.8571,-40.6602,-5.58813,6.27194,32.0034,-12.2786,-7.33933,-5.23828,-36.0384,-7.4174,-20.0034,30.059,-8.60935,-10.6881,-11.5097
1.42523,17.6466,1.20951,28.2591,71.3566,12.0566,12.3456,1.01077,-0.778538,6.81494,1.6694,6.18138,0.0362354,0.847258,6.74046,-11.8181,-8.89611,-9.88995,28.3791,-12.0824,8.27613,12.5008,-5.24531,3.064,-4.77083e-15,3.49861e-14,13.88,-25.2832,-80.4819,39.8495,-27.097,-32.8789,-28.8687,7.12502,-6.09733,-58.7609,-4.77083e-15,3.49861e-14,-11.7245,-45.4421,96.5935,77.203,33.9759,-6.59378,49.2798,7.12502,19.2615,78.346,-40.7689,-6.53397,6.77602,31.9076,-11.3788,-7.68088,-1.13271,-35.8823,-7.74289,-19.8534,29.9562,-8.64363,-10.7291,-10.9237
1.4455,17.6422,1.25729,28.971,71.6308,12.8121,12.5305,0.755239,-0.887888,6.72947,1.32202,6.0324,-0.109627,0.674993,6.68518,-11.8808,-8.73554,-9.82194,28.5666,-11.9317,8.46296,12.5813,-5.14405,3.15143,-1.59028e-15,-7.15625e-14,13.4979,-26.8636,-79.9946,39.5979,-27.1431,-34.5008,-28.9518,7.12502,-7.66293,-58.7929,-1.59028e-15,-7.15625e-14,-11,-46.7746,96.1915,77.4236,34.7348,-5.88468,47.6259,7.12502,19.9432,76.6226,-40.8061,-7.58459,7.2462,31.9746,-10.5619,-8.05221,3.82698,-35.7375,-8.34732,-19.6918,29.8665,-8.6655,-10.5467,-10.3721
1.4655,17.6456,1.31379,28.6506,72.0251,12.5547,12.6931,0.489274,-0.794542,6.73205,0.990767,6.04116,-0.152166,0.513854,6.68375,-11.9813,-8.61093,-9.75168,28.6813,-11.7885,8.51256,12.6304,-5.064,3.1816,7.95139e-15,5.24792e-14,13.2267,-28.2364,-79.5759,39.4121,-27.3158,-36.4732,-28.8743,7.12502,-9.56642,-58.6371,7.95139e-15,5.24792e-14,-10.2085,-47.9366,95.7751,77.6929,35.6449,-5.83287,43.8544,7.12502,19.993,72.8459,-40.6552,-8.17142,7.98509,32.1579,-10.1626,-8.70055,5.14668,-35.5361,-8.81957,-19.164,29.7885,-8.81211,-10.4258,-10.2094
1.48289,17.6534,1.38208,27.7471,72.4087,11.6934,12.8023,0.217619,-0.819624,6.75001,0.64606,6.2314,-0.149141,0.340905,6.95077,-11.9026,-8.438,-9.88099,28.6728,-11.5226,8.52383,12.5894,-4.96447,3.25451,-3.02153e-14,-8.42847e-14,12.9573,-29.2358,-78.9691,39.2392,-27.3746,-37.6795,-29.3307,7.12502,-10.7301,-59.0366,-3.02153e-14,-8.42847e-14,-9.36768,-48.4211,95.5035,77.7511,35.2872,-5.06847,47.8361,7.12502,20.7276,76.7491,-40.4322,-8.54826,8.94201,32.4003,-10.1474,-9.43803,3.15888,-35.3324,-9.05568,-18.4571,29.7511,-8.93977,-10.4953,-9.63115
1.50266,17.6561,1.44546,27.5793,72.673,11.6537,13.1813,0.0772674,-0.540462,6.63823,0.494284,5.94498,-0.451757,0.280486,6.50008,-11.8293,-8.37447,-9.45249,28.7279,-11.6105,8.75525,12.5914,-4.93049,3.26272,6.36111e-15,1.43125e-14,12.3181,-31.12,-78.7631,39.1898,-27.1056,-38.4164,-29.7484,7.12502,-11.4409,-59.4162,6.36111e-15,1.43125e-14,-8.8315,-49.8496,94.93,77.8994,35.9595,-3.8303,47.6807,7.12502,21.9169,76.4593,-40.0983,-8.94183,9.54526,32.6176,-10.485,-9.60658,1.29033,-35.0761,-9.44145,-18.0571,29.738,-9.08112,-10.3993,-9.65322
1.5264,17.6557,1.50594,27.6169,73.0221,11.6644,13.1702,-0.135056,-0.342343,6.64059,0.239195,5.92118,-0.413753,0.158072,6.39457,-11.9158,-8.31436,-9.72557,28.8246,-11.5808,9.1545,12.6958,-4.89532,3.46738,-5.725e-14,-8.11041e-14,12.0009,-32.4371,-78.3533,39.0948,-26.6825,-39.4984,-30.0802,7.12502,-12.4842,-59.6873,-5.725e-14,-8.11041e-14,-8.19138,-50.5986,94.561,78.0331,36.4425,-5.88418,48.2486,7.12502,19.9437,77.2452,-39.8809,-9.49601,10.1992,32.7711,-10.4864,-9.2206,0.301743,-35.0038,-9.89967,-17.6235,29.7194,-9.19835,-10.32,-9.92264
1.54883,17.66,1.56934,27.1026,73.2781,10.8958,12.9513,-0.255163,-0.0544826,6.62544,0.109371,5.97081,-0.298413,0.0978165,6.29676,-12.0452,-8.26709,-9.91544,28.9323,-11.5298,9.36474,12.7911,-4.86278,3.58823,-2.22639e-14,-3.33958e-14,11.7871,-33.6937,-77.983,38.9366,-26.1263,-40.6202,-30.4227,7.12502,-13.5656,-59.9607,-2.22639e-14,-3.33958e-14,-7.62753,-51.0738,94.2521,78.1827,36.7118,-4.58902,47.7738,7.12502,21.1882,76.6359,-39.904,-9.75899,11.0146,32.796,-10.3162,-8.91002,1.6874,-35.1176,-10.1812,-16.9427,29.6848,-9.33289,-10.2578,-10.5808
