JuanDHNZ/ProyectoFinalCD/preprocessing/sports_trials_csv/14_14.csv
root1,root2,root3,root4,root5,root6,lowerback1,lowerback2,lowerback3,upperback1,upperback2,upperback3,thorax1,thorax2,thorax3,lowerneck1,lowerneck2,lowerneck3,upperneck1,upperneck2,upperneck3,head1,head2,head3,rclavicle1,rclavicle2,rhumerus1,rhumerus2,rhumerus3,rradius1,rwrist1,rhand1,rhand2,rfingers1,rthumb1,rthumb2,lclavicle1,lclavicle2,lhumerus1,lhumerus2,lhumerus3,lradius1,lwrist1,lhand1,lhand2,lfingers1,lthumb1,lthumb2,rfemur1,rfemur2,rfemur3,rtibia1,rfoot1,rfoot2,rtoes1,lfemur1,lfemur2,lfemur3,ltibia1,lfoot1,lfoot2,ltoes1
-1.99354,17.6817,0.101187,4.29035,-1.00228,0.398076,-0.280418,-0.431611,-2.78587,-1.57462,-0.569631,1.90306,-1.41287,-0.236086,3.52538,-22.1592,-3.33018,-10.7904,25.0155,-2.44448,5.44132,12.1479,-1.41654,3.45786,7.36746e-15,-3.97569e-15,-33.4578,-17.1679,-76.2329,29.3471,19.2202,-19.7399,0.234878,7.12502,6.59095,-29.6426,7.36746e-15,-3.97569e-15,-32.7918,21.1422,79.0838,24.6312,-9.27307,-10.4996,27.6004,7.12502,15.5025,56.9989,-10.7374,4.25268,17.5862,33.0702,-23.9983,-6.19239,7.12233,-6.82306,-1.35883,-19.3481,26.396,-18.0167,11.3273,-21.3858
-1.99262,17.6816,0.100477,4.29826,-0.99633,0.399589,-0.277465,-0.429935,-2.77762,-1.56526,-0.567425,1.90173,-1.40515,-0.235376,3.51929,-22.1475,-3.33672,-10.7795,24.9824,-2.45144,5.41773,12.1329,-1.42109,3.4449,1.11071e-14,3.97569e-15,-33.4755,-17.0664,-76.258,29.41,19.1367,-19.7407,0.507426,7.12502,6.59019,-29.37,1.11071e-14,3.97569e-15,-32.7712,20.9783,79.1446,24.7192,-9.09294,-10.5454,28.1218,7.12502,15.4584,57.5237,-10.7506,4.21492,17.577,33.095,-24.0079,-6.18043,6.93949,-6.84991,-1.3433,-19.3468,26.419,-18.0438,11.2314,-21.2668
-1.99205,17.6806,0.0993292,4.28494,-0.994893,0.400513,-0.259299,-0.424207,-2.77553,-1.52801,-0.560103,1.90681,-1.37763,-0.232757,3.52321,-22.1734,-3.35133,-10.826,24.9366,-2.46417,5.46183,12.1226,-1.42405,3.46643,1.1045e-14,0,-33.4233,-17.1328,-76.235,29.4147,19.243,-19.6771,0.701368,7.12502,6.6515,-29.1742,1.1045e-14,0,-32.7408,20.9907,79.1687,24.812,-9.11588,-10.5538,28.5974,7.12502,15.4503,57.9999,-10.7428,4.22967,17.5696,33.0913,-24.0056,-6.18021,7.04814,-6.86029,-1.33178,-19.3548,26.4588,-18.0269,11.2206,-21.4064
-1.99233,17.6804,0.0991701,4.25857,-1.01818,0.350976,-0.207878,-0.395607,-2.71895,-1.51438,-0.522586,1.91332,-1.39588,-0.214499,3.49804,-22.1856,-3.37125,-10.8348,24.9358,-2.49826,5.49682,12.1285,-1.43527,3.47563,7.62836e-15,1.19271e-15,-33.3763,-17.2604,-76.2183,29.349,19.3032,-19.6158,0.659559,7.12502,6.71073,-29.2141,7.62836e-15,1.19271e-15,-32.73,20.9303,79.1846,24.8651,-9.13445,-10.6166,28.7747,7.12502,15.3898,58.1819,-10.7302,4.26646,17.6273,33.0838,-23.9664,-6.21746,7.05411,-6.85053,-1.28482,-19.2975,26.5068,-18.0741,11.2036,-21.3667
-1.99179,17.6803,0.100167,4.2343,-1.00148,0.272802,-0.173016,-0.384787,-2.64366,-1.50062,-0.508028,1.94264,-1.40277,-0.208027,3.48591,-22.1854,-3.37541,-10.8404,24.9369,-2.51083,5.52586,12.1305,-1.43755,3.4857,-2.93207e-15,-1.47101e-14,-33.3453,-17.3022,-76.2024,29.3011,19.3132,-19.6101,0.629686,7.12502,6.71621,-29.2438,-2.93207e-15,-1.47101e-14,-32.6831,20.8669,79.2236,24.8416,-9.12756,-10.727,28.748,7.12502,15.2834,58.1633,-10.6974,4.28139,17.7239,33.0707,-23.9699,-6.25447,7.01672,-6.85034,-1.24708,-19.2049,26.5641,-18.1421,11.1587,-21.3882
-1.99049,17.6785,0.100751,4.22354,-0.982947,0.248986,-0.174965,-0.384215,-2.60687,-1.48189,-0.506971,1.94587,-1.38272,-0.208555,3.46831,-22.192,-3.36681,-10.8121,24.9306,-2.50167,5.50503,12.1276,-1.43323,3.47432,-2.85753e-16,-5.56597e-15,-33.3458,-17.3277,-76.2021,29.3327,19.3571,-19.5689,0.67855,7.12502,6.75599,-29.1937,-2.85753e-16,-5.56597e-15,-32.6497,20.8798,79.2017,24.8258,-9.21846,-10.6103,28.7009,7.12502,15.3959,58.1076,-10.6617,4.26159,17.7536,33.0611,-24.0044,-6.24191,6.98693,-6.87128,-1.22046,-19.1765,26.6209,-18.174,11.1049,-21.3933
-1.98951,17.6771,0.0997389,4.1996,-0.972883,0.237229,-0.129841,-0.381357,-2.59048,-1.47909,-0.503873,1.94915,-1.40551,-0.206822,3.46279,-22.1627,-3.36136,-10.769,24.8993,-2.4991,5.45997,12.1081,-1.4335,3.44935,7.04443e-15,-3.97569e-15,-33.3744,-17.3515,-76.198,29.3667,19.3621,-19.518,0.723693,7.12502,6.80515,-29.1469,7.04443e-15,-3.97569e-15,-32.672,20.9002,79.1688,24.861,-9.37228,-10.2454,28.6619,7.12502,15.7474,58.0413,-10.6359,4.29913,17.7684,33.077,-24.0703,-6.25964,7.08586,-6.86977,-1.20288,-19.1611,26.6536,-18.2179,11.0561,-21.427
-1.98823,17.6765,0.0991665,4.20667,-0.987811,0.233044,-0.0986709,-0.377676,-2.59166,-1.4999,-0.499311,1.96728,-1.44464,-0.203418,3.48257,-22.1085,-3.34305,-10.7744,24.8674,-2.4766,5.45873,12.0828,-1.42401,3.45275,-1.42876e-14,2.78299e-15,-33.4042,-17.294,-76.1889,29.3644,19.2477,-19.5882,0.758139,7.12502,6.7374,-29.1147,-1.42876e-14,2.78299e-15,-32.705,20.9311,79.1386,24.8533,-9.40693,-10.1622,28.439,7.12502,15.8274,57.812,-10.6726,4.27252,17.7671,33.1145,-24.0599,-6.27473,6.80951,-6.8786,-1.17373,-19.1597,26.6618,-18.2457,11.0273,-21.6102
-1.9865,17.6746,0.100541,4.23352,-1.00527,0.31069,-0.128384,-0.376085,-2.66136,-1.5051,-0.497293,1.95239,-1.43311,-0.201756,3.50632,-22.0831,-3.3062,-10.7813,24.843,-2.43473,5.4948,12.0645,-1.40087,3.47428,7.06928e-15,2.54444e-14,-33.3813,-17.2411,-76.2227,29.3575,19.1649,-19.6039,0.753298,7.12502,6.72222,-29.12,7.06928e-15,2.54444e-14,-32.7089,20.9034,79.1373,24.8404,-9.27055,-10.2566,28.2833,7.12502,15.7365,57.6635,-10.7402,4.21403,17.6594,33.1688,-24.029,-6.2014,6.8973,-6.88956,-1.16749,-19.2536,26.6442,-18.259,11.0257,-21.5031
-1.98611,17.6744,0.103104,4.20859,-1.02225,0.364738,-0.125024,-0.391545,-2.71737,-1.48232,-0.518503,1.94679,-1.40953,-0.212471,3.53225,-22.0805,-3.25999,-10.7754,24.8169,-2.37606,5.51307,12.0479,-1.37109,3.48959,2.12451e-15,3.57812e-15,-33.3273,-17.0944,-76.2996,29.3612,19.1141,-19.6417,0.649804,7.12502,6.6857,-29.2246,2.12451e-15,3.57812e-15,-32.7189,20.9165,79.1236,24.878,-9.18269,-10.2484,28.2258,7.12502,15.7445,57.6054,-10.7412,4.20121,17.5944,33.2266,-24.0128,-6.18978,6.80595,-6.84692,-1.13911,-19.3165,26.6176,-18.2545,10.9975,-21.3745
-1.9867,17.6749,0.104559,4.21367,-1.01155,0.367179,-0.127788,-0.404023,-2.74791,-1.47843,-0.535071,1.96926,-1.40224,-0.220431,3.57286,-22.1107,-3.24941,-10.7214,24.8455,-2.35011,5.42061,12.0608,-1.36687,3.45005,-9.30561e-15,3.18055e-15,-33.3156,-17.0448,-76.3031,29.3601,19.1795,-19.7084,0.651065,7.12502,6.62128,-29.2254,-9.30561e-15,3.18055e-15,-32.7233,20.9041,79.1484,24.8853,-9.15545,-10.369,28.1408,7.12502,15.6283,57.5295,-10.7631,4.22967,17.5955,33.2858,-24.0458,-6.19996,6.68558,-6.83646,-1.15343,-19.3153,26.5852,-18.201,11.0176,-21.3787
-1.98562,17.6745,0.10524,4.2205,-0.976873,0.386912,-0.139442,-0.411127,-2.75625,-1.4619,-0.544382,1.96935,-1.37788,-0.225683,3.57752,-22.1318,-3.26052,-10.6914,24.8434,-2.35639,5.36057,12.0637,-1.37446,3.4208,7.82715e-16,6.36111e-15,-33.2787,-17.0558,-76.3079,29.3542,19.2251,-19.6725,0.797035,7.12502,6.65595,-29.0784,7.82715e-16,6.36111e-15,-32.6867,21.0099,79.1181,24.8507,-9.21229,-10.4493,27.8936,7.12502,15.5509,57.2884,-10.7845,4.17948,17.576,33.3266,-24.0346,-6.25047,6.40588,-6.84122,-1.14487,-19.3321,26.5649,-18.1977,10.9695,-21.3118
-1.98524,17.6738,0.107055,4.22989,-0.94852,0.427928,-0.145198,-0.422379,-2.80879,-1.46664,-0.559581,1.97444,-1.37783,-0.232548,3.6126,-22.1599,-3.27175,-10.6624,24.893,-2.35829,5.28532,12.0878,-1.38336,3.38784,-1.81267e-14,-4.77083e-15,-33.2492,-17.0117,-76.3001,29.325,19.2165,-19.5688,0.895286,7.12502,6.75612,-28.9769,-1.81267e-14,-4.77083e-15,-32.6865,21.0867,79.0791,24.7792,-9.22492,-10.5446,27.6734,7.12502,15.4592,57.0752,-10.8078,4.16587,17.5375,33.3705,-24.1084,-6.23514,6.5927,-6.83589,-1.12495,-19.3703,26.5297,-18.1771,10.9652,-21.4339
-1.98329,17.6736,0.110001,4.22132,-0.935538,0.493849,-0.136542,-0.440582,-2.8869,-1.47866,-0.584474,1.98657,-1.39226,-0.24352,3.66972,-22.1667,-3.27244,-10.6646,24.943,-2.33795,5.21559,12.1064,-1.38491,3.36596,-2.91965e-15,-9.93923e-15,-33.2435,-16.9706,-76.2666,29.2798,19.3105,-19.5145,0.916537,7.12502,6.80849,-28.954,-2.91965e-15,-9.93923e-15,-32.7786,21.1839,79.0388,24.7604,-9.28339,-10.5569,27.6352,7.12502,15.4473,57.038,-10.808,4.16145,17.4723,33.4199,-24.1639,-6.31677,6.35171,-6.8039,-1.07412,-19.4439,26.4884,-18.1206,10.925,-21.573
-1.97951,17.674,0.113733,4.26833,-0.910115,0.631847,-0.213064,-0.467873,-3.00017,-1.48068,-0.620126,1.96613,-1.34758,-0.260957,3.71214,-22.1502,-3.27761,-10.7072,24.9169,-2.33897,5.2411,12.0941,-1.38569,3.38207,-3.42904e-15,-6.75868e-15,-33.24,-16.9321,-76.2711,29.3028,19.3774,-19.5409,0.643141,7.12502,6.78306,-29.2282,-3.42904e-15,-6.75868e-15,-32.8432,21.1682,79.0665,24.8385,-9.22714,-10.4591,27.7326,7.12502,15.5415,57.128,-10.8696,4.10702,17.3086,33.4622,-24.1485,-6.42671,5.87838,-6.83342,-1.0871,-19.6125,26.4628,-18.142,10.8976,-21.5688
-1.97581,17.6737,0.114498,4.32486,-0.859728,0.722302,-0.260827,-0.480659,-3.0517,-1.49676,-0.63651,1.95217,-1.33557,-0.268608,3.72658,-22.1424,-3.27137,-10.726,24.9249,-2.3291,5.25734,12.0952,-1.38119,3.39334,8.08805e-15,1.31198e-14,-33.2547,-16.8613,-76.2742,29.3546,19.3023,-19.5129,0.360919,7.12502,6.81008,-29.5096,8.08805e-15,1.31198e-14,-32.7891,21.2044,79.0898,24.7867,-9.30657,-10.3889,28.0654,7.12502,15.6091,57.4556,-10.9295,4.0662,17.1837,33.4953,-24.2055,-6.32271,6.23773,-6.8859,-1.10725,-19.7217,26.4515,-18.1423,10.8541,-21.5646
-1.97475,17.6727,0.113674,4.32734,-0.84582,0.646884,-0.249328,-0.466358,-2.95448,-1.47292,-0.616861,1.97614,-1.3198,-0.260469,3.69621,-22.2188,-3.28587,-10.7484,24.9662,-2.34591,5.30095,12.1288,-1.38518,3.41217,7.10655e-15,-1.19271e-14,-33.2249,-16.7445,-76.3136,29.4227,19.1548,-19.5031,0.274793,7.12502,6.81955,-29.5954,7.10655e-15,-1.19271e-14,-32.6523,21.1911,79.1544,24.6993,-9.30899,-10.4666,28.2766,7.12502,15.5343,57.6726,-10.9216,4.11149,17.2643,33.5151,-24.2858,-6.22831,6.70247,-6.89913,-1.08285,-19.6346,26.4586,-18.1411,10.8191,-21.5521
-1.97486,17.6724,0.11523,4.30063,-0.877752,0.591708,-0.257737,-0.452791,-2.89853,-1.41538,-0.598051,1.99573,-1.25781,-0.253673,3.6842,-22.3184,-3.28693,-10.7446,24.9955,-2.34525,5.32847,12.1599,-1.38044,3.42313,1.08213e-14,1.27222e-14,-33.1623,-16.6019,-76.3877,29.4934,19.0829,-19.551,0.174012,7.12502,6.77325,-29.6976,1.08213e-14,1.27222e-14,-32.5381,21.2917,79.1486,24.6024,-9.40816,-10.4373,28.2934,7.12502,15.5625,57.6873,-10.8984,4.19865,17.3369,33.5307,-24.288,-6.29611,6.61068,-6.87354,-1.04888,-19.5742,26.4816,-18.1709,10.8232,-21.5975
-1.97462,17.6724,0.117303,4.26714,-0.888404,0.529602,-0.225952,-0.432987,-2.8341,-1.41098,-0.571797,2.01147,-1.27373,-0.24093,3.66416,-22.2457,-3.28707,-10.7004,24.9537,-2.35861,5.2911,12.1293,-1.38686,3.39794,-6.24929e-15,-7.55382e-15,-33.2337,-16.5666,-76.4059,29.5871,19.0304,-19.6467,0.0584878,7.12502,6.68088,-29.8161,-6.24929e-15,-7.55382e-15,-32.5522,21.2462,79.1563,24.5711,-9.4074,-10.4343,28.2545,7.12502,15.5654,57.6481,-10.8648,4.25003,17.4115,33.5377,-24.2213,-6.32973,6.65051,-6.84156,-1.0539,-19.5045,26.5143,-18.203,10.8094,-21.4377
-1.97373,17.6709,0.119368,4.29203,-0.902139,0.574073,-0.245039,-0.433887,-2.87977,-1.4195,-0.572922,2.00224,-1.2714,-0.240939,3.68031,-22.2164,-3.26628,-10.6463,24.9219,-2.33842,5.24653,12.1077,-1.37809,3.37432,1.3418e-15,-4.77083e-15,-33.2396,-16.6183,-76.403,29.5573,19.1551,-19.6534,0.120912,7.12502,6.67444,-29.7539,1.3418e-15,-4.77083e-15,-32.5527,21.3282,79.1005,24.5251,-9.49667,-10.4801,28.141,7.12502,15.5213,57.5381,-10.9053,4.21029,17.3523,33.5536,-24.2008,-6.3888,5.8717,-6.86888,-1.03459,-19.5596,26.5334,-18.1921,10.8495,-21.5202
-1.9739,17.6703,0.120355,4.28289,-0.867609,0.579773,-0.209006,-0.444796,-2.9051,-1.43028,-0.588237,2.02029,-1.30105,-0.247467,3.71386,-22.1978,-3.27488,-10.7328,24.9141,-2.34224,5.3173,12.1037,-1.3788,3.41522,-9.69075e-16,-7.55382e-15,-33.2431,-16.7543,-76.3298,29.481,19.3035,-19.6508,0.304884,7.12502,6.67694,-29.5698,-9.69075e-16,-7.55382e-15,-32.6077,21.3333,79.099,24.5602,-9.51833,-10.4113,28.231,7.12502,15.5875,57.6229,-10.905,4.1921,17.3524,33.5866,-24.231,-6.41657,5.64516,-6.86022,-1.01976,-19.5611,26.5394,-18.2179,10.8305,-21.5533
-1.97358,17.6691,0.121671,4.27123,-0.819129,0.555575,-0.137541,-0.455825,-2.90694,-1.4778,-0.604182,2.05244,-1.38837,-0.252794,3.74941,-22.0922,-3.27372,-10.7843,24.904,-2.34325,5.34611,12.0803,-1.38133,3.4344,9.20621e-15,8.34896e-15,-33.3343,-16.7714,-76.2674,29.451,19.2961,-19.6765,0.429441,7.12502,6.65215,-29.4461,9.20621e-15,8.34896e-15,-32.7745,21.3788,79.0713,24.6401,-9.5222,-10.2938,28.4138,7.12502,15.7007,57.7968,-10.8957,4.1996,17.3898,33.6283,-24.2419,-6.41874,5.86612,-6.8503,-1.0063,-19.5242,26.5355,-18.2085,10.7503,-21.4281
-1.97149,17.668,0.124037,4.27509,-0.78155,0.632275,-0.11661,-0.467449,-2.96649,-1.51112,-0.620717,2.04105,-1.43259,-0.259017,3.77193,-21.9736,-3.28554,-10.8458,24.8379,-2.36413,5.38964,12.0347,-1.39058,3.45615,-7.54139e-15,9.93923e-15,-33.3829,-16.8444,-76.2339,29.3712,19.268,-19.7812,0.318401,7.12502,6.551,-29.5603,-7.54139e-15,9.93923e-15,-32.865,21.5157,78.9903,24.5943,-9.61592,-10.1833,28.4748,7.12502,15.8072,57.8494,-10.9043,4.05968,17.2911,33.6685,-24.1978,-6.33513,5.78406,-6.84804,-0.951177,-19.6073,26.53,-18.1787,10.6695,-21.515
-1.96799,17.6671,0.12792,4.29396,-0.725295,0.706492,-0.159433,-0.489258,-2.97532,-1.50825,-0.649351,2.00318,-1.40338,-0.274117,3.73748,-21.9993,-3.27343,-10.8173,24.8461,-2.35879,5.4052,12.0419,-1.38327,3.45852,-2.99419e-15,-1.98785e-14,-33.4018,-16.8941,-76.2608,29.3749,19.1567,-19.7603,0.18363,7.12502,6.57118,-29.6944,-2.99419e-15,-1.98785e-14,-32.8813,21.6441,78.902,24.5311,-9.73963,-10.1969,28.4592,7.12502,15.794,57.8349,-10.924,3.96579,17.1905,33.7161,-24.2264,-6.29419,5.63921,-6.85248,-0.922537,-19.6945,26.5132,-18.1663,10.5976,-21.5619
-1.96564,17.6664,0.131977,4.31501,-0.707506,0.735863,-0.181161,-0.50526,-2.97283,-1.51374,-0.670376,1.98756,-1.39518,-0.284856,3.71987,-21.999,-3.24203,-10.7683,24.8183,-2.32892,5.3975,12.027,-1.36554,3.45173,2.10588e-14,1.07344e-14,-33.4109,-16.981,-76.2569,29.3886,19.0679,-19.6887,0.129643,7.12502,6.6403,-29.7462,2.10588e-14,1.07344e-14,-32.9274,21.716,78.8448,24.5586,-9.73833,-10.2725,28.4787,7.12502,15.7212,57.8601,-10.9609,3.93483,17.1504,33.768,-24.2065,-6.33007,5.48478,-6.86213,-0.862125,-19.7235,26.505,-18.1867,10.4919,-21.3365
-1.96267,17.6654,0.134919,4.36419,-0.727658,0.841158,-0.161126,-0.51307,-3.07002,-1.58069,-0.682095,1.98018,-1.47347,-0.286916,3.76808,-21.9581,-3.23137,-10.8276,24.8277,-2.30352,5.41764,12.0215,-1.35795,3.47382,1.57785e-15,-1.78906e-14,-33.5365,-17.0222,-76.1715,29.4415,18.9883,-19.52,0.0491937,7.12502,6.8032,-29.8215,1.57785e-15,-1.78906e-14,-33.0486,21.7939,78.8027,24.591,-9.67929,-10.3717,28.4261,7.12502,15.6257,57.815,-11.0163,3.91052,17.0138,33.8122,-24.1896,-6.29368,5.50025,-6.91727,-0.790686,-19.8509,26.5284,-18.2342,10.4706,-21.391
-1.95994,17.6633,0.137992,4.41271,-0.732551,0.827484,-0.169288,-0.520851,-3.04117,-1.61949,-0.69186,2.00038,-1.50801,-0.290736,3.77302,-22.0015,-3.23057,-10.8584,24.9217,-2.2891,5.42195,12.0659,-1.35571,3.48549,-5.50385e-15,1.07344e-14,-33.6152,-17.2269,-76.0541,29.4765,19.0007,-19.3834,0.0165225,7.12502,6.93505,-29.8499,-5.50385e-15,1.07344e-14,-33.1136,21.9457,78.7295,24.5773,-9.72001,-10.4218,28.3258,7.12502,15.5774,57.7184,-11.0746,3.86544,17.0174,33.8532,-24.1612,-6.25969,5.42907,-6.9865,-0.681827,-19.8364,26.5792,-18.2816,10.4148,-21.3846
-1.95879,17.6606,0.139595,4.37867,-0.722984,0.754412,-0.113028,-0.531548,-2.95692,-1.61356,-0.706516,2.02449,-1.53277,-0.298642,3.75109,-22.0888,-3.22553,-10.8469,25.0168,-2.27482,5.41381,12.1187,-1.35064,3.48539,-1.35546e-14,-1.66979e-14,-33.6551,-17.4433,-75.9699,29.5186,19.0003,-19.2898,0.142939,7.12502,7.02544,-29.7205,-1.35546e-14,-1.66979e-14,-33.1253,22.0097,78.6853,24.5927,-9.6456,-10.2667,28.5202,7.12502,15.7268,57.9012,-11.0568,3.90489,17.1016,33.9158,-24.2645,-6.25306,5.33573,-6.97344,-0.646734,-19.751,26.6356,-18.3162,10.3672,-21.4635
-1.95733,17.6581,0.141127,4.32301,-0.702861,0.737449,-0.0274691,-0.529177,-2.91226,-1.57371,-0.704978,2.01995,-1.54045,-0.298975,3.72177,-22.2813,-3.22928,-10.7605,25.1096,-2.27132,5.35215,12.1906,-1.349,3.45037,6.11263e-15,1.59028e-15,-33.6545,-17.7897,-75.8474,29.5637,18.9558,-19.1074,0.240206,7.12502,7.20145,-29.6173,6.11263e-15,1.59028e-15,-33.0737,22.0813,78.655,24.6226,-9.60887,-10.2401,28.5423,7.12502,15.7524,57.9213,-11.024,3.85768,17.123,33.9939,-24.3244,-6.29942,4.95068,-6.93917,-0.656617,-19.7349,26.703,-18.3438,10.3517,-21.4805
-1.95519,17.6534,0.145842,4.3029,-0.689192,0.813103,-0.039156,-0.51731,-2.93533,-1.50285,-0.689579,1.97848,-1.46252,-0.29386,3.69097,-22.4899,-3.24567,-10.7845,25.1368,-2.29655,5.4723,12.2461,-1.34483,3.49775,-1.22501e-14,0,-33.5857,-18.3016,-75.6831,29.5733,18.9625,-18.7889,0.232727,7.12502,7.50895,-29.614,-1.22501e-14,0,-32.9069,22.0557,78.6837,24.6144,-9.44272,-10.2631,28.3911,7.12502,15.7302,57.7718,-11.0336,3.7494,17.0338,34.1077,-24.4056,-6.32637,4.39509,-6.93122,-0.566504,-19.8186,26.7811,-18.4363,10.2343,-21.5299
-1.95386,17.6483,0.150464,4.31163,-0.650202,0.945796,-0.0832921,-0.537581,-3.06308,-1.45966,-0.7169,1.95123,-1.38998,-0.308232,3.73436,-22.6197,-3.24408,-10.8292,25.1201,-2.28768,5.56047,12.2656,-1.33157,3.54081,-6.18717e-15,7.95139e-15,-33.5432,-18.7671,-75.4834,29.5984,19.0194,-18.4203,0.204422,7.12502,7.86464,-29.6293,-6.18717e-15,7.95139e-15,-32.7705,22.0408,78.6864,24.5224,-9.1504,-10.3173,28.2114,7.12502,15.6781,57.5962,-11.0883,3.60183,16.8783,34.2525,-24.5176,-6.27792,4.15842,-6.98309,-0.42834,-19.9517,26.8965,-18.5708,10.0509,-21.5259
-1.95279,17.6423,0.148182,4.33666,-0.598504,1.06066,-0.00177479,-0.557671,-3.18136,-1.50412,-0.747086,1.92892,-1.47792,-0.31951,3.77982,-22.5683,-3.22332,-10.7383,25.0212,-2.26873,5.4696,12.2122,-1.32466,3.49089,5.25537e-15,1.19271e-15,-33.6835,-19.3654,-75.1695,29.6613,19.175,-18.2637,0.233161,7.12502,8.01583,-29.5948,5.25537e-15,1.19271e-15,-32.8144,22.0307,78.5931,24.5005,-9.02354,-10.2099,28.1571,7.12502,15.7815,57.5338,-11.197,3.38533,16.73,34.4391,-24.6394,-6.00651,4.69289,-7.11351,-0.399149,-20.0668,27.0676,-18.6803,9.92381,-21.444
-1.95203,17.6333,0.143519,4.30492,-0.561496,1.04058,0.203082,-0.55453,-3.1249,-1.57468,-0.747887,1.91791,-1.66628,-0.315749,3.73972,-22.3969,-3.20054,-10.6333,24.9001,-2.26058,5.35941,12.1274,-1.32454,3.42868,-2.43511e-15,1.19271e-14,-33.9322,-20.1993,-74.7453,29.7286,19.26,-18.0745,0.610384,7.12502,8.19842,-29.2106,-2.43511e-15,1.19271e-14,-32.9984,21.8672,78.4686,24.6981,-8.96478,-9.97096,28.24,7.12502,16.0116,57.5983,-11.2758,3.18699,16.7404,34.6743,-24.7692,-5.76599,5.20024,-7.21066,-0.28705,-20.0285,27.3008,-18.8084,9.78895,-21.2923
-1.95379,17.6221,0.139612,4.25577,-0.567605,1.11609,0.373363,-0.535377,-3.19848,-1.57653,-0.728294,1.87524,-1.76538,-0.303146,3.739,-22.3984,-3.20847,-10.6364,24.8658,-2.2879,5.42009,12.1173,-1.32809,3.44715,-2.02015e-14,2.38542e-15,-34.0951,-21.1181,-74.3349,29.8407,19.1642,-17.9056,1.07716,7.12502,8.36144,-28.7373,-2.02015e-14,2.38542e-15,-33.0855,21.5107,78.4139,24.9924,-8.79126,-9.75459,28.1198,7.12502,16.22,57.4613,-11.3889,3.10439,16.6606,34.9695,-24.9088,-5.66312,5.21289,-7.32999,-0.164893,-20.0895,27.5871,-18.9295,9.68419,-21.2196
-1.95616,17.6101,0.135489,4.27209,-0.612591,1.38837,0.413343,-0.522457,-3.51074,-1.53764,-0.717397,1.80188,-1.7466,-0.294792,3.83952,-22.5536,-3.22636,-10.6716,24.8898,-2.31056,5.51599,12.1607,-1.32763,3.48717,-1.26601e-14,-9.54166e-15,-34.1745,-22.1073,-73.8774,29.9587,19.0297,-17.801,1.5002,7.12502,8.46243,-28.3102,-1.26601e-14,-9.54166e-15,-33.0529,21.0214,78.434,25.2759,-8.38867,-9.44712,27.989,7.12502,16.516,57.3061,-11.5971,3.05878,16.3553,35.3117,-25.0704,-5.56024,4.90749,-7.57459,0.0223387,-20.3713,27.9432,-19.0623,9.56738,-21.2778
-1.95561,17.5988,0.131365,4.26852,-0.653329,1.64763,0.501636,-0.516156,-3.75343,-1.52673,-0.716642,1.70888,-1.78383,-0.290978,3.88135,-22.7397,-3.22854,-10.655,24.9815,-2.3201,5.58576,12.2344,-1.32093,3.5126,1.83006e-14,-1.15295e-14,-34.3478,-23.1511,-73.3732,30.1511,18.7704,-17.5726,2.06598,7.12502,8.68277,-27.7354,1.83006e-14,-1.15295e-14,-33.0781,20.7106,78.299,25.4845,-8.25601,-8.98236,27.8689,7.12502,16.9634,57.1481,-11.8058,2.84927,16.0328,35.7169,-25.1782,-5.31723,4.66622,-7.81546,0.155649,-20.6527,28.3762,-19.2765,9.46111,-21.0866
-1.95694,17.5837,0.122904,4.05242,-0.580772,1.73163,0.918303,-0.524387,-3.77604,-1.48706,-0.743561,1.61719,-1.97556,-0.301114,3.80457,-22.9466,-3.23632,-10.5679,25.0839,-2.35204,5.62177,12.3171,-1.32176,3.5097,1.37286e-14,1.31198e-14,-34.5304,-24.384,-72.8251,30.2101,18.4958,-17.6202,2.60859,7.12502,8.63683,-27.1947,1.37286e-14,1.31198e-14,-33.2111,20.4638,78.0079,25.831,-8.36023,-8.52322,27.3472,7.12502,17.4053,56.5879,-11.8336,2.66588,15.9597,36.1933,-25.3258,-5.22119,4.40278,-7.87816,0.261493,-20.7112,28.8909,-19.4945,9.26107,-20.7982
-1.96269,17.5615,0.112413,3.73802,-0.389158,1.7686,1.4505,-0.577635,-3.80442,-1.41688,-0.834205,1.57284,-2.19443,-0.342536,3.7838,-23.0866,-3.2427,-10.5555,25.0701,-2.36379,5.67201,12.3405,-1.31709,3.52512,-1.43249e-14,-1.70955e-14,-34.6905,-25.5906,-72.2368,30.163,18.1887,-18.2114,3.27229,7.12502,8.0663,-26.5538,-1.43249e-14,-1.70955e-14,-33.3921,20.3503,77.6387,26.2899,-8.45293,-8.19205,26.648,7.12502,17.724,55.8602,-11.7984,2.48656,15.9974,36.7442,-25.5323,-5.28241,3.93873,-7.90724,0.327983,-20.6766,29.4865,-19.6742,9.01684,-20.6008
-1.96854,17.5379,0.10384,3.53896,-0.234473,1.96242,1.80188,-0.643743,-3.99406,-1.35439,-0.941609,1.48935,-2.31648,-0.392063,3.81268,-23.2775,-3.22498,-10.4397,25.0527,-2.33279,5.58496,12.3652,-1.3012,3.47718,-4.8578e-15,7.95139e-16,-34.8083,-26.3524,-71.8418,30.318,17.5598,-18.7663,3.41844,7.12502,7.53078,-26.4275,-4.8578e-15,7.95139e-16,-33.5498,20.215,77.2313,26.8012,-8.17597,-8.00827,26.1168,7.12502,17.9009,55.313,-11.9093,2.25955,15.821,37.3654,-25.7288,-5.1371,4.03438,-8.14037,0.469272,-20.8165,30.2158,-19.9031,8.73331,-20.4493
-1.97237,17.5158,0.0948441,3.40172,-0.186767,2.26246,2.09668,-0.686803,-4.29068,-1.29147,-1.02152,1.3819,-2.40741,-0.426895,3.87599,-23.4709,-3.19377,-10.3395,24.9803,-2.28566,5.5318,12.3675,-1.27391,3.44648,4.22417e-16,-1.90833e-14,-34.8199,-27.0491,-71.4664,30.491,16.9662,-18.8321,3.38624,7.12502,7.46723,-26.462,4.22417e-16,-1.90833e-14,-33.7059,20.1067,76.8004,27.4189,-7.785,-7.82472,25.7338,7.12502,18.0775,54.9137,-12.1512,1.93446,15.4844,38.0687,-25.8684,-4.92639,3.67891,-8.48304,0.704105,-21.1067,31.0804,-20.1307,8.59765,-20.8965
-1.9757,17.4916,0.0796263,3.26771,-0.191759,2.33755,2.48708,-0.695432,-4.3584,-1.22799,-1.05233,1.33006,-2.55859,-0.438895,3.86798,-23.5634,-3.1676,-10.3159,24.7267,-2.25165,5.56914,12.2818,-1.24482,3.45658,-1.03368e-14,7.95139e-15,-34.7681,-27.7219,-71.0989,30.6961,16.3945,-18.781,3.2628,7.12502,7.51656,-26.5836,-1.03368e-14,7.95139e-15,-33.7956,20.0582,76.2923,28.0382,-7.60335,-7.30264,25.3969,7.12502,18.5797,54.5296,-12.4694,1.65782,15.4098,38.841,-26.0426,-4.77492,3.16504,-8.87506,1.01423,-21.1472,32.0615,-20.4068,8.431,-20.989
-1.98012,17.4609,0.0593805,3.09601,-0.21425,2.30535,2.93245,-0.693613,-4.33872,-1.14743,-1.06766,1.3118,-2.72534,-0.444253,3.84593,-23.6009,-3.13305,-10.2979,24.3863,-2.21606,5.63398,12.1518,-1.21065,3.47614,-1.29583e-14,4.37326e-15,-34.7331,-28.2951,-70.714,31.0062,15.9128,-18.862,3.03836,7.12502,7.43837,-26.8109,-1.29583e-14,4.37326e-15,-33.9445,19.8776,75.7734,28.7541,-7.3327,-6.86987,25.2246,7.12502,18.996,54.317,-12.7855,1.45865,15.4504,39.6728,-26.3052,-4.48322,3.55676,-9.29407,1.3712,-21.047,33.1565,-20.8356,8.0722,-20.2709
-1.98511,17.4273,0.0401388,2.85499,-0.211283,2.34405,3.43376,-0.717858,-4.41912,-1.03263,-1.12416,1.29269,-2.88258,-0.469239,3.88271,-23.8084,-3.09194,-10.2608,24.2153,-2.1571,5.68026,12.1189,-1.16855,3.4942,-2.39784e-14,1.59028e-15,-34.6791,-28.7362,-70.3176,31.2871,15.3834,-19.0937,2.89704,7.12502,7.21471,-26.96,-2.39784e-14,1.59028e-15,-34.1382,19.6506,75.2306,29.5408,-6.8768,-6.87857,25.1398,7.12502,18.9876,54.233,-13.0519,1.2593,15.4092,40.562,-26.5439,-4.28555,3.62173,-9.70908,1.80669,-21.0006,34.3651,-21.3104,7.56542,-19.8511
-1.98867,17.3892,0.020746,2.62569,-0.200704,2.32786,3.86523,-0.732921,-4.41634,-0.84521,-1.16132,1.2559,-2.9287,-0.490473,3.85129,-24.1471,-3.09568,-10.1166,24.0391,-2.16317,5.64224,12.1131,-1.15512,3.45091,7.62836e-15,5.56597e-15,-34.4747,-29.0095,-70.0801,31.5918,14.6152,-19.0766,2.96478,7.12502,7.23117,-26.8917,7.62836e-15,5.56597e-15,-34.0907,19.5581,74.602,30.2286,-6.44066,-6.74474,24.9279,7.12502,19.1163,54.0084,-13.3638,1.05339,15.4243,41.5113,-26.7806,-4.12819,3.21248,-10.2197,2.33049,-20.8919,35.6543,-21.6324,7.14634,-20.2942
-1.99093,17.3472,0.00042158,2.40523,-0.201476,2.24922,4.24958,-0.707281,-4.29326,-0.598074,-1.13485,1.21626,-2.89473,-0.485174,3.74352,-24.4389,-3.1458,-10.0697,23.6629,-2.21896,5.67411,12.027,-1.16014,3.43701,2.22639e-14,2.38542e-14,-34.1539,-29.3956,-69.77,31.8577,14.218,-18.5204,3.21896,7.12502,7.76807,-26.6183,2.22639e-14,2.38542e-14,-33.8152,19.5072,73.9864,30.7866,-6.11661,-6.37031,24.9249,7.12502,19.4763,53.9694,-13.7006,0.894548,15.5118,42.5231,-27.0172,-3.96694,2.5863,-10.7914,2.78729,-20.714,37.0156,-21.9757,6.70491,-20.6958
-1.99199,17.303,-0.0200281,2.13823,-0.260068,2.14635,4.72076,-0.658995,-4.15476,-0.357388,-1.07936,1.20745,-2.91848,-0.463558,3.65883,-24.742,-3.2112,-10.0907,23.2929,-2.272,5.71783,11.9467,-1.16885,3.4397,-5.98839e-15,-6.36111e-15,-33.8588,-29.6105,-69.3721,32.1993,13.9719,-17.9658,3.13905,7.12502,8.30337,-26.6778,-5.98839e-15,-6.36111e-15,-33.5479,19.531,73.2982,31.2957,-5.87995,-5.96433,25.3047,7.12502,19.8666,54.3093,-13.9991,0.75067,15.6217,43.5954,-27.232,-3.76865,1.87188,-11.3178,3.25894,-20.5015,38.4527,-22.3836,6.23316,-21.1099
-1.99553,17.2566,-0.0488362,1.92015,-0.226536,2.03001,5.28901,-0.652666,-4.03892,-0.198678,-1.08383,1.2392,-3.07463,-0.466303,3.63598,-24.9678,-3.26542,-10.099,22.9771,-2.28482,5.62576,11.8677,-1.17875,3.39625,-7.45443e-16,1.03368e-14,-33.5516,-29.3263,-69.0392,32.6349,13.3423,-17.7518,2.75749,7.12502,8.50991,-27.051,-7.45443e-16,1.03368e-14,-33.262,19.4756,72.5603,31.7576,-5.50882,-5.83938,25.7465,7.12502,19.9868,54.7386,-14.3908,0.598354,15.7595,44.7162,-27.4482,-3.53729,1.5513,-11.9756,3.68933,-20.2468,39.9578,-22.6502,5.76901,-21.6663
-2.00078,17.2071,-0.0767537,1.66507,-0.0873533,2.02566,5.85642,-0.671543,-4.04025,-0.0100055,-1.12979,1.21688,-3.19414,-0.489659,3.62626,-25.1704,-3.2975,-10.1116,22.6612,-2.30331,5.65863,11.7862,-1.17503,3.40066,-9.26834e-15,7.95139e-16,-33.2308,-29.1312,-68.6456,33.0147,12.9908,-17.5753,2.69166,7.12502,8.68016,-27.1099,-9.26834e-15,7.95139e-16,-32.8676,19.3039,71.7717,32.1726,-5.02472,-5.81156,25.725,7.12502,20.0135,54.7143,-14.7441,0.36761,15.7658,45.8781,-27.6906,-3.28837,1.40097,-12.6298,4.04713,-20.0897,41.4818,-22.867,5.2246,-22.1555
-2.0036,17.1576,-0.0938668,1.38598,-0.201986,1.93365,6.32288,-0.593197,-3.93033,0.215487,-1.03387,1.18797,-3.2334,-0.44673,3.53253,-25.4516,-3.33704,-10.033,22.3579,-2.34499,5.64088,11.7244,-1.17977,3.36719,-3.02898e-14,-5.96354e-15,-32.9369,-29.2489,-68.0304,33.2408,13.1959,-17.3312,3.23891,7.12502,8.91577,-26.5527,-3.02898e-14,-5.96354e-15,-32.485,18.9956,70.9147,32.611,-4.59427,-5.58818,25.6582,7.12502,20.2282,54.6249,-15.1131,0.361431,15.8511,47.068,-27.9064,-3.13723,0.834994,-13.1602,4.51846,-19.8482,42.9903,-23.1694,4.69926,-22.5959
-2.00704,17.1085,-0.107544,1.20009,-0.466751,1.78654,6.65306,-0.493753,-3.79602,0.395859,-0.901765,1.18601,-3.24537,-0.385754,3.44688,-25.6581,-3.34701,-9.89304,22.0038,-2.34214,5.50004,11.6228,-1.17582,3.28327,1.17283e-14,-2.78299e-15,-32.7457,-29.2054,-67.3604,33.5902,13.353,-17.0939,3.675,7.12502,9.14475,-26.1067,1.17283e-14,-2.78299e-15,-32.1736,18.7576,69.9077,33.0175,-4.40458,-5.23867,25.6777,7.12502,20.5641,54.6085,-15.6202,0.593617,16.0001,48.2703,-28.0265,-3.11151,-0.0892348,-13.7362,4.95486,-19.5339,44.4698,-23.5335,4.14911,-22.5659
-2.01354,17.0539,-0.124046,0.956134,-0.638855,1.72455,7.02801,-0.420894,-3.76807,0.607419,-0.814898,1.15672,-3.24438,-0.346649,3.39664,-25.7886,-3.33869,-9.88465,21.5877,-2.33545,5.59601,11.4882,-1.14989,3.3107,1.08586e-14,2.90226e-14,-32.453,-29.2026,-66.6874,33.8898,13.6008,-16.9966,3.66686,7.12502,9.23858,-26.1107,1.08586e-14,2.90226e-14,-31.7528,18.6029,68.7913,33.3396,-4.27062,-5.01564,25.7329,7.12502,20.7784,54.6404,-16.0636,0.776896,16.0735,49.4788,-28.1709,-3.1739,-1.52321,-14.2654,5.23671,-19.2666,45.9288,-23.8697,3.49235,-22.5118
-2.02257,17.0001,-0.139869,0.625975,-0.781052,1.59236,7.45975,-0.336505,-3.71547,0.881314,-0.710089,1.18011,-3.21112,-0.300364,3.38513,-25.9593,-3.35134,-9.9603,21.1763,-2.33373,5.74198,11.3658,-1.12646,3.37011,4.87022e-15,6.75868e-15,-32.0408,-29.3155,-65.8824,34.1472,13.9375,-16.8531,3.47752,7.12502,9.37705,-26.2939,4.87022e-15,6.75868e-15,-31.1923,18.6107,67.6467,33.5794,-4.26985,-4.75702,26.0358,7.12502,21.0269,54.9158,-16.4002,0.98241,16.2454,50.6994,-28.3533,-3.10712,-2.00832,-14.7589,5.60714,-18.8842,47.3553,-24.1577,2.78617,-22.8362
-2.03011,16.9516,-0.154255,0.349071,-0.934654,1.32521,7.81568,-0.231321,-3.49228,1.1558,-0.558759,1.24791,-3.13955,-0.233449,3.3168,-26.1623,-3.39573,-10.0812,20.7769,-2.33583,5.82044,11.2547,-1.11725,3.41091,-1.8487e-14,1.27222e-14,-31.5767,-29.4659,-64.9416,34.3747,14.0689,-16.7543,3.30714,7.12502,9.47244,-26.46,-1.8487e-14,1.27222e-14,-30.5616,18.4897,66.5187,33.8254,-4.23802,-4.52791,26.1517,7.12502,21.2469,55.0072,-16.7953,1.13063,16.5523,51.9659,-28.4683,-2.84319,-1.74879,-15.2817,6.06007,-18.3372,48.7232,-24.3516,1.92204,-23.0211
-2.03636,16.9002,-0.168935,0.120697,-1.09456,1.21495,8.17827,-0.107625,-3.41553,1.33637,-0.397829,1.2508,-3.16826,-0.156524,3.26254,-26.2246,-3.4327,-10.1586,20.4503,-2.36218,5.89927,11.1476,-1.11834,3.4418,-6.5102e-15,-1.47101e-14,-31.2822,-29.6368,-63.8813,34.6573,14.1525,-16.6936,3.04174,7.12502,9.53099,-26.7227,-6.5102e-15,-1.47101e-14,-29.9667,18.2853,65.2771,33.9867,-4.30192,-4.39534,25.897,7.12502,21.3743,54.7381,-17.317,1.13844,16.6658,53.3076,-28.5044,-2.7241,-2.85705,-15.7113,6.36753,-17.9674,49.9941,-24.4925,1.03883,-22.8985
-2.04277,16.8381,-0.184856,-0.00856229,-1.24236,1.22686,8.49519,-0.0302823,-3.47239,1.39217,-0.311537,1.2082,-3.29386,-0.111501,3.24383,-26.1778,-3.40475,-10.1137,20.2691,-2.33842,5.88864,11.0682,-1.10261,3.43046,3.23025e-15,4.77083e-15,-31.0872,-29.7711,-62.738,34.8986,14.2783,-16.5292,3.02723,7.12502,9.68964,-26.7299,3.23025e-15,4.77083e-15,-29.4942,18.1702,63.8236,34.1446,-4.35911,-4.31642,26.1177,7.12502,21.4501,54.9502,-17.9957,1.10893,16.6445,54.7191,-28.5651,-2.55852,-3.59709,-16.1279,6.65029,-17.7845,51.1414,-24.6872,0.269154,-22.576
-2.04786,16.7689,-0.199106,-0.0406834,-1.34182,1.26106,8.6905,0.0359296,-3.50855,1.39756,-0.235398,1.15434,-3.40336,-0.0713399,3.20135,-26.086,-3.38134,-10.0212,20.0366,-2.32719,5.81707,10.9616,-1.09639,3.38522,-2.62396e-14,-1.66979e-14,-30.9422,-29.8483,-61.4622,35.1578,14.1755,-16.3316,2.75672,7.12502,9.88027,-26.9914,-2.62396e-14,-1.66979e-14,-28.9339,18.1829,62.2755,34.2256,-4.51403,-3.94021,26.5281,7.12502,21.8114,55.319,-18.7708,0.953255,16.589,56.1547,-28.6379,-2.27811,-3.81512,-16.5622,7.00925,-17.6905,52.1579,-24.8385,-0.413482,-21.8092
-2.05261,16.708,-0.209275,-0.0723566,-1.34594,1.37482,8.86702,0.0716732,-3.60731,1.40635,-0.205976,1.08248,-3.49482,-0.0541468,3.18031,-26.154,-3.32478,-9.85285,19.888,-2.26378,5.66896,10.9084,-1.06996,3.31015,1.92324e-14,3.57812e-15,-30.7197,-29.9993,-60.1357,35.4065,13.9337,-16.189,2.18799,7.12502,10.0179,-27.5536,1.92324e-14,3.57812e-15,-28.3654,18.4281,60.5753,34.2647,-4.76063,-3.3256,26.5599,7.12502,22.4014,55.2809,-19.486,0.56705,16.42,57.5171,-28.6212,-1.91353,-4.14596,-16.9829,7.30222,-17.7133,53.0789,-25.0744,-0.905126,-21.1957
-2.05663,16.66,-0.215572,-0.128112,-1.29901,1.48515,9.03757,0.0712462,-3.7247,1.4045,-0.22565,1.04141,-3.58978,-0.060631,3.20761,-26.218,-3.26269,-9.78926,19.9169,-2.1755,5.59103,10.9208,-1.03469,3.28629,1.717e-14,1.23246e-14,-30.3737,-30.208,-58.7503,35.5818,13.694,-16.0984,1.42462,7.12502,10.1053,-28.3127,1.717e-14,1.23246e-14,-27.886,18.7704,58.8311,34.2841,-4.60443,-3.5872,26.218,7.12502,22.1503,54.9691,-20.0682,0.172528,16.242,58.7387,-28.5908,-1.56151,-4.76434,-17.3642,7.51183,-17.7464,53.9139,-25.414,-1.24711,-21.0296
-2.06043,16.6111,-0.220877,-0.230332,-1.21015,1.51705,9.1592,0.0572489,-3.7302,1.46053,-0.249759,1.01248,-3.59725,-0.0734228,3.18412,-26.1613,-3.24787,-9.93345,19.8992,-2.14681,5.75291,10.9054,-1.01243,3.37466,1.40392e-14,3.57812e-15,-29.9044,-30.6302,-57.3019,35.6709,13.6022,-16.0559,0.796116,7.12502,10.1462,-28.9392,1.40392e-14,3.57812e-15,-27.2852,19.01,57.1322,34.297,-3.76864,-4.82217,25.5157,7.12502,20.9643,54.4027,-20.5212,-0.233006,16.1551,59.8054,-28.5526,-1.24401,-5.16708,-17.6776,7.74957,-17.7128,54.6897,-25.7901,-1.4029,-21.2553
-2.06492,16.5651,-0.222721,-0.390484,-1.02482,1.66563,9.29085,0.00778052,-3.85598,1.5279,-0.333977,0.962313,-3.59288,-0.115113,3.21386,-26.0487,-3.19812,-10.0272,19.8487,-2.06674,5.808,10.8612,-0.976777,3.42257,-2.08724e-15,3.97569e-15,-29.41,-31.3063,-55.6662,35.5767,13.7016,-15.819,1.09741,7.12502,10.3748,-28.6266,-2.08724e-15,3.97569e-15,-26.6994,19.4319,55.284,34.3731,-3.31537,-5.0555,25.6791,7.12502,20.7401,54.5908,-20.828,-0.786226,15.9406,60.7416,-28.5072,-1.0083,-5.63108,-17.9156,7.89759,-17.8131,55.3878,-26.3436,-1.38587,-22.3297
-2.06736,16.529,-0.220014,-0.499446,-0.805164,1.79885,9.36563,-0.0638823,-3.9533,1.56109,-0.443847,0.897966,-3.59037,-0.169342,3.2156,-25.9251,-3.11527,-10.0445,19.8273,-1.97445,5.87064,10.8236,-0.929182,3.46332,7.52897e-15,1.70955e-14,-28.8687,-31.8431,-54.0641,35.4829,13.5357,-15.6651,1.46631,7.12502,10.5232,-28.2503,7.52897e-15,1.70955e-14,-26.1196,19.834,53.2727,34.4773,-3.4137,-4.19749,26.937,7.12502,21.5643,55.7565,-21.08,-1.37444,15.7251,61.5532,-28.6052,-0.712552,-5.96711,-18.1785,7.95181,-17.9301,55.9952,-26.9579,-1.24364,-23.2409
-2.07017,16.4871,-0.220468,-0.585582,-0.567399,1.8269,9.46125,-0.15749,-3.97124,1.55459,-0.574731,0.877185,-3.63926,-0.232885,3.22125,-25.7655,-3.03927,-10.1533,19.8318,-1.88785,6.03594,10.7916,-0.879087,3.55663,1.55549e-14,8.94531e-15,-28.1907,-32.1372,-52.5134,35.4089,13.1956,-15.6922,1.1439,7.12502,10.4971,-28.574,1.55549e-14,8.94531e-15,-25.5979,20.1596,51.2334,34.5781,-3.25921,-3.7211,27.7785,7.12502,22.0218,56.5448,-21.3008,-1.89553,15.6289,62.2592,-28.7576,-0.499858,-6.77815,-18.3561,8.05115,-17.9563,56.4836,-27.3875,-1.0104,-23.5905
-2.07351,16.4365,-0.223125,-0.63735,-0.339957,1.82964,9.52213,-0.238713,-3.95864,1.53267,-0.684498,0.866864,-3.68695,-0.286023,3.21789,-25.6101,-2.98997,-10.1704,19.7901,-1.82385,6.01554,10.7425,-0.855042,3.56072,-2.72832e-14,-1.98785e-15,-27.5479,-32.5473,-50.8462,35.3845,13.0258,-15.5441,0.760388,7.12502,10.6399,-28.9502,-2.72832e-14,-1.98785e-15,-25.0601,20.453,49.2594,34.6732,-2.64659,-4.25432,27.2179,7.12502,21.5097,56.0436,-21.5064,-2.43288,15.5512,62.8299,-28.8414,-0.146778,-7.05888,-18.4087,8.22473,-17.9821,56.8193,-27.7274,-0.650829,-24.0876
-2.07738,16.3941,-0.221225,-0.787817,-0.0966412,1.87718,9.61574,-0.315596,-3.97999,1.5666,-0.793361,0.833333,-3.69459,-0.340248,3.20951,-25.5834,-2.93617,-10.0709,19.7925,-1.7516,5.86668,10.7295,-0.833759,3.50084,7.62836e-15,5.56597e-15,-26.9174,-32.9626,-49.1723,35.4433,13.0499,-15.6795,0.6855,7.12502,10.5094,-29.0318,7.62836e-15,5.56597e-15,-24.404,20.7957,47.268,34.6132,-2.13917,-5.03623,25.8349,7.12502,20.7586,54.7445,-21.4775,-2.96822,15.4152,63.2018,-28.9579,0.337152,-6.4879,-18.2568,8.29704,-18.0204,56.9882,-28.1607,-0.372755,-24.6493
-2.08297,16.3672,-0.211991,-0.961578,0.154905,1.81709,9.68789,-0.403118,-3.97711,1.5829,-0.909802,0.884419,-3.70704,-0.397723,3.27678,-25.5471,-2.87187,-10.0945,19.8479,-1.64014,5.79578,10.7331,-0.795447,3.49769,1.66979e-14,-2.98177e-15,-26.2309,-33.3472,-47.4582,35.4567,13.3491,-16.1929,0.832871,7.12502,10.0141,-28.9089,1.66979e-14,-2.98177e-15,-23.9413,21.0359,45.2941,34.8241,-1.81484,-5.40972,25.2282,7.12502,20.3997,54.1767,-21.2343,-3.39469,15.4347,63.314,-29.1939,0.680666,-5.97768,-17.9825,8.30962,-17.897,56.9577,-28.6026,-0.288584,-25.1046
-2.08679,16.3532,-0.200788,-1.07717,0.440234,1.70112,9.71635,-0.485841,-3.9196,1.52284,-1.01283,0.953351,-3.77646,-0.446514,3.33045,-25.3287,-2.82116,-10.1384,19.8964,-1.5666,5.7498,10.7056,-0.774776,3.49986,-1.70706e-14,-1.47101e-14,-25.6252,-33.7164,-45.6603,35.5091,13.4928,-16.5597,0.626207,7.12502,9.66016,-29.1323,-1.70706e-14,-1.47101e-14,-23.5719,20.8803,43.3748,35.3764,-1.28726,-5.75851,25.6392,7.12502,20.0645,54.6232,-20.8801,-3.80916,15.5254,63.1498,-29.4349,0.928617,-5.47981,-17.7011,8.30499,-17.7148,56.7165,-28.9184,-0.325022,-25.4149
-2.08706,16.3571,-0.186179,-1.19258,0.752255,1.67519,9.6684,-0.562892,-3.948,1.508,-1.11408,1.00795,-3.75489,-0.49632,3.41538,-25.3068,-2.79323,-10.1384,20.1189,-1.51653,5.67886,10.7789,-0.765853,3.48662,1.17034e-14,-3.18055e-15,-25.041,-33.8219,-43.8674,35.772,13.0615,-16.7053,0.226944,7.12502,9.51967,-29.538,1.17034e-14,-3.18055e-15,-22.8979,21.0007,41.5141,35.5918,-1.105,-6.22546,26.2098,7.12502,19.6156,55.2402,-20.3904,-4.28769,15.4881,62.7235,-29.6569,1.17016,-5.12555,-17.3007,8.19213,-17.6554,56.2612,-29.1227,-0.458322,-25.2261
-2.08607,16.3779,-0.165922,-1.23918,0.999827,1.75944,9.50289,-0.619879,-4.10137,1.48297,-1.19706,1.06021,-3.67728,-0.536765,3.56359,-25.4342,-2.76495,-10.06,20.4834,-1.4421,5.45861,10.9284,-0.760422,3.41281,-5.53367e-14,-3.57812e-15,-24.4696,-33.7923,-42.022,36.1262,12.5839,-16.933,-0.0898816,7.12502,9.30003,-29.8648,-5.53367e-14,-3.57812e-15,-22.0043,21.9062,39.6411,35.413,-1.47615,-6.27209,26.5838,7.12502,19.5708,55.6188,-19.8613,-4.70003,15.3292,62.0726,-29.8439,1.43252,-4.54259,-16.8368,8.08281,-17.7512,55.6465,-29.2327,-0.539775,-25.0269
-2.08825,16.4067,-0.147186,-1.25415,1.16173,1.71954,9.32908,-0.644758,-4.19767,1.45683,-1.22873,1.16744,-3.60043,-0.55231,3.73035,-25.4756,-2.74753,-9.95035,20.615,-1.3727,5.13879,10.9763,-0.764065,3.28994,-1.54307e-14,-2.38542e-15,-23.822,-33.914,-40.1408,36.4025,12.5381,-17.1531,-0.607243,7.12502,9.08758,-30.3915,-1.54307e-14,-2.38542e-15,-21.1125,23.2391,37.8069,35.3237,-2.23896,-6.18669,26.8431,7.12502,19.6529,55.8697,-19.3075,-4.87515,15.3876,61.2107,-29.9028,1.50022,-3.60028,-16.3962,8.03046,-17.6973,54.9221,-29.1325,-0.630924,-24.8462
-2.09398,16.444,-0.132472,-1.26876,1.31533,1.44329,9.20317,-0.675288,-4.10941,1.42334,-1.24853,1.35318,-3.56109,-0.562813,3.87459,-25.4579,-2.73466,-9.98966,20.6528,-1.30553,5.00122,10.9815,-0.755786,3.2568,1.87852e-14,-1.98785e-15,-23.115,-34.1261,-38.3308,36.7408,12.5931,-17.2857,-1.34516,7.12502,8.95965,-31.1349,1.87852e-14,-1.98785e-15,-20.3478,24.2248,36.0635,35.5226,-2.6937,-6.41533,27.0814,7.12502,19.4331,56.1303,-18.6976,-4.90884,15.7805,60.1461,-29.8428,1.24024,-3.05031,-15.9927,7.98097,-17.3534,54.1228,-28.8476,-0.871727,-24.4841
-2.09892,16.5019,-0.115923,-1.25971,1.46618,1.34711,9.07182,-0.686983,-4.19983,1.35213,-1.26339,1.48749,-3.55565,-0.567305,4.06613,-25.4693,-2.74777,-10.1952,20.8631,-1.27832,5.1209,11.0625,-0.749409,3.34433,8.10048e-15,-7.55382e-15,-22.5594,-34.1796,-36.5192,37.263,12.3503,-17.4542,-1.57342,7.12502,8.79702,-31.3701,8.10048e-15,-7.55382e-15,-19.6732,24.5634,34.4452,35.9299,-2.39588,-6.63132,27.4925,7.12502,19.2254,56.5622,-18.0051,-4.89911,15.9545,58.8856,-29.6442,1.01507,-2.21826,-15.5351,7.94706,-17.236,53.2002,-28.3812,-1.02093,-24.39
-2.1023,16.577,-0.0954341,-1.23314,1.65022,1.28819,8.86848,-0.705795,-4.28382,1.29605,-1.28586,1.5706,-3.49471,-0.577647,4.19917,-25.4779,-2.74747,-10.3204,21.0448,-1.26802,5.25769,11.133,-0.741313,3.42208,-1.65985e-14,1.47101e-14,-22.1669,-34.1602,-34.7516,37.9519,11.841,-17.942,-1.76177,7.12502,8.32631,-31.5777,-1.65985e-14,1.47101e-14,-18.9691,24.6023,32.9574,36.4202,-1.34444,-7.17881,28.252,7.12502,18.6988,57.3733,-17.2089,-4.81489,16.0913,57.4329,-29.2465,0.836344,-0.906625,-15.0148,7.89449,-17.1666,52.1406,-27.7101,-1.1818,-24.4811
-2.10544,16.6714,-0.0749732,-1.15531,1.83754,1.14626,8.68974,-0.720951,-4.26871,1.1662,-1.29574,1.6552,-3.52775,-0.578921,4.27799,-25.3488,-2.70309,-10.3448,21.1609,-1.23113,5.32296,11.1501,-0.721994,3.45887,5.49143e-15,2.38542e-15,-21.8975,-34.1123,-33.0041,38.7109,11.2312,-18.5638,-2.2881,7.12502,7.72618,-32.1269,5.49143e-15,2.38542e-15,-18.3779,24.4013,31.513,37.0964,0.087496,-7.79941,28.7737,7.12502,18.1018,57.9514,-16.3985,-4.58214,16.342,55.8171,-28.6323,0.552854,0.55575,-14.5277,7.82433,-17.0036,50.9582,-26.719,-1.40446,-24.8507
-2.10763,16.7909,-0.0514907,-1.02876,2.04254,1.01901,8.44249,-0.772646,-4.25613,1.00772,-1.35153,1.75653,-3.5469,-0.602686,4.37946,-25.2126,-2.64583,-10.3624,21.332,-1.15768,5.30368,11.183,-0.698086,3.4701,-2.93207e-15,1.59028e-15,-21.5586,-34.0665,-31.3551,39.5012,10.6797,-19.0794,-2.72642,7.12502,7.22848,-32.583,-2.93207e-15,1.59028e-15,-17.9482,24.3439,30.0796,37.8783,1.15956,-8.07528,28.9387,7.12502,17.8364,58.1407,-15.6147,-4.30663,16.5626,54.0829,-27.7303,-0.046266,0.734964,-14.0881,7.66081,-16.8713,49.6838,-25.3618,-1.82034,-24.9005
-2.10898,16.9295,-0.0250019,-0.835359,2.32945,0.886839,8.0595,-0.868473,-4.23472,0.873728,-1.45897,1.88467,-3.45825,-0.655613,4.50485,-25.2775,-2.61058,-10.3359,21.6278,-1.07437,5.15448,11.2985,-0.684446,3.43092,3.85145e-15,-1.78906e-14,-21.145,-34.2461,-29.7876,40.3304,10.3553,-20.0365,-3.62795,7.12502,6.30459,-33.5141,3.85145e-15,-1.78906e-14,-17.5424,24.6527,28.6719,38.6175,1.51787,-7.74734,28.6274,7.12502,18.1519,57.8004,-14.8751,-4.10238,16.7508,52.3233,-26.4619,-0.602935,0.686832,-13.7838,7.36529,-16.7159,48.3711,-23.6739,-2.64015,-23.8315
-2.10921,17.0837,0.00337468,-0.648205,2.66428,0.889695,7.70356,-0.978082,-4.3003,0.712197,-1.59691,1.93253,-3.40927,-0.721292,4.5988,-25.2322,-2.53257,-10.3228,21.8603,-0.966183,5.11001,11.3681,-0.6465,3.43551,1.73937e-15,-7.95139e-16,-20.78,-34.3771,-28.4242,41.2557,9.6303,-21.5473,-5.12016,7.12502,4.84587,-35.0447,1.73937e-15,-7.95139e-16,-17.1894,24.5756,27.3239,39.5811,2.60477,-8.14659,28.8883,7.12502,17.7678,58.0966,-14.1386,-3.92508,16.7588,50.6541,-25.0567,-1.06976,0.0769445,-13.4715,6.98269,-16.6832,47.0203,-21.6749,-3.5717,-22.6905
-2.11135,17.2341,0.0273671,-0.553449,2.99731,0.988271,7.46801,-1.07339,-4.47311,0.578216,-1.73062,1.93359,-3.39704,-0.783023,4.70639,-25.1801,-2.44065,-10.289,22.081,-0.868406,5.14308,11.4329,-0.600969,3.4641,2.03506e-14,-1.43125e-14,-20.5437,-34.0945,-27.2838,42.5327,8.07746,-22.9106,-6.32066,7.12502,3.52941,-36.2712,2.03506e-14,-1.43125e-14,-16.8239,23.5326,26.3341,41.0413,6.20817,-12.6372,32.5899,7.12502,13.4429,62.1361,-13.4136,-3.61749,16.6338,49.1491,-23.5632,-1.26686,0.694157,-12.9464,6.71905,-16.731,45.6494,-19.4352,-4.35454,-23.6898
-2.11332,17.3838,0.0423269,-0.381323,3.3205,0.987126,7.22326,-1.15186,-4.54083,0.462406,-1.83121,1.95848,-3.36618,-0.830518,4.77478,-25.3089,-2.43129,-10.1484,22.3112,-0.872021,5.0508,11.5436,-0.60729,3.41206,3.67752e-15,8.34896e-15,-20.4394,-34.0113,-26.0885,43.8856,7.0133,-23.5693,-6.60869,7.12502,2.89332,-36.5688,3.67752e-15,8.34896e-15,-16.4077,24.5125,24.9249,41.6914,4.65245,-11.1573,31.2785,7.12502,14.8689,60.7249,-12.9525,-3.35484,16.5766,47.8094,-21.614,-1.55562,1.34067,-12.462,6.62834,-16.6728,44.2506,-16.8912,-5.19755,-26.3592
-2.11266,17.558,0.0564459,-0.15999,3.63123,0.882295,6.98207,-1.23551,-4.46471,0.341265,-1.92635,2.00837,-3.34684,-0.876829,4.78693,-25.4269,-2.45201,-10.1267,22.4777,-0.902978,5.06854,11.6318,-0.620067,3.41501,-2.45251e-14,1.63003e-14,-20.3465,-34.3571,-24.8086,45.0785,6.89973,-23.6119,-6.44099,7.12502,2.85219,-36.4017,-2.45251e-14,1.63003e-14,-16.0398,24.3429,23.8844,42.9527,6.0211,-11.1378,30.9625,7.12502,14.8877,60.4075,-12.6928,-3.27823,16.5771,46.568,-19.1395,-2.02969,0.911638,-12.1607,6.51849,-16.4915,42.8455,-14.1254,-6.18325,-28.8454
-2.11133,17.7526,0.0739751,0.0337548,3.90236,0.866945,6.71048,-1.31213,-4.41137,0.264041,-2.01535,1.97976,-3.26744,-0.922987,4.72649,-25.5408,-2.44425,-10.0202,22.6369,-0.920725,5.06062,11.7147,-0.622564,3.39627,1.35422e-14,2.78299e-15,-20.2668,-34.7618,-23.628,46.2318,6.8166,-23.7377,-6.32531,7.12502,2.73063,-36.2876,1.35422e-14,2.78299e-15,-15.6745,24.0837,22.8135,44.2558,7.47333,-10.9526,30.484,7.12502,15.0662,59.9157,-12.4813,-3.29114,16.4297,45.337,-16.4456,-2.42074,0.13419,-11.956,6.41258,-16.3742,41.4516,-11.0106,-7.27906,-30.1268
-2.1111,17.9415,0.0885222,0.145933,4.17825,0.918078,6.56606,-1.36205,-4.42772,0.187779,-2.07999,1.92843,-3.25971,-0.953946,4.68401,-25.7414,-2.46893,-9.94165,22.9309,-0.968521,5.06392,11.8693,-0.641953,3.38527,-3.11098e-14,2.50469e-14,-20.3421,-34.9379,-22.4242,47.4971,6.37329,-24.1504,-6.2695,7.12502,2.3321,-36.2365,-3.11098e-14,2.50469e-14,-15.2248,24.2362,21.7883,45.4107,8.0403,-10.9724,30.2893,7.12502,15.0471,59.7225,-12.1662,-3.36382,16.1879,44.0817,-13.696,-2.99762,0.671201,-11.7583,6.36057,-16.2663,40.0515,-7.24948,-8.40156,-29.5218
-2.10819,18.1241,0.101135,0.187944,4.42992,0.835176,6.48456,-1.40646,-4.30356,0.121108,-2.12725,1.93156,-3.28221,-0.977385,4.61947,-25.8362,-2.50682,-10.0278,23.1591,-1.02552,5.22244,11.9818,-0.65833,3.45726,-6.11263e-15,1.55052e-14,-20.3248,-35.1234,-21.3,48.6857,5.79699,-24.5457,-5.96019,7.12502,1.95033,-35.931,-6.11263e-15,1.55052e-14,-14.7214,24.4896,20.8971,46.4885,8.66999,-11.832,30.789,7.12502,14.2189,60.2823,-11.7623,-3.5183,16.0681,42.8032,-10.7015,-4.00946,3.04362,-11.5202,6.24867,-15.9806,38.6186,-3.23375,-9.34086,-27.7942
-2.10086,18.3075,0.114335,0.306371,4.62875,0.878181,6.2277,-1.45192,-4.27235,0.108054,-2.17705,1.89564,-3.1486,-1.0066,4.55877,-25.8463,-2.53868,-10.1581,23.2201,-1.08539,5.45456,12.0145,-0.666535,3.55972,-2.2239e-14,3.02153e-14,-20.0826,-35.4687,-20.3628,49.8028,5.37544,-25.0035,-5.64135,7.12502,1.50818,-35.6158,-2.2239e-14,3.02153e-14,-14.2449,24.6695,19.9561,47.5645,9.26949,-12.5596,31.1607,7.12502,13.5177,60.702,-11.5298,-3.72965,15.7431,41.54,-7.51134,-5.21458,5.16681,-11.2974,6.12801,-15.8323,37.1107,0.842809,-9.95183,-26.595
-2.092,18.4866,0.129258,0.436348,4.79406,0.956094,5.92879,-1.48536,-4.27007,0.0991668,-2.21068,1.878,-2.98715,-1.02807,4.53034,-25.8504,-2.55414,-10.2407,23.268,-1.09345,5.52103,12.0357,-0.669717,3.59906,9.44227e-16,-7.15625e-15,-19.7935,-35.7192,-19.3678,50.9447,4.93771,-25.5077,-5.34613,7.12502,1.02123,-35.3234,9.44227e-16,-7.15625e-15,-13.804,24.8917,19.0535,48.5673,9.65285,-12.8855,31.156,7.12502,13.2036,60.7179,-11.3746,-3.96825,15.3258,40.2816,-4.32365,-6.43988,6.86721,-11.0399,5.89048,-15.7003,35.5068,5.16807,-10.1562,-25.5197
-2.08134,18.6575,0.144698,0.508526,4.94586,0.912466,5.75865,-1.51844,-4.13186,0.0456288,-2.23844,1.91448,-2.94787,-1.04378,4.48702,-25.8087,-2.55638,-10.3468,23.3185,-1.05326,5.50034,12.0449,-0.666012,3.6167,3.35449e-15,8.34896e-15,-19.4769,-35.6654,-18.2927,52.0638,4.59434,-25.8794,-5.23956,7.12502,0.662201,-35.2183,3.35449e-15,8.34896e-15,-13.3778,25.1582,18.219,49.4655,9.92885,-13.3158,31.2983,7.12502,12.7888,60.8866,-11.208,-4.12428,15.0153,39.0763,-1.23781,-7.8844,8.86223,-10.7429,5.39406,-15.4072,33.8059,9.70474,-9.75279,-23.4667
-2.0698,18.8234,0.157838,0.613814,5.04128,0.872858,5.61095,-1.51127,-3.97498,-0.0162395,-2.21319,1.93296,-2.93685,-1.03247,4.41152,-25.8518,-2.59996,-10.53,23.4422,-1.06469,5.5936,12.1046,-0.677973,3.68503,1.9307e-14,3.97569e-16,-19.1914,-35.5122,-17.1325,53.1251,4.20623,-26.1317,-5.08651,7.12502,0.418583,-35.0658,1.9307e-14,3.97569e-16,-12.8261,25.2884,17.4079,50.4784,10.2865,-13.274,31.252,7.12502,12.8291,60.8377,-11.1509,-4.12248,14.6867,37.9286,1.75284,-9.42036,10.7833,-10.5228,4.70816,-15.1002,32.1215,14.0633,-8.67789,-20.4731
-2.05967,18.9771,0.16556,0.756614,5.12049,0.934545,5.53335,-1.49365,-3.9615,-0.127405,-2.18701,1.93353,-3.01173,-1.01549,4.40242,-26.0205,-2.64929,-10.6649,23.7786,-1.08301,5.65722,12.2723,-0.697113,3.74017,-9.74045e-15,-4.37326e-15,-18.7676,-35.4869,-16.0088,54.0658,3.7865,-26.3394,-4.68124,7.12502,0.217965,-34.6609,-9.74045e-15,-4.37326e-15,-12.257,25.3469,16.5093,51.5002,10.4926,-13.0009,30.5706,7.12502,13.0923,60.1396,-11.1547,-4.07947,14.2508,36.8622,4.44765,-10.6618,13.0236,-10.3458,3.98289,-14.8903,30.5638,17.4689,-7.56924,-18.5939
-2.04896,19.1178,0.170902,0.877787,5.10884,0.90588,5.48762,-1.45905,-3.84131,-0.236919,-2.13159,1.95561,-3.10876,-0.984935,4.35442,-26.1796,-2.76267,-10.7605,24.0379,-1.18582,5.64693,12.4169,-0.758705,3.74273,6.03808e-15,7.95139e-15,-18.0524,-35.6181,-14.9817,54.8268,3.62677,-26.4641,-4.46506,7.12502,0.0974638,-34.4448,6.03808e-15,7.95139e-15,-11.6654,25.4833,15.6196,52.4297,10.6906,-13.2752,29.9683,7.12502,12.8279,59.5542,-11.1401,-3.88682,13.9175,35.8885,6.4918,-11.5884,15.4465,-10.1433,3.31187,-14.5768,29.2402,19.6784,-7.04256,-17.3626
-2.03802,19.2502,0.176394,1.01083,5.04904,0.820042,5.33399,-1.40364,-3.64619,-0.283099,-2.03969,1.97837,-3.08542,-0.941895,4.25657,-26.2436,-2.82173,-10.7691,24.0903,-1.24116,5.58816,12.4557,-0.793071,3.7132,2.00773e-14,-2.10712e-14,-17.2812,-35.6923,-13.9046,55.5452,3.65616,-26.6572,-4.55606,7.12502,-0.0889839,-34.5358,2.00773e-14,-2.10712e-14,-10.837,25.6494,14.7681,53.2023,11.0931,-13.5453,29.646,7.12502,12.5675,59.248,-11.1405,-3.54471,13.6377,35.0369,7.34793,-12.4116,17.2557,-10.0319,2.63034,-14.1929,28.233,20.8806,-6.95303,-15.7198
-2.02698,19.3724,0.179662,1.18856,5.06779,0.792781,5.12319,-1.36946,-3.51521,-0.338554,-1.97896,2.00616,-3.03369,-0.913895,4.20096,-26.1539,-2.72922,-10.7329,24.0988,-1.09706,5.45995,12.427,-0.744531,3.68227,-3.02898e-14,7.55382e-15,-16.4557,-35.7887,-12.7698,56.2493,3.78074,-26.6969,-4.68358,7.12502,-0.127371,-34.6633,-3.02898e-14,7.55382e-15,-9.94434,25.8059,13.9344,53.9757,11.3759,-13.6267,29.5678,7.12502,12.489,59.1746,-11.1575,-3.04621,13.2971,34.3047,6.52794,-13.3463,17.8661,-10.1134,2.03271,-13.8658,27.5499,21.0328,-7.08402,-16.4245
-2.01773,19.4831,0.178124,1.32916,5.0676,0.827782,5.01801,-1.36433,-3.49675,-0.430225,-1.96719,2.04409,-3.06995,-0.905584,4.2277,-26.0593,-2.62592,-10.7083,24.2247,-0.933104,5.32542,12.4426,-0.692418,3.65769,-4.96962e-15,-1.98785e-14,-15.2475,-36.0934,-11.8648,56.7523,4.11952,-26.4579,-4.50869,7.12502,0.103481,-34.4884,-4.96962e-15,-1.98785e-14,-9.18499,25.9632,12.9828,54.7454,11.4179,-13.7057,29.6484,7.12502,12.4129,59.2598,-11.1465,-2.43746,12.9031,33.7076,4.46947,-14.3522,18.1657,-10.1633,1.46204,-13.6089,27.1047,20.2449,-6.58957,-19.0051
-2.01148,19.5825,0.173497,1.40957,4.98737,0.88518,5.03174,-1.3327,-3.55494,-0.528009,-1.92872,2.06556,-3.18027,-0.880762,4.2831,-26.0203,-2.60248,-10.7104,24.402,-0.896631,5.29527,12.5023,-0.685914,3.65771,1.2424e-15,8.74653e-15,-13.8739,-36.3931,-11.0722,57.1628,4.48896,-26.3564,-4.50314,7.12502,0.201535,-34.4828,1.2424e-15,8.74653e-15,-8.35665,26.2034,11.9996,55.4918,11.3076,-13.76,29.4992,7.12502,12.3605,59.1138,-11.1161,-1.87197,12.4919,33.2412,2.09383,-15.0581,18.3404,-10.0801,1.01614,-13.367,26.8132,18.9771,-5.01232,-20.9859
-2.00469,19.6695,0.166394,1.44364,4.92542,1.02769,5.14837,-1.28995,-3.65812,-0.626995,-1.88358,2.02205,-3.35139,-0.85059,4.29917,-25.9123,-2.58785,-10.6139,24.5089,-0.897422,5.18748,12.5233,-0.695828,3.60162,4.27387e-15,-2.06736e-14,-12.7087,-36.4248,-10.1588,57.7748,4.46985,-26.4222,-4.62504,7.12502,0.138014,-34.6047,4.27387e-15,-2.06736e-14,-7.37347,26.4052,11.0495,56.2045,11.3453,-13.9873,29.3849,7.12502,12.1413,59.0126,-11.0908,-1.58644,11.961,32.8948,0.339711,-15.324,18.0082,-9.92211,0.70308,-13.2058,26.5929,17.6454,-2.83641,-20.9659
-1.99877,19.7435,0.156433,1.39842,4.89126,1.09391,5.33355,-1.26129,-3.68442,-0.675584,-1.85382,2.00002,-3.5091,-0.830443,4.29624,-25.8552,-2.56067,-10.5414,24.6518,-0.869218,5.09621,12.5661,-0.693489,3.56257,1.93567e-14,-2.34566e-14,-11.4128,-36.7061,-9.41181,58.3975,4.51409,-26.4855,-4.75596,7.12502,0.0768192,-34.7357,1.93567e-14,-2.34566e-14,-6.3368,26.615,10.1057,56.9184,11.6352,-14.4555,29.7201,7.12502,11.6899,59.3739,-11.012,-1.28951,11.4992,32.6317,-1.20164,-15.4656,18.2261,-9.67855,0.485901,-12.9287,26.395,16.3098,-1.11144,-20.9364
-1.9932,19.8068,0.144603,1.28572,4.81827,1.17434,5.56406,-1.2047,-3.72232,-0.684666,-1.78906,1.97481,-3.65469,-0.793632,4.29422,-25.7793,-2.55833,-10.6111,24.756,-0.870607,5.17161,12.5939,-0.693759,3.60606,4.09993e-15,-2.42517e-14,-9.94373,-37.2774,-8.82028,58.9093,4.94258,-26.6239,-4.65356,7.12502,-0.0568473,-34.6333,4.09993e-15,-2.42517e-14,-5.17952,27.0339,9.26018,57.5745,11.5834,-14.7069,30.0378,7.12502,11.4474,59.7053,-10.8636,-1.00751,10.9961,32.3894,-2.78459,-15.4714,17.9958,-9.33451,0.3069,-12.6484,26.206,14.845,0.13427,-22.3711
-1.98825,19.8587,0.13235,1.09936,4.7093,1.30571,5.85746,-1.13842,-3.82442,-0.668428,-1.71857,1.93894,-3.80866,-0.752914,4.31796,-25.6509,-2.53031,-10.6355,24.7768,-0.84625,5.20266,12.5752,-0.682498,3.62633,2.60408e-14,-1.59028e-15,-8.43765,-37.6957,-8.22634,59.432,5.28602,-27.1766,-4.4544,7.12502,-0.590683,-34.4333,2.60408e-14,-1.59028e-15,-3.99651,27.6107,8.43554,58.178,11.0969,-14.7139,30.2142,7.12502,11.4407,59.882,-10.6223,-0.758171,10.4292,32.1239,-4.00558,-15.4427,16.8022,-8.89698,0.178404,-12.4071,26.0587,13.5676,0.930427,-23.3722
-1.98601,19.9023,0.122002,0.771149,4.65741,1.21458,6.23332,-1.12014,-3.75363,-0.608873,-1.69924,1.9781,-3.96137,-0.74132,4.32795,-25.4374,-2.45811,-10.5652,24.7284,-0.762585,5.08669,12.5059,-0.654975,3.58088,2.79044e-14,-7.55382e-15,-6.79243,-38.086,-7.77434,60.0155,5.42855,-27.7501,-4.79952,7.12502,-1.14453,-34.7762,2.79044e-14,-7.55382e-15,-2.89695,28.2463,7.58622,58.8174,10.5549,-14.8015,30.6159,7.12502,11.3562,60.2884,-10.2086,-0.36649,10.1332,31.8182,-4.75863,-15.7882,15.575,-8.38674,-0.0560042,-11.8735,25.991,12.3462,1.53687,-23.2529
-1.98357,19.9338,0.111126,0.419101,4.6125,1.03025,6.60747,-1.10031,-3.57488,-0.524031,-1.66792,2.02496,-4.09051,-0.727178,4.283,-25.2997,-2.41956,-10.5445,24.7173,-0.729981,5.077,12.4714,-0.640497,3.57803,-6.11263e-15,-2.66371e-14,-5.07523,-38.6746,-7.47842,60.6563,5.63786,-28.051,-5.40185,7.12502,-1.4352,-35.3768,-6.11263e-15,-2.66371e-14,-1.70595,28.958,6.82426,59.5392,10.163,-15.0154,30.7127,7.12502,11.1499,60.3965,-9.76596,0.0269725,9.92566,31.4941,-5.11512,-16.334,15.6602,-7.91066,-0.362223,-11.2324,26.0091,11.1993,1.96017,-23.0952
-1.9785,19.9529,0.0998423,0.178582,4.59552,0.972892,6.87557,-1.06174,-3.47246,-0.463736,-1.61616,2.01138,-4.18695,-0.70235,4.21294,-25.1733,-2.42838,-10.5199,24.7193,-0.772466,5.0917,12.4514,-0.655802,3.57133,2.34566e-14,-2.38542e-15,-3.48842,-39.1606,-7.11575,61.4201,5.38673,-28.7253,-5.73645,7.12502,-2.08643,-35.706,2.34566e-14,-2.38542e-15,-0.352161,29.6795,6.22105,60.2645,9.8054,-15.757,29.3749,7.12502,10.4346,59.096,-9.45674,0.24396,9.55281,31.1882,-4.95171,-16.9912,16.6782,-7.53801,-0.613511,-10.7425,26.0517,10.5584,1.86355,-22.7116
-1.97316,19.9597,0.087286,0.00146302,4.58146,0.901859,7.06751,-1.02979,-3.37998,-0.383126,-1.5698,2.03387,-4.21729,-0.681677,4.1837,-25.1585,-2.4388,-10.5616,24.7356,-0.782746,5.12584,12.4564,-0.660196,3.59018,4.34841e-15,-1.63003e-14,-1.68342,-39.8007,-6.94549,62.2074,5.32009,-29.1885,-6.48554,7.12502,-2.53376,-36.4502,4.34841e-15,-1.63003e-14,0.929327,30.464,5.71153,61.07,9.33355,-16.1339,28.527,7.12502,10.071,58.266,-9.23726,0.411785,9.1987,30.9143,-4.33136,-17.7977,16.7195,-7.26338,-0.933749,-10.2152,26.0991,10.6632,1.66344,-21.5442
-1.96661,19.9572,0.0730746,-0.193714,4.58263,0.914625,7.24776,-1.03653,-3.38977,-0.268749,-1.58264,2.06757,-4.19713,-0.689869,4.229,-25.1341,-2.40119,-10.6315,24.7094,-0.71518,5.16351,12.4353,-0.631207,3.62741,1.02871e-14,-3.97569e-15,0.444138,-40.7069,-7.08687,62.9208,5.98915,-28.8563,-7.21715,7.12502,-2.21289,-37.1854,1.02871e-14,-3.97569e-15,2.15946,31.399,5.21107,61.93,8.93477,-15.6611,29.1124,7.12502,10.5271,58.8288,-8.98757,0.555117,8.73259,30.6882,-3.53097,-18.3931,14.9649,-7.00139,-1.39507,-9.78499,26.1336,11.3155,1.59009,-20.0221
-1.96071,19.9445,0.0607463,-0.416189,4.5731,0.879953,7.42308,-1.03578,-3.37188,-0.155481,-1.58198,2.12377,-4.17666,-0.691738,4.28073,-25.1278,-2.37035,-10.6952,24.731,-0.658998,5.20443,12.4376,-0.607428,3.66444,5.11871e-15,-7.95139e-16,2.55409,-41.5818,-7.26617,63.6992,6.6186,-28.686,-7.66076,7.12502,-2.04847,-37.6307,5.11871e-15,-7.95139e-16,3.48754,32.4095,4.90597,62.8436,8.64603,-15.4645,29.6618,7.12502,10.7167,59.3685,-8.71055,0.777512,8.30283,30.4941,-2.85139,-19.133,14.5421,-6.69222,-1.87358,-9.29371,26.1627,11.9591,1.55446,-19.8592
-1.9554,19.9193,0.0502213,-0.611666,4.58045,0.821619,7.57817,-1.03828,-3.28951,-0.0775859,-1.58142,2.13348,-4.18455,-0.694162,4.24731,-25.0888,-2.35172,-10.698,24.7836,-0.648431,5.24302,12.4498,-0.5994,3.68315,2.11954e-14,1.51076e-14,4.56354,-42.2676,-7.4883,64.5433,6.88139,-28.7455,-7.77737,7.12502,-2.10594,-37.7467,2.11954e-14,1.51076e-14,4.88506,33.4015,4.69522,63.8087,8.35114,-16.2029,30.0168,7.12502,10.0044,59.759,-8.4552,1.03865,7.91646,30.3302,-1.69518,-20.4311,15.1428,-6.41755,-2.42852,-8.76477,26.1943,12.7271,1.62447,-19.9124
-1.95053,19.8809,0.0393928,-0.762921,4.5849,0.71119,7.69461,-1.05028,-3.11816,-0.0342547,-1.58518,2.12518,-4.2091,-0.699742,4.14454,-25.0278,-2.36117,-10.6816,24.8868,-0.677011,5.24286,12.4817,-0.613908,3.67803,2.68608e-14,-9.54166e-15,6.58118,-42.8389,-7.8136,65.4459,7.01536,-28.7133,-7.58035,7.12502,-2.07483,-37.55,2.68608e-14,-9.54166e-15,6.24607,34.365,4.40337,64.8595,8.05507,-17.2757,30.3938,7.12502,8.96926,60.1832,-8.24275,1.2945,7.60642,30.1936,-0.417863,-21.3193,15.1475,-6.22068,-3.01419,-8.17184,26.2722,13.5112,1.68141,-18.9803
-1.94792,19.827,0.0280026,-0.951383,4.55975,0.659742,7.84488,-1.02423,-3.03797,0.0263696,-1.54684,2.11822,-4.23614,-0.682714,4.09102,-24.9845,-2.39465,-10.7152,24.9999,-0.725249,5.26772,12.5235,-0.638681,3.68804,1.04113e-14,-1.98785e-15,8.60799,-43.4139,-8.13569,66.3882,6.78314,-29.0185,-7.23697,7.12502,-2.36955,-37.2036,1.04113e-14,-1.98785e-15,7.83955,35.4355,4.41015,65.8817,7.54468,-16.5403,29.8422,7.12502,9.67893,59.5998,-8.00108,1.59426,7.24134,30.1047,0.585143,-21.4736,14.7508,-6.01329,-3.50854,-7.64039,26.3902,14.0157,1.30123,-18.7906
-1.94594,19.7597,0.0168787,-1.12451,4.55372,0.651218,7.97143,-1.00698,-3.05202,0.0749488,-1.52703,2.13936,-4.2575,-0.672609,4.12186,-24.9016,-2.40364,-10.7871,25.0872,-0.73706,5.32229,12.544,-0.646501,3.72139,-1.34428e-14,-7.55382e-15,10.6598,-43.8561,-8.41289,67.3627,6.26273,-29.6479,-6.59339,7.12502,-2.97739,-36.5524,-1.34428e-14,-7.55382e-15,9.61976,36.5783,4.7033,66.8212,6.89449,-17.5005,30.9803,7.12502,8.75241,60.7788,-7.78499,1.89567,6.81831,30.069,1.80989,-21.2699,14.3693,-5.83874,-3.90863,-7.15411,26.5409,14.7344,0.508226,-19.1237
-1.94435,19.6854,0.00822904,-1.28199,4.52044,0.634243,8.04775,-0.986442,-3.0235,0.101695,-1.49923,2.12723,-4.27607,-0.659485,4.09166,-24.7105,-2.43489,-10.8493,25.1439,-0.799521,5.38162,12.536,-0.675143,3.74431,-1.27968e-14,1.98785e-15,12.7868,-44.2955,-8.84839,68.3621,6.21983,-29.812,-6.39212,7.12502,-3.13586,-36.3488,-1.27968e-14,1.98785e-15,11.4217,37.6338,4.95909,67.8574,6.36259,-17.9314,29.4543,7.12502,8.33656,59.2697,-7.60505,2.25438,6.42053,30.0773,3.18451,-20.8605,14.2432,-5.65549,-4.40728,-6.66399,26.6992,15.6487,-0.379065,-18.9654
-1.94247,19.5985,0.00327215,-1.41842,4.49548,0.556168,8.03141,-0.985135,-2.9004,0.137877,-1.48687,2.09932,-4.23398,-0.657671,3.98993,-24.4838,-2.46783,-10.9257,25.2164,-0.882028,5.50049,12.5294,-0.706633,3.78977,1.69712e-14,-7.55382e-15,15.0369,-44.7277,-9.48457,69.3688,6.52055,-29.8067,-6.68306,7.12502,-3.13078,-36.6398,1.69712e-14,-7.55382e-15,13.3005,38.6607,5.26219,68.9849,5.8895,-17.3106,30.0866,7.12502,8.93561,59.8774,-7.41574,2.70504,6.11021,30.104,4.18065,-20.4135,17.6111,-5.50506,-4.91901,-6.10958,26.8865,16.3582,-1.34462,-18.7183
-1.9392,19.4979,-0.000406154,-1.59406,4.49913,0.647226,8.01754,-0.994191,-2.96022,0.208081,-1.50638,2.04752,-4.15108,-0.669622,3.96979,-24.2354,-2.47679,-11.0624,25.2638,-0.924496,5.66875,12.505,-0.719123,3.87078,6.70898e-16,1.98785e-15,17.3477,-45.0267,-10.192,70.4043,6.69125,-30.2049,-6.72409,7.12502,-3.51535,-36.6749,6.70898e-16,1.98785e-15,15.3051,39.7002,5.76645,70.1001,5.27677,-18.0651,29.989,7.12502,8.20751,59.8095,-7.14889,3.16031,5.60685,30.1199,5.31719,-19.6618,17.2919,-5.2922,-5.46493,-5.77784,27.1303,16.6832,-2.36517,-18.8819
-1.93706,19.3832,-0.00473031,-1.80579,4.52862,0.719527,8.00438,-1.03219,-3.02985,0.298731,-1.56424,2.01842,-4.04298,-0.70117,3.98276,-24.0035,-2.45019,-11.1773,25.2453,-0.921661,5.83461,12.4525,-0.707844,3.95299,-4.69629e-15,-1.98785e-15,19.8561,-45.2819,-11.1311,71.5124,6.81061,-30.5037,-6.76645,7.12502,-3.80387,-36.7123,-4.69629e-15,-1.98785e-15,17.2238,40.6927,6.2704,71.2919,4.62098,-18.5761,29.2489,7.12502,7.71429,59.0881,-6.84619,3.62824,5.14846,30.1499,6.49827,-18.8075,17.4329,-5.06506,-5.98232,-5.43999,27.448,16.7794,-3.57587,-19.7098
-1.93561,19.2562,-0.00892447,-2.07919,4.5767,0.57389,8.02748,-1.07665,-2.91741,0.384969,-1.61139,2.07022,-3.96336,-0.72938,3.97724,-23.7887,-2.40998,-11.2038,25.2967,-0.888047,5.85356,12.4274,-0.69627,3.97043,-1.01132e-14,-7.55382e-15,22.4255,-45.4712,-12.127,72.6826,7.09827,-30.4943,-6.72019,7.12502,-3.79479,-36.6662,-1.01132e-14,-7.55382e-15,19.2254,41.5659,6.96294,72.5814,3.88601,-19.313,30.0243,7.12502,7.00301,59.8885,-6.49026,4.19623,4.98196,30.2136,7.3259,-18.25,15.7226,-4.82948,-6.5122,-4.85629,27.8259,16.6412,-4.90685,-20.3387
-1.93318,19.1131,-0.0123082,-2.37714,4.632,0.395939,8.07157,-1.10579,-2.74994,0.472586,-1.6342,2.10761,-3.89828,-0.746132,3.92342,-23.5352,-2.3901,-11.1396,25.3154,-0.892062,5.77079,12.3848,-0.705739,3.92493,2.28105e-14,1.15295e-14,24.6815,-45.4906,-12.8352,73.8826,7.29163,-30.8338,-6.25729,7.12502,-4.12264,-36.1971,2.28105e-14,1.15295e-14,21.3584,42.2998,7.72978,73.9079,3.09457,-19.1673,29.3078,7.12502,7.14363,59.1673,-6.12115,4.81625,4.87169,30.3096,8.30768,-17.596,13.6283,-4.61002,-7.11971,-4.25323,28.2685,16.3101,-6.32793,-21.1324
-1.93372,18.961,-0.0166763,-2.58075,4.67732,0.344665,8.03573,-1.10906,-2.73009,0.549662,-1.63584,2.11393,-3.7982,-0.750579,3.91611,-23.2896,-2.41786,-11.1419,25.2699,-0.95338,5.74333,12.325,-0.737819,3.90053,3.13086e-14,-7.95139e-15,26.7659,-45.4263,-13.383,75.186,7.24358,-31.5327,-5.96523,7.12502,-4.79752,-35.8909,3.13086e-14,-7.95139e-15,23.5102,42.9138,8.58523,75.3164,2.26938,-20.1702,29.6191,7.12502,6.17551,59.5091,-5.89844,5.38717,4.63415,30.467,9.50701,-16.3336,10.2874,-4.50954,-7.76812,-3.80444,28.785,15.8136,-7.79506,-22.1855
-1.93469,18.8012,-0.0237741,-2.73837,4.74191,0.403909,8.07671,-1.1112,-2.8487,0.542814,-1.64965,2.13008,-3.8233,-0.754696,4.00316,-23.0051,-2.42512,-11.2289,25.2841,-0.967608,5.7441,12.2772,-0.755519,3.91108,-2.73329e-16,-9.93923e-15,28.8726,-45.1779,-13.8847,76.5282,7.22964,-32.1385,-6.02596,7.12502,-5.38245,-35.9376,-2.73329e-16,-9.93923e-15,25.7508,43.3604,9.67927,76.7231,1.37735,-21.3962,29.7551,7.12502,4.99176,59.6763,-5.76089,6.01447,4.29221,30.7734,9.50339,-14.9401,6.41642,-4.48202,-8.44143,-3.50824,29.3631,15.4265,-9.28715,-22.5631
-1.93148,18.6224,-0.0306517,-2.88923,4.74741,0.415225,8.10835,-1.12636,-2.86633,0.54376,-1.67208,2.13119,-3.8375,-0.765234,4.01774,-22.8943,-2.39246,-11.3015,25.4645,-0.934316,5.82361,12.3238,-0.743214,3.96489,-1.63252e-14,-8.34896e-15,31.048,-44.9272,-14.5826,77.9039,7.60549,-32.5395,-5.83441,7.12502,-5.76963,-35.7359,-1.63252e-14,-8.34896e-15,28.0512,43.764,10.8058,78.1121,0.346108,-21.9556,28.8861,7.12502,4.45164,58.8193,-5.63989,6.59241,4.02082,31.3086,8.11971,-13.283,1.77428,-4.44573,-9.21707,-3.208,29.9725,14.8575,-10.7131,-22.9233
-1.92795,18.4258,-0.0373295,-3.046,4.70299,0.382378,8.10028,-1.13258,-2.81699,0.577692,-1.67667,2.10783,-3.79933,-0.769888,3.9648,-22.8598,-2.36181,-11.2751,25.6606,-0.917005,5.85447,12.3924,-0.734636,3.98176,6.52262e-15,-1.35174e-14,33.1246,-44.6928,-15.3509,79.3488,8.34416,-33.0744,-5.39429,7.12502,-6.28609,-35.281,6.52262e-15,-1.35174e-14,30.2024,44.0925,11.7235,79.5988,-0.589856,-22.44,27.8829,7.12502,3.98386,57.8254,-5.54859,6.90028,3.81896,32.1455,6.07342,-10.8978,-6.35409,-4.39182,-9.87551,-2.86946,30.6336,13.4502,-11.9772,-25.8839
-1.9266,18.2212,-0.0455483,-3.2348,4.60933,0.437618,8.12195,-1.11224,-2.86835,0.632375,-1.65714,2.04779,-3.75659,-0.761556,3.92846,-22.681,-2.33172,-11.2379,25.6124,-0.912982,5.86286,12.3368,-0.728166,3.97626,-1.36664e-14,9.93923e-15,34.9909,-44.3928,-15.8968,80.7622,8.99677,-33.9432,-4.98429,7.12502,-7.1247,-34.8444,-1.36664e-14,9.93923e-15,32.1925,44.3011,12.4988,81.2253,-1.34617,-23.2244,28.0754,7.12502,3.2264,58.0307,-5.54804,7.06825,3.55352,33.3515,3.1786,-8.2845,-13.8811,-4.26804,-10.5325,-2.67828,31.384,11.2586,-12.8844,-30.6898
-1.92405,18.0081,-0.0573586,-3.39939,4.52886,0.420419,8.17516,-1.09284,-2.81189,0.655444,-1.62826,2.02244,-3.76719,-0.748382,3.86805,-22.5708,-2.33479,-11.359,25.6188,-0.9225,5.98187,12.3195,-0.729557,4.04073,-1.97418e-14,1.59028e-15,36.6255,-44.0285,-16.1626,82.2024,9.43909,-35.0916,-4.32226,7.12502,-8.23316,-34.1418,-1.97418e-14,1.59028e-15,34.0679,44.4095,13.2561,82.893,-2.10477,-23.846,27.6129,7.12502,2.62605,57.5765,-5.66467,7.13267,3.37891,34.8801,-0.131604,-5.88244,-15.4073,-4.23419,-11.1496,-2.43468,32.2906,8.63945,-13.4976,-34.2695
-1.92007,17.785,-0.0748105,-3.54412,4.43595,0.429911,8.32376,-1.07182,-2.77809,0.610367,-1.60071,2.00987,-3.90094,-0.731712,3.83841,-22.5852,-2.36665,-11.5352,25.7867,-0.944527,6.11905,12.3932,-0.743263,4.12635,4.44781e-15,-6.36111e-15,38.1802,-43.5511,-16.4092,83.6465,10.161,-35.944,-2.71532,7.12502,-9.05577,-32.5009,4.44781e-15,-6.36111e-15,35.6585,44.4295,13.7649,84.5475,-2.91172,-24.4257,27.1185,7.12502,2.06621,57.0883,-5.84485,7.06955,3.16839,36.5704,-3.32401,-3.75342,-13.9609,-4.23276,-11.7011,-2.23491,33.4277,5.11208,-13.7367,-36.6795
-1.91458,17.5582,-0.0942139,-3.65091,4.29833,0.380774,8.46083,-1.073,-2.68185,0.551736,-1.59524,2.02554,-4.0414,-0.726621,3.80528,-22.5708,-2.31503,-11.5367,25.8398,-0.857415,6.06878,12.4021,-0.713225,4.12319,-2.73329e-14,3.26007e-14,39.9185,-43.0981,-16.8982,85.0735,11.2503,-37.6958,-1.17621,7.12502,-10.7458,-30.8814,-2.73329e-14,3.26007e-14,36.9696,44.455,14.1084,86.2301,-3.99124,-24.8005,26.5226,7.12502,1.70429,56.4955,-6.12761,6.94376,3.03282,38.263,-6.5791,-2.00211,-14.0596,-4.19142,-12.0759,-1.96419,34.7935,0.639061,-13.8365,-39.5903
-1.90868,17.3393,-0.108904,-3.76476,4.13295,0.45273,8.60325,-1.03787,-2.70713,0.512507,-1.55392,2.01961,-4.16507,-0.702441,3.81396,-22.4892,-2.25537,-11.4575,25.7529,-0.761756,5.90658,12.3408,-0.682816,4.05846,6.83322e-15,7.95139e-16,41.4536,-42.6998,-17.1832,86.5063,12.3104,-38.5788,0.908396,7.12502,-11.5975,-28.7507,6.83322e-15,7.95139e-16,38.2323,44.3699,14.4984,87.8699,-4.95901,-26.3854,25.7448,7.12502,0.17347,55.7244,-6.48472,6.87073,2.79444,39.8715,-9.80989,-0.407182,-15.8087,-4.14676,-12.0608,-1.85066,36.2742,-3.83049,-13.7993,-39.369
-1.90257,17.1316,-0.118602,-4.01201,4.0059,0.54126,8.96326,-0.98817,-2.75785,0.467506,-1.49967,2.02356,-4.41702,-0.668265,3.85251,-22.3879,-2.24481,-11.5173,25.7152,-0.717885,5.84293,12.3021,-0.677632,4.04861,1.8313e-14,-1.07344e-14,42.6824,-42.2721,-17.1042,87.8175,13.661,-40.0455,2.85786,7.12502,-13.0116,-26.7164,1.8313e-14,-1.07344e-14,39.3407,44.1539,14.7455,89.4551,-5.72317,-27.9982,24.5741,7.12502,-1.38418,54.5494,-6.78332,6.73173,2.57879,41.3879,-12.6831,0.95264,-17.6368,-4.13764,-11.7013,-1.79528,37.7546,-7.80843,-13.3899,-39.3882
-1.89664,16.9307,-0.129242,-4.30733,3.9155,0.611847,9.40515,-0.942986,-2.75562,0.456904,-1.4499,1.98575,-4.6811,-0.637885,3.81902,-22.2993,-2.25288,-11.5586,25.684,-0.730337,5.85887,12.2739,-0.684975,4.05777,8.94531e-15,-1.43125e-14,43.8131,-41.9583,-16.9955,88.9708,15.1364,-42.04,5.2924,7.12502,-14.9337,-24.1492,8.94531e-15,-1.43125e-14,40.4254,44.0308,14.8326,90.9616,-6.72114,-29.4915,22.9119,7.12502,-2.82643,52.8729,-7.0782,6.45798,2.40247,42.8945,-15.3434,1.88211,-19.2072,-4.17901,-11.2235,-1.77173,39.1787,-11.1739,-13.0002,-39.0367
-1.89197,16.7385,-0.145496,-4.67962,3.79611,0.573055,9.99966,-0.911006,-2.6656,0.444935,-1.40981,1.96996,-5.0329,-0.612113,3.76425,-22.0716,-2.18373,-11.4499,25.5103,-0.674427,5.77525,12.1533,-0.657072,4.00811,2.79044e-14,-2.5842e-14,44.8772,-41.6841,-16.9551,90.0708,16.5136,-44.1648,8.49557,7.12502,-16.9798,-20.7823,2.79044e-14,-2.5842e-14,41.3334,43.9773,14.8161,92.3788,-7.78843,-31.0156,20.6641,7.12502,-4.29824,50.6005,-7.37938,6.12468,2.38554,44.4838,-17.8779,2.20564,-19.7174,-4.11843,-10.6585,-1.6601,40.4917,-14.0688,-12.7041,-38.0659
-1.89067,16.557,-0.165812,-5.05328,3.57876,0.525818,10.6649,-0.840705,-2.60257,0.419072,-1.32141,1.96773,-5.44208,-0.560515,3.73388,-21.8837,-2.11621,-11.334,25.3872,-0.603082,5.6404,12.0598,-0.629592,3.94219,2.6339e-15,-1.59028e-15,45.7074,-41.4105,-16.8053,91.1188,17.9015,-46.6762,11.5364,7.12502,-19.396,-17.5162,2.6339e-15,-1.59028e-15,42.0863,43.8715,14.6898,93.6355,-8.50686,-32.4198,18.2452,7.12502,-5.6541,48.1498,-7.82459,5.85065,2.39711,46.1876,-20.064,2.09315,-18.5635,-3.98414,-9.89431,-1.52913,41.7147,-16.9998,-11.767,-38.4106
-1.88905,16.3878,-0.186628,-5.44639,3.27507,0.700998,11.3826,-0.725267,-2.7678,0.40788,-1.20559,1.91898,-5.86399,-0.490016,3.77935,-21.8106,-2.08962,-11.4037,25.3597,-0.564874,5.69307,12.031,-0.612104,3.97882,2.82336e-15,-1.66979e-14,46.517,-41.129,-16.7825,92.0473,19.4886,-49.0491,13.7614,7.12502,-21.6762,-15.0452,2.82336e-15,-1.66979e-14,42.5387,43.6926,14.3911,94.7527,-8.90471,-33.6099,15.9597,7.12502,-6.80298,45.8304,-8.35684,5.63799,2.14647,47.9301,-21.9772,2.18342,-18.4279,-3.72251,-9.10038,-1.68728,42.8756,-19.6601,-10.2519,-38.4035
-1.88468,16.2338,-0.208018,-5.87796,2.95199,0.910348,12.1097,-0.619613,-2.96741,0.451731,-1.11035,1.87904,-6.23088,-0.4301,3.85414,-21.904,-2.07709,-11.5051,25.3924,-0.524529,5.78048,12.0584,-0.592686,4.03816,1.98163e-15,-1.90833e-14,47.3624,-40.8626,-16.9029,92.8212,20.9492,-50.9541,15.1816,7.12502,-23.5046,-13.4024,1.98163e-15,-1.90833e-14,42.5982,43.5466,13.8602,95.6673,-9.22164,-34.7885,14.2766,7.12502,-7.94069,44.1074,-8.90122,5.39417,1.85291,49.6273,-23.7234,2.4522,-20.2248,-3.43165,-8.3666,-1.90346,43.9524,-21.7958,-8.88937,-37.9649
-1.87865,16.0988,-0.228864,-6.32726,2.61995,0.909853,12.7507,-0.55491,-2.94255,0.559664,-1.03356,1.90593,-6.48231,-0.388304,3.87038,-21.9372,-2.03192,-11.5256,25.2694,-0.429164,5.7198,12.0074,-0.556166,4.02968,-2.08972e-14,7.95139e-16,48.0803,-40.639,-16.9685,93.3529,21.9804,-52.5976,16.0924,7.12502,-25.0803,-12.2806,-2.08972e-14,7.95139e-16,42.1663,43.4264,13.0898,96.421,-9.54647,-36.0733,13.7445,7.12502,-9.1805,43.5247,-9.40305,5.09083,1.8016,51.2012,-25.0817,2.39836,-21.3013,-3.14657,-7.64604,-1.8654,44.8848,-23.6877,-7.87133,-38.4537
-1.86936,15.988,-0.248471,-6.68875,2.36744,0.943042,13.3097,-0.547769,-2.8949,0.652739,-1.02899,1.91246,-6.69731,-0.383594,3.8625,-22.0317,-1.98428,-11.4813,25.1732,-0.317362,5.5617,11.9776,-0.519326,3.97697,3.27995e-15,7.95139e-16,48.6145,-40.3672,-17.0549,93.6948,22.335,-53.8689,16.3874,7.12502,-26.2978,-11.8098,3.27995e-15,7.95139e-16,41.3304,43.2717,12.1774,97.0141,-9.83692,-36.987,13.6053,7.12502,-10.0621,43.3448,-9.88017,4.80478,1.65654,52.6176,-26.0247,2.27702,-21.5031,-2.93327,-7.09999,-1.87119,45.6713,-25.3048,-7.19075,-38.6355
-1.85762,15.9056,-0.266363,-6.85204,2.21285,1.09045,13.6789,-0.542025,-2.92197,0.698237,-1.03557,1.88661,-6.8548,-0.38322,3.86061,-22.1056,-1.94895,-11.4567,25.0029,-0.21344,5.38676,11.9164,-0.487923,3.91733,-2.11333e-14,-2.38542e-15,48.8408,-40.1144,-17.012,93.7645,21.984,-54.6052,16.5775,7.12502,-27.0024,-11.5125,-2.11333e-14,-2.38542e-15,40.2986,43.0837,11.3735,97.4032,-10.0253,-37.5428,13.4182,7.12502,-10.5983,43.1309,-10.4606,4.63594,1.32573,53.8674,-26.72,2.30549,-22.9899,-2.93567,-6.85833,-2.03335,46.3186,-26.571,-6.60307,-38.3033
-1.84638,15.841,-0.283584,-6.89086,1.99994,1.18099,13.8377,-0.490504,-2.88293,0.768173,-0.966114,1.86436,-6.87589,-0.351402,3.80409,-22.1775,-1.93189,-11.5864,24.746,-0.144907,5.43454,11.8243,-0.454585,3.96068,-2.03009e-14,7.15625e-15,48.6257,-40.03,-16.7413,93.6613,20.8414,-54.6765,16.5363,7.12502,-27.0707,-11.5431,-2.03009e-14,7.15625e-15,39.2729,42.9115,10.719,97.4379,-9.9101,-37.8141,13.5528,7.12502,-10.86,43.252,-11.1067,4.66773,1.05376,54.8979,-27.1462,2.60103,-23.7117,-3.07723,-6.68652,-2.11363,46.8331,-27.5014,-5.96229,-38.7388
-1.83698,15.7876,-0.295899,-6.90244,1.78588,1.20843,13.8597,-0.427402,-2.83081,0.874779,-0.873867,1.87318,-6.78265,-0.311567,3.76454,-22.3527,-1.91643,-11.6777,24.6256,-0.0851188,5.50226,11.8056,-0.422294,4.00936,-1.62382e-14,-7.95139e-16,48.1998,-40.0339,-16.5526,93.4237,19.4004,-54.1307,16.3302,7.12502,-26.5484,-11.8293,-1.62382e-14,-7.95139e-16,38.2028,42.7194,10.1403,97.0195,-9.35322,-37.4714,13.4875,7.12502,-10.5294,43.2038,-11.606,4.80835,0.857161,55.6529,-27.3334,3.09048,-22.8467,-3.1591,-6.57788,-2.09792,47.1984,-28.2459,-5.52659,-39.7951
-1.83029,15.7523,-0.30314,-6.95243,1.67469,1.03597,13.8695,-0.421733,-2.60174,0.955722,-0.826537,1.93206,-6.70794,-0.297264,3.68651,-22.4059,-1.88671,-11.5389,24.533,-0.0189247,5.27255,11.7746,-0.406507,3.90634,-2.46493e-14,1.03368e-14,47.5986,-39.9259,-16.4759,92.927,18.0043,-53.2933,16.1495,7.12502,-25.7467,-12.1287,-2.46493e-14,1.03368e-14,36.9341,42.4093,9.59694,96.3319,-8.65333,-36.7832,13.2963,7.12502,-9.86551,43.0452,-11.8357,4.98695,0.944517,56.0778,-27.3961,3.40303,-22.7687,-3.18245,-6.61555,-1.83613,47.4179,-28.7801,-5.66058,-40.0032
-1.82281,15.7438,-0.306766,-7.11832,1.7127,0.9302,13.9652,-0.491906,-2.43381,1.04935,-0.891008,1.99089,-6.65754,-0.335173,3.66655,-22.3406,-1.82685,-11.4929,24.431,0.105612,5.04974,11.7122,-0.372886,3.82949,1.70209e-15,-3.18055e-15,46.7871,-39.7251,-16.3537,92.249,16.6357,-52.296,15.5769,7.12502,-24.7913,-12.8362,1.70209e-15,-3.18055e-15,35.2864,42.0061,9.02641,95.491,-7.84547,-36.0265,13.4706,7.12502,-9.13534,43.2528,-11.6929,5.10135,0.989865,56.1542,-27.337,3.73222,-23.3967,-3.07514,-6.87089,-1.7333,47.4499,-28.9463,-5.90195,-39.5359
-1.81283,15.7579,-0.30681,-7.25646,1.88881,1.07702,13.9561,-0.575794,-2.50465,1.15325,-1.01342,1.98917,-6.53043,-0.397137,3.72613,-22.2961,-1.75356,-11.5055,24.4458,0.253956,4.89216,11.6966,-0.329048,3.79506,-6.8208e-15,7.95139e-16,45.7292,-39.5358,-16.241,91.5142,15.5863,-51.1603,14.5672,7.12502,-23.7024,-13.9914,-6.8208e-15,7.95139e-16,33.5604,41.5354,8.70409,94.4494,-7.00578,-34.9015,13.7269,7.12502,-8.0497,43.5536,-11.3398,5.0309,0.738213,55.9051,-27.024,4.06854,-23.4068,-2.9259,-7.22278,-1.99647,47.2904,-28.8202,-5.92317,-39.7873
-1.80319,15.7941,-0.301916,-7.33735,1.97218,1.12371,13.813,-0.614651,-2.54335,1.20576,-1.06348,2.06311,-6.38859,-0.423446,3.83153,-22.1433,-1.70989,-11.5311,24.549,0.355552,4.71714,11.6994,-0.313394,3.75025,-4.74598e-15,1.27222e-14,44.4747,-39.2084,-16.1418,90.6077,14.8784,-50.3605,13.4481,7.12502,-22.9351,-15.2077,-4.74598e-15,1.27222e-14,31.7124,40.9242,8.66357,93.351,-6.01753,-33.6018,14.0184,7.12502,-6.79517,43.8893,-10.9331,5.04774,0.670672,55.3428,-26.5622,4.12356,-23.1866,-2.73374,-7.46859,-2.15253,46.9435,-28.3395,-6.17298,-40.0721
-1.79656,15.8572,-0.291734,-7.25956,1.92541,0.942279,13.4893,-0.631107,-2.40288,1.13038,-1.04871,2.211,-6.28974,-0.419288,3.89904,-21.7507,-1.63818,-11.6026,24.7501,0.462306,4.60733,11.6924,-0.295611,3.73913,2.72087e-15,5.56597e-15,42.9835,-38.7297,-16.0381,89.548,14.2325,-49.6467,12.5302,7.12502,-22.2499,-16.209,2.72087e-15,5.56597e-15,29.7294,40.0991,8.72409,92.1422,-4.88518,-32.5373,14.4129,7.12502,-5.76746,44.3144,-10.6195,5.20751,0.945352,54.501,-25.9631,3.96352,-22.7995,-2.61361,-7.5473,-2.02661,46.4093,-27.4887,-6.78571,-39.3457
-1.79135,15.9443,-0.280958,-7.14227,1.96394,0.706894,13.1058,-0.649539,-2.22304,1.0715,-1.03112,2.36275,-6.14064,-0.415975,3.94557,-21.3519,-1.58062,-11.6063,24.9413,0.5281,4.4832,11.6841,-0.291201,3.7044,-1.23122e-14,-1.59028e-15,41.2239,-38.3998,-15.8677,88.3743,13.764,-48.6678,11.7987,7.12502,-21.31,-17.0497,-1.23122e-14,-1.59028e-15,27.7545,39.2203,9.00644,90.8114,-3.77902,-31.7653,14.9709,7.12502,-5.02215,44.8914,-10.1869,5.35332,1.33465,53.4196,-25.1074,3.81579,-22.0431,-2.46088,-7.63166,-1.87091,45.6951,-26.4374,-7.09152,-39.0754
-1.78705,16.0558,-0.266176,-7.02211,2.14189,0.714878,12.6707,-0.668335,-2.28062,1.0539,-1.05504,2.42591,-5.91261,-0.430145,4.03785,-21.1036,-1.57283,-11.5519,25.1791,0.517338,4.3816,11.7298,-0.313666,3.6596,8.44835e-15,1.82882e-14,39.1563,-38.1034,-15.6564,87.211,13.4538,-47.6471,10.8345,7.12502,-20.3293,-18.1215,8.44835e-15,1.82882e-14,25.9037,38.4487,9.59499,89.3838,-2.90674,-30.5482,15.7394,7.12502,-3.84681,45.6844,-9.59718,5.37133,1.44374,52.1617,-23.9944,3.57873,-21.3377,-2.22922,-7.92399,-2.0927,44.7998,-25.0768,-7.18584,-39.1862
-1.7832,16.1832,-0.252789,-6.91408,2.33079,0.642858,12.2875,-0.701155,-2.23548,0.975962,-1.08273,2.50085,-5.77849,-0.445838,4.08722,-20.7709,-1.56714,-11.4378,25.4943,0.50488,4.16982,11.7905,-0.348681,3.56402,-4.4975e-15,1.27222e-14,36.8432,-37.5816,-15.3516,86.032,12.9954,-46.5861,9.72447,7.12502,-19.3094,-19.3369,-4.4975e-15,1.27222e-14,24.0107,37.6895,10.4029,87.8713,-2.33399,-29.0553,16.5135,7.12502,-2.40511,46.4797,-8.94295,5.40846,1.66094,50.7915,-22.6668,3.13831,-20.2834,-1.98325,-8.34395,-2.25369,43.7519,-23.3115,-7.40159,-39.1038
-1.77957,16.3275,-0.241709,-6.72655,2.49074,0.472895,11.9436,-0.730021,-2.11921,0.839755,-1.09264,2.63328,-5.72941,-0.451228,4.15639,-20.4418,-1.55465,-11.4115,25.7948,0.51892,4.00982,11.8437,-0.372832,3.50633,-8.06942e-15,7.15625e-15,34.3159,-36.9976,-14.9677,84.8713,12.359,-45.3983,8.74403,7.12502,-18.1669,-20.4276,-8.06942e-15,7.15625e-15,21.9802,36.8849,11.3235,86.2929,-1.59629,-27.7118,17.3303,7.12502,-1.10753,47.3072,-8.38732,5.50089,2.00442,49.3514,-21.0762,2.59951,-18.8206,-1.8041,-8.78691,-2.2969,42.5725,-21.2197,-7.70102,-38.8205
-1.77741,16.4883,-0.229625,-6.44565,2.61477,0.453499,11.5239,-0.742126,-2.17116,0.68259,-1.10569,2.7119,-5.65726,-0.454805,4.26283,-20.0675,-1.50621,-11.4361,26.0464,0.538194,4.04279,11.8652,-0.372328,3.52964,1.96843e-14,-1.11319e-14,31.7689,-36.4566,-14.8007,83.6246,11.7655,-43.9523,7.71346,7.12502,-16.7753,-21.5818,1.96843e-14,-1.11319e-14,19.7989,36.022,12.1521,84.6571,-0.587077,-26.8839,18.3989,7.12502,-0.307997,48.3784,-8.01594,5.65034,2.17293,47.8849,-19.3053,2.03943,-18.3228,-1.66803,-9.10393,-2.47152,41.3032,-18.9298,-8.12306,-38.3465
-1.77694,16.6593,-0.215328,-6.24337,2.71941,0.471119,11.0972,-0.770137,-2.22573,0.586633,-1.14393,2.73224,-5.51482,-0.473862,4.31096,-19.7518,-1.45594,-11.4862,26.3085,0.541052,4.1943,11.902,-0.366374,3.60083,-5.99965e-15,-1.66979e-14,29.2868,-35.9404,-14.9473,82.2736,11.3007,-42.6475,6.95416,7.12502,-15.5189,-22.4431,-5.99965e-15,-1.66979e-14,17.4755,35.2276,12.9315,83.1151,0.582793,-25.9842,19.8708,7.12502,0.561033,49.8498,-7.55591,5.97027,2.30301,46.3925,-17.4768,1.59769,-18.0096,-1.41348,-9.39489,-2.69757,39.9834,-16.4458,-8.3356,-39.0529
-1.77548,16.8384,-0.203187,-6.01101,2.80226,0.566446,10.6547,-0.801186,-2.2992,0.508669,-1.1914,2.69386,-5.34403,-0.498675,4.3077,-19.6357,-1.41958,-11.4556,26.6636,0.534962,4.3097,12.0161,-0.36391,3.64855,1.71359e-14,-1.59028e-14,26.7031,-35.4135,-15.2182,80.9412,10.8555,-41.6768,6.39698,7.12502,-14.5838,-23.0703,1.71359e-14,-1.59028e-14,15.1577,34.5167,13.7631,81.5656,1.78245,-25.0033,21.6722,7.12502,1.50839,51.6466,-7.10609,6.33723,2.33632,44.8794,-15.3889,0.903211,-17.1311,-1.16792,-9.80775,-3.06613,38.6225,-13.6315,-8.3601,-40.4095
-1.77306,17.0276,-0.192546,-5.65695,2.83923,0.703583,10.1324,-0.832105,-2.39638,0.407202,-1.23986,2.64902,-5.15239,-0.5237,4.30902,-19.6237,-1.39131,-11.3944,27.0223,0.532015,4.38693,12.1536,-0.361682,3.67862,-1.10574e-14,-1.90833e-14,24.1147,-34.8976,-15.6024,79.6159,10.071,-40.7337,5.94999,7.12502,-13.675,-23.5807,-1.10574e-14,-1.90833e-14,12.7692,33.8964,14.6906,80.0283,3.03942,-23.9632,23.4297,7.12502,2.51295,53.3947,-6.83041,6.67089,2.31565,43.3435,-12.9424,-0.0706708,-15.0109,-1.08265,-10.2516,-3.49687,37.2459,-10.5961,-8.38717,-39.991
-1.77143,17.2266,-0.180489,-5.31488,2.78344,0.560842,9.6236,-0.834605,-2.24997,0.351488,-1.21789,2.69917,-4.92934,-0.519887,4.26163,-19.702,-1.39191,-11.3537,27.2795,0.503328,4.47188,12.2725,-0.367858,3.70925,2.54693e-16,-1.19271e-14,21.5356,-34.4911,-16.0981,78.2723,9.09951,-39.7548,4.97061,7.12502,-12.7314,-24.6213,2.54693e-16,-1.19271e-14,10.5618,33.5388,15.8946,78.4346,3.99599,-22.5598,24.8158,7.12502,3.86819,54.7604,-6.66061,7.15212,2.65201,41.7974,-10.5192,-1.47285,-12.4622,-1.00778,-10.6115,-3.58628,35.8542,-7.46585,-8.42711,-38.199
-1.7722,17.4258,-0.169248,-4.98236,2.7609,0.446277,9.19824,-0.846047,-2.17062,0.260331,-1.21772,2.73747,-4.78693,-0.523004,4.24634,-19.6404,-1.3859,-11.2941,27.4229,0.46082,4.54637,12.3195,-0.375901,3.72541,9.79946e-15,-7.95139e-16,18.87,-34.0406,-16.553,76.911,7.94403,-38.6933,4.04425,7.12502,-11.7079,-25.6086,9.79946e-15,-7.95139e-16,8.21988,33.2309,16.9396,76.842,4.84304,-21.2291,25.8986,7.12502,5.15316,55.816,-6.54733,7.68396,2.98575,40.2692,-8.24081,-3.32443,-10.9348,-0.930049,-10.9663,-3.70652,34.4297,-4.29167,-8.26485,-37.1176
-1.77431,17.6233,-0.157077,-4.54607,2.84216,0.566095,8.72195,-0.901826,-2.34638,0.105225,-1.3053,2.71323,-4.67071,-0.563054,4.321,-19.4974,-1.36095,-11.2316,27.525,0.447909,4.57327,12.3314,-0.375681,3.72497,1.06536e-14,7.15625e-15,16.2347,-33.5982,-17.0637,75.4746,6.82693,-37.3521,3.43299,7.12502,-10.4143,-26.2891,1.06536e-14,7.15625e-15,5.59396,32.8912,17.7003,75.3467,5.76897,-20.097,26.7007,7.12502,6.24616,56.5886,-6.51964,8.08784,3.05308,38.7779,-6.0639,-5.45039,-9.53589,-0.973342,-11.3183,-4.0989,32.9786,-1.20527,-7.90602,-37.4032
-1.7769,17.8129,-0.14337,-4.10578,2.97456,0.856827,8.20413,-0.965066,-2.69599,0.0251528,-1.41951,2.6511,-4.44623,-0.616593,4.45374,-19.6093,-1.36982,-11.1937,27.696,0.429916,4.59702,12.4238,-0.382261,3.7319,-1.83161e-14,6.36111e-15,13.7156,-33.3379,-17.6453,73.8419,6.04797,-36.229,2.65667,7.12502,-9.33072,-27.1168,-1.83161e-14,6.36111e-15,3.0445,32.7813,18.5949,73.8812,6.35105,-19.1724,27.52,7.12502,7.13876,57.3796,-6.47143,8.39755,2.92627,37.3523,-4.28954,-7.79878,-5.82806,-1.05791,-11.6993,-4.71214,31.5256,2.11409,-7.36765,-37.3148
-1.78076,17.9964,-0.131337,-3.69058,3.11172,1.05588,7.69688,-1.02422,-2.8984,0.00680247,-1.51204,2.57017,-4.16834,-0.665492,4.47824,-19.7871,-1.3904,-11.2067,27.7477,0.367157,4.79239,12.4839,-0.386364,3.80413,9.18913e-15,-1.82882e-14,11.2249,-33.2883,-18.2996,72.0791,5.48603,-35.4802,1.43736,7.12502,-8.60817,-28.3671,9.18913e-15,-1.82882e-14,0.668678,32.8749,19.6018,72.3753,6.74618,-18.6782,28.2541,7.12502,7.61572,58.097,-6.43464,8.68876,2.94589,36.0012,-3.11263,-10.4858,-0.572484,-1.19601,-12.0287,-5.21898,30.1116,5.57242,-6.69211,-36.1978
-1.78751,18.1761,-0.122253,-3.24852,3.24562,1.02988,7.26758,-1.10506,-2.90605,-0.055789,-1.61404,2.52817,-3.98317,-0.719943,4.43655,-19.9942,-1.37088,-11.0097,27.7514,0.33639,4.84714,12.5283,-0.370873,3.78994,1.25677e-14,-1.59028e-15,8.75538,-33.2662,-19.0137,70.2158,4.73259,-34.6278,0.566805,7.12502,-7.78554,-29.2699,1.25677e-14,-1.59028e-15,-1.69927,33.0502,20.5407,70.8322,7.1118,-18.2731,28.9756,7.12502,8.0068,58.8039,-6.51157,8.96666,3.2754,34.7662,-2.31648,-13.34,3.83976,-1.45325,-12.2739,-5.45631,28.7885,8.80133,-6.03157,-34.8516
-1.79483,18.3445,-0.113601,-2.79182,3.38031,0.94174,6.8761,-1.18399,-2.90499,-0.145814,-1.71183,2.52167,-3.84744,-0.77053,4.42772,-20.2669,-1.37386,-10.8564,27.8271,0.28079,4.94913,12.6174,-0.366689,3.80095,7.11276e-15,-1.51076e-14,6.29123,-33.1702,-19.6492,68.2035,3.69003,-33.7897,0.10782,7.12502,-6.97653,-29.7572,7.11276e-15,-1.51076e-14,-4.01763,33.2131,21.4781,69.2685,7.5705,-18.871,29.8586,7.12502,7.42963,59.7081,-6.68653,9.11675,3.70113,33.7078,-1.55726,-15.7848,5.424,-1.80388,-12.3773,-5.62229,27.637,11.5286,-5.44397,-33.0557
-1.80137,18.4938,-0.104366,-2.35266,3.48895,1.00385,6.46045,-1.1985,-2.99763,-0.191273,-1.73382,2.42644,-3.65901,-0.784396,4.36959,-20.6046,-1.45789,-10.7577,27.8846,0.101415,5.15546,12.7244,-0.407654,3.84241,-9.33667e-15,-1.03368e-14,3.72898,-33.1439,-20.1387,65.9761,2.45913,-33.2517,-0.167696,7.12502,-6.45721,-30.0493,-9.33667e-15,-1.03368e-14,-6.15203,33.3066,22.4402,67.7204,8.78883,-20.5524,30.8191,7.12502,5.80651,60.7196,-6.91665,9.08159,3.97218,32.9108,-1.13365,-17.5255,5.66517,-2.13174,-12.3892,-5.98897,26.6953,13.0116,-4.44229,-32.0453
-1.80577,18.6265,-0.0994608,-1.90937,3.62527,1.11455,6.12295,-1.20183,-3.0853,-0.257642,-1.74329,2.26765,-3.53947,-0.790662,4.24431,-20.9089,-1.55511,-10.4814,27.8318,-0.127833,5.23973,12.7852,-0.464454,3.79298,9.03228e-15,1.27222e-14,1.23439,-33.1988,-20.6038,63.5958,0.94487,-32.3817,-0.162619,7.12502,-5.6173,-30.0682,9.03228e-15,1.27222e-14,-8.2893,33.1102,23.2281,66.2601,10.7958,-20.8973,31.7407,7.12502,5.47352,61.65,-7.20737,8.82117,4.18184,32.4207,-1.29973,-18.1212,5.83641,-2.5135,-12.1998,-6.42433,26.0049,12.9826,-3.06764,-33.2649
-1.81064,18.7441,-0.0999384,-1.45621,3.74506,1.24256,5.87927,-1.19378,-3.20295,-0.381039,-1.74176,2.08927,-3.53264,-0.787425,4.1193,-21.0292,-1.62455,-10.1034,27.6511,-0.356461,5.26011,12.7551,-0.516104,3.69418,-1.71017e-14,1.51076e-14,-1.17221,-33.2751,-21.1212,61.174,-0.784729,-31.2305,-0.638077,7.12502,-4.50568,-30.5702,-1.71017e-14,1.51076e-14,-10.3474,32.671,23.9778,64.7234,12.7066,-20.0855,32.2728,7.12502,6.25723,62.1604,-7.59523,8.51278,4.41413,32.2236,-1.91753,-17.3232,6.67214,-2.99352,-11.6847,-6.88909,25.61,11.7431,-1.71062,-34.5134
-1.81682,18.8465,-0.102333,-1.03915,3.82038,1.3206,5.69862,-1.20029,-3.33911,-0.52208,-1.75922,1.99192,-3.57482,-0.791086,4.09348,-21.0564,-1.66161,-9.95795,27.4598,-0.510231,5.42526,12.6952,-0.540607,3.70279,-2.97556e-15,1.51076e-14,-3.31993,-33.1863,-21.6633,58.6622,-2.64385,-30.4224,-1.48959,7.12502,-3.72535,-31.4368,-2.97556e-15,1.51076e-14,-12.4335,32.1977,24.7791,63.0651,14.6305,-20.147,32.7677,7.12502,6.19788,62.657,-8.06015,8.13481,4.74726,32.2408,-2.53996,-15.6793,7.81613,-3.57797,-10.9188,-7.34165,25.5558,9.79724,-0.837767,-33.1545
-1.82232,18.9386,-0.105432,-0.647461,3.93471,1.34227,5.6045,-1.21628,-3.39121,-0.683267,-1.78442,1.93264,-3.68716,-0.797746,4.06368,-21.1056,-1.71213,-9.97065,27.3069,-0.642172,5.65095,12.655,-0.565222,3.7671,-3.83282e-15,-1.59028e-15,-5.33457,-33.0694,-22.1614,56.0748,-4.42445,-29.7443,-2.44138,7.12502,-3.07048,-32.399,-3.83282e-15,-1.59028e-15,-14.4358,31.6611,25.6323,61.4202,16.9054,-20.6039,33.4415,7.12502,5.75675,63.3433,-8.55499,7.58375,5.15988,32.4269,-3.0146,-13.7341,8.24603,-4.30694,-10.0167,-7.76614,25.7632,7.75831,-0.621872,-28.2385
-1.82684,19.0196,-0.111326,-0.341899,4.07514,1.4155,5.62708,-1.22765,-3.46612,-0.759514,-1.80946,1.83652,-3.77759,-0.806091,4.01026,-21.3653,-1.77698,-9.91737,27.1724,-0.783449,5.84046,12.6662,-0.590758,3.80713,-2.01829e-14,1.15295e-14,-7.25473,-33.0282,-22.7033,53.5552,-6.26326,-29.1891,-3.54089,7.12502,-2.53435,-33.5056,-2.01829e-14,1.15295e-14,-16.1353,31.2489,26.617,59.7987,19.2081,-20.8832,34.2084,7.12502,5.48714,64.1174,-8.99916,6.92658,5.5376,32.7303,-3.61436,-11.8531,7.86006,-5.01165,-8.94784,-8.28718,26.1406,5.89182,-0.973999,-22.9329
-1.83107,19.0898,-0.12071,-0.0834957,4.23109,1.58521,5.70861,-1.24279,-3.60202,-0.739545,-1.84649,1.7072,-3.79944,-0.822692,3.95747,-21.8388,-1.89776,-9.90872,26.9941,-0.960064,6.01583,12.7079,-0.635578,3.84373,-4.93234e-15,1.39149e-14,-9.10605,-32.8568,-23.2802,51.2656,-8.39056,-28.845,-4.8557,7.12502,-2.20198,-34.8241,-4.93234e-15,1.39149e-14,-17.632,30.8797,27.7036,58.2278,21.5218,-21.2166,35.1588,7.12502,5.16524,65.0759,-9.40135,6.20273,5.83215,33.1126,-4.13997,-10.1744,5.12767,-5.6792,-7.83635,-8.95941,26.6121,4.51277,-1.36573,-22.1223
-1.83531,19.1485,-0.13262,0.0720906,4.26497,1.63316,5.90509,-1.24268,-3.62656,-0.685579,-1.85668,1.63649,-3.85469,-0.827412,3.90377,-22.3023,-2.00736,-9.97481,26.8072,-1.08723,6.17211,12.7401,-0.668635,3.89313,-4.91992e-15,-1.98785e-15,-10.7775,-32.5881,-24.0142,49.1501,-10.178,-28.5048,-6.4039,7.12502,-1.87349,-36.3754,-4.91992e-15,-1.98785e-15,-19.2107,30.4009,28.7703,56.791,23.8616,-21.0996,35.8107,7.12502,5.27814,65.725,-9.7609,5.62446,6.30635,33.5908,-4.47625,-8.67952,1.73997,-6.22931,-6.73644,-9.54124,27.0896,3.6003,-1.3659,-24.985
-1.83969,19.196,-0.144463,0.176257,4.26866,1.60331,6.16672,-1.23977,-3.59427,-0.683884,-1.86007,1.606,-4.00211,-0.826362,3.86272,-22.5875,-2.04997,-9.99019,26.6574,-1.12174,6.21673,12.7411,-0.673114,3.90497,7.24322e-15,-1.07344e-14,-12.2788,-32.391,-24.8745,46.9896,-11.2246,-28.2298,-7.65923,7.12502,-1.60789,-37.6329,7.24322e-15,-1.07344e-14,-20.801,29.8174,29.9285,55.4254,26.1954,-20.7848,36.2097,7.12502,5.5821,66.1161,-10.1185,5.08435,6.89524,34.167,-4.6211,-7.3647,2.14383,-6.71851,-5.67441,-10.059,27.5481,3.00178,-1.38266,-27.3223
-1.84481,19.2258,-0.158285,0.333139,4.363,1.65474,6.40553,-1.27154,-3.63895,-0.697412,-1.91635,1.54517,-4.14639,-0.850031,3.838,-22.968,-2.06103,-9.90246,26.5828,-1.12291,6.20299,12.787,-0.660905,3.88557,1.50331e-14,-1.31198e-14,-13.7848,-32.0087,-25.8372,45.0991,-12.1563,-28.303,-8.79234,7.12502,-1.67859,-38.7655,1.50331e-14,-1.31198e-14,-22.2011,29.4307,31.2121,54.0482,28.2418,-20.7487,36.9406,7.12502,5.61695,66.8461,-10.5541,4.42274,7.39387,34.7943,-4.28903,-6.20246,2.85004,-7.32995,-4.65023,-10.6651,28.0444,2.93182,-1.76218,-28.6367
-1.84877,19.237,-0.174187,0.453038,4.41928,1.62856,6.65807,-1.28601,-3.58735,-0.66126,-1.94138,1.49955,-4.25202,-0.861988,3.77148,-23.3144,-2.06605,-9.84527,26.3216,-1.12999,6.27284,12.7511,-0.638999,3.89646,1.78782e-14,-7.95139e-16,-15.3485,-31.5344,-26.8804,43.5983,-13.124,-28.419,-9.78828,7.12502,-1.7906,-39.7605,1.78782e-14,-7.95139e-16,-23.4014,29.1539,32.647,52.7164,30.1682,-20.8907,37.6708,7.12502,5.47989,67.58,-10.9922,3.85514,7.98676,35.4626,-3.70639,-5.44986,1.93067,-7.94172,-3.67396,-11.1987,28.5962,3.22165,-2.21169,-30.1378
-1.85417,19.2404,-0.190806,0.563126,4.46575,1.47185,6.88167,-1.29812,-3.43776,-0.582495,-1.95134,1.50363,-4.29964,-0.870347,3.6982,-23.6221,-2.08539,-9.76181,25.9401,-1.14218,6.25511,12.6593,-0.626633,3.86283,-2.30839e-14,1.07344e-14,-16.8315,-31.3432,-28.063,42.2555,-13.4567,-28.129,-10.5827,7.12502,-1.51046,-40.5571,-2.30839e-14,1.07344e-14,-24.4952,28.8592,34.2059,51.5042,32.1857,-21.0221,38.1961,7.12502,5.35297,68.1085,-11.4293,3.34882,8.75556,36.1769,-3.19819,-5.16981,0.60128,-8.52269,-2.76145,-11.581,29.2062,3.48825,-2.86663,-31.5589
-1.85948,19.234,-0.205468,0.745308,4.52237,1.44226,7.01988,-1.30368,-3.43819,-0.504898,-1.96197,1.51137,-4.29542,-0.876776,3.71061,-24.0598,-2.13822,-9.65829,25.6837,-1.15382,6.08956,12.6435,-0.634143,3.77349,2.48232e-14,3.97569e-16,-18.316,-31.2652,-29.2701,41.0946,-13.1025,-27.9854,-10.9901,7.12502,-1.37181,-40.9655,2.48232e-14,3.97569e-16,-25.4916,28.6426,35.9076,50.2508,33.6964,-20.5942,38.2261,7.12502,5.76616,68.1277,-11.89,2.69006,9.37415,36.9265,-2.7416,-4.79632,-1.28799,-9.17094,-1.92357,-12.118,29.8956,3.70794,-3.97944,-32.1104
-1.86446,19.2152,-0.219474,0.959793,4.64497,1.45458,7.10591,-1.323,-3.4378,-0.461816,-1.99044,1.49936,-4.29689,-0.89163,3.70272,-24.3289,-2.16836,-9.66413,25.3933,-1.13943,6.02643,12.579,-0.628049,3.74495,1.62755e-14,-8.34896e-15,-19.9013,-31.0342,-30.4941,40.2159,-12.7236,-28.2394,-10.776,7.12502,-1.61711,-40.7496,1.62755e-14,-8.34896e-15,-26.5203,28.3721,37.6313,49.0852,34.8443,-20.2065,38.2202,7.12502,6.14049,68.1113,-12.3592,1.97232,9.95426,37.691,-2.34289,-4.22859,-3.84048,-9.90444,-1.16947,-12.7176,30.6556,3.90931,-5.48403,-32.4365
-1.86869,19.1848,-0.23541,1.15686,4.80517,1.35344,7.22215,-1.38935,-3.32347,-0.466267,-2.07119,1.53074,-4.36263,-0.932244,3.68348,-24.2978,-2.1322,-9.82349,24.9543,-1.0579,6.15577,12.3917,-0.580434,3.8217,-8.62228e-15,-5.96354e-15,-21.432,-30.8478,-31.7852,39.4791,-11.8743,-27.7456,-10.028,7.12502,-1.14022,-40.0047,-8.62228e-15,-5.96354e-15,-27.7262,27.8812,39.3509,48.1005,35.9907,-19.9462,38.3858,7.12502,6.39171,68.2694,-12.8415,1.25917,10.6786,38.4808,-2.05857,-3.57652,-5.85817,-10.6499,-0.447589,-13.1896,31.4454,4.07094,-7.16368,-32.281
-1.8721,19.1394,-0.250041,1.30166,4.93578,1.21592,7.38037,-1.42306,-3.19017,-0.486036,-2.10755,1.56448,-4.47263,-0.949998,3.65365,-24.2374,-2.11548,-9.84678,24.5806,-1.02276,6.15445,12.2291,-0.559574,3.81815,-3.34207e-14,2.62396e-14,-23.1067,-30.6469,-33.0732,38.9966,-11.0035,-27.0158,-9.4971,7.12502,-0.435367,-39.4764,-3.34207e-14,2.62396e-14,-28.8775,27.1222,41.2028,47.1798,36.9727,-19.5889,38.3659,7.12502,6.73673,68.2387,-13.2863,0.561213,11.449,39.2847,-1.87434,-2.79125,-6.35932,-11.3265,0.0774112,-13.6285,32.2786,4.12287,-8.53812,-31.6173
-1.87549,19.0817,-0.260728,1.44657,5.02521,1.15666,7.48808,-1.40903,-3.13196,-0.479416,-2.08636,1.5672,-4.53014,-0.939517,3.62528,-24.2952,-2.1293,-9.79495,24.2725,-1.01878,6.05171,12.1185,-0.559431,3.76084,4.96962e-15,-8.34896e-15,-24.802,-30.2983,-34.476,38.7811,-11.0396,-27.5447,-9.65227,7.12502,-0.946215,-39.6299,4.96962e-15,-8.34896e-15,-29.7741,26.5953,43.1804,46.1884,37.8217,-19.6896,38.3159,7.12502,6.63943,68.1918,-13.7232,-0.0953382,12.1425,40.0844,-1.79787,-1.95991,-6.21027,-11.9671,0.436373,-14.1672,33.1537,4.03797,-9.60728,-31.2848
-1.87863,19.0126,-0.27155,1.64739,5.15592,1.14196,7.51179,-1.4343,-3.11752,-0.437304,-2.11867,1.5748,-4.497,-0.957162,3.62833,-24.5429,-2.14283,-9.76548,24.042,-0.991789,5.9647,12.0733,-0.548893,3.72185,1.70955e-14,-3.97569e-16,-26.404,-29.275,-36.1927,38.9792,-11.5971,-28.5808,-10.4984,7.12502,-1.94683,-40.4693,1.70955e-14,-3.97569e-16,-30.5194,26.5487,45.1313,45.0825,38.4605,-19.9699,37.8966,7.12502,6.36883,67.7809,-14.1945,-0.735011,12.7866,40.9061,-1.88276,-1.17155,-5.68883,-12.6356,0.826394,-14.7643,34.0267,3.86848,-10.7038,-31.426
-1.88162,18.931,-0.282604,1.84755,5.33611,1.05626,7.53342,-1.48267,-3.02812,-0.409245,-2.1744,1.59686,-4.47752,-0.987485,3.60695,-24.7434,-2.15106,-9.74908,23.8567,-0.965616,5.90169,12.0369,-0.538186,3.6953,-8.29926e-15,-1.86858e-14,-27.962,-28.4068,-37.9646,39.2542,-11.8025,-29.0307,-11.4159,7.12502,-2.38136,-41.3824,-8.29926e-15,-1.86858e-14,-31.3077,26.7405,46.9957,43.9933,38.5475,-19.5328,37.3832,7.12502,6.79081,67.2543,-14.6689,-1.3886,13.5144,41.7623,-1.96835,-0.502384,-4.87991,-13.2914,1.24526,-15.2665,34.9003,3.74189,-11.6775,-31.16
-1.88313,18.8347,-0.294677,2.08108,5.56837,1.04199,7.52766,-1.54142,-2.98823,-0.397553,-2.24838,1.60715,-4.45697,-1.02561,3.60251,-24.6992,-2.16675,-9.79817,23.496,-0.961459,5.88582,11.8884,-0.535572,3.68668,-2.51463e-14,-2.54444e-14,-29.261,-28.7739,-39.5165,39.0247,-11.6654,-28.8071,-11.2436,7.12502,-2.16543,-41.2123,-2.51463e-14,-2.54444e-14,-32.0432,27.0072,48.8899,42.9454,38.431,-18.8545,37.2407,7.12502,7.4456,67.0897,-15.2024,-2.16666,14.1519,42.6532,-1.9356,-0.0176901,-4.8201,-13.9675,1.59181,-15.8506,35.8011,3.50534,-12.3663,-31.1767
-1.88455,18.725,-0.308859,2.33246,5.70043,1.05113,7.50366,-1.53743,-2.98254,-0.393402,-2.24094,1.62773,-4.43913,-1.0223,3.61894,-24.7289,-2.21966,-9.79535,23.2321,-0.999313,5.78385,11.7956,-0.559973,3.63308,-2.02263e-14,-4.77083e-15,-30.5941,-28.923,-41.0288,38.8738,-12.0499,-28.5666,-10.4468,7.12502,-1.93311,-40.4178,-2.02263e-14,-4.77083e-15,-32.5939,27.4819,50.8518,41.8158,38.219,-18.3941,37.5039,7.12502,7.89002,67.3367,-15.7758,-2.81789,14.771,43.5443,-1.90649,0.210598,-5.90392,-14.6356,2.01722,-16.4625,36.7695,3.15623,-12.9195,-31.4374
-1.88775,18.6027,-0.32541,2.51015,5.73725,0.984566,7.56571,-1.48941,-2.94409,-0.378554,-2.17356,1.65626,-4.46448,-0.989046,3.62193,-24.8039,-2.28518,-9.68986,23.0027,-1.07263,5.61817,11.7272,-0.59985,3.53381,-1.8487e-14,-5.56597e-15,-32.0221,-28.484,-42.7619,39.125,-12.8803,-28.2551,-9.52052,7.12502,-1.63225,-39.494,-1.8487e-14,-5.56597e-15,-33.0575,28.1338,52.7419,40.6114,37.8835,-18.0231,38.0579,7.12502,8.24803,67.8769,-16.3036,-3.23733,15.4959,44.4238,-1.9298,0.238849,-6.91403,-15.2332,2.50884,-16.9808,37.8353,2.83496,-13.2016,-31.6929
-1.89077,18.4714,-0.339291,2.66319,5.79856,0.78559,7.59037,-1.48865,-2.76299,-0.343493,-2.15415,1.70761,-4.44784,-0.98388,3.57132,-24.7864,-2.29189,-9.62449,22.648,-1.08364,5.55142,11.5883,-0.600461,3.48584,-4.52235e-15,-1.19271e-15,-33.2158,-28.3012,-44.6209,39.2827,-13.4803,-27.7168,-8.66048,7.12502,-1.11236,-38.6373,-4.52235e-15,-1.19271e-15,-33.6634,28.6947,54.6017,39.6888,37.9867,-17.7154,38.1121,7.12502,8.54497,67.9192,-16.781,-3.6506,16.3615,45.2699,-2.04252,0.387558,-6.64476,-15.8706,3.06193,-17.3487,39.0677,2.46074,-13.0973,-30.7183
-1.89541,18.3304,-0.353593,2.78142,5.85375,0.631941,7.62261,-1.50103,-2.70106,-0.276332,-2.16089,1.80798,-4.39378,-0.989634,3.64141,-24.772,-2.2474,-9.70648,22.2887,-0.999046,5.60407,11.4418,-0.555096,3.52378,1.20265e-14,1.43125e-14,-34.2283,-28.2011,-46.4874,39.4709,-13.992,-27.5936,-8.74215,7.12502,-0.993402,-38.7196,1.20265e-14,1.43125e-14,-34.3057,29.3556,56.5397,38.947,38.3669,-17.5587,37.9578,7.12502,8.69619,67.7587,-17.1618,-4.00178,17.1694,46.088,-2.66611,0.704879,-2.67227,-16.4546,3.80374,-17.7835,40.4756,1.23168,-12.5032,-26.7723
-1.90331,18.1822,-0.370591,2.84434,5.83865,0.545517,7.72113,-1.4687,-2.79765,-0.181316,-2.12324,1.92092,-4.34559,-0.969987,3.81131,-24.8457,-2.21922,-9.79032,22.013,-0.931006,5.66495,11.3455,-0.516994,3.5651,2.22142e-14,1.43125e-14,-35.1335,-28.1743,-48.3556,39.6051,-14.4463,-27.7535,-9.39987,7.12502,-1.14784,-39.3765,2.22142e-14,1.43125e-14,-34.8608,30.0363,58.5289,38.3215,38.9343,-17.8833,38.3357,7.12502,8.38294,68.1493,-17.4532,-4.33036,17.9206,46.8848,-4.44603,0.887629,2.95708,-16.9262,4.64901,-18.2873,42.0076,-1.47891,-11.139,-22.1559
-1.91123,18.0339,-0.386088,2.88115,5.7537,0.385588,7.84636,-1.40031,-2.77208,-0.0739709,-2.02929,1.98224,-4.31071,-0.92556,3.85284,-25.037,-2.24523,-9.71697,21.8073,-0.963503,5.63721,11.3055,-0.522712,3.53309,1.37161e-14,2.06736e-14,-36.0148,-28.3184,-50.3023,39.7158,-14.8703,-27.5873,-9.56379,7.12502,-0.987355,-39.5412,1.37161e-14,2.06736e-14,-35.2867,30.6884,60.4547,37.7647,39.4907,-18.3682,38.8748,7.12502,7.91502,68.7066,-17.7072,-4.63627,18.7409,47.683,-7.75536,0.56251,3.41327,-17.4156,5.54725,-18.6856,43.6147,-5.22476,-9.23883,-23.6318
-1.91927,17.8891,-0.400472,2.97448,5.62417,0.246799,7.94291,-1.34111,-2.73002,0.0361011,-1.94768,1.99393,-4.25811,-0.888534,3.83317,-25.244,-2.26585,-9.47063,21.5633,-1.01692,5.47688,11.2539,-0.539834,3.41836,-4.28878e-14,1.27222e-14,-36.6769,-28.3892,-52.4427,39.7635,-15.3868,-27.2396,-9.87488,7.12502,-0.651457,-39.8536,-4.28878e-14,1.27222e-14,-35.6391,31.3642,62.2971,37.2888,40.2694,-18.8798,39.5039,7.12502,7.4212,69.3538,-18.0278,-4.65112,19.4708,48.5153,-11.5897,-0.261499,-0.0873342,-18.0347,6.44296,-19.0498,45.2265,-8.57021,-7.41012,-27.9687
-1.92849,17.733,-0.417032,3.06168,5.50679,0.207338,8.09122,-1.31605,-2.80511,0.168449,-1.92293,2.01765,-4.20227,-0.877584,3.89985,-25.4783,-2.24308,-9.43076,21.2638,-0.977743,5.5038,11.1803,-0.506816,3.42255,1.04859e-14,1.63003e-14,-36.9728,-28.2361,-54.6985,39.6324,-15.9096,-26.6972,-10.7452,7.12502,-0.127607,-40.7249,1.04859e-14,1.63003e-14,-35.8968,31.8723,64.2382,36.8998,41.4829,-19.3471,40.2182,7.12502,6.97011,70.0835,-18.3974,-4.4228,20.0236,49.441,-14.6955,-0.706825,-0.685778,-18.6731,7.28862,-19.4668,46.7903,-11.2437,-6.0276,-27.9076
-1.9374,17.5651,-0.436173,3.08709,5.39413,0.196912,8.38762,-1.28256,-2.89706,0.303475,-1.89261,2.02383,-4.22725,-0.861927,3.96236,-25.8787,-2.23296,-9.39867,21.0552,-0.953653,5.58941,11.1726,-0.473767,3.45119,-1.82882e-14,1.19271e-15,-37.0786,-28.1243,-56.9438,39.2924,-16.1798,-25.7616,-11.4763,7.12502,0.776032,-41.4547,-1.82882e-14,1.19271e-15,-35.9712,32.4522,66.0873,36.3429,42.6033,-19.4294,40.6335,7.12502,6.89065,70.5013,-18.8348,-4.0508,20.4628,50.508,-17.3137,-0.696281,1.83378,-19.2828,8.04263,-19.8721,48.3062,-13.6787,-4.79619,-23.8602
-1.94738,17.4002,-0.456001,3.2304,5.3251,0.287055,8.68629,-1.24768,-3.07306,0.354519,-1.87229,1.96931,-4.33956,-0.846819,4.01206,-26.2761,-2.22817,-9.22457,20.8544,-0.959686,5.54833,11.1681,-0.459525,3.40411,2.2413e-14,1.98785e-15,-37.0336,-28.1247,-59.1303,38.6716,-16.1557,-24.5741,-11.634,7.12502,1.92289,-41.6051,2.2413e-14,1.98785e-15,-35.9463,33.0306,67.7834,35.6942,43.8027,-19.7363,41.058,7.12502,6.5944,70.9353,-19.5226,-3.5629,20.7255,51.7219,-19.8907,-1.33684,2.6305,-20.0839,8.52938,-20.3194,49.8071,-15.9968,-3.39116,-20.9989
