JuanDHNZ/ProyectoFinalCD/preprocessing/sports_trials_csv/14_11.csv
root1,root2,root3,root4,root5,root6,lowerback1,lowerback2,lowerback3,upperback1,upperback2,upperback3,thorax1,thorax2,thorax3,lowerneck1,lowerneck2,lowerneck3,upperneck1,upperneck2,upperneck3,head1,head2,head3,rclavicle1,rclavicle2,rhumerus1,rhumerus2,rhumerus3,rradius1,rwrist1,rhand1,rhand2,rfingers1,rthumb1,rthumb2,lclavicle1,lclavicle2,lhumerus1,lhumerus2,lhumerus3,lradius1,lwrist1,lhand1,lhand2,lfingers1,lthumb1,lthumb2,rfemur1,rfemur2,rfemur3,rtibia1,rfoot1,rfoot2,rtoes1,lfemur1,lfemur2,lfemur3,ltibia1,lfoot1,lfoot2,ltoes1
-0.863966,17.8027,2.24127,5.58511,-15.8939,0.473145,-1.60265,-1.99244,-4.22802,-2.20798,-2.61632,2.79816,-1.05669,-1.23712,5.24224,-19.6044,-8.39274,-14.0874,26.6148,-9.42982,6.49392,13.2433,-4.78983,3.1932,-3.23584e-14,0,-29.6456,-2.46337,-80.2432,30.0296,17.9342,-19.4607,2.19254,7.12502,6.86039,-27.6763,-3.23584e-14,0,-31.8641,1.29106,89.3618,27.3076,-9.87736,-12.4214,25.4219,7.12502,13.6509,54.9543,-16.3679,7.01608,12.6675,30.5071,-16.7109,-1.84168,4.12725,-3.86208,-1.0523,-20.4506,20.45,-16.2996,21.16,-17.9388
-0.859564,17.8019,2.24383,5.49868,-15.9332,0.354317,-1.53996,-1.97348,-4.18977,-2.15751,-2.59291,2.84244,-1.04217,-1.2271,5.26833,-19.5361,-8.37254,-14.0909,26.5834,-9.39503,6.45352,13.21,-4.78144,3.18606,6.60773e-14,-6.36111e-15,-29.6112,-2.31634,-80.2893,30.0902,17.8082,-19.5047,1.93431,7.12502,6.818,-27.9359,6.60773e-14,-6.36111e-15,-31.7836,1.41954,89.3495,27.2381,-10.0926,-12.6697,25.2887,7.12502,13.4115,54.8369,-16.1774,7.20136,12.7982,30.3869,-16.7217,-2.05004,3.73449,-3.82815,-1.01163,-20.3447,20.6549,-16.4299,21.1722,-17.9289
-0.856816,17.8005,2.24426,5.40506,-15.9284,-0.0746573,-1.31897,-1.9521,-3.82753,-2.13186,-2.5722,2.93003,-1.15287,-1.21853,5.16228,-19.4886,-8.34732,-13.9442,26.6487,-9.34736,6.22331,13.1991,-4.778,3.08254,5.19325e-14,-3.97569e-15,-29.6661,-2.10751,-80.407,30.1411,17.5778,-19.5759,1.83354,7.12502,6.7492,-28.0389,5.19325e-14,-3.97569e-15,-31.785,1.28138,89.3175,27.1397,-10.145,-12.8378,25.0257,7.12502,13.2496,54.5846,-15.8348,7.53197,13.2911,30.1454,-16.7544,-2.37361,3.34329,-3.79551,-0.965132,-19.8776,21.0273,-16.6671,21.1279,-17.824
-0.85459,17.7994,2.24538,5.22139,-15.974,-0.609679,-1.02149,-1.89467,-3.32732,-2.03289,-2.50333,3.02017,-1.24159,-1.18979,4.98203,-19.5045,-8.35497,-13.8719,26.6866,-9.3454,6.10579,13.2066,-4.78525,3.02466,-2.61961e-14,1.03368e-14,-29.6247,-2.12803,-80.489,30.0969,17.5476,-19.6112,1.81414,7.12502,6.71511,-28.0594,-2.61961e-14,1.03368e-14,-31.7452,0.991752,89.323,27.1322,-9.97464,-12.9314,25.0908,7.12502,13.1594,54.6555,-15.4286,7.83264,13.9296,29.9822,-16.7462,-2.66578,2.9387,-3.55072,-0.917358,-19.3147,21.2681,-16.8567,21.1359,-17.7261
-0.850837,17.7984,2.24518,5.11481,-16.0211,-0.779027,-0.94669,-1.86581,-3.1851,-1.94467,-2.46655,3.0379,-1.20149,-1.17566,4.92072,-19.595,-8.34087,-13.8648,26.7559,-9.29571,6.041,13.2439,-4.77004,3.00557,-5.1274e-14,3.4191e-14,-29.5452,-2.16538,-80.5653,30.1402,17.6938,-19.7602,1.93043,7.12502,6.57136,-27.9476,-5.1274e-14,3.4191e-14,-31.5725,0.793639,89.3653,27.0021,-9.79418,-13.089,25.1514,7.12502,13.0074,54.7259,-15.2349,8.04665,14.1245,29.8619,-16.7077,-2.85834,3.05083,-3.45994,-0.977298,-19.1624,21.4533,-17.0685,21.203,-17.4449
-0.84551,17.801,2.24491,5.1402,-16.0354,-0.742974,-1.03502,-1.86189,-3.19874,-1.93189,-2.4598,2.99709,-1.14066,-1.17395,4.88233,-19.5858,-8.32546,-13.9039,26.795,-9.26129,6.03404,13.2563,-4.76081,3.01638,-1.90709e-15,-9.54166e-15,-29.4965,-2.23081,-80.6242,30.2009,17.9808,-19.811,2.41083,7.12502,6.5223,-27.4687,-1.90709e-15,-9.54166e-15,-31.492,0.722496,89.3522,26.9573,-9.73239,-13.1553,25.1914,7.12502,12.9435,54.7699,-15.2535,8.11732,14.0559,29.7859,-16.6715,-2.95104,3.25009,-3.56135,-0.960284,-19.2184,21.5771,-17.1195,21.1826,-17.4472
-0.840399,17.8016,2.24398,5.08634,-15.9749,-0.698968,-1.00368,-1.84307,-3.18391,-1.92224,-2.4357,2.91616,-1.15481,-1.1622,4.79073,-19.5239,-8.37395,-13.9245,26.8095,-9.33633,6.03543,13.2602,-4.79714,3.00732,-5.81445e-15,-9.14409e-15,-29.496,-2.42975,-80.6135,30.184,18.4054,-19.8206,2.85231,7.12502,6.51298,-27.0275,-5.81445e-15,-9.14409e-15,-31.4223,0.630495,89.3107,26.8995,-9.86844,-13.1761,25.3133,7.12502,12.9234,54.8931,-15.1882,8.29493,14.0041,29.7786,-16.7978,-3.14284,3.35193,-3.5468,-1.01873,-19.2788,21.6039,-17.0886,21.2077,-17.5214
-0.833688,17.8015,2.24301,5.00107,-15.89,-0.73408,-0.953006,-1.85576,-3.09232,-1.85937,-2.45426,2.84845,-1.12288,-1.17472,4.66848,-19.5519,-8.38929,-13.8284,26.8228,-9.37201,5.98679,13.2667,-4.80872,2.96506,5.78463e-14,0,-29.4342,-2.5286,-80.6699,30.1169,18.7427,-19.8159,2.76231,7.12502,6.5175,-27.1174,5.78463e-14,0,-31.274,0.506443,89.2352,26.7971,-9.9399,-13.3009,25.136,7.12502,12.8031,54.7234,-15.0714,8.44825,14.0541,29.7884,-16.8777,-3.34797,3.23057,-3.46629,-1.17963,-19.2647,21.6046,-17.1389,21.2684,-17.3966
-0.826455,17.8002,2.2439,4.89388,-15.8558,-0.752356,-0.899848,-1.88271,-3.05386,-1.76236,-2.49185,2.81004,-1.05206,-1.19739,4.60601,-19.7228,-8.36432,-13.7447,26.9097,-9.32381,5.93067,13.3234,-4.78366,2.93481,-6.94752e-14,-8.34896e-15,-29.3111,-2.4525,-80.8065,30.0612,18.6978,-19.8941,2.37505,7.12502,6.44207,-27.507,-6.94752e-14,-8.34896e-15,-31.1111,0.515602,89.1696,26.7284,-9.98926,-13.3659,24.8713,7.12502,12.7405,54.4626,-14.9501,8.45668,14.0915,29.7967,-16.8943,-3.48911,2.6049,-3.35421,-1.2866,-19.2796,21.6202,-17.1689,21.3208,-17.3512
-0.819609,17.7986,2.24621,4.86989,-15.9103,-0.751174,-0.916301,-1.89732,-3.10414,-1.73425,-2.51106,2.82737,-1.00914,-1.20785,4.65102,-19.7607,-8.34376,-13.7614,26.9548,-9.26473,5.8686,13.3407,-4.7676,2.92364,-1.04859e-14,-1.47101e-14,-29.2832,-2.19697,-80.8976,30.037,18.4782,-19.9257,2.35472,7.12502,6.41155,-27.5282,-1.04859e-14,-1.47101e-14,-31.0465,0.554791,89.1779,26.7158,-10.0073,-13.3234,25.0206,7.12502,12.7814,54.6093,-14.9523,8.46832,14.065,29.8133,-16.8857,-3.46563,2.64949,-3.34063,-1.03107,-19.2903,21.6497,-17.1669,21.1516,-17.444
-0.813212,17.7982,2.24875,4.88445,-15.9575,-0.72262,-0.927087,-1.88938,-3.15326,-1.79143,-2.50008,2.81532,-1.06167,-1.19966,4.66741,-19.6201,-8.33463,-13.8159,26.9637,-9.24579,5.83521,13.3152,-4.77309,2.92674,-5.34669e-14,9.93923e-15,-29.4381,-2.08877,-80.8897,30.1123,18.6468,-19.7888,2.80299,7.12502,6.5437,-27.0759,-5.34669e-14,9.93923e-15,-31.0924,0.605806,89.1484,26.722,-10.0427,-13.2611,25.1807,7.12502,12.8415,54.7657,-15.0308,8.38453,13.998,29.8665,-16.8344,-3.39247,2.61615,-3.37149,-0.62437,-19.302,21.6381,-17.1868,20.8068,-17.5705
-0.804771,17.7944,2.25148,4.8651,-15.9698,-0.673421,-0.922726,-1.89379,-3.1697,-1.83397,-2.50603,2.79692,-1.10744,-1.20074,4.65876,-19.5194,-8.30515,-13.9364,26.9856,-9.19245,5.87537,13.3074,-4.76,2.97534,1.26912e-14,-3.97569e-15,-29.5486,-1.99736,-80.8643,30.1086,18.6906,-19.8193,3.38673,7.12502,6.51425,-26.4931,1.26912e-14,-3.97569e-15,-31.2051,0.73825,89.1339,26.8083,-10.1836,-13.2228,25.2826,7.12502,12.8784,54.8653,-15.0658,8.28804,13.9177,29.938,-16.7835,-3.35063,2.40317,-3.35915,-0.503045,-19.372,21.6117,-17.1078,20.7061,-17.8318
-0.796411,17.7928,2.25566,4.83532,-15.9552,-0.58015,-0.957164,-1.89074,-3.21822,-1.85534,-2.50135,2.75452,-1.11049,-1.19754,4.6414,-19.4217,-8.28522,-14.0532,27.0248,-9.16363,5.94208,13.3115,-4.75398,3.02922,7.50412e-15,-5.96354e-15,-29.5816,-1.85561,-80.9036,29.9908,18.3936,-19.9283,3.4147,7.12502,6.40907,-26.4683,7.50412e-15,-5.96354e-15,-31.295,0.845861,89.133,26.8652,-10.3195,-13.2181,25.2259,7.12502,12.883,54.8083,-15.0774,8.15901,13.7914,30.0181,-16.8298,-3.25136,2.12792,-3.31943,-0.488702,-19.502,21.5746,-17.1784,20.6573,-17.4994
-0.789011,17.7912,2.25617,4.7582,-15.9115,-0.549074,-0.894905,-1.85796,-3.22998,-1.85788,-2.45915,2.70515,-1.15403,-1.17537,4.59946,-19.2921,-8.30529,-14.016,27.0184,-9.20755,5.88271,13.2819,-4.78003,2.99467,7.3364e-15,-1.59028e-15,-29.6403,-1.93057,-80.8732,29.9477,18.5019,-19.6063,2.99859,7.12502,6.71991,-26.8748,7.3364e-15,-1.59028e-15,-31.3466,0.704621,89.1528,26.9064,-10.2891,-13.2074,25.2461,7.12502,12.8933,54.8279,-15.0221,8.0491,13.7534,30.0852,-16.8535,-3.20073,1.71773,-3.24199,-0.505485,-19.5635,21.5548,-17.1428,20.6764,-17.6249
-0.78325,17.7893,2.25465,4.64506,-15.9023,-0.471987,-0.773896,-1.86953,-3.39027,-1.83766,-2.47757,2.70537,-1.19285,-1.18201,4.69437,-19.3134,-8.30106,-14.0492,27.045,-9.17819,5.85195,13.2944,-4.77457,2.99302,-6.9264e-15,-1.15295e-14,-29.6217,-1.80413,-80.8426,29.9015,18.6648,-19.3751,2.75263,7.12502,6.94306,-27.1135,-6.9264e-15,-1.15295e-14,-31.3126,0.911496,89.121,26.9127,-10.3796,-13.2172,25.3225,7.12502,12.8838,54.9049,-14.9485,8.03145,13.6705,30.1161,-16.8207,-3.21061,1.72021,-3.16429,-0.642526,-19.6736,21.5725,-17.1848,20.77,-17.6061
-0.778843,17.7884,2.25311,4.63071,-15.881,-0.487022,-0.735661,-1.86923,-3.47331,-1.82618,-2.47803,2.74551,-1.19747,-1.18112,4.78436,-19.4023,-8.33871,-14.1614,27.1129,-9.19071,5.87272,13.3513,-4.78775,3.01463,4.58012e-14,-9.54166e-15,-29.6225,-1.61948,-80.8337,29.9008,18.6344,-19.5054,2.68875,7.12502,6.81732,-27.1815,4.58012e-14,-9.54166e-15,-31.202,1.23917,89.1023,26.8448,-10.5718,-13.1615,25.2307,7.12502,12.9375,54.8096,-14.9589,8.06303,13.6826,30.1512,-16.8413,-3.2752,1.9627,-3.17691,-0.465722,-19.6432,21.5838,-17.1129,20.5911,-17.6625
-0.773179,17.7908,2.25223,4.67936,-15.8556,-0.620441,-0.725998,-1.82265,-3.33508,-1.8153,-2.41589,2.72182,-1.20468,-1.1518,4.68182,-19.4872,-8.4093,-14.1246,27.205,-9.30262,5.88679,13.4193,-4.83027,2.99073,-3.27933e-14,-1.23246e-14,-29.646,-1.65932,-80.9073,29.9189,18.6395,-19.4451,2.37193,7.12502,6.87554,-27.4964,-3.27933e-14,-1.23246e-14,-31.1328,1.15968,89.0689,26.9002,-10.4638,-13.1455,25.0036,7.12502,12.953,54.5815,-15.0106,8.14136,13.8125,30.2071,-16.8967,-3.4307,1.76622,-3.20048,-0.385476,-19.504,21.5585,-17.0543,20.4983,-17.7742
-0.765865,17.7916,2.24848,4.67604,-15.855,-0.404571,-0.708024,-1.8171,-3.53535,-1.86496,-2.40996,2.62824,-1.26276,-1.1444,4.6998,-19.3149,-8.40397,-14.2321,27.1705,-9.33103,6.0292,13.3877,-4.83899,3.06377,-1.4971e-14,1.15295e-14,-29.7382,-1.59938,-80.9993,29.9603,18.5375,-18.9465,1.86404,7.12502,7.35678,-27.9881,-1.4971e-14,1.15295e-14,-31.1269,1.16755,89.0181,26.9102,-10.3532,-13.1708,24.9485,7.12502,12.9286,54.528,-15.094,8.06953,13.5469,30.2113,-16.8784,-3.39847,1.74606,-3.3038,-0.313577,-19.7367,21.5814,-17.08,20.3655,-17.7141
-0.758381,17.7906,2.24742,4.68678,-15.8927,-0.153259,-0.756054,-1.83598,-3.75988,-1.90912,-2.43508,2.54291,-1.27355,-1.1534,4.73735,-19.1502,-8.33707,-14.29,27.0492,-9.24789,6.07539,13.2992,-4.80478,3.1113,-4.71244e-14,-2.0276e-14,-29.8524,-1.45004,-81.0632,30.0409,18.4476,-18.4638,1.75902,7.12502,7.82269,-28.0763,-4.71244e-14,-2.0276e-14,-31.1036,1.12106,89.0158,26.8746,-10.132,-13.315,24.9496,7.12502,12.7895,54.5378,-15.2015,7.90152,13.2326,30.1864,-16.7431,-3.26707,1.73933,-3.41135,-0.366758,-20.0333,21.6146,-17.1837,20.3503,-17.2516
-0.756195,17.7906,2.25067,4.60242,-15.9354,-0.52319,-0.621414,-1.80454,-3.42145,-1.82679,-2.39537,2.5864,-1.27961,-1.13902,4.59408,-19.1153,-8.31351,-14.1382,26.9502,-9.22739,5.96247,13.2322,-4.79389,3.04632,2.28851e-14,-3.97569e-15,-29.9711,-1.41341,-81.1483,30.1524,18.26,-18.45,1.84337,7.12502,7.83599,-27.9914,2.28851e-14,-3.97569e-15,-30.9987,1.00789,88.9781,26.8328,-9.9648,-13.4161,25.0344,7.12502,12.6921,54.6288,-15.0102,8.02767,13.6616,30.1955,-16.7322,-3.3814,1.38787,-3.17477,-0.366154,-19.659,21.5881,-17.143,20.4317,-17.3573
-0.753946,17.7896,2.25413,4.5386,-15.9437,-0.794686,-0.536261,-1.74532,-3.16738,-1.74013,-2.31732,2.59888,-1.25514,-1.10508,4.46448,-19.2558,-8.34705,-14.0058,27.0004,-9.2731,5.87765,13.2741,-4.80848,2.97911,-2.73515e-14,2.78299e-15,-30.0132,-1.46992,-81.1776,30.2205,18.124,-18.5726,1.71992,7.12502,7.7177,-28.1192,-2.73515e-14,2.78299e-15,-30.8907,0.828328,88.9718,26.9155,-9.7315,-13.2962,25.2119,7.12502,12.8077,54.799,-14.871,8.1137,13.9746,30.225,-16.7668,-3.42707,1.19805,-2.98142,-0.457448,-19.3965,21.5566,-17.1547,20.5526,-17.3382
-0.7465,17.788,2.25348,4.50325,-15.9401,-0.461754,-0.56701,-1.74093,-3.49313,-1.76597,-2.31258,2.49846,-1.25697,-1.09858,4.54402,-19.365,-8.38069,-14.0448,27.1379,-9.29796,5.87202,13.3592,-4.82377,2.97613,-3.8353e-14,-3.97569e-15,-30.0295,-1.59834,-81.1212,30.172,18.2323,-18.6046,1.50605,7.12502,7.68676,-28.3342,-3.8353e-14,-3.97569e-15,-30.8958,0.91669,88.9509,27.0604,-9.51611,-13.0281,25.4768,7.12502,13.0661,55.0475,-14.9474,8.00818,13.5816,30.2457,-16.7343,-3.36843,1.1847,-3.05815,-0.571615,-19.7847,21.5581,-17.2124,20.6215,-17.0772
-0.739915,17.7881,2.25239,4.59129,-15.974,-0.254404,-0.685619,-1.73168,-3.72393,-1.83167,-2.29819,2.44065,-1.25351,-1.08763,4.61199,-19.3774,-8.41202,-14.102,27.2185,-9.32483,5.86367,13.4022,-4.84359,2.97681,-3.05631e-15,-9.93923e-15,-30.0233,-1.85124,-81.0262,29.9684,18.4669,-18.8967,2.03265,7.12502,7.40489,-27.8178,-3.05631e-15,-9.93923e-15,-30.9395,0.971562,88.9616,27.1307,-9.38307,-13.028,25.5577,7.12502,13.0662,55.1284,-15.145,7.88186,13.3108,30.3263,-16.7147,-3.26706,1.34268,-3.19781,-0.530583,-20.0247,21.4969,-17.1567,20.5925,-16.9066
-0.734826,17.7906,2.25359,4.66227,-15.9643,-0.342201,-0.759156,-1.71185,-3.63065,-1.84051,-2.26948,2.42945,-1.22817,-1.07497,4.54531,-19.3759,-8.4553,-14.1476,27.2628,-9.39521,5.92369,13.4355,-4.8719,2.99454,2.75255e-14,-5.1684e-15,-30.0041,-2.22414,-80.9286,29.7597,18.7074,-19.2226,2.63398,7.12502,7.09026,-27.2273,2.75255e-14,-5.1684e-15,-30.9484,0.949916,88.9593,27.1854,-9.39307,-12.9913,25.5594,7.12502,13.1016,55.1279,-15.2021,7.7983,13.3643,30.3957,-16.7456,-3.12337,1.63274,-3.20777,-0.550193,-19.9613,21.4409,-17.1135,20.6172,-17.0667
-0.730503,17.7902,2.25526,4.60672,-15.9771,-0.294938,-0.787486,-1.68804,-3.70173,-1.79459,-2.23685,2.41905,-1.16628,-1.06012,4.57292,-19.2771,-8.47344,-14.2544,27.1736,-9.41641,5.98908,13.3913,-4.88424,3.03548,8.18434e-14,0,-30.0135,-2.27358,-80.8792,29.6971,18.6937,-19.3501,2.20558,7.12502,6.96715,-27.6598,8.18434e-14,0,-30.867,0.875301,89.0369,27.117,-9.55194,-13.0678,25.5186,7.12502,13.0279,55.0918,-15.1307,7.86143,13.2919,30.3567,-16.7713,-3.08595,2.19554,-3.19034,-0.560428,-20.0466,21.5068,-17.0827,20.709,-17.5731
-0.727659,17.79,2.25919,4.58593,-15.9581,-0.490265,-0.828683,-1.70377,-3.5637,-1.71394,-2.25612,2.46181,-1.06129,-1.07525,4.53588,-19.3,-8.43649,-14.1677,27.1291,-9.36042,5.9144,13.3606,-4.85923,3.00196,5.70201e-14,-3.22031e-14,-29.9717,-2.19627,-80.9502,29.64,18.5064,-19.4848,1.72873,7.12502,6.83718,-28.1409,5.70201e-14,-3.22031e-14,-30.8455,0.673393,89.1095,27.1548,-9.5605,-13.2717,25.4616,7.12502,12.8313,55.0472,-14.9769,7.92149,13.5148,30.2396,-16.7965,-3.18628,1.98158,-3.15526,-0.630281,-19.8595,21.6371,-17.1699,20.7649,-17.5752
-0.726616,17.7903,2.25982,4.61907,-15.9072,-0.874302,-0.759392,-1.72581,-3.30343,-1.70841,-2.28661,2.57582,-1.09629,-1.09235,4.50908,-19.3109,-8.38978,-14.0733,27.1935,-9.28424,5.78237,13.3669,-4.83463,2.94955,2.19843e-14,6.36111e-15,-30.0275,-2.08485,-80.9964,29.5468,18.3531,-19.776,1.73235,7.12502,6.55604,-28.1462,2.19843e-14,6.36111e-15,-30.9777,0.655573,89.1198,27.2914,-9.58197,-13.3585,25.4784,7.12502,12.7476,55.0693,-14.834,8.02356,13.9545,30.1193,-16.7876,-3.36849,1.92049,-3.1489,-0.651619,-19.4414,21.7677,-17.2506,20.7423,-17.4844
-0.724758,17.7915,2.25865,4.64437,-15.8318,-1.0012,-0.647329,-1.75238,-3.28235,-1.7995,-2.32424,2.64691,-1.24712,-1.1061,4.57693,-19.1307,-8.39469,-14.1787,27.2072,-9.30115,5.82398,13.3469,-4.85241,2.9848,-1.99685e-14,3.97569e-15,-30.2001,-2.0439,-80.9189,29.4689,18.5433,-19.7709,2.09633,7.12502,6.56096,-27.782,-1.99685e-14,3.97569e-15,-31.201,0.834842,89.118,27.4361,-9.67986,-13.2547,25.4126,7.12502,12.8477,54.9972,-14.7587,8.05659,14.0997,29.9923,-16.7587,-3.49773,2.09161,-3.22813,-0.636962,-19.2797,21.9147,-17.3766,20.6071,-17.0758
-0.719452,17.7917,2.25999,4.65126,-15.7328,-1.00231,-0.597412,-1.78408,-3.2932,-1.84855,-2.36766,2.66057,-1.32024,-1.1251,4.6001,-18.9709,-8.38372,-14.2029,27.1393,-9.29556,5.8112,13.286,-4.85687,2.98874,-2.10588e-14,-4.37326e-15,-30.3088,-2.03843,-80.8551,29.4605,18.8372,-19.6472,2.35175,7.12502,6.68041,-27.5229,-2.10588e-14,-4.37326e-15,-31.3045,0.940563,89.1265,27.517,-9.76916,-13.2167,25.3502,7.12502,12.8843,54.9325,-14.6795,7.99092,14.0836,29.8635,-16.7239,-3.50031,2.30548,-3.31678,-0.675366,-19.2833,22.0569,-17.4311,20.5655,-17.0469
-0.715094,17.7918,2.26226,4.61616,-15.7243,-1.1269,-0.557443,-1.76197,-3.1748,-1.80984,-2.33842,2.68502,-1.30924,-1.11278,4.55907,-18.9542,-8.333,-14.2573,27.1202,-9.20923,5.82806,13.2686,-4.82257,3.02128,2.82833e-14,8.74653e-15,-30.3211,-1.95135,-80.8662,29.4926,18.8581,-19.2334,1.79527,7.12502,7.07989,-28.0663,2.82833e-14,8.74653e-15,-31.2678,0.777915,89.2159,27.5598,-9.74753,-13.1874,25.4867,7.12502,12.9126,55.0672,-14.5556,7.93633,14.2122,29.7706,-16.6567,-3.43435,2.42605,-3.27228,-0.669566,-19.1672,22.1361,-17.4707,20.562,-17.0772
-0.709264,17.7919,2.26766,4.53667,-15.7493,-1.33422,-0.53468,-1.70696,-2.90328,-1.69551,-2.26481,2.66106,-1.22251,-1.08318,4.37876,-18.9761,-8.32846,-14.1979,27.0508,-9.21386,5.83023,13.241,-4.81609,3.01069,-1.8018e-14,5.1684e-15,-30.2777,-2.03112,-80.9211,29.4539,18.8458,-19.056,1.19989,7.12502,7.25106,-28.6559,-1.8018e-14,5.1684e-15,-31.1612,0.534324,89.2269,27.5955,-9.68976,-13.0213,25.7348,7.12502,13.0727,55.3051,-14.3668,7.83366,14.435,29.6949,-16.5721,-3.36213,2.07311,-3.12633,-0.639208,-18.9755,22.1859,-17.5631,20.5637,-17.0961
-0.705969,17.7907,2.27242,4.5037,-15.7554,-1.38853,-0.567378,-1.69506,-2.85621,-1.64423,-2.24838,2.65541,-1.15488,-1.07777,4.344,-19.0405,-8.33971,-14.2131,27.0889,-9.23138,5.8764,13.2756,-4.81842,3.02653,-4.14031e-14,-1.63003e-14,-30.2869,-2.09583,-80.9,29.3617,18.9764,-18.873,1.5678,7.12502,7.4277,-28.2818,-4.14031e-14,-1.63003e-14,-31.1803,0.645613,89.1969,27.6592,-9.87913,-12.957,25.8775,7.12502,13.1346,55.4439,-14.2571,7.82111,14.4818,29.6306,-16.5889,-3.32012,2.18629,-3.07112,-0.636387,-18.9396,22.2239,-17.634,20.5576,-17.3133
-0.703779,17.7914,2.27075,4.50155,-15.7796,-1.33435,-0.552635,-1.67693,-2.94918,-1.65955,-2.22479,2.63187,-1.17877,-1.0642,4.37307,-19.1184,-8.35114,-14.1991,27.2077,-9.23609,5.84128,13.3389,-4.82396,3.00816,4.26455e-15,-2.0276e-14,-30.3661,-2.26495,-80.8241,29.2419,19.1246,-19.0728,2.40294,7.12502,7.23484,-27.4534,4.26455e-15,-2.0276e-14,-31.2077,0.750488,89.1674,27.6262,-10.0641,-13.0217,25.5797,7.12502,13.0723,55.1501,-14.2704,7.85641,14.4128,29.5833,-16.5483,-3.33255,2.19363,-3.10607,-0.697337,-19.0086,22.2398,-17.6989,20.5771,-17.1253
-0.700034,17.7912,2.2699,4.48887,-15.8208,-1.24372,-0.513892,-1.65675,-3.08907,-1.70606,-2.19908,2.61721,-1.24654,-1.04743,4.43944,-19.0885,-8.35613,-14.2389,27.2885,-9.23057,5.81083,13.367,-4.83197,3.00492,-2.26739e-16,-1.35174e-14,-30.5514,-2.27849,-80.7401,29.2491,19.1084,-19.334,2.46391,7.12502,6.98275,-27.4009,-2.26739e-16,-1.35174e-14,-31.275,0.791302,89.1774,27.6168,-10.1331,-13.0344,25.4287,7.12502,13.0601,54.9998,-14.2979,7.90001,14.2951,29.5761,-16.5192,-3.35273,2.23728,-3.10906,-0.768311,-19.1301,22.2115,-17.6928,20.6706,-16.8081
-0.695786,17.7913,2.27442,4.53821,-15.8585,-1.24712,-0.572742,-1.63979,-3.1173,-1.71769,-2.17524,2.62036,-1.22678,-1.03538,4.45703,-19.0378,-8.34064,-14.2383,27.2599,-9.20531,5.78226,13.34,-4.82528,2.9996,3.7238e-14,-1.90833e-14,-30.6442,-2.20134,-80.7447,29.2609,19.0009,-19.0005,2.01643,7.12502,7.30468,-27.8375,3.7238e-14,-1.90833e-14,-31.2853,0.759735,89.205,27.6044,-10.0807,-13.1035,25.4815,7.12502,12.9934,55.0568,-14.3326,7.91084,14.264,29.5694,-16.5087,-3.33785,2.27605,-3.12675,-0.841891,-19.169,22.188,-17.6262,20.8159,-17.0104
-0.692764,17.7917,2.27503,4.53079,-15.8512,-1.18506,-0.590973,-1.64822,-3.23791,-1.69768,-2.18653,2.61316,-1.19089,-1.04076,4.51677,-19.0019,-8.30721,-14.2141,27.1771,-9.16065,5.76897,13.2902,-4.80423,2.99956,3.05259e-14,-2.66371e-14,-30.6363,-2.10674,-80.7825,29.2163,18.7955,-18.4647,2.02176,7.12502,7.82187,-27.8135,3.05259e-14,-2.66371e-14,-31.225,0.820877,89.1867,27.5353,-10.1545,-12.9866,25.3793,7.12502,13.1061,54.9475,-14.324,8.08128,14.1862,29.5628,-16.6199,-3.49301,2.30955,-3.13711,-0.825691,-19.2402,22.1696,-17.5676,20.7942,-17.2931
-0.690092,17.7914,2.27462,4.52182,-15.8396,-1.2341,-0.567277,-1.6228,-3.22362,-1.67992,-2.15309,2.61291,-1.1898,-1.02448,4.50891,-18.9754,-8.2909,-14.122,27.1981,-9.15468,5.71071,13.2836,-4.80071,2.96394,-3.77939e-14,7.55382e-15,-30.5718,-2.40407,-80.7064,29.0021,19.0075,-18.29,2.1514,7.12502,7.99041,-27.6776,-3.77939e-14,7.55382e-15,-31.1784,0.692379,89.2222,27.4945,-10.0776,-12.9336,25.4833,7.12502,13.1572,55.0481,-14.3037,8.15409,14.2419,29.5448,-16.6236,-3.59212,2.174,-3.10947,-0.830745,-19.1969,22.158,-17.5492,20.7558,-17.4429
-0.688071,17.79,2.27512,4.47006,-15.8585,-1.26551,-0.50576,-1.57518,-3.192,-1.64581,-2.09098,2.58088,-1.1977,-0.994231,4.45911,-18.994,-8.29062,-14.042,27.2471,-9.16935,5.67511,13.3023,-4.80388,2.93415,-4.75561e-14,-1.63003e-14,-30.5101,-2.66828,-80.6495,28.8319,19.2154,-18.2626,2.25453,7.12502,8.0169,-27.5734,-4.75561e-14,-1.63003e-14,-31.1515,0.534176,89.2431,27.4858,-9.99728,-13.0212,25.5706,7.12502,13.0728,55.1409,-14.2472,8.15005,14.28,29.531,-16.6006,-3.61392,1.73288,-3.0245,-0.936429,-19.1938,22.1464,-17.5815,20.8346,-17.4861
-0.684687,17.7898,2.27724,4.44452,-15.9154,-1.25763,-0.453373,-1.53579,-3.23293,-1.65163,-2.03962,2.59214,-1.23656,-0.966948,4.49586,-18.9496,-8.26388,-14.0735,27.275,-9.12413,5.66142,13.3008,-4.79077,2.94402,5.12864e-14,-1.15295e-14,-30.5485,-2.73177,-80.5763,28.7317,19.3313,-18.47,2.50307,7.12502,7.81675,-27.3324,5.12864e-14,-1.15295e-14,-31.2139,0.433442,89.3169,27.4817,-9.9135,-13.1388,25.3345,7.12502,12.9594,54.9121,-14.2119,8.11267,14.2545,29.5163,-16.5867,-3.52859,1.83425,-2.97557,-1.12775,-19.2613,22.1587,-17.6232,21.0953,-17.205
-0.682753,17.7884,2.2807,4.44669,-15.959,-1.25402,-0.475403,-1.51503,-3.31218,-1.66534,-2.01138,2.63557,-1.2372,-0.951386,4.58557,-18.8213,-8.22816,-14.1712,27.2658,-9.07079,5.69505,13.2723,-4.77618,2.98692,-1.48716e-14,1.39149e-14,-30.6376,-2.55488,-80.5165,28.7083,19.3436,-18.584,2.38356,7.12502,7.70672,-27.456,-1.48716e-14,1.39149e-14,-31.2169,0.618529,89.3344,27.3265,-10.0957,-13.1735,25.0651,7.12502,12.926,54.6447,-14.1942,8.17461,14.2278,29.5075,-16.6447,-3.48785,2.22294,-2.95531,-1.28687,-19.3056,22.1682,-17.6983,21.2326,-16.753
-0.680158,17.7871,2.28049,4.41117,-15.9703,-1.27646,-0.40078,-1.51643,-3.37088,-1.66421,-2.01488,2.69235,-1.27379,-0.951314,4.68025,-18.8075,-8.18761,-14.2068,27.2795,-8.99135,5.65996,13.2662,-4.75034,2.9945,-5.41906e-14,4.37326e-15,-30.7313,-2.30809,-80.498,28.7728,19.215,-18.4411,2.14788,7.12502,7.84458,-27.6866,-5.41906e-14,4.37326e-15,-31.2694,0.697597,89.3666,27.3229,-10.0812,-13.2303,24.8913,7.12502,12.8712,54.4744,-14.1404,8.20607,14.2447,29.4934,-16.668,-3.48677,2.28496,-2.93084,-1.25034,-19.2901,22.1991,-17.6883,21.2001,-16.9248
-0.677507,17.7869,2.28017,4.3544,-15.9307,-1.25509,-0.338534,-1.53135,-3.42586,-1.62821,-2.03655,2.7027,-1.26723,-0.962245,4.72342,-18.9613,-8.18872,-14.142,27.3961,-8.97064,5.58162,13.3358,-4.74342,2.95362,-2.38604e-14,-1.59028e-15,-30.7309,-2.29901,-80.4526,28.6647,19.2382,-18.7492,2.57593,7.12502,7.54724,-27.2694,-2.38604e-14,-1.59028e-15,-31.2366,0.740305,89.3591,27.2955,-9.94256,-13.1481,24.979,7.12502,12.9504,54.5571,-14.0722,8.23021,14.2201,29.4781,-16.7023,-3.46057,2.44239,-2.90769,-1.26365,-19.3156,22.2424,-17.6758,21.1686,-17.1476
-0.674883,17.7852,2.27997,4.33305,-15.8573,-1.23568,-0.320319,-1.54793,-3.43477,-1.57067,-2.05947,2.66834,-1.21662,-0.976026,4.69205,-19.1533,-8.21998,-13.974,27.4631,-9.02049,5.50586,13.3944,-4.75418,2.88209,3.53775e-14,-2.34566e-14,-30.6424,-2.36977,-80.4566,28.5231,19.2417,-19.2321,2.98419,7.12502,7.0811,-26.8774,3.53775e-14,-2.34566e-14,-31.1402,0.552024,89.3485,27.2975,-9.77931,-13.0639,25.3016,7.12502,13.0316,54.8745,-14.0448,8.28041,14.198,29.4712,-16.7764,-3.54089,2.30824,-2.9336,-1.20107,-19.3184,22.2781,-17.6895,21.0379,-17.0139
-0.67258,17.7842,2.27705,4.33412,-15.8584,-1.16498,-0.282515,-1.5518,-3.51149,-1.5492,-2.06622,2.64148,-1.21344,-0.97908,4.70834,-19.3373,-8.17638,-13.8337,27.5845,-8.93485,5.36378,13.4567,-4.71893,2.81549,-4.24902e-14,2.46493e-14,-30.5858,-2.23461,-80.534,28.5112,19.2687,-19.0654,2.54598,7.12502,7.24198,-27.3101,-4.24902e-14,2.46493e-14,-31.0818,0.563512,89.3072,27.2606,-9.91341,-13.0886,25.3437,7.12502,13.0078,54.9181,-14.0915,8.3456,14.1131,29.4697,-16.784,-3.60551,2.49896,-2.98397,-1.25691,-19.4045,22.293,-17.6845,21.0815,-16.8283
-0.670575,17.7841,2.27604,4.31004,-15.9105,-1.0728,-0.262795,-1.51968,-3.62619,-1.5368,-2.02467,2.61024,-1.2136,-0.957257,4.74124,-19.3096,-8.01548,-13.8319,27.6552,-8.71905,5.39778,13.4566,-4.62273,2.87254,-3.53899e-14,-1.74931e-14,-30.5797,-2.42919,-80.4876,28.4887,19.5879,-18.6955,2.255,7.12502,7.59903,-27.5885,-3.53899e-14,-1.74931e-14,-31.0782,0.574951,89.3082,27.2174,-10.074,-13.0304,25.484,7.12502,13.0639,55.0549,-14.1202,8.43229,13.9955,29.4796,-16.7807,-3.61301,2.7747,-2.98322,-1.36307,-19.5369,22.3003,-17.7399,21.2122,-16.6291
-0.666791,17.7839,2.27422,4.31792,-15.8911,-1.05389,-0.235182,-1.48861,-3.60429,-1.51059,-1.98406,2.56638,-1.20868,-0.937921,4.68344,-19.1779,-7.89106,-13.8642,27.5912,-8.58692,5.53348,13.3953,-4.55259,2.96095,9.13229e-14,1.66979e-14,-30.5587,-2.67616,-80.4431,28.4583,19.7988,-18.6526,2.15314,7.12502,7.64046,-27.6888,9.13229e-14,1.66979e-14,-31.0408,0.35111,89.3302,27.1914,-9.98832,-13.0242,25.5449,7.12502,13.0699,55.1154,-14.1461,8.43846,13.96,29.493,-16.7971,-3.64193,2.75557,-3.01538,-1.38869,-19.5694,22.3076,-17.7171,21.2303,-16.7505
-0.662856,17.7855,2.27051,4.3296,-15.8489,-1.04077,-0.142814,-1.4782,-3.62346,-1.52516,-1.9728,2.56684,-1.27616,-0.930101,4.69791,-19.0565,-7.7873,-13.854,27.5628,-8.48498,5.62072,13.3493,-4.49804,3.01704,-2.6867e-14,-7.95139e-16,-30.6403,-2.61856,-80.4393,28.5735,19.6579,-18.5593,1.92524,7.12502,7.73054,-27.9134,-2.6867e-14,-7.95139e-16,-31.026,0.217468,89.3687,27.1028,-9.87415,-13.1341,25.428,7.12502,12.9639,55.0053,-14.1852,8.42805,13.9395,29.5168,-16.8002,-3.71234,2.52492,-3.07528,-1.29997,-19.5701,22.3231,-17.6321,21.1171,-16.9269
-0.658396,17.787,2.26846,4.40339,-15.7775,-1.02161,-0.156233,-1.47021,-3.62311,-1.54075,-1.96176,2.56785,-1.28586,-0.924031,4.69864,-19.0999,-7.70877,-13.84,27.6847,-8.39435,5.68154,13.4003,-4.45072,3.05696,1.81702e-14,-2.26615e-14,-30.6676,-2.66886,-80.3953,28.6312,19.4989,-18.6856,1.88452,7.12502,7.6086,-27.9586,1.81702e-14,-2.26615e-14,-31.0051,0.228928,89.3875,27.065,-9.9477,-13.142,25.3676,7.12502,12.9563,54.9454,-14.2911,8.36151,13.9052,29.5603,-16.8022,-3.77418,2.16168,-3.20606,-1.40924,-19.5965,22.3438,-17.6107,21.1312,-16.877
-0.654004,17.7867,2.26326,4.42093,-15.7271,-0.987434,-0.0650902,-1.47591,-3.67439,-1.57226,-1.97223,2.57983,-1.36641,-0.925988,4.7437,-19.157,-7.57739,-13.5996,27.8353,-8.20064,5.42721,13.4255,-4.37632,2.95403,-2.59973e-14,3.18055e-15,-30.7102,-2.57608,-80.3874,28.6768,19.4001,-18.6876,2.03755,7.12502,7.60664,-27.8057,-2.59973e-14,3.18055e-15,-31.0668,0.50857,89.3117,27.0798,-10.1785,-13.1944,25.1464,7.12502,12.9058,54.7273,-14.342,8.39988,13.8504,29.6168,-16.8715,-3.80826,2.27882,-3.28215,-1.46639,-19.6367,22.3761,-17.6325,21.091,-16.6508
-0.651009,17.786,2.25805,4.37033,-15.7482,-0.944094,0.0582335,-1.43567,-3.70123,-1.5396,-1.92245,2.54316,-1.40783,-0.900404,4.7236,-19.272,-7.46624,-13.3969,27.971,-8.04949,5.28535,13.47,-4.30802,2.89228,-2.36305e-14,-7.15625e-15,-30.7772,-2.49988,-80.4432,28.8422,19.3755,-18.627,2.12041,7.12502,7.66515,-27.7207,-2.36305e-14,-7.15625e-15,-31.0194,0.539612,89.2366,27.0059,-10.3154,-13.184,24.8118,7.12502,12.9158,54.3921,-14.3372,8.52323,13.7979,29.6762,-16.947,-3.88587,2.31228,-3.27783,-1.3556,-19.6753,22.3979,-17.5928,21.0234,-16.8794
-0.646438,17.7855,2.25347,4.38103,-15.7538,-0.890587,0.11289,-1.3936,-3.70853,-1.49592,-1.86813,2.50371,-1.40045,-0.874258,4.6871,-19.395,-7.38838,-13.3947,28.0641,-7.95772,5.39842,13.5289,-4.2521,2.95319,2.20527e-15,2.38542e-15,-30.8111,-2.4097,-80.4906,29.0109,19.2829,-18.6492,2.34335,7.12502,7.64373,-27.4985,2.20527e-15,2.38542e-15,-30.9361,0.558016,89.2109,26.9822,-10.4722,-13.1028,24.8414,7.12502,12.9941,54.4168,-14.4206,8.61312,13.7247,29.7401,-16.9992,-3.99166,1.98943,-3.33875,-1.26313,-19.7319,22.4018,-17.517,20.974,-17.1091
-0.637952,17.7864,2.24924,4.40949,-15.6865,-0.756928,0.196012,-1.38277,-3.77172,-1.50581,-1.85724,2.45431,-1.45825,-0.866572,4.67407,-19.3722,-7.21213,-13.3015,28.1222,-7.75704,5.45688,13.5219,-4.14897,3.00174,-5.38706e-14,-3.18055e-15,-30.8814,-2.31012,-80.5121,29.2062,19.1727,-18.6215,2.53964,7.12502,7.67046,-27.3012,-5.38706e-14,-3.18055e-15,-30.8836,0.672592,89.1878,26.924,-10.5875,-13.0644,24.9112,7.12502,13.0312,54.4842,-14.5317,8.46458,13.5511,29.776,-16.9299,-4.00344,1.43199,-3.44853,-1.1534,-19.8819,22.4222,-17.4755,20.8235,-17.2521
-0.630453,17.7865,2.24394,4.42955,-15.6088,-0.627034,0.275819,-1.38936,-3.86273,-1.52175,-1.86992,2.42016,-1.51658,-0.87011,4.6929,-19.2788,-6.95856,-13.0326,28.1549,-7.44176,5.29686,13.4571,-4.00693,2.95672,-6.85186e-15,3.57812e-15,-30.9372,-2.22278,-80.5533,29.3904,19.0591,-18.5962,2.33559,7.12502,7.6949,-27.5044,-6.85186e-15,3.57812e-15,-30.8594,0.543561,89.2243,26.8947,-10.4744,-13.1168,25.0011,7.12502,12.9806,54.5773,-14.6101,8.36055,13.3832,29.7839,-16.923,-3.9674,1.57413,-3.57127,-1.2188,-20.0334,22.4614,-17.4738,20.7896,-17.1529
-0.62506,17.7876,2.23867,4.43775,-15.5602,-0.7391,0.381365,-1.36209,-3.72705,-1.46953,-1.83453,2.44712,-1.52896,-0.854651,4.64576,-19.2605,-6.8178,-12.9146,28.1802,-7.27221,5.27466,13.4369,-3.92412,2.96164,1.53064e-14,3.18055e-15,-30.9204,-2.20756,-80.5549,29.5483,19.1164,-18.5828,2.17555,7.12502,7.70781,-27.664,1.53064e-14,3.18055e-15,-30.7496,0.4487,89.2581,26.857,-10.4749,-13.1986,25.094,7.12502,12.9017,54.6752,-14.6109,8.43539,13.4902,29.8036,-16.9878,-4.02902,1.70268,-3.59895,-1.2139,-19.915,22.4761,-17.4409,20.7408,-17.1115
-0.620558,17.7874,2.23462,4.45589,-15.5222,-0.741637,0.387056,-1.31154,-3.68993,-1.38001,-1.76656,2.43429,-1.44861,-0.824785,4.60912,-19.2058,-6.74382,-12.981,28.0707,-7.20797,5.47658,13.3834,-3.87487,3.06554,1.83752e-14,-1.70955e-14,-30.8887,-2.22333,-80.5636,29.7547,19.152,-18.7124,2.01437,7.12502,7.58277,-27.8297,1.83752e-14,-1.70955e-14,-30.5577,0.0963857,89.3655,26.8265,-10.3034,-13.5342,25.064,7.12502,12.5782,54.6654,-14.6709,8.46205,13.4743,29.8935,-17.0617,-4.03266,1.91409,-3.61798,-1.11241,-19.9083,22.4247,-17.4461,20.5903,-17.0342
-0.61354,17.7868,2.23202,4.55247,-15.4914,-0.535476,0.280757,-1.26671,-3.89118,-1.34688,-1.70581,2.41905,-1.35633,-0.79497,4.70336,-19.2879,-6.6796,-13.04,28.1702,-7.14326,5.65442,13.4448,-3.82965,3.15888,-1.18277e-14,1.94809e-14,-30.9142,-2.1314,-80.5099,30.0541,19.1272,-18.6639,1.88743,7.12502,7.62954,-27.955,-1.18277e-14,1.94809e-14,-30.4081,-0.11815,89.5151,26.7961,-10.3692,-13.6463,24.9368,7.12502,12.4702,54.5448,-14.9122,8.32426,13.1976,30.0271,-17.0629,-3.91858,2.21082,-3.76444,-1.011,-20.1421,22.3374,-17.326,20.4741,-17.2073
-0.60603,17.7864,2.22779,4.66774,-15.453,0.00188089,0.180514,-1.2789,-4.53384,-1.44168,-1.72596,2.41334,-1.37866,-0.794904,5.06156,-19.2071,-6.60157,-13.1324,28.2565,-7.0226,5.68022,13.456,-3.78711,3.21016,-8.86952e-14,1.15295e-14,-31.0509,-1.65149,-80.4462,30.3902,18.8589,-18.7482,1.76048,7.12502,7.54824,-28.0848,-8.86952e-14,1.15295e-14,-30.4939,0.0346355,89.6882,26.8553,-10.5461,-13.6015,24.832,7.12502,12.5134,54.4373,-15.2684,8.14507,12.5427,30.1456,-17.0441,-3.83051,2.19809,-4.06181,-0.855848,-20.7153,22.2846,-17.1827,20.2925,-17.3677
-0.597988,17.7865,2.22275,4.73823,-15.3765,0.294202,0.178111,-1.31485,-4.88285,-1.48907,-1.77759,2.44947,-1.4095,-0.814338,5.29899,-19.1344,-6.53347,-13.291,28.3368,-6.91332,5.77013,13.4734,-3.7481,3.29578,-4.47266e-16,-7.95139e-16,-31.1125,-1.22803,-80.4025,30.6454,18.6121,-18.8311,1.65131,7.12502,7.46821,-28.1969,-4.47266e-16,-7.95139e-16,-30.5328,0.275275,89.7908,26.899,-10.6634,-13.6314,24.7139,7.12502,12.4845,54.321,-15.47,7.95291,12.1746,30.2223,-16.9949,-3.76021,2.07863,-4.26396,-0.698424,-21.0244,22.2891,-17.0975,20.1189,-17.5177
-0.594506,17.7873,2.21856,4.74473,-15.329,-0.0381039,0.376197,-1.27241,-4.57505,-1.4675,-1.72409,2.55428,-1.5104,-0.788308,5.23817,-18.8695,-6.47365,-13.3959,28.2935,-6.90055,5.98779,13.4113,-3.72964,3.40746,-3.07992e-14,-9.54166e-15,-31.2904,-1.1105,-80.4224,30.9789,18.4549,-18.8585,1.5626,7.12502,7.44177,-28.2865,-3.07992e-14,-9.54166e-15,-30.598,0.117051,89.8602,27.0054,-10.4472,-13.5342,24.7517,7.12502,12.5782,54.353,-15.3967,8.03735,12.5456,30.2497,-17.0205,-3.87273,1.84431,-4.24585,-0.511406,-20.6465,22.3483,-17.0816,19.937,-17.5082
-0.589266,17.7879,2.21305,4.78439,-15.2992,-0.283585,0.550775,-1.18822,-4.29001,-1.47658,-1.61349,2.60845,-1.63719,-0.732435,5.13627,-18.5944,-6.42323,-13.4605,28.2736,-6.90633,6.17015,13.3558,-3.72037,3.49527,-2.99668e-14,-1.35174e-14,-31.5217,-0.975574,-80.4223,31.3341,18.2508,-18.8868,1.61731,7.12502,7.41445,-28.2328,-2.99668e-14,-1.35174e-14,-30.7213,-0.00393588,89.9389,27.1947,-10.3274,-13.3505,25.0142,7.12502,12.7553,54.6046,-15.3753,8.20874,12.7994,30.2269,-17.0725,-4.07273,1.75929,-4.32684,-0.269704,-20.3643,22.4806,-17.1329,19.6884,-17.3671
-0.581121,17.788,2.20468,4.79969,-15.2219,-0.216639,0.703267,-1.13787,-4.28211,-1.46777,-1.55168,2.58102,-1.72218,-0.69945,5.10606,-18.5225,-6.36874,-13.568,28.3731,-6.89752,6.44864,13.3969,-3.69553,3.63065,4.37947e-14,1.55052e-14,-31.657,-0.725411,-80.4642,31.7511,18.0079,-18.8812,1.5653,7.12502,7.41983,-28.2846,4.37947e-14,1.55052e-14,-30.7455,-0.0668192,89.9896,27.3134,-10.3525,-13.4131,25.0878,7.12502,12.6949,54.682,-15.4378,8.17029,12.7122,30.2019,-17.0212,-4.19282,1.33224,-4.49973,-0.051629,-20.4191,22.6388,-17.1762,19.4232,-17.4735
-0.570524,17.7892,2.19444,4.84357,-15.1128,-0.119604,0.846121,-1.11278,-4.258,-1.44828,-1.52353,2.5129,-1.78804,-0.684598,5.02399,-18.5503,-6.30344,-13.7113,28.5461,-6.91972,6.93871,13.5037,-3.66052,3.85318,-3.6303e-14,9.93923e-15,-31.7625,-0.526493,-80.567,32.167,17.8514,-18.8864,1.74583,7.12502,7.41484,-28.1042,-3.6303e-14,9.93923e-15,-30.6635,-0.26634,90.0036,27.3916,-10.3196,-13.3758,25.1979,7.12502,12.7309,54.7898,-15.5621,8.12941,12.5874,30.2386,-17.0007,-4.36144,0.779318,-4.69373,0.0587765,-20.5173,22.7287,-17.107,19.2275,-17.5256
-0.558703,17.79,2.18498,4.8931,-15.0206,0.0022208,0.931445,-1.06318,-4.23777,-1.39301,-1.46069,2.43061,-1.78881,-0.654979,4.92658,-18.5842,-6.29065,-13.7037,28.6835,-6.9915,7.19756,13.5877,-3.6594,3.94751,2.00027e-14,-3.97569e-14,-31.8246,-0.334711,-80.6481,32.5976,17.7571,-18.9609,2.00117,7.12502,7.34289,-27.8514,2.00027e-14,-3.97569e-14,-30.4692,-0.597404,90.064,27.4348,-10.2663,-13.3587,25.2651,7.12502,12.7474,54.856,-15.7155,7.99296,12.4134,30.3351,-16.97,-4.36783,0.723832,-4.87121,0.138985,-20.6617,22.7676,-16.9987,19.1376,-17.6274
-0.548349,17.7905,2.17881,4.93862,-14.9777,0.0697691,1.00336,-1.01179,-4.21945,-1.36011,-1.39439,2.40342,-1.80403,-0.622416,4.8877,-18.368,-6.23895,-13.7903,28.7076,-7.03219,7.53102,13.5745,-3.64884,4.09501,3.29983e-14,-1.74931e-14,-31.8931,-0.148113,-80.6927,32.9508,17.7222,-19.1025,2.12717,7.12502,7.20624,-27.7301,3.29983e-14,-1.74931e-14,-30.3695,-0.968819,90.1966,27.4812,-9.97467,-13.4249,25.3071,7.12502,12.6836,54.9019,-15.8496,8.01854,12.2923,30.431,-17.0063,-4.41008,1.00073,-5.00635,0.137988,-20.7616,22.8138,-17.0053,19.1235,-17.5586
-0.540695,17.7883,2.16951,4.94128,-14.9695,0.162411,1.15635,-0.972334,-4.26401,-1.34158,-1.34829,2.37665,-1.876,-0.597219,4.88736,-18.1599,-6.15565,-13.9668,28.8387,-7.03232,7.953,13.6111,-3.62207,4.30503,-2.24378e-14,2.34566e-14,-31.9612,0.0236357,-80.7807,33.3443,17.6619,-19.1963,1.78104,7.12502,7.11571,-28.0793,-2.24378e-14,2.34566e-14,-30.3007,-1.258,90.2895,27.4771,-9.78143,-13.477,25.1861,7.12502,12.6334,54.784,-15.9677,8.09448,12.1697,30.517,-17.0014,-4.47869,1.07459,-5.12828,0.302171,-20.8614,22.8841,-16.9605,18.9444,-17.6166
-0.530817,17.7882,2.15996,4.95121,-14.9508,0.208932,1.32051,-0.944115,-4.21775,-1.31729,-1.31562,2.35456,-1.94845,-0.580137,4.8406,-17.9246,-6.12366,-14.2251,28.9788,-7.09834,8.40779,13.6613,-3.63043,4.53205,1.2101e-14,-4.77083e-15,-31.967,0.270838,-80.8693,33.7085,17.4683,-19.1209,1.48172,7.12502,7.18845,-28.3762,1.2101e-14,-4.77083e-15,-30.2049,-1.37634,90.3203,27.4565,-9.66679,-13.4362,24.9732,7.12502,12.6727,54.5688,-16.0737,8.10985,12.0866,30.5738,-16.9767,-4.51698,1.01561,-5.26178,0.428589,-20.9222,22.9786,-17.0032,18.8249,-17.4815
-0.518629,17.7893,2.14911,5.01657,-14.9588,0.172352,1.4753,-0.915685,-4.1225,-1.29651,-1.28006,2.39158,-2.0192,-0.561964,4.82736,-18.1588,-6.14672,-13.8855,29.63,-7.12069,8.00247,13.9614,-3.663,4.32117,-1.83379e-14,-9.14409e-15,-31.9627,0.647244,-80.9131,34.0622,17.3546,-19.1334,1.56987,7.12502,7.17641,-28.2884,-1.83379e-14,-9.14409e-15,-30.1651,-1.32483,90.3653,27.5747,-9.43719,-13.4096,24.8929,7.12502,12.6983,54.4869,-16.2179,8.14976,12.0759,30.6187,-16.9661,-4.59015,1.29402,-5.42816,0.510792,-20.9081,23.0692,-16.996,18.7831,-17.5091
-0.504437,17.7909,2.13862,5.1086,-14.9341,0.105628,1.57999,-0.890301,-3.96749,-1.22979,-1.24515,2.41044,-2.01567,-0.548059,4.75926,-18.8793,-6.18015,-12.9763,30.7033,-7.08052,6.93594,14.4941,-3.68705,3.75112,-1.81391e-15,-1.47101e-14,-31.8907,0.887685,-80.945,34.3888,17.5769,-19.3316,1.87492,7.12502,6.98509,-27.9898,-1.81391e-15,-1.47101e-14,-30.003,-1.54553,90.4467,27.6393,-9.07245,-13.2825,25.1019,7.12502,12.8208,54.6882,-16.3615,8.12449,12.0932,30.6435,-16.918,-4.63197,1.32716,-5.62394,0.624515,-20.8588,23.1636,-16.9704,18.6329,-17.5501
-0.490455,17.7915,2.13068,5.18793,-14.8559,0.0920129,1.65435,-0.892524,-3.90818,-1.19916,-1.24799,2.46228,-2.02562,-0.550355,4.78089,-19.07,-6.11062,-12.6288,31.445,-6.97105,6.50958,14.821,-3.66787,3.55087,-5.76227e-14,3.97569e-16,-31.9172,1.17586,-80.9067,34.7946,17.8923,-19.4913,1.8468,7.12502,6.83088,-28.023,-5.76227e-14,3.97569e-16,-29.9013,-1.68635,90.59,27.7077,-8.78228,-13.2146,25.4818,7.12502,12.8863,55.0639,-16.5035,8.01322,12.0539,30.6999,-16.8612,-4.62669,1.38336,-5.80113,0.809765,-20.8485,23.2318,-16.9704,18.3463,-17.6423
-0.479729,17.7938,2.11912,5.23178,-14.7972,0.0574277,1.84752,-0.893447,-3.93521,-1.18553,-1.25415,2.56736,-2.11694,-0.550218,4.91028,-18.9701,-6.05655,-12.624,31.9397,-6.93857,6.503,15.0216,-3.66757,3.5686,7.24073e-14,1.19271e-15,-31.9305,1.70805,-80.9159,35.2452,17.8551,-19.6234,1.63092,7.12502,6.70338,-28.243,7.24073e-14,1.19271e-15,-29.8483,-1.71639,90.7617,27.7673,-8.53314,-13.2725,25.6809,7.12502,12.8305,55.2666,-16.6507,8.02867,12.0609,30.8127,-16.8447,-4.75473,1.25411,-5.93813,1.16666,-20.7875,23.2449,-16.9149,17.9275,-17.7118
-0.470782,17.7944,2.10385,5.27613,-14.7714,0.196942,1.96944,-0.871575,-4.04407,-1.14608,-1.23261,2.52305,-2.14616,-0.538076,4.92731,-18.7716,-6.06712,-12.5325,32.3176,-7.07384,6.58299,15.1683,-3.71548,3.57417,8.99501e-15,-2.42517e-14,-31.9111,2.10385,-81.0713,35.6971,17.8239,-19.967,1.4449,7.12502,6.37172,-28.4393,8.99501e-15,-2.42517e-14,-29.8093,-2.01099,90.8367,27.9352,-8.18428,-13.4347,25.6749,7.12502,12.6742,55.2704,-16.9107,7.97482,11.8782,30.9838,-16.7598,-4.82558,1.01446,-6.1186,1.61453,-20.9097,23.2356,-16.7523,17.4882,-18.007
-0.458529,17.7935,2.09249,5.36162,-14.7616,0.493931,1.78948,-0.895187,-4.07304,-0.990354,-1.26205,2.30215,-1.8847,-0.563909,4.70769,-18.5247,-6.01202,-12.3739,32.4813,-7.19209,6.84101,15.206,-3.72014,3.64359,-3.44891e-14,-1.98785e-15,-31.7091,2.48888,-81.4207,36.0771,17.9411,-20.5374,1.42851,7.12502,5.82103,-28.4715,-3.44891e-14,-1.98785e-15,-29.5862,-2.18515,90.6254,28.1052,-8.0138,-13.3295,25.573,7.12502,12.7755,55.1622,-17.2608,7.7793,11.5035,31.1793,-16.6069,-4.80138,0.596457,-6.36203,1.78071,-21.2546,23.2641,-16.6916,17.3305,-17.9234
-0.443915,17.7898,2.07673,5.46435,-14.7333,0.589312,1.9248,-0.915592,-4.18264,-0.989027,-1.29581,2.37373,-1.95199,-0.577178,4.84865,-18.2379,-5.97292,-12.3574,32.8286,-7.20763,6.83976,15.3048,-3.73877,3.6519,1.35671e-14,-2.38542e-15,-31.7541,3.07822,-81.4082,36.5562,18.0354,-21.3228,1.91024,7.12502,5.06268,-28.0093,1.35671e-14,-2.38542e-15,-29.5782,-2.17753,90.7738,28.212,-7.87028,-13.3361,25.3866,7.12502,12.7692,54.9761,-17.6007,7.61587,11.3441,31.4151,-16.4919,-4.74259,0.561273,-6.59117,1.84389,-21.3876,23.3032,-16.6601,17.2267,-17.8013
-0.431674,17.7899,2.05435,5.56485,-14.7041,0.482277,2.19211,-0.895429,-4.03416,-0.958941,-1.27231,2.44018,-2.07549,-0.564296,4.83848,-18.0355,-6.00974,-12.408,33.2429,-7.34263,6.9342,15.4811,-3.80276,3.69065,4.70623e-14,-1.47101e-14,-31.7014,3.24486,-81.3684,37.0461,18.27,-22.2903,2.91351,7.12502,4.12844,-27.0262,4.70623e-14,-1.47101e-14,-29.495,-2.37564,90.909,28.2679,-7.65066,-13.6148,25.1984,7.12502,12.5005,54.8045,-17.9105,7.57648,11.4252,31.6613,-16.3702,-4.79133,0.454343,-6.79279,1.82327,-21.2905,23.3511,-16.6662,17.174,-17.9081
-0.420448,17.7932,2.03317,5.68175,-14.7224,0.454203,2.43968,-0.845987,-3.94847,-0.906559,-1.21104,2.45652,-2.16889,-0.533261,4.80934,-18.0238,-6.07375,-12.3467,33.7561,-7.51989,6.97381,15.7494,-3.87473,3.67853,-4.37326e-15,-7.95139e-16,-31.5897,3.20418,-81.314,37.604,18.7525,-22.9538,3.60096,7.12502,3.48774,-26.3503,-4.37326e-15,-7.95139e-16,-29.3239,-2.64065,91.0127,28.3298,-7.47524,-13.6514,25.094,7.12502,12.4652,54.7023,-18.2417,7.55407,11.4071,31.8949,-16.3082,-4.81205,0.541744,-7.06564,2.04791,-21.2687,23.4459,-16.5884,17.0067,-18.2423
-0.406284,17.7958,2.02005,5.81514,-14.7532,0.474714,2.57124,-0.822122,-3.88493,-0.820326,-1.18073,2.46568,-2.15821,-0.520922,4.78318,-17.9399,-6.12954,-12.2297,34.1091,-7.68501,6.96334,15.918,-3.93885,3.63319,3.27995e-14,3.57812e-15,-31.4846,3.46168,-81.304,38.2741,19.0836,-23.4589,3.58421,7.12502,2.99991,-26.3744,3.27995e-14,3.57812e-15,-29.1045,-2.9766,91.1153,28.4366,-7.23714,-13.4835,25.3382,7.12502,12.6271,54.9365,-18.5805,7.30926,11.3316,32.1387,-16.1821,-4.6895,0.0505711,-7.34803,2.24919,-21.3319,23.5577,-16.5688,16.8644,-18.3151
-0.391443,17.7976,2.00555,5.99928,-14.8043,0.453589,2.62057,-0.82494,-3.81642,-0.759462,-1.18221,2.53686,-2.12279,-0.524334,4.81875,-17.5698,-6.10434,-12.2171,34.2954,-7.74508,7.02607,15.9328,-3.96648,3.65881,-4.60683e-14,-8.74653e-15,-31.2966,3.76154,-81.2658,38.7704,19.4263,-24.0748,3.26633,7.12502,2.40508,-26.6999,-4.60683e-14,-8.74653e-15,-28.9191,-3.07781,91.2016,28.4842,-7.25763,-13.3065,25.1819,7.12502,12.7978,54.7697,-19.0118,7.08551,11.2945,32.412,-16.0596,-4.53164,0.576851,-7.66522,2.43022,-21.3608,23.663,-16.507,16.7862,-18.545
-0.378204,17.7978,1.98384,6.09351,-14.8561,0.460335,2.78845,-0.825257,-3.78199,-0.6308,-1.18502,2.60574,-2.08332,-0.529427,4.87296,-17.3864,-6.09561,-12.2681,34.6147,-7.80833,7.13061,16.0655,-3.99637,3.71505,-1.5704e-14,-2.06736e-14,-30.9335,3.97495,-81.1841,39.2506,19.7862,-24.4479,2.96065,7.12502,2.04483,-27.0093,-1.5704e-14,-2.06736e-14,-28.6846,-3.17863,91.2893,28.5985,-7.28579,-13.2658,25.1008,7.12502,12.8369,54.6861,-19.4103,7.00405,11.2524,32.7092,-15.9429,-4.53567,1.03546,-7.93023,2.54992,-21.4005,23.7926,-16.4768,16.7008,-18.4177
-0.365236,17.7968,1.96147,6.19141,-14.9001,0.453382,2.98475,-0.818501,-3.71771,-0.465638,-1.17849,2.65074,-2.02419,-0.531573,4.88492,-17.3411,-6.13541,-12.238,34.958,-7.95347,7.2223,16.2513,-4.04818,3.73407,-7.45443e-15,1.82882e-14,-30.5481,4.10169,-81.1251,39.9067,20.1512,-24.6028,2.66302,7.12502,1.89521,-27.3083,-7.45443e-15,1.82882e-14,-28.4708,-3.44949,91.3753,28.9118,-7.03674,-13.466,25.2264,7.12502,12.6439,54.8237,-19.8196,6.78271,11.2432,33.0356,-15.8106,-4.43892,1.37636,-8.21262,2.74378,-21.4148,23.9463,-16.4783,16.5018,-18.3038
-0.352462,17.7929,1.93921,6.30119,-14.9782,0.475544,3.23822,-0.826478,-3.71196,-0.380677,-1.19507,2.70705,-2.07606,-0.540058,4.9456,-17.0853,-6.15289,-12.1974,35.2261,-8.07998,7.27848,16.3442,-4.09962,3.74022,6.17226e-14,2.62396e-14,-30.346,4.27947,-81.0745,40.6529,20.6337,-24.8616,2.54797,7.12502,1.64521,-27.4254,6.17226e-14,2.62396e-14,-28.4276,-3.70616,91.4692,29.2507,-6.82227,-13.6361,25.4314,7.12502,12.4799,55.0387,-20.2847,6.4638,11.2181,33.4125,-15.6537,-4.28994,1.16753,-8.52938,3.03491,-21.4512,24.0993,-16.5143,16.2428,-18.2184
-0.339916,17.7913,1.91763,6.44188,-15.0573,0.615102,3.45981,-0.846687,-3.83539,-0.30561,-1.2326,2.75373,-2.11542,-0.557702,5.07042,-16.9339,-6.16224,-12.1399,35.4844,-8.14615,7.23844,16.4431,-4.13342,3.71043,4.80065e-14,-1.27222e-14,-30.052,4.46314,-80.9771,41.233,21.0355,-25.3035,2.64531,7.12502,1.21842,-27.331,4.80065e-14,-1.27222e-14,-28.3218,-4.0758,91.6248,29.5676,-6.54837,-13.6375,25.5111,7.12502,12.4786,55.1185,-20.832,6.12442,11.0752,33.8183,-15.4957,-4.26357,1.06592,-8.90118,3.3413,-21.6272,24.2383,-16.471,15.9788,-18.1278
-0.328168,17.7912,1.89566,6.60761,-15.17,0.753094,3.64236,-0.831091,-3.90411,-0.19394,-1.21988,2.76831,-2.10244,-0.553184,5.12672,-16.8442,-6.18799,-12.057,35.6872,-8.21969,7.16978,16.5267,-4.16722,3.65875,-3.58806e-14,1.59028e-14,-29.7582,4.64106,-80.8903,41.9379,21.3366,-25.7775,2.24539,7.12502,0.760684,-27.733,-3.58806e-14,1.59028e-14,-28.2312,-4.76913,91.8038,29.9816,-6.11332,-13.5745,25.4199,7.12502,12.5394,55.0236,-21.4187,5.90442,10.9103,34.225,-15.4288,-4.2394,1.48792,-9.28833,3.67194,-21.8152,24.3812,-16.3996,15.716,-17.7515
-0.318621,17.7927,1.87259,6.79993,-15.3371,0.82558,3.82238,-0.800354,-3.94286,-0.0715275,-1.18513,2.81605,-2.07942,-0.538449,5.19936,-16.7483,-6.203,-11.9958,35.8881,-8.2608,7.08005,16.6039,-4.19328,3.60786,7.65321e-15,-3.18055e-15,-29.4356,4.80026,-80.7987,42.6831,21.7708,-26.2998,1.78997,7.12502,0.256203,-28.1896,7.65321e-15,-3.18055e-15,-28.1137,-5.29623,91.9467,30.3464,-5.90622,-13.7393,25.3707,7.12502,12.3804,54.9841,-22.0502,5.79807,10.786,34.6534,-15.3433,-4.11327,2.81918,-9.66575,3.88056,-21.9453,24.4966,-16.3648,15.6439,-17.7745
-0.309575,17.7908,1.84903,6.95079,-15.4855,0.863395,4.02857,-0.767451,-3.95264,0.0837741,-1.14666,2.88995,-2.03762,-0.523396,5.28275,-16.5962,-6.19231,-11.9864,36.0106,-8.273,7.06362,16.6303,-4.20448,3.60352,-6.81831e-14,-4.77083e-15,-29.1335,4.95971,-80.6772,43.4589,22.3613,-26.8976,1.4405,7.12502,-0.321227,-28.539,-6.81831e-14,-4.77083e-15,-27.9356,-5.75667,92.0872,30.6162,-5.65376,-14.1153,25.0739,7.12502,12.0179,54.7089,-22.6301,5.59495,10.7269,35.0936,-15.3088,-4.00371,3.85795,-9.99535,4.12305,-22.0304,24.625,-16.3186,15.5292,-17.8854
-0.297697,17.7879,1.82185,7.11013,-15.6061,1.05937,4.26963,-0.776356,-4.09853,0.210259,-1.17179,2.95443,-2.03497,-0.53731,5.43871,-16.4347,-6.14481,-12.0138,36.0504,-8.20976,7.04825,16.603,-4.18831,3.61884,-1.47101e-14,-1.59028e-15,-28.7657,5.27366,-80.5294,44.2599,22.8944,-27.3546,0.99411,7.12502,-0.76261,-28.9843,-1.47101e-14,-1.59028e-15,-27.7525,-6.00306,92.227,30.9186,-5.4654,-14.3399,25.0495,7.12502,11.8013,54.697,-23.2755,5.37974,10.498,35.5596,-15.3223,-4.06447,4.04359,-10.4237,4.3431,-22.2922,24.7896,-16.2694,15.4277,-18.0628
-0.286943,17.7865,1.7944,7.36325,-15.719,1.23133,4.60095,-0.789785,-4.20038,0.194835,-1.20405,3.00851,-2.22972,-0.546298,5.56388,-16.1353,-6.14448,-11.9809,36.0786,-8.22663,6.9483,16.5379,-4.21166,3.57093,9.93923e-16,5.56597e-15,-28.5082,5.52884,-80.427,44.9979,23.3693,-27.8505,0.887601,7.12502,-1.24148,-29.0885,9.93923e-16,5.56597e-15,-27.872,-6.26282,92.3475,31.4352,-5.32421,-14.3206,25.3255,7.12502,11.8199,54.9719,-24.0362,5.08879,10.3466,36.0352,-15.2456,-4.29915,3.3904,-10.9924,4.46014,-22.5223,25.0314,-16.2788,15.3499,-17.9277
-0.278483,17.7795,1.76581,7.59792,-15.9003,1.34996,4.83203,-0.786523,-4.23817,0.288036,-1.20881,3.02968,-2.26108,-0.549488,5.61222,-15.9628,-6.22336,-12.01,36.1339,-8.39782,7.01943,16.5552,-4.28206,3.57862,1.27222e-14,0,-28.126,5.69458,-80.4153,45.671,23.7565,-28.6603,0.938544,7.12502,-2.02367,-29.0316,1.27222e-14,0,-27.8037,-6.65629,92.352,31.9024,-5.11765,-14.139,25.3967,7.12502,11.9951,55.033,-24.8132,4.82035,10.2871,36.509,-15.057,-4.60393,1.89048,-11.5625,4.70532,-22.696,25.3201,-16.3095,15.3196,-18.1515
-0.272576,17.7706,1.73421,7.78955,-15.9979,1.42308,5.06755,-0.781656,-4.19641,0.509478,-1.2076,3.05029,-2.1644,-0.55732,5.61205,-16.0828,-6.30488,-12.008,36.2225,-8.5456,7.09467,16.6573,-4.33013,3.58325,3.93594e-14,-3.57812e-14,-27.5807,5.77792,-80.3671,46.4273,24.2987,-29.233,0.324218,7.12502,-2.57673,-29.64,3.93594e-14,-3.57812e-14,-27.5268,-7.20794,92.3517,32.3228,-4.80379,-14.103,25.4934,7.12502,12.0298,55.1277,-25.4695,4.56328,10.2994,36.9414,-15.0044,-4.91698,1.14394,-12.1234,5.12102,-22.804,25.6634,-16.3147,15.0824,-18.4519
-0.266244,17.767,1.70608,8.07531,-16.0454,1.45131,5.24601,-0.766928,-4.01234,0.713786,-1.18347,3.06204,-2.05947,-0.55455,5.51857,-16.2146,-6.34211,-11.986,36.2447,-8.61911,7.16329,16.7152,-4.34346,3.59427,-2.38542e-14,-7.95139e-16,-27.0522,5.66634,-80.2684,47.1731,24.9392,-29.6812,-0.118161,7.12502,-3.00957,-30.0767,-2.38542e-14,-7.95139e-16,-27.2311,-7.92079,92.3735,32.6839,-4.43058,-14.2617,25.4442,7.12502,11.8767,55.0874,-26.1577,4.27097,10.3453,37.2958,-15.0611,-5.07349,1.22314,-12.7948,5.37353,-22.8694,26.0676,-16.3498,14.8821,-18.4363
-0.258602,17.7622,1.68051,8.39651,-16.0849,1.62751,5.38536,-0.777083,-3.97544,0.830994,-1.19927,3.06971,-2.01481,-0.566679,5.50806,-16.1453,-6.43713,-12.0036,36.1959,-8.77242,7.18665,16.6978,-4.40524,3.57652,-2.64384e-14,-2.8625e-14,-26.6285,5.721,-80.1749,47.9142,25.3404,-30.2224,-0.38327,7.12502,-3.53221,-30.3337,-2.64384e-14,-2.8625e-14,-27.0475,-8.45171,92.406,33.0375,-4.21306,-14.4537,25.2908,7.12502,11.6916,54.9446,-26.903,3.94676,10.2167,37.5684,-15.1777,-5.10638,0.785745,-13.5434,5.48047,-23.1135,26.4981,-16.4274,14.7884,-18.4446
-0.252757,17.7579,1.6531,8.70121,-16.0724,1.64433,5.65364,-0.791769,-3.79746,0.948456,-1.21503,3.13631,-2.04374,-0.577595,5.48218,-16.058,-6.55031,-12.0342,36.1054,-8.94355,7.2009,16.6572,-4.47698,3.55221,-3.57812e-15,3.97569e-15,-26.2013,5.81186,-80.0406,48.654,25.5825,-30.5965,-1.03573,7.12502,-3.89348,-30.9799,-3.57812e-15,3.97569e-15,-26.8939,-8.9691,92.4361,33.4111,-4.09085,-14.4238,25.2755,7.12502,11.7204,54.9276,-27.551,3.65095,10.2965,37.7541,-15.2682,-5.07466,-0.502371,-14.2526,5.70944,-23.1655,26.9324,-16.4301,14.5686,-18.5539
-0.249218,17.7515,1.62726,8.93546,-16.0688,1.66283,5.92054,-0.796072,-3.57588,1.16189,-1.21433,3.19208,-1.97571,-0.585213,5.41728,-16.1695,-6.61155,-12.062,36.0233,-9.0117,7.22758,16.6559,-4.49872,3.55051,-1.17283e-14,-6.36111e-15,-25.6696,5.86495,-79.8893,49.4031,25.772,-30.941,-1.78421,7.12502,-4.22612,-31.722,-1.17283e-14,-6.36111e-15,-26.6204,-9.39278,92.4085,33.7791,-4.07771,-14.4964,25.0328,7.12502,11.6504,54.6889,-28.1041,3.3879,10.3827,37.8786,-15.3578,-4.7368,-0.996203,-14.8699,6.03014,-23.2237,27.3714,-16.422,14.3078,-18.8967
-0.249275,17.7457,1.60275,9.19519,-16.043,1.69735,6.09158,-0.824453,-3.41396,1.38243,-1.24649,3.26772,-1.84108,-0.610529,5.40724,-16.2958,-6.59948,-12.0117,35.9306,-8.96833,7.19804,16.6265,-4.47087,3.53218,-5.725e-14,-5.48646e-14,-25.1429,6.06002,-79.7354,50.1558,25.8957,-31.6028,-2.00444,7.12502,-4.86518,-31.9286,-5.725e-14,-5.48646e-14,-26.3523,-9.81218,92.3835,34.1595,-3.87126,-14.6417,25.1363,7.12502,11.5103,54.8002,-28.6485,3.14386,10.4524,37.9471,-15.5639,-4.09705,-0.764848,-15.5033,6.30619,-23.2869,27.8201,-16.5123,13.9773,-18.7982
-0.249444,17.7388,1.57456,9.46808,-15.9198,1.81766,6.40689,-0.91615,-3.43124,1.48488,-1.37459,3.41261,-1.89161,-0.675692,5.58584,-16.301,-6.49996,-11.9032,35.8521,-8.75598,6.98164,16.5339,-4.39413,3.45707,-7.43455e-14,4.21423e-14,-24.7695,6.41569,-79.5468,50.8813,25.854,-32.3183,-2.28532,7.12502,-5.5561,-32.1925,-7.43455e-14,4.21423e-14,-26.2544,-10.003,92.428,34.5733,-3.60776,-14.8901,25.2029,7.12502,11.2707,54.8801,-29.2104,2.84911,10.4424,37.9616,-15.7731,-3.50049,-0.698438,-16.2047,6.4528,-23.4265,28.2606,-16.545,13.6838,-18.7492
-0.247808,17.7285,1.5476,9.74173,-15.7861,2.05448,6.76121,-0.997655,-3.48822,1.52083,-1.49268,3.50238,-2.03351,-0.731609,5.73205,-16.1473,-6.45766,-11.8462,35.6863,-8.66794,6.86516,16.3865,-4.36524,3.41139,-7.95139e-15,-1.11319e-14,-24.4986,6.63808,-79.3917,51.5692,25.6158,-32.6621,-2.95619,7.12502,-5.88797,-32.8544,-7.95139e-15,-1.11319e-14,-26.2435,-10.214,92.4653,34.988,-3.41735,-15.0733,25.3128,7.12502,11.094,54.9996,-29.8002,2.42966,10.3236,37.9135,-15.8575,-3.03916,-1.97834,-16.9346,6.66549,-23.729,28.6949,-16.5368,13.39,-18.8203
-0.251026,17.7195,1.52147,9.94954,-15.6493,2.08945,7.19122,-1.0321,-3.27101,1.62214,-1.53025,3.59167,-2.16693,-0.750132,5.71643,-16.0253,-6.48426,-11.9668,35.5103,-8.71889,7.00371,16.2911,-4.38288,3.48169,2.38542e-14,-4.29375e-14,-24.1638,6.71175,-79.2138,52.2074,25.4628,-33.0964,-3.37,7.12502,-6.30726,-33.2561,2.38542e-14,-4.29375e-14,-26.1745,-10.472,92.4478,35.3548,-3.30384,-15.2623,25.297,7.12502,10.9118,54.9935,-30.2285,2.2176,10.4286,37.7894,-16.0195,-2.76434,-3.00954,-17.5436,6.9153,-23.7773,29.1169,-16.4964,13.102,-19.2753
-0.256307,17.7118,1.49599,10.099,-15.4959,2.07243,7.57778,-1.06978,-2.9569,1.84532,-1.56415,3.66659,-2.1532,-0.773729,5.62637,-16.0284,-6.53435,-12.0369,35.2847,-8.80036,7.14413,16.2025,-4.40169,3.5336,1.47101e-14,4.92986e-14,-23.6278,6.72097,-79.035,52.8228,25.6572,-33.6086,-3.39652,7.12502,-6.80177,-33.2673,1.47101e-14,4.92986e-14,-25.9356,-10.6908,92.3338,35.656,-3.33513,-15.3689,24.9256,7.12502,10.8089,54.6275,-30.5335,2.12983,10.5809,37.5958,-16.1906,-2.57308,-3.40921,-18.0425,7.11214,-23.7383,29.5081,-16.521,12.8157,-19.4678
-0.261759,17.7038,1.4718,10.3003,-15.3947,2.07913,7.89082,-1.12801,-2.74193,2.09886,-1.63037,3.77991,-2.05918,-0.815523,5.63388,-16.2833,-6.58312,-11.9502,35.1769,-8.82033,7.05247,16.2005,-4.39967,3.46541,-3.33958e-14,-2.38542e-15,-23.0348,6.96344,-78.8326,53.5349,25.8853,-34.1577,-3.80661,7.12502,-7.33182,-33.6596,-3.33958e-14,-2.38542e-15,-25.6811,-10.9274,92.225,36.0855,-3.27933,-15.5646,24.7262,7.12502,10.6202,54.4378,-30.8916,2.09555,10.6795,37.3952,-16.2027,-2.43626,-3.90434,-18.5491,7.36703,-23.7506,29.8219,-16.5265,12.504,-19.8081
-0.269942,17.6963,1.44594,10.4537,-15.3622,2.18174,8.31326,-1.15334,-2.65043,2.27599,-1.6615,3.88775,-2.10542,-0.834247,5.70916,-16.3527,-6.59133,-11.8974,35.0034,-8.77216,6.92544,16.1111,-4.38277,3.4034,-7.95139e-15,-2.22639e-14,-22.7156,7.44576,-78.5929,54.4048,26.067,-34.6941,-4.62366,7.12502,-7.84956,-34.4579,-7.95139e-15,-2.22639e-14,-25.6084,-11.227,92.181,36.5858,-3.08837,-15.6143,24.7881,7.12502,10.5722,54.5022,-31.2583,2.22148,10.6073,37.2407,-16.1793,-2.37985,-3.7768,-18.9863,7.69904,-23.8672,30.0734,-16.5553,12.1291,-19.8494
-0.278055,17.6902,1.42342,10.5495,-15.3925,2.48228,8.71802,-1.13845,-2.67971,2.41299,-1.64921,3.93288,-2.18647,-0.829127,5.78385,-16.3181,-6.61089,-12.0186,34.7979,-8.75424,6.95657,16.008,-4.3829,3.4369,5.1684e-15,-3.57812e-14,-22.4893,7.7653,-78.2805,55.1606,26.2905,-35.3045,-4.70817,7.12502,-8.43863,-34.5196,5.1684e-15,-3.57812e-14,-25.6167,-11.4253,92.1923,37.0286,-2.96684,-15.7294,24.5902,7.12502,10.4612,54.3099,-31.643,2.37884,10.2639,37.2268,-15.926,-2.3093,-3.1263,-19.3524,8.01949,-24.2054,30.2678,-16.5886,11.7765,-19.5081
-0.28609,17.6866,1.40075,10.6822,-15.3918,2.56334,9.12418,-1.12376,-2.51856,2.60958,-1.61936,4.06419,-2.21107,-0.818617,5.83772,-16.4042,-6.67289,-12.0878,34.5944,-8.78129,6.93346,15.9347,-4.3983,3.42586,-5.40694e-14,2.54444e-14,-22.0617,7.87683,-77.9392,55.7806,26.6804,-35.976,-4.62168,7.12502,-9.08666,-34.4059,-5.40694e-14,2.54444e-14,-25.3679,-11.764,92.1653,37.31,-2.75408,-15.7927,24.432,7.12502,10.4002,54.1547,-31.9745,2.63386,10.1061,37.3384,-15.5057,-2.23182,-0.592971,-19.7483,8.27298,-24.3029,30.4906,-16.5349,11.5339,-19.7951
-0.296217,17.6788,1.37008,10.8118,-15.2886,2.74042,9.6716,-1.14304,-2.40037,2.76654,-1.63813,4.13964,-2.349,-0.828392,5.8683,-16.4835,-6.72132,-12.0548,34.4539,-8.81591,6.87524,15.8829,-4.4094,3.38244,-1.35174e-14,0,-21.7114,7.94298,-77.7087,56.5311,26.9768,-36.3185,-5.19817,7.12502,-9.41716,-34.9678,-1.35174e-14,0,-25.0574,-12.337,92.0314,37.6065,-2.2318,-16.0548,24.4075,7.12502,10.1473,54.1428,-32.3289,2.91469,9.83042,37.5912,-15.1193,-2.36108,2.79506,-20.2463,8.55279,-24.4865,30.7738,-16.4774,11.1528,-19.8189
-0.30744,17.6675,1.33836,11.0472,-15.2286,2.84968,10.1215,-1.1409,-2.14818,2.92392,-1.61366,4.20187,-2.44162,-0.817786,5.7998,-16.5738,-6.7658,-11.9508,34.2668,-8.83219,6.73936,15.7986,-4.41268,3.29529,-2.14687e-14,6.36111e-15,-21.2428,7.91146,-77.5033,57.1687,27.3741,-36.4389,-5.69105,7.12502,-9.53326,-35.4554,-2.14687e-14,6.36111e-15,-24.8237,-12.899,91.9164,38.0334,-1.71828,-16.3032,24.5004,7.12502,9.90768,54.2472,-32.795,3.14784,9.65795,37.8851,-14.9306,-2.8318,4.35347,-20.864,8.77525,-24.6108,31.1636,-16.5108,10.856,-19.6459
-0.319993,17.6535,1.30622,11.2742,-15.2334,2.90549,10.6016,-1.13846,-1.90462,3.0841,-1.58617,4.31325,-2.54569,-0.805752,5.78928,-16.4996,-6.793,-12.0032,33.9032,-8.83336,6.7528,15.6081,-4.41266,3.30271,-3.02153e-14,1.74931e-14,-20.6764,7.91222,-77.2862,57.581,27.9843,-36.8965,-5.97174,7.12502,-9.97474,-35.7154,-3.02153e-14,1.74931e-14,-24.7332,-13.1631,91.8349,38.5676,-1.31156,-16.4008,24.3499,7.12502,9.81349,54.1012,-33.2856,3.40165,9.55972,38.1752,-14.9241,-3.60824,3.62981,-21.483,9.085,-24.6942,31.6056,-16.6132,10.5794,-19.4375
-0.333457,17.6424,1.27204,11.4389,-15.1282,3.01304,11.2057,-1.17174,-1.6708,3.24165,-1.60379,4.41389,-2.7147,-0.814627,5.78356,-16.5249,-6.80306,-12.0301,33.6136,-8.8045,6.74939,15.4719,-4.3976,3.30414,8.74653e-15,4.77083e-15,-20.2507,7.95716,-77.0793,58.2001,28.5024,-37.3371,-6.51574,7.12502,-10.3998,-36.2385,8.74653e-15,4.77083e-15,-24.6107,-13.2499,91.7208,39.0414,-1.01846,-16.4408,24.3319,7.12502,9.77489,54.0851,-33.6815,3.58538,9.41541,38.3903,-14.9212,-4.22907,3.1388,-22.0968,9.42184,-24.8219,32.0705,-16.5468,10.2045,-19.5282
-0.346129,17.6347,1.23742,11.5081,-14.8938,3.19273,11.9839,-1.20344,-1.50225,3.42346,-1.62054,4.57826,-2.94848,-0.822348,5.89063,-16.8508,-6.86117,-11.9769,33.449,-8.7584,6.51602,15.4456,-4.38855,3.19239,2.54444e-14,-4.6118e-14,-19.9196,8.00852,-76.6696,59.032,28.8199,-37.7157,-6.7642,7.12502,-10.765,-36.4684,2.54444e-14,-4.6118e-14,-24.4939,-13.5165,91.7499,39.6435,-0.587986,-16.4932,24.4806,7.12502,9.72436,54.2361,-33.953,3.52912,9.2648,38.5386,-14.737,-4.45698,2.68561,-22.6267,9.62151,-24.9863,32.5342,-16.564,9.77824,-19.2643
-0.356854,17.6239,1.20381,11.5865,-14.7016,3.46995,12.5597,-1.2468,-1.19309,3.71395,-1.64451,4.55368,-2.96585,-0.839541,5.70565,-17.1104,-6.91684,-11.8387,33.0891,-8.82161,6.53028,15.3332,-4.38169,3.14882,-3.97569e-15,0,-19.4062,7.8417,-76.4463,59.7645,29.1587,-37.9635,-7.15999,7.12502,-11.0041,-36.8516,-3.97569e-15,0,-24.2023,-13.9683,91.5432,40.2658,-0.261512,-16.711,24.4701,7.12502,9.51423,54.2353,-34.2729,3.38253,9.00726,38.6548,-14.4538,-4.2476,3.03476,-23.2081,9.88557,-25.2822,33.0044,-16.5995,9.29018,-19.1639
-0.368167,17.6123,1.17072,11.8071,-14.6043,3.63763,13.1064,-1.27226,-0.950609,3.92618,-1.6424,4.69015,-3.04356,-0.841663,5.72899,-17.116,-6.93922,-11.9476,32.5361,-8.78734,6.59218,15.0805,-4.36323,3.18846,-5.80451e-14,3.02153e-14,-18.836,7.74607,-76.0947,60.3263,29.5623,-38.2974,-7.37886,7.12502,-11.3261,-37.053,-5.80451e-14,3.02153e-14,-23.976,-14.1014,91.5545,40.7692,-0.201141,-17.0033,24.3225,7.12502,9.23219,54.1004,-34.7546,3.36699,8.80427,38.8057,-14.3349,-3.96778,4.3591,-23.9134,10.1537,-25.4993,33.4939,-16.6217,8.90447,-19.2298
-0.379628,17.599,1.1317,11.991,-14.4286,3.71141,13.715,-1.3815,-0.533778,4.10995,-1.722,4.82373,-3.18054,-0.882646,5.66593,-16.7331,-6.91205,-12.2681,31.7505,-8.71959,6.86359,14.6594,-4.33628,3.36194,3.33958e-14,-3.97569e-14,-18.3926,7.77232,-75.8489,60.9673,29.8458,-38.6527,-7.42652,7.12502,-11.6688,-37.0816,3.33958e-14,-3.97569e-14,-23.8272,-14.3924,91.5879,41.1851,0.0808471,-17.6636,24.2675,7.12502,8.59499,54.0725,-35.1931,3.4196,8.6965,39.0367,-14.4167,-3.99417,5.59534,-24.5955,10.3064,-25.5704,34.0187,-16.5842,8.53783,-19.1433
-0.393388,17.5826,1.09344,12.0767,-14.3067,3.888,14.6089,-1.47465,-0.416583,4.14317,-1.79797,5.07841,-3.61567,-0.914213,5.92493,-16.5176,-6.90037,-12.7491,31.393,-8.57297,6.94363,14.4666,-4.31996,3.50122,1.90833e-14,1.59028e-14,-18.0492,8.24542,-75.3891,61.4365,30.0207,-39.0967,-7.60363,7.12502,-12.0969,-37.2339,1.90833e-14,1.59028e-14,-23.9494,-14.3487,91.8084,41.7474,0.366175,-18.0158,24.4665,7.12502,8.25509,54.2853,-35.6018,3.45194,8.53439,39.3464,-14.4415,-4.18638,5.19971,-25.205,10.5753,-25.7527,34.5513,-16.5137,8.10035,-19.0078
-0.40684,17.5688,1.0564,12.2167,-14.2031,4.05231,15.2529,-1.52795,-0.0833136,4.39592,-1.80963,5.1476,-3.70247,-0.923599,5.83248,-16.905,-6.97002,-12.7058,31.2126,-8.59093,6.87339,14.4677,-4.31695,3.4485,4.21423e-14,4.77083e-15,-17.2332,8.3073,-75.1065,61.6023,30.246,-39.6659,-7.94409,7.12502,-12.6457,-37.5413,4.21423e-14,4.77083e-15,-23.783,-14.4236,91.6479,42.5422,0.419929,-18.1541,24.5798,7.12502,8.12157,54.4038,-36.105,3.42549,8.38703,39.7108,-14.2872,-4.1423,4.83336,-25.8454,10.9386,-25.9576,35.0693,-16.4655,7.57807,-18.8301
-0.421948,17.5582,1.01845,12.3927,-14.1683,4.27922,15.8681,-1.48761,0.174853,4.70105,-1.71096,5.18542,-3.72562,-0.879848,5.72642,-17.2554,-7.08526,-12.593,30.8271,-8.69384,6.82366,14.3762,-4.33695,3.37279,-2.3059e-14,4.6118e-14,-16.4269,8.03608,-74.8204,61.9533,30.3785,-40.2337,-8.14168,7.12502,-13.1931,-37.7042,-2.3059e-14,4.6118e-14,-23.4105,-14.6615,91.4859,43.2375,0.293144,-18.4003,24.2636,7.12502,7.88396,54.0966,-36.7009,3.39041,8.15796,40.1054,-14.2322,-4.00494,5.27604,-26.5152,11.2508,-26.2566,35.5612,-16.3722,7.26794,-19.1539
-0.437431,17.545,0.978835,12.6123,-14.1196,4.58683,16.4234,-1.45754,0.380989,4.98297,-1.63263,5.21652,-3.73531,-0.845547,5.64383,-17.3811,-7.17112,-12.4978,30.2524,-8.78186,6.82247,14.1541,-4.35058,3.32479,-1.51076e-14,2.54444e-14,-15.7145,7.72112,-74.5266,62.4377,30.6389,-40.5668,-8.44157,7.12502,-13.5141,-37.9831,-1.51076e-14,2.54444e-14,-22.9387,-15.0475,91.3371,43.8579,0.300709,-18.6755,24.1138,7.12502,7.61838,53.9566,-37.3524,3.29191,7.8751,40.4904,-14.2906,-4.05073,5.19004,-27.2629,11.4718,-26.6305,36.037,-16.2301,6.96594,-19.3896
-0.452748,17.5306,0.937444,12.9241,-14.0745,4.92633,16.9565,-1.45574,0.498276,5.17232,-1.59701,5.30815,-3.82093,-0.829977,5.68762,-17.5884,-7.25723,-12.5316,29.928,-8.79789,6.70531,14.0553,-4.36484,3.26801,1.82882e-14,-3.49861e-14,-15.0794,7.54393,-74.1714,62.9183,31.1206,-40.9202,-8.52319,7.12502,-13.8547,-38.0417,1.82882e-14,-3.49861e-14,-22.6655,-15.16,91.3196,44.6212,0.319734,-19.0216,24.1682,7.12502,7.28425,54.0228,-38.094,3.07992,7.59692,40.85,-14.2714,-4.14493,4.35306,-28.1785,11.7153,-27.0676,36.5506,-15.9597,6.56359,-19.3227
-0.467971,17.5228,0.89412,13.2057,-14.1194,5.35378,17.6704,-1.40589,0.511009,5.29251,-1.50668,5.35281,-4.07839,-0.783483,5.74003,-17.858,-7.38926,-12.4894,29.6557,-8.89243,6.5584,13.9964,-4.40726,3.17127,-7.79236e-14,3.33958e-14,-14.5556,7.34246,-73.8557,63.3878,31.5892,-41.7639,-8.70427,7.12502,-14.6677,-38.1655,-7.79236e-14,3.33958e-14,-22.4273,-15.3474,91.3104,45.3032,0.459976,-19.4271,24.1941,7.12502,6.89288,54.0619,-38.8373,2.92626,7.18475,41.1899,-14.1965,-4.0962,4.60177,-29.129,11.9997,-27.6135,37.1442,-15.696,6.07322,-18.8898
-0.483251,17.5158,0.848851,13.4592,-14.1937,5.77192,18.4065,-1.32456,0.595832,5.48993,-1.36875,5.33981,-4.27103,-0.715642,5.67532,-18.1443,-7.51902,-12.4113,29.2635,-9.04639,6.59708,13.9041,-4.44585,3.13081,-5.08889e-14,1.11319e-14,-13.954,7.06778,-73.545,63.8599,31.8475,-42.7546,-9.12813,7.12502,-15.622,-38.5173,-5.08889e-14,1.11319e-14,-21.9773,-15.8625,91.2209,45.9028,0.882792,-19.9729,24.1332,7.12502,6.36598,54.0175,-39.5528,2.82345,6.76433,41.4908,-14.1672,-4.016,5.07418,-30.1486,12.4451,-28.1793,37.8476,-15.3304,5.44009,-18.7748
-0.500223,17.505,0.801287,13.7735,-14.2539,6.10534,19.1488,-1.27361,0.754718,5.65419,-1.2522,5.35622,-4.49846,-0.657849,5.60393,-18.4464,-7.60542,-12.2113,28.9399,-9.09733,6.38405,13.8106,-4.46059,2.98904,-9.38264e-14,3.65764e-14,-13.4683,6.9137,-73.2172,64.4052,32.0917,-43.3458,-9.4257,7.12502,-16.1913,-38.7695,-9.38264e-14,3.65764e-14,-21.6616,-16.2851,91.1458,46.639,1.28731,-20.4048,24.0225,7.12502,5.94898,53.919,-40.2908,2.71242,6.45649,41.7165,-14.0777,-4.03918,5.20933,-31.2744,12.9322,-28.6655,38.646,-14.8487,4.74093,-19.1974
-0.518583,17.4984,0.751798,14.0479,-14.2628,6.47691,20.0816,-1.25611,0.797506,5.75341,-1.18404,5.43197,-4.88389,-0.620807,5.68497,-18.5965,-7.6731,-12.2316,28.5434,-9.1051,6.29239,13.6703,-4.46902,2.94445,1.43125e-14,-5.40694e-14,-12.969,6.774,-72.886,64.8532,32.6501,-43.8792,-9.5953,7.12502,-16.7049,-38.8965,1.43125e-14,-5.40694e-14,-21.4059,-16.4772,91.1348,47.3451,1.48751,-20.5742,23.9296,7.12502,5.78542,53.8306,-40.9665,2.65072,6.0956,41.9013,-13.9476,-4.16467,5.42852,-32.4752,13.3012,-29.122,39.5513,-14.3331,3.94753,-19.0615
-0.536033,17.5035,0.708979,14.2649,-14.3048,6.82106,20.9576,-1.22948,0.9178,5.9672,-1.09763,5.48806,-5.11625,-0.579247,5.68848,-18.8218,-7.78081,-12.2631,28.0451,-9.18005,6.29276,13.5177,-4.49304,2.92284,4.45278e-14,-1.27222e-13,-12.302,6.52336,-72.5572,65.2346,33.1222,-44.3492,-9.41499,7.12502,-17.1574,-38.6775,4.45278e-14,-1.27222e-13,-20.9167,-16.8498,91.0431,48.0178,1.74996,-20.5373,24.0518,7.12502,5.82104,53.9519,-41.5267,2.62113,5.75959,42.0761,-13.8461,-4.20583,5.82381,-33.6619,13.6291,-29.4759,40.5306,-13.7809,3.03232,-17.9334
-0.554252,17.4967,0.663852,14.5377,-14.2697,7.04594,21.7644,-1.21355,1.22259,6.25847,-0.99109,5.55311,-5.22943,-0.531591,5.58324,-19.3297,-7.94957,-12.2253,27.6166,-9.34043,6.31697,13.4613,-4.53738,2.87643,8.90555e-14,-1.11319e-14,-11.4065,6.13844,-72.1954,65.5559,33.4253,-44.7645,-9.50835,7.12502,-17.5571,-38.7356,8.90555e-14,-1.11319e-14,-20.1796,-17.2603,90.8796,48.6438,2.0734,-20.578,24.1374,7.12502,5.78175,54.0386,-42.1287,2.52094,5.5724,42.2772,-13.7214,-4.26182,5.89814,-34.8421,14.0289,-29.737,41.5595,-12.9731,2.02055,-17.225
-0.572921,17.4795,0.617036,14.9196,-14.2207,7.27457,22.5377,-1.17649,1.50497,6.44554,-0.849053,5.6683,-5.43585,-0.464242,5.5377,-19.6173,-8.17143,-12.5593,27.2222,-9.5854,6.65974,13.4269,-4.62117,3.00669,4.77083e-14,-3.18055e-14,-10.65,5.76611,-71.7461,65.9148,33.7954,-45.2332,-10.5902,7.12502,-18.008,-39.7765,4.77083e-14,-3.18055e-14,-19.5441,-17.6463,90.8662,49.2151,2.36884,-20.8345,23.989,7.12502,5.53412,53.8967,-42.8879,2.39878,5.36063,42.5307,-13.6246,-4.33559,6.02617,-36.1189,14.4045,-30.0528,42.6301,-12.1034,0.992054,-17.3712
-0.591658,17.466,0.573568,15.313,-14.2088,7.51987,23.2528,-1.1572,1.67344,6.64356,-0.75274,5.81655,-5.5906,-0.420068,5.60318,-19.8231,-8.34638,-13.001,26.7867,-9.75406,7.07313,13.3628,-4.67585,3.19811,4.77083e-14,-2.38542e-14,-9.94856,5.52423,-71.2855,66.365,34.0445,-45.6282,-11.2231,7.12502,-18.3881,-40.374,4.77083e-14,-2.38542e-14,-18.871,-17.9289,90.8544,49.6945,2.55773,-21.1078,23.7631,7.12502,5.27029,53.6776,-43.7087,2.33089,5.11559,42.8759,-13.6077,-4.47458,5.8178,-37.3957,14.6454,-30.3064,43.7412,-11.3338,-0.038775,-17.8144
-0.613661,17.4474,0.524609,15.7295,-14.1522,7.89976,24.0175,-1.13549,1.64652,6.79677,-0.689075,5.96609,-5.81135,-0.389363,5.79619,-20.1013,-8.45761,-13.1385,26.3566,-9.80228,7.10683,13.2589,-4.6946,3.21041,-1.27222e-14,-1.59028e-14,-9.21372,5.36855,-70.7374,66.7195,34.1475,-46.0155,-10.9099,7.12502,-18.7606,-40.0252,-1.27222e-14,-1.59028e-14,-18.1886,-18.1875,90.8359,50.2076,2.60748,-21.1037,23.6663,7.12502,5.2742,53.5806,-44.6099,2.16849,4.76068,43.2469,-13.5726,-4.56871,6.21393,-38.7261,14.7981,-30.6414,44.829,-10.6171,-1.10623,-19.2357
-0.639232,17.421,0.463308,16.3449,-13.8928,8.30515,24.7001,-1.14609,1.64461,6.91683,-0.659563,6.1292,-6.02175,-0.374099,5.99815,-20.4947,-8.53655,-12.9469,25.8414,-9.80702,6.85985,13.0996,-4.69481,3.06348,3.18055e-14,-6.36111e-14,-8.279,5.11882,-70.2045,66.9225,34.2697,-46.4122,-10.8213,7.12502,-19.1421,-39.8993,3.18055e-14,-6.36111e-14,-17.3152,-18.4964,90.78,50.6963,2.7433,-21.1377,23.8877,7.12502,5.24142,53.8028,-45.6923,1.82299,4.41938,43.5846,-13.5054,-4.7508,6.73655,-40.3528,14.6931,-30.9619,45.8161,-9.77095,-1.98844,-20.4403
-0.653976,17.4036,0.427448,16.8282,-14.037,8.61035,25.2045,-1.06415,1.91152,7.2385,-0.487195,6.117,-5.93595,-0.29829,5.78906,-20.9513,-8.68559,-12.7642,25.252,-9.9843,6.89361,12.9617,-4.73384,2.99345,-2.54444e-14,1.90833e-14,-7.15677,4.58958,-69.7414,67.0503,34.4149,-46.683,-11.0498,7.12502,-19.4025,-40.1018,-2.54444e-14,1.90833e-14,-16.262,-19.0444,90.5449,51.2126,2.88654,-21.1387,23.9943,7.12502,5.24045,53.9095,-46.598,1.63564,4.11077,43.8203,-13.4058,-4.65586,7.45836,-41.6579,14.686,-31.1731,46.5958,-9.28344,-2.46339,-20.9872
-0.665404,17.4003,0.398457,17.3821,-14.3001,8.85813,25.6006,-0.915282,2.15751,7.5167,-0.2345,6.14852,-5.84668,-0.183204,5.61298,-21.3592,-8.84444,-12.6364,24.7202,-10.1647,6.91399,12.8412,-4.78405,2.92871,4.92986e-14,-3.97569e-14,-6.09747,4.05467,-69.1495,67.0791,34.5319,-46.9587,-11.2068,7.12502,-19.6676,-40.2319,4.92986e-14,-3.97569e-14,-15.3138,-19.6532,90.4511,51.6683,2.82522,-21.397,23.7355,7.12502,4.99107,53.6567,-47.5014,1.4121,3.86207,43.9957,-13.2513,-4.38478,7.8662,-42.8248,14.614,-31.3057,47.1266,-9.22637,-2.69245,-21.6416
-0.671796,17.4066,0.379009,17.9638,-14.6863,9.19596,25.9104,-0.78359,2.22839,7.69543,-0.0432534,6.19587,-5.81671,-0.0954192,5.57364,-21.6479,-8.92787,-12.6203,24.3348,-10.1981,6.84101,12.7411,-4.79729,2.87947,1.74931e-14,6.20208e-14,-5.19155,3.89441,-68.4863,67.0563,34.6222,-47.4741,-11.712,7.12502,-20.163,-40.6856,1.74931e-14,6.20208e-14,-14.6211,-19.9766,90.5254,52.1053,2.78172,-21.7156,23.2968,7.12502,4.68336,53.225,-48.4073,1.01742,3.57614,44.1082,-12.9773,-3.93844,8.17552,-43.8309,14.4639,-31.5549,47.4198,-9.57396,-2.66762,-21.8817
-0.680041,17.3951,0.346527,18.5824,-14.8789,9.60693,26.4524,-0.740474,2.31519,7.78602,0.0597767,6.21353,-5.99054,-0.046562,5.52837,-22.0149,-9.00237,-12.5944,23.9467,-10.24,6.86141,12.6617,-4.79993,2.86129,-3.97569e-14,-9.54166e-15,-4.29648,3.74923,-67.9547,67.0585,34.6811,-47.9158,-12.3312,7.12502,-20.5875,-41.2595,-3.97569e-14,-9.54166e-15,-13.7911,-20.1387,90.42,52.4954,2.3088,-21.9487,22.8805,7.12502,4.45826,52.8136,-49.4131,0.528526,3.27197,44.2367,-12.6528,-3.7106,7.99964,-44.8956,13.9768,-31.7311,47.5123,-10.0358,-2.49994,-20.4935
-0.69186,17.3696,0.29816,19.2109,-14.8373,9.7916,27.3085,-0.714855,2.66152,7.87754,0.235441,6.31473,-6.31892,0.0361792,5.41327,-22.4904,-9.14439,-12.5849,23.5303,-10.3966,7.0217,12.6152,-4.83349,2.87378,-3.18055e-15,1.27222e-14,-3.1678,3.26293,-67.4137,66.822,35.0627,-48.2992,-12.8961,7.12502,-20.9559,-41.7841,-3.18055e-15,1.27222e-14,-12.6996,-20.3292,90.194,52.9213,0.912355,-21.7605,22.6404,7.12502,4.63999,52.5695,-50.4567,0.247041,3.17841,44.4565,-12.4526,-3.81099,7.84551,-45.9897,13.2737,-31.4743,47.4398,-10.3445,-1.9564,-18.7346
-0.699134,17.351,0.259741,19.7747,-14.9473,9.90901,28.1388,-0.662644,3.01502,8.0225,0.447858,6.45312,-6.57213,0.133007,5.31943,-22.8694,-9.29711,-12.7023,23.0023,-10.5133,7.13416,12.5066,-4.87006,2.89732,-1.27222e-14,6.20208e-14,-1.91843,2.87636,-66.721,66.3552,35.5059,-48.983,-13.3283,7.12502,-21.6127,-42.1422,-1.27222e-14,6.20208e-14,-11.62,-20.4897,90.1488,53.2898,-0.0884816,-21.6973,22.6396,7.12502,4.70102,52.5675,-51.4385,0.137374,3.07433,44.7307,-12.3496,-3.83809,7.91551,-46.8691,12.6991,-31.1677,47.1963,-10.7489,-0.647695,-18.7605
-0.713321,17.3294,0.201467,20.8836,-15.0097,10.4004,28.4247,-0.557986,2.86411,7.95181,0.576159,6.55593,-6.80191,0.196859,5.49314,-23.0586,-9.40797,-12.7653,22.3568,-10.6035,7.23138,12.3086,-4.89774,2.91666,-1.59028e-14,-1.27222e-14,-0.783463,2.51804,-66.1007,65.9383,35.8037,-49.5747,-13.575,7.12502,-22.1809,-42.3225,-1.59028e-14,-1.27222e-14,-10.6995,-20.9642,90.1956,53.5828,-0.0410953,-22.6451,22.7337,7.12502,3.78578,52.6798,-53.1114,-0.299698,2.58808,45.0354,-12.2097,-3.97767,8.02596,-48.4531,11.9555,-31.3756,46.7047,-11.0117,0.87699,-19.0359
-0.725082,17.2992,0.15294,22.355,-15.8868,10.9106,28.2163,-0.107469,2.28364,7.84172,0.97378,6.48489,-6.86575,0.390562,5.6136,-23.0797,-9.51391,-12.7927,21.6702,-10.7488,7.4321,12.076,-4.93861,2.96391,9.54166e-15,-3.33958e-14,0.270925,2.14737,-65.5219,65.4768,35.8694,-50.1193,-13.6959,7.12502,-22.7036,-42.3803,9.54166e-15,-3.33958e-14,-9.93179,-21.671,90.2209,53.8737,0.0850775,-23.4891,22.8081,7.12502,2.97072,52.7672,-55.4351,-0.443471,1.92181,45.2473,-11.6935,-4.02267,7.23161,-50.4207,11.7521,-31.9279,45.9663,-11.1382,2.27144,-17.5376
-0.727621,17.2855,0.128991,23.0366,-16.3443,11.4286,28.6446,0.018443,2.17635,7.91145,1.11272,6.3972,-7.00632,0.456121,5.53877,-23.2868,-9.57907,-12.721,21.1956,-10.8198,7.48829,11.9378,-4.95243,2.9515,7.95139e-14,7.95139e-14,1.5602,1.79618,-64.9514,64.6747,36.16,-50.7117,-14.1302,7.12502,-23.2721,-42.7438,7.95139e-14,7.95139e-14,-9.10466,-22.2811,90.2134,54.1839,0.833174,-23.6293,22.6546,7.12502,2.83537,52.6155,-56.6148,-0.720234,1.38626,45.3756,-11.3075,-3.97029,6.47113,-51.1572,11.2428,-32.1036,44.961,-11.1779,3.60839,-16.3874
-0.726534,17.2852,0.116676,23.3024,-16.6561,11.5708,29.4055,0.00879063,2.58261,8.19149,1.22685,6.36753,-7.05424,0.500418,5.24059,-23.6942,-9.64861,-12.6625,20.8196,-10.8499,7.4641,11.8657,-4.9544,2.91369,3.81667e-14,1.43125e-14,3.12632,1.33794,-64.4025,63.6565,36.4785,-51.0126,-14.452,7.12502,-23.5607,-43.0288,3.81667e-14,1.43125e-14,-8.02424,-22.7925,90.0824,54.4409,1.40304,-23.6376,22.4535,7.12502,2.82736,52.4145,-57.1157,-0.796752,1.27346,45.3992,-11.0612,-3.8758,5.52694,-51.1407,10.7785,-31.6616,43.7975,-11.1791,5.17264,-16.5712
-0.722497,17.2869,0.105455,23.3517,-16.7648,11.5804,30.2724,-0.136921,3.35983,8.64731,1.2714,6.33183,-6.93043,0.507716,4.74148,-24.1371,-9.80714,-12.7546,20.2454,-11.0128,7.73678,11.7692,-4.99003,2.98283,4.45278e-14,3.81667e-14,5.03465,0.656085,-63.8963,62.3602,36.7764,-51.3453,-14.4315,7.12502,-23.8798,-42.967,4.45278e-14,3.81667e-14,-6.53905,-23.0993,89.745,54.7071,1.33232,-23.4929,22.374,7.12502,2.9671,52.3331,-57.2638,-0.760672,1.24886,45.3954,-11.0038,-3.89219,5.09616,-50.8201,10.2075,-30.9541,42.5148,-10.955,6.97436,-18.2123
-0.71459,17.2767,0.0926065,23.6002,-16.9916,11.7799,30.8804,-0.242563,3.87875,9.01906,1.2894,6.28875,-6.77695,0.508384,4.39032,-24.4229,-9.91532,-12.8796,19.6309,-11.0864,7.92153,11.6152,-5.00453,3.04592,-6.99722e-14,6.36111e-15,7.01127,0.00682551,-63.3898,60.8633,37.0761,-51.7562,-14.4209,7.12502,-24.2738,-42.9042,-6.99722e-14,6.36111e-15,-5.07122,-23.1591,89.4996,55.1104,1.33124,-23.3038,22.8135,7.12502,3.14971,52.77,-57.7645,-0.830452,0.987417,45.456,-10.8766,-3.88246,5.12809,-50.7723,9.66764,-30.5881,41.1922,-10.4622,8.29337,-19.5675
-0.707599,17.2554,0.0800141,24.1959,-17.4747,12.0599,31.2544,-0.145542,4.04133,9.16829,1.46225,6.25101,-6.78309,0.585668,4.19548,-24.6363,-9.99068,-12.8479,19.1745,-11.1266,7.85924,11.4777,-5.02459,3.00206,3.49861e-14,-1.20861e-13,8.73332,-0.591286,-62.7881,59.2392,37.1504,-52.2075,-13.8468,7.12502,-24.7064,-42.2715,3.49861e-14,-1.20861e-13,-3.89067,-23.5489,89.4676,55.4234,1.6745,-23.4214,23.1804,7.12502,3.0361,53.1385,-58.7818,-0.851404,0.522686,45.5974,-10.7467,-3.81144,5.62929,-51.1041,9.29172,-30.4924,39.8899,-9.99339,8.90062,-19.9716
-0.702715,17.231,0.069977,24.8543,-17.9397,12.2891,31.5414,0.00212256,4.212,9.31661,1.69652,6.24571,-6.75104,0.691756,4.00819,-24.9349,-10.0968,-12.75,18.7355,-11.2157,7.76206,11.3609,-5.06405,2.92365,-7.31528e-14,-2.70347e-14,10.3905,-1.2969,-62.0992,57.5706,37.3662,-52.5033,-13.9391,7.12502,-24.9899,-42.3248,-7.31528e-14,-2.70347e-14,-2.65999,-24.3008,89.4446,55.546,2.09412,-23.4814,23.4291,7.12502,2.97817,53.388,-59.8785,-0.92938,0.150238,45.8049,-10.6507,-3.69345,6.13263,-51.4955,9.05793,-30.4132,38.6245,-9.371,8.87958,-20.3154
-0.695509,17.2086,0.0644247,25.4832,-18.2896,12.5657,31.7212,0.0610094,4.4078,9.50883,1.82129,6.28815,-6.61268,0.747294,3.89823,-25.2645,-10.1867,-12.7643,18.2573,-11.2371,7.67064,11.2348,-5.08073,2.87758,6.36111e-15,9.22361e-14,12.386,-1.98852,-61.4138,55.5023,37.813,-52.6105,-14.532,7.12502,-25.0926,-42.9033,6.36111e-15,9.22361e-14,-1.25885,-24.9236,89.4567,55.4915,2.46142,-23.9459,23.5792,7.12502,2.52959,53.544,-60.9095,-1.163,-0.197339,46.0445,-10.5393,-3.55288,6.27458,-51.9015,8.83512,-30.4078,37.4211,-8.35499,8.51224,-20.7468
-0.686252,17.1862,0.0588089,26.1467,-18.5346,12.7005,32.511,0.0130973,4.81538,9.09497,1.95719,6.48807,-6.80169,0.770301,3.59138,-25.366,-10.2476,-12.961,17.8515,-11.2089,7.66497,11.1086,-5.08272,2.90768,-5.08889e-14,-6.83819e-14,14.3769,-2.50222,-60.7416,53.0108,38.1065,-52.5744,-14.8473,7.12502,-25.058,-43.2234,-5.08889e-14,-6.83819e-14,-0.259471,-25.5148,89.6576,55.522,3.14176,-24.9361,23.4807,7.12502,1.57326,53.4546,-61.8942,-1.37746,-0.388143,46.2695,-10.4731,-3.48408,6.45093,-52.3272,8.60352,-30.2626,36.3272,-6.99875,8.03152,-20.5568
-0.676299,17.1597,0.0520414,26.6515,-18.6884,12.8314,33.4269,-0.0613039,5.13963,8.8515,2.07732,6.62796,-7.4127,0.809595,3.52781,-25.365,-10.2572,-13.1149,17.5547,-11.1038,7.48513,10.9824,-5.07018,2.88541,-3.18055e-15,-1.24042e-13,16.2476,-2.87884,-60.0719,50.2982,38.2786,-52.5758,-14.6454,7.12502,-25.0593,-43.0214,-3.18055e-15,-1.24042e-13,0.483251,-25.6676,89.9753,55.4424,2.40809,-24.6474,23.2909,7.12502,1.85208,53.2626,-62.6814,-1.58414,-0.575076,46.4755,-10.4063,-3.35926,7.05763,-52.6304,8.42911,-30.1753,35.3948,-5.74558,7.44759,-20.6868
-0.65901,17.1364,0.0528992,27.2506,-18.9835,12.8519,33.9845,-0.0380915,5.4774,8.76916,2.28127,6.78938,-7.7098,0.890052,3.4494,-25.4923,-10.2948,-13.2439,17.2213,-11.0261,7.29539,10.8658,-5.06593,2.84691,2.54444e-14,3.57812e-14,18.2634,-3.45651,-59.3553,47.4862,38.3867,-52.4308,-14.2067,7.12502,-24.9204,-42.602,2.54444e-14,3.57812e-14,1.50342,-26.0083,90.3063,55.1195,1.86186,-24.6498,22.7935,7.12502,1.84982,52.7653,-63.5739,-1.78165,-0.651286,46.6338,-10.2101,-3.17625,7.18808,-53.0059,8.333,-30.0906,34.6824,-5.03177,7.19571,-20.423
-0.646329,17.1181,0.0502414,27.732,-19.4437,12.8965,34.2098,-0.108238,6.04245,9.01775,2.32898,6.46621,-7.46365,0.91292,2.7941,-25.7633,-10.2522,-12.7504,16.6949,-11.0751,7.26331,10.6894,-5.05542,2.74544,1.90833e-14,-1.35174e-14,20.6465,-4.79899,-59.6471,44.4124,39.1853,-52.1729,-13.8345,7.12502,-24.6732,-42.2639,1.90833e-14,-1.35174e-14,3.129,-26.7373,89.6944,54.7557,1.56099,-23.9653,22.5494,7.12502,2.51092,52.5144,-64.393,-1.85341,-0.77,46.7589,-10.0142,-3.01089,6.90369,-53.3038,8.54855,-30.2489,34.1761,-4.71442,7.09517,-20.6848
-0.637243,17.0953,0.0425196,28.311,-20.0251,12.8979,34.5483,0.0957102,6.05747,9.13529,2.59625,6.50514,-7.46516,1.03014,2.73167,-26.1676,-10.2936,-12.5805,16.4068,-11.0691,7.02461,10.6228,-5.06346,2.62361,3.81667e-14,-3.18055e-15,22.8296,-5.9782,-59.5946,41.4439,40.2419,-51.8979,-13.2384,7.12502,-24.4096,-41.7035,3.81667e-14,-3.18055e-15,4.42704,-27.1765,89.7028,54.505,1.10808,-22.2909,22.2866,7.12502,4.12782,52.2264,-65.3594,-1.8416,-0.894082,46.8367,-9.78538,-2.85851,6.52807,-53.7884,8.91496,-30.4961,33.904,-4.63499,7.05834,-22.3366
-0.629587,17.0765,0.0336961,28.9016,-20.4231,12.9491,34.7832,-0.0280446,6.56219,9.21605,2.57707,6.12142,-7.4008,1.02313,2.07066,-26.4141,-10.2237,-12.1276,15.9992,-11.1112,7.12514,10.498,-5.03851,2.57939,-1.27222e-14,8.34896e-14,24.9193,-7.43396,-60.4026,38.5232,40.9986,-51.4839,-11.4962,7.12502,-24.0127,-40.0141,-1.27222e-14,8.34896e-14,5.81334,-27.8394,88.9365,54.318,0.803744,-21.4362,22.0449,7.12502,4.95318,51.967,-66.2439,-1.93524,-1.02653,46.8899,-9.51025,-2.73211,6.40076,-54.3346,9.23888,-30.8546,33.7814,-4.83015,6.74115,-23.2249
-0.620284,17.063,0.0243666,29.5308,-20.7347,13.0148,35.1249,-0.0580663,6.83698,9.12353,2.66052,6.03322,-7.60165,1.05262,1.804,-26.4893,-10.1607,-11.9614,15.6649,-11.0425,7.05066,10.3658,-5.00718,2.54067,-5.40694e-14,-6.52014e-14,26.8976,-8.64927,-60.8916,35.6942,41.2183,-50.6916,-9.98035,7.12502,-23.2527,-38.5964,-5.40694e-14,-6.52014e-14,6.96161,-28.3714,88.6659,54.1207,0.589239,-21.2718,22.1238,7.12502,5.11196,52.0421,-67.1332,-2.122,-1.14616,46.9528,-9.2577,-2.58241,6.47415,-54.9699,9.54439,-31.3191,33.7359,-5.20941,6.07611,-22.8453
-0.610005,17.0505,0.0233393,30.0585,-21.0973,13.0976,35.3732,0.193866,6.61122,9.17295,2.94623,6.43278,-7.68205,1.17268,2.23912,-26.8575,-10.2,-12.1311,15.4825,-10.8866,6.65236,10.3257,-4.98913,2.44255,-2.8625e-14,2.78299e-14,29.043,-9.73468,-60.7471,33.059,40.9451,-49.6785,-9.26492,7.12502,-22.2805,-38.0005,-2.8625e-14,2.78299e-14,8.15758,-28.6929,89.1943,53.8837,0.391013,-21.2488,22.2355,7.12502,5.13409,52.1533,-67.8897,-2.34148,-1.24263,47.0211,-9.08727,-2.29834,6.94823,-55.473,9.7455,-31.7253,33.6517,-5.56184,5.55331,-22.7393
-0.605137,17.0367,0.0177377,30.4715,-21.3737,13.271,35.851,0.220218,6.64798,9.0986,3.03998,6.45573,-7.81345,1.20494,2.25634,-27.3146,-10.1585,-11.9584,15.4048,-10.7779,6.41295,10.3348,-4.9494,2.33878,-5.725e-14,-2.3059e-14,31.1546,-11.3582,-61.7047,30.5616,41.1637,-48.7062,-9.34938,7.12502,-21.3469,-38.1936,-5.725e-14,-2.3059e-14,9.31693,-29.1964,89.2453,53.6697,0.289856,-21.6392,22.1847,7.12502,4.75718,52.1113,-68.5109,-2.57653,-1.41317,47.1001,-9.0613,-2.08221,7.97014,-55.9076,9.94663,-32.225,33.4988,-5.65929,5.15734,-23.0678
-0.602746,17.0279,0.0111781,30.8092,-21.5941,13.4716,36.3389,0.263803,6.64502,9.11219,3.14111,6.52442,-7.97899,1.24137,2.29136,-27.7669,-10.1665,-11.8605,15.2933,-10.7381,6.30023,10.3499,-4.93079,2.27909,-4.13472e-14,-4.77083e-14,33.2922,-13.2794,-63.0871,28.4095,41.7207,-47.7705,-9.3167,7.12502,-20.4479,-38.26,-4.13472e-14,-4.77083e-14,10.6553,-29.8335,89.1358,53.3352,0.503895,-22.0818,22.2217,7.12502,4.32979,52.1574,-69.0501,-2.78049,-1.6111,47.1752,-8.99907,-1.96238,8.26792,-56.2953,10.0466,-32.6552,33.292,-5.6008,5.00368,-22.8979
-0.601525,17.0202,0.00554331,31.1566,-21.7183,13.7056,36.6885,0.264437,6.73807,9.20493,3.1921,6.50606,-7.99092,1.261,2.2043,-28.324,-10.1642,-11.5284,15.0638,-10.7578,6.18395,10.3298,-4.92456,2.17045,1.27222e-14,1.27222e-14,35.1353,-14.8909,-64.3053,27.1478,41.5145,-46.7608,-9.29468,7.12502,-19.4774,-38.3391,1.27222e-14,1.27222e-14,12.3443,-30.698,88.5407,52.9985,0.706248,-22.5603,22.3569,7.12502,3.86767,52.3016,-69.5714,-3.00964,-1.86172,47.2426,-8.91079,-1.93251,8.81384,-56.7389,9.98192,-33.0208,33.1268,-5.48378,4.86139,-22.6053
-0.601475,17.0086,0.00150469,31.5591,-21.6959,13.8728,37.1516,0.275242,6.80163,9.12879,3.29621,6.64142,-8.24465,1.29549,2.27376,-28.6004,-10.1296,-11.3227,14.8194,-10.7261,6.08948,10.263,-4.90618,2.10668,2.22639e-14,6.99722e-14,36.2984,-15.9442,-64.9061,26.6162,40.914,-46.0084,-9.53622,7.12502,-18.7538,-38.6522,2.22639e-14,6.99722e-14,13.7376,-31.4955,88.2564,52.6536,0.620741,-22.9306,22.5258,7.12502,3.51008,52.4767,-70.0668,-3.25511,-2.0411,47.2955,-8.8733,-2.029,8.9717,-57.3019,9.97249,-33.428,33.0502,-5.31262,4.57152,-22.5733
-0.604382,16.9911,0.00287378,32.035,-21.6486,14.0119,37.5162,0.363784,6.70469,9.01972,3.44999,6.91663,-8.52607,1.35186,2.5555,-28.7545,-10.0743,-11.3144,14.552,-10.6233,6.08531,10.1795,-4.85846,2.12196,-1.59028e-14,-3.97569e-15,36.932,-16.5002,-64.9443,26.8161,40.224,-45.6311,-10.5084,7.12502,-18.3908,-39.6591,-1.59028e-14,-3.97569e-15,15.1875,-32.1792,88.1295,52.1897,1.11866,-22.5507,22.6282,7.12502,3.87695,52.5727,-70.6339,-3.50777,-2.17387,47.3316,-8.78324,-2.18034,8.68465,-58.0507,10.274,-34.1407,33.076,-5.13877,3.97731,-22.5904
-0.606633,16.9802,0.00419023,32.4721,-21.6252,14.1891,37.7663,0.518133,6.45928,8.96722,3.61755,7.23127,-8.72312,1.41933,2.95096,-28.9551,-9.97856,-11.2041,14.3106,-10.4813,5.99073,10.0979,-4.79697,2.09571,1.27222e-14,9.54166e-15,37.223,-16.8026,-64.7443,27.7273,39.4923,-45.4933,-11.4081,7.12502,-18.2583,-40.5712,1.27222e-14,9.54166e-15,16.7363,-32.7803,88.1015,51.6409,1.82394,-21.9741,22.8007,7.12502,4.4338,52.7343,-71.1384,-3.65291,-2.46997,47.3517,-8.77882,-2.44405,8.14601,-58.7399,10.4377,-34.7911,33.1823,-4.95886,3.56947,-22.3637
-0.607366,16.9734,0.00543073,32.9546,-21.5622,14.3195,37.7123,0.531542,6.45008,9.02321,3.63514,7.36817,-8.65554,1.42774,3.09643,-29.1302,-9.84079,-11.0787,14.0957,-10.3429,6.1277,10.0377,-4.70721,2.15013,6.36111e-15,-8.07066e-14,37.3329,-16.9669,-64.7374,29.1234,38.5556,-45.9449,-11.0382,7.12502,-18.6927,-40.1601,6.36111e-15,-8.07066e-14,18.4587,-33.3428,87.7586,50.9815,2.21677,-21.7021,22.5681,7.12502,4.69644,52.496,-71.6064,-3.77326,-2.7754,47.3507,-8.87008,-2.75507,8.05984,-59.4209,10.442,-35.2636,33.2987,-4.86943,3.31578,-22.1275
-0.605302,16.9673,0.00607737,33.3899,-21.4494,14.3586,37.7941,0.498638,6.59329,9.01707,3.66697,7.46459,-8.68811,1.43765,3.11367,-29.1413,-9.68371,-10.8547,13.7794,-10.2215,6.21151,9.90804,-4.63053,2.17268,3.18055e-15,-6.04305e-14,37.0291,-16.9306,-64.5454,31.0173,37.7533,-46.3933,-10.7538,7.12502,-19.124,-39.8335,3.18055e-15,-6.04305e-14,20.0968,-33.9707,87.3035,50.4135,2.75774,-21.3063,22.4739,7.12502,5.0786,52.393,-71.9776,-3.83222,-3.01467,47.3256,-8.97503,-3.04817,7.90272,-60.0087,10.4854,-35.637,33.3812,-4.80579,3.03047,-22.442
-0.602458,16.9589,0.00575449,33.8156,-21.4194,14.4035,37.782,0.50697,6.65727,9.06801,3.69933,7.53021,-8.62817,1.45185,3.13922,-29.101,-9.52296,-10.7063,13.3135,-10.0835,6.38544,9.72531,-4.5421,2.24382,-1.08139e-13,-1.18078e-13,36.4365,-16.747,-64.1406,33.4109,37.3311,-46.5867,-11.4838,7.12502,-19.3099,-40.545,-1.08139e-13,-1.18078e-13,21.831,-34.5161,86.8066,49.8215,3.2207,-21.0302,22.5015,7.12502,5.34514,52.4141,-72.3851,-3.82528,-3.32253,47.3181,-9.02859,-3.32678,7.92978,-60.5798,10.5937,-36.0575,33.4197,-4.74406,2.73338,-22.2813
-0.597114,16.9492,0.00985556,34.3197,-21.3923,14.3402,37.6671,0.487273,6.79147,9.13446,3.70423,7.55137,-8.50431,1.4555,3.09272,-29.1142,-9.26546,-10.4002,12.8343,-9.8482,6.46663,9.52535,-4.41081,2.27439,6.36111e-15,7.39479e-14,35.6052,-16.3549,-63.6164,36.1541,37.0407,-46.8375,-12.2744,7.12502,-19.551,-41.3114,6.36111e-15,7.39479e-14,23.5601,-34.9482,86.2295,49.2056,3.39838,-20.9445,22.3875,7.12502,5.42797,52.298,-72.8585,-3.77872,-3.52565,47.3373,-9.14909,-3.61273,7.58246,-61.1924,10.7798,-36.4089,33.4417,-4.73762,2.34142,-21.8964
-0.592544,16.9337,0.0156137,34.7795,-21.4001,14.3492,37.5803,0.633649,6.68527,9.17827,3.85065,7.74697,-8.45716,1.52147,3.3006,-29.2824,-9.11579,-10.285,12.5662,-9.65147,6.42439,9.43032,-4.31779,2.27652,5.08889e-14,3.57812e-14,34.5485,-15.9788,-62.731,39.1117,36.9544,-47.1929,-12.5354,7.12502,-19.8927,-41.5373,5.08889e-14,3.57812e-14,25.1836,-35.4779,85.9242,48.6491,3.44692,-20.7288,22.8158,7.12502,5.63617,52.7208,-73.3324,-3.70323,-3.87495,47.4059,-9.34911,-3.92999,7.80235,-61.7223,10.9263,-36.7813,33.4117,-4.81131,1.90259,-21.7603
-0.588075,16.9197,0.0167693,35.1264,-21.3549,14.3282,37.6405,0.646593,6.73654,9.17722,3.89481,7.7868,-8.47967,1.53894,3.29953,-29.3418,-8.86811,-10.1092,12.3047,-9.38059,6.49805,9.32029,-4.17463,2.32622,-5.725e-14,-6.55989e-14,33.6305,-15.7658,-62.4867,41.8557,37.345,-47.7571,-12.5508,7.12502,-20.435,-41.4955,-5.725e-14,-6.55989e-14,26.5531,-35.9699,85.5053,48.2636,3.47636,-20.5427,23.1502,7.12502,5.81591,53.0504,-73.6707,-3.55369,-4.22307,47.499,-9.56123,-4.28863,7.88919,-62.1167,11.0331,-37.02,33.35,-4.86181,1.5157,-21.1737
-0.581823,16.9131,0.0183715,35.4734,-21.3009,14.3022,37.6577,0.624161,6.8064,9.18325,3.8984,7.83171,-8.47701,1.53873,3.31067,-29.5299,-8.59013,-9.99226,12.0981,-9.02029,6.50386,9.24101,-3.99781,2.37312,3.18055e-15,5.48646e-14,32.8419,-15.6245,-62.4486,44.5112,38.006,-48.191,-12.5637,7.12502,-20.8519,-41.4631,3.18055e-15,5.48646e-14,28.0135,-36.408,84.9759,47.8616,3.52272,-20.2998,23.2971,7.12502,6.05039,53.1907,-73.9902,-3.40664,-4.57128,47.6026,-9.8169,-4.68686,7.7026,-62.5108,11.1857,-37.3402,33.2528,-4.90566,1.04306,-21.6638
-0.574178,16.9064,0.0222626,35.8254,-21.318,14.34,37.7267,0.587672,6.83987,9.10271,3.87731,7.77028,-8.58154,1.52664,3.23464,-29.7656,-8.18799,-9.65022,11.9603,-8.55103,6.37215,9.16792,-3.7732,2.35489,-2.22639e-14,1.04163e-13,31.8767,-15.4464,-62.4852,47.2498,38.5901,-48.5287,-12.3286,7.12502,-21.1764,-41.192,-2.22639e-14,1.04163e-13,29.4044,-36.7921,84.3141,47.4581,3.50976,-20.1421,23.3822,7.12502,6.20261,53.2714,-74.3534,-3.35408,-4.91478,47.6791,-9.9843,-4.9731,7.69998,-62.9235,11.4416,-37.8704,33.1333,-4.95563,0.419857,-22.0724
-0.563514,16.8982,0.0275547,36.1622,-21.3979,14.4105,37.7281,0.725642,6.5974,9.07834,3.98797,7.99971,-8.65793,1.57427,3.5614,-30.1052,-7.83117,-9.67653,11.7689,-7.96033,6.10966,9.09078,-3.52474,2.36533,-4.45278e-14,-8.11041e-14,30.9168,-15.168,-62.0606,49.9865,38.9544,-49.1039,-12.451,7.12502,-21.7288,-41.2515,-4.45278e-14,-8.11041e-14,30.7023,-36.9476,84.2176,47.1061,3.36904,-19.9774,23.2958,7.12502,6.36159,53.1803,-74.7194,-3.34501,-5.28666,47.7393,-10.1253,-5.15217,7.92973,-63.2683,11.5808,-38.3209,32.9926,-5.06749,0.0076181,-21.9837
-0.55373,16.8932,0.0327521,36.4443,-21.4877,14.47,37.6858,0.647453,6.69851,9.08445,3.90773,7.86512,-8.61102,1.53981,3.39695,-30.1814,-7.37813,-9.64202,11.3005,-7.36349,6.26353,8.89608,-3.22476,2.51969,2.54444e-14,-1.94809e-14,30.0159,-15.0902,-62.3128,52.601,39.4416,-49.7834,-12.8181,7.12502,-22.3812,-41.5416,2.54444e-14,-1.94809e-14,31.9522,-37.2112,83.5853,46.9281,2.97958,-19.9963,23.2192,7.12502,6.34339,53.1042,-75.0279,-3.25281,-5.69463,47.8067,-10.2443,-5.37937,8.15882,-63.5182,11.5941,-38.567,32.8831,-5.15481,-0.202757,-21.7379
-0.548051,16.8812,0.0354068,36.7449,-21.5552,14.5684,37.7154,0.497373,6.90851,9.02748,3.774,7.54141,-8.63125,1.48102,2.99381,-30.3814,-6.82259,-9.14419,10.8933,-6.76191,6.19916,8.71596,-2.92275,2.52239,-1.27222e-14,-1.0138e-13,29.0822,-15.2206,-62.9891,55.0923,40.0464,-50.5188,-13.2715,7.12502,-23.087,-41.9084,-1.27222e-14,-1.0138e-13,33.276,-37.7594,82.4495,46.8185,2.89095,-20.7696,23.3353,7.12502,5.59683,53.2414,-75.4207,-3.11959,-6.18198,47.922,-10.3492,-5.792,7.83526,-63.8656,11.6299,-38.9017,32.7952,-5.23437,-0.526891,-21.6908
-0.541359,16.861,0.0391265,37.0436,-21.5259,14.6482,37.809,0.471423,6.94922,8.94428,3.779,7.54264,-8.75362,1.47918,2.97106,-30.7446,-6.27689,-8.70825,10.5476,-6.06401,5.732,8.56215,-2.62293,2.40459,-6.36111e-15,5.32743e-14,28.1019,-15.2865,-63.2194,57.4742,40.4862,-51.239,-13.6281,7.12502,-23.7778,-42.1768,-6.36111e-15,5.32743e-14,34.5146,-38.1887,81.791,46.7088,2.96092,-21.2724,23.0913,7.12502,5.11133,53.0096,-75.806,-3.12327,-6.51566,48.0559,-10.507,-6.14574,7.36831,-64.2547,11.6991,-39.2818,32.6983,-5.20855,-0.953203,-21.9387
-0.531597,16.8437,0.0455164,37.2906,-21.5213,14.7726,37.7888,0.480318,6.85975,8.90508,3.77837,7.67672,-8.81166,1.47741,3.16072,-30.965,-5.69462,-8.60021,10.0664,-5.19787,5.25479,8.34294,-2.26049,2.36154,4.13472e-14,-5.14852e-14,27.2551,-15.2784,-63.1984,59.5784,40.964,-51.9595,-14.0077,7.12502,-24.4687,-42.4649,4.13472e-14,-5.14852e-14,35.5624,-38.3119,81.5122,46.7408,2.8583,-20.9824,23.0918,7.12502,5.39137,53.0032,-76.1044,-3.25424,-6.7892,48.1787,-10.6199,-6.28219,6.96852,-64.5452,11.8107,-39.8011,32.6016,-5.24942,-1.40577,-21.3995
-0.518137,16.8416,0.0536917,37.5322,-21.5194,14.8762,37.6382,0.451136,6.815,8.89452,3.7304,7.80928,-8.78708,1.45692,3.34565,-30.992,-5.01125,-8.66882,9.38236,-4.1435,4.77349,8.02256,-1.81402,2.3728,-2.8625e-14,-3.57812e-15,26.4604,-15.2114,-63.146,61.4983,41.3586,-52.6512,-14.8084,7.12502,-25.1316,-43.1743,-2.8625e-14,-3.57812e-15,36.6898,-38.4103,81.0003,46.8937,3.17106,-20.7686,23.3508,7.12502,5.59776,53.2569,-76.3226,-3.4856,-6.93098,48.223,-10.6461,-6.22266,7.07096,-64.7305,11.9185,-40.3519,32.5069,-5.38713,-1.8221,-20.0266
-0.501301,16.8441,0.0609563,37.6891,-21.6702,15.0088,37.5865,0.453817,6.7827,8.8598,3.72448,7.83901,-8.81371,1.45402,3.39649,-31.0445,-4.25404,-8.68274,8.76729,-2.98278,4.08255,7.7145,-1.33129,2.3146,-2.22639e-14,-9.36276e-14,25.7144,-15.3081,-63.1431,63.0947,41.6658,-53.4922,-15.6446,7.12502,-25.9371,-43.895,-2.22639e-14,-9.36276e-14,37.8082,-38.7263,80.3147,47.1473,3.84152,-21.1826,23.4348,7.12502,5.19801,53.351,-76.5141,-3.68793,-7.10336,48.1887,-10.5255,-6.12102,7.08792,-64.8602,12.0373,-40.9099,32.3938,-5.4984,-2.07814,-18.9994
-0.484324,16.8464,0.0654114,37.6765,-22.021,15.1942,37.7864,0.529785,6.62978,8.80806,3.77491,7.74459,-8.94693,1.47457,3.35199,-31.3019,-3.47023,-8.47411,8.42098,-1.86547,3.38267,7.54872,-0.857353,2.2049,-4.13472e-14,-2.48481e-14,25.0638,-15.6485,-63.3157,64.2212,42.491,-54.5504,-15.8436,7.12502,-26.9501,-43.9417,-4.13472e-14,-2.48481e-14,38.8601,-39.0947,79.6398,47.3842,4.15953,-21.8254,23.5178,7.12502,4.57741,53.4484,-76.6166,-3.69154,-7.47894,48.0812,-10.4079,-6.0747,7.15561,-64.8612,12.109,-41.3441,32.299,-5.61454,-2.0316,-18.8623
-0.466756,16.8489,0.0675679,37.6771,-22.2578,15.2665,37.9938,0.57692,6.55934,8.79889,3.82193,7.71506,-9.03339,1.49227,3.33661,-31.6485,-2.65474,-8.22724,8.11013,-0.736237,2.78642,7.41866,-0.362254,2.12499,1.11319e-13,1.23246e-14,24.601,-15.9465,-63.3518,65.0968,43.2466,-55.531,-16.6731,7.12502,-27.8879,-44.6227,1.11319e-13,1.23246e-14,39.9032,-39.2494,79.1923,47.4799,4.14379,-22.383,23.4747,7.12502,4.03894,53.4162,-76.6611,-3.62806,-7.74653,47.9671,-10.32,-6.0944,7.27254,-64.8532,12.0636,-41.4651,32.259,-5.67549,-1.83886,-18.8863
-0.449673,16.8511,0.0711652,37.8517,-22.2622,15.1356,37.9937,0.605576,6.69449,8.81075,3.91369,7.82162,-9.02104,1.52929,3.34591,-31.7919,-1.82529,-8.00301,7.59644,0.398876,2.16069,7.20049,0.137224,2.03529,-1.27222e-14,2.28602e-14,24.2543,-16.2025,-63.1539,65.7312,43.6427,-56.4952,-18.4661,7.12502,-28.8094,-46.2624,-1.27222e-14,2.28602e-14,40.9927,-39.4144,78.7065,47.6347,4.18072,-22.2786,23.6416,7.12502,4.1397,53.5811,-76.7438,-3.61101,-7.71467,47.8389,-10.275,-6.19395,7.07375,-65.0025,12.0053,-41.3844,32.2524,-5.67061,-1.7652,-18.9002
-0.431831,16.8497,0.0767134,38.0579,-22.2392,15.0625,37.8504,0.676358,6.83585,8.83462,4.04493,7.94603,-8.94815,1.58702,3.35653,-32.0653,-1.05334,-7.80582,7.26597,1.47465,1.54208,7.07621,0.606999,1.94305,3.18055e-14,-1.07344e-14,24.1771,-16.5471,-62.9217,65.9664,43.5471,-57.0818,-18.2597,7.12502,-29.3696,-45.9592,3.18055e-14,-1.07344e-14,42.0685,-39.6563,78.3213,47.8113,4.20451,-22.1693,23.5281,7.12502,4.24532,53.4656,-76.8369,-3.67706,-7.7206,47.7134,-10.2568,-6.28887,6.74268,-65.2021,11.9179,-41.4066,32.2362,-5.66522,-1.8125,-18.9539
-0.411307,16.8525,0.0809636,38.1585,-22.2493,14.9989,37.7918,0.741367,7.05672,8.88851,4.1935,8.01449,-8.85739,1.65155,3.25973,-32.424,-0.315123,-7.63935,6.91645,2.51386,0.961851,6.96661,1.0645,1.86293,5.40694e-14,-9.74045e-15,24.3391,-16.7806,-62.6584,66.1568,41.9687,-57.0311,-16.4062,7.12502,-29.3212,-44.1143,5.40694e-14,-9.74045e-15,43.1664,-39.9314,77.9508,48.0047,4.08877,-22.3722,23.4141,7.12502,4.04937,53.3553,-76.826,-3.70377,-7.75066,47.5611,-10.258,-6.3317,6.6247,-65.2607,11.7338,-41.2532,32.2099,-5.63596,-1.65056,-18.8142
-0.388795,16.8585,0.0811959,38.2107,-22.218,14.9367,37.8079,0.739559,7.4079,8.89819,4.31209,8.0011,-8.81901,1.70012,3.02004,-32.6376,0.474307,-7.47261,6.42152,3.59286,0.427384,6.79316,1.5537,1.80043,-6.36111e-15,1.98785e-16,24.7327,-17.7482,-62.7771,64.9346,43.7493,-58.3717,-15.417,7.12502,-30.6004,-42.8939,-6.36111e-15,1.98785e-16,44.2523,-40.2289,77.479,48.246,4.08783,-22.1059,23.5787,7.12502,4.30648,53.5149,-76.7596,-3.79501,-7.67862,47.394,-10.2001,-6.29628,6.64965,-65.22,11.4199,-40.9067,32.1596,-5.55135,-1.30778,-18.3412
-0.368573,16.8616,0.0809669,38.2582,-22.2079,14.9099,37.884,0.728722,7.60451,8.80673,4.37719,7.89741,-8.91874,1.72411,2.78149,-32.5021,1.43787,-6.90628,5.81778,4.72183,-0.242727,6.5558,2.07262,1.63117,-1.90833e-14,-1.26228e-13,25.2222,-18.4387,-63.0983,63.7842,44.2629,-59.1012,-16.1588,7.12502,-31.2958,-43.5035,-1.90833e-14,-1.26228e-13,45.1334,-40.5135,76.7665,48.6134,4.35284,-21.6364,24.0575,7.12502,4.75983,53.984,-76.7098,-3.83814,-7.70472,47.2193,-10.0969,-6.31828,6.75918,-65.1924,11.1611,-40.6617,32.1004,-5.48163,-1.06208,-18.1809
-0.349095,16.867,0.080647,38.2357,-22.1985,14.7749,38.0972,0.795891,7.74039,8.71328,4.54539,7.92975,-9.0897,1.78883,2.67775,-32.4061,2.30997,-6.47935,5.3616,5.78219,-0.861966,6.38524,2.55709,1.49173,2.8625e-14,4.69132e-14,25.9369,-18.9959,-63.214,62.3157,44.1912,-59.9518,-19.1914,7.12502,-32.1059,-46.376,2.8625e-14,4.69132e-14,45.8272,-40.7815,76.4095,48.8536,4.43628,-21.4497,24.1377,7.12502,4.94012,54.0601,-76.5889,-3.6842,-7.74376,47.05,-10.029,-6.45595,6.42334,-65.1084,11.0501,-40.386,32.0648,-5.43702,-0.824308,-18.0352
-0.326677,16.8696,0.0801043,38.1274,-22.3251,14.8063,38.2693,0.929772,7.7151,8.6493,4.73094,7.98921,-9.23292,1.86478,2.67782,-32.2903,3.0897,-6.31216,4.7899,6.81641,-1.49503,6.1777,3.02884,1.37931,-1.59028e-14,-5.18828e-14,26.8495,-19.6761,-63.2497,60.3869,44.0402,-60.0531,-18.9219,7.12502,-32.2024,-46.087,-1.59028e-14,-5.18828e-14,46.5556,-41.0766,76.237,48.9942,4.45545,-21.3169,23.9904,7.12502,5.06836,53.9098,-76.4582,-3.63243,-7.9187,46.8784,-10.038,-6.45135,6.44107,-65.0186,11.0101,-40.4221,32.0577,-5.43577,-0.670094,-17.5553
-0.303624,16.871,0.0803229,38.0059,-22.4131,14.872,38.3143,0.988707,7.75954,8.57833,4.83156,7.98149,-9.32432,1.90563,2.6052,-32.0343,3.89472,-6.17569,4.1574,7.87556,-2.10729,5.93813,3.52342,1.2762,0,7.85199e-14,27.8372,-20.4434,-63.4658,58.1948,43.7498,-59.1064,-15.6857,7.12502,-31.3008,-43.0294,0,7.85199e-14,47.2956,-41.387,75.8973,49.0982,4.69628,-21.3764,23.9696,7.12502,5.0109,53.8904,-76.322,-3.75433,-7.9281,46.6834,-9.90316,-6.35186,6.4316,-64.8975,10.8621,-40.4071,32.0659,-5.46923,-0.440325,-17.6655
-0.277708,16.8785,0.0835044,37.7931,-22.4622,14.8608,38.3924,0.961646,7.94501,8.54877,4.87271,7.94136,-9.36029,1.91869,2.45092,-31.7225,4.67854,-6.11566,3.4976,8.9029,-2.54847,5.67902,4.02523,1.23199,1.27222e-14,-2.92213e-14,28.9686,-21.2763,-63.8675,55.7516,43.6653,-57.7532,-13.7269,7.12502,-30.0104,-41.3123,1.27222e-14,-2.92213e-14,47.9783,-41.6129,75.4921,49.243,4.82853,-21.1922,24.1039,7.12502,5.18879,54.0204,-76.0533,-3.82148,-7.83515,46.4836,-9.72655,-6.20979,6.21036,-64.618,10.699,-40.215,32.0621,-5.51427,-0.118688,-18.0858
-0.252437,16.8897,0.0865657,37.5818,-22.4567,14.8085,38.4639,0.936888,8.15094,8.51977,4.92857,7.93893,-9.39534,1.93751,2.32121,-31.724,5.45938,-5.7655,3.08802,9.86574,-3.16311,5.57519,4.46917,1.09166,-4.13472e-14,-1.98785e-16,30.047,-22.0654,-64.144,53.2843,43.2747,-55.9037,-12.3061,7.12502,-28.2442,-40.1973,-4.13472e-14,-1.98785e-16,48.6293,-41.8525,75.0492,49.4077,5.09106,-21.0787,24.2556,7.12502,5.29833,54.1694,-75.7377,-3.86579,-7.71373,46.3039,-9.65071,-6.05385,6.69166,-64.317,10.5682,-40.0116,32.0454,-5.51284,0.124709,-17.8014
-0.22831,16.8979,0.0862307,37.3566,-22.4407,14.8588,38.5625,1.0033,8.25823,8.43845,5.07638,7.98026,-9.51515,1.99582,2.24969,-31.9387,6.15464,-5.31944,2.92881,10.7092,-3.83046,5.60194,4.83441,0.918991,-1.59028e-14,3.85642e-14,31.0025,-22.9159,-64.2254,50.8606,42.1064,-53.4364,-11.1892,7.12502,-25.8837,-39.4475,-1.59028e-14,3.85642e-14,49.2446,-42.2746,74.7583,49.5627,5.34412,-21.3778,24.3992,7.12502,5.00956,54.32,-75.4273,-3.96463,-7.70952,46.1631,-9.65685,-5.95616,7.25436,-64.056,10.445,-39.9825,32.0089,-5.53078,0.280713,-17.7389
-0.205196,16.9028,0.0856888,37.0945,-22.4067,14.9363,38.7027,1.09899,8.37245,8.29609,5.27137,7.97402,-9.7117,2.07213,2.10248,-31.8721,6.76452,-4.9599,2.58108,11.4243,-4.36233,5.52517,5.16264,0.776442,-1.27222e-14,5.4467e-14,31.7384,-23.8229,-64.2559,48.4268,40.3288,-50.5325,-10.8481,7.12502,-23.1001,-39.4834,-1.27222e-14,5.4467e-14,49.92,-42.8822,74.2576,49.7441,5.65349,-21.4253,24.3125,7.12502,4.96373,54.2343,-75.1234,-4.04152,-7.7513,46.0778,-9.59953,-5.92314,7.22501,-63.7552,10.2962,-39.9482,31.9534,-5.47438,0.466813,-17.9118
-0.181928,16.9094,0.0878517,36.8341,-22.3678,14.9964,38.7137,1.16673,8.47816,8.23426,5.40472,7.9849,-9.77519,2.12703,2.00584,-31.743,7.31191,-4.82887,2.06833,12.1124,-4.76321,5.36907,5.49858,0.69891,-5.08889e-14,3.18055e-15,32.4654,-24.4606,-64.0857,46.1812,37.7507,-47.3662,-11.3124,7.12502,-20.0593,-40.2969,-5.08889e-14,3.18055e-15,50.4366,-43.3069,74.0219,49.9001,5.55754,-21.204,24.0326,7.12502,5.17737,53.9494,-74.8211,-4.12659,-7.76096,46.0336,-9.53124,-5.81417,7.00959,-63.4637,10.209,-39.9395,31.9078,-5.42084,0.522715,-17.776
-0.159621,16.9166,0.0853795,36.4991,-22.3414,15.141,38.7162,1.19244,8.48511,8.20709,5.44118,7.95792,-9.80277,2.14337,1.95782,-31.1444,7.92194,-5.0232,1.12885,12.9401,-5.07121,4.98797,5.94738,0.684861,-3.49861e-14,-1.27222e-14,33.1106,-24.8403,-63.91,44.2426,34.2568,-44.3028,-12.1693,7.12502,-17.1127,-41.4356,-3.49861e-14,-1.27222e-14,50.6204,-43.5844,74.1388,50.0738,5.15382,-21.1276,23.8389,7.12502,5.25117,53.7538,-74.4898,-4.24127,-7.83004,46.007,-9.44603,-5.71068,7.03176,-63.1247,10.1025,-39.9829,31.885,-5.46776,0.593447,-17.7914
