JuanDHNZ/ProyectoFinalCD/preprocessing/sports_trials_csv/14_15.csv
root1,root2,root3,root4,root5,root6,lowerback1,lowerback2,lowerback3,upperback1,upperback2,upperback3,thorax1,thorax2,thorax3,lowerneck1,lowerneck2,lowerneck3,upperneck1,upperneck2,upperneck3,head1,head2,head3,rclavicle1,rclavicle2,rhumerus1,rhumerus2,rhumerus3,rradius1,rwrist1,rhand1,rhand2,rfingers1,rthumb1,rthumb2,lclavicle1,lclavicle2,lhumerus1,lhumerus2,lhumerus3,lradius1,lwrist1,lhand1,lhand2,lfingers1,lthumb1,lthumb2,rfemur1,rfemur2,rfemur3,rtibia1,rfoot1,rfoot2,rtoes1,lfemur1,lfemur2,lfemur3,ltibia1,lfoot1,lfoot2,ltoes1
-4.61513,18.0382,-5.70975,-2.53345,-47.5348,24.1451,11.6975,1.4313,4.41798,5.51353,2.21834,10.266,-0.986337,0.924048,8.131,-5.23714,-12.8835,-13.2731,30.863,-18.3268,3.62608,12.7444,-9.25277,1.09465,1.59028e-14,-3.18055e-14,4.00182,-12.2652,-83.1357,37.8372,-22.4316,-15.6018,-20.1303,7.12502,10.5843,-49.8438,1.59028e-14,-3.18055e-14,-32.7929,-38.7278,104.532,77.2485,61.8807,-23.6672,43.242,7.12502,2.79873,73.2033,-34.3592,-2.84015,4.56967,37.946,-19.4639,-5.72135,17.6263,-21.3577,-1.81422,-25.3275,15.035,7.8393,-7.65024,-9.1539
-4.62135,18.0385,-5.70984,-2.54138,-47.4715,24.0395,11.7992,1.62765,4.74808,5.6221,2.50402,10.2385,-0.941565,1.06891,7.87091,-5.36825,-13.1108,-12.9638,30.9345,-18.6803,3.58701,12.794,-9.3655,0.967958,-9.54166e-15,-3.18055e-14,4.47342,-10.8089,-83.7475,37.5163,-22.2229,-13.1485,-20.2642,7.12502,12.95,-49.8423,-9.54166e-15,-3.18055e-14,-33.1678,-38.4561,104.291,77.8077,64.8789,-24.8638,43.8023,7.12502,1.64312,73.7758,-34.2166,-2.62906,4.56979,37.9645,-19.6493,-5.77812,18.1821,-21.3201,-1.76571,-25.3344,15.2298,7.61221,-7.66149,-9.34521
-4.62822,18.0385,-5.71645,-2.6001,-47.4288,24.0021,11.9714,1.81678,4.90706,5.7158,2.77384,10.2307,-0.955385,1.20385,7.73268,-5.456,-13.3391,-12.6984,30.9521,-19.0255,3.5376,12.8145,-9.48263,0.849685,-6.36111e-15,-3.81667e-14,4.99275,-9.519,-84.4163,37.1181,-21.859,-10.7582,-20.3267,7.12502,15.2534,-49.7443,-6.36111e-15,-3.81667e-14,-33.4606,-37.8669,103.979,78.2698,66.9124,-25.5712,44.8339,7.12502,0.959872,74.8114,-34.1358,-2.41394,4.55381,38.0823,-19.8844,-5.8535,18.2638,-21.1772,-1.47487,-25.4162,15.1689,7.53053,-7.9749,-9.69322
-4.63324,18.0353,-5.72253,-2.64371,-47.2888,24.1698,11.9958,1.96242,4.85822,5.73153,2.96343,10.2269,-0.973794,1.29864,7.73027,-5.36666,-13.4862,-12.5141,30.774,-19.285,3.64777,12.7375,-9.56336,0.835185,1.27222e-14,-6.99722e-14,5.45917,-8.26207,-85.0308,36.7435,-21.4793,-8.8048,-20.171,7.12502,17.1343,-49.4355,1.27222e-14,-6.99722e-14,-33.7314,-37.0424,103.752,78.5483,68.1795,-26.2236,45.759,7.12502,0.32982,75.7385,-34.2216,-2.45251,4.40478,38.183,-20.0055,-5.90169,18.2435,-21.2474,-1.34408,-25.6227,15.1325,7.59604,-8.17709,-9.70333
-4.63825,18.0308,-5.72112,-2.62393,-47.1524,24.2516,11.9194,2.09034,4.9026,5.77669,3.12264,10.2452,-0.898652,1.37826,7.70591,-5.31045,-13.6254,-12.3927,30.6398,-19.5396,3.80629,12.6992,-9.64157,0.842692,1.90833e-14,-3.18055e-14,5.75774,-6.84105,-85.4167,36.6239,-21.3878,-7.69591,-19.964,7.12502,18.2014,-49.1324,1.90833e-14,-3.18055e-14,-33.9332,-36.2098,103.535,78.7174,69.0561,-26.8553,46.6591,7.12502,-0.280295,76.6386,-34.2885,-2.38972,4.26474,38.2765,-20.2005,-5.95259,18.5205,-21.2926,-1.69678,-25.6656,15.0831,7.63926,-7.70665,-8.93696
-4.64452,18.0274,-5.71761,-2.55086,-47.0008,24.2182,11.8536,2.1924,5.04664,5.83067,3.25632,10.2651,-0.81102,1.44596,7.63009,-5.46006,-13.7783,-12.1954,30.7419,-19.7694,3.75201,12.7621,-9.71462,0.743601,-1.59028e-14,-4.77083e-14,6.05818,-5.55853,-85.8027,36.5111,-21.435,-7.11088,-19.7502,7.12502,18.7642,-48.8652,-1.59028e-14,-4.77083e-14,-34.0774,-35.3996,103.264,78.8992,69.9955,-27.6152,47.5087,7.12502,-1.01424,77.4861,-34.2895,-2.32974,4.22365,38.3477,-20.3645,-6.05782,18.3344,-21.3161,-1.9491,-25.6782,15.056,7.58686,-7.46271,-9.28747
-4.65138,18.0272,-5.71505,-2.44764,-46.8588,24.2022,11.7998,2.28172,5.16165,5.82119,3.38114,10.2757,-0.797334,1.51022,7.56031,-5.45839,-13.9089,-12.0698,30.7842,-19.9705,3.70852,12.7772,-9.78866,0.677104,3.18055e-14,-3.81667e-14,6.38968,-4.50623,-86.2608,36.2525,-21.3817,-6.88957,-19.6347,7.12502,18.977,-48.729,3.18055e-14,-3.81667e-14,-34.2294,-34.6191,102.994,79.0207,70.9526,-28.1431,48.1407,7.12502,-1.52414,78.115,-34.3187,-2.30554,4.17876,38.3661,-20.4387,-6.20607,18.2129,-21.4301,-2.08753,-25.7392,15.1421,7.4632,-7.38634,-9.85252
-4.65763,18.0268,-5.71557,-2.37142,-46.7355,24.2132,11.8269,2.38919,5.18977,5.77622,3.53582,10.3201,-0.875562,1.58785,7.57078,-5.17572,-14.0628,-12.0857,30.5672,-20.2353,3.84237,12.6752,-9.89914,0.713704,6.36111e-15,5.08889e-14,6.64012,-3.39596,-86.4753,36.027,-21.3277,-6.76337,-19.7992,7.12502,19.0984,-48.8815,6.36111e-15,5.08889e-14,-34.4174,-33.9065,102.858,79.0019,71.8161,-28.7897,48.3034,7.12502,-2.14857,78.2723,-34.344,-2.24147,4.12035,38.3439,-20.4266,-6.41313,17.8936,-21.5871,-2.11058,-25.8352,15.3225,7.42618,-7.14842,-9.08689
-4.66317,18.0286,-5.71576,-2.38619,-46.6373,24.2014,11.9677,2.51711,5.22943,5.78989,3.72211,10.3728,-0.956209,1.67976,7.57728,-4.92429,-14.2121,-12.1706,30.3107,-20.5362,4.18702,12.6041,-10.0077,0.825597,-3.81667e-14,-7.95139e-14,6.94131,-2.30477,-86.5292,35.8247,-21.2199,-6.81383,-19.8941,7.12502,19.0499,-48.9812,-3.81667e-14,-7.95139e-14,-34.5262,-33.1498,102.741,78.9619,72.58,-28.1298,48.8202,7.12502,-1.51125,78.7946,-34.2426,-2.16733,4.09359,38.2999,-20.4166,-6.53993,17.6116,-21.6241,-2.03144,-25.9453,15.5232,7.40302,-6.9546,-8.74711
-4.66933,18.0335,-5.71281,-2.46497,-46.5803,24.1949,12.143,2.6599,5.3001,5.82463,3.93181,10.3874,-1.03075,1.78396,7.5191,-4.79404,-14.3568,-12.1245,30.1461,-20.8139,4.42331,12.5628,-10.1001,0.872889,-4.77083e-14,-4.77083e-14,7.31205,-1.51555,-86.658,35.5369,-20.8811,-7.14982,-20.0729,7.12502,18.7267,-49.1915,-4.77083e-14,-4.77083e-14,-34.6028,-32.4709,102.571,78.977,73.2422,-24.6366,50.9636,7.12502,1.86252,80.9352,-34.0594,-2.06927,4.05799,38.238,-20.4762,-6.57762,17.8321,-21.5803,-1.94949,-26.059,15.712,7.22987,-6.98831,-10.4647
-4.67572,18.0358,-5.71258,-2.53473,-46.5445,24.2563,12.2761,2.82737,5.27273,5.85798,4.16087,10.3796,-1.0912,1.89764,7.48972,-4.75852,-14.5469,-12.0441,30.0448,-21.131,4.5648,12.5541,-10.2116,0.865012,3.18055e-15,1.27222e-14,7.68913,-0.925801,-86.8292,35.2673,-20.4255,-7.51895,-20.3108,7.12502,18.3717,-49.4632,3.18055e-15,1.27222e-14,-34.6248,-32.1194,102.42,78.9701,73.6587,-24.6263,51.3706,7.12502,1.87249,81.3421,-33.9536,-1.9738,3.9792,38.163,-20.5081,-6.57666,18.1323,-21.6028,-1.91966,-26.1678,15.8554,7.17443,-6.81517,-10.4776
-4.68165,18.037,-5.71079,-2.50551,-46.4632,24.2422,12.3511,2.93488,5.29659,5.88291,4.31021,10.3945,-1.11883,1.97178,7.46914,-4.81099,-14.691,-12.0358,30.0382,-21.3622,4.66132,12.5971,-10.2936,0.853456,-8.5875e-14,9.54166e-15,7.92121,-0.114214,-86.8559,35.2016,-20.1145,-7.62345,-20.4339,7.12502,18.2711,-49.5958,-8.5875e-14,9.54166e-15,-34.6103,-31.8866,102.318,78.9423,73.931,-24.8756,51.4259,7.12502,1.63174,81.3994,-33.8847,-1.89522,3.95038,38.0806,-20.4572,-6.64121,17.7343,-21.6403,-1.95224,-26.2129,15.9392,7.19464,-6.5356,-9.47541
-4.68588,18.0403,-5.70478,-2.49123,-46.3916,24.1783,12.4538,2.99266,5.39925,5.88408,4.4079,10.4005,-1.17473,2.02098,7.39926,-4.7986,-14.739,-12.0379,30.061,-21.467,4.76359,12.6291,-10.3253,0.871938,-9.54166e-15,-1.24042e-13,7.97736,0.728256,-86.8291,35.2439,-19.9394,-7.71155,-20.5131,7.12502,18.1864,-49.6829,-9.54166e-15,-1.24042e-13,-34.7126,-31.6396,102.274,78.9463,74.0184,-25.2665,51.4647,7.12502,1.25419,81.4408,-33.7444,-1.8552,3.94783,37.9939,-20.4429,-6.60809,17.7657,-21.5959,-2.024,-26.2314,16.0047,7.14765,-6.35782,-9.40861
-4.68842,18.0433,-5.70071,-2.35104,-46.3384,24.0371,12.4486,3.01462,5.52626,5.92211,4.44271,10.4113,-1.12491,2.03883,7.33544,-4.85781,-14.804,-11.9935,30.0259,-21.5675,4.81159,12.6371,-10.3552,0.861683,-6.36111e-14,-9.54166e-14,8.33442,1.1504,-86.9977,35.0065,-19.5728,-7.96453,-20.5898,7.12502,17.943,-49.7821,-6.36111e-14,-9.54166e-14,-34.675,-31.425,102.17,78.9111,74.0125,-25.5617,51.5653,7.12502,0.969051,81.5429,-33.6741,-1.83033,4.00617,37.8839,-20.4387,-6.59011,18.1231,-21.6729,-2.10253,-26.1722,16.1134,7.11552,-6.20322,-9.20694
-4.69216,18.0477,-5.698,-2.24809,-46.3541,23.9153,12.471,3.06263,5.64346,6.00181,4.50753,10.3817,-1.04597,2.07185,7.2286,-4.91913,-14.9042,-11.8501,29.9208,-21.7168,4.84978,12.6066,-10.3989,0.829746,1.27222e-14,-3.49861e-14,8.91342,1.0129,-87.3642,34.5477,-18.9663,-8.24557,-20.6521,7.12502,17.6725,-49.869,1.27222e-14,-3.49861e-14,-34.5332,-31.4129,102.014,78.817,74.0512,-25.5069,51.7607,7.12502,1.02198,81.738,-33.5921,-1.71613,4.0682,37.7506,-20.4566,-6.63146,18.4184,-21.7651,-2.07177,-26.1288,16.2748,7.06466,-6.05398,-9.27626
-4.69523,18.0531,-5.69593,-2.14476,-46.3743,23.8158,12.564,3.16085,5.77776,6.00325,4.66079,10.3184,-1.09186,2.15036,7.05643,-4.84617,-15.0157,-11.8097,29.848,-21.9296,5.01829,12.6019,-10.4696,0.855747,2.54444e-14,-1.27222e-14,9.21774,0.874341,-87.5019,34.3481,-18.8813,-8.38073,-20.5759,7.12502,17.5425,-49.8045,2.54444e-14,-1.27222e-14,-34.5541,-31.612,102.034,78.7166,73.8223,-25.4434,51.7867,7.12502,1.08332,81.7637,-33.548,-1.62534,4.14089,37.6033,-20.4633,-6.73222,18.2217,-21.8926,-2.05316,-26.0974,16.4618,6.95275,-6.03594,-10.2261
-4.69706,18.0563,-5.69345,-1.93034,-46.3702,23.619,12.6178,3.19851,5.93606,5.971,4.73704,10.288,-1.14541,2.19023,6.91889,-4.74597,-15.0627,-11.8896,29.7815,-22.0434,5.20894,12.6044,-10.5096,0.923031,-3.18055e-15,3.18055e-14,9.25308,1.16189,-87.3918,34.4672,-19.4531,-8.38461,-20.6534,7.12502,17.5387,-49.8823,-3.18055e-15,3.18055e-14,-34.5877,-31.7,102.092,78.6149,73.3805,-25.6836,51.572,7.12502,0.851335,81.55,-33.5531,-1.64188,4.3218,37.4563,-20.3598,-6.90838,17.3075,-22.0603,-2.09334,-25.9701,16.65,6.84789,-5.989,-10.4743
-4.69864,18.0587,-5.68755,-1.85117,-46.3946,23.5225,12.6749,3.17581,5.92637,5.99492,4.70875,10.3099,-1.15121,2.17482,6.95093,-4.71244,-15.0276,-12.0339,29.6971,-21.996,5.32611,12.5945,-10.4943,0.994831,-2.8625e-14,-4.77083e-14,9.29159,1.59261,-87.2057,34.6023,-19.9434,-8.06007,-20.6519,7.12502,17.851,-49.8526,-2.8625e-14,-4.77083e-14,-34.4829,-31.5795,102.115,78.5139,73.0939,-25.584,51.8094,7.12502,0.947484,81.787,-33.4795,-1.66876,4.40723,37.311,-20.2163,-6.84535,17.5108,-22.1449,-2.14018,-25.9064,16.8439,6.71553,-5.90351,-10.1389
-4.69964,18.0614,-5.68206,-1.81586,-46.4354,23.4639,12.7925,3.1233,5.79987,5.98938,4.64109,10.3649,-1.2307,2.13781,7.08776,-4.62776,-14.9588,-12.1957,29.6721,-21.8794,5.3279,12.5777,-10.4653,1.04367,-5.725e-14,-1.43125e-13,9.21826,2.09396,-86.9636,34.7658,-20.3284,-7.85569,-20.5125,7.12502,18.0477,-49.6952,-5.725e-14,-1.43125e-13,-34.4039,-31.4806,102.193,78.4312,72.9972,-25.426,52.2722,7.12502,1.10013,82.2491,-33.3781,-1.61723,4.41669,37.1728,-20.1636,-6.6022,18.4984,-22.1917,-2.25407,-25.8387,17.0063,6.561,-5.79476,-10.0379
-4.69969,18.0646,-5.67749,-1.59907,-46.4844,23.292,12.8617,3.11235,5.74696,5.92663,4.63866,10.4125,-1.34331,2.13494,7.16564,-4.50037,-14.9204,-12.1999,29.6244,-21.7998,5.23213,12.5119,-10.4498,1.03794,1.08139e-13,5.725e-14,8.95272,2.76849,-86.4883,35.1197,-21.0361,-8.32536,-20.6628,7.12502,17.5958,-49.8865,1.08139e-13,5.725e-14,-34.38,-31.6014,102.389,78.3112,72.932,-25.2672,52.5922,7.12502,1.25348,82.5683,-33.3993,-1.5403,4.51031,37.0427,-20.1435,-6.50677,18.8395,-22.3276,-2.28405,-25.6996,17.0925,6.505,-5.79291,-10.012
-4.7016,18.068,-5.67015,-1.39505,-46.5929,23.097,12.9265,3.14931,5.76046,5.92615,4.69583,10.39,-1.38098,2.16322,7.12175,-4.63342,-14.9204,-11.8625,29.6216,-21.7755,5.06185,12.4644,-10.4208,0.930726,4.13472e-14,-7.31528e-14,8.77648,3.20549,-86.0175,35.5109,-21.7447,-8.77132,-20.9004,7.12502,17.1666,-50.1621,4.13472e-14,-7.31528e-14,-34.2739,-31.9899,102.555,78.1529,72.8549,-24.6613,52.9313,7.12502,1.83865,82.9031,-33.4185,-1.53492,4.67676,36.92,-20.0053,-6.54005,17.9667,-22.4006,-2.3731,-25.5162,17.1448,6.3823,-5.65785,-10.1176
-4.70339,18.0698,-5.66449,-1.2692,-46.7181,22.9627,12.9947,3.14856,5.76058,5.99488,4.69156,10.3255,-1.33909,2.16105,7.05021,-4.86078,-14.9041,-11.5274,29.5573,-21.7258,4.9564,12.4172,-10.3721,0.8439,-2.8625e-14,-6.36111e-15,8.96082,3.0551,-85.8128,35.5401,-21.9008,-8.86434,-20.6881,7.12502,17.077,-49.9575,-2.8625e-14,-6.36111e-15,-34.0414,-32.4792,102.648,78.0353,72.8695,-23.844,53.0609,7.12502,2.62802,83.0245,-33.4071,-1.48518,4.7778,36.7922,-19.928,-6.43611,18.2285,-22.4421,-2.46392,-25.3753,17.2147,6.24581,-5.43741,-10.3365
-4.70402,18.0711,-5.66148,-1.12911,-46.7945,22.9072,13.0288,3.14538,5.70427,5.99471,4.68596,10.2149,-1.3535,2.15986,6.95903,-4.80602,-14.8896,-11.4171,29.4015,-21.7327,5.07776,12.3453,-10.3582,0.881481,-1.90833e-14,4.45278e-14,9.15731,2.34226,-85.7821,35.3932,-21.6043,-8.76999,-20.3656,7.12502,17.1678,-49.6272,-1.90833e-14,4.45278e-14,-34.0089,-33.2314,102.923,78.1519,73.6503,-26.6365,51.5711,7.12502,-0.069035,81.5508,-33.4684,-1.32877,4.77118,36.6936,-19.9723,-6.33761,18.9758,-22.5476,-2.49382,-25.3061,17.2311,6.15694,-5.39987,-10.6169
-4.70349,18.0738,-5.65829,-0.867899,-46.8106,22.679,13.1128,3.1294,5.75251,5.95644,4.68578,10.1123,-1.42752,2.16199,6.81363,-4.80761,-14.8955,-11.354,29.3684,-21.7893,5.23788,12.3513,-10.3601,0.92028,-8.26944e-14,-3.49861e-14,9.167,1.58737,-85.6585,35.4394,-21.4456,-8.73065,-20.2084,7.12502,17.2057,-49.4667,-8.26944e-14,-3.49861e-14,-34.1654,-34.4622,103.405,78.6698,76.2533,-32.1966,48.2802,7.12502,-5.43854,78.1904,-33.5207,-1.22368,4.89814,36.642,-19.9987,-6.30725,19.0939,-22.6349,-2.52841,-25.1237,17.1973,6.08352,-5.51339,-11.3581
-4.70329,18.0738,-5.65338,-0.73529,-46.8774,22.75,13.0464,3.0854,5.52579,5.94234,4.6,9.97816,-1.40866,2.12105,6.80908,-4.91997,-14.8208,-11.2372,29.3657,-21.7036,5.311,12.3577,-10.3012,0.935841,6.67916e-14,-3.18055e-14,9.15034,1.11569,-85.4406,35.5845,-21.6431,-8.99935,-20.3251,7.12502,16.9471,-49.6057,6.67916e-14,-3.18055e-14,-33.5423,-34.8808,103.109,77.943,73.8134,-28.6649,50.4167,7.12502,-2.02807,80.3868,-33.708,-1.27178,4.84325,36.5989,-19.9473,-6.25956,18.951,-22.8025,-2.60637,-25.1445,17.1871,5.99665,-5.44435,-11.535
-4.7018,18.0716,-5.65268,-0.413565,-46.9166,22.7769,12.8679,3.00834,5.17429,5.85891,4.45624,9.97763,-1.41799,2.04872,7.034,-4.92628,-14.6866,-11.2556,29.3411,-21.48,5.24506,12.3197,-10.2172,0.953443,2.22639e-14,4.77083e-14,9.08302,0.846809,-85.0038,35.7258,-22.0291,-9.40349,-20.5766,7.12502,16.558,-49.8901,2.22639e-14,4.77083e-14,-33.1134,-35.4162,103.261,77.5981,73.6133,-25.2248,52.6588,7.12502,1.29445,82.6346,-34.0577,-1.21702,4.7733,36.5307,-20.0115,-6.29535,19.4546,-23.1771,-2.75465,-25.0833,17.1629,6.03703,-5.24099,-10.9566
-4.70274,18.0731,-5.65213,0.0842545,-46.9146,22.3572,12.7563,2.90272,5.16187,5.83816,4.30656,10.0498,-1.3724,1.97304,7.14706,-4.94731,-14.5989,-11.202,29.2832,-21.3165,5.146,12.2634,-10.1554,0.940117,6.04305e-14,6.99722e-14,9.00625,0.360366,-84.5179,35.9008,-22.4975,-9.78897,-20.8897,7.12502,16.1869,-50.2339,6.04305e-14,6.99722e-14,-32.7533,-36.1008,103.585,77.6272,74.9935,-26.9829,51.3467,7.12502,-0.403572,81.3261,-34.1932,-1.0171,5.02102,36.4188,-20.1176,-6.39353,20.0803,-23.3977,-2.96266,-24.6748,17.1359,6.01126,-5.13639,-10.6802
-4.70627,18.0775,-5.63909,0.410561,-46.8492,22.0651,12.5069,2.74533,5.19803,5.90396,4.0668,9.99507,-1.13882,1.85546,7.11234,-5.11244,-14.5023,-11.1269,29.2793,-21.1751,5.17953,12.2745,-10.0791,0.951547,-2.54444e-14,6.36111e-15,9.01656,-0.441448,-84.2775,36.0403,-22.9831,-10.2617,-21.1181,7.12502,15.7316,-50.4987,-2.54444e-14,6.36111e-15,-31.9619,-36.55,103.385,77.0996,73.8757,-25.5379,52.2707,7.12502,0.992023,82.2481,-34.1729,-1.30793,5.29,36.2635,-19.9063,-6.34122,19.2592,-23.5039,-3.15925,-24.4557,17.223,5.80637,-5.12784,-10.4718
-4.70499,18.0797,-5.62683,0.709512,-47.1734,21.8843,12.3395,2.70511,5.04395,5.95703,3.9721,9.92453,-0.989726,1.80747,7.14318,-5.24605,-14.348,-11.0766,29.3001,-20.9296,5.13069,12.2717,-9.97132,0.957104,1.27222e-14,-6.36111e-15,9.05417,-1.41109,-84.0866,36.055,-23.2449,-10.6257,-21.0964,7.12502,15.3811,-50.5043,1.27222e-14,-6.36111e-15,-31.3888,-37.3982,103.46,76.8137,73.0643,-25.267,52.4925,7.12502,1.25366,82.4685,-34.3674,-1.528,5.54599,36.0957,-19.4681,-6.13608,18.0891,-23.6895,-2.99745,-24.3296,17.3658,5.54719,-5.09992,-10.6288
-4.69684,18.0802,-5.62509,0.932187,-47.8055,21.5287,12.7007,2.77378,4.98344,5.98841,4.08607,9.89353,-1.16521,1.86031,7.11497,-5.17965,-14.2171,-10.9524,29.1855,-20.714,5.03033,12.1618,-9.88636,0.95202,-4.45278e-14,-6.67916e-14,8.87205,-2.52371,-83.6662,36.2302,-23.4689,-10.83,-21.1576,7.12502,15.1842,-50.5805,-4.45278e-14,-6.67916e-14,-31.1192,-38.6509,103.938,76.6435,71.819,-25.0139,52.0606,7.12502,1.49818,82.0351,-34.5144,-1.1458,5.87404,35.9852,-19.2215,-5.96818,18.2087,-23.6829,-2.57388,-24.0169,17.4531,5.32803,-4.90673,-10.5032
-4.68797,18.0798,-5.62463,1.18237,-47.6264,21.2403,12.9364,2.52063,5.03582,5.94361,3.78988,9.8258,-1.30576,1.71418,7.045,-5.2632,-14.1305,-10.7702,29.1121,-20.5534,4.89942,12.0927,-9.81555,0.905141,-8.26944e-14,-6.67916e-14,8.66056,-3.52402,-83.1952,36.5147,-23.9453,-11.2239,-21.2962,7.12502,14.8048,-50.7474,-8.26944e-14,-6.67916e-14,-30.5541,-39.7286,104.093,76.4048,70.3946,-23.6061,51.9888,7.12502,2.85778,81.9494,-34.493,-1.1547,6.04128,35.9193,-19.2738,-6.05842,18.5678,-23.8082,-2.70005,-23.7954,17.5498,5.28442,-4.8501,-9.97093
-4.68566,18.0784,-5.62336,1.51691,-46.8951,20.9854,12.8918,2.01356,5.06407,5.82381,3.14212,9.75753,-1.34584,1.39655,7.04831,-5.31419,-13.9216,-10.7385,29.1727,-20.2434,4.84936,12.0871,-9.68494,0.928267,2.8625e-14,1.59028e-14,8.42245,-4.4859,-82.8964,36.766,-24.389,-11.8621,-21.4076,7.12502,14.1898,-50.903,2.8625e-14,1.59028e-14,-29.9508,-40.8032,104.09,76.301,70.5858,-23.9857,51.5366,7.12502,2.49122,81.5018,-34.3889,-1.50252,6.14401,35.8612,-19.4454,-6.36964,18.4788,-24.076,-3.05467,-23.6634,17.667,5.30861,-5.15911,-9.49698
-4.68287,18.0818,-5.60833,1.64018,-46.7226,20.7182,12.9815,1.73456,5.0579,5.77523,2.79127,9.74034,-1.41443,1.22246,7.08259,-5.20365,-13.6791,-10.8854,29.3077,-19.9082,4.86098,12.1075,-9.5584,1.01121,1.59028e-14,-2.22639e-14,8.19192,-5.98365,-82.6397,36.7875,-24.333,-12.2376,-21.4167,7.12502,13.8281,-50.9371,1.59028e-14,-2.22639e-14,-29.503,-42.073,104.395,76.0744,70.1569,-24.1377,50.9225,7.12502,2.34434,80.8894,-34.1785,-1.75532,6.34718,35.7877,-19.4128,-6.2841,18.4995,-23.9839,-3.1224,-23.5371,17.7377,5.10602,-5.21257,-9.40487
-4.6784,18.0853,-5.58967,1.58673,-47.0414,20.4316,13.3428,1.65208,5.05767,5.83512,2.70983,9.68197,-1.53656,1.1796,7.02607,-5.15596,-13.5127,-10.864,29.3607,-19.6756,4.83247,12.0908,-9.46314,1.03874,-6.36111e-15,-3.49861e-14,8.02058,-7.83838,-82.4624,36.8016,-24.241,-12.6462,-21.5326,7.12502,13.4342,-51.0793,-6.36111e-15,-3.49861e-14,-28.9631,-43.6386,104.645,75.7698,69.0859,-24.1995,50.5978,7.12502,2.28471,80.5653,-33.9042,-1.76309,6.61953,35.6754,-19.2333,-6.06825,18.1495,-23.6115,-2.95655,-23.3797,17.7721,4.78693,-4.93188,-9.30469
-4.67344,18.0847,-5.57161,2.05206,-47.3709,20.039,13.2008,1.61137,5.15914,5.85203,2.64799,9.56406,-1.42611,1.15166,6.84914,-5.25174,-13.3849,-10.7018,29.3682,-19.507,4.84559,12.078,-9.37212,1.04132,9.54166e-15,-7.95139e-14,7.81634,-9.70753,-82.1832,37.0234,-24.7037,-13.3911,-21.8807,7.12502,12.7162,-51.4735,9.54166e-15,-7.95139e-14,-28.164,-45.5261,104.615,75.5416,68.4732,-23.8335,50.8807,7.12502,2.63817,80.8442,-34.0945,-1.5421,6.86565,35.5158,-19.1542,-6.04715,18.333,-23.763,-2.91943,-23.0893,17.8678,4.50981,-4.55341,-9.25794
-4.67118,18.0871,-5.54712,2.15273,-47.6539,19.9368,13.1748,1.54734,4.89027,5.86617,2.52863,9.5391,-1.39909,1.08942,6.99398,-5.25236,-13.1795,-10.8377,29.3531,-19.2262,4.97105,12.0763,-9.25434,1.14859,8.90555e-14,9.54166e-15,7.47498,-11.2967,-81.4943,37.2659,-25.3435,-14.1169,-22.1953,7.12502,12.0163,-51.8303,8.90555e-14,9.54166e-15,-27.4513,-47.2463,104.83,75.3652,68.0542,-22.086,51.0415,7.12502,4.32568,80.9773,-34.0644,-1.42369,6.88849,35.3593,-19.0561,-5.90486,18.7374,-23.6907,-2.9715,-23.0304,17.9888,4.07136,-4.27803,-9.41774
-4.66571,18.089,-5.51485,2.44524,-47.9058,19.8819,12.8457,1.37902,4.57766,5.78948,2.25005,9.53659,-1.29113,0.949237,7.21454,-5.18845,-12.8549,-11.0642,29.4736,-18.7502,4.96245,12.0915,-9.07733,1.25432,-6.36111e-15,-6.36111e-15,7.07197,-12.5656,-80.7474,37.3704,-25.5702,-14.9269,-22.3121,7.12502,11.2353,-51.9913,-6.36111e-15,-6.36111e-15,-26.8164,-48.6274,105.1,75.1331,66.893,-20.3492,50.8439,7.12502,6.00264,80.7389,-34.3211,-1.6391,6.95121,35.2381,-18.7576,-5.73071,18.2859,-23.8558,-3.23015,-22.9802,18.0658,3.62187,-3.87768,-10.1295
-4.65723,18.0902,-5.49642,2.87501,-47.9354,19.603,12.7506,1.19088,4.5192,5.62099,2.01037,9.47677,-1.39645,0.833676,7.21598,-5.08279,-12.6197,-10.9802,29.6627,-18.4112,4.78198,12.0829,-8.94751,1.23705,3.49861e-14,-6.67916e-14,6.48924,-14.1949,-80.0933,37.4733,-25.453,-15.6555,-22.2431,7.12502,10.5325,-51.9592,3.49861e-14,-6.67916e-14,-26.3016,-50.3502,105.414,74.8034,65.2507,-19.3917,50.5823,7.12502,6.92701,80.449,-34.5071,-1.78793,7.15294,35.128,-18.6315,-5.71345,18.1754,-24.1016,-3.39611,-22.7758,18.1337,3.35456,-3.70362,-10.7369
-4.64951,18.0933,-5.48014,3.16288,-47.9435,19.4182,12.7879,1.04533,4.29576,5.46442,1.8205,9.47371,-1.57283,0.740146,7.36822,-5.08059,-12.4546,-10.9492,29.792,-18.1548,4.63077,12.0891,-8.85221,1.21662,-4.13472e-14,4.13472e-14,5.87151,-16.092,-79.2486,37.6656,-25.7187,-15.9881,-22.1566,7.12502,10.2116,-51.8887,-4.13472e-14,4.13472e-14,-25.74,-52.2713,105.811,74.5053,63.7987,-18.5092,50.2107,7.12502,7.77886,80.0476,-34.5877,-1.90805,7.26525,35.0077,-18.5577,-5.67184,18.3221,-24.3072,-3.43689,-22.6724,18.288,3.01584,-3.64037,-11.2246
-4.64173,18.095,-5.46029,3.29253,-47.912,19.2632,12.9464,0.855688,4.04886,5.36822,1.57225,9.49707,-1.74447,0.615841,7.57411,-5.34665,-12.2849,-10.9461,30.045,-17.8654,4.44396,12.1953,-8.73855,1.16861,5.08889e-14,4.13472e-14,5.31885,-17.8188,-78.2074,37.9582,-26.7807,-15.2339,-22.2192,7.12502,10.9392,-51.9142,5.08889e-14,4.13472e-14,-24.9698,-53.9956,106.022,74.3472,62.9574,-17.6953,50.0606,7.12502,8.5644,79.8669,-34.5295,-2.17391,7.40603,34.8971,-18.3713,-5.6546,17.8635,-24.358,-3.46825,-22.6344,18.4923,2.66282,-3.57061,-11.333
-4.63464,18.0953,-5.43892,3.63091,-47.8646,18.8245,12.8768,0.601389,4.24789,5.44628,1.24151,9.34767,-1.58182,0.453503,7.34203,-5.77343,-12.0884,-10.6898,30.2737,-17.6002,4.43102,12.3174,-8.58493,1.13316,-8.90555e-14,-5.725e-14,5.05118,-19.6452,-77.5833,38.1487,-27.8001,-14.6803,-22.3687,7.12502,11.4731,-52.0347,-8.90555e-14,-5.725e-14,-23.6578,-55.9041,105.397,74.2286,62.4964,-13.9149,49.6418,7.12502,12.2112,79.2653,-34.4637,-2.3691,7.7481,34.7944,-18.2676,-5.72177,17.4053,-24.3988,-3.55999,-22.3875,18.7381,2.28329,-3.38317,-11.5849
-4.6308,18.0932,-5.41387,4.0287,-47.9445,18.4717,12.6956,0.377004,4.19305,5.46905,0.918902,9.28622,-1.42781,0.292573,7.35098,-5.98137,-11.8175,-10.7288,30.3294,-17.221,4.54416,12.3621,-8.40952,1.22303,-5.40694e-14,-4.45278e-14,4.69458,-21.1827,-76.7979,38.2669,-28.6182,-16.7008,-22.4506,7.12502,9.524,-52.2154,-5.40694e-14,-4.45278e-14,-22.3542,-57.5578,104.763,74.239,62.0023,-16.1122,50.222,7.12502,10.0919,79.96,-34.5514,-2.38584,7.97764,34.702,-18.2024,-5.82702,17.0009,-24.5624,-3.45274,-22.2328,19.046,1.86513,-3.17284,-11.802
-4.62589,18.0895,-5.38647,4.34623,-48.0426,18.1984,12.5832,0.190951,4.03452,5.43604,0.649773,9.28213,-1.37734,0.157056,7.47539,-6.07072,-11.5761,-10.8739,30.403,-16.875,4.62492,12.4013,-8.267,1.31974,-1.39944e-13,4.13472e-14,4.26214,-22.8849,-75.8457,38.2985,-29.0376,-19.1507,-22.5313,7.12502,7.15971,-52.3902,-1.39944e-13,4.13472e-14,-21.1635,-59.0663,104.288,74.3485,61.6958,-14.5572,50.1623,7.12502,11.5918,79.8217,-34.6398,-2.39191,8.13598,34.622,-18.1281,-5.95284,16.6255,-24.7244,-3.26653,-22.1409,19.3852,1.52424,-2.90942,-11.2162
-4.61877,18.0889,-5.3618,4.61554,-48.013,17.9254,12.6107,-0.636071,3.31892,5.28489,-0.503306,9.87944,-1.41656,-0.440005,8.72808,-5.93772,-10.704,-12.7399,30.6096,-15.3354,4.52255,12.4921,-7.82745,1.8014,4.45278e-14,-3.49861e-14,4.1305,-22.0237,-74.5788,38.3575,-29.436,-20.3378,-23.0884,7.12502,6.01367,-52.9831,4.45278e-14,-3.49861e-14,-20.0867,-57.8561,104.371,74.2965,61.0675,-13.6054,50.2294,7.12502,12.5095,79.835,-34.6509,-2.35985,8.25868,34.5695,-18.224,-6.17569,16.5698,-24.8817,-3.27282,-22.0027,19.772,1.13681,-2.65671,-10.8549
-4.61311,18.0938,-5.33455,4.79202,-48.0108,17.7595,12.6059,-0.95153,3.08659,5.21405,-0.93774,9.91866,-1.42838,-0.659762,8.97157,-6.07176,-10.4066,-13.0099,30.7537,-14.852,4.48248,12.5505,-7.65433,1.89292,6.67916e-14,-2.22639e-14,3.68307,-23.4621,-73.6085,38.6203,-29.2781,-21.0053,-23.7374,7.12502,5.36927,-53.6494,6.67916e-14,-2.22639e-14,-19.0314,-58.7976,104.119,74.3159,60.4079,-12.565,50.2185,7.12502,13.5125,79.7601,-34.6367,-2.29682,8.27957,34.5547,-18.4,-6.32502,16.8541,-25.0377,-3.28155,-21.9598,20.2685,0.578783,-2.42766,-11.4499
-4.60812,18.0956,-5.30424,4.97582,-48.045,17.5138,12.6104,-1.03125,3.11996,5.22722,-1.03943,9.75467,-1.40867,-0.706718,8.78075,-6.25562,-10.3255,-12.6802,30.7637,-14.7876,4.56215,12.5579,-7.57911,1.8731,-5.08889e-14,-2.22639e-14,3.40114,-25.7982,-72.6821,38.2724,-28.9761,-21.5748,-24.0029,7.12502,4.81939,-53.928,-5.08889e-14,-2.22639e-14,-17.8019,-60.6676,103.474,74.3495,59.1633,-11.9287,49.8054,7.12502,14.1257,79.3053,-34.615,-2.31528,8.40535,34.5927,-18.4644,-6.43675,16.6762,-25.1504,-2.8156,-21.982,20.8223,0.0774164,-2.5581,-12.3472
-4.59896,18.085,-5.27916,5.24392,-47.9239,17.1284,12.7136,-1.13052,3.24926,5.24118,-1.14706,9.61244,-1.44266,-0.755508,8.56404,-6.46127,-10.2871,-12.2509,30.722,-14.7886,4.62761,12.5446,-7.52137,1.82194,-3.81667e-14,7.31528e-14,3.10365,-27.6577,-71.513,37.7495,-29.3407,-22.8115,-24.1863,7.12502,3.62516,-54.1352,-3.81667e-14,7.31528e-14,-16.2313,-62.5969,102.319,74.3113,57.1731,-8.64089,50.0223,7.12502,17.2921,79.273,-34.5962,-2.37272,8.65017,34.6837,-18.5835,-6.75158,15.6729,-25.2502,-1.96471,-22.0019,21.3776,-0.272908,-3.16593,-14.3252
-4.58982,18.0772,-5.25581,5.37544,-47.6666,16.9712,12.7875,-1.21977,3.35619,5.18623,-1.23473,9.31143,-1.54238,-0.787245,8.18083,-6.57936,-10.3075,-11.4115,30.742,-14.9129,4.51322,12.4945,-7.49567,1.62778,1.27222e-14,-3.18055e-15,2.74375,-30.222,-70.6463,37.2803,-29.355,-24.3445,-24.2995,7.12502,2.14464,-54.2685,1.27222e-14,-3.18055e-15,-15.2798,-65.2775,101.544,74.9725,58.6299,-7.88955,49.4902,7.12502,18.0151,78.6758,-34.5662,-2.47462,8.70411,34.8002,-18.8072,-7.08181,14.995,-25.3421,-1.45792,-22.1093,21.9492,-0.71363,-3.64705,-16.3281
-4.58589,18.0794,-5.23171,5.4497,-47.4746,16.9474,12.8056,-1.54259,3.12843,5.13595,-1.67738,9.25436,-1.54888,-1.00805,8.31466,-6.80634,-10.0469,-11.4566,30.8935,-14.5018,4.45213,12.561,-7.32744,1.66061,1.27222e-14,1.90833e-14,2.76446,-31.966,-69.954,36.7926,-28.9843,-25.9965,-24.1587,7.12502,0.549118,-54.1377,1.27222e-14,1.90833e-14,-14.0051,-66.2653,100.766,75.1074,58.0115,-6.45913,49.0534,7.12502,19.3909,78.1065,-34.5585,-2.59314,8.66348,34.9206,-19.0584,-7.25441,14.7119,-25.4852,-1.30033,-22.1824,22.5346,-1.12676,-3.74507,-16.9716
-4.58051,18.0831,-5.20529,5.665,-47.5597,16.8367,12.7225,-1.73522,2.82889,5.12204,-1.97185,9.26567,-1.47192,-1.15981,8.53932,-7.01419,-9.83861,-11.5567,30.9704,-14.1739,4.47144,12.6136,-7.19225,1.72126,2.8625e-14,9.54166e-15,2.38088,-33.0229,-68.8064,36.5968,-29.0579,-27.4855,-23.9731,7.12502,-0.889034,-53.951,2.8625e-14,9.54166e-15,-12.5832,-67.003,99.9281,75.1292,56.8456,-5.55568,49.0657,7.12502,20.2594,78.0291,-34.7009,-2.52387,8.66013,34.9893,-19.2721,-7.31217,14.9975,-25.7142,-1.18029,-22.1164,23.0917,-1.46015,-3.43769,-17.2113
-4.56665,18.0813,-5.17572,5.90888,-47.8442,16.6531,12.7232,-1.83998,2.71247,5.14989,-2.12801,9.19304,-1.42203,-1.23963,8.5467,-7.25771,-9.67184,-11.5077,30.9968,-13.9268,4.51458,12.6482,-7.0714,1.75475,-3.18055e-15,9.54166e-15,1.80006,-33.9771,-67.4556,36.4313,-28.9943,-27.8446,-24.0051,7.12502,-1.23582,-53.9812,-3.18055e-15,9.54166e-15,-11.3212,-68.1108,99.0603,75.617,57.7445,-8.39333,50.0456,7.12502,17.5303,79.2752,-34.8944,-2.45924,8.72228,34.9792,-19.3423,-7.22394,15.6075,-25.942,-1.08671,-21.9663,23.6808,-1.80871,-2.94903,-17.394
-4.55323,18.0784,-5.14391,6.02598,-48.0716,16.4793,12.8853,-1.95944,2.6325,5.16559,-2.2847,9.11368,-1.47387,-1.31765,8.53532,-7.3035,-9.48761,-11.4175,30.8863,-13.6427,4.47075,12.5706,-6.94582,1.76832,-3.18055e-15,-5.725e-14,1.09558,-35.1742,-66.1736,36.3313,-28.147,-27.5758,-24.4086,7.12502,-0.976259,-54.3861,-3.18055e-15,-5.725e-14,-10.0811,-68.963,98.1374,75.9529,57.7882,-8.98779,50.2635,7.12502,16.9582,79.5432,-34.9232,-2.5807,8.85197,34.9079,-19.2084,-7.23627,15.0875,-26.0775,-1.14388,-21.7922,24.3668,-2.15711,-2.40635,-16.5853
-4.54381,18.0783,-5.11251,6.11288,-48.4338,16.2417,13.118,-2.11883,2.44664,5.22683,-2.50907,9.14121,-1.49568,-1.43621,8.71873,-7.39701,-9.18692,-11.649,30.8256,-13.1521,4.49138,12.5378,-6.7583,1.88423,3.65764e-14,-3.18055e-14,0.724808,-36.076,-65.2827,36.1825,-26.872,-27.6816,-24.7299,7.12502,-1.07836,-54.707,3.65764e-14,-3.18055e-14,-8.80744,-69.1869,97.2267,76.1972,57.4237,-8.77353,50.2414,7.12502,17.1644,79.5033,-34.8878,-2.68347,9.08518,34.8261,-18.9061,-7.30338,13.6993,-26.0995,-1.09127,-21.572,25.0706,-2.50844,-1.90077,-15.9477
-4.53054,18.0792,-5.08399,6.25689,-48.8896,15.9384,13.4219,-2.30338,2.28617,5.32631,-2.76499,9.21667,-1.50669,-1.57375,8.95058,-7.86826,-8.87039,-12.1721,30.9655,-12.5838,4.60844,12.6897,-6.54851,2.07316,-6.36111e-15,-9.85972e-14,0.680337,-36.2178,-64.4642,35.8655,-25.6669,-28.0153,-25.0999,7.12502,-1.40065,-55.075,-6.36111e-15,-9.85972e-14,-7.39413,-68.9802,96.2604,76.3296,57.1163,-8.69709,50.53,7.12502,17.238,79.7855,-34.905,-2.74264,9.38363,34.733,-18.5011,-7.40228,11.9559,-26.1276,-0.786242,-21.3292,25.7124,-2.7028,-1.6623,-16.0936
-4.51394,18.0825,-5.05899,6.26262,-49.1937,15.847,13.7513,-2.45995,2.05469,5.39744,-2.98595,9.18364,-1.56749,-1.68931,9.10162,-8.28365,-8.64043,-12.2971,31.0233,-12.1559,4.55486,12.7615,-6.37597,2.11934,-7.15625e-14,3.81667e-14,0.672314,-36.4944,-63.7041,35.4251,-24.2343,-28.3304,-25.4893,7.12502,-1.705,-55.4623,-7.15625e-14,3.81667e-14,-6.02583,-68.9571,95.1837,76.51,57.1713,-8.83329,50.8651,7.12502,17.1069,80.132,-34.8805,-2.80215,9.46523,34.6271,-18.3047,-7.39029,11.2556,-26.1903,-0.690148,-21.1737,26.298,-2.86474,-1.49805,-15.8672
-4.49905,18.0893,-5.03115,6.2194,-49.4956,15.8042,14.0168,-2.59779,1.87265,5.46965,-3.18116,9.02887,-1.60602,-1.78786,9.07934,-8.50034,-8.43491,-12.0108,30.9888,-11.8195,4.36097,12.7186,-6.21852,2.04388,3.33958e-14,3.49861e-14,0.692129,-36.9228,-63.2266,34.906,-22.8461,-29.0229,-25.4923,7.12502,-2.37383,-55.4589,3.33958e-14,3.49861e-14,-4.97539,-69.103,94.101,76.8742,57.2702,-9.15442,51.1877,7.12502,16.7978,80.4811,-34.8065,-2.83974,9.4855,34.5202,-18.3108,-7.21941,11.8153,-26.2058,-0.740505,-21.0075,26.8323,-3.05779,-1.2774,-15.5637
-4.48535,18.0965,-5.00183,6.31438,-49.9384,15.5547,14.2864,-2.7014,1.80993,5.57107,-3.32135,8.89717,-1.62816,-1.85978,9.00513,-8.66233,-8.18713,-11.7528,30.9425,-11.4513,4.25266,12.6662,-6.04219,2.01301,7.79236e-14,6.04305e-14,0.729398,-36.9909,-62.7923,34.3543,-21.7943,-29.5963,-25.1701,7.12502,-2.92756,-55.1298,7.79236e-14,6.04305e-14,-4.26359,-69.101,93.3077,77.2469,57.1657,-9.35884,51.2992,7.12502,16.601,80.6092,-34.7544,-2.81427,9.67358,34.4187,-18.2354,-7.05563,12.1398,-26.1804,-0.742903,-20.6637,27.3173,-3.17925,-0.94127,-14.9128
-4.46935,18.0983,-4.97377,6.38712,-50.5582,15.3271,14.6249,-2.70354,1.6439,5.66601,-3.33758,8.79364,-1.70365,-1.87105,9.01069,-8.72555,-7.93394,-11.6854,30.8037,-11.1133,4.37839,12.5895,-5.87418,2.10143,3.18055e-14,2.8625e-14,0.747389,-36.8513,-62.3109,33.8798,-21.2388,-29.9788,-25.0637,7.12502,-3.29695,-55.0179,3.18055e-14,2.8625e-14,-3.68541,-69.0312,92.6825,77.568,57.1679,-9.55242,51.1693,7.12502,16.4146,80.4948,-34.7778,-2.72909,9.86968,34.3051,-17.9341,-6.92217,11.2596,-26.1479,-0.574757,-20.3211,27.7743,-3.36585,-0.669565,-14.0289
-4.45289,18.0926,-4.94181,6.37682,-51.2659,15.2691,14.8555,-2.65884,1.32273,5.75837,-3.32157,8.70113,-1.71867,-1.86956,9.10636,-8.89163,-7.72863,-11.759,30.8602,-10.8122,4.4634,12.6273,-5.74164,2.18523,1.38354e-13,-8.42847e-14,0.943721,-36.903,-62.0502,33.4522,-20.7721,-29.8758,-25.0984,7.12502,-3.19756,-55.0542,1.38354e-13,-8.42847e-14,-3.17937,-68.8159,92.2143,77.8382,57.1763,-9.62755,51.186,7.12502,16.3423,80.5175,-34.9153,-2.88101,10.0625,34.1754,-17.3874,-6.75789,9.06561,-26.1516,-0.284638,-20.1118,28.1957,-3.54799,-0.521469,-13.9741
-4.43679,18.0904,-4.90603,6.25,-51.9501,15.3798,15.0125,-2.55237,1.00222,5.81877,-3.22545,8.5455,-1.74532,-1.82424,9.11378,-8.99597,-7.59149,-11.7965,31.0314,-10.6359,4.53778,12.7089,-5.66293,2.2424,5.08889e-14,-5.56597e-14,1.01964,-37.2401,-61.8479,33.1168,-20.4928,-28.8744,-24.9292,7.12502,-2.23038,-54.8972,5.08889e-14,-5.56597e-14,-2.95977,-68.7656,92.034,78.1037,57.0041,-9.92599,51.4382,7.12502,16.0549,80.793,-35.0681,-3.1338,10.1561,34.0667,-16.8685,-6.51379,7.16165,-26.1382,-0.102832,-20.0015,28.5512,-3.7418,-0.294043,-13.8697
-4.42014,18.0948,-4.86852,6.29408,-52.6227,15.3174,15.1188,-2.4254,0.866333,5.88346,-3.08132,8.3952,-1.75779,-1.753,9.00709,-8.98389,-7.47367,-11.8126,31.0178,-10.4992,4.6566,12.6943,-5.59378,2.31266,-4.92986e-14,-1.74931e-14,1.09694,-37.4269,-61.6772,32.8562,-20.8202,-28.0998,-24.7661,7.12502,-1.48227,-54.7407,-4.92986e-14,-1.74931e-14,-2.8189,-68.7986,91.814,78.4203,56.8951,-10.0301,51.4948,7.12502,15.9547,80.8577,-35.2009,-3.20679,10.2595,33.9703,-16.5565,-6.08967,7.02316,-26.1676,-0.0446347,-19.739,28.8744,-4.09289,-0.0133889,-14.4745
-4.40067,18.096,-4.83131,6.4335,-53.2936,15.1687,15.2258,-2.34111,0.797472,5.97045,-2.98709,8.23237,-1.74356,-1.70705,8.854,-9.03261,-7.3308,-11.7521,30.9828,-10.3247,4.75535,12.6724,-5.50027,2.36628,6.52014e-14,-3.81667e-14,1.37752,-37.4139,-61.8259,32.649,-21.2975,-28.7299,-24.974,7.12502,-2.09088,-54.9435,6.52014e-14,-3.81667e-14,-2.61414,-68.6051,91.3718,78.7078,57.1066,-9.86773,51.4627,7.12502,16.111,80.813,-35.34,-3.25095,10.3813,33.8472,-16.2538,-5.56039,7.34116,-26.2691,0.0751837,-19.4171,29.1714,-4.48658,0.156629,-15.9483
-4.38117,18.0931,-4.79671,6.60503,-53.947,14.9516,15.3658,-2.22522,0.741876,6.06087,-2.84843,8.11244,-1.74709,-1.63985,8.73638,-9.18982,-7.22618,-11.7203,31.0751,-10.1882,4.82021,12.7304,-5.42883,2.40132,1.44715e-13,6.36111e-15,1.71852,-37.3305,-62.0601,32.4865,-21.7144,-29.3812,-25.1678,7.12502,-2.71986,-55.1302,1.44715e-13,6.36111e-15,-2.39358,-68.3712,90.9515,78.9558,57.4019,-10.0009,51.5513,7.12502,15.9828,80.9119,-35.4423,-3.20286,10.5352,33.6727,-15.9327,-5.24933,7.09363,-26.397,0.261498,-19.022,29.4465,-4.61543,0.244544,-16.3663
-4.36351,18.0945,-4.75736,6.75155,-54.6006,14.7393,15.4994,-2.09209,0.672542,6.13366,-2.68797,8.05266,-1.76429,-1.5629,8.69054,-9.24654,-7.14583,-11.8394,31.1227,-10.0795,4.93155,12.7654,-5.38285,2.47858,-3.81667e-14,-7.95139e-15,2.09463,-37.1935,-62.2391,32.2941,-21.7418,-29.6459,-25.1498,7.12502,-2.97548,-55.1088,-3.81667e-14,-7.95139e-15,-2.44134,-68.0651,91.024,79.1048,57.6074,-10.2673,51.6035,7.12502,15.7262,80.9845,-35.488,-3.02422,10.6553,33.4746,-15.6871,-5.11711,6.58291,-26.5294,0.277184,-18.5947,29.7142,-4.61142,0.583333,-15.118
-4.34487,18.1011,-4.71669,6.87393,-55.2605,14.5176,15.6944,-1.95362,0.612392,6.21054,-2.51703,7.97615,-1.81257,-1.47983,8.62226,-9.24084,-7.04186,-11.8569,31.1588,-9.96356,5.03347,12.7733,-5.3251,2.53938,5.08889e-14,-9.85972e-14,2.56613,-37.2563,-62.7184,32.1822,-21.2773,-30.7001,-25.2455,7.12502,-3.99354,-55.1879,5.08889e-14,-9.85972e-14,-2.72891,-67.6606,91.4569,79.0293,57.6639,-10.3466,51.6039,7.12502,15.6498,80.9909,-35.4719,-2.64135,10.6946,33.2806,-15.5223,-5.07333,6.54468,-26.6171,0.253429,-18.1833,29.9352,-4.63569,1.08887,-13.7372
-4.32348,18.1064,-4.68087,7.00262,-55.8159,14.3318,16.0086,-1.73636,0.28739,6.2305,-2.26822,8.12413,-1.9725,-1.36337,8.95744,-9.28351,-7.00889,-12.0534,31.2316,-9.86026,4.97982,12.8129,-5.30918,2.56539,1.27222e-14,-6.99722e-14,3.15969,-37.0914,-63.0216,32.1263,-21.0755,-28.0686,-24.5052,7.12502,-1.45219,-54.48,1.27222e-14,-6.99722e-14,-2.97254,-67.1424,92.194,78.7972,57.6181,-10.149,51.5127,7.12502,15.8402,80.8848,-35.4962,-2.36525,10.7213,33.1058,-15.3432,-5.00558,6.6029,-26.7234,0.323874,-17.8266,30.0569,-4.62685,1.49829,-12.433
-4.30202,18.105,-4.64021,7.06278,-56.1837,14.3065,16.103,-1.66299,0.234223,6.24434,-2.17873,8.06214,-2.0227,-1.31785,8.90917,-9.27708,-6.96963,-12.0609,31.2399,-9.76956,4.87294,12.8,-5.28402,2.53953,2.54444e-14,2.06736e-14,3.61482,-36.6756,-63.4883,32.1203,-21.0218,-28.8983,-24.7084,7.12502,-2.25345,-54.6763,2.54444e-14,2.06736e-14,-3.20225,-66.7317,92.4106,78.6855,57.6679,-10.087,51.3583,7.12502,15.8998,80.7256,-35.5867,-2.43262,10.6861,32.9973,-15.1137,-4.70999,6.64724,-26.8819,0.26861,-17.5586,30.0673,-4.51694,1.88224,-11.5119
-4.28154,18.1014,-4.59444,7.02653,-56.4534,14.3083,16.138,-1.71144,0.414256,6.36158,-2.22986,7.79303,-1.92975,-1.34058,8.50812,-9.34945,-6.89604,-11.7571,31.1642,-9.70397,4.86338,12.754,-5.22002,2.49374,-1.59028e-14,-1.11319e-14,4.19353,-36.1198,-64.4285,32.1337,-20.9812,-29.9479,-25.1112,7.12502,-3.26711,-55.0659,-1.59028e-14,-1.11319e-14,-3.27349,-66.3239,92.0057,78.6514,57.8491,-10.1631,51.3187,7.12502,15.8266,80.6918,-35.5809,-2.48072,10.5736,32.9562,-14.9823,-4.42225,6.85285,-26.9693,0.0709209,-17.2998,30.0063,-4.36278,2.34361,-11.7347
-4.26266,18.1005,-4.5484,6.88526,-56.6913,14.4139,16.1105,-1.70381,0.582316,6.52479,-2.21651,7.53567,-1.76309,-1.33387,8.11297,-9.42942,-6.86427,-11.5986,31.0924,-9.72067,5.02892,12.74,-5.18653,2.52651,6.36111e-14,-9.38264e-14,4.87533,-35.8551,-65.4899,32.1959,-20.8161,-29.7748,-25.1717,7.12502,-3.09997,-55.1289,6.36111e-14,-9.38264e-14,-2.95006,-66.0784,91.2863,78.6294,58.2946,-10.1653,51.2996,7.12502,15.8244,80.6729,-35.5521,-2.46957,10.3795,32.9657,-14.8698,-4.34566,6.16127,-27.0319,-0.0685938,-17.1547,29.8762,-4.17857,2.75814,-11.5575
-4.24528,18.1016,-4.50377,6.91907,-56.8368,14.3629,16.2167,-1.5469,0.521829,6.50638,-2.01295,7.66784,-1.85822,-1.23492,8.26753,-9.38706,-6.94068,-11.9511,31.1671,-9.79133,5.1002,12.7992,-5.24952,2.60265,-2.22639e-14,4.77083e-14,5.37149,-35.6688,-65.9087,32.2461,-20.531,-29.2579,-24.944,7.12502,-2.60077,-54.9079,-2.22639e-14,4.77083e-14,-3.11853,-65.8663,91.6723,78.5004,58.8374,-10.1624,51.269,7.12502,15.8272,80.642,-35.5318,-2.43165,10.2683,32.9815,-14.7642,-4.40546,4.90711,-27.1531,-0.0439322,-16.9692,29.6654,-4.04471,3.03556,-10.5972
-4.22688,18.0986,-4.46198,6.96867,-56.9191,14.2891,16.314,-1.44863,0.544908,6.54051,-1.88036,7.70582,-1.89077,-1.1705,8.27776,-9.38979,-7.01504,-12.0172,31.1962,-9.87658,5.07061,12.8247,-5.2962,2.58863,4.29375e-14,-1.43125e-14,6.0311,-35.5194,-66.8087,32.4057,-20.408,-29.0351,-24.8824,7.12502,-2.3856,-54.8488,4.29375e-14,-1.43125e-14,-3.28427,-65.5671,91.8424,78.3596,59.3841,-10.3273,51.4145,7.12502,15.6685,80.8001,-35.5197,-2.44767,10.1876,33.0111,-14.7263,-4.4404,4.14392,-27.2808,0.0890261,-16.7904,29.3623,-3.99463,3.16805,-10.5943
-4.20894,18.0948,-4.41934,6.97258,-56.9738,14.279,16.3782,-1.41047,0.468046,6.5938,-1.84484,7.75305,-1.8678,-1.15806,8.37145,-9.43499,-7.01666,-11.8423,31.1854,-9.81878,4.7883,12.7957,-5.28211,2.45795,-2.8625e-14,-3.81667e-14,6.71638,-34.881,-67.769,32.6934,-20.6893,-29.1759,-24.8638,7.12502,-2.52156,-54.8286,-2.8625e-14,-3.81667e-14,-3.53224,-65.0305,92.0352,78.1687,59.6292,-10.71,51.5033,7.12502,15.2998,80.9174,-35.5082,-2.30715,9.98867,33.0644,-14.839,-4.53866,4.36489,-27.4054,0.192239,-16.65,28.9741,-4.06427,3.34348,-11.3796
-4.19239,18.0883,-4.3731,6.89081,-56.99,14.3081,16.4255,-1.32541,0.526843,6.64011,-1.72775,7.76081,-1.86147,-1.10091,8.32617,-9.37129,-7.06078,-11.8667,31.1851,-9.86342,4.72329,12.7855,-5.31182,2.43227,3.81667e-14,4.77083e-15,7.16834,-34.273,-68.4766,32.9503,-21.037,-29.2422,-24.6896,7.12502,-2.58566,-54.6537,3.81667e-14,4.77083e-15,-3.82747,-64.7808,92.1957,78.0377,59.8631,-11.1202,51.357,7.12502,14.9047,80.8008,-35.4227,-2.22068,9.79215,33.1179,-14.8917,-4.76623,3.49312,-27.4508,0.0985033,-16.5074,28.507,-4.14674,3.74468,-12.0979
-4.17424,18.0767,-4.32722,6.83932,-56.8235,14.2781,16.5689,-1.15278,0.559944,6.6069,-1.48436,7.96854,-1.99991,-0.980708,8.50451,-9.10091,-7.2343,-12.3863,31.1413,-10.0921,4.9019,12.7836,-5.45157,2.56026,1.90833e-14,-1.11319e-14,7.3651,-33.5323,-68.5833,33.2374,-21.6313,-29.1436,-24.7263,7.12502,-2.49043,-54.6915,1.90833e-14,-1.11319e-14,-4.22141,-64.6732,92.7443,77.9257,60.5024,-11.2259,51.0902,7.12502,14.8029,80.5415,-35.2981,-2.30929,9.65739,33.176,-14.9158,-5.03717,2.13586,-27.5003,-0.0221739,-16.3664,27.9389,-4.13339,4.00687,-12.8387
-4.15683,18.0724,-4.27994,6.91199,-56.6293,14.133,16.4679,-1.13838,1.15366,6.73022,-1.39717,7.76393,-1.85019,-0.929393,7.90292,-9.01361,-7.3569,-12.3253,31.0567,-10.3651,5.1787,12.7714,-5.52869,2.6183,6.83819e-14,-4.6118e-14,7.76077,-33.0005,-69.5944,33.5279,-21.9997,-28.9354,-24.7461,7.12502,-2.28934,-54.7136,6.83819e-14,-4.6118e-14,-3.95612,-64.6811,92.0971,77.6821,61.2478,-11.1667,50.8345,7.12502,14.8599,80.2816,-35.1604,-2.22414,9.49322,33.2438,-15.1327,-5.38335,1.49211,-27.5801,-0.0879174,-16.1991,27.2878,-4.12171,4.18765,-13.3818
-4.14095,18.0723,-4.23376,6.84638,-56.4297,14.1722,16.6031,-0.977194,0.799551,6.71282,-1.2264,8.14542,-1.94105,-0.857851,8.51409,-9.09351,-7.4952,-12.4457,31.1583,-10.4344,4.84211,12.829,-5.60763,2.49325,7.4743e-14,9.22361e-14,8.37451,-32.0171,-69.9702,33.6714,-21.9592,-28.7468,-24.6118,7.12502,-2.1072,-54.5812,7.4743e-14,9.22361e-14,-4.36698,-63.9702,93.054,77.1869,61.6153,-11.297,50.7571,7.12502,14.7343,80.2134,-35.04,-2.22422,9.2456,33.3184,-15.3368,-5.71926,0.892374,-27.6353,-0.238119,-16.1245,26.5715,-4.12436,4.46133,-13.6765
-4.12642,18.0665,-4.18695,6.67659,-56.2073,14.312,16.5565,-0.980168,0.906263,6.80841,-1.22691,8.05825,-1.81944,-0.859001,8.3488,-9.22098,-7.54067,-12.0204,31.1993,-10.5209,4.6767,12.84,-5.61178,2.34211,-3.81667e-14,-1.00187e-13,9.05892,-31.5629,-71.3409,33.8887,-21.6542,-28.9336,-24.332,7.12502,-2.28758,-54.2994,-3.81667e-14,-1.00187e-13,-4.79207,-63.4633,93.0894,76.9777,62.2105,-11.7072,50.9786,7.12502,14.3391,80.4634,-34.9224,-2.36334,8.98539,33.423,-15.4548,-5.90681,0.313226,-27.6369,-0.33979,-16.149,25.7743,-4.08168,4.76277,-14.0119
-4.11362,18.0618,-4.13291,6.61676,-56.0164,14.3361,16.5301,-0.900466,0.992486,6.8328,-1.1126,8.15429,-1.794,-0.804116,8.38333,-9.15521,-7.62597,-12.0809,31.137,-10.6204,4.64403,12.8138,-5.66373,2.32637,1.1609e-13,3.97569e-14,9.27415,-30.3985,-71.7335,34.2219,-22.2545,-29.1874,-24.2736,7.12502,-2.53265,-54.2383,1.1609e-13,3.97569e-14,-5.50374,-62.9057,93.6736,76.8357,62.9179,-12.0147,50.931,7.12502,14.0428,80.4366,-34.7712,-2.32001,8.70343,33.5026,-15.6881,-6.09827,0.438588,-27.6256,-0.494079,-16.1263,24.895,-4.02059,5.23975,-13.7785
-4.09307,18.0574,-4.0985,6.69635,-55.5232,14.3177,16.5941,-0.828495,0.880827,6.76268,-1.01869,8.42047,-1.90551,-0.760663,8.73629,-9.07657,-7.75175,-12.3978,31.1174,-10.7744,4.74696,12.8371,-5.75261,2.39593,-3.81667e-14,1.59028e-14,9.40887,-28.7385,-71.6314,34.5243,-23.1374,-29.2992,-24.4286,7.12502,-2.64066,-54.392,-3.81667e-14,1.59028e-14,-6.14121,-62.3321,94.2734,76.7013,63.6361,-12.1862,50.5567,7.12502,13.8775,80.0737,-34.694,-2.2137,8.43292,33.6654,-16.1503,-6.6284,0.94236,-27.8353,-0.467576,-16.0903,23.9469,-3.83799,5.27394,-13.3081
-4.08728,18.0531,-4.02121,6.51244,-55.3333,14.248,16.4322,-0.837513,1.57824,6.92013,-0.957395,8.20977,-1.67897,-0.722101,8.06701,-9.08999,-7.87216,-12.2351,31.2515,-11.0475,4.92115,12.924,-5.83085,2.39317,3.02153e-14,-1.59028e-15,9.85419,-28.0287,-72.8014,34.6636,-23.0483,-29.1073,-24.4063,7.12502,-2.45534,-54.3719,3.02153e-14,-1.59028e-15,-6.8521,-62.0482,94.2923,76.7415,64.5508,-12.4965,50.3369,7.12502,13.5785,79.8741,-34.3006,-2.11242,8.11836,33.826,-16.4661,-6.82178,0.892692,-27.5254,-0.969645,-16.0472,22.9886,-3.79206,6.32792,-14.1792
-4.06872,18.0454,-3.9839,6.52596,-54.7252,14.3156,16.4717,-0.738602,1.55385,6.7898,-0.807707,8.42365,-1.85299,-0.644877,8.29848,-9.01366,-8.1038,-12.3038,31.3398,-11.3518,4.80537,12.9773,-5.98219,2.31331,1.43125e-14,1.27222e-14,10.3829,-27.5083,-73.7183,34.6498,-22.5144,-28.1449,-24.503,7.12502,-1.52582,-54.4773,1.43125e-14,1.27222e-14,-7.87232,-61.5578,95.1795,76.7318,65.5808,-12.7101,50.2847,7.12502,13.3726,79.8356,-34.2167,-2.14001,7.78896,34.0353,-16.9846,-7.13089,1.57882,-27.7498,-0.614804,-16.2878,22.021,-3.41931,6.33188,-15.6425
-4.05401,18.0334,-3.93656,6.40553,-54.1886,14.3941,16.5598,-0.584745,1.50239,6.70071,-0.592132,8.67509,-2.01782,-0.537736,8.57789,-8.79198,-8.3267,-12.3479,31.239,-11.6259,4.6232,12.9104,-6.12683,2.21588,1.27222e-14,-4.13472e-14,10.7401,-26.6416,-74.2586,34.6626,-22.4169,-27.5465,-24.6488,7.12502,-0.947928,-54.6265,1.27222e-14,-4.13472e-14,-8.89766,-61.0973,96.0987,76.7649,66.4673,-13.9341,50.4132,7.12502,12.1927,80.0378,-33.9914,-2.20458,7.46089,34.2032,-17.4826,-7.42229,2.08671,-27.7958,-0.370137,-16.5398,21.0432,-3.01669,6.42265,-15.8115
-4.0427,18.0234,-3.88083,6.22723,-53.7397,14.427,16.5357,-0.542779,1.83505,6.7352,-0.491587,8.64248,-1.9858,-0.482514,8.32484,-8.65255,-8.43444,-12.177,31.1307,-11.8274,4.65069,12.845,-6.1909,2.17437,1.11319e-14,-1.27222e-14,11.134,-25.7013,-75.2779,34.6969,-22.5642,-27.8904,-24.5324,7.12502,-1.28009,-54.5083,1.11319e-14,-1.27222e-14,-9.83764,-60.6088,96.4598,76.8507,67.2922,-15.4322,50.4891,7.12502,10.7479,80.1942,-33.6901,-2.29579,7.20219,34.4128,-17.8001,-7.81466,1.6882,-27.6537,-0.336511,-16.7206,19.9942,-2.57174,6.70749,-15.2809
-4.03257,18.0164,-3.82266,6.13112,-53.3766,14.3681,16.4827,-0.366336,2.12595,6.75864,-0.221479,8.67322,-1.96925,-0.344223,8.13613,-8.4701,-8.657,-12.0862,31.0669,-12.244,4.84687,12.831,-6.338,2.1776,3.02153e-14,-8.5875e-14,11.4349,-24.8881,-76.1098,34.7239,-22.74,-28.0223,-24.4385,7.12502,-1.40745,-54.4136,3.02153e-14,-8.5875e-14,-10.8463,-60.1886,97.0122,76.8947,68.0799,-15.8638,50.4099,7.12502,10.3315,80.1361,-33.3833,-2.38684,7.00941,34.6039,-18.0789,-8.04554,1.41285,-27.4587,-0.476701,-16.7835,18.9259,-2.10598,7.23686,-14.9588
-4.02168,18.0104,-3.76588,5.95797,-53.048,14.4198,16.4365,-0.0578846,2.33109,6.7504,0.214191,8.64832,-2.00878,-0.120899,7.90578,-8.2812,-9.00276,-11.7266,31.0448,-12.8967,5.036,12.835,-6.55761,2.09802,-3.81667e-14,2.22639e-14,11.6322,-24.526,-76.9456,34.6872,-22.644,-27.5496,-24.3212,7.12502,-0.950955,-54.2988,-3.81667e-14,2.22639e-14,-11.9061,-60.0814,97.5026,77.0406,68.9307,-17.6542,50.7875,7.12502,8.60403,80.5922,-33.0926,-2.40373,6.71088,34.8299,-18.4419,-8.21596,1.29894,-27.2273,-0.559785,-16.9271,17.8403,-1.62564,7.79257,-13.9036
-4.00674,18.0013,-3.70914,5.76719,-52.4513,14.585,16.3684,0.128849,2.42451,6.71059,0.478484,8.72385,-2.04702,0.0142859,7.88517,-8.27185,-9.31381,-11.3972,31.0308,-13.3996,5.00578,12.8484,-6.73609,1.95453,6.04305e-14,-2.54444e-14,12.2164,-23.9406,-77.7801,34.3558,-22.5641,-27.1354,-24.1278,7.12502,-0.550828,-54.1069,6.04305e-14,-2.54444e-14,-12.8735,-59.6182,98.0189,77.1087,69.5257,-19.0404,50.581,7.12502,7.26619,80.4362,-32.8069,-2.41449,6.26639,35.1121,-18.9959,-8.52058,1.98358,-27.1294,-0.577,-17.2788,16.7354,-0.938397,8.12227,-13.9183
-3.99065,17.9874,-3.6504,5.52752,-51.7415,14.7887,16.3745,0.176578,2.47033,6.66541,0.559891,8.86579,-2.10816,0.0560753,8.00292,-8.36958,-9.49869,-11.3948,31.056,-13.662,5.02639,12.9088,-6.83916,1.91376,1.27222e-14,5.40694e-14,13.3794,-22.9046,-78.6623,33.556,-22.6845,-26.8642,-23.9708,7.12502,-0.288885,-53.9503,1.27222e-14,5.40694e-14,-13.7112,-58.6267,98.5012,77.0048,69.6825,-18.0153,50.18,7.12502,8.2556,79.9987,-32.511,-2.53604,5.80979,35.4477,-19.4642,-8.91846,1.78362,-27.0056,-0.383617,-17.871,15.6016,0.0815293,8.12447,-16.8442
-3.97786,17.9729,-3.58822,5.31804,-51.2851,14.9269,16.3601,0.261481,2.45656,6.62382,0.678236,9.05475,-2.16037,0.113584,8.20139,-8.32191,-9.62528,-11.6324,31.0412,-13.8032,5.03637,12.9313,-6.92311,1.9335,0,-4.13472e-14,11.9357,-20.9578,-78.5492,35.0212,-23.8854,-26.3367,-23.8186,7.12502,0.220589,-53.7983,0,-4.13472e-14,-14.7597,-57.3884,99.1918,77.0717,70.3191,-17.6283,50.3478,7.12502,8.62902,80.1515,-32.2702,-2.58244,5.40664,35.7961,-19.9042,-9.11479,1.61661,-26.7637,0.0455027,-18.5376,14.4995,1.19897,8.04429,-21.1822
-3.96665,17.956,-3.5247,5.32449,-50.869,14.8561,16.2456,0.338649,2.41607,6.5903,0.774395,9.36554,-2.14955,0.15578,8.55586,-8.29804,-9.73535,-12.0863,31.0518,-13.8717,5.02497,12.9813,-7.00153,1.98814,-3.18055e-14,1.59028e-14,11.7021,-19.3342,-78.901,35.3671,-24.2399,-25.8678,-23.7301,7.12502,0.673391,-53.7088,-3.18055e-14,1.59028e-14,-15.7766,-56.0057,99.9326,77.1487,71.2884,-18.0925,50.4605,7.12502,8.18104,80.2821,-32.0427,-2.50081,5.11802,36.0785,-20.3902,-9.33871,2.14401,-26.5611,0.27185,-18.9207,13.5305,2.03631,8.23593,-23.1185
-3.95476,17.937,-3.46028,5.29523,-50.3347,14.8212,16.1055,0.370753,2.43205,6.56333,0.816856,9.62425,-2.1106,0.172971,8.82911,-8.20267,-9.83363,-12.6576,31.0338,-13.9852,5.26327,13.0426,-7.08561,2.1525,-5.08889e-14,-3.18055e-14,11.933,-17.8471,-79.4527,35.2669,-24.4488,-25.6031,-23.7288,7.12502,0.92904,-53.7065,-5.08889e-14,-3.18055e-14,-16.6788,-54.8107,100.424,77.1237,71.8687,-18.4937,50.13,7.12502,7.79389,79.9664,-31.7115,-2.41924,4.7979,36.2608,-20.8674,-9.69987,2.27855,-26.4296,0.418674,-19.2842,12.7148,2.82912,8.27369,-22.9332
-3.942,17.9294,-3.39393,5.15605,-49.7378,14.8473,15.9984,0.458146,2.5723,6.527,0.953294,9.75158,-2.11013,0.242986,8.86352,-8.00531,-9.96533,-12.8344,30.9214,-14.209,5.44677,13.013,-7.18249,2.22381,-1.27222e-14,-3.81667e-14,12.0222,-16.8184,-80.1007,35.216,-24.515,-25.2905,-23.7712,7.12502,1.23099,-53.7474,-1.27222e-14,-3.81667e-14,-17.6467,-54.0964,100.786,77.2353,72.3435,-19.1537,49.9507,7.12502,7.15684,79.8097,-31.2529,-2.48618,4.48083,36.3631,-21.2053,-10.0856,2.01781,-26.3564,0.736937,-19.8132,12.0227,3.84388,7.76118,-22.9316
-3.92871,17.9271,-3.32624,5.13136,-49.1242,14.7687,15.8671,0.677466,2.81785,6.44011,1.28324,9.81396,-2.17429,0.41511,8.72605,-7.7639,-10.1738,-12.3956,30.749,-14.5648,5.331,12.8774,-7.30375,2.06924,-3.49861e-14,-5.40694e-14,11.9349,-16.1582,-80.6479,35.117,-24.4849,-24.9956,-23.9089,7.12502,1.51579,-53.8833,-3.49861e-14,-5.40694e-14,-18.6448,-53.8996,101.096,77.4519,73.2092,-19.9205,50.1869,7.12502,6.41652,80.0697,-30.804,-2.60529,4.25206,36.4159,-21.5023,-10.5221,1.21173,-26.3816,1.10401,-20.3148,11.504,4.75864,7.0359,-22.215
-3.91556,17.9185,-3.25489,5.10847,-48.5271,14.739,15.6845,1.17607,3.27522,6.4756,1.98731,9.67398,-2.11273,0.776445,8.16608,-8.06211,-10.7792,-11.5488,30.6954,-15.6,5.48773,12.9594,-7.61883,1.81022,-1.90833e-14,6.67916e-14,12.0405,-16.4828,-81.2157,35.0462,-24.3501,-24.6881,-24.0706,7.12502,1.81284,-54.0427,-1.90833e-14,6.67916e-14,-19.0908,-54.794,100.903,77.7064,74.5266,-20.7126,50.3683,7.12502,5.65182,80.2729,-30.3761,-2.79047,3.99382,36.4336,-21.7353,-10.9446,0.258598,-26.3999,1.64034,-20.9759,11.2171,5.3917,6.13958,-20.8181
-3.90542,17.9074,-3.17417,4.73172,-48.0697,15.049,15.4044,1.51927,3.57743,6.53636,2.45035,9.42362,-1.9319,1.01717,7.62459,-7.99152,-11.2077,-11.2106,30.551,-16.4323,6.00034,12.9911,-7.87751,1.81708,-6.67916e-14,-2.54444e-14,12.1891,-16.4648,-82.0696,34.9105,-24.2028,-24.5187,-24.0703,7.12502,1.97638,-54.0409,-6.67916e-14,-2.54444e-14,-19.7051,-55.1004,100.707,77.921,75.6714,-21.5183,50.6083,7.12502,4.87386,80.5323,-29.8546,-3.08275,3.47489,36.472,-21.8913,-11.0525,-0.447766,-26.237,2.19431,-21.93,11.2331,5.63897,5.45709,-20.7215
-3.89498,17.899,-3.08429,4.1451,-47.7408,15.5899,14.8603,1.68277,3.85271,6.76222,2.62502,8.98923,-1.38898,1.11514,6.95912,-8.00615,-11.4352,-10.4818,30.3256,-16.9394,6.25762,12.9025,-7.98702,1.7221,8.26944e-14,-5.40694e-14,12.6427,-16.1662,-83.4422,34.6386,-23.832,-24.3431,-23.8838,7.12502,2.14604,-53.8527,8.26944e-14,-5.40694e-14,-19.9212,-54.9015,99.798,78.1058,76.2783,-21.793,51.1748,7.12502,4.60869,81.1046,-29.3059,-3.2592,2.72833,36.5688,-22.1164,-11.106,-1.00549,-26.0476,2.54174,-22.9602,11.6549,5.49074,5.22658,-21.5107
-3.87862,17.8824,-3.00255,3.99549,-47.2684,15.5114,14.8089,1.98269,3.72005,6.74637,3.00585,9.29756,-1.43677,1.29879,7.31314,-8.03181,-11.7603,-10.2876,30.3282,-17.3883,6.07487,12.9148,-8.17314,1.54775,-1.27222e-14,9.22361e-14,12.6998,-15.3547,-83.6097,34.4465,-23.8228,-23.9671,-23.7204,7.12502,2.50914,-53.6854,-1.27222e-14,9.22361e-14,-20.5874,-54.2851,100.235,78.2337,76.6055,-21.873,51.7901,7.12502,4.53143,81.7216,-28.7238,-3.1017,2.4067,36.7043,-22.5908,-11.5006,-1.18851,-25.9916,3.28057,-23.6858,12.4135,5.16864,4.3981,-22.0913
-3.86365,17.8556,-2.93644,4.12182,-46.5521,14.8802,15.0818,2.18552,4.13597,6.69894,3.36009,9.56054,-1.65825,1.47675,7.29863,-7.97642,-12.0998,-10.2328,30.263,-17.9358,6.23117,12.9454,-8.38155,1.50814,-1.20861e-13,-6.36111e-15,12.6738,-14.8536,-83.986,34.4824,-24.2261,-23.2875,-23.8295,7.12502,3.16547,-53.7857,-1.20861e-13,-6.36111e-15,-21.0872,-53.8488,100.295,78.3936,77.3344,-22.102,52.4143,7.12502,4.31025,82.3504,-27.9715,-2.78664,2.5361,36.8438,-23.2908,-12.062,-0.778731,-25.9605,4.36256,-24.1067,13.3371,4.64047,2.4723,-23.2123
-3.84869,17.8327,-2.87265,4.18857,-45.7004,14.4025,15.3482,2.27813,4.36626,6.5542,3.56467,9.92458,-1.98207,1.57768,7.5274,-7.57664,-12.3246,-10.556,30.0343,-18.2729,6.44227,12.8662,-8.55179,1.60525,9.54166e-15,9.54166e-14,12.5111,-14.0059,-84.1649,34.5993,-24.7715,-22.5471,-23.9535,7.12502,3.88044,-53.8979,9.54166e-15,9.54166e-14,-21.8075,-53.0711,100.723,78.4344,77.5927,-22.547,52.7996,7.12502,3.88059,82.744,-27.2692,-2.70277,2.60483,36.9763,-23.8319,-12.643,-0.888859,-26.0854,4.93,-24.4227,14.3156,3.8803,0.626577,-23.1533
-3.83117,17.8179,-2.79724,4.12877,-44.9771,14.2685,15.3415,2.38431,4.35895,6.44706,3.72673,10.2118,-2.1283,1.65756,7.82202,-7.36164,-12.5251,-10.8522,29.9208,-18.5543,6.56826,12.8558,-8.69559,1.66122,-5.725e-14,-2.8625e-14,12.4293,-12.9855,-84.3823,34.6822,-25.146,-22.4003,-24.0886,7.12502,4.02224,-54.0304,-5.725e-14,-2.8625e-14,-22.4927,-52.3928,101.141,78.4386,77.4837,-23.2627,52.8521,7.12502,3.18939,82.808,-26.7099,-2.86849,2.4212,37.069,-24.1793,-13.0752,-1.60905,-26.2213,5.10902,-24.8387,15.0623,3.27607,-0.542825,-21.7596
-3.81076,17.8054,-2.7173,4.06209,-44.2822,14.0894,15.3072,2.49064,4.46701,6.45592,3.88312,10.4189,-2.12317,1.7346,7.96462,-7.57355,-12.7776,-10.9445,29.9786,-18.9134,6.6391,12.9833,-8.83568,1.6196,3.18055e-15,-1.01778e-13,12.5649,-12.2231,-84.8216,34.7875,-25.7497,-22.6272,-24.0746,7.12502,3.80308,-54.0204,3.18055e-15,-1.01778e-13,-22.7693,-51.9436,101.112,78.5347,77.8787,-24.3793,52.8458,7.12502,2.11103,82.8151,-26.0443,-2.94552,2.23492,37.0986,-24.5436,-13.4671,-2.36285,-26.1432,5.34053,-25.2226,15.3971,2.86468,-1.40901,-19.9462
-3.79043,17.7953,-2.63711,3.95946,-43.445,13.9775,15.237,2.51493,4.51273,6.44852,3.92341,10.6212,-2.10796,1.75443,8.16039,-7.70587,-12.9621,-11.0682,29.9551,-19.1848,6.77881,13.064,-8.93921,1.62939,3.18055e-15,-4.13472e-14,12.6286,-11.3091,-85.1434,34.9638,-26.4579,-22.2552,-23.9583,7.12502,4.16231,-53.8974,3.18055e-15,-4.13472e-14,-23.137,-51.5122,101.14,78.9349,79.1659,-27.1009,52.4567,7.12502,-0.517495,82.4358,-25.2782,-3.05451,1.99267,37.0718,-24.9188,-13.8814,-3.02552,-25.9471,5.10063,-25.5307,15.4935,2.54395,-1.76031,-18.0509
-3.77285,17.7849,-2.54988,3.81248,-42.6667,14.0733,14.9592,2.56199,4.41491,6.4055,3.95962,10.7495,-2.02507,1.77446,8.36116,-7.60713,-13.1241,-11.1442,29.8038,-19.4351,6.92009,13.036,-9.04214,1.65626,-1.27222e-14,-2.54444e-14,12.5497,-10.3046,-85.3573,35.1553,-26.8063,-21.7315,-24.0971,7.12502,4.66807,-54.0257,-1.27222e-14,-2.54444e-14,-23.7283,-51.2245,101.291,79.6124,80.7779,-31.0389,52.0709,7.12502,-4.32069,82.0068,-24.5978,-3.29737,1.59535,37.0109,-25.1981,-14.1918,-3.62283,-25.7687,4.31998,-25.8429,15.578,2.20437,-1.56555,-16.0171
-3.75193,17.7715,-2.46066,3.68349,-42.2076,14.1097,14.7688,2.77132,4.46527,6.36824,4.23325,10.7763,-1.99318,1.91489,8.31689,-7.39564,-13.3616,-11.0633,29.6028,-19.8106,7.01629,12.9538,-9.19361,1.63234,-3.49861e-14,-2.8625e-14,12.3014,-9.48512,-85.4661,35.4947,-27.1938,-21.165,-24.3866,7.12502,5.21507,-54.3024,-3.49861e-14,-2.8625e-14,-24.2237,-51.0714,101.368,79.9415,81.5741,-33.0423,51.7315,7.12502,-6.25507,81.6192,-24.0247,-3.35701,1.21784,36.939,-25.4154,-14.3665,-4.05434,-25.5936,4.17334,-26.2586,15.6752,1.79608,-1.73368,-14.6413
-3.72788,17.7576,-2.37582,3.62228,-41.9385,13.99,14.7143,3.03566,4.65212,6.36934,4.60195,10.7863,-1.99091,2.10186,8.15567,-7.23745,-13.5862,-10.9997,29.4103,-20.1741,7.16395,12.8942,-9.33412,1.62751,6.36111e-14,-1.27222e-14,12.0727,-8.78392,-85.5794,35.9249,-27.7634,-20.4346,-24.4656,7.12502,5.92025,-54.3629,6.36111e-14,-1.27222e-14,-24.5677,-50.964,101.327,79.8899,81.4981,-33.303,50.2882,7.12502,-6.50669,80.1682,-23.5127,-3.28591,0.967962,36.8425,-25.5141,-14.4894,-4.4618,-25.4337,4.46536,-26.639,15.8579,1.41748,-1.96661,-13.5096
-3.70832,17.7451,-2.2935,3.41714,-41.4787,13.9718,14.8239,3.21842,4.73146,6.33838,4.87374,10.8185,-2.10946,2.23985,8.09218,-7.18605,-13.7761,-11.031,29.3164,-20.4779,7.31322,12.9037,-9.45168,1.6361,-1.27222e-14,8.26944e-14,11.9906,-8.34763,-85.8709,36.2158,-28.0629,-19.8503,-24.4268,7.12502,6.48433,-54.3075,-1.27222e-14,8.26944e-14,-24.7474,-50.503,101.196,79.6739,80.7031,-31.833,50.0752,7.12502,-5.08749,79.9942,-22.7915,-3.22412,0.625443,36.7113,-25.9562,-14.3673,-3.01184,-25.2116,4.74822,-27.1499,16.2249,0.882496,-2.45353,-13.6514
-3.68794,17.7357,-2.21159,3.14533,-40.7617,13.7578,15.2273,3.28948,4.97803,6.24957,5.0616,10.9017,-2.42718,2.33555,7.99165,-7.10069,-13.9428,-11.0658,29.2938,-20.763,7.45601,12.9342,-9.56231,1.64746,-6.83819e-14,3.18055e-15,11.8349,-8.05358,-86.2016,36.4552,-28.1328,-19.3669,-24.5075,7.12502,6.95099,-54.3734,-6.83819e-14,3.18055e-15,-24.7506,-49.6113,100.891,79.222,78.4073,-27.6514,52.4932,7.12502,-1.04926,82.4704,-21.7408,-3.09825,0.433154,36.6055,-26.7188,-14.1597,-0.628948,-24.7328,5.03853,-27.525,16.5894,0.195487,-3.31669,-14.8658
-3.65723,17.7325,-2.12598,3.07122,-40.1791,13.2769,15.5718,3.32151,5.4892,6.20001,5.22089,11.0015,-2.64324,2.41489,7.76636,-6.99211,-14.0718,-11.0828,29.2558,-20.9646,7.50555,12.9291,-9.64825,1.64017,-1.04958e-13,5.40694e-14,11.6719,-7.58248,-86.4986,36.6941,-28.2032,-18.9921,-24.5852,7.12502,7.31276,-54.4388,-1.04958e-13,5.40694e-14,-25.0729,-49.2924,100.876,79.3664,78.7043,-27.8665,52.4443,7.12502,-1.25697,82.4203,-20.8588,-2.96226,0.481954,36.5842,-27.0157,-14.2475,-0.382547,-24.2332,5.30232,-27.6148,16.7513,-0.277597,-3.99397,-14.8551
-3.62668,17.7268,-2.04019,3.02802,-39.7644,13.3014,15.5046,3.43253,5.56319,6.1366,5.38334,11.0172,-2.68626,2.49856,7.71155,-6.83767,-14.1855,-11.1816,29.0972,-21.1141,7.56282,12.8703,-9.72511,1.66166,1.11319e-14,1.49486e-13,11.5915,-7.04507,-86.7266,36.9016,-28.4804,-18.807,-24.5321,7.12502,7.49146,-54.3794,1.11319e-14,1.49486e-13,-25.1582,-48.8434,100.817,79.2884,78.2539,-25.2819,53.4876,7.12502,1.23934,83.4638,-20.4778,-2.92809,0.118418,36.6567,-26.9745,-14.4784,-1.04377,-24.0831,5.37564,-28.0518,16.7927,-0.560628,-4.4592,-13.854
-3.60396,17.7166,-1.95892,2.7933,-39.3553,13.8848,15.3041,3.59924,5.09119,6.01191,5.54329,10.9184,-2.76659,2.5847,7.8438,-6.69176,-14.2674,-11.2037,29.0028,-21.2314,7.59024,12.8222,-9.78207,1.66684,-3.02153e-14,-7.63333e-14,11.4748,-6.58691,-86.9459,37.1324,-28.9776,-18.7022,-24.4529,7.12502,7.59261,-54.2966,-3.02153e-14,-7.63333e-14,-25.2405,-48.3358,100.715,79.191,78.0051,-25.05,53.6912,7.12502,1.46323,83.6659,-20.2957,-2.75662,-0.728998,36.8013,-26.9226,-14.9134,-1.92224,-24.0925,5.32111,-28.9138,16.8589,-0.852385,-4.95292,-13.4894
-3.57572,17.7145,-1.87804,2.68316,-38.9657,14.1535,15.2,3.73637,4.91412,5.93865,5.70417,10.8233,-2.81495,2.66967,7.80956,-6.62825,-14.3408,-11.1482,28.902,-21.3621,7.69179,12.79,-9.82565,1.67931,2.38542e-14,-4.45278e-14,11.4931,-6.43343,-87.3436,37.2859,-29.2181,-18.2928,-24.2903,7.12502,7.98774,-54.1193,2.38542e-14,-4.45278e-14,-25.1662,-47.9846,100.4,79.1958,78.0553,-25.2362,53.9622,7.12502,1.2834,83.9381,-20.0866,-2.38483,-1.31947,36.9835,-26.6419,-15.7086,-4.19609,-24.0704,5.27761,-29.4914,16.994,-1.08038,-5.42995,-13.1286
-3.54294,17.7143,-1.79843,2.71463,-38.8418,14.0931,15.2539,3.91462,4.99917,5.90243,5.96169,10.7595,-2.89431,2.79927,7.63612,-6.62925,-14.4194,-11.1193,28.9035,-21.4879,7.72989,12.8074,-9.87068,1.66599,-2.06736e-14,1.145e-13,11.5732,-6.36636,-87.7969,37.3374,-29.2636,-17.9481,-24.2408,7.12502,8.32039,-54.057,-2.06736e-14,1.145e-13,-25.0131,-47.6196,100.088,79.1931,77.9657,-25.3298,54.3702,7.12502,1.19306,84.3466,-19.9226,-1.70373,-1.6378,37.1613,-26.4812,-16.2041,-5.33827,-24.0815,5.46044,-29.7693,17.2684,-1.30187,-5.83246,-12.5566
-3.51244,17.717,-1.72171,2.79983,-39.0862,13.899,15.3669,4.17731,5.05804,5.94364,6.31967,10.7292,-2.93732,2.97565,7.49484,-6.65525,-14.4588,-11.1157,28.8894,-21.536,7.73433,12.8127,-9.88861,1.65624,-4.29375e-14,-5.725e-14,11.7123,-6.13031,-88.2309,37.329,-29.4457,-18.1534,-24.3224,7.12502,8.12229,-54.1463,-4.29375e-14,-5.725e-14,-24.8401,-47.0566,99.8006,79.1512,77.9531,-25.2887,54.5567,7.12502,1.23278,84.5329,-19.8788,-0.626276,-1.83428,37.3186,-26.5837,-16.4788,-4.47874,-24.144,5.82991,-29.8828,17.6945,-1.65229,-6.05868,-12.3297
-3.47827,17.7261,-1.64451,3.02058,-39.2697,13.5884,15.3816,4.4202,5.28139,6.05709,6.65009,10.6769,-2.82346,3.13839,7.24983,-6.86436,-14.5196,-10.9075,28.7639,-21.6107,7.74347,12.785,-9.8927,1.60356,-7.95139e-15,-1.01778e-13,12.0059,-6.06219,-88.6462,37.3536,-29.5548,-18.1345,-24.3766,7.12502,8.14057,-54.1998,-7.95139e-15,-1.01778e-13,-24.3228,-46.6804,99.256,79.0314,77.9061,-24.9892,54.4666,7.12502,1.52201,84.441,-19.9673,0.283,-1.93814,37.5479,-26.3424,-17.043,-4.50117,-24.2492,6.01747,-29.8937,18.1092,-1.95118,-6.10984,-11.9813
-3.44248,17.7375,-1.5677,3.1653,-39.3257,13.4037,15.5067,4.61246,5.43406,6.05534,6.93459,10.5795,-2.88813,3.2794,6.99313,-6.94135,-14.558,-10.6253,28.6897,-21.6649,7.67792,12.7289,-9.89457,1.52946,2.8625e-14,6.04305e-14,12.1542,-6.26949,-89.0689,37.3464,-29.3637,-17.5373,-24.3079,7.12502,8.71691,-54.1079,2.8625e-14,6.04305e-14,-23.9973,-46.3833,98.8652,78.9007,77.4744,-24.2375,54.7517,7.12502,2.24795,84.7196,-20.1072,0.951898,-2.14379,37.8956,-25.6056,-17.9157,-6.10921,-24.2751,6.16488,-30.0342,18.3594,-2.15008,-6.20371,-11.5903
-3.4091,17.7407,-1.49362,3.23568,-39.3636,13.3669,15.6129,4.71874,5.40406,6.00712,7.08781,10.4838,-3.00211,3.35574,6.86508,-6.57921,-14.452,-10.6655,28.4799,-21.5645,7.90872,12.5966,-9.85442,1.66989,3.18055e-15,-2.22639e-14,12.1961,-6.29839,-89.5248,37.3322,-29.3244,-17.3131,-24.3037,7.12502,8.93322,-54.0945,3.18055e-15,-2.22639e-14,-23.8992,-45.7726,98.7035,78.7968,77.093,-23.4924,55.1403,7.12502,2.96754,85.0994,-20.2856,1.58264,-2.46146,38.3284,-25.034,-18.5865,-6.44212,-24.2694,6.32381,-30.2829,18.4717,-2.23003,-6.34262,-10.454
-3.37446,17.7356,-1.41655,3.37495,-39.3658,13.2608,15.5414,4.74056,5.46692,6.07383,7.10432,10.3869,-2.87306,3.3654,6.72751,-6.12915,-14.2425,-10.825,27.9793,-21.3416,8.44163,12.3716,-9.75485,1.96562,-8.42847e-14,-4.45278e-14,12.4581,-6.12369,-89.9886,37.2594,-29.4603,-17.4958,-24.3205,7.12502,8.75687,-54.1188,-8.42847e-14,-4.45278e-14,-23.5419,-45.1165,98.3625,78.7035,76.8996,-23.4588,55.2103,7.12502,3.00006,85.169,-20.5007,2.03873,-2.70984,38.798,-24.5997,-18.915,-5.66969,-24.2515,6.25892,-30.4136,18.5183,-2.27106,-6.32334,-8.18777
-3.34021,17.7411,-1.33691,3.52246,-39.5118,13.0856,15.4979,4.80911,5.47562,6.14905,7.17749,10.3365,-2.76746,3.40207,6.65942,-5.94308,-14.0739,-10.8911,27.6937,-21.1028,8.62877,12.2245,-9.65766,2.10255,-1.11319e-14,-9.54166e-15,12.6757,-5.91697,-90.2888,37.1421,-29.6023,-17.3865,-24.4049,7.12502,8.86242,-54.1988,-1.11319e-14,-9.54166e-15,-23.2493,-44.4803,98.188,78.6272,76.6889,-23.6892,55.3314,7.12502,2.77755,85.293,-20.7737,2.40836,-2.8976,39.2821,-24.125,-19.0141,-5.04161,-24.1494,6.27731,-30.5154,18.523,-2.48039,-6.29949,-7.88864
-3.30835,17.7588,-1.26198,3.67066,-39.6744,12.8918,15.5495,4.89861,5.33505,6.14737,7.28289,10.3414,-2.82458,3.45338,6.71914,-5.92539,-13.9473,-10.8247,27.6442,-20.8666,8.45975,12.1413,-9.5715,2.07804,1.74931e-14,9.54166e-14,12.6189,-5.66875,-90.416,37.1536,-29.7179,-17.3113,-24.4551,7.12502,8.935,-54.2459,1.74931e-14,9.54166e-14,-23.1857,-43.8465,98.2918,78.5255,76.4127,-23.7225,55.5113,7.12502,2.74538,85.4734,-21.0693,2.83519,-3.05044,39.7715,-23.6216,-19.237,-4.48798,-24.0374,6.48749,-30.668,18.5411,-2.82911,-6.44908,-9.51897
-3.27469,17.769,-1.18973,3.77445,-39.6551,12.8134,15.5315,4.90984,5.17827,6.13996,7.27645,10.2851,-2.83531,3.45135,6.74666,-5.89042,-13.823,-10.7686,27.5811,-20.6633,8.39525,12.0692,-9.49032,2.08719,-9.85972e-14,-1.01778e-13,12.5816,-5.56547,-90.5832,37.2227,-29.8537,-17.3315,-24.5634,7.12502,8.91542,-54.355,-9.85972e-14,-1.01778e-13,-23.0682,-43.3213,98.3626,78.4114,76.1691,-23.8664,55.553,7.12502,2.60638,85.5168,-21.3291,3.08895,-3.27779,40.2646,-23.0198,-19.517,-3.98572,-23.9856,6.46731,-30.8787,18.6144,-3.11186,-6.54964,-9.97587
-3.24118,17.7687,-1.11339,3.74513,-39.7294,12.829,15.4969,4.90615,4.93461,6.20517,7.22526,10.1823,-2.76027,3.42722,6.78473,-5.90646,-13.6463,-10.7832,27.5565,-20.4322,8.51702,12.0526,-9.38053,2.17145,-9.70069e-14,3.18055e-14,12.6016,-5.55643,-90.8406,37.2666,-29.8651,-17.2428,-24.6692,7.12502,9.00106,-54.4572,-9.70069e-14,3.18055e-14,-22.7891,-42.8926,98.28,78.3027,76.1281,-24.2673,55.6804,7.12502,2.21916,85.6486,-21.56,3.32247,-3.58191,40.7997,-22.4955,-19.6431,-2.76322,-23.8208,6.43273,-31.1296,18.6322,-3.35571,-6.5249,-9.83038
-3.21019,17.7682,-1.03553,3.68434,-39.9547,12.8131,15.5154,4.93871,4.64988,6.28243,7.21931,10.0652,-2.70799,3.42445,6.81834,-6.0321,-13.4562,-10.7135,27.6411,-20.1981,8.61664,12.0874,-9.25591,2.22727,-3.33958e-14,6.36111e-15,12.5705,-5.64578,-91.1216,37.2778,-29.8255,-17.3083,-24.3093,7.12502,8.93785,-54.1,-3.33958e-14,6.36111e-15,-22.4625,-42.5055,98.1751,78.0825,76.114,-24.3791,55.8421,7.12502,2.11126,85.8114,-21.8559,3.59208,-3.84602,41.395,-21.947,-19.6559,-0.886107,-23.5307,6.57131,-31.3667,18.5121,-3.57112,-6.43986,-9.73683
-3.17859,17.7699,-0.961294,3.84702,-40.0633,12.6217,15.4379,4.9179,4.56211,6.28625,7.16973,9.92902,-2.65148,3.40184,6.73294,-6.11297,-13.2736,-10.5616,27.7921,-19.9654,8.59403,12.1144,-9.13732,2.2312,-2.22639e-14,1.90833e-14,12.4749,-5.87711,-91.4066,37.3353,-29.8056,-17.3363,-24.0993,7.12502,8.91085,-53.8912,-2.22639e-14,1.90833e-14,-22.1444,-42.2731,98.1037,77.7673,75.9661,-24.3499,55.9267,7.12502,2.13945,85.8957,-22.2709,3.62586,-3.92713,42.0185,-21.108,-19.8353,-0.0653436,-23.3575,6.57224,-31.4402,18.3256,-3.61582,-6.39095,-8.87395
-3.14657,17.7694,-0.893705,4.0888,-40.1338,12.3747,15.3326,4.8569,4.44862,6.30008,7.06143,9.8463,-2.5742,3.34941,6.73438,-6.2153,-13.0547,-10.5944,27.9447,-19.6628,8.61364,12.1661,-9.00058,2.28573,1.27222e-14,3.18055e-14,12.3711,-6.06173,-91.6007,37.4673,-29.7763,-17.1643,-24.2784,7.12502,9.0768,-54.0631,1.27222e-14,3.18055e-14,-21.8392,-42.0729,98.1158,77.5111,75.7929,-24.5345,55.702,7.12502,1.96114,85.6727,-22.756,3.54621,-3.93305,42.648,-20.2942,-20.2694,-0.348044,-23.2502,6.34418,-31.3822,18.1452,-3.57239,-6.17554,-7.08672
-3.11526,17.773,-0.826184,4.24382,-40.1857,12.2049,15.3176,4.76909,4.19677,6.32131,6.90914,9.80741,-2.55542,3.27342,6.86384,-6.46044,-12.8236,-10.6128,28.1209,-19.3061,8.53294,12.235,-8.8434,2.3009,5.56597e-14,1.90833e-14,12.218,-6.0569,-91.6456,37.6348,-29.9746,-17.292,-24.3784,7.12502,8.95361,-54.1684,5.56597e-14,1.90833e-14,-21.4776,-41.9247,98.1999,77.265,75.7426,-24.568,55.7699,7.12502,1.92877,85.7409,-23.2164,3.45174,-3.98023,43.2874,-19.4972,-20.6929,0.225539,-23.0856,6.16439,-31.4184,17.9604,-3.55239,-5.95867,-6.0025
-3.08424,17.7835,-0.758069,4.43675,-40.2656,11.9709,15.3215,4.70186,4.01943,6.31525,6.79789,9.73182,-2.56547,3.21848,6.9011,-6.62325,-12.6064,-10.5179,28.2679,-19.008,8.51008,12.2771,-8.69929,2.31774,5.40694e-14,7.63333e-14,11.9796,-6.1352,-91.678,37.8359,-30.2855,-17.8759,-24.3054,7.12502,8.39011,-54.1188,5.40694e-14,7.63333e-14,-21.0295,-42.0291,98.2377,76.9369,75.8085,-24.2663,56.1397,7.12502,2.22013,86.1079,-23.721,3.37729,-3.95925,43.9269,-18.7027,-20.9047,2.3596,-22.9421,6.15727,-31.4581,17.8196,-3.62618,-5.90602,-6.13367
-3.05465,17.7915,-0.69362,4.5597,-40.4158,11.7987,15.3233,4.64811,3.80265,6.34546,6.69247,9.58906,-2.53235,3.16654,6.88758,-6.6587,-12.3776,-10.5269,28.3102,-18.7397,8.71573,12.2946,-8.56241,2.43705,6.52014e-14,-1.90833e-14,11.7282,-6.3537,-91.6942,38.0113,-30.3613,-18.1921,-24.2363,7.12502,8.08496,-54.0616,6.52014e-14,-1.90833e-14,-20.4316,-42.2111,98.1523,76.4792,75.7764,-24.0947,56.6043,7.12502,2.38594,86.5707,-24.2915,3.18266,-3.94015,44.5681,-17.7208,-21.2954,3.96408,-22.8033,6.2934,-31.5529,17.7274,-3.69836,-5.98562,-6.35939
-3.02535,17.7968,-0.631654,4.66193,-40.5099,11.6071,15.3466,4.53116,3.58514,6.39721,6.50291,9.45667,-2.48025,3.07199,6.90173,-6.77011,-12.1192,-10.5961,28.3955,-18.4294,8.95352,12.3497,-8.40586,2.57902,-9.38264e-14,1.39944e-13,11.4926,-6.6019,-91.6867,38.1552,-30.4056,-18.3452,-24.1654,7.12502,7.93717,-53.9964,-9.38264e-14,1.39944e-13,-19.7606,-42.4067,98.0212,76.0106,75.8416,-24.2734,56.5698,7.12502,2.21328,86.5381,-24.8054,2.87362,-3.85757,45.1946,-16.7134,-21.6641,5.23711,-22.6784,6.42801,-31.6138,17.724,-3.76198,-6.11941,-6.51612
-2.99893,17.8,-0.568926,4.74642,-40.5704,11.4799,15.3002,4.40679,3.28059,6.44438,6.28879,9.35651,-2.40604,2.96482,7.00959,-7.28177,-11.9234,-10.3908,28.903,-18.0871,8.53547,12.5461,-8.25016,2.41787,2.38542e-14,2.54444e-14,11.2934,-6.87089,-91.6225,38.2003,-30.4095,-18.5761,-23.9303,7.12502,7.71433,-53.7696,2.38542e-14,2.54444e-14,-19.0908,-42.7712,97.984,75.5717,76.1256,-24.7259,56.1283,7.12502,1.77625,86.1006,-25.3133,2.61623,-3.83535,45.8073,-16.0561,-21.6771,7.47728,-22.5956,6.33316,-31.6735,17.8132,-3.94192,-6.07096,-6.39302
-2.97543,17.8023,-0.508017,4.98724,-40.629,11.232,15.1729,4.27777,3.10487,6.48424,6.07918,9.22215,-2.278,2.86086,7.01036,-8.14058,-11.7688,-9.96705,29.7051,-17.76,7.80326,12.8825,-8.09333,2.07956,2.8625e-14,4.45278e-14,11.1748,-7.41688,-91.6538,38.0593,-29.9195,-18.5834,-23.5348,7.12502,7.70729,-53.3744,2.8625e-14,4.45278e-14,-18.2343,-43.431,97.779,75.0706,76.5524,-25.4025,55.7393,7.12502,1.12281,85.7161,-25.8905,2.34284,-3.68031,46.3338,-15.5463,-21.5173,8.86849,-22.6712,6.16323,-31.6253,18.0481,-4.23832,-5.94251,-6.32047
-2.95039,17.8051,-0.450272,5.42475,-40.7486,10.8677,14.9408,4.13249,2.94531,6.49339,5.84708,9.10824,-2.12453,2.74595,7.03264,-8.58005,-11.5121,-9.84474,30.0656,-17.3611,7.59891,13.042,-7.90951,2.02357,-1.43125e-13,-1.27222e-14,11.0005,-7.96773,-91.6492,37.8601,-29.2737,-18.4942,-23.1528,7.12502,7.79337,-52.9891,-1.43125e-13,-1.27222e-14,-17.2993,-44.0173,97.5071,74.4888,76.8709,-25.6175,55.5387,7.12502,0.915218,85.5165,-26.6267,2.00807,-3.41193,46.7644,-15.2175,-20.7852,9.89479,-22.9539,6.12458,-31.5183,18.3779,-4.51428,-5.87289,-6.13145
-2.92452,17.8133,-0.391615,5.90795,-40.9205,10.4334,14.607,3.98924,2.76156,6.5316,5.6058,9.07201,-1.89412,2.62416,7.16113,-8.52862,-11.2091,-9.95418,30.0255,-16.9023,7.62865,12.9773,-7.72831,2.13459,-1.11319e-13,-3.18055e-15,10.8233,-8.44627,-91.5006,37.593,-28.9031,-18.5954,-22.8202,7.12502,7.69571,-52.6602,-1.11319e-13,-3.18055e-15,-16.4094,-44.4378,97.4307,73.8733,76.924,-25.0555,55.9201,7.12502,1.45796,85.8948,-27.3877,1.71411,-3.06286,47.0889,-14.6804,-19.4079,9.63253,-23.2481,6.15617,-31.3777,18.7422,-4.50046,-5.66712,-4.81426
-2.89873,17.8161,-0.336145,6.1369,-40.9963,10.2647,14.3885,3.84901,2.51231,6.58749,5.36734,8.91839,-1.70067,2.50406,7.19048,-8.54583,-10.9805,-9.91546,30.0162,-16.5588,7.59388,12.9296,-7.58383,2.17414,2.38542e-14,-8.5875e-14,10.8256,-9.31575,-91.5046,37.1217,-28.4967,-19.0098,-22.4524,7.12502,7.2957,-52.3067,2.38542e-14,-8.5875e-14,-15.5724,-45.2164,97.4134,73.2695,76.8401,-24.5532,56.2534,7.12502,1.94309,86.2243,-28.0612,1.39305,-2.91371,47.3331,-14.0521,-17.6251,8.46598,-23.4452,6.0671,-31.426,19.0889,-4.48662,-5.47568,-3.75059
-2.87539,17.8074,-0.284705,6.24822,-41.0321,10.1834,14.3656,3.72995,2.15446,6.5838,5.16574,8.74751,-1.68687,2.40278,7.24385,-8.62694,-10.7665,-9.87518,30.0683,-16.2796,7.67189,12.9405,-7.4502,2.24027,-1.74931e-14,6.04305e-14,10.7378,-10.1624,-91.43,36.6241,-28.3673,-19.857,-22.2068,7.12502,6.47784,-52.0878,-1.74931e-14,6.04305e-14,-14.8138,-46.2321,97.4838,72.6328,76.7726,-24.6911,56.3758,7.12502,1.80989,86.3478,-28.686,1.11196,-2.82529,47.4985,-13.922,-15.5246,7.25588,-23.5905,5.74783,-31.4387,19.4497,-5.04336,-5.38908,-4.57186
-2.85311,17.803,-0.230898,6.47029,-41.2035,9.9382,14.3233,3.59417,1.83308,6.58247,4.94434,8.61414,-1.65633,2.29056,7.3224,-8.71484,-10.516,-9.9053,30.1767,-15.9332,7.72105,12.9728,-7.29785,2.31731,2.06736e-14,-9.85972e-14,10.5402,-10.829,-91.3709,36.1471,-28.2961,-20.8483,-22.2309,7.12502,5.52082,-52.139,2.06736e-14,-9.85972e-14,-14.0049,-47.2489,97.4822,71.9564,76.7976,-25.4058,56.1159,7.12502,1.11959,86.0927,-29.378,1.00381,-2.60776,47.5774,-14.1769,-13.1379,4.80991,-23.7495,5.37198,-31.2918,19.8677,-5.64846,-5.04066,-5.45551
-2.83078,17.8018,-0.176691,6.86967,-41.4162,9.4733,14.212,3.37788,1.74057,6.58288,4.63839,8.45578,-1.5551,2.1379,7.25938,-8.70383,-10.201,-9.81908,30.2386,-15.4637,7.60384,12.9215,-7.10486,2.3402,3.49861e-14,3.18055e-15,10.3003,-11.4854,-91.4675,35.6712,-28.1351,-21.711,-22.4446,7.12502,4.68787,-52.3727,3.49861e-14,3.18055e-15,-13.1233,-48.2878,97.2713,71.2729,76.89,-25.809,55.6985,7.12502,0.730237,85.677,-30.1126,0.972336,-2.16384,47.5583,-14.1966,-11.2185,1.61962,-23.9849,5.12961,-31.0183,20.3685,-6.0796,-4.61134,-5.4852
-2.80957,17.7972,-0.127927,7.41617,-41.5961,8.86518,14.1103,3.15314,1.6739,6.54608,4.33006,8.35948,-1.50137,1.98444,7.24741,-8.67845,-9.83755,-9.78593,30.2743,-14.9316,7.54969,12.8615,-6.88436,2.40548,-3.65764e-14,-6.67916e-14,9.95731,-11.9126,-91.3818,35.2568,-28.2912,-22.7172,-22.8363,7.12502,3.71617,-52.7837,-3.65764e-14,-6.67916e-14,-12.1394,-49.3233,97.0005,70.5495,76.874,-25.4857,55.7212,7.12502,1.04245,85.6984,-30.9134,1.01511,-1.54055,47.4408,-13.9151,-10.0823,-0.847952,-24.3642,5.00612,-30.652,20.9834,-6.53696,-4.30401,-5.68414
-2.79259,17.7914,-0.0768044,7.87505,-41.8565,8.39792,13.9914,2.97141,1.35224,6.52509,4.04695,8.28618,-1.44382,1.83978,7.40397,-8.81751,-9.5009,-9.88225,30.4469,-14.4457,7.57868,12.919,-6.6798,2.50556,-6.04305e-14,-3.81667e-14,9.66193,-12.2767,-91.223,34.7334,-28.3293,-23.8085,-23.148,7.12502,2.66229,-53.1111,-6.04305e-14,-3.81667e-14,-11.0222,-50.2538,96.7769,69.6468,76.6587,-25.4817,56.1194,7.12502,1.04637,86.0966,-31.7407,1.03593,-1.01435,47.2519,-13.3733,-9.3823,-2.4272,-24.754,4.94792,-30.4108,21.6477,-6.99163,-4.02896,-6.2075
-2.77371,17.7821,-0.021438,8.10131,-41.896,8.21786,13.8248,2.70248,1.07319,6.536,3.64839,8.06908,-1.29839,1.63906,7.3984,-9.04624,-9.20105,-9.80721,30.6763,-14.0244,7.53821,13.0044,-6.48852,2.53737,2.22639e-14,6.36111e-15,9.5355,-13.1632,-91.3499,34.1257,-27.9208,-24.7038,-23.4169,7.12502,1.79764,-53.389,2.22639e-14,6.36111e-15,-9.72626,-51.3903,96.3853,68.6461,76.506,-25.5086,56.9,7.12502,1.02034,86.8773,-32.3334,0.979549,-0.784027,47.0236,-13.426,-8.13622,-0.642766,-25.0363,4.57669,-30.3604,22.2503,-7.37819,-3.67931,-6.11807
-2.75202,17.7731,0.0330294,8.27924,-41.7445,8.1057,13.8794,2.4006,0.718214,6.38571,3.22709,7.9568,-1.44797,1.4315,7.54527,-9.17842,-8.91953,-9.82103,30.9944,-13.5942,7.3749,13.1041,-6.32037,2.543,8.74653e-14,5.40694e-14,9.07823,-14.0911,-91.1869,33.6208,-27.5309,-25.4003,-23.4393,7.12502,1.12493,-53.4161,8.74653e-14,5.40694e-14,-8.71437,-52.7686,96.3477,67.7007,76.375,-24.2994,57.5142,7.12502,2.18822,87.4827,-32.8698,0.834181,-0.573589,46.7635,-13.7054,-6.90954,0.111253,-25.2943,4.11937,-30.3687,22.7703,-7.67552,-3.41971,-5.45296
-2.73361,17.7691,0.0857046,8.53044,-41.8275,7.90881,13.3512,2.05717,1.0256,6.65699,2.75228,7.30273,-0.774504,1.19698,6.74267,-9.44873,-8.60095,-9.29055,30.8909,-13.2811,7.62031,13.0565,-6.09573,2.59081,3.18055e-15,-6.04305e-14,9.21863,-15.3738,-91.9589,33.3424,-27.1624,-25.8762,-23.4698,7.12502,0.66535,-53.4485,3.18055e-15,-6.04305e-14,-6.35219,-54.7657,94.2773,66.8746,76.5366,-22.5635,58.1574,7.12502,3.86463,88.1021,-33.663,0.639022,-0.113152,46.4563,-13.4141,-6.54448,-3.82751,-25.5604,3.87722,-30.3115,23.2595,-7.87482,-3.21383,-4.28906
-2.72113,17.7655,0.137214,8.91636,-42.0447,7.51811,13.3906,1.92671,0.625655,6.4952,2.55263,7.26381,-0.959761,1.09684,6.95793,-9.37837,-8.33318,-9.40722,31.088,-12.8887,7.5726,13.0862,-5.95089,2.66025,1.74931e-14,1.27222e-14,8.62599,-16.2985,-91.6328,33.1098,-27.0754,-25.8746,-23.5663,7.12502,0.666855,-53.545,1.74931e-14,1.27222e-14,-5.10207,-56.266,94.0278,65.9137,76.3095,-21.3502,58.6224,7.12502,5.03621,88.5426,-34.4968,0.642903,0.505175,46.1093,-13.195,-6.25237,-7.21827,-25.8033,3.76134,-30.0813,23.7241,-8.02979,-3.07507,-2.86721
-2.71201,17.761,0.189301,9.37244,-42.2074,7.088,13.4191,1.77783,0.240235,6.24711,2.33684,7.22776,-1.22507,0.993705,7.17106,-9.1982,-8.05627,-9.56656,31.3514,-12.5193,7.5979,13.1324,-5.8169,2.7665,-7.95139e-15,-1.27222e-14,7.922,-17.3307,-91.2974,32.6454,-26.955,-25.7555,-23.3007,7.12502,0.781857,-53.279,-7.95139e-15,-1.27222e-14,-4.01365,-57.9606,93.8478,64.8519,75.8569,-21.4147,58.2878,7.12502,4.9739,88.2094,-35.2864,0.742827,1.08706,45.7148,-13.3392,-5.67707,-7.91058,-26.0741,3.70977,-29.8525,24.1683,-8.2453,-2.99947,-1.97387
-2.70367,17.7521,0.239885,9.67646,-42.3725,6.81692,13.0274,1.50226,0.394384,6.3762,1.96017,6.61947,-0.809393,0.811092,6.48217,-9.26891,-7.7484,-9.11061,31.3141,-12.2607,7.90563,13.089,-5.6233,2.84965,-4.77083e-14,-3.02153e-14,7.78189,-18.7898,-91.9648,32.3101,-26.9175,-25.9636,-22.9635,7.12502,0.580891,-52.9425,-4.77083e-14,-3.02153e-14,-1.6466,-60.244,91.6688,63.9223,75.7783,-21.993,58.2629,7.12502,4.41552,88.1969,-36.0284,0.843999,1.56075,45.2838,-13.5015,-5.18686,-8.58054,-26.2957,3.72529,-29.7661,24.5881,-8.53319,-2.9274,-1.57616
-2.69717,17.741,0.288211,9.8789,-42.5183,6.6501,13.1857,1.42279,-0.560626,6.17709,1.77361,6.82244,-1.11458,0.708039,7.28146,-9.36443,-7.54568,-9.34698,31.6288,-11.8484,7.58619,13.1899,-5.5077,2.82989,-7.95139e-15,6.36111e-14,6.9077,-19.2992,-90.947,32.3494,-27.6556,-26.538,-23.0424,7.12502,0.0260887,-53.0221,-7.95139e-15,6.36111e-14,-0.403131,-61.7817,91.7655,62.9235,75.5215,-21.833,58.5113,7.12502,4.57002,88.442,-36.709,1.06964,1.93234,44.8159,-13.64,-4.90667,-9.03659,-26.4363,3.65771,-29.709,24.9497,-8.84767,-2.90742,-0.907904
-2.69181,17.7351,0.335294,10.1779,-42.6002,6.42963,13.0377,1.24404,-0.91621,6.13549,1.49662,6.60941,-1.04561,0.568197,7.29754,-9.65008,-7.32575,-9.14495,31.907,-11.5713,7.53608,13.3198,-5.36491,2.81318,6.99722e-14,1.90833e-14,6.24481,-20.2425,-90.6293,32.5699,-28.2492,-27.6666,-23.2036,7.12502,-1.06386,-53.1807,6.99722e-14,1.90833e-14,1.7858,-63.7661,90.1976,62.2288,75.4782,-21.6437,58.582,7.12502,4.75277,88.5087,-37.4249,1.33878,2.34076,44.3029,-13.7233,-4.88804,-9.59206,-26.594,3.57122,-29.5916,25.2433,-9.11722,-2.98886,0.179288
-2.68416,17.7307,0.381037,10.6434,-42.605,6.19016,12.7821,1.0385,-1.11775,6.01341,1.20617,6.30785,-0.996517,0.42899,7.12778,-9.80756,-7.11268,-8.97484,32.1274,-11.3761,7.70348,13.4263,-5.24116,2.87914,4.77083e-14,1.11319e-14,5.44754,-21.4082,-90.4278,32.9064,-28.6634,-28.2953,-22.9981,7.12502,-1.67108,-52.9713,4.77083e-14,1.11319e-14,4.10339,-65.8462,88.2456,61.6457,75.3403,-21.2655,58.7754,7.12502,5.11798,88.6936,-38.2659,1.50172,2.76749,43.7299,-13.8826,-4.97945,-9.54864,-26.9488,3.58248,-29.5175,25.5215,-9.32339,-3.19381,0.666638
-2.67893,17.7275,0.428611,11.0725,-42.558,5.93058,12.5475,0.718523,-1.43235,5.87712,0.755458,6.18612,-0.954895,0.204552,7.24059,-9.81078,-6.78856,-9.24769,32.312,-10.933,7.88819,13.4888,-5.06727,3.07321,-3.18055e-14,2.22639e-14,4.62045,-22.2909,-90.0929,33.2005,-28.8418,-27.3618,-22.8869,7.12502,-0.769501,-52.8653,-3.18055e-14,2.22639e-14,5.81389,-67.0694,87.1289,60.8962,74.6384,-20.0753,59.2183,7.12502,6.26709,89.1056,-39.0108,1.55976,3.24955,43.0912,-13.957,-5.06273,-9.25452,-27.2578,3.51266,-29.408,25.8176,-9.56384,-3.33261,0.643796
-2.67757,17.726,0.479089,11.4314,-42.4934,5.54999,12.4812,0.203148,-1.90537,5.72502,0.0335543,6.35232,-0.975243,-0.163008,7.79694,-9.79082,-6.23583,-10.1193,32.5983,-10.0156,8.01919,13.567,-4.771,3.42927,-3.02153e-14,2.8625e-14,3.63786,-22.1436,-89.3968,33.5182,-29.2057,-27.5708,-23.388,7.12502,-0.971383,-53.3655,-3.02153e-14,2.8625e-14,6.49873,-67.1248,87.233,60.15,73.7685,-18.9224,59.5442,7.12502,7.38009,89.3955,-39.5516,1.74709,3.82188,42.4037,-14.0588,-5.18715,-8.8477,-27.3915,3.36065,-29.1677,26.1333,-9.81575,-3.42329,0.72716
-2.67732,17.7235,0.527204,11.7984,-42.4312,5.17732,12.486,-0.243689,-2.28239,5.55266,-0.587037,6.40776,-1.05824,-0.47352,8.16413,-9.83901,-5.75671,-10.6708,32.8828,-9.24166,8.07108,13.6426,-4.50738,3.67498,8.74653e-14,9.54166e-15,2.62402,-22.2786,-88.7731,33.9829,-29.9415,-28.6335,-23.7916,7.12502,-1.99772,-53.762,8.74653e-14,9.54166e-15,7.09645,-67.4593,87.1772,59.6744,73.4506,-18.7296,59.8043,7.12502,7.56616,89.649,-40.0884,2.17492,4.30942,41.6822,-14.2435,-5.53156,-8.10972,-27.5445,3.30606,-28.9492,26.4533,-10.0249,-3.66788,1.56173
-2.67943,17.7203,0.573289,12.0914,-42.4241,4.96392,12.2059,-0.566285,-2.2741,5.59309,-1.01928,6.00533,-0.806609,-0.68993,7.76498,-10.0653,-5.42825,-10.5586,32.978,-8.87164,8.35194,13.6936,-4.30277,3.82604,-8.42847e-14,6.04305e-14,2.01632,-23.214,-88.7839,34.4898,-31.101,-29.3675,-23.7098,7.12502,-2.70666,-53.6723,-8.42847e-14,6.04305e-14,8.80521,-68.5679,85.5058,59.4217,73.6544,-18.8896,60.0336,7.12502,7.41171,89.8837,-40.6662,2.65261,4.65517,40.9382,-14.2538,-6.00071,-7.4705,-27.6965,3.38438,-28.8891,26.7385,-10.3148,-3.93871,1.64092
-2.68379,17.718,0.622119,12.3306,-42.4096,4.78947,12.1329,-0.826995,-2.67892,5.51303,-1.40283,5.9642,-0.781529,-0.886184,8.00366,-10.2708,-5.11493,-10.6566,33.1198,-8.33916,8.21982,13.7301,-4.1016,3.87328,8.74653e-15,-5.725e-14,1.28579,-23.6958,-88.0586,34.8036,-31.8784,-29.8711,-23.4951,7.12502,-3.19296,-53.4509,8.74653e-15,-5.725e-14,9.52165,-69.0464,85.3808,59.1305,73.5176,-18.7152,60.3893,7.12502,7.58006,269.767,-41.1912,3.03573,4.9874,40.1876,-14.0735,-6.28204,-6.77375,-27.7732,3.51605,-28.8812,26.9714,-10.6207,-4.1844,1.13643
-2.68991,17.7163,0.672762,12.5267,-42.3128,4.62132,12.0871,-1.11268,-3.01093,5.43151,-1.8116,5.93002,-0.765793,-1.09378,8.2103,-10.3808,-4.79722,-10.745,33.1768,-7.78611,8.0437,13.703,-3.89739,3.9032,4.37326e-14,-3.18055e-14,0.636486,-24.6902,-87.3306,34.9142,-31.3682,-29.7135,-23.4669,7.12502,-3.04082,-53.4249,4.37326e-14,-3.18055e-14,10.1168,-69.3986,85.2776,58.9984,73.3428,-17.3947,60.5302,7.12502,8.8545,269.676,-41.6312,3.39244,5.31429,39.4301,-13.8798,-6.51478,-6.52419,-27.7805,3.49918,-28.8222,27.1577,-10.8515,-4.41532,1.51905
-2.69752,17.7133,0.72048,12.7113,-42.1817,4.50775,11.9847,-1.39859,-3.28207,5.3721,-2.21535,5.80084,-0.700057,-1.29798,8.27197,-10.4984,-4.50581,-10.8476,33.2735,-7.34592,8.08194,13.7206,-3.71921,4.00677,-2.38542e-15,3.33958e-14,0.0593692,-26.0543,-86.784,35.0374,-30.668,-29.5907,-23.7165,7.12502,-2.92218,-53.6762,-2.38542e-15,3.33958e-14,10.7147,-69.8043,85.0228,58.947,73.2808,-15.367,60.3048,7.12502,10.8108,269.993,-42.0842,3.74617,5.59423,38.6592,-13.5116,-6.78988,-7.01438,-27.8291,3.41702,-28.7757,27.3259,-11.0011,-4.61266,2.45967
-2.70611,17.7111,0.766273,13.0254,-42.0761,4.26352,11.8064,-1.69565,-3.44745,5.34372,-2.62354,5.6744,-0.562939,-1.50635,8.26808,-10.7013,-4.19409,-10.956,33.3954,-6.89075,8.19168,13.7683,-3.52544,4.14312,1.145e-13,-1.00187e-13,-0.501178,-27.0408,-86.2497,35.2638,-30.6111,-29.8537,-23.9164,7.12502,-3.17619,-53.8725,1.145e-13,-1.00187e-13,11.1514,-69.9603,84.8547,58.9407,73.0789,-14.1626,60.2046,7.12502,11.9723,449.842,-42.5868,4.13671,5.97179,37.8943,-13.1075,-7.02989,-7.94315,-27.9219,3.47466,-28.6695,27.4728,-11.1725,-4.85031,2.98074
-2.71537,17.7119,0.812006,13.3864,-42.005,3.89312,11.6465,-1.9167,-3.54224,5.32938,-2.92418,5.613,-0.438568,-1.66132,8.28028,-10.8373,-3.92219,-11.0144,33.4023,-6.4545,8.17509,13.7447,-3.34679,4.21272,1.19271e-13,-4.29375e-14,-1.03693,-28.0574,-85.6021,35.4972,-30.7325,-30.4458,-23.9304,7.12502,-3.74792,-53.8772,1.19271e-13,-4.29375e-14,11.5263,-70.1101,84.7938,58.9858,72.9823,-13.787,60.3198,7.12502,12.3345,449.936,-43.0375,4.57208,6.45489,37.1347,-12.9658,-7.08005,-8.21873,-27.9638,3.43188,-28.4147,27.6069,-11.3177,-4.91011,3.37886
-2.72633,17.7107,0.85759,13.6037,-41.9516,3.76555,11.4872,-2.10685,-3.86526,5.28967,-3.20531,5.57147,-0.328024,-1.80986,8.44451,-10.9696,-3.68477,-11.1903,33.4408,-6.05369,8.18969,13.7453,-3.19464,4.31178,-4.77083e-14,3.97569e-15,-1.61706,-29.0736,-84.8291,35.7892,-30.8364,-31.3233,-24.1266,7.12502,-4.59535,-54.0568,-4.77083e-14,3.97569e-15,11.529,-70.0358,85.277,58.9362,72.6216,-13.2774,60.51,7.12502,12.8258,629.904,-43.5263,4.90706,6.78043,36.4173,-12.7504,-6.92102,-8.71426,-27.9798,3.25853,-28.3102,27.685,-11.4303,-4.97761,4.61508
-2.73688,17.7094,0.904412,13.7422,-41.9198,3.735,11.3255,-2.32197,-4.21905,5.24471,-3.5214,5.46338,-0.215291,-1.97512,8.55543,-11.0604,-3.42291,-11.1583,33.5239,-5.63526,8.06953,13.7403,-3.02803,4.32239,-3.33958e-14,5.88403e-14,-2.38504,-29.7927,-83.9514,36.1957,-31.0252,-31.6372,-24.4963,7.12502,-4.89839,-54.4197,-3.33958e-14,5.88403e-14,11.3977,-69.8951,85.713,59.0038,72.1385,-12.8905,60.5896,7.12502,13.1987,629.848,-44.012,5.08066,7.10825,35.742,-12.2314,-6.45571,-9.64852,-27.9235,3.25037,-28.3457,27.6881,-11.6392,-5.12588,4.47268
-2.75016,17.7093,0.953893,13.7433,-41.841,3.81601,11.0894,-2.48931,-4.39186,5.26274,-3.75567,5.1758,-0.0357663,-2.09598,8.34771,-11.1142,-3.24897,-10.8666,33.5078,-5.41518,7.9801,13.7007,-2.90838,4.26539,-1.59028e-15,-1.27222e-14,-3.16244,-30.7896,-83.119,36.543,-31.2355,-31.686,-24.6596,7.12502,-4.94556,-54.5819,-1.59028e-15,-1.27222e-14,11.6307,-70.3303,85.5273,59.3375,72.013,-13.2912,60.9068,7.12502,12.8125,629.506,-44.3875,5.17655,7.36925,35.1027,-11.8739,-5.74808,-8.73765,-27.761,3.23696,-28.4682,27.6491,-11.9765,-5.24228,2.82848
-2.76564,17.7081,1.00293,13.6856,-41.5906,3.85534,10.906,-2.62328,-4.37548,5.33341,-3.92903,4.88789,0.144115,-2.18419,8.02556,-11.2729,-3.19263,-10.7149,33.5638,-5.39943,8.1073,13.7559,-2.86637,4.29435,-1.15295e-13,6.59965e-14,-3.8602,-32.1117,-82.249,36.7582,-31.3269,-31.9479,-24.6271,7.12502,-5.19839,-54.5433,-1.15295e-13,6.59965e-14,12.0359,-70.9677,85.1776,59.7411,72.0186,-13.6206,61.3475,7.12502,12.4949,629.046,-44.569,5.32966,7.63532,34.4192,-11.5994,-5.20312,-7.48851,-27.5128,3.00826,-28.4637,27.6419,-12.2771,-5.40666,2.18788
-2.77811,17.7113,1.04459,13.8044,-41.4889,3.71423,10.8768,-2.71887,-4.53038,5.29742,-4.06801,4.82754,0.153377,-2.2547,8.06115,-11.2771,-3.06243,-10.904,33.6282,-5.20808,8.23139,13.7703,-2.79608,4.41105,-4.01545e-14,-3.81667e-14,-4.70674,-32.8652,-81.0896,37.0618,-31.8028,-32.3849,-24.5067,7.12502,-5.62032,-54.4122,-4.01545e-14,-3.81667e-14,12.0305,-71.1811,85.3671,60.0698,72.1486,-13.3848,61.3471,7.12502,12.7223,629.06,-44.8681,5.54266,8.07405,33.7256,-11.0945,-4.66694,-8.00108,-27.3521,3.00076,-28.3851,27.6373,-12.2728,-5.63796,3.42181
-2.78983,17.7213,1.08597,14.1055,-41.6126,3.37368,10.8201,-2.80529,-4.78008,5.25173,-4.20399,4.89952,0.186912,-2.33012,8.29298,-11.2769,-2.81308,-11.1088,33.6427,-4.77443,8.18471,13.7243,-2.64293,4.49413,-3.57812e-14,1.59028e-15,-5.44608,-33.2328,-79.9287,37.3464,-32.2737,-32.5381,-24.6942,7.12502,-5.76832,-54.5957,-3.57812e-14,1.59028e-15,11.7491,-71.0237,85.7875,60.4813,72.4423,-13.3904,61.1033,7.12502,12.7169,629.304,-45.2842,5.7094,8.75831,33.0706,-10.4147,-3.86213,-8.21248,-27.3179,3.13334,-28.1602,27.6557,-12.1505,-5.90365,6.22867
-2.80651,17.7224,1.13158,14.2886,-41.7915,3.22485,10.537,-2.85451,-5.07622,5.31306,-4.29131,4.85236,0.442661,-2.39186,8.39694,-11.4059,-2.63657,-11.1933,33.6522,-4.4548,8.1252,13.7157,-2.52121,4.53259,2.0276e-14,-2.14687e-14,-5.87984,-34.2691,-79.0185,37.2443,-31.8502,-32.1153,-25.0314,7.12502,-5.36001,-54.9436,2.0276e-14,-2.14687e-14,11.7657,-70.9295,85.8345,60.9685,72.7357,-13.7687,61.1116,7.12502,12.3521,629.273,-45.6979,5.7749,9.34047,32.49,-9.58033,-2.99321,-8.26179,-27.2583,3.05737,-28.0002,27.6653,-12.4451,-6.12334,7.48764
-2.82494,17.7077,1.17068,14.3853,-41.9728,3.20607,10.3004,-2.80752,-5.39554,5.3595,-4.25092,4.71731,0.628433,-2.38453,8.41303,-11.4819,-2.5788,-11.2332,33.7141,-4.39268,8.23696,13.7549,-2.48696,4.59799,8.26944e-14,-5.725e-14,-6.18977,-35.9384,-78.1524,36.6852,-30.769,-31.576,-24.9429,7.12502,-4.83938,-54.8676,8.26944e-14,-5.725e-14,11.6847,-70.9977,85.9887,61.3933,72.6847,-14.2581,61.4602,7.12502,11.8802,628.897,-46.1399,5.89326,9.78216,31.9757,-8.80173,-2.24304,-8.12852,-27.1039,3.23145,-28.0705,27.626,-12.9053,-6.23422,6.16371
-2.84073,17.6965,1.21083,14.3758,-41.9513,3.21944,10.4217,-2.76634,-5.89644,5.25719,-4.24292,4.81738,0.504733,-2.3859,8.8253,-11.4482,-2.55421,-11.3932,33.8486,-4.31338,8.18011,13.801,-2.48533,4.62067,6.44062e-14,-2.70347e-14,-6.31726,-37.3681,-76.7936,35.457,-29.6185,-31.2722,-24.4469,7.12502,-4.54598,-54.3781,6.44062e-14,-2.70347e-14,10.9688,-70.8965,87.0788,61.7692,72.1928,-14.5262,61.8037,7.12502,11.6217,628.539,-46.4438,5.82987,10.2626,31.5358,-8.05458,-1.5145,-8.45842,-26.851,3.34274,-28.1686,27.5677,-13.1079,-6.37632,5.70199
-2.85497,17.6996,1.26092,14.2794,-41.5367,3.248,10.3646,-2.99635,-5.92129,5.29896,-4.54828,4.75771,0.637166,-2.54594,8.79046,-11.4102,-2.39536,-11.491,33.8358,-4.06752,8.20874,13.7561,-2.38987,4.6859,-1.55052e-14,5.76476e-14,-8.60918,-35.6907,-75.2683,37.8671,-31.4688,-32.2352,-25.6166,7.12502,-5.47583,-55.5259,-1.55052e-14,5.76476e-14,10.7491,-70.8048,87.1808,62.3552,71.9515,-14.7352,61.9902,7.12502,11.4202,628.341,-46.5033,5.46121,10.8129,31.0933,-7.17144,-0.969499,-9.29391,-26.5291,3.144,-28.1908,27.4918,-12.9688,-6.75669,7.13585
-2.86738,17.7089,1.28935,14.3379,-40.9298,3.23638,10.4273,-3.2646,-6.08951,5.24095,-4.91978,4.85743,0.642036,-2.73744,9.02998,-11.3598,-2.20254,-11.7028,33.8017,-3.72117,8.17936,13.6877,-2.27129,4.76093,-5.56597e-14,1.59028e-15,-9.04201,-35.8603,-74.2552,37.7932,-31.4223,-32.8469,-25.4866,7.12502,-6.06638,-55.3797,-5.56597e-14,1.59028e-15,10.5686,-70.6902,87.2492,63.0337,72.0639,-15.2659,62.013,7.12502,10.9083,628.29,-46.6761,5.16629,11.324,30.6537,-6.34839,-0.803402,-8.90444,-26.4315,3.24542,-28.208,27.3786,-12.5382,-7.57853,8.18096
-2.88322,17.7155,1.33606,14.2183,-40.8149,3.2089,10.466,-3.25826,-6.26515,5.29476,-4.93051,4.86721,0.698586,-2.75269,9.14418,-11.4095,-2.18068,-11.6895,33.8587,-3.64124,8.04272,13.7113,-2.252,4.71635,6.99722e-14,1.94809e-14,-9.70613,-36.0987,-73.0369,37.8293,-31.2391,-32.9847,-25.5225,7.12502,-6.19941,-55.4118,6.99722e-14,1.94809e-14,10.3045,-70.7935,87.5062,63.6684,72.1036,-15.7721,62.0513,7.12502,10.42,628.227,-46.6908,5.02539,11.8422,30.2514,-5.46048,-0.290516,-7.73379,-26.0762,2.92212,-28.0817,27.225,-12.5374,-7.77713,8.69469
-2.89931,17.709,1.37799,14.153,-40.5614,3.25797,10.4551,-3.22655,-6.37954,5.30156,-4.89749,4.82778,0.71219,-2.73836,9.16408,-11.3132,-2.21686,-11.5265,33.8036,-3.69669,7.91354,13.6667,-2.26995,4.62284,5.20816e-14,-4.81059e-14,-10.4558,-36.6909,-71.8295,37.8371,-30.8149,-33.1238,-25.6648,7.12502,-6.33368,-55.5501,5.20816e-14,-4.81059e-14,9.88182,-71.0337,87.925,64.282,72.0234,-15.7371,62.1812,7.12502,10.4538,628.099,-46.8257,4.90096,12.2088,29.9234,-4.77386,0.0561557,-8.05625,-25.8505,2.37025,-27.9147,27.0801,-12.742,-8.10884,9.7456
-2.91627,17.702,1.41623,14.1224,-40.2226,3.26703,10.4326,-3.28866,-6.42256,5.33038,-4.98235,4.77416,0.771382,-2.78435,9.13276,-11.2072,-2.14965,-11.3344,33.6982,-3.60317,7.7791,13.5765,-2.21965,4.54171,-4.77083e-15,-2.14687e-14,-10.9932,-37.2684,-70.9418,37.8873,-30.5141,-33.3521,-26.0819,7.12502,-6.55414,-55.9605,-4.77083e-15,-2.14687e-14,9.52179,-71.1671,88.0684,64.9546,72.0864,-15.7763,62.4373,7.12502,10.4159,627.841,-46.975,4.85677,12.5333,29.6837,-4.30522,0.184126,-8.56056,-25.5333,2.413,-27.9511,26.8876,-12.8414,-8.54748,9.28813
-2.93388,17.7005,1.45417,14.0779,-39.9407,3.3002,10.3622,-3.35571,-6.49334,5.39395,-5.07492,4.71061,0.896976,-2.83934,9.10133,-11.3228,-2.09791,-11.2174,33.7848,-3.53205,7.73502,13.627,-2.17976,4.51704,1.70955e-14,1.59028e-14,-11.3217,-37.7406,-70.2447,37.8838,-30.2575,-33.4696,-26.3528,7.12502,-6.66757,-56.2278,1.70955e-14,1.59028e-14,9.29556,-71.2614,88.001,65.5886,72.4532,-15.7599,62.2557,7.12502,10.4318,628.023,-47.1106,4.66302,12.9351,29.4758,-3.82508,0.451443,-7.45301,-25.2468,2.63025,-28.0827,26.767,-12.8941,-8.91466,8.62344
-2.9495,17.6961,1.48855,14.082,-39.5556,3.40942,10.2314,-3.35908,-6.52776,5.40854,-5.0754,4.7012,0.986573,-2.84428,9.09919,-11.3771,-2.17043,-11.3785,33.8357,-3.63294,7.8669,13.6817,-2.22633,4.58858,3.29983e-14,-5.64548e-14,-11.6152,-38.182,-69.3809,37.8126,-30.2512,-33.7814,-26.4563,7.12502,-6.96859,-56.3216,3.29983e-14,-5.64548e-14,9.14439,-71.4626,88.033,66.2419,72.7206,-14.8037,61.5225,7.12502,11.3541,628.805,-47.2588,4.38768,13.2366,29.167,-3.39107,0.719663,-5.20348,-25.2209,2.63046,-28.1948,26.8106,-13.0496,-9.36159,7.91026
-2.96267,17.6977,1.52134,14.119,-39.0827,3.46859,9.92069,-3.3439,-6.12504,5.53842,-5.00617,4.47922,1.21548,-2.80616,8.58854,-11.1958,-2.28093,-11.321,33.5851,-3.90041,8.15526,13.5684,-2.2928,4.64762,1.14898e-13,3.18055e-15,-11.9096,-38.9786,-68.8049,37.8667,-30.4275,-34.0715,-26.5616,7.12502,-7.24858,-56.4175,1.14898e-13,3.18055e-15,9.55844,-72.029,87.2528,66.934,72.8026,-14.0882,61.2446,7.12502,12.0441,629.122,-47.3455,4.15545,13.5247,28.7741,-3.04715,0.804955,-4.02657,-25.2959,2.59318,-28.2689,26.9453,-12.9556,-9.83062,8.43606
-2.97455,17.7122,1.55485,14.1621,-38.6536,3.4574,9.77599,-3.41415,-5.8371,5.62907,-5.06874,4.31231,1.35584,-2.83318,8.22951,-11.0798,-2.26704,-11.1507,33.4359,-3.97452,8.31391,13.4836,-2.2817,4.665,5.40694e-14,-7.35503e-14,-12.004,-39.4454,-68.494,37.9659,-30.4443,-34.0525,-26.638,7.12502,-7.2302,-56.4945,5.40694e-14,-7.35503e-14,9.48294,-72.1925,86.8248,67.5475,72.8409,-14.3706,61.5545,7.12502,11.7718,628.796,-47.3816,3.82766,13.9488,28.4373,-2.59134,1.05346,-3.83277,-25.4071,2.36718,-28.1744,27.0526,-12.5003,-10.4212,12.0067
-2.98999,17.7209,1.58826,14.1616,-38.3334,3.51489,9.80664,-3.48337,-5.94154,5.59473,-5.16884,4.33114,1.33448,-2.88457,8.31953,-11.046,-2.21677,-11.1748,33.472,-3.89361,8.29255,13.4813,-2.2538,4.67381,-3.97569e-15,1.19271e-15,-11.9984,-39.2945,-68.088,37.9913,-30.3451,-33.9812,-26.7011,7.12502,-7.16144,-56.56,-3.97569e-15,1.19271e-15,8.96912,-71.9513,86.9483,68.1604,73.1498,-14.767,61.7416,7.12502,11.3895,628.588,-47.4346,3.57356,14.2519,28.1725,-2.15875,1.38709,-3.2229,-25.4321,2.04742,-28.0787,27.1209,-12.4976,-10.9324,13.6729
-3.00863,17.7107,1.62468,14.1058,-38.0372,3.57051,9.80078,-3.4359,-5.91529,5.57676,-5.10246,4.3555,1.30592,-2.8488,8.32742,-10.853,-2.27228,-11.2605,33.4115,-3.94774,8.23545,13.4217,-2.29506,4.65524,4.57205e-14,-4.53229e-14,-12.102,-39.2097,-67.5378,38.0333,-30.2222,-34.0296,-26.636,7.12502,-7.20815,-56.4932,4.57205e-14,-4.53229e-14,8.931,-72.0451,86.6853,68.855,73.6897,-14.7739,61.4417,7.12502,11.3828,628.887,-47.4586,3.48569,14.4281,27.9934,-1.85105,1.50328,-2.68719,-25.2047,2.0331,-28.1402,27.1383,-12.9654,-11.2449,10.416
-3.02761,17.7,1.65888,14.0619,-37.6107,3.53874,9.8247,-3.42181,-5.70438,5.61553,-5.06707,4.33469,1.30356,-2.82535,8.18196,-10.6993,-2.33942,-11.2936,33.2888,-4.06599,8.31258,13.3526,-2.33885,4.67074,-9.30312e-14,-2.38542e-14,-12.0401,-39.1927,-67.2726,38.1275,-30.2878,-34.1108,-26.7061,7.12502,-7.2865,-56.5606,-9.30312e-14,-2.38542e-14,8.75887,-72.1625,86.524,69.4065,73.8124,-14.6038,61.2874,7.12502,11.5468,629.051,-47.4532,3.48074,14.5829,27.9848,-1.71247,1.40181,-2.98561,-24.8982,2.10037,-28.1398,27.0493,-12.847,-11.7027,9.43407
-3.04747,17.6939,1.6875,14.0413,-37.083,3.5656,9.88561,-3.48767,-5.61726,5.63352,-5.14874,4.3446,1.29676,-2.86424,8.15157,-10.7387,-2.38391,-11.3435,33.3033,-4.14557,8.41712,13.3817,-2.36531,4.7123,-1.17283e-13,-2.74323e-14,-11.7554,-38.8707,-67.2603,38.2882,-30.4916,-34.1305,-26.9131,7.12502,-7.30557,-56.767,-1.17283e-13,-2.74323e-14,8.01178,-71.9446,86.968,69.8139,73.614,-14.2633,61.2896,7.12502,11.8752,629.067,-47.5532,3.53276,14.5928,28.13,-1.59465,1.08869,-2.82911,-24.654,2.01208,-28.1026,26.8648,-12.4664,-12.228,11.2934
-3.06795,17.6826,1.71492,13.9566,-36.5357,3.7575,9.9002,-3.51353,-5.60314,5.66298,-5.18099,4.30295,1.32007,-2.88025,8.10026,-10.757,-2.47469,-11.2724,33.277,-4.30017,8.46158,13.3942,-2.41494,4.69494,1.59028e-15,4.77083e-15,-11.4164,-38.85,-67.2767,38.4137,-30.4511,-34.1344,-26.7117,7.12502,-7.30932,-56.5654,1.59028e-15,4.77083e-15,7.548,-71.8908,87.0892,70.2548,73.6513,-14.1951,61.2121,7.12502,11.941,629.148,-47.7224,3.5151,14.4282,28.3624,-1.42379,0.724849,-1.30992,-24.3626,1.86342,-28.2056,26.5987,-12.4038,-12.6154,11.3238
-3.08941,17.6679,1.74558,13.8962,-35.9182,3.99698,10.0647,-3.485,-5.85764,5.51939,-5.16732,4.50504,1.12382,-2.87226,8.48476,-10.5623,-2.61723,-11.4345,33.2257,-4.45246,8.37137,13.3544,-2.51165,4.66343,-6.67916e-14,2.90226e-14,-11.1659,-38.7743,-66.8838,38.536,-30.1125,-34.025,-26.4233,7.12502,-7.20369,-56.2807,-6.67916e-14,2.90226e-14,6.38714,-71.7009,88.267,70.6007,73.7094,-14.1058,60.9232,7.12502,12.0271,629.442,-47.933,3.44519,14.1699,28.6866,-1.37749,0.223507,-0.53029,-24.039,1.69844,-28.3627,26.2147,-12.6284,-13.0503,9.78456
-3.11053,17.6529,1.78145,13.8152,-35.2712,4.31696,9.77233,-3.58562,-5.60202,5.63337,-5.26633,4.25382,1.36896,-2.92034,8.04195,-10.5121,-2.72925,-11.1982,33.0516,-4.70823,8.52284,13.2972,-2.57011,4.63929,-5.28767e-14,3.53837e-14,-10.5753,-39.0985,-67.5129,38.7026,-29.3942,-33.688,-26.2212,7.12502,-6.87841,-56.0894,-5.28767e-14,3.53837e-14,6.0804,-71.6496,87.9097,70.9377,73.8338,-14.1557,60.5222,7.12502,11.9789,629.841,-48.1869,3.21889,13.8716,29.1376,-1.25055,-0.341249,-0.955961,-23.6659,1.27915,-28.5505,25.6344,-12.925,-13.4049,7.8403
-3.13127,17.6448,1.82167,13.6431,-34.7615,4.90371,9.32354,-3.69216,-5.47316,5.75299,-5.37705,3.89043,1.70706,-2.97695,7.54003,-10.4991,-2.80331,-10.9928,32.9016,-4.90371,8.69242,13.2522,-2.60472,4.63761,-8.46823e-14,1.27222e-14,-10.178,-38.8262,-68.1033,39.1702,-29.2365,-33.7141,-26.1505,7.12502,-6.90362,-56.0179,-8.46823e-14,1.27222e-14,5.59439,-71.4842,87.68,71.1993,73.8025,-14.2756,60.0953,7.12502,11.8633,809.739,-48.4746,2.75171,13.4475,29.5847,-0.742101,-0.799194,-1.22997,-23.3148,0.827779,-29.0245,24.9764,-12.8935,-13.5973,7.34984
-3.15057,17.645,1.86614,13.2062,-34.2208,5.59957,9.42192,-3.74796,-5.84651,5.67466,-5.48048,3.90093,1.6302,-3.03433,7.78113,-10.2314,-2.86699,-11.2457,32.7938,-4.9462,8.67284,13.1619,-2.65781,4.66538,7.27552e-14,-1.59028e-15,-10.1206,-37.7411,-67.8945,39.8403,-29.4346,-33.8455,-26.0938,7.12502,-7.03041,-55.957,7.27552e-14,-1.59028e-15,3.41441,-70.5512,89.9311,71.2446,73.3378,-14.3384,59.8978,7.12502,11.8028,809.545,-48.3841,2.24826,12.9046,29.8921,-0.203232,-1.25544,-1.75671,-22.7538,0.530087,-29.6397,24.4557,-12.7501,-13.8505,7.70581
-3.16747,17.6518,1.90512,12.8915,-33.5545,5.82973,9.40249,-3.86816,-5.50505,5.85776,-5.61289,3.73086,1.80116,-3.09793,7.40072,-10.0422,-2.90791,-11.2298,32.5317,-5.07447,8.89479,13.03,-2.68238,4.72441,-3.33958e-14,-1.74931e-14,-9.50129,-37.0905,-68.6223,40.3945,-29.1333,-34.4,-26.1563,7.12502,-7.56568,-56.001,-3.33958e-14,-1.74931e-14,2.0734,-69.6648,90.8773,71.3688,72.8772,-14.5201,59.7818,7.12502,11.6275,809.439,-48.0135,2.00758,12.6506,30.0587,0.189585,-1.88186,-1.49241,-22.1652,0.387169,-29.8357,24.1362,-12.4534,-14.2337,8.68943
-3.18639,17.6575,1.93262,13.0408,-33.1188,5.69239,9.6963,-3.75844,-5.56371,5.63633,-5.48213,4.14776,1.43733,-3.02433,7.91082,-9.8256,-3.05388,-11.7228,32.5701,-5.18545,8.8607,13.0334,-2.79712,4.78632,7.95139e-16,6.75868e-14,-9.16223,-35.6869,-68.487,41.0373,-29.1853,-35.3218,-26.1078,7.12502,-8.4553,-55.9185,7.95139e-16,6.75868e-14,0.564203,-69.0881,92.3485,71.6666,73.0376,-14.8198,59.0428,7.12502,11.3386,808.716,-47.9564,2.07962,12.6723,30.1553,0.698126,-2.7226,0.0795485,-22.0121,0.473276,-29.7318,23.9526,-11.945,-14.5423,10.0643
