JuanDHNZ/ProyectoFinalCD/preprocessing/sports_trials_csv/14_19.csv
root1,root2,root3,root4,root5,root6,lowerback1,lowerback2,lowerback3,upperback1,upperback2,upperback3,thorax1,thorax2,thorax3,lowerneck1,lowerneck2,lowerneck3,upperneck1,upperneck2,upperneck3,head1,head2,head3,rclavicle1,rclavicle2,rhumerus1,rhumerus2,rhumerus3,rradius1,rwrist1,rhand1,rhand2,rfingers1,rthumb1,rthumb2,lclavicle1,lclavicle2,lhumerus1,lhumerus2,lhumerus3,lradius1,lwrist1,lhand1,lhand2,lfingers1,lthumb1,lthumb2,rfemur1,rfemur2,rfemur3,rtibia1,rfoot1,rfoot2,rtoes1,lfemur1,lfemur2,lfemur3,ltibia1,lfoot1,lfoot2,ltoes1
-1.1969,17.8515,-5.04179,6.98082,-4.3943,1.4245,5.03331,-1.20174,-0.073097,2.86815,-1.59329,4.26889,0.257026,-0.835325,4.52163,-20.6176,-3.23694,-10.2372,29.3049,-2.84611,5.49128,13.6103,-1.64422,3.43066,1.19271e-15,-9.54166e-15,-24.8306,-5.87673,-78.3981,28.3017,21.1898,-21.0695,3.20841,7.12502,5.30721,-26.7051,1.19271e-15,-9.54166e-15,-30.3772,3.47662,85.5996,36.2532,-8.46336,-6.49029,27.7457,7.12502,19.361,56.8019,-23.0373,3.76985,15.8906,32.6726,-15.1165,-0.752451,3.26713,-14.4657,-6.66211,-12.9848,22.9703,-9.38599,13.7852,-21.1364
-1.20407,17.8522,-5.03515,6.91548,-4.33554,1.47938,5.11343,-1.22145,-0.0952896,2.89801,-1.61953,4.33517,0.248151,-0.84966,4.60656,-20.4952,-3.19003,-10.2631,29.3143,-2.75132,5.39672,13.5784,-1.62046,3.41379,-1.47101e-14,-1.59028e-14,-24.939,-5.86009,-78.2082,27.9946,21.2696,-21.0744,3.12383,7.12502,5.30253,-26.7898,-1.47101e-14,-1.59028e-14,-30.1684,3.11483,85.5994,36.798,-8.32445,-6.76092,27.6569,7.12502,19.1007,56.7389,-22.9665,3.80179,15.8676,32.7355,-15.0345,-0.962235,3.6202,-14.4664,-6.49902,-13.0557,23.0689,-9.26699,13.6528,-21.232
-1.21288,17.8538,-5.02961,6.89523,-4.27721,1.50444,5.23873,-1.25562,-0.123096,2.84568,-1.66095,4.43255,0.131881,-0.869771,4.73051,-20.2986,-3.11321,-10.3179,29.352,-2.61123,5.2976,13.5388,-1.58242,3.40864,9.93923e-15,2.54444e-14,-25.0721,-5.67051,-78.0131,27.6141,21.3169,-21.1402,3.14573,7.12502,5.23902,-26.7695,9.93923e-15,2.54444e-14,-30.2105,2.96926,85.6023,37.446,-8.29462,-7.05,27.5819,7.12502,18.8227,56.6912,-22.9038,3.90809,15.8652,32.7452,-15.0435,-1.13876,4.23965,-14.5577,-6.35577,-13.0593,23.2603,-9.13938,13.4928,-21.5261
-1.22219,17.8554,-5.0215,6.88229,-4.33133,1.52906,5.2585,-1.23948,-0.152858,2.83839,-1.63994,4.4951,0.11457,-0.859926,4.81268,-20.1528,-3.05892,-10.3285,29.4088,-2.52945,5.2433,13.5234,-1.55835,3.40435,-9.14409e-15,5.08889e-14,-25.1862,-5.6781,-77.7678,27.1558,21.7452,-21.3393,3.85065,7.12502,5.04678,-26.0693,-9.14409e-15,5.08889e-14,-30.2981,2.79409,85.5725,38.2013,-8.23305,-7.17487,27.6952,7.12502,18.7026,56.8161,-22.8601,4.00711,15.8725,32.7378,-14.9464,-1.20054,4.86752,-14.6281,-6.0338,-13.0841,23.4908,-9.07483,13.3064,-22.0237
-1.2299,17.8562,-5.01435,6.8305,-4.38568,1.48154,5.27882,-1.20935,-0.0693177,2.89051,-1.59755,4.52596,0.152021,-0.839085,4.79535,-20.0581,-3.03986,-10.3374,29.4651,-2.53292,5.30774,13.528,-1.55428,3.43289,1.90833e-14,-3.02153e-14,-25.3126,-5.81637,-77.6111,26.7815,22.006,-21.0892,4.00262,7.12502,5.28818,-25.9114,1.90833e-14,-3.02153e-14,-30.2597,2.50805,85.478,38.8834,-8.0626,-7.35564,27.5746,7.12502,18.5288,56.7122,-22.7658,4.15767,15.9594,32.7033,-14.8322,-1.31269,5.758,-14.6376,-5.73617,-13.0335,23.7489,-9.16243,13.1245,-22.2404
-1.23778,17.8607,-5.00942,6.77767,-4.364,1.45658,5.33478,-1.18636,-0.0532322,2.95095,-1.56703,4.57896,0.181941,-0.825197,4.84108,-20.0778,-3.04863,-10.3278,29.5514,-2.54713,5.30251,13.5701,-1.56172,3.42929,1.39149e-14,2.54444e-14,-25.3749,-5.91868,-77.4722,26.4581,21.885,-20.2699,3.00767,7.12502,6.07929,-26.8851,1.39149e-14,2.54444e-14,-30.148,2.32908,85.4065,39.5271,-7.98005,-7.41383,27.6854,7.12502,18.4728,56.8283,-22.6735,4.25949,16.0256,32.6649,-14.734,-1.46385,6.41566,-14.6884,-5.59713,-12.9724,24.0153,-9.22232,12.9,-22.1346
-1.24355,17.8622,-5.00152,6.75421,-4.26404,1.50273,5.30352,-1.18716,-0.0863996,3.01675,-1.5729,4.62458,0.270241,-0.830829,4.9064,-20.1515,-3.05015,-10.2986,29.6225,-2.5225,5.21341,13.6124,-1.56057,3.39478,2.06736e-14,-3.81667e-14,-25.4006,-6.11286,-77.2888,26.208,22.0192,-19.7817,2.21834,7.12502,6.55059,-27.6604,2.06736e-14,-3.81667e-14,-29.9575,2.15793,85.3849,40.0908,-7.93025,-7.4016,28.0474,7.12502,18.4845,57.1891,-22.5977,4.28005,16.009,32.6365,-14.6607,-1.59799,6.99185,-14.8299,-5.46513,-12.9806,24.2739,-9.12412,12.5719,-22.5873
-1.25055,17.861,-4.99235,6.72959,-4.16282,1.52107,5.2373,-1.20437,-0.115179,3.06847,-1.60083,4.705,0.36648,-0.847858,5.00609,-20.0998,-3.01069,-10.3537,29.6965,-2.43823,5.17005,13.6255,-1.53838,3.40359,1.11319e-14,-6.36111e-15,-25.4268,-6.25006,-77.0615,25.9376,22.3912,-19.6414,1.9304,7.12502,6.68597,-27.944,1.11319e-14,-6.36111e-15,-29.8236,1.99075,85.3984,40.673,-7.68658,-7.94672,27.993,7.12502,17.9601,57.1838,-22.5185,4.30628,16.0326,32.6141,-14.6333,-1.76245,7.30472,-14.961,-5.25686,-12.9617,24.5079,-8.8795,12.2208,-23.2143
-1.25859,17.8608,-4.98495,6.65713,-4.04548,1.52637,5.25329,-1.22854,-0.127546,3.10732,-1.63465,4.76809,0.40325,-0.866614,5.08094,-19.969,-2.95228,-10.3783,29.7066,-2.35513,5.15542,13.5938,-1.5085,3.41654,3.18055e-15,-3.18055e-15,-25.4388,-6.46514,-76.8635,25.582,22.7931,-19.5447,1.70024,7.12502,6.77935,-28.1712,3.18055e-15,-3.18055e-15,-29.795,1.8178,85.3579,41.3039,-7.50359,-8.62923,27.4152,7.12502,17.3033,56.6649,-22.3777,4.43663,16.0739,32.5707,-14.6751,-2.06198,7.35061,-15.0468,-5.0589,-12.9303,24.7451,-8.72231,11.9636,-24.0872
-1.26623,17.8655,-4.97509,6.60494,-3.97265,1.53623,5.25267,-1.244,-0.103538,3.12876,-1.65504,4.79372,0.427746,-0.877337,5.09485,-19.8517,-2.92427,-10.4265,29.7126,-2.31989,5.18113,13.5689,-1.49637,3.44133,1.23246e-14,3.65764e-14,-25.5138,-6.66529,-76.7279,25.3375,23.0647,-19.5009,1.52486,7.12502,6.82168,-28.3452,1.23246e-14,3.65764e-14,-29.7363,1.75876,85.2445,41.7952,-7.42471,-8.92324,27.3954,7.12502,17.0203,56.6697,-22.2345,4.53092,16.1008,32.4855,-14.7285,-2.26885,7.40927,-15.1152,-4.84796,-12.9138,25.0083,-8.69429,11.6767,-24.4886
-1.27364,17.877,-4.96496,6.56903,-3.89409,1.55228,5.26485,-1.28102,-0.11111,3.13243,-1.70448,4.8367,0.430985,-0.902812,5.14691,-19.8069,-2.903,-10.4822,29.7921,-2.27719,5.18312,13.5902,-1.48642,3.4614,-3.97569e-15,-3.18055e-15,-25.6049,-6.94626,-76.5617,25.1344,23.4386,-19.5114,1.38817,7.12502,6.81146,-28.4823,-3.97569e-15,-3.18055e-15,-29.7512,1.74928,85.1643,42.3538,-7.16652,-9.49482,27.7248,7.12502,16.4701,57.0457,-22.0847,4.64074,16.1123,32.3702,-14.7381,-2.46469,7.2578,-15.1978,-4.61051,-12.9053,25.2868,-8.54588,11.2453,-25.0624
-1.27897,17.8867,-4.95438,6.54826,-3.80205,1.49058,5.24781,-1.30695,-0.0348126,3.13504,-1.73625,4.8967,0.445812,-0.918516,5.16747,-19.7938,-2.8784,-10.466,29.926,-2.22823,5.11277,13.6389,-1.47647,3.44265,-4.77083e-15,-6.36111e-15,-25.7045,-7.2416,-76.3863,24.9329,23.7788,-19.6077,1.26346,7.12502,6.71853,-28.61,-4.77083e-15,-6.36111e-15,-29.7365,1.66741,85.1258,42.872,-6.88286,-10.8695,26.6844,7.12502,15.1462,56.1101,-21.9296,4.7329,16.2059,32.2038,-14.7614,-2.6593,7.48587,-15.3539,-4.50072,-12.7794,25.6032,-8.42902,10.9295,-25.5906
-1.28339,17.8894,-4.94314,6.53141,-3.69794,1.49188,5.19902,-1.34452,-0.0453821,3.1441,-1.78854,4.95661,0.489688,-0.946231,5.23731,-19.7162,-2.81738,-10.4298,29.9613,-2.11599,4.97484,13.6247,-1.44405,3.4009,3.37934e-14,0,-25.7384,-7.41288,-76.2365,24.722,23.9578,-19.6882,1.04272,7.12502,6.64081,-28.8331,3.37934e-14,0,-29.6191,1.64467,85.0924,43.2043,-6.63146,-11.8713,25.3676,7.12502,14.181,54.8636,-21.7709,4.74752,16.2458,31.9917,-14.7588,-2.9523,7.28251,-15.5276,-4.56976,-12.6849,25.9349,-8.34816,10.639,-25.3767
-1.28815,17.892,-4.93277,6.43387,-3.58919,1.48646,5.24954,-1.36793,-0.0251102,3.16655,-1.8183,5.00325,0.488615,-0.961662,5.27742,-19.5888,-2.78222,-10.438,29.9565,-2.04567,4.88136,13.5883,-1.42809,3.37619,-7.95139e-16,-7.95139e-15,-25.7824,-7.55816,-76.0969,24.5549,24.0123,-19.8108,0.616095,7.12502,6.52249,-29.2635,-7.95139e-16,-7.95139e-15,-29.5316,1.64472,85.0665,43.5606,-6.39924,-11.8401,25.4723,7.12502,14.2111,54.9661,-21.4802,4.81415,16.2916,31.7384,-14.825,-3.19802,7.27654,-15.6148,-4.68876,-12.5819,26.2729,-8.14658,10.2254,-24.6328
-1.29336,17.9036,-4.92321,6.30005,-3.46059,1.51461,5.31376,-1.37667,-0.0415396,3.22901,-1.83141,5.02966,0.520242,-0.969979,5.31632,-19.575,-2.7733,-10.3999,30.0022,-2.01876,4.79364,13.6012,-1.42511,3.34019,-3.57812e-14,1.27222e-14,-25.853,-7.80164,-75.9569,24.4708,24.0458,-20.0694,0.298862,7.12502,6.27286,-29.5883,-3.57812e-14,1.27222e-14,-29.4636,1.48528,85.0814,43.9693,-6.02958,-12.8923,24.3691,7.12502,13.197,53.9314,-21.1404,4.86997,16.3028,31.4957,-14.8673,-3.38734,7.21385,-15.7422,-4.84337,-12.4892,26.5906,-7.9196,9.80493,-23.7517
-1.29866,17.9205,-4.91312,6.21621,-3.3385,1.56554,5.3454,-1.38183,-0.0716604,3.24039,-1.83902,5.04645,0.516774,-0.974499,5.35237,-19.5555,-2.75216,-10.394,30.1187,-1.97914,4.7492,13.6427,-1.41638,3.33142,-4.85035e-14,1.90833e-14,-26.0543,-8.00786,-75.8249,24.4841,23.9593,-20.3325,0.247047,7.12502,6.01877,-29.6475,-4.85035e-14,1.90833e-14,-29.5071,1.30765,85.0998,44.3626,-5.84496,-14.1086,23.0668,7.12502,12.0244,52.7014,-20.8461,4.97557,16.2691,31.2531,-14.9441,-3.57268,7.40783,-15.9001,-4.96941,-12.4143,26.9032,-7.67201,9.31376,-22.4738
-1.30286,17.9301,-4.89998,6.16404,-3.27763,1.59137,5.31871,-1.36465,-0.0451126,3.24401,-1.81576,5.03075,0.531707,-0.962398,5.31876,-19.5189,-2.76632,-10.3827,30.1911,-2.01038,4.75243,13.6688,-1.43021,3.32746,-6.75868e-15,1.74931e-14,-26.2627,-8.28462,-75.734,24.5288,23.8907,-20.3832,-0.00481489,7.12502,5.96987,-29.9007,-6.75868e-15,1.74931e-14,-29.4471,1.06672,85.0583,44.6304,-5.58552,-14.3075,22.9337,7.12502,11.8326,52.5794,-20.5998,5.04365,16.2649,31.0423,-14.8645,-3.77292,6.57502,-15.9324,-4.9733,-12.3773,27.2045,-7.23383,8.81829,-22.5473
-1.30484,17.9362,-4.88456,6.10229,-3.24384,1.62148,5.30894,-1.35402,0.00403896,3.23193,-1.79909,5.00481,0.520484,-0.952612,5.26251,-19.4823,-2.77207,-10.3565,30.2858,-2.02342,4.72062,13.7023,-1.43991,3.31049,-3.33958e-14,7.95139e-15,-26.4339,-8.66537,-75.6204,24.4813,24.0028,-20.4395,-0.158336,7.12502,5.91553,-30.0558,-3.33958e-14,7.95139e-15,-29.408,0.893309,85.0048,44.8325,-5.4128,-14.3018,22.9387,7.12502,11.8381,52.5841,-20.3581,4.98135,16.2628,30.8445,-14.5875,-3.88614,4.7336,-15.9405,-4.95546,-12.3618,27.5271,-6.91591,8.47557,-23.2532
-1.307,17.9427,-4.87314,6.00955,-3.15876,1.64632,5.34545,-1.37355,0.0436002,3.24495,-1.82271,4.97564,0.513376,-0.963541,5.21121,-19.4968,-2.7333,-10.2614,30.3618,-1.97694,4.6525,13.7312,-1.41988,3.27685,-1.39149e-14,3.33958e-14,-26.6211,-8.94539,-75.5802,24.5214,24.0035,-20.5937,-0.195142,7.12502,5.76661,-30.0967,-1.39149e-14,3.33958e-14,-29.3683,0.712258,84.9603,45.0046,-5.05544,-13.1134,24.0464,7.12502,12.9839,53.6224,-20.0932,4.89445,16.2805,30.6661,-14.4039,-3.96035,3.56628,-16.0414,-4.97992,-12.3033,27.8872,-6.72652,8.13287,-23.7066
-1.31126,17.9523,-4.86574,5.9013,-3.0172,1.63632,5.34857,-1.40437,0.0814897,3.3276,-1.86555,4.97258,0.599639,-0.986437,5.18725,-19.5909,-2.71984,-10.2621,30.4176,-1.94636,4.65389,13.7726,-1.40712,3.28472,-1.59028e-15,-4.13472e-14,-26.7172,-9.04064,-75.5915,24.6455,23.7792,-20.6389,-0.238513,7.12502,5.72298,-30.1412,-1.59028e-15,-4.13472e-14,-29.1753,0.484305,84.9955,45.0681,-4.10183,-11.2339,26.1014,7.12502,14.7951,55.5533,-19.8012,4.84616,16.3344,30.4634,-14.4014,-4.00859,3.7689,-16.2037,-5.05624,-12.1821,28.3036,-6.49201,7.75246,-23.9532
-1.31578,17.9632,-4.86074,5.81548,-2.92311,1.6051,5.37454,-1.39666,0.134945,3.39201,-1.85488,4.97389,0.649121,-0.981562,5.15763,-19.5709,-2.74412,-10.367,30.4015,-1.97525,4.74109,13.7667,-1.41933,3.33269,1.03368e-14,1.59028e-14,-26.7071,-9.20602,-75.5853,24.6763,23.6523,-20.6286,-0.328598,7.12502,5.73295,-30.231,1.03368e-14,1.59028e-14,-29.0339,0.0745974,85.0882,45.2003,-3.03299,-10.9303,27.2064,7.12502,15.0876,56.6366,-19.5497,4.8978,16.4022,30.2427,-14.3784,-4.19836,3.68376,-16.387,-5.01861,-12.0506,28.7614,-6.21881,7.26519,-24.3122
-1.32067,17.972,-4.85552,5.76264,-2.88887,1.55928,5.44188,-1.36512,0.150908,3.38203,-1.80956,5.01229,0.598187,-0.958302,5.18916,-19.4584,-2.77259,-10.5217,30.4298,-2.00229,4.81981,13.7611,-1.43976,3.38715,2.3059e-14,-1.59028e-15,-26.738,-9.26334,-75.5295,24.6719,23.5039,-20.6291,-0.40981,7.12502,5.73248,-30.3123,2.3059e-14,-1.59028e-15,-29.0417,-0.225032,85.1901,45.4217,-2.58679,-11.2497,27.3971,7.12502,14.7799,56.8501,-19.3686,4.93534,16.4828,30.0434,-14.3269,-4.33725,3.48811,-16.6224,-4.89843,-11.9082,29.229,-5.90637,6.81934,-25.4475
-1.32656,17.9737,-4.84956,5.68952,-2.89182,1.48887,5.55461,-1.33678,0.129901,3.34414,-1.76752,5.08105,0.495704,-0.936721,5.27559,-19.3059,-2.76085,-10.5587,30.4094,-1.96363,4.74091,13.7163,-1.43871,3.36713,-1.39149e-14,-1.90833e-14,-26.8934,-9.12009,-75.4839,24.7843,23.1734,-20.7091,-0.465864,7.12502,5.6552,-30.3704,-1.39149e-14,-1.90833e-14,-29.0848,-0.355612,85.2692,45.5069,-2.54332,-11.222,27.1245,7.12502,14.8066,56.5755,-19.1928,5.00546,16.5874,29.8944,-14.2843,-4.39058,3.53509,-16.791,-4.78162,-11.7365,29.6964,-5.65011,6.43392,-27.001
-1.33183,17.9728,-4.84285,5.60432,-2.88453,1.46144,5.63776,-1.31599,0.0980895,3.32424,-1.73774,5.11527,0.428402,-0.921622,5.33118,-19.2117,-2.73618,-10.5102,30.4106,-1.90993,4.6042,13.6899,-1.42914,3.31239,0,1.59028e-14,-26.9945,-8.91618,-75.4935,24.8582,22.7171,-20.7315,-0.346935,7.12502,5.6336,-30.252,0,1.59028e-14,-29.051,-0.345981,85.2557,45.474,-3.14705,-11.9709,25.5939,7.12502,14.0851,55.0966,-19.0008,5.09389,16.6364,29.7611,-14.2775,-4.43758,3.85479,-16.8758,-4.55769,-11.6579,30.1636,-5.41764,6.00775,-28.7574
-1.33639,17.9756,-4.83582,5.59513,-2.84704,1.4839,5.59363,-1.29771,0.0656305,3.31865,-1.71596,5.09939,0.445584,-0.911083,5.33065,-19.2023,-2.7092,-10.3969,30.4757,-1.87985,4.50876,13.7104,-1.41764,3.26133,4.37326e-15,3.18055e-14,-27.0346,-8.81795,-75.5397,24.8631,22.3934,-20.7949,-0.0174424,7.12502,5.57236,-29.9242,4.37326e-15,3.18055e-14,-28.9557,-0.216623,85.1099,45.5267,-4.2843,-13.2614,23.4915,7.12502,12.8412,53.0765,-18.8735,5.08043,16.6271,29.6144,-14.2691,-4.47277,4.03145,-17.1021,-4.3028,-11.6332,30.6542,-5.10057,5.5301,-29.7451
-1.34115,17.9824,-4.82853,5.57139,-2.88799,1.47878,5.57469,-1.26933,0.0549082,3.31639,-1.67918,5.08108,0.450041,-0.892603,5.31515,-19.1111,-2.67798,-10.334,30.4819,-1.84447,4.44084,13.6884,-1.405,3.2291,1.19271e-14,3.65764e-14,-27.0612,-8.69556,-75.6253,24.8977,22.1434,-20.7037,0.0678665,7.12502,5.66044,-29.8365,1.19271e-14,3.65764e-14,-28.9635,-0.220425,85.047,45.6188,-4.65721,-12.893,23.6225,7.12502,13.1963,53.1848,-18.741,5.07181,16.6556,29.4414,-14.2062,-4.4829,3.82661,-17.3892,-4.06208,-11.5557,31.1942,-4.79343,5.11028,-29.5077
-1.34595,17.9903,-4.82166,5.51683,-2.96743,1.41833,5.56736,-1.23363,0.104033,3.35269,-1.63133,5.06234,0.485113,-0.868548,5.26441,-19.1021,-2.66083,-10.3141,30.4762,-1.81668,4.41048,13.6809,-1.39462,3.21801,3.22031e-14,1.59028e-15,-27.0733,-8.52742,-75.7657,25.0316,21.9342,-20.5441,0.0853255,7.12502,5.81452,-29.8149,3.22031e-14,1.59028e-15,-28.9044,-0.45798,85.0756,45.595,-4.17345,-10.856,25.7439,7.12502,15.1592,55.1687,-18.5679,5.044,16.7557,29.2391,-14.0843,-4.42384,3.81636,-17.6718,-3.80551,-11.4122,31.7925,-4.53824,4.71575,-29.2888
-1.34983,17.9974,-4.81575,5.40987,-2.9923,1.37709,5.63257,-1.21497,0.155346,3.39158,-1.60385,5.03393,0.48408,-0.854116,5.20522,-19.1302,-2.61677,-10.3255,30.5124,-1.75194,4.43186,13.6965,-1.36568,3.24087,1.19271e-14,-1.43125e-14,-27.0967,-8.29733,-75.93,25.2013,21.7286,-20.3905,0.142681,7.12502,5.96279,-29.7534,1.19271e-14,-1.43125e-14,-28.8338,-0.536458,85.0689,45.5534,-4.06841,-9.78516,26.7402,7.12502,16.1905,56.0841,-18.3011,4.9675,16.8359,28.9935,-14.0001,-4.3551,3.85931,-17.9288,-3.50802,-11.299,32.4364,-4.26527,4.25491,-29.3183
-1.3529,18.0039,-4.80994,5.36301,-3.03556,1.37018,5.63596,-1.16932,0.177032,3.42167,-1.54328,4.99973,0.506106,-0.823596,5.15362,-19.1214,-2.60732,-10.2846,30.5018,-1.72394,4.34751,13.6866,-1.35987,3.20422,1.78906e-14,-3.49861e-14,-27.0866,-8.07219,-76.0736,25.3232,21.6269,-20.2999,0.250221,7.12502,6.05024,-29.6434,1.78906e-14,-3.49861e-14,-28.7509,-0.540258,85.0298,45.5432,-4.46852,-10.6645,25.8092,7.12502,15.3437,55.2199,-18.0936,4.92776,16.8575,28.7337,-13.9097,-4.29799,4.0016,-18.2578,-3.13148,-11.2434,33.1286,-4.02462,3.78639,-29.4609
-1.35529,18.0102,-4.8018,5.34599,-3.1726,1.34202,5.58803,-1.11611,0.208572,3.45445,-1.47413,4.98394,0.559168,-0.789264,5.11405,-19.1743,-2.60266,-10.3076,30.5151,-1.6749,4.26746,13.6997,-1.35224,3.18465,0,-1.59028e-14,-27.0322,-7.67451,-76.2272,25.4306,21.5082,-20.2034,0.52857,7.12502,6.14349,-29.3624,0,-1.59028e-14,-28.6514,-0.461104,84.9803,45.4602,-5.04535,-12.6105,23.8103,7.12502,13.4686,53.3548,-17.9274,4.98612,16.874,28.4579,-13.8307,-4.15888,4.73936,-18.6424,-2.62677,-11.1839,33.9029,-3.81049,3.33009,-29.674
-1.35777,18.0171,-4.79531,5.31322,-3.31529,1.34582,5.60105,-1.07855,0.187348,3.47192,-1.42562,4.96464,0.56568,-0.765406,5.10364,-19.2669,-2.57272,-10.3302,30.5369,-1.59507,4.21884,13.7221,-1.32706,3.18336,-2.38542e-15,0,-26.9477,-7.28088,-76.3908,25.5427,21.4,-20.1104,0.685018,7.12502,6.2332,-29.2033,-2.38542e-15,0,-28.6273,-0.41983,84.9725,45.3551,-5.35826,-13.446,22.8369,7.12502,12.6632,52.433,-17.7512,5.02156,16.8655,28.1631,-13.6882,-4.07578,5.22864,-19.0414,-2.10726,-11.1644,34.7297,-3.45349,2.83815,-29.7293
-1.35979,18.0257,-4.79343,5.28046,-3.343,1.29301,5.63922,-1.05876,0.235668,3.48945,-1.39664,4.94548,0.558202,-0.74999,5.0553,-19.3495,-2.56027,-10.3126,30.5534,-1.56388,4.19358,13.7438,-1.31488,3.17619,1.31198e-14,1.11319e-14,-26.7985,-7.18448,-76.5167,25.5441,21.5518,-20.125,0.930161,7.12502,6.21916,-28.9585,1.31198e-14,1.11319e-14,-28.6635,-0.463828,84.9814,45.318,-5.41197,-13.2499,22.6854,7.12502,12.8523,52.2697,-17.5596,4.97124,16.9372,27.8557,-13.5311,-4.06576,5.40589,-19.4606,-1.56189,-11.0947,35.5766,-2.81986,2.18225,-29.5526
-1.363,18.035,-4.79171,5.20904,-3.34455,1.18037,5.76392,-1.03726,0.317985,3.4853,-1.35993,4.94445,0.479263,-0.72935,5.00856,-19.407,-2.53943,-10.2668,30.6229,-1.52469,4.14052,13.7818,-1.30145,3.15566,1.15295e-14,-6.83819e-14,-26.6593,-7.10807,-76.6395,25.4833,21.8333,-20.2017,1.21844,7.12502,6.14509,-28.6724,1.15295e-14,-6.83819e-14,-28.7241,-0.518913,85.0044,45.2218,-5.56441,-13.4387,22.2317,7.12502,12.6703,51.8273,-17.3297,4.90374,17.0922,27.5708,-13.3747,-4.08629,5.27219,-19.8513,-1.06373,-10.9389,36.3835,-2.1908,1.55849,-29.2586
-1.36585,18.0412,-4.78775,5.15702,-3.38172,1.1502,5.89185,-1.02168,0.311325,3.45101,-1.33379,4.92461,0.370021,-0.71458,4.99355,-19.4604,-2.50278,-10.2934,30.7163,-1.45392,4.13567,13.8276,-1.2771,3.17322,5.96354e-15,-4.77083e-15,-26.6295,-6.82164,-76.7942,25.5815,21.8586,-20.3385,1.38533,7.12502,6.013,-28.5093,5.96354e-15,-4.77083e-15,-28.7516,-0.525379,85.0154,44.9459,-5.86082,-13.695,21.7148,7.12502,12.4232,51.3256,-17.1537,4.8209,17.1533,27.334,-13.231,-4.06937,4.95683,-20.2712,-0.664851,-10.8497,37.1285,-1.61877,1.11556,-28.5278
-1.36765,18.0468,-4.78126,5.17536,-3.43785,1.22307,5.87355,-1.01301,0.192324,3.42622,-1.32764,4.89397,0.356039,-0.712518,5.02859,-19.4286,-2.45882,-10.4283,30.6854,-1.37008,4.20997,13.8017,-1.2458,3.24007,4.77083e-15,1.27222e-14,-26.6323,-6.33872,-76.969,25.7981,21.7481,-20.3807,1.45976,7.12502,5.97223,-28.4361,4.77083e-15,1.27222e-14,-28.7559,-0.537276,85.0319,44.6908,-6.01674,-13.866,21.3365,7.12502,12.2584,50.9573,-17.0725,4.73606,17.084,27.1378,-13.091,-4.00566,4.73932,-20.7582,-0.346411,-10.8694,37.8002,-1.01703,0.737466,-27.7076
-1.36913,18.0494,-4.77384,5.16757,-3.55702,1.28784,5.84747,-0.979338,0.0864369,3.43859,-1.28952,4.82538,0.380622,-0.694685,5.014,-19.4004,-2.40433,-10.5262,30.6223,-1.31881,4.38824,13.7643,-1.20879,3.33626,4.25399e-14,-2.8625e-14,-26.4265,-5.91945,-77.2534,25.895,21.6326,-20.3191,1.36386,7.12502,6.03174,-28.5303,4.25399e-14,-2.8625e-14,-28.7084,-0.533315,85.0314,44.4287,-5.90436,-12.6815,22.6501,7.12502,13.4002,52.1992,-17.0028,4.72857,17.0179,26.9865,-12.9372,-3.96861,4.38431,-21.1996,0.076092,-10.8981,38.4472,-0.442744,0.29489,-27.1575
-1.37022,18.0495,-4.76999,5.12426,-3.61589,1.23083,5.90276,-0.950284,0.106785,3.46627,-1.24952,4.78844,0.373543,-0.674185,4.96245,-19.4235,-2.40225,-10.5057,30.6144,-1.33447,4.43146,13.7668,-1.20681,3.34751,-7.95139e-15,2.70347e-14,-26.0525,-5.6726,-77.5257,25.9082,21.6075,-20.0998,1.01859,7.12502,6.24343,-28.8694,-7.95139e-15,2.70347e-14,-28.6091,-0.55502,85.0624,44.1196,-5.88943,-8.73502,26.5941,7.12502,17.2015,55.8527,-16.9145,4.82864,17.0862,26.8615,-12.8635,-4.03736,4.37001,-21.6304,0.595961,-10.8017,39.1049,0.101519,-0.366288,-27.309
-1.37142,18.0476,-4.77123,5.04908,-3.60371,1.09255,6.06138,-0.959667,0.157918,3.49368,-1.25592,4.82154,0.314041,-0.676729,4.97187,-19.5363,-2.44177,-10.3964,30.6331,-1.34906,4.23099,13.7996,-1.228,3.24569,1.59028e-14,-1.59028e-15,-25.7225,-5.34931,-77.713,25.9906,21.5606,-19.9776,0.926001,7.12502,6.36146,-28.9585,1.59028e-14,-1.59028e-15,-28.4825,-0.311499,85.0782,43.7756,-6.47413,-12.6338,22.609,7.12502,13.4462,52.155,-16.7785,4.9247,17.257,26.7574,-12.8397,-4.12889,4.48549,-22.0574,1.07321,-10.6009,39.7653,0.576233,-1.10028,-27.3826
-1.37231,18.049,-4.77242,4.96136,-3.62642,1.02708,6.22462,-0.976462,0.130069,3.52405,-1.27627,4.80804,0.256863,-0.687009,4.97821,-19.646,-2.43737,-10.2323,30.6188,-1.31324,4.01238,13.8115,-1.22266,3.13484,-5.56597e-15,-1.74931e-14,-25.5123,-4.87351,-77.9496,26.1628,21.3688,-19.8318,0.924588,7.12502,6.50217,-28.9556,-5.56597e-15,-1.74931e-14,-28.398,-0.150213,85.0387,43.5102,-6.80998,-13.4274,21.7819,7.12502,12.6812,51.3769,-16.6353,5.04659,17.3369,26.675,-12.8664,-4.19419,4.6235,-22.4307,1.46777,-10.4882,40.3911,0.986345,-1.74648,-26.8707
-1.3709,18.0492,-4.76849,4.93447,-3.66526,1.05467,6.25803,-0.968607,0.0627504,3.52926,-1.26884,4.73363,0.242577,-0.683357,4.93859,-19.6878,-2.43753,-10.1484,30.6071,-1.32363,3.96943,13.815,-1.22279,3.10104,-1.59028e-15,-3.18055e-14,-25.371,-4.42742,-78.1965,26.4058,21.124,-19.647,0.85197,7.12502,6.68062,-29.0226,-1.59028e-15,-3.18055e-14,-28.4058,-0.150885,85.0055,43.2756,-6.93551,-12.1703,22.7655,7.12502,13.8929,52.2814,-16.5907,5.09673,17.29,26.6469,-12.8963,-4.18002,4.93483,-22.8104,1.83585,-10.4947,40.9329,1.24859,-2.37805,-26.324
-1.3661,18.0463,-4.76214,4.91707,-3.73897,1.01689,6.28904,-0.938629,0.0950784,3.53105,-1.22663,4.68058,0.221408,-0.660928,4.86265,-19.7756,-2.43245,-10.1377,30.627,-1.31707,3.99308,13.8417,-1.21555,3.1108,-1.66979e-14,-5.56597e-14,-25.2681,-3.99273,-78.376,26.6417,20.9249,-19.7254,0.981,7.12502,6.60492,-28.896,-1.66979e-14,-5.56597e-14,-28.3993,-0.092806,85.0018,42.9705,-7.26387,-10.1584,24.1789,7.12502,15.8311,53.5516,-16.5758,5.16492,17.3012,26.6801,-12.9085,-4.09719,5.32879,-23.1292,2.26059,-10.4536,41.3617,1.2725,-2.97843,-26.6726
-1.3611,18.0412,-4.75443,4.87211,-3.87557,0.936838,6.38318,-0.912737,0.122167,3.49912,-1.1869,4.66688,0.131811,-0.639192,4.83294,-19.6888,-2.39688,-10.229,30.5794,-1.27018,4.07409,13.7992,-1.194,3.16585,6.75868e-15,2.06736e-14,-25.2749,-3.58096,-78.4905,26.8948,20.8422,-19.7694,1.19058,7.12502,6.56242,-28.6877,6.75868e-15,2.06736e-14,-28.5633,-0.0317851,85.0176,42.7392,-7.52475,-9.09867,24.9226,7.12502,16.8515,54.2115,-16.567,5.2738,17.3699,26.7891,-12.9388,-4.04194,5.23307,-23.3132,2.64231,-10.3595,41.662,1.20876,-3.31312,-27.1616
-1.35335,18.0335,-4.74761,4.83304,-3.94069,0.858296,6.46224,-0.931087,0.173217,3.45924,-1.20478,4.64175,0.0463777,-0.645856,4.78078,-19.5775,-2.33881,-10.2433,30.5298,-1.19728,4.0839,13.747,-1.16216,3.18301,1.35174e-14,2.70347e-14,-25.1979,-3.28658,-78.6144,27.105,20.8627,-19.7629,1.31458,7.12502,6.56869,-28.5635,1.35174e-14,2.70347e-14,-28.7564,0.106717,85.0087,42.471,-7.83124,-9.01912,24.7659,7.12502,16.928,54.0482,-16.5936,5.31807,17.435,26.9556,-13.0333,-3.99418,5.24012,-23.4374,2.81811,-10.264,41.82,0.977993,-3.42789,-27.5604
-1.34424,18.0247,-4.73861,4.81094,-4.00385,0.852149,6.44144,-0.943323,0.164327,3.48976,-1.22387,4.57485,0.0894938,-0.655692,4.71593,-19.7008,-2.29601,-10.2533,30.5449,-1.14026,4.15541,13.7744,-1.12873,3.22453,2.54444e-14,-8.90555e-14,-24.9261,-3.16627,-78.7663,27.2511,20.9709,-20.2634,1.9684,7.12502,6.08556,-27.9242,2.54444e-14,-8.90555e-14,-28.7841,0.314569,84.9838,42.1348,-8.22271,-9.15142,24.4826,7.12502,16.8007,53.7757,-16.6431,5.30822,17.4172,27.1551,-13.1252,-3.91191,4.97957,-23.5094,3.01607,-10.2872,41.8007,0.268025,-3.51202,-28.8671
-1.33389,18.0163,-4.72732,4.77178,-4.13654,0.820478,6.44187,-0.915865,0.179053,3.52237,-1.18833,4.50393,0.117916,-0.63765,4.63064,-19.8935,-2.291,-10.225,30.6083,-1.13448,4.19888,13.8422,-1.11793,3.24111,3.97569e-16,-7.95139e-15,-24.6506,-2.97481,-78.9206,27.3875,20.8055,-20.5951,2.54345,7.12502,5.76533,-27.3581,3.97569e-16,-7.95139e-15,-28.7252,0.49788,84.9578,41.6772,-8.68484,-9.07877,24.1672,7.12502,16.8706,53.4544,-16.6702,5.30951,17.4296,27.3627,-13.2024,-3.79359,4.58222,-23.4604,3.25409,-10.3024,41.5664,-0.861761,-3.5378,-28.8981
-1.32217,18.01,-4.71205,4.7226,-4.3015,0.801967,6.44609,-0.877548,0.139731,3.51735,-1.13956,4.46431,0.106335,-0.613242,4.60862,-19.8777,-2.29479,-10.1094,30.5735,-1.14045,4.07177,13.8229,-1.12381,3.16743,1.43125e-14,2.06736e-14,-24.5585,-2.47341,-79.059,27.7197,20.3088,-20.0821,2.00391,7.12502,6.26053,-27.8836,1.43125e-14,2.06736e-14,-28.7655,0.661992,84.9677,41.3035,-9.04204,-8.71972,24.098,7.12502,17.2162,53.3553,-16.7029,5.31892,17.4147,27.5977,-13.3,-3.64179,4.2956,-23.2527,3.53393,-10.3607,41.0903,-2.28928,-3.53466,-26.9394
-1.30962,18.004,-4.6966,4.66014,-4.45092,0.828973,6.492,-0.857038,-0.00651335,3.49573,-1.11851,4.45291,0.0596053,-0.603944,4.67975,-19.833,-2.26812,-10.0308,30.5038,-1.092,3.94485,13.7779,-1.10966,3.10865,-4.37326e-15,5.56597e-14,-24.4669,-1.99012,-79.1297,28.0024,19.9984,-19.7511,1.51611,7.12502,6.58009,-28.3617,-4.37326e-15,5.56597e-14,-28.897,0.837716,85.0294,41.0056,-9.23465,-8.67767,24.0623,7.12502,17.2567,53.3161,-16.726,5.28379,17.3446,27.8487,-13.4036,-3.38995,4.3824,-22.9861,3.69538,-10.4663,40.3837,-3.66437,-3.23307,-25.7244
-1.29636,17.995,-4.68386,4.66094,-4.63424,0.889838,6.51139,-0.814043,-0.18456,3.46441,-1.06984,4.42492,0.0154062,-0.580861,4.74941,-19.8544,-2.25815,-10.1016,30.5146,-1.06802,3.99913,13.7859,-1.10049,3.14729,-2.78299e-15,0,-24.2693,-1.69824,-79.1517,28.1655,19.816,-19.8593,1.64336,7.12502,6.47564,-28.2376,-2.78299e-15,0,-28.9682,1.00174,85.1103,40.5878,-9.44426,-8.86746,23.8332,7.12502,17.074,53.1029,-16.8501,5.47647,17.216,28.1205,-13.5727,-3.32433,4.23855,-22.7569,3.76175,-10.5997,39.4677,-4.73436,-2.51573,-25.8643
-1.27919,17.9826,-4.66928,4.66015,-4.82572,0.897331,6.50113,-0.788052,-0.248749,3.44448,-1.03872,4.39461,-0.0015744,-0.565442,4.75218,-19.7648,-2.20015,-10.1472,30.4267,-0.978253,4.00142,13.721,-1.06463,3.16861,-2.18663e-14,-1.43125e-14,-24.079,-1.36572,-79.1944,28.374,19.6988,-19.9128,1.61251,7.12502,6.424,-28.2701,-2.18663e-14,-1.43125e-14,-28.9973,1.25079,85.1803,40.0618,-9.78799,-8.84896,23.9461,7.12502,17.0918,53.2143,-16.9682,5.62563,17.1447,28.4061,-13.7488,-3.30589,3.83894,-22.4454,3.743,-10.6919,38.3987,-5.49816,-1.62088,-26.0889
-1.25921,17.9717,-4.65073,4.68913,-4.96039,0.883724,6.3647,-0.789997,-0.23207,3.44556,-1.04396,4.34719,0.0742433,-0.568335,4.69043,-19.7059,-2.14515,-10.1191,30.3208,-0.888011,3.92229,13.6544,-1.03043,3.14401,-7.55382e-15,-3.18055e-15,-23.9092,-1.05214,-79.2825,28.6629,19.7131,-20.3457,1.58353,7.12502,6.00606,-28.3113,-7.55382e-15,-3.18055e-15,-29.0574,1.38354,85.2469,39.6562,-9.93878,-8.72241,24.4955,7.12502,17.2136,53.753,-17.0907,5.63947,17.0834,28.6938,-13.9003,-3.19,3.5532,-22.1036,3.65357,-10.7841,37.2189,-6.06533,-0.702458,-25.5694
-1.23736,17.9604,-4.63078,4.69703,-5.08519,0.862506,6.25068,-0.745018,-0.135092,3.46521,-0.982785,4.23618,0.148441,-0.536264,4.51283,-19.7652,-2.16675,-10.0118,30.2894,-0.947574,3.91435,13.6573,-1.04363,3.11168,1.94809e-14,-3.65764e-14,-23.7364,-1.03757,-79.3773,28.9175,19.9077,-21.3477,1.78048,7.12502,5.03865,-28.1396,1.94809e-14,-3.65764e-14,-29.0294,1.14864,85.2715,39.223,-9.79959,-8.71134,24.6012,7.12502,17.2243,53.8579,-17.1877,5.55652,17.0297,28.9532,-13.9838,-2.99127,3.22423,-21.6658,3.49366,-10.8731,35.9407,-6.72325,0.284452,-24.4148
-1.21415,17.9493,-4.60911,4.69641,-5.21299,0.804132,6.22125,-0.690102,-0.0295738,3.45575,-0.904829,4.1658,0.145477,-0.49487,4.37412,-19.8462,-2.18159,-9.90225,30.2569,-0.974741,3.84527,13.6619,-1.05085,3.0599,1.19271e-15,2.70347e-14,-23.6261,-0.945947,-79.3768,29.1986,19.8535,-21.7774,1.58375,7.12502,4.62369,-28.3458,1.19271e-15,2.70347e-14,-28.9688,0.966144,85.3695,38.6867,-9.77161,-8.61028,24.5894,7.12502,17.3216,53.8376,-17.2556,5.51022,17.0167,29.1723,-14.0488,-2.83711,2.65393,-21.1592,3.25229,-10.9348,34.5572,-7.45686,1.35833,-23.3756
-1.19288,17.9406,-4.58696,4.71613,-5.33748,0.848031,6.17358,-0.688133,-0.16143,3.42438,-0.909206,4.16676,0.142169,-0.498556,4.4497,-19.9607,-2.14574,-9.92023,30.2328,-0.857958,3.71495,13.667,-1.01941,3.03029,1.51076e-14,-1.11319e-14,-23.4556,-0.667092,-79.2806,29.4163,19.6573,-21.2672,1.31491,7.12502,5.11632,-28.6033,1.51076e-14,-1.11319e-14,-28.9881,1.15154,85.5217,38.1278,-9.85832,-8.3978,24.8121,7.12502,17.526,54.0421,-17.3221,5.62927,16.881,29.3635,-14.1877,-2.80399,2.33909,-20.6539,2.91563,-11.103,33.0728,-8.22933,2.60041,-22.8509
-1.17062,17.9334,-4.56315,4.71673,-5.40843,0.886163,6.10339,-0.71566,-0.283014,3.39894,-0.952911,4.15285,0.160239,-0.521927,4.50569,-20.1251,-2.11385,-9.91907,30.2986,-0.762878,3.62768,13.7229,-0.991957,3.01368,-5.1684e-15,-7.95139e-15,-23.246,-0.469422,-79.2476,29.5281,19.3942,-20.9677,1.66779,7.12502,5.40557,-28.2433,-5.1684e-15,-7.95139e-15,-29.1563,1.21732,85.6282,37.7565,-9.70282,-8.40992,24.8634,7.12502,17.5144,54.0944,-17.3553,5.73033,16.7596,29.573,-14.39,-2.81514,2.12617,-20.1532,2.46626,-11.2541,31.5068,-8.83017,3.91648,-23.0254
-1.14405,17.9257,-4.54112,4.69052,-5.44918,0.870928,6.07098,-0.728172,-0.254968,3.39204,-0.968823,4.08756,0.170458,-0.528882,4.42177,-20.1995,-2.06503,-9.78634,30.2764,-0.707881,3.55981,13.7228,-0.961303,2.97291,-7.55382e-15,-2.8625e-14,-23.07,-0.3366,-79.3042,29.7744,19.322,-21.3183,1.61018,7.12502,5.06698,-28.3092,-7.55382e-15,-2.8625e-14,-29.2584,1.20674,85.6742,37.3654,-9.56568,-8.62703,24.458,7.12502,17.3054,53.7075,-17.3738,5.77597,16.6834,29.8006,-14.5725,-2.76105,1.95735,-19.6763,1.83676,-11.3468,29.9031,-9.19021,5.31048,-23.9124
-1.11555,17.912,-4.51776,4.68878,-5.54949,0.85282,6.03295,-0.728759,-0.238691,3.35348,-0.968394,4.06616,0.150958,-0.527589,4.38971,-20.1309,-2.03845,-9.86284,30.1949,-0.641943,3.53764,13.6687,-0.942641,2.9859,1.86858e-14,9.54166e-15,-23.0459,0.143539,-79.3121,30.1964,18.9845,-21.6896,1.01221,7.12502,4.70851,-28.9155,1.86858e-14,9.54166e-15,-29.3013,1.40258,85.762,36.7921,-9.62949,-8.67142,23.9544,7.12502,17.2627,53.2077,-17.454,5.75471,16.5953,30.0472,-14.701,-2.62583,1.64772,-19.1945,1.23359,-11.4634,28.313,-9.4758,6.66685,-24.87
-1.086,17.8927,-4.48806,4.74349,-5.65278,0.777078,5.88235,-0.745125,-0.203335,3.31065,-0.99021,4.07662,0.191655,-0.538138,4.37931,-20.1886,-2.03167,-9.88771,30.1644,-0.580723,3.43249,13.6641,-0.932838,2.9577,-2.70347e-14,-9.54166e-15,-23.0213,0.513952,-79.2898,30.5101,18.7831,-21.4902,0.663925,7.12502,4.901,-29.2594,-2.70347e-14,-9.54166e-15,-29.412,1.65289,85.8387,36.3068,-9.74945,-8.47196,23.9354,7.12502,17.4547,53.1717,-17.5632,5.66906,16.5768,30.32,-14.8717,-2.46669,1.27612,-18.6999,0.621024,-11.519,26.7569,-9.71073,7.91794,-25.1862
-1.05459,17.8799,-4.45842,4.79374,-5.69487,0.725214,5.79212,-0.763289,-0.193614,3.22882,-1.01297,4.08287,0.159035,-0.548171,4.38054,-20.2928,-2.00017,-9.82053,30.1755,-0.500797,3.29677,13.6847,-0.909642,2.90609,-4.25399e-14,1.11319e-14,-22.9277,0.738213,-79.2388,30.6419,18.8912,-20.8143,0.0253728,7.12502,5.55363,-29.8819,-4.25399e-14,1.11319e-14,-29.6907,1.76567,85.978,36.0186,-9.8113,-8.31006,24.3053,7.12502,17.6105,53.5277,-17.6485,5.65526,16.526,30.6166,-15.084,-2.38789,0.760374,-18.2014,-0.112344,-11.6134,25.2436,-9.88614,9.11243,-25.1727
-1.01915,17.8727,-4.43346,4.84218,-5.66852,0.726246,5.71377,-0.801428,-0.145901,3.20035,-1.0622,4.04693,0.17526,-0.571676,4.31723,-20.4186,-1.96918,-9.79041,30.0788,-0.424792,3.21891,13.6641,-0.880727,2.88097,1.51076e-14,3.18055e-14,-22.7681,1.09055,-79.2192,30.8689,18.7364,-20.8188,-0.316519,7.12502,5.54928,-30.2239,1.51076e-14,3.18055e-14,-29.8289,1.69298,86.1286,35.7168,-9.73373,-8.28989,24.5107,7.12502,17.6299,53.7314,-17.7252,5.72605,16.3966,30.853,-15.2723,-2.46849,-0.0566689,-17.8218,-0.965961,-11.7822,23.8475,-9.80637,10.2377,-25.118
-0.985163,17.8618,-4.40798,4.79627,-5.64753,0.729865,5.67241,-0.857634,-0.11182,3.23328,-1.13764,3.99579,0.236074,-0.60953,4.2473,-20.563,-1.93275,-9.78426,29.9514,-0.341407,3.17425,13.6337,-0.845771,2.87398,-1.55052e-14,4.13472e-14,-22.6667,1.58054,-79.2717,31.1576,17.9684,-21.8364,0.590173,7.12502,4.56679,-29.3406,-1.55052e-14,4.13472e-14,-29.894,1.63436,86.239,35.3896,-9.65554,-8.42866,24.615,7.12502,17.4963,53.8476,-17.6695,5.83529,16.2721,31.0019,-15.4568,-2.51337,-0.369358,-17.456,-1.85135,-11.9526,22.6524,-9.17274,11.154,-25.272
-0.948732,17.8573,-4.37813,4.85442,-5.62324,0.660053,5.56214,-0.890124,-0.00587796,3.15496,-1.17564,3.96939,0.216455,-0.625803,4.16006,-20.5958,-1.87584,-9.69384,29.8878,-0.253264,3.07157,13.6061,-0.809455,2.83123,-3.97569e-16,-1.43125e-14,-22.7572,1.93271,-79.272,31.4366,17.27,-22.5408,1.57901,7.12502,3.88655,-28.3653,-3.97569e-16,-1.43125e-14,-30.1373,1.57617,86.3794,35.1121,-9.55342,-8.50562,24.7158,7.12502,17.4223,53.955,-17.6599,5.8304,16.2013,31.0704,-15.5817,-2.51065,-0.568757,-17.2804,-2.97426,-11.9789,21.7549,-7.57135,11.5473,-23.6628
-0.910628,17.8583,-4.35401,4.99002,-5.5574,0.611387,5.4849,-0.917418,0.0473568,3.0565,-1.20767,3.97337,0.159078,-0.639559,4.13498,-20.7743,-1.83008,-9.64152,29.8622,-0.15272,2.97896,13.6254,-0.771619,2.80294,8.34896e-15,3.18055e-15,-22.7533,2.25876,-79.1846,31.8201,17.3775,-22.1039,0.759753,7.12502,4.30841,-29.1764,8.34896e-15,3.18055e-15,-30.4495,1.48179,86.6023,34.9665,-9.4584,-8.45863,24.6407,7.12502,17.4675,53.8759,-17.6994,5.81851,16.0984,31.0404,-15.6527,-2.56738,-0.412482,-17.3039,-4.30558,-11.9385,21.2633,-5.46846,11.4086,-19.3563
-0.872673,17.8578,-4.33376,5.08669,-5.4374,0.558817,5.45344,-0.976036,0.0656403,3.01171,-1.28386,3.99799,0.136104,-0.677015,4.15394,-21.0456,-1.81379,-9.68267,29.8468,-0.0618958,2.92421,13.6705,-0.743816,2.80486,-1.66979e-14,6.36111e-15,-22.6276,2.67229,-79.1069,32.1653,17.581,-21.7755,-0.222895,7.12502,4.62555,-30.1524,-1.66979e-14,6.36111e-15,-30.6787,1.4332,86.8387,34.7701,-9.49554,-8.39646,24.6341,7.12502,17.5273,53.864,-17.6388,5.90322,16.0103,30.9204,-15.7697,-2.70347,-0.24257,-17.3494,-5.17876,-11.9799,21.198,-4.38959,11.7518,-17.4883
-0.834857,17.8617,-4.31255,5.19289,-5.30186,0.639582,5.39682,-1.04392,-0.0386513,2.93984,-1.37776,3.96612,0.101975,-0.723853,4.18402,-21.2286,-1.80304,-9.67783,29.8213,0.00634531,2.82965,13.6943,-0.726099,2.77832,-3.33958e-14,3.49861e-14,-22.591,3.08692,-79.0811,32.4343,17.4625,-21.9555,-0.21898,7.12502,4.45176,-30.1522,-3.33958e-14,3.49861e-14,-30.7927,1.33352,87.0449,34.4665,-9.47922,-8.45259,24.9199,7.12502,17.4733,54.1546,-17.5735,5.98699,15.7707,30.7844,-15.8842,-2.85951,-0.120286,-17.3887,-5.45609,-12.3034,21.417,-4.33361,13.1406,-18.4491
-0.797418,17.8705,-4.2948,5.34051,-5.12895,0.775308,5.43638,-1.11104,-0.221272,2.76574,-1.46863,3.94126,-0.0887618,-0.767177,4.26942,-21.2781,-1.77522,-9.69092,29.786,0.0920978,2.72815,13.6845,-0.703701,2.7541,-1.39149e-14,1.74931e-14,-22.7559,3.65741,-79.0433,32.7812,17.3037,-22.1063,-0.164306,7.12502,4.30614,-30.1005,-1.39149e-14,1.74931e-14,-31.053,1.21716,87.2773,34.284,-9.52971,-8.47757,25.2577,7.12502,17.4493,54.4945,-17.598,6.02885,15.4662,30.6942,-15.9766,-2.95481,0.272364,-17.5334,-5.64633,-12.6731,21.7102,-4.22724,14.4873,-19.3519
-0.761589,17.8747,-4.28026,5.43238,-4.84683,0.863482,5.58948,-1.19032,-0.364238,2.59366,-1.57215,3.93248,-0.339684,-0.815361,4.35345,-21.2192,-1.76924,-9.75341,29.656,0.135804,2.67029,13.6145,-0.695641,2.74567,-1.66979e-14,3.18055e-15,-23.086,4.56969,-79.0771,33.2905,16.9523,-22.5287,-0.384244,7.12502,3.89826,-30.3283,-1.66979e-14,3.18055e-15,-31.4477,1.1153,87.4957,34.2212,-9.72821,-8.4424,25.1184,7.12502,17.4831,54.3522,-17.5767,6.00638,15.2421,30.6268,-16.0621,-3.15372,0.408327,-17.746,-5.95704,-12.9039,21.9987,-4.31788,14.7308,-19.7181
-0.72705,17.8762,-4.2651,5.5221,-4.56016,1.09362,5.67612,-1.25885,-0.667002,2.50408,-1.67472,3.87206,-0.465,-0.86593,4.4718,-21.2354,-1.80872,-9.86671,29.4047,0.10948,2.70543,13.5138,-0.706083,2.76864,-1.35174e-14,4.6118e-14,-23.3149,5.36232,-79.1357,33.8156,16.5504,-22.7894,-0.621021,7.12502,3.64645,-30.5696,-1.35174e-14,4.6118e-14,-31.7576,0.86191,87.7405,34.2301,-9.7823,-8.58866,24.7876,7.12502,17.3424,54.0338,-17.579,6.09711,14.8552,30.5711,-16.2538,-3.53927,0.251267,-17.9633,-6.34168,-13.2508,22.2223,-4.61225,14.2552,-19.43
-0.693183,17.8794,-4.24888,5.5959,-4.28725,1.27768,5.75322,-1.30994,-0.917751,2.4938,-1.75484,3.80221,-0.506271,-0.906611,4.54825,-21.5276,-1.824,-9.77893,29.1977,0.134697,2.57153,13.4867,-0.696366,2.70168,2.74323e-14,-1.59028e-15,-23.2938,5.61604,-79.1393,34.1002,16.4499,-22.8999,-0.690039,7.12502,3.53978,-30.6404,2.74323e-14,-1.59028e-15,-31.8362,0.37703,88.017,34.1032,-9.74235,-9.07865,24.519,7.12502,16.8707,53.8062,-17.5416,6.29842,14.5186,30.5441,-16.5312,-3.92462,0.365163,-18.1386,-6.44067,-13.5678,22.3366,-4.52724,13.6848,-18.7814
-0.658514,17.8847,-4.23314,5.67385,-4.00643,1.35215,5.84248,-1.35516,-1.03621,2.50007,-1.82069,3.75423,-0.541567,-0.939575,4.57187,-21.8104,-1.80726,-9.6497,28.9441,0.207964,2.37847,13.4347,-0.667944,2.61175,2.98177e-14,-3.18055e-15,-23.2778,5.80432,-79.1452,34.3566,16.5954,-23.1012,-0.707419,7.12502,3.3454,-30.6609,2.98177e-14,-3.18055e-15,-31.8568,-0.223899,88.318,33.9921,-9.58212,-9.57903,24.6959,7.12502,16.389,54.0235,-17.4821,6.35489,14.3118,30.5255,-16.7611,-4.1927,0.516058,-18.381,-6.24924,-13.7661,22.394,-4.30922,13.2318,-18.2706
-0.625265,17.8837,-4.21991,5.75506,-3.67826,1.37706,5.93383,-1.38923,-1.07447,2.50381,-1.86759,3.68759,-0.585535,-0.962127,4.52961,-21.9374,-1.81228,-9.5819,28.6216,0.218522,2.28685,13.3254,-0.657027,2.55984,-1.07344e-14,-1.43125e-14,-23.3879,5.77913,-79.1865,34.7492,16.8594,-23.0205,-0.95936,7.12502,3.42333,-30.9116,-1.07344e-14,-1.43125e-14,-32.0012,-0.920274,88.5899,34.1253,-9.42288,-9.84522,25.1871,7.12502,16.1327,54.5357,-17.4229,6.41028,14.1798,30.4829,-16.9663,-4.55271,0.232471,-18.6685,-5.82699,-13.9286,22.4886,-4.17164,12.4754,-18.4248
-0.589932,17.8798,-4.20398,5.82061,-3.36459,1.38953,6.01084,-1.41451,-1.07752,2.51014,-1.90102,3.63449,-0.620776,-0.97795,4.48029,-22.0893,-1.86389,-9.6757,28.3722,0.187182,2.31535,13.2556,-0.667933,2.57714,-1.19271e-14,2.06736e-14,-23.6092,5.72342,-79.2021,35.2221,16.9248,-22.743,-0.997581,7.12502,3.69132,-30.9454,-1.19271e-14,2.06736e-14,-32.2213,-1.46255,88.8544,34.3286,-9.32939,-10.1521,25.4222,7.12502,15.8372,54.7945,-17.3411,6.4496,14.0666,30.4336,-17.1257,-4.96294,-0.338735,-18.8939,-5.10826,-14.1457,22.6106,-4.14014,11.2242,-18.9148
-0.552134,17.8809,-4.1862,5.92884,-3.09105,1.3323,6.00619,-1.44475,-1.0429,2.53382,-1.93985,3.62273,-0.592079,-0.997711,4.45008,-22.2601,-1.9052,-9.78579,28.1446,0.189324,2.3141,13.1972,-0.670937,2.59167,-9.54166e-15,-1.03368e-14,-23.8079,5.97085,-79.2654,35.6183,16.5246,-22.8221,-0.472398,7.12502,3.61487,-30.4215,-9.54166e-15,-1.03368e-14,-32.4123,-1.90718,89.1272,34.5599,-9.02873,-10.3539,25.4824,7.12502,15.6428,54.87,-17.2831,6.49038,14.0173,30.3684,-17.2671,-5.33403,-1.15063,-19.168,-4.44668,-14.2802,22.7821,-4.11613,10.1394,-19.543
-0.512879,17.8843,-4.17451,6.05795,-2.87713,1.33426,6.08978,-1.45073,-1.06694,2.51877,-1.94805,3.59081,-0.653725,-1.00054,4.43402,-22.3342,-1.92247,-9.88851,27.8676,0.209918,2.31522,13.0971,-0.662806,2.60765,-8.74653e-15,1.59028e-15,-23.956,6.11327,-79.3386,35.8649,16.3094,-23.1262,-0.0954005,7.12502,3.32119,-30.0493,-8.74653e-15,1.59028e-15,-32.6886,-2.4723,89.4463,34.9131,-8.50765,-10.2959,25.355,7.12502,15.6986,54.7382,-17.2836,6.46188,13.8849,30.2666,-17.3012,-5.56345,-1.65575,-19.5049,-3.95368,-14.4414,23.0038,-4.13606,9.45246,-19.9033
-0.470984,17.8857,-4.16578,6.22215,-2.72862,1.21456,6.21991,-1.42172,-0.8947,2.46929,-1.89729,3.53436,-0.789369,-0.970988,4.27963,-22.3967,-1.91147,-9.85444,27.6664,0.238256,2.25584,13.0251,-0.647565,2.57985,6.36111e-15,-4.37326e-14,-24.197,6.15949,-79.4553,36.2312,16.2531,-23.3692,-0.275844,7.12502,3.08651,-30.2333,6.36111e-15,-4.37326e-14,-33.0079,-3.2406,89.7678,35.3101,-7.94506,-10.3883,25.2636,7.12502,15.6097,54.6538,-17.3084,6.53736,13.8516,30.1214,-17.3675,-5.79353,-1.53222,-19.845,-3.50519,-14.4613,23.2347,-4.22762,8.90988,-20.3603
-0.424872,17.886,-4.15206,6.36371,-2.64714,1.1103,6.27786,-1.37281,-0.707142,2.50269,-1.82177,3.48268,-0.801198,-0.931941,4.11587,-22.6453,-1.94727,-9.91559,27.5109,0.255465,2.20901,13.012,-0.647304,2.57268,1.98785e-16,-2.22639e-14,-24.4563,6.38745,-79.5391,36.7146,15.9988,-23.5795,-0.244112,7.12502,2.88345,-30.2044,1.98785e-16,-2.22639e-14,-33.0758,-4.03781,90.1196,35.5175,-7.47314,-10.7734,25.0409,7.12502,15.2387,54.4596,-17.2966,6.57894,13.7845,29.9553,-17.4074,-5.88896,-1.38539,-20.0822,-2.96022,-14.5412,23.4627,-4.38876,8.25158,-20.8438
-0.378911,17.8853,-4.13489,6.46708,-2.5864,1.08158,6.32462,-1.3003,-0.619587,2.54162,-1.72098,3.42905,-0.799261,-0.881065,4.00459,-22.8807,-2.02096,-10.0036,27.3542,0.242299,2.11508,12.999,-0.669767,2.54602,-2.16675e-14,2.54444e-14,-24.7763,6.678,-79.5839,37.119,15.6855,-23.9151,-0.0787101,7.12502,2.55934,-30.0431,-2.16675e-14,2.54444e-14,-33.0594,-5.03381,90.5425,35.6302,-6.85166,-11.1795,24.8906,7.12502,14.8475,54.3387,-17.2337,6.5271,13.6363,29.765,-17.3803,-5.85405,-1.36175,-20.2881,-2.50547,-14.6889,23.7177,-4.66008,7.66061,-20.8101
-0.334184,17.884,-4.12366,6.62263,-2.48411,0.894974,6.39844,-1.22943,-0.372451,2.48919,-1.60961,3.39651,-0.910741,-0.821848,3.8265,-22.6867,-2.07371,-10.0929,27.0589,0.170929,2.11969,12.8449,-0.698746,2.54401,-1.68967e-14,-1.03368e-14,-25.1337,6.90891,-79.708,37.3128,15.1778,-23.9515,0.197862,7.12502,2.52421,-29.7669,-1.68967e-14,-1.03368e-14,-33.2863,-5.94991,90.9623,35.8815,-6.27934,-11.4335,25.0228,7.12502,14.6029,54.4887,-17.2358,6.43853,13.6777,29.5895,-17.3837,-5.91933,-1.98445,-20.5811,-2.08953,-14.6598,23.9344,-4.83079,7.1664,-21.0274
-0.28805,17.8849,-4.117,6.83228,-2.42011,0.702773,6.45622,-1.15659,-0.114827,2.47828,-1.49614,3.35599,-0.969987,-0.762813,3.63267,-22.518,-2.11311,-10.2297,26.7532,0.118233,2.19144,12.6911,-0.714774,2.5794,9.34288e-15,1.66979e-14,-25.3497,7.12787,-79.8741,37.4875,14.6721,-23.9258,0.473398,7.12502,2.54906,-29.4911,9.34288e-15,1.66979e-14,-33.4972,-6.65059,91.3178,36.247,-5.73437,-11.5663,24.8794,7.12502,14.4749,54.3545,-17.3432,6.45964,13.7016,29.4254,-17.3881,-6.03754,-2.01712,-20.9239,-1.61268,-14.6635,24.1215,-4.97309,6.65402,-21.4844
-0.238595,17.8848,-4.10257,6.92292,-2.58415,0.738996,6.56787,-1.01196,-0.0853203,2.52852,-1.3031,3.22819,-0.996461,-0.665713,3.4717,-22.504,-2.12777,-10.2508,26.5002,0.116445,2.14038,12.5872,-0.715308,2.55808,-1.11319e-14,2.3059e-14,-25.6354,7.47531,-80.0751,37.7388,14.2913,-24.1138,0.501283,7.12502,2.36743,-29.4653,-1.11319e-14,2.3059e-14,-33.7159,-7.34728,91.6745,36.5932,-5.18991,-11.8229,24.5067,7.12502,14.2277,53.9994,-17.3763,6.5476,13.4444,29.2755,-17.2908,-5.96569,-1.83971,-21.0283,-1.21236,-14.9323,24.3119,-5.21131,6.41084,-21.1088
-0.187203,17.8829,-4.07961,7.01569,-2.74608,0.772174,6.59313,-0.863182,-0.029814,2.56671,-1.10438,3.09114,-0.987278,-0.565834,3.28386,-22.5991,-2.13325,-10.24,26.4049,0.128858,2.10054,12.5674,-0.710425,2.54159,-7.95139e-16,2.38542e-15,-25.8727,7.84044,-80.2862,37.8013,13.96,-24.1631,0.284847,7.12502,2.31987,-29.6823,-7.95139e-16,2.38542e-15,-33.9064,-7.96554,91.9842,36.8457,-4.92387,-11.9325,24.2666,7.12502,14.122,53.7667,-17.3841,6.4307,13.196,29.1471,-17.1747,-5.72422,-2.03848,-21.0459,-0.935457,-15.1979,24.467,-5.51422,6.32832,-20.3486
-0.139056,17.8818,-4.06391,7.12319,-2.76615,0.755839,6.6344,-0.772419,-0.00147111,2.65408,-0.984752,3.001,-0.929257,-0.506579,3.16553,-22.7106,-2.12655,-10.1944,26.2514,0.155919,2.03003,12.5264,-0.697712,2.50903,-1.21259e-14,1.74931e-14,-25.8994,8.18503,-80.4596,37.7204,13.7495,-23.6288,-0.165279,7.12502,2.83583,-30.1262,-1.21259e-14,1.74931e-14,-33.8904,-8.44965,92.2066,37.0212,-5.02548,-12.0312,24.2088,7.12502,14.027,53.7155,-17.4101,6.30251,13.0357,29.057,-17.1,-5.65612,-2.5214,-21.129,-0.583453,-15.4139,24.5251,-5.65717,6.04472,-20.2635
-0.0945543,17.8821,-4.05616,7.2253,-2.6965,0.810144,6.7337,-0.717361,-0.0899059,2.79231,-0.919959,2.9159,-0.84554,-0.475954,3.12292,-23.0826,-2.09491,-10.058,26.2216,0.248261,1.86644,12.5827,-0.664545,2.4396,7.35503e-15,-1.59028e-14,-25.8243,8.54049,-80.627,37.6734,13.6609,-22.9087,-0.814397,7.12502,3.5313,-30.7649,7.35503e-15,-1.59028e-14,-33.8013,-8.64602,92.3442,37.3302,-5.38178,-12.1375,24.365,7.12502,13.9245,53.8788,-17.4406,6.28264,12.8126,28.9938,-17.0746,-5.72788,-2.55144,-21.2598,-0.397778,-15.6822,24.5369,-5.68705,5.80581,-20.9774
-0.0482157,17.8838,-4.04476,7.40884,-2.60074,1.03935,6.74382,-0.669951,-0.295114,2.87652,-0.87315,2.77784,-0.766078,-0.454392,3.09161,-23.4275,-2.07207,-9.97328,26.2146,0.325221,1.76334,12.6438,-0.636123,2.39987,1.82882e-14,-7.15625e-15,-25.8062,8.74934,-80.802,37.632,13.7112,-22.3785,-0.911528,7.12502,4.04327,-30.8529,1.82882e-14,-7.15625e-15,-33.838,-8.75055,92.504,37.6625,-5.45733,-12.6792,24.4103,7.12502,13.4024,53.9592,-17.5546,6.04469,12.3828,28.9518,-17.0588,-5.72314,-2.93014,-21.4736,-0.404419,-16.1303,24.5221,-5.68976,5.6852,-21.2205
-0.00306839,17.8826,-4.03228,7.60045,-2.57307,1.20084,6.81939,-0.592982,-0.467057,2.90233,-0.782687,2.65585,-0.785879,-0.409663,3.05676,-23.4921,-2.08222,-10.0137,26.0799,0.327052,1.78153,12.6022,-0.631756,2.41188,-2.5842e-14,7.95139e-15,-25.8494,9.05101,-81.0139,37.4824,13.7163,-22.2892,-0.479643,7.12502,4.12953,-30.4194,-2.5842e-14,7.95139e-15,-33.8895,-8.62414,92.5718,37.8031,-5.84851,-13.1108,24.4374,7.12502,12.9864,54.0132,-17.7081,5.93748,12.0112,28.9183,-17.0785,-5.68573,-2.82455,-21.6693,-0.298168,-16.5059,24.4741,-5.63369,5.57003,-21.2453
0.0425947,17.882,-4.02132,7.82143,-2.47615,1.28795,6.89424,-0.528642,-0.565562,2.89134,-0.703408,2.57335,-0.843081,-0.369557,3.02232,-23.4098,-2.11338,-10.119,25.9138,0.306891,1.79222,12.5215,-0.64337,2.42686,-6.16232e-15,5.1684e-14,-25.9572,9.56782,-81.2516,37.2044,13.8667,-22.482,-0.0547761,7.12502,3.9433,-29.998,-6.16232e-15,5.1684e-14,-33.8873,-8.4189,92.6337,37.8643,-6.23013,-13.5261,24.8377,7.12502,12.586,54.4386,-17.8651,5.90357,11.7267,28.8806,-17.1554,-5.77057,-2.89281,-21.8928,-0.287899,-16.7799,24.4297,-5.60132,5.46001,-21.0458
0.0860788,17.8815,-4.01133,8.04865,-2.32896,1.42502,6.92715,-0.484452,-0.74417,2.92458,-0.657548,2.47537,-0.828743,-0.347647,3.01847,-23.4846,-2.11182,-10.131,25.8368,0.344455,1.72153,12.504,-0.634781,2.40691,4.96962e-15,-1.43125e-14,-25.998,10.1444,-81.5036,36.9307,14.0438,-22.6665,0.310105,7.12502,3.76514,-29.6364,4.96962e-15,-1.43125e-14,-33.8269,-8.17597,92.6379,37.9921,-6.27216,-14.2859,25.4152,7.12502,11.8534,55.0597,-18.0021,5.91474,11.4022,28.8236,-17.2989,-5.96957,-3.31327,-22.143,-0.482154,-17.0717,24.4256,-5.59576,5.44688,-21.1278
0.129598,17.882,-4.00276,8.25559,-2.15816,1.56208,6.94727,-0.441253,-0.878962,3.0125,-0.611648,2.3407,-0.752032,-0.32638,2.95132,-23.5139,-2.09775,-10.1248,25.6726,0.359261,1.73469,12.4427,-0.619409,2.41097,-9.34288e-15,-6.36111e-15,-25.9629,10.289,-81.7513,36.7085,14.2985,-22.713,0.661987,7.12502,3.7203,-29.2853,-9.34288e-15,-6.36111e-15,-33.7378,-7.86598,92.5531,38.1736,-6.02732,-14.6219,26.4759,7.12502,11.5294,56.1388,-18.1172,5.83155,11.0989,28.7348,-17.2631,-6.20462,-4.27284,-22.3884,-0.704843,-17.3692,24.4564,-5.58266,5.45653,-21.3162
0.172424,17.8837,-3.99686,8.47012,-1.93724,1.62763,6.99378,-0.409092,-0.956438,3.10028,-0.5759,2.25227,-0.689552,-0.309934,2.90084,-23.3514,-2.09577,-10.1902,25.3425,0.345303,1.78276,12.2802,-0.612727,2.43193,-1.13307e-14,-1.59028e-14,-25.9279,10.254,-81.9477,36.4619,14.8938,-22.8571,1.17781,7.12502,3.58111,-28.7719,-1.13307e-14,-1.59028e-14,-33.5501,-7.52495,92.4956,38.3053,-5.44447,-14.2443,28.0918,7.12502,11.8936,57.7339,-18.218,5.76363,10.8727,28.6243,-17.2835,-6.42783,-4.67903,-22.6685,-0.755371,-17.6147,24.4879,-5.58406,5.25992,-21.2206
0.21299,17.8841,-3.98975,8.70225,-1.73262,1.61912,7.04735,-0.395042,-1.02159,3.18208,-0.562654,2.21555,-0.635331,-0.304879,2.89876,-23.2652,-2.09931,-10.2966,25.0564,0.345947,1.8427,12.1502,-0.603763,2.46746,1.98785e-15,1.11319e-14,-25.9162,10.3304,-82.1593,36.2193,15.7506,-22.9622,1.62753,7.12502,3.4796,-28.3238,1.98785e-15,1.11319e-14,-33.2972,-7.03178,92.3902,38.3937,-4.96551,-13.8772,28.9321,7.12502,12.2475,58.5535,-18.3149,5.76596,10.7261,28.4819,-17.4098,-6.61273,-4.20243,-22.9657,-0.765351,-17.7605,24.5267,-5.68524,5.01394,-20.8454
0.25291,17.8852,-3.98364,8.9318,-1.49616,1.69113,7.22263,-0.366146,-1.19837,3.17814,-0.535843,2.17646,-0.736478,-0.291478,2.95822,-23.1814,-2.14592,-10.4445,24.886,0.289898,1.94975,12.0707,-0.621802,2.52006,1.07344e-14,-5.56597e-15,-26.0686,10.3294,-82.3625,35.9944,16.3955,-23.049,1.92311,7.12502,3.39579,-28.0296,1.07344e-14,-5.56597e-15,-33.1783,-6.53798,92.3317,38.4318,-4.67347,-14.0727,28.8247,7.12502,12.059,58.4573,-18.4022,5.87519,10.4961,28.3091,-17.5594,-6.93233,-3.52131,-23.2709,-0.959312,-17.9496,24.5732,-5.82208,4.92739,-20.5924
0.293806,17.8895,-3.97869,9.17567,-1.28647,1.68296,7.44978,-0.280186,-1.24716,3.11843,-0.425352,2.11062,-0.930618,-0.23336,2.91181,-22.9772,-2.21566,-10.493,24.7194,0.162578,2.00955,11.9748,-0.668465,2.52618,-1.0138e-14,0,-26.2893,10.299,-82.6071,35.711,16.6724,-23.1947,1.92794,7.12502,3.25507,-28.027,-1.0138e-14,0,-33.2281,-6.29483,92.3265,38.5388,-4.32373,-14.451,28.861,7.12502,11.6942,58.5146,-18.5302,6.02791,10.341,28.1338,-17.6292,-7.31498,-3.18117,-23.5772,-1.12407,-18.0609,24.6088,-5.82023,4.85141,-20.4552
0.334958,17.8937,-3.97234,9.43926,-1.1344,1.65529,7.55336,-0.181223,-1.24753,3.1124,-0.295827,1.99684,-1.00269,-0.167109,2.78465,-22.7586,-2.25154,-10.4027,24.5203,0.0489531,2.00371,11.8623,-0.70369,2.48661,1.35174e-14,-3.18055e-15,-26.4805,10.1919,-82.9236,35.4536,17.0666,-23.395,1.86846,7.12502,3.06166,-28.0893,1.35174e-14,-3.18055e-15,-33.2485,-6.24266,92.2444,38.7232,-3.89295,-14.6386,29.0491,7.12502,11.5133,58.7129,-18.6852,6.12802,10.1994,27.979,-17.6653,-7.60176,-2.85893,-23.8792,-1.0857,-18.1879,24.6007,-5.81107,4.61842,-19.9454
0.373482,17.8978,-3.96843,9.72262,-0.906941,1.68768,7.58857,-0.120616,-1.32035,3.19011,-0.222782,1.89074,-0.946384,-0.131828,2.70985,-22.7702,-2.30736,-10.3763,24.3806,-0.0613749,2.07791,11.8171,-0.735207,2.49001,-5.36719e-15,9.54166e-15,-26.5409,10.1146,-83.2459,35.2565,17.4543,-23.4994,1.79152,7.12502,2.96085,-28.1677,-5.36719e-15,9.54166e-15,-33.039,-6.09421,92.1496,38.8022,-3.47633,-14.6793,29.0919,7.12502,11.4741,58.7579,-18.8157,6.25389,10.0093,27.8315,-17.8443,-7.98058,-2.71289,-24.2086,-0.957137,-18.4036,24.5574,-5.85937,4.21796,-19.9693
0.41147,17.9022,-3.9664,10.0152,-0.607869,1.76153,7.66504,-0.0975915,-1.4348,3.26324,-0.202106,1.81335,-0.914152,-0.122846,2.69292,-22.833,-2.40959,-10.568,24.2465,-0.186656,2.27774,11.7865,-0.777512,2.57428,-5.56597e-15,-8.74653e-15,-26.5316,10.2116,-83.5466,34.8605,17.999,-23.9702,1.9235,7.12502,2.50617,-28.0415,-5.56597e-15,-8.74653e-15,-32.8145,-5.89677,92.109,38.8514,-3.08348,-14.9108,29.1271,7.12502,11.2508,58.8054,-18.9549,6.25896,9.79551,27.687,-17.9415,-8.39932,-3.24807,-24.5636,-0.893241,-18.6588,24.4964,-5.85534,3.8331,-20.333
0.450211,17.9051,-3.96359,10.2138,-0.319222,1.78411,7.91899,-0.077565,-1.49477,3.31194,-0.182585,1.7478,-1.00531,-0.112468,2.6588,-22.8545,-2.48714,-10.7535,24.1439,-0.271886,2.43644,11.758,-0.807963,2.64896,2.98177e-15,-6.36111e-15,-26.5935,10.3,-83.8604,34.2571,18.9302,-24.7768,2.43483,7.12502,1.72711,-27.5379,2.98177e-15,-6.36111e-15,-32.7288,-5.82399,92.0984,39.0238,-2.57393,-15.5184,29.1523,7.12502,10.6647,58.8616,-19.0159,6.21851,9.64721,27.5544,-17.9782,-8.70939,-2.99143,-24.7994,-0.835896,-18.8426,24.396,-5.72982,3.44774,-20.324
0.489035,17.9075,-3.95924,10.4769,-0.0832307,1.70536,8.04752,-0.0267783,-1.45228,3.41792,-0.114152,1.70709,-0.971072,-0.0790807,2.5872,-23.043,-2.55911,-10.8082,24.028,-0.328548,2.4347,11.7545,-0.834113,2.64617,-2.38542e-15,-3.97569e-15,-26.6321,10.3391,-84.1363,33.8828,19.5958,-25.1198,2.6822,7.12502,1.39584,-27.293,-2.38542e-15,-3.97569e-15,-32.5962,-5.84693,92.1133,39.3651,-2.05933,-15.7966,29.5166,7.12502,10.3964,59.2395,-19.1582,6.24278,9.5879,27.4134,-17.9953,-8.96554,-2.83789,-25.0663,-0.801247,-18.894,24.2574,-5.57718,3.12814,-19.9134
0.527009,17.9108,-3.95438,10.8743,0.145213,1.66754,8.05574,0.0471135,-1.43817,3.46707,-0.0165511,1.62842,-0.930482,-0.030587,2.48925,-23.202,-2.61839,-10.7045,23.9165,-0.400154,2.33122,11.7471,-0.865946,2.57655,2.5842e-15,-3.18055e-15,-26.705,10.2187,-84.4692,33.6045,20.0522,-25.4649,3.09064,7.12502,1.06256,-26.8865,2.5842e-15,-3.18055e-15,-32.4613,-5.99248,92.117,39.5859,-1.71762,-15.7574,29.845,7.12502,10.4342,59.5661,-19.4051,6.22934,9.45763,27.2285,-18.1294,-9.15278,-2.64095,-25.482,-0.748271,-18.9921,24.1539,-5.52678,2.77233,-19.4213
0.563034,17.9146,-3.95085,11.2599,0.352273,1.71201,8.12581,0.109514,-1.53689,3.46057,0.056638,1.51058,-0.979762,0.00656333,2.41685,-23.1685,-2.64574,-10.5871,23.7766,-0.478336,2.29833,11.6913,-0.8894,2.52979,5.96354e-16,6.36111e-15,-26.8298,10.2749,-84.8895,33.2905,20.4601,-25.8091,3.86154,7.12502,0.730147,-26.117,5.96354e-16,6.36111e-15,-32.3389,-6.21187,92.0779,39.6247,-1.50098,-16.0069,29.7824,7.12502,10.1935,59.5155,-19.6378,6.24006,9.24171,27.033,-18.2709,-9.46782,-2.51015,-25.8719,-0.698056,-19.1743,24.0866,-5.51006,2.41218,-19.0299
0.597051,17.9201,-3.94854,11.648,0.620297,1.64786,8.19045,0.133512,-1.56553,3.46614,0.0854397,1.4802,-1.01119,0.0212948,2.39919,-23.1326,-2.69362,-10.6835,23.6329,-0.534491,2.36215,11.6341,-0.909893,2.55805,-5.56597e-15,2.38542e-15,-26.9964,10.6003,-85.2747,33.0695,20.7966,-25.8702,4.64215,7.12502,0.671098,-25.3365,-5.56597e-15,2.38542e-15,-32.3018,-6.26778,92.0642,39.8487,-1.4276,-15.8226,30.4727,7.12502,10.3713,60.197,-19.8712,6.13753,9.18653,26.8398,-18.2421,-9.77444,-2.77832,-26.284,-0.480215,-19.278,24.0251,-5.48645,1.86854,-19.0757
0.629973,17.9232,-3.95033,12.0959,0.885724,1.56278,8.26538,0.146753,-1.60522,3.4691,0.0994463,1.47613,-1.05018,0.0285089,2.41626,-23.1842,-2.70996,-10.7468,23.4714,-0.526207,2.35209,11.5822,-0.907576,2.56343,4.96962e-15,-1.39149e-14,-27.1419,10.9648,-85.6404,32.9414,21.6461,-25.8351,4.92637,7.12502,0.704989,-25.0522,4.96962e-15,-1.39149e-14,-32.3078,-6.12754,92.0352,40.1968,-1.50227,-15.0019,31.6476,7.12502,11.1629,61.3306,-20.1958,6.07085,9.14103,26.6499,-18.2097,-10.0683,-3.04521,-26.7985,-0.463119,-19.3042,23.9608,-5.47065,1.56059,-19.0011
0.661485,17.925,-3.95207,12.4557,1.17895,1.50563,8.48835,0.18145,-1.64988,3.44229,0.139105,1.42734,-1.20292,0.0503416,2.38777,-23.0879,-2.74096,-10.6941,23.2527,-0.588502,2.29662,11.4846,-0.930593,2.52041,-4.37326e-15,-4.37326e-15,-27.3517,10.9884,-86.0294,32.7869,22.8976,-25.5502,5.16484,7.12502,0.980199,-24.8127,-4.37326e-15,-4.37326e-15,-32.3781,-6.25517,92.0031,40.4613,-1.41119,-15.2014,31.9552,7.12502,10.9705,61.6486,-20.4043,6.15136,9.05356,26.4604,-18.3538,-10.4175,-2.71395,-27.2388,-0.467894,-19.3456,23.898,-5.42901,1.24276,-18.4832
0.697394,17.9274,-3.95198,12.8127,1.61499,1.59083,8.63532,0.171852,-1.70158,3.46742,0.119404,1.34158,-1.2568,0.0412427,2.33027,-22.9763,-2.81692,-10.7726,22.945,-0.715073,2.40468,11.3561,-0.97002,2.54842,3.57812e-15,7.95139e-16,-27.504,11.149,-86.4515,32.6109,23.4422,-25.2257,5.34129,7.12502,1.29356,-24.6345,3.57812e-15,7.95139e-16,-32.3512,-6.50669,92.0215,40.6903,-1.48635,-16.0338,31.8616,7.12502,10.1675,61.5959,-20.5661,5.88712,8.85489,26.3062,-18.4308,-10.6875,-3.04023,-27.6507,-0.424293,-19.6057,23.7938,-5.40009,0.720015,-18.5959
0.735493,17.9314,-3.9529,13.3049,2.03675,1.71653,8.65503,0.12031,-1.74988,3.50303,0.0458629,1.25551,-1.22691,0.00430642,2.27545,-23.1472,-2.87404,-10.8632,22.7798,-0.755144,2.45423,11.3295,-0.983642,2.57256,-9.93923e-16,-1.11319e-14,-27.469,11.6502,-86.9088,32.2664,23.8693,-25.1292,5.02701,7.12502,1.38678,-24.9482,-9.93923e-16,-1.11319e-14,-32.2041,-6.48477,91.9664,40.8571,-1.84622,-15.8612,31.9427,7.12502,10.334,61.6688,-20.8847,5.46497,8.60047,26.1488,-18.4204,-10.7523,-2.60743,-28.1834,-0.524174,-19.8901,23.6688,-5.36381,0.320905,-18.821
0.768299,17.9342,-3.95495,13.7627,2.3933,1.69991,8.74327,0.103201,-1.75626,3.5396,0.0212647,1.21921,-1.23642,-0.00783284,2.24405,-23.2713,-2.91797,-10.8983,22.5749,-0.77828,2.41353,11.2776,-0.995272,2.55613,-1.98785e-16,5.1684e-15,-27.4041,12.2019,-87.3735,31.8132,24.2331,-25.4398,4.81398,7.12502,1.08678,-25.163,-1.98785e-16,5.1684e-15,-32.0731,-6.67499,91.9375,41.0147,-1.85262,-14.4707,32.4349,7.12502,11.6753,62.0896,-21.1946,5.24427,8.4945,25.9799,-18.4889,-10.8398,-1.8738,-28.6914,-0.673844,-19.9723,23.5634,-5.27548,0.0924001,-18.8074
0.798283,17.9356,-3.95428,14.1842,2.69378,1.63484,8.76656,0.14317,-1.73374,3.63696,0.0749217,1.15942,-1.15138,0.0177232,2.16428,-23.3557,-2.97662,-10.8061,22.2571,-0.861812,2.32385,11.1787,-1.02573,2.48955,4.17448e-15,-5.96354e-15,-27.3929,12.5697,-87.8498,31.5525,24.4652,-26.2596,4.82277,7.12502,0.29497,-25.1568,4.17448e-15,-5.96354e-15,-31.898,-7.06339,91.9202,41.2145,-1.76215,-14.1226,32.4453,7.12502,12.0109,62.0806,-21.4553,5.16505,8.4423,25.82,-18.6603,-11.0137,-1.22618,-29.135,-0.805123,-19.9833,23.465,-5.20242,-0.0811423,-17.5833
0.82361,17.9392,-3.95774,14.6086,3.02567,1.62276,8.90775,0.186628,-1.81449,3.68046,0.123274,1.10271,-1.18645,0.0417059,2.14667,-23.5181,-3.02199,-10.7324,22.0226,-0.909948,2.23807,11.1234,-1.04411,2.43449,7.95139e-16,1.98785e-15,-27.4623,12.5892,-88.2267,31.4301,25.1867,-27.3176,4.66566,7.12502,-0.726847,-25.3128,7.95139e-16,1.98785e-15,-31.821,-7.38239,91.9047,41.4678,-1.93695,-15.6474,31.8844,7.12502,10.5403,61.6001,-21.7357,5.28288,8.3283,25.6667,-18.8994,-11.4662,-0.92388,-29.5779,-0.811511,-20.0683,23.3767,-5.10482,-0.415572,-14.9229
0.844633,17.9426,-3.96838,15.0664,3.4786,1.58721,9.20854,0.178669,-1.95628,3.59805,0.0975536,1.14738,-1.43573,0.0315826,2.27604,-23.4928,-3.06272,-10.8418,21.7392,-0.933389,2.23695,11.0156,-1.05486,2.44429,-1.78906e-15,-2.78299e-15,-27.7137,12.77,-88.5521,31.3956,25.6054,-28.4892,4.30279,7.12502,-1.85836,-25.6689,-1.78906e-15,-2.78299e-15,-31.9407,-7.67336,92.0265,41.7705,-1.85674,-16.4704,31.7185,7.12502,9.7463,61.473,-22.0622,5.39157,8.26394,25.5515,-19.1558,-12.0395,-0.791809,-30.1198,-0.888715,-20.0821,23.2784,-5.02736,-0.819252,-14.373
0.869269,17.9461,-3.974,15.5023,3.87005,1.55865,9.42781,0.188472,-2.04936,3.55014,0.0997432,1.17367,-1.60592,0.0347942,2.35611,-23.4401,-3.11155,-11.0002,21.4767,-0.974789,2.31379,10.9127,-1.06839,2.48826,1.94809e-14,9.54166e-15,-27.9664,12.9007,-88.8224,31.5083,25.4947,-29.4467,3.61548,7.12502,-2.78314,-26.3461,1.94809e-14,9.54166e-15,-32.0687,-8.09881,92.2044,42.0894,-1.23864,-16.4648,31.6077,7.12502,9.75173,61.3619,-22.3733,5.22376,8.22739,25.4865,-19.2733,-12.3539,-0.975806,-30.6265,-0.996063,-20.1056,23.1574,-5.01253,-1.24413,-16.4449
0.895576,17.9453,-3.97561,15.9343,4.16419,1.57879,9.54646,0.24499,-2.12013,3.55809,0.164944,1.11017,-1.66646,0.0680234,2.32343,-23.481,-3.15348,-10.9847,21.249,-1.03921,2.32608,10.8398,-1.08701,2.47696,-1.39149e-15,4.77083e-15,-28.1053,12.7531,-89.0706,31.6909,25.3658,-29.9404,2.90875,7.12502,-3.25992,-27.0461,-1.39149e-15,4.77083e-15,-32.1324,-8.51673,92.2421,42.3765,-1.25081,-16.7145,31.4078,7.12502,9.51078,61.1732,-22.7197,5.0376,8.12507,25.4773,-19.3747,-12.5859,-0.857964,-31.0763,-1.08739,-20.2036,23.0052,-4.97785,-1.5539,-16.7728
0.917368,17.9425,-3.97878,16.3288,4.48135,1.52022,9.66849,0.286181,-2.19925,3.60539,0.210705,1.11675,-1.68712,0.0902968,2.37002,-23.5089,-3.20844,-11.0444,20.8943,-1.10008,2.34636,10.7185,-1.10528,2.47975,-5.76476e-15,1.59028e-15,-28.1691,12.6767,-89.261,31.8943,25.4372,-30.3429,2.23789,7.12502,-3.64857,-27.7106,-5.76476e-15,1.59028e-15,-32.0452,-8.79119,92.2454,42.6311,-1.81303,-16.6944,31.8551,7.12502,9.5302,61.6196,-23.0343,5.13511,8.08556,25.4798,-19.654,-12.9824,-0.782785,-31.5113,-1.11742,-20.2032,22.8788,-4.87446,-1.91644,-14.5512
0.940858,17.9382,-3.97982,16.7673,4.76598,1.48334,9.61451,0.339832,-2.17486,3.69387,0.283938,1.04862,-1.56968,0.124898,2.27763,-23.6363,-3.33391,-11.2236,20.5838,-1.23731,2.50459,10.6393,-1.15164,2.54046,1.74931e-14,7.95139e-16,-28.1829,12.4428,-89.4646,32.0402,25.8612,-31.115,1.58283,7.12502,-4.3942,-28.3516,1.74931e-14,7.95139e-16,-31.8352,-9.18625,92.2337,42.8435,-1.9551,-16.0109,31.9327,7.12502,10.1896,61.6659,-23.3912,5.16206,8.01287,25.4983,-19.9739,-13.2123,-0.32617,-31.9739,-1.1075,-20.2448,22.7819,-4.78747,-2.26542,-13.2753
0.965287,17.9327,-3.98058,17.1968,5.14062,1.43684,9.57218,0.368159,-1.98286,3.79375,0.33728,0.920228,-1.44475,0.151108,2.03074,-23.9302,-3.47744,-11.3358,20.372,-1.39331,2.64183,10.6277,-1.20643,2.58028,-1.25234e-14,-2.38542e-15,-28.1062,12.0572,-89.6671,32.12,26.6115,-31.6067,1.04415,7.12502,-4.86897,-28.8799,-1.25234e-14,-2.38542e-15,-31.671,-9.6573,92.1569,43.1213,-1.67547,-15.5403,31.5158,7.12502,10.6436,61.2262,-23.7074,5.01941,7.9902,25.4933,-20.3131,-13.32,0.493989,-32.4451,-1.00824,-20.3272,22.7429,-4.81911,-2.7535,-13.9099
0.988063,17.9309,-3.9788,17.5492,5.4193,1.35553,9.69336,0.407895,-1.99803,3.76294,0.386433,0.922072,-1.5457,0.177007,2.03561,-23.8864,-3.52338,-11.3869,20.071,-1.42703,2.56329,10.5124,-1.22615,2.5507,-4.96962e-15,1.15295e-14,-28.2498,12.0525,-89.7922,32.2222,27.3313,-31.4717,0.854386,7.12502,-4.73859,-29.0726,-4.96962e-15,1.15295e-14,-31.8295,-9.90066,92.2284,43.3743,-1.51959,-15.151,31.3092,7.12502,11.0191,61,-23.9674,4.99965,7.99307,25.4878,-20.6064,-13.4329,1.10071,-32.8366,-0.949968,-20.3314,22.7589,-4.91788,-3.11377,-13.5454
1.0125,17.9317,-3.97117,17.8671,5.64288,1.26237,9.81041,0.425998,-2.14275,3.59651,0.395869,0.98857,-1.7839,0.185054,2.18456,-23.5143,-3.49061,-11.4754,19.7547,-1.3949,2.52515,10.3288,-1.21402,2.55365,7.55382e-15,-1.07344e-14,-28.6843,12.3991,-89.9681,32.3152,27.7534,-31.4229,0.739401,7.12502,-4.69151,-29.1887,7.55382e-15,-1.07344e-14,-32.2708,-10.0295,92.3558,43.6315,-1.31055,-14.8223,31.3399,7.12502,11.3361,61.0135,-24.1986,4.93915,8.01645,25.5016,-20.7123,-13.5655,0.914696,-33.1827,-0.947796,-20.3041,22.8249,-4.97805,-3.31377,-11.7687
1.03676,17.9283,-3.96641,18.1986,5.92306,1.33974,10.0222,0.428091,-2.36603,3.38624,0.371943,0.977712,-2.11778,0.179051,2.30137,-23.2674,-3.44524,-11.485,19.5357,-1.3552,2.48468,10.2021,-1.19514,2.5451,-2.38542e-15,1.27222e-14,-29.1377,12.7202,-90.1868,32.3376,28.0933,-31.688,0.53345,7.12502,-4.94751,-29.3888,-2.38542e-15,1.27222e-14,-32.669,-10.2165,92.4657,43.8161,-1.00395,-14.604,31.0538,7.12502,11.5467,60.7158,-24.4145,4.78232,7.864,25.5351,-20.9046,-13.5984,1.03936,-33.5628,-0.898795,-20.5041,22.9293,-4.95571,-3.65416,-10.0926
1.05609,17.9242,-3.96466,18.4633,6.3309,1.40059,10.327,0.409015,-2.56052,3.24639,0.320877,1.00319,-2.42815,0.159526,2.44341,-23.1688,-3.43319,-11.5387,19.264,-1.32985,2.45702,10.0849,-1.18229,2.54486,1.05356e-14,3.97569e-15,-29.3714,13.0826,-90.3569,32.2511,28.1089,-32.0243,0.487417,7.12502,-5.27223,-29.427,1.05356e-14,3.97569e-15,-32.8747,-10.4402,92.5842,43.9799,-0.740065,-14.4899,30.4293,7.12502,11.6567,60.0851,-24.5733,4.58649,7.79203,25.6013,-21.0001,-13.8042,0.560439,-33.947,-0.620661,-20.7804,23.0709,-4.96181,-4.36759,-9.47062
1.0762,17.9189,-3.95872,18.6742,6.73161,1.35955,10.4366,0.365703,-2.64658,3.25321,0.255438,1.08408,-2.47763,0.127772,2.5843,-23.348,-3.43561,-11.6693,19.0238,-1.25672,2.41982,10.0261,-1.15444,2.56007,9.34288e-15,6.36111e-15,-29.2292,13.5691,-90.395,32.0009,28.0549,-32.2078,0.784521,7.12502,-5.4494,-29.1254,9.34288e-15,6.36111e-15,-32.8647,-10.4716,92.6472,44.1788,-0.71674,-14.4062,30.1616,7.12502,11.7374,59.8128,-24.6901,4.41044,7.83144,25.6969,-21.0998,-13.9514,0.333979,-34.2999,-0.439862,-20.9044,23.2661,-5.05095,-4.97455,-9.24593
1.09692,17.9121,-3.9546,18.7879,7.02921,1.32995,10.6578,0.358375,-2.77023,3.20583,0.229122,1.13392,-2.64701,0.118114,2.70975,-23.5026,-3.41259,-11.7328,18.9144,-1.15612,2.31205,10.0072,-1.12184,2.54494,-1.98785e-15,5.1684e-15,-29.1554,14.1687,-90.4506,31.7703,28.2015,-32.3736,0.806812,7.12502,-5.60947,-29.0989,-1.98785e-15,5.1684e-15,-32.906,-10.5666,92.6787,44.2152,-0.782742,-14.0917,30.2289,7.12502,12.0407,59.8626,-24.7472,4.2089,7.84945,25.7986,-21.18,-13.9286,0.51236,-34.5804,-0.425412,-20.9747,23.531,-5.18062,-5.2913,-8.96567
1.11776,17.9056,-3.95052,19.0042,7.3157,1.20192,10.7279,0.382343,-2.75542,3.05154,0.260037,1.14972,-2.84821,0.138588,2.71415,-23.3646,-3.39685,-11.7307,18.6828,-1.14876,2.27363,9.89888,-1.11524,2.52984,-3.18055e-15,-1.15295e-14,-29.1874,14.6274,-90.5697,31.5287,28.4717,-32.4888,0.650352,7.12502,-5.72066,-29.2524,-3.18055e-15,-1.15295e-14,-33.032,-11.0059,92.6995,44.1514,-0.659958,-13.3614,30.5411,7.12502,12.7448,60.1322,-24.9476,4.04985,7.94853,25.9084,-21.2471,-13.9068,0.404794,-35.0168,-0.379397,-20.9495,23.8427,-5.30925,-5.60838,-9.09322
1.14004,17.8974,-3.94033,19.3254,7.61907,1.01749,10.4637,0.374255,-2.65207,2.93958,0.266858,1.17483,-2.81974,0.142579,2.68076,-23.3815,-3.39627,-11.702,18.5037,-1.14602,2.22248,9.83689,-1.1118,2.50534,1.33186e-14,-3.57812e-15,-28.9804,15.2968,-90.686,31.0793,28.4582,-32.3338,0.790356,7.12502,-5.571,-29.1164,1.33186e-14,-3.57812e-15,-33.0175,-11.6735,92.7007,44.1067,-0.265426,-12.9787,30.4854,7.12502,13.1137,60.0531,-25.2767,3.79178,8.11926,26.057,-21.2909,-13.8049,0.599546,-35.5622,-0.247373,-20.9007,24.149,-5.44074,-6.01598,-9.17834
1.16037,17.8897,-3.92514,19.4916,7.92033,0.967781,10.2236,0.346558,-2.71661,2.96234,0.230596,1.1963,-2.6617,0.122068,2.74379,-23.698,-3.44578,-11.6906,18.3963,-1.15177,2.12559,9.85407,-1.12092,2.4655,2.10712e-14,-7.35503e-15,-28.5262,16.1733,-90.7587,30.5128,28.2232,-32.1198,0.94078,7.12502,-5.3644,-28.9713,2.10712e-14,-7.35503e-15,-32.6864,-12.4237,92.6272,43.988,0.358045,-12.7165,30.2454,7.12502,13.3664,59.7966,-25.4069,3.45356,8.20824,26.2408,-21.2995,-13.7512,0.407475,-35.8837,-0.153535,-20.9879,24.4351,-5.61305,-6.39855,-9.1602
1.17658,17.8839,-3.90754,19.487,8.24798,0.988731,10.0576,0.338568,-2.87723,3.00004,0.208882,1.19904,-2.52988,0.109056,2.83976,-23.8214,-3.48974,-11.6858,18.2114,-1.17776,2.03559,9.8111,-1.13671,2.42605,-3.97569e-15,3.97569e-16,-28.1613,17.0039,-90.7981,30.0245,28.0493,-31.6727,1.25382,7.12502,-4.93267,-28.6688,-3.97569e-15,3.97569e-16,-32.2919,-13.2253,92.4954,43.7893,0.891803,-11.6126,30.4243,7.12502,14.4302,59.9026,-25.3271,3.19795,8.24453,26.48,-21.3816,-13.7433,0.346309,-35.9699,-0.0580155,-21.1392,24.6788,-5.73321,-6.8472,-8.95361
1.19005,17.8798,-3.8892,19.3457,8.60629,1.00606,9.83748,0.381561,-2.88596,3.14327,0.26959,1.11041,-2.26391,0.133231,2.74483,-23.841,-3.56213,-11.6463,17.9267,-1.29582,2.04833,9.72032,-1.17688,2.40356,8.34896e-15,9.74045e-15,-27.5394,17.5156,-90.7586,29.3747,28.0206,-30.9749,1.91281,7.12502,-4.25893,-28.0244,8.34896e-15,9.74045e-15,-31.6803,-14.4767,92.212,43.507,1.4802,-10.1385,30.5727,7.12502,15.8502,59.9439,-25.1108,3.07333,8.28465,26.7991,-21.5908,-13.7034,0.437426,-35.8888,0.0827472,-21.29,24.8697,-5.8602,-7.36913,-8.90794
1.20311,17.8756,-3.8719,19.0698,8.98971,1.07371,9.60114,0.418566,-2.7394,3.47694,0.337203,0.925599,-1.79111,0.156475,2.46256,-24.2834,-3.72981,-11.6413,17.7393,-1.49626,2.16868,9.74402,-1.24712,2.41128,-9.93923e-16,1.90833e-14,-26.4719,18.1406,-90.6452,28.6348,27.7441,-29.8842,2.35652,7.12502,-3.20564,-27.5991,-9.93923e-16,1.90833e-14,-30.5644,-15.8945,91.6355,43.0839,2.00828,-8.3829,29.6566,7.12502,17.5404,58.8853,-24.7517,2.94632,8.28674,27.1635,-21.9434,-13.576,1.08764,-35.6454,0.139662,-21.456,25.0572,-5.99739,-7.83867,-8.85388
1.21645,17.8686,-3.85,18.7365,9.28095,1.13436,9.48228,0.449074,-2.75355,3.63996,0.378808,0.809058,-1.55882,0.17247,2.34555,-24.5814,-3.87096,-11.748,17.6704,-1.63966,2.29353,9.78292,-1.30245,2.44844,-2.20651e-14,7.95139e-16,-25.6711,18.9486,-90.4792,28.0607,27.4117,-27.7414,2.9001,7.12502,-1.13617,-27.0766,-2.20651e-14,7.95139e-16,-29.6301,-16.9241,90.9348,42.6877,2.00448,-6.59983,27.6111,7.12502,19.2557,56.6778,-24.3616,2.70017,8.32907,27.5554,-22.1236,-13.4603,0.912145,-35.3091,0.207731,-21.6061,25.2529,-6.14713,-8.22576,-8.30042
1.23122,17.8618,-3.81915,18.311,9.37836,1.15461,9.35748,0.546704,-2.91078,3.70036,0.496804,0.739154,-1.43512,0.228008,2.34975,-24.5397,-3.97273,-11.8426,17.5648,-1.76626,2.35344,9.74902,-1.35677,2.4644,1.46107e-14,-1.09332e-14,-25.0437,19.5939,-90.1948,27.5474,27.2568,-25.5535,3.94831,7.12502,0.976997,-26.0292,1.46107e-14,-1.09332e-14,-28.8736,-17.8305,90.1291,42.4133,1.22876,-5.52341,24.5114,7.12502,20.2904,53.4715,-23.9506,2.46144,8.39928,27.9947,-22.0353,-13.3406,-0.0814647,-34.8145,0.383279,-21.7466,25.4419,-6.40401,-8.48102,-7.9734
1.24538,17.8579,-3.78313,17.8306,9.46442,1.16317,9.17628,0.645783,-3.04418,3.77464,0.621274,0.659501,-1.26647,0.285953,2.3307,-24.4615,-4.04005,-11.8324,17.424,-1.87332,2.34713,9.69301,-1.40184,2.44316,-1.09332e-15,-4.17448e-15,-24.2619,19.9925,-89.7183,27.0794,27.3515,-23.5131,5.29681,7.12502,2.94763,-24.6626,-1.09332e-15,-4.17448e-15,-27.922,-18.891,89.1553,42.112,0.131458,-6.22216,20.144,7.12502,19.6188,49.1741,-23.5053,2.38999,8.46254,28.4489,-21.9382,-13.4135,-1.1384,-34.2728,0.545231,-21.8542,25.6603,-6.65654,-8.70054,-7.63221
1.25755,17.8518,-3.74925,17.3134,9.79134,1.34151,9.09073,0.650603,-3.27924,3.83252,0.610914,0.591245,-1.15966,0.277109,2.39424,-24.4593,-4.05663,-11.8365,17.3309,-1.89278,2.33411,9.66075,-1.40959,2.43539,-2.10712e-14,1.55052e-14,-23.4051,20.2074,-89.0042,26.8269,27.7166,-21.3652,6.41105,7.12502,5.02172,-23.5094,-2.10712e-14,1.55052e-14,-26.9236,-20.005,88.0988,42.0116,-1.14847,-7.84916,16.3286,7.12502,18.054,45.5106,-22.912,2.35266,8.37888,28.8868,-22.0891,-13.6495,-2.09776,-33.7185,0.53086,-22.0878,25.9434,-6.91202,-9.0341,-7.48056
1.27259,17.845,-3.71652,16.809,10.2894,1.37661,8.91469,0.58908,-3.26105,3.88955,0.538577,0.5792,-0.99881,0.238204,2.37987,-24.6416,-4.10027,-11.9524,17.3089,-1.88889,2.35092,9.68568,-1.41224,2.45881,8.84592e-15,-2.18663e-15,-22.3619,20.1234,-88.024,26.5218,28.785,-20.3254,7.65368,7.12502,6.02568,-22.2406,8.84592e-15,-2.18663e-15,-25.7395,-21.2688,86.8693,41.9749,-2.93171,-8.99519,14.512,7.12502,16.9511,43.7923,-22.3164,2.07235,8.49062,29.3104,-22.1438,-13.7568,-2.82566,-33.2443,0.426214,-22.148,26.2745,-7.12939,-9.42363,-7.47071
1.28833,17.84,-3.68505,16.3362,10.4442,1.18617,8.56584,0.664264,-3.11199,3.95913,0.662166,0.551204,-0.74161,0.296417,2.25775,-25.0752,-4.23166,-12.0088,17.3769,-1.99206,2.38335,9.79299,-1.46045,2.46076,-1.39149e-14,1.78906e-15,-21.0802,19.9128,-86.8791,26.1653,30.2694,-20.1786,9.47501,7.12502,6.16739,-20.4152,-1.39149e-14,1.78906e-15,-24.1832,-22.6139,85.3036,41.8501,-5.3078,-10.0255,13.6075,7.12502,15.9591,42.97,-21.9131,1.83224,8.73744,29.7072,-21.9274,-13.5596,-3.0834,-32.8578,0.413594,-21.987,26.6795,-7.40164,-9.45658,-7.56991
1.29883,17.8362,-3.65224,15.8358,10.3548,0.955786,8.24623,0.828081,-3.10631,3.93176,0.888866,0.536724,-0.607824,0.407554,2.22192,-25.3624,-4.35991,-12.0801,17.4834,-2.12345,2.48974,9.89216,-1.51535,2.48828,7.45443e-15,1.15295e-14,-19.8867,20.0825,-85.7028,25.9601,31.3937,-20.232,11.036,7.12502,6.11583,-18.8557,7.45443e-15,1.15295e-14,-22.7533,-23.7593,83.5365,42.1443,-7.1722,-10.848,13.4828,7.12502,15.1669,42.907,-21.5336,1.94129,8.95256,30.0842,-21.8077,-13.3508,-2.90493,-32.4614,0.533128,-21.7929,27.1407,-7.68972,-9.35523,-7.25908
1.30959,17.8369,-3.61653,15.219,10.44,0.69952,8.03044,0.88228,-3.03548,3.83095,0.971574,0.571614,-0.597985,0.450252,2.21263,-25.4196,-4.39529,-12.1656,17.5779,-2.14452,2.54696,9.93961,-1.52684,2.51932,1.59028e-15,-1.37161e-14,-18.8114,20.3425,-84.4269,25.981,32.515,-20.7544,11.6407,7.12502,5.61144,-18.265,1.59028e-15,-1.37161e-14,-21.5113,-24.4816,81.6118,42.661,-8.15654,-12.2326,13.923,7.12502,13.8328,43.443,-21.0093,2.00373,9.2475,30.5003,-21.6876,-13.3209,-3.44545,-31.9302,0.604454,-21.5627,27.581,-8.01977,-9.3446,-7.07532
1.32225,17.8371,-3.58094,14.589,10.6184,0.564801,7.81187,0.889634,-2.98817,3.71401,0.989897,0.566636,-0.598801,0.4613,2.18106,-25.4241,-4.41753,-12.2669,17.6236,-2.16091,2.64956,9.96061,-1.53037,2.57009,1.70458e-14,1.39149e-15,-17.7754,20.23,-82.9787,26.2632,33.8991,-21.6592,11.3572,7.12502,4.7379,-18.5698,1.70458e-14,1.39149e-15,-20.1475,-24.9058,79.4184,43.2782,-8.20026,-13.642,14.7159,7.12502,12.4742,44.3236,-20.4772,1.91559,9.43201,30.9847,-21.3851,-13.4188,-4.71389,-31.3252,0.60617,-21.4784,27.9205,-8.30099,-9.3711,-7.42545
1.33482,17.834,-3.54231,14.0782,10.7789,0.598545,7.43493,0.897296,-3.12083,3.56503,1.00048,0.511671,-0.546116,0.466426,2.20156,-25.4039,-4.40951,-12.2149,17.6227,-2.173,2.65262,9.95683,-1.53204,2.56127,3.17062e-14,1.95803e-14,-16.6708,20.1138,-81.3583,26.7077,34.6502,-22.6066,10.8629,7.12502,3.82298,-19.0825,3.17062e-14,1.95803e-14,-18.6093,-25.1984,76.959,44.1943,-6.83932,-14.2601,16.2202,7.12502,11.8783,45.8633,-20.0172,1.73807,9.42454,31.506,-21.0727,-13.3122,-5.38342,-30.7432,0.504294,-21.5499,28.1261,-8.49282,-9.35023,-7.56981
1.34581,17.8332,-3.49921,13.2881,11.1908,0.665912,7.29534,0.828547,-3.23083,3.50971,0.90635,0.492384,-0.521304,0.41891,2.25218,-25.5074,-4.43899,-12.265,17.683,-2.19988,2.73933,9.99989,-1.53879,2.59608,4.10987e-14,-1.0635e-14,-15.3572,19.9996,-79.5189,27.2346,34.3646,-23.8122,10.161,7.12502,2.65871,-19.8022,4.10987e-14,-1.0635e-14,-16.8154,-25.2343,74.3342,45.0139,-4.83867,-14.8045,17.6888,7.12502,11.3533,47.3615,-19.1697,1.58916,9.45158,32.0868,-21.0304,-13.183,-5.2576,-29.778,0.226828,-21.5905,28.2132,-8.68924,-9.38513,-7.64491
1.36064,17.8341,-3.44619,12.106,12.1587,0.867675,7.46208,0.539098,-3.3309,3.55416,0.512721,0.518064,-0.543258,0.221739,2.36474,-25.5151,-4.41612,-12.3369,17.6958,-2.15142,2.78409,10.0035,-1.51645,2.63149,-1.37161e-14,7.95139e-16,-13.976,19.5701,-77.5384,27.8466,33.6733,-24.9896,9.38507,7.12502,1.5216,-20.5892,-1.37161e-14,7.95139e-16,-15.0242,-24.976,71.6628,45.6815,-2.74976,-15.6314,19.3549,7.12502,10.5557,49.0699,-17.6715,1.16738,9.4765,32.7068,-21.3693,-13.1315,-4.74002,-28.3171,-0.450969,-21.694,28.1985,-8.92788,-9.62024,-9.09191
1.37761,17.8322,-3.40026,11.2677,12.224,0.860033,7.23508,0.531902,-3.45195,3.43869,0.501038,0.492039,-0.536661,0.216094,2.40769,-25.3168,-4.3257,-12.302,17.5908,-2.07084,2.78296,9.9244,-1.4746,2.63889,-1.4238e-14,9.64106e-15,-12.5531,19.0812,-75.491,28.4781,32.5145,-25.9781,8.5555,7.12502,0.566939,-21.4235,-1.4238e-14,9.64106e-15,-13.1957,-24.6762,68.8369,46.2909,-0.467283,-17.3149,20.5539,7.12502,8.93148,50.3449,-16.9236,1.07034,9.46596,33.3255,-21.118,-12.9007,-4.68957,-27.2435,-0.675717,-21.7033,28.1545,-9.23792,-9.40922,-11.8817
1.38977,17.8299,-3.35467,10.4932,12.2832,0.84163,6.94631,0.520086,-3.5696,3.32382,0.486234,0.46046,-0.494787,0.208372,2.4435,-25.2583,-4.26199,-12.312,17.5072,-2.0145,2.88715,9.8802,-1.4342,2.68682,7.95139e-15,9.0447e-15,-10.8622,18.6365,-73.2388,29.1112,30.9328,-26.838,7.72948,7.12502,-0.263605,-22.2501,7.95139e-15,9.0447e-15,-11.0875,-24.2437,65.7741,46.7745,1.70407,-19.2478,20.9361,7.12502,7.06596,50.7981,-16.2494,1.03582,9.45312,33.951,-21.0188,-12.5856,-4.73372,-26.2126,-0.834427,-21.7157,28.0866,-9.48593,-9.17525,-13.4648
1.40184,17.8274,-3.30843,9.72215,12.2696,0.816406,6.63901,0.527053,-3.64544,3.20433,0.499842,0.407967,-0.448818,0.215373,2.43221,-25.3287,-4.26834,-12.3248,17.531,-2.02253,2.94773,9.90192,-1.43189,2.70934,6.5102e-15,-2.58669e-14,-9.03465,17.9634,-70.8749,29.7652,29.1616,-27.4196,7.16791,7.12502,-0.825373,-22.8102,6.5102e-15,-2.58669e-14,-8.84266,-23.8295,62.4981,47.2038,3.50748,-19.9701,22.4924,7.12502,6.36867,52.3767,-15.6135,1.05156,9.41787,34.5974,-21.0102,-12.0121,-4.89112,-25.1665,-0.966195,-21.7327,28.0415,-9.665,-8.88947,-13.6105
1.41612,17.8256,-3.26451,8.99971,12.2946,0.830563,6.36017,0.482779,-3.71435,3.04555,0.444211,0.3384,-0.454024,0.18951,2.40391,-25.4833,-4.21986,-12.2503,17.6257,-1.9563,2.93056,9.95572,-1.40075,2.70216,1.45738e-14,-1.52611e-14,-7.18974,17.4143,-68.5194,30.4462,27.1372,-27.89,6.51623,7.12502,-1.27964,-23.4597,1.45738e-14,-1.52611e-14,-6.63299,-23.2857,59.1234,47.6112,4.93901,-19.622,25.2787,7.12502,6.70477,55.1525,-15.0073,0.990223,9.3352,35.2305,-20.7003,-11.6578,-4.67954,-24.1738,-1.1483,-21.7862,27.9959,-9.74919,-8.64098,-13.2232
1.43196,17.8262,-3.22073,8.26443,12.3327,0.816675,6.16116,0.406053,-3.71166,2.83227,0.345212,0.271058,-0.556393,0.145164,2.33981,-25.5703,-4.112,-12.215,17.7179,-1.82663,3.00597,9.99304,-1.33207,2.74543,-2.87368e-14,4.22417e-15,-5.4112,16.9366,-66.1564,31.2333,25.1268,-27.9754,5.64976,7.12502,-1.36217,-24.3256,-2.87368e-14,4.22417e-15,-4.49253,-22.5525,55.7292,47.9323,5.95517,-19.7123,26.5076,7.12502,6.61754,56.3842,-14.4063,0.880978,9.2725,35.8519,-20.1543,-11.4705,-3.90045,-23.156,-1.30544,-21.8189,27.9236,-9.86005,-8.38937,-13.0697
1.44672,17.8303,-3.17264,7.48077,12.2491,0.777674,5.97743,0.358282,-3.76193,2.63472,0.281709,0.236143,-0.653646,0.117613,2.3364,-25.6751,-3.99969,-12.1957,17.7428,-1.67864,3.06349,10.0076,-1.25593,2.78696,1.00635e-15,2.40032e-14,-3.53736,16.1256,-63.7139,32.0262,23.8522,-27.6244,4.96665,7.12502,-1.02314,-25.0106,1.00635e-15,2.40032e-14,-2.33808,-21.6605,52.3354,48.0242,6.68047,-21.1531,24.7628,7.12502,5.2265,54.6783,-13.7893,0.952221,9.22122,36.4702,-19.6354,-10.9337,-3.74536,-22.0065,-1.44344,-21.8177,27.7998,-10.0738,-8.01761,-13.2668
1.45957,17.8366,-3.12285,6.71933,12.1026,0.757898,5.8055,0.349192,-3.84281,2.42895,0.267217,0.192126,-0.769145,0.114948,2.3375,-25.7479,-3.88179,-12.1194,17.6796,-1.52454,3.01676,9.9831,-1.18303,2.78169,-1.78658e-14,-1.5704e-14,-1.58962,15.1502,-61.1805,32.8455,22.6238,-26.8754,4.53074,7.12502,-0.29974,-25.4488,-1.78658e-14,-1.5704e-14,-0.107769,-20.7108,48.9922,47.7988,7.2387,-22.4569,23.1948,7.12502,3.96758,53.1376,-13.2089,1.18848,9.14033,37.0616,-19.3582,-10.498,-6.11937,-20.8468,-1.57126,-21.8151,27.6722,-10.3004,-7.66742,-13.4272
1.47371,17.8432,-3.07235,6.05897,12.0373,0.726956,5.54218,0.289122,-3.86303,2.22123,0.192371,0.15919,-0.831426,0.0815317,2.3199,-25.9286,-3.78002,-12.0574,17.6437,-1.36971,2.96245,9.98725,-1.11216,2.77601,-1.62506e-14,-7.05686e-15,0.381036,14.2733,-58.6311,33.8151,20.9977,-26.1839,4.01584,7.12502,0.368082,-25.9636,-1.62506e-14,-7.05686e-15,2.06148,-19.6709,45.6955,47.3889,7.51078,-21.1396,25.2026,7.12502,5.23952,55.1178,-12.7257,1.29981,9.07297,37.6396,-18.6826,-10.1762,-7.21338,-19.7938,-1.66018,-21.8195,27.5107,-10.482,-7.43427,-13.2834
1.49133,17.8466,-3.02027,5.41188,11.9584,0.555109,5.23345,0.223442,-3.72463,2.02141,0.120728,0.179237,-0.860415,0.0493242,2.26731,-26.2013,-3.72568,-12.0517,17.612,-1.26337,2.98258,10.0133,-1.05811,2.79844,3.22777e-14,2.00773e-14,2.37736,13.2729,-56.1395,34.6595,19.6822,-25.922,3.29497,7.12502,0.621113,-26.6839,3.22777e-14,2.00773e-14,4.13521,-18.652,42.4354,46.9645,7.63651,-18.9458,27.1133,7.12502,7.35744,56.9653,-12.2463,1.34089,9.14807,38.1867,-18.0183,-10.3837,-7.80836,-18.7816,-1.73226,-21.6827,27.3252,-10.6715,-7.22142,-13.6091
1.50586,17.8479,-2.96586,4.80693,11.6908,0.598591,4.97554,0.209889,-3.94557,1.81275,0.0987081,0.216222,-0.929904,0.0417114,2.43086,-26.5321,-3.69565,-12.1866,17.5686,-1.13592,3.03545,10.0449,-0.999419,2.85821,7.95139e-15,-5.66536e-15,4.51698,12.2809,-53.6196,35.2112,18.6144,-25.6134,2.60317,7.12502,0.919087,-27.3746,7.95139e-15,-5.66536e-15,6.10267,-17.4096,39.3907,46.3339,7.25397,-19.2349,27.7626,7.12502,7.07839,57.6243,-11.7906,1.65671,8.98881,38.6814,-17.6729,-9.50912,-6.36099,-17.7614,-1.74862,-21.7497,27.1277,-10.8245,-6.94889,-13.7551
1.5179,17.8472,-2.90939,4.27988,11.4767,0.712069,4.56793,0.18751,-4.27774,1.66879,0.0698602,0.281799,-0.848327,0.0268082,2.68669,-26.8826,-3.66438,-12.2943,17.3986,-0.973384,2.91779,10.0302,-0.939397,2.85553,2.02139e-14,-3.08116e-15,6.78314,10.9902,-51.1029,35.6849,17.7923,-25.3514,2.20501,7.12502,1.17222,-27.7715,2.02139e-14,-3.08116e-15,8.02205,-16.0031,36.4832,45.6748,6.52162,-20.6867,27.8796,7.12502,5.67682,57.7836,-11.3516,1.96283,8.77877,39.1263,-16.9909,-9.47051,-4.91169,-16.7887,-1.69819,-21.8879,26.893,-10.9748,-6.76751,-14.021
1.53298,17.8498,-2.84935,3.73797,11.3439,0.695173,4.06351,0.180858,-4.38147,1.57139,0.0792496,0.340158,-0.667525,0.0286081,2.80461,-27.106,-3.65286,-12.3732,17.0667,-0.879985,2.84339,9.94013,-0.898095,2.8511,-2.87617e-14,-1.69961e-14,8.86292,9.68805,-48.5341,36.3269,16.8099,-25.4923,1.93614,7.12502,1.03614,-28.0411,-2.87617e-14,-1.69961e-14,9.84952,-14.5589,33.7026,45.2728,5.75165,-20.7381,27.0397,7.12502,5.62723,56.945,-10.8727,2.18277,8.72576,39.5364,-16.295,-9.57613,-5.23845,-15.7765,-1.65354,-21.8978,26.577,-11.1342,-6.67545,-13.8969
1.55123,17.8544,-2.78907,3.28722,11.1004,0.886276,3.49364,0.210504,-4.63167,1.50303,0.136549,0.308876,-0.423908,0.05205,2.91078,-27.249,-3.66276,-12.4213,16.564,-0.845977,2.7845,9.77932,-0.873654,2.83601,1.81391e-15,1.41137e-14,10.8346,8.44366,-45.9862,36.9984,15.8484,-25.9243,1.45301,7.12502,0.618857,-28.5258,1.81391e-15,1.41137e-14,11.6593,-12.8481,31.096,44.8119,4.87519,-20.4774,27.2426,7.12502,5.87896,57.141,-10.4927,2.40343,8.40215,39.9048,-15.7047,-9.40656,-5.65158,-14.7777,-1.57621,-22.154,26.1998,-11.2985,-6.50142,-13.7998
1.56788,17.8591,-2.73185,2.91602,10.9028,1.06327,3.06185,0.163605,-4.76758,1.36323,0.0885862,0.215719,-0.322,0.0278295,2.89303,-27.5995,-3.62208,-12.3761,16.1559,-0.753813,2.7526,9.68145,-0.815457,2.82664,-2.36678e-14,1.2921e-14,12.811,7.50241,-43.5006,37.6067,14.6556,-26.3441,0.924457,7.12502,0.21338,-29.0552,-2.36678e-14,1.2921e-14,13.1812,-11.0053,28.4679,44.3809,4.14868,-20.0306,27.4529,7.12502,6.31031,57.3389,-10.1509,2.55721,8.1036,40.203,-15.1093,-9.26618,-5.92589,-13.8701,-1.56296,-22.3841,25.8052,-11.3855,-6.30576,-14.0343
1.58371,17.8658,-2.67283,2.55124,10.7648,1.13705,2.97022,0.0910729,-4.62645,0.97177,-0.0110391,0.0308775,-0.665439,-0.00661978,2.62669,-27.8671,-3.54158,-12.2487,15.9382,-0.660537,2.76491,9.63776,-0.753482,2.82331,2.95692e-15,2.78299e-15,14.4884,6.39325,-41.4795,38.0531,13.6754,-26.6577,0.486965,7.12502,-0.089461,-29.4928,2.95692e-15,2.78299e-15,14.3855,-9.48513,25.7814,44.0985,3.67391,-18.8667,26.9299,7.12502,7.43379,56.7793,-9.77321,2.71512,7.95117,40.4535,-14.5501,-9.24893,-6.76429,-12.9986,-1.4732,-22.5041,25.4021,-11.4634,-6.22392,-14.5009
1.60001,17.8716,-2.61387,2.09255,10.6381,1.07989,3.01975,0.067362,-4.36492,0.577183,-0.049304,-0.096901,-1.09662,-0.0102545,2.35008,-28.1019,-3.50804,-12.168,15.7772,-0.622541,2.80051,9.61392,-0.719484,2.82766,1.09207e-14,9.93923e-16,16.0422,4.38468,-40.0127,38.3536,13.4399,-26.5687,0.088256,7.12502,-0.0034773,-29.8915,1.09207e-14,9.93923e-16,15.7121,-7.94693,23.4035,43.7441,3.33743,-17.717,26.8324,7.12502,8.54343,56.6395,-9.28563,2.92015,7.95623,40.6458,-14.0473,-9.21934,-7.22469,-12.101,-1.46692,-22.4787,25.0366,-11.4767,-6.07163,-14.5525
1.61476,17.8795,-2.55448,1.70346,10.5088,0.975442,2.84049,0.0531657,-4.24396,0.326398,-0.0616373,-0.0662356,-1.25329,-0.00974145,2.31417,-28.62,-3.48225,-12.1581,15.5141,-0.503329,2.73295,9.59312,-0.660382,2.81724,-2.11209e-14,2.98177e-15,17.7153,2.36873,-38.3332,38.8066,12.9856,-26.3963,-0.441185,7.12502,0.163022,-30.4209,-2.11209e-14,2.98177e-15,17.0766,-5.91352,21.5891,43.2735,2.93495,-16.6434,26.8981,7.12502,9.57945,56.6603,-8.85671,3.14731,8.02288,40.8001,-13.7131,-9.12492,-6.41639,-11.2725,-1.4932,-22.3953,24.6844,-11.5135,-5.8901,-14.4459
1.62964,17.8869,-2.49279,1.41369,10.3079,0.911099,2.51817,0.0384843,-4.16293,0.120353,-0.0676561,-0.0245246,-1.28401,-0.00935089,2.3115,-29.1811,-3.44777,-12.2149,15.0396,-0.349092,2.69493,9.49955,-0.577254,2.83103,2.01953e-14,1.19271e-15,19.4504,0.701336,-36.4383,39.2772,11.9458,-26.3919,-0.767136,7.12502,0.167228,-30.7468,2.01953e-14,1.19271e-15,18.2715,-3.73666,19.9002,42.9143,2.68806,-15.9044,27.0482,7.12502,10.2924,56.7763,-8.51813,3.43192,8.04697,40.9308,-13.3851,-9.07338,-5.68934,-10.5232,-1.45364,-22.3571,24.3686,-11.6223,-5.69907,-14.1735
1.64397,17.8929,-2.43059,1.14046,10.0554,0.955298,2.19524,0.0234708,-4.10279,-0.0849067,-0.0761567,-0.0767215,-1.31339,-0.0104473,2.224,-29.4017,-3.44738,-12.2497,14.4393,-0.307702,2.68209,9.31487,-0.53779,2.83094,-1.04238e-14,1.19271e-15,21.1113,-1.02659,-34.8018,39.673,11.0016,-26.3347,-0.598295,7.12502,0.222515,-30.5779,-1.04238e-14,1.19271e-15,19.4773,-1.36592,18.3717,42.4708,2.34853,-15.5208,27.2401,7.12502,10.6625,56.9495,-8.21126,3.69885,7.94066,41.0596,-12.8887,-9.04106,-5.72852,-9.755,-1.38714,-22.4354,24.0359,-11.7512,-5.48167,-13.9809
1.65874,17.8969,-2.36991,0.873703,9.84246,0.921194,1.89897,0.0115756,-3.95135,-0.312324,-0.0800486,-0.102316,-1.38074,-0.00895035,2.11256,-29.3797,-3.48582,-12.3403,13.6784,-0.33583,2.67591,9.04131,-0.527272,2.82911,-1.18494e-14,1.11319e-14,22.5691,-2.54111,-33.0297,40.1783,9.75017,-26.2947,-0.579984,7.12502,0.261099,-30.5596,-1.18494e-14,1.11319e-14,20.879,1.48173,17.4597,41.7195,1.48796,-14.822,26.7355,7.12502,11.3364,56.4091,-7.89731,3.83658,7.92305,41.1749,-12.3733,-8.98391,-6.16912,-9.02159,-1.35132,-22.4354,23.7,-11.8235,-5.25664,-13.9999
1.67197,17.9002,-2.30823,0.704844,9.70465,0.961009,1.5483,0.00162696,-3.90867,-0.519556,-0.081293,-0.126957,-1.39683,-0.00675098,2.06294,-29.6053,-3.54262,-12.5058,13.0292,-0.347113,2.80027,8.84577,-0.50035,2.88993,-1.51884e-15,5.96354e-15,24.059,-4.37494,-31.4935,40.5256,8.71828,-26.4773,-0.705857,7.12502,0.0847277,-30.6856,-1.51884e-15,5.96354e-15,22.3315,4.28027,16.7087,41.0157,0.763266,-14.2652,25.9376,7.12502,11.8734,55.581,-7.62236,3.92365,7.83793,41.2903,-11.9741,-8.91963,-6.20295,-8.399,-1.35957,-22.5088,23.374,-11.9111,-5.06407,-14.042
1.68145,17.9076,-2.2512,0.529934,9.57757,0.944813,1.40109,-0.0355525,-3.87246,-0.815655,-0.130106,-0.119358,-1.61541,-0.0231144,2.05174,-29.8709,-3.53925,-12.5488,12.5666,-0.300044,2.84044,8.71794,-0.456638,2.91302,6.07986e-14,-1.07344e-14,25.825,-6.55509,-30.6242,40.5193,8.28756,-26.9281,-0.979792,7.12502,-0.350606,-30.9592,6.07986e-14,-1.07344e-14,23.5997,6.86405,15.9589,40.4334,0.348372,-13.8992,25.4854,7.12502,12.2263,55.1081,-7.38666,4.08436,7.83405,41.3937,-11.6811,-8.93782,-6.01442,-7.81513,-1.31671,-22.5079,23.0744,-12.0153,-4.92724,-14.0461
1.68685,17.9118,-2.19697,0.293931,9.43252,0.894483,1.46651,-0.0665574,-3.85268,-1.21238,-0.182491,-0.0875704,-2.05701,-0.0353607,2.07553,-29.7316,-3.4644,-12.4479,11.936,-0.243885,2.70925,8.46933,-0.416572,2.85248,-3.16006e-14,1.98785e-15,27.3961,-8.47316,-29.767,40.5927,7.58179,-27.2788,-1.11529,7.12502,-0.689325,-31.0939,-3.16006e-14,1.98785e-15,24.7939,9.17822,15.2791,39.9277,0.284805,-13.659,25.4526,7.12502,12.4579,55.0614,-7.12345,4.26172,7.885,41.5058,-11.456,-8.92905,-5.48583,-7.20075,-1.19906,-22.4597,22.7886,-12.1325,-4.8104,-14.5044
1.69373,17.9135,-2.13773,0.0692652,9.26541,0.831124,1.31174,-0.0532648,-3.69998,-1.44591,-0.160544,-0.14842,-2.21204,-0.0211293,1.92647,-29.6748,-3.4958,-12.408,11.1793,-0.338008,2.80317,8.20165,-0.418742,2.8578,2.50841e-14,2.78299e-15,28.6126,-10.4236,-28.7016,40.9129,6.38453,-26.834,-0.851805,7.12502,-0.259747,-30.8314,2.50841e-14,2.78299e-15,26.2218,11.5195,14.6596,39.469,0.596115,-13.8862,25.7561,7.12502,12.2388,55.378,-6.83658,4.42236,7.96297,41.6086,-11.1978,-8.94737,-5.49843,-6.61901,-1.08244,-22.3909,22.5677,-12.2679,-4.71414,-14.6732
1.70216,17.9132,-2.07997,-0.0176269,9.13219,0.813035,1.01048,-0.0438235,-3.55487,-1.56293,-0.135314,-0.206346,-2.16462,-0.0106506,1.78423,-30.229,-3.61537,-12.4801,10.6908,-0.416306,2.93565,8.1177,-0.422243,2.89931,1.53313e-14,4.96962e-15,29.9456,-12.6484,-27.691,41.1507,5.21058,-26.5123,-0.271843,7.12502,0.0509131,-30.2516,1.53313e-14,4.96962e-15,27.7744,14.1419,14.3417,38.9777,0.914224,-14.6338,26.1984,7.12502,11.5179,55.8619,-6.67942,4.48934,7.95967,41.7106,-10.9802,-8.91886,-5.32399,-6.19713,-1.00097,-22.3803,22.4065,-12.4457,-4.61812,-15.0421
1.70945,17.9094,-2.02783,-0.079262,9.06514,0.763819,0.843127,-0.062598,-3.39705,-1.67072,-0.15282,-0.225611,-2.18048,-0.0205472,1.67619,-31.2988,-3.75203,-12.4317,10.6079,-0.437061,2.82583,8.23725,-0.433388,2.8436,2.91965e-15,-4.17448e-15,31.4745,-14.9061,-26.9194,41.2418,4.24144,-26.8335,0.0323387,7.12502,-0.259245,-29.9472,2.91965e-15,-4.17448e-15,29.3395,16.7715,14.1623,38.4981,1.44603,-15.7825,26.6348,7.12502,10.41,56.3571,-6.54727,4.49807,7.9864,41.796,-10.84,-8.84865,-4.88418,-5.86072,-0.95412,-22.3281,22.2934,-12.6056,-4.55629,-15.2049
1.7119,17.905,-1.97735,-0.262843,8.96727,0.713601,0.869753,-0.0572575,-3.2661,-1.81642,-0.14791,-0.264375,-2.34585,-0.016374,1.56301,-31.9001,-3.83152,-12.4046,10.2477,-0.472412,2.85358,8.1974,-0.428652,2.84106,1.84746e-14,-3.97569e-16,33.0367,-16.9417,-26.4046,41.1944,3.33775,-27.463,-0.199912,7.12502,-0.867263,-30.1779,1.84746e-14,-3.97569e-16,30.9341,19.1886,14.0569,38.1168,2.11594,-16.6423,27.1399,7.12502,9.5805,56.9021,-6.30471,4.52703,8.04482,41.8898,-10.6328,-8.79223,-4.94267,-5.42305,-0.926065,-22.2567,22.2104,-12.7731,-4.4639,-15.0258
1.71582,17.9027,-1.92744,-0.407602,8.85421,0.685688,0.851362,-0.0488107,-3.14774,-2.03006,-0.138791,-0.315189,-2.5562,-0.0089446,1.44427,-31.9722,-3.86957,-12.4328,9.64101,-0.532622,2.99584,7.99763,-0.418027,2.88205,1.69588e-14,6.36111e-15,34.5793,-18.9682,-26.1073,41.0691,2.72807,-27.9835,-0.142786,7.12502,-1.36999,-30.1181,1.69588e-14,6.36111e-15,32.5323,21.506,14.1623,37.8195,2.52633,-16.7328,27.6801,7.12502,9.4932,57.4463,-6.092,4.55861,8.06043,42.0042,-10.4762,-8.65908,-4.88294,-5.02539,-0.889623,-22.222,22.1472,-12.9634,-4.38119,-15.085
1.71999,17.8982,-1.88012,-0.391969,8.83706,0.715124,0.689597,-0.0883465,-3.14525,-2.21998,-0.188579,-0.298512,-2.65849,-0.0299557,1.46125,-32.288,-3.96891,-12.5681,9.22908,-0.585754,3.11695,7.90061,-0.417124,2.93435,-1.95927e-14,-1.35174e-14,36.2032,-21.1118,-25.8536,41.0223,2.24411,-28.1764,0.0661784,7.12502,-1.55626,-29.9079,-1.95927e-14,-1.35174e-14,34.0175,23.7653,14.354,37.6404,3.15665,-16.2512,28.1307,7.12502,9.95786,57.8751,-6.02103,4.48592,7.98745,42.1464,-10.3376,-8.45757,-5.24783,-4.84484,-0.850566,-22.2452,22.1143,-13.1533,-4.37504,-15.2765
1.7221,17.8892,-1.83362,-0.438106,8.73984,0.766046,0.629629,-0.105387,-3.18046,-2.37486,-0.21221,-0.275116,-2.78332,-0.0370407,1.50569,-32.6663,-4.03667,-12.5924,8.84281,-0.608335,3.10263,7.81781,-0.413414,2.92655,7.50412e-15,5.96354e-15,37.8251,-23.1511,-25.6088,41.0652,1.69231,-28.3457,0.0045442,7.12502,-1.7198,-29.9683,7.50412e-15,5.96354e-15,35.5239,25.998,14.6862,37.5388,3.9966,-16.1943,27.7696,7.12502,10.0128,57.5114,-5.93303,4.47027,7.88551,42.305,-10.0789,-8.25485,-6.01266,-4.60078,-0.783451,-22.2879,22.1088,-13.3544,-4.3129,-15.2127
1.7176,17.8787,-1.78966,-0.579831,8.61239,0.762493,0.713355,-0.109691,-3.2235,-2.50686,-0.223902,-0.240166,-2.96623,-0.0371104,1.5665,-32.8085,-4.05649,-12.427,8.17153,-0.643819,2.85062,7.60214,-0.42621,2.80186,-2.57923e-14,2.10712e-14,39.3031,-25.078,-25.3591,41.2172,1.22591,-28.5053,-0.162771,7.12502,-1.8739,-30.1343,-2.57923e-14,2.10712e-14,37.1468,28.2249,15.2914,37.5465,4.72932,-17.3925,26.6181,7.12502,8.85659,56.4122,-5.76026,4.55585,7.88505,42.4547,-9.89363,-8.03843,-6.3394,-4.28093,-0.597967,-22.2356,22.1251,-13.5908,-4.36868,-15.1026
1.71345,17.8688,-1.74695,-0.724458,8.51945,0.724415,0.776611,-0.104867,-3.19679,-2.57558,-0.220139,-0.219918,-3.07312,-0.033171,1.57252,-33.0397,-4.10784,-12.17,7.527,-0.728616,2.48989,7.41091,-0.471861,2.61886,-6.48535e-15,9.93923e-16,40.7262,-27.0767,-25.222,41.4205,0.880606,-28.734,-0.201842,7.12502,-2.09479,-30.1713,-6.48535e-15,9.93923e-16,38.8008,30.37,16.0004,37.79,5.36733,-17.0981,27.2068,7.12502,9.14067,56.9887,-5.5518,4.58595,7.92095,42.5907,-9.78066,-7.79417,-6.2567,-3.98233,-0.45507,-22.1441,22.164,-13.8455,-4.4317,-15.1363
1.71232,17.8634,-1.70339,-0.835666,8.42228,0.618229,0.759091,-0.100409,-3.05565,-2.62426,-0.210784,-0.208252,-3.114,-0.0306872,1.50514,-33.4513,-4.15596,-11.9426,7.15501,-0.796045,2.28566,7.33784,-0.502792,2.5002,-1.23743e-14,0,42.1223,-29.0349,-25.1162,41.6576,0.474431,-28.9746,-0.0859881,7.12502,-2.32716,-30.053,-1.23743e-14,0,40.5039,32.4623,16.7918,38.2012,6.14873,-17.3149,28.7021,7.12502,8.93144,58.4931,-5.38595,4.65216,8.0285,42.7153,-9.75813,-7.57628,-5.70911,-3.7339,-0.443364,-21.9938,22.2155,-14.114,-4.40031,-14.9852
1.71054,17.8559,-1.66325,-0.94012,8.38813,0.6166,0.85643,-0.122404,-3.02035,-2.75744,-0.246247,-0.242532,-3.30523,-0.0454788,1.4518,-33.6277,-4.14186,-11.8989,6.86209,-0.797304,2.42738,7.25889,-0.474485,2.54231,3.39673e-14,-7.15625e-15,43.394,-30.8448,-25.0427,41.9324,0.25043,-29.0517,0.0335487,7.12502,-2.40161,-29.9327,3.39673e-14,-7.15625e-15,42.3093,34.4044,17.7784,38.6623,6.91963,-16.6245,27.613,7.12502,9.59766,57.3744,-5.24256,4.56585,7.9876,42.8472,-9.64388,-7.3485,-5.75287,-3.4767,-0.521976,-21.9703,22.252,-14.3229,-4.30094,-14.9289
1.70765,17.844,-1.62625,-1.04435,8.35911,0.702056,1.01419,-0.15963,-3.05636,-2.91014,-0.307529,-0.305662,-3.55001,-0.070727,1.41013,-33.688,-4.11216,-11.9508,6.62911,-0.781152,2.73622,7.18591,-0.425612,2.66083,-6.85807e-15,6.55989e-15,44.6637,-32.5158,-25.0764,42.2316,0.211266,-29.2723,0.0703741,7.12502,-2.61468,-29.8933,-6.85807e-15,6.55989e-15,44.0449,36.1966,18.7842,39.3071,7.71029,-16.4683,27.4106,7.12502,9.74838,57.1649,-5.09743,4.40329,7.80751,43.0051,-9.47406,-7.0024,-5.6315,-3.21901,-0.421317,-22.0288,22.2857,-14.5369,-4.3578,-15.1067
1.70479,17.8347,-1.58996,-1.08683,8.33617,0.735525,1.12214,-0.196641,-3.02183,-3.05686,-0.364168,-0.348658,-3.76105,-0.0959584,1.3496,-33.8602,-4.13288,-11.9175,6.51564,-0.816594,2.84863,7.1715,-0.424005,2.68975,-7.0817e-15,1.17283e-14,46.0032,-34.162,-25.303,42.5933,0.217953,-29.5904,0.138327,7.12502,-2.92191,-29.8214,-7.0817e-15,1.17283e-14,45.7028,37.8688,19.8877,40.2615,8.57006,-16.7449,27.2527,7.12502,9.4815,57.0194,-5.02101,4.25191,7.68307,43.1733,-9.29249,-6.61383,-5.46076,-3.06815,-0.296618,-22.0247,22.3463,-14.6596,-4.48695,-14.9124
1.70064,17.8265,-1.55626,-1.05579,8.30362,0.79215,1.14945,-0.250241,-3.00833,-3.16892,-0.439722,-0.384677,-3.88978,-0.131531,1.30859,-34.1804,-4.12732,-11.7264,6.40706,-0.82639,2.7275,7.17408,-0.430734,2.61607,1.15544e-14,-4.57205e-15,47.4358,-35.7849,-25.7074,43.1123,0.0335023,-29.9729,0.193912,7.12502,-3.29133,-29.7604,1.15544e-14,-4.57205e-15,47.227,39.5102,20.9062,41.4398,9.53384,-16.442,27.2871,7.12502,9.77373,57.0403,-5.04153,4.12328,7.53254,43.3457,-9.00676,-6.19993,-5.74148,-3.01167,-0.201153,-22.0414,22.429,-14.7821,-4.60149,-14.6824
1.69383,17.8189,-1.51954,-1.1196,8.23105,0.752604,1.1724,-0.296049,-2.95998,-3.22519,-0.5002,-0.351367,-3.95851,-0.161019,1.31887,-34.3387,-4.12429,-11.6552,6.12776,-0.828966,2.70068,7.09641,-0.422302,2.59432,1.42131e-14,1.07344e-14,48.7445,-37.2622,-25.9107,43.7491,-0.159123,-30.5392,-0.0429213,7.12502,-3.83819,-29.9881,1.42131e-14,1.07344e-14,48.5134,41.0392,21.8092,42.83,10.5757,-16.7726,27.7171,7.12502,9.45479,57.485,-4.96665,4.08311,7.5279,43.5068,-8.66963,-5.8847,-6.55495,-2.84582,-0.132791,-21.9545,22.5238,-15.0297,-4.57179,-15.091
1.6827,17.8123,-1.48139,-1.305,8.10909,0.698557,1.33744,-0.338985,-2.98587,-3.26623,-0.562522,-0.270657,-4.09117,-0.187498,1.4209,-34.5271,-4.0696,-11.5727,5.98164,-0.764191,2.66782,7.06445,-0.387165,2.5793,-2.76808e-14,-1.2921e-14,49.9389,-38.5544,-25.9986,44.4571,-0.256582,-31.2887,-0.399858,7.12502,-4.56191,-30.3307,-2.76808e-14,-1.2921e-14,49.6604,42.483,22.715,44.3758,11.3189,-15.7921,27.1244,7.12502,10.4007,56.8472,-4.7739,4.13218,7.564,43.6928,-8.45136,-5.51709,-6.15609,-2.51399,0.00680265,-21.8302,22.558,-15.2738,-4.52995,-15.4165
1.67283,17.8032,-1.44713,-1.38765,7.9348,0.788348,1.48212,-0.356773,-3.06602,-3.38236,-0.597306,-0.284421,-4.29238,-0.198164,1.45495,-34.53,-4.05303,-11.669,5.92605,-0.746565,2.94504,7.04608,-0.349499,2.69429,-3.62782e-15,-8.94531e-15,51.0142,-39.8004,-26.2554,45.3115,-0.395888,-32.0099,-0.425539,7.12502,-5.25827,-30.3403,-3.62782e-15,-8.94531e-15,50.4595,43.6841,23.2,46.1035,12.247,-16.396,26.6787,7.12502,9.81813,56.4298,-4.73629,4.12653,7.37811,43.8981,-8.20145,-5.08857,-5.02578,-2.26251,0.0937247,-21.8858,22.5428,-15.43,-4.42557,-15.4311
1.66487,17.7978,-1.41464,-1.36574,7.77899,0.970969,1.55468,-0.350814,-3.19541,-3.57474,-0.60357,-0.353715,-4.53412,-0.192236,1.45748,-34.0082,-4.08367,-12.0285,5.63721,-0.808383,3.5808,6.88939,-0.313563,2.96238,-7.92654e-15,3.97569e-15,51.8469,-41.0052,-26.4904,46.3508,-0.522671,-32.6054,-0.343759,7.12502,-5.8332,-30.2435,-7.92654e-15,3.97569e-15,51.1154,44.6595,23.602,48.0177,13.2546,-16.2815,26.1935,7.12502,9.92856,55.9393,-4.82735,4.05081,7.0616,44.1333,-7.91434,-4.70848,-5.32053,-2.08948,0.12841,-22.0531,22.4998,-15.5522,-4.30398,-15.3583
1.6552,17.7965,-1.38251,-1.43875,7.64972,0.933674,1.65902,-0.391562,-3.16371,-3.66132,-0.659727,-0.279258,-4.68067,-0.216566,1.52108,-33.745,-4.04177,-12.0662,5.33785,-0.78491,3.6282,6.75116,-0.290904,2.98634,3.50358e-15,5.1684e-15,52.8626,-42.2124,-26.8056,47.5206,-0.694801,-33.0267,-0.727343,7.12502,-6.23995,-30.6154,3.50358e-15,5.1684e-15,51.7788,45.8484,24.3019,50.0811,13.8396,-16.7243,25.6972,7.12502,9.50138,55.463,-4.81972,3.98236,7.03556,44.3759,-7.60544,-4.41595,-5.69737,-1.84929,0.111511,-21.9737,22.4486,-15.6958,-4.14943,-15.3517
1.6432,17.793,-1.35344,-1.54109,7.51598,0.838098,1.78231,-0.443226,-3.10576,-3.69938,-0.727122,-0.162517,-4.78642,-0.247761,1.61468,-33.942,-4.00171,-11.938,5.45032,-0.732581,3.4461,6.80948,-0.285059,2.9112,6.80837e-15,1.2424e-14,53.9643,-43.4483,-27.283,48.8908,-1.03033,-32.8797,-0.904619,7.12502,-6.09811,-30.7969,6.80837e-15,1.2424e-14,52.2812,47.0551,24.8464,52.2056,14.3335,-17.676,25.4631,7.12502,8.58298,55.2686,-4.79636,3.91484,7.06964,44.6185,-7.25198,-4.04397,-5.21598,-1.58903,0.046192,-21.8237,22.3529,-15.7335,-3.98322,-15.1743
1.63442,17.7881,-1.32437,-1.50964,7.34039,0.887687,1.77957,-0.467977,-3.1261,-3.84876,-0.763515,-0.155189,-4.93923,-0.260773,1.6366,-33.8717,-3.91917,-11.8929,5.75098,-0.672267,3.55927,6.90132,-0.25434,2.95469,-6.48535e-15,1.41137e-14,54.8213,-44.5585,-27.788,50.36,-1.22483,-32.3945,-0.514592,7.12502,-5.62965,-30.4198,-6.48535e-15,1.41137e-14,52.6416,48.0363,25.1867,54.4102,14.7671,-17.9213,25.0963,7.12502,8.34628,54.9114,-4.92089,3.76289,6.85443,44.8345,-6.84774,-3.51089,-4.39413,-1.44252,-0.0136399,-21.8612,22.2416,-15.7842,-3.72424,-15.3276
1.62472,17.7848,-1.29167,-1.48366,7.12239,0.991426,1.68154,-0.490437,-3.18479,-3.9036,-0.79374,-0.163482,-4.93884,-0.273102,1.66183,-33.7627,-3.82403,-11.8136,5.88344,-0.607521,3.61865,6.92911,-0.2209,2.97382,-7.60351e-15,3.57812e-15,55.7341,-45.6869,-28.3443,51.8024,-1.38744,-32.9096,-0.349464,7.12502,-6.12696,-30.2409,-7.60351e-15,3.57812e-15,52.9103,49.1194,25.3799,56.6425,15.2026,-18.2114,24.3631,7.12502,8.06629,54.1892,-5.04804,3.63938,6.59617,45.0333,-6.46668,-3.04784,-4.95801,-1.24786,0.0549487,-21.9431,22.1167,-15.8904,-3.54096,-15.533
1.61343,17.7843,-1.26023,-1.54209,6.94597,1.02932,1.68819,-0.538795,-3.20385,-3.87207,-0.855695,-0.0879455,-4.90511,-0.30252,1.7542,-33.7115,-3.73703,-11.7204,5.78631,-0.521531,3.48102,6.88169,-0.190228,2.92303,3.54085e-15,2.5842e-15,56.7881,-46.8452,-28.9682,53.3485,-1.70825,-33.202,0.173203,7.12502,-6.40921,-29.7098,3.54085e-15,2.5842e-15,53.2054,50.3714,25.7536,58.8654,15.518,-18.6286,23.5713,7.12502,7.66368,53.4124,-5.07681,3.507,6.44988,45.2157,-6.06571,-2.7027,-6.30565,-0.972859,0.0812568,-21.9441,21.9841,-15.9464,-3.37744,-15.3795
1.60209,17.7825,-1.2335,-1.58983,6.79927,1.10225,1.83335,-0.592651,-3.24164,-3.98154,-0.935489,-0.0508364,-5.09758,-0.335298,1.82129,-33.3031,-3.6238,-11.5429,5.66739,-0.480573,3.31516,6.78462,-0.183384,2.84252,1.2101e-14,-4.37326e-15,57.5942,-47.8245,-29.4986,54.9832,-1.84111,-33.5835,0.671765,7.12502,-6.77748,-29.1998,1.2101e-14,-4.37326e-15,53.3176,51.4049,26.0246,61.2181,16.0482,-19.2423,22.6856,7.12502,7.07126,52.5474,-5.10748,3.33377,6.22942,45.4007,-5.69229,-2.25835,-6.10526,-0.711122,0.110866,-21.9836,21.8429,-15.9938,-3.26085,-15.6015
