JuanDHNZ/ProyectoFinalCD/preprocessing/sports_trials_csv/14_12.csv
root1,root2,root3,root4,root5,root6,lowerback1,lowerback2,lowerback3,upperback1,upperback2,upperback3,thorax1,thorax2,thorax3,lowerneck1,lowerneck2,lowerneck3,upperneck1,upperneck2,upperneck3,head1,head2,head3,rclavicle1,rclavicle2,rhumerus1,rhumerus2,rhumerus3,rradius1,rwrist1,rhand1,rhand2,rfingers1,rthumb1,rthumb2,lclavicle1,lclavicle2,lhumerus1,lhumerus2,lhumerus3,lradius1,lwrist1,lhand1,lhand2,lfingers1,lthumb1,lthumb2,rfemur1,rfemur2,rfemur3,rtibia1,rfoot1,rfoot2,rtoes1,lfemur1,lfemur2,lfemur3,ltibia1,lfoot1,lfoot2,ltoes1
1.11298,17.9724,0.635418,7.46806,-6.24348,0.250417,4.51146,-2.14215,-4.38726,0.298594,-3.00044,3.85731,-1.78741,-1.45964,6.65586,-19.3913,-10.3946,-12.7512,18.4434,-12.9334,9.70518,10.6076,-5.81204,3.47855,1.09332e-14,3.97569e-15,-29.9883,-5.9958,-71.7407,32.8103,18.0339,-20.0208,3.97786,7.12502,6.31969,-25.9079,1.09332e-14,3.97569e-15,-25.3803,-0.869754,85.3857,31.3672,-8.22735,-13.0212,23.0448,7.12502,13.0728,52.6152,-19.1362,3.66533,12.7268,26.2185,-13.114,-8.38136,3.6291,-6.68866,-3.80306,-14.9078,14.5069,-9.10935,18.7051,-21.8757
1.13063,17.9748,0.635189,7.48615,-6.33282,0.301226,4.53531,-2.11914,-4.43644,0.292609,-2.97321,3.83696,-1.80957,-1.44471,6.6627,-19.4242,-10.4023,-12.7863,18.3978,-12.9436,9.77964,10.6069,-5.81016,3.5075,6.71892e-14,7.95139e-16,-30.0677,-5.9364,-71.7854,32.933,17.9477,-20.0923,3.98898,7.12502,6.25067,-25.8988,6.71892e-14,7.95139e-16,-25.433,-0.644281,85.3403,31.2025,-8.29365,-13.0131,23.2675,7.12502,13.0806,52.8373,-19.174,3.71806,12.5935,26.1971,-13.0979,-8.40394,3.38869,-6.68628,-3.84465,-15.038,14.4469,-9.07107,18.8382,-21.7272
1.14421,17.9755,0.632311,7.48799,-6.45858,0.398484,4.5662,-2.09092,-4.60388,0.286569,-2.94528,3.82761,-1.82933,-1.42863,6.74941,-19.4934,-10.4208,-12.8781,18.3875,-12.9514,9.85701,10.6297,-5.80906,3.54543,4.03533e-14,8.74653e-15,-30.1297,-5.79858,-71.8322,33.0779,17.7247,-19.9505,3.70229,7.12502,6.38761,-26.1814,4.03533e-14,8.74653e-15,-25.5665,-0.40142,85.3156,30.9736,-8.94238,-13.53,22.6954,7.12502,12.5822,52.2965,-19.2157,3.92146,12.4173,26.1708,-13.0998,-8.51597,3.00046,-6.7118,-3.77656,-15.2026,14.4293,-9.01336,18.9121,-21.8582
1.16167,17.9756,0.631115,7.54699,-6.53026,0.473808,4.50544,-2.09357,-4.63388,0.273192,-2.94899,3.79397,-1.80885,-1.43064,6.72842,-19.557,-10.4208,-13.0045,18.3982,-12.9248,9.93266,10.6572,-5.79496,3.59481,1.21259e-14,-2.46493e-14,-30.1729,-5.77428,-71.8856,33.1521,17.7511,-19.9157,3.34357,7.12502,6.42116,-26.5391,1.21259e-14,-2.46493e-14,-25.6421,-0.0607999,85.1998,31.0288,-8.50799,-13.0693,23.2675,7.12502,13.0264,52.8407,-19.2856,4.00125,12.2595,26.1104,-13.0469,-8.58059,2.91201,-6.82179,-3.6495,-15.3504,14.468,-8.91131,18.8475,-22.2947
1.18185,17.9763,0.631817,7.56086,-6.52603,0.369074,4.5543,-2.13205,-4.45718,0.238888,-2.99246,3.80107,-1.87397,-1.45065,6.6402,-19.5174,-10.3709,-13.0387,18.401,-12.8591,9.96877,10.6481,-5.76505,3.62686,4.87022e-14,-1.27222e-14,-30.3005,-5.67902,-71.9453,33.2544,17.8537,-19.9895,3.27074,7.12502,6.34994,-26.6141,4.87022e-14,-1.27222e-14,-25.6881,0.156677,85.1095,30.7018,-8.49461,-13.092,23.3755,7.12502,13.0046,52.9501,-19.2431,3.95971,12.3092,26.0309,-12.9627,-8.53697,3.10868,-6.85211,-3.53117,-15.3102,14.5584,-8.92686,18.7001,-22.4241
1.2001,17.9759,0.631766,7.5538,-6.60391,0.346714,4.62619,-2.14089,-4.38898,0.204487,-3.00317,3.76985,-1.95357,-1.45299,6.57342,-19.424,-10.3241,-12.9903,18.3525,-12.8206,9.98829,10.6067,-5.74606,3.63676,4.37326e-14,-2.54444e-14,-30.4711,-5.59953,-72.0184,33.4022,17.8828,-19.994,3.43385,7.12502,6.34557,-26.4511,4.37326e-14,-2.54444e-14,-25.7315,0.228062,85.0142,30.4524,-8.03811,-12.8876,23.4092,7.12502,13.2016,52.9712,-19.2114,3.96972,12.2595,25.9396,-12.884,-8.50099,2.92536,-6.88115,-3.37795,-15.3611,14.6831,-9.05527,18.6035,-22.3072
1.21658,17.9755,0.627895,7.5447,-6.72964,0.336477,4.6939,-2.11542,-4.35905,0.216417,-2.96996,3.74691,-1.98672,-1.43577,6.53348,-19.3647,-10.3196,-12.8884,18.181,-12.8189,9.92304,10.5208,-5.74902,3.59939,5.45664e-14,-1.66979e-14,-30.5044,-5.64927,-72.0603,33.4681,17.7746,-20.0073,3.50491,7.12502,6.33277,-26.3804,5.45664e-14,-1.66979e-14,-25.7079,0.35788,84.9341,30.3173,-7.75937,-12.4382,23.8467,7.12502,13.6347,53.3802,-19.2181,4.15112,12.1881,25.8504,-12.8477,-8.59218,2.64939,-6.94279,-3.1333,-15.4123,14.8061,-9.21583,18.4623,-22.1985
1.23304,17.9762,0.62456,7.57149,-6.85361,0.37654,4.67209,-2.10037,-4.35527,0.280554,-2.95034,3.69426,-1.9138,-1.43003,6.47132,-19.5804,-10.3275,-12.7556,18.1836,-12.8177,9.82916,10.5437,-5.74182,3.53796,2.47487e-14,-1.98785e-14,-30.3777,-5.78271,-72.1457,33.5081,17.681,-20.021,3.2975,7.12502,6.31957,-26.5882,2.47487e-14,-1.98785e-14,-25.5683,0.607878,84.8116,30.1498,-7.85527,-12.2,24.3965,7.12502,13.8643,53.9143,-19.2995,4.27324,12.064,25.8082,-12.8397,-8.65102,2.79998,-7.02378,-2.87987,-15.5186,14.8578,-9.20795,18.3383,-22.185
1.24991,17.9768,0.625056,7.66039,-6.96135,0.540458,4.51294,-2.09777,-4.42922,0.341758,-2.94805,3.5936,-1.76309,-1.43489,6.39689,-19.7578,-10.3248,-12.6932,18.1774,-12.8183,9.86702,10.5723,-5.72734,3.53569,4.58199e-14,2.78299e-14,-30.209,-5.93134,-72.2428,33.5136,17.6984,-19.9713,3.09486,7.12502,6.36753,-26.7894,4.58199e-14,2.78299e-14,-25.4823,0.770049,84.6901,29.9639,-8.04662,-12.5382,24.0347,7.12502,13.5383,53.5746,-19.4273,4.17493,11.8113,25.7878,-12.7596,-8.49959,2.8797,-7.12914,-2.66942,-15.7693,14.8613,-9.25555,18.2037,-21.9487
1.26553,17.976,0.623443,7.6848,-7.05904,0.655251,4.49959,-2.0909,-4.50905,0.336091,-2.94328,3.54829,-1.76054,-1.43188,6.39397,-19.6614,-10.319,-12.7798,18.1287,-12.8148,9.95849,10.5503,-5.72556,3.58575,-2.41523e-14,1.11319e-14,-30.22,-5.87738,-72.2698,33.5246,17.7639,-20.0625,3.32502,7.12502,6.27952,-26.5619,-2.41523e-14,1.11319e-14,-25.5687,0.942135,84.6265,29.7872,-8.35178,-12.5783,23.6217,7.12502,13.4997,53.1642,-19.4773,4.13362,11.6229,25.7672,-12.6996,-8.38331,2.75456,-7.14569,-2.62964,-15.9559,14.8437,-9.29315,18.2072,-21.6384
1.28155,17.9756,0.619602,7.64528,-7.20855,0.76101,4.63465,-2.07979,-4.62332,0.297143,-2.93849,3.55622,-1.87115,-1.42389,6.47571,-19.6169,-10.3083,-12.9535,18.171,-12.7589,9.96678,10.5637,-5.7123,3.62747,-1.72943e-14,6.36111e-15,-30.2556,-5.74715,-72.1981,33.4071,18.1339,-20.3541,4.19974,7.12502,5.99799,-25.6954,-1.72943e-14,6.36111e-15,-25.666,1.10889,84.6185,29.5679,-8.57873,-12.4115,23.583,7.12502,13.6604,53.1147,-19.4858,4.26422,11.4272,25.7402,-12.6271,-8.39627,2.74841,-7.09291,-2.58388,-16.1437,14.8311,-9.34499,18.2628,-21.2816
1.29782,17.9766,0.615439,7.65303,-7.38517,0.758778,4.7393,-2.05411,-4.62533,0.278183,-2.90734,3.57509,-1.95293,-1.40494,6.50128,-19.7121,-10.2729,-13.0414,18.2509,-12.6895,10.0139,10.6112,-5.6775,3.66803,-6.65929e-15,7.95139e-16,-30.2696,-5.66871,-72.1587,33.3454,18.3659,-20.4428,4.86689,7.12502,5.9123,-25.0306,-6.65929e-15,7.95139e-16,-25.688,1.28485,84.5874,29.3411,-8.68977,-12.5434,23.693,7.12502,13.5334,53.2332,-19.5446,4.43818,11.3487,25.6944,-12.5893,-8.47055,2.77875,-7.09589,-2.5022,-16.2204,14.8377,-9.34286,18.3564,-21.3907
1.31369,17.9769,0.609356,7.70669,-7.46776,0.746091,4.75828,-2.04718,-4.57649,0.308776,-2.89668,3.54575,-1.93733,-1.40131,6.44167,-19.8632,-10.2403,-12.8813,18.2827,-12.6644,9.9712,10.6323,-5.65417,3.6277,3.67752e-15,-1.82882e-14,-30.2883,-5.72636,-72.2023,33.5125,18.3829,-20.2647,4.99012,7.12502,6.08429,-24.9025,3.67752e-15,-1.82882e-14,-25.5678,1.48343,84.4938,29.1084,-8.79339,-12.6367,23.704,7.12502,13.4434,53.2502,-19.628,4.5771,11.2813,25.6345,-12.6339,-8.52803,2.94562,-7.19046,-2.46831,-16.2563,14.8533,-9.3655,18.4023,-21.2731
1.33065,17.9788,0.606586,7.71994,-7.48696,0.742814,4.75288,-2.06742,-4.47283,0.38453,-2.91906,3.49637,-1.8603,-1.41782,6.32846,-19.9774,-10.2132,-12.5982,18.2166,-12.6443,9.78603,10.5917,-5.64251,3.517,-6.62947e-14,-1.59028e-15,-30.2084,-5.67141,-72.3049,33.6403,18.2035,-20.196,4.87723,7.12502,6.15063,-25.0135,-6.62947e-14,-1.59028e-15,-25.3589,1.61678,84.409,28.843,-8.90214,-12.5473,23.8613,7.12502,13.5295,53.4017,-19.6218,4.5913,11.215,25.5574,-12.5856,-8.53106,3.12932,-7.23516,-2.3418,-16.3097,14.8837,-9.43279,18.2702,-21.1203
1.34877,17.9807,0.608905,7.78328,-7.53703,0.805205,4.6614,-2.08235,-4.40082,0.405037,-2.93341,3.43732,-1.79251,-1.42826,6.2203,-19.9233,-10.1815,-12.518,18.1566,-12.6338,9.81868,10.5557,-5.6312,3.52006,1.78906e-14,-5.1684e-14,-30.1745,-5.59569,-72.36,33.7037,18.0615,-20.2734,4.85474,7.12502,6.07587,-25.0381,1.78906e-14,-5.1684e-14,-25.2811,1.62341,84.3839,28.6567,-8.84211,-12.4313,23.9064,7.12502,13.6414,53.4394,-19.6503,4.52287,11.0665,25.4732,-12.4499,-8.4289,3.51172,-7.30566,-2.24975,-16.4578,14.9108,-9.4922,18.2451,-21.1285
1.36398,17.982,0.610768,7.87051,-7.63827,0.803335,4.61492,-2.05737,-4.32925,0.353233,-2.89465,3.44192,-1.82885,-1.40689,6.18172,-19.7148,-10.1658,-12.7086,18.1482,-12.639,10.0526,10.5476,-5.62856,3.6397,-2.18663e-14,-2.3059e-14,-30.268,-5.42236,-72.3246,33.812,17.9427,-20.3696,4.83619,7.12502,5.98303,-25.0593,-2.18663e-14,-2.3059e-14,-25.372,1.45065,84.4941,28.6092,-8.49647,-12.4185,24.1826,7.12502,13.6537,53.7148,-19.6936,4.4636,11.007,25.3589,-12.3636,-8.34237,3.29883,-7.40599,-2.11953,-16.5231,14.9585,-9.52721,18.2383,-21.1058
1.37645,17.9835,0.606848,7.88915,-7.77177,0.803763,4.75413,-2.04814,-4.35976,0.282311,-2.88706,3.48837,-1.9775,-1.39625,6.25711,-19.5643,-10.142,-12.9052,18.2394,-12.6157,10.2124,10.5771,-5.61869,3.73757,1.78906e-14,3.18055e-15,-30.3458,-5.0849,-72.3204,33.9328,17.8238,-20.5496,4.78413,7.12502,5.80922,-25.1162,1.78906e-14,3.18055e-15,-25.5603,1.59712,84.5655,28.6364,-8.32439,-12.2605,24.453,7.12502,13.806,53.9749,-19.7076,4.60224,10.9426,25.2293,-12.3426,-8.37793,3.0633,-7.49234,-1.91598,-16.5718,15.0477,-9.51677,18.1614,-21.2196
1.38997,17.9863,0.601344,7.94377,-7.89808,0.667774,4.83922,-2.06283,-4.25572,0.285026,-2.90215,3.56106,-2.02164,-1.40327,6.2794,-19.5837,-10.0973,-12.9476,18.3106,-12.5738,10.3273,10.6132,-5.58877,3.7933,-4.83047e-14,3.4191e-14,-30.2984,-4.83436,-72.3754,34.047,17.8101,-20.8344,4.66559,7.12502,5.53423,-25.2421,-4.83047e-14,3.4191e-14,-25.6046,1.75393,84.5823,28.6547,-8.21607,-12.1608,24.5645,7.12502,13.902,54.0798,-19.776,4.77784,11.0212,25.131,-12.267,-8.42809,3.20866,-7.58663,-1.75021,-16.4729,15.1137,-9.54137,18.127,-21.1829
1.40508,17.9878,0.594358,8.03004,-8.03346,0.568043,4.87074,-2.07957,-4.15584,0.323342,-2.91928,3.60386,-1.99995,-1.41431,6.26873,-19.6849,-10.0469,-12.9025,18.4148,-12.5342,10.4067,10.6677,-5.55443,3.81988,9.34288e-15,1.66979e-14,-30.1322,-4.73724,-72.4176,34.0787,17.9296,-20.982,4.5186,7.12502,5.39171,-25.3928,9.34288e-15,1.66979e-14,-25.5034,1.72572,84.5949,28.6409,-8.02587,-12.1524,24.6707,7.12502,13.9102,54.1854,-19.9163,4.90904,11.0448,25.0734,-12.1135,-8.44821,3.3257,-7.69392,-1.63777,-16.4292,15.1426,-9.54686,18.2082,-21.3049
1.4212,17.9889,0.588358,8.0483,-8.18051,0.735216,4.95392,-2.04906,-4.26133,0.346983,-2.88814,3.5348,-2.02473,-1.3976,6.2579,-19.7565,-10.0222,-12.8258,18.6079,-12.5494,10.4678,10.7527,-5.54498,3.82643,2.10712e-14,1.90833e-14,-30.0926,-4.74097,-72.4212,34.2078,18.0065,-21.0221,4.36409,7.12502,5.353,-25.5483,2.10712e-14,1.90833e-14,-25.352,1.44824,84.6333,28.5678,-7.8903,-12.1072,24.7795,7.12502,13.9537,54.2912,-20.0216,4.88584,10.7885,25.0436,-11.9904,-8.38808,2.88808,-7.76717,-1.5271,-16.6856,15.1893,-9.62351,18.2182,-21.17
1.43575,17.9893,0.586992,8.04287,-8.33339,0.891787,4.97441,-1.99607,-4.33855,0.380462,-2.82406,3.4502,-2.01098,-1.36613,6.20922,-19.8637,-10.0112,-12.7084,18.9127,-12.6016,10.516,10.8863,-5.54818,3.8148,-5.30755e-14,1.90833e-14,-30.1095,-4.75212,-72.4035,34.3399,18.0205,-20.9872,4.40518,7.12502,5.38672,-25.5064,-5.30755e-14,1.90833e-14,-25.2205,1.02541,84.7056,28.466,-7.73105,-12.0678,24.7946,7.12502,13.9917,54.3037,-20.0891,4.88664,10.5492,25.0558,-11.9451,-8.39388,2.30255,-7.77837,-1.45605,-16.9379,15.2123,-9.6276,18.2604,-21.0179
1.44774,17.9886,0.583078,8.12458,-8.43435,0.883495,4.96467,-1.96968,-4.27755,0.379075,-2.7852,3.44461,-2.01553,-1.34697,6.16593,-19.9268,-10.0164,-12.6181,19.2229,-12.6639,10.5203,11.0142,-5.56397,3.79097,-1.41137e-14,8.74653e-15,-30.0837,-4.71349,-72.3793,34.4279,17.999,-21.0473,4.53804,7.12502,5.32864,-25.375,-1.41137e-14,8.74653e-15,-25.2248,0.638169,84.8578,28.5582,-7.55011,-12.1635,24.8449,7.12502,13.8995,54.3604,-20.231,4.86776,10.5059,25.0885,-11.896,-8.3563,2.09442,-7.85125,-1.35962,-16.9821,15.2012,-9.6274,18.2525,-20.9756
1.45931,17.9874,0.578373,8.20838,-8.57529,0.935031,5.00349,-1.98418,-4.34204,0.338614,-2.80863,3.47504,-2.07138,-1.35537,6.23942,-19.8269,-9.97806,-12.6136,19.4758,-12.6606,10.5533,11.0911,-5.55975,3.8085,-1.96797e-14,-2.22639e-14,-30.0104,-4.52474,-72.3488,34.4982,18.0448,-21.1578,4.68701,7.12502,5.222,-25.2287,-1.96797e-14,-2.22639e-14,-25.3284,0.571246,84.9527,28.7539,-7.53058,-12.0586,24.6606,7.12502,14.0006,54.1691,-20.4058,4.84382,10.3996,25.1023,-11.8031,-8.22456,2.09277,-7.97143,-1.14749,-17.0946,15.2259,-9.57677,18.1677,-21.0536
1.47309,17.9879,0.574076,8.27729,-8.71637,1.03582,5.04273,-1.99901,-4.43409,0.290453,-2.83453,3.48677,-2.13467,-1.36424,6.3094,-19.6096,-9.9229,-12.679,19.7128,-12.6631,10.7263,11.1576,-5.55239,3.89134,2.94201e-14,6.36111e-15,-30.0124,-4.31026,-72.3268,34.6682,18.1108,-21.3118,4.6676,7.12502,5.07329,-25.2517,2.94201e-14,6.36111e-15,-25.3877,0.539112,85.0292,28.9128,-7.53189,-12.0474,24.4814,7.12502,14.0113,53.9892,-20.569,4.75126,10.2414,25.0851,-11.621,-8.06815,1.95345,-8.11057,-1.09975,-17.2676,15.3012,-9.62159,18.2571,-20.9966
1.48516,17.9877,0.56787,8.32941,-8.89459,1.06254,5.09298,-1.99885,-4.48052,0.290151,-2.83805,3.51328,-2.15907,-1.36474,6.36676,-19.5164,-9.88722,-12.6542,20.0219,-12.6918,10.8165,11.2646,-5.55388,3.92175,-1.39149e-14,-1.51076e-14,-29.9175,-4.14791,-72.3116,34.8266,18.1762,-21.4162,4.71671,7.12502,4.97252,-25.2049,-1.39149e-14,-1.51076e-14,-25.3028,0.489695,85.1328,28.9885,-7.28648,-12.1648,24.5496,7.12502,13.8982,54.0652,-20.7232,4.86858,10.1427,25.0709,-11.5153,-8.10956,2.07817,-8.18171,-1.03822,-17.3579,15.3276,-9.60608,18.3778,-21.0381
1.49628,17.9867,0.562773,8.36251,-9.16019,1.02253,5.11636,-1.95016,-4.44011,0.336919,-2.77134,3.526,-2.13442,-1.33368,6.35303,-19.3943,-9.87723,-12.571,20.2794,-12.7696,10.8919,11.3483,-5.57614,3.92863,4.55217e-14,-1.03368e-14,-29.8347,-4.04421,-72.3044,35.022,18.2725,-21.5235,4.77435,7.12502,4.86885,-25.1497,4.55217e-14,-1.03368e-14,-25.2074,0.259329,85.2466,29.207,-7.10716,-12.3052,24.7374,7.12502,13.7629,54.2622,-20.8514,5.12126,10.0999,25.0609,-11.4532,-8.14725,2.5368,-8.16146,-0.897047,-17.3905,15.2952,-9.64934,18.5177,-21.0451
1.50788,17.9875,0.559086,8.41116,-9.43208,1.05238,5.11393,-1.90472,-4.43913,0.372941,-2.71089,3.51546,-2.10482,-1.30531,6.3367,-19.323,-9.8831,-12.5101,20.6441,-12.8691,10.9646,11.4867,-5.6067,3.93379,1.59028e-14,6.36111e-15,-29.7548,-3.93307,-72.296,35.2433,18.4004,-21.6952,4.78472,7.12502,4.70306,-25.1431,1.59028e-14,6.36111e-15,-25.1785,-0.1052,85.3636,29.5068,-7.08793,-12.376,24.8697,7.12502,13.6947,54.3991,-20.9907,5.26613,9.98413,25.0624,-11.3711,-8.02454,2.78821,-8.16026,-0.689945,-17.5061,15.2371,-9.64039,18.6015,-21.1485
1.51889,17.9909,0.553859,8.45183,-9.65624,1.13031,5.15793,-1.88904,-4.49146,0.394781,-2.69439,3.51854,-2.1066,-1.29709,6.37046,-19.3114,-9.87657,-12.4641,21.1824,-12.9365,10.9522,11.6927,-5.62896,3.9163,5.14852e-14,-2.38542e-15,-29.6613,-3.71497,-72.3036,35.5624,18.4329,-21.738,4.64706,7.12502,4.66179,-25.2816,5.14852e-14,-2.38542e-15,-25.1874,-0.504318,85.5112,29.7735,-6.92332,-12.4729,24.9389,7.12502,13.6012,54.4746,-21.1106,5.42623,9.80676,25.0755,-11.3616,-7.91793,3.26752,-8.16903,-0.636394,-17.6565,15.1706,-9.60286,18.7379,-21.0596
1.52805,17.993,0.544686,8.46681,-9.84011,1.20583,5.32208,-1.86682,-4.52362,0.386828,-2.67197,3.51023,-2.20898,-1.28188,6.38694,-19.2194,-9.87593,-12.3841,21.68,-13.0179,10.9008,11.8654,-5.66268,3.87828,-3.00165e-14,3.97569e-15,-29.6285,-3.55242,-72.3111,35.8843,18.5184,-21.7822,4.5509,7.12502,4.6191,-25.3787,-3.00165e-14,3.97569e-15,-25.1505,-0.983478,85.7016,29.9006,-6.66186,-12.902,24.9017,7.12502,13.1877,54.4646,-21.2415,5.49467,9.67535,25.0985,-11.3631,-7.92043,3.175,-8.18847,-0.5499,-17.786,15.1173,-9.55335,18.8042,-21.0418
1.53694,17.993,0.536603,8.5399,-9.98465,1.25841,5.40212,-1.86826,-4.48043,0.370014,-2.67433,3.48382,-2.2742,-1.28085,6.33875,-19.0572,-9.88244,-12.2686,22.0949,-13.1352,10.9011,12.0006,-5.70703,3.84841,-6.16232e-15,-2.62396e-14,-29.5817,-3.49861,-72.3302,36.145,18.7881,-22.054,4.62332,7.12502,4.35662,-25.3119,-6.16232e-15,-2.62396e-14,-25.0742,-1.5592,85.8645,30.0005,-6.28258,-13.2161,25.0381,7.12502,12.8849,54.6204,-21.4394,5.48691,9.57485,25.1413,-11.3316,-7.8803,3.23517,-8.27992,-0.329088,-17.8896,15.0987,-9.50981,18.7245,-21.2553
1.54602,17.9934,0.52882,8.71665,-10.1433,1.27026,5.35947,-1.84671,-4.42815,0.356785,-2.64039,3.51139,-2.26989,-1.26413,6.33432,-18.8948,-9.89522,-12.2833,22.5468,-13.2484,10.9786,12.1674,-5.75045,3.8702,-1.17283e-14,-1.19271e-14,-29.4383,-3.50345,-72.2426,36.3213,18.9886,-22.3615,4.74482,7.12502,4.05967,-25.1962,-1.17283e-14,-1.19271e-14,-24.8888,-2.01024,86.0529,30.1096,-6.2435,-13.0764,25.1499,7.12502,13.0196,54.7236,-21.7426,5.59056,9.48322,25.1966,-11.2921,-7.79875,3.66775,-8.50658,-0.0701205,-17.9459,15.1208,-9.4633,18.5913,-21.2125
1.55459,17.9901,0.519585,8.85811,-10.3921,1.28094,5.38899,-1.78168,-4.39741,0.349139,-2.55157,3.55572,-2.30624,-1.21848,6.35993,-18.7118,-9.93488,-12.4324,23.0554,-13.3939,11.1365,12.3764,-5.81016,3.94005,2.50469e-14,-7.95139e-15,-29.3758,-3.36958,-72.1441,36.6581,18.9476,-22.5427,4.79766,7.12502,3.88471,-25.1467,2.50469e-14,-7.95139e-15,-24.7348,-2.45386,86.2674,30.2977,-6.28465,-12.8273,24.9982,7.12502,13.2597,54.5564,-22.0496,5.71037,9.4004,25.2744,-11.1999,-7.70304,3.81596,-8.70217,0.0407248,-18.0065,15.1548,-9.38813,18.7188,-21.3794
1.56211,17.9872,0.507824,8.9106,-10.6896,1.38881,5.59142,-1.74689,-4.48923,0.299976,-2.51609,3.59084,-2.47033,-1.1929,6.45855,-18.4748,-9.93653,-12.5163,23.6033,-13.4694,11.1305,12.5624,-5.85469,3.95395,2.26615e-14,1.03368e-14,-29.3866,-2.99166,-72.1119,37.1705,18.8417,-22.5939,4.55568,7.12502,3.83526,-25.3896,2.26615e-14,1.03368e-14,-24.7324,-2.92178,86.4776,30.524,-5.97355,-12.961,24.8067,7.12502,13.1308,54.3732,-22.3356,5.8799,9.21071,25.4115,-11.1333,-7.67629,4.03105,-8.7731,0.0731658,-18.1688,15.1207,-9.37965,18.9337,-21.2839
1.56865,17.9848,0.499276,8.99524,-10.9285,1.50624,5.72454,-1.7913,-4.58915,0.235312,-2.5847,3.63975,-2.59571,-1.22003,6.58064,-18.0956,-9.86783,-12.4848,24.0105,-13.4407,11.0012,12.6297,-5.86578,3.92531,4.57205e-15,-1.35174e-14,-29.3167,-2.52969,-72.1376,37.6118,18.8379,-22.7239,4.17552,7.12502,3.70976,-25.7719,4.57205e-15,-1.35174e-14,-24.7942,-3.20115,86.6373,30.7884,-5.7308,-13.2214,24.6808,7.12502,12.8797,54.2634,-22.6879,5.94373,9.02613,25.6721,-11.0931,-7.54727,3.95586,-8.80449,0.213594,-18.3425,14.9426,-9.25718,18.9964,-21.2867
1.57425,17.9819,0.493751,9.14418,-11.2123,1.84719,5.6509,-1.80296,-4.89006,0.209645,-2.61831,3.60188,-2.56462,-1.2339,6.7127,-17.7364,-9.82037,-12.4584,24.3498,-13.4628,10.9801,12.6917,-5.88685,3.92756,-1.2921e-14,1.11319e-14,-29.1015,-2.25098,-72.1554,37.9109,18.7979,-22.7336,4.122,7.12502,3.70035,-25.8256,-1.2921e-14,1.11319e-14,-24.6782,-3.28035,86.7617,31.04,-5.71003,-13.1324,24.864,7.12502,12.9655,54.4412,-23.1835,5.97125,8.57828,25.992,-11.103,-7.36669,3.91814,-8.90995,0.478578,-18.7695,14.6766,-9.12053,18.9787,-21.2953
1.57795,17.9757,0.484449,9.26578,-11.5962,2.49703,5.58002,-1.76058,-5.52622,0.163147,-2.60309,3.47827,-2.5534,-1.21825,6.94405,-17.3444,-9.79897,-12.4846,24.7328,-13.5375,11.0255,12.7827,-5.92892,3.95598,2.46493e-14,-3.73715e-14,-28.9606,-1.95734,-72.1589,38.2653,18.6252,-22.8246,4.24181,7.12502,3.61251,-25.7073,2.46493e-14,-3.73715e-14,-24.4782,-3.56014,86.9131,31.2448,-5.36092,-12.7188,25.3729,7.12502,13.3642,54.9243,-23.7561,6.00727,7.78554,26.2775,-11.1007,-7.21669,4.09996,-9.06673,0.633947,-19.5336,14.4428,-8.98984,19.0948,-21.3666
1.58196,17.9708,0.472669,9.36895,-11.9385,2.84853,5.6052,-1.74611,-5.86304,0.141063,-2.60714,3.46379,-2.57585,-1.21474,7.1247,-17.0489,-9.77074,-12.5863,25.2857,-13.5798,11.0351,12.9614,-5.96236,3.98965,3.35946e-14,1.59028e-15,-28.7403,-1.71572,-72.1358,38.5631,18.6508,-23.1397,4.41966,7.12502,3.30819,-25.5344,3.35946e-14,1.59028e-15,-24.2934,-3.87711,87.0559,31.375,-5.08899,-12.5568,25.4898,7.12502,13.5204,55.0308,-24.2225,6.0557,7.33405,26.5145,-10.9748,-7.0858,3.85312,-9.16088,0.759391,-19.9613,14.2309,-8.88205,19.2098,-21.2188
1.58841,17.9718,0.464728,9.52508,-12.1738,2.77096,5.55412,-1.77769,-5.66646,0.227389,-2.63251,3.52245,-2.45892,-1.23693,7.07041,-16.9041,-9.72539,-12.5638,25.8204,-13.596,10.9892,13.1463,-5.97339,3.98161,2.04748e-14,6.36111e-15,-28.2985,-1.52815,-72.2131,38.7829,18.8306,-23.584,4.3155,7.12502,2.87911,-25.6448,2.04748e-14,6.36111e-15,-24.0066,-4.18051,87.1115,31.4842,-5.10757,-12.5935,25.0426,7.12502,13.485,54.586,-24.5691,6.11332,7.36104,26.6721,-10.8895,-7.02497,3.16472,-9.25842,1.09983,-19.9368,14.0841,-8.80699,19.0862,-21.0159
1.59313,17.9731,0.455363,9.65974,-12.4242,2.7384,5.56531,-1.78501,-5.53947,0.312827,-2.63338,3.56842,-2.37953,-1.24433,7.04417,-16.7092,-9.69601,-12.481,26.304,-13.6466,10.9219,13.2995,-5.99865,3.94936,-2.10712e-14,1.43125e-14,-27.9214,-1.37281,-72.2761,39.0748,19.1201,-23.9486,4.30075,7.12502,2.52702,-25.664,-2.10712e-14,1.43125e-14,-23.7681,-4.51168,87.1864,31.6909,-5.1206,-12.8548,24.5353,7.12502,13.2332,54.0952,-24.8491,6.18647,7.34649,26.6911,-10.82,-6.90704,3.31375,-9.42268,1.36901,-19.9504,14.1031,-8.78695,19.0372,-20.9015
1.59802,17.9737,0.439951,9.757,-12.6998,2.89089,5.69082,-1.81392,-5.61901,0.340382,-2.68193,3.5946,-2.40849,-1.26744,7.12616,-16.4232,-9.64327,-12.4467,26.8004,-13.6582,10.8439,13.4377,-6.01693,3.93234,5.96354e-16,1.82882e-14,-27.6393,-1.04648,-72.3166,39.4141,19.4741,-24.329,4.34123,7.12502,2.15958,-25.6276,5.96354e-16,1.82882e-14,-23.6345,-4.75695,87.2833,31.8976,-5.19097,-13.2275,23.9696,7.12502,12.8739,53.5525,-25.0977,6.22789,7.13522,26.5848,-10.5842,-6.8222,3.67385,-9.7051,1.56343,-20.1604,14.309,-8.86524,19.0933,-20.9223
1.60486,17.9767,0.423193,9.88308,-12.8454,2.77563,5.8952,-1.88871,-5.36361,0.36697,-2.77093,3.70968,-2.48712,-1.31219,7.11687,-16.4237,-9.59834,-12.3727,27.5287,-13.6367,10.6054,13.7129,-6.0218,3.84598,2.88238e-14,-1.27222e-14,-27.4329,-0.413387,-72.3576,39.852,19.762,-24.807,4.59035,7.12502,1.698,-25.3826,2.88238e-14,-1.27222e-14,-23.459,-4.92198,87.4328,32.0506,-5.41193,-13.6748,23.8246,7.12502,12.4426,53.4342,-25.2641,6.23241,7.22725,26.4636,-10.3883,-6.75595,3.82599,-9.99235,1.81718,-20.079,14.5511,-8.90767,19.0418,-21.0225
1.61265,17.9791,0.410388,10.0328,-12.9704,2.4485,6.05251,-1.93914,-4.82252,0.461403,-2.80423,3.85671,-2.49004,-1.33689,6.96922,-16.7203,-9.641,-12.2981,28.4696,-13.7411,10.3745,14.1694,-6.06564,3.72989,1.64991e-14,-1.43125e-14,-27.1883,0.17067,-72.3966,40.3741,20.1329,-25.4566,4.7764,7.12502,1.07053,-25.2007,1.64991e-14,-1.43125e-14,-23.131,-5.41911,87.6687,32.2025,-5.56716,-14.0807,24.4417,7.12502,12.0513,54.0747,-25.3794,6.25236,7.55491,26.344,-10.1954,-6.69418,3.44774,-10.2549,2.10844,-19.7741,14.8286,-8.98465,18.9319,-20.973
1.61609,17.9797,0.3987,10.1414,-13.2379,2.26874,6.21783,-1.92792,-4.55294,0.562219,-2.77292,4.00812,-2.48783,-1.32662,6.97853,-16.6594,-9.70523,-12.4839,29.1512,-13.8977,10.4103,14.5018,-6.14447,3.76116,2.88238e-14,-3.49861e-14,-26.8974,0.647013,-72.3682,40.8284,20.6298,-26.2056,4.95336,7.12502,0.347153,-25.0261,2.88238e-14,-3.49861e-14,-22.8891,-6.09657,87.965,32.5232,-5.43918,-14.2956,24.7486,7.12502,11.8441,54.3937,-25.5498,6.43265,7.69879,26.2328,-9.92071,-6.69061,2.75991,-10.4873,2.19177,-19.6147,15.1281,-9.15913,19.1235,-20.7781
1.61645,17.9784,0.383899,10.251,-13.571,2.27606,6.40583,-1.90066,-4.51906,0.654427,-2.73814,4.10068,-2.49944,-1.31155,7.06202,-16.3802,-9.71416,-12.579,29.56,-13.9878,10.4417,14.6496,-6.1977,3.79206,9.14409e-15,3.97569e-14,-26.5101,0.914185,-72.3781,41.17,21.092,-26.7502,5.04009,7.12502,-0.178798,-24.9396,9.14409e-15,3.97569e-14,-22.6271,-6.62808,88.1775,32.8348,-5.31814,-14.5476,24.6841,7.12502,11.6011,54.343,-25.808,6.59161,7.63272,26.1712,-9.75486,-6.56049,2.9655,-10.7284,2.31221,-19.6547,15.3473,-9.29572,19.3048,-20.623
1.61825,17.9756,0.3703,10.3607,-13.9012,2.35518,6.5572,-1.90636,-4.45742,0.782859,-2.74621,4.1228,-2.45101,-1.32138,7.05415,-16.2174,-9.66881,-12.453,29.9235,-14.0075,10.3686,14.7614,-6.20518,3.75299,-1.98785e-15,2.54444e-14,-26.092,1.26185,-72.4951,41.6502,21.3589,-27.1957,5.30853,7.12502,-0.609061,-24.6703,-1.98785e-15,2.54444e-14,-22.2478,-7.22917,88.2635,33.0561,-5.16036,-14.8531,24.6529,7.12502,11.3064,54.3282,-26.1143,6.72081,7.4888,26.2108,-9.67803,-6.44219,3.50357,-10.9229,2.55107,-19.7919,15.4108,-9.26323,19.4109,-20.8298
1.62042,17.9752,0.356869,10.4264,-14.2467,2.56765,6.72909,-1.94432,-4.56918,0.910498,-2.80993,4.17186,-2.39641,-1.35787,7.18033,-16.1455,-9.57089,-12.3529,30.3612,-13.8904,10.161,14.8959,-6.16959,3.68916,1.51076e-14,-3.73715e-14,-25.636,1.86018,-72.5622,42.1525,21.6992,-27.7042,5.41624,7.12502,-1.10025,-24.5607,1.51076e-14,-3.73715e-14,-21.9363,-7.70041,88.3986,33.3635,-4.87258,-15.0941,24.7791,7.12502,11.074,54.467,-26.4269,6.85316,7.19523,26.2893,-9.59993,-6.37887,3.62403,-11.0821,2.64518,-20.0664,15.4255,-9.18175,19.6281,-20.93
1.62217,17.9726,0.336697,10.5193,-14.556,2.88536,6.98996,-1.98596,-4.81619,0.962621,-2.89069,4.23613,-2.45931,-1.39547,7.41008,-16.2064,-9.49065,-12.2527,31.0389,-13.7472,9.76222,15.1505,-6.13968,3.55054,-6.32135e-14,4.77083e-15,-25.2879,2.59093,-72.5682,42.693,21.9199,-27.9207,4.67736,7.12502,-1.30931,-25.2984,-6.32135e-14,4.77083e-15,-21.7355,-7.93435,88.6301,33.771,-4.56376,-15.3086,24.9153,7.12502,10.8671,54.6141,-26.818,6.8938,6.80114,26.3666,-9.45565,-6.23986,3.67034,-11.324,2.7249,-20.4425,15.4261,-9.13488,19.7728,-20.8291
1.62189,17.9724,0.316928,10.703,-14.7614,2.97451,7.22498,-2.03272,-4.77392,1.02935,-2.95498,4.34162,-2.50699,-1.4282,7.51443,-16.2439,-9.44375,-12.1253,31.6406,-13.6577,9.38024,15.3766,-6.12919,3.40039,-8.74653e-15,-7.15625e-15,-24.9596,3.29249,-72.5522,43.3084,22.1456,-28.1035,4.0806,7.12502,-1.48589,-25.894,-8.74653e-15,-7.15625e-15,-21.4599,-8.31851,88.8114,34.1939,-4.62139,-15.7264,24.7125,7.12502,10.4641,54.4321,-27.2029,6.90443,6.66592,26.4267,-9.31571,-6.10995,3.55694,-11.586,2.89858,-20.5616,15.4066,-9.07205,19.7338,-20.5795
1.62117,17.9748,0.303133,10.9793,-14.9414,2.89184,7.27762,-2.05817,-4.48891,1.17478,-2.96658,4.46845,-2.39071,-1.44496,7.4843,-16.1495,-9.42989,-12.1044,31.9071,-13.6643,9.30459,15.4728,-6.14023,3.37379,-4.29375e-14,2.54444e-14,-24.5207,3.66597,-72.49,43.8742,22.6914,-28.4982,4.38941,7.12502,-1.86704,-25.5822,-4.29375e-14,2.54444e-14,-21.0092,-9.03176,88.9778,34.5446,-4.84974,-16.1663,24.4706,7.12502,10.0397,54.2111,-27.6068,6.92439,6.70987,26.4736,-9.17223,-6.08643,3.48371,-11.8936,3.22392,-20.5181,15.4035,-8.99232,19.5626,-20.5116
1.62154,17.9769,0.291185,11.2109,-15.2415,2.93116,7.30874,-2.06564,-4.33465,1.36175,-2.96571,4.56396,-2.2161,-1.4575,7.4925,-16.1971,-9.40892,-12.0628,32.1435,-13.6359,9.20587,15.5784,-6.13146,3.33507,2.94201e-14,-2.54444e-14,-23.9062,3.94889,-72.4429,44.2603,23.3173,-28.6874,3.89183,7.12502,-2.04979,-26.0781,2.94201e-14,-2.54444e-14,-20.5696,-9.89123,89.2236,34.9238,-4.31721,-16.0732,24.8341,7.12502,10.1296,54.5703,-28.0285,6.95437,6.61162,26.4954,-9.0075,-6.01636,3.30332,-12.1832,3.40808,-20.6182,15.4371,-9.02095,19.6647,-20.4232
1.62063,17.9772,0.274236,11.3544,-15.4663,3.0508,7.55858,-2.1371,-4.26454,1.46893,-3.06046,4.67074,-2.22606,-1.50839,7.58442,-16.1014,-9.35853,-12.1762,32.4162,-13.5383,9.11054,15.6741,-6.11852,3.34425,-3.57812e-15,-7.95139e-15,-23.4741,4.66248,-72.4373,44.7685,23.4644,-28.7168,3.07579,7.12502,-2.07819,-26.8938,-3.57812e-15,-7.95139e-15,-20.3514,-10.5352,89.4631,35.4213,-3.74743,-15.9466,25.1016,7.12502,10.2517,54.8317,-28.361,6.97161,6.45614,26.5116,-8.89734,-5.94404,3.3145,-12.4581,3.62864,-20.7781,15.4975,-8.99482,19.6924,-20.4704
1.61966,17.9771,0.250758,11.5211,-15.7041,3.17559,7.93033,-2.20329,-4.2117,1.5415,-3.15139,4.76164,-2.34024,-1.55239,7.67833,-16.0118,-9.29024,-12.2964,32.6575,-13.4177,9.04649,15.7572,-6.09346,3.37196,-2.8625e-14,-4.77083e-15,-23.0854,5.30957,-72.4417,45.3535,23.9045,-28.9684,3.35264,7.12502,-2.32115,-26.6145,-2.8625e-14,-4.77083e-15,-20.2043,-11.0045,89.6146,36.0151,-3.58097,-16.2628,25.129,7.12502,9.94662,54.874,-28.7478,7.00265,6.29306,26.5366,-8.74315,-5.8619,3.54922,-12.8088,3.89025,-20.94,15.5935,-8.94043,19.6572,-20.5682
1.62012,17.9757,0.227744,11.8159,-16.1207,3.25954,8.10417,-2.19721,-4.10479,1.69481,-3.13918,4.81772,-2.28159,-1.55354,7.6804,-16.139,-9.28317,-12.4281,32.8574,-13.3801,9.05884,15.8934,-6.0859,3.40752,-2.70347e-14,-5.56597e-14,-22.48,5.70491,-72.4703,45.8199,24.4375,-29.3175,3.52565,7.12502,-2.65831,-26.4375,-2.70347e-14,-5.56597e-14,-19.9224,-11.617,89.7202,36.6629,-3.40686,-16.5695,25.1319,7.12502,9.65076,54.8908,-29.3524,7.07956,6.13415,26.5951,-8.48973,-5.68397,3.44799,-13.2758,4.19827,-21.1042,15.6914,-8.85032,19.7128,-20.6834
1.61984,17.9737,0.203236,12.0974,-16.5008,3.26836,8.3207,-2.22591,-3.89318,1.87202,-3.16481,4.89935,-2.21992,-1.57487,7.65425,-16.2808,-9.24936,-12.5811,32.9956,-13.286,9.07859,15.9974,-6.05667,3.46029,5.96354e-15,-1.11319e-14,-21.8296,6.2095,-72.5494,46.2307,24.6177,-29.824,3.62705,7.12502,-3.14752,-26.3295,5.96354e-15,-1.11319e-14,-19.5585,-11.9272,89.7276,37.2088,-3.9169,-16.7039,24.7252,7.12502,9.52104,54.4901,-29.9169,7.28408,6.02368,26.6284,-8.28709,-5.64484,3.82868,-13.7472,4.57188,-21.1827,15.8703,-8.84326,19.6834,-20.4842
1.61889,17.9728,0.179532,12.2428,-16.755,3.44747,8.68214,-2.31063,-3.84136,2.03085,-3.28038,4.97204,-2.23465,-1.63727,7.72893,-16.4001,-9.16113,-12.6103,33.0995,-13.0987,8.97197,16.0396,-5.99106,3.45795,-1.98785e-14,1.59028e-15,-21.2248,6.86734,-72.5642,46.6166,24.7446,-30.3045,3.54364,7.12502,-3.61148,-26.4055,-1.98785e-14,1.59028e-15,-19.2341,-12.3901,89.6946,37.798,-4.55286,-17.2217,24.6164,7.12502,9.02143,54.4035,-30.2937,7.45396,5.74103,26.5961,-8.18334,-5.74575,4.36755,-14.2176,4.98836,-21.4192,16.208,-8.93556,19.4753,-20.4551
1.62,17.9736,0.159983,12.6,-16.9793,3.29917,8.94358,-2.38621,-3.4115,2.1823,-3.34546,5.11594,-2.22766,-1.67625,7.65172,-16.5552,-9.11622,-12.6192,33.1304,-12.979,8.89313,16.0658,-5.94572,3.44642,-1.59028e-15,7.95139e-15,-20.6378,7.42486,-72.529,47.0365,25.0606,-30.5418,3.1777,7.12502,-3.84068,-26.7674,-1.59028e-15,7.95139e-15,-18.9285,-13.5871,89.78,38.3862,-3.82794,-17.5626,24.9516,7.12502,8.69241,54.7526,-30.759,7.55098,5.81481,26.5308,-8.00078,-5.7849,4.5254,-14.8399,5.42596,-21.3334,16.6112,-9.13753,19.2395,-20.2109
1.61886,17.9769,0.132,13.1917,-17.1394,2.8313,9.24711,-2.46636,-2.63329,2.28371,-3.379,5.31527,-2.31912,-1.69563,7.43539,-16.8092,-9.09325,-12.6436,33.1565,-12.8709,8.81101,16.1163,-5.90373,3.42977,-4.05521e-14,9.54166e-15,-20.0682,7.92362,-72.5613,47.5124,25.2116,-30.6745,3.0666,7.12502,-3.96885,-26.8762,-4.05521e-14,9.54166e-15,-18.7034,-14.7061,89.8583,39.0279,-2.91787,-16.8603,25.338,7.12502,9.37015,55.1097,-31.4229,7.78334,6.18692,26.4671,-7.87771,-5.97079,4.67615,-15.6575,5.96036,-20.923,16.9844,-9.12509,18.9019,-20.1573
1.61487,17.9762,0.0964504,13.612,-17.2999,2.71038,9.73725,-2.60583,-2.28834,2.35398,-3.52699,5.49181,-2.50478,-1.76768,7.47155,-17.0593,-8.98419,-12.7468,33.138,-12.567,8.64593,16.1129,-5.80237,3.43161,8.26944e-14,-5.08889e-14,-19.3689,8.57421,-72.6136,47.8356,25.282,-30.7616,2.94581,7.12502,-4.05297,-26.9954,8.26944e-14,-5.08889e-14,-18.4868,-14.7687,89.7559,39.6178,-4.00382,-14.9479,25.1115,7.12502,11.215,54.7917,-32.0438,8.04099,6.1921,26.4391,-7.73021,-6.2203,4.97509,-16.3927,6.32582,-20.8416,17.3062,-8.97857,18.6553,-20.3715
1.61221,17.9743,0.0663116,13.8603,-17.5721,2.82819,10.264,-2.75654,-2.19,2.45667,-3.71397,5.60577,-2.6593,-1.85999,7.5907,-17.2359,-8.83168,-12.9259,33.0292,-12.2012,8.56292,16.0531,-5.67773,3.49577,0,-4.29375e-14,-18.5421,9.37664,-72.6823,47.9956,25.2947,-30.9746,2.90471,7.12502,-4.25863,-27.0325,0,-4.29375e-14,-18.384,-15.0547,89.7634,40.192,-3.92887,-15.672,24.2789,7.12502,10.5166,53.9958,-32.6241,8.28146,5.95113,26.5491,-7.62713,-6.37684,4.63205,-16.8868,6.71341,-21.0407,17.4587,-8.87734,18.5003,-20.5671
1.6087,17.97,0.0381551,14.0096,-18.1497,3.22266,10.7224,-2.75739,-2.34106,2.66202,-3.73748,5.52485,-2.68871,-1.87486,7.61709,-17.5003,-8.7401,-12.9433,32.8083,-11.99,8.57109,15.9761,-5.58056,3.53372,-1.17681e-13,7.4743e-14,-17.6771,9.96127,-72.7781,48.2412,25.2574,-30.9948,2.66694,7.12502,-4.27816,-27.2698,-1.17681e-13,7.4743e-14,-18.1103,-15.4431,89.6078,40.9773,-3.52397,-16.3071,23.7184,7.12502,9.90388,53.4654,-33.3496,8.60274,5.36164,26.8019,-7.52301,-6.35722,4.56896,-17.2186,7.07253,-21.5633,17.4125,-8.7572,18.5784,-20.7234
1.6048,17.9612,0.00362066,14.0689,-18.9252,3.95239,11.2037,-2.62509,-2.81025,2.88915,-3.62769,5.25637,-2.71898,-1.82174,7.60946,-17.8692,-8.70826,-12.7529,32.6534,-11.9255,8.55514,15.9581,-5.51754,3.49345,6.36111e-15,-7.95139e-15,-16.8652,10.1613,-72.9188,48.4779,25.2618,-30.8238,2.47277,7.12502,-4.11297,-27.4673,6.36111e-15,-7.95139e-15,-17.6417,-16.1533,89.2977,42.0665,-1.94241,-16.2371,24.4133,7.12502,9.97143,54.1571,-34.2035,8.86293,4.41692,27.1234,-7.37169,-6.21425,4.53599,-17.5378,7.60476,-22.4913,17.254,-8.54154,18.6033,-20.9129
1.60071,17.953,-0.0317779,14.2713,-19.5807,4.47084,11.6429,-2.56631,-3.07084,3.06582,-3.59042,5.10873,-2.77303,-1.80442,7.61929,-18.2086,-8.65334,-12.6421,32.5067,-11.7748,8.45948,15.9245,-5.44041,3.45161,1.51076e-14,-2.38542e-14,-16.0028,10.5123,-73.031,48.5667,25.2948,-30.9054,2.42605,7.12502,-4.19176,-27.5125,1.51076e-14,-2.38542e-14,-17.2539,-17.0008,89.0798,42.6708,-1.68454,-16.3218,24.7783,7.12502,9.88972,54.526,-35.1092,9.01072,3.72798,27.4251,-7.20205,-6.03346,4.25315,-17.9968,8.17422,-23.1995,17.1461,-8.39595,18.4946,-20.8225
1.59645,17.9482,-0.0651477,14.5821,-20.0407,4.77639,12.0282,-2.59292,-3.08088,3.25723,-3.63474,5.08109,-2.777,-1.83132,7.6197,-18.5536,-8.59946,-12.6656,32.3116,-11.5783,8.38156,15.8757,-5.35804,3.4487,1.59028e-14,-5.725e-14,-15.0184,10.9713,-73.0753,48.6386,25.2558,-31.119,2.42658,7.12502,-4.39806,-27.5078,1.59028e-14,-5.725e-14,-16.7627,-17.6037,88.882,43.1851,-1.47433,-15.3718,25.2235,7.12502,10.8062,54.9256,-35.9507,9.10046,3.28594,27.6703,-7.04986,-5.91757,3.87725,-18.5739,8.57693,-23.6485,17.1617,-8.26685,18.3954,-20.7091
1.59052,17.9437,-0.0997785,14.9367,-20.3465,4.85394,12.4399,-2.6447,-2.75964,3.48085,-3.67252,5.03935,-2.78519,-1.85551,7.41345,-18.7579,-8.54384,-12.6302,31.9922,-11.4483,8.41993,15.7494,-5.28517,3.47353,1.03368e-14,-1.90833e-14,-14.0501,11.2512,-73.1976,48.7176,25.2112,-31.3415,2.33223,7.12502,-4.61292,-27.5975,1.03368e-14,-1.90833e-14,-16.1164,-18.5817,88.5459,43.5307,-1.01375,-14.7237,24.9272,7.12502,11.4312,54.5956,-36.6444,9.22809,3.0983,27.7902,-6.93643,-5.90047,4.12697,-19.218,9.02746,-23.8359,17.3456,-8.21191,18.1487,-20.6254
1.58423,17.9378,-0.133062,15.2766,-20.8389,4.9447,12.9832,-2.63182,-2.50289,3.56794,-3.62821,4.9442,-3.01962,-1.82735,7.19209,-18.5439,-8.43695,-12.6123,31.6031,-11.3184,8.54139,15.5033,-5.21838,3.54733,4.21423e-14,-3.81667e-14,-13.3831,11.5546,-73.3817,48.8126,25.1899,-31.2332,1.95832,7.12502,-4.50833,-27.9737,4.21423e-14,-3.81667e-14,-15.7017,-20.0004,88.1973,43.8008,-0.246558,-14.912,24.7695,7.12502,11.2496,54.4478,-37.363,9.37831,2.89,27.8374,-6.69573,-5.82621,4.21836,-19.8661,9.65702,-24.0958,17.6016,-8.27331,17.9681,-20.5291
1.57823,17.9333,-0.166391,15.5705,-21.3867,5.06898,13.7525,-2.61933,-2.38598,3.54369,-3.59336,4.94584,-3.47569,-1.7951,7.179,-18.2418,-8.30549,-12.8172,31.2729,-11.0816,8.62566,15.2673,-5.14127,3.6678,-5.08889e-14,-7.95139e-15,-12.7879,12.1165,-73.4062,48.8248,25.2526,-31.263,1.69624,7.12502,-4.53705,-28.2352,-5.08889e-14,-7.95139e-15,-15.5049,-20.9114,88.0834,44.1092,-0.0394005,-15.594,24.9828,7.12502,10.5918,54.6959,-38.0571,9.59672,2.61206,27.8386,-6.45752,-5.78582,4.76521,-20.5104,10.2736,-24.3943,17.9197,-8.3862,17.8337,-20.4669
1.57351,17.9309,-0.201619,15.9054,-21.8943,5.3107,14.4348,-2.63518,-2.40294,3.59401,-3.61512,4.96982,-3.78643,-1.79702,7.2666,-18.4475,-8.19522,-12.8892,31.1749,-10.801,8.49565,15.2223,-5.04099,3.67489,4.69132e-14,-1.59028e-14,-11.842,12.5957,-73.3342,48.6633,25.5802,-31.5994,1.781,7.12502,-4.86188,-28.1432,4.69132e-14,-1.59028e-14,-15.0349,-21.3061,87.9184,44.4523,0.0599688,-15.7072,24.9842,7.12502,10.4826,54.7029,-38.8286,9.73935,2.19824,27.8334,-6.22855,-5.68779,5.24767,-21.2349,10.5866,-24.771,18.2455,-8.53663,17.8237,-20.0336
1.568,17.9255,-0.237685,16.3551,-22.3926,5.50721,14.9117,-2.62134,-2.35291,3.78965,-3.59449,4.96247,-3.84349,-1.78994,7.25252,-19.0856,-8.16765,-12.7606,31.1541,-10.6427,8.31775,15.3104,-4.96031,3.59321,2.38542e-15,-2.62396e-14,-10.6608,12.7997,-73.2711,48.4579,25.957,-31.8839,1.82404,7.12502,-5.13662,-28.0937,2.38542e-15,-2.62396e-14,-14.1193,-21.947,87.5179,44.7283,0.645497,-15.3474,24.9978,7.12502,10.8297,54.6986,-39.6976,9.81762,1.82432,27.8043,-5.96055,-5.56467,5.68277,-22.0889,10.9919,-25.1564,18.5917,-8.65903,17.7476,-19.7615
1.56202,17.9143,-0.269937,16.8851,-22.9046,5.53652,15.3429,-2.60765,-2.11612,4.04321,-3.54824,4.93571,-3.83038,-1.77456,7.09878,-19.7152,-8.15035,-12.546,31.0045,-10.5438,8.20842,15.3437,-4.88542,3.51142,6.36111e-15,9.54166e-15,-9.43168,13.049,-73.2606,48.2476,26.2289,-32.1762,1.64468,7.12502,-5.41881,-28.266,6.36111e-15,9.54166e-15,-13.0504,-22.6464,86.9848,44.8669,1.05517,-14.9747,24.9661,7.12502,11.1892,54.6477,-40.5862,9.8436,1.64662,27.786,-5.69407,-5.43053,5.83297,-22.9975,11.5102,-25.4165,18.9575,-8.68162,17.674,-19.9399
1.55453,17.9065,-0.298737,17.4628,-23.4503,5.50197,15.7347,-2.64467,-1.92471,4.24631,-3.5698,4.98787,-3.83077,-1.79139,7.06818,-20.0402,-8.04142,-12.5428,30.7296,-10.2899,8.17195,15.2496,-4.77108,3.53411,-2.78299e-14,2.38542e-14,-8.19121,13.6815,-73.1634,48.0953,26.2431,-32.3434,1.0694,7.12502,-5.58024,-28.8371,-2.78299e-14,2.38542e-14,-12.1063,-22.939,86.5787,44.846,0.942535,-15.0429,24.7505,7.12502,11.1234,54.4357,-41.4947,9.8866,1.52413,27.7755,-5.37869,-5.2691,5.9215,-23.956,12.0604,-25.6348,19.3787,-8.75601,17.5996,-20.0155
1.54454,17.8972,-0.332868,17.9957,-24.019,5.58584,16.2516,-2.68553,-2.04606,4.34716,-3.63497,5.1651,-3.97059,-1.82307,7.3776,-20.1037,-7.85522,-12.777,30.392,-9.83577,8.05058,15.0522,-4.61907,3.60697,1.03368e-14,-3.57812e-14,-7.01372,14.5568,-72.8336,47.8946,26.3243,-32.5119,0.773246,7.12502,-5.74294,-29.1289,1.03368e-14,-3.57812e-14,-11.4149,-22.8844,86.461,44.8917,0.624646,-15.271,24.6421,7.12502,10.9033,54.339,-42.4316,10.0141,1.22431,27.7807,-5.16027,-5.13626,6.19673,-24.946,12.5874,-25.9752,19.8485,-8.82941,17.5192,-20.0995
1.535,17.8858,-0.368145,18.4994,-24.5544,5.67855,16.9132,-2.70349,-2.19906,4.43402,-3.67231,5.38285,-4.1995,-1.8376,7.75965,-20.3518,-7.68821,-12.9313,30.1968,-9.36889,7.75883,14.9443,-4.46947,3.59565,3.97569e-14,-4.45278e-14,-5.84062,15.3694,-72.4134,47.6526,26.4693,-32.7798,0.873144,7.12502,-6.00164,-29.0219,3.97569e-14,-4.45278e-14,-10.7033,-22.7284,86.4287,44.9331,0.345591,-15.4268,24.5988,7.12502,10.7531,54.3036,-43.3439,10.0937,0.959015,27.8123,-4.92881,-5.01543,5.88183,-25.9176,13.0593,-26.3058,20.3263,-8.92044,17.4371,-19.8057
1.52817,17.8731,-0.397018,19.0745,-25.058,5.71884,17.3835,-2.6881,-2.06994,4.61135,-3.6294,5.46472,-4.26891,-1.82014,7.79497,-20.8049,-7.62237,-12.9131,30.1399,-9.13333,7.56589,14.9728,-4.37956,3.54882,-3.4191e-14,8.74653e-15,-4.53459,15.7341,-72.1559,47.2687,26.6202,-33.1195,0.843246,7.12502,-6.32961,-29.0422,-3.4191e-14,8.74653e-15,-9.60442,-23.0653,86.0855,44.8309,0.332479,-15.1501,24.5014,7.12502,11.02,54.1922,-44.2755,9.92885,0.849175,27.8632,-4.58078,-4.66614,5.47311,-26.9444,13.6963,-26.6738,20.7877,-8.98152,17.1921,-20
1.52278,17.8604,-0.427666,19.5938,-25.6065,5.87788,17.812,-2.64112,-1.92946,4.87152,-3.55285,5.4049,-4.24194,-1.79036,7.65269,-21.1807,-7.56877,-12.801,29.8445,-9.01784,7.59143,14.8993,-4.29947,3.55027,-3.57812e-14,-4.37326e-14,-2.99138,15.8991,-71.8863,46.7393,26.6615,-33.4494,0.836396,7.12502,-6.64809,-29.0392,-3.57812e-14,-4.37326e-14,-8.1993,-23.6517,85.495,44.5762,0.248118,-14.7466,24.5171,7.12502,11.4091,54.1867,-45.2384,9.73573,0.595234,27.9117,-4.1891,-4.31706,6.33089,-27.9732,14.3199,-27.19,21.2362,-9.01808,16.9535,-20.2802
1.5162,17.8509,-0.462285,20.0818,-26.0928,5.98241,18.409,-2.61722,-1.84455,5.10913,-3.50888,5.42785,-4.31203,-1.77343,7.6544,-21.4857,-7.4902,-12.7019,29.4747,-8.83195,7.52019,14.7629,-4.20555,3.52734,-7.15625e-14,-2.8625e-14,-1.47463,16.3775,-71.3983,46.3012,26.5226,-33.7057,0.984273,7.12502,-6.89548,-28.8834,-7.15625e-14,-2.8625e-14,-6.82862,-24.0282,85.0181,44.2737,0.25419,-14.7419,24.5861,7.12502,11.4137,54.2554,-46.1391,9.69687,0.339103,27.9354,-3.93898,-4.16448,6.87897,-28.9816,14.9011,-27.6183,21.7135,-9.04595,16.7158,-20.528
1.5081,17.8436,-0.490431,20.6235,-26.5478,6.02688,18.9572,-2.61152,-1.7338,5.30832,-3.47922,5.50848,-4.39131,-1.76293,7.70579,-21.7113,-7.41302,-12.6876,29.1169,-8.61276,7.39687,14.6144,-4.11647,3.50569,-7.23576e-14,1.04163e-13,-0.0231689,16.7426,-70.9911,45.856,26.6793,-33.8631,0.791386,7.12502,-7.04739,-29.0713,-7.23576e-14,1.04163e-13,-5.51208,-24.3481,84.6294,43.9063,0.128577,-14.5878,24.6143,7.12502,11.5623,54.2753,-46.9775,9.54617,0.238726,27.9467,-3.70616,-3.88804,6.80852,-30.0014,15.4421,-27.999,22.2038,-9.11006,16.4784,-20.4437
1.49953,17.8297,-0.514995,21.1266,-27.0115,5.97258,19.5261,-2.54108,-1.44816,5.57351,-3.33671,5.54097,-4.43871,-1.69982,7.5757,-21.9643,-7.42314,-12.6243,28.769,-8.56877,7.36293,14.5027,-4.08278,3.47728,-3.18055e-14,-3.18055e-15,1.47318,16.7753,-70.6548,45.3649,26.8415,-33.598,-0.0915397,7.12502,-6.79149,-29.9626,-3.18055e-14,-3.18055e-15,-4.01619,-24.9584,84.0939,43.4563,-0.318169,-14.5335,24.5704,7.12502,11.6146,54.2285,-47.699,9.38929,0.323342,27.9263,-3.36492,-3.48447,6.56723,-30.9156,15.8931,-28.2428,22.7125,-9.18558,16.3915,-20.6931
1.48899,17.8136,-0.542274,21.5689,-27.4227,5.93795,20.1949,-2.49893,-1.21623,5.85219,-3.23794,5.57245,-4.51084,-1.65773,7.49076,-22.2871,-7.40174,-12.3925,28.4731,-8.49017,7.18575,14.4069,-4.0346,3.36871,1.36764e-13,-5.40694e-14,3.00479,16.9793,-70.232,44.8963,26.8495,-32.9997,-1.31391,7.12502,-6.21394,-31.2028,1.36764e-13,-5.40694e-14,-2.47406,-25.5185,83.4916,42.966,-0.603947,-15.116,24.7554,7.12502,11.0529,54.4444,-48.3552,9.24247,0.402116,27.8815,-2.98918,-3.13591,6.34458,-31.8056,16.1272,-28.4018,23.3238,-9.36185,16.485,-20.6816
1.47622,17.8009,-0.566236,22.0794,-27.8367,5.97122,20.6838,-2.51772,-1.12655,6.08768,-3.24597,5.60158,-4.51071,-1.66889,7.49804,-22.5526,-7.27212,-12.0841,28.2191,-8.26826,6.91833,14.291,-3.93293,3.24238,-3.18055e-14,7.95139e-16,4.50814,17.2524,-69.9031,44.3404,27.0015,-33.311,-1.10654,7.12502,-6.51441,-30.9864,-3.18055e-14,7.95139e-16,-1.05381,-25.9276,82.8415,42.5591,-0.605305,-15.4472,24.9272,7.12502,10.7334,54.633,-49.1058,9.04973,0.371678,27.8465,-2.65568,-2.78317,6.41441,-32.8464,16.4186,-28.6881,24.0343,-9.62849,16.4932,-20.7673
1.46343,17.7839,-0.593645,22.7145,-28.2599,5.84242,21.1682,-2.49763,-0.930494,6.28667,-3.17916,5.64456,-4.56173,-1.64116,7.44295,-22.6058,-7.13937,-11.8234,27.9172,-8.08927,6.76059,14.1257,-3.84489,3.16429,-1.20861e-13,9.46215e-14,5.98906,17.3022,-69.6641,43.6836,27.347,-34.3512,0.159284,7.12502,-7.51853,-29.6871,-1.20861e-13,9.46215e-14,0.464006,-26.3508,82.1189,42.0533,-0.716079,-15.2708,24.9079,7.12502,10.9036,54.6048,-50.0012,8.96183,0.463895,27.8511,-2.31185,-2.51954,5.85244,-33.9518,16.7317,-28.824,24.7242,-9.92584,16.505,-20.7192
1.44858,17.7643,-0.625102,23.3125,-28.6835,5.6979,21.7837,-2.45316,-0.774548,6.50042,-3.08529,5.69282,-4.66255,-1.59952,7.41907,-22.6886,-7.04601,-11.5922,27.6526,-7.96224,6.62081,13.9936,-3.77945,3.08845,-2.70347e-14,-9.54166e-15,7.49036,17.371,-69.4035,43.1304,27.7145,-34.7857,0.280227,7.12502,-7.93791,-29.5507,-2.70347e-14,-9.54166e-15,2.14294,-26.6427,81.3754,41.3757,-0.85763,-15.0865,24.6874,7.12502,11.0814,54.3749,-50.9141,9.0021,0.528522,27.9097,-2.00303,-2.36606,5.0094,-34.9803,17.0319,-28.9036,25.3427,-10.1953,16.4751,-20.2329
1.43329,17.7472,-0.647251,23.8269,-29.1694,5.75378,22.2715,-2.47656,-0.891805,6.70718,-3.13534,5.80286,-4.66434,-1.63227,7.64929,-22.9082,-6.8947,-11.6438,27.565,-7.64401,6.49373,13.9617,-3.66032,3.10371,8.42847e-14,-1.98785e-14,9.03677,18.0223,-68.8483,42.7264,27.9339,-35.0724,-0.232389,7.12502,-8.21461,-30.0527,8.42847e-14,-1.98785e-14,3.71282,-26.4879,80.8811,40.636,-0.96412,-15.0996,24.6446,7.12502,11.0686,54.3327,-51.818,8.8886,0.469543,28.0478,-1.67932,-2.0782,4.58972,-35.9693,17.5589,-29.32,25.8878,-10.42,16.189,-19.8877
1.41883,17.7312,-0.664414,24.3777,-29.6061,5.83536,22.5769,-2.56445,-1.01901,6.94543,-3.27434,5.97008,-4.51955,-1.71525,7.95723,-23.1169,-6.73596,-11.9664,27.4067,-7.25531,6.513,13.9103,-3.51949,3.23636,3.4191e-14,-7.95139e-16,10.7953,18.8796,-68.1166,42.1814,28.2516,-35.6591,-0.545947,7.12502,-8.78084,-30.3433,3.4191e-14,-7.95139e-16,5.23574,-26.0251,80.5415,39.8938,-1.32241,-15.4128,24.6679,7.12502,10.7666,54.372,-52.7357,8.60326,0.488202,28.2478,-1.35546,-1.64764,4.97674,-36.9885,18.1677,-29.8454,26.3224,-10.5926,15.819,-19.8546
1.40469,17.7131,-0.681069,24.8644,-30.0073,5.97108,22.9096,-2.55351,-0.928298,7.19276,-3.25031,5.92988,-4.4282,-1.71317,7.86613,-23.2001,-6.71061,-11.9752,27.1572,-7.22249,6.62908,13.8228,-3.48452,3.28576,3.97569e-15,-1.43125e-14,12.323,18.8839,-67.7669,41.4742,29.0272,-36.1732,-0.765577,7.12502,-9.27688,-30.5415,3.97569e-15,-1.43125e-14,6.98454,-26.1537,79.9496,39.0836,-1.72342,-15.6004,24.7879,7.12502,10.5856,54.5013,-53.5988,8.29025,0.473424,28.4686,-1.06212,-1.25975,5.50658,-37.9128,18.6239,-30.3596,26.6315,-10.6838,15.5957,-19.8673
1.39237,17.6989,-0.693342,25.3673,-30.4449,5.91702,23.363,-2.45384,-0.648172,7.41864,-3.06991,5.84356,-4.45557,-1.62903,7.58284,-23.1382,-6.71635,-11.7081,26.8857,-7.32816,6.64983,13.6943,-3.49571,3.22503,-8.5875e-14,1.19271e-13,13.6104,18.585,-67.5159,40.8292,29.7701,-36.595,-0.93109,7.12502,-9.68391,-30.6885,-8.5875e-14,1.19271e-13,8.85005,-26.9487,79.1032,38.2667,-1.72913,-15.5345,25.0424,7.12502,10.6492,54.7525,-54.3892,8.08931,0.625934,28.6898,-0.854584,-0.822823,5.6858,-38.6832,19.0673,-30.6731,26.8867,-10.7742,15.4504,-19.7277
1.38157,17.6884,-0.702997,25.8316,-30.9305,5.90257,23.9405,-2.31579,-0.61564,7.54508,-2.87804,5.88448,-4.63003,-1.53614,7.59659,-22.9763,-6.74076,-11.5317,26.6741,-7.41843,6.59424,13.5706,-3.52371,3.15445,8.34896e-14,-5.56597e-15,14.9163,18.5873,-67.0476,40.0981,30.2626,-37.0993,-0.75309,7.12502,-10.1705,-30.4873,8.34896e-14,-5.56597e-15,10.5427,-27.5048,78.575,37.3515,-1.90702,-15.4822,25.3665,7.12502,10.6997,55.074,-55.1574,7.85937,0.767999,28.9056,-0.580712,-0.37183,5.86593,-39.4095,19.4834,-31.0375,27.1835,-10.8486,15.3304,-19.4486
1.3694,17.6761,-0.713937,26.1518,-31.2958,6.10032,24.4767,-2.32407,-0.590181,7.77181,-2.88363,5.8849,-4.64679,-1.54583,7.61203,-23.2921,-6.78773,-11.6069,26.6387,-7.45339,6.72638,13.6344,-3.5204,3.20771,-6.91771e-14,-1.74931e-14,16.4918,18.6637,-66.5892,39.3305,30.928,-37.7375,-0.338518,7.12502,-10.7861,-30.0416,-6.91771e-14,-1.74931e-14,12.4416,-27.44,78.0429,36.2571,-2.47013,-15.4,25.3175,7.12502,10.779,55.0209,-55.8032,7.5248,0.747088,29.0557,-0.285291,-0.00348646,6.60012,-40.126,19.8547,-31.5788,27.5126,-11.0099,15.1075,-19.3145
1.35593,17.6569,-0.729095,26.5673,-31.46,6.16325,25.1308,-2.55947,-0.628629,7.88734,-3.16718,6.11693,-4.78406,-1.68825,8.01972,-23.5264,-6.61427,-12.1943,26.6659,-6.97796,6.82469,13.6724,-3.3597,3.43593,1.11319e-14,-2.3059e-14,18.1619,19.6745,-65.8142,38.8344,31.3589,-38.1015,-0.369603,7.12502,-11.1371,-30.0541,1.11319e-14,-2.3059e-14,13.9867,-26.5253,77.8186,35.0696,-3.01437,-15.3017,25.1319,7.12502,10.8738,54.8304,-56.4341,7.24779,0.806018,29.1603,-0.0479697,0.231829,7.63151,-40.9445,20.1848,-31.9607,27.8447,-11.0761,14.8557,-19.766
1.33882,17.6462,-0.742778,27.0566,-31.6435,6.01637,25.8195,-2.42297,-0.363277,8.06353,-2.91337,6.26075,-4.96695,-1.56746,8.00102,-23.7445,-6.73768,-12.0957,26.4956,-7.13194,6.77249,13.6563,-3.41389,3.36131,-3.02153e-14,-4.33351e-14,19.2891,19.3881,-65.1635,38.4862,31.8421,-38.3209,-0.574358,7.12502,-11.3488,-30.2473,-3.02153e-14,-4.33351e-14,16.0358,-26.8934,77.3084,34.0306,-3.27619,-14.9629,25.1737,7.12502,11.2006,54.8547,-57.0422,7.0184,1.13141,29.2863,0.21542,0.550485,7.95159,-41.7059,20.5017,-32.1075,28.1748,-11.0428,14.6782,-20.0655
1.32443,17.6399,-0.750336,27.521,-31.8028,5.95881,26.3247,-2.41373,0.161232,8.27404,-2.77767,6.16835,-5.03048,-1.50258,7.57609,-23.8623,-6.84865,-11.8285,26.1712,-7.3966,6.90324,13.5674,-3.47447,3.30951,-6.20208e-14,-4.01545e-14,20.3093,18.9084,-64.9374,38.1825,32.4824,-38.6152,-0.868546,7.12502,-11.6326,-30.5256,-6.20208e-14,-4.01545e-14,18.0016,-27.1344,76.602,33.1288,-3.77621,-14.492,25.2213,7.12502,11.6546,54.8772,-57.6258,6.63393,1.45724,29.445,0.501535,0.993523,7.8322,-42.4428,20.6942,-32.3247,28.5574,-11.1145,14.4973,-19.7526
1.31441,17.6237,-0.755368,28.0054,-31.8308,6.07993,26.7902,-2.47057,0.766738,8.37193,-2.69667,6.00442,-5.19675,-1.45556,7.04086,-23.9558,-6.94108,-11.3953,25.9302,-7.69277,6.98536,13.5012,-3.54114,3.20656,-2.94201e-14,6.08281e-14,21.1262,18.3502,-64.8539,37.9836,33.2099,-38.7746,-1.60088,7.12502,-11.7863,-31.2492,-2.94201e-14,6.08281e-14,19.8465,-27.2361,76.1024,32.1969,-4.41641,-14.2409,25.2575,7.12502,11.8968,54.8995,-58.3253,6.23785,1.46848,29.6627,0.644959,1.24039,8.12869,-43.2548,20.5338,-32.6082,28.9237,-11.1873,14.4876,-19.4847
1.30181,17.6013,-0.765228,28.5091,-31.8688,6.26957,27.3475,-2.64515,0.899489,8.42351,-2.85359,6.09605,-5.38964,-1.52867,7.15408,-24.2792,-6.86762,-11.317,25.7925,-7.52737,6.86492,13.4803,-3.4698,3.17073,-8.11041e-14,3.57812e-15,22.3662,18.6478,-64.3331,37.8482,33.7258,-38.7723,-2.37685,7.12502,-11.7841,-32.0253,-8.11041e-14,3.57812e-15,21.4405,-26.1399,76.2338,30.9921,-5.48364,-14.1827,25.2882,7.12502,11.953,54.927,-59.1513,5.86129,1.38002,29.9778,0.728544,1.40291,8.79816,-44.1513,20.4016,-33.0091,29.258,-11.22,14.4951,-19.5749
1.28521,17.5811,-0.780799,29.078,-31.8754,6.46345,28.0329,-2.90843,0.25863,8.32189,-3.26214,6.77122,-5.69605,-1.72787,8.49491,-24.4409,-6.63474,-12.3051,25.6175,-6.69903,6.6345,13.3834,-3.23892,3.39863,-5.80451e-14,-6.44062e-14,24.0332,20.4691,-62.6902,38.0288,33.6523,-38.745,-2.98558,7.12502,-11.7578,-32.6356,-5.80451e-14,-6.44062e-14,22.2585,-23.5707,77.4403,29.9145,-6.88095,-13.9293,25.4191,7.12502,12.1973,55.0434,-60.0839,5.56513,1.21448,30.3858,0.713335,1.42321,9.45921,-45.1437,20.2876,-33.432,29.5588,-11.1555,14.4318,-19.6748
1.27111,17.5623,-0.789936,29.6463,-31.7751,6.68322,28.0481,-3.00074,0.899154,8.56195,-3.23669,6.59988,-5.48634,-1.72169,7.8988,-24.5172,-6.84095,-11.9522,25.108,-7.1584,6.86283,13.2339,-3.36128,3.33093,-1.51076e-14,8.74653e-15,24.8731,19.5099,-62.5987,38.0994,34.228,-38.8932,-3.09651,7.12502,-11.9006,-32.7383,-1.51076e-14,8.74653e-15,24.2745,-24.2338,76.3827,29.7008,-6.51328,-13.2891,25.9551,7.12502,12.8145,55.5418,-60.9837,5.27534,0.977132,30.8226,0.537399,1.33396,9.75323,-46.0914,20.0123,-33.8003,29.8184,-11.132,14.3638,-19.5532
1.25937,17.541,-0.793347,30.0549,-31.7885,7.06149,28.4331,-2.8888,1.66498,8.62873,-2.90649,6.16366,-5.70464,-1.54695,6.87298,-24.577,-7.15872,-10.9171,24.8036,-8.03336,7.01403,13.1738,-3.61252,3.04264,6.83819e-14,-1.25632e-13,25.0572,17.8564,-62.8511,38.2424,34.6611,-38.9367,-2.94257,7.12502,-11.9426,-32.5819,6.83819e-14,-1.25632e-13,26.2223,-25.6587,75.2877,29.6704,-6.02817,-12.7005,26.3496,7.12502,13.3819,55.8998,-61.8263,4.90315,0.672928,31.25,0.448259,1.38067,9.74777,-46.8348,19.6328,-34.2496,30.0036,-11.1671,14.4703,-19.4088
1.24584,17.5178,-0.797089,30.4911,-31.8789,7.36943,29.0621,-3.09081,1.31776,8.63104,-3.18353,6.58742,-5.91993,-1.68237,7.7036,-24.9747,-7.06315,-11.6817,24.6548,-7.5328,7.00966,13.1742,-3.46073,3.25622,-1.35174e-14,2.66371e-14,26.5464,19.0339,-61.3177,38.7671,34.2055,-38.967,-3.18945,7.12502,-11.9719,-32.8271,-1.35174e-14,2.66371e-14,26.9094,-23.165,76.7892,29.1633,-7.66571,-12.2645,26.5366,7.12502,13.8021,56.0588,-62.6714,4.64275,0.365142,31.6316,0.398167,1.42346,10.0165,-47.5987,19.3765,-34.6972,30.1749,-11.0593,14.6063,-19.7446
1.23019,17.4984,-0.79982,31.0318,-31.9589,7.44747,29.5305,-3.03983,1.64315,8.67332,-3.00334,6.62476,-6.12878,-1.59207,7.53308,-24.9366,-7.20346,-11.5067,24.1912,-7.7894,7.06073,13.0001,-3.54473,3.18973,-6.36111e-15,-1.82882e-14,27.0844,18.6358,-60.7349,39.3743,34.2362,-39.3709,-3.88512,7.12502,-12.3612,-33.4997,-6.36111e-15,-1.82882e-14,28.1457,-22.6105,77.2912,28.9201,-8.87699,-11.8509,26.8913,7.12502,14.2007,56.3859,-63.4718,4.5162,0.232389,31.9523,0.297929,1.49098,9.85175,-48.3792,19.2834,-34.9781,30.3673,-10.9991,14.618,-20.0294
1.2123,17.483,-0.803262,31.6306,-32.0826,7.35719,29.9531,-3.0296,1.75269,8.84207,-2.92774,6.92098,-6.12875,-1.56656,7.81197,-25.1415,-7.31042,-11.9783,23.683,-7.74523,7.23343,12.8613,-3.53789,3.33145,2.22639e-14,1.94809e-14,28.1978,18.6795,-59.7906,39.9845,34.1889,-39.7029,-4.5263,7.12502,-12.6814,-34.1213,2.22639e-14,1.94809e-14,29.3645,-21.6548,77.8788,28.8475,-9.31309,-12.0142,27.2134,7.12502,14.0433,56.719,-64.239,4.48911,0.250908,32.2176,0.236121,1.53148,10.0187,-49.1223,19.3793,-35.1856,30.5521,-11.0675,14.5252,-19.9832
1.19009,17.4697,-0.808963,32.1271,-32.3469,7.38112,30.7409,-2.94242,1.69608,8.69485,-2.7895,7.44101,-6.23856,-1.54489,7.8761,-25.3841,-7.40943,-12.4649,23.3103,-7.69308,7.42898,12.7855,-3.52499,3.48746,3.18055e-14,-1.19668e-13,29.2264,18.6623,-58.9444,40.5243,34.2678,-40.017,-4.98591,7.12502,-12.9841,-34.5619,3.18055e-14,-1.19668e-13,30.36,-20.9192,78.4309,29.0803,-9.31426,-12.8815,27.595,7.12502,13.2074,57.1566,-64.989,4.57574,0.0505715,32.4521,0.223037,1.48461,10.3337,-49.8099,19.5251,-35.51,30.7058,-11.1296,14.4484,-19.8879
1.16821,17.463,-0.807079,32.2256,-32.4325,7.60798,31.6345,-2.73522,2.2462,8.76181,-2.33876,7.25439,-6.58587,-1.32599,7.26315,-25.3194,-7.73904,-11.8511,22.7859,-8.39064,7.487,12.6158,-3.76303,3.26516,5.56597e-14,-4.33351e-14,29.3067,17.1644,-58.9385,41.0019,34.8234,-40.5407,-5.3683,7.12502,-13.489,-34.9115,5.56597e-14,-4.33351e-14,31.743,-22.1044,78.1018,29.6261,-8.74233,-14.019,28.1745,7.12502,12.1108,57.804,-65.3192,4.54272,-0.189466,32.6984,0.118034,1.46237,10.5297,-50.0754,19.5067,-35.7768,30.8042,-11.126,14.3788,-20.0614
1.14853,17.4571,-0.800956,32.2492,-32.4841,7.86317,32.5169,-2.68353,2.70069,8.87115,-2.09728,7.19666,-6.84131,-1.21409,6.90543,-25.2957,-7.98143,-11.605,22.2469,-8.81188,7.55023,12.4352,-3.91594,3.15968,5.08889e-14,-1.23644e-13,29.6654,16.2372,-58.5528,41.7024,35.3119,-41.382,-5.87325,7.12502,-14.2997,-35.3609,5.08889e-14,-1.23644e-13,32.9695,-22.7993,77.9302,30.3061,-7.72007,-15.1963,28.9001,7.12502,10.9755,58.5932,-65.5706,4.40639,-0.343943,32.9837,-0.00749712,1.59162,10.3693,-50.2051,19.447,-36.018,30.8307,-11.1518,14.2844,-20.0188
1.1284,17.4477,-0.795676,32.2908,-32.5339,8.12649,33.4396,-2.83968,2.7113,8.98927,-2.21325,7.46398,-7.05131,-1.27835,7.26436,-25.4957,-8.00103,-12.1532,21.8736,-8.59917,7.63734,12.3354,-3.85315,3.3144,4.05521e-14,1.47101e-14,30.72,16.482,-57.5576,42.5958,35.669,-42.0853,-6.70566,7.12502,-14.9773,-36.1441,4.05521e-14,1.47101e-14,33.7311,-22.1308,78.3026,31.1169,-6.79636,-16.3709,29.3133,7.12502,9.84229,59.0633,-65.8793,4.24433,-0.488059,33.3209,-0.103957,1.77847,10.1347,-50.3247,19.381,-36.2687,30.7785,-11.1787,14.2076,-19.9432
1.10569,17.4385,-0.79329,32.4005,-32.5456,8.35935,34.3212,-2.84765,2.9826,9.06203,-2.07627,7.5347,-7.31645,-1.21845,7.18129,-25.563,-8.15967,-12.2156,21.4763,-8.80697,7.79605,12.2281,-3.92619,3.33802,-9.54166e-15,4.8901e-14,31.2001,15.8499,-57.1123,43.4346,36.2693,-42.5412,-7.54499,7.12502,-15.4165,-36.9501,-9.54166e-15,4.8901e-14,34.6205,-22.279,78.3247,32.1,-6.1037,-17.1334,29.3356,7.12502,9.1066,59.119,-66.2514,4.18409,-0.739993,33.6953,-0.286565,1.78469,10.5054,-50.4887,19.2995,-36.4903,30.6971,-11.159,14.0731,-19.5296
1.07917,17.4293,-0.79127,32.5462,-32.5573,8.62186,35.1229,-2.84151,3.24738,9.1429,-1.92595,7.60328,-7.53626,-1.15347,7.08957,-25.6483,-8.31999,-12.2397,21.0234,-9.01298,7.91117,12.0985,-4.00119,3.33794,6.36111e-15,7.63333e-14,31.7342,15.1099,-56.738,44.1301,36.8284,-43.065,-7.93249,7.12502,-15.921,-37.2981,6.36111e-15,7.63333e-14,35.4586,-22.4209,78.3076,33.2276,-5.76685,-16.994,29.2941,7.12502,9.24111,59.0716,-66.6723,4.17865,-1.11753,34.0801,-0.518818,1.679,10.7756,-50.6992,19.2059,-36.7485,30.5822,-11.0771,13.9566,-19.2968
1.0532,17.4198,-0.789615,32.6565,-32.5942,8.93776,35.8874,-2.78749,3.51091,9.15375,-1.71332,7.62072,-7.81848,-1.05678,6.9198,-25.4612,-8.45613,-12.1054,20.5225,-9.25571,7.94572,11.8927,-4.09771,3.27987,-4.29375e-14,8.22969e-14,32.034,14.3037,-56.3918,44.8542,37.3155,-43.6844,-8.24662,7.12502,-16.5174,-37.5636,-4.29375e-14,8.22969e-14,36.1478,-22.8877,78.2549,34.4966,-5.16218,-16.8701,29.0519,7.12502,9.36068,58.824,-67.0915,4.10152,-1.46951,34.4674,-0.674973,1.61018,10.9361,-50.8815,19.1205,-37.0754,30.4359,-10.9864,13.8265,-19.0251
1.02878,17.4135,-0.78376,32.7546,-32.6138,9.25113,36.6184,-2.86825,3.68443,9.28152,-1.69429,7.77296,-7.93534,-1.05737,7.01076,-25.783,-8.59337,-12.5149,20.1986,-9.29049,8.18139,11.8666,-4.10797,3.41744,-6.99722e-14,1.20066e-13,32.8547,13.8702,-55.7179,45.5576,37.7305,-44.2726,-8.45364,7.12502,-17.0836,-37.7225,-6.99722e-14,1.20066e-13,36.8763,-22.9704,78.0573,35.9543,-4.06809,-17.3498,28.7732,7.12502,8.89779,58.5656,-67.4577,3.84426,-1.60179,34.8462,-0.784322,1.71209,10.7865,-51.0294,19.052,-37.4215,30.2535,-10.8685,13.6869,-18.5232
1.00324,17.4043,-0.776954,32.8648,-32.6419,9.5894,37.3989,-2.75264,4.36886,9.23622,-1.28088,7.50341,-8.15351,-0.870491,6.26089,-25.7372,-8.90764,-11.9133,19.6575,-9.98486,8.3862,11.71,-4.34553,3.25854,-3.33958e-14,-1.47101e-14,32.7402,12.1677,-55.7093,46.1975,38.297,-44.7864,-8.92662,7.12502,-17.5781,-38.152,-3.33958e-14,-1.47101e-14,38.0891,-24.6851,76.8663,37.6381,-2.4362,-17.9686,28.8788,7.12502,8.30063,58.6957,-67.8472,3.37576,-1.51373,35.2006,-0.707396,2.08263,10.4037,-51.182,18.9727,-37.7911,30.0407,-10.7934,13.5557,-18.0413
0.978024,17.3938,-0.771214,32.9756,-32.7599,9.90833,38.088,-2.77928,4.44455,9.3328,-1.22178,7.67414,-8.28587,-0.852786,6.40651,-25.7424,-8.98777,-12.3062,19.141,-9.92313,8.43375,11.5321,-4.34512,3.34532,6.83819e-14,3.20043e-14,33.5709,11.8545,-54.9246,46.9272,38.1681,-45.0724,-9.73725,7.12502,-17.8533,-38.9377,6.83819e-14,3.20043e-14,38.7675,-24.8108,76.5236,39.1807,-1.24121,-18.548,28.7691,7.12502,7.74141,58.6074,-68.2602,3.12723,-1.64012,35.5207,-0.712579,2.29484,10.8201,-51.3134,18.8964,-38.1414,29.8195,-10.7644,13.5025,-17.9267
0.954416,17.3868,-0.760661,33.0384,-32.8891,10.2262,38.7786,-2.86862,4.57282,9.44401,-1.22219,7.81838,-8.39163,-0.86304,6.5191,-25.8848,-9.09188,-12.8417,18.782,-9.85537,8.56173,11.4513,-4.33694,3.48405,7.63333e-14,6.10269e-14,34.5075,11.5825,-54.2308,47.5456,38.028,-45.4341,-10.4137,7.12502,-18.2013,-39.5821,7.63333e-14,6.10269e-14,39.3538,-24.7773,76.3007,40.6995,-0.153676,-18.8941,28.4308,7.12502,7.40733,58.2811,-68.5881,3.22065,-2.18123,35.8262,-1.02328,2.09413,11.5609,-51.3657,18.8604,-38.5071,29.5812,-10.8067,13.4298,-17.6343
0.933003,17.3805,-0.751252,33.1323,-32.9272,10.489,39.435,-2.91441,5.03838,9.52712,-1.06318,7.77429,-8.51697,-0.798024,6.18495,-25.9815,-9.27069,-12.7987,18.4059,-10.1079,8.65752,11.3596,-4.43395,3.45795,-6.83819e-14,7.73272e-14,35.1306,10.6682,-53.9413,47.8328,38.1864,-45.8708,-10.7725,7.12502,-18.6214,-39.9012,-6.83819e-14,7.73272e-14,40.0674,-25.3874,75.7553,42.3661,0.863633,-19.2133,27.9548,7.12502,7.09926,57.8158,-68.8784,3.24088,-2.58806,36.1106,-1.31331,1.97807,11.6551,-51.4226,18.8092,-38.807,29.3333,-10.7621,13.3241,-17.4733
0.910387,17.3739,-0.74162,33.1881,-32.9692,10.8185,40.098,-2.93852,5.49067,9.59906,-0.875487,7.72961,-8.65136,-0.720166,5.84627,-26.0127,-9.45633,-12.641,17.9045,-10.394,8.67639,11.2017,-4.55107,3.3794,-4.92986e-14,5.82439e-14,35.8151,9.76097,-53.4214,47.9528,38.1487,-46.1453,-11.3726,7.12502,-18.8854,-40.4758,-4.92986e-14,5.82439e-14,40.8393,-26.0703,75.0837,44.1011,1.78366,-19.4849,27.6397,7.12502,6.83711,57.5093,-69.1537,3.09717,-2.88192,36.3832,-1.50107,2.06217,11.6301,-51.4594,18.7449,-39.166,29.073,-10.6409,13.1971,-17.4956
0.887095,17.3682,-0.728682,33.2228,-33.0477,11.1264,40.78,-2.94031,5.99609,9.68978,-0.636587,7.69694,-8.76384,-0.621723,5.47226,-26.1054,-9.69447,-12.609,17.4526,-10.7208,8.77711,11.0912,-4.68466,3.34233,3.18055e-14,-1.19271e-15,36.4244,8.73483,-52.8536,48.0352,38.208,-46.3298,-12.2478,7.12502,-19.0629,-41.3336,3.18055e-14,-1.19271e-15,41.7574,-26.8966,74.0766,46.0294,3.22153,-19.8033,27.4018,7.12502,6.52969,57.2811,-69.3949,2.97022,-3.13926,36.6458,-1.65713,2.17927,11.8973,-51.4384,18.6297,-39.4332,28.8163,-10.5425,13.1664,-17.5206
0.863255,17.3634,-0.71587,33.2604,-33.104,11.434,41.4304,-2.9584,6.50332,9.75776,-0.414622,7.6272,-8.88077,-0.530183,5.06359,-26.1807,-9.91237,-12.4752,17.0894,-11.0615,8.86295,11.0058,-4.82011,3.28248,1.74931e-14,-7.7526e-14,37.0005,7.57761,-52.635,47.8868,38.7656,-46.6519,-12.8596,7.12502,-19.3726,-41.9146,1.74931e-14,-7.7526e-14,42.4731,-27.6633,73.3215,47.9467,4.36087,-19.9604,26.8571,7.12502,6.37808,56.741,-69.6173,2.86221,-3.42246,36.8903,-1.87008,2.18276,11.7956,-51.4164,18.5299,-39.7079,28.5446,-10.4722,13.0603,-17.5051
0.839634,17.358,-0.704886,33.3422,-33.1728,11.7286,42.0893,-2.97101,7.01896,9.76713,-0.177429,7.479,-9.05584,-0.430762,4.5609,-26.1545,-10.1168,-12.1676,16.6539,-11.4567,8.95434,10.8724,-4.97307,3.19013,7.95139e-15,1.16289e-14,37.5551,6.32603,-52.5889,47.5529,39.3713,-46.9864,-13.3001,7.12502,-19.6942,-42.3225,7.95139e-15,1.16289e-14,43.0516,-28.4376,72.7553,49.6617,4.76722,-19.8733,25.8596,7.12502,6.4621,55.741,-69.8827,2.71555,-3.65828,37.1072,-2.00685,2.21959,11.9883,-51.4678,18.4495,-40.0034,28.2946,-10.3297,12.9004,-17.4163
0.814972,17.3528,-0.694065,33.4251,-33.2523,12.0717,42.6987,-3.20613,7.04506,9.81175,-0.366159,7.61191,-9.17795,-0.523899,4.79372,-26.1807,-10.0782,-12.7979,16.3089,-11.2049,9.21757,10.7782,-4.87277,3.43093,2.06736e-14,5.91384e-14,38.9299,6.2617,-52.0615,47.2588,39.6586,-47.152,-14.0284,7.12502,-19.8534,-43.0343,2.06736e-14,5.91384e-14,42.9946,-27.8588,72.5857,51.4331,5.24952,-19.2968,24.8846,7.12502,7.01865,54.7482,-70.1712,2.50268,-3.90844,37.3292,-2.12007,2.35962,12.2456,-51.5675,18.3575,-40.3611,28.0548,-10.1465,12.7064,-17.5872
0.790466,17.3473,-0.685722,33.5095,-33.3474,12.4468,43.2726,-3.27936,7.20911,9.83788,-0.321239,7.64196,-9.30957,-0.510932,4.74408,-26.0844,-10.1388,-12.951,15.7802,-11.2456,9.36893,10.5923,-4.89237,3.50213,5.56597e-14,-1.40143e-14,39.8649,5.56258,-51.7544,46.9269,40.1501,-47.1429,-14.7908,7.12502,-19.8447,-43.7977,5.56597e-14,-1.40143e-14,43.1959,-27.922,72.334,53.2188,5.88541,-18.757,24.4164,7.12502,7.53973,54.262,-70.4904,2.20369,-4.09492,37.5636,-2.19938,2.53332,12.1543,-51.713,18.2952,-40.7959,27.8248,-10.0393,12.4555,-17.6147
0.768052,17.3406,-0.67499,33.5041,-33.4428,12.9009,43.9022,-3.34012,7.54635,9.82239,-0.184247,7.6079,-9.49532,-0.458012,4.50029,-26.1275,-10.3518,-13.0331,15.3691,-11.4989,9.45883,10.4901,-5.00646,3.49517,-1.43125e-14,2.68421e-14,40.6148,4.47923,-51.6696,46.347,40.6834,-47.2275,-14.6297,7.12502,-19.9259,-43.6281,-1.43125e-14,2.68421e-14,43.383,-28.3207,72.32,54.8432,5.60346,-18.8134,23.7809,7.12502,7.48527,53.6285,-70.7513,1.74902,-4.17574,37.8151,-2.15095,2.87463,11.6629,-51.7418,18.157,-41.2516,27.5701,-9.87283,12.3012,-17.624
0.743843,17.3335,-0.66057,33.5244,-33.4879,13.2724,44.4829,-3.46191,8.00792,9.84102,-0.0900361,7.44405,-9.61136,-0.422019,4.06795,-26.3392,-10.5,-12.6351,15.0392,-11.7943,9.42492,10.412,-5.12025,3.35827,3.02153e-14,-2.17421e-14,41.5136,3.3565,-51.7854,45.3752,40.9014,-47.6995,-14.4435,7.12502,-20.3797,-43.3942,3.02153e-14,-2.17421e-14,43.6597,-28.8425,71.8451,56.4023,4.94126,-19.2644,22.9493,7.12502,7.04996,52.8119,-70.9772,1.32865,-4.18944,38.0699,-2.10695,3.26867,11.5684,-51.7242,18.0111,-41.5922,27.2907,-9.71232,12.2463,-17.7064
0.718383,17.3284,-0.64508,33.5934,-33.5195,13.5633,44.9842,-3.62868,8.36005,9.89727,-0.0958593,7.34754,-9.66175,-0.429797,3.80569,-26.402,-10.5631,-12.4523,14.5825,-11.9268,9.49455,10.2653,-5.16817,3.32797,1.17681e-13,2.15681e-14,42.7668,2.55762,-51.8837,44.159,41.0331,-48.2179,-14.6189,7.12502,-20.8778,-43.5154,1.17681e-13,2.15681e-14,43.8164,-29.0243,71.2895,57.9878,4.7782,-19.6275,22.6162,7.12502,6.69939,52.4902,-71.1945,1.15297,-4.4159,38.324,-2.25133,3.36418,12.1739,-51.6526,17.8136,-41.7961,26.9615,-9.61122,12.2961,-17.4863
0.693006,17.3218,-0.631913,33.6387,-33.6087,13.8941,45.5038,-3.62506,8.92893,9.87227,0.186,7.10947,-9.79702,-0.311663,3.15649,-26.2619,-10.7882,-12.0743,14.0964,-12.4142,9.74378,10.1183,-5.35389,3.26941,-9.06458e-14,-4.36332e-14,43.1318,1.01053,-51.9564,43.179,41.1407,-48.5304,-14.1663,7.12502,-21.178,-43.0295,-9.06458e-14,-4.36332e-14,44.3663,-29.9748,70.4679,59.4899,4.79929,-19.8758,22.2786,7.12502,6.45973,52.1601,-71.4359,1.06602,-4.77632,38.5581,-2.41793,3.40539,12.7588,-51.6064,17.6956,-42.1139,26.6063,-9.4729,12.3144,-17.574
0.667738,17.3131,-0.622583,33.6918,-33.7457,14.1659,46.0841,-3.67151,9.24543,9.89904,0.329699,7.05756,-9.89813,-0.257815,2.89908,-26.4186,-10.9267,-12.2432,13.7783,-12.5673,10.0358,10.0817,-5.40209,3.36503,-3.49861e-14,-1.18177e-13,43.7687,0.032337,-51.4935,42.4123,40.6386,-48.5172,-13.6861,7.12502,-21.1653,-42.5508,-3.49861e-14,-1.18177e-13,44.7526,-30.0728,69.0182,61.4196,5.32669,-20.0609,21.7945,7.12502,6.28107,51.6813,-71.7001,0.911521,-4.90965,38.7659,-2.40184,3.61906,12.7985,-51.5903,17.7285,-42.469,26.2293,-9.32057,12.2277,-17.771
0.643068,17.3017,-0.615204,33.7403,-33.9231,14.4819,47.5218,-3.77881,9.85426,8.90338,0.687832,6.63509,-9.98102,-0.149011,2.35338,-26.4033,-11.0789,-11.7501,13.2926,-12.9036,9.94387,9.90216,-5.55274,3.19459,6.99722e-14,1.8487e-14,44.4779,-1.3426,-51.5996,41.1051,40.6215,-48.5161,-13.8989,7.12502,-21.1643,-42.7637,6.99722e-14,1.8487e-14,44.9969,-31.0795,69.238,62.398,4.11759,-20.6062,21.5475,7.12502,5.75455,51.4494,-71.9993,0.74344,-5.09619,38.9537,-2.36621,3.77409,13.1253,-51.615,17.8346,-42.944,25.8326,-9.16761,12.0175,-17.9787
0.617937,17.2956,-0.606612,33.8368,-34.0396,14.7248,48.0437,-3.95969,9.81875,8.88891,0.561994,6.83556,-10.0917,-0.217676,2.66998,-26.3945,-11.0866,-12.5764,12.9237,-12.6431,10.1821,9.81211,-5.4589,3.45446,5.725e-14,-5.94366e-14,46.3411,-1.56785,-51.7972,39.4594,40.9155,-48.6437,-14.483,7.12502,-21.2868,-43.334,5.725e-14,-5.94366e-14,44.3773,-30.4722,69.6397,63.6525,3.2733,-21.0305,21.4977,7.12502,5.34494,51.4103,-72.2957,0.577261,-5.19104,39.1483,-2.38298,3.92968,13.4034,-51.6245,17.8484,-43.2529,25.4579,-9.02895,11.8892,-17.7556
0.594468,17.2945,-0.592556,33.8617,-34.1526,14.9713,48.5866,-3.95769,10.381,8.86044,0.866388,6.61141,-10.1611,-0.0936169,2.06789,-26.6415,-11.3358,-12.0579,12.6833,-13.1082,10.0867,9.77628,-5.65633,3.24623,9.54166e-15,-3.08116e-14,47.0007,-3.33991,-52.3178,37.934,41.375,-48.7676,-14.126,7.12502,-21.4058,-42.9635,9.54166e-15,-3.08116e-14,44.9616,-31.0045,68.0758,65.3291,3.61659,-20.8447,21.2782,7.12502,5.52432,51.1862,-72.49,0.40629,-5.27758,39.3505,-2.42862,4.16297,13.5438,-51.5578,17.779,-43.4738,25.1672,-8.94614,11.9375,-17.9133
0.571204,17.2875,-0.577481,33.8039,-34.2553,15.2444,49.1532,-4.0739,10.6897,8.7888,0.955036,6.53858,-10.301,-0.0671023,1.84284,-26.5075,-11.4001,-11.9992,12.3674,-13.1889,9.97275,9.63664,-5.71623,3.18755,-6.36111e-15,-5.84427e-14,48.0626,-4.45173,-52.8265,36.2098,41.8624,-48.6539,-13.3883,7.12502,-21.2966,-42.2381,-6.36111e-15,-5.84427e-14,44.7689,-31.3761,68.1842,66.3045,2.73678,-20.8272,20.9133,7.12502,5.54119,50.8209,-72.61,0.390901,-5.57438,39.5703,-2.52372,4.16919,13.9742,-51.4433,17.7562,-43.7113,24.9303,-8.84705,11.9057,-18.1355
0.544672,17.2753,-0.568292,33.853,-34.2864,15.3585,49.7289,-4.15639,11.0696,8.74287,1.11534,6.46107,-10.4015,-0.0108016,1.55089,-26.5464,-11.4532,-11.746,12.1098,-13.3115,9.87367,9.53869,-5.77766,3.09243,-1.08139e-13,-1.30403e-13,49.4052,-5.79387,-53.9366,34.246,42.6522,-48.1771,-12.9041,7.12502,-20.8386,-41.805,-1.08139e-13,-1.30403e-13,44.6145,-31.8159,68.3843,67.2059,2.01476,-21.0116,20.7783,7.12502,5.36311,50.6904,-72.788,0.434009,-5.70818,39.7992,-2.61586,4.14257,14.3956,-51.4147,17.8058,-43.8222,24.7398,-8.7452,11.8123,-18.1702
0.518222,17.2673,-0.560644,33.9225,-34.2971,15.5185,50.2062,-4.22187,11.4207,8.69899,1.27592,6.40899,-10.4839,0.0466845,1.29551,-26.5293,-11.5247,-11.5856,11.8042,-13.4577,9.91916,9.43661,-5.84173,3.05937,-3.18055e-15,-5.725e-14,50.6724,-7.16589,-55.0949,32.4881,43.3296,-47.6645,-12.5602,7.12502,-20.346,-41.5144,-3.18055e-15,-5.725e-14,44.4268,-32.1025,68.4148,68.1797,1.56764,-21.2571,20.663,7.12502,5.12609,50.581,-72.9978,0.345109,-5.77967,40.0453,-2.70661,4.25295,14.7176,-51.4604,17.8158,-43.9835,24.5966,-8.64759,11.6509,-18.186
0.492628,17.2626,-0.551302,33.9861,-34.2786,15.7568,50.5685,-4.35597,11.591,8.6596,1.27619,6.46946,-10.565,0.0362723,1.30875,-26.3931,-11.5162,-11.7674,11.4256,-13.3887,10.0035,9.29331,-5.8238,3.13596,3.18055e-15,8.42847e-14,52.1887,-8.13294,-56.3719,30.7941,44.0986,-47.4167,-11.9344,7.12502,-20.1078,-40.9138,3.18055e-15,8.42847e-14,43.9295,-32.0174,68.5649,69.0924,1.14367,-21.5464,20.5777,7.12502,4.84678,50.5023,-73.1773,0.292495,-6.08103,40.2832,-2.92381,4.20019,15.2188,-51.51,17.7203,-44.1638,24.4657,-8.55733,11.5055,-18.1134
0.466417,17.2578,-0.538973,34.0073,-34.2458,16.0073,50.9473,-4.49137,11.8312,8.6075,1.30432,6.45413,-10.6509,0.0390104,1.19781,-26.2582,-11.4991,-11.7186,11.0378,-13.3683,9.9807,9.12811,-5.82955,3.13246,1.90833e-14,1.19271e-14,53.625,-9.22908,-57.9467,29.1698,44.877,-47.1459,-11.3717,7.12502,-19.8475,-40.3783,1.90833e-14,1.19271e-14,43.6323,-32.081,68.4321,69.8671,0.948241,-21.7002,20.6509,7.12502,4.69829,50.5788,-73.2997,0.220312,-6.34521,40.5221,-3.07265,4.17967,15.7544,-51.4512,17.5738,-44.2813,24.2787,-8.44988,11.4158,-17.9601
0.439641,17.2545,-0.528099,33.9782,-34.1887,16.2214,51.3588,-4.56592,12.085,8.57205,1.41177,6.43619,-10.7175,0.0753917,1.04463,-26.1741,-11.5106,-11.5171,10.7195,-13.4315,9.91684,8.99115,-5.86865,3.07483,-4.13472e-14,-2.46493e-14,54.916,-10.4379,-59.5205,27.7647,45.5887,-46.6884,-11.2989,7.12502,-19.4077,-40.3504,-4.13472e-14,-2.46493e-14,43.4901,-32.2192,68.335,70.5106,1.1914,-21.7571,20.464,7.12502,4.64332,50.3931,-73.3558,0.145641,-6.49337,40.7274,-3.21246,4.18477,15.9472,-51.3424,17.4878,-44.3637,24.1221,-8.34707,11.2632,-17.9691
0.411137,17.2507,-0.522809,33.995,-34.1404,16.3598,51.8157,-4.59903,12.1303,8.54375,1.48474,6.51112,-10.8047,0.0953603,1.10098,-26.3157,-11.492,-11.3705,10.5834,-13.427,9.87888,8.9519,-5.86441,3.03816,5.08889e-14,-3.4191e-14,56.1955,-11.2245,-60.8417,26.7419,46.0208,-45.8947,-11.5257,7.12502,-18.6444,-40.6522,5.08889e-14,-3.4191e-14,43.0277,-32.0462,68.5083,71.1566,1.58871,-21.2149,19.9641,7.12502,5.16689,49.8811,-73.4221,0.228585,-6.71822,40.8846,-3.46784,4.03692,15.8686,-51.3422,17.4599,-44.4187,24.0762,-8.28381,11.1246,-18.261
0.3824,17.2408,-0.516699,34.0344,-34.0865,16.504,52.1937,-4.61661,12.1981,8.50354,1.57027,6.53919,-10.8897,0.12287,1.0862,-26.2805,-11.4742,-11.1693,10.3749,-13.4653,9.89024,8.86569,-5.87967,3.00879,-4.13472e-14,-7.7526e-14,57.0041,-11.7846,-61.5725,26.2922,45.6013,-44.9293,-12.065,7.12502,-17.7156,-41.278,-4.13472e-14,-7.7526e-14,42.5539,-32.0592,68.622,71.6724,1.79354,-20.8474,19.9581,7.12502,5.52168,49.8661,-73.564,0.29014,-6.88813,40.9993,-3.59751,3.84134,15.5882,-51.3908,17.335,-44.4188,24.1209,-8.32029,11.0851,-18.4883
0.354276,17.2193,-0.508279,34.0525,-33.9942,16.6586,52.4863,-4.65272,12.2953,8.50826,1.62671,6.54339,-10.9076,0.14266,1.04036,-26.1007,-11.4492,-10.9986,9.98904,-13.5086,10.0296,8.71015,-5.89471,3.03311,-1.90833e-14,-7.196e-14,57.4002,-12.1997,-61.915,26.4894,44.5871,-43.8318,-12.7472,7.12502,-16.6593,-42.0523,-1.90833e-14,-7.196e-14,42.1739,-32.0996,68.5781,72.0664,1.95831,-20.9651,20.315,7.12502,5.40804,50.226,-73.7417,0.270922,-6.94622,41.114,-3.59086,3.68036,15.8413,-51.3996,17.1405,-44.3534,24.2144,-8.38917,11.1454,-18.6695
0.327215,17.2019,-0.502538,34.0552,-33.9055,16.8288,52.7742,-4.67418,12.2658,8.51153,1.64538,6.60369,-10.9421,0.146236,1.12691,-25.9074,-11.354,-10.8137,9.56909,-13.4472,10.1059,8.52424,-5.86887,3.05408,-3.81667e-14,7.35503e-14,57.8155,-12.4475,-62.4415,26.8497,43.6549,-42.885,-13.7464,7.12502,-15.7476,-43.1257,-3.81667e-14,7.35503e-14,41.7359,-31.9812,68.4987,72.3308,2.1433,-21.1691,20.2608,7.12502,5.21103,50.1767,-73.9007,0.246332,-7.05312,41.301,-3.65319,3.57713,15.8736,-51.4137,17.0094,-44.3528,24.2873,-8.44956,11.1274,-18.4765
0.300222,17.1913,-0.500311,34.1573,-33.7688,16.9324,53.0105,-4.67404,12.1935,8.48926,1.6745,6.73409,-11.0083,0.151225,1.30243,-25.8208,-11.3027,-10.8223,9.36899,-13.4074,10.3239,8.45867,-5.83638,3.14098,-4.13472e-14,1.07741e-13,58.1043,-12.4418,-62.9577,27.4871,42.616,-42.6184,-14.8659,7.12502,-15.4908,-44.2653,-4.13472e-14,1.07741e-13,41.1037,-31.7462,68.6754,72.5507,2.26987,-20.8944,20.2745,7.12502,5.47628,50.1838,-74.1129,0.258708,-7.17491,41.5886,-3.83517,3.39358,15.2114,-51.5265,16.9448,-44.3951,24.2899,-8.42138,11.0364,-18.6254
0.273702,17.1919,-0.498079,34.2475,-33.519,17.0071,53.1843,-4.72536,12.2305,8.48022,1.68935,6.85436,-11.0403,0.151135,1.42418,-25.9456,-11.2921,-10.7868,9.4871,-13.4241,10.4595,8.53059,-5.82106,3.17324,2.54444e-14,-1.86858e-14,58.0118,-12.446,-63.3032,28.6523,41.8098,-42.8202,-15.097,7.12502,-15.6852,-44.4812,2.54444e-14,-1.86858e-14,40.381,-31.493,69.1237,72.6742,2.02052,-20.0894,20.637,7.12502,6.25347,50.5247,-74.198,0.27291,-7.31708,41.9595,-4.22303,3.2174,15.1855,-51.5575,16.8005,-44.33,24.2445,-8.31644,10.9554,-18.8444
0.247412,17.1946,-0.496605,34.2486,-33.3079,17.1424,53.3443,-4.79401,12.1024,8.54242,1.59522,7.02304,-11.0078,0.109944,1.71644,-26.3439,-11.2222,-10.7451,9.84361,-13.3004,10.2942,8.68432,-5.75569,3.11799,-6.99722e-14,-3.26007e-14,58.0744,-12.3526,-63.9674,30.0171,41.5399,-42.9125,-14.6792,7.12502,-15.774,-44.0565,-6.99722e-14,-3.26007e-14,39.598,-30.8971,69.6393,72.6826,1.37979,-19.1555,20.6444,7.12502,7.15502,50.5035,-74.2749,0.294874,-7.49481,42.3989,-4.62845,3.0581,14.8272,-51.4834,16.7028,-44.3436,24.1246,-8.17099,10.844,-18.9478
0.222411,17.1867,-0.49772,34.3194,-33.1269,17.2018,53.5345,-4.6849,12.2353,8.47754,1.81922,6.95436,-11.0857,0.200506,1.49332,-26.2512,-11.1855,-9.94543,9.74633,-13.4951,10.1201,8.58952,-5.83856,2.90977,-4.13472e-14,-4.69132e-14,57.5181,-12.952,-64.6834,31.6521,41.4354,-43.2442,-14.3242,7.12502,-16.0935,-43.6759,-4.13472e-14,-4.69132e-14,39.2476,-31.3067,69.5035,72.7455,1.33731,-18.8558,20.5796,7.12502,7.44434,50.4286,-74.4922,0.376423,-7.62466,42.8275,-4.90338,2.89643,14.5753,-51.4685,16.5889,-44.2788,24.0111,-8.08409,10.8332,-19.0289
0.198681,17.1919,-0.497175,34.4013,-32.8654,17.1936,53.7016,-4.74659,12.1658,8.45576,1.78126,7.14866,-11.1471,0.175647,1.7669,-26.0386,-11.068,-10.2754,9.50837,-13.2913,10.502,8.51087,-5.72938,3.1333,-3.18055e-14,1.74931e-14,57.1116,-12.4993,-64.9467,33.5968,41.5739,-43.873,-14.0934,7.12502,-16.6989,-43.3952,-3.18055e-14,1.74931e-14,38.4059,-30.9012,69.845,72.7785,1.50125,-18.8565,21.0114,7.12502,7.44364,50.8604,-74.5346,0.481472,-7.75481,43.225,-5.36935,2.65772,14.1481,-51.4819,16.4107,-44.0892,24.0482,-8.07413,10.9037,-19.2765
0.174901,17.1928,-0.496097,34.4878,-32.6008,17.1712,53.8546,-4.70954,12.3291,8.41505,1.94555,7.17009,-11.1946,0.238041,1.65695,-26.015,-11.0832,-10.0021,9.35633,-13.4314,10.7119,8.47139,-5.76819,3.14035,3.18055e-15,4.53229e-14,56.0785,-12.6659,-64.7937,35.9317,41.7818,-44.3241,-14.9843,7.12502,-17.1332,-44.2489,3.18055e-15,4.53229e-14,38.0461,-31.1259,69.7891,72.682,1.58534,-18.9947,21.2171,7.12502,7.31023,51.0708,-74.6379,0.502491,-7.68801,43.6087,-5.69181,2.4723,12.8953,-51.5809,16.3164,-43.9732,24.1987,-7.99703,10.9346,-20.0173
0.150716,17.1691,-0.496293,34.5742,-32.444,17.3064,53.8533,-4.65641,11.9306,8.42064,1.85426,7.4644,-11.2495,0.197298,2.19316,-25.7833,-10.9883,-10.5338,9.2169,-13.1732,10.9399,8.4158,-5.65543,3.35104,7.31528e-14,4.45278e-14,55.4341,-11.8661,-64.5226,38.1509,41.9862,-45.0984,-15.5524,7.12502,-17.8784,-44.7506,7.31528e-14,4.45278e-14,37.1012,-30.4233,70.2616,72.5434,1.34521,-19.0778,21.1945,7.12502,7.23002,51.051,-75.0305,0.395763,-7.56887,44.0113,-5.77791,2.29924,10.113,-51.7773,16.2493,-44.0858,24.3561,-7.96585,10.8602,-20.7364
0.128296,17.1558,-0.499616,34.6334,-32.2356,17.396,53.9234,-4.44135,12.0519,8.35377,2.17564,7.40684,-11.3218,0.329936,1.93421,-25.7786,-11.0625,-9.71819,9.07745,-13.5058,10.7605,8.33354,-5.8044,3.11138,1.27222e-14,-1.66979e-14,54.0911,-12.5598,-64.5057,40.361,42.3326,-46.2684,-15.1123,7.12502,-19.0038,-44.2039,1.27222e-14,-1.66979e-14,37.0253,-31.0483,69.967,72.3996,1.28194,-19.0578,21.5003,7.12502,7.2494,51.3561,-75.2069,0.472718,-7.79151,44.4189,-6.11433,2.05775,10.3636,-51.9124,16.0799,-44.004,24.572,-8.00943,10.8817,-20.8866
0.107872,17.1522,-0.499699,34.679,-31.9241,17.4147,53.969,-4.42905,12.0652,8.3428,2.24391,7.60214,-11.3527,0.351217,2.11848,-25.7755,-11.1038,-9.98693,8.96944,-13.4992,10.9631,8.33128,-5.79479,3.22135,-6.36111e-14,-2.46493e-14,52.937,-12.4185,-63.9927,42.7033,42.3146,-47.1536,-15.1568,7.12502,-19.855,-44.1626,-6.36111e-14,-2.46493e-14,36.449,-30.9252,70.2107,72.1751,1.01732,-19.404,21.72,7.12502,6.91513,51.587,-75.1538,0.605143,-8.16379,44.814,-6.6053,1.95455,14.345,-51.9855,15.9165,-43.8227,24.7968,-8.12077,10.8535,-20.8485
0.088435,17.1429,-0.500256,34.7457,-31.6394,17.3744,54.0327,-4.37222,12.1242,8.33466,2.37524,7.72975,-11.3737,0.399901,2.17976,-25.8815,-11.1454,-9.95983,8.87653,-13.5583,11.0172,8.3249,-5.8164,3.22254,-2.8625e-14,7.15625e-15,51.9114,-12.4569,-63.7157,44.7988,42.5541,-47.9319,-15.6246,7.12502,-20.6029,-44.5512,-2.8625e-14,7.15625e-15,35.8992,-30.9346,70.4283,71.9265,0.666911,-19.5369,21.3996,7.12502,6.78688,51.2708,-75.2153,0.688257,-8.23554,45.1809,-6.94277,1.90323,15.1604,-52.0638,15.8585,-43.6547,24.9206,-8.12298,10.7366,-20.95
0.0719934,17.1327,-0.504744,34.796,-31.5309,17.4848,54.0094,-4.27851,11.8064,8.39093,2.34289,7.94005,-11.3574,0.388793,2.55922,-25.935,-11.1321,-10.3911,8.7072,-13.4125,11.2115,8.30527,-5.74854,3.37814,-1.27222e-14,1.66979e-14,51.2442,-12.0299,-63.4165,46.6816,42.8612,-49.0969,-16.5446,7.12502,-21.7221,-45.3459,-1.27222e-14,1.66979e-14,35.1024,-30.2688,70.9568,71.6142,-0.0283085,-19.2559,20.782,7.12502,7.05812,50.6443,-75.414,0.689401,-8.36748,45.496,-7.16868,1.81761,13.0932,-52.2413,15.8567,-43.7573,25.0435,-8.17063,10.5757,-20.8568
0.0582034,17.1291,-0.505863,34.8767,-31.3436,17.4755,54.0493,-4.17998,11.8483,8.39387,2.49461,8.00528,-11.3621,0.449443,2.54634,-26.1466,-11.2267,-10.3835,8.58353,-13.5367,11.3341,8.319,-5.79258,3.39056,8.90555e-14,-1.27222e-14,50.2681,-11.9952,-62.8266,48.6214,42.3717,-50.082,-19.4505,7.12502,-22.6678,-48.1393,8.90555e-14,-1.27222e-14,34.7575,-30.1598,71.0498,71.3658,-0.5479,-18.8248,20.761,7.12502,7.4743,50.6089,-75.5061,0.621069,-8.28763,45.7554,-7.29844,1.84496,12.4685,-52.3683,15.795,-43.6795,25.2111,-8.24493,10.5099,-20.7672
0.0443626,17.119,-0.507106,34.9785,-31.1573,17.409,54.0887,-4.04606,11.7975,8.37687,2.65888,8.17842,-11.4102,0.511164,2.68769,-26.2111,-11.3319,-10.6127,8.42599,-13.6037,11.4416,8.30629,-5.82576,3.44804,9.22361e-14,6.67916e-14,49.9259,-12.4264,-63.0103,49.204,43.4273,-51.7897,-17.2759,7.12502,-24.3059,-45.7549,9.22361e-14,6.67916e-14,34.3415,-30.1219,71.2279,71.1962,-0.173605,-19.3322,21.6354,7.12502,6.9845,51.5002,-75.6178,0.584352,-8.14021,45.9804,-7.40048,1.77679,12.4779,-52.4932,15.7441,-43.5329,25.3504,-8.24701,10.4592,-20.7094
0.0350596,17.1055,-0.51006,35.026,-31.0398,17.4693,54.0422,-3.87672,11.7081,8.3756,2.81759,8.28933,-11.4315,0.576894,2.77219,-26.2824,-11.4222,-10.6594,8.29494,-13.6926,11.4281,8.28298,-5.87373,3.4333,3.49861e-14,2.78299e-14,49.5598,-12.4035,-62.5387,49.6686,43.4577,-53.2341,-21.184,7.12502,-25.69,-49.4704,3.49861e-14,2.78299e-14,34.0274,-30.2254,71.4379,70.8847,-0.131597,-20.1328,22.3314,7.12502,6.21165,52.2203,-75.7497,0.468218,-8.10801,46.1597,-7.4359,1.76876,12.776,-52.5894,15.6311,-43.4988,25.4634,-8.28522,10.4776,-20.8669
0.0314345,17.1067,-0.507132,35.009,-30.8493,17.4761,53.9887,-3.90353,11.5897,8.43263,2.75167,8.52363,-11.3925,0.547205,3.11088,-26.4177,-11.4267,-11.2185,8.28295,-13.5175,11.5558,8.32749,-5.79407,3.5876,-4.77083e-14,-2.8625e-14,49.9054,-12.3421,-62.6483,49.2589,44.1949,-54.6998,-20.4798,7.12502,-27.093,-48.5558,-4.77083e-14,-2.8625e-14,33.3105,-29.5249,72.1378,70.428,-1.32987,-19.7315,22.2142,7.12502,6.59902,52.0914,-75.6881,0.270973,-7.90217,46.2529,-7.39465,1.92502,12.8729,-52.5379,15.4519,-43.332,25.5676,-8.34881,10.5572,-20.8005
0.0301876,17.1132,-0.502578,34.9631,-30.6678,17.3415,54.0913,-3.94323,11.6235,8.51115,2.74971,8.66161,-11.3198,0.541451,3.25707,-26.75,-11.4231,-11.5628,8.12046,-13.3853,11.7688,8.34826,-5.717,3.72753,-9.54166e-15,7.23576e-14,50.4508,-12.5467,-62.8534,48.3853,44.952,-55.6753,-20.5291,7.12502,-28.0259,-48.4562,-9.54166e-15,7.23576e-14,32.8459,-28.9509,72.4894,70.0254,-1.8357,-19.5627,22.1181,7.12502,6.76193,51.9901,-75.5099,0.21132,-7.61106,46.2638,-7.39007,2.05911,12.7202,-52.4095,15.3729,-43.0482,25.6474,-8.3901,10.6372,-20.6434
0.0285823,17.1152,-0.504258,34.9856,-30.4921,17.1793,54.2236,-3.79938,11.8817,8.37643,3.06941,8.54609,-11.4594,0.665904,2.8814,-26.2932,-11.3727,-10.9544,7.34044,-13.5041,11.7379,7.98626,-5.79712,3.62498,-6.36111e-14,-1.76521e-13,50.4169,-13.5638,-63.1786,47.1906,45.6613,-55.7985,-21.116,7.12502,-28.1436,-49.0238,-6.36111e-14,-1.76521e-13,32.6793,-29.5132,72.2529,69.6948,-1.3419,-20.4186,22.6775,7.12502,5.93572,52.5744,-75.4053,0.202492,-7.36385,46.2186,-7.3619,2.0336,12.9602,-52.3961,15.3625,-42.813,25.7108,-8.36803,10.6351,-20.4469
0.0296109,17.1124,-0.512372,35.0698,-30.3846,17.0329,54.2356,-3.68396,11.7755,8.36068,3.16604,8.64828,-11.5047,0.70283,2.99596,-26.0931,-11.2887,-11.0826,6.85735,-13.341,11.8031,7.78886,-5.74029,3.70606,1.27222e-14,9.54166e-14,51.0919,-14.0248,-63.7135,45.5396,46.3377,-55.0114,-19.5888,7.12502,-27.3911,-47.618,1.27222e-14,9.54166e-14,32.2831,-29.1853,72.4639,69.1564,-1.25569,-20.943,23.301,7.12502,5.42939,53.2115,-75.4211,0.200307,-7.19325,46.1558,-7.26056,1.95844,14.6588,-52.5101,15.3232,-42.6162,25.8006,-8.34161,10.6864,-20.4137
0.0331457,17.1107,-0.520386,35.0983,-30.3113,16.9116,54.2293,-3.52003,11.6875,8.35776,3.3205,8.75037,-11.5335,0.76438,3.07445,-25.9807,-11.2461,-11.2061,6.60134,-13.2349,11.8084,7.68197,-5.7047,3.75119,5.08889e-14,1.28017e-13,51.7488,-14.6937,-64.2585,43.713,46.642,-53.5307,-17.7727,7.12502,-25.974,-46.0177,5.08889e-14,1.28017e-13,31.8848,-28.9289,72.8842,68.5411,-1.45007,-20.1982,23.0344,7.12502,6.14846,52.9252,-75.3737,0.188041,-7.03847,46.0961,-7.15657,2.03504,16.2179,-52.5563,15.3033,-42.4526,25.8789,-8.33201,10.7598,-20.3433
0.0398436,17.1102,-0.524961,35.1045,-30.2396,16.9015,54.1866,-3.3831,11.7496,8.26641,3.50874,8.69548,-11.6287,0.840902,2.89774,-25.9118,-11.226,-11.072,6.51244,-13.2533,11.8335,7.63827,-5.71116,3.73926,-6.36111e-15,-7.15625e-15,52.3603,-15.5851,-64.9614,41.6176,46.483,-51.7592,-16.8319,7.12502,-24.2767,-45.3149,-6.36111e-15,-7.15625e-15,31.5372,-29.1462,73.0326,68.0728,-1.26051,-19.1616,22.1464,7.12502,7.14918,52.0057,-75.3377,0.0119005,-6.85289,46.0304,-6.99769,2.20372,16.4672,-52.5972,15.2891,-42.4667,25.8987,-8.31453,10.7835,-20.5133
0.0481739,17.1159,-0.526515,35.0835,-30.0879,16.9368,54.0875,-3.3609,11.761,8.23527,3.54233,8.74274,-11.6597,0.854866,2.925,-26.0386,-11.2358,-11.3391,6.57355,-13.1945,11.9993,7.7028,-5.66802,3.84072,3.18055e-14,-6.20208e-14,53.4839,-16.088,-65.7197,39.1403,46.0162,-49.7371,-17.0046,7.12502,-22.3368,-45.7335,3.18055e-14,-6.20208e-14,31.1338,-28.9949,73.3428,67.5946,-0.973386,-18.026,21.4014,7.12502,8.24521,51.2205,-75.2406,-0.231383,-6.66628,45.9378,-6.85329,2.31126,15.9122,-52.5528,15.1839,-42.461,25.8546,-8.26388,10.7655,-20.792
0.0566903,17.1249,-0.529503,35.0499,-29.9029,16.9577,53.9631,-3.36762,11.7204,8.25467,3.51644,8.86452,-11.6414,0.845282,3.08314,-26.3527,-11.2203,-11.6146,6.65114,-13.053,11.9803,7.7737,-5.59741,3.89191,-9.54166e-15,5.1684e-14,54.6066,-16.3567,-66.1439,36.6971,44.9333,-47.6306,-17.5991,7.12502,-20.3134,-46.5568,-9.54166e-15,5.1684e-14,30.6907,-28.5845,73.746,67.1469,-0.770259,-17.5605,21.5272,7.12502,8.69443,51.3282,-75.0637,-0.420448,-6.5544,45.8064,-6.76596,2.40295,15.8155,-52.4593,15.0605,-42.4152,25.7768,-8.21629,10.7375,-20.8144
0.0666353,17.1277,-0.535664,35.0159,-29.8003,16.9981,53.8915,-3.21611,11.794,8.16851,3.7277,8.83626,-11.7292,0.931352,2.91875,-26.4612,-11.2349,-11.336,6.57185,-13.1122,11.7431,7.73041,-5.63887,3.75838,-6.99722e-14,-7.71285e-14,55.2904,-17.2757,-66.5348,34.2231,43.4652,-45.9457,-17.4393,7.12502,-18.6935,-46.5611,-6.99722e-14,-7.71285e-14,30.3981,-28.7594,73.9468,66.7472,-0.484736,-18.1426,22.0434,7.12502,8.13271,51.8669,-74.9265,-0.534401,-6.53774,45.643,-6.78983,2.3968,15.3588,-52.4067,14.9774,-42.4296,25.6847,-8.18377,10.6795,-20.76
0.079786,17.1324,-0.542577,34.9856,-29.6935,16.9034,53.8582,-3.14507,11.6822,8.12033,3.77918,8.97605,-11.8134,0.948481,3.09694,-26.3193,-11.1565,-11.6813,6.45553,-12.8963,11.7468,7.66688,-5.55276,3.855,6.36111e-14,4.92986e-14,56.2713,-17.5441,-67.0372,31.5535,41.8718,-44.7735,-17.1855,7.12502,-17.5657,-46.412,6.36111e-14,4.92986e-14,29.6943,-28.2861,74.4072,66.4377,-0.353385,-18.8908,22.1533,7.12502,7.41054,52.0035,-74.7839,-0.591498,-6.35472,45.4717,-6.7832,2.37407,14.7745,-52.3252,14.9434,-42.3076,25.5884,-8.06874,10.6767,-20.8985
0.0928751,17.1407,-0.550434,34.9835,-29.5348,16.7804,53.8361,-2.98647,12.0521,7.96339,4.13423,8.73758,-11.9304,1.0893,2.51001,-26.3352,-11.2003,-10.9461,6.38181,-13.1636,11.566,7.61364,-5.67723,3.63805,-2.54444e-14,-1.11319e-14,56.7374,-19.0642,-67.8426,28.9685,40.8315,-43.9123,-17.0039,7.12502,-16.7367,-46.3024,-2.54444e-14,-1.11319e-14,29.6221,-29.1063,74.1319,66.1244,-0.0615675,-19.2054,22.2952,7.12502,7.1069,52.1559,-74.6264,-0.644671,-6.175,45.2955,-6.71576,2.33086,14.7086,-52.2706,14.9529,-42.2051,25.4949,-7.92084,10.6021,-21.2329
0.106089,17.1471,-0.558215,34.9702,-29.3718,16.8121,53.6856,-2.8939,12.3284,7.8665,4.34775,8.55187,-11.9734,1.17796,2.08017,-26.6318,-11.2198,-10.4342,6.37085,-13.2963,11.339,7.61511,-5.73791,3.45545,3.49861e-14,-1.31993e-13,57.4268,-20.4172,-68.7456,26.4561,40.5173,-43.2035,-16.1171,7.12502,-16.0543,-45.472,3.49861e-14,-1.31993e-13,29.5487,-29.6941,73.8894,65.8494,-0.00244537,-19.3753,22.701,7.12502,6.94288,52.5671,-74.5028,-0.795239,-6.14875,45.1161,-6.60298,2.2868,15.0162,-52.2605,14.9362,-42.2978,25.3857,-7.80548,10.3889,-21.6904
0.120338,17.1575,-0.565903,34.9083,-29.1872,16.8103,53.4458,-2.97995,12.1403,7.92637,4.14441,8.75077,-11.9211,1.10049,2.4617,-26.7984,-11.0801,-11.11,6.33453,-12.8684,11.3899,7.62649,-5.54314,3.64472,1.90833e-14,-1.72545e-13,58.7549,-20.3739,-69.8006,23.9659,40.8401,-42.6399,-15.0424,7.12502,-15.5116,-44.4402,1.90833e-14,-1.72545e-13,28.7404,-28.9318,74.2897,65.6256,-0.385699,-19.7143,22.7981,7.12502,6.61565,52.6748,-74.3047,-0.891662,-6.10215,44.9354,-6.56913,2.19195,14.8747,-52.1495,14.8773,-42.2504,25.2735,-7.77136,10.2145,-21.5787
0.132989,17.1688,-0.572354,34.8394,-29.0246,16.7494,53.2188,-2.94706,11.9056,8.03672,4.04223,8.94697,-11.8172,1.06773,2.81237,-27.1483,-11.0076,-11.6407,6.34138,-12.5778,11.5546,7.69305,-5.39175,3.82212,-5.725e-14,5.725e-14,60.1263,-20.5442,-71.1927,21.7129,41.7659,-41.9601,-14.004,7.12502,-14.8567,-43.4513,-5.725e-14,5.725e-14,28.0623,-28.3035,74.6708,65.4733,-0.700077,-19.9082,23.1248,7.12502,6.42843,53.0073,-74.082,-0.898071,-6.04995,44.7583,-6.58253,2.07985,14.6853,-52.0161,14.9232,-42.1716,25.1729,-7.83321,9.96509,-21.0179
0.146977,17.1761,-0.580218,34.8268,-28.8325,16.6857,53.0474,-2.82132,12.1059,7.82305,4.26579,8.71975,-12,1.15805,2.36295,-26.9624,-10.9022,-10.8957,6.24448,-12.6635,11.3258,7.58017,-5.44026,3.62479,5.725e-14,1.03368e-13,60.3126,-21.8494,-72.4592,20.0433,42.9423,-41.3208,-13.0982,7.12502,-14.2408,-42.59,5.725e-14,1.03368e-13,27.5241,-28.9902,74.5676,65.3778,-0.702467,-19.8943,23.268,7.12502,6.4419,53.15,-73.9112,-0.941171,-5.98584,44.5896,-6.58618,1.97384,14.1729,-51.9467,14.9551,-42.1325,25.0916,-7.87472,9.72341,-20.8167
0.16343,17.1835,-0.589287,34.8588,-28.5482,16.5239,52.8913,-2.85325,12.1698,7.65166,4.27792,8.735,-12.1761,1.15598,2.34131,-26.8184,-10.6969,-10.8129,6.18351,-12.3999,11.1869,7.49415,-5.3295,3.61689,-5.725e-14,4.57205e-14,59.8339,-21.9246,-72.2343,19.2433,43.006,-40.7506,-12.9313,7.12502,-13.6913,-42.4609,-5.725e-14,4.57205e-14,26.6355,-28.86,74.8457,65.2746,-0.758083,-19.8134,23.1806,7.12502,6.51994,53.0602,-73.7275,-0.941804,-5.87521,44.4309,-6.60486,1.7724,14.0758,-51.8727,14.9021,-41.9277,25.0062,-7.85715,9.59008,-20.7874
0.177879,17.1907,-0.598133,34.8597,-28.2739,16.4026,52.5724,-2.85578,12.0807,7.67166,4.20248,8.85931,-12.139,1.132,2.53504,-27.1219,-10.5538,-11.0498,6.28312,-12.1083,11.2401,7.55868,-5.17786,3.713,-6.67916e-14,-9.85972e-14,59.1519,-21.4999,-71.3512,19.1202,42.3456,-39.9296,-13.2063,7.12502,-12.8999,-42.7876,-6.67916e-14,-9.85972e-14,25.9305,-28.52,75.0028,65.1931,-0.682265,-19.7546,23.1517,7.12502,6.57671,53.0296,-73.5113,-0.881896,-5.89317,44.2599,-6.68029,1.52628,14.3252,-51.8426,14.9269,-41.8138,24.9527,-7.77959,9.33484,-20.7576
0.191712,17.2005,-0.606049,34.8156,-28.0007,16.2903,52.1444,-2.73757,12.0165,7.74085,4.24448,8.94896,-12.0245,1.16253,2.61794,-27.2744,-10.4463,-10.9194,6.21812,-11.9621,11.0776,7.52208,-5.11618,3.66166,-3.18055e-15,1.90833e-14,58.6787,-21.6058,-71.3057,19.2036,42.1222,-39.0602,-13.5214,7.12502,-12.0617,-43.1537,-3.18055e-15,1.90833e-14,25.4676,-28.5827,74.9577,65.1067,-0.496763,-19.6264,22.9474,7.12502,6.70048,52.8214,-73.2202,-0.782923,-5.93483,44.0296,-6.7337,1.24161,14.2643,-51.7942,14.9957,-41.708,24.9373,-7.75646,9.09871,-20.671
0.204878,17.2001,-0.615465,34.7842,-27.6933,16.1036,51.7781,-2.53881,12.0087,7.77308,4.41924,9.01717,-11.9527,1.24434,2.59552,-27.5002,-10.3478,-10.4848,6.13051,-11.9069,10.7908,7.47139,-5.10025,3.50571,1.27222e-14,7.4743e-14,58.2809,-22.1138,-71.8333,19.4693,41.7508,-38.9658,-13.4919,7.12502,-11.9707,-43.1296,1.27222e-14,7.4743e-14,25.1479,-28.8626,74.894,64.9225,-0.417373,-19.4556,22.5837,7.12502,6.86536,52.4524,-72.964,-0.640491,-5.88545,43.7686,-6.70762,0.927619,14.5858,-51.7294,15.0382,-41.4719,24.9147,-7.72149,8.91949,-20.9392
0.221888,17.1984,-0.622473,34.7686,-27.334,15.8708,51.3087,-2.54698,11.7401,7.88465,4.24021,9.32448,-11.8273,1.18341,3.10857,-27.6066,-10.142,-11.0402,6.04894,-11.4358,10.9088,7.44932,-4.87629,3.70907,-7.31528e-14,-3.49861e-14,57.4822,-21.2119,-71.3198,20.3029,40.1989,-39.2772,-13.3514,7.12502,-12.2709,-42.9714,-7.31528e-14,-3.49861e-14,24.2531,-28.0303,75.4333,64.7127,-0.559428,-19.3964,22.3447,7.12502,6.92248,52.2115,-72.7233,-0.611241,-5.65708,43.5225,-6.61227,0.720883,15.337,-51.634,15.0444,-41.1941,24.8607,-7.61002,8.72981,-21.0808
0.242803,17.2087,-0.627444,34.7159,-27.0562,15.7505,50.7194,-2.51569,11.7174,7.94527,4.16376,9.29999,-11.6718,1.17044,3.09433,-27.6225,-9.97749,-10.8966,5.80462,-11.2278,10.7985,7.33129,-4.78774,3.68803,-6.04305e-14,-8.82604e-14,55.951,-20.7939,-70.3119,21.6115,38.0119,-39.5486,-13.3314,7.12502,-12.5326,-42.9356,-6.04305e-14,-8.82604e-14,23.6564,-28.0242,75.5353,64.5873,-0.34956,-19.3157,22.325,7.12502,7.00044,52.1892,-72.4549,-0.680225,-5.51431,43.344,-6.60362,0.577351,14.9516,-51.5296,15.0538,-41.0879,24.7819,-7.53702,8.52593,-21.0087
0.264917,17.2232,-0.632975,34.6172,-26.8442,15.6921,50.1555,-2.41558,11.6219,7.96021,4.14157,9.26076,-11.5787,1.1797,3.07205,-27.5985,-9.80704,-10.6326,5.63157,-11.0429,10.5539,7.21804,-4.71891,3.59966,-8.5875e-14,-3.22031e-14,54.4475,-20.3558,-69.3786,22.9548,35.9864,-39.9262,-13.594,7.12502,-12.8967,-43.1755,-8.5875e-14,-3.22031e-14,22.9951,-28.2079,75.6396,64.5365,-0.0148447,-19.2141,22.3205,7.12502,7.0985,52.1814,-72.1943,-0.784057,-5.38363,43.26,-6.62252,0.48511,13.2236,-51.3603,15.1245,-41.0967,24.622,-7.53052,8.31817,-21.524
0.285449,17.2392,-0.641364,34.5241,-26.6009,15.5164,49.728,-2.31321,11.5459,7.96128,4.15564,9.22678,-11.5186,1.19918,3.03876,-27.8111,-9.64444,-10.3446,5.63922,-10.8793,10.4056,7.20894,-4.63898,3.52962,-5.725e-14,-1.55052e-14,52.9923,-19.8573,-68.5593,24.4243,34.2716,-40.2985,-14.1749,7.12502,-13.2555,-43.7334,-5.725e-14,-1.55052e-14,22.3547,-28.4302,75.5753,64.5454,0.272783,-19.3916,22.449,7.12502,6.92709,52.3157,-71.9336,-0.783661,-5.16089,43.2319,-6.70041,0.34944,11.2406,-51.0985,15.1506,-40.8928,24.3874,-7.43381,8.20416,-22.0874
0.308109,17.2597,-0.651298,34.4795,-26.3185,15.2642,49.2684,-2.2964,11.5938,7.95821,4.1173,9.13651,-11.4324,1.19551,2.91299,-27.9707,-9.4777,-10.1626,5.55608,-10.6972,10.4245,7.17885,-4.5406,3.53655,3.81667e-14,1.70955e-14,51.5447,-19.4613,-68.1297,26.0697,33.2118,-40.6213,-14.3884,7.12502,-13.5667,-43.9264,3.81667e-14,1.70955e-14,21.7085,-28.5124,75.5544,64.4494,0.341222,-19.3943,22.4389,7.12502,6.92457,52.3057,-71.6539,-0.788848,-4.86706,43.1653,-6.76312,0.234581,9.63535,-50.8622,15.0138,-40.4834,24.2115,-7.32337,8.25819,-22.2426
0.332025,17.2726,-0.658876,34.4043,-26.0353,15.149,48.6721,-2.36687,11.6876,7.96379,3.95885,8.91752,-11.2891,1.14819,2.67303,-27.9738,-9.28624,-9.92784,5.29711,-10.5098,10.4827,7.06807,-4.4434,3.55382,3.81667e-14,2.16675e-14,49.9785,-19.1863,-67.9053,27.8976,32.579,-40.8315,-14.2036,7.12502,-13.7692,-43.728,3.81667e-14,2.16675e-14,21.0764,-28.4902,75.4942,64.4177,0.315683,-18.897,22.5008,7.12502,7.40456,52.3513,-71.343,-0.840386,-4.80597,43.0151,-6.74489,0.156069,10.2153,-50.6404,14.6952,-40.1109,24.132,-7.30863,8.41404,-21.9542
0.35681,17.2762,-0.664775,34.3138,-25.812,15.07,48.0349,-2.36235,11.5501,7.93337,3.81106,8.90028,-11.2288,1.10296,2.74999,-27.7298,-9.14296,-10.1993,5.04508,-10.2391,10.5795,6.94261,-4.32168,3.67899,8.5875e-14,7.0171e-14,48.1085,-18.3887,-66.9579,29.9422,31.866,-41.0083,-14.3449,7.12502,-13.9396,-43.8576,8.5875e-14,7.0171e-14,20.1339,-28.297,75.7964,64.497,0.321613,-18.4045,22.7678,7.12502,7.87991,52.6009,-71.0488,-0.833743,-4.89399,42.7879,-6.69813,0.121075,13.159,-50.4866,14.4334,-39.8309,24.135,-7.34957,8.56522,-21.7435
0.381966,17.2816,-0.67338,34.248,-25.578,14.9301,47.5004,-1.77523,11.4855,7.81391,4.41775,8.97145,-11.2993,1.36868,2.56127,-27.8609,-9.20452,-9.19677,4.89238,-10.5363,9.7746,6.83085,-4.51654,3.20912,-4.45278e-14,4.92986e-14,45.5374,-18.947,-65.4582,32.095,31.517,-41.192,-14.6678,7.12502,-14.1167,-44.1683,-4.45278e-14,4.92986e-14,19.8227,-29.6337,76.1517,64.3859,0.462333,-18.208,22.8458,7.12502,8.06955,52.6717,-70.7826,-0.879966,-4.77764,42.5349,-6.65598,0.0268978,14.2289,-50.3962,14.2755,-39.5714,24.1995,-7.39523,8.58667,-21.8592
0.409785,17.2909,-0.684125,34.2067,-25.2787,14.7037,46.1342,-1.44252,10.7061,8.77017,4.25223,9.57407,-11.3448,1.36611,3.17673,-28.0819,-8.89506,-9.13914,4.71545,-10.0598,9.39622,6.72958,-4.31804,3.14887,3.18055e-15,2.98177e-14,44.0197,-17.788,-64.5734,33.9815,31.4676,-41.5244,-15.0436,7.12502,-14.4369,-44.5214,3.18055e-15,2.98177e-14,18.8149,-29.0606,76.7044,64.3039,0.376662,-18.4273,22.6614,7.12502,7.85796,52.4953,-70.4867,-0.995229,-4.45808,42.2888,-6.55955,-0.0272109,13.9692,-50.2622,13.9374,-39.0732,24.3013,-7.43003,8.78913,-21.8787
0.43849,17.2998,-0.693749,34.1222,-25.0416,14.5529,45.5981,-1.70083,11.0151,8.66355,3.92031,8.84549,-11.205,1.24133,2.36724,-28.2057,-8.4935,-7.93661,4.38087,-9.89615,9.31907,6.56494,-4.22204,2.96758,-5.40694e-14,-1.40491e-13,42.4713,-17.5955,-65.2379,35.6843,31.8339,-41.7757,-15.2893,7.12502,-14.679,-44.7497,-5.40694e-14,-1.40491e-13,18.2801,-29.4389,75.6411,64.4544,0.569949,-18.4372,22.6904,7.12502,7.84834,52.5247,-70.1933,-1.12554,-4.24753,42.0728,-6.43716,-0.03465,14.408,-50.0786,13.4441,-38.5431,24.3675,-7.43594,9.19887,-21.8993
0.466573,17.3083,-0.702289,33.9714,-24.8053,14.4174,45.2015,-1.38118,10.7144,8.43221,4.19327,9.11874,-11.4325,1.35928,2.68119,-27.7851,-8.51624,-8.38456,4.081,-9.76635,9.1945,6.40633,-4.19652,3.02622,5.08889e-14,-2.19906e-14,40.5525,-16.9552,-63.9583,37.4125,31.7178,-41.9689,-15.5547,7.12502,-14.8652,-45.0014,5.08889e-14,-2.19906e-14,17.0986,-29.6988,76.673,64.53,0.48656,-18.2898,22.8718,7.12502,7.99062,52.7008,-69.8217,-1.22887,-4.06162,41.8645,-6.36933,0.00618724,14.7833,-49.8302,12.9376,-37.9921,24.4258,-7.42581,9.62662,-21.7328
0.496449,17.3216,-0.70665,33.8323,-24.3939,14.0788,44.6126,-1.36283,10.8315,8.38039,4.20977,9.24372,-11.3291,1.37403,2.74539,-27.4083,-8.43188,-8.75439,3.62158,-9.52948,9.19532,6.19799,-4.10693,3.13129,1.04958e-13,1.31595e-13,38.8464,-16.2994,-63.0523,39.1793,31.5346,-42.2717,-15.7433,7.12502,-15.1569,-45.1683,1.04958e-13,1.31595e-13,16.1008,-29.6264,77.3651,64.5912,0.338182,-18.3714,23.0086,7.12502,7.91191,52.8405,-69.3212,-1.34928,-3.55412,41.6292,-6.3116,0.0916729,14.4273,-49.5009,12.3306,-37.1136,24.5169,-7.37034,10.1282,-21.4919
0.526561,17.3343,-0.712692,33.7204,-24.0469,13.7271,44.1313,-1.20348,10.6548,8.31061,4.30453,9.49245,-11.3231,1.42408,3.05452,-27.4713,-8.22648,-8.76197,3.41191,-9.18819,8.81772,6.08363,-3.97557,3.0609,2.54444e-14,1.35174e-14,37.0717,-15.4449,-61.4798,40.9492,30.6555,-42.4741,-15.6549,7.12502,-15.3519,-45.065,2.54444e-14,1.35174e-14,15.1127,-29.4258,78.081,64.6044,0.0999523,-18.2837,22.932,7.12502,7.99649,52.7607,-68.8849,-1.39303,-3.11249,41.3774,-6.29134,0.0603907,13.8729,-49.2281,11.6593,-36.1964,24.6602,-7.36904,10.7537,-21.139
0.553907,17.3418,-0.722345,33.6169,-23.8019,13.5228,43.6362,-0.945055,10.3408,8.19497,4.45132,9.62827,-11.3685,1.50152,3.28357,-27.7033,-8.07474,-8.82575,3.40978,-8.90942,8.55843,6.07723,-3.85626,3.02293,-1.27222e-14,-3.77691e-15,35.1827,-14.7634,-60.0807,42.8097,29.8895,-42.749,-15.2016,7.12502,-15.6166,-44.5912,-1.27222e-14,-3.77691e-15,14.2503,-29.5171,78.6126,64.5977,0.00672632,-18.0208,22.7051,7.12502,8.2503,52.524,-68.5291,-1.38087,-2.95801,41.0956,-6.26062,-0.0703754,14.2564,-49.0728,11.0898,-35.5704,24.8449,-7.38652,11.3205,-20.9531
0.583731,17.349,-0.73423,33.4974,-23.5317,13.3472,42.9328,-1.05722,10.5051,8.21615,4.22008,9.19113,-11.0607,1.42397,2.81738,-27.9745,-7.76324,-8.53946,3.09649,-8.54808,8.55736,5.97166,-3.67196,3.03109,2.8625e-14,-2.98177e-14,34.0871,-14.7434,-61.2518,44.2955,30.7733,-43.349,-13.9879,7.12502,-16.1944,-43.3315,2.8625e-14,-2.98177e-14,13.7622,-29.6839,78.0983,64.7145,0.229378,-17.9637,22.4252,7.12502,8.30537,52.2419,-68.1749,-1.42778,-2.77305,40.8062,-6.17927,-0.159975,14.124,-48.9599,10.6006,-35.0633,25.0492,-7.4281,11.7355,-20.6578
0.6142,17.3612,-0.741094,33.3811,-23.1956,12.9851,42.4058,-0.575944,9.94721,8.19994,4.58678,9.82789,-11.0648,1.60036,3.62126,-28.1696,-7.72387,-9.10176,2.99003,-8.22359,8.07184,5.92591,-3.56226,3.00288,9.22361e-14,4.01545e-14,32.9226,-14.3109,-60.8357,45.623,31.3067,-44.0341,-12.8061,7.12502,-16.8541,-42.0946,9.22361e-14,4.01545e-14,12.7474,-29.4243,79.4657,64.7729,0.0382037,-18.0157,22.3865,7.12502,8.25521,52.2052,-67.7459,-1.38134,-2.40425,40.5347,-6.15455,-0.293333,13.5137,-48.7727,10.1483,-34.3479,25.2402,-7.52066,12.1544,-20.2765
0.647209,17.3746,-0.742088,33.2345,-22.8145,12.7381,41.4886,-0.903764,10.3441,8.29134,4.14071,9.32865,-10.562,1.43177,3.06518,-28.5133,-7.49086,-8.79718,2.93423,-8.01867,8.4003,5.94765,-3.41902,3.09038,2.8625e-14,6.91771e-14,31.7988,-13.9975,-61.5792,47.0513,31.3758,-44.5105,-12.5688,7.12502,-17.3125,-41.8177,2.8625e-14,6.91771e-14,12.2126,-29.3078,78.8254,64.9361,0.108225,-18.263,22.4056,7.12502,8.0165,52.2336,-67.274,-1.47957,-2.09676,40.3014,-6.16372,-0.377336,13.2256,-48.5633,9.66692,-33.7814,25.4162,-7.60635,12.497,-19.8686
0.683179,17.3857,-0.744975,33.0452,-22.3903,12.7026,40.6793,-0.520667,9.712,8.21018,4.33905,9.9143,-10.5391,1.54393,3.92534,-28.7375,-7.44221,-9.34165,3.13125,-7.69193,7.92072,6.00514,-3.30221,3.0581,1.20861e-13,6.16232e-14,30.3181,-13.369,-60.4211,48.4553,31.2021,-44.7285,-12.7409,7.12502,-17.5224,-41.9712,1.20861e-13,6.16232e-14,11.0966,-29.2533,80.0997,65.0739,0.107377,-18.1772,22.5213,7.12502,8.09933,52.3461,-66.8029,-1.80043,-1.90667,40.1,-6.14446,-0.392613,12.8067,-48.3845,9.12835,-33.4719,25.5813,-7.64367,12.7603,-19.6491
