JuanDHNZ/ProyectoFinalCD/preprocessing/sports_trials_csv/14_16.csv
root1,root2,root3,root4,root5,root6,lowerback1,lowerback2,lowerback3,upperback1,upperback2,upperback3,thorax1,thorax2,thorax3,lowerneck1,lowerneck2,lowerneck3,upperneck1,upperneck2,upperneck3,head1,head2,head3,rclavicle1,rclavicle2,rhumerus1,rhumerus2,rhumerus3,rradius1,rwrist1,rhand1,rhand2,rfingers1,rthumb1,rthumb2,lclavicle1,lclavicle2,lhumerus1,lhumerus2,lhumerus3,lradius1,lwrist1,lhand1,lhand2,lfingers1,lthumb1,lthumb2,rfemur1,rfemur2,rfemur3,rtibia1,rfoot1,rfoot2,rtoes1,lfemur1,lfemur2,lfemur3,ltibia1,lfoot1,lfoot2,ltoes1
13.7504,17.8174,0.0302353,20.0354,-5.8962,4.05197,13.9269,3.14177,1.97711,5.61243,4.57712,7.10269,-2.30121,2.21724,5.64308,-9.58483,-11.4967,-9.04038,26.8385,-17.1074,9.76252,12.0664,-7.46374,2.69794,2.8625e-14,-4.45278e-14,-3.09237,-3.55886,-72.7817,26.3553,52.7095,-39.1723,-5.7828,7.12502,-12.1698,-35.4088,2.8625e-14,-4.45278e-14,-13.155,-20.1744,88.7529,99.9312,57.232,0.424157,22.473,7.12502,25.9966,50.7147,-28.6278,-25.599,16.7904,37.6408,-29.8682,-18.7837,-4.47084,-34.4277,-3.10611,-27.4101,23.018,-4.63133,-15.341,2.23922
13.7477,17.8154,0.0333687,19.9772,-5.87789,4.14351,14.0217,3.23618,1.96129,5.59382,4.70622,7.10518,-2.38463,2.28147,5.62805,-9.54976,-11.6021,-8.98958,26.8502,-17.2362,9.65045,12.0614,-7.52726,2.62944,-6.83819e-14,-1.145e-13,-2.79607,-3.23451,-73.2084,26.6175,52.7139,-39.2189,-5.72259,7.12502,-12.2148,-35.3459,-6.83819e-14,-1.145e-13,-13.9347,-19.8829,88.7553,101.06,56.4145,0.556756,21.2734,7.12502,26.1235,49.4965,-28.5097,-25.5642,16.6564,37.6233,-29.9777,-18.7622,-4.62901,-34.3735,-3.28927,-27.4312,23.0561,-4.58491,-15.1902,2.56757
13.7452,17.8112,0.0356939,19.8753,-5.77068,4.26413,14.1512,3.30674,1.99609,5.58113,4.81246,7.11746,-2.47517,2.33455,5.59692,-9.57792,-11.7237,-9.00854,26.8716,-17.3907,9.59976,12.0901,-7.59883,2.58538,-4.6118e-14,-3.18055e-15,-2.45348,-2.98369,-73.6412,26.822,52.7883,-39.2511,-5.61247,7.12502,-12.2458,-35.234,-4.6118e-14,-3.18055e-15,-14.7213,-19.5829,88.7856,102.285,55.6716,0.546645,20.5557,7.12502,26.1139,48.7802,-28.3252,-25.6372,16.5121,37.5522,-30.1429,-18.8109,-4.38753,-34.2978,-3.34355,-27.5482,23.137,-4.56688,-15.2618,2.92896
13.7514,17.8067,0.0685834,19.7523,-6.41814,4.25942,13.9395,3.63326,1.91821,5.72384,5.20318,7.059,-2.2459,2.52555,5.52698,-9.77361,-11.8947,-9.10617,27.0386,-17.625,9.59658,12.234,-7.69477,2.54567,4.13472e-14,-1.90833e-14,-2.02545,-2.74475,-74.0996,26.9187,53.0708,-39.3275,-5.79586,7.12502,-12.3194,-35.4129,4.13472e-14,-1.90833e-14,-15.4385,-19.2976,88.7562,103.597,55.266,0.311333,20.4829,7.12502,25.8885,48.7404,-28.186,-25.3276,16.2591,37.5178,-30.1063,-18.5291,-3.99075,-34.0785,-3.15016,-27.645,23.1894,-4.90018,-14.8177,2.24204
13.7458,17.8002,0.0599339,19.6278,-6.02107,4.38667,14.2176,3.64398,2.05656,5.69476,5.25536,7.10445,-2.42231,2.55253,5.47265,-9.90737,-12.0522,-9.15976,27.1723,-17.8509,9.60757,12.3488,-7.78431,2.50931,-8.74653e-14,-4.45278e-14,-1.57782,-2.44615,-74.5432,27.0613,53.236,-39.3817,-5.87311,7.12502,-12.3717,-35.487,-8.74653e-14,-4.45278e-14,-16.0235,-19.0605,88.6639,104.833,54.8023,-0.0537304,20.374,7.12502,25.5389,48.6821,-27.9913,-25.4472,16.1632,37.5711,-30.4709,-18.6296,-3.71575,-34.0273,-3.20332,-27.7757,23.2526,-4.90966,-15.1908,2.17904
13.7478,17.7914,0.0691023,19.5088,-6.04875,4.53301,14.2328,3.78684,2.11781,5.74757,5.44563,7.07559,-2.38222,2.64665,5.37529,-9.66024,-12.1568,-9.1505,27.002,-17.9985,9.63893,12.2504,-7.85914,2.50927,-3.18055e-14,7.31528e-14,-1.18019,-2.2218,-75.0211,27.2217,53.171,-39.9265,-5.29232,7.12502,-12.8969,-34.8738,-3.18055e-14,7.31528e-14,-16.5868,-18.8221,88.4967,105.917,54.0465,-0.0922946,19.7918,7.12502,25.502,48.1053,-27.835,-25.486,15.9216,37.6017,-30.4252,-18.7317,-4.30709,-33.9191,-3.40649,-27.8852,23.3066,-5.23724,-15.0575,2.06134
13.7482,17.7792,0.0735959,19.5086,-5.93356,4.70359,14.1631,3.89342,2.16209,5.73852,5.58893,7.09108,-2.36355,2.71841,5.34587,-9.40859,-12.2945,-9.12418,26.7923,-18.1642,9.57791,12.1251,-7.9524,2.47069,-7.31528e-14,6.36111e-15,-0.646204,-1.84292,-75.4598,27.2964,52.988,-40.8071,-4.65374,7.12502,-13.7457,-34.1797,-7.31528e-14,6.36111e-15,-17.2521,-18.4862,88.4098,107.026,53.324,0.271919,19.5157,7.12502,25.8508,47.7788,-27.8573,-25.5316,15.7456,37.7181,-30.6191,-18.767,-3.85606,-33.94,-3.96478,-27.8851,23.3428,-5.63013,-14.6626,1.22039
13.7481,17.7788,0.0802958,19.3773,-5.81813,4.8077,14.226,3.98764,2.24956,5.79315,5.72483,7.14266,-2.3473,2.78548,5.32688,-9.37548,-12.4613,-9.15141,26.7086,-18.3736,9.53917,12.1081,-8.05335,2.42612,-1.90833e-14,3.81667e-14,0.0434149,-1.30007,-75.8837,27.3959,52.9458,-41.247,-4.30916,7.12502,-14.1696,-33.8059,-1.90833e-14,3.81667e-14,-17.9726,-18.0424,88.354,108.237,52.7594,0.536423,19.9368,7.12502,26.1041,48.1627,-27.6671,-25.4954,15.5706,37.8016,-31.0537,-18.6377,-2.90227,-33.7896,-3.89434,-28.0835,23.3906,-5.18697,-14.5554,1.68487
13.7396,17.7744,0.0632548,19.4183,-5.09947,4.97519,14.3867,3.91964,2.41132,5.66457,5.6854,7.28717,-2.56526,2.76814,5.38291,-9.19546,-12.6449,-9.29375,26.5679,-18.6109,9.5874,12.0655,-8.17583,2.43462,3.18055e-14,-1.90833e-14,0.632793,-0.829947,-76.2337,27.4987,52.9088,-41.3333,-4.21486,7.12502,-14.2528,-33.7058,3.18055e-14,-1.90833e-14,-18.7278,-17.5791,88.3221,109.49,52.1412,0.710535,20.0865,7.12502,26.2708,48.2877,-27.6228,-25.5374,15.5739,37.8956,-31.8684,-18.8804,-2.20773,-33.9232,-3.97484,-28.2701,23.4659,-4.56613,-14.9324,2.72613
13.7355,17.7651,0.0600511,19.3431,-4.66325,5.15363,14.461,3.9492,2.52049,5.60552,5.75543,7.41858,-2.67605,2.80392,5.4435,-8.82019,-12.7952,-9.44233,26.3495,-18.7813,9.57363,11.9391,-8.28748,2.44747,4.77083e-15,5.725e-14,1.07833,-0.455421,-76.519,27.6895,52.898,-41.3322,-3.71502,7.12502,-14.2517,-33.206,4.77083e-15,5.725e-14,-19.342,-17.1319,88.3251,110.556,51.4969,0.428285,19.4738,7.12502,26.0005,47.715,-27.4404,-25.6022,15.4328,37.9224,-32.192,-19.1309,-2.23262,-33.9007,-4.20454,-28.4084,23.555,-4.61496,-15.1272,2.38812
13.7353,17.7571,0.0682579,19.188,-4.50409,5.26858,14.4116,4.04955,2.66665,5.6438,5.90377,7.51025,-2.61591,2.87781,5.43792,-8.44776,-12.9255,-9.61124,26.1831,-18.9378,9.59626,11.8399,-8.38862,2.47888,-2.22639e-14,-3.81667e-14,1.47382,0.123554,-76.7993,28.0593,52.7881,-41.3996,-3.18972,7.12502,-14.3167,-32.6761,-2.22639e-14,-3.81667e-14,-19.9294,-16.614,88.2894,111.552,51.046,0.118475,19.0339,7.12502,25.7038,47.3183,-27.1854,-25.7634,15.2588,37.9347,-32.2005,-19.0865,-2.2998,-33.79,-4.34892,-28.5084,23.7286,-4.76227,-15.1035,2.21546
13.7389,17.7508,0.0833055,19.0072,-4.62423,5.35702,14.3922,4.22056,2.77279,5.70325,6.1348,7.52256,-2.55118,2.99204,5.35451,-8.15002,-13.0438,-9.71084,26.1102,-19.1169,9.68032,11.7952,-8.4803,2.51316,-1.43125e-14,3.18055e-14,1.9401,0.780736,-77.2122,28.3388,52.4562,-41.5579,-2.61226,7.12502,-14.4692,-32.0878,-1.43125e-14,3.18055e-14,-20.6186,-16.0298,88.1177,112.618,50.8072,-0.148818,19.6798,7.12502,25.4478,48.0009,-26.9183,-25.6859,14.9961,37.9135,-32.3306,-18.8883,-1.86954,-33.6554,-4.33626,-28.6708,23.9653,-5.17055,-14.918,1.74091
13.7424,17.7441,0.0951704,18.8805,-4.68507,5.45725,14.4428,4.3887,2.85949,5.72324,6.36921,7.56425,-2.57068,3.10779,5.30686,-8.0147,-13.2036,-9.80127,26.0879,-19.328,9.67067,11.7943,-8.58621,2.49547,-6.99722e-14,-8.5875e-14,2.50918,1.38573,-77.5815,28.4834,51.9496,-41.6541,-2.05742,7.12502,-14.5619,-31.5263,-6.99722e-14,-8.5875e-14,-21.1689,-15.3981,87.9378,113.459,50.5573,-0.588009,20.3155,7.12502,25.027,48.696,-26.703,-25.5633,14.7523,37.8901,-32.5773,-18.8235,-1.7172,-33.5623,-4.25397,-28.9021,24.2101,-5.81331,-14.8085,0.326189
13.741,17.7343,0.0985424,18.8339,-4.56255,5.58864,14.5006,4.5331,2.95415,5.72127,6.57843,7.64263,-2.61839,3.2113,5.29677,-8.01371,-13.3971,-9.80607,26.0803,-19.5396,9.46695,11.7916,-8.69864,2.38714,-2.38542e-14,-3.49861e-14,3.12495,1.93424,-77.8501,28.6356,51.3242,-41.6325,-1.25689,7.12502,-14.5411,-30.7273,-2.38542e-14,-3.49861e-14,-21.5706,-14.7763,87.7651,114.101,50.4325,-1.15771,20.1258,7.12502,24.481,48.5812,-26.5852,-25.4499,14.5738,37.8888,-32.9107,-18.9542,-1.67251,-33.5845,-4.18954,-29.1393,24.4431,-6.27043,-14.8612,-1.00591
13.7384,17.7222,0.0989253,18.7424,-4.50133,5.70984,14.7147,4.73206,3.06032,5.7352,6.8682,7.68981,-2.73366,3.35347,5.22131,-8.08172,-13.6126,-9.68757,26.0414,-19.816,9.33576,11.792,-8.81895,2.27149,2.54444e-14,4.13472e-14,3.79041,2.25223,-78.1419,28.7555,50.7386,-41.4934,-0.302802,7.12502,-14.4071,-29.7828,2.54444e-14,4.13472e-14,-21.8846,-14.2042,87.5431,114.732,50.6083,-1.49337,19.916,7.12502,24.1592,48.4146,-26.4592,-25.2835,14.3891,37.9178,-33.1037,-19.2149,-1.98711,-33.6324,-4.16834,-29.3004,24.674,-6.41791,-14.8566,-1.07474
13.7356,17.7165,0.0986994,18.7027,-4.47929,5.71565,14.8206,4.96655,3.30755,5.80118,7.20798,7.69216,-2.71514,3.52101,5.02034,-8.16121,-13.8744,-9.48836,25.9611,-20.2162,9.3832,11.8051,-8.96831,2.18545,-2.70347e-14,-5.725e-14,4.56762,2.39091,-78.4637,28.8236,50.2863,-41.4714,0.295149,7.12502,-14.3859,-29.1863,-2.70347e-14,-5.725e-14,-21.9927,-13.7401,87.167,115.285,50.9542,-1.76222,19.8214,7.12502,23.9014,48.354,-26.3882,-24.9752,14.3226,37.9625,-33.3986,-19.3671,-1.83959,-33.7087,-4.16991,-29.3066,24.8666,-6.51109,-14.7888,-1.10868
13.7339,17.7103,0.101597,18.7066,-4.39263,5.7157,14.7323,5.13343,3.54346,5.88268,7.44423,7.73327,-2.57303,3.63912,4.90301,-8.07213,-14.0693,-9.41015,25.7761,-20.5158,9.50411,11.7562,-9.08899,2.17303,-3.33958e-14,-1.90833e-14,5.30411,2.73169,-78.7695,28.9837,49.8109,-41.6186,0.755961,7.12502,-14.5277,-28.7154,-3.33958e-14,-1.90833e-14,-22.1195,-13.0992,86.8048,115.686,51.1643,-1.86283,19.3425,7.12502,23.805,47.8877,-26.3272,-24.6651,14.2781,38.0031,-33.7671,-19.4785,-1.71789,-33.7954,-4.09435,-29.3742,25.0209,-6.69584,-14.8002,-1.71462
13.7317,17.7029,0.108533,18.6723,-4.41737,5.79076,14.811,5.322,3.59861,5.8645,7.70865,7.79914,-2.65361,3.76885,4.88784,-7.9976,-14.2374,-9.45153,25.7748,-20.7346,9.45521,11.7649,-9.19434,2.12884,-8.90555e-14,4.13472e-14,5.84621,3.26657,-79.0333,29.2017,49.2761,-41.6023,1.4724,7.12502,-14.512,-28.0001,-8.90555e-14,4.13472e-14,-22.4594,-12.3993,86.5582,116.042,51.3038,-1.90191,18.903,7.12502,23.7675,47.4531,-26.2538,-24.3585,14.1193,38.0399,-33.879,-19.7905,-2.36045,-33.831,-4.0067,-29.5253,25.1786,-6.82276,-14.7171,-1.61204
13.7268,17.6979,0.116804,18.6041,-4.60685,5.92179,14.9724,5.5607,3.48645,5.80668,8.02566,7.83729,-2.84311,3.92301,4.91485,-7.91027,-14.3806,-9.40838,25.8797,-20.9005,9.24083,11.7739,-9.28263,2.02546,1.59028e-15,-6.36111e-15,6.35935,3.99791,-79.2983,29.3848,48.3298,-41.1831,2.28939,7.12502,-14.1081,-27.2117,1.59028e-15,-6.36111e-15,-22.9489,-11.6685,86.3016,116.518,51.5339,-2.07741,18.9001,7.12502,23.5991,47.4719,-26.1664,-24.0726,13.8666,38.0841,-33.959,-19.7802,-2.29318,-33.7874,-3.79477,-29.7579,25.3286,-6.96984,-14.6558,-1.54628
13.7216,17.6903,0.120929,18.5193,-4.76119,6.06575,14.9688,5.77479,3.44552,5.89427,8.29056,7.83105,-2.77075,4.05356,4.8876,-7.83906,-14.5215,-9.32781,25.809,-21.0951,9.21062,11.7403,-9.368,1.9769,4.77083e-15,6.36111e-15,7.1777,4.7371,-79.5614,29.6042,47.1463,-40.5175,2.70553,7.12502,-13.4666,-26.8391,4.77083e-15,6.36111e-15,-23.1822,-10.964,85.9181,116.953,51.5926,-2.17288,18.6938,7.12502,23.5076,47.2774,-26.048,-23.8568,13.6212,38.069,-34.1289,-19.5779,-1.56147,-33.7432,-3.66269,-29.9621,25.4683,-7.12226,-14.6622,-2.18447
13.7154,17.6801,0.124541,18.4109,-4.8136,6.12302,14.894,5.93819,3.53684,6.09066,8.49166,7.86032,-2.52683,4.15409,4.8518,-7.95119,-14.664,-9.22906,25.734,-21.3054,9.2532,11.75,-9.44303,1.93357,1.11319e-14,6.04305e-14,8.13873,5.24487,-79.8588,29.7987,46.615,-40.0816,2.71347,7.12502,-13.0464,-26.8585,1.11319e-14,6.04305e-14,-23.1389,-10.2533,85.5105,117.228,51.4098,-2.32402,18.1195,7.12502,23.3626,46.7216,-25.8905,-23.6206,13.4943,38.0789,-34.5488,-19.3902,-0.362797,-33.7097,-3.63598,-30.0304,25.6035,-7.21078,-14.6303,-2.82915
13.7241,17.6792,0.175874,18.2635,-6.06164,5.96933,14.4685,6.49946,3.43894,6.43218,9.14192,7.80461,-1.986,4.47743,4.79933,-7.95908,-14.7934,-9.09058,25.7199,-21.4965,9.22014,11.7455,-9.51615,1.87032,-3.18055e-15,3.18055e-15,8.85136,5.51433,-80.203,29.6867,47.3407,-40.6483,2.65278,7.12502,-13.5927,-26.8835,-3.18055e-15,3.18055e-15,-23.3337,-9.56059,85.1481,117.539,51.1182,-2.04383,17.4961,7.12502,23.6314,46.0638,-25.8195,-22.9625,13.2744,38.0513,-34.2162,-19.1237,-0.639186,-33.5105,-3.08833,-30.0659,25.7698,-7.64142,-13.8065,-3.29398
13.7127,17.6706,0.145117,18.0971,-5.13268,6.10663,15.1162,6.31812,3.83642,6.26175,9.02546,7.90151,-2.45819,4.41672,4.62554,-7.83672,-14.9046,-9.08133,25.6783,-21.6635,9.25853,11.7281,-9.58942,1.86373,-4.92986e-14,-2.54444e-14,9.44904,5.73678,-80.5118,29.5024,48.2541,-41.4965,2.6277,7.12502,-14.4101,-26.8521,-4.92986e-14,-2.54444e-14,-23.6371,-8.88743,84.7714,117.933,51.0003,-1.3911,17.218,7.12502,24.2573,45.7035,-25.4958,-23.4067,13.3247,38.0679,-34.6085,-19.437,-0.681491,-33.5143,-3.60023,-30.0167,25.9525,-7.44069,-14.1932,-2.77201
13.7116,17.6619,0.147625,18.2033,-5.0341,6.19047,15.0515,6.44419,3.94049,6.17071,9.21094,7.95027,-2.52339,4.50868,4.58784,-7.64951,-15.0547,-9.22271,25.7031,-21.8764,9.30684,11.75,-9.69388,1.876,-3.81667e-14,7.63333e-14,10.0087,6.00166,-80.739,29.7451,47.3834,-40.9048,3.34721,7.12502,-13.8399,-26.1723,-3.81667e-14,7.63333e-14,-24.0262,-8.28306,84.5531,118.317,51.1072,-1.0281,17.1586,7.12502,24.6053,45.5972,-25.6023,-23.568,13.3359,38.0663,-34.6753,-19.5132,-0.883555,-33.7296,-3.78207,-30.064,26.1323,-7.46438,-14.1179,-2.89703
13.7048,17.6548,0.153962,18.1695,-5.05929,6.26327,15.2034,6.63754,3.9088,6.10763,9.48124,8.0159,-2.70376,4.63931,4.60364,-7.68039,-15.2507,-9.27766,25.9107,-22.1387,9.19216,11.8578,-9.81088,1.79123,7.15625e-14,-3.18055e-15,10.5087,5.94503,-80.9808,29.7092,47.8877,-40.7441,3.57371,7.12502,-13.685,-25.9564,7.15625e-14,-3.18055e-15,-24.4498,-7.75027,84.4653,118.699,51.335,-0.932112,16.9548,7.12502,24.6973,45.3809,-25.5605,-23.6218,13.259,38.1373,-34.9066,-19.3006,-0.331217,-33.7498,-3.81011,-30.1218,26.2886,-7.6044,-14.0635,-2.97631
13.697,17.6514,0.16367,18.1068,-5.09715,6.36077,15.3228,6.86392,3.8909,6.15027,9.78001,8.03094,-2.74541,4.78525,4.56351,-8.01596,-15.4707,-9.26918,26.0982,-22.4631,9.19621,12.0333,-9.92334,1.70086,-1.59028e-14,-5.08889e-14,11.0553,5.99653,-81.1173,29.7043,48.4545,-40.5103,3.99733,7.12502,-13.4597,-25.5478,-1.59028e-14,-5.08889e-14,-24.5196,-7.42837,84.2868,118.954,51.6016,-0.658062,16.5649,7.12502,24.9599,44.9547,-25.4751,-23.8385,13.1441,38.1855,-34.6919,-19.1611,-0.961494,-33.7125,-3.71249,-30.252,26.421,-7.71154,-14.0466,-2.88814
13.6908,17.6465,0.16925,18.0688,-4.9656,6.44803,15.4552,7.02596,3.96998,6.13063,10.0164,8.06155,-2.84273,4.90022,4.49246,-8.09742,-15.6324,-9.30215,26.1062,-22.7251,9.34126,12.1078,-10.017,1.6994,-4.92986e-14,-2.8625e-14,11.5218,6.19066,-81.1725,29.9968,47.4453,-39.6515,6.00864,7.12502,-12.6318,-23.5894,-4.92986e-14,-2.8625e-14,-24.5508,-7.2402,84.1764,119.151,51.7638,-0.488856,16.032,7.12502,25.1221,44.3992,-25.411,-24.2684,13.1013,38.2387,-34.3853,-19.0378,-1.76759,-33.7144,-3.59768,-30.3831,26.5314,-7.73773,-14.1882,-2.40955
13.6826,17.6415,0.174499,18.0289,-4.84147,6.55332,15.6199,7.15367,3.91793,6.04012,10.2028,8.12002,-3.05766,4.98903,4.51973,-7.99517,-15.7429,-9.32676,26.1439,-22.9055,9.40528,12.1362,-10.0905,1.69968,-1.36764e-13,-9.54166e-15,11.7291,6.62975,-81.2364,30.0535,48.1818,-40.5777,5.06592,7.12502,-13.5246,-24.4749,-1.36764e-13,-9.54166e-15,-24.7723,-6.92013,84.0744,119.442,51.94,-0.475419,15.3417,7.12502,25.1349,43.7071,-25.3248,-24.4851,13.0091,38.3138,-34.3366,-18.8768,-2.14748,-33.7131,-3.52189,-30.5084,26.64,-7.77146,-14.3326,-2.13878
13.6729,17.6355,0.182872,17.9967,-4.76843,6.63518,15.7708,7.2913,3.78561,5.92573,10.3939,8.19509,-3.30923,5.08008,4.60495,-7.91376,-15.8728,-9.36558,26.2743,-23.1103,9.41862,12.203,-10.1754,1.6763,-1.74931e-14,0,11.9111,7.19304,-81.2528,30.3193,47.921,-40.4269,4.73702,7.12502,-13.3793,-24.8134,-1.74931e-14,0,-25.1215,-6.53031,83.9793,119.87,52.0177,-0.562837,14.915,7.12502,25.0512,43.2921,-25.2449,-24.527,12.8959,38.4056,-34.2493,-18.7918,-2.56912,-33.717,-3.42646,-30.6064,26.7741,-7.82959,-14.4987,-2.17796
13.6646,17.628,0.1902,17.923,-4.59213,6.71086,16.0136,7.40498,3.72309,5.78786,10.5737,8.28175,-3.62506,5.16445,4.65341,-7.78662,-16.0243,-9.43526,26.3029,-23.3364,9.45761,12.2311,-10.2772,1.66693,-6.99722e-14,1.27222e-14,11.9811,7.56072,-81.2894,30.7233,47.252,-39.6786,5.1821,7.12502,-12.6579,-24.4143,-6.99722e-14,1.27222e-14,-25.4271,-6.20156,83.9063,120.28,51.7639,-0.576087,14.3486,7.12502,25.0385,42.7275,-25.1202,-24.7319,12.7803,38.5382,-34.0907,-18.6194,-2.72495,-33.6648,-3.37505,-30.6877,26.8906,-7.91642,-14.73,-2.21811
13.6575,17.625,0.196695,17.7907,-4.35837,6.70294,16.3169,7.47471,3.8429,5.71455,10.7174,8.34052,-3.8636,5.23009,4.57955,-7.87481,-16.1674,-9.44574,26.3798,-23.5582,9.4963,12.3123,-10.3594,1.63044,-8.42847e-14,-4.13472e-14,12.0742,7.7961,-81.3958,31.1193,47.0925,-39.2524,5.411,7.12502,-12.247,-24.2104,-8.42847e-14,-4.13472e-14,-25.5375,-5.85414,83.7727,120.621,51.3432,-0.530468,13.4282,7.12502,25.0822,41.801,-24.9392,-25.0664,12.7459,38.7002,-33.8303,-18.3863,-3.00285,-33.5354,-3.35996,-30.6663,26.988,-7.97459,-14.9264,-1.9982
13.6509,17.6242,0.205592,17.7067,-4.16246,6.67841,16.5141,7.55946,4.05345,5.70568,10.8748,8.33632,-3.94769,5.30356,4.40585,-8.08608,-16.3193,-9.39665,26.4544,-23.8092,9.58075,12.4194,-10.4377,1.58516,-3.18055e-15,1.90833e-14,12.3126,8.07375,-81.3882,31.5051,47.0937,-39.4648,5.6042,7.12502,-12.4518,-24.0049,-3.18055e-15,1.90833e-14,-25.4732,-5.44655,83.5964,120.955,51.235,-0.387256,12.943,7.12502,25.2194,41.2965,-24.8322,-25.3139,12.7132,38.9072,-33.6604,-18.1683,-3.25706,-33.4384,-3.37562,-30.6112,27.06,-7.97954,-15.0992,-1.51852
13.6436,17.6262,0.219575,17.6887,-4.03669,6.63153,16.6122,7.65792,4.21437,5.67406,11.037,8.3097,-4.00742,5.38035,4.24434,-8.18811,-16.4366,-9.25204,26.4456,-24.018,9.66128,12.4526,-10.5001,1.54652,-3.49861e-14,3.81667e-14,12.4621,8.1988,-81.5066,31.8717,47.2619,-39.8234,5.77826,7.12502,-12.7976,-23.8095,-3.49861e-14,3.81667e-14,-25.4564,-4.85297,83.3482,121.29,51.4925,-0.00448687,13.2597,7.12502,25.5861,41.5611,-24.7759,-25.3417,12.6435,39.1668,-33.635,-17.6824,-2.71178,-33.3741,-3.33432,-30.5533,27.0806,-8.01603,-15.2527,-0.709036
13.635,17.6295,0.235561,17.6309,-3.90821,6.50933,16.7052,7.73286,4.35535,5.63764,11.1704,8.34577,-4.08383,5.44313,4.16547,-8.09927,-16.4876,-9.20052,26.2789,-24.1364,9.86382,12.4068,-10.5373,1.59814,1.59028e-14,-2.54444e-14,12.3653,8.36609,-81.6358,32.4351,47.2972,-39.8148,5.76973,7.12502,-12.7893,-23.8185,1.59028e-14,-2.54444e-14,-25.5385,-4.15469,83.1195,121.597,52.0897,0.140641,13.6632,7.12502,25.7251,41.9446,-24.6949,-25.3904,12.6361,39.5047,-33.2161,-17.3536,-3.35558,-33.2248,-3.3117,-30.3914,27.0351,-8.05078,-15.316,0.0950258
13.6284,17.634,0.249767,17.5995,-3.74118,6.47519,16.7675,7.76768,4.41803,5.58239,11.2395,8.37311,-4.17359,5.47506,4.13431,-7.99992,-16.5295,-9.189,26.153,-24.2181,9.98583,12.3641,-10.5697,1.63415,-3.81667e-14,3.18055e-15,12.176,8.68707,-81.6816,33.0935,47.2092,-40.3248,5.43474,7.12502,-13.2808,-24.1221,-3.81667e-14,3.18055e-15,-25.6025,-3.38073,82.9624,121.803,52.821,0.0942217,13.7445,7.12502,25.6806,42.0323,-24.7021,-25.4896,12.5596,39.9222,-32.5439,-17.2722,-4.87188,-33.083,-3.3364,-30.3188,26.9414,-8.02525,-15.433,0.384193
13.6217,17.6407,0.261129,17.6,-3.53799,6.50317,16.8105,7.76232,4.43075,5.51346,11.2477,8.37771,-4.26947,5.47748,4.11969,-7.90067,-16.5358,-9.21085,26.0928,-24.2472,10.087,12.3433,-10.5808,1.67592,-4.13472e-14,-6.04305e-14,11.9792,9.09718,-81.7094,33.6787,47.1222,-41.1362,5.1043,7.12502,-14.0629,-24.3999,-4.13472e-14,-6.04305e-14,-25.7237,-2.48653,82.8077,121.928,53.5413,-0.0640215,13.6434,7.12502,25.5291,41.9529,-24.778,-25.5234,12.4088,40.4255,-31.8961,-17.2203,-6.32418,-32.9721,-3.42442,-30.2937,26.8074,-7.94375,-15.5626,0.519862
13.6136,17.6469,0.274125,17.5744,-3.34084,6.52472,16.8544,7.75037,4.45966,5.47414,11.2436,8.34573,-4.32255,5.47427,4.063,-7.99726,-16.5394,-9.18097,26.2204,-24.2965,10.1657,12.4283,-10.5773,1.6788,1.59028e-15,-3.81667e-14,11.7595,9.29418,-81.8804,34.273,47.0686,-40.9721,5.54606,7.12502,-13.9047,-23.9691,1.59028e-15,-3.81667e-14,-25.8036,-1.62665,82.5929,121.965,54.3522,-0.330771,13.5784,7.12502,25.2735,41.9242,-24.8367,-25.5316,12.2238,41.0137,-31.3548,-16.9915,-7.50558,-32.7903,-3.47989,-30.269,26.6173,-7.85954,-15.7127,0.757875
13.603,17.653,0.285672,17.4967,-3.15686,6.54004,16.9985,7.74394,4.49281,5.43524,11.255,8.30484,-4.42645,5.47662,3.97867,-8.04574,-16.5551,-9.19511,26.2764,-24.3701,10.3225,12.4972,-10.5862,1.7144,8.74653e-14,6.67916e-14,11.4872,9.42714,-82.0294,34.858,47.174,-40.6035,5.48763,7.12502,-13.5495,-24.0515,8.74653e-14,6.67916e-14,-25.7207,-0.727832,82.3805,121.774,55.2684,-0.30307,13.4803,7.12502,25.3001,41.8224,-24.8808,-25.5415,12.0052,41.6741,-30.9943,-16.509,-7.93333,-32.5388,-3.44338,-30.2593,26.3936,-7.78822,-15.9109,0.793313
13.5921,17.6614,0.298386,17.5139,-3.02444,6.53763,16.9982,7.74521,4.49052,5.41122,11.257,8.26266,-4.44377,5.47739,3.93327,-7.98939,-16.5426,-9.17619,26.0886,-24.3826,10.5101,12.4397,-10.584,1.78183,4.45278e-14,5.08889e-14,11.2168,9.61671,-82.142,35.4653,47.2521,-40.4337,4.98163,7.12502,-13.3858,-24.5683,4.45278e-14,5.08889e-14,-25.5243,0.262449,82.1714,121.485,56.2445,-0.346015,13.7019,7.12502,25.2589,42.0499,-25.1039,-25.5197,11.8376,42.3872,-30.4053,-16.2273,-8.34293,-32.3867,-3.46412,-30.2115,26.1719,-7.7824,-16.0489,0.609286
13.5815,17.6692,0.312589,17.6127,-2.89056,6.5225,16.8319,7.73172,4.48007,5.39289,11.2236,8.20976,-4.36449,5.46404,3.9102,-7.93367,-16.4901,-9.01879,25.8833,-24.3097,10.5411,12.3197,-10.5522,1.79617,7.15625e-14,-1.90833e-14,10.8706,9.61758,-82.3765,36.2133,47.2961,-40.0795,4.41014,7.12502,-13.0445,-25.162,7.15625e-14,-1.90833e-14,-25.4221,1.21356,81.9074,121.183,57.2076,-0.625118,14.096,7.12502,24.9915,42.4814,-25.5417,-25.5787,11.7788,43.151,-29.189,-16.7118,-10.6651,-32.3122,-3.48951,-30.1583,25.9602,-7.88217,-16.1811,-0.303794
13.5702,17.6754,0.324496,17.6758,-2.65737,6.46771,16.707,7.67996,4.54095,5.41478,11.151,8.17454,-4.25215,5.43133,3.87431,-8.01233,-16.4473,-8.85199,25.7661,-24.2692,10.5991,12.269,-10.5181,1.79839,6.52014e-14,2.22639e-14,10.494,9.40396,-82.6518,37.0771,47.5394,-39.9164,3.9604,7.12502,-12.8872,-25.6217,6.52014e-14,2.22639e-14,-25.2458,2.1497,81.6502,120.762,58.1584,-0.639631,14.2984,7.12502,24.9776,42.6857,-25.9372,-25.6563,11.7715,43.9378,-27.6574,-17.485,-13.3274,-32.2258,-3.53848,-30.0383,25.7679,-7.87725,-16.385,-1.43343
13.5565,17.6801,0.335827,17.6583,-2.42106,6.46755,16.6998,7.61571,4.52141,5.45992,11.0567,8.1337,-4.19063,5.38694,3.8658,-8.19793,-16.432,-8.73726,25.7451,-24.2822,10.6881,12.2969,-10.4965,1.79562,4.77083e-15,-1.59028e-14,10.0649,9.20767,-82.8922,37.906,47.7991,-40.0724,3.55805,7.12502,-13.0376,-26.0145,4.77083e-15,-1.59028e-14,-25.0084,3.06399,81.4214,120.267,59.2551,-0.692295,14.6658,7.12502,24.9271,43.0602,-26.0642,-25.5393,11.5449,44.7396,-26.9645,-16.9393,-11.3397,-32.0792,-3.6007,-29.9593,25.6124,-7.79814,-16.5955,-1.79379
13.5402,17.689,0.347927,17.6148,-2.23705,6.39758,16.7656,7.58223,4.51833,5.4497,11.0186,8.10869,-4.23018,5.36744,3.83992,-8.1753,-16.4038,-8.76914,25.7102,-24.2839,10.8676,12.3127,-10.4838,1.86267,-4.6118e-14,-6.99722e-14,9.64884,9.04723,-83.0392,38.4105,47.8752,-40.2913,3.38867,7.12502,-13.2485,-26.1703,-4.6118e-14,-6.99722e-14,-24.7834,3.83364,81.2282,119.638,60.415,-0.867614,14.9648,7.12502,24.7591,43.3823,-26.184,-25.3487,11.3537,45.5627,-26.4906,-15.9762,-7.97566,-31.8856,-3.63007,-29.7939,25.4609,-7.8546,-16.7377,-2.39467
13.5215,17.7,0.355161,17.5751,-2.01075,6.31803,16.8993,7.53066,4.49423,5.39704,10.9656,8.10041,-4.3581,5.33882,3.83406,-8.09707,-16.3654,-8.8557,25.7555,-24.2675,11.0153,12.3502,-10.4692,1.93312,1.1609e-13,9.85972e-14,9.2429,8.9697,-83.0946,38.8043,47.8573,-40.5367,3.10832,7.12502,-13.4851,-26.4351,1.1609e-13,9.85972e-14,-24.6008,4.52968,81.0645,118.894,61.4209,-0.886895,15.1893,7.12502,24.7406,43.6093,-26.4703,-25.1543,11.2643,46.4026,-25.5514,-16.0272,-7.04372,-31.6916,-3.63683,-29.5969,25.2539,-7.7399,-16.9738,-2.30528
13.5029,17.7082,0.359615,17.5186,-1.65252,6.39306,17.0449,7.39013,4.36297,5.35053,10.7798,8.07687,-4.49607,5.2464,3.89645,-8.05331,-16.2846,-8.90814,25.7909,-24.1698,11.0818,12.3623,-10.4251,1.98453,3.33958e-14,4.45278e-14,8.66431,8.8784,-83.1568,39.4614,48.0075,-40.5637,2.68845,7.12502,-13.5111,-26.8532,3.33958e-14,4.45278e-14,-24.4927,5.19731,80.821,118.185,62.2787,-0.787711,15.5838,7.12502,24.8357,43.9908,-26.6984,-25.0401,11.0112,47.2421,-24.5355,-16.2021,-7.76646,-31.4651,-3.78303,-29.5282,25.0116,-7.42007,-17.2361,-1.83812
13.4831,17.7127,0.367447,17.3067,-1.17254,6.54862,17.2141,7.15463,4.22037,5.40307,10.4589,8.05594,-4.53484,5.09027,4.00272,-8.07533,-16.1438,-8.89459,25.7548,-23.9758,11.1227,12.333,-10.3385,2.03266,7.95139e-15,-7.31528e-14,8.01817,8.78545,-83.2415,40.2641,48.1816,-40.4381,2.22486,7.12502,-13.3901,-27.3248,7.95139e-15,-7.31528e-14,-24.2824,5.83798,80.5274,117.459,63.2739,-0.729556,16.1485,7.12502,24.8914,44.5478,-26.6325,-24.9386,10.5686,48.0498,-23.732,-15.5638,-7.33648,-31.0493,-3.97181,-29.544,24.7616,-7.16463,-17.5426,-1.97944
13.4601,17.7179,0.378919,17.1487,-0.697839,6.50449,17.2883,6.94235,4.23862,5.4423,10.1878,8.04326,-4.51224,4.95863,4.03263,-8.04749,-16.0165,-8.78389,25.6801,-23.8187,11.188,12.2734,-10.2618,2.07504,1.43125e-14,5.40694e-14,7.37807,8.47025,-83.4249,40.9217,48.2205,-40.4134,1.96056,7.12502,-13.3663,-27.5907,1.43125e-14,5.40694e-14,-24.0249,6.27017,80.2567,116.629,64.2176,-0.576483,16.706,7.12502,25.0381,45.0849,-26.6042,-24.6664,10.3631,48.7938,-23.0468,-14.8378,-4.92789,-30.6771,-4.08482,-29.3515,24.4912,-6.96613,-17.9104,-2.04624
13.4357,17.7261,0.390394,17.1301,-0.210388,6.40915,17.2511,6.78017,4.27438,5.42433,9.98173,8.01727,-4.49015,4.8593,4.03358,-7.94847,-15.9502,-8.72999,25.5499,-23.7786,11.412,12.2254,-10.23,2.16309,2.06736e-13,8.26944e-14,6.71403,8.01354,-83.5712,41.5064,48.2179,-40.6497,1.4689,7.12502,-13.594,-28.0673,2.06736e-13,8.26944e-14,-23.7581,6.39384,80.0547,115.812,65.0058,-0.60497,17.2607,7.12502,25.0108,45.6435,-26.7052,-24.4832,10.2784,49.4691,-22.1063,-14.2865,-3.38491,-30.4553,-4.2879,-29.0634,24.2527,-6.73608,-18.2973,-1.24702
13.4091,17.7339,0.400815,17.1014,0.370539,6.39894,17.2302,6.59407,4.23396,5.43398,9.73018,7.97689,-4.45509,4.73864,4.06969,-7.95853,-15.9306,-8.72401,25.4445,-23.8018,11.6469,12.2252,-10.2217,2.23843,3.33958e-14,3.18055e-15,6.14521,7.5953,-83.6477,42.0496,48.1896,-40.9988,0.647092,7.12502,-13.9305,-28.8663,3.33958e-14,3.18055e-15,-23.4101,6.31737,79.7865,115.072,65.7807,-0.895022,17.9886,7.12502,24.7328,46.4098,-26.778,-24.4318,10.1507,50.0884,-21.0836,-13.6927,-3.31662,-30.2523,-4.56104,-28.8437,24.1084,-6.77183,-18.7473,-2.37073
13.3792,17.7346,0.410617,17.0774,0.928517,6.3622,17.14,6.40959,4.13165,5.49817,9.46283,7.98303,-4.34199,4.61254,4.20237,-8.10897,-15.8822,-8.61717,25.3801,-23.7487,11.6964,12.2157,-10.1823,2.23932,-2.70347e-14,-4.77083e-14,5.64151,7.21822,-83.6442,42.5526,48.133,-41.1417,0.24332,7.12502,-14.0681,-29.2605,-2.70347e-14,-4.77083e-14,-23.0443,6.16758,79.5607,114.344,66.3943,-1.18383,18.5355,7.12502,24.456,46.9943,-26.8886,-24.2899,10.0615,50.6697,-20.4489,-12.9754,-2.69875,-30.0867,-4.87577,-28.5641,24.0424,-7.03889,-19.0446,-5.34609
13.3454,17.7253,0.417844,17.0423,1.55042,6.31503,17.1203,6.20044,4.03196,5.5553,9.17233,8.01609,-4.27565,4.47387,4.3593,-8.30301,-15.8219,-8.55743,25.3003,-23.6929,11.8302,12.2284,-10.1352,2.27188,4.13472e-14,1.90833e-14,5.06949,6.76325,-83.6272,43.0898,48.0619,-41.3052,0.275199,7.12502,-14.2258,-29.2176,4.13472e-14,1.90833e-14,-22.7217,5.90376,79.4355,113.705,66.9146,-1.50431,18.9904,7.12502,24.1487,47.4904,-26.9833,-24.0869,10.0145,51.1872,-19.9272,-12.523,-4.50328,-29.9972,-5.1825,-28.2622,24.0225,-6.96413,-19.3936,-6.24012
13.3089,17.716,0.427235,16.9449,2.21307,6.35896,17.104,5.98486,3.84912,5.64736,8.85697,8.0393,-4.18164,4.32371,4.55816,-8.36623,-15.7581,-8.66793,25.1429,-23.6544,12.1705,12.2431,-10.0991,2.40578,1.08139e-13,5.08889e-14,4.55764,6.20722,-83.5748,43.5261,48.0731,-41.5212,0.0687974,7.12502,-14.4338,-29.4093,1.08139e-13,5.08889e-14,-22.3529,5.44238,79.3536,113.127,67.3659,-1.98767,19.4559,7.12502,23.6852,48.0167,-26.9217,-23.864,9.83134,51.6238,-19.7018,-12.0078,-6.45182,-29.8917,-5.48843,-28.0653,24.0456,-6.72706,-19.8121,-5.78388
13.2738,17.7133,0.43723,16.8679,2.90036,6.34813,17.0275,5.74877,3.73156,5.7357,8.5217,8.07188,-4.04785,4.16377,4.74115,-8.43921,-15.6694,-8.61646,25.0428,-23.5445,12.269,12.2122,-10.0407,2.4486,8.90555e-14,3.81667e-14,4.06481,5.63465,-83.5442,43.8148,48.2312,-41.7471,-0.473212,7.12502,-14.6515,-29.9356,8.90555e-14,3.81667e-14,-21.9844,4.79925,79.2724,112.61,67.6636,-2.58515,19.9334,7.12502,23.1121,48.5672,-26.7836,-23.7349,9.68946,51.9424,-19.8857,-11.4522,-7.57844,-29.8178,-5.85418,-27.8025,24.1175,-6.63053,-20.1991,-5.38378
13.2369,17.7136,0.445533,16.8353,3.59632,6.30186,17.0324,5.52808,3.60505,5.72435,8.22342,8.12628,-4.06926,4.01997,4.93179,-8.55807,-15.5768,-8.47831,25.0771,-23.4167,12.1978,12.203,-9.97441,2.42063,7.4743e-14,6.99722e-14,3.3873,5.07875,-83.5166,44.0919,48.3584,-42.022,-1.45236,7.12502,-14.9164,-30.8953,7.4743e-14,6.99722e-14,-21.7173,3.95042,79.2062,112.147,67.9554,-3.45714,20.5521,7.12502,22.2752,49.2883,-26.7094,-23.7225,9.63851,52.1656,-20.0329,-11.3246,-9.77697,-29.7977,-6.25499,-27.4842,24.185,-6.36119,-20.5522,-4.24451
13.1993,17.7127,0.457481,16.8238,4.20662,6.24548,17.0151,5.35347,3.44663,5.65155,7.9833,8.1609,-4.14841,3.90455,5.10588,-8.51105,-15.5034,-8.47238,25.0956,-23.3471,12.2989,12.2076,-9.93546,2.47218,-9.70069e-14,-4.77083e-14,2.49357,4.4967,-83.476,44.4869,48.1425,-42.1375,-2.04369,7.12502,-15.0276,-31.4783,-9.70069e-14,-4.77083e-14,-21.5889,2.92105,79.1508,111.75,68.4691,-4.54945,21.0741,7.12502,21.2262,49.9319,-26.5201,-23.4456,9.51852,52.2681,-20.82,-10.6459,-8.41651,-29.7794,-6.62542,-27.1636,24.2148,-6.18326,-20.8071,-3.5648
13.1636,17.712,0.469962,16.8255,4.75134,6.22673,16.8987,5.16274,3.32326,5.60733,7.71125,8.1149,-4.12374,3.77398,5.19049,-8.24277,-15.4149,-8.4611,25.0337,-23.2683,12.4746,12.1461,-9.90141,2.56993,-1.27222e-14,-3.49861e-14,1.65254,3.88662,-83.4825,44.7968,47.9757,-42.1364,-2.23858,7.12502,-15.0266,-31.6733,-1.27222e-14,-3.49861e-14,-21.3577,1.89194,79.0598,111.276,68.8513,-5.23878,21.422,7.12502,20.564,50.3528,-26.3854,-23.2217,9.35947,52.2705,-21.4061,-10.2721,-7.67189,-29.7662,-6.93836,-26.927,24.2358,-6.27188,-21.0116,-4.08607
13.1318,17.7168,0.481216,16.5594,5.51035,6.33476,17.1085,4.84816,3.28533,5.60017,7.31176,8.06745,-4.21111,3.57835,5.23066,-7.90709,-15.2926,-8.42223,24.9252,-23.1145,12.5672,12.026,-9.84816,2.65503,-1.00187e-13,-9.85972e-14,0.981751,3.38482,-83.3938,44.7831,47.9955,-42.1066,-2.77254,7.12502,-14.9979,-32.2094,-1.00187e-13,-9.85972e-14,-21.1106,0.903671,78.9996,110.79,69.0377,-5.71766,21.9575,7.12502,20.1038,50.9373,-25.922,-23.379,9.03194,52.1745,-21.2944,-10.8944,-10.7813,-29.4398,-7.43302,-26.8194,24.2851,-6.39471,-21.2303,-3.83068
13.1029,17.7149,0.492253,16.0986,6.40541,6.56069,17.5441,4.48671,3.22338,5.66662,6.86048,8.06343,-4.34351,3.3567,5.33319,-7.76234,-15.1804,-8.40816,24.8487,-22.9638,12.6288,11.9553,-9.78876,2.71525,-1.27222e-14,-3.18055e-14,0.470512,3.08446,-83.1423,44.8611,47.1707,-41.9207,-3.42545,7.12502,-14.8188,-32.8756,-1.27222e-14,-3.18055e-14,-20.767,-0.0176064,79.0757,110.357,69.1462,-6.26042,22.8369,7.12502,19.582,51.8707,-24.985,-23.5815,8.41904,52.0059,-21.7988,-10.9734,-10.0869,-28.8921,-8.13118,-26.8175,24.3448,-6.40534,-21.4239,-3.16739
13.0648,17.7105,0.498023,15.9158,7.15425,6.52588,17.6606,4.25031,3.18812,5.73585,6.55717,8.12961,-4.31917,3.20976,5.48797,-7.70731,-15.0946,-8.47162,24.7257,-22.8819,12.8786,11.9322,-9.74373,2.83045,-8.90555e-14,2.54444e-14,0.0858472,2.36984,-82.8999,44.4648,48.2521,-42.5007,-4.49763,7.12502,-15.3775,-33.9058,-8.90555e-14,2.54444e-14,-20.2445,-0.996333,79.1727,109.945,69.1717,-6.54776,23.5937,7.12502,19.3057,52.6554,-24.4814,-23.5667,8.25565,51.7841,-22.6562,-11.0431,-8.3399,-28.7685,-8.71564,-26.4811,24.4377,-6.21747,-21.6019,-3.38553
13.0257,17.7101,0.505774,15.9137,7.66125,6.42185,17.5832,4.16267,3.14096,5.77544,6.43016,8.1512,-4.23319,3.14957,5.57231,-7.77962,-15.0553,-8.45164,24.6814,-22.8801,13.0964,11.96,-9.7178,2.8982,5.08889e-14,7.95139e-14,-0.345957,1.64986,-82.6891,44.401,48.0633,-42.6266,-4.96966,7.12502,-15.4988,-34.3684,5.08889e-14,7.95139e-14,-19.7147,-2.13495,79.253,109.605,69.1471,-6.40079,24.3998,7.12502,19.447,53.4473,-24.3268,-23.4327,8.23641,51.4993,-23.3172,-11.5046,-8.26247,-28.8823,-9.22352,-26.0619,24.6055,-6.20703,-21.6261,-4.06573
12.9888,17.7092,0.515729,15.9145,8.10614,6.33739,17.5386,4.12541,3.10542,5.78993,6.37378,8.15099,-4.19321,3.12342,5.60767,-7.91298,-15.0755,-8.3376,24.7518,-22.9474,13.1453,12.0161,-9.72073,2.87671,9.38264e-14,6.67916e-14,-0.757013,0.84135,-82.4422,44.0572,48.002,-43.0025,-5.56899,7.12502,-15.8607,-34.9394,9.38264e-14,6.67916e-14,-19.1278,-3.30825,79.3696,109.236,69.0748,-6.30512,25.1763,7.12502,19.539,54.2145,-24.1298,-23.2619,8.16103,51.1353,-23.942,-11.9345,-7.4821,-29.0247,-9.73401,-25.6722,24.8476,-6.32369,-21.5651,-4.05602
12.9502,17.7061,0.520509,15.8788,8.59145,6.20587,17.6014,4.0874,3.15242,5.79606,6.3394,8.16159,-4.21328,3.10717,5.59688,-8.00332,-15.1318,-8.11582,24.7856,-23.0489,13.0961,12.0242,-9.74435,2.80388,6.99722e-14,-2.54444e-14,-0.91707,0.0769978,-82.1874,43.3948,47.6513,-43.3219,-6.24477,7.12502,-16.1684,-35.5904,6.99722e-14,-2.54444e-14,-18.4075,-4.51602,79.5251,108.828,68.6994,-6.47541,25.7205,7.12502,19.3753,54.7752,-23.8812,-23.1697,8.13718,50.6953,-24.5296,-12.3535,-6.4116,-29.1959,-10.3136,-25.1953,25.1127,-6.14844,-21.497,-3.23094
12.9181,17.7016,0.531437,15.7949,8.79057,6.02893,17.6032,4.12452,3.21338,5.85548,6.39385,8.16705,-4.14887,3.13413,5.55822,-8.09618,-15.1658,-7.98605,24.8215,-23.112,13.07,12.044,-9.75618,2.75823,-2.54444e-14,1.90833e-14,-0.915463,-0.666939,-81.9425,42.6061,47.2056,-43.3653,-6.45289,7.12502,-16.2101,-35.7952,-2.54444e-14,1.90833e-14,-17.8152,-5.7499,79.7184,108.506,68.2009,-6.91568,25.8,7.12502,18.9519,54.8967,-23.6328,-22.8893,8.06356,50.1363,-25.002,-12.8951,-5.86985,-29.2942,-10.8931,-24.6959,25.3553,-6.02837,-21.1384,-2.79482
12.8781,17.6999,0.53005,15.9086,9.24999,5.89397,17.5017,4.0555,3.22187,5.81932,6.30794,8.23007,-4.13342,3.09391,5.64568,-8.23041,-15.1604,-7.95443,24.9484,-23.1134,13.0222,12.1096,-9.74348,2.72594,4.77083e-15,2.22639e-14,-0.920142,-1.24448,-81.7178,41.838,46.903,-43.3931,-6.14625,7.12502,-16.2369,-35.4863,4.77083e-15,2.22639e-14,-17.3427,-6.84837,79.9301,108.228,67.5982,-7.27639,25.6823,7.12502,18.605,54.8125,-23.5771,-22.7571,8.10976,49.4874,-25.4642,-13.6409,-5.3944,-29.6362,-11.398,-24.1989,25.5682,-5.9862,-21.1194,-2.73501
12.8494,17.7073,0.5411,15.7709,9.24678,5.76183,17.5271,4.1019,3.15909,5.94003,6.35233,8.27822,-4.0333,3.11591,5.7265,-8.33436,-15.1228,-8.09536,25.0385,-23.0707,13.0961,12.1912,-9.71719,2.76969,1.27222e-14,-4.77083e-14,-0.927244,-1.77955,-81.5486,41.0867,46.7453,-43.2778,-6.48777,7.12502,-16.1258,-35.8369,1.27222e-14,-4.77083e-14,-16.9417,-7.78002,80.1767,108.116,66.9443,-7.81571,25.9012,7.12502,18.0862,55.0803,-23.2931,-22.4363,7.92638,48.7311,-25.6397,-14.2651,-5.65415,-29.601,-11.6281,-23.8827,25.7826,-6.23118,-20.8787,-2.91271
12.8179,17.7148,0.55098,15.5395,9.17506,5.54262,17.7029,4.18492,3.18523,6.08201,6.46765,8.32762,-3.98643,3.1713,5.73487,-8.49253,-15.1048,-8.14091,25.1318,-23.0598,13.1334,12.2708,-9.69721,2.77785,3.49861e-14,-1.27222e-14,-0.877598,-2.37077,-81.4616,40.3623,46.544,-42.657,-7.03171,7.12502,-15.528,-36.4282,3.49861e-14,-1.27222e-14,-16.5848,-8.5922,80.3945,108.155,66.6654,-8.20175,26.2954,7.12502,17.7147,55.5085,-22.9078,-21.9717,7.78754,47.9444,-25.8579,-14.6444,-5.33614,-29.4915,-11.8456,-23.4655,25.9926,-6.346,-20.5982,-1.42812
12.7848,17.7129,0.550246,15.5383,9.39034,5.27559,17.7387,4.15757,3.4517,6.10256,6.47867,8.35424,-3.9578,3.17644,5.60991,-8.62852,-15.0914,-8.09383,25.1789,-23.0602,13.1603,12.3151,-9.67978,2.76997,-2.22639e-14,-8.90555e-14,-0.727985,-2.87146,-81.4574,39.6135,46.3007,-42.2352,-7.08532,7.12502,-15.1217,-36.5129,-2.22639e-14,-8.90555e-14,-16.2282,-9.38397,80.4825,108.279,66.6808,-8.42914,26.6324,7.12502,17.4959,55.8651,-22.7252,-21.7724,7.81959,47.1479,-26.1245,-14.7113,-3.79851,-29.7344,-12.2552,-22.8878,26.2204,-6.38674,-20.4224,0.133629
12.7585,17.7051,0.553174,15.5631,9.36043,5.11856,17.6542,4.21149,3.64397,6.18221,6.56304,8.32448,-3.80909,3.21811,5.45888,-8.67597,-15.0871,-8.13234,25.0708,-23.0678,13.3052,12.3106,-9.67517,2.82045,7.15625e-14,3.81667e-14,-0.46966,-3.27673,-81.4223,38.8331,46.0139,-42.2024,-6.87133,7.12502,-15.0902,-36.3013,7.15625e-14,3.81667e-14,-15.8314,-10.1921,80.5476,108.462,66.6701,-8.70318,26.9459,7.12502,17.2321,56.2019,-22.6585,-21.753,7.66824,46.3878,-26.0152,-14.7243,-3.59205,-29.9303,-12.5989,-22.4826,26.4923,-6.69273,-20.0467,-0.783781
12.736,17.6978,0.561222,15.4886,9.16062,4.97886,17.6773,4.30107,3.79695,6.24245,6.6958,8.27725,-3.7432,3.28266,5.2938,-8.58782,-15.0595,-8.1191,24.9046,-23.0314,13.4076,12.236,-9.66314,2.86877,-6.67916e-14,-1.33583e-13,-0.318244,-3.75725,-81.4976,38.1025,45.8261,-42.0729,-6.23395,7.12502,-14.9654,-35.6732,-6.67916e-14,-1.33583e-13,-15.6734,-10.8455,80.6715,108.71,66.2555,-8.80229,26.9328,7.12502,17.1367,56.1971,-22.5448,-21.6856,7.41201,45.6577,-25.7407,-14.844,-4.5122,-29.9777,-12.834,-22.1768,26.7741,-7.0127,-19.5876,-1.92188
12.7063,17.6912,0.559306,15.5597,9.19309,4.86972,17.7435,4.30345,3.97012,6.16816,6.73659,8.23473,-3.83557,3.30144,5.13474,-8.71306,-15.0417,-8.10385,25.0722,-23.0322,13.3953,12.3246,-9.64523,2.85257,1.03368e-13,4.13472e-14,-0.237066,-4.26222,-81.7449,37.4695,45.8647,-41.732,-5.49662,7.12502,-14.6369,-34.9601,1.03368e-13,4.13472e-14,-15.6631,-11.3101,80.8047,109.027,65.5347,-8.72549,26.8934,7.12502,17.2107,56.1513,-22.5469,-21.7175,7.25507,44.9468,-25.6465,-14.9306,-5.17984,-30.2407,-13.0835,-21.8424,27.0157,-7.24655,-19.3229,-2.54295
12.6778,17.6846,0.56068,15.5355,9.00416,4.79584,17.8015,4.33713,3.9991,6.22996,6.78091,8.21049,-3.79633,3.32251,5.08142,-8.92852,-15.0069,-8.22122,25.2115,-23.0159,13.501,12.4547,-9.61569,2.89158,5.56597e-14,4.45278e-14,0.0834944,-4.296,-82.0102,36.8018,45.7931,-41.3231,-5.3378,7.12502,-14.243,-34.8294,5.56597e-14,4.45278e-14,-15.6986,-11.5144,80.9162,109.45,64.7231,-8.58779,26.7783,7.12502,17.3432,56.0245,-22.4135,-21.5903,6.94058,44.2103,-25.631,-14.5262,-4.34282,-30.3455,-13.1793,-21.6175,27.253,-7.57409,-18.9699,-3.36923
12.6502,17.6783,0.561448,15.4647,8.75231,4.75477,17.9092,4.35864,3.99206,6.32641,6.80503,8.2041,-3.75098,3.33341,5.07022,-8.99774,-14.9372,-8.36169,25.1631,-22.9134,13.6036,12.4701,-9.57224,2.96094,-2.70347e-14,5.08889e-14,0.520468,-3.92409,-82.2609,36.1101,45.4977,-40.8764,-5.18387,7.12502,-13.8125,-34.7053,-2.70347e-14,5.08889e-14,-15.816,-11.4977,81.0661,109.997,63.7829,-8.45008,26.5515,7.12502,17.4757,55.786,-22.2212,-21.4382,6.53397,43.4244,-25.6091,-14.1683,-3.23893,-30.3887,-13.2308,-21.4707,27.4833,-7.92678,-18.5836,-4.30396
12.6215,17.6694,0.562947,15.4383,8.59378,4.69716,18.079,4.36497,4.05375,6.29798,6.84045,8.22399,-3.86854,3.34852,5.03737,-8.9035,-14.8773,-8.45408,25.1391,-22.7922,13.5443,12.4272,-9.54115,2.98331,3.18055e-14,5.08889e-14,0.862962,-3.58573,-82.5219,35.3613,45.2851,-40.4924,-4.72842,7.12502,-13.4424,-34.2747,3.18055e-14,5.08889e-14,-16.1293,-11.5063,81.2651,110.645,62.6448,-8.28219,26.2512,7.12502,17.6373,55.4712,-22.1197,-21.5631,6.27746,42.5528,-25.3384,-14.5531,-4.96144,-30.5116,-13.3272,-21.2762,27.7209,-8.16019,-18.1914,-4.47074
12.5935,17.6701,0.57557,15.4186,8.07538,4.48673,18.0626,4.52784,4.08798,6.35299,7.04906,8.24025,-3.81241,3.44996,4.99332,-9.01383,-14.8689,-8.41953,25.234,-22.7398,13.337,12.4428,-9.52568,2.9065,-3.02153e-14,3.49861e-14,1.2216,-3.3007,-82.8864,34.6977,45.0587,-40.2123,-4.09059,7.12502,-13.1725,-33.6545,-3.02153e-14,3.49861e-14,-16.4922,-11.5401,81.4132,111.469,61.3957,-8.06845,25.7328,7.12502,17.843,54.9342,-22.1235,-21.3355,6.1805,41.6212,-25.1163,-14.9524,-6.67599,-30.5734,-13.0507,-20.9943,27.9465,-8.56433,-17.6941,-4.82407
12.559,17.6728,0.577643,15.1153,8.01748,4.1639,18.4289,4.49957,4.47638,6.45218,7.10163,8.31062,-3.86301,3.47293,4.82131,-9.26847,-14.873,-8.30148,25.33,-22.7273,13.1647,12.4882,-9.50863,2.81164,6.83819e-14,4.45278e-14,1.67609,-3.18708,-83.414,34.1029,45.1661,-39.9263,-3.34792,7.12502,-12.8967,-32.9294,6.83819e-14,4.45278e-14,-16.7978,-11.4108,81.5144,112.368,60.1632,-7.69723,25.1587,7.12502,18.2001,54.3273,-21.641,-21.1254,6.1214,40.6577,-25.2844,-15.1711,-6.36266,-30.4205,-13.1707,-20.5276,28.16,-8.91483,-17.2128,-5.47806
12.5279,17.6685,0.582849,15.2423,7.55331,4.23498,18.3299,4.63809,4.30889,6.4891,7.23744,8.29424,-3.79813,3.53948,4.8749,-9.19551,-14.8786,-8.40642,25.2235,-22.7159,13.2182,12.4511,-9.51777,2.85227,6.67916e-14,6.99722e-14,2.15806,-3.16192,-83.9332,33.4921,45.7073,-39.6361,-2.7187,7.12502,-12.617,-32.3177,6.67916e-14,6.99722e-14,-17.0174,-11.0887,81.7678,113.235,59.0366,-7.20151,24.8654,7.12502,18.677,53.9888,-21.6777,-20.9325,5.67365,39.6866,-25.3847,-15.3902,-5.73859,-30.6043,-13.0606,-20.5308,28.3483,-9.31403,-16.6545,-6.23051
12.5021,17.6639,0.57922,15.56,7.22582,4.53305,18.1086,4.70152,4.0869,6.46602,7.26173,8.24657,-3.72974,3.55218,4.95588,-8.99006,-14.8848,-8.62788,25.0222,-22.6986,13.3632,12.3782,-9.53765,2.95236,2.06736e-14,9.54166e-15,2.7384,-2.84693,-84.3592,32.8282,46.0636,-39.1878,-1.97348,7.12502,-12.1847,-31.5986,2.06736e-14,9.54166e-15,-17.1769,-10.7014,81.9941,114.208,58.0273,-6.63975,24.764,7.12502,19.2173,53.8346,-21.8148,-20.9722,4.99523,38.7199,-25.6237,-15.4923,-4.61396,-31.0005,-13.1092,-20.7276,28.5496,-9.43022,-16.1282,-5.31704
12.4862,17.6628,0.575252,15.6701,7.03809,4.51484,18.0805,4.683,4.44296,6.45849,7.28979,8.21415,-3.67551,3.56577,4.71909,-8.97007,-14.9172,-8.53907,24.933,-22.697,13.2005,12.3006,-9.55332,2.8843,1.09729e-13,6.04305e-14,3.24819,-2.2797,-84.7923,32.1526,46.0372,-38.8817,-1.30474,7.12502,-11.8896,-30.9472,1.09729e-13,6.04305e-14,-17.5747,-10.2596,81.9483,115.338,57.6816,-5.2726,24.225,7.12502,20.5315,53.1593,-21.697,-21.0603,4.58167,37.7367,-25.668,-15.5319,-3.36913,-31.1963,-13.2612,-20.6034,28.7456,-9.6027,-15.5483,-5.27097
12.4571,17.6604,0.575751,15.9153,6.56966,4.29559,17.9128,4.82519,4.64765,6.40387,7.49645,8.23009,-3.63361,3.66683,4.58836,-8.9575,-14.9514,-8.47424,24.9188,-22.7209,13.0834,12.2686,-9.57195,2.83064,8.26944e-14,4.13472e-14,3.51712,-1.53494,-85.2511,31.7527,45.8705,-38.4751,-0.72441,7.12502,-11.4975,-30.3891,8.26944e-14,4.13472e-14,-18.2542,-10.0005,81.9089,116.514,56.8422,-4.37061,23.4475,7.12502,21.398,52.2859,-21.8673,-20.7796,4.47436,36.7253,-25.5542,-15.8205,-2.46655,-31.4875,-12.9778,-20.2973,28.9134,-10.0348,-15.0308,-7.6775
12.4128,17.6603,0.577882,16.3161,5.69257,4.0525,17.548,5.20373,4.42326,6.38128,7.92385,8.30581,-3.5308,3.87727,4.72982,-8.9821,-15.0028,-8.45841,24.9152,-22.7705,12.9962,12.2629,-9.59949,2.78622,1.11319e-14,1.59028e-14,3.89444,-0.907502,-85.6793,31.3196,45.8229,-37.8904,-0.163875,7.12502,-10.9336,-29.8592,1.11319e-14,1.59028e-14,-18.7502,-9.80875,81.989,117.639,55.7293,-4.01274,22.71,7.12502,21.7417,51.5089,-22.3434,-19.9372,4.39502,35.6784,-25.6423,-16.313,-1.30929,-31.8974,-12.2478,-20.0206,29.0259,-10.2623,-14.5714,-9.69482
12.3768,17.6606,0.578425,16.5179,4.96535,3.99413,17.3999,5.46733,4.27006,6.4098,8.22661,8.35496,-3.46906,4.02547,4.81676,-8.94754,-15.054,-8.49985,24.8243,-22.7981,12.9147,12.2158,-9.6306,2.76034,-8.26944e-14,-3.18055e-14,4.43436,-0.17933,-86.0654,30.7142,45.7439,-37.5288,0.628545,7.12502,-10.5848,-29.0849,-8.26944e-14,-3.18055e-14,-19.1588,-9.46497,82.0634,118.747,54.755,-3.55906,21.8481,7.12502,22.1773,50.596,-22.508,-19.2241,3.98554,34.6347,-25.7638,-16.867,-0.32372,-32.0664,-11.7709,-19.9665,29.0612,-10.3437,-14.1236,-10.5414
12.3467,17.6673,0.578021,16.7048,4.55987,3.99582,17.2485,5.56471,4.33977,6.41052,8.3502,8.38315,-3.39027,4.08668,4.79627,-8.81401,-15.122,-8.65181,24.7115,-22.8681,12.9639,12.1812,-9.68227,2.79475,-9.54166e-14,1.27222e-14,4.89127,0.952318,-86.4064,30.2497,45.2488,-37.4798,1.58137,7.12502,-10.5375,-28.1345,-9.54166e-14,1.27222e-14,-19.5316,-9.01867,82.012,119.859,53.9038,-3.04299,21.1142,7.12502,22.6727,49.8023,-22.5258,-18.7204,3.53215,33.5503,-25.7593,-17.7454,-0.256062,-32.2226,-11.592,-19.9026,29.012,-10.4525,-13.698,-11.0554
12.3092,17.6753,0.578293,16.9793,4.21621,3.92619,16.9721,5.71303,4.45444,6.41442,8.53616,8.41372,-3.23938,4.1803,4.75331,-8.84888,-15.2569,-8.70781,24.6908,-23.0677,13.0388,12.226,-9.76374,2.78666,1.74931e-14,6.04305e-14,5.2192,2.08959,-86.6853,30.1529,44.5895,-37.3713,2.60201,7.12502,-10.4329,-27.1191,1.74931e-14,6.04305e-14,-19.7129,-8.70172,81.8653,120.934,53.2506,-2.71676,20.6464,7.12502,22.9858,49.2959,-22.5703,-17.9982,3.16998,32.4411,-26.1584,-18.5328,1.29875,-32.4722,-11.3495,-19.7076,28.9364,-10.4627,-13.4152,-11.284
12.2742,17.6846,0.588381,16.9801,3.56574,3.90161,16.9612,5.96746,4.47936,6.50885,8.85711,8.42787,-3.14969,4.33751,4.69643,-8.9985,-15.3765,-8.63347,24.7485,-23.2264,12.9351,12.2736,-9.82385,2.69737,-5.88403e-14,-3.18055e-14,5.39592,3.09217,-86.9493,30.2491,44.2241,-37.0448,3.28688,7.12502,-10.1178,-26.4499,-5.88403e-14,-3.18055e-14,-19.9081,-8.38882,81.7549,121.99,52.8367,-2.55101,20.3348,7.12502,23.1448,48.9645,-22.3673,-17.0452,2.6073,31.3044,-26.4804,-19.2023,2.85486,-32.3456,-10.927,-19.7083,28.8469,-10.5808,-12.9876,-11.1209
12.2353,17.6886,0.57946,17.0432,3.40977,3.95719,17.0796,5.99887,4.65898,6.46625,8.93992,8.46158,-3.24038,4.37588,4.60385,-8.84823,-15.4253,-8.62843,24.6592,-23.2777,12.9139,12.2108,-9.86048,2.69214,2.8625e-14,-1.59028e-14,5.5115,4.15443,-87.2704,30.3675,43.9406,-36.6942,3.80209,7.12502,-9.77966,-25.9508,2.8625e-14,-1.59028e-14,-20.2162,-7.91143,81.5874,122.967,52.4671,-2.2162,19.9811,7.12502,23.466,48.57,-22.09,-16.4143,2.07867,30.1667,-26.7662,-20.0963,3.87234,-32.4012,-10.7982,-19.6791,28.7615,-10.7129,-12.7707,-11.4834
12.1929,17.6862,0.572437,17.0373,3.22123,4.05348,17.2515,6.04303,4.75808,6.43518,9.03194,8.50551,-3.36128,4.41777,4.55925,-8.56877,-15.501,-8.68426,24.5604,-23.3708,12.9357,12.1393,-9.92322,2.71263,4.6118e-14,-3.49861e-14,5.63153,5.13707,-87.6179,30.5143,43.6889,-36.354,4.03852,7.12502,-9.45139,-25.7295,4.6118e-14,-3.49861e-14,-20.5015,-7.30263,81.3898,123.898,52.1313,-1.71591,19.9815,7.12502,23.9458,48.5083,-21.7042,-15.6942,1.48753,29.0202,-27.3597,-20.9581,4.55862,-32.3207,-10.7249,-19.6596,28.6873,-10.8518,-12.5707,-12.8026
12.1513,17.6835,0.575505,17.0951,2.84372,4.07922,17.181,6.23338,4.84849,6.5651,9.27428,8.58247,-3.19637,4.53852,4.55834,-8.7384,-15.6705,-8.73603,24.4953,-23.5962,12.9692,12.1894,-10.0145,2.6726,-3.33958e-14,-6.36111e-14,5.99297,5.78837,-87.8689,30.6438,43.635,-36.1112,4.45427,7.12502,-9.21711,-25.3243,-3.33958e-14,-6.36111e-14,-20.3763,-6.76684,81.2697,124.682,51.8713,-1.2226,20.0452,7.12502,24.4188,48.5091,-21.4513,-14.7411,0.950998,27.9225,-28.3256,-21.8215,4.83767,-32.2711,-10.4817,-19.6041,28.5995,-10.9549,-12.3237,-13.5825
12.109,17.6817,0.576797,17.1857,2.44759,4.10753,17.0541,6.47628,4.99018,6.77831,9.57669,8.65704,-2.9064,4.69119,4.52868,-9.27232,-15.8956,-8.68445,24.4771,-23.8777,12.8671,12.3014,-10.1124,2.52922,-2.70347e-14,-3.18055e-14,6.57522,6.37659,-87.9535,30.6844,43.6067,-35.8817,5.26324,7.12502,-8.99566,-24.525,-2.70347e-14,-3.18055e-14,-20.0031,-6.3733,81.2353,125.392,51.6622,-0.955399,20.0246,7.12502,24.675,48.4536,-21.2638,-13.7531,0.41708,26.8616,-29.5518,-22.3977,6.26477,-32.276,-10.0668,-19.6275,28.4822,-11.029,-12.2654,-13.7763
12.0642,17.6832,0.576078,17.2607,1.99614,4.14426,17.0333,6.67341,5.04685,6.85757,9.83088,8.72173,-2.82553,4.81625,4.52437,-9.34717,-16.0064,-8.73917,24.4194,-24.0067,12.8454,12.314,-10.1726,2.49668,8.26944e-14,-9.54166e-15,6.94303,7.25769,-88.0793,30.748,43.4305,-35.7458,6.05823,7.12502,-8.86446,-23.7356,8.26944e-14,-9.54166e-15,-19.9951,-5.81954,81.1209,126.138,51.4676,-0.576437,19.9586,7.12502,25.0381,48.3376,-21.1287,-12.8228,-0.085259,25.8379,-30.5223,-22.9081,7.58796,-32.2536,-9.73168,-19.6096,28.3467,-10.9814,-12.1186,-13.4585
12.018,17.6881,0.575635,17.3563,1.59243,4.22778,17.0104,6.84084,5.0605,6.88526,10.0453,8.76953,-2.80124,4.9209,4.52972,-9.27057,-16.0845,-8.87172,24.3296,-24.1061,12.9334,12.309,-10.225,2.53087,7.95139e-15,-3.49861e-14,7.21923,8.12506,-88.2733,30.8636,43.3102,-35.6529,6.17654,7.12502,-8.77487,-23.6211,7.95139e-15,-3.49861e-14,-20.1137,-5.27075,80.9096,126.863,51.225,-0.16953,19.7955,7.12502,25.428,48.1195,-20.9957,-11.8731,-0.626411,24.8918,-31.4706,-23.3949,8.20276,-32.2201,-9.52803,-19.5779,28.1836,-10.9028,-11.7067,-13.0894
11.9664,17.6942,0.576559,17.3502,1.24696,4.38823,17.0813,7.00875,5.04784,6.94446,10.2601,8.79152,-2.79235,5.02522,4.51324,-9.12644,-16.2107,-9.05025,24.1503,-24.289,13.1488,12.2942,-10.3131,2.60392,-8.11041e-14,-3.81667e-14,7.51395,8.90448,-88.4594,30.9863,43.0921,-35.4504,6.07911,7.12502,-8.57947,-23.7266,-8.11041e-14,-3.81667e-14,-20.1402,-4.81139,80.6979,127.569,51.0025,-0.0264425,19.9324,7.12502,25.565,48.2368,-20.75,-10.8861,-1.2434,24.0518,-32.4895,-23.8754,8.98677,-32.02,-9.25552,-19.6648,27.9684,-10.8977,-11.4735,-13.054
11.91,17.6978,0.577509,17.222,0.997964,4.59936,17.2813,7.12507,5.0564,7.00235,10.4211,8.77642,-2.83891,5.10174,4.44136,-8.9236,-16.3333,-9.11674,23.991,-24.4843,13.3454,12.2596,-10.4019,2.65904,-6.36111e-14,-6.99722e-14,7.88185,9.61041,-88.6779,30.9717,42.9171,-35.1835,6.28012,7.12502,-8.32187,-23.536,-6.36111e-14,-6.99722e-14,-20.0414,-4.45915,80.3719,128.154,50.6874,-0.093706,20.0921,7.12502,25.5006,48.4058,-20.3898,-10.0708,-1.84119,23.2937,-33.5997,-24.3328,9.57008,-31.7063,-9.03952,-19.7842,27.743,-10.8742,-11.4243,-12.9995
11.86,17.6982,0.573113,17.3321,0.644589,4.79622,17.2698,7.24902,5.11258,7.03014,10.5789,8.70537,-2.78687,5.17936,4.30873,-8.96319,-16.4329,-9.07079,24.0359,-24.6255,13.3001,12.2904,-10.4569,2.60578,4.13472e-14,3.18055e-15,8.39856,10.1391,-88.9577,30.7872,43.2945,-35.1494,6.33547,7.12502,-8.289,-23.4819,4.13472e-14,3.18055e-15,-19.8623,-4.07279,80.005,128.615,50.4313,-0.0564245,20.0211,7.12502,25.5363,48.3296,-20.4011,-9.42215,-2.38528,22.5963,-34.6846,-24.7635,9.86652,-31.7181,-8.90182,-19.84,27.535,-10.7564,-11.2437,-12.8057
11.814,17.6977,0.566447,17.6538,0.0923297,4.91305,17.0891,7.45417,5.14745,6.98316,10.8324,8.64498,-2.73622,5.30425,4.19497,-9.00447,-16.4948,-9.03648,24.1675,-24.6899,13.127,12.3254,-10.4871,2.52513,8.90555e-14,-1.59028e-14,8.73673,10.5456,-89.2626,30.7321,43.712,-34.8986,6.35458,7.12502,-8.04695,-23.4722,8.90555e-14,-1.59028e-14,-19.8753,-3.67976,79.6684,129.11,50.3813,0.235912,19.9396,7.12502,25.8163,48.2077,-20.8062,-8.71647,-2.85049,21.9816,-35.6979,-25.2455,10.285,-31.9557,-8.62567,-19.8486,27.3132,-10.6628,-10.9305,-13.1627
11.7623,17.6935,0.559233,17.7999,-0.34363,5.00017,17.1491,7.62984,5.22263,6.91022,11.0825,8.64696,-2.84344,5.42338,4.09422,-8.84871,-16.5666,-9.09974,24.1986,-24.7735,13.0701,12.3177,-10.5387,2.5105,3.18055e-15,0,8.93437,10.9371,-89.5509,30.8464,43.5031,-34.1199,6.88879,7.12502,-7.29526,-22.9654,3.18055e-15,0,-20.0795,-3.38787,79.4567,129.669,50.334,0.474155,19.9044,7.12502,26.0445,48.1391,-20.9991,-7.83788,-3.2638,21.4426,-36.9849,-25.5958,11.2353,-32.0033,-8.36062,-19.8214,27.0672,-10.5576,-10.7196,-13.7732
11.7036,17.6904,0.553551,17.8201,-0.652957,5.09089,17.2523,7.73939,5.28709,6.9183,11.2425,8.68917,-2.89209,5.49933,4.06027,-8.69776,-16.5879,-9.24562,24.1075,-24.7942,13.1646,12.2913,-10.5617,2.57069,1.27222e-13,-9.54166e-15,9.26675,11.4978,-89.7651,30.8503,43.2919,-33.8325,7.81557,7.12502,-7.01787,-22.0481,1.27222e-13,-9.54166e-15,-20.1751,-3.03012,79.2923,130.247,50.2774,0.892061,19.6903,7.12502,26.4445,47.8655,-20.9878,-6.81574,-3.64906,20.9718,-38.6853,-25.7832,12.1904,-31.9041,-8.15328,-19.7645,26.8216,-10.5142,-10.5632,-14.4724
11.6467,17.6922,0.556373,17.984,-0.936878,5.25778,16.995,7.81265,5.29623,6.96583,11.3075,8.68609,-2.70654,5.53576,4.07785,-8.67451,-16.5614,-9.29202,24.0764,-24.729,13.1178,12.2639,-10.5441,2.57601,3.81667e-14,0,9.67087,12.1957,-89.918,30.8139,43.3966,-33.845,8.74915,7.12502,-7.02991,-21.1141,3.81667e-14,0,-20.1239,-2.67284,79.0662,130.817,50.1276,1.29955,19.3144,7.12502,26.8345,47.4303,-21.1093,-6.47037,-3.99521,20.5827,-39.6195,-25.9295,12.5334,-31.8915,-8.00714,-19.7969,26.5809,-10.5762,-10.3205,-15.2863
11.5866,17.6926,0.55529,18.1219,-1.17821,5.51519,16.9088,7.88601,5.24951,6.93576,11.3874,8.63834,-2.69626,5.57495,4.04547,-8.66846,-16.5816,-9.1674,24.1237,-24.715,12.8741,12.2205,-10.55,2.48093,7.63333e-14,2.22639e-14,10.0058,12.9747,-90.0395,30.7853,43.368,-33.7686,8.86301,7.12502,-6.95615,-21.0027,7.63333e-14,2.22639e-14,-20.153,-2.41419,78.8086,131.403,49.978,1.67465,18.973,7.12502,27.1934,47.0333,-21.2535,-6.27328,-4.37917,20.2907,-40.3847,-26.131,12.7175,-31.859,-7.82143,-19.9462,26.3305,-10.6193,-10.1617,-16.2387
11.5203,17.6904,0.54111,18.0688,-1.41319,5.69942,17.2626,7.98769,5.24686,6.91341,11.5525,8.65704,-2.91709,5.64824,3.98395,-8.69753,-16.6563,-9.07157,24.1518,-24.7744,12.6458,12.1928,-10.5873,2.3771,7.31528e-14,0,10.2938,13.6289,-90.0997,30.758,43.3042,-33.9374,8.61418,7.12502,-7.1191,-21.2461,7.31528e-14,0,-20.1855,-2.11013,78.6222,131.912,49.874,1.96605,18.6874,7.12502,27.4721,46.7037,-21.277,-5.46118,-4.72752,20.064,-41.7178,-26.3591,12.1195,-31.7186,-7.7045,-19.9421,26.1135,-10.5307,-9.9916,-16.7465
11.451,17.6873,0.526911,18.026,-1.64402,5.78803,17.5522,8.09934,5.27538,6.91786,11.7305,8.75035,-3.0858,5.72907,3.99157,-8.73511,-16.6988,-9.13508,24.164,-24.7903,12.5253,12.1957,-10.6073,2.33721,-2.8625e-14,-9.54166e-15,10.4773,14.1524,-90.1096,30.838,43.278,-34.0151,8.41404,7.12502,-7.19413,-21.4437,-2.8625e-14,-9.54166e-15,-20.216,-1.73634,78.5373,132.399,49.7869,2.06111,18.3881,7.12502,27.563,46.3899,-21.3521,-4.71993,-4.90242,19.9059,-42.8089,-26.5709,10.1659,-31.5999,-7.56037,-19.8151,25.9229,-10.4866,-9.83638,-17.0333
11.3792,17.6817,0.513143,18.0023,-1.9006,5.95047,17.7634,8.21174,5.24298,6.95964,11.8854,8.78758,-3.17252,5.80064,3.99008,-8.811,-16.722,-9.20183,24.1414,-24.8001,12.5074,12.2092,-10.6143,2.33062,1.62208e-13,-1.27222e-14,10.6921,14.3699,-90.2305,30.9842,43.5085,-34.0378,8.56396,7.12502,-7.21606,-21.293,1.62208e-13,-1.27222e-14,-20.1375,-1.385,78.4153,132.822,49.6831,2.03363,18.0509,7.12502,27.5367,46.0569,-21.5225,-4.60261,-4.99617,19.8396,-43.3774,-26.4683,9.39087,-31.4796,-7.31341,-19.8078,25.7332,-10.4652,-9.77228,-17.6226
11.3085,17.6775,0.501483,17.9636,-2.16462,6.26891,17.9266,8.30833,5.14039,7.0208,11.9957,8.7204,-3.20268,5.85206,3.93286,-8.81131,-16.7658,-9.26865,24.0185,-24.8824,12.694,12.2123,-10.6414,2.38661,1.90833e-14,-3.18055e-14,10.9935,14.6346,-90.3227,31.0596,43.5695,-34.1127,8.91964,7.12502,-7.28837,-20.9348,1.90833e-14,-3.18055e-14,-19.979,-1.03113,78.2081,133.124,49.7092,2.08204,17.9801,7.12502,27.583,45.9787,-21.7181,-4.95427,-5.14219,19.8659,-43.3111,-26.401,9.109,-31.3339,-7.11304,-19.9838,25.545,-10.5091,-9.62718,-18.3366
11.2386,17.6743,0.493285,18.0068,-2.31128,6.48934,17.9714,8.35775,5.17071,7.02129,12.0626,8.65588,-3.20766,5.88387,3.82981,-8.70545,-16.7876,-9.16,23.8192,-24.932,12.8144,12.1239,-10.6592,2.41618,-5.08889e-14,3.81667e-14,11.188,15.0109,-90.3574,31.1874,43.4348,-34.3313,8.95317,7.12502,-7.49938,-20.8939,-5.08889e-14,3.81667e-14,-19.9806,-0.674199,78.0137,133.4,49.8902,2.05368,18.064,7.12502,27.5559,46.067,-21.9824,-5.61541,-5.06513,19.9805,-42.8284,-26.4226,8.41437,-31.2823,-7.03488,-19.9897,25.3605,-10.4765,-9.52026,-18.6268
11.1648,17.6698,0.481802,18.0807,-2.41257,6.58686,18.0188,8.39438,5.26604,6.9989,12.1302,8.65896,-3.24007,5.91532,3.76118,-8.61745,-16.7917,-9.06964,23.6829,-24.9323,12.8243,12.0416,-10.664,2.41821,1.90833e-14,7.63333e-14,11.285,15.3707,-90.399,31.4152,43.2602,-34.768,8.92274,7.12502,-7.92089,-20.9089,1.90833e-14,7.63333e-14,-20.1086,-0.316525,77.899,133.665,50.0259,1.94962,17.9544,7.12502,27.4564,45.9733,-22.3047,-6.24193,-4.79526,20.1841,-42.3372,-26.1063,8.52176,-31.2638,-6.9087,-19.8372,25.1399,-10.3581,-9.5194,-18.7661
11.0865,17.6661,0.467837,18.16,-2.51989,6.71815,18.0595,8.42988,5.21977,7.00009,12.175,8.71649,-3.28444,5.93531,3.82977,-8.66902,-16.8147,-9.19693,23.7052,-24.947,12.8236,12.0803,-10.6746,2.42532,-1.59028e-14,-6.36111e-14,11.444,15.8216,-90.3333,31.6045,43.0729,-34.925,9.03235,7.12502,-8.07241,-20.7935,-1.59028e-14,-6.36111e-14,-20.1877,0.236387,77.7781,133.914,50.3886,2.09763,18.3931,7.12502,27.598,46.3894,-22.6558,-7.01838,-4.47432,20.4291,-41.422,-25.708,8.56354,-31.2692,-6.76338,-19.7184,24.91,-10.1294,-9.51138,-18.6616
11.0036,17.6617,0.454038,18.2273,-2.70681,6.96591,18.0428,8.50588,5.01453,7.04382,12.2346,8.72542,-3.27617,5.9643,3.93828,-8.70891,-16.8508,-9.3018,23.7167,-24.9913,12.8592,12.1195,-10.6938,2.43727,-6.36111e-15,6.36111e-14,11.6491,16.1713,-90.2299,31.7884,43.0367,-34.999,9.07817,7.12502,-8.14378,-20.7449,-6.36111e-15,6.36111e-14,-20.0994,0.846573,77.6373,134.111,50.8482,2.22762,19.1766,7.12502,27.7223,47.153,-23.0547,-7.75817,-4.2572,20.7035,-40.0951,-25.6664,7.03354,-31.2543,-6.56778,-19.7496,24.6656,-9.85316,-9.47001,-18.3499
10.9184,17.6588,0.442553,18.3838,-2.89389,7.21672,17.8624,8.58669,4.80473,7.06709,12.2866,8.69354,-3.19651,5.99228,4.02971,-8.77128,-16.8649,-9.20519,23.7873,-25.0029,12.7453,12.1279,-10.6938,2.379,-1.11319e-13,-2.22639e-14,11.8768,16.5728,-90.077,31.9712,42.8918,-35.0432,8.97114,7.12502,-8.18643,-20.8503,-1.11319e-13,-2.22639e-14,-20.0264,1.40528,77.5469,134.182,51.1521,2.21312,19.2013,7.12502,27.7084,47.1799,-23.5674,-8.48794,-4.02838,21.021,-38.5185,-25.8769,4.19473,-31.295,-6.35896,-19.7726,24.3554,-9.64939,-9.46902,-18.4439
10.833,17.6559,0.429982,18.4923,-3.0027,7.44906,17.7975,8.61613,4.70003,7.05312,12.3008,8.63171,-3.18643,5.99954,4.02409,-8.85351,-16.8633,-8.96755,23.8362,-24.9916,12.562,12.0966,-10.6812,2.28369,8.90555e-14,-3.18055e-14,12.0838,16.8686,-89.982,32.101,42.8669,-34.9987,8.64304,7.12502,-8.14353,-21.18,8.90555e-14,-3.18055e-14,-20.0471,1.93648,77.4057,134.183,51.412,2.27445,18.9065,7.12502,27.767,46.8756,-23.9498,-8.98114,-3.86775,21.3309,-37.1714,-25.5885,2.99507,-31.2735,-6.26422,-19.7405,24.0106,-9.48715,-9.40984,-19.2058
10.7466,17.6519,0.41435,18.5383,-3.0372,7.66276,17.8422,8.61217,4.67382,7.05332,12.2924,8.59989,-3.2073,5.99444,3.9998,-8.85633,-16.8749,-8.90436,23.7816,-24.9919,12.5063,12.0572,-10.6852,2.25787,7.63333e-14,-1.27222e-14,12.2858,17.0661,-89.8601,32.1979,42.9125,-35.0262,8.42672,7.12502,-8.17004,-21.3953,7.63333e-14,-1.27222e-14,-20.0738,2.34323,77.3887,134.05,51.5628,2.15985,18.3971,7.12502,27.6575,46.3839,-24.1774,-9.2006,-3.82007,21.5593,-36.1082,-24.8495,3.81929,-31.2153,-6.2624,-19.6501,23.6681,-9.2436,-9.32827,-19.8523
10.6616,17.6524,0.398087,18.5543,-2.96758,7.73654,17.8567,8.547,4.84626,7.08415,12.2331,8.64512,-3.15281,5.96629,3.97186,-8.68673,-16.855,-9.05926,23.6059,-24.9538,12.6559,11.9973,-10.685,2.35141,2.8625e-14,-3.18055e-15,12.511,17.275,-89.6233,32.308,42.9,-34.9657,8.36242,7.12502,-8.11162,-21.4619,2.8625e-14,-3.18055e-15,-20.0777,2.74359,77.4821,133.592,51.4308,2.22416,16.6417,7.12502,27.719,44.6186,-24.2918,-9.04535,-3.76397,21.7157,-35.3791,-24.0862,4.29491,-31.0966,-6.2384,-19.4181,23.2975,-9.04004,-9.27761,-20.6767
10.5777,17.6623,0.381055,18.5414,-2.89987,7.84662,17.9657,8.43738,5.0419,7.04079,12.1334,8.63384,-3.20824,5.91544,3.86109,-8.46465,-16.808,-9.27304,23.6897,-24.9216,12.831,12.043,-10.674,2.4622,1.59028e-14,-1.04958e-13,12.5926,17.5546,-89.396,32.4456,42.963,-34.8079,8.2563,7.12502,-7.95932,-21.5738,1.59028e-14,-1.04958e-13,-20.2157,3.20542,77.4322,133.403,51.7207,1.89962,16.6528,7.12502,27.4086,44.6792,-24.3477,-8.43135,-3.89646,21.8232,-35.2101,-23.4986,5.05699,-30.927,-6.32859,-19.2097,22.9147,-8.8044,-9.09756,-21.3035
10.4936,17.6711,0.36945,18.4822,-2.91902,8.03267,18.096,8.33678,5.16123,7.00423,12.0309,8.55478,-3.26862,5.86288,3.71729,-8.32605,-16.7739,-9.43043,23.9117,-24.9301,12.9736,12.1519,-10.666,2.53918,-1.59028e-14,1.27222e-14,12.6254,17.8036,-89.1754,32.5966,43.0092,-34.7921,8.25908,7.12502,-7.94416,-21.5716,-1.59028e-14,1.27222e-14,-20.4438,3.60644,77.3333,133.18,52.062,1.61337,16.5742,7.12502,27.1348,44.6437,-24.403,-8.05064,-4.05884,21.9062,-34.7952,-23.4681,5.12944,-30.7053,-6.47198,-19.0831,22.5497,-8.55835,-8.76641,-21.6006
10.4084,17.6722,0.360307,18.3555,-2.94513,8.14372,18.2012,8.27078,5.34953,7.07839,11.971,8.52063,-3.19446,5.83452,3.58999,-8.32829,-16.7675,-9.38784,23.9557,-24.9324,12.9701,12.1634,-10.6599,2.53221,-3.49861e-14,5.725e-14,12.8136,17.8494,-88.8604,32.7014,43.0297,-34.88,8.44956,7.12502,-8.02897,-21.3779,-3.49861e-14,5.725e-14,-20.5585,3.87968,77.3356,132.848,52.3574,1.44546,16.3308,7.12502,26.9741,44.4252,-24.4919,-8.07783,-4.01367,22.0774,-33.6573,-23.7318,7.88876,-30.399,-6.53576,-18.8823,22.172,-8.20552,-8.49539,-21.3562
10.3201,17.6725,0.346988,18.2659,-2.9837,8.17188,18.2423,8.22855,5.4735,7.19605,11.9282,8.60422,-3.08016,5.81585,3.62777,-8.34215,-16.7634,-9.42356,23.8908,-24.8951,12.9244,12.1326,-10.6544,2.52763,4.45278e-14,1.20861e-13,13.0321,18.0373,-88.3361,32.8198,42.8781,-35.0119,8.65546,7.12502,-8.15629,-21.1671,4.45278e-14,1.20861e-13,-20.726,4.20062,77.5263,132.548,52.6192,1.44861,16.2613,7.12502,26.9771,44.3553,-24.7887,-8.39605,-3.79558,22.46,-31.9571,-23.7472,14.0134,-30.11,-6.49276,-18.6076,21.7663,-7.86384,-8.30914,-21.4539
10.2289,17.6728,0.331874,18.3426,-3.16277,8.28733,18.2016,8.23012,5.35438,7.206,11.9081,8.64368,-3.08067,5.80534,3.74093,-8.2097,-16.7428,-9.65591,23.8413,-24.8619,13.0523,12.1375,-10.655,2.61797,-3.81667e-14,-9.54166e-15,13.1455,18.157,-87.8889,32.9188,42.8153,-35.0132,8.70335,7.12502,-8.15751,-21.1192,-3.81667e-14,-9.54166e-15,-21.0305,4.47443,77.7412,132.202,52.893,1.42593,16.1953,7.12502,26.9554,44.2926,-25.4893,-9.18342,-3.52426,23.1036,-30.3934,-23.4173,17.712,-29.9954,-6.38673,-18.4464,21.3915,-7.67047,-8.04802,-22.3625
10.137,17.6758,0.315454,18.5445,-3.40608,8.30752,18.1397,8.25409,5.27092,7.13844,11.926,8.61916,-3.13381,5.81224,3.75682,-8.22508,-16.7392,-9.61535,23.9119,-24.8478,12.9518,12.1437,-10.651,2.57991,6.99722e-14,9.54166e-15,13.2436,18.0077,-87.6359,32.9354,43.0477,-34.8256,8.53814,7.12502,-7.97649,-21.2914,6.99722e-14,9.54166e-15,-21.3339,4.59278,77.8065,131.783,53.1151,1.22177,16.0831,7.12502,26.7601,44.2105,-26.4925,-10.2863,-2.95415,23.9784,-28.9886,-23.1914,17.2793,-30.0551,-6.36912,-18.089,21.0469,-7.33434,-7.70424,-22.379
10.0491,17.6809,0.296083,18.7985,-3.65329,8.41138,17.9918,8.26033,5.2047,7.10312,11.9078,8.52776,-3.08758,5.80448,3.71678,-8.37646,-16.7366,-9.5086,24.0317,-24.8304,12.7864,12.1753,-10.6368,2.49967,-1.04958e-13,-4.77083e-14,13.3377,17.7721,-87.3682,32.9771,43.3116,-34.6459,8.33224,7.12502,-7.80304,-21.5038,-1.04958e-13,-4.77083e-14,-21.6366,4.60898,77.8534,131.382,53.3224,1.08166,16.027,7.12502,26.626,44.1748,-27.633,-11.7349,-2.31641,25.0009,-27.0145,-23.0584,14.7783,-30.1599,-6.4407,-17.7881,20.6825,-6.95842,-7.38922,-22.1321
9.96586,17.6834,0.274592,18.9936,-3.83343,8.63023,17.8455,8.19354,5.12016,7.10763,11.7873,8.42421,-2.99633,5.74787,3.69818,-8.46499,-16.701,-9.48161,24.025,-24.783,12.7927,12.1808,-10.6096,2.50009,-9.54166e-15,2.8625e-14,13.4317,17.6729,-86.9621,33.1287,43.6059,-34.3348,8.05888,7.12502,-7.5027,-21.7881,-9.54166e-15,2.8625e-14,-21.9784,4.63468,77.925,130.978,53.5254,1.09182,15.845,7.12502,26.6357,43.9913,-28.6929,-13.3771,-1.73566,26.052,-24.7927,-22.4402,12.7792,-30.1865,-6.59278,-17.6501,20.2952,-6.61744,-7.07149,-22.4718
9.87593,17.6867,0.254641,19.0462,-4.08361,8.70877,17.8753,8.17179,5.06613,7.13003,11.7455,8.36905,-2.98495,5.72665,3.67526,-8.40575,-16.6807,-9.51694,23.9561,-24.7697,12.9009,12.1634,-10.6035,2.54966,9.85972e-14,-3.18055e-15,13.5524,17.4692,-86.5396,33.2331,43.9738,-34.0589,7.85862,7.12502,-7.23644,-21.9976,9.85972e-14,-3.18055e-15,-22.3352,4.54106,78.0491,130.542,53.6682,1.09915,15.715,7.12502,26.6427,43.8602,-29.6229,-14.3227,-1.1496,27.047,-23.1132,-21.6366,12.1059,-30.0608,-6.70912,-17.3346,19.8961,-6.29147,-6.71831,-22.7351
9.77902,17.6956,0.238487,18.9892,-4.34221,8.6092,18.0455,8.13835,5.08586,7.14273,11.7149,8.34979,-3.05036,5.70829,3.62924,-8.24907,-16.6258,-9.41804,23.8446,-24.681,12.8557,12.0549,-10.5795,2.55499,-5.40694e-14,-2.22639e-14,13.6832,17.4249,-86.1308,33.1795,43.8226,-34.1328,7.82351,7.12502,-7.30774,-22.0303,-5.40694e-14,-2.22639e-14,-22.8053,4.39294,78.1201,130.096,53.7331,1.08202,15.6373,7.12502,26.6264,43.785,-30.3847,-14.7329,-0.482848,27.9516,-22.2429,-21.1715,11.6412,-29.8102,-6.84995,-16.7413,19.4758,-5.8258,-6.44098,-22.486
9.68173,17.7066,0.223803,18.9561,-4.57263,8.48147,18.081,8.05942,5.05718,7.20658,11.6032,8.37345,-3.00642,5.65339,3.69309,-8.18502,-16.5477,-9.39696,23.7777,-24.5536,12.8127,11.9888,-10.5371,2.5691,-3.49861e-14,-6.36111e-15,13.8445,17.4344,-85.7033,33.0961,43.5689,-34.2587,8.00815,7.12502,-7.4293,-21.8414,-3.49861e-14,-6.36111e-15,-23.3107,4.31222,78.2563,129.657,53.7846,1.14171,15.4906,7.12502,26.6835,43.6296,-31.1071,-15.2018,0.246452,28.7756,-21.7388,-20.9919,10.6284,-29.5498,-6.8592,-16.162,19.0211,-5.36451,-6.3178,-22.895
9.58526,17.7157,0.209163,18.9856,-4.72531,8.39491,17.9921,7.97362,5.00551,7.26632,11.4703,8.40664,-2.90777,5.59012,3.79955,-8.11035,-16.472,-9.45724,23.6594,-24.4546,12.933,11.9428,-10.4996,2.64415,3.18055e-15,2.8625e-14,13.9841,17.2576,-85.2197,33.1115,43.6454,-34.1104,8.03373,7.12502,-7.28616,-21.8208,3.18055e-15,2.8625e-14,-23.7544,4.11683,78.488,129.214,53.8115,1.17118,15.4518,7.12502,26.7117,43.5865,-31.8092,-15.8219,0.970986,29.5372,-21.2706,-20.6038,10.0435,-29.3537,-6.7822,-15.663,18.5616,-5.06784,-6.34736,-24.4727
9.48554,17.72,0.191644,18.961,-4.75895,8.35904,17.9549,7.85576,4.94365,7.35083,11.2962,8.43731,-2.80854,5.50648,3.91236,-8.26415,-16.4138,-9.3395,23.6212,-24.3536,12.835,11.9116,-10.4528,2.60265,1.39944e-13,1.27222e-14,14.1269,16.9098,-84.7711,33.1486,43.9526,-34.0754,7.91404,7.12502,-7.25233,-21.9417,1.39944e-13,1.27222e-14,-24.0521,3.77408,78.7927,128.719,53.7603,1.00985,15.6561,7.12502,26.5573,43.8142,-32.3407,-16.3274,1.59488,30.2622,-21.0539,-19.8852,10.1397,-29.1405,-6.8415,-15.1498,18.1302,-4.75362,-6.38302,-26.2121
9.38482,17.7256,0.176046,18.9059,-4.75379,8.2591,17.9623,7.70542,4.9634,7.44686,11.0948,8.47139,-2.7032,5.40943,3.987,-8.62314,-16.4169,-9.33979,23.7606,-24.3451,12.7303,12.018,-10.4339,2.53532,-7.95139e-14,8.26944e-14,14.2686,16.5764,-84.28,33.1467,44.1875,-34.1952,7.87697,7.12502,-7.36803,-21.9747,-7.95139e-14,8.26944e-14,-24.37,3.3228,79.1077,128.255,53.7624,0.536051,15.7912,7.12502,26.1037,44.0172,-32.7812,-16.7869,2.27265,30.9512,-20.9427,-19.2372,10.2447,-28.9044,-7.10596,-14.4743,17.72,-4.28999,-6.24365,-27.0994
9.283,17.7303,0.161978,18.8873,-4.86797,8.26053,18.041,7.59308,4.77489,7.4196,10.9306,8.47877,-2.80325,5.32526,4.115,-8.72173,-16.3627,-9.51306,23.9654,-24.2864,12.7652,12.1404,-10.4015,2.56981,-3.81667e-14,-7.31528e-14,14.1509,16.3969,-83.7442,33.2338,44.1748,-34.0688,7.80425,7.12502,-7.24596,-22.0517,-3.81667e-14,-7.31528e-14,-24.9266,2.8564,79.3958,127.86,53.8811,0.0465771,15.8455,7.12502,25.635,44.1398,-33.323,-17.2899,2.86454,31.5831,-20.5868,-18.91,9.22986,-28.7328,-7.46636,-13.8565,17.332,-3.69143,-5.98633,-26.8467
9.18127,17.7348,0.145299,18.8491,-5.01053,8.2264,18.1321,7.51131,4.57242,7.40061,10.803,8.47772,-2.90242,5.25916,4.23417,-8.61905,-16.2792,-9.38917,23.9364,-24.1699,12.6985,12.065,-10.3577,2.5642,1.33583e-13,6.67916e-14,14.044,15.9466,-83.3498,33.2543,44.3761,-33.8568,7.72096,7.12502,-7.04138,-22.1419,1.33583e-13,6.67916e-14,-25.3413,2.38693,79.7183,127.339,53.7456,-0.267869,15.662,7.12502,25.3338,43.9994,-33.8662,-17.7891,3.51384,32.1523,-19.9218,-18.677,7.5275,-28.5596,-7.73161,-13.2323,16.969,-3.03107,-5.82429,-26.5748
9.07794,17.7409,0.126299,18.8446,-5.00867,8.09721,18.0744,7.36763,4.52176,7.45301,10.5984,8.48115,-2.81531,5.16019,4.31931,-8.66701,-16.1802,-9.085,23.8216,-24.0273,12.5857,11.9499,-10.291,2.51275,-1.90833e-14,-1.24042e-13,14.0767,15.3982,-82.9851,33.2855,44.8279,-33.6852,7.4173,7.12502,-6.87572,-22.451,-1.90833e-14,-1.24042e-13,-25.5714,1.99474,79.9986,126.759,53.4532,-0.20501,15.299,7.12502,25.394,43.6278,-34.3083,-18.1959,4.24328,32.6812,-19.6153,-18.2008,6.87884,-28.443,-7.96559,-12.526,16.646,-2.44737,-5.69492,-26.885
8.97477,17.7474,0.109987,18.8955,-5.04763,8.11174,17.9125,7.20511,4.32507,7.47941,10.34,8.439,-2.71601,5.03492,4.45499,-8.62549,-16.0256,-9.0076,23.7875,-23.8365,12.6507,11.9034,-10.2017,2.56638,-2.22639e-14,-2.8625e-14,14.0309,15.0405,-82.5469,33.3549,45.0805,-33.5798,7.18395,7.12502,-6.77394,-22.6877,-2.22639e-14,-2.8625e-14,-25.8649,1.68661,80.2433,126.288,53.1293,-0.079902,15.2445,7.12502,25.5138,43.5562,-34.7976,-18.6831,4.83537,33.1749,-19.2405,-17.7267,5.88504,-28.428,-8.18707,-11.9979,16.4122,-1.95535,-5.52563,-27.2126
8.87327,17.7514,0.0943644,18.9624,-5.1128,8.19911,17.8406,7.04361,4.03848,7.38442,10.0891,8.3656,-2.80287,4.91004,4.58359,-8.35317,-15.8567,-9.05757,23.811,-23.6388,12.774,11.86,-10.122,2.67658,-3.18055e-14,0,13.7928,14.7291,-82.1572,33.3701,45.1971,-33.4929,7.05707,7.12502,-6.69006,-22.8172,-3.18055e-14,0,-26.3026,1.32132,80.4544,125.823,52.831,-0.316149,15.2379,7.12502,25.2875,43.5818,-35.3256,-19.2062,5.3747,33.6368,-18.7422,-17.4368,4.50186,-28.4999,-8.44827,-11.5383,16.2849,-1.47759,-5.33859,-27.3605
8.77708,17.7551,0.0717096,19.0198,-5.02134,8.17038,17.8925,6.86135,4.06101,7.26197,9.87088,8.30743,-2.934,4.80172,4.54095,-8.19407,-15.7669,-9.11844,23.8608,-23.5615,12.9284,11.871,-10.0842,2.76558,2.54444e-14,-6.36111e-15,13.6143,14.1402,-81.7031,33.2728,45.5101,-33.4795,7.34543,7.12502,-6.67713,-22.5293,2.54444e-14,-6.36111e-15,-26.5781,0.864174,80.7584,125.251,52.522,-0.467609,15.2081,7.12502,25.1424,43.5725,-35.7749,-19.8444,6.08078,34.019,-18.2103,-17.0946,3.26369,-28.6417,-8.77023,-10.9576,16.2427,-1.02012,-5.22408,-28.4272
8.68946,17.7585,0.0473964,19.0221,-4.94358,8.09898,17.9569,6.63596,4.28977,7.24914,9.61316,8.19675,-2.90841,4.67655,4.34767,-8.2587,-15.6695,-8.99898,23.8207,-23.4442,12.9558,11.8405,-10.0224,2.77682,-5.40694e-14,3.18055e-14,13.5908,13.5265,-81.2473,33.1933,45.7709,-33.4743,7.55955,7.12502,-6.67205,-22.3153,-5.40694e-14,3.18055e-14,-26.5928,0.550641,81.0409,124.608,52.2718,-0.632802,15.3912,7.12502,24.9841,43.7776,-36.1311,-20.5595,6.82352,34.293,-17.6717,-16.6134,2.58576,-28.7303,-9.15234,-10.3594,16.2491,-0.51321,-4.95067,-29.2374
8.60018,17.7723,0.0384408,18.9201,-5.05939,7.88512,17.9995,6.43708,4.47061,7.33206,9.37213,8.13221,-2.78771,4.56022,4.2344,-8.34817,-15.535,-8.86675,23.772,-23.2542,12.9073,11.7885,-9.93582,2.77194,-2.8625e-14,4.77083e-14,13.5647,13.1662,-80.8051,33.1432,45.7062,-33.7398,7.57635,7.12502,-6.92836,-22.2903,-2.8625e-14,4.77083e-14,-26.6298,0.464135,81.2851,123.973,52.0502,-0.76261,15.6521,7.12502,24.8597,44.0558,-36.3008,-20.9405,7.59969,34.4557,-17.3653,-16.2073,1.79267,-28.5946,-9.55092,-9.63342,16.2823,-0.0676804,-4.35521,-28.9847
8.49674,17.7915,0.0345655,18.7485,-5.37193,7.4327,18.119,6.35327,4.51514,7.46967,9.26524,8.18812,-2.69863,4.50691,4.28976,-8.51026,-15.4021,-8.87286,23.7879,-23.0868,12.9743,11.8155,-9.85001,2.81375,2.54444e-14,3.18055e-15,13.6169,13.0241,-80.2517,32.9928,45.2968,-34.2239,7.70999,7.12502,-7.39573,-22.1407,2.54444e-14,3.18055e-15,-26.6807,0.449953,81.5009,123.352,52.0163,-1.07893,15.8139,7.12502,24.5565,44.2591,-36.3517,-20.7581,8.52288,34.5483,-17.2737,-16.0418,0.590758,-28.2715,-9.768,-8.68684,16.3035,0.253757,-3.6801,-29.0289
8.38955,17.806,0.0240122,18.5726,-5.61114,6.88087,18.3119,6.26618,4.66627,7.57984,9.18146,8.27459,-2.66617,4.46429,4.30615,-8.59773,-15.2627,-8.93298,23.7938,-22.9206,13.1103,11.8418,-9.7662,2.89281,-3.81667e-14,-3.18055e-14,13.6425,12.7081,-79.7259,32.847,45.2852,-34.4105,7.8109,7.12502,-7.5758,-22.0334,-3.81667e-14,-3.18055e-14,-26.6439,0.424212,81.6978,122.704,52.0463,-1.57554,16.0645,7.12502,24.0804,44.5735,-36.3464,-20.4024,9.52498,34.6256,-17.3927,-15.9724,0.499901,-27.9188,-9.8998,-7.63386,16.2584,0.655168,-3.1686,-30.2087
8.28648,17.8184,0.0135114,18.5437,-5.77768,6.58243,18.3405,6.14331,4.69965,7.62402,9.02199,8.24603,-2.61534,4.38618,4.29165,-8.62891,-15.1169,-8.83441,23.7561,-22.7215,13.0932,11.791,-9.67716,2.90919,-2.22639e-14,8.5875e-14,13.648,12.2127,-79.3358,32.7418,45.5702,-34.132,7.77448,7.12502,-7.30699,-22.0793,-2.22639e-14,8.5875e-14,-26.6544,0.435638,81.8545,122.125,52.2623,-2.07411,16.3484,7.12502,23.6023,44.9199,-36.5253,-20.4258,10.3612,34.7359,-17.3525,-15.7427,0.630956,-27.7605,-10.058,-6.86943,16.1511,1.24532,-2.69543,-31.6398
8.18651,17.8277,0.00630668,18.7486,-6.02211,6.73233,18.0852,6.03132,4.3057,7.58295,8.7901,8.06377,-2.54651,4.27246,4.3814,-8.58005,-14.9381,-8.73866,23.6835,-22.4774,13.0948,11.7084,-9.57323,2.94707,8.90555e-14,1.04958e-13,13.5878,11.8466,-78.9691,32.7008,45.7547,-33.8689,7.48935,7.12502,-7.05305,-22.3731,8.90555e-14,1.04958e-13,-26.7329,0.560688,81.9298,121.578,52.7456,-2.44412,16.611,7.12502,23.2474,45.2278,-37.0407,-20.626,10.7703,34.8992,-17.0399,-15.5254,-0.0305753,-27.9215,-10.4306,-6.53181,16.0633,1.84342,-1.97779,-32.1435
8.08875,17.8345,-0.00461332,18.9417,-6.09651,6.73343,17.9823,5.80858,4.10237,7.44626,8.47148,7.95579,-2.63603,4.11461,4.44382,-8.60331,-14.7345,-8.72812,23.8514,-22.1889,12.967,11.7195,-9.45187,2.95337,6.36111e-15,6.36111e-15,13.3805,11.7145,-78.5936,32.7078,45.9775,-33.6589,6.97552,7.12502,-6.85031,-22.8937,6.36111e-15,6.36111e-15,-26.8261,0.770421,81.9503,120.932,53.4014,-2.81397,16.7043,7.12502,22.8925,45.3654,-37.4587,-20.6609,11.2781,35.0861,-16.984,-15.4598,-0.491129,-28.1174,-10.7786,-6.02574,16.0333,2.32697,-1.43894,-32.5899
7.99444,17.8398,-0.0185821,19.0454,-6.03253,6.53519,18.0303,5.52873,4.19337,7.32393,8.13654,7.90072,-2.75259,3.94958,4.39334,-8.73729,-14.5517,-8.77947,24.0931,-21.9403,12.8809,11.8007,-9.33873,2.96608,-9.54166e-15,-2.22639e-14,13.1719,11.6607,-78.1773,32.7798,46.0506,-33.4385,6.40016,7.12502,-6.63752,-23.4758,-9.54166e-15,-2.22639e-14,-26.9001,0.958362,81.9189,120.28,54.2382,-3.13809,16.8005,7.12502,22.5814,45.4998,-37.7474,-20.8403,12.0273,35.2789,-17.0639,-15.2585,-0.35345,-28.2501,-10.8867,-5.39324,16.0043,2.84652,-1.18899,-32.5974
7.9079,17.8464,-0.0231454,19.1465,-6.16687,6.63458,17.7728,5.30512,4.00189,7.34487,7.78619,7.7281,-2.57822,3.78013,4.40989,-8.95933,-14.3908,-8.75626,24.2476,-21.7429,12.8887,11.8771,-9.23293,2.98542,8.5875e-14,6.36111e-14,13.1183,11.3909,-77.9013,32.8059,46.1793,-33.326,6.32687,7.12502,-6.52894,-23.5525,8.5875e-14,6.36111e-14,-26.7629,1.23836,81.8822,119.57,55.0721,-3.58682,17.0456,7.12502,22.1507,45.7967,-38.1152,-21.3902,12.5112,35.4563,-16.9037,-14.7111,-0.350454,-28.3153,-11.1275,-5.13656,15.9893,3.3942,-0.646973,-31.8571
7.82468,17.8562,-0.023055,19.2556,-6.31614,6.96825,17.4065,5.07662,3.69294,7.38524,7.39929,7.44973,-2.32481,3.59326,4.39346,-9.22422,-14.2314,-8.55947,24.3458,-21.536,12.79,11.9018,-9.12098,2.94225,4.13472e-14,2.22639e-14,13.1825,11.0611,-77.6943,32.7443,46.3045,-33.4735,6.20823,7.12502,-6.67128,-23.6667,4.13472e-14,2.22639e-14,-26.5211,1.48954,81.8466,118.905,55.993,-4.42695,17.6953,7.12502,21.3439,46.5398,-38.4898,-22.1062,12.7486,35.625,-16.6213,-14.0996,-0.771986,-28.4369,-11.6623,-5.09585,16.0502,3.82978,0.0558417,-31.4217
7.73551,17.8639,-0.036177,19.329,-6.24814,6.96119,17.3648,4.80923,3.69359,7.34793,7.04798,7.33249,-2.30804,3.42178,4.33914,-9.28663,-14.0791,-8.46127,24.2972,-21.3032,12.6883,11.8378,-9.02513,2.93112,-6.36111e-15,-1.90833e-14,13.2297,10.6655,-77.4431,32.6689,46.771,-33.8377,5.82885,7.12502,-7.02288,-24.0346,-6.36111e-15,-1.90833e-14,-26.3573,1.65823,81.8538,118.381,57.1658,-5.65554,19.0889,7.12502,20.1635,48.0625,-38.7786,-22.5086,13.3163,35.8226,-16.5745,-13.7333,-0.708679,-28.6549,-12.0467,-4.64224,16.1952,4.28457,0.392865,-31.892
7.64287,17.8642,-0.0633549,19.2824,-6.16275,6.68821,17.6171,4.56402,3.7041,7.33418,6.75408,7.41039,-2.44642,3.27399,4.45627,-9.38389,-13.9143,-8.54457,24.3974,-21.0506,12.6104,11.8624,-8.92242,2.95464,3.81667e-14,-2.54444e-14,13.2302,10.2129,-77.2082,32.7161,47.4169,-33.7693,5.4199,7.12502,-6.95692,-24.4458,3.81667e-14,-2.54444e-14,-26.1863,1.97025,81.9062,117.703,58.0763,-6.19158,19.705,7.12502,19.6482,48.7321,-38.8831,-22.2993,13.9886,35.9813,-16.9042,-13.7421,0.252514,-28.7181,-12.0502,-3.9736,16.2332,4.78712,0.567604,-31.8906
7.55293,17.8626,-0.0860297,19.2959,-6.16981,6.49552,17.7132,4.38344,3.60463,7.35603,6.51056,7.4428,-2.47422,3.15178,4.5902,-9.50091,-13.772,-8.55999,24.3668,-20.8508,12.6425,11.8539,-8.8318,2.99614,-4.45278e-14,0,13.2187,9.43972,-77.1137,32.7848,48.3008,-33.9843,5.14335,7.12502,-7.16438,-24.7154,-4.45278e-14,0,-25.9458,2.11931,81.9658,116.99,59.1747,-6.98628,20.0591,7.12502,18.884,49.1624,-39.0798,-22.2012,14.6231,36.1229,-17.1912,-13.7008,1.00491,-28.8268,-11.6258,-3.57195,16.3013,5.34812,0.463574,-30.9728
7.46388,17.8792,-0.100193,19.3262,-6.23184,6.43359,17.7636,4.20814,3.55146,7.32165,6.27501,7.30285,-2.51328,3.03596,4.51282,-9.4668,-13.6366,-8.34604,24.2218,-20.6879,12.6743,11.7483,-8.75249,3.0092,-4.77083e-14,6.36111e-15,13.1319,8.36699,-77.2859,32.7086,49.6999,-35.0254,4.78281,7.12502,-8.16928,-25.0393,-4.77083e-14,6.36111e-15,-25.7471,2.02012,81.8457,116.136,60.408,-7.73804,19.8896,7.12502,18.1609,49.0618,-39.273,-22.2638,15.1681,36.2205,-17.2351,-13.6183,0.702289,-28.9579,-12.3756,-2.89847,16.3742,5.91971,1.54046,-29.8252
7.37943,17.8876,-0.113308,19.264,-6.3442,6.43128,17.9562,4.0371,3.39533,7.26387,6.04197,7.19015,-2.66624,2.91897,4.51243,-9.3472,-13.4669,-8.28266,24.1371,-20.4816,12.7741,11.6712,-8.66033,3.08127,-3.49861e-14,-5.725e-14,12.9434,7.45798,-77.4335,32.7855,50.643,-35.0595,4.2961,7.12502,-8.20218,-25.5247,-3.49861e-14,-5.725e-14,-25.6282,2.00058,81.7595,115.249,61.5368,-8.18842,20.2519,7.12502,17.7275,49.4638,-39.3674,-22.1946,15.5374,36.3151,-17.1969,-13.6916,0.0276116,-28.8856,-12.6398,-2.55483,16.3661,6.38974,1.8923,-29.91
7.29706,17.8934,-0.126076,19.2751,-6.40682,6.44102,18.0573,3.86723,3.21394,7.18972,5.80376,7.12993,-2.79617,2.79979,4.58998,-9.30907,-13.3256,-8.24611,24.1495,-20.2943,12.7678,11.639,-8.57977,3.11031,3.18055e-15,-2.54444e-14,12.7046,6.65294,-77.4909,33.0993,50.9683,-33.9053,3.69731,7.12502,-7.08816,-26.164,3.18055e-15,-2.54444e-14,-25.4371,1.94345,81.7574,114.348,62.5806,-8.77214,21.39,7.12502,17.1658,50.6517,-39.4969,-22.1458,15.8867,36.3717,-17.2525,-13.7244,0.221537,-28.8465,-12.7462,-2.27456,16.22,6.92718,2.06503,-29.9848
7.21393,17.8999,-0.137533,19.3279,-6.45102,6.41419,18.0174,3.69803,3.04767,7.1875,5.5545,7.11137,-2.7762,2.67602,4.71777,-9.46798,-13.2089,-8.18485,24.1998,-20.1118,12.6401,11.6421,-8.49969,3.07801,-8.26944e-14,-5.40694e-14,12.6576,5.80491,-77.5071,33.2027,51.8173,-33.6125,3.08517,7.12502,-6.80554,-26.7855,-8.26944e-14,-5.40694e-14,-25.1321,1.85548,81.78,113.398,63.7564,-9.36166,22.5051,7.12502,16.5983,51.8153,-39.6499,-22.0608,16.2695,36.4618,-17.429,-13.6782,0.585306,-28.9014,-13.0226,-1.8546,16.1209,7.52567,2.5989,-29.114
7.13111,17.9064,-0.1505,19.3358,-6.43998,6.34494,17.9692,3.50046,2.86225,7.24694,5.26274,7.15765,-2.68917,2.53031,4.93798,-9.7038,-13.0595,-8.21444,24.2638,-19.8831,12.5728,11.6786,-8.39616,3.08326,-1.27222e-14,-5.40694e-14,12.6875,5.18655,-77.4028,33.2038,52.9102,-34.5685,2.88175,7.12502,-7.72826,-26.957,-1.27222e-14,-5.40694e-14,-24.7929,1.78844,81.8144,112.4,64.9218,-9.94987,23.0765,7.12502,16.0319,52.4332,-39.7359,-21.9686,16.6843,36.5596,-17.5669,-13.6979,0.000835907,-28.8795,-13.2241,-1.43199,15.9723,8.16532,3.06573,-28.2647
7.0499,17.914,-0.160288,19.3151,-6.42903,6.28625,17.939,3.33291,2.73201,7.29559,5.01873,7.15831,-2.61516,2.40867,5.06641,-9.8319,-12.9352,-8.24933,24.2779,-19.722,12.6409,11.7017,-8.31644,3.13269,-3.49861e-14,-2.8625e-14,12.6419,4.69375,-77.259,33.2681,53.4039,-35.3164,2.69027,7.12502,-8.45014,-27.1207,-3.49861e-14,-2.8625e-14,-24.4244,1.57211,81.8047,111.292,66.0234,-10.2359,23.2356,7.12502,15.7564,52.6142,-39.781,-21.9793,17.099,36.6548,-17.687,-13.6232,-0.258985,-28.782,-13.3156,-1.10487,15.7732,8.69893,3.28256,-28.5251
6.97245,17.92,-0.164398,19.2465,-6.55897,6.22806,17.9711,3.22802,2.65669,7.30795,4.86785,7.09042,-2.60807,2.33365,5.0661,-9.7609,-12.8289,-8.53122,24.298,-19.6431,13.0433,11.77,-8.2686,3.33662,-1.59028e-14,-2.22639e-14,12.4727,4.39028,-77.0471,33.3357,53.4514,-34.6966,1.4388,7.12502,-7.85197,-28.3954,-1.59028e-14,-2.22639e-14,-24.0717,1.26857,81.7639,110.08,66.9905,-10.0903,23.5568,7.12502,15.8967,52.9243,-39.7536,-21.7981,17.3972,36.7479,-17.8541,-13.5701,0.0141374,-28.6109,-13.4534,-0.803361,15.6167,9.23335,3.69278,-28.5905
6.89578,17.926,-0.1712,19.1479,-6.62869,6.17449,18.078,3.10579,2.57986,7.30674,4.7011,7.04173,-2.65491,2.25054,5.08737,-9.68012,-12.7077,-8.73294,24.2942,-19.5321,13.3655,11.8026,-8.21036,3.50775,9.54166e-15,1.59028e-14,12.3133,4.26214,-76.7343,33.3839,53.5773,-35.3353,1.89373,7.12502,-8.46836,-27.9165,9.54166e-15,1.59028e-14,-23.6729,0.950438,81.7015,108.811,67.809,-9.9151,23.657,7.12502,16.0654,53.011,-39.6444,-21.5184,17.6214,36.8324,-18.1539,-13.5539,0.546784,-28.4684,-13.6807,-0.465049,15.5134,9.73943,4.35138,-27.4189
6.81953,17.9295,-0.180008,19.1591,-6.63214,6.20356,18.0209,2.93909,2.38621,7.31235,4.44898,7.01031,-2.61251,2.12474,5.21863,-9.66715,-12.5597,-8.86414,24.2718,-19.3726,13.6248,11.8178,-8.12933,3.65073,3.81667e-14,-3.49861e-14,12.3037,4.44942,-76.3407,33.4783,53.4754,-35.0568,1.57415,7.12502,-8.19959,-28.2467,3.81667e-14,-3.49861e-14,-23.2448,0.848713,81.6119,107.607,68.5977,-9.63539,23.6124,7.12502,16.3347,52.9445,-39.6707,-21.3012,17.8212,36.9009,-18.4278,-13.6299,1.01259,-28.4782,-13.6744,-0.291747,15.466,10.199,4.67556,-26.5897
6.74379,17.933,-0.188255,19.1831,-6.69186,6.1607,17.9814,2.80444,2.25659,7.29131,4.25145,6.9775,-2.60589,2.02643,5.29901,-9.68662,-12.4361,-8.82915,24.3288,-19.2211,13.6417,11.821,-8.05654,3.67879,6.36111e-15,9.54166e-15,12.1805,4.81025,-75.9027,33.7339,52.987,-34.6094,1.23991,7.12502,-7.76782,-28.5974,6.36111e-15,9.54166e-15,-22.9337,0.704995,81.5055,106.511,69.3288,-9.69848,23.4132,7.12502,16.274,52.7502,-39.7209,-20.9863,18.0874,36.9466,-18.6574,-13.8057,1.40652,-28.4746,-13.6741,-0.0626741,15.4519,10.646,4.97599,-26.1117
6.66892,17.9376,-0.196905,19.1329,-6.65709,6.01984,18.0459,2.65793,2.31693,7.28868,4.07377,6.955,-2.62222,1.93942,5.27514,-9.77096,-12.3531,-8.66881,24.4248,-19.1086,13.5007,11.8236,-8.00064,3.61979,1.43125e-14,-3.18055e-15,12.0054,4.8094,-75.6722,33.9379,52.9084,-34.4392,1.0779,7.12502,-7.60354,-28.7654,1.43125e-14,-3.18055e-15,-22.6291,0.445536,81.3658,105.523,70.2976,-9.63143,23.6152,7.12502,16.3385,52.9469,-39.6639,-20.7951,18.4809,36.9771,-18.7898,-13.946,1.37744,-28.4329,-13.6569,0.227974,15.4836,11.1292,5.16704,-25.8073
6.59459,17.9435,-0.20436,19.0562,-6.66452,5.89807,18.095,2.54374,2.3375,7.31792,3.92749,6.91994,-2.60098,1.86726,5.25516,-9.91796,-12.3036,-8.72751,24.6068,-19.1033,13.6647,11.9518,-7.97173,3.68261,3.81667e-14,3.18055e-14,11.9847,4.71726,-75.5389,33.9277,52.9842,-34.626,0.937087,7.12502,-7.78376,-28.8996,3.81667e-14,3.18055e-14,-22.2405,0.188885,81.2349,104.611,71.5345,-9.46645,23.9593,7.12502,16.4974,53.2779,-39.5538,-20.6015,18.8315,36.9957,-18.9646,-14.0171,1.44301,-28.3533,-13.4468,0.391145,15.5501,11.6017,5.16775,-25.791
6.52401,17.9461,-0.208837,18.956,-6.78027,5.78189,18.1784,2.47475,2.35408,7.34325,3.83956,6.85283,-2.60483,1.82391,5.18942,-9.97774,-12.2377,-8.79841,24.711,-19.0768,13.8766,12.0368,-7.93804,3.77382,0,-4.6118e-14,11.9326,4.80271,-75.3128,34.0239,53.0064,-34.5421,0.890403,7.12502,-7.70282,-28.9493,0,-4.6118e-14,-21.8454,-0.0367886,81.1063,103.735,72.7474,-9.6099,24.1443,7.12502,16.3593,53.4743,-39.441,-20.3714,19.1395,37.0379,-19.1791,-14.0095,1.7328,-28.2101,-13.3331,0.562268,15.6406,12.0053,5.42963,-25.6793
6.45823,17.9474,-0.215805,18.8759,-6.8207,5.74986,18.2349,2.38217,2.42478,7.36624,3.72671,6.73625,-2.58888,1.7698,5.04518,-10.004,-12.167,-8.62715,24.7241,-19.011,13.8729,12.0187,-7.89423,3.75726,4.77083e-15,-1.43125e-14,11.8294,4.78758,-75.1538,34.1813,53.0967,-34.2928,0.712714,7.12502,-7.46221,-29.1357,4.77083e-15,-1.43125e-14,-21.4511,-0.310768,80.9539,102.961,73.9754,-9.816,24.6588,7.12502,16.1608,54.0051,-39.3857,-20.1911,19.3694,37.1121,-19.3703,-14.1764,1.57559,-28.1657,-13.3706,0.702998,15.7285,12.5015,5.85318,-25.3896
6.39583,17.9483,-0.227889,18.8937,-6.7172,5.84055,18.251,2.22509,2.39181,7.30394,3.52178,6.67621,-2.64712,1.66994,5.04005,-9.96985,-12.0868,-8.5262,24.7424,-18.9008,13.7973,11.9824,-7.84733,3.73666,2.54444e-14,-1.11319e-14,11.7678,4.8117,-75.0233,34.1124,53.1948,-34.2918,0.623015,7.12502,-7.46119,-29.2254,2.54444e-14,-1.11319e-14,-21.2693,-0.482398,80.8518,102.324,75.1371,-10.0671,24.9523,7.12502,15.9191,54.318,-39.4913,-20.2475,19.575,37.2158,-19.4922,-14.3494,1.26217,-28.3339,-13.4015,0.734063,15.8419,13.0422,6.22443,-24.9732
6.3325,17.9504,-0.239354,18.9477,-6.66043,5.93705,18.2655,2.09697,2.26291,7.2079,3.34383,6.67641,-2.75173,1.58207,5.14916,-9.9741,-12.0256,-8.61038,24.8055,-18.7934,13.7354,11.9939,-7.81205,3.74683,5.40694e-14,4.29375e-14,11.7378,5.03384,-74.8169,33.9539,53.0198,-34.3602,0.7301,7.12502,-7.52723,-29.116,5.40694e-14,4.29375e-14,-21.2029,-0.490932,80.8769,101.774,75.9946,-10.4734,25.1436,7.12502,15.5277,54.5402,-39.6259,-20.2567,19.7538,37.3346,-19.6129,-14.3986,1.09976,-28.5432,-13.3854,0.743014,16.007,13.4624,6.63316,-24.3889
6.2689,17.9511,-0.246432,18.8932,-6.67941,5.98835,18.3342,2.03034,2.17102,7.15888,3.25,6.67104,-2.83765,1.53547,5.21347,-9.99347,-11.9924,-8.69454,24.8946,-18.725,13.6606,12.0226,-7.79275,3.74463,1.59028e-15,-2.22639e-14,11.6199,5.17772,-74.6583,33.9398,53.0233,-34.3382,0.435276,7.12502,-7.506,-29.4115,1.59028e-15,-2.22639e-14,-21.1303,-0.565309,80.9389,101.332,76.4797,-10.9416,25.5703,7.12502,15.0768,55.0013,-39.629,-20.173,19.9045,37.4605,-19.719,-14.4349,0.871398,-28.6145,-13.3577,0.741647,16.2056,13.9022,7.05047,-23.2484
6.20822,17.95,-0.252685,18.8172,-6.61967,6.04561,18.3878,1.97003,2.23404,7.13549,3.18423,6.60203,-2.87833,1.50476,5.11491,-9.99344,-12.0053,-8.66401,24.8878,-18.7713,13.7334,12.0326,-7.80383,3.75821,-9.54166e-15,-3.02153e-14,11.5157,5.01133,-74.6396,33.9042,53.4146,-34.2109,-0.124468,7.12502,-7.38316,-29.9756,-9.54166e-15,-3.02153e-14,-20.9763,-0.830727,80.9138,100.973,76.7256,-11.4124,25.6771,7.12502,14.6232,55.1416,-39.6044,-20.0965,20.0483,37.5771,-19.8317,-14.6052,0.555032,-28.6959,-13.2593,0.707617,16.399,14.4627,7.20949,-21.6795
6.15111,17.9494,-0.261302,18.7576,-6.54374,6.12462,18.4605,1.90689,2.31921,7.12426,3.11868,6.53238,-2.91494,1.4742,5.0029,-10.1487,-12.0365,-8.60963,24.9552,-18.8482,13.7816,12.1023,-7.81676,3.74524,-4.77083e-14,-5.24792e-14,11.5922,4.76486,-74.6495,33.6435,53.7982,-34.4282,-0.238835,7.12502,-7.59287,-30.0825,-4.77083e-14,-5.24792e-14,-20.8033,-1.02164,80.8993,100.716,76.7924,-11.6315,25.6414,7.12502,14.4121,55.121,-39.623,-20.168,20.2158,37.6821,-19.9266,-14.6827,0.242461,-28.8182,-13.1467,0.638449,16.6163,14.9341,7.2967,-20.6907
6.09761,17.9496,-0.269628,18.6776,-6.47169,6.23397,18.6275,1.7962,2.31416,7.05381,2.9903,6.53776,-3.06846,1.41159,5.03527,-10.1515,-12.0188,-8.66515,24.9775,-18.78,13.6524,12.0911,-7.80464,3.71849,9.54166e-15,9.54166e-15,11.6715,4.96839,-74.5672,33.3068,53.7254,-34.6691,-0.0471748,7.12502,-7.82542,-29.8824,9.54166e-15,9.54166e-15,-20.8951,-0.948348,81.002,100.671,76.8282,-11.9458,25.8084,7.12502,14.1093,55.3094,-39.6199,-20.3317,20.3399,37.7909,-20.0511,-14.6317,0.359,-28.929,-13.1295,0.5337,16.8182,15.3898,7.48363,-20.4992
6.04215,17.9513,-0.27297,18.6043,-6.40331,6.28268,18.6808,1.72979,2.33652,7.03978,2.91384,6.56305,-3.10563,1.37417,5.06552,-10.2074,-12.0266,-8.58009,24.9378,-18.7383,13.4416,12.0443,-7.80007,3.63127,4.77083e-15,-2.06736e-14,11.7958,5.02397,-74.5465,33.0114,53.8179,-34.5225,0.047762,7.12502,-7.68389,-29.7926,4.77083e-15,-2.06736e-14,-20.9238,-0.924409,81.0619,100.75,76.8792,-12.2204,26.0854,7.12502,13.8446,55.6046,-39.5951,-20.4711,20.5218,37.9072,-20.1539,-14.5235,0.554853,-28.9676,-13.083,0.487732,16.9456,15.7829,7.70242,-20.2108
5.98514,17.9512,-0.275214,18.5094,-6.32385,6.39995,18.7424,1.75164,2.34474,7.03291,2.94821,6.56064,-3.14711,1.39148,5.04969,-10.3657,-12.1134,-8.43321,25.0057,-18.8514,13.2879,12.0833,-7.8404,3.52313,2.70347e-14,4.6118e-14,11.8515,4.78704,-74.527,32.7024,53.884,-34.5328,0.276267,7.12502,-7.69382,-29.5638,2.70347e-14,4.6118e-14,-20.8671,-1.12938,81.1737,100.916,76.8733,-12.603,26.4603,7.12502,13.4759,56.0044,-39.5512,-20.5367,20.6027,38.0367,-20.296,-14.5293,0.283908,-28.9799,-13.0373,0.38356,17.0225,16.0803,7.9734,-19.7107
5.92963,17.9497,-0.283689,18.4404,-6.15577,6.52312,18.866,1.76305,2.35956,6.96238,2.98365,6.64361,-3.2933,1.40937,5.12106,-10.2814,-12.2041,-8.558,24.984,-18.9535,13.282,12.0844,-7.90076,3.52587,-2.70347e-14,1.74931e-14,11.8177,4.58763,-74.4613,32.3999,53.826,-34.6221,0.539486,7.12502,-7.78006,-29.2974,-2.70347e-14,1.74931e-14,-20.9556,-1.25924,81.4503,101.255,76.7594,-13.1044,27.1782,7.12502,12.9926,56.7536,-39.537,-20.4833,20.6525,38.1812,-20.5402,-14.7683,-0.0847098,-29.0932,-13.1031,0.35774,17.0816,16.5147,8.26744,-19.2838
5.87493,17.9479,-0.293639,18.3492,-6.07888,6.66547,18.8935,1.78368,2.36761,7.01327,3.01105,6.66602,-3.25572,1.42242,5.13501,-10.1352,-12.2667,-8.73269,24.7074,-19.0402,13.5335,12.0096,-7.94811,3.63363,-4.29375e-14,-7.95139e-14,12.0073,4.33757,-74.5096,32.1198,54.0933,-34.4046,0.743636,7.12502,-7.57011,-29.1009,-4.29375e-14,-7.95139e-14,-20.9179,-1.36385,81.5975,101.69,76.3879,-13.2979,27.6204,7.12502,12.806,57.2076,-39.5031,-20.3717,20.6439,38.3249,-20.7923,-14.8856,0.333339,-29.136,-13.1793,0.299988,17.1114,17.0481,8.62558,-18.7936
5.82268,17.944,-0.299479,18.1937,-5.99305,6.88823,18.8873,1.82817,2.38712,7.16137,3.05827,6.62011,-3.09348,1.44512,5.06542,-10.2831,-12.3847,-8.66275,24.5181,-19.2176,13.6557,11.9984,-8.00762,3.62317,-1.11319e-14,-3.18055e-15,12.3604,4.01412,-74.6039,31.791,54.2916,-34.2195,0.914926,7.12502,-7.39148,-28.936,-1.11319e-14,-3.18055e-15,-20.709,-1.54931,81.6527,102.164,75.9069,-12.9444,27.7943,7.12502,13.1468,57.3599,-39.4046,-20.4206,20.5501,38.4496,-20.9478,-14.9291,0.338334,-29.1268,-13.2378,0.101141,17.1569,17.5834,8.98114,-17.9033
5.77227,17.9419,-0.303079,18.1442,-5.82779,7.09758,18.8727,1.86093,2.43539,7.1688,3.10886,6.62335,-3.07935,1.47098,5.03055,-10.2815,-12.4916,-8.67441,24.3857,-19.3835,13.792,11.9888,-8.07244,3.64228,7.95139e-15,-3.81667e-14,12.592,3.81376,-74.6887,31.3038,54.3133,-34.1455,1.1724,7.12502,-7.31998,-28.681,7.95139e-15,-3.81667e-14,-20.7919,-1.71299,81.7844,102.78,75.3456,-12.5088,27.6737,7.12502,13.5667,57.2117,-39.407,-20.5436,20.5279,38.5291,-20.9733,-15.047,0.103152,-29.291,-13.4178,-0.000248843,17.2561,18.089,9.30795,-17.4604
5.72478,17.9436,-0.304733,18.1683,-5.65493,7.19328,18.7543,1.88506,2.57861,7.15578,3.16284,6.69464,-3.03184,1.49901,5.01632,-10.149,-12.5907,-8.78428,24.2327,-19.5162,13.9159,11.9496,-8.14034,3.68555,4.6118e-14,4.13472e-14,12.7292,3.60083,-74.8127,30.9224,54.3881,-33.9805,1.63,7.12502,-7.16071,-28.2289,4.6118e-14,4.13472e-14,-21.011,-1.85813,81.9955,103.5,74.7015,-12.4236,27.5463,7.12502,13.6488,57.0788,-39.4405,-20.6979,20.6584,38.5819,-21.1265,-14.9898,0.632914,-29.4781,-13.5531,0.0124561,17.3658,18.549,9.68169,-17.4163
5.677,17.9467,-0.306678,18.1034,-5.45884,7.30894,18.6027,1.89604,2.70646,7.26428,3.18651,6.80263,-2.83688,1.51086,5.06009,-10.1415,-12.7309,-8.93661,24.1062,-19.6701,13.9428,11.9412,-8.22281,3.68788,-7.95139e-15,-3.18055e-15,13.0186,3.48807,-74.9272,30.621,54.3283,-33.8,1.96932,7.12502,-6.98647,-27.8954,-7.95139e-15,-3.18055e-15,-21.0757,-1.97151,82.2199,104.253,74.1109,-12.5718,27.7404,7.12502,13.5059,57.2824,-39.3373,-20.7888,20.7067,38.617,-21.3198,-15.0304,0.614538,-29.5737,-13.5637,-0.106499,17.4677,18.9615,10.0588,-16.9367
5.62939,17.9466,-0.312909,18.0091,-5.20808,7.45394,18.6558,1.89847,2.79626,7.28565,3.21412,6.93526,-2.84567,1.52444,5.14652,-10.0977,-12.8696,-9.09689,24.0406,-19.8167,13.9133,11.9418,-8.30716,3.67518,1.43125e-14,-1.90833e-14,13.3034,3.55747,-75.0401,30.201,54.1883,-33.6823,2.32936,7.12502,-6.87288,-27.5391,1.43125e-14,-1.90833e-14,-21.2497,-2.03238,82.3981,105.055,73.5786,-12.5627,28.1816,7.12502,13.5147,57.723,-39.207,-20.7712,20.6814,38.6543,-21.4774,-15.2562,0.274517,-29.704,-13.5497,-0.268246,17.5755,19.3404,10.4433,-16.1265
5.58396,17.9462,-0.319152,17.8896,-5.01927,7.64615,18.8301,1.94423,2.87159,7.24953,3.30608,7.02205,-2.98242,1.57003,5.17421,-9.97613,-12.9933,-9.19674,23.9643,-19.9682,13.9296,11.9229,-8.38831,3.67432,2.22639e-14,-1.59028e-14,13.4801,3.71743,-75.1037,29.748,53.946,-33.4453,2.84423,7.12502,-6.6441,-27.0315,2.22639e-14,-1.59028e-14,-21.5143,-2.1469,82.5287,105.94,72.9506,-12.6649,28.5554,7.12502,13.4162,58.1034,-39.052,-20.6878,20.5533,38.6956,-21.6947,-15.3984,0.288069,-29.8088,-13.6842,-0.455568,17.6959,19.7204,11.1257,-15.0719
5.54014,17.9487,-0.322325,17.7267,-4.83915,7.9034,18.9576,1.98456,2.9821,7.26973,3.38697,7.05841,-3.0284,1.61069,5.1308,-9.8684,-13.1235,-9.28956,23.8587,-20.1313,13.9715,11.8999,-8.47201,3.67825,-6.67916e-14,-5.40694e-14,13.6888,3.93826,-75.1897,29.3438,53.6501,-33.1117,3.2519,7.12502,-6.32208,-26.6338,-6.67916e-14,-5.40694e-14,-21.7047,-2.29011,82.5767,106.885,72.3945,-12.979,28.4802,7.12502,13.1134,58.0479,-38.8403,-20.6622,20.3277,38.76,-22.0067,-15.4105,0.888925,-29.8169,-13.7732,-0.821324,17.8155,20.1528,11.7778,-14.4174
5.49784,17.9533,-0.325375,17.5928,-4.63559,8.12866,18.9943,2.02732,3.18518,7.31947,3.47797,7.08944,-2.99,1.65736,5.02876,-9.75031,-13.2739,-9.20409,23.7144,-20.2961,13.8306,11.8143,-8.56255,3.59032,-1.27222e-14,-3.18055e-15,14.0143,3.8987,-75.4459,28.8011,53.7238,-32.9556,3.79651,7.12502,-6.17138,-26.0936,-1.27222e-14,-3.18055e-15,-21.8905,-2.38189,82.601,107.929,71.7696,-13.0805,28.6946,7.12502,13.0156,58.2686,-38.6593,-20.6468,20.1516,38.8349,-22.3176,-15.4941,1.47748,-29.8097,-13.7749,-1.2132,17.9222,20.4074,12.6519,-13.5532
5.45047,17.9536,-0.342652,17.5481,-3.99672,8.34675,19.1195,1.95281,3.44492,7.25349,3.45353,7.25937,-3.11858,1.64762,5.06755,-9.54402,-13.4265,-9.01641,23.447,-20.3918,13.4315,11.6063,-8.65176,3.41475,-3.18055e-14,-6.36111e-14,14.2785,3.96391,-75.6318,28.2978,53.8405,-32.8186,4.24294,7.12502,-6.03905,-25.651,-3.18055e-14,-6.36111e-14,-22.2358,-2.3543,82.7542,109.054,71.0129,-12.9429,28.6815,7.12502,13.1483,58.247,-38.5506,-20.7123,20.071,38.9166,-22.7499,-15.8255,2.2445,-30.1177,-13.6089,-1.57762,18.0635,20.7782,12.8555,-12.6166
5.40796,17.9524,-0.348042,17.3466,-3.60285,8.58155,19.3401,1.94413,3.63217,7.24648,3.50185,7.39593,-3.2405,1.67198,5.09459,-9.39504,-13.5754,-8.94164,23.2859,-20.5001,13.1053,11.4765,-8.73984,3.27847,-2.54444e-14,-5.725e-14,14.49,4.16709,-75.8369,27.8361,53.7724,-32.7099,4.62244,7.12502,-5.93417,-25.2745,-2.54444e-14,-5.725e-14,-22.5869,-2.29467,82.8524,110.159,70.3269,-13.0943,27.0611,7.12502,13.0023,56.6359,-38.2513,-20.712,19.8486,38.9721,-23.13,-16.0293,2.73016,-30.2028,-13.4197,-2.10822,18.32,20.9855,13.2805,-11.2264
5.37007,17.9563,-0.346878,17.1135,-3.43875,8.83347,19.5076,1.99459,3.83138,7.29887,3.61362,7.43842,-3.26813,1.72787,4.99968,-9.33967,-13.7548,-9.04296,23.2909,-20.7223,13.0571,11.5026,-8.85042,3.23898,-7.63333e-14,3.18055e-15,14.7437,4.53282,-76.0708,27.3915,53.4017,-32.5437,4.89617,7.12502,-5.7737,-25.0052,-7.63333e-14,3.18055e-15,-22.804,-2.36178,82.8001,111.215,69.4865,-13.2713,25.8092,7.12502,12.8317,55.3948,-37.9031,-20.6378,19.54,39.0042,-23.4191,-16.081,3.08874,-30.1342,-13.0754,-2.83334,18.6748,20.8744,13.7615,-10.0411
5.33415,17.964,-0.340996,16.9076,-3.34467,9.08666,19.5437,2.08972,3.96407,7.39602,3.75852,7.51734,-3.18746,1.79978,4.97859,-9.26915,-13.9486,-9.22283,23.2589,-20.9638,13.0755,11.5329,-8.97138,3.23088,3.81667e-14,1.90833e-14,14.9692,5.04761,-76.1686,27.0624,53.025,-32.1947,5.03786,7.12502,-5.43669,-24.8724,3.81667e-14,1.90833e-14,-22.9772,-2.45213,82.8364,112.334,68.4233,-13.1578,25.9143,7.12502,12.9411,55.493,-37.5539,-20.5123,19.2175,39.0149,-23.6552,-16.0786,3.51792,-29.9963,-12.523,-3.69544,19.0913,20.4035,13.8753,-9.86474
5.29922,17.9637,-0.338548,16.9593,-3.3687,9.20049,19.3512,2.27733,4.12411,7.42059,4.01666,7.63613,-3.07439,1.92793,4.96485,-9.05355,-14.1474,-9.35952,23.0997,-21.1918,13.046,11.4727,-9.10182,3.21262,-7.31528e-14,-4.45278e-14,15.1252,5.40329,-76.2969,26.7422,52.9024,-31.6713,5.4403,7.12502,-4.93134,-24.4823,-7.31528e-14,-4.45278e-14,-23.2301,-2.61037,82.8859,113.469,67.3726,-13.0271,25.5897,7.12502,13.0671,55.1603,-37.5652,-20.2374,19.1297,39.0339,-23.8157,-16.2094,3.29446,-30.2381,-11.8266,-4.33978,19.6079,19.6125,14.0685,-10.2999
5.26713,17.9563,-0.336691,17.0089,-3.28402,9.34555,19.1585,2.4189,4.35985,7.44128,4.2262,7.71368,-2.9531,2.0339,4.87545,-8.87253,-14.334,-9.24146,22.8741,-21.3905,12.8602,11.3376,-9.21714,3.1086,-3.81667e-14,-8.5875e-14,15.3502,5.68407,-76.5691,26.3671,52.7082,-30.8112,6.09281,7.12502,-4.10082,-23.8475,-3.81667e-14,-8.5875e-14,-23.4614,-2.763,82.8442,114.642,66.5528,-12.6956,25.1989,7.12502,13.3866,54.7488,-37.5947,-20.1695,19.0469,39.0754,-24.0018,-16.2148,3.41736,-30.6632,-11.2343,-4.97992,20.2265,18.7055,13.4791,-10.6735
5.23895,17.9507,-0.334041,16.9131,-3.14683,9.5268,19.0696,2.52821,4.59027,7.55059,4.39488,7.83984,-2.79043,2.11957,4.85145,-8.83076,-14.5348,-9.24771,22.7443,-21.6022,12.689,11.2848,-9.33396,3.01482,-5.08889e-14,-6.99722e-14,15.6838,6.05529,-76.7785,26.0498,52.4478,-30.3336,6.66199,7.12502,-3.63963,-23.2867,-5.08889e-14,-6.99722e-14,-23.4814,-2.83858,82.8177,115.849,65.9551,-12.0133,25.013,7.12502,14.0442,54.5185,-37.4845,-20.245,18.9037,39.1555,-24.0583,-16.2349,3.13123,-30.9017,-10.709,-5.73194,20.8914,17.5235,11.5451,-11.1256
5.20854,17.9467,-0.33183,16.7931,-3.07099,9.69436,19.0363,2.66295,4.73944,7.63177,4.58997,7.97608,-2.69519,2.21679,4.87684,-8.65892,-14.7228,-9.42106,22.6176,-21.8267,12.7092,11.2571,-9.45664,3.01717,1.59028e-14,1.27222e-14,15.9619,6.61018,-76.9898,25.7552,51.8572,-30.1042,7.08598,7.12502,-3.41808,-22.8664,1.59028e-14,1.27222e-14,-23.4576,-2.91449,82.7395,117.004,65.5008,-11.5343,24.7402,7.12502,14.5058,54.2131,-37.3841,-20.2506,18.7615,39.2967,-24.0398,-16.2237,3.12513,-31.0167,-10.2108,-6.46648,21.534,15.8222,8.84046,-13.0732
5.18099,17.9443,-0.330521,16.7457,-3.01688,9.90152,18.9909,2.82189,4.86275,7.66771,4.81449,8.09996,-2.64528,2.32813,4.89664,-8.52374,-14.9225,-9.53142,22.4449,-22.0566,12.678,11.2052,-9.58269,2.9898,3.18055e-14,6.67916e-14,16.2195,7.37585,-77.1022,25.4506,50.9116,-29.7084,7.31755,7.12502,-3.03588,-22.6406,3.18055e-14,6.67916e-14,-23.4283,-3.06112,82.7123,118.065,65.0655,-11.4246,24.2447,7.12502,14.6114,53.71,-37.3871,-20.3264,18.591,39.4973,-24.0121,-16.0041,3.47033,-31.2095,-9.74814,-7.2568,22.1246,13.7237,6.09833,-15.9619
5.15573,17.9343,-0.331538,16.7573,-2.96204,10.0696,18.9725,2.98201,5.01711,7.65845,5.0527,8.22349,-2.65605,2.44584,4.89349,-8.42622,-15.1099,-9.714,22.3614,-22.2845,12.6971,11.2105,-9.70139,2.98607,4.77083e-14,5.08889e-14,16.3841,8.11676,-77.2432,25.2369,50.2382,-29.417,7.67449,7.12502,-2.75441,-22.2875,4.77083e-14,5.08889e-14,-23.4932,-3.21275,82.7047,119.264,64.3829,-11.2737,23.5526,7.12502,14.7568,53.0073,-37.4898,-20.3388,18.4711,39.7322,-24.0741,-15.8762,3.28985,-31.5795,-9.28677,-8.00558,22.6963,11.5048,3.5267,-18.7319
5.13274,17.9173,-0.327121,16.6336,-2.96514,10.2053,19.057,3.14399,5.1717,7.66747,5.30075,8.34521,-2.70039,2.56748,4.88236,-8.20557,-15.2649,-9.92443,22.2634,-22.4848,12.7859,11.1973,-9.81015,3.02462,1.27222e-14,-1.59028e-14,16.397,8.74483,-77.527,25.1079,49.836,-29.4147,7.96235,7.12502,-2.7522,-21.9996,1.27222e-14,-1.59028e-14,-23.6605,-3.30322,82.631,120.487,63.6687,-11.3177,22.8317,7.12502,14.7144,52.2894,-37.4313,-20.3532,18.3348,39.9847,-24.2755,-15.6403,3.20972,-31.762,-9.14972,-8.63887,23.2347,9.32858,1.44841,-21.0385
