JuanDHNZ/ProyectoFinalCD/preprocessing/sports_trials_csv/14_17.csv
root1,root2,root3,root4,root5,root6,lowerback1,lowerback2,lowerback3,upperback1,upperback2,upperback3,thorax1,thorax2,thorax3,lowerneck1,lowerneck2,lowerneck3,upperneck1,upperneck2,upperneck3,head1,head2,head3,rclavicle1,rclavicle2,rhumerus1,rhumerus2,rhumerus3,rradius1,rwrist1,rhand1,rhand2,rfingers1,rthumb1,rthumb2,lclavicle1,lclavicle2,lhumerus1,lhumerus2,lhumerus3,lradius1,lwrist1,lhand1,lhand2,lfingers1,lthumb1,lthumb2,rfemur1,rfemur2,rfemur3,rtibia1,rfoot1,rfoot2,rtoes1,lfemur1,lfemur2,lfemur3,ltibia1,lfoot1,lfoot2,ltoes1
1.47382,17.8471,-0.676246,5.66915,-16.0658,1.82396,4.96005,0.360644,-6.26184,1.58694,0.162701,-0.478139,-1.1588,0.0777163,3.01038,-17.3692,-6.67409,-14.8481,21.2117,-6.38886,5.1265,10.3479,-3.57294,3.3378,1.73937e-14,5.96354e-15,-24.4408,-0.817859,-85.4743,37.4276,18.9238,-22.6402,4.09002,7.12502,3.79057,-25.856,1.73937e-14,5.96354e-15,-31.5743,12.6979,78.4005,29.3065,-9.35483,-6.95162,28.7716,7.12502,18.9174,57.8717,-19.8039,2.25441,9.09063,30.2951,-15.6342,-9.60861,0.601725,-12.623,1.57422,-25.392,23.1267,-12.6135,-0.469396,-7.97604
1.47386,17.8463,-0.67488,5.63499,-16.2276,1.91911,4.93096,0.354017,-6.34219,1.63065,0.153533,-0.492911,-1.0964,0.0702031,3.04076,-17.3991,-6.64271,-14.7766,21.0919,-6.35403,5.1129,10.3024,-3.54903,3.3255,-3.91109e-14,3.77691e-14,-24.3662,-0.816696,-85.5483,37.2731,18.9745,-22.5798,4.07794,7.12502,3.84892,-25.867,-3.91109e-14,3.77691e-14,-31.4177,12.487,78.4853,29.704,-9.18423,-8.06036,27.48,7.12502,17.8508,56.6807,-19.8759,2.32626,8.97291,30.3619,-15.6294,-9.5298,0.989121,-12.5646,1.55073,-25.4975,23.0404,-12.634,-0.328291,-8.13397
1.4734,17.8445,-0.674989,5.59034,-16.3693,2.02808,4.90434,0.343581,-6.47108,1.67676,0.137344,-0.485194,-1.03216,0.0589239,3.12199,-17.5334,-6.64529,-14.7546,21.1307,-6.34894,5.13889,10.3406,-3.54096,3.32995,1.08835e-14,5.56597e-15,-24.2731,-0.835473,-85.6,37.1197,18.958,-22.5023,4.21851,7.12502,3.92372,-25.7251,1.08835e-14,5.56597e-15,-31.2853,12.3663,78.6005,30.0342,-9.05076,-9.33003,26.3408,7.12502,16.6287,55.6485,-19.924,2.41845,8.84444,30.3864,-15.5952,-9.49786,1.14878,-12.5342,1.53167,-25.6185,23.0277,-12.7249,-0.182991,-8.45052
1.47384,17.8419,-0.676521,5.55271,-16.498,2.08472,4.9101,0.33385,-6.53418,1.70417,0.122408,-0.455067,-1.00547,0.0498459,3.18942,-17.6886,-6.66411,-14.7638,21.2493,-6.34783,5.13165,10.4127,-3.54284,3.32678,3.67752e-15,2.94201e-14,-24.1619,-0.879131,-85.6281,36.8532,18.9378,-22.5667,4.20818,7.12502,3.86151,-25.7366,3.67752e-15,2.94201e-14,-31.1287,12.0295,78.8013,30.2562,-8.76076,-9.9159,26.2208,7.12502,16.0646,55.5749,-19.9537,2.48464,8.77702,30.404,-15.5797,-9.4362,1.25311,-12.5045,1.5646,-25.6927,23.0259,-12.6498,-0.0578694,-8.30324
1.47392,17.8418,-0.679017,5.56381,-16.5843,2.05142,4.96783,0.325727,-6.49889,1.67393,0.108141,-0.419152,-1.06763,0.0453775,3.20761,-17.7481,-6.65759,-14.6872,21.3624,-6.33281,5.04713,10.4577,-3.54173,3.28586,-1.49089e-16,2.94201e-14,-24.1997,-0.954892,-85.6615,36.6599,18.8623,-22.5076,4.13641,7.12502,3.91857,-25.8073,-1.49089e-16,2.94201e-14,-31.0644,11.6463,78.964,30.561,-8.42172,-10.0964,26.3562,7.12502,15.8908,55.7242,-19.9945,2.5679,8.81096,30.3997,-15.5005,-9.46866,1.08864,-12.5053,1.58365,-25.6634,23.0479,-12.5966,0.0312395,-8.16295
1.47431,17.8421,-0.68217,5.6177,-16.6425,2.00322,5.04693,0.291209,-6.46308,1.59853,0.0558482,-0.367874,-1.18453,0.0247169,3.24373,-17.7273,-6.61133,-14.7026,21.4094,-6.27732,5.08038,10.4664,-3.51567,3.31011,4.42793e-14,8.54774e-15,-24.3309,-0.959428,-85.7037,36.5145,18.8066,-22.4149,4.17916,7.12502,4.00811,-25.7629,4.42793e-14,8.54774e-15,-31.0799,11.4674,79.0242,30.8695,-8.28999,-10.3371,25.7686,7.12502,15.659,55.1549,-20.0616,2.602,8.86509,30.3711,-15.4045,-9.51653,0.571482,-12.5801,1.49563,-25.6129,23.1011,-12.6043,0.188322,-7.99965
1.47534,17.8414,-0.681358,5.66198,-16.7182,1.98044,4.9747,0.245408,-6.41183,1.60209,0.00397211,-0.323444,-1.13516,-0.00273528,3.26402,-17.6667,-6.56772,-14.7717,21.3288,-6.22489,5.15974,10.425,-3.48708,3.35894,-6.55492e-14,2.18663e-15,-24.2807,-0.985767,-85.7307,36.2708,18.9338,-21.873,3.4586,7.12502,4.53138,-26.4729,-6.55492e-14,2.18663e-15,-30.9559,11.3184,79.097,31.0524,-8.26883,-10.7255,24.6935,7.12502,15.2849,54.1088,-20.1181,2.58638,8.89185,30.3418,-15.3464,-9.52292,0.344085,-12.6508,1.47321,-25.5954,23.1673,-12.6188,0.258663,-7.90525
1.47462,17.8406,-0.681615,5.70871,-16.7738,1.94898,4.87258,0.2165,-6.32179,1.65365,-0.0201681,-0.306579,-1.02248,-0.0193612,3.23217,-17.5696,-6.53366,-14.77,21.1468,-6.20845,5.2345,10.3406,-3.46742,3.38891,3.42904e-15,-1.61016e-14,-24.1434,-1.05918,-85.7932,36.0723,19.0679,-20.9411,1.66968,7.12502,5.43122,-28.2407,3.42904e-15,-1.61016e-14,-30.7448,11.0221,79.2,31.3171,-8.17005,-10.8817,24.3551,7.12502,15.1344,53.7817,-20.1738,2.62347,8.92547,30.3183,-15.3582,-9.50507,0.563246,-12.7272,1.59499,-25.5723,23.2379,-12.7395,0.242712,-8.881
1.4737,17.84,-0.68645,5.71994,-16.8365,1.94412,4.87572,0.186113,-6.3005,1.738,-0.05644,-0.282495,-0.933274,-0.0421879,3.24711,-17.6766,-6.51857,-14.6819,21.0121,-6.19117,5.23488,10.3057,-3.44689,3.37463,-2.36554e-14,-6.36111e-15,-23.9574,-1.03137,-85.8626,35.9321,19.0633,-20.4949,0.500059,7.12502,5.86205,-29.3989,-2.36554e-14,-6.36111e-15,-30.4941,10.8397,79.2903,31.6238,-8.13474,-10.9094,24.5019,7.12502,15.1077,53.9305,-20.2091,2.6606,8.94203,30.3068,-15.2874,-9.51464,0.408592,-12.7873,1.69997,-25.56,23.2981,-12.836,0.199418,-9.10105
1.4727,17.8411,-0.690788,5.73077,-16.9151,1.92484,4.92159,0.159973,-6.28676,1.77832,-0.0918739,-0.232859,-0.913478,-0.0615061,3.29282,-17.8834,-6.49277,-14.5408,20.9989,-6.13043,5.11309,10.3231,-3.41795,3.3134,7.65321e-15,2.06736e-14,-23.9375,-0.999983,-85.8881,35.8706,19.049,-20.4421,0.284961,7.12502,5.91298,-29.6125,7.65321e-15,2.06736e-14,-30.3091,10.6929,79.3693,31.8726,-8.12092,-11.0374,24.471,7.12502,14.9844,53.9089,-20.2398,2.74433,8.96475,30.3086,-15.2697,-9.51874,0.176527,-12.839,1.7598,-25.5397,23.3563,-12.7756,0.22173,-8.91613
1.47127,17.8419,-0.694907,5.72205,-17.0079,1.93904,4.96524,0.13818,-6.31118,1.7852,-0.124374,-0.184971,-0.92709,-0.0776299,3.35807,-18.0088,-6.45622,-14.4667,21.0394,-6.05427,5.00565,10.3467,-3.38861,3.27245,-5.16343e-14,1.98785e-15,-24.0182,-1.06546,-85.8797,35.8188,19.1843,-20.2308,0.481081,7.12502,6.11697,-29.4106,-5.16343e-14,1.98785e-15,-30.164,10.5034,79.4557,32.0709,-7.99304,-11.0827,24.5282,7.12502,14.9408,53.9693,-20.288,2.86603,8.94455,30.328,-15.3336,-9.54159,0.311707,-12.8698,1.80876,-25.5546,23.4128,-12.7192,0.294963,-8.62403
1.47053,17.8413,-0.700741,5.77981,-17.098,1.98019,4.93718,0.0876778,-6.31417,1.78054,-0.189645,-0.179348,-0.909349,-0.11064,3.36913,-18.0187,-6.40344,-14.5247,20.9989,-5.99361,5.13498,10.333,-3.34957,3.33794,-5.39203e-14,-4.77083e-15,-24.0672,-1.03939,-85.9702,35.759,19.3339,-20.0703,0.703654,7.12502,6.27196,-29.1835,-5.39203e-14,-4.77083e-15,-30.0214,10.362,79.4629,32.3265,-7.7618,-10.7003,24.7431,7.12502,15.3092,54.1565,-20.4374,2.96326,8.88966,30.3529,-15.3898,-9.5551,0.831211,-12.9813,1.75674,-25.5927,23.452,-12.7081,0.421677,-8.52616
1.4691,17.8402,-0.707996,5.82374,-17.1562,1.96736,4.98457,0.0634153,-6.24911,1.78935,-0.222006,-0.1769,-0.923753,-0.126436,3.33713,-18.0417,-6.38871,-14.604,20.9609,-5.99569,5.33658,10.3321,-3.33252,3.42314,-2.82771e-14,9.14409e-15,-24.0585,-1.05495,-86.0448,35.6393,19.4395,-20.0795,0.755201,7.12502,6.26307,-29.1322,-2.82771e-14,9.14409e-15,-29.7935,10.0026,79.5149,32.5087,-7.45806,-10.4991,24.6527,7.12502,15.503,54.0512,-20.5295,3.05436,8.90133,30.3718,-15.4085,-9.56333,1.12991,-13.0702,1.72398,-25.565,23.4839,-12.6873,0.501445,-8.33923
1.46795,17.8404,-0.711962,5.82465,-17.2064,1.97069,5.05026,0.0563827,-6.26509,1.82361,-0.235168,-0.1302,-0.923254,-0.133997,3.39544,-18.0567,-6.37145,-14.5249,20.8339,-5.97739,5.29059,10.2822,-3.31931,3.3952,-2.43014e-14,2.24627e-14,-24.0664,-0.977014,-86.0619,35.5664,19.5117,-20.2185,0.836131,7.12502,6.12888,-29.0552,-2.43014e-14,2.24627e-14,-29.5267,9.60348,79.6822,32.6291,-7.23737,-10.5564,24.7121,7.12502,15.4478,54.1148,-20.5465,3.11815,8.89649,30.3804,-15.4574,-9.53364,1.30806,-13.1077,1.69468,-25.5537,23.53,-12.6931,0.548493,-8.19462
1.46776,17.8401,-0.714584,5.80543,-17.2872,1.99261,5.09633,0.0480103,-6.31489,1.83978,-0.250929,-0.0821515,-0.92995,-0.142285,3.47429,-17.9558,-6.31297,-14.3587,20.6369,-5.92801,5.17769,10.1769,-3.29266,3.3355,-2.73329e-14,-2.56432e-14,-24.1764,-0.883595,-86.0811,35.5612,19.6933,-20.2355,1.05919,7.12502,6.11246,-28.8326,-2.73329e-14,-2.56432e-14,-29.3991,9.36667,79.7829,32.8256,-7.22462,-10.3703,25.0439,7.12502,15.627,54.4327,-20.5721,3.09094,8.88897,30.3831,-15.384,-9.53454,0.794998,-13.1199,1.76454,-25.586,23.5811,-12.7241,0.587854,-8.41778
1.46928,17.8381,-0.717333,5.78655,-17.37,2.00589,5.19026,0.038096,-6.30063,1.83081,-0.270143,-0.0445764,-0.989516,-0.149882,3.50689,-17.9483,-6.23225,-14.2876,20.5682,-5.82833,5.14766,10.1361,-3.24307,3.32837,2.03257e-14,-2.98177e-15,-24.2704,-0.896428,-86.0554,35.4747,19.9815,-20.3292,1.42161,7.12502,6.02204,-28.4728,2.03257e-14,-2.98177e-15,-29.3597,9.0149,79.8845,33.0895,-7.10062,-10.4342,25.1811,7.12502,15.5655,54.5747,-20.5913,3.02757,8.8806,30.3886,-15.3035,-9.44443,0.343131,-13.1292,1.80812,-25.6154,23.6225,-12.7581,0.650089,-8.73358
1.47003,17.8372,-0.719167,5.79771,-17.4719,2.00867,5.24003,0.0061949,-6.30091,1.83118,-0.315161,0.0266234,-1.0116,-0.171815,3.58383,-18.1272,-6.16862,-14.3572,20.6733,-5.69666,5.16417,10.196,-3.18641,3.36374,-3.97072e-14,-1.25234e-14,-24.2401,-0.953569,-86.0012,35.2822,20.4338,-20.3944,1.64523,7.12502,5.95905,-28.251,-3.97072e-14,-1.25234e-14,-29.3019,8.61984,80.0289,33.3516,-6.76915,-10.5925,25.2402,7.12502,15.413,54.6456,-20.6371,3.02568,8.86964,30.406,-15.2212,-9.37936,-0.0583577,-13.1618,1.74137,-25.6188,23.6593,-12.7944,0.780372,-8.5191
1.47065,17.8369,-0.721425,5.77413,-17.5535,2.02388,5.29628,-0.0327968,-6.31664,1.86219,-0.369683,0.108916,-1.00419,-0.200239,3.68153,-18.3598,-6.11639,-14.4136,20.77,-5.56241,5.12974,10.2608,-3.1324,3.37814,-4.14963e-15,8.94531e-16,-24.192,-0.858366,-85.9683,35.1726,20.7388,-20.3913,1.69307,7.12502,5.96204,-28.203,-4.14963e-15,8.94531e-16,-29.1803,8.16718,80.2205,33.5851,-6.32063,-10.7024,25.4323,7.12502,15.3072,54.8459,-20.6613,3.06308,8.84211,30.4362,-15.2088,-9.29688,-0.0617532,-13.1655,1.63645,-25.6324,23.7105,-12.8223,0.955999,-8.21451
1.47147,17.8349,-0.722536,5.72947,-17.6029,2.0763,5.35394,-0.0702427,-6.31918,1.88185,-0.422724,0.140202,-1.00985,-0.227116,3.71894,-18.5034,-6.05137,-14.3476,20.816,-5.44883,5.05046,10.2872,-3.08343,3.35464,-2.13197e-14,9.24349e-15,-24.3179,-0.720181,-85.956,35.2821,20.8274,-20.2357,1.80315,7.12502,6.1123,-28.0887,-2.13197e-14,9.24349e-15,-29.097,7.87858,80.3025,33.7879,-6.31385,-10.7365,25.2079,7.12502,15.2743,54.624,-20.6701,3.01666,8.78895,30.4815,-15.1725,-9.22432,-0.0850266,-13.1544,1.54823,-25.6943,23.7775,-12.8706,1.14241,-8.26426
1.47299,17.8334,-0.723747,5.70781,-17.7064,2.1018,5.4063,-0.0519894,-6.26488,1.92601,-0.398244,0.132347,-0.9967,-0.216329,3.67898,-18.6306,-6.00443,-14.0916,20.7512,-5.39359,4.87516,10.2672,-3.05421,3.25604,-3.96078e-14,-3.67752e-15,-24.4579,-0.791753,-85.9364,35.5225,20.9608,-20.1334,1.69422,7.12502,6.21098,-28.1947,-3.96078e-14,-3.67752e-15,-28.9133,7.6456,80.3215,33.9844,-6.52621,-10.6195,24.7351,7.12502,15.387,54.1425,-20.6936,3.05725,8.75089,30.5014,-15.173,-9.18266,-0.0046236,-13.1938,1.59004,-25.7414,23.8914,-12.9989,1.27703,-9.04111
1.47468,17.8317,-0.72815,5.74969,-17.875,2.04309,5.40436,-0.0117434,-6.13607,2.01439,-0.335312,0.131004,-0.912229,-0.189426,3.60093,-18.9019,-5.99445,-13.8889,20.6727,-5.37743,4.80636,10.2776,-3.03246,3.1963,-8.87077e-15,-9.64106e-15,-24.5987,-1.00289,-85.9155,35.9488,21.1051,-20.119,1.71861,7.12502,6.2249,-28.1699,-8.87077e-15,-9.64106e-15,-28.526,7.16893,80.3804,34.1133,-6.16619,-10.391,24.6625,7.12502,15.6071,54.0529,-20.7844,3.1915,8.78443,30.5005,-15.1384,-9.13295,0.014108,-13.3128,1.5916,-25.6975,24.0418,-13.1131,1.49559,-9.90397
1.47942,17.8333,-0.732916,5.85331,-18.0985,1.95839,5.4005,0.0226881,-5.97345,2.00209,-0.280855,0.16454,-0.929804,-0.161035,3.54098,-19.0302,-5.94516,-13.8514,20.6347,-5.29387,4.78764,10.2768,-2.99051,3.19428,-1.35174e-14,-7.95139e-15,-24.9519,-1.07451,-85.8219,36.4803,21.1023,-20.1051,2.01675,7.12502,6.2384,-27.8714,-1.35174e-14,-7.95139e-15,-28.3149,6.50744,80.5128,34.3581,-5.5055,-10.1203,25.2637,7.12502,15.8678,54.6335,-20.947,3.211,8.84898,30.4755,-14.9953,-8.98972,-0.201738,-13.5318,1.40549,-25.6178,24.2168,-13.1073,1.81606,-8.26808
1.48342,17.8347,-0.736321,5.88369,-18.2914,1.89008,5.47229,0.0159343,-5.85303,1.97539,-0.288392,0.225277,-0.997288,-0.162011,3.5372,-19.0954,-5.84607,-13.88,20.6277,-5.12741,4.7511,10.2693,-2.91973,3.21054,-5.55852e-14,-3.18055e-15,-25.1292,-0.984324,-85.6999,36.6606,21.1558,-20.1969,2.33803,7.12502,6.14969,-27.5527,-5.55852e-14,-3.18055e-15,-28.2998,6.05975,80.5725,34.779,-5.29872,-9.99592,25.3917,7.12502,15.9876,54.752,-21.0019,3.25942,8.89968,30.435,-14.9595,-8.82029,0.271897,-13.6578,1.11678,-25.5413,24.3913,-13.1489,2.19904,-6.63041
1.48684,17.8344,-0.736817,5.88314,-18.4187,1.85969,5.46921,-0.00652863,-5.78372,2.01076,-0.312305,0.30471,-0.956532,-0.176007,3.58185,-19.2567,-5.78733,-13.8371,20.6298,-4.98595,4.56369,10.2797,-2.87119,3.15513,2.28602e-15,4.02539e-15,-25.0502,-0.911865,-85.5129,36.6489,21.1562,-20.322,2.40055,7.12502,6.02894,-27.4937,2.28602e-15,4.02539e-15,-28.2311,5.71778,80.6628,35.1552,-5.10449,-10.3826,24.4629,7.12502,15.6152,53.8526,-21.0263,3.21154,8.91885,30.4112,-14.7973,-8.71239,-0.0156039,-13.7201,0.892875,-25.5327,24.5439,-13.1909,2.62302,-6.72544
1.49142,17.8338,-0.735408,5.9195,-18.4925,1.76815,5.44037,-0.0456722,-5.62532,2.02266,-0.352586,0.397722,-0.924677,-0.197087,3.59127,-19.3688,-5.7062,-13.755,20.5788,-4.82992,4.36565,10.2592,-2.81341,3.09223,-4.73977e-14,2.95692e-15,-25.0507,-0.901916,-85.29,36.6989,21.1601,-20.4202,2.37847,7.12502,5.93413,-27.5184,-4.73977e-14,2.95692e-15,-28.1688,5.30321,80.7409,35.4278,-4.87875,-10.5813,23.6289,7.12502,15.4238,53.0335,-21.0601,3.08479,9.01032,30.4116,-14.6397,-8.62856,-0.916676,-13.7984,0.659102,-25.461,24.683,-13.2044,2.98856,-6.88407
1.49442,17.826,-0.73418,5.88029,-18.6034,1.78622,5.44394,-0.0635666,-5.56389,2.05262,-0.372562,0.409777,-0.894128,-0.208498,3.57026,-19.4676,-5.62294,-13.6485,20.4985,-4.7234,4.34026,10.2331,-2.75562,3.08063,-3.52967e-14,-6.33626e-15,-24.9878,-1.05844,-85.0951,36.6731,21.2714,-20.4964,2.4581,7.12502,5.86058,-27.4409,-3.52967e-14,-6.33626e-15,-28.0874,4.83744,80.6909,35.723,-4.84295,-10.5513,22.9241,7.12502,15.4527,52.3264,-21.0474,3.02005,8.97317,30.4085,-14.569,-8.42577,-0.637379,-13.8097,0.604987,-25.5217,24.8556,-13.3259,3.28525,-8.57823
1.49764,17.8168,-0.733679,5.81026,-18.7465,1.77205,5.44929,-0.0726143,-5.46526,2.10552,-0.378571,0.414526,-0.842745,-0.213877,3.51978,-19.5662,-5.54329,-13.4779,20.4242,-4.62557,4.24795,10.2069,-2.7048,3.0332,-5.79892e-15,-5.14355e-15,-24.8917,-1.31649,-84.8897,36.7308,21.4216,-20.4879,2.30652,7.12502,5.86875,-27.5922,-5.79892e-15,-5.14355e-15,-28.0277,4.34489,80.6335,36.104,-4.45321,-10.9718,22.3548,7.12502,15.0477,51.788,-21.0159,2.99309,8.97338,30.3914,-14.5093,-8.21512,-0.0396185,-13.8108,0.725433,-25.5535,25.0541,-13.386,3.45418,-10.0368
1.50021,17.8123,-0.734093,5.79479,-18.8053,1.64668,5.49512,-0.121753,-5.3167,2.07409,-0.438265,0.521293,-0.895355,-0.241313,3.55084,-19.5222,-5.45279,-13.4227,20.345,-4.48161,4.08071,10.1514,-2.65228,2.98595,4.63106e-15,-1.04735e-14,-24.9923,-1.40064,-84.5143,36.921,21.5263,-20.431,2.4466,7.12502,5.92374,-27.4506,4.63106e-15,-1.04735e-14,-28.091,3.9269,80.6221,36.5236,-4.05424,-11.285,22.2164,7.12502,14.7459,51.6719,-20.9787,3.05333,9.0896,30.376,-14.561,-8.11747,0.739228,-13.8911,0.746917,-25.4269,25.2687,-13.4273,3.505,-9.80376
1.50183,17.8077,-0.732634,5.73854,-18.9076,1.5519,5.56056,-0.164224,-5.20899,2.03816,-0.492612,0.599464,-0.963935,-0.265678,3.57527,-19.483,-5.32174,-13.3465,20.2641,-4.2936,3.93905,10.092,-2.57471,2.95132,-3.28616e-14,1.23743e-14,-25.1294,-1.56496,-84.0973,37.1167,21.7179,-20.3047,2.71237,7.12502,6.04563,-27.1814,-3.28616e-14,1.23743e-14,-28.1545,3.53537,80.4478,37.0824,-4.37174,-10.4976,22.7233,7.12502,15.5044,52.1216,-20.9118,3.12854,9.17711,30.3732,-14.5369,-8.04144,0.816737,-13.8986,0.608949,-25.3409,25.4694,-13.4902,3.79698,-9.89517
1.50333,17.8016,-0.728391,5.68482,-19.0843,1.52474,5.57089,-0.194783,-5.1791,2.02051,-0.531769,0.662619,-0.983678,-0.284418,3.62651,-19.6538,-5.2215,-13.2888,20.313,-4.12263,3.84343,10.1213,-2.50266,2.93195,-3.03022e-14,2.13197e-14,-25.1613,-1.82639,-83.6139,37.2666,21.8836,-20.2834,2.90193,7.12502,6.06617,-26.9912,-3.03022e-14,2.13197e-14,-28.1831,3.30258,80.2183,37.6865,-4.63937,-9.70133,23.09,7.12502,16.2712,52.4273,-20.8972,3.17418,9.19121,30.4033,-14.461,-7.91348,0.40251,-13.8929,0.579721,-25.3617,25.6426,-13.5386,4.15842,-10.4116
1.50455,17.7957,-0.726363,5.57906,-19.2333,1.61794,5.6767,-0.222914,-5.32583,1.94644,-0.583372,0.753632,-1.11102,-0.305563,3.80859,-19.7309,-5.14833,-13.3447,20.3085,-3.97485,3.77399,10.1205,-2.44657,2.9373,4.48508e-15,-1.28216e-14,-25.3315,-2.0569,-82.9904,37.5802,21.9099,-20.1867,3.17982,7.12502,6.15959,-26.7106,4.48508e-15,-1.28216e-14,-28.2763,3.05859,80.0718,38.2392,-4.50994,-9.28157,23.4673,7.12502,16.6754,52.7711,-20.8946,3.22926,9.06749,30.4984,-14.4947,-7.74661,0.728387,-13.86,0.520929,-25.4947,25.7817,-13.569,4.49339,-10.7417
1.50652,17.7889,-0.722294,5.3853,-19.3282,1.79226,5.78629,-0.266473,-5.53632,1.91764,-0.65908,0.818751,-1.19009,-0.340926,4.00145,-19.715,-5.05441,-13.3461,20.1571,-3.82931,3.70718,10.0484,-2.38313,2.93442,1.61513e-14,7.55382e-15,-25.4648,-2.29944,-82.3542,38.0265,21.8303,-19.8219,3.11521,7.12502,6.51172,-26.7647,1.61513e-14,7.55382e-15,-28.3556,2.84767,79.8792,38.9055,-4.51427,-9.07744,23.6945,7.12502,16.8719,52.9816,-20.8263,3.192,8.86913,30.6365,-14.5398,-7.54016,0.871506,-13.7814,0.570751,-25.6883,25.9266,-13.6349,4.49915,-10.2186
1.50831,17.7801,-0.714919,5.26385,-19.4273,1.79536,5.73028,-0.284553,-5.52084,1.96879,-0.677124,0.867703,-1.1035,-0.353851,4.04364,-19.7426,-4.99051,-13.2538,19.9798,-3.73971,3.60852,9.97718,-2.34036,2.89588,-2.28851e-14,1.8487e-14,-25.4099,-2.77495,-81.7101,38.3611,21.9249,-20.2312,3.22734,7.12502,6.11657,-26.6644,-2.28851e-14,1.8487e-14,-28.3247,2.44294,79.636,39.7263,-4.45164,-8.86251,24.3189,7.12502,17.0788,53.5882,-20.767,3.07296,8.86374,30.7564,-14.4439,-7.33951,0.318992,-13.7333,0.829805,-25.7115,26.1155,-13.7638,4.34527,-9.92756
1.50946,17.7728,-0.710843,5.09675,-19.5338,1.75481,5.77363,-0.296954,-5.49927,2.02322,-0.692969,0.933877,-1.069,-0.364308,4.10141,-19.7605,-4.92621,-13.2215,19.8124,-3.64613,3.56427,9.91016,-2.29441,2.88731,-7.47927e-15,-1.03368e-14,-25.3516,-3.15419,-81.046,38.6796,21.7561,-21.3211,3.70387,7.12502,5.06433,-26.2156,-7.47927e-15,-1.03368e-14,-28.1964,2.18577,79.3268,40.3535,-4.56108,-8.58242,24.6829,7.12502,17.3484,53.9287,-20.6337,2.99336,8.90602,30.8469,-14.365,-7.10857,-0.141313,-13.6436,0.90215,-25.6888,26.3655,-13.9153,4.42546,-9.7743
1.51108,17.7679,-0.705738,5.04049,-19.6291,1.49997,5.78445,-0.350309,-5.32464,2.05296,-0.752204,1.08018,-1.03827,-0.39558,4.15852,-19.8567,-4.83094,-13.1967,19.7044,-3.50236,3.54774,9.87465,-2.2239,2.89706,-3.26255e-14,-3.18055e-15,-25.2569,-3.60531,-80.2917,38.8323,21.5424,-22.2229,4.64361,7.12502,4.19354,-25.2949,-3.26255e-14,-3.18055e-15,-28.0832,2.06277,78.9318,40.958,-4.86347,-9.42429,22.873,7.12502,16.538,52.1882,-20.5157,2.97973,9.16664,30.8951,-14.3722,-6.88415,0.0410135,-13.6002,0.734212,-25.4373,26.6558,-14.0624,4.73616,-9.88502
1.5124,17.7637,-0.699765,5.04813,-19.7193,1.20148,5.72187,-0.379026,-5.06538,2.06042,-0.771067,1.1919,-0.99611,-0.406066,4.1283,-20.0203,-4.77138,-13.0876,19.6965,-3.42703,3.54276,9.89131,-2.17978,2.8875,-4.96962e-17,2.70347e-14,-25.1598,-4.49633,-79.3978,38.8796,21.7687,-22.6589,6.02339,7.12502,3.77253,-23.923,-4.96962e-17,2.70347e-14,-27.8768,1.70811,78.4516,41.5521,-5.00078,-9.59185,23.0768,7.12502,16.3767,52.4054,-20.4349,3.00454,9.47568,30.9101,-14.3899,-6.76807,0.156836,-13.6132,0.804005,-25.1588,26.9423,-14.23,4.92595,-10.3855
1.5141,17.7596,-0.691851,5.03496,-19.8036,1.06178,5.63138,-0.406311,-4.88375,2.01869,-0.793113,1.21914,-0.989004,-0.415881,4.05427,-20.2593,-4.69008,-12.8995,19.8821,-3.31594,3.45425,9.98503,-2.12862,2.84174,-6.88292e-15,-3.97569e-15,-25.2224,-5.49004,-78.4565,39.0996,22.1824,-22.7441,6.66042,7.12502,3.69022,-23.2874,-6.88292e-15,-3.97569e-15,-27.663,1.36086,77.8819,41.9688,-5.30768,-10.0253,22.6403,7.12502,15.9592,52.0028,-20.3592,2.98097,9.61724,30.8727,-14.3134,-6.62973,-0.00848351,-13.6556,0.875182,-25.0501,27.2555,-14.4048,5.06323,-10.7256
1.5172,17.7587,-0.68254,4.98201,-19.8588,1.03166,5.59528,-0.480345,-4.88106,1.91449,-0.889846,1.30683,-1.06479,-0.459996,4.15023,-20.3439,-4.59115,-12.9002,19.9687,-3.15078,3.3898,10.0161,-2.06263,2.84356,-6.95746e-15,5.56597e-15,-25.4052,-6.08525,-77.4014,39.4876,22.424,-23.0104,7.01931,7.12502,3.43307,-22.9328,-6.95746e-15,5.56597e-15,-27.679,1.20048,77.3496,42.489,-5.79555,-10.6775,21.6451,7.12502,15.3312,51.0568,-20.2757,2.83339,9.64596,30.8381,-14.084,-6.41787,-0.405762,-13.6925,0.678843,-25.0117,27.5604,-14.6386,5.15159,-9.1602
1.51977,17.7567,-0.676356,4.91464,-19.9053,0.840282,5.54343,-0.560494,-4.76875,1.89647,-0.986039,1.4642,-1.0433,-0.508538,4.25547,-20.2634,-4.51185,-13.0348,19.7356,-3.0196,3.42699,9.90964,-2.00126,2.89663,-3.62782e-15,1.55052e-14,-25.6636,-6.2623,-76.3238,40.3944,22.2533,-23.2559,7.2418,7.12502,3.19601,-22.714,-3.62782e-15,1.55052e-14,-27.5819,1.09909,76.7905,43.1738,-5.93256,-11.0933,21.0516,7.12502,14.9306,50.4935,-20.1367,2.75358,9.85323,30.8382,-13.9684,-6.27706,-0.756589,-13.6793,0.504839,-24.7865,27.8127,-14.844,5.13998,-7.17144
1.52133,17.7523,-0.66952,4.77944,-19.9845,0.666312,5.47811,-0.629469,-4.65056,1.91871,-1.06704,1.56843,-0.975406,-0.55153,4.30031,-20.2402,-4.41143,-12.9736,19.5258,-2.88536,3.35248,9.81603,-1.93664,2.8783,3.926e-15,3.37934e-15,-26.195,-6.05677,-75.3367,41.8516,21.6133,-23.3997,6.76904,7.12502,3.05711,-23.1888,3.926e-15,3.37934e-15,-27.3423,0.925007,76.1121,43.8931,-5.76214,-11.3147,20.9492,7.12502,14.7174,50.4067,-19.9652,2.68261,10.0507,30.8869,-13.927,-6.19765,-0.997433,-13.5742,0.440426,-24.6049,28.0129,-14.9733,5.21824,-5.25633
1.52246,17.746,-0.659009,4.57603,-20.0549,0.706798,5.43182,-0.699078,-4.72501,1.89853,-1.16133,1.60167,-0.957741,-0.599014,4.38183,-20.3434,-4.30999,-12.9105,19.5547,-2.74611,3.33966,9.83084,-1.86945,2.88383,-7.50909e-14,8.15017e-15,-26.5247,-6.17895,-74.2924,42.8878,21.345,-23.5536,6.42806,7.12502,2.90846,-23.5319,-7.50909e-14,8.15017e-15,-27.193,0.703133,75.3922,44.6731,-5.70418,-11.1934,21.1213,7.12502,14.8342,50.5703,-19.79,2.63838,9.99351,30.9961,-14.0221,-6.00332,-0.220169,-13.3923,0.434691,-24.675,28.1712,-15.1112,5.32459,-4.13677
1.52273,17.7381,-0.647273,4.3498,-20.1629,0.784991,5.43183,-0.749447,-4.84761,1.84183,-1.23512,1.62662,-1.00464,-0.633648,4.48226,-20.3824,-4.1948,-12.7673,19.5214,-2.58757,3.17803,9.8076,-1.80313,2.82589,1.83379e-14,-1.21259e-14,-26.7109,-6.55464,-73.1337,43.6407,21.2987,-23.6588,6.38555,7.12502,2.80685,-23.5757,1.83379e-14,-1.21259e-14,-27.1142,0.589057,74.6044,45.496,-5.77107,-11.1684,21.0071,7.12502,14.8583,50.4543,-19.6624,2.67035,9.90097,31.1905,-14.1129,-5.84568,0.281949,-13.131,0.488037,-24.8044,28.2523,-15.191,5.54439,-5.66587
1.52224,17.7285,-0.635302,4.13544,-20.2991,0.837213,5.41998,-0.778325,-4.92549,1.78525,-1.27773,1.62919,-1.04969,-0.652482,4.53201,-20.2609,-4.09984,-12.6949,19.2796,-2.48346,3.11703,9.68843,-1.74935,2.80638,-5.65045e-14,2.46493e-14,-26.9307,-6.85613,-71.9567,44.5098,21.0227,-23.7072,6.14754,7.12502,2.76018,-23.8143,-5.65045e-14,2.46493e-14,-27.0268,0.444829,73.7218,46.4741,-5.66598,-10.9384,21.095,7.12502,15.0798,50.5257,-19.5751,2.68538,9.85005,31.4292,-14.166,-5.67545,0.373999,-12.8615,0.539315,-24.9136,28.2811,-15.2568,5.81666,-7.30642
1.52338,17.7175,-0.624265,4.02721,-20.3231,0.825057,5.30443,-0.824755,-4.90591,1.74153,-1.33353,1.62513,-1.02461,-0.68,4.51778,-20.2599,-4.05815,-12.6852,19.141,-2.45839,3.2417,9.63704,-1.71782,2.85173,-6.13251e-14,6.55989e-15,-27.0394,-7.37107,-70.7796,45.3225,20.7854,-23.861,5.59656,7.12502,2.6116,-24.3672,-6.13251e-14,6.55989e-15,-26.6962,0.171202,72.7958,47.3487,-5.39267,-10.5974,21.4425,7.12502,15.4083,50.8483,-19.5493,2.52254,9.86413,31.6642,-14.2015,-5.48047,0.135123,-12.7036,0.466805,-24.9422,28.3142,-15.3078,6.01248,-7.70299
1.52562,17.7139,-0.61128,3.89668,-20.3813,0.746036,5.24754,-0.849844,-4.85246,1.69791,-1.36152,1.66224,-1.03515,-0.692704,4.52698,-20.3695,-4.01884,-12.6397,19.085,-2.41504,3.29875,9.63217,-1.68509,2.86991,3.84648e-14,-1.90833e-14,-27.1773,-7.84058,-69.4833,46.1727,20.3158,-23.7099,4.93424,7.12502,2.75754,-25.0277,3.84648e-14,-1.90833e-14,-26.2645,-0.14747,71.8722,48.1586,-5.18759,-10.4056,21.6941,7.12502,15.593,51.0856,-19.4807,2.45324,9.9336,31.8977,-14.2258,-5.29735,0.475088,-12.4958,0.446146,-24.8937,28.3398,-15.3527,6.15987,-7.93914
1.52718,17.7099,-0.600223,3.68995,-20.5192,0.657808,5.29804,-0.892049,-4.842,1.64106,-1.41955,1.71282,-1.1144,-0.71829,4.57908,-20.512,-3.90093,-12.4688,19.0757,-2.257,3.18112,9.63653,-1.61173,2.82276,1.89342e-14,-8.15017e-15,-27.2864,-8.17265,-68.172,47.0515,19.7652,-23.4118,4.54434,7.12502,3.04541,-25.4137,1.89342e-14,-8.15017e-15,-25.9788,-0.236672,70.8719,49.068,-5.20053,-10.5195,21.7477,7.12502,15.4833,51.1477,-19.3862,2.48337,10.0361,32.1405,-14.152,-5.24915,-0.0335622,-12.2029,0.603475,-24.8388,28.3334,-15.3692,6.28323,-8.54274
1.52743,17.7044,-0.59151,3.44922,-20.6623,0.732983,5.32493,-0.912811,-4.98057,1.54777,-1.45677,1.71275,-1.21778,-0.731703,4.66179,-20.5177,-3.8,-12.3703,19.0003,-2.13551,3.1277,9.59818,-1.55191,2.80487,-8.90555e-14,-3.37934e-15,-27.3685,-8.54248,-66.8494,47.8362,19.4457,-23.6718,4.03029,7.12502,2.79429,-25.9312,-8.90555e-14,-3.37934e-15,-25.7835,-0.36953,69.8269,50.0346,-5.44625,-10.581,21.5042,7.12502,15.4241,50.9088,-19.3078,2.47835,9.98513,32.3746,-14.0034,-5.19302,-1.0737,-11.92,0.740081,-24.9414,28.3029,-15.3614,6.36497,-8.95189
1.52994,17.7,-0.575352,3.22026,-20.749,0.87581,5.2661,-0.948853,-5.08328,1.43632,-1.50924,1.67121,-1.29232,-0.752836,4.67992,-20.5003,-3.71088,-12.4112,18.9432,-2.02736,3.23457,9.56663,-1.49068,2.86469,3.60794e-14,-4.57205e-15,-27.4569,-8.92631,-65.4891,48.6029,19.27,-24.1582,4.3438,7.12502,2.32456,-25.6233,3.60794e-14,-4.57205e-15,-25.4827,-0.553002,68.7314,50.8752,-5.79687,-10.5676,21.3083,7.12502,15.437,50.7119,-19.2013,2.32221,9.83839,32.6035,-13.9167,-5.00332,-1.91312,-11.6266,0.726026,-25.1239,28.267,-15.4226,6.4399,-8.91403
1.53232,17.6983,-0.556916,2.97285,-20.7781,1.04943,5.17487,-1.0163,-5.21544,1.36637,-1.60302,1.626,-1.30006,-0.797526,4.71161,-20.6172,-3.61719,-12.3921,18.9381,-1.89464,3.26811,9.57392,-1.42298,2.89221,-2.21148e-14,5.76476e-15,-27.3875,-9.39939,-64.1031,49.3551,18.9875,-24.3589,5.7819,7.12502,2.13078,-24.1872,-2.21148e-14,5.76476e-15,-25.1049,-0.690398,67.6053,51.8302,-5.88221,-10.4968,21.6234,7.12502,15.5052,51.0217,-19.0557,2.26229,9.64201,32.8491,-14.034,-4.90974,-1.90881,-11.3374,0.653112,-25.3238,28.2039,-15.4966,6.41647,-7.37905
1.53481,17.6952,-0.539987,2.73192,-20.9068,1.12907,5.07302,-1.03555,-5.26819,1.34583,-1.62695,1.59417,-1.26093,-0.810068,4.70713,-20.7051,-3.57691,-12.3132,18.803,-1.83667,3.20554,9.5352,-1.3924,2.86374,-1.74434e-14,9.93923e-16,-27.2399,-9.9139,-62.6875,50.1595,18.451,-24.418,6.34916,7.12502,2.07364,-23.6205,-1.74434e-14,9.93923e-16,-24.654,-0.820379,66.4581,52.9282,-5.6222,-10.4567,22.0927,7.12502,15.5439,51.4879,-18.9303,2.31024,9.55102,33.0971,-14.1529,-4.86739,-1.76572,-11.0342,0.708333,-25.4231,28.1384,-15.5656,6.37577,-5.37539
1.53898,17.6901,-0.522915,2.44864,-21.0939,1.24431,4.96385,-1.03517,-5.29496,1.34991,-1.62324,1.514,-1.19778,-0.810088,4.6354,-20.7943,-3.53668,-12.2627,18.6166,-1.78454,3.20645,9.47973,-1.35745,2.86101,3.7123e-14,1.0138e-14,-27.1562,-10.4052,-61.2627,51.0207,18.025,-24.6979,6.40215,7.12502,1.80335,-23.57,3.7123e-14,1.0138e-14,-24.0213,-1.05686,65.2181,53.8671,-5.3531,-10.517,22.3879,7.12502,15.4858,51.7877,-18.8144,2.36241,9.42461,33.3619,-14.2015,-4.74288,-1.4899,-10.6866,0.748527,-25.586,28.1017,-15.6059,6.53453,-5.2511
1.54125,17.6866,-0.507951,2.16304,-21.196,1.274,4.93937,-1.08459,-5.2893,1.34441,-1.68831,1.46843,-1.18363,-0.842861,4.58749,-20.9411,-3.42654,-12.211,18.4883,-1.64245,3.26994,9.44746,-1.27503,2.89376,-3.39673e-14,5.1684e-15,-27.0311,-10.7075,-59.8666,51.9589,17.5935,-24.9268,6.77458,7.12502,1.5823,-23.1993,-3.39673e-14,5.1684e-15,-23.3863,-1.28321,63.8949,54.6984,-5.04858,-10.688,22.2343,7.12502,15.321,51.6468,-18.6461,2.33312,9.40439,33.6532,-14.29,-4.63191,-1.42171,-10.3115,0.750804,-25.6383,28.0794,-15.656,6.60711,-5.17845
1.54229,17.6792,-0.494541,2.00419,-21.2556,1.29711,4.85745,-1.16816,-5.32462,1.21262,-1.79901,1.47236,-1.25973,-0.892571,4.61721,-20.8082,-3.28187,-12.189,18.2615,-1.46571,3.2501,9.3287,-1.18676,2.90607,-2.77553e-14,-3.57812e-15,-26.9353,-10.8599,-58.4398,52.8806,17.1564,-25.0221,7.11746,7.12502,1.49027,-22.8571,-2.77553e-14,-3.57812e-15,-23.0051,-1.45916,62.5608,55.6842,-4.96134,-10.6633,22.3878,7.12502,15.3448,51.7984,-18.6253,2.22396,9.38282,33.9849,-14.391,-4.46323,-1.13425,-10.0683,0.836257,-25.6824,28.0361,-15.7333,6.55932,-5.21157
1.54503,17.6708,-0.478183,1.78869,-21.3638,1.36442,4.79775,-1.17735,-5.36738,1.14984,-1.81157,1.44554,-1.28928,-0.896267,4.61347,-20.9945,-3.22188,-12.0522,18.203,-1.36497,3.0977,9.33059,-1.14463,2.84335,7.56624e-14,5.76476e-15,-26.7535,-11.1215,-57.0054,53.8243,16.7193,-25.0679,6.98679,7.12502,1.44596,-22.9881,7.56624e-14,5.76476e-15,-22.3262,-1.56603,61.2017,56.6519,-5.32722,-9.80336,23.0292,7.12502,16.173,52.3744,-18.5943,2.10638,9.3201,34.3327,-14.3955,-4.36225,-1.29618,-9.77507,0.889144,-25.7838,28.0082,-15.8331,6.60867,-5.10474
1.5493,17.6617,-0.459826,1.46951,-21.4308,1.39169,4.82509,-1.08718,-5.2319,1.33299,-1.68574,1.28902,-1.13928,-0.842347,4.36508,-21.9892,-3.31897,-11.7025,18.3658,-1.45174,3.02445,9.56514,-1.16793,2.74835,1.99033e-14,3.37934e-15,-26.4128,-11.9539,-55.6245,54.8557,16.4837,-25.0584,6.56618,7.12502,1.45515,-23.4086,1.99033e-14,3.37934e-15,-20.8945,-1.82555,59.731,57.5201,-5.33867,-9.07173,23.2487,7.12502,16.8774,52.5353,-18.4312,1.93511,9.31248,34.6802,-14.3044,-4.3069,-1.98712,-9.3366,0.963872,-25.8638,28.0089,-15.9336,6.7482,-6.89294
1.55063,17.6493,-0.442854,1.1594,-21.4125,1.37461,4.91866,-1.05903,-5.10173,1.43329,-1.64671,1.19016,-1.09934,-0.826272,4.18766,-22.7236,-3.3735,-11.506,18.4112,-1.4887,3.021,9.71035,-1.16834,2.70878,7.08916e-14,-2.5842e-15,-26.0352,-12.8637,-54.1654,55.7875,16.8043,-25.3005,6.17177,7.12502,1.22139,-23.8045,7.08916e-14,-2.5842e-15,-19.645,-2.03709,58.2491,58.3713,-5.11628,-8.85757,22.9734,7.12502,17.0835,52.2422,-18.2269,1.81162,9.36053,35.0133,-14.341,-4.30079,-1.92737,-8.8811,1.08801,-25.8847,27.9889,-16.007,6.77196,-8.93465
1.55194,17.6423,-0.427296,0.809166,-21.4201,1.44002,5.06675,-1.12167,-5.14328,1.28746,-1.74259,1.18249,-1.32114,-0.864307,4.21489,-22.4743,-3.26491,-11.5971,18.1751,-1.35403,3.06325,9.57311,-1.10131,2.75632,-1.85615e-14,-7.35503e-15,-25.8585,-13.0551,-52.594,56.8251,17.1411,-25.4816,5.92257,7.12502,1.04646,-24.0546,-1.85615e-14,-7.35503e-15,-19.1136,-2.14156,56.8147,59.3196,-4.96666,-9.03422,22.8581,7.12502,16.9135,52.1416,-18.0232,1.75229,9.31624,35.3584,-14.5108,-4.25863,-1.41583,-8.4673,1.05779,-25.9399,27.9363,-16.1043,6.58644,-7.60026
1.5537,17.6414,-0.40167,0.486165,-21.5389,1.51426,5.00039,-1.17449,-5.16903,1.2004,-1.81239,1.17498,-1.36573,-0.895788,4.225,-22.3421,-3.14838,-11.6508,17.9844,-1.19371,3.05618,9.47023,-1.02612,2.78387,-5.77221e-14,5.96354e-15,-25.606,-12.9418,-51.0603,58.0139,17.1299,-25.5767,5.68773,7.12502,0.954617,-24.2899,-5.77221e-14,5.96354e-15,-18.566,-2.28,55.348,60.2848,-4.6437,-9.30178,22.9059,7.12502,16.6559,52.2113,-17.8651,1.71158,9.24854,35.7271,-14.6258,-4.21565,-1.68832,-8.04778,1.00313,-26.0288,27.9001,-16.2983,6.50506,-6.00503
1.55441,17.6366,-0.376641,0.240756,-21.7006,1.5849,4.8926,-1.18894,-5.22576,1.14261,-1.82976,1.17569,-1.36138,-0.903116,4.25651,-22.5298,-3.07498,-11.6258,17.8366,-1.05805,2.97753,9.43961,-0.964756,2.76959,-6.2965e-14,7.35503e-15,-25.1869,-13.0316,-49.491,59.0611,17.2825,-25.6289,5.63074,7.12502,0.904162,-24.3471,-6.2965e-14,7.35503e-15,-17.7758,-2.35607,53.8275,61.1506,-4.42079,-9.25088,22.9023,7.12502,16.7049,52.2036,-17.8586,1.57367,9.20207,36.1498,-14.5783,-4.28101,-2.90207,-7.66866,1.06561,-26.1511,27.8832,-16.4159,6.65387,-7.04971
1.55407,17.6258,-0.362033,0.0859619,-21.7797,1.6038,4.85965,-1.2128,-5.28572,1.03707,-1.86415,1.20598,-1.44517,-0.915134,4.32465,-22.5846,-3.0094,-11.6715,17.5368,-0.946239,2.9732,9.33485,-0.906063,2.7878,1.76918e-14,1.19271e-15,-24.7597,-13.1034,-47.8331,60.0989,17.5366,-25.4186,5.8684,7.12502,1.10729,-24.1085,1.76918e-14,1.19271e-15,-16.9204,-2.32134,52.2358,62.0397,-4.68714,-9.23657,22.6022,7.12502,16.7187,51.9023,-17.9322,1.41442,9.22025,36.6337,-14.6202,-4.27881,-3.19202,-7.42169,1.13504,-26.1702,27.8555,-16.5176,6.59251,-7.5611
1.55491,17.6115,-0.352809,-0.174144,-21.7679,1.69961,4.94055,-1.24492,-5.36719,0.997215,-1.91691,1.17263,-1.52406,-0.937872,4.34206,-22.8066,-2.94335,-11.6589,17.3422,-0.842942,3.02967,9.29606,-0.842735,2.81819,-2.08227e-14,-3.37934e-15,-24.2849,-13.0606,-46.2381,61.2319,17.3355,-25.4589,5.91584,7.12502,1.06838,-24.0612,-2.08227e-14,-3.37934e-15,-15.8478,-2.2752,50.5492,62.935,-5.24747,-9.15545,22.7533,7.12502,16.7968,52.0467,-17.8943,1.32821,9.13436,37.1763,-14.8467,-4.12662,-2.1884,-7.13671,1.24253,-26.2453,27.8232,-16.5837,6.3964,-7.28364
1.55647,17.6007,-0.332051,-0.43915,-21.9457,1.89039,4.83478,-1.24376,-5.49652,1.00139,-1.917,1.11231,-1.4583,-0.939584,4.34892,-23.1119,-2.83968,-11.5108,17.1112,-0.679391,2.89106,9.25322,-0.76351,2.7662,1.02784e-13,-2.98177e-15,-23.6435,-12.8755,-44.7319,62.3515,16.8145,-25.7996,5.63731,7.12502,0.739313,-24.3412,1.02784e-13,-2.98177e-15,-14.7648,-2.27072,48.8221,63.7869,-5.23667,-9.44817,22.6502,7.12502,16.515,51.9674,-17.9437,1.33368,8.92823,37.7377,-14.9678,-3.9197,-1.341,-6.82284,1.36047,-26.4722,27.7835,-16.6734,6.46651,-7.43929
1.55787,17.5934,-0.308766,-0.67309,-22.1238,2.03476,4.70733,-1.25542,-5.54895,1.00119,-1.92874,1.05699,-1.38601,-0.947511,4.31758,-23.3178,-2.75843,-11.5086,16.7658,-0.544994,2.89581,9.15642,-0.687501,2.78255,-2.78299e-14,-1.19271e-15,-22.9694,-12.6813,-43.2182,63.488,16.4658,-26.1939,5.39008,7.12502,0.358466,-24.5894,-2.78299e-14,-1.19271e-15,-13.7497,-2.23446,47.0151,64.5914,-4.87537,-9.98041,21.7439,7.12502,16.0025,51.103,-18.0581,1.2333,8.78395,38.338,-14.8931,-3.80842,-1.39033,-6.49911,1.52423,-26.6496,27.6961,-16.7258,6.5016,-7.69095
1.55964,17.5874,-0.284731,-0.921315,-22.2501,2.13353,4.60781,-1.26513,-5.54273,1.02231,-1.93601,1.00516,-1.30972,-0.95403,4.25703,-23.5507,-2.73987,-11.4826,16.4497,-0.504325,2.91717,9.08153,-0.652526,2.78785,8.95773e-15,1.53064e-14,-22.2799,-12.4868,-41.5879,64.6182,16.1092,-26.3466,5.23798,7.12502,0.21099,-24.7417,8.95773e-15,1.53064e-14,-12.6206,-2.14866,45.1406,65.352,-4.5465,-10.3892,21.1057,7.12502,15.6089,50.4959,-18.1377,1.0816,8.67603,38.9742,-14.8067,-3.6949,-1.0931,-6.10912,1.70052,-26.7715,27.5455,-16.779,6.42456,-7.64201
1.5615,17.5805,-0.264901,-1.21407,-22.2642,2.34778,4.63673,-1.31077,-5.68022,0.965873,-2.00755,0.935095,-1.37379,-0.985983,4.26725,-23.745,-2.66652,-11.4038,16.2273,-0.4002,2.88621,9.0279,-0.594065,2.77672,4.37326e-14,-4.57205e-15,-21.5369,-12.3397,-39.9748,65.6761,15.9431,-26.4296,5.216,7.12502,0.130866,-24.7637,4.37326e-14,-4.57205e-15,-11.6106,-2.16356,43.1978,66.1267,-4.15136,-11.1699,20.8384,7.12502,14.8569,50.2858,-18.2213,0.852054,8.43864,39.6568,-14.7824,-3.54837,-0.624499,-5.74133,1.76485,-26.9952,27.4155,-16.8273,6.29382,-7.25382
1.56143,17.5706,-0.23661,-1.58393,-22.4893,2.59898,4.6257,-1.31075,-5.87245,0.912281,-2.01819,0.892757,-1.41656,-0.98798,4.33286,-23.7294,-2.53682,-11.4249,15.8688,-0.216573,2.85832,8.88606,-0.500719,2.79174,-2.06239e-15,-2.38542e-15,-20.7475,-12.1519,-38.3288,66.7388,15.9917,-26.5632,5.28838,7.12502,0.00176579,-24.6914,-2.06239e-15,-2.38542e-15,-10.7578,-2.14512,41.2443,66.9374,-3.65522,-12.0607,21.0281,7.12502,13.9985,50.5368,-18.3099,0.778469,8.17646,40.3644,-14.64,-3.43067,-0.988819,-5.27618,1.93184,-27.2679,27.2781,-16.9304,6.33338,-6.73163
1.5596,17.5613,-0.230947,-1.73171,-22.3492,2.76306,4.72461,-1.42252,-6.09882,0.792985,-2.18791,0.876485,-1.56741,-1.06381,4.45777,-23.723,-2.44284,-11.411,15.3484,-0.0979602,2.84571,8.6947,-0.427949,2.79494,-5.51627e-14,1.45113e-14,-19.96,-11.9269,-36.6609,67.9093,16.0479,-26.5745,5.38286,7.12502,-0.00915181,-24.5969,-5.51627e-14,1.45113e-14,-9.77513,-2.0265,39.1818,67.7734,-3.04016,-12.554,22.2027,7.12502,13.5231,51.7436,-18.5836,0.477376,8.03607,41.1061,-14.5267,-3.52481,-1.21931,-5.08753,2.01953,-27.3959,27.1116,-16.8742,6.07097,-6.76374
1.55883,17.5569,-0.204936,-1.95611,-22.4784,2.90966,4.54042,-1.44868,-6.13932,0.823767,-2.21299,0.810977,-1.43043,-1.0816,4.40649,-23.8822,-2.36003,-11.2716,14.8785,0.00314641,2.74626,8.55048,-0.366819,2.74654,-1.50579e-14,1.59028e-15,-19.1229,-11.7616,-34.943,69.1188,16.0289,-26.5254,5.43951,7.12502,0.0382642,-24.5402,-1.50579e-14,1.59028e-15,-8.57562,-1.75331,36.9912,68.5273,-2.63265,-12.5394,23.1597,7.12502,13.5372,52.6997,-18.7821,0.299727,7.86143,41.8307,-14.3237,-3.42804,-1.29444,-4.72514,2.14595,-27.5715,26.9458,-16.8854,6.13576,-7.26976
1.55644,17.5528,-0.1777,-2.24285,-22.4995,3.18792,4.36312,-1.5077,-6.32371,0.855334,-2.2887,0.734616,-1.28512,-1.12456,4.4273,-24.1255,-2.25668,-11.148,14.5542,0.154668,2.618,8.4676,-0.291139,2.69981,4.03781e-14,-9.54166e-15,-18.2056,-11.7105,-33.1908,70.2743,16.0322,-26.4257,5.51299,7.12502,0.134561,-24.4667,4.03781e-14,-9.54166e-15,-7.45618,-1.26827,34.8398,69.1163,-2.5218,-12.4074,22.8593,7.12502,13.6644,52.3908,-18.8919,0.071494,7.52531,42.5297,-14.1054,-3.24832,-1.40654,-4.35957,2.18432,-27.8851,26.8177,-16.9008,6.20572,-7.72628
1.55265,17.5466,-0.156182,-2.44719,-22.5157,3.19984,4.32474,-1.58366,-6.35199,0.85198,-2.38778,0.789099,-1.25137,-1.1751,4.50277,-24.2336,-2.14691,-11.2827,14.1786,0.350048,2.64984,8.34158,-0.190399,2.75432,-3.99806e-14,1.59028e-15,-17.1835,-11.6564,-31.3695,71.3918,16.128,-26.2246,5.62292,7.12502,0.328803,-24.3566,-3.99806e-14,1.59028e-15,-6.45838,-0.469048,32.919,69.3983,-2.65728,-12.4973,22.1274,7.12502,13.5777,51.6647,-18.9845,0.0116617,7.4951,43.1858,-13.9655,-3.24563,-0.993904,-4.00744,2.21582,-27.8924,26.6942,-16.9212,6.14926,-7.41591
1.54882,17.5395,-0.135446,-2.66477,-22.5984,3.07009,4.38648,-1.60823,-6.2545,0.846388,-2.41915,0.873822,-1.28822,-1.18973,4.53983,-24.1883,-2.04387,-11.4607,13.6818,0.511907,2.76523,8.15078,-0.094186,2.83735,9.77772e-15,-7.95139e-15,-16.2113,-11.6791,-29.4848,72.49,16.3602,-25.9806,5.74649,7.12502,0.564473,-24.2325,9.77772e-15,-7.95139e-15,-5.36986,0.23026,30.9855,69.5536,-2.55689,-12.5163,21.7855,7.12502,13.5594,51.324,-19.053,-0.0658311,7.65632,43.8234,-13.6117,-3.40724,-0.876649,-3.58638,2.30458,-27.7535,26.6054,-16.9724,6.19607,-7.39454
1.54367,17.531,-0.112961,-2.91062,-22.7574,3.10638,4.38082,-1.57814,-6.28065,0.853364,-2.37951,0.889374,-1.28098,-1.17031,4.56865,-24.1845,-1.97211,-11.513,13.1917,0.611152,2.79655,7.97471,-0.0296584,2.86288,-8.28684e-15,1.98785e-15,-15.3068,-11.7852,-27.5555,73.5542,16.4604,-25.9048,5.96005,7.12502,0.637672,-24.0187,-8.28684e-15,1.98785e-15,-4.27134,0.546511,28.7828,69.8844,-1.88886,-12.7585,21.7481,7.12502,13.3259,51.302,-19.1864,-0.216221,7.66569,44.441,-12.9819,-3.6122,-1.72602,-3.2108,2.54194,-27.7782,26.5633,-17.0794,6.21923,-7.70449
1.53735,17.5235,-0.0910646,-3.15649,-22.8629,3.19735,4.40543,-1.55371,-6.36657,0.823383,-2.35324,0.902547,-1.32499,-1.1546,4.63126,-24.2259,-1.88701,-11.4275,12.8086,0.729424,2.61527,7.84347,0.0245428,2.79773,-6.87298e-14,1.59028e-15,-14.4574,-11.8394,-25.6181,74.641,16.2268,-26.0804,5.86763,7.12502,0.46806,-24.1116,-6.87298e-14,1.59028e-15,-3.2623,0.870704,26.5902,70.3435,-1.33451,-12.9478,22.1604,7.12502,13.1436,51.7261,-19.2994,-0.279061,7.57308,45.0543,-12.5776,-3.67475,-2.36824,-2.8684,2.69683,-27.8589,26.5288,-17.1627,6.19048,-7.40614
1.53293,17.5196,-0.0678311,-3.41153,-22.9068,3.2804,4.548,-1.568,-6.48673,0.729012,-2.38936,0.967983,-1.49021,-1.16376,4.77641,-24.2409,-1.73886,-11.4537,12.4934,0.949278,2.52284,7.72341,0.128543,2.79469,-1.63997e-15,-6.36111e-15,-13.472,-11.716,-23.6056,75.546,15.5387,-26.5722,5.62127,7.12502,-0.00687699,-24.3585,-1.63997e-15,-6.36111e-15,-2.30319,1.37421,24.5449,70.5535,-1.08016,-13.4702,22.4727,7.12502,12.6399,52.0702,-19.3583,-0.307291,7.44289,45.6656,-12.5021,-3.61923,-2.10001,-2.50363,2.71848,-27.9469,26.4709,-17.2475,6.1784,-7.19572
1.52959,17.5157,-0.0448076,-3.6186,-22.9296,3.30382,4.77573,-1.57511,-6.58103,0.547742,-2.42219,1.08831,-1.79234,-1.16348,4.96995,-24.1877,-1.57555,-11.5162,12.2441,1.20119,2.38192,7.61353,0.238724,2.78504,-4.2161e-14,-4.37326e-15,-12.4951,-11.5586,-21.4654,76.4013,14.8215,-27.0257,5.35684,7.12502,-0.444865,-24.6224,-4.2161e-14,-4.37326e-15,-1.41246,1.76376,22.5766,70.5881,-0.72754,-14.2297,22.3267,7.12502,11.9076,51.968,-19.4434,-0.330042,7.3815,46.2789,-12.587,-3.62138,-1.3107,-2.15569,2.68864,-27.9828,26.3794,-17.2928,6.18882,-6.86323
1.52259,17.5113,-0.0215874,-3.76864,-22.9538,3.31672,4.85978,-1.53583,-6.64968,0.424328,-2.38114,1.16478,-1.96701,-1.13232,5.09282,-24.1852,-1.48685,-11.4182,11.9803,1.3275,2.11979,7.51828,0.285371,2.69291,1.23489e-13,1.59028e-15,-11.672,-11.6222,-19.251,77.2784,14.1565,-27.2509,5.25246,7.12502,-0.662388,-24.7263,1.23489e-13,1.59028e-15,-0.20009,2.41701,20.7798,70.4287,-0.717235,-14.1822,21.9813,7.12502,11.9534,51.6201,-19.6133,-0.376595,7.35437,46.8749,-12.6287,-3.76276,-1.49837,-1.85187,2.64287,-28.0044,26.2816,-17.3334,6.22635,-6.58924
1.51347,17.5041,0.00369345,-3.93513,-22.9392,3.47656,4.72784,-1.57482,-6.76248,0.485156,-2.42941,1.09957,-1.82148,-1.16295,5.08418,-24.5265,-1.41752,-11.154,11.5761,1.39506,1.96307,7.43349,0.328497,2.60363,-8.01351e-16,7.55382e-15,-10.5794,-12.1517,-17.4559,77.9786,13.6735,-27.4631,5.29327,7.12502,-0.867325,-24.6847,-8.01351e-16,7.55382e-15,1.15165,3.53182,18.8139,70.1045,-0.803969,-14.1299,21.7582,7.12502,12.0039,51.394,-19.825,-0.553962,7.17231,47.4541,-12.4094,-4.0041,-3.14617,-1.58262,2.67019,-28.1723,26.1717,-17.3572,6.27645,-7.08682
1.50396,17.4992,0.0268612,-4.07398,-22.9238,3.54525,4.61783,-1.67633,-6.8021,0.599156,-2.55694,1.02886,-1.62551,-1.23724,5.03154,-25.0504,-1.24891,-10.7768,11.2158,1.57593,1.8239,7.38481,0.430284,2.51917,9.0944e-15,1.15295e-14,-9.27334,-12.8727,-15.9485,78.5862,13.2673,-27.7442,5.059,7.12502,-1.13888,-24.9177,9.0944e-15,1.15295e-14,2.20864,4.61183,16.5144,69.9494,-0.278718,-14.2979,21.7232,7.12502,11.8419,51.3684,-19.9966,-0.634936,7.07407,47.9982,-12.3668,-4.18536,-4.06004,-1.28796,2.69924,-28.2278,26.0041,-17.3528,6.24598,-7.31106
1.49409,17.4989,0.0528347,-4.18072,-22.9955,3.51988,4.5343,-1.73384,-6.75914,0.630628,-2.62471,1.01698,-1.53929,-1.27553,4.99371,-25.3465,-1.05924,-10.5143,10.973,1.79299,1.6922,7.33798,0.540042,2.46021,-1.54866e-14,0,-8.07418,-13.4301,-14.2222,79.1084,12.673,-28.0915,5.11096,7.12502,-1.47429,-24.8637,-1.54866e-14,0,3.18083,5.68921,14.3874,69.7822,0.248888,-14.2716,21.7342,7.12502,11.8672,51.3779,-20.1208,-0.460947,7.07481,48.4805,-12.6452,-4.56997,-4.26259,-0.949697,2.7239,-28.1907,25.7646,-17.3119,6.26646,-7.43088
1.48473,17.4992,0.0832372,-4.34477,-23.0936,3.57343,4.46831,-1.74761,-6.77238,0.616,-2.63897,1.03804,-1.51394,-1.28313,5.02139,-25.455,-0.921819,-10.4622,10.6593,1.97702,1.6029,7.23884,0.631442,2.4419,1.31602e-14,1.31198e-14,-6.94053,-14.098,-12.4152,79.5118,12.2144,-28.3051,5.84728,7.12502,-1.68055,-24.1258,1.31602e-14,1.31198e-14,4.12471,6.79404,12.5947,69.4173,0.0772169,-15.1801,22.2017,7.12502,10.9911,51.894,-20.1791,-0.270166,6.96501,48.881,-12.989,-5.13076,-4.57482,-0.55507,2.76752,-28.2444,25.5099,-17.303,6.31452,-7.46219
1.47291,17.4979,0.115517,-4.58738,-23.1174,3.75543,4.46495,-1.71283,-6.90035,0.585137,-2.59989,1.01633,-1.54472,-1.26088,5.06985,-25.4967,-0.857895,-10.4648,10.3093,2.06745,1.53852,7.12251,0.679963,2.42759,-3.59428e-14,4.37326e-15,-5.98448,-14.8867,-10.5786,79.9073,11.6647,-28.3169,6.44191,7.12502,-1.69202,-23.5311,-3.59428e-14,4.37326e-15,5.2121,7.87941,10.9713,68.9792,-0.0854285,-16.0278,22.705,7.12502,10.1733,52.439,-20.1661,-0.20051,6.72733,49.1848,-13.2871,-5.43688,-5.04422,-0.114559,2.78623,-28.4269,25.236,-17.2848,6.32316,-7.44733
1.45834,17.4926,0.145442,-4.81655,-23.0519,3.86627,4.54245,-1.69327,-6.95317,0.527171,-2.58488,0.967751,-1.65036,-1.24737,5.05294,-25.4496,-0.8004,-10.4728,9.98358,2.12735,1.55896,7.00158,0.722018,2.43863,-5.38155e-15,-9.54166e-15,-5.11436,-15.706,-8.80068,80.2596,10.9884,-28.1048,7.05157,7.12502,-1.4871,-22.923,-5.38155e-15,-9.54166e-15,6.36192,9.05241,9.41623,68.4959,-0.163492,-15.4909,22.5188,7.12502,10.6913,52.2268,-20.0939,-0.234314,6.58218,49.4047,-13.5785,-5.48297,-4.88213,0.348841,2.73657,-28.524,24.9685,-17.3128,6.29332,-7.35876
1.44294,17.4877,0.172812,-5.00635,-22.955,3.93375,4.62707,-1.66667,-6.98048,0.460805,-2.55987,0.936593,-1.77045,-1.22815,5.03982,-25.4571,-0.741007,-10.4254,9.75912,2.19212,1.50998,6.92452,0.757878,2.41995,1.13424e-13,-8.74653e-15,-4.28042,-16.6599,-7.1145,80.5466,10.8213,-28.1456,7.27485,7.12502,-1.52658,-22.6994,1.13424e-13,-8.74653e-15,7.552,10.284,8.07416,67.8651,-0.570937,-14.9602,22.1822,7.12502,11.2031,51.8631,-20.0137,-0.273639,6.4868,49.5374,-13.9106,-5.46974,-3.88322,0.76421,2.72058,-28.5631,24.756,-17.31,6.25567,-7.7634
1.42811,17.4855,0.201952,-5.09091,-22.8506,3.93022,4.51329,-1.6929,-6.90175,0.445786,-2.58331,0.907538,-1.72383,-1.24179,4.96186,-25.5178,-0.647986,-10.288,9.53282,2.28692,1.4026,6.85506,0.805726,2.37186,-4.16982e-14,-3.97569e-16,-3.35477,-17.6894,-5.63772,80.8026,10.9933,-28.7509,6.94162,7.12502,-2.11113,-23.0277,-4.16982e-14,-3.97569e-16,8.6813,11.7339,6.83271,67.2274,-0.906862,-14.5828,22.0686,7.12502,11.5671,51.7294,-19.9777,-0.31504,6.45713,49.5946,-14.2851,-5.56783,-3.29278,1.08128,2.69746,-28.5331,24.5783,-17.3415,6.19457,-8.48341
1.41132,17.4831,0.231155,-5.1872,-22.8375,3.89448,4.33671,-1.76631,-6.79911,0.48665,-2.66211,0.888998,-1.57724,-1.28857,4.87975,-25.4422,-0.508378,-10.4248,9.13587,2.45658,1.65199,6.69483,0.920944,2.49148,-5.27401e-15,-4.37326e-15,-2.20008,-18.8144,-4.40995,81.0599,10.8528,-29.2378,6.83166,7.12502,-2.58138,-23.1325,-5.27401e-15,-4.37326e-15,9.48913,13.3164,5.41762,66.738,-1.01179,-14.3114,21.9312,7.12502,11.8288,51.5771,-19.9307,-0.263039,6.47913,49.5864,-14.6229,-5.83973,-3.79679,1.41238,2.74534,-28.4504,24.4053,-17.4068,6.09728,-9.07506
1.39488,17.4791,0.263041,-5.36706,-22.8537,3.9403,4.41388,-1.77842,-6.8412,0.383357,-2.68816,0.939214,-1.71985,-1.29293,4.96298,-25.281,-0.446974,-10.7385,8.90868,2.5754,1.9046,6.57947,0.999312,2.63403,5.77097e-15,3.57812e-15,-1.08867,-19.7559,-2.99308,81.2611,10.4021,-29.5823,6.56106,7.12502,-2.91407,-23.3988,5.77097e-15,3.57812e-15,10.1448,14.703,4.18824,66.3397,-1.00982,-14.0611,22.1988,7.12502,12.0702,51.8307,-19.8145,-0.218806,6.41387,49.513,-14.7338,-6.12933,-4.85037,1.8084,2.88603,-28.4194,24.2447,-17.5553,5.83287,-8.64248
1.3777,17.4737,0.297556,-5.55704,-22.806,4.09737,4.55618,-1.76506,-6.98929,0.193788,-2.69399,0.955152,-1.98832,-1.27879,5.07453,-25.2604,-0.380644,-10.7266,8.93481,2.67152,1.811,6.5807,1.03564,2.61249,1.20513e-14,-1.23246e-14,-0.0206122,-20.6463,-1.63161,81.3237,10.0144,-30.0776,5.84795,7.12502,-3.39243,-24.1048,1.20513e-14,-1.23246e-14,10.965,15.9678,3.30575,65.8516,-0.819607,-13.8595,21.8403,7.12502,12.2646,51.4607,-19.6796,-0.264328,6.18802,49.3729,-14.8836,-6.1263,-4.2024,2.17974,3.07625,-28.4941,24.0898,-17.6699,5.57368,-8.53469
1.35651,17.4691,0.327735,-5.64639,-22.7104,4.14704,4.54781,-1.75511,-7.04603,0.113114,-2.6857,0.949582,-2.06637,-1.26872,5.1021,-25.3972,-0.317787,-10.5946,8.8912,2.74829,1.66633,6.58605,1.06433,2.55358,6.92889e-14,-9.93923e-15,0.990661,-21.8844,-0.478523,81.3263,9.8082,-30.5011,5.50565,7.12502,-3.80138,-24.4402,6.92889e-14,-9.93923e-15,12.007,17.3544,2.64304,65.2777,-0.427217,-14.5154,22.3521,7.12502,11.6321,52.0092,-19.5932,-0.300705,6.07913,49.1585,-15.0564,-6.07728,-3.08302,2.47691,3.1872,-28.4552,23.9152,-17.712,5.29436,-8.50373
1.33562,17.4663,0.358378,-5.709,-22.6438,4.1275,4.5035,-1.72949,-7.00841,0.0557695,-2.64736,0.977738,-2.10676,-1.24661,5.10806,-25.4053,-0.298493,-10.6967,8.68923,2.79943,1.67717,6.51528,1.09328,2.57607,-4.8988e-14,-1.59028e-15,1.95591,-23.2819,0.601226,81.3729,9.64505,-30.8243,5.55287,7.12502,-4.11351,-24.3872,-4.8988e-14,-1.59028e-15,12.9723,18.8311,2.0967,64.8086,0.103929,-15.216,22.961,7.12502,10.9564,52.6551,-19.476,-0.29028,6.04325,48.8707,-15.2263,-6.12121,-2.83689,2.78371,3.24197,-28.3605,23.7508,-17.7558,5.04298,-8.37324
1.31769,17.4647,0.38927,-5.81677,-22.559,4.09952,4.60268,-1.69266,-6.92217,-0.0399997,-2.60356,1.00316,-2.27068,-1.21637,5.09052,-25.3702,-0.264621,-10.7756,8.44975,2.86447,1.62827,6.42613,1.1255,2.57567,-1.42876e-14,3.57812e-15,2.90752,-24.678,1.57104,81.4286,9.32385,-31.0742,5.66173,7.12502,-4.35481,-24.2735,-1.42876e-14,3.57812e-15,13.8898,20.2856,1.58079,64.4654,1.02178,-15.8011,23.3049,7.12502,10.392,53.0281,-19.2782,-0.190781,6.00141,48.5186,-15.3646,-6.22457,-3.01787,3.12684,3.34617,-28.246,23.5904,-17.8403,4.74446,-8.13446
1.30047,17.4616,0.419379,-5.88945,-22.3655,4.03663,4.6844,-1.67203,-6.73317,-0.121339,-2.57525,0.964795,-2.41485,-1.19675,4.94785,-25.4371,-0.285058,-10.7798,8.40907,2.85058,1.59309,6.42406,1.11652,2.56298,3.39176e-14,1.11319e-14,3.81332,-26.1858,2.29565,81.4482,8.94412,-31.4883,5.52478,7.12502,-4.75465,-24.4019,3.39176e-14,1.11319e-14,14.9657,21.7773,1.2428,64.147,2.02426,-16.8138,23.6811,7.12502,9.41498,53.4508,-19.0659,-0.131636,5.96869,48.102,-15.3366,-6.33049,-3.32774,3.44335,3.45962,-28.0892,23.4334,-17.9186,4.37816,-7.64661
1.28086,17.4575,0.449001,-5.99972,-22.127,4.11274,4.77261,-1.66399,-6.71724,-0.219145,-2.57425,0.920092,-2.56903,-1.18807,4.89833,-25.3526,-0.374108,-10.8438,8.47968,2.76171,1.48472,6.44187,1.0584,2.52636,-4.3186e-14,-1.43125e-14,4.84675,-27.7594,2.87479,81.3907,8.64028,-31.8777,5.29128,7.12502,-5.13069,-24.6266,-4.3186e-14,-1.43125e-14,16.1194,23.5282,1.1838,63.7106,2.10353,-16.659,23.6534,7.12502,9.56437,53.4163,-18.851,-0.141564,5.78327,47.616,-15.2228,-6.44141,-3.80639,3.74293,3.49077,-28.088,23.2889,-18.0259,4.06968,-7.43449
1.26061,17.4555,0.476499,-6.05192,-22.0255,4.11408,4.87259,-1.6191,-6.67964,-0.341581,-2.52305,0.92848,-2.76068,-1.15233,4.89023,-25.1521,-0.418547,-10.9114,8.42988,2.71482,1.37358,6.3996,1.02496,2.49168,-6.67668e-14,5.56597e-15,5.93036,-29.3488,3.32575,81.3678,8.26208,-32.1329,5.37622,7.12502,-5.37705,-24.5356,-6.67668e-14,5.56597e-15,17.2028,25.1685,1.15975,63.3666,2.42914,-16.9004,24.0693,7.12502,9.33142,53.8428,-18.7201,-0.0600447,5.71228,47.0643,-15.1503,-6.5696,-4.12725,3.96969,3.45516,-28.0269,23.168,-18.0811,3.89284,-7.17243
1.24046,17.456,0.50793,-5.99837,-21.9689,3.91552,4.86955,-1.6102,-6.40418,-0.429963,-2.49604,0.974148,-2.86354,-1.13655,4.78311,-25.0838,-0.381516,-10.934,8.29736,2.77288,1.26815,6.34349,1.04699,2.4644,-5.12616e-14,-5.1684e-15,7.10571,-30.9704,3.5734,81.4657,7.62838,-32.5337,5.34716,7.12502,-5.76405,-24.5544,-5.12616e-14,-5.1684e-15,18.0992,26.7891,1.08624,63.228,3.04268,-17.1411,24.4274,7.12502,9.09919,54.2111,-18.5935,0.127627,5.83022,46.4616,-15.1909,-6.54546,-4.29509,4.19429,3.40271,-27.7759,23.0305,-18.1391,3.75752,-6.99953
1.22043,17.4523,0.541904,-6.00412,-21.8506,3.89447,4.85085,-1.60479,-6.22961,-0.52135,-2.4808,0.94171,-2.9584,-1.12615,4.65143,-24.9996,-0.381988,-10.9697,8.12448,2.78565,1.13468,6.27488,1.04577,2.42391,-3.26752e-14,1.19271e-15,8.31251,-32.5824,3.65634,81.5844,6.98588,-33.0302,5.17581,7.12502,-6.24333,-24.7122,-3.26752e-14,1.19271e-15,18.9829,28.4198,1.10944,63.2199,3.62278,-17.0702,24.7259,7.12502,9.16762,54.5066,-18.4604,0.304301,5.73572,45.8353,-15.1778,-6.52109,-5.45301,4.44222,3.40202,-27.7254,22.8801,-18.1796,3.76129,-7.46324
1.19843,17.4475,0.569675,-6.0931,-21.6973,4.0279,4.95085,-1.56077,-6.30033,-0.614099,-2.4372,0.898256,-3.11591,-1.09545,4.64954,-24.8959,-0.409878,-10.9694,7.90514,2.75701,0.923341,6.19253,1.02053,2.3467,-2.6339e-15,-2.38542e-15,9.41153,-34.0642,3.8708,81.7747,6.23833,-33.5809,4.68068,7.12502,-6.77501,-25.1909,-2.6339e-15,-2.38542e-15,19.9652,30.0286,1.39288,63.2481,4.05808,-17.195,25.0273,7.12502,9.04722,54.8133,-18.3136,0.571156,5.48187,45.1941,-15.1929,-6.53653,-6.26723,4.69473,3.41845,-27.8009,22.7139,-18.1967,3.70136,-7.67801
1.17506,17.4486,0.59494,-6.05869,-21.4956,4.05609,4.95932,-1.52329,-6.31342,-0.674682,-2.3909,0.882935,-3.18978,-1.06803,4.63975,-25.0286,-0.442806,-10.9837,7.89851,2.74765,0.827946,6.2123,1.00609,2.31706,-1.26825e-13,8.34896e-15,10.5774,-35.6756,3.91163,81.902,5.62826,-34.3046,4.23017,7.12502,-7.47357,-25.6178,-1.26825e-13,8.34896e-15,21.0921,31.7476,1.97838,63.3692,4.39726,-17.7218,25.2159,7.12502,8.53886,55.0232,-18.2152,0.854119,5.31672,44.538,-15.288,-6.40045,-5.77654,4.84844,3.33547,-27.7669,22.5274,-18.1539,3.55572,-7.55212
1.15097,17.4504,0.623169,-6.03637,-21.2045,4.04293,4.96289,-1.50258,-6.22753,-0.732956,-2.36151,0.835594,-3.26133,-1.05131,4.54152,-25.0566,-0.449882,-11.0098,7.89702,2.75342,0.806511,6.21574,1.00601,2.31481,2.05245e-14,0,11.9677,-37.6056,3.41777,81.8799,5.53116,-34.8204,4.26553,7.12502,-7.97143,-25.5642,2.05245e-14,0,22.4085,33.4614,2.70058,63.5232,4.64168,-18.3142,25.4218,7.12502,7.96709,55.2516,-18.0187,1.01383,5.16922,43.8431,-15.3701,-6.15237,-4.42908,5.05684,3.16162,-27.7135,22.3447,-18.1703,3.43144,-7.76886
1.12691,17.4487,0.653393,-5.98498,-21.0019,4.07864,4.89477,-1.45179,-6.14212,-0.821909,-2.28855,0.77649,-3.33001,-1.0125,4.42637,-25.0116,-0.470923,-11.1268,7.95365,2.75311,0.854401,6.22556,1.00457,2.34891,4.19933e-14,-5.96354e-15,13.4015,-39.4557,2.80075,81.9321,5.50825,-35.3646,4.01581,7.12502,-8.49668,-25.7933,4.19933e-14,-5.96354e-15,23.7062,35.0633,3.23435,63.6687,5.12009,-18.9748,25.6692,7.12502,7.32947,55.5223,-17.9187,1.15824,4.97973,43.109,-15.3607,-6.05141,-4.60784,5.21794,3.08171,-27.7038,22.1723,-18.2438,3.27722,-7.85483
1.10329,17.4459,0.680771,-5.88095,-20.8372,4.04531,4.88592,-1.40411,-5.98568,-0.946356,-2.2202,0.724453,-3.47032,-0.974223,4.28188,-25.0985,-0.475741,-11.1814,8.07499,2.77177,0.915387,6.27582,1.01247,2.3819,1.11568e-14,-5.96354e-15,14.8277,-41.135,2.12162,82.1539,5.33876,-35.8282,4.02302,7.12502,-8.94401,-25.7674,1.11568e-14,-5.96354e-15,24.9843,36.5383,3.73584,63.8663,6.03901,-19.9855,25.9679,7.12502,6.35377,55.8526,-17.8806,1.39733,4.86701,42.3516,-15.352,-6.09171,-5.32044,5.3307,2.97944,-27.6398,22.0091,-18.2632,3.25493,-8.11158
1.07826,17.4451,0.70826,-5.84762,-20.5741,4.03995,4.9736,-1.41096,-5.89739,-1.08529,-2.235,0.686609,-3.66745,-0.973849,4.20008,-25.0174,-0.403511,-11.1952,7.97984,2.85567,0.929344,6.22661,1.05806,2.3965,-3.85642e-14,-2.78299e-15,16.5381,-42.7487,1.06865,82.4121,5.29775,-36.1722,4.25784,7.12502,-9.27594,-25.5181,-3.85642e-14,-2.78299e-15,26.0992,37.893,4.36426,64.2065,7.1621,-21.3964,25.9786,7.12502,4.99162,55.8998,-17.718,1.7129,4.7107,41.6158,-15.3961,-6.14977,-5.97873,5.51299,2.84446,-27.5816,21.8335,-18.2504,3.15262,-7.94577
1.0515,17.445,0.735623,-5.8511,-20.3269,4.10253,5.0304,-1.40434,-5.87711,-1.16576,-2.23393,0.608694,-3.78738,-0.968702,4.11122,-25.0206,-0.354819,-11.1304,7.93943,2.90607,0.875754,6.21251,1.08121,2.37416,-4.67144e-15,2.38542e-15,18.304,-44.4198,-0.127269,82.6477,5.36182,-36.6607,4.1131,7.12502,-9.74734,-25.6413,-4.67144e-15,2.38542e-15,27.2661,39.3733,5.1103,64.6156,7.68657,-22.5638,25.9506,7.12502,3.86436,55.8953,-17.5445,2.08265,4.47763,40.8993,-15.4121,-6.08422,-5.87234,5.70856,2.82001,-27.5517,21.645,-18.2574,2.92208,-7.84264
1.02325,17.4437,0.760102,-5.78093,-20.1087,4.21945,5.04156,-1.36527,-5.96272,-1.25639,-2.19325,0.551249,-3.89233,-0.941506,4.09889,-25.1085,-0.358793,-11.0113,8.01595,2.91066,0.641378,6.25704,1.06157,2.28045,6.88292e-15,1.11319e-14,20.1644,-46.1314,-1.45271,82.9152,5.59498,-37.3895,3.43448,7.12502,-10.4504,-26.2858,6.88292e-15,1.11319e-14,28.5234,40.9206,6.01009,65.0768,7.79454,-23.2241,26.265,7.12502,3.22671,56.2203,-17.5345,2.35288,4.18914,40.2122,-15.3481,-5.98011,-5.25325,5.80364,2.78753,-27.5865,21.441,-18.2697,2.73618,-7.86545
0.99493,17.4449,0.785054,-5.69577,-19.8552,4.2195,5.1413,-1.34601,-6.02035,-1.41048,-2.18069,0.609244,-4.10727,-0.922153,4.1979,-25.0987,-0.342929,-11.1292,8.13015,2.98557,0.551953,6.28957,1.08023,2.2788,2.56929e-14,2.38542e-15,22.3085,-47.5827,-2.93834,83.2044,5.67828,-38.3544,3.04293,7.12502,-11.3811,-26.6282,2.56929e-14,2.38542e-15,29.4979,42.2369,6.77487,65.5969,8.11924,-23.8419,26.7188,7.12502,2.63004,56.6823,-17.4841,2.62214,4.03161,39.5294,-15.4008,-5.93972,-4.84774,5.92099,2.81599,-27.4756,21.2605,-18.3032,2.48148,-8.17961
0.965939,17.4466,0.808238,-5.61684,-19.5691,4.15542,5.31453,-1.26842,-5.97221,-1.54099,-2.08938,0.612875,-4.35404,-0.866415,4.17636,-25.2636,-0.379355,-11.1639,8.38115,2.98787,0.505679,6.39819,1.06442,2.2735,6.67916e-14,-6.36111e-15,24.1819,-49.0003,-4.30081,83.5469,5.74534,-38.9454,2.93578,7.12502,-11.951,-26.7031,6.67916e-14,-6.36111e-15,30.8282,43.4766,7.86461,66.1722,8.59704,-24.472,27.1759,7.12502,2.02147,57.146,-17.3859,2.9719,3.95357,38.8467,-15.5385,-6.01727,-4.92514,6.04933,2.83823,-27.2866,21.1109,-18.3055,2.17852,-8.43916
0.935763,17.4466,0.829767,-5.50372,-19.2319,4.10688,5.486,-1.19326,-5.89406,-1.68771,-2.00223,0.551268,-4.61965,-0.813756,4.06959,-25.2971,-0.404993,-10.9964,8.48103,2.94157,0.287791,6.44601,1.02278,2.17157,-5.61567e-15,2.78299e-15,26.0624,-50.426,-5.84213,83.9362,6.02921,-39.414,2.69078,7.12502,-12.4029,-26.9213,-5.61567e-15,2.78299e-15,32.3856,44.6807,9.12932,66.7264,8.97287,-25.1868,27.5709,7.12502,1.33117,57.5465,-17.3122,3.30646,3.85516,38.1508,-15.5765,-6.1187,-4.84662,6.11657,2.72998,-27.1314,20.9805,-18.2921,1.93238,-8.71275
0.906065,17.4469,0.855528,-5.33691,-18.8412,4.09048,5.51348,-1.19749,-5.79696,-1.82253,-2.00972,0.489344,-4.78086,-0.812885,3.95449,-25.3198,-0.418255,-10.9368,8.57218,2.93436,0.138707,6.48425,1.00299,2.11331,-4.6118e-14,-1.19271e-15,28.1604,-51.72,-7.67164,84.4339,6.24967,-40.5978,2.29906,7.12502,-13.544,-27.2405,-4.6118e-14,-1.19271e-15,33.7442,45.9051,10.2786,67.3798,9.17672,-26.0599,27.9446,7.12502,0.487898,57.9238,-17.2742,3.50213,3.70095,37.4665,-15.5102,-6.13667,-5.14867,6.12038,2.54635,-27.0309,20.8618,-18.313,1.74717,-8.85081
0.874591,17.4505,0.882061,-5.13674,-18.5201,4.02585,5.40431,-1.1747,-5.66183,-1.87175,-1.96688,0.424413,-4.78109,-0.795793,3.80425,-25.3882,-0.431369,-10.8573,8.63521,2.91273,0.0775806,6.51904,0.986707,2.07952,-6.58474e-14,1.98785e-15,30.2769,-53.0342,-9.58441,84.8846,6.45121,-41.9284,2.20706,7.12502,-14.8262,-27.2425,-6.58474e-14,1.98785e-15,35.3151,47.2414,11.688,68.115,9.19407,-26.8542,28.5314,7.12502,-0.279271,58.511,-17.2668,3.69587,3.6079,36.7918,-15.5614,-6.15177,-5.6981,6.10672,2.48084,-26.8612,20.761,-18.3972,1.54161,-9.19355
0.840731,17.4524,0.904218,-5.00606,-18.1454,4.00671,5.43244,-1.11109,-5.58547,-1.92197,-1.88548,0.303458,-4.86443,-0.756034,3.62966,-25.3964,-0.466655,-10.7094,8.6915,2.82755,0.0475818,6.54612,0.946474,2.03758,5.17834e-14,1.03368e-14,32.3214,-54.3479,-11.4952,85.3354,6.78071,-42.7403,1.95002,7.12502,-15.6083,-27.4403,5.17834e-14,1.03368e-14,37.1461,48.4768,13.3267,68.8309,9.11063,-27.8005,29.0765,7.12502,-1.19326,59.0529,-17.1972,3.92104,3.48266,36.1289,-15.6646,-6.15424,-5.40039,6.14895,2.42017,-26.7183,20.6464,-18.4835,1.32354,-9.68728
0.808466,17.452,0.926899,-4.85638,-17.7245,3.96507,5.56041,-1.04501,-5.47228,-2.03669,-1.80611,0.191366,-5.07235,-0.713345,3.4477,-25.2488,-0.550198,-10.614,8.6286,2.67162,0.0120583,6.51317,0.875748,1.99092,-4.34593e-14,-1.94809e-14,34.3717,-55.5869,-13.3681,85.8077,7.23036,-43.1077,1.64662,7.12502,-15.962,-27.7157,-4.34593e-14,-1.94809e-14,39.04,49.5851,15.0898,69.5855,8.89664,-28.752,29.3477,7.12502,-2.11222,59.317,-17.1246,4.20554,3.38289,35.4726,-15.794,-6.22167,-5.12906,6.15833,2.30188,-26.5406,20.5243,-18.5356,0.904026,-9.2462
0.775159,17.4547,0.954101,-4.69597,-17.3913,3.87311,5.63976,-1.01083,-5.34902,-2.16051,-1.7613,0.16549,-5.25604,-0.687666,3.35165,-25.184,-0.546068,-10.6486,8.6411,2.67812,0.0345715,6.50647,0.880003,2.00427,-7.17364e-14,-1.27222e-14,36.8607,-56.5396,-15.6815,86.2821,7.40562,-43.864,1.39953,7.12502,-16.6903,-27.9029,-7.17364e-14,-1.27222e-14,40.6715,50.6899,16.6669,70.2964,8.5451,-29.3769,29.5727,7.12502,-2.71573,59.5352,-17.0591,4.57734,3.35636,34.8308,-15.8115,-6.27121,-5.11066,6.18103,2.08907,-26.3387,20.4053,-18.5666,0.617906,-8.61383
0.738599,17.457,0.97881,-4.56402,-17.0496,3.83588,5.71518,-0.972117,-5.29038,-2.26465,-1.71553,0.118295,-5.41597,-0.661118,3.26884,-25.3993,-0.529912,-10.7782,9.0548,2.7582,0.229537,6.66736,0.914685,2.10488,-2.56681e-14,-6.16232e-15,39.5627,-57.3243,-18.3173,86.7338,7.35658,-45.1738,1.20546,7.12502,-17.9509,-27.9861,-2.56681e-14,-6.16232e-15,42.2531,51.7369,18.2043,71.0834,8.36876,-30.5737,30.2324,7.12502,-3.87149,60.177,-17.0021,4.8631,3.27914,34.2227,-15.8625,-6.14576,-4.71237,6.25528,1.94818,-26.1893,20.2473,-18.6025,0.485486,-8.98601
0.700068,17.4578,1.00176,-4.47491,-16.6872,3.82302,5.81883,-0.861395,-5.26802,-2.3538,-1.57888,0.0497246,-5.58455,-0.589001,3.17523,-25.4778,-0.649029,-10.922,9.51316,2.66661,0.30738,6.83504,0.853689,2.14776,-3.83903e-14,-3.37934e-15,42.0671,-58.2352,-20.6985,87.1066,7.69972,-46.0476,1.24429,7.12502,-18.7915,-27.868,-3.83903e-14,-3.37934e-15,44.2248,52.6356,20.1788,71.8667,8.35819,-31.9554,30.7319,7.12502,-5.20569,60.648,-16.9189,5.03805,3.20006,33.6598,-15.9138,-5.98765,-4.39996,6.39616,1.91309,-26.0393,20.0594,-18.6815,0.361009,-9.87116
0.661803,17.4579,1.02677,-4.39447,-16.3149,3.91424,5.86295,-0.779421,-5.34435,-2.43591,-1.48705,-0.0559236,-5.7064,-0.537855,3.10051,-25.323,-0.716496,-10.8454,9.58916,2.57442,0.0670097,6.8481,0.786176,2.04413,-1.14301e-15,3.18055e-15,44.579,-59.0293,-23.1067,87.4618,8.17347,-46.6793,1.75678,7.12502,-19.3989,-27.2956,-1.14301e-15,3.18055e-15,46.0159,53.4503,21.8414,72.5183,8.58679,-31.3038,30.8202,7.12502,-4.57646,60.7508,-16.8639,5.21084,3.02647,33.1529,-15.8033,-5.89113,-4.18611,6.46921,1.84537,-25.9978,19.8991,-18.756,0.210901,-10.6801
0.625297,17.4583,1.05308,-4.27277,-15.8623,3.94728,5.92693,-0.759527,-5.29579,-2.52456,-1.47105,-0.188001,-5.84248,-0.528923,2.93602,-25.2946,-0.741201,-10.7164,9.68699,2.52387,-0.0767751,6.88365,0.748951,1.97098,-1.6201e-14,5.56597e-15,47.1507,-59.6096,-25.7333,87.8788,8.40094,-47.5129,2.39751,7.12502,-20.2003,-26.5722,-1.6201e-14,5.56597e-15,47.6509,54.1936,23.2024,73.1723,9.10702,-32.531,31.2969,7.12502,-5.76145,61.1985,-16.8185,5.26316,2.92301,32.7054,-15.6157,-5.8329,-4.71796,6.51039,1.55405,-25.9306,19.7477,-18.7951,0.0373825,-10.7837
0.58742,17.4616,1.07915,-4.11675,-15.4401,3.81205,6.00181,-0.726276,-5.12511,-2.60339,-1.42216,-0.231911,-5.97721,-0.507087,2.7918,-25.3115,-0.768046,-10.8262,9.85873,2.51358,0.0576013,6.94082,0.746157,2.0336,9.05713e-15,-4.17448e-15,50.038,-60.128,-28.6425,88.3033,8.81511,-48.3224,2.69594,7.12502,-20.9781,-26.1896,9.05713e-15,-4.17448e-15,49.4124,54.9362,24.8403,73.8518,9.40728,-33.5594,31.554,7.12502,-6.75423,61.4263,-16.7658,5.26744,3.04644,32.3636,-15.3667,-5.78611,-5.96289,6.59707,1.27595,-25.6789,19.5819,-18.7975,-0.146378,-10.6554
0.546908,17.4677,1.10356,-4.00169,-15.0312,3.73036,6.07352,-0.665324,-5.03796,-2.66405,-1.34299,-0.287478,-6.09207,-0.468482,2.67845,-25.2916,-0.798752,-10.9467,9.96891,2.49372,0.193716,6.97215,0.741378,2.09646,-1.51822e-14,1.09332e-14,52.9545,-60.6664,-31.568,88.6919,9.39105,-49.3181,2.79655,7.12502,-21.9345,-25.98,-1.51822e-14,1.09332e-14,51.3834,55.6912,26.7724,74.5861,9.824,-34.1031,31.5674,7.12502,-7.27913,61.4222,-16.6984,5.36709,3.12686,32.1335,-15.0823,-5.5831,-6.20783,6.65665,1.0843,-25.4526,19.4838,-18.8252,-0.393728,-10.3512
0.504996,17.4708,1.12505,-3.8832,-14.5588,3.78873,6.14235,-0.636799,-5.09925,-2.75761,-1.32329,-0.379667,-6.23367,-0.452942,2.61651,-25.1206,-0.797388,-10.944,10.0052,2.48623,0.123808,6.96018,0.730475,2.07118,2.66993e-14,-1.73937e-14,55.8667,-61.0573,-34.541,89.0637,9.94619,-50.1987,2.63804,7.12502,-22.7798,-26.037,2.66993e-14,-1.73937e-14,53.2861,56.3673,28.762,75.4097,10.2141,-34.0597,31.6286,7.12502,-7.23723,61.4848,-16.6698,5.41081,3.02639,32.0163,-14.9491,-5.08284,-5.03007,6.629,0.883489,-25.3573,19.4546,-18.8911,-0.721874,-9.99585
0.460044,17.4688,1.14496,-3.77126,-14.078,3.73466,6.30648,-0.601425,-5.11233,-2.83781,-1.29316,-0.42657,-6.41663,-0.432269,2.57534,-25.1349,-0.831364,-10.8846,10.2634,2.46673,-0.0664993,7.05495,0.693101,1.99873,-1.2101e-14,-1.98785e-14,58.7919,-61.3301,-37.5572,89.4711,10.5107,-50.7526,2.26075,7.12502,-23.3112,-26.3479,-1.2101e-14,-1.98785e-14,55.2659,56.8812,30.995,76.2609,10.1045,-34.2034,31.801,7.12502,-7.37593,61.6525,-16.6294,5.57701,3.06798,32.0322,-14.8393,-4.63543,-3.42085,6.63285,0.650861,-25.1277,19.4401,-18.9694,-0.986221,-10.0061
0.414227,17.4717,1.16586,-3.62926,-13.6041,3.55218,6.40871,-0.563074,-4.98414,-2.82487,-1.23791,-0.456873,-6.46862,-0.409943,2.46715,-25.4485,-0.897356,-10.8597,10.7086,2.4447,-0.139043,7.25665,0.654946,1.97412,1.17345e-14,7.40473e-15,61.794,-61.6251,-40.6115,89.8295,10.9018,-51.4201,1.78924,7.12502,-23.9515,-26.7368,1.17345e-14,7.40473e-15,57.5031,57.4549,33.3314,76.9956,9.9289,-34.5998,32.1516,7.12502,-7.75853,61.9893,-16.6139,5.57,3.33619,32.1918,-14.4466,-4.24394,-3.38881,6.60248,0.304633,-24.7763,19.4717,-19.0609,-1.17623,-10.0158
0.368251,17.4753,1.18814,-3.49618,-13.1483,3.45379,6.40234,-0.515469,-4.92532,-2.78751,-1.17108,-0.520656,-6.43258,-0.382546,2.35915,-25.5809,-0.947382,-10.8357,10.9692,2.41336,-0.215833,7.3691,0.620939,1.94393,-3.19049e-14,-7.10655e-15,64.7891,-61.834,-43.7109,90.115,11.0873,-52.085,1.55814,7.12502,-24.589,-26.8826,-3.19049e-14,-7.10655e-15,59.9095,58.0536,35.6696,77.5623,9.85725,-35.0215,32.4978,7.12502,-8.16552,62.32,-16.5983,5.16434,3.5882,32.4368,-13.8515,-3.55047,-4.26788,6.53915,-0.103867,-24.5329,19.5684,-19.1642,-1.31975,-9.6289
0.320711,17.473,1.20782,-3.43649,-12.711,3.44636,6.47216,-0.45911,-4.98984,-2.78065,-1.11024,-0.594285,-6.47085,-0.350715,2.31219,-25.4988,-0.981363,-10.8252,11.0787,2.37447,-0.300772,7.39765,0.589872,1.9094,2.99971e-14,-1.1778e-14,67.6563,-61.8868,-46.6861,90.3797,10.9477,-52.77,1.1726,7.12502,-25.2454,-27.1773,2.99971e-14,-1.1778e-14,62.1251,58.5958,37.7532,78.0025,9.68623,-35.3072,32.7655,7.12502,-8.44122,62.5768,-16.5336,4.78096,3.76343,32.7245,-13.4191,-2.83884,-4.82124,6.53482,-0.377645,-24.3621,19.6593,-19.2411,-1.4878,-9.31313
0.272859,17.4694,1.22598,-3.35602,-12.2348,3.34689,6.58083,-0.427993,-4.93822,-2.77724,-1.07603,-0.683496,-6.53467,-0.336561,2.18737,-25.3187,-1.002,-10.852,11.0885,2.32108,-0.226894,7.37424,0.572245,1.93107,-3.71852e-14,-3.54085e-14,70.481,-61.8211,-49.6849,90.645,10.6368,-53.4856,0.986075,7.12502,-25.9308,-27.2653,-3.71852e-14,-3.54085e-14,64.3985,59.0767,39.8113,78.3797,9.53085,-35.4335,32.7058,7.12502,-8.5631,62.5122,-16.4692,4.48377,4.05237,33.0536,-13.2323,-2.21529,-3.57085,6.55777,-0.824933,-24.1505,19.6819,-19.3111,-1.34317,-9.93958
0.224447,17.4682,1.24825,-3.1983,-11.727,3.22385,6.5379,-0.370984,-4.84405,-2.79999,-0.994964,-0.774156,-6.54269,-0.302311,2.02944,-24.871,-1.03663,-10.9413,11.0109,2.22824,-0.138607,7.28112,0.539958,1.96017,1.87852e-14,1.87852e-14,72.8685,-61.6696,-52.2083,90.9034,10.5008,-53.9172,0.551582,7.12502,-26.344,-27.6387,1.87852e-14,1.87852e-14,66.9073,59.3252,42.2248,78.8139,9.37043,-35.4859,32.7392,7.12502,-8.61367,62.5435,-16.4823,3.97619,4.38575,33.4114,-13.1668,-1.5295,-1.30332,6.55417,-1.48028,-23.9565,19.6108,-19.3249,-1.05339,-10.6162
0.174316,17.4673,1.27431,-3.11394,-11.325,3.16311,6.51927,-0.272244,-4.82532,-2.85923,-0.869603,-0.888706,-6.60583,-0.241863,1.88396,-24.341,-1.03759,-10.8884,11.0493,2.14891,-0.173816,7.21698,0.50288,1.92863,-2.28478e-14,-1.6201e-14,74.7475,-61.4525,-54.1778,91.0377,10.3296,-54.0737,0.0583818,7.12502,-26.4939,-28.1094,-2.28478e-14,-1.6201e-14,69.1804,59.429,44.413,79.226,9.2627,-35.6476,32.7935,7.12502,-8.7697,62.5913,-16.4285,3.47692,4.66835,33.7362,-13.2062,-1.04405,-0.794465,6.66088,-2.06954,-23.8185,19.494,-19.3134,-0.819506,-10.6454
0.119707,17.4647,1.29847,-3.10402,-10.8634,3.26158,6.59368,-0.23992,-5.07093,-2.91966,-0.865255,-1.02525,-6.71379,-0.228929,1.87877,-23.9539,-0.941089,-10.611,11.1984,2.17623,-0.351772,7.21048,0.50652,1.82978,-1.28092e-14,1.59028e-14,76.9059,-60.9001,-56.6371,91.1664,10.3656,-54.3369,0.401032,7.12502,-26.7457,-27.7285,-1.28092e-14,1.59028e-14,71.0432,59.5877,46.0713,79.6052,9.25306,-35.9495,33.7194,7.12502,-9.06112,63.5048,-16.2754,3.06519,4.77139,34.0172,-13.4037,-0.990267,-1.88529,6.79999,-2.44976,-23.7785,19.3881,-19.2968,-0.79426,-10.7246
0.0621532,17.4636,1.31945,-3.05334,-10.3497,3.26113,6.59621,-0.26064,-5.1953,-2.86136,-0.909328,-1.13459,-6.65087,-0.250263,1.83894,-23.8385,-0.881547,-10.5337,11.3877,2.23514,-0.408194,7.25478,0.525116,1.80776,-1.54307e-14,2.78299e-15,79.3831,-60.2714,-59.5316,91.3619,10.5649,-54.8393,0.942416,7.12502,-27.2264,-27.1127,-1.54307e-14,2.78299e-15,73.0261,59.8787,47.8012,80.0001,9.41732,-36.4663,35.3089,7.12502,-9.55971,65.0721,-16.1302,2.79187,4.96188,34.2449,-13.699,-1.36462,-2.41864,6.87277,-2.76964,-23.5844,19.2971,-19.3369,-0.908954,-11.077
0.0045097,17.4637,1.33693,-2.95173,-9.86779,3.02059,6.6749,-0.260895,-5.07112,-2.83307,-0.902123,-1.13832,-6.66759,-0.252119,1.76544,-23.7946,-0.871582,-10.5524,11.7387,2.29747,-0.59331,7.36693,0.519656,1.75953,1.63003e-14,9.14409e-15,81.417,-59.7679,-61.8008,91.4527,10.7289,-55.3795,1.3469,7.12502,-27.7431,-26.6261,1.63003e-14,9.14409e-15,74.8745,60.1124,49.4918,80.3554,9.65963,-36.6688,36.2323,7.12502,-9.7551,65.9863,-15.998,2.7171,5.40052,34.3993,-13.9157,-1.99639,-1.99436,6.89635,-3.17443,-23.1516,19.2379,-19.3773,-0.854933,-11.9017
-0.0531211,17.4648,1.35814,-2.86127,-9.4096,2.7574,6.82768,-0.235284,-4.95687,-2.89914,-0.866658,-1.09401,-6.82869,-0.233699,1.7453,-23.7233,-0.895895,-10.7475,12.2182,2.34416,-0.609428,7.51478,0.509632,1.79452,-2.47487e-14,-2.16675e-14,82.822,-59.1517,-63.4053,91.517,10.987,-56.1024,1.54409,7.12502,-28.4341,-26.3156,-2.47487e-14,-2.16675e-14,76.2713,60.1225,50.9118,80.6975,9.9901,-37.7304,35.958,7.12502,-10.7792,65.6614,-15.8052,2.74302,5.84754,34.4711,-14.1088,-2.58706,-1.56179,6.91863,-3.63331,-22.7221,19.2551,-19.4169,-0.708205,-12.6915
-0.113287,17.4658,1.38506,-2.79759,-8.97468,2.62254,6.88308,-0.196538,-4.99832,-2.95512,-0.824938,-1.09792,-6.92304,-0.20837,1.7598,-23.7078,-0.916068,-10.9834,12.8067,2.39035,-0.44795,7.7049,0.509994,1.89746,-3.55079e-14,1.19271e-14,84.1914,-58.4559,-65.0764,91.5667,11.394,-56.899,1.91792,7.12502,-29.195,-25.8121,-3.55079e-14,1.19271e-14,77.5574,60.0665,52.2904,81.1574,10.4275,-39.0291,35.5528,7.12502,-12.0317,65.1869,-15.5998,2.69056,6.1457,34.5079,-14.2242,-2.96455,-1.90715,6.94023,-4.14635,-22.4262,19.3243,-19.4448,-0.698945,-12.3412
-0.174952,17.4679,1.41213,-2.74898,-8.5174,2.48772,6.9049,-0.177003,-5.03127,-2.97422,-0.806322,-1.13036,-6.95761,-0.197431,1.74204,-23.644,-0.909115,-11.1181,13.3737,2.43632,-0.309415,7.88165,0.513887,1.97731,-4.44781e-15,-1.98785e-14,85.6202,-57.79,-66.892,91.595,12.0681,-57.1052,1.09613,7.12502,-29.392,-26.5995,-4.44781e-15,-1.98785e-14,78.8582,60.0819,53.5927,81.5613,10.7627,-38.8537,35.7198,7.12502,-11.8626,65.3638,-15.3838,2.51787,6.45314,34.5558,-14.2645,-3.25659,-2.51674,6.95758,-4.64822,-22.1124,19.3938,-19.4246,-0.754107,-11.9088
-0.238183,17.4679,1.43451,-2.66081,-8.00281,2.27245,7.00007,-0.142738,-4.97346,-3.04364,-0.764239,-1.13761,-7.0901,-0.175413,1.69753,-23.3818,-0.954996,-11.3678,13.7759,2.40402,-0.126993,7.9729,0.487929,2.07732,-1.73688e-14,-1.51076e-14,86.5333,-57.1393,-68.0955,91.5608,12.0938,-57.394,0.958948,7.12502,-29.6676,-26.688,-1.73688e-14,-1.51076e-14,79.9154,59.9686,54.6592,81.863,11.0136,-38.2681,36.0872,7.12502,-11.2978,65.7629,-15.1983,2.32313,6.87164,34.6246,-14.2921,-3.59731,-2.3658,6.89906,-5.17464,-21.7108,19.5003,-19.422,-0.710299,-12.2137
-0.302663,17.466,1.45898,-2.54989,-7.49013,2.12435,7.03364,-0.119418,-5.02167,-3.11463,-0.741521,-1.11797,-7.18657,-0.158152,1.74251,-23.1985,-0.999235,-11.6852,14.2219,2.4094,0.0417206,8.08994,0.471255,2.18927,9.93923e-17,-3.18055e-15,86.9895,-56.3932,-68.7388,91.4412,11.4178,-58.143,2.55501,7.12502,-30.3823,-24.9624,9.93923e-17,-3.18055e-15,80.7404,59.8626,55.5524,82.1669,11.3491,-38.1606,36.1246,7.12502,-11.1941,65.806,-15.0784,2.05111,7.23582,34.721,-14.3621,-3.87197,-1.75513,6.80395,-5.61037,-21.3734,19.6572,-19.5221,-0.532546,-13.1355
-0.36634,17.4665,1.48675,-2.45168,-7.03615,1.95493,6.95218,-0.113084,-5.00165,-3.09797,-0.727599,-1.15739,-7.12312,-0.155004,1.68738,-23.1391,-0.971647,-11.7619,14.6937,2.46786,0.129259,8.23632,0.481945,2.24467,9.88954e-15,-2.18663e-14,87.6093,-55.6522,-69.7439,91.3561,11.2226,-59.7999,5.48722,7.12502,-31.9613,-21.7265,9.88954e-15,-2.18663e-14,81.8922,59.7664,56.6123,82.4069,11.6588,-38.1287,35.833,7.12502,-11.1634,65.516,-14.9492,1.71239,7.61742,34.8357,-14.5169,-3.95234,-1.98331,6.7328,-6.05239,-21.0189,19.8625,-19.6564,-0.385373,-13.6484
-0.430798,17.4681,1.51275,-2.37271,-6.59029,1.74861,6.86593,-0.105706,-4.92314,-3.06253,-0.706876,-1.21814,-7.03781,-0.152496,1.57629,-22.9748,-0.93134,-11.8215,15.075,2.51346,0.240804,8.33462,0.495138,2.3025,-1.35174e-14,-3.29983e-14,88.4531,-55.0123,-71.0677,91.3456,11.3648,-59.8235,4.06874,7.12502,-31.9838,-23.1405,-1.35174e-14,-3.29983e-14,82.9315,59.6687,57.4208,82.5617,11.9592,-38.4638,36.0119,7.12502,-11.4866,65.6771,-14.8074,1.35549,8.04318,34.9522,-14.7306,-3.92672,-2.86388,6.65225,-6.53452,-20.6226,20.1097,-19.7775,-0.295657,-13.86
-0.494127,17.464,1.53666,-2.27281,-6.17908,1.54603,6.80886,-0.0538042,-4.88563,-3.07605,-0.631007,-1.22489,-7.02433,-0.117249,1.53817,-22.6618,-0.897298,-11.9486,15.3678,2.54954,0.335768,8.37814,0.502943,2.36182,2.31087e-14,2.94201e-14,89.0286,-54.3746,-71.9361,91.3862,11.0531,-59.7619,2.57097,7.12502,-31.9252,-24.65,2.31087e-14,2.94201e-14,83.6001,59.4789,58.0043,82.6952,12.1619,-39.19,36.5194,7.12502,-12.1869,66.1444,-14.72,1.05512,8.45603,35.0644,-14.9686,-3.82653,-2.4763,6.51014,-6.98121,-20.2379,20.4065,-19.9006,-0.0320344,-14.8529
-0.557322,17.462,1.55816,-2.13654,-5.68626,1.30925,6.80154,0.00106242,-4.78019,-3.13119,-0.550311,-1.24477,-7.08454,-0.0809136,1.44784,-22.3803,-0.880333,-11.9248,15.7586,2.5795,0.155914,8.46876,0.480952,2.30402,-2.78299e-15,3.97569e-16,89.1568,-53.7444,-72.2609,91.4021,10.0251,-60.1851,2.58958,7.12502,-32.328,-24.55,-2.78299e-15,3.97569e-16,84.1613,59.1857,58.5359,82.8476,12.3598,-39.3676,36.8095,7.12502,-12.3581,66.4242,-14.6127,0.691978,8.91686,35.1376,-15.1676,-3.79601,-1.73182,6.26818,-7.48322,-19.8004,20.7773,-19.9942,0.172832,-15.6854
-0.622341,17.4653,1.57612,-2.02583,-5.09898,1.10999,6.82872,0.0663485,-4.6808,-3.17602,-0.463164,-1.34151,-7.15444,-0.0432472,1.27934,-22.0756,-0.891634,-11.6311,16.1957,2.54109,-0.286835,8.58387,0.411943,2.10512,7.20594e-15,1.03368e-14,89.1716,-53.2006,-72.6079,91.4039,9.06746,-60.5648,2.93648,7.12502,-32.6893,-24.1288,7.20594e-15,1.03368e-14,84.7558,58.7742,59.0941,83.0461,12.5644,-38.8155,36.4068,7.12502,-11.8258,66.0529,-14.432,0.317639,9.3411,35.1249,-15.3336,-3.87504,-1.1304,5.94993,-7.93669,-19.3569,21.2583,-20.0706,0.168727,-16.2077
-0.687034,17.4676,1.59525,-1.98736,-4.50274,0.613332,6.92184,0.096638,-4.29344,-3.14034,-0.388373,-1.34124,-7.17415,-0.0247001,1.05345,-21.9402,-0.903131,-11.4677,16.6872,2.53516,-0.545717,8.73948,0.366997,1.99515,3.37934e-15,-2.70347e-14,89.3431,-52.6579,-73.1197,91.3105,8.88358,-60.8372,2.43379,7.12502,-32.9485,-24.5773,3.37934e-15,-2.70347e-14,85.2314,58.418,59.5433,83.2491,12.7153,-38.9429,36.033,7.12502,-11.9486,65.672,-14.1169,-0.0488147,10.106,35.0267,-15.5037,-4.03848,-1.22973,5.70867,-8.4556,-18.5968,21.7955,-20.1321,0.119535,-16.009
-0.753108,17.4773,1.62064,-2.08104,-4.02545,-0.0233117,7.05837,0.138051,-3.79627,-2.99395,-0.281278,-1.27876,-7.10083,0.00357723,0.827459,-22.1077,-0.893958,-11.4062,17.3516,2.60768,-0.636062,8.99921,0.360114,1.97312,-1.32192e-14,-7.95139e-16,89.6046,-52.1185,-73.6784,91.0801,9.08466,-61.2638,1.75914,7.12502,-33.3542,-25.1657,-1.32192e-14,-7.95139e-16,85.8854,58.1357,60.0961,83.3389,12.6603,-39.4022,36.1513,7.12502,-12.3914,65.764,-13.6382,-0.294942,11.0396,34.8918,-15.7125,-4.20056,-1.50249,5.61677,-8.95264,-17.719,22.3404,-20.2302,0.146436,-15.9075
-0.820244,17.4857,1.64549,-2.19088,-3.52242,-0.358643,7.15173,0.226568,-3.57811,-2.75368,-0.141671,-1.33846,-6.90394,0.055434,0.625679,-22.5054,-0.958601,-11.2283,18.0256,2.59877,-0.82589,9.31256,0.308674,1.88802,1.61016e-14,7.95139e-15,89.959,-51.7441,-74.2704,90.8441,9.21809,-61.096,0.664033,7.12502,-33.1946,-26.2949,1.61016e-14,7.95139e-15,86.8492,57.8273,60.9175,83.3846,12.5245,-38.8833,35.7854,7.12502,-11.8912,65.4277,-13.1643,-0.489495,11.6316,34.747,-15.9758,-4.36272,-1.43475,5.44589,-9.44648,-17.1612,22.9129,-20.2639,0.0915983,-15.5543
-0.887641,17.4852,1.66152,-2.21064,-2.98288,-0.627567,7.2158,0.276012,-3.48155,-2.55623,-0.0643549,-1.36608,-6.73333,0.0843707,0.533765,-22.7194,-0.970422,-11.1123,18.5166,2.65068,-1.03078,9.52824,0.28975,1.8119,-2.48481e-16,-5.56597e-15,90.2313,-51.2678,-74.7151,90.6808,8.92512,-59.4046,-1.02922,7.12502,-31.5848,-28.3176,-2.48481e-16,-5.56597e-15,87.4596,57.6627,61.4225,83.4551,12.5577,-38.4944,35.3744,7.12502,-11.5161,65.0381,-12.8619,-0.754816,12.1558,34.6361,-16.1529,-4.55248,-1.56001,5.14068,-9.80644,-16.631,23.5248,-20.2683,0.0948672,-16.8135
-0.954835,17.4874,1.67256,-2.17155,-2.49577,-1.01716,7.28286,0.321777,-3.26412,-2.44371,0.0212403,-1.32906,-6.65425,0.116133,0.440131,-22.7146,-0.943237,-11.1095,18.9927,2.75183,-1.18536,9.69723,0.29378,1.77671,-1.25731e-14,3.02153e-14,90.3257,-50.6363,-75.0236,90.4396,8.88039,-59.2334,-1.17126,7.12502,-31.4217,-28.4915,-1.25731e-14,3.02153e-14,87.6741,57.5434,61.5727,83.4828,12.6166,-38.8095,35.1874,7.12502,-11.82,64.8338,-12.6724,-1.03649,12.8245,34.5701,-16.2812,-4.73652,-1.47482,4.76551,-10.0274,-15.9405,24.1649,-20.2832,0.178841,-19.144
-1.02174,17.492,1.68128,-2.14477,-1.98067,-1.38551,7.42266,0.362514,-3.0748,-2.34785,0.0944398,-1.27939,-6.63411,0.144359,0.3765,-22.7511,-0.89944,-11.1323,19.5531,2.88739,-1.29793,9.90215,0.311421,1.76645,-3.27995e-15,1.51076e-14,90.3257,-49.963,-75.2068,89.9643,9.42919,-59.5942,-1.79126,7.12502,-31.7655,-29.044,-3.27995e-15,1.51076e-14,87.6307,57.3987,61.6282,83.5825,12.5386,-38.9849,34.9309,7.12502,-11.9891,64.5676,-12.4761,-1.33593,13.469,34.5061,-16.4817,-4.92311,-0.686391,4.31886,-10.2575,-15.2467,24.8332,-20.2489,-0.00766737,-19.7447
-1.08799,17.4967,1.693,-2.14003,-1.44869,-1.70462,7.52884,0.390582,-2.90591,-2.22058,0.149091,-1.264,-6.56061,0.16288,0.291127,-22.8759,-0.848969,-11.1036,20.1718,3.03183,-1.40534,10.1454,0.332851,1.75248,-3.67752e-15,1.27222e-14,90.2683,-49.3704,-75.3144,89.4676,9.86949,-59.8257,-2.24707,7.12502,-31.9859,-29.4558,-3.67752e-15,1.27222e-14,87.5641,57.182,61.6354,83.6626,12.3815,-39.078,34.9272,7.12502,-12.0789,64.5586,-12.2551,-1.66387,14.0524,34.3951,-16.6685,-5.0929,-0.375548,3.85889,-10.531,-14.5994,25.5468,-20.1286,-0.299934,-19.461
-1.15409,17.5048,1.71087,-2.17866,-0.904103,-1.92266,7.54254,0.418765,-2.80266,-2.0445,0.199367,-1.29745,-6.38248,0.179707,0.193079,-22.8618,-0.802383,-11.1025,20.678,3.15827,-1.52472,10.3259,0.349136,1.73398,9.39258e-15,-2.38542e-15,90.1009,-48.749,-75.4125,89.1393,10.1408,-59.7809,-2.04616,7.12502,-31.9432,-29.2635,9.39258e-15,-2.38542e-15,87.5411,56.966,61.5694,83.6694,12.17,-39.0607,34.9465,7.12502,-12.0622,64.5788,-11.9656,-2.02744,14.5091,34.2478,-16.7845,-5.24953,-0.593153,3.42033,-10.7022,-14.0539,26.3167,-19.9637,-0.576091,-20.6453
-1.22042,17.5133,1.72684,-2.30618,-0.241577,-2.0477,7.6409,0.446058,-2.77731,-1.86731,0.235186,-1.36503,-6.25184,0.192473,0.10442,-22.5834,-0.737063,-11.0479,21.0956,3.26512,-1.70374,10.4301,0.360826,1.68017,2.18166e-14,-1.98785e-14,89.7625,-48.1987,-75.3273,88.8128,10.1651,-59.668,-2.18761,7.12502,-31.8357,-29.4264,2.18166e-14,-1.98785e-14,87.3831,56.6572,61.4104,83.6458,11.9447,-39.0743,34.5363,7.12502,-12.0753,64.1679,-11.5237,-2.4141,14.864,34.0649,-16.9442,-5.51172,-1.06515,2.99757,-10.8626,-13.604,27.1336,-19.7291,-1.00001,-22.3116
-1.28697,17.5217,1.73723,-2.37016,0.444424,-2.14132,7.72373,0.480734,-2.778,-1.69495,0.277462,-1.45643,-6.11771,0.209087,0.00479655,-22.4197,-0.653174,-10.8944,21.625,3.39912,-1.91624,10.5977,0.3812,1.60424,-1.68967e-15,-1.66979e-14,89.4484,-47.7313,-75.2148,88.4593,9.89183,-59.829,-2.00671,7.12502,-31.989,-29.2149,-1.68967e-15,-1.66979e-14,87.3054,56.2133,61.3999,83.6294,11.6643,-39.1114,33.9816,7.12502,-12.1111,63.6111,-11.1383,-2.81185,15.1899,33.8386,-17.0904,-5.77647,-0.993217,2.41283,-11.0382,-13.1612,28.0305,-19.4156,-1.53334,-23.3758
-1.35438,17.5335,1.74641,-2.29578,0.988865,-2.38475,7.68043,0.553172,-2.65115,-1.52937,0.391368,-1.48724,-5.91939,0.257333,-0.111006,-22.4239,-0.59162,-10.8258,22.2425,3.54724,-2.062,10.8276,0.402045,1.56948,4.67144e-15,-3.97569e-15,89.1356,-47.21,-75.0568,88.1392,9.88311,-60.0208,-2.5774,7.12502,-32.1716,-29.7488,4.67144e-15,-3.97569e-15,87.1143,55.8862,61.2919,83.6084,11.366,-39.2025,33.748,7.12502,-12.1989,63.3723,-10.9375,-3.13201,15.7036,33.5767,-17.1001,-6.08931,-0.916479,1.63342,-11.2715,-12.5324,29.0445,-19.0744,-2.04044,-23.8614
-1.4234,17.5469,1.75593,-2.2464,1.51068,-2.76467,7.6571,0.599146,-2.41419,-1.3493,0.483601,-1.45329,-5.71595,0.292817,-0.217923,-22.4714,-0.51169,-10.8538,22.8729,3.74985,-2.15313,11.0679,0.444186,1.57862,-1.84373e-14,-1.74931e-14,88.8239,-46.5808,-74.9347,87.8046,10.125,-60.0249,-3.15857,7.12502,-32.1755,-30.3292,-1.84373e-14,-1.74931e-14,86.7478,55.6893,60.9491,83.5698,11.1021,-39.2515,33.7741,7.12502,-12.2462,63.3956,-10.741,-3.42746,16.3767,33.3044,-17.1254,-6.38818,-0.855712,0.79435,-11.3764,-11.7015,30.17,-18.6539,-2.74955,-24.1671
-1.49137,17.5599,1.7637,-2.22772,2.15058,-3.02453,7.70221,0.599206,-2.28034,-1.16461,0.499323,-1.46279,-5.54624,0.294049,-0.303339,-22.5396,-0.382715,-10.7625,23.5305,4.01008,-2.32561,11.3267,0.509222,1.54865,-9.6659e-15,-2.38542e-15,88.5848,-45.9753,-74.8723,87.4079,10.3692,-60.0149,-3.33181,7.12502,-32.166,-30.5043,-9.6659e-15,-2.38542e-15,86.3602,55.4432,60.6,83.4691,10.6229,-39.1523,33.8034,7.12502,-12.1505,63.4305,-10.4767,-3.72029,16.904,33.0163,-17.3373,-6.6871,-0.60657,-0.11506,-11.513,-10.9948,31.4088,-18.1685,-3.58555,-24.4488
-1.55858,17.5757,1.76798,-2.14986,2.85981,-3.00171,7.71049,0.60356,-2.40535,-0.973129,0.493524,-1.54489,-5.35061,0.291529,-0.315903,-22.4737,-0.27491,-10.6737,24.0441,4.23198,-2.56021,11.5126,0.557883,1.48756,-1.5294e-14,-7.15625e-15,88.2847,-45.4358,-74.6623,86.9422,10.6736,-60.0092,-2.44909,7.12502,-32.1606,-29.6227,-1.5294e-14,-7.15625e-15,86.195,55.2592,60.4823,83.2623,10.0616,-38.8589,33.6499,7.12502,-11.8676,63.2936,-10.2663,-4.09323,17.1011,32.7259,-17.4752,-6.97143,-0.573582,-1.18111,-11.7031,-10.6051,32.7465,-17.6095,-4.33516,-25.0611
-1.62597,17.5905,1.77079,-2.08691,3.52193,-3.07044,7.72352,0.63517,-2.45072,-0.744582,0.535273,-1.58168,-5.1193,0.310201,-0.331358,-22.4533,-0.172258,-10.6409,24.5417,4.47243,-2.7829,11.7018,0.610682,1.44259,-1.87292e-15,2.70347e-14,87.9998,-44.8475,-74.5073,86.7476,10.7145,-59.6478,-2.55931,7.12502,-31.8165,-29.8019,-1.87292e-15,2.70347e-14,86.0276,55.1069,60.3859,83.0874,9.7152,-38.5616,33.3367,7.12502,-11.5809,62.9967,-10.091,-4.48181,17.4066,32.436,-17.5376,-7.26786,-0.395509,-2.32165,-11.7382,-10.0646,34.16,-16.964,-5.3237,-25.6598
-1.69453,17.6039,1.77638,-2.06386,4.2088,-3.23773,7.74175,0.672139,-2.41979,-0.485219,0.594543,-1.56971,-4.85891,0.335782,-0.340598,-22.5429,-0.0825523,-10.6888,25.1394,4.72145,-2.89984,11.9483,0.665026,1.4531,1.02498e-14,3.18055e-15,87.7776,-44.3102,-74.3534,86.8069,10.1939,-58.7791,-1.60664,7.12502,-30.9888,-29.0103,1.02498e-14,3.18055e-15,85.6213,54.8458,60.2147,82.9991,9.30771,-38.6256,33.3106,7.12502,-11.6426,62.9672,-9.87431,-4.78292,17.8465,32.1345,-17.6986,-7.72071,-0.489148,-3.51108,-11.6645,-9.37811,35.6516,-16.0715,-6.48891,-25.7714
-1.76372,17.6203,1.78135,-2.05056,4.91948,-3.37749,7.79425,0.689678,-2.38824,-0.237458,0.624896,-1.58845,-4.62968,0.347108,-0.379164,-22.5405,0.0296073,-10.7145,25.7431,4.97122,-2.9731,12.1802,0.727932,1.47624,8.10048e-15,-4.77083e-15,87.5474,-43.7712,-74.1578,86.4801,10.0609,-58.2208,-0.774688,7.12502,-30.4565,-28.2783,8.10048e-15,-4.77083e-15,85.0622,54.5842,59.8791,82.8751,8.92549,-38.2354,33.3565,7.12502,-11.2663,63.034,-9.62742,-4.99411,18.2635,31.7946,-17.9109,-8.20765,-0.391395,-4.78937,-11.6142,-8.71809,37.2182,-14.9099,-7.70237,-25.2268
-1.83165,17.6349,1.78184,-2.08146,5.68183,-3.62471,7.95668,0.709346,-2.25934,-0.015845,0.664338,-1.56472,-4.48918,0.362107,-0.431158,-22.3992,0.14536,-10.6473,26.3386,5.20247,-3.13787,12.3909,0.781551,1.44562,-1.53064e-14,-2.8625e-14,87.17,-43.242,-73.7908,85.9476,10.4236,-57.9722,-0.514462,7.12502,-30.2193,-28.0618,-1.53064e-14,-2.8625e-14,84.4032,54.2939,59.4343,82.6661,8.7269,-37.0382,33.0555,7.12502,-10.1115,62.7926,-9.35017,-5.34506,18.7808,31.4121,-18.0301,-8.66279,0.525465,-6.1225,-11.5518,-7.92711,38.812,-13.5843,-9.0188,-24.5725
-1.89596,17.6465,1.78054,-2.09782,6.4624,-3.85332,8.16483,0.713546,-2.098,0.16206,0.684528,-1.52316,-4.41945,0.367997,-0.481856,-22.0968,0.238645,-10.5908,26.7637,5.41704,-3.45588,12.5124,0.818728,1.35184,2.6339e-15,-7.95139e-15,86.7549,-42.6996,-73.3071,85.4278,10.7694,-57.8379,-0.670594,7.12502,-30.0912,-28.2413,2.6339e-15,-7.95139e-15,83.4777,54.0048,58.7646,82.4362,8.4991,-36.3863,32.9228,7.12502,-9.48253,62.6894,-9.09261,-5.81685,19.2438,31.0017,-18.0714,-8.97324,1.42859,-7.52033,-11.5093,-7.17137,40.4157,-12.1682,-10.3729,-23.9
-1.95752,17.6599,1.78099,-2.0635,7.18442,-3.97684,8.25265,0.718191,-1.99292,0.389727,0.703445,-1.52829,-4.23042,0.373543,-0.547056,-21.7058,0.317337,-10.4976,26.9426,5.58739,-3.85672,12.5244,0.846223,1.20977,4.6118e-14,3.18055e-15,86.4437,-42.1022,-73.0314,85.0118,11.1757,-57.7622,-0.963455,7.12502,-30.019,-28.5473,4.6118e-14,3.18055e-15,82.61,53.8086,58.0438,82.1325,8.34158,-36.4192,33.2112,7.12502,-9.51427,62.9764,-8.86867,-6.26186,19.5797,30.5882,-18.13,-9.24748,1.67484,-8.95936,-11.5003,-6.56649,42.0269,-10.5712,-11.6303,-22.1425
-2.01767,17.6755,1.77919,-2.00753,7.92504,-4.22645,8.34443,0.73329,-1.73842,0.628912,0.751957,-1.49624,-4.03034,0.391778,-0.661022,-21.4807,0.360205,-10.4074,27.2719,5.7262,-4.17831,12.6288,0.857659,1.09539,-2.66371e-14,7.95139e-15,86.1909,-41.4713,-72.8921,84.7177,11.7334,-57.6236,-1.50063,7.12502,-29.8867,-29.1084,-2.66371e-14,7.95139e-15,81.8829,53.4727,57.681,81.9398,8.04311,-36.4482,33.9708,7.12502,-9.54227,63.7347,-8.72261,-6.72935,20.0599,30.1939,-18.1314,-9.59099,1.3754,-10.5243,-11.3735,-5.81146,43.6134,-8.81014,-12.8836,-20.3009
-2.07776,17.6833,1.77592,-2.04365,8.63751,-4.54608,8.57843,0.78313,-1.39957,0.842423,0.851192,-1.44057,-3.93527,0.435145,-0.80652,-21.3885,0.469419,-10.2251,27.8803,5.98039,-4.492,12.8741,0.90965,0.990125,2.28602e-15,6.36111e-15,85.6592,-40.8645,-72.3563,84.3066,11.8922,-57.4573,-1.47441,7.12502,-29.7281,-29.1106,2.28602e-15,6.36111e-15,81.1635,52.8679,57.6025,81.8869,7.5124,-35.9355,33.4481,7.12502,-9.04759,63.2341,-8.53677,-7.19204,20.615,29.837,-18.1257,-9.97789,0.917203,-12.0162,-11.0585,-4.99852,45.1285,-7.10771,-14.0763,-21.9126
-2.13456,17.6883,1.77352,-2.11532,9.34057,-4.86641,8.75252,0.842202,-1.01124,1.10163,0.970015,-1.39762,-3.75706,0.48828,-0.994059,-21.4199,0.615038,-9.9833,28.677,6.30322,-4.7767,13.2266,0.986343,0.8986,-2.45499e-14,-6.36111e-15,85.0138,-40.3774,-71.4862,83.7141,11.4767,-57.2773,0.0475057,7.12502,-29.5562,-27.6192,-2.45499e-14,-6.36111e-15,80.4108,52.2424,57.3567,81.7284,7.13836,-34.9797,31.439,7.12502,-8.12517,61.2628,-8.33527,-7.66405,21.1524,29.5457,-18.2011,-10.2509,1.01865,-13.4098,-10.8316,-4.24479,46.5551,-6.63697,-14.8633,-22.8336
-2.18745,17.6958,1.77099,-2.09201,9.97419,-5.0564,8.86164,0.917379,-0.73779,1.34771,1.10022,-1.35941,-3.55679,0.54992,-1.12233,-21.422,0.68564,-9.93789,29.4309,6.54629,-4.9401,13.5546,1.02641,0.870935,4.67144e-15,3.33958e-14,84.5621,-39.8616,-70.7766,83.0528,11.3937,-57.7772,0.478037,7.12502,-30.0333,-27.1032,4.67144e-15,3.33958e-14,79.621,51.7015,56.9526,81.4101,7.09125,-34.5082,30.2991,7.12502,-7.6701,60.14,-8.28248,-8.1192,21.5356,29.3479,-18.2797,-10.464,1.24088,-14.7929,-10.6655,-3.70487,47.8586,-5.85781,-14.999,-23.5024
-2.23768,17.7012,1.76779,-1.9994,10.5217,-5.26377,8.99645,1.00594,-0.463099,1.49125,1.24796,-1.27345,-3.47692,0.620869,-1.20585,-21.1026,0.728337,-10.0334,29.998,6.72681,-5.08202,13.7373,1.04699,0.859033,-1.78906e-15,1.43125e-14,84.0889,-39.2785,-70.1031,82.4441,11.5826,-57.4966,1.08501,7.12502,-29.7655,-26.5445,-1.78906e-15,1.43125e-14,78.4071,51.1765,56.1679,81.0973,7.42628,-34.6851,30.5013,7.12502,-7.8408,60.3359,-8.37625,-8.58404,21.9365,29.228,-18.3046,-10.6455,1.29481,-16.1834,-10.3963,-3.19025,49.0362,-5.4922,-14.8262,-24.2167
-2.28522,17.7014,1.76425,-1.95738,11.0314,-5.44149,9.17067,1.10035,-0.202321,1.62625,1.40123,-1.20708,-3.42651,0.694948,-1.30379,-20.6067,0.789483,-10.1321,30.5057,6.87657,-5.14965,13.8534,1.07336,0.869004,2.0276e-14,-1.90833e-14,83.4576,-38.6659,-69.3609,81.8762,11.7011,-57.0488,1.40569,7.12502,-29.3381,-26.2994,2.0276e-14,-1.90833e-14,77.0038,50.6652,55.1887,80.8503,7.77349,-34.8495,30.3143,7.12502,-7.9995,60.1429,-8.4535,-9.02843,22.2886,29.1748,-18.333,-10.7589,1.09213,-17.4188,-10.0971,-2.76662,50.0667,-5.78391,-14.2549,-24.0021
-2.33128,17.6989,1.75916,-1.95576,11.5456,-5.55157,9.36891,1.17975,0.0273313,1.85712,1.53117,-1.19386,-3.28868,0.758863,-1.43584,-20.3892,0.837241,-10.1696,31.1362,7.04185,-5.20711,14.0859,1.09811,0.878816,-3.97569e-16,1.74931e-14,82.9718,-37.8988,-68.8465,81.3285,11.9053,-56.8018,1.18459,7.12502,-29.1022,-26.5616,-3.97569e-16,1.74931e-14,76.0849,50.1479,54.578,80.519,7.64946,-34.7006,29.5412,7.12502,-7.85576,59.3752,-8.50191,-9.43181,22.5621,29.1756,-18.4472,-10.8824,1.31792,-18.5604,-9.82451,-2.46038,50.9442,-6.28806,-13.6116,-23.5312
-2.3769,17.6978,1.75508,-1.97566,12.047,-5.62963,9.58523,1.24664,0.184715,2.13604,1.63927,-1.15136,-3.11335,0.813789,-1.49416,-20.4349,0.957016,-10.1111,31.8537,7.35928,-5.33316,14.4233,1.17512,0.875278,-1.2921e-14,3.18055e-14,82.6669,-37.0105,-68.4744,80.7616,12.3274,-56.6622,1.15154,7.12502,-28.9689,-26.6176,-1.2921e-14,3.18055e-14,75.3468,49.7031,54.2647,80.2598,7.14629,-33.5052,29.0404,7.12502,-6.70194,58.9143,-8.54609,-9.84057,22.799,29.2155,-18.5554,-11.0309,1.69353,-19.5952,-9.54627,-2.23038,51.6337,-6.64488,-13.5042,-24.1532
-2.42089,17.6993,1.75523,-1.92893,12.4232,-5.72425,9.74126,1.38279,0.326792,2.27841,1.83737,-1.08981,-3.04425,0.912589,-1.53589,-20.19,1.13329,-9.9515,32.449,7.68478,-5.50963,14.6524,1.27788,0.831886,-1.0138e-14,-3.65764e-14,82.0248,-36.3684,-67.7664,80.1954,12.6059,-56.5387,1.20134,7.12502,-28.8509,-26.588,-1.0138e-14,-3.65764e-14,74.3727,49.0034,53.9415,80.0969,6.58158,-32.0807,28.7585,7.12502,-5.32665,58.6715,-8.68051,-10.1242,23.0735,29.2781,-18.624,-11.2208,1.94923,-20.5797,-9.16404,-2.00877,52.1296,-6.89034,-13.4861,-23.5979
-2.46412,17.7002,1.75448,-1.86333,12.772,-5.74023,9.95357,1.55041,0.391238,2.38256,2.06833,-1.04994,-3.04615,1.02759,-1.56346,-19.6404,1.21098,-10.076,32.8637,7.83517,-5.51265,14.717,1.31882,0.869471,-2.20651e-14,1.19271e-14,81.2291,-35.9125,-66.9066,79.6947,12.7203,-56.145,0.563332,7.12502,-28.4748,-27.2895,-2.20651e-14,1.19271e-14,73.2669,48.1132,53.564,79.9797,6.25205,-31.0731,28.4073,7.12502,-4.35377,58.3425,-8.84172,-10.2746,23.2763,29.3634,-18.786,-11.4636,1.90908,-21.5229,-8.73203,-1.8853,52.4432,-7.21828,-13.1494,-20.8057
-2.50514,17.7003,1.75513,-1.77907,13.2245,-5.71068,10.1038,1.66787,0.466861,2.58126,2.23356,-1.05531,-2.91488,1.11163,-1.63252,-19.2476,1.2045,-10.2854,33.5308,7.90788,-5.39029,14.9262,1.31068,0.960712,-1.94809e-14,-1.35174e-14,80.519,-35.3121,-66.3327,79.3958,12.8413,-55.6661,0.465108,7.12502,-28.0171,-27.4634,-1.94809e-14,-1.35174e-14,72.0912,47.3598,52.9618,79.9778,6.28843,-30.3843,28.1052,7.12502,-3.68857,58.053,-9.03007,-10.5686,23.4208,29.4921,-18.9046,-11.7372,0.808127,-22.4564,-8.41289,-1.8384,52.5925,-7.50386,-12.4866,-19.3679
-2.54532,17.7001,1.75721,-1.6585,13.6245,-5.68946,10.1034,1.7657,0.502903,2.88832,2.3711,-1.02366,-2.59175,1.1846,-1.62938,-19.1206,1.21746,-10.4139,34.3846,8.06725,-5.30741,15.2938,1.32048,1.04278,-5.80451e-14,2.70347e-14,79.9453,-34.4418,-66.0518,79.2693,13.1121,-55.4872,0.617748,7.12502,-27.8461,-27.3386,-5.80451e-14,2.70347e-14,71.0223,46.7654,52.4509,80.0094,6.28824,-29.8549,27.999,7.12502,-3.17735,57.9551,-9.2683,-10.8051,23.5686,29.6631,-19.067,-11.916,0.546303,-23.3346,-8.06158,-1.82099,52.6006,-7.8586,-11.5769,-23.5403
-2.58365,17.6984,1.76024,-1.47298,13.9723,-5.60241,10.099,1.84438,0.418216,3.10304,2.47035,-0.987125,-2.36885,1.23722,-1.55044,-18.8147,1.23418,-10.5648,35.0198,8.19524,-5.26921,15.5249,1.32799,1.10153,-2.38542e-15,1.82882e-14,79.2167,-33.4152,-65.6955,79.2072,13.3761,-55.5397,-0.510365,7.12502,-27.8962,-28.4586,-2.38542e-15,1.82882e-14,69.6768,46.1161,51.7927,80.1144,6.25519,-29.3647,27.9688,7.12502,-2.70391,57.9314,-9.55836,-10.9388,23.6536,29.8778,-19.2937,-12.0642,0.770535,-24.1897,-7.66187,-1.9189,52.4616,-8.22822,-10.8694,-24.1348
-2.62313,17.6943,1.76053,-1.3646,14.3685,-5.64866,10.2572,1.90085,0.417415,3.23235,2.54813,-0.927801,-2.32216,1.27704,-1.50085,-18.3199,1.23266,-10.7678,35.53,8.23083,-5.14906,15.6466,1.3167,1.18345,-2.34566e-14,-7.95139e-16,78.391,-32.4211,-65.3111,79.1285,13.5619,-55.3252,-2.16402,7.12502,-27.6912,-30.1454,-2.34566e-14,-7.95139e-16,68.0755,45.3573,50.8621,80.2927,6.39226,-29.4423,28.1938,7.12502,-2.77891,58.1554,-9.83871,-11.0323,23.8882,30.1195,-19.6247,-12.2883,1.22136,-25.0077,-7.32899,-1.85409,52.1885,-8.36082,-10.5994,-23.0122
-2.66266,17.6918,1.76105,-1.26349,14.7924,-5.61431,10.3732,1.98312,0.344917,3.52624,2.65403,-0.889456,-2.0831,1.33325,-1.43031,-18.1516,1.324,-10.5246,36.0242,8.4232,-5.34301,15.8745,1.37587,1.09312,-6.30147e-14,-2.94201e-14,77.7693,-31.5545,-65.0693,79.1109,13.8482,-54.9398,-3.57198,7.12502,-27.3226,-31.612,-6.30147e-14,-2.94201e-14,66.8833,44.6367,50.3709,80.5504,6.40723,-29.7808,28.4493,7.12502,-3.10581,58.4064,-10.1102,-11.2014,24.0366,30.3792,-19.8825,-12.5375,1.3093,-25.7531,-7.03231,-1.89983,51.7536,-8.53043,-10.3806,-22.4671
-2.69612,17.6897,1.76395,-1.05085,15.2227,-5.48316,10.4093,2.06453,0.342674,3.79566,2.76284,-0.969428,-1.81655,1.39174,-1.51886,-18.0923,1.54479,-9.78463,36.6085,8.78782,-5.82703,16.2177,1.5235,0.827537,4.65156e-14,-1.59028e-15,76.996,-30.6829,-64.9155,79.2106,14.1995,-54.5459,-3.67867,7.12502,-26.9458,-31.7775,4.65156e-14,-1.59028e-15,65.8368,43.7581,50.0762,80.9291,6.24356,-29.8448,28.6696,7.12502,-3.16756,58.6258,-10.4501,-11.4517,24.0582,30.6564,-20.1264,-12.6585,1.36109,-26.4722,-6.75442,-2.10447,51.1585,-8.93729,-9.93126,-23.0349
-2.72664,17.69,1.7691,-0.895976,15.6448,-5.29383,10.5897,2.06999,0.262211,4.16186,2.76566,-1.00528,-1.537,1.39756,-1.50917,-18.5574,1.71913,-9.70295,37.3563,9.2613,-5.87097,16.7271,1.65603,0.889645,6.75868e-15,2.38542e-15,76.4688,-29.564,-64.9827,79.4871,14.459,-54.1751,-2.86692,7.12502,-26.591,-31.02,6.75868e-15,2.38542e-15,64.6911,43.1112,49.8237,81.4386,6.01283,-29.8648,28.8482,7.12502,-3.18689,58.8041,-10.7028,-11.6246,24.0046,30.961,-20.4205,-12.8476,1.57332,-27.0196,-6.53219,-2.41534,50.4006,-9.57223,-9.39965,-24.151
-2.75893,17.6845,1.77308,-0.757029,16.0824,-5.20082,10.7314,2.19396,0.243733,4.25739,2.92711,-1.09749,-1.50656,1.47982,-1.6164,-17.7602,1.81441,-9.48715,37.8193,9.24175,-5.73636,16.7691,1.70094,0.891046,2.64384e-14,1.35174e-14,75.0741,-28.5805,-64.7031,79.8247,14.6104,-53.8189,-1.9097,7.12502,-26.25,-30.114,2.64384e-14,1.35174e-14,63.2626,41.7965,49.316,82.0625,6.02446,-30.2168,29.1535,7.12502,-3.52687,59.104,-10.9842,-11.7273,24.0673,31.2767,-20.7922,-13.1003,2.45767,-27.6143,-6.32233,-2.61211,49.5131,-9.87001,-9.19883,-24.301
-2.79048,17.6741,1.77556,-0.541353,16.5845,-5.17559,10.8157,2.20472,0.189795,4.2788,2.93652,-1.09258,-1.53298,1.48425,-1.58547,-16.6164,1.99932,-9.36991,37.9946,9.33486,-5.70956,16.5772,1.79593,0.873883,9.14409e-15,-8.74653e-15,73.6889,-27.245,-64.3888,80.0297,14.7708,-53.6106,-1.94613,7.12502,-26.0505,-30.18,9.14409e-15,-8.74653e-15,61.4579,40.6182,48.6095,82.7167,6.1446,-30.6827,29.2726,7.12502,-3.9767,59.2153,-11.3796,-11.8813,24.2273,31.5714,-21.088,-13.4062,2.93931,-28.3307,-6.0887,-2.75882,48.521,-9.67027,-8.97252,-23.8983
-2.81896,17.6663,1.78195,-0.382436,17.1897,-5.19659,10.913,2.09455,0.156213,4.4775,2.79318,-0.975747,-1.39123,1.41415,-1.428,-15.9537,2.19569,-9.36188,38.0904,9.62424,-5.87577,16.4798,1.91544,0.835754,3.18055e-14,3.97569e-15,72.6977,-25.7442,-64.2141,80.2649,15.1864,-53.4988,-2.89464,7.12502,-25.9435,-31.1442,3.18055e-14,3.97569e-15,59.7461,39.7703,48.1603,83.4172,6.14134,-30.6304,29.2005,7.12502,-3.92624,59.1441,-11.6676,-12.1405,24.4064,31.8171,-21.4131,-13.6828,3.25071,-28.936,-5.97438,-2.87794,47.4386,-9.45006,-8.62835,-23.8802
-2.8429,17.6676,1.79117,-0.197021,17.7248,-5.15337,10.959,2.0585,0.126233,4.65796,2.74781,-0.874307,-1.23649,1.39274,-1.29829,-15.4038,2.28442,-9.45138,38.378,9.77609,-5.89154,16.4963,1.96903,0.85633,-2.80286e-14,-1.03368e-14,71.5159,-24.367,-63.8565,80.4168,15.6566,-53.4722,-3.48859,7.12502,-25.918,-31.7419,-2.80286e-14,-1.03368e-14,58.2759,38.7221,48.1751,84.2594,6.14753,-29.9171,29.0141,7.12502,-3.2374,58.9692,-11.9139,-12.3979,24.494,32.0005,-21.7454,-13.8374,3.67281,-29.5128,-5.83341,-3.09783,46.2641,-9.34324,-8.14634,-23.4866
-2.86937,17.6733,1.7994,0.00019313,18.193,-5.12392,11.0762,2.07663,0.0679806,4.76166,2.76896,-0.803763,-1.19827,1.40313,-1.19748,-14.9134,2.38259,-9.53395,38.7786,9.91196,-5.7636,16.5729,2.02718,0.936297,5.18828e-14,-2.06736e-14,69.9999,-22.9856,-63.3452,80.487,16.1577,-54.0066,-3.36208,7.12502,-26.4297,-31.5395,5.18828e-14,-2.06736e-14,56.7851,37.4403,48.2469,85.2043,6.26195,-28.9149,28.8287,7.12502,-2.26953,58.7964,-12.1873,-12.5722,24.6252,32.1621,-22.179,-13.985,4.31756,-30.097,-5.60899,-3.31251,44.9907,-9.11981,-7.93705,-21.877
-2.89578,17.675,1.80916,0.268859,18.7393,-5.09941,11.1427,2.00963,-0.034838,5.03191,2.67677,-0.688208,-0.965684,1.35774,-1.00559,-15.064,2.49585,-9.766,39.2251,10.2286,-5.63393,16.8293,2.10737,1.09175,-2.78299e-14,-1.90833e-14,68.8809,-21.4243,-63.0484,80.9648,16.0222,-54.0793,-3.37926,7.12502,-26.4993,-31.5462,-2.78299e-14,-1.90833e-14,55.1861,36.4756,48.1577,86.1896,6.51308,-28.2981,28.6544,7.12502,-1.67386,58.6276,-12.5574,-12.7847,24.777,32.3555,-22.6221,-14.0957,4.9629,-30.6648,-5.43228,-3.52131,43.6226,-8.83249,-7.95954,-21.5037
-2.91698,17.6718,1.81911,0.619711,19.2868,-4.94918,11.1427,1.95863,-0.221326,5.29995,2.59767,-0.587298,-0.701153,1.31707,-0.781236,-15.0418,2.571,-9.84594,39.5255,10.4525,-5.67153,16.9907,2.16499,1.12822,-6.65929e-14,1.11319e-14,67.665,-19.8594,-62.6257,81.7309,14.6918,-53.3007,-3.53713,7.12502,-25.7537,-31.8143,-6.65929e-14,1.11319e-14,53.3904,35.4166,47.9728,87.2918,6.97769,-27.9045,28.8016,7.12502,-1.29368,58.7775,-12.9953,-13.0871,24.7791,32.5976,-22.8889,-14.2429,4.43711,-31.1534,-5.2739,-3.88527,42.1808,-8.70868,-7.6206,-22.9672
-2.93583,17.6632,1.82828,1.00338,19.8039,-4.84659,11.0986,1.96477,-0.301515,5.44617,2.60208,-0.551853,-0.530178,1.31899,-0.69501,-14.5705,2.6411,-9.63752,39.5682,10.5445,-5.9273,16.9339,2.21916,0.983669,3.16068e-14,3.18055e-15,66.0282,-18.3332,-62.2137,82.3794,13.9928,-52.7542,-3.51296,7.12502,-25.2303,-31.865,3.16068e-14,3.18055e-15,51.8524,33.9401,48.2167,88.3845,7.23362,-27.1177,28.815,7.12502,-0.533774,58.794,-13.53,-13.3341,24.8417,32.8957,-23.1624,-14.4384,4.04704,-31.6559,-5.16798,-4.16586,40.6751,-8.57652,-7.31065,-24.0432
