JuanDHNZ/ProyectoFinalCD/preprocessing/sports_trials_csv/14_18.csv
root1,root2,root3,root4,root5,root6,lowerback1,lowerback2,lowerback3,upperback1,upperback2,upperback3,thorax1,thorax2,thorax3,lowerneck1,lowerneck2,lowerneck3,upperneck1,upperneck2,upperneck3,head1,head2,head3,rclavicle1,rclavicle2,rhumerus1,rhumerus2,rhumerus3,rradius1,rwrist1,rhand1,rhand2,rfingers1,rthumb1,rthumb2,lclavicle1,lclavicle2,lhumerus1,lhumerus2,lhumerus3,lradius1,lwrist1,lhand1,lhand2,lfingers1,lthumb1,lthumb2,rfemur1,rfemur2,rfemur3,rtibia1,rfoot1,rfoot2,rtoes1,lfemur1,lfemur2,lfemur3,ltibia1,lfoot1,lfoot2,ltoes1
0.0325777,17.94,-4.11115,17.7169,-12.0823,0.00291798,8.21119,0.0273231,-5.27264,2.44353,-0.370123,1.0938,-2.02537,-0.184099,4.13992,-14.3051,-8.13668,-14.167,10.3904,-9.7135,11.1749,6.76318,-4.45344,4.86135,-2.18663e-15,-1.66979e-14,-29.2265,23.0792,-97.9739,38.1062,30.5293,-30.7585,4.52146,7.12502,-4.04993,-25.4198,-2.18663e-15,-1.66979e-14,-31.9867,-24.2898,99.8245,41.9213,0.439827,-16.2846,23.6385,7.12502,9.92556,53.3845,-27.1664,-3.26169,17.4331,34.5195,-19.6383,-6.30756,-0.446749,-33.7794,4.62413,-23.2496,23.1939,-4.38697,2.50307,-6.11664
-0.000928462,17.9351,-4.14314,17.8728,-11.9862,-0.0764615,8.30872,0.0305093,-5.16442,2.41624,-0.361636,1.13829,-2.10941,-0.176993,4.12547,-14.3224,-8.07702,-14.1334,10.2678,-9.62939,11.1867,6.71483,-4.41034,4.87056,2.64881e-14,8.84592e-15,-29.3117,23.2012,-98.0911,38.0503,30.3328,-30.503,4.47418,7.12502,-3.80325,-25.4716,2.64881e-14,8.84592e-15,-31.9487,-24.2767,99.8121,41.9529,0.563472,-18.5884,22.9202,7.12502,7.70242,52.7599,-27.0981,-2.9531,17.6386,33.9453,-19.8919,-6.53264,0.26778,-34.0188,4.40628,-22.9308,23.1911,-4.25874,2.69391,-6.19273
-0.0354877,17.935,-4.17778,18.0229,-11.8261,-0.0611334,8.37215,-0.00116174,-5.15265,2.40787,-0.404516,1.19522,-2.14819,-0.197056,4.18327,-14.4844,-8.0123,-14.0979,10.2304,-9.51952,11.1613,6.71254,-4.35278,4.86681,8.92046e-15,2.59414e-14,-29.2807,23.4683,-98.1837,37.9363,29.9969,-30.0247,4.249,7.12502,-3.34135,-25.7046,8.92046e-15,2.59414e-14,-31.8711,-24.4024,99.8498,41.9522,0.752228,-17.8439,23.5475,7.12502,8.42101,53.3596,-27.0788,-2.72917,17.7789,33.5146,-20.2485,-6.724,1.66337,-34.2405,4.27741,-22.7596,23.0559,-4.04647,2.69618,-6.44321
-0.0679745,17.9372,-4.20761,18.1724,-11.6747,-0.120875,8.36047,-0.00431429,-5.03481,2.4049,-0.396598,1.2569,-2.14631,-0.193323,4.18006,-14.4614,-7.94478,-14.019,10.0771,-9.42259,11.0766,6.63848,-4.31,4.83928,-1.26725e-15,-1.63997e-14,-29.3037,23.5724,-98.2302,37.8539,30.0785,-29.8539,4.19445,7.12502,-3.17636,-25.7616,-1.26725e-15,-1.63997e-14,-31.8466,-24.3917,99.904,41.8906,0.44926,-17.6295,23.4589,7.12502,8.62793,53.2626,-27.0424,-2.63695,18.0317,33.0965,-20.4503,-6.95633,1.95906,-34.4326,4.04642,-22.4602,22.954,-3.89016,2.82545,-6.41952
-0.0989993,17.9354,-4.23621,18.3338,-11.6097,-0.183295,8.29947,0.0106019,-4.90202,2.43236,-0.361602,1.2847,-2.08882,-0.178355,4.12951,-14.5075,-7.88007,-13.7947,9.87026,-9.32629,10.8564,6.54482,-4.26956,4.74177,4.80562e-14,-2.93207e-14,-29.2885,23.634,-98.2838,37.6928,30.4514,-29.9656,4.19703,7.12502,-3.28423,-25.7574,4.80562e-14,-2.93207e-14,-31.7795,-24.3474,99.8785,41.8888,0.283461,-18.4743,22.8504,7.12502,7.81253,52.686,-27.0758,-2.55244,18.2807,32.7509,-20.595,-7.18334,1.62638,-34.5883,3.58423,-22.0591,22.8211,-3.66959,3.29079,-6.10711
-0.129713,17.9324,-4.26759,18.4765,-11.5472,-0.140543,8.27036,0.0191745,-4.84556,2.468,-0.343614,1.28494,-2.03813,-0.171639,4.09545,-14.6109,-7.84397,-13.7287,9.67009,-9.26092,10.8426,6.48611,-4.23346,4.73251,-2.19906e-15,1.17034e-14,-29.1782,23.8522,-98.3465,37.441,30.4641,-29.9485,4.19033,7.12502,-3.26768,-25.7644,-2.19906e-15,1.17034e-14,-31.6697,-24.4559,99.8867,41.8715,0.49366,-17.8989,23.2247,7.12502,8.36789,53.039,-27.1623,-2.51489,18.4389,32.4332,-20.7152,-7.50243,1.50395,-34.7655,3.00599,-21.7198,22.7092,-3.4549,3.80553,-6.25523
-0.165494,17.9323,-4.29896,18.5623,-11.5091,-0.165221,8.28062,0.0593661,-4.78507,2.52328,-0.285033,1.29025,-1.99313,-0.145005,4.06077,-14.7253,-7.7972,-13.6072,9.53475,-9.19289,10.8079,6.44592,-4.1952,4.7077,7.30534e-15,-4.02539e-15,-29.0835,24.0807,-98.4602,37.2597,30.3023,-29.8375,4.14112,7.12502,-3.16053,-25.8152,7.30534e-15,-4.02539e-15,-31.5635,-24.5626,99.857,41.8587,0.595646,-17.0425,23.6981,7.12502,9.19435,53.4776,-27.1834,-2.43963,18.6692,32.1378,-20.8963,-7.74213,2.00443,-34.9037,2.86117,-21.4635,22.6229,-3.27454,3.91544,-6.70896
-0.200061,17.9338,-4.32756,18.5737,-11.5043,-0.200499,8.39087,0.0953909,-4.75808,2.54929,-0.238865,1.33862,-2.032,-0.121702,4.09232,-14.7456,-7.73031,-13.5352,9.34951,-9.09136,10.7403,6.37062,-4.14789,4.68647,-1.64556e-14,-5.06901e-15,-29.2037,24.3956,-98.568,37.2079,30.3109,-29.9728,4.27193,7.12502,-3.29123,-25.6824,-1.64556e-14,-5.06901e-15,-31.5161,-24.5584,99.884,41.8378,0.66566,-16.9757,23.7265,7.12502,9.25876,53.5032,-27.112,-2.39175,18.9006,31.861,-21.1035,-7.86827,2.46282,-34.9352,2.82274,-21.2388,22.5351,-3.15831,3.96553,-6.82639
-0.232019,17.9336,-4.35758,18.5741,-11.499,-0.20742,8.58127,0.142894,-4.7044,2.53609,-0.180077,1.3625,-2.15762,-0.0889344,4.08263,-14.7911,-7.67982,-13.5257,9.2562,-9.01142,10.7346,6.33783,-4.108,4.69222,-3.25836e-14,3.42655e-14,-29.3682,24.5527,-98.6025,37.2613,30.7046,-30.0236,4.61388,7.12502,-3.34026,-25.3397,-3.25836e-14,3.42655e-14,-31.53,-24.6819,99.9902,41.7241,0.739995,-17.1264,23.4539,7.12502,9.11339,53.237,-27.0522,-2.35194,19.0821,31.5837,-21.2794,-7.90639,3.41881,-34.9674,2.58825,-20.9654,22.4719,-3.04894,4.18402,-6.83545
-0.265331,17.9345,-4.3913,18.6236,-11.5071,-0.279796,8.71124,0.210006,-4.60677,2.52615,-0.0881352,1.39644,-2.24997,-0.0407899,4.05428,-14.9571,-7.63287,-13.4877,9.2824,-8.93478,10.7286,6.36212,-4.06498,4.69003,7.20594e-15,-1.20886e-14,-29.3935,24.4986,-98.5004,37.3511,31.5342,-29.4587,4.82572,7.12502,-2.79467,-25.1357,7.20594e-15,-1.20886e-14,-31.5522,-24.8083,100.085,41.6897,0.827055,-17.1022,23.3235,7.12502,9.13671,53.1056,-27.0416,-2.1854,19.3029,31.3199,-21.5037,-8.01954,4.73338,-35.029,2.13914,-20.5087,22.4264,-2.95538,4.69031,-7.05699
-0.301773,17.935,-4.4253,18.6602,-11.5055,-0.323736,8.77897,0.248617,-4.58003,2.55226,-0.0362211,1.44318,-2.26576,-0.0152683,4.08287,-15.2097,-7.58382,-13.3676,9.30388,-8.8458,10.617,6.3885,-4.01805,4.63949,1.33807e-14,8.57259e-15,-29.3115,24.6527,-98.4604,37.2707,32.0075,-29.0224,4.86627,7.12502,-2.37338,-25.1003,1.33807e-14,8.57259e-15,-31.4296,-24.8551,100.108,41.6168,0.924944,-17.1115,23.3866,7.12502,9.12776,53.1691,-27.0356,-1.96419,19.4867,31.0861,-21.6991,-8.25445,5.39862,-35.0734,1.65672,-20.0673,22.3786,-2.91309,5.23449,-7.45005
-0.338817,17.9344,-4.45639,18.6955,-11.5125,-0.304524,8.78246,0.271076,-4.6271,2.54384,-0.00963913,1.48533,-2.27898,-0.00147881,4.15092,-15.1528,-7.46776,-13.2937,9.08638,-8.68576,10.5436,6.28316,-3.94513,4.62521,5.71506e-15,-1.03865e-14,-29.3782,25.0001,-98.5253,37.1782,32.0225,-29.0059,4.8572,7.12502,-2.35741,-25.1095,5.71506e-15,-1.03865e-14,-31.3798,-24.9026,100.169,41.5397,1.03081,-17.57,23.2714,7.12502,8.68531,53.0727,-27.0297,-1.76069,19.5876,30.897,-21.8285,-8.35352,5.51205,-35.1236,1.36564,-19.7836,22.3234,-2.86899,5.56363,-7.30056
-0.374677,17.9344,-4.48597,18.7757,-11.4673,-0.270724,8.7387,0.283722,-4.64065,2.48049,0.00855573,1.52879,-2.32243,0.0101683,4.20215,-14.8878,-7.3496,-13.3018,8.72549,-8.5376,10.5711,6.10864,-3.87968,4.66017,1.82385e-14,-1.3418e-14,-29.498,25.2624,-98.5747,37.0728,31.8855,-29.1293,5.11189,7.12502,-2.47655,-24.8535,1.82385e-14,-1.3418e-14,-31.433,-24.894,100.283,41.4868,0.991019,-17.6245,23.2793,7.12502,8.63267,53.0829,-27.0925,-1.69714,19.6918,30.7469,-21.786,-8.38932,5.48919,-35.2655,1.3192,-19.6371,22.2863,-2.81136,5.59454,-6.94649
-0.410734,17.9323,-4.51887,18.833,-11.3362,-0.298233,8.76278,0.290817,-4.51905,2.4553,0.0275206,1.53686,-2.36429,0.020986,4.13978,-14.9385,-7.28473,-13.0719,8.54084,-8.46177,10.4483,6.03335,-3.84222,4.59154,-1.35174e-14,4.47266e-15,-29.4617,25.3732,-98.6313,36.9122,31.9125,-29.3364,5.49516,7.12502,-2.67656,-24.4678,-1.35174e-14,4.47266e-15,-31.4275,-25.0202,100.297,41.4415,0.878952,-17.3081,23.4659,7.12502,8.93802,53.2566,-27.1695,-1.62631,19.8749,30.6652,-21.7387,-8.56115,4.78094,-35.3973,1.13402,-19.355,22.229,-2.71674,5.73603,-6.89862
-0.44647,17.9276,-4.55087,18.7906,-11.2514,-0.38567,8.83269,0.315622,-4.34056,2.51976,0.0739139,1.5498,-2.3412,0.0415981,4.04718,-15.3095,-7.25734,-12.8734,8.53805,-8.40477,10.3404,6.07283,-3.80469,4.52332,1.44119e-14,4.17448e-15,-29.3473,25.4957,-98.5861,36.8837,32.0131,-29.5132,5.85344,7.12502,-2.84734,-24.1073,1.44119e-14,4.17448e-15,-31.2709,-25.2499,100.26,41.3628,0.857452,-17.1661,23.4514,7.12502,9.07508,53.2362,-27.153,-1.5106,20.1037,30.63,-21.652,-8.6668,4.30965,-35.3853,0.828516,-18.9383,22.162,-2.60316,6.05031,-7.16684
-0.481439,17.9237,-4.577,18.7066,-11.2479,-0.332547,8.81962,0.346319,-4.31977,2.57294,0.117394,1.55103,-2.28319,0.0605802,4.03179,-15.5477,-7.22049,-12.8941,8.48478,-8.3302,10.4329,6.09179,-3.75586,4.56105,-3.35946e-14,-1.16289e-14,-29.152,25.7786,-98.5207,36.6045,31.8585,-29.7382,5.98918,7.12502,-3.06461,-23.9685,-3.35946e-14,-1.16289e-14,-31.2114,-25.6566,100.337,41.3698,1.09626,-17.0737,23.5238,7.12502,9.16422,53.3047,-27.1272,-1.50747,20.1593,30.6272,-21.5879,-8.53065,4.3006,-35.3223,0.385453,-18.6364,22.1141,-2.52734,6.54119,-7.59895
-0.516822,17.9219,-4.60261,18.6237,-11.1916,-0.251975,8.7794,0.355087,-4.31262,2.59839,0.131299,1.54143,-2.2359,0.0658058,4.01597,-15.6193,-7.1543,-12.8492,8.35021,-8.24794,10.5447,6.05498,-3.70468,4.59937,-8.49804e-15,1.15295e-14,-28.8498,26.1616,-98.5443,36.0621,31.43,-29.7851,5.98094,7.12502,-3.10994,-23.9761,-8.49804e-15,1.15295e-14,-31.1523,-26.0281,100.36,41.3178,1.12504,-16.9,23.6162,7.12502,9.33187,53.3897,-27.1247,-1.53924,20.1921,30.6387,-21.5877,-8.38591,4.61149,-35.2903,0.230764,-18.505,22.0785,-2.47393,6.6644,-7.5393
-0.552434,17.9199,-4.62882,18.4966,-11.111,-0.264803,8.78715,0.336211,-4.21434,2.62484,0.115091,1.5544,-2.21119,0.0564466,3.97542,-15.691,-7.07289,-12.7439,8.25638,-8.14591,10.5497,6.02089,-3.64943,4.5953,-3.77691e-15,1.80894e-14,-28.6236,26.6407,-98.5623,35.7602,30.8291,-29.5208,6.12384,7.12502,-2.85466,-23.8368,-3.77691e-15,1.80894e-14,-30.983,-26.3246,100.257,41.14,0.616655,-17.5749,23.0626,7.12502,8.68057,52.8641,-27.0642,-1.54006,20.3451,30.6693,-21.5671,-8.34115,4.5835,-35.1881,0.228164,-18.3268,22.0197,-2.39077,6.64685,-7.47868
-0.588532,17.9167,-4.6553,18.3196,-10.9795,-0.308588,8.8631,0.315171,-4.08017,2.62801,0.0968797,1.58779,-2.24828,0.0480092,3.93647,-15.6931,-7.00926,-12.7377,8.12711,-8.06451,10.6402,5.97499,-3.60353,4.634,-1.81391e-14,4.47266e-15,-28.4316,27.0685,-98.5412,35.4611,30.2089,-29.5769,6.34283,7.12502,-2.90884,-23.6171,-1.81391e-14,4.47266e-15,-30.8384,-26.8394,100.197,40.9057,-0.17488,-18.9947,22.3355,7.12502,7.31031,52.1892,-26.9378,-1.61406,20.5795,30.6974,-21.4706,-8.40511,4.00499,-35.0313,-0.138339,-17.9535,21.9823,-2.36457,6.99633,-7.4347
-0.624616,17.9162,-4.67943,18.09,-10.8217,-0.275896,8.95906,0.302662,-4.00367,2.60343,0.0837065,1.60168,-2.32571,0.0436769,3.90953,-15.7714,-6.96029,-12.6494,8.12217,-8.00466,10.6209,5.97467,-3.57062,4.61933,2.73329e-15,-1.98785e-16,-28.2676,27.4265,-98.5284,35.0525,29.6976,-29.7537,6.52648,7.12502,-3.07955,-23.431,2.73329e-15,-1.98785e-16,-30.7032,-27.4261,100.214,40.5615,-0.61645,-19.7533,22.0169,7.12502,6.57794,51.8947,-26.7499,-1.80791,20.7444,30.7385,-21.3798,-8.31519,4.07181,-34.8033,-0.659442,-17.6216,21.9547,-2.36508,7.40786,-7.42446
-0.659885,17.916,-4.69525,17.854,-10.7715,-0.284919,8.88191,0.296156,-3.93518,2.63817,0.0850105,1.62961,-2.24719,0.0416732,3.89921,-16.0496,-6.88534,-12.5725,8.26339,-7.89568,10.6215,6.04891,-3.50675,4.61522,-4.46769e-14,9.74045e-15,-28.1375,28.0286,-98.5366,34.7894,29.1266,-29.6585,6.47528,7.12502,-2.98769,-23.4835,-4.46769e-14,9.74045e-15,-30.4759,-28.016,100.173,40.2539,-0.920265,-18.3644,21.8286,7.12502,7.91866,51.6603,-26.5385,-2.07131,20.9312,30.8063,-21.3531,-8.00172,4.30202,-34.5205,-0.690586,-17.4718,21.9107,-2.39163,7.44694,-7.7452
-0.696874,17.9144,-4.71032,17.6657,-10.762,-0.292908,8.74356,0.322962,-3.89233,2.63518,0.130434,1.6715,-2.17823,0.0626583,3.91322,-16.2833,-6.85548,-12.7151,8.4138,-7.83539,10.8367,6.14373,-3.4596,4.7124,-3.27995e-15,-1.51076e-14,-28.0229,28.7639,-98.5086,34.5994,28.2858,-29.2059,6.24835,7.12502,-2.55053,-23.7162,-3.27995e-15,-1.51076e-14,-30.2943,-28.9533,100.212,40.0361,-0.991585,-13.358,22.6909,7.12502,12.748,52.2817,-26.388,-2.18998,21.0995,30.8856,-21.3655,-7.85613,4.37024,-34.3143,-0.669787,-17.3243,21.8857,-2.43599,7.51095,-7.89528
-0.734485,17.9129,-4.729,17.4523,-10.621,-0.224128,8.6676,0.326968,-3.8926,2.58933,0.139195,1.70157,-2.18466,0.0681224,3.94368,-16.3681,-6.864,-12.6465,8.44152,-7.853,10.8303,6.16557,-3.46358,4.69556,-1.2921e-14,0,-27.8936,29.459,-98.4871,34.3405,27.4487,-28.8493,6.11772,7.12502,-2.20616,-23.8506,-1.2921e-14,0,-30.1666,-30.3215,100.326,39.8339,-0.64432,-13.1082,22.9075,7.12502,12.9889,52.4831,-26.2326,-2.24561,21.1893,30.9604,-21.4044,-7.94819,4.36108,-34.1376,-0.993023,-17.1294,21.8951,-2.42403,7.76575,-7.89598
-0.772332,17.9101,-4.74225,17.1295,-10.4783,-0.144986,8.57693,0.309346,-3.85662,2.60225,0.122073,1.6921,-2.11942,0.0578941,3.91473,-16.4787,-6.85575,-12.455,8.39903,-7.85665,10.7444,6.159,-3.46182,4.6339,-1.39149e-15,1.05356e-14,-27.6739,30.1882,-98.4735,34.0174,26.76,-28.5508,6.44354,7.12502,-1.91788,-23.5276,-1.39149e-15,1.05356e-14,-30.0212,-31.8357,100.322,39.7118,-0.358982,-12.4492,22.8904,7.12502,13.6241,52.4246,-25.9465,-2.2422,21.2435,31.0608,-21.4654,-8.05427,4.20201,-33.8272,-1.25352,-16.9998,21.9034,-2.37238,7.92891,-8.43887
-0.81256,17.9063,-4.75409,16.7804,-10.3665,-0.121681,8.47847,0.288302,-3.82442,2.62766,0.100996,1.70912,-2.03658,0.0450153,3.91587,-16.6384,-6.83955,-12.4474,8.3791,-7.8329,10.8639,6.1816,-3.43658,4.67222,2.45499e-14,-1.8487e-14,-27.4193,31.0622,-98.3948,33.8046,26.0579,-27.9116,6.8512,7.12502,-1.30052,-23.1246,2.45499e-14,-1.8487e-14,-29.791,-32.858,100.095,39.6789,-0.734674,-11.5501,22.384,7.12502,14.4905,51.858,-25.6185,-2.1785,21.3514,31.1642,-21.5928,-8.06478,4.4993,-33.4911,-1.22016,-16.9122,21.9187,-2.37096,7.85961,-8.88893
-0.851227,17.8984,-4.76955,16.4026,-10.1831,-0.0239127,8.44289,0.248379,-3.85514,2.62786,0.0475094,1.73138,-2.01143,0.017848,3.96175,-16.8277,-6.79655,-12.4143,8.41441,-7.76825,10.9077,6.21697,-3.39506,4.68623,1.12313e-14,4.96962e-15,-27.1329,31.9982,-98.2264,33.6329,25.1385,-27.0551,7.52848,7.12502,-0.473263,-22.4507,1.12313e-14,4.96962e-15,-29.4643,-33.5782,99.7346,39.6731,-1.62318,-10.5204,21.5382,7.12502,15.4824,50.9382,-25.2967,-2.26409,21.4223,31.2653,-21.6617,-8.02657,4.88506,-33.1923,-1.19924,-16.9015,21.9545,-2.34772,7.72804,-8.99297
-0.890491,17.8932,-4.77989,15.9655,-9.95085,0.101645,8.31281,0.207863,-3.84711,2.66291,-0.0010749,1.71227,-1.8984,-0.00949631,3.94123,-17.1103,-6.75811,-12.368,8.58698,-7.71794,10.9934,6.31453,-3.35358,4.70916,-1.08338e-14,-2.56432e-14,-26.7367,32.6768,-97.9783,33.4083,24.4313,-26.0721,8.38686,7.12502,0.476086,-21.5924,-1.08338e-14,-2.56432e-14,-29.0297,-34.4689,99.2255,39.6885,-2.53584,-9.33652,20.4243,7.12502,16.6225,49.7325,-24.9012,-2.42985,21.475,31.3739,-21.807,-8.07331,4.77723,-32.8019,-1.38191,-16.8574,21.9983,-2.41874,7.75538,-8.76945
-0.929063,17.8891,-4.78835,15.5203,-9.73927,0.165168,8.17307,0.185881,-3.74551,2.68263,-0.0173395,1.69768,-1.79941,-0.0200273,3.86906,-17.4087,-6.76762,-12.3726,8.79721,-7.72596,11.1043,6.43703,-3.33924,4.74145,-3.08116e-14,-1.2921e-14,-26.2547,33.1777,-97.5824,33.2307,23.9426,-24.5453,8.96786,7.12502,1.9507,-21.003,-3.08116e-14,-1.2921e-14,-28.5414,-35.3199,98.5724,39.796,-3.68209,-8.33327,18.871,7.12502,17.5881,48.0955,-24.4539,-2.49628,21.5742,31.4779,-21.9437,-8.25525,4.46764,-32.3871,-1.50263,-16.7839,22.0741,-2.46874,7.74083,-8.81423
-0.966907,17.8847,-4.80047,15.0696,-9.51763,0.178711,8.11042,0.158464,-3.63799,2.67206,-0.0424907,1.72054,-1.77363,-0.0327941,3.83398,-17.6292,-6.79228,-12.3699,8.87629,-7.75419,11.2004,6.50656,-3.33813,4.76613,-1.10325e-14,2.24627e-14,-25.7492,33.5029,-97.0152,33.1548,23.8722,-22.9356,9.38364,7.12502,3.50533,-20.5673,-1.10325e-14,2.24627e-14,-27.9933,-36.0589,97.8135,39.9353,-5.09054,-7.3679,17.1458,7.12502,18.517,46.2845,-23.9755,-2.4997,21.7149,31.5441,-22.0742,-8.42344,4.77736,-32.0115,-1.35954,-16.7673,22.2022,-2.43092,7.47202,-9.24279
-1.0058,17.881,-4.80976,14.5892,-9.32291,0.225478,7.999,0.164075,-3.54527,2.67262,-0.0245877,1.69887,-1.71339,-0.0249354,3.75648,-17.725,-6.8265,-12.3061,8.81766,-7.80709,11.2447,6.50974,-3.35507,4.76195,1.61016e-14,-1.25234e-14,-25.2017,33.7214,-96.3403,33.1037,24.1008,-22.0606,9.78305,7.12502,4.35025,-20.1523,1.61016e-14,-1.25234e-14,-27.3803,-37.024,96.9571,40.0664,-6.30958,-6.67375,15.7314,7.12502,19.1846,44.8052,-23.4665,-2.57326,21.8253,31.5937,-22.1624,-8.48882,5.01235,-31.5998,-1.02248,-16.8713,22.3578,-2.41597,7.00554,-10.2697
-1.04328,17.8771,-4.81426,14.0743,-9.195,0.316634,7.7901,0.176537,-3.48939,2.77207,0.00222534,1.65414,-1.49746,-0.0176579,3.67436,-18.1242,-6.86072,-12.3201,8.9078,-7.83574,11.414,6.61663,-3.34311,4.81105,-1.99779e-14,1.59028e-15,-24.3675,34.2786,-95.5204,33.0218,24.1098,-21.9971,9.83536,7.12502,4.41158,-20.0987,-1.99779e-14,1.59028e-15,-26.4869,-38.1884,95.8933,40.1431,-7.41998,-6.98055,14.8208,7.12502,18.8895,43.9236,-22.9337,-2.64846,21.8624,31.6473,-22.246,-8.52708,5.25331,-31.1326,-0.847731,-16.9821,22.53,-2.46214,6.77904,-11.0582
-1.07986,17.8714,-4.81968,13.5581,-9.04322,0.416565,7.56666,0.132251,-3.46377,2.92664,-0.0478114,1.61328,-1.20957,-0.0510964,3.62012,-18.8006,-6.83347,-12.2178,9.03077,-7.77404,11.5373,6.76165,-3.27763,4.83452,3.18055e-15,-2.18663e-15,-23.503,35.0254,-94.6045,33.1025,24.3421,-22.4357,9.72339,7.12502,3.98803,-20.219,3.18055e-15,-2.18663e-15,-25.2894,-39.1483,94.4527,40.2713,-8.58776,-7.5064,14.2248,7.12502,18.3837,43.3761,-22.3987,-2.72267,21.8855,31.7248,-22.3242,-8.54831,5.58429,-30.6746,-0.940148,-16.9899,22.6644,-2.48417,6.82504,-10.8146
-1.11411,17.8623,-4.82428,13.0306,-8.82932,0.424028,7.42536,0.0816437,-3.31762,2.97017,-0.100163,1.61375,-1.08243,-0.0797345,3.54132,-19.1378,-6.80372,-12.0679,9.02873,-7.73008,11.5175,6.804,-3.24164,4.80473,-3.00165e-14,6.55989e-15,-22.9566,35.3437,-93.607,33.3158,25.3308,-23.2015,9.82462,7.12502,3.24852,-20.1304,-3.00165e-14,6.55989e-15,-24.2181,-39.9918,92.981,40.5879,-9.26592,-7.88197,14.0833,7.12502,18.0224,43.2683,-21.8366,-2.90417,22.0244,31.8439,-22.4672,-8.43066,6.01829,-30.2133,-1.01128,-16.8914,22.7335,-2.44944,6.77792,-10.5297
-1.14827,17.8553,-4.82627,12.4111,-8.65785,0.590677,7.30306,0.0851197,-3.3192,2.97031,-0.0924617,1.57797,-1.01533,-0.0769808,3.50374,-19.4086,-6.82817,-11.9823,9.21031,-7.75718,11.4427,6.90298,-3.24752,4.75912,4.87022e-15,-1.35174e-14,-22.3036,35.4152,-92.4277,33.5143,26.1367,-23.7925,9.68366,7.12502,2.6778,-20.2793,4.87022e-15,-1.35174e-14,-23.1841,-40.6739,91.4596,41.0205,-9.68968,-8.30506,14.0368,7.12502,17.6153,43.2588,-21.206,-3.0347,21.97,31.9919,-22.6965,-8.39495,5.94085,-29.6422,-1.09768,-16.9792,22.7783,-2.412,6.75994,-10.5674
-1.18092,17.8521,-4.82486,11.8233,-8.53043,0.936893,7.02562,0.0970848,-3.4791,2.96922,-0.0798684,1.47621,-0.863373,-0.0741118,3.48611,-19.8231,-6.81735,-11.9067,9.59099,-7.74189,11.4205,7.0882,-3.22324,4.73799,9.14409e-15,5.96354e-15,-21.5859,35.1932,-91.1179,33.8997,26.6723,-24.1953,9.36781,7.12502,2.2887,-20.5997,9.14409e-15,5.96354e-15,-22.0105,-41.3322,89.7566,41.432,-9.83982,-9.40313,13.8335,7.12502,16.5584,43.147,-20.6119,-3.14494,21.6948,32.117,-22.8875,-8.38925,5.92499,-29.0752,-1.20874,-17.2805,22.8818,-2.52127,6.80508,-10.5657
-1.21136,17.8492,-4.82534,11.302,-8.39737,1.06813,6.74953,0.0885687,-3.43409,2.96596,-0.0800191,1.4281,-0.714038,-0.0764734,3.40944,-20.1707,-6.74963,-11.8824,9.86611,-7.65958,11.5469,7.2303,-3.15898,4.78591,2.72335e-14,-8.74653e-15,-20.0725,35.4883,-89.4758,33.945,26.4309,-24.3191,9.12602,7.12502,2.16916,-20.8427,2.72335e-14,-8.74653e-15,-20.6111,-41.8707,87.7085,42.0295,-9.47346,-10.4233,13.9785,7.12502,15.576,43.3713,-20.0623,-3.23095,21.6482,32.2059,-23.0589,-8.41922,6.03113,-28.588,-1.1128,-17.3971,23.0222,-2.65595,6.63987,-10.4738
-1.24391,17.8421,-4.8258,10.8618,-8.22189,0.872992,6.48604,0.0575605,-3.1303,2.93576,-0.0941353,1.51542,-0.599077,-0.0833519,3.32809,-20.5795,-6.69838,-11.9397,10.2051,-7.5706,11.6413,7.40421,-3.09496,4.83796,3.77691e-15,-5.1684e-15,-18.4909,35.8281,-87.6237,34.1188,25.7289,-24.2704,8.82984,7.12502,2.2162,-21.1384,3.77691e-15,-5.1684e-15,-18.9005,-41.8212,85.3767,42.6524,-9.18315,-10.561,14.3341,7.12502,15.4433,43.7372,-19.5368,-3.24605,21.9741,32.2563,-23.2347,-8.50909,5.96574,-28.2024,-1.01543,-17.1183,23.218,-2.77928,6.4595,-10.329
-1.27522,17.8358,-4.82267,10.4007,-8.0962,0.842193,6.2295,0.055981,-2.95902,2.83635,-0.0794645,1.53354,-0.561133,-0.0737972,3.24815,-20.8437,-6.66448,-12.0247,10.5096,-7.51793,11.7751,7.55106,-3.05077,4.90521,1.68967e-15,7.95139e-16,-16.9805,35.9123,-85.7045,34.4276,24.8918,-24.4641,8.60009,7.12502,2.02915,-21.37,1.68967e-15,7.95139e-16,-17.1229,-41.6397,82.93,43.1688,-8.82028,-10.7694,14.4677,7.12502,15.2426,43.8861,-18.983,-3.3022,22.1067,32.2781,-23.3913,-8.52703,6.03942,-27.8111,-1.01666,-17.0101,23.4613,-2.90065,6.37727,-10.2062
-1.30592,17.8283,-4.82053,9.85582,-7.96059,0.937119,6.09461,0.0686441,-2.93568,2.71305,-0.0580669,1.5233,-0.615123,-0.059893,3.22265,-21.0079,-6.61448,-12.0472,10.7964,-7.46004,11.8433,7.66964,-3.01064,4.94212,-2.85256e-14,-7.55382e-15,-15.4164,35.8121,-83.6431,34.7771,24.1717,-24.5502,8.33926,7.12502,1.94597,-21.6316,-2.85256e-14,-7.55382e-15,-15.3236,-41.4658,80.4256,43.6282,-8.29944,-11.4063,14.5145,7.12502,14.6291,43.9785,-18.3599,-3.43069,22.1085,32.286,-23.5052,-8.61078,5.73761,-27.3657,-0.945352,-17.085,23.7159,-3.00474,6.2166,-10.4583
-1.33722,17.8194,-4.81704,9.23132,-7.90406,0.980496,6.08142,0.101519,-2.97477,2.55224,-0.0156965,1.58402,-0.77661,-0.0338035,3.30507,-21.2666,-6.5483,-11.9973,11.2895,-7.3648,11.673,7.85306,-2.96714,4.89192,1.60022e-14,-1.39149e-14,-13.8004,35.6324,-81.4438,35.131,23.5196,-24.0572,8.07885,7.12502,2.42215,-21.8871,1.60022e-14,-1.39149e-14,-13.6663,-40.8174,78.0292,44.1682,-7.95648,-11.7345,14.5907,7.12502,14.3129,44.0774,-17.641,-3.54317,22.1561,32.3042,-23.6165,-8.66828,5.58421,-26.7895,-0.867588,-17.085,23.9342,-3.15657,6.14592,-10.8476
-1.36625,17.8125,-4.81204,8.61164,-7.9126,0.958026,6.02194,0.125828,-2.9024,2.43007,0.0224875,1.61971,-0.872618,-0.0108304,3.29861,-21.7007,-6.48166,-11.8704,11.9053,-7.27996,11.4965,8.10613,-2.92011,4.82565,-1.38155e-14,-1.94809e-14,-11.9757,35.4596,-79.1112,35.5874,22.569,-23.0305,7.93281,7.12502,3.41365,-22.0196,-1.38155e-14,-1.94809e-14,-11.9037,-40.1395,75.3632,44.9106,-7.30332,-11.929,15.0318,7.12502,14.1254,44.5316,-16.9136,-3.56016,22.2539,32.3205,-23.8121,-8.67001,5.75225,-26.1907,-0.858922,-16.9885,24.1601,-3.28936,6.20161,-11.0037
-1.39359,17.807,-4.80647,8.03196,-7.90625,1.01118,5.81236,0.161255,-2.82009,2.37381,0.0789505,1.59937,-0.818553,0.0178141,3.22687,-21.8727,-6.46694,-11.9093,12.1866,-7.26622,11.5734,8.23252,-2.90098,4.86312,2.98177e-15,2.38542e-15,-9.95677,35.103,-76.5838,36.0789,21.5757,-22.0776,7.68033,7.12502,4.33383,-22.2553,2.98177e-15,2.38542e-15,-9.7085,-39.5718,72.353,45.5878,-6.38871,-11.8813,15.5938,7.12502,14.1714,45.0904,-16.2189,-3.54653,22.257,32.3086,-23.9596,-8.68872,5.93102,-25.6686,-0.735144,-17.0175,24.4239,-3.41634,6.07694,-11.3088
-1.42076,17.7984,-4.80125,7.3744,-7.97996,1.07928,5.636,0.197583,-2.79834,2.37421,0.13257,1.59667,-0.724137,0.043099,3.20812,-21.8822,-6.43471,-11.9354,12.2271,-7.21961,11.591,8.24362,-2.87792,4.88117,-3.08116e-15,2.78299e-15,-7.79747,34.6946,-73.9147,36.5689,20.7182,-21.7123,7.09391,7.12502,4.6866,-22.8343,-3.08116e-15,2.78299e-15,-7.32624,-38.7613,69.1667,46.1781,-5.81368,-11.6755,16.0775,7.12502,14.3697,45.5601,-15.4423,-3.50755,22.2292,32.2693,-24.0721,-8.66881,5.86459,-25.0668,-0.501773,-17.0804,24.7216,-3.55787,5.88678,-11.9075
-1.44838,17.7919,-4.79316,6.73092,-8.1187,1.09722,5.42742,0.237766,-2.7925,2.40547,0.191463,1.62011,-0.580396,0.0695078,3.2254,-22.1431,-6.36403,-11.8588,12.3615,-7.12421,11.574,8.31681,-2.82162,4.87694,-1.8487e-14,-1.19271e-15,-5.45889,34.3268,-71.0856,37.1372,19.7106,-21.5673,6.39677,7.12502,4.82658,-23.5283,-1.8487e-14,-1.19271e-15,-4.91872,-37.7761,65.8339,46.874,-5.77966,-11.1589,16.6119,7.12502,14.8674,46.0585,-14.665,-3.52045,22.2506,32.215,-24.103,-8.54005,5.97349,-24.439,-0.346437,-17.0552,25.0306,-3.7553,5.8759,-12.2284
-1.47307,17.7874,-4.78414,6.19324,-8.16436,1.07263,5.22247,0.289989,-2.64636,2.32943,0.272479,1.59627,-0.550365,0.111669,3.1136,-22.2859,-6.28695,-11.8028,12.4965,-7.05281,11.6858,8.3807,-2.7688,4.91901,2.80286e-14,-1.07344e-14,-3.27857,33.5332,-68.3804,37.711,19.1051,-20.8932,6.25306,7.12502,5.47745,-23.6562,2.80286e-14,-1.07344e-14,-2.58457,-36.8954,62.4926,47.6136,-5.5855,-11.4375,17.2978,7.12502,14.599,46.764,-13.997,-3.62721,22.3166,32.1576,-24.0489,-8.46747,5.58919,-23.9367,-0.34734,-16.9642,25.3507,-3.96713,5.98956,-12.415
-1.49506,17.7817,-4.77161,5.66052,-8.25949,1.07932,4.99239,0.322974,-2.51197,2.24758,0.327293,1.56574,-0.509863,0.140563,3.00344,-22.3887,-6.17865,-11.7895,12.5886,-6.93036,11.8177,8.41942,-2.69356,4.98304,-2.22639e-14,-2.54444e-14,-0.980207,32.4543,-65.7484,38.1026,18.8916,-20.3459,6.82331,7.12502,6.0059,-23.0716,-2.22639e-14,-2.54444e-14,-0.329395,-35.9061,59.1574,48.2533,-5.08529,-12.6864,17.9453,7.12502,13.3954,47.4946,-13.321,-3.69029,22.318,32.112,-24.0641,-8.28805,5.52327,-23.4322,-0.268522,-16.925,25.6649,-4.23007,6.01885,-12.3172
-1.51811,17.7754,-4.75803,5.07089,-8.44703,1.12145,4.75636,0.356244,-2.46349,2.2642,0.37832,1.5464,-0.364528,0.163991,2.95414,-22.5675,-6.11418,-11.8136,12.5795,-6.83345,11.9212,8.43973,-2.63308,5.03738,-3.96575e-14,1.23246e-14,1.59383,31.0341,-63.1129,38.393,18.8237,-20.1471,7.30308,7.12502,6.19779,-22.5863,-3.96575e-14,1.23246e-14,2.03099,-34.8671,55.6679,48.8202,-4.53658,-13.0942,18.3296,7.12502,13.0024,47.9044,-12.5885,-3.69208,22.2804,32.0871,-24.1394,-8.07477,5.62329,-22.8452,-0.0929473,-16.9246,25.9569,-4.4554,6.02592,-12.4075
-1.54331,17.7667,-4.75017,4.47228,-8.48135,1.21175,4.63609,0.341521,-2.51626,2.27162,0.35906,1.55252,-0.288742,0.152713,2.99159,-22.6093,-6.07983,-11.8811,12.3256,-6.75565,12.0115,8.35773,-2.5908,5.0881,3.17062e-14,8.74653e-15,4.05973,29.6362,-60.4532,38.8723,18.8567,-19.8109,7.12133,7.12502,6.52235,-22.7582,3.17062e-14,8.74653e-15,4.35569,-33.6234,52.2522,49.2997,-3.99704,-12.6636,18.6916,7.12502,13.4174,48.2395,-11.8843,-3.72232,22.2275,32.0821,-24.259,-7.99656,5.65382,-22.2973,-0.0531872,-16.9452,26.2259,-4.65003,6.00204,-12.3247
-1.56571,17.7581,-4.73963,3.93639,-8.37922,1.25285,4.57488,0.270493,-2.50835,2.17846,0.26652,1.59428,-0.343982,0.108493,3.03472,-22.601,-6.00021,-11.9537,12.1386,-6.62035,12.0753,8.28142,-2.52549,5.1403,2.18663e-15,-5.56597e-15,6.34469,28.4447,-57.7867,39.4712,18.9031,-19.5525,6.81088,7.12502,6.7718,-23.0608,2.18663e-15,-5.56597e-15,6.36843,-32.0282,49.1157,49.6678,-3.8336,-12.4084,19.0433,7.12502,13.6634,48.5749,-11.2431,-3.80909,22.2294,32.0798,-24.3833,-8.04748,5.6745,-21.8416,-0.108954,-16.9172,26.5114,-4.83934,5.91318,-12.0251
-1.58778,17.751,-4.72299,3.41426,-8.46743,1.30071,4.47047,0.254851,-2.51899,2.10084,0.247517,1.59769,-0.364229,0.100333,3.04521,-22.817,-5.90167,-11.9198,12.1563,-6.48011,12.114,8.3059,-2.44667,5.1692,-2.09718e-14,-1.98785e-14,8.64716,27.1726,-55.2069,40.0168,18.5145,-19.8393,6.82334,7.12502,6.49496,-23.0571,-2.09718e-14,-1.98785e-14,8.2999,-30.4563,45.8859,49.9693,-3.73533,-12.6644,19.4502,7.12502,13.4167,48.9981,-10.6138,-3.80056,22.2014,32.0985,-24.4655,-8.0478,5.46431,-21.3374,-0.0916646,-16.8881,26.7885,-5.06478,5.97021,-11.6207
-1.60958,17.742,-4.70629,2.9912,-8.64562,1.28041,4.26649,0.280105,-2.44513,2.07836,0.28811,1.59679,-0.276211,0.120044,3.00106,-23.1626,-5.86343,-11.8467,12.076,-6.41027,12.1432,8.32633,-2.39626,5.17553,1.12313e-14,9.93923e-15,10.9717,25.7937,-52.6245,40.6826,17.4345,-19.8656,6.38562,7.12502,6.46952,-23.4956,1.12313e-14,9.93923e-15,10.3401,-28.8296,42.6121,50.1788,-3.58798,-13.0051,19.9908,7.12502,13.0883,49.5601,-10.0771,-3.71841,22.2507,32.1027,-24.539,-7.98106,5.44944,-20.9216,0.0065888,-16.7819,27.0835,-5.29216,6.02174,-11.4192
-1.62964,17.7302,-4.6925,2.57323,-8.81132,1.36177,4.15802,0.335778,-2.49334,1.98823,0.362599,1.56817,-0.313598,0.158989,2.99549,-23.3575,-5.84552,-11.7255,11.9402,-6.3852,12.1139,8.30453,-2.37561,5.14599,-2.98177e-16,6.36111e-15,13.0526,23.9962,-50.4244,41.2753,16.7168,-19.6051,5.51448,7.12502,6.72107,-24.3588,-2.98177e-16,6.36111e-15,12.2943,-27.282,39.4283,50.3252,-3.19278,-13.4811,20.5087,7.12502,12.6294,50.1068,-9.58708,-3.6814,22.1891,32.0854,-24.5766,-7.9278,5.26997,-20.5508,0.0879677,-16.7965,27.4184,-5.53806,6.06939,-11.0946
-1.64882,17.7211,-4.67354,2.16452,-8.98669,1.43687,4.04166,0.354529,-2.54811,1.85513,0.388019,1.55399,-0.387381,0.174508,3.01069,-23.4598,-5.76141,-11.6239,11.8625,-6.28018,12.0904,8.27766,-2.32048,5.13532,-1.42131e-14,7.95139e-16,15.1107,21.9301,-48.6174,41.5811,16.723,-19.993,5.27756,7.12502,6.34656,-24.6074,-1.42131e-14,7.95139e-16,13.9331,-25.7828,36.2831,50.5124,-2.27822,-14.216,20.8061,7.12502,11.9208,50.4467,-9.0559,-3.63325,22.1211,32.0301,-24.6002,-7.87423,5.2674,-20.188,0.133385,-16.8181,27.8194,-5.81704,6.1799,-11.0234
-1.66995,17.7152,-4.65051,1.76896,-8.97,1.37551,3.98136,0.269027,-2.47817,1.69304,0.278405,1.60302,-0.512401,0.12406,3.02652,-23.5412,-5.62432,-11.6395,11.7758,-6.08841,12.1825,8.2421,-2.21947,5.1981,-7.15625e-15,1.47101e-14,17.1488,20.3044,-46.6835,41.9571,16.3202,-21.0579,5.05158,7.12502,5.31843,-24.8617,-7.15625e-15,1.47101e-14,15.3649,-24.3323,33.2038,50.6599,-0.863789,-14.6293,21.4355,7.12502,11.5223,51.0988,-8.45991,-3.58525,22.2397,31.9622,-24.7483,-7.92541,5.28936,-19.8328,0.147633,-16.6845,28.2349,-6.10431,6.11459,-10.9305
-1.68991,17.7105,-4.62404,1.45759,-8.97893,1.3108,3.82411,0.232633,-2.41976,1.55097,0.235859,1.67053,-0.567539,0.105629,3.06519,-23.6347,-5.54722,-11.5577,11.5549,-5.9555,12.0542,8.15822,-2.16349,5.15525,-1.62506e-14,-9.54166e-15,19.1085,18.8748,-44.4562,42.4534,15.4822,-22.1697,4.31006,7.12502,4.24492,-25.6274,-1.62506e-14,-9.54166e-15,16.8789,-22.7561,30.3109,50.6092,0.364153,-14.7616,22.2569,7.12502,11.3946,51.9273,-7.95074,-3.47035,22.3734,31.889,-24.9094,-8.04885,5.29666,-19.539,0.276983,-16.5582,28.6332,-6.34609,5.93205,-11.113
-1.70757,17.7041,-4.59608,1.17912,-9.19405,1.33548,3.60815,0.276675,-2.46661,1.46064,0.297527,1.70548,-0.544331,0.137171,3.1254,-23.7403,-5.481,-11.3082,11.1412,-5.85,11.7899,8.00507,-2.12651,5.02968,-2.56929e-14,2.46493e-14,21.0333,17.3184,-42.2391,43.0652,14.3564,-23.021,3.39124,7.12502,3.42284,-26.561,-2.56929e-14,2.46493e-14,18.2711,-20.811,27.6935,50.4391,1.14471,-14.9511,22.9916,7.12502,11.2119,52.672,-7.51325,-3.32824,22.3744,31.8142,-24.9255,-8.09679,4.89299,-19.2582,0.420761,-16.5192,28.9992,-6.56658,5.90759,-11.1634
-1.7228,17.6966,-4.5653,0.905452,-9.35129,1.45871,3.3753,0.285648,-2.57373,1.36204,0.310852,1.7078,-0.516805,0.14454,3.18815,-23.8579,-5.42622,-11.2806,10.7376,-5.7523,11.8691,7.87999,-2.06963,5.06104,3.08613e-14,1.03368e-14,22.864,15.6941,-40.1799,43.6526,13.0167,-23.9425,2.88487,7.12502,2.53289,-27.0798,3.08613e-14,1.03368e-14,19.4884,-18.9092,25.1477,50.3033,2.3696,-15.188,23.5253,7.12502,10.9834,53.218,-7.08591,-3.26375,22.2452,31.7526,-24.9869,-8.05867,4.63507,-18.9971,0.435494,-16.5938,29.3064,-6.74161,5.98253,-11.3098
-1.73933,17.6931,-4.53087,0.634246,-9.32343,1.49233,3.25418,0.246883,-2.60191,1.20436,0.261339,1.74858,-0.607544,0.123433,3.24811,-24.0324,-5.41451,-11.3353,10.5232,-5.69825,11.9611,7.83547,-2.03305,5.10687,-7.45443e-16,-1.03368e-14,24.5188,13.9803,-38.2943,44.2228,11.8054,-24.6797,2.47114,7.12502,1.82093,-27.5008,-7.45443e-16,-1.03368e-14,20.6327,-16.9854,22.8162,50.1219,3.7897,-14.8848,24.0177,7.12502,11.2758,53.6946,-6.59985,-3.23102,22.237,31.6828,-25.1788,-8.02033,4.94119,-18.7168,0.418597,-16.57,29.5582,-6.83339,5.918,-11.3875
-1.75481,17.6885,-4.49465,0.363245,-9.2014,1.43845,3.2795,0.205553,-2.52797,0.999784,0.208884,1.79678,-0.82778,0.103774,3.25799,-24.2154,-5.40876,-11.3685,10.3728,-5.65273,11.9936,7.81138,-2.00461,5.12811,8.74653e-15,-1.03368e-14,25.9921,12.1485,-36.6175,44.7849,10.7625,-25.0558,1.92207,7.12502,1.45767,-28.0527,8.74653e-15,-1.03368e-14,21.7333,-14.8822,20.8008,49.8271,5.03712,-14.4626,24.6956,7.12502,11.6831,54.3499,-6.07012,-3.19583,22.342,31.5731,-25.3786,-8.10212,5.26363,-18.4675,0.463186,-16.4635,29.799,-6.87626,5.7014,-11.7921
-1.76725,17.6874,-4.45556,0.203954,-9.16454,1.45144,3.16924,0.175635,-2.51831,0.748438,0.172366,1.8301,-1.02151,0.0922902,3.28847,-23.7643,-5.33156,-11.6869,9.64202,-5.51247,12.4528,7.50753,-1.92619,5.35072,-1.70955e-14,2.78299e-14,27.445,10.3398,-35.0434,45.2737,9.75008,-25.4227,1.50447,7.12502,1.10328,-28.4724,-1.70955e-14,2.78299e-14,22.6179,-13.055,18.5953,49.791,6.715,-14.4952,25.2473,7.12502,11.6516,54.9033,-5.65996,-3.27896,22.3299,31.4057,-25.4449,-8.05664,5.17461,-18.3245,0.52176,-16.435,30.0606,-6.9766,5.53697,-11.6498
-1.77827,17.69,-4.41461,0.0820294,-9.21183,1.56414,2.93615,0.142057,-2.57964,0.512349,0.130416,1.80907,-1.13031,0.0766908,3.30311,-23.2408,-5.22504,-12.0395,8.85063,-5.34826,13.0642,7.17841,-1.82797,5.63319,-9.69075e-16,-2.06736e-14,28.9412,8.57121,-33.6593,45.6735,8.76897,-26.068,1.03462,7.12502,0.480104,-28.9446,-9.69075e-16,-2.06736e-14,23.3415,-11.2162,16.3777,49.8022,8.45376,-14.6105,25.4557,7.12502,11.5404,55.118,-5.2828,-3.38568,22.1805,31.2144,-25.4208,-7.92378,4.90014,-18.1792,0.62196,-16.5403,30.3449,-7.13366,5.46737,-11.9485
-1.79195,17.6915,-4.37246,-0.0841117,-9.32962,1.60352,2.5261,0.12473,-2.6186,0.466461,0.114482,1.81125,-0.946512,0.0664299,3.32783,-23.6492,-5.14828,-11.5859,8.79082,-5.26473,12.6304,7.18329,-1.79655,5.41811,4.87022e-15,-4.77083e-15,30.4784,6.59007,-32.4492,46.1173,7.97165,-26.7958,0.535173,7.12502,-0.222843,-29.4445,4.87022e-15,-4.77083e-15,24.1654,-8.82171,14.6095,49.5102,9.75524,-15.1153,25.9638,7.12502,11.0535,55.6527,-4.83728,-3.30825,22.1343,31.0194,-25.4609,-7.84019,5.0425,-17.96,0.807646,-16.5444,30.6382,-7.30951,5.36796,-12.159
-1.80583,17.6899,-4.33309,-0.269718,-9.46632,1.59133,2.4296,0.131379,-2.67698,0.302345,0.124721,1.88073,-1.06202,0.0762457,3.43237,-24.0271,-5.07646,-11.0213,8.82947,-5.19265,11.9177,7.20311,-1.79315,5.08868,-1.8313e-14,-2.38542e-15,31.8716,4.48473,-31.5673,46.4681,7.52583,-27.1913,0.538913,7.12502,-0.604804,-29.44,-1.8313e-14,-2.38542e-15,24.9212,-6.38178,13.293,49.1645,10.7472,-15.697,26.9413,7.12502,10.4925,56.6595,-4.39438,-3.15775,22.1658,30.8365,-25.4975,-7.83674,5.3343,-17.7589,1.02948,-16.4724,30.9342,-7.39938,5.25752,-12.2771
-1.8168,17.6885,-4.29126,-0.393255,-9.59592,1.62996,2.33261,0.150775,-2.69408,0.145243,0.152715,1.90999,-1.17136,0.0946473,3.47145,-24.3041,-5.08199,-11.0297,8.67386,-5.15809,11.931,7.19201,-1.76791,5.09769,-2.26118e-15,7.95139e-16,33.2555,2.32062,-30.7435,46.7528,7.09073,-27.4308,0.552324,7.12502,-0.836149,-29.4258,-2.26118e-15,7.95139e-16,25.6381,-3.86509,12.0842,48.876,11.4886,-15.7772,27.6041,7.12502,10.4151,57.3262,-4.03085,-3.12982,22.1054,30.6611,-25.4961,-7.71598,5.3467,-17.6329,1.30778,-16.471,31.2301,-7.54976,5.06501,-12.3078
-1.82571,17.687,-4.24621,-0.439129,-9.69177,1.64227,2.12267,0.141853,-2.63701,0.00164717,0.146734,1.91025,-1.20046,0.093969,3.43976,-24.6691,-5.08095,-11.1212,8.56137,-5.11284,12.1328,7.21718,-1.72031,5.18817,1.87355e-14,-2.70347e-14,34.5273,0.483873,-29.5654,47.2274,6.22482,-28.0439,0.140584,7.12502,-1.42827,-29.8344,1.87355e-14,-2.70347e-14,26.2815,-1.33857,10.7868,48.5526,11.9942,-15.9283,27.8861,7.12502,10.2693,57.6154,-3.71377,-3.16211,22.0557,30.4895,-25.5829,-7.46424,5.68082,-17.5611,1.57891,-16.4381,31.5335,-7.77008,4.76522,-12.6756
-1.83477,17.6858,-4.20299,-0.516804,-9.73896,1.60038,2.0238,0.0680991,-2.56185,-0.3116,0.0532997,1.95603,-1.45933,0.0558296,3.44799,-24.3271,-4.93762,-11.1627,8.23305,-4.92321,12.1879,7.03629,-1.63907,5.23569,-4.71764e-15,-4.77083e-15,35.721,-0.914683,-28.4127,47.7047,5.11997,-28.9577,-0.396765,7.12502,-2.31087,-30.364,-4.71764e-15,-4.77083e-15,26.6636,0.86206,9.49921,48.2618,12.39,-15.9821,28.3655,7.12502,10.2174,58.0974,-3.37211,-3.18204,22.0857,30.3424,-25.7027,-7.32757,5.9979,-17.421,1.74814,-16.3207,31.7971,-7.94374,4.47784,-12.9898
-1.84294,17.6842,-4.15668,-0.686611,-9.88443,1.58558,1.97379,-0.0295439,-2.5263,-0.488576,-0.0732128,2.06514,-1.60312,-0.00231328,3.54531,-24.4063,-4.81013,-11.3578,8.12481,-4.68526,12.2734,6.99141,-1.52274,5.32932,8.48562e-15,0,37.3142,-2.50076,-27.6565,47.9643,4.18805,-29.5962,-0.671969,7.12502,-2.92754,-30.6316,8.48562e-15,0,26.9615,3.41361,8.58528,47.9074,12.6607,-15.7937,29.0024,7.12502,10.3992,58.7252,-2.96758,-3.15852,22.0674,30.2424,-25.7544,-7.195,6.06576,-17.1101,1.91029,-16.2226,32.0113,-8.18733,4.24407,-13.768
-1.85015,17.6839,-4.10903,-0.733306,-10.0243,1.7962,1.79358,-0.0638641,-2.73224,-0.776233,-0.11954,2.10209,-1.79381,-0.0154002,3.702,-24.2136,-4.72213,-11.4907,7.96925,-4.53261,12.2776,6.89451,-1.46078,5.37089,-6.80837e-15,-1.35174e-14,38.6039,-4.11982,-27.0118,48.2234,3.64965,-29.6489,-0.479891,7.12502,-2.97838,-30.4388,-6.80837e-15,-1.35174e-14,27.512,5.93526,8.04911,47.466,12.4729,-15.2903,29.0073,7.12502,10.8848,58.7052,-2.73185,-3.17017,21.7874,30.1578,-25.8297,-6.98649,6.21855,-16.9664,2.01108,-16.3747,32.2005,-8.43469,4.00918,-13.9149
-1.85402,17.6838,-4.06718,-0.592565,-10.0404,2.08016,1.53547,-0.104339,-2.98978,-1.168,-0.174772,2.05803,-2.04713,-0.028997,3.80445,-23.898,-4.61149,-11.4783,7.79814,-4.40715,12.2776,6.77397,-1.41089,5.38235,-1.41634e-14,1.74931e-14,39.6173,-5.78493,-26.3779,48.5544,3.32175,-29.6919,0.138401,7.12502,-3.01996,-29.82,-1.41634e-14,1.74931e-14,28.2128,8.36715,7.52223,47.0152,11.9703,-15.2862,28.5435,7.12502,10.8887,58.2412,-2.7278,-3.35662,21.409,30.075,-25.8595,-6.67046,6.59464,-17.1057,2.01389,-16.612,32.3814,-8.59971,3.7191,-13.617
-1.86026,17.6839,-4.02652,-0.533444,-10.1256,2.11458,1.4577,-0.199322,-3.04702,-1.55221,-0.300382,2.108,-2.38806,-0.0775372,3.8947,-23.4855,-4.43835,-11.6159,7.70722,-4.19503,12.456,6.66293,-1.31176,5.49207,-1.68967e-15,1.19271e-14,40.7264,-7.22441,-25.7241,48.9603,2.83442,-29.7638,0.682225,7.12502,-3.08939,-29.2751,-1.68967e-15,1.19271e-14,28.7568,10.8849,7.08321,46.5789,11.3324,-15.3589,28.1811,7.12502,10.8186,57.8824,-2.61428,-3.42368,21.3302,29.9829,-25.891,-6.44917,6.72962,-17.1248,2.10118,-16.5502,32.5633,-8.88651,3.37926,-13.4621
-1.86777,17.6828,-3.98128,-0.588897,-10.2741,2.02559,1.47379,-0.268686,-3.01984,-1.86677,-0.390499,2.20877,-2.71347,-0.110425,3.98979,-23.016,-4.27585,-11.6303,7.56346,-3.99921,12.3803,6.51602,-1.24005,5.48978,1.30701e-14,-1.74931e-14,41.8669,-8.68548,-25.1546,49.3492,2.44971,-29.7138,0.792794,7.12502,-3.04107,-29.1653,1.30701e-14,-1.74931e-14,29.4017,13.4005,6.79495,46.1286,10.6673,-15.4003,28.4399,7.12502,10.7787,58.1434,-2.33101,-3.39321,21.3994,29.8589,-25.8899,-6.45721,6.36715,-16.9753,2.22234,-16.338,32.7753,-9.31404,3.00954,-14.4008
-1.87107,17.6803,-3.93256,-0.639192,-10.4185,2.01257,1.40596,-0.182321,-2.95423,-2.03331,-0.272874,2.16067,-2.85836,-0.0479598,3.89903,-23.0574,-4.29564,-11.3728,7.50847,-4.06474,12.1776,6.50136,-1.27909,5.36846,2.56929e-14,-1.19271e-14,42.7044,-10.6057,-24.6061,49.656,2.09823,-29.7746,0.736346,7.12502,-3.09978,-29.2209,2.56929e-14,-1.19271e-14,30.8259,16.165,6.95244,45.4882,9.63742,-16.0551,28.7382,7.12502,10.147,58.4735,-2.02965,-3.4248,21.356,29.7038,-25.8721,-6.40139,5.8305,-16.7927,2.27081,-16.2187,33.0093,-9.79337,2.69833,-15.3346
-1.87399,17.6766,-3.88745,-0.701255,-10.5778,1.96414,1.47639,-0.0853385,-2.90812,-2.25491,-0.143512,2.15622,-3.13904,0.024631,3.86535,-23.0418,-4.30506,-11.285,7.50444,-4.10714,12.1926,6.50188,-1.29572,5.35344,-2.68359e-14,-4.77083e-15,43.4687,-12.3754,-23.9868,49.9306,1.85539,-29.8486,0.789553,7.12502,-3.17127,-29.1666,-2.68359e-14,-4.77083e-15,32.2948,18.8679,7.38698,44.8902,8.58999,-16.546,28.7263,7.12502,9.6734,58.4842,-1.73577,-3.43136,21.3455,29.5692,-25.8529,-6.27383,5.48276,-16.5979,2.23936,-16.03,33.2226,-10.253,2.42231,-15.4916
-1.87706,17.675,-3.84363,-0.763771,-10.7156,1.98683,1.55324,-0.0644399,-2.96103,-2.51975,-0.117582,2.20008,-3.45956,0.0500638,3.94227,-22.7557,-4.25748,-11.2327,7.27575,-4.05392,12.0808,6.37227,-1.28761,5.30923,-1.0635e-14,9.54166e-15,44.3756,-13.9252,-23.4648,50.2189,1.8881,-30.0012,0.730981,7.12502,-3.31865,-29.2229,-1.0635e-14,9.54166e-15,33.5031,21.4547,7.88311,44.4143,7.69292,-16.9196,28.4037,7.12502,9.31293,58.178,-1.45624,-3.4501,21.2596,29.4706,-25.8783,-6.1165,5.33983,-16.4051,2.18345,-15.9209,33.3869,-10.5643,2.11501,-15.8592
-1.87844,17.6713,-3.79761,-0.836161,-10.8656,2.11379,1.46711,-0.032718,-3.04772,-2.67153,-0.0772552,2.16283,-3.57226,0.0766814,3.95138,-22.4042,-4.21024,-11.138,6.73453,-4.01022,12.0678,6.13682,-1.27799,5.28657,-5.76476e-15,0,45.2604,-15.6088,-23.0533,50.5505,2.04879,-30.7668,0.265088,7.12502,-4.05796,-29.676,-5.76476e-15,0,34.9988,24.1857,8.63332,43.9609,6.89136,-17.6704,28.3231,7.12502,8.58838,58.1284,-1.18293,-3.43404,21.0609,29.3732,-25.9271,-6.02426,4.95524,-16.2039,2.21938,-15.9494,33.5306,-10.8446,1.78655,-16.2696
-1.87768,17.6663,-3.74765,-0.917385,-11.0952,2.1673,1.42058,0.0124766,-3.03023,-2.78575,-0.01628,2.13294,-3.67001,0.10994,3.90814,-22.3582,-4.1313,-11.2341,6.56204,-3.90228,12.3219,6.07208,-1.21067,5.39978,7.35503e-15,-2.54444e-14,46.1795,-17.2538,-22.6955,50.8223,2.09508,-31.7588,-0.28324,7.12502,-5.01583,-30.2039,7.35503e-15,-2.54444e-14,36.6333,26.931,9.61219,43.5618,6.10268,-18.5392,28.1356,7.12502,7.7499,57.9736,-0.892296,-3.35247,20.9285,29.2732,-25.9528,-5.91794,4.75179,-15.9858,2.31616,-15.8938,33.67,-11.1957,1.52343,-16.203
-1.8751,17.6624,-3.69856,-0.935225,-11.2815,2.05704,1.39752,0.0172357,-2.83403,-2.90939,-0.00230805,2.15852,-3.78591,0.115755,3.8238,-22.439,-4.0379,-11.3918,6.59101,-3.76359,12.6036,6.08906,-1.12321,5.53965,1.26228e-14,2.38542e-15,47.1581,-18.8613,-22.4292,51.0765,1.81398,-32.249,-0.21727,7.12502,-5.48918,-30.1262,1.26228e-14,2.38542e-15,38.2808,29.5927,10.6443,43.2483,5.42059,-19.2815,28.1436,7.12502,7.03338,58.0068,-0.624707,-3.29489,20.9723,29.1594,-25.9815,-5.81561,4.3464,-15.8272,2.34891,-15.652,33.8062,-11.5316,1.49816,-16.2333
-1.87335,17.655,-3.65439,-1.02472,-11.4073,1.97636,1.42718,0.0342882,-2.67946,-2.96571,0.0255774,2.17461,-3.86303,0.127577,3.75231,-22.6164,-4.01751,-11.6354,6.61828,-3.69413,12.9332,6.13176,-1.06459,5.70269,3.26007e-14,6.36111e-15,48.0951,-20.5815,-22.2574,51.3753,1.57127,-32.4489,0.0046117,7.12502,-5.68211,-29.8992,3.26007e-14,6.36111e-15,40.096,32.1787,11.8023,43.1051,5.13614,-20.022,28.3133,7.12502,6.31854,58.199,-0.299068,-3.21294,21.0059,29.0522,-26.0584,-5.81481,3.73669,-15.5925,2.36634,-15.4349,33.9253,-11.752,1.60142,-16.3513
-1.86907,17.646,-3.61302,-1.17152,-11.4739,1.99376,1.54553,0.0316925,-2.6172,-3.05041,0.021429,2.15137,-4.01755,0.12729,3.69421,-22.5543,-3.93223,-11.6893,6.41476,-3.57042,13.0579,6.04651,-0.999653,5.7662,-1.58034e-14,-1.66979e-14,49.04,-22.1519,-22.2293,51.6674,1.6681,-32.816,-0.288982,7.12502,-6.03657,-30.183,-1.58034e-14,-1.66979e-14,41.7952,34.514,12.8582,43.2206,5.26853,-20.6545,28.6813,7.12502,5.70797,58.5845,0.0506864,-3.13671,20.9311,28.9709,-26.1745,-5.74003,3.67667,-15.3323,2.21523,-15.3207,34.0089,-11.9676,1.74377,-15.5222
-1.86409,17.6363,-3.57337,-1.36085,-11.5252,2.04573,1.78824,-0.00360754,-2.63549,-3.15762,-0.0308156,2.14774,-4.2628,0.107871,3.7056,-22.4759,-3.7782,-11.6564,6.19225,-3.36393,13.0664,5.93682,-0.902234,5.78486,-3.77691e-15,-7.15625e-15,50.0372,-23.6496,-22.1846,51.9993,1.65559,-33.0114,-0.310899,7.12502,-6.22526,-30.1994,-3.77691e-15,-7.15625e-15,43.2848,36.6594,13.7203,43.4689,5.80289,-20.9578,28.7397,7.12502,5.41511,58.6505,0.400918,-3.11778,20.8133,28.9282,-26.2993,-5.69378,3.67084,-15.0185,2.02528,-15.2522,34.0419,-12.2294,2.06179,-15.0942
-1.85927,17.6269,-3.53135,-1.53119,-11.683,2.1217,1.94517,-0.00465603,-2.69002,-3.20271,-0.0364941,2.16859,-4.39895,0.110465,3.75984,-22.6461,-3.68544,-11.8043,6.25539,-3.20155,13.1999,5.96844,-0.811633,5.87712,-2.41523e-14,3.97569e-15,51.0247,-25.2662,-22.1352,52.4244,1.62062,-32.935,-0.425979,7.12502,-6.15149,-30.3167,-2.41523e-14,3.97569e-15,44.912,38.8109,14.8658,43.7958,6.35065,-21.166,28.7158,7.12502,5.21402,58.6316,0.722575,-2.96784,20.6752,28.9139,-26.45,-5.63018,3.82082,-14.7238,2.05322,-15.2245,34.0173,-12.3837,2.49332,-15.1129
-1.85461,17.6194,-3.48706,-1.66541,-11.7939,2.13412,2.04441,0.0230788,-2.647,-3.23062,-0.000591105,2.138,-4.4873,0.128388,3.70233,-22.6981,-3.6346,-11.6184,6.20732,-3.14904,12.9809,5.94502,-0.796988,5.77715,-3.11098e-14,2.46493e-14,51.949,-26.9213,-22.4143,52.8454,1.99633,-33.0076,-0.601846,7.12502,-6.22155,-30.4905,-3.11098e-14,2.46493e-14,46.7561,40.749,16.1299,44.2799,7.36224,-22.0661,28.8647,7.12502,4.34491,58.8001,1.00885,-2.87056,20.6078,28.9347,-26.5352,-5.64574,3.60299,-14.4692,1.97376,-15.1236,33.936,-12.4162,3.03374,-14.7991
-1.84886,17.6134,-3.44656,-1.80614,-11.8488,2.12299,2.31209,0.089601,-2.58473,-3.20569,0.0839164,2.077,-4.62005,0.169317,3.59952,-23.1955,-3.70983,-11.3445,6.24656,-3.24945,12.7294,6.03544,-0.841861,5.63774,1.45113e-14,7.95139e-15,52.6974,-28.7367,-22.549,53.3122,2.25066,-33.1713,-0.454526,7.12502,-6.37962,-30.3385,1.45113e-14,7.95139e-15,48.9708,42.6487,17.7282,44.8451,8.59414,-23.1488,28.9596,7.12502,3.29937,58.9138,1.28387,-2.85963,20.5702,28.9626,-26.647,-5.71402,3.07781,-14.1781,1.75821,-14.9958,33.8064,-12.4749,3.683,-14.5028
-1.84098,17.6072,-3.40644,-1.93979,-11.9288,2.17213,2.50034,0.179468,-2.53577,-3.07852,0.198197,1.95825,-4.60244,0.220248,3.44053,-24.0349,-3.81941,-11.1609,6.48066,-3.38486,12.7153,6.25328,-0.875208,5.59538,-1.68967e-15,-1.59028e-15,53.4746,-30.6651,-22.8083,53.8368,2.43999,-33.2644,-0.73999,7.12502,-6.46942,-30.6212,-1.68967e-15,-1.59028e-15,51.5807,44.6171,19.6736,45.4365,9.38897,-23.5555,28.6778,7.12502,2.90667,58.6377,1.56022,-2.76261,20.4672,28.9686,-26.7936,-5.78582,2.88082,-13.9177,1.6954,-14.957,33.6446,-12.5422,4.29548,-13.8545
-1.83211,17.5999,-3.36225,-1.99517,-11.9908,2.2709,2.46965,0.302855,-2.51397,-2.9705,0.357076,1.7634,-4.48253,0.291511,3.21449,-24.6463,-3.8912,-10.7992,6.67128,-3.5417,12.6573,6.42058,-0.924204,5.50281,2.52457e-14,1.59028e-15,54.1044,-32.5861,-23.065,54.3073,2.56134,-33.468,-0.875465,7.12502,-6.66606,-30.7505,2.52457e-14,1.59028e-15,54.4483,46.3565,21.8506,46.1767,9.9913,-23.7209,28.5386,7.12502,2.74691,58.5007,1.74179,-2.75023,20.2921,28.9696,-26.8311,-5.85736,2.32854,-13.7344,1.67522,-14.9781,33.461,-12.6311,4.79537,-12.9189
-1.82461,17.5921,-3.31761,-2.07786,-12.0317,2.2905,2.51921,0.361868,-2.47696,-2.95983,0.432933,1.6661,-4.50376,0.32646,3.08741,-24.9718,-3.89747,-10.5904,6.9157,-3.59787,12.6017,6.5512,-0.937471,5.44799,-4.05521e-14,2.38542e-15,54.7269,-34.2295,-23.2114,54.8164,2.45676,-33.699,-0.697019,7.12502,-6.88901,-30.5649,-4.05521e-14,2.38542e-15,56.9468,47.8177,23.8319,47.0172,10.7179,-23.8567,28.2769,7.12502,2.61574,58.2406,1.95684,-2.78004,20.2113,28.9611,-26.8705,-6.0616,1.10916,-13.5075,1.62217,-14.8926,33.2476,-12.7477,5.31166,-12.4478
-1.81756,17.5852,-3.27282,-2.15502,-12.0203,2.25488,2.62136,0.28339,-2.4695,-3.03978,0.329004,1.73246,-4.63835,0.278926,3.15926,-25.0765,-3.8041,-10.7139,7.24504,-3.46169,12.6787,6.6617,-0.863736,5.51934,-7.05686e-15,1.59028e-15,55.7574,-35.4618,-23.6243,55.3551,2.44826,-34.1058,-0.279343,7.12502,-7.28173,-30.134,-7.05686e-15,1.59028e-15,58.9348,49.1881,25.5371,47.9423,11.3784,-23.8532,27.8225,7.12502,2.61918,57.7862,2.19763,-2.787,20.2152,28.9224,-26.9351,-6.38844,-0.358142,-13.3038,1.58504,-14.7559,33.0032,-12.7687,5.75678,-12.0329
-1.80839,17.5797,-3.22636,-2.14157,-12.0108,2.26404,2.61624,0.214516,-2.51995,-3.12832,0.237815,1.81402,-4.72231,0.239399,3.27919,-25.1544,-3.71438,-10.7595,7.49412,-3.32542,12.5847,6.73506,-0.804269,5.51744,-1.51076e-14,-1.11319e-14,56.8573,-36.6888,-24.1562,55.9617,2.61347,-34.4975,0.190038,7.12502,-7.65974,-29.6512,-1.51076e-14,-1.11319e-14,61.1599,50.4546,27.5743,48.9466,11.9264,-23.7534,27.4404,7.12502,2.71555,57.4029,2.35527,-2.70742,20.1658,28.878,-27.0602,-6.43032,-0.30996,-13.166,1.60712,-14.708,32.7163,-12.7415,6.19052,-12.0885
-1.79826,17.5763,-3.17635,-2.11783,-12.018,2.35037,2.50245,0.0900102,-2.68091,-3.28775,0.0718432,1.96623,-4.81339,0.169269,3.54057,-24.6309,-3.53303,-10.8867,7.46433,-3.05376,12.3497,6.60543,-0.715452,5.48762,-2.127e-14,-1.59028e-14,58.1118,-37.6916,-24.6776,56.5659,2.64888,-34.732,0.440969,7.12502,-7.88607,-29.3919,-2.127e-14,-1.59028e-14,62.5868,51.5564,28.9593,50.0648,12.6543,-23.9545,26.9198,7.12502,2.52134,56.8846,2.52382,-2.69512,19.9898,28.8227,-27.1193,-6.35352,-0.286703,-13.0346,1.66086,-14.772,32.38,-12.7539,6.66549,-12.6177
-1.78813,17.571,-3.12738,-2.09803,-11.9895,2.45579,2.4503,-0.117729,-2.93304,-3.62029,-0.207513,2.20364,-5.11019,0.0553102,3.95295,-23.5078,-3.22158,-11.2499,7.38604,-2.6187,12.2907,6.35501,-0.557471,5.57076,-6.95746e-16,-1.59028e-14,59.3739,-38.2153,-25.1593,57.2701,2.30661,-35.0326,0.188849,7.12502,-8.17628,-29.633,-6.95746e-16,-1.59028e-14,62.9743,52.4474,29.4444,51.3402,13.5558,-24.2531,26.5426,7.12502,2.23294,56.5107,2.7014,-2.70209,19.7975,28.7441,-27.1993,-6.44938,-0.999371,-12.9784,1.79494,-14.8445,32.0037,-12.7085,7.03942,-12.3946
-1.77778,17.5639,-3.07928,-2.00272,-11.9406,2.38009,2.51052,-0.234695,-2.94912,-3.99905,-0.359032,2.3657,-5.52949,-0.000965071,4.14818,-22.7998,-3.00504,-11.4888,7.64802,-2.35487,12.3448,6.29915,-0.454012,5.65897,-2.93207e-14,-2.38542e-14,60.2624,-38.7889,-25.5868,57.999,2.01228,-35.3111,0.170701,7.12502,-8.44499,-29.6405,-2.93207e-14,-2.38542e-14,64.0458,53.0672,30.5808,52.6981,14.1849,-24.55,26.2166,7.12502,1.94621,56.1875,2.85386,-2.62972,19.8371,28.6368,-27.3421,-6.52837,-1.09988,-12.972,1.80074,-14.7188,31.6061,-12.6112,7.4772,-11.779
-1.76365,17.5555,-3.03051,-1.9945,-11.8831,2.28879,2.61546,-0.285236,-2.82984,-4.20182,-0.420102,2.41251,-5.79812,-0.0263832,4.13873,-22.8211,-2.89197,-11.4825,8.27166,-2.24083,12.2926,6.48673,-0.401678,5.66613,-7.95139e-16,-2.3059e-14,61.2749,-39.6974,-26.3447,58.617,2.24854,-35.4463,0.412098,7.12502,-8.57553,-29.3938,-7.95139e-16,-2.3059e-14,65.8415,53.6924,32.3512,54.1123,14.6492,-24.789,25.77,7.12502,1.71538,55.7429,3.12079,-2.60354,19.8678,28.5002,-27.4411,-6.61287,-1.52499,-12.8586,1.68772,-14.6142,31.2402,-12.4869,8.08068,-11.8239
-1.74667,17.5489,-2.97774,-1.98035,-11.772,2.31753,2.50444,-0.357921,-2.7724,-4.2986,-0.51288,2.39953,-5.8281,-0.073294,4.0992,-22.8735,-2.81131,-11.3479,8.84905,-2.18192,12.1089,6.66811,-0.38228,5.6,-2.54444e-14,7.15625e-15,62.5144,-40.7111,-27.4263,59.2428,2.815,-35.3962,0.414812,7.12502,-8.52711,-29.393,-2.54444e-14,7.15625e-15,67.5619,54.341,34.0398,55.6433,15.1878,-26.1013,25.3124,7.12502,0.447943,55.2917,3.39063,-2.62125,19.7448,28.3129,-27.5233,-6.67509,-1.82854,-12.825,1.63265,-14.6677,30.964,-12.3503,8.51604,-12.3955
-1.72926,17.5484,-2.9255,-1.83912,-11.7062,2.30161,2.35529,-0.381601,-2.73292,-4.51706,-0.53672,2.45718,-5.97137,-0.0792573,4.14058,-22.5225,-2.76708,-11.2969,9.22619,-2.15779,11.834,6.7244,-0.402686,5.50367,-9.93923e-16,-1.03368e-14,63.6701,-41.5446,-28.3204,59.9086,3.15683,-35.2468,0.364625,7.12502,-8.38299,-29.449,-9.93923e-16,-1.03368e-14,68.9521,54.7623,35.5341,57.1522,15.7506,-27.4518,24.5865,7.12502,-0.856406,54.5645,3.53921,-2.60301,19.6672,28.0857,-27.5868,-6.72718,-1.92122,-12.9635,1.79848,-14.6845,30.8296,-12.1149,8.6835,-13.1766
-1.71279,17.5494,-2.87588,-1.68325,-11.6577,2.25416,2.31412,-0.298727,-2.645,-4.69765,-0.420825,2.43865,-6.15011,-0.019993,4.0652,-22.6081,-2.80157,-11.0418,9.68851,-2.25186,11.4986,6.88988,-0.465239,5.34447,1.61016e-14,-3.18055e-14,64.3135,-42.6656,-28.6892,60.6374,3.00199,-35.1844,0.559093,7.12502,-8.32277,-29.2569,1.61016e-14,-3.18055e-14,70.678,54.9931,37.2439,58.6183,16.4054,-27.5023,23.9142,7.12502,-0.905264,53.892,3.68374,-2.59974,19.6264,27.8365,-27.6272,-6.72831,-1.78628,-13.1535,2.07275,-14.6861,30.8794,-11.6559,8.71315,-14.2709
-1.69427,17.5494,-2.82701,-1.59964,-11.5439,2.15188,2.35288,-0.166932,-2.41079,-4.69374,-0.239039,2.30117,-6.18385,0.0558689,3.77476,-23.4395,-2.90911,-10.5481,10.3423,-2.47305,11.2525,7.25295,-0.550352,5.17111,1.11319e-14,2.38542e-15,64.8327,-44.1867,-29.0734,61.3879,3.02184,-35.1641,0.80744,7.12502,-8.30313,-29.0094,1.11319e-14,2.38542e-15,73.1156,55.2565,39.4466,59.9965,16.8092,-27.3342,23.2843,7.12502,-0.742889,53.2628,3.93084,-2.55112,19.6657,27.5781,-27.7249,-6.7489,-1.56988,-13.2728,2.2692,-14.6436,31.1282,-11.4188,8.5159,-15.6878
-1.67241,17.5479,-2.77605,-1.51402,-11.4338,2.11536,2.32284,-0.121092,-2.28581,-4.78343,-0.171241,2.27818,-6.267,0.0855114,3.67569,-23.773,-2.92555,-10.3617,10.8509,-2.52506,11.0608,7.47381,-0.575928,5.08073,-3.55825e-14,-2.70347e-14,65.6705,-45.3163,-29.6745,62.1743,3.25025,-35.1482,1.01046,7.12502,-8.28779,-28.807,-3.55825e-14,-2.70347e-14,74.9197,55.6094,41.2513,61.4138,16.9838,-27.3917,22.6922,7.12502,-0.798383,52.6704,4.13872,-2.54132,19.606,27.3531,-27.7456,-6.82673,-1.75979,-13.3993,2.5863,-14.7083,31.5189,-11.5559,8.10436,-17.0492
-1.6493,17.5419,-2.72341,-1.44939,-11.4112,2.11668,2.25044,-0.113633,-2.24551,-4.9734,-0.153215,2.35827,-6.42895,0.100024,3.73771,-23.5895,-2.86018,-10.4629,11.2527,-2.42654,10.935,7.56367,-0.550588,5.07368,-2.98177e-15,-8.74653e-15,66.5798,-46.1029,-30.2722,63.04,3.35412,-35.2823,1.15397,7.12502,-8.41725,-28.6583,-2.98177e-15,-8.74653e-15,76.0511,55.966,42.5188,62.8042,17.1162,-27.2247,22.3686,7.12502,-0.637062,52.3474,4.3243,-2.55954,19.4705,27.2075,-27.7338,-6.85473,-2.15607,-13.5051,3.07934,-14.8329,31.9729,-11.8894,7.55112,-17.027
-1.62481,17.5345,-2.67136,-1.41308,-11.4289,2.08618,2.23812,-0.100695,-2.16002,-5.14263,-0.128253,2.39664,-6.6041,0.114415,3.73019,-23.5731,-2.76061,-10.4395,11.8111,-2.32538,10.8651,7.73263,-0.509066,5.07129,-1.25234e-14,-3.97569e-15,67.4853,-46.9003,-31.0424,63.9836,3.49012,-35.4382,1.39891,7.12502,-8.5677,-28.4073,-1.25234e-14,-3.97569e-15,77.0739,56.257,43.5763,64.1659,17.1458,-27.3192,22.1655,7.12502,-0.72839,52.144,4.5062,-2.56357,19.3645,27.1343,-27.7682,-6.84473,-2.51582,-13.5112,3.5089,-14.9197,32.3924,-12.2476,6.96115,-15.591
-1.59871,17.5242,-2.62205,-1.40793,-11.351,2.02264,2.32181,-0.0945906,-2.05973,-5.34118,-0.112855,2.4214,-6.86572,0.124651,3.70227,-23.539,-2.6525,-10.2861,12.4146,-2.24312,10.7116,7.9139,-0.479339,5.01694,-2.64384e-14,2.22639e-14,68.2307,-47.6532,-31.6849,64.986,3.66357,-35.2767,1.28355,7.12502,-8.41185,-28.5289,-2.64384e-14,2.22639e-14,78.0228,56.4208,44.6246,65.5208,17.0368,-27.5999,21.8791,7.12502,-0.999479,51.8565,4.71562,-2.62403,19.3164,27.0877,-27.8106,-6.99785,-3.4041,-13.4629,3.78985,-14.9811,32.7426,-12.5229,6.52768,-13.4984
-1.57141,17.5175,-2.57278,-1.41059,-11.1859,2.09069,2.37591,-0.105712,-2.08786,-5.54803,-0.127582,2.44279,-7.11799,0.126719,3.74586,-23.3859,-2.59672,-10.2897,12.942,-2.18852,10.5721,8.05599,-0.472542,4.98712,2.96189e-14,-8.74653e-15,69.0823,-48.3842,-32.3115,65.8932,3.91742,-35.1829,1.23661,7.12502,-8.32131,-28.5795,2.96189e-14,-8.74653e-15,78.8104,56.6133,45.565,66.7481,16.9184,-27.7104,21.3771,7.12502,-1.10617,51.354,4.89906,-2.69965,19.1305,27.0647,-27.8677,-7.2024,-4.29094,-13.5007,3.92029,-15.1875,32.9878,-12.6594,6.2737,-12.2146
-1.54527,17.5139,-2.52678,-1.36052,-11.0259,2.01854,2.40597,-0.134742,-2.00527,-5.67187,-0.156987,2.51013,-7.26613,0.113949,3.77526,-23.4589,-2.54584,-10.3627,13.5042,-2.1246,10.5733,8.25015,-0.445685,5.02346,-1.82882e-14,-1.43125e-14,70.2568,-49.2484,-33.2858,66.7537,4.39493,-35.2863,1.4234,7.12502,-8.42108,-28.3887,-1.82882e-14,-1.43125e-14,79.5286,57.0439,46.2607,67.7735,16.959,-28.0327,20.8577,7.12502,-1.4175,50.8327,5.02839,-2.78087,19.0957,27.0463,-27.9585,-7.31399,-4.58495,-13.6185,3.94397,-15.2237,33.1433,-12.6492,6.17396,-14.6775
-1.51755,17.5063,-2.4807,-1.36131,-10.89,1.97846,2.43424,-0.138662,-1.96211,-5.71382,-0.156327,2.56056,-7.32789,0.115161,3.80523,-23.7085,-2.47863,-10.1771,14.0374,-2.05579,10.3303,8.45828,-0.424069,4.93267,-1.21259e-14,7.95139e-16,71.4796,-50.18,-34.4486,67.7879,4.76483,-35.4199,1.65547,7.12502,-8.55006,-28.1514,-1.21259e-14,7.95139e-16,80.4715,57.4691,47.1976,68.7362,17.0239,-28.3437,20.4712,7.12502,-1.71781,50.444,5.25088,-2.68062,19.0631,27.0015,-28.1689,-7.33127,-3.87754,-13.6424,3.90841,-15.2969,33.2642,-12.6632,6.17711,-15.8402
-1.48754,17.4989,-2.42713,-1.37008,-10.7952,2.11236,2.3657,-0.100164,-2.01826,-5.79118,-0.108929,2.52785,-7.3753,0.142559,3.7988,-23.5924,-2.41577,-9.88865,14.2152,-1.99781,9.88489,8.48287,-0.431134,4.73807,2.5842e-14,4.53229e-14,72.5858,-51.0143,-35.498,68.7778,4.95099,-35.638,2.1739,7.12502,-8.76046,-27.6243,2.5842e-14,4.53229e-14,81.2686,57.7504,48.037,69.6806,17.1761,-28.6704,20.0429,7.12502,-2.03342,50.0129,5.47957,-2.56039,18.8097,26.9487,-28.4043,-7.28634,-3.4558,-13.6208,3.93065,-15.5814,33.4058,-12.8079,6.17793,-16.2982
-1.45549,17.4927,-2.37592,-1.37712,-10.6763,2.17017,2.42551,-0.0761881,-1.97772,-5.9604,-0.0746547,2.51063,-7.5953,0.162608,3.75825,-23.3266,-2.32681,-9.81559,14.4068,-1.89775,9.69467,8.48865,-0.40686,4.67451,2.18663e-15,-4.77083e-15,73.6505,-51.7095,-36.4543,69.6557,5.02781,-35.9491,2.62058,7.12502,-9.06064,-27.1648,2.18663e-15,-4.77083e-15,81.7708,57.9816,48.5484,70.4917,17.3277,-29.2513,19.5945,7.12502,-2.59443,49.5585,5.68723,-2.52372,18.6157,26.9169,-28.5839,-7.23244,-3.11455,-13.5853,4.03399,-15.7864,33.5892,-12.9661,6.05683,-16.7297
-1.42242,17.4854,-2.32756,-1.32823,-10.5209,2.20231,2.46045,-0.0669026,-1.95308,-6.11721,-0.0592989,2.51787,-7.78657,0.174348,3.75375,-23.4318,-2.257,-9.82976,14.9942,-1.81011,9.63954,8.69615,-0.372791,4.68591,-1.19271e-15,3.02153e-14,74.7554,-52.4769,-37.5007,70.611,5.00067,-36.2325,2.80437,7.12502,-9.3341,-26.969,-1.19271e-15,3.02153e-14,82.4134,58.1744,49.2841,71.2215,17.2232,-29.6639,19.4575,7.12502,-2.99291,49.4162,5.81417,-2.57307,18.4361,26.9062,-28.6993,-7.14907,-2.75444,-13.6153,3.98938,-15.9497,33.8251,-13.2354,5.88698,-16.326
-1.38869,17.478,-2.28114,-1.31634,-10.3188,2.21324,2.51183,-0.0657626,-1.91596,-6.20586,-0.0547024,2.52144,-7.91297,0.177891,3.73829,-23.5608,-2.22786,-9.73715,15.4763,-1.76993,9.41947,8.87515,-0.372237,4.61208,3.97569e-16,3.18055e-15,75.9723,-53.3151,-38.7614,71.6568,5.08439,-36.4025,2.85659,7.12502,-9.49817,-26.9094,3.97569e-16,3.18055e-15,82.9797,58.4295,49.9335,71.9195,17.1145,-30.0687,19.2771,7.12502,-3.38381,49.23,5.95865,-2.63659,18.2966,26.9359,-28.746,-7.3098,-3.30632,-13.6478,3.81496,-16.0901,34.1005,-13.5281,5.73914,-15.8413
-1.35471,17.4707,-2.23568,-1.36677,-10.1561,2.27001,2.61037,-0.0401177,-1.91055,-6.27624,-0.0209089,2.50621,-8.04984,0.197066,3.71827,-23.4289,-2.21754,-9.76707,15.5905,-1.74461,9.32764,8.88815,-0.375854,4.58949,-1.03368e-14,1.66979e-14,77.3807,-54.0936,-40.1679,72.6472,5.23501,-36.316,2.69383,7.12502,-9.41476,-27.0759,-1.03368e-14,1.66979e-14,83.4568,58.7385,50.4271,72.4965,17.1408,-30.8074,18.9305,7.12502,-4.09714,48.8708,6.1218,-2.65511,18.1129,27.0248,-28.8159,-7.5199,-3.76453,-13.6257,3.84179,-16.3167,34.3623,-13.7711,5.65132,-16.0434
-1.32167,17.4603,-2.18772,-1.45273,-10.0639,2.39796,2.68733,0.0118995,-2.02659,-6.33823,0.041599,2.51241,-8.16874,0.238511,3.78646,-23.1922,-2.18135,-9.84398,15.5987,-1.66835,9.2179,8.84151,-0.361992,4.57151,-4.27387e-14,-5.08889e-14,78.9868,-54.7367,-41.7652,73.6357,5.44755,-37.348,3.17688,7.12502,-10.4104,-26.5454,-4.27387e-14,-5.08889e-14,83.9057,59.0775,50.9592,73.0144,17.2349,-31.1795,18.7646,7.12502,-4.45643,48.6977,6.29779,-2.56085,17.8591,27.1719,-28.9608,-7.70148,-3.9574,-13.518,3.97832,-16.6058,34.5723,-14.0029,5.53716,-16.2235
-1.28838,17.4501,-2.13864,-1.43271,-9.86618,2.45845,2.70867,0.02952,-2.08346,-6.44832,0.0624273,2.51681,-8.30365,0.256613,3.82344,-23.1371,-2.14669,-9.86283,15.9194,-1.60886,9.08905,8.93452,-0.352997,4.54508,4.37326e-15,2.38542e-15,80.5091,-55.2929,-43.3757,74.6311,5.60712,-37.8709,3.60381,7.12502,-10.9148,-26.0925,4.37326e-15,2.38542e-15,84.318,59.3305,51.4849,73.4707,17.3148,-31.4189,19.1368,7.12502,-4.68767,49.0649,6.36809,-2.5431,17.6864,27.3675,-29.1208,-7.84046,-4.38311,-13.5458,4.01879,-16.8164,34.7508,-14.2304,5.34814,-16.6298
-1.25288,17.4393,-2.09172,-1.42462,-9.66347,2.497,2.79436,0.0481282,-2.08674,-6.56027,0.0859722,2.49716,-8.47829,0.272471,3.80487,-23.1331,-2.10665,-9.87586,16.3518,-1.55505,9.0111,9.0764,-0.340847,4.53877,2.88238e-14,-3.18055e-14,81.9317,-55.8443,-44.9143,75.6226,5.61808,-38.1935,3.69329,7.12502,-11.2259,-25.9864,2.88238e-14,-3.18055e-14,84.7174,59.6047,51.9281,73.8184,17.4809,-31.3943,19.5769,7.12502,-4.66388,49.5056,6.43406,-2.54036,17.5306,27.5775,-29.1684,-8.03717,-5.33665,-13.571,3.99516,-16.9964,34.9121,-14.483,5.13343,-16.5451
-1.21503,17.4288,-2.04598,-1.49169,-9.48467,2.50002,2.93804,0.0698192,-2.03347,-6.61237,0.116542,2.47318,-8.62191,0.286454,3.74842,-23.1233,-2.03806,-9.71033,16.6267,-1.47883,8.77454,9.1582,-0.323535,4.44481,-8.34896e-15,-6.36111e-15,83.4724,-56.3606,-46.6458,76.625,5.69954,-38.4608,3.48439,7.12502,-11.4837,-26.1811,-8.34896e-15,-6.36111e-15,84.9822,59.9017,52.2578,74.2251,17.795,-30.9045,19.7874,7.12502,-4.19089,49.726,6.58935,-2.52016,17.4023,27.7721,-29.2679,-8.18731,-5.83233,-13.5006,4.02612,-17.1292,35.0731,-14.7063,4.86403,-16.1544
-1.17483,17.4205,-1.99768,-1.54956,-9.24827,2.56652,2.97418,0.0822078,-2.02632,-6.62154,0.132079,2.4491,-8.65425,0.293503,3.71758,-23.0689,-1.98487,-9.59398,16.7723,-1.39469,8.49507,9.18719,-0.31055,4.34072,1.2921e-14,1.90833e-14,85.2412,-56.8344,-48.5319,77.5466,5.87183,-38.962,3.34716,7.12502,-11.967,-26.2908,1.2921e-14,1.90833e-14,85.2143,60.075,52.822,74.7444,18.151,-30.8055,19.6515,7.12502,-4.09533,49.5919,6.74483,-2.59576,17.1669,27.9558,-29.4172,-8.22646,-5.94454,-13.4123,3.91843,-17.3636,35.2504,-14.9981,4.77378,-15.9941
-1.13474,17.4131,-1.94779,-1.56343,-9.01295,2.64436,2.87943,0.123889,-2.06012,-6.58215,0.184324,2.41535,-8.55942,0.318019,3.69379,-23.1908,-2.01471,-9.7253,17.0384,-1.40078,8.53372,9.30281,-0.318059,4.38414,2.06736e-14,1.74931e-14,87.1126,-57.3765,-50.5107,78.4922,5.97722,-39.5768,3.29091,7.12502,-12.5598,-26.3116,2.06736e-14,1.74931e-14,85.6502,60.1548,53.6783,75.2564,18.5397,-30.9463,19.4229,7.12502,-4.23131,49.3606,6.86272,-2.68673,16.914,28.1446,-29.5014,-8.39053,-6.66597,-13.3598,3.8556,-17.6256,35.4444,-15.317,4.70426,-16.0861
-1.09423,17.4072,-1.89813,-1.60087,-8.82136,2.63657,2.81677,0.175708,-1.97101,-6.50277,0.257297,2.3655,-8.43976,0.343009,3.58119,-23.5575,-2.08138,-9.9392,17.5102,-1.46067,8.77274,9.54191,-0.330801,4.51497,1.19271e-14,1.35174e-14,88.9952,-57.8994,-52.6387,79.5273,6.23439,-40.2269,2.95914,7.12502,-13.1865,-26.6038,1.19271e-14,1.35174e-14,86.1027,60.3179,54.2947,75.6055,19.1194,-30.7687,19.3394,7.12502,-4.0598,49.2805,7.03072,-2.76774,16.7376,28.3246,-29.456,-8.56094,-7.92133,-13.2938,3.97191,-17.7787,35.6628,-15.6155,4.49099,-16.0238
-1.05384,17.3997,-1.8516,-1.72526,-8.57921,2.51497,2.92501,0.212176,-1.78691,-6.42241,0.318066,2.3589,-8.41804,0.359368,3.46353,-23.7435,-2.12307,-10.0601,17.8483,-1.49177,8.84896,9.6986,-0.344797,4.57059,-3.26007e-14,1.66979e-14,90.8045,-58.2952,-54.6583,80.4726,6.53185,-40.8744,2.43814,7.12502,-13.8105,-27.0834,-3.26007e-14,1.66979e-14,86.4765,60.4788,54.8032,75.8253,19.5621,-30.9753,19.7009,7.12502,-4.25933,49.6381,7.28536,-2.70897,16.7477,28.5377,-29.4956,-8.63138,-8.29855,-13.1397,4.04992,-17.7845,35.8947,-15.924,4.26389,-16.1201
-1.0141,17.3897,-1.80882,-1.98556,-8.32293,2.23901,3.25902,0.208823,-1.51759,-6.31316,0.338166,2.45533,-8.49516,0.355542,3.41239,-23.8329,-2.09894,-10.1207,18.0819,-1.4133,8.74035,9.78798,-0.326513,4.5609,-3.97569e-15,-2.22639e-14,92.7575,-58.4593,-56.8287,81.3509,6.76419,-41.1736,2.3882,7.12502,-14.0989,-27.1135,-3.97569e-15,-2.22639e-14,86.7673,60.6671,55.371,75.9941,19.6812,-31.0455,19.7141,7.12502,-4.3271,49.6499,7.63344,-2.62048,16.9501,28.8298,-29.4678,-8.72056,-8.47186,-12.8283,4.06457,-17.5978,36.1405,-16.2501,4.05835,-16.3853
-0.972812,17.3786,-1.76577,-2.14404,-8.04326,2.17405,3.43534,0.191946,-1.42167,-6.25485,0.32144,2.44634,-8.53296,0.340817,3.35067,-23.8672,-2.07898,-10.0177,18.2939,-1.3712,8.50059,9.8621,-0.330039,4.46927,-1.39149e-15,-1.03368e-14,94.699,-58.4745,-59.1183,82.2262,6.81253,-42.1974,2.84653,7.12502,-15.0854,-26.5838,-1.39149e-15,-1.03368e-14,86.9216,60.8211,55.7016,76.1271,19.8727,-30.3551,19.6226,7.12502,-3.66034,49.5709,7.81719,-2.74995,16.8175,29.2091,-29.3449,-8.52351,-8.55457,-12.6661,4.1045,-17.6729,36.3862,-16.5356,3.82144,-16.7515
-0.930464,17.3671,-1.72543,-2.24866,-7.75094,2.26117,3.57068,0.196808,-1.45722,-6.24878,0.319429,2.36726,-8.60537,0.340275,3.28759,-23.7883,-2.07582,-9.9736,18.4815,-1.36763,8.37066,9.91319,-0.344423,4.41973,-8.94531e-15,-3.10104e-14,96.4926,-58.4396,-61.2656,83.0634,6.72096,-42.9787,3.17192,7.12502,-15.8379,-26.2003,-8.94531e-15,-3.10104e-14,87.05,60.8459,56.0258,76.192,19.9655,-30.0678,19.6992,7.12502,-3.38291,49.6521,7.88584,-2.95016,16.4923,29.6747,-29.2925,-8.36007,-9.28315,-12.5691,4.1054,-17.9339,36.5981,-16.8097,3.63516,-17.015
-0.888443,17.3597,-1.69034,-2.36021,-7.42393,2.18555,3.79301,0.19345,-1.38626,-6.2243,0.319633,2.35928,-8.70904,0.336841,3.24009,-23.7176,-2.0568,-10.0374,18.6879,-1.33842,8.38547,9.97163,-0.337614,4.44565,2.5842e-15,-1.11319e-14,98.3454,-58.2953,-63.4411,83.8311,6.7577,-43.7821,3.52604,7.12502,-16.6114,-25.7831,2.5842e-15,-1.11319e-14,87.4073,60.8077,56.6752,76.1978,19.7905,-30.1462,19.8189,7.12502,-3.45863,49.7706,7.91035,-3.07663,16.3995,30.2356,-29.2036,-8.32731,-10.0824,-12.4809,4.0093,-17.9884,36.7694,-17.0109,3.34564,-16.4246
-0.847122,17.3539,-1.65138,-2.49026,-7.07842,2.20305,3.91979,0.188851,-1.45644,-6.17549,0.306853,2.35213,-8.73045,0.334982,3.27366,-23.6524,-1.98393,-10.0155,18.943,-1.23622,8.27773,10.0393,-0.306138,4.42496,-1.64991e-14,1.19271e-14,100.059,-58.133,-65.4697,84.5888,6.8389,-44.7201,3.59592,7.12502,-17.5143,-25.6351,-1.64991e-14,1.19271e-14,87.6742,60.7173,57.2913,76.2247,19.6491,-30.0011,20.0676,7.12502,-3.31848,50.0215,7.88971,-3.24538,16.1731,30.8839,-28.9822,-8.20853,-10.0363,-12.3573,3.99113,-18.1372,36.8941,-17.1978,2.99245,-15.8637
-0.802551,17.3473,-1.60662,-2.59571,-6.72432,2.29277,3.95648,0.172742,-1.55613,-6.17916,0.27483,2.3196,-8.7546,0.32521,3.29925,-23.5288,-1.88077,-9.94921,19.339,-1.09254,8.06404,10.1423,-0.26817,4.36791,9.74045e-15,-3.18055e-15,101.317,-57.9515,-67.0309,85.3353,6.90014,-45.5588,2.50697,7.12502,-18.3212,-26.6502,9.74045e-15,-3.18055e-15,87.7269,60.5875,57.6349,76.1003,19.5572,-30.3696,20.0336,7.12502,-3.67441,49.9816,7.83981,-3.52005,15.8072,31.5731,-28.7776,-8.10825,-10.8514,-12.2032,4.03261,-18.4067,36.9753,-17.3819,2.73939,-16.2554
-0.757038,17.3424,-1.56392,-2.65877,-6.38049,2.32332,4.00495,0.135198,-1.59525,-6.23007,0.221915,2.32285,-8.83572,0.303996,3.33203,-23.218,-1.84472,-9.98453,19.6527,-1.03815,7.91952,10.1928,-0.272996,4.33495,-4.57205e-15,-3.18055e-15,102.343,-57.5866,-68.4243,86.1037,6.90518,-46.3782,1.64488,7.12502,-19.1094,-27.4363,-4.57205e-15,-3.18055e-15,87.6092,60.5219,57.8161,75.9289,19.5739,-30.0599,20.061,7.12502,-3.37534,50.014,7.72187,-3.77961,15.5065,32.326,-28.5793,-8.11064,-12.5382,-12.0264,4.04803,-18.6069,37,-17.5737,2.43046,-16.6573
-0.713604,17.3389,-1.51996,-2.75753,-6.03329,2.31605,4.09065,0.0981218,-1.61028,-6.26803,0.171145,2.32419,-8.9246,0.282197,3.34918,-22.8457,-1.85407,-10.073,19.8025,-1.0577,7.89212,10.1818,-0.300405,4.33705,-3.57812e-15,-3.33958e-14,103.38,-57.0423,-69.9458,86.7291,7.12816,-47.2949,1.66238,7.12502,-19.9908,-27.3293,-3.57812e-15,-3.33958e-14,87.4036,60.3975,57.8552,75.7254,19.6477,-29.8936,20.3071,7.12502,-3.21475,50.2626,7.598,-4.01036,15.2518,33.1564,-28.2163,-8.0688,-13.7046,-11.795,4.01959,-18.7448,36.9797,-17.7699,2.07996,-16.7059
-0.669118,17.3347,-1.47849,-2.87148,-5.66891,2.3242,4.22541,0.0701082,-1.66224,-6.30492,0.128931,2.32321,-9.04245,0.267551,3.38436,-22.5003,-1.78418,-10.0783,19.9313,-0.983728,7.83071,10.1573,-0.281471,4.32637,-9.74045e-15,1.90833e-14,104.337,-56.4686,-71.3939,87.142,7.56757,-48.098,2.05374,7.12502,-20.7626,-26.8555,-9.74045e-15,1.90833e-14,87.1809,60.1933,57.9136,75.4739,19.6213,-30.3453,20.6283,7.12502,-3.65091,50.5768,7.46928,-4.25655,14.9546,34.0653,-27.8562,-7.75977,-13.8731,-11.565,3.97394,-18.9103,36.9152,-17.938,1.84014,-16.855
-0.624915,17.3342,-1.43852,-2.90783,-5.29875,2.41727,4.2769,0.0465166,-1.844,-6.34717,0.0809049,2.31203,-9.11745,0.258032,3.4821,-22.1897,-1.6969,-10.067,20.1553,-0.897368,7.79539,10.1719,-0.253199,4.32766,-4.57205e-15,-8.74653e-15,105.099,-56.0408,-72.5017,87.4608,7.60917,-48.9344,2.40498,7.12502,-21.5661,-26.4142,-4.57205e-15,-8.74653e-15,86.9385,59.9231,58.0895,75.3765,19.714,-30.1546,20.7421,7.12502,-3.46675,50.6937,7.20613,-4.59317,14.5204,35.0559,-27.4554,-7.32933,-14.165,-11.3657,3.93581,-19.179,36.8069,-18.1324,1.61417,-17.1885
-0.582093,17.3356,-1.39918,-2.93812,-4.8728,2.47383,4.28946,0.00573758,-1.99487,-6.29763,0.0114799,2.29466,-9.06611,0.232427,3.55639,-22.095,-1.68326,-9.96912,20.3255,-0.880342,7.60712,10.213,-0.264576,4.24898,2.82274e-14,2.06736e-14,105.707,-55.7737,-73.4151,87.8409,7.20038,-49.7864,1.50249,7.12502,-22.384,-27.2207,2.82274e-14,2.06736e-14,86.953,59.6719,58.455,75.2859,19.8734,-30.1577,20.7724,7.12502,-3.46976,50.724,6.85524,-4.98983,14.1348,36.1386,-26.8339,-7.0518,-14.5247,-11.1579,3.87863,-19.3953,36.6681,-18.2726,1.31407,-17.6546
-0.538356,17.3388,-1.36073,-2.99049,-4.41581,2.4311,4.39653,-0.0317911,-2.07152,-6.26295,-0.0433518,2.33538,-9.08809,0.212765,3.65054,-22.0884,-1.69162,-9.86998,20.4346,-0.863057,7.341,10.2485,-0.283003,4.14064,1.05356e-14,2.06736e-14,106.072,-55.4562,-74.1331,88.222,6.95416,-50.2283,0.0190706,7.12502,-22.8082,-28.6524,1.05356e-14,2.06736e-14,86.7189,59.496,58.5901,75.1109,20.0296,-30.4228,20.7961,7.12502,-3.72578,50.7432,6.48974,-5.37452,13.8561,37.3286,-26.1193,-6.82187,-15.1596,-10.9474,3.69471,-19.5132,36.509,-18.3402,1.05284,-17.6829
-0.495796,17.3456,-1.32242,-3.01075,-3.99416,2.39324,4.48741,-0.0612543,-2.18832,-6.27362,-0.0898992,2.38541,-9.1512,0.201699,3.77723,-21.9352,-1.67724,-9.77233,20.4247,-0.830934,7.10123,10.2128,-0.291589,4.03928,5.96354e-15,-9.54166e-15,106.287,-55.109,-74.6979,88.4371,6.91852,-50.4844,-0.481356,7.12502,-23.054,-29.1224,5.96354e-15,-9.54166e-15,86.2519,59.3231,58.5106,74.8734,20.1165,-30.2656,21.2105,7.12502,-3.57397,51.1603,6.02314,-5.7197,13.569,38.629,-25.3978,-6.56317,-15.8276,-10.7606,3.54132,-19.6458,36.3294,-18.3423,0.849369,-17.6081
-0.452715,17.3493,-1.28295,-3.01856,-3.57576,2.51761,4.42382,-0.102386,-2.39418,-6.21429,-0.16691,2.33156,-9.04252,0.173062,3.84333,-21.8478,-1.69365,-9.72087,20.4943,-0.857169,7.00123,10.2241,-0.314096,3.99139,8.34896e-15,8.74653e-15,106.484,-54.8906,-75.3166,88.5911,6.89683,-50.8491,-0.146099,7.12502,-23.4038,-28.743,8.34896e-15,8.74653e-15,85.8031,59.1248,58.4326,74.7348,20.147,-30.0011,21.8247,7.12502,-3.3185,51.7787,5.45209,-6.20332,13.0256,40.0532,-24.5233,-6.1874,-16.2833,-10.576,3.4469,-19.9583,36.1248,-18.3179,0.60744,-17.3673
-0.410888,17.3521,-1.24221,-3.08398,-3.13696,2.70852,4.3679,-0.102075,-2.66641,-6.11818,-0.19642,2.24056,-8.90235,0.16914,3.90092,-21.8524,-1.76088,-9.81036,20.6829,-0.957768,7.12531,10.3036,-0.355531,4.04256,-2.38542e-15,-2.70347e-14,106.558,-54.8822,-75.7663,88.6622,6.88105,-50.9982,-0.210364,7.12502,-23.5469,-28.789,-2.38542e-15,-2.70347e-14,85.5454,58.7816,58.5977,74.615,20.2412,-29.8457,21.5614,7.12502,-3.16844,51.5176,4.90408,-6.68348,12.4066,41.5937,-23.5424,-5.83136,-16.3259,-10.3045,3.40489,-20.3261,35.8913,-18.3477,0.276416,-17.2965
-0.372147,17.357,-1.20549,-3.14682,-2.68958,2.77387,4.41448,-0.114226,-2.87942,-6.07368,-0.233704,2.21715,-8.87892,0.163224,4.00076,-21.6832,-1.80061,-9.82957,20.7226,-1.01931,7.10082,10.293,-0.3914,4.02717,-1.31198e-14,1.11319e-14,106.368,-54.8382,-75.9527,88.6828,6.88997,-51.0119,-0.607989,7.12502,-23.5601,-29.1849,-1.31198e-14,1.11319e-14,85.1233,58.4961,58.543,74.3884,20.3304,-29.7177,21.0062,7.12502,-3.0448,50.9642,4.26447,-7.10435,11.9554,43.2377,-22.4248,-5.53997,-15.8088,-10.0292,3.29521,-20.5343,35.6272,-18.3263,-0.118031,-17.1935
-0.3347,17.3636,-1.17211,-3.20507,-2.27845,2.78194,4.49787,-0.177682,-3.06673,-5.99841,-0.335399,2.23842,-8.8371,0.124754,4.14159,-21.5178,-1.80558,-9.81404,20.6391,-1.01811,6.99164,10.2321,-0.403785,3.98073,-3.57812e-15,4.77083e-15,106.078,-54.6179,-76.2102,88.7885,6.96662,-51.0961,-0.459346,7.12502,-23.6408,-29.0258,-3.57812e-15,4.77083e-15,84.5617,58.4447,58.2237,74.058,20.3019,-29.6364,20.6334,7.12502,-2.96634,50.5925,3.52969,-7.49091,11.5519,44.9527,-21.1566,-5.21037,-14.5945,-9.78903,3.22598,-20.6619,35.3579,-18.2946,-0.497536,-16.8879
-0.296464,17.3714,-1.13929,-3.25158,-1.8681,2.82696,4.56504,-0.216503,-3.2457,-5.85972,-0.4072,2.20398,-8.71845,0.0949526,4.21306,-21.625,-1.8785,-9.85594,20.6689,-1.10771,7.03827,10.2719,-0.441788,3.99349,-1.78906e-15,-2.22639e-14,105.876,-54.556,-76.4814,88.7496,7.10632,-51.2811,-0.484509,7.12502,-23.8182,-29.028,-1.78906e-15,-2.22639e-14,84.1744,58.356,58.0322,73.7236,20.1711,-29.8145,20.4525,7.12502,-3.13828,50.4091,2.70427,-7.90241,11.1015,46.7187,-19.696,-5.17101,-14.2145,-9.57042,3.19219,-20.8335,35.1058,-18.3367,-0.816541,-17.075
-0.259489,17.378,-1.10572,-3.28017,-1.41787,2.83754,4.61807,-0.247613,-3.38582,-5.73276,-0.464917,2.16749,-8.60548,0.0694623,4.25868,-21.7959,-1.94996,-10.1089,20.8511,-1.19774,7.38208,10.3813,-0.462258,4.1558,1.35174e-14,-7.95139e-15,105.6,-54.5965,-76.5195,88.5136,7.14095,-51.4542,-0.327882,7.12502,-23.9842,-28.8496,1.35174e-14,-7.95139e-15,83.7344,58.1702,57.8197,73.3763,20.1865,-30.0289,20.2894,7.12502,-3.3454,50.2429,1.80904,-8.31697,10.7193,48.525,-18.1337,-5.42611,-14.1763,-9.35052,3.07199,-20.9675,34.8601,-18.3183,-1.16552,-16.8749
-0.225757,17.3824,-1.07605,-3.32136,-0.987827,2.7578,4.72766,-0.304296,-3.45885,-5.61242,-0.549351,2.17617,-8.53016,0.0291741,4.31892,-21.6156,-2.13357,-10.1809,20.3785,-1.4024,7.25814,10.1989,-0.572506,4.07634,2.78299e-15,3.97569e-15,105.274,-54.5091,-76.5655,88.2693,7.00546,-51.5338,0.338404,7.12502,-24.0605,-28.1733,2.78299e-15,3.97569e-15,83.0571,58.1181,57.3438,73.0541,20.2698,-30.1231,20.237,7.12502,-3.43632,50.1891,0.878329,-8.67688,10.4408,50.3549,-16.5953,-5.62044,-12.9359,-9.13037,2.92397,-20.9962,34.6347,-18.2853,-1.48262,-16.8171
-0.193432,17.3847,-1.05184,-3.39308,-0.575547,2.84893,4.8821,-0.368425,-3.71067,-5.39447,-0.664781,2.13164,-8.37155,-0.0213711,4.42633,-21.8539,-2.27053,-10.2724,20.2324,-1.5372,7.27722,10.2049,-0.633777,4.07641,-5.96354e-16,-1.98785e-14,105.16,-54.4078,-76.8305,88.0187,6.86676,-51.4951,0.898583,7.12502,-24.0234,-27.618,-5.96354e-16,-1.98785e-14,82.6348,58.1984,56.9898,72.6475,20.2186,-30.1746,20.1643,7.12502,-3.48604,50.1156,-0.0912056,-9.0269,9.96226,52.1851,-15.0061,-5.85106,-11.9724,-8.92693,2.83962,-21.2002,34.4578,-18.3022,-1.82415,-16.2236
-0.159793,17.3846,-1.02851,-3.48569,-0.129058,3.02379,5.02457,-0.434225,-3.99663,-5.14929,-0.78806,2.04581,-8.17522,-0.0775717,4.50921,-22.0963,-2.27242,-10.2186,20.2225,-1.52675,7.25921,10.244,-0.623002,4.06406,2.38542e-15,-1.43125e-14,104.861,-54.3343,-76.9495,87.7822,6.94868,-51.3955,0.843975,7.12502,-23.9279,-27.6852,2.38542e-15,-1.43125e-14,82.233,58.1637,56.7809,72.324,19.9677,-30.0642,20.0999,7.12502,-3.37943,50.0529,-1.06724,-9.40514,9.37822,54.0106,-13.3052,-6.01237,-11.8225,-8.70253,2.67117,-21.5063,34.3258,-18.3141,-2.07165,-14.2275
-0.12907,17.39,-1.00767,-3.5506,0.220906,2.96461,5.20247,-0.466089,-4.05457,-4.94592,-0.84161,2.03375,-8.05277,-0.108206,4.53522,-22.213,-2.26657,-10.2361,20.1655,-1.50315,7.28067,10.2426,-0.608147,4.07773,-3.00165e-14,1.59028e-14,104.302,-54.2717,-76.754,87.4082,7.11111,-51.7089,0.437923,7.12502,-24.2284,-28.0514,-3.00165e-14,1.59028e-14,81.6298,58.0522,56.5587,72.0789,19.6249,-29.5804,20.2513,7.12502,-2.9122,50.2112,-2.10023,-9.65219,9.12987,55.8074,-11.4726,-6.33119,-10.4389,-8.50631,2.53919,-21.5381,34.1961,-18.3277,-2.32218,-16.3437
-0.10043,17.3925,-0.990249,-3.64113,0.481559,2.9334,5.4886,-0.470632,-4.14351,-4.76476,-0.867151,2.00139,-8.02109,-0.120989,4.55705,-22.3557,-2.36961,-10.3319,20.104,-1.60748,7.32395,10.2585,-0.655406,4.0933,-3.37934e-15,3.18055e-15,103.55,-54.1842,-76.3521,86.9496,7.09545,-52.1453,0.588578,7.12502,-24.6468,-27.8443,-3.37934e-15,3.18055e-15,80.9319,57.9925,56.0079,71.5968,19.4445,-28.769,20.549,7.12502,-2.12859,50.5182,-3.12321,-9.8373,8.85591,57.5745,-9.64518,-6.61256,-8.1045,-8.29045,2.5787,-21.5829,34.0641,-18.3556,-2.60918,-16.9566
-0.0735738,17.394,-0.969769,-3.67217,0.742736,3.07775,5.69395,-0.505718,-4.42676,-4.63475,-0.951038,1.95152,-7.99011,-0.151018,4.67689,-22.4003,-2.4046,-10.4232,20.0183,-1.6162,7.32107,10.2377,-0.664899,4.10407,2.5842e-15,-1.74931e-14,102.663,-53.9913,-75.8542,86.4759,7.00355,-52.3376,0.787825,7.12502,-24.8311,-27.6198,2.5842e-15,-1.74931e-14,79.9273,58.0762,54.8991,70.9008,19.6234,-28.4269,20.4636,7.12502,-1.79823,50.4357,-4.18281,-10.0734,8.37271,59.2991,-8.20244,-6.5022,-6.47218,-8.14423,2.62712,-21.8271,33.9539,-18.3439,-2.86362,-16.674
-0.0483969,17.3994,-0.949634,-3.6233,0.937691,3.14937,5.77146,-0.507244,-4.57663,-4.49398,-0.973027,1.8924,-7.88023,-0.161619,4.7004,-22.4011,-2.43171,-10.431,19.8873,-1.62233,7.22399,10.1909,-0.677935,4.06518,-1.21259e-14,6.36111e-15,101.873,-53.8789,-75.4321,86.0546,6.73219,-52.244,0.708117,7.12502,-24.7414,-27.7119,-1.21259e-14,6.36111e-15,78.9948,58.0494,53.9439,70.3422,19.9242,-28.752,20.4933,7.12502,-2.11218,50.4626,-5.37937,-10.2144,8.06552,60.9426,-7.18557,-6.45478,-5.47756,-8.09501,2.6017,-22.0046,33.84,-18.3245,-2.9776,-16.6086
-0.0266489,17.4012,-0.933504,-3.60247,1.106,2.98843,5.93355,-0.48775,-4.49668,-4.33855,-0.946858,1.8571,-7.81063,-0.159691,4.61488,-22.3996,-2.50001,-10.496,19.7381,-1.70186,7.27035,10.1462,-0.711579,4.07692,2.31584e-14,-1.98785e-14,101.084,-53.8503,-74.9854,85.5895,6.25742,-52.1533,1.34337,7.12502,-24.6544,-27.0885,2.31584e-14,-1.98785e-14,78.3139,57.8774,53.3383,69.8544,19.8966,-29.0735,20.8798,7.12502,-2.4227,50.8458,-6.57679,-10.2729,8.10424,62.4884,-6.74519,-6.59333,-4.47932,-8.04805,2.49552,-21.9046,33.719,-18.3031,-3.0666,-16.5995
-0.00849085,17.4006,-0.921768,-3.63239,1.31457,2.8504,6.25335,-0.470818,-4.45843,-4.17674,-0.935461,1.80939,-7.82448,-0.16045,4.54529,-22.4665,-2.5883,-10.5899,19.5324,-1.80348,7.37317,10.0968,-0.748884,4.10979,1.32192e-14,4.77083e-15,100.279,-53.8511,-74.3661,84.8728,6.19163,-52.0927,1.57637,7.12502,-24.5963,-26.8634,1.32192e-14,4.77083e-15,77.7165,57.7375,52.729,69.2477,19.7137,-29.1009,20.8925,7.12502,-2.44912,50.8581,-7.67268,-10.3333,8.14743,63.8855,-6.79311,-6.61938,-3.6497,-7.98029,2.33884,-21.8258,33.6309,-18.282,-3.10783,-16.462
0.00880927,17.4037,-0.908709,-3.65711,1.52259,2.85174,6.48583,-0.455433,-4.54746,-3.94994,-0.935259,1.7457,-7.71531,-0.165459,4.5289,-22.6051,-2.65946,-10.5827,19.2846,-1.86233,7.29879,10.0385,-0.778251,4.06687,9.83984e-15,-1.59028e-15,99.5271,-53.8659,-73.7177,84.1165,6.37227,-51.8096,1.4145,7.12502,-24.3249,-27.062,9.83984e-15,-1.59028e-15,77.1372,57.7104,52.1201,68.6115,19.6036,-29.01,20.5398,7.12502,-2.36134,50.5065,-8.72636,-10.3952,8.02949,65.0926,-7.06907,-6.49191,-2.50438,-7.8914,2.20953,-21.9054,33.5787,-18.2889,-3.11641,-16.3262
0.02456,17.4074,-0.894934,-3.65956,1.71903,2.85977,6.65255,-0.44221,-4.64076,-3.7377,-0.936725,1.66895,-7.58361,-0.172013,4.50005,-22.5896,-2.68779,-10.4833,18.9791,-1.88434,7.12465,9.92635,-0.797056,3.9757,9.24349e-15,-3.18055e-15,98.6126,-53.8376,-73.0631,83.41,6.77096,-51.5988,1.51086,7.12502,-24.1229,-26.9925,9.24349e-15,-3.18055e-15,76.5284,57.6084,51.5003,67.9971,19.5366,-28.8263,20.3322,7.12502,-2.18397,50.3007,-9.77131,-10.425,7.91505,66.088,-7.53234,-6.18652,-1.33243,-7.80977,2.14646,-21.9721,33.5258,-18.284,-3.22827,-16.2415
0.0392311,17.4097,-0.881358,-3.67272,1.94515,2.7237,6.85506,-0.454116,-4.60602,-3.53042,-0.95627,1.65593,-7.4763,-0.191295,4.46979,-22.6046,-2.69936,-10.5093,18.6704,-1.86753,7.07589,9.81742,-0.791746,3.95725,-1.12313e-14,1.66979e-14,97.6582,-53.7954,-72.2382,82.6103,7.18659,-51.6199,1.38682,7.12502,-24.1431,-27.1139,-1.12313e-14,1.66979e-14,75.9126,57.5131,50.9076,67.4183,19.5094,-28.7213,20.2848,7.12502,-2.08251,50.2544,-10.7626,-10.4695,7.98159,66.8607,-8.1433,-6.03381,-1.01807,-7.75128,2.04405,-21.8714,33.4595,-18.2858,-3.38091,-16.0614
0.051981,17.4151,-0.867215,-3.70579,2.17186,2.57783,7.09755,-0.451936,-4.54286,-3.30031,-0.956053,1.63317,-7.37037,-0.202837,4.41107,-22.8555,-2.77555,-10.6416,18.5715,-1.91759,7.16465,9.83439,-0.808653,4.00284,-3.67752e-15,5.56597e-15,96.6337,-53.7938,-71.2549,81.7757,7.36182,-51.6291,1.31447,7.12502,-24.1519,-27.1851,-3.67752e-15,5.56597e-15,75.2182,57.4111,50.2557,66.8687,19.4562,-28.6552,20.1361,7.12502,-2.01867,50.1063,-11.6815,-10.5213,8.08579,67.4225,-8.6254,-6.13303,-1.84649,-7.65892,1.91717,-21.7664,33.3863,-18.3261,-3.42045,-16.2816
0.0638987,17.4247,-0.85088,-3.74306,2.36892,2.44346,7.30312,-0.438341,-4.43051,-3.08234,-0.937318,1.55891,-7.2593,-0.20872,4.26666,-22.8797,-2.82681,-10.7865,18.4074,-1.97446,7.34909,9.78965,-0.820613,4.08134,-5.86415e-15,-1.03368e-14,95.4202,-53.7945,-70.1768,80.9511,7.50684,-51.6075,1.16499,7.12502,-24.1312,-27.3373,-5.86415e-15,-1.03368e-14,74.5534,57.1858,49.6993,66.3889,19.1451,-28.4079,20.0927,7.12502,-1.77985,50.065,-12.528,-10.5405,8.18182,67.7841,-8.95185,-6.25573,-2.34889,-7.526,1.85427,-21.6784,33.3037,-18.418,-3.4263,-16.9449
0.0737422,17.4331,-0.833436,-3.7575,2.60428,2.31264,7.44829,-0.480682,-4.37824,-2.92586,-0.993735,1.54311,-7.17015,-0.244948,4.22816,-22.4695,-2.79188,-10.9035,18.0271,-1.9309,7.3956,9.57988,-0.803667,4.11216,-9.44227e-16,-1.27222e-14,94.1718,-53.57,-69.0707,80.0926,7.90315,-51.319,0.798365,7.12502,-23.8546,-27.7404,-9.44227e-16,-1.27222e-14,73.5015,56.9576,48.8932,65.9875,18.8512,-28.2098,19.9687,7.12502,-1.58857,49.9425,-13.3568,-10.5764,8.26685,67.9858,-9.25194,-6.373,-3.33116,-7.41736,1.7357,-21.5875,33.1992,-18.4059,-3.49393,-16.9343
0.0801157,17.4414,-0.818332,-3.72723,2.88247,2.22399,7.5561,-0.534199,-4.44046,-2.75657,-1.07297,1.56068,-7.0418,-0.28765,4.29194,-22.2297,-2.75587,-10.9605,17.7761,-1.86578,7.33006,9.44277,-0.784634,4.09994,1.01877e-14,7.95139e-15,92.9288,-53.2289,-67.9523,79.2855,8.20589,-51.0868,0.515902,7.12502,-23.6319,-28.0517,1.01877e-14,7.95139e-15,72.6098,56.8013,48.2293,65.4993,18.3838,-27.8376,19.7996,7.12502,-1.22908,49.7758,-14.2117,-10.648,8.32786,68.0375,-9.51982,-6.51104,-4.35565,-7.36018,1.57243,-21.5341,33.0654,-18.3483,-3.59729,-16.7066
0.0857287,17.4491,-0.805944,-3.70074,3.15104,2.19474,7.71171,-0.501739,-4.42041,-2.42411,-1.03719,1.44214,-6.78209,-0.287956,4.14776,-22.7998,-2.86144,-10.9702,17.8482,-1.95282,7.36511,9.578,-0.813867,4.10644,2.21645e-14,-9.14409e-15,91.9077,-53.3244,-66.9602,78.457,8.07263,-50.8395,0.505752,7.12502,-23.3946,-28.0923,2.21645e-14,-9.14409e-15,72.9068,56.5569,48.7049,64.9876,17.2877,-26.7951,19.9607,7.12502,-0.222207,49.9403,-15.0278,-10.7119,8.31433,67.9399,-9.72539,-6.60929,-4.13785,-7.27686,1.38043,-21.5452,32.8993,-18.2894,-3.63431,-16.4846
0.0914847,17.4555,-0.793271,-3.62641,3.33776,2.13002,7.92743,-0.521646,-4.4978,-2.5802,-1.08348,1.449,-7.06727,-0.295605,4.21318,-21.604,-2.6657,-11.043,17.5739,-1.78493,7.353,9.2546,-0.756485,4.12492,-8.69683e-15,4.37326e-15,89.6636,-52.9115,-64.8046,77.5797,7.88123,-49.8904,0.118325,7.12502,-22.4839,-28.5928,-8.69683e-15,4.37326e-15,71.2357,55.9191,47.5625,64.5864,16.525,-26.3156,20.0019,7.12502,0.240964,49.9815,-15.8996,-10.6973,8.38024,67.6826,-9.94132,-6.87191,-2.66247,-7.22121,1.21124,-21.5145,32.7358,-18.2033,-3.61073,-15.1715
0.0961307,17.4618,-0.779846,-3.57583,3.5176,2.0476,8.10939,-0.448329,-4.39843,-2.34353,-0.986354,1.33963,-6.93192,-0.263428,4.02773,-22.0235,-2.74057,-10.925,17.7342,-1.86034,7.25115,9.39012,-0.791119,4.0644,-1.89839e-14,9.14409e-15,88.3412,-53.0676,-63.3973,76.6827,7.64901,-50.3153,0.515888,7.12502,-22.8917,-28.1453,-1.89839e-14,9.14409e-15,70.6738,55.5079,47.2678,64.2529,16.2044,-26.6043,19.8238,7.12502,-0.0379559,49.8035,-16.7072,-10.6396,8.4977,67.2361,-10.2394,-7.20698,-1.60778,-7.15159,1.07698,-21.4508,32.5888,-18.1165,-3.62273,-11.9626
0.099225,17.4712,-0.767485,-3.43053,3.74192,2.05772,8.15321,-0.42396,-4.38117,-2.06421,-0.956755,1.2267,-6.66395,-0.265096,3.89069,-22.548,-2.79805,-10.8677,17.9334,-1.87923,7.14042,9.55295,-0.803871,4.01993,-2.55935e-15,3.37934e-14,87.4265,-53.0332,-62.4148,75.6291,7.70489,-49.0393,0.576385,7.12502,-21.6668,-28.2313,-2.55935e-15,3.37934e-14,70.2399,55.2842,47.0152,63.8422,15.8383,-26.5323,19.6044,7.12502,0.0316399,49.5842,-17.5457,-10.6197,8.54576,66.6223,-10.5607,-7.51688,-1.95834,-7.25637,1.00128,-21.482,32.4589,-18.0634,-3.78801,-11.9772
0.0989978,17.4832,-0.753786,-3.23141,3.96445,1.94759,8.15488,-0.431533,-4.29013,-1.93377,-0.959011,1.1649,-6.5277,-0.277402,3.77207,-22.6233,-2.76902,-10.8297,18.1041,-1.83339,7.07522,9.62079,-0.789208,4.00134,-1.00138e-14,-4.37326e-15,86.0991,-52.7333,-61.1823,74.656,8.17423,-49.2667,1.11006,7.12502,-21.8851,-27.6722,-1.00138e-14,-4.37326e-15,69.4606,54.9066,46.4488,63.3845,15.4385,-26.2091,19.4571,7.12502,0.343782,49.4366,-18.3966,-10.5966,8.78297,65.8437,-10.9167,-7.86223,-2.46352,-7.43857,0.883408,-21.3654,32.3479,-17.9854,-3.91685,-12.796
0.0944847,17.4922,-0.737197,-3.10791,4.14768,1.75436,8.21209,-0.412331,-4.1515,-1.79744,-0.922765,1.10227,-6.42139,-0.271589,3.62178,-22.6618,-2.70924,-10.7917,18.316,-1.78404,7.15318,9.69754,-0.757392,4.03591,2.23633e-15,4.77083e-15,84.6146,-52.4749,-59.8565,73.8293,8.56495,-51.5275,-0.0414338,7.12502,-24.0545,-28.5539,2.23633e-15,4.77083e-15,68.5043,54.4113,45.7163,63.0566,15.3369,-25.8228,19.177,7.12502,0.716918,49.1556,-19.1341,-10.4529,9.09634,64.9333,-11.4603,-8.18396,-1.64069,-7.50238,0.790561,-21.1386,32.2547,-17.9589,-3.99375,-14.5303
0.0885864,17.4976,-0.722108,-3.04873,4.36477,1.71333,8.34533,-0.38063,-4.20983,-1.62126,-0.894153,1.0261,-6.31369,-0.262757,3.57073,-22.5862,-2.66132,-10.7141,18.4243,-1.7472,7.11631,9.71751,-0.741933,4.01744,1.75924e-14,-1.55052e-14,83.1462,-52.2591,-58.4447,72.9832,8.76864,-51.4814,-0.155795,7.12502,-24.0103,-28.6741,1.75924e-14,-1.55052e-14,67.6071,53.8684,45.2102,62.8344,15.1259,-25.6639,19.0228,7.12502,0.870345,49.0008,-19.7301,-10.2963,9.19983,63.9023,-12.1575,-8.41009,-0.431685,-7.46649,0.662758,-21.0741,32.156,-17.9724,-4.05785,-15.1567
0.0819347,17.5023,-0.709663,-2.94166,4.57537,1.70671,8.48224,-0.358827,-4.34765,-1.52541,-0.886084,0.995743,-6.28996,-0.256584,3.61697,-22.5407,-2.636,-10.4142,18.898,-1.70563,6.58223,9.86653,-0.772707,3.79183,2.98177e-16,-1.35174e-14,81.4594,-51.9755,-56.7628,72.1693,8.83461,-49.338,0.907958,7.12502,-21.9536,-27.8663,2.98177e-16,-1.35174e-14,66.5785,53.2449,44.7502,62.5997,14.6259,-25.6688,18.9582,7.12502,0.865639,48.9361,-20.3446,-10.1872,9.31825,62.7451,-12.7731,-8.85452,0.231438,-7.52344,0.551405,-21.0412,32.0669,-17.9259,-4.18915,-14.8681
0.0749572,17.5064,-0.697249,-2.78394,4.75765,1.67086,8.56301,-0.361828,-4.41,-1.43675,-0.90172,0.949247,-6.24052,-0.265821,3.60566,-22.7357,-2.61262,-9.94355,19.6863,-1.65439,5.85134,10.1693,-0.813021,3.47524,4.79568e-15,-4.96962e-15,80.0627,-51.5538,-55.4838,71.4491,9.01828,-49.3238,1.4059,7.12502,-21.94,-27.37,4.79568e-15,-4.96962e-15,65.7896,52.6384,44.5684,62.4354,14.3175,-25.0872,18.6512,7.12502,1.42739,48.6262,-20.9944,-10.0543,9.51459,61.4749,-13.2532,-9.70957,-0.205586,-7.65219,0.415029,-20.9783,31.9945,-17.862,-4.24367,-14.9046
0.069789,17.5122,-0.684582,-2.54991,4.97314,1.56178,8.53135,-0.388753,-4.31031,-1.30246,-0.926155,0.895694,-6.07972,-0.289109,3.49365,-22.7569,-2.55519,-9.83839,20.067,-1.57328,5.67713,10.3013,-0.795487,3.41518,-5.17461e-15,-1.80894e-14,78.7642,-51.1857,-54.2635,70.7586,9.0877,-49.2123,1.87873,7.12502,-21.8329,-26.9097,-5.17461e-15,-1.80894e-14,65.4672,52.055,44.9903,62.3547,13.8091,-24.3483,18.2648,7.12502,2.141,48.2338,-21.6667,-9.93476,9.74689,60.0715,-13.6728,-10.4894,-0.586751,-7.88031,0.278597,-20.8513,31.9573,-17.8415,-4.28536,-14.8711
0.06219,17.5174,-0.671991,-2.33067,5.18479,1.53924,8.51986,-0.374133,-4.28096,-1.17558,-0.906597,0.793536,-5.94254,-0.288128,3.36501,-22.4603,-2.49637,-9.97512,20.165,-1.5293,5.88101,10.2814,-0.766126,3.5198,-1.80397e-14,-1.68967e-14,77.1705,-50.8486,-52.7924,70.1063,9.12908,-49.1762,2.15767,7.12502,-21.7982,-26.6348,-1.80397e-14,-1.68967e-14,64.8152,51.3242,44.9325,62.131,12.9611,-24.6531,18.3365,7.12502,1.84657,48.3082,-22.268,-9.75527,9.84408,58.567,-14.3202,-10.7816,0.419718,-8.06806,0.133249,-20.8171,31.9256,-17.8663,-4.275,-14.9494
0.0502323,17.5222,-0.658005,-2.15219,5.39602,1.51014,8.56518,-0.357035,-4.30162,-1.04393,-0.890117,0.712614,-5.83158,-0.285829,3.2886,-22.3017,-2.44405,-10.0817,20.4591,-1.48212,6.03439,10.3565,-0.741309,3.60681,-8.0601e-16,-3.37934e-15,75.5842,-50.3785,-51.4299,69.5706,9.16807,-49.2657,2.46816,7.12502,-21.8842,-26.3142,-8.0601e-16,-3.37934e-15,63.7228,50.6043,44.311,61.9247,12.444,-25.1619,18.6951,7.12502,1.35521,48.6705,-22.7706,-9.62346,9.98842,56.959,-15.0127,-10.9258,1.24598,-8.22091,-0.00789202,-20.7535,31.9113,-17.9053,-4.29259,-15.1787
0.0374525,17.5269,-0.642953,-1.96999,5.64648,1.49251,8.6482,-0.361479,-4.33169,-0.941835,-0.905131,0.639724,-5.77032,-0.296761,3.23122,-22.0921,-2.39744,-10.2614,20.7804,-1.43334,6.22166,10.4328,-0.718832,3.71947,1.40003e-15,9.93923e-17,74.2526,-49.9217,-50.3789,69.0414,9.8804,-48.8313,2.46093,7.12502,-21.467,-26.3696,1.40003e-15,9.93923e-17,62.6605,49.8661,43.7859,61.7718,12.2214,-25.1772,18.7446,7.12502,1.34041,48.7201,-23.2034,-9.60501,10.1305,55.2454,-15.4363,-11.1742,1.10284,-8.40039,-0.172245,-20.6967,31.9197,-17.9911,-4.36618,-15.2646
0.024278,17.5291,-0.631046,-1.77713,5.9121,1.47524,8.77258,-0.349416,-4.36271,-0.897807,-0.900948,0.57543,-5.7954,-0.29484,3.18233,-21.5883,-2.35695,-10.493,20.9972,-1.41458,6.43777,10.4201,-0.712768,3.84271,-1.97606e-14,-5.96354e-15,73.3452,-49.5986,-49.8128,68.4409,12.1205,-47.3936,1.80164,7.12502,-20.0856,-27.1801,-1.97606e-14,-5.96354e-15,61.7334,49.0194,43.5127,61.6184,12.2542,-24.7319,18.5486,7.12502,1.77053,48.521,-23.6214,-9.53712,10.2379,53.437,-15.8203,-11.4416,1.26603,-8.62656,-0.369446,-20.6323,31.9602,-18.0312,-4.4671,-14.7149
0.00921568,17.5309,-0.619973,-1.6187,6.11121,1.31646,8.86285,-0.309564,-4.27357,-0.744402,-0.840942,0.543088,-5.69129,-0.273766,3.08986,-21.3175,-2.31501,-10.6226,21.2599,-1.39416,6.61341,10.4653,-0.700867,3.93735,-1.21468e-14,3.97569e-15,71.7713,-49.1866,-48.4444,67.9073,12.3544,-47.2531,1.93601,7.12502,-19.9506,-27.0599,-1.21468e-14,3.97569e-15,61.0175,48.2386,43.4727,61.4475,12.0055,-24.4142,18.4144,7.12502,2.0773,48.384,-24.0197,-9.43756,10.5304,51.5352,-15.9126,-11.8281,0.916355,-8.81881,-0.564545,-20.4144,32.013,-18.0979,-4.43562,-14.8027
-0.00816581,17.5341,-0.609051,-1.4686,6.29911,1.13068,8.98614,-0.285061,-4.13742,-0.565342,-0.798286,0.491287,-5.57801,-0.263294,2.95305,-21.2407,-2.21857,-10.5839,21.6755,-1.29349,6.62588,10.592,-0.658843,3.96181,7.05064e-16,-7.7526e-15,70.1999,-48.7519,-47.2368,67.5384,12.6336,-47.2002,2.00751,7.12502,-19.8998,-26.9937,7.05064e-16,-7.7526e-15,60.0377,47.4007,43.1031,61.2646,11.0117,-25.2119,19.048,7.12502,1.30693,49.0237,-24.3668,-9.32035,10.8453,49.5792,-15.8326,-12.1259,1.05865,-9.02752,-0.720951,-20.1589,32.0747,-18.1492,-4.38447,-15.186
-0.0273537,17.5396,-0.597189,-1.31385,6.50164,0.987948,9.10207,-0.250145,-4.05484,-0.437338,-0.74822,0.438118,-5.51426,-0.245292,2.84446,-21.0866,-2.08141,-10.3315,22.2496,-1.12781,6.29465,10.7544,-0.615621,3.83727,-7.51383e-15,6.33626e-15,68.5482,-48.2368,-45.9759,67.2112,12.9976,-47.1004,1.88217,7.12502,-19.8038,-27.1289,-7.51383e-15,6.33626e-15,59.299,46.5891,43.1386,61.3321,11.5483,-24.0623,18.6585,7.12502,2.41717,48.6245,-24.6454,-9.07529,11.0387,47.5799,-15.8793,-12.1234,2.94411,-9.24371,-0.853844,-19.929,32.1261,-18.1675,-4.46349,-15.2161
-0.044657,17.5431,-0.586157,-1.05216,6.70337,0.967474,9.12167,-0.23197,-4.06926,-0.396559,-0.72853,0.38412,-5.48447,-0.237255,2.79322,-20.6648,-1.94919,-10.2305,22.7551,-0.962074,6.0358,10.8442,-0.578237,3.76051,-1.3722e-14,2.62147e-15,66.8963,-47.5507,-44.7143,66.8858,13.3724,-46.8961,1.87559,7.12502,-19.6074,-27.1557,-1.3722e-14,2.62147e-15,58.1015,45.6189,42.8004,61.2144,11.2586,-23.742,18.3453,7.12502,2.72657,48.3077,-25.0048,-8.82437,11.0873,45.5468,-15.7002,-12.0938,4.31577,-9.54897,-1.02155,-19.8451,32.1484,-18.1478,-4.50972,-15.0478
-0.0643827,17.5434,-0.575039,-0.785787,6.92794,1.00526,9.14574,-0.237004,-4.16543,-0.314042,-0.746808,0.348594,-5.40924,-0.247054,2.8123,-20.3301,-1.86596,-10.26,23.2772,-0.819991,5.81477,10.9614,-0.55826,3.71696,-1.00557e-14,-6.63444e-15,65.3981,-46.8337,-43.5579,66.6677,13.601,-46.6755,1.77842,7.12502,-19.3953,-27.2743,-1.00557e-14,-6.63444e-15,56.8456,44.7021,42.5209,61.1319,10.838,-23.7452,17.9602,7.12502,2.72339,47.9226,-25.3199,-8.6353,11.0883,43.4714,-15.262,-12.05,5.02386,-9.8517,-1.17893,-19.8114,32.1603,-18.1246,-4.54187,-15.1725
-0.0866356,17.5447,-0.563894,-0.638718,7.18333,0.998017,9.31395,-0.238552,-4.23816,-0.146345,-0.761765,0.328388,-5.32596,-0.257241,2.83511,-20.2466,-1.84061,-10.2561,23.896,-0.727467,5.54352,11.1692,-0.564802,3.64616,-4.18069e-15,1.3418e-15,63.8965,-46.1563,-42.4058,66.4927,13.7837,-46.5648,1.57737,7.12502,-19.2889,-27.486,-4.18069e-15,1.3418e-15,55.6762,43.8385,42.4036,61.2174,10.6593,-23.8209,17.9555,7.12502,2.65035,47.9188,-25.4661,-8.42706,11.1212,41.3562,-14.6495,-12.05,5.4511,-10.0154,-1.34025,-19.7155,32.1927,-18.1291,-4.58136,-15.1447
-0.10919,17.5466,-0.554731,-0.465561,7.38637,0.972031,9.48626,-0.233346,-4.26105,0.00482709,-0.765504,0.260145,-5.26436,-0.263133,2.77817,-20.0928,-1.74556,-10.1149,24.4616,-0.597316,5.31263,11.3404,-0.536444,3.57073,1.70831e-15,-1.0138e-14,62.3012,-45.4614,-41.3195,66.3883,13.9593,-46.4211,1.80067,7.12502,-19.1507,-27.2765,1.70831e-15,-1.0138e-14,54.6263,42.9573,42.3858,61.3173,10.1717,-23.5913,18.3245,7.12502,2.87204,48.2849,-25.6481,-8.07816,11.1644,39.2184,-14.0336,-12.0614,5.6758,-10.2115,-1.50503,-19.5989,32.2514,-18.1772,-4.60811,-15.0329
-0.13389,17.5473,-0.546702,-0.227976,7.5772,0.938821,9.57146,-0.219404,-4.29868,0.181201,-0.753238,0.213104,-5.128,-0.262643,2.74812,-20.0038,-1.65144,-10.1117,25.0812,-0.451418,5.2176,11.5459,-0.497863,3.57404,-9.69075e-16,-7.05686e-15,60.8485,-44.7358,-40.3954,66.3802,14.249,-46.2451,2.30572,7.12502,-18.9814,-26.7881,-9.69075e-16,-7.05686e-15,53.6593,42.0863,42.523,61.3861,9.41413,-22.9611,18.5563,7.12502,3.48068,48.5077,-25.8652,-7.6169,11.2007,37.0655,-13.332,-12.0913,5.64442,-10.5304,-1.59651,-19.4615,32.3289,-18.229,-4.699,-15.1518
-0.161543,17.5458,-0.536581,-0.0301969,7.80167,0.886235,9.61397,-0.209926,-4.33681,0.414177,-0.742664,0.177715,-4.90799,-0.265719,2.72977,-19.837,-1.61237,-10.1173,25.6502,-0.378519,5.09219,11.7261,-0.49702,3.55418,-2.01269e-14,3.8763e-15,59.4855,-43.9574,-39.6741,66.5106,14.6265,-45.8988,2.60573,7.12502,-18.6484,-26.5204,-2.01269e-14,3.8763e-15,52.6002,41.1536,42.529,61.4476,9.0651,-22.5709,18.6271,7.12502,3.85752,48.5719,-25.9646,-7.14875,11.2438,34.8905,-12.511,-12.1662,5.62988,-10.8402,-1.55038,-19.2887,32.4292,-18.2916,-4.8754,-15.5505
-0.189607,17.5467,-0.526658,0.189319,8.00275,0.838681,9.71178,-0.167272,-4.32876,0.564877,-0.689112,0.113089,-4.80978,-0.244719,2.65048,-19.5037,-1.59879,-10.0727,26.2012,-0.357649,4.90646,11.8729,-0.523383,3.49279,-1.3654e-14,5.36719e-15,57.8889,-43.1799,-38.8046,66.7,14.9294,-45.505,2.77241,7.12502,-18.2695,-26.3896,-1.3654e-14,5.36719e-15,51.511,39.9884,42.5752,61.5345,8.80253,-22.9942,19.0492,7.12502,3.44869,49.001,-26.0298,-6.58734,11.2366,32.7107,-11.7911,-12.2926,5.48492,-11.1502,-1.52978,-19.1184,32.5325,-18.34,-5.03542,-15.6158
-0.218525,17.5512,-0.515805,0.418716,8.24396,0.757539,9.76516,-0.158545,-4.27416,0.748298,-0.671847,0.0588594,-4.64987,-0.244273,2.55998,-19.3955,-1.56979,-10.0238,26.9059,-0.295471,4.74341,12.1228,-0.530774,3.45197,2.95941e-14,-2.78299e-15,56.4702,-42.3601,-38.1799,66.9027,15.4304,-45.345,2.69387,7.12502,-18.1156,-26.4825,2.95941e-14,-2.78299e-15,50.5358,38.8393,42.8716,61.6978,8.29938,-23.8652,20.0299,7.12502,2.6075,49.9937,-26.0269,-5.84102,11.184,30.5274,-11.4474,-12.6416,5.46548,-11.4773,-1.54772,-18.9067,32.654,-18.426,-5.15057,-15.9086
-0.247892,17.5507,-0.503418,0.677801,8.49602,0.767934,9.72963,-0.163727,-4.31441,0.99239,-0.677833,-0.0102862,-4.37429,-0.256934,2.50902,-19.4277,-1.5808,-10.0296,27.6269,-0.271609,4.63797,12.4152,-0.55376,3.43819,-4.96962e-16,-1.98785e-15,55.2908,-41.3833,-37.9584,67.2207,16.1288,-45.3542,2.28185,7.12502,-18.1244,-26.8937,-4.96962e-16,-1.98785e-15,49.6064,37.7513,43.2423,61.8461,7.97118,-23.9281,20.2579,7.12502,2.54678,50.2225,-25.9932,-4.93241,10.9548,28.3545,-11.2954,-13.0564,6.04755,-11.8355,-1.6398,-18.7926,32.8019,-18.5087,-5.24516,-16.1486
-0.279728,17.545,-0.495704,0.9427,8.74708,0.671689,9.83464,-0.148221,-4.26176,1.15982,-0.652781,-0.0276687,-4.26035,-0.250545,2.45801,-19.3642,-1.6167,-10.0785,28.3611,-0.264017,4.49077,12.7005,-0.595738,3.41244,4.29872e-15,-1.35174e-14,53.9454,-40.3668,-37.627,67.6809,16.7013,-45.175,1.97614,7.12502,-17.9521,-27.2153,4.29872e-15,-1.35174e-14,48.5003,36.5475,43.592,62.0787,7.82831,-23.4234,20.2965,7.12502,3.03425,50.2547,-25.9985,-3.93349,10.8191,26.2621,-11.1119,-13.4701,6.41479,-12.2695,-1.71675,-18.5466,32.9692,-18.5854,-5.41052,-16.3564
-0.313466,17.5418,-0.489222,1.18306,9.06936,0.457693,9.98986,-0.157476,-4.10717,1.28288,-0.650892,0.00329563,-4.21964,-0.254475,2.40397,-18.9665,-1.61822,-10.0581,28.8969,-0.225121,4.21234,12.8366,-0.630252,3.3191,8.64713e-15,-7.15625e-15,52.3847,-39.3101,-37.1347,68.2329,17.0318,-44.8492,1.90759,7.12502,-17.6386,-27.3123,8.64713e-15,-7.15625e-15,47.25,35.2658,43.9319,62.3433,7.72565,-23.2793,20.5954,7.12502,3.17341,50.5516,-25.9723,-2.8386,10.7487,24.3269,-11.2955,-13.9832,6.74364,-12.7148,-1.82031,-18.1609,33.141,-18.663,-5.59106,-16.4638
-0.348234,17.5382,-0.481352,1.38425,9.42242,0.385911,10.1758,-0.197594,-4.0973,1.45043,-0.706254,0.021127,-4.14386,-0.285736,2.42547,-18.6808,-1.59214,-10.1174,29.5061,-0.124893,4.00164,13.023,-0.639639,3.27835,-2.72832e-14,-2.38542e-15,50.9254,-38.0993,-36.8117,68.8752,17.1134,-44.836,1.96132,7.12502,-17.6258,-27.2598,-2.72832e-14,-2.38542e-15,45.6308,33.9536,43.9112,62.6759,7.90628,-23.3766,20.8935,7.12502,3.0794,50.851,-25.8519,-1.84622,10.5197,22.5615,-11.6719,-14.5489,6.57452,-13.0609,-1.96318,-17.9253,33.337,-18.6991,-5.78261,-16.4937
-0.383801,17.5358,-0.473366,1.61058,9.75736,0.443552,10.314,-0.245787,-4.2093,1.65624,-0.782795,0.0292122,-3.99824,-0.327922,2.50747,-18.6488,-1.56895,-10.2783,30.328,0.0333302,3.81709,13.3519,-0.639032,3.28286,-3.38928e-14,8.74653e-15,49.5341,-36.7975,-36.5197,69.5,17.0255,-45.0653,2.09403,7.12502,-17.8465,-27.1071,-3.38928e-14,8.74653e-15,43.7553,32.5967,43.6006,63.0531,8.31494,-23.4286,21.0301,7.12502,3.02924,50.9883,-25.7561,-0.938145,10.1752,20.9994,-12.1159,-15.0633,6.43615,-13.3946,-2.08403,-17.8218,33.542,-18.6649,-6.00996,-16.6145
-0.419762,17.5306,-0.465617,1.86186,10.0824,0.378707,10.3848,-0.279673,-4.16643,1.85215,-0.819832,0.0495031,-3.83035,-0.353112,2.50876,-18.4894,-1.53671,-10.3685,31.0555,0.177216,3.6083,13.6204,-0.638965,3.25916,-4.47266e-16,3.97569e-15,48.0341,-35.4721,-36.1668,70.1123,17.0003,-45.1857,2.08786,7.12502,-17.9623,-27.1027,-4.47266e-16,3.97569e-15,42.1932,31.2095,43.7858,63.4132,8.5103,-23.1692,20.9704,7.12502,3.27972,50.9249,-25.7888,0.0819865,9.92825,19.6679,-12.9145,-15.6194,7.25794,-13.8286,-2.13652,-17.5762,33.7547,-18.6431,-6.30098,-16.5455
-0.456003,17.52,-0.456593,2.182,10.4002,0.404803,10.3983,-0.284949,-4.17557,2.08089,-0.823002,0.0206297,-3.59897,-0.362918,2.48241,-18.5002,-1.52467,-10.4698,31.9508,0.272634,3.54969,14.0075,-0.64771,3.29692,-2.9768e-14,3.77691e-15,46.6278,-34.1905,-36.0523,70.792,16.914,-45.0666,2.21418,7.12502,-17.8477,-26.9868,-2.9768e-14,3.77691e-15,41.0168,29.8285,44.5107,63.7537,8.60342,-22.8468,21.0471,7.12502,3.59101,50.9966,-25.9433,0.927446,9.62895,18.5474,-13.7167,-16.0521,8.21625,-14.3383,-2.20925,-17.4352,33.9786,-18.688,-6.52852,-16.5728
