JuanDHNZ/ProyectoFinalCD/preprocessing/sports_trials_csv/14_10.csv
root1,root2,root3,root4,root5,root6,lowerback1,lowerback2,lowerback3,upperback1,upperback2,upperback3,thorax1,thorax2,thorax3,lowerneck1,lowerneck2,lowerneck3,upperneck1,upperneck2,upperneck3,head1,head2,head3,rclavicle1,rclavicle2,rhumerus1,rhumerus2,rhumerus3,rradius1,rwrist1,rhand1,rhand2,rfingers1,rthumb1,rthumb2,lclavicle1,lclavicle2,lhumerus1,lhumerus2,lhumerus3,lradius1,lwrist1,lhand1,lhand2,lfingers1,lthumb1,lthumb2,rfemur1,rfemur2,rfemur3,rtibia1,rfoot1,rfoot2,rtoes1,lfemur1,lfemur2,lfemur3,ltibia1,lfoot1,lfoot2,ltoes1
0.531012,17.9082,-0.697009,2.18047,-6.73644,2.77877,-0.387811,-1.67259,-6.00045,-1.51598,-2.241,1.6168,-1.05339,-1.04795,5.04665,-22.2349,-8.8464,-13.3075,24.3154,-10.093,7.58811,12.9265,-4.75433,3.27404,7.46685e-15,6.36111e-15,-32.7846,-14.2735,-74.6123,29.4929,16.7133,-37.3097,-4.31411,7.12502,-10.3734,-34.0382,7.46685e-15,6.36111e-15,-31.7214,11.2017,81.1926,25.7536,-6.04861,-10.5121,26.9247,7.12502,15.4905,56.3241,-9.7184,2.99633,12.8044,28.934,-20.5,-11.2689,-1.57552,-4.56274,1.88354,-25.0441,19.3595,-12.1311,14.9166,-15.4469
0.531474,17.9077,-0.695792,2.09168,-6.66352,2.72717,-0.280654,-1.65818,-5.97949,-1.47751,-2.22715,1.63836,-1.07549,-1.04136,5.06013,-22.2488,-8.69443,-13.2765,24.1437,-9.87272,7.60418,12.8315,-4.65119,3.31761,6.3052e-15,-1.90833e-14,-32.8372,-14.2776,-74.496,29.7406,16.0793,-37.5087,-4.30499,7.12502,-10.5653,-34.0194,6.3052e-15,-1.90833e-14,-31.6534,11.6196,80.9762,25.8764,-7.65883,-11.9046,24.0824,7.12502,14.1489,53.5806,-9.58435,2.98503,12.8729,28.9287,-20.5512,-11.2489,-1.25569,-4.47539,1.96674,-24.9742,19.3822,-12.0947,14.7976,-15.641
0.531263,17.9053,-0.6935,2.0159,-6.63252,2.76531,-0.22502,-1.64241,-6.05606,-1.43059,-2.20876,1.6507,-1.05756,-1.03309,5.11731,-22.4457,-8.56908,-13.2814,24.1271,-9.64299,7.55698,12.8324,-4.55123,3.34096,-1.75272e-14,-3.97569e-16,-32.8166,-14.2149,-74.4231,29.9893,15.3442,-37.6171,-4.36274,7.12502,-10.67,-34.0718,-1.75272e-14,-3.97569e-16,-31.544,11.8508,80.9047,25.9827,-8.3971,-12.4899,22.6641,7.12502,13.5848,52.2009,-9.49514,2.9723,12.8345,28.9424,-20.5626,-11.2767,-1.45629,-4.36872,1.94171,-25.0141,19.3434,-12.0891,14.7951,-15.7452
0.534063,17.9058,-0.690807,1.99526,-6.57694,2.85835,-0.252754,-1.60493,-6.14727,-1.36073,-2.15614,1.62154,-0.974768,-1.0106,5.1364,-22.7693,-8.46364,-13.1588,24.1206,-9.44175,7.41561,12.8524,-4.46081,3.29848,1.66296e-14,1.19271e-15,-32.6793,-14.3624,-74.3128,30.1522,14.688,-37.6775,-4.43427,7.12502,-10.7282,-34.1403,1.66296e-14,1.19271e-15,-31.351,11.8238,80.9863,26.0758,-8.36509,-12.3744,22.7279,7.12502,13.6962,52.2572,-9.47074,2.83035,12.7194,28.9414,-20.5182,-11.3447,-2.19072,-4.35963,1.91314,-25.1274,19.3389,-12.0573,14.7908,-15.9693
0.534509,17.9064,-0.689533,2.02434,-6.4628,2.85149,-0.300302,-1.54795,-6.14942,-1.30443,-2.07609,1.58614,-0.901756,-0.974609,5.09842,-23.0444,-8.39608,-13.0622,24.1329,-9.3289,7.38347,12.8897,-4.39906,3.28696,-2.23322e-15,-4.77083e-15,-32.6231,-14.7268,-74.1672,30.3113,14.2636,-37.8287,-4.64159,7.12502,-10.8741,-34.34,-2.23322e-15,-4.77083e-15,-31.1251,11.4299,81.1946,26.0618,-7.58681,-11.6718,24.0797,7.12502,14.3733,53.5621,-9.47262,2.77326,12.7296,28.9341,-20.5955,-11.4174,-2.1677,-4.41978,1.76803,-25.1203,19.3486,-12.0163,14.8065,-16.0589
0.535986,17.9063,-0.689192,2.01093,-6.35419,2.79249,-0.300822,-1.49561,-6.09621,-1.23791,-2.00458,1.56779,-0.844489,-0.943027,5.04823,-23.2098,-8.29777,-13.0447,24.0752,-9.19235,7.47652,12.8864,-4.32033,3.34399,-2.35218e-14,1.82882e-14,-32.5945,-15.0871,-74.0229,30.5447,13.8157,-37.884,-4.77193,7.12502,-10.9274,-34.4676,-2.35218e-14,1.82882e-14,-30.8742,10.8397,81.5144,25.9304,-6.07668,-10.447,27.0341,7.12502,15.5531,56.4287,-9.42373,2.78573,12.8037,28.9193,-20.6506,-11.5317,-2.34147,-4.41566,1.66906,-25.0491,19.3693,-12.0508,14.7812,-15.8211
0.538229,17.9033,-0.686394,1.95058,-6.26839,2.67747,-0.295066,-1.44506,-5.97146,-1.17098,-1.93543,1.58784,-0.790738,-0.912914,4.99779,-23.2626,-8.20781,-13.0198,23.9249,-9.03287,7.41449,12.8116,-4.25327,3.3444,-4.15351e-15,-2.38542e-15,-32.6037,-15.3049,-73.8417,30.78,13.3438,-38.0114,-4.82634,7.12502,-11.0502,-34.5155,-4.15351e-15,-2.38542e-15,-30.7413,10.4596,81.7567,25.9365,-5.22096,-9.95975,28.4839,7.12502,16.0224,57.8413,-9.29999,2.82508,12.9421,28.9038,-20.7183,-11.6088,-2.37692,-4.32541,1.63118,-24.9232,19.4106,-12.1521,14.6856,-15.6134
0.541627,17.9034,-0.683859,1.89867,-6.18225,2.75266,-0.255558,-1.39723,-6.00856,-1.14089,-1.87378,1.53351,-0.790557,-0.882674,4.96305,-23.3442,-8.12485,-12.952,23.7838,-8.89903,7.35951,12.7476,-4.19187,3.33505,-2.01433e-14,-7.95139e-16,-32.5767,-15.526,-73.7259,30.9484,12.7583,-38.4811,-4.78095,7.12502,-11.5032,-34.4453,-2.01433e-14,-7.95139e-16,-30.7017,10.2386,81.8257,26.0726,-5.14787,-9.80834,28.3045,7.12502,16.1682,57.6502,-9.2181,2.77464,12.858,28.9033,-20.7432,-11.7012,-2.64715,-4.27778,1.59071,-25.017,19.4425,-12.1725,14.6217,-15.2594
0.543904,17.9038,-0.683881,1.92382,-6.07883,2.78317,-0.259782,-1.36792,-6.02127,-1.11227,-1.83412,1.4807,-0.76508,-0.864455,4.91476,-23.4714,-8.02513,-12.8371,23.686,-8.75304,7.29558,12.7054,-4.12123,3.31671,-5.81843e-15,-1.98785e-15,-32.4998,-15.5948,-73.7855,31.1684,11.8613,-39.5165,-4.11598,7.12502,-12.5017,-33.722,-5.81843e-15,-1.98785e-15,-30.6327,10.412,81.6714,26.2757,-5.8535,-10.136,27.193,7.12502,15.8527,56.564,-9.23227,2.69926,12.8208,28.9214,-20.7523,-11.7363,-2.62821,-4.34374,1.65325,-25.0487,19.4596,-12.1319,14.4973,-15.6279
0.544177,17.9047,-0.684647,1.96188,-5.97965,2.79198,-0.256741,-1.35749,-6.07693,-1.10794,-1.8205,1.47706,-0.762623,-0.857401,4.94256,-23.6528,-7.95048,-12.7662,23.7075,-8.61473,7.19018,12.7231,-4.06327,3.28806,-1.15299e-14,-2.18663e-14,-32.5329,-15.3705,-73.8572,31.64,11.0379,-40.7643,-3.82978,7.12502,-13.7045,-33.3585,-1.15299e-14,-2.18663e-14,-30.588,11.1037,81.3246,26.4693,-7.51553,-11.2171,24.5552,7.12502,14.8114,54.0059,-9.25941,2.69191,12.8149,28.9536,-20.8739,-11.7191,-2.03477,-4.40226,1.69753,-25.039,19.4496,-12.1811,14.3484,-15.5248
0.544755,17.9028,-0.685829,1.96307,-5.8936,2.77658,-0.176804,-1.32858,-6.17823,-1.15914,-1.78807,1.54927,-0.859685,-0.835443,5.07844,-23.5811,-7.83716,-12.7971,23.5459,-8.40449,7.07628,12.6156,-3.9886,3.28921,8.50037e-15,-6.36111e-15,-32.7037,-15.0729,-73.7589,32.2251,10.4321,-41.6281,-3.8822,7.12502,-14.5369,-33.3529,8.50037e-15,-6.36111e-15,-30.6131,11.3258,81.2951,26.5737,-8.16471,-11.9926,23.0646,7.12502,14.0642,52.5688,-9.25616,2.62897,12.8351,28.9859,-20.9156,-11.734,-2.07171,-4.41243,1.70536,-25.0029,19.4469,-12.201,14.2079,-15.4406
0.546958,17.9026,-0.686312,1.95284,-5.80498,2.8088,-0.130166,-1.34118,-6.30613,-1.23383,-1.80968,1.62819,-0.954298,-0.839543,5.23589,-23.3868,-7.67773,-13.0165,23.4182,-8.11677,7.08969,12.5059,-3.88323,3.38799,1.35608e-14,-7.95139e-15,-32.8822,-14.5856,-73.7122,32.8351,9.84821,-42.2601,-3.80582,7.12502,-15.1457,-33.2316,1.35608e-14,-7.95139e-15,-30.773,11.3919,81.3731,26.6822,-8.06453,-12.0371,23.2005,7.12502,14.0213,52.7076,-9.23131,2.58957,12.8009,28.9997,-20.9387,-11.8053,-2.18037,-4.41455,1.70323,-25.0288,19.4573,-12.2215,14.1068,-15.1339
0.549093,17.9039,-0.686863,1.92673,-5.65752,2.88582,-0.0623164,-1.32947,-6.44535,-1.29182,-1.80079,1.61532,-1.0503,-0.828784,5.30431,-23.2051,-7.55831,-13.0265,23.288,-7.9347,7.00289,12.3942,-3.81764,3.39258,-3.14546e-14,3.97569e-16,-33.0363,-14.2866,-73.7545,33.4412,9.41069,-43.0192,-3.87811,7.12502,-15.8769,-33.2472,-3.14546e-14,3.97569e-16,-30.9462,11.0952,81.5203,26.8626,-7.18477,-11.2885,25.1481,7.12502,14.7425,54.6038,-9.17815,2.5466,12.716,29.0065,-20.964,-11.853,-2.06493,-4.39959,1.72132,-25.0958,19.4642,-12.2563,13.8837,-14.9955
0.55297,17.9038,-0.685181,1.90918,-5.48326,2.8839,-0.034289,-1.29326,-6.43606,-1.28566,-1.75433,1.58617,-1.06727,-0.805273,5.26923,-23.2833,-7.50458,-13.043,23.2243,-7.83569,7.00429,12.3733,-3.77235,3.41257,-4.37792e-14,1.55052e-14,-33.1454,-14.0208,-73.8308,34.1775,9.05976,-43.7014,-4.10798,7.12502,-16.5338,-33.4236,-4.37792e-14,1.55052e-14,-30.9663,10.7902,81.6513,26.9043,-6.46932,-7.37926,30.073,7.12502,18.506,59.2127,-9.10329,2.5028,12.7165,29.0105,-21.0576,-11.8898,-1.97893,-4.38064,1.77044,-25.0794,19.4527,-12.2744,13.6341,-14.7984
0.557776,17.9033,-0.684054,1.92708,-5.31574,2.87236,-0.0435779,-1.25478,-6.38325,-1.2413,-1.7014,1.52767,-1.02651,-0.782188,5.17716,-23.4594,-7.44236,-12.8764,23.0706,-7.73476,6.87566,12.3202,-3.72313,3.34992,-4.85625e-15,1.43125e-14,-33.1119,-13.9619,-73.9639,34.906,8.89826,-44.3079,-4.18109,7.12502,-17.1176,-33.447,-4.85625e-15,1.43125e-14,-30.9049,10.7622,81.5894,27.0127,-6.58982,-13.703,23.0097,7.12502,12.4155,52.621,-9.05709,2.46387,12.7246,29.0026,-21.1703,-12.0295,-1.88864,-4.38097,1.59579,-25.0902,19.4472,-12.2767,13.6442,-14.9974
0.560731,17.9013,-0.683721,1.97821,-5.22255,2.90044,-0.110049,-1.21785,-6.41271,-1.21257,-1.64744,1.49613,-0.966941,-0.757908,5.15879,-23.4945,-7.38215,-12.8239,22.7757,-7.62561,6.80889,12.1928,-3.67385,3.3319,-1.35981e-14,1.27222e-14,-33.0564,-13.7068,-74.1037,35.741,8.67663,-44.8001,-4.11522,7.12502,-17.5913,-33.3394,-1.35981e-14,1.27222e-14,-30.8613,10.7152,81.6069,27.1078,-5.75637,-9.5952,27.5618,7.12502,16.3734,56.8906,-9.08755,2.50511,12.6953,29.0062,-21.2407,-12.2287,-2.11026,-4.42342,1.5316,-25.1234,19.4177,-12.2675,13.5992,-14.89
0.565302,17.9005,-0.68404,1.98915,-5.11857,2.83608,-0.0862003,-1.16946,-6.3565,-1.2005,-1.58378,1.49886,-0.97781,-0.726467,5.13022,-23.4955,-7.33338,-12.8102,22.4954,-7.53278,6.76896,12.0704,-3.63263,3.32822,5.28565e-15,-9.14409e-15,-33.1657,-13.2083,-74.2451,36.8545,8.34911,-45.3224,-3.98951,7.12502,-18.0939,-33.1679,5.28565e-15,-9.14409e-15,-30.7788,10.6516,81.6292,27.0693,-4.73405,-8.59683,28.7743,7.12502,17.3345,58.0213,-9.08021,2.53397,12.7611,29.0123,-21.3536,-12.3277,-2.2846,-4.43221,1.44038,-25.0606,19.3748,-12.1806,13.523,-14.8291
0.570931,17.9,-0.683508,2.01848,-4.98146,2.85971,-0.114085,-1.13272,-6.35205,-1.17142,-1.5325,1.45666,-0.940211,-0.703096,5.08255,-23.5315,-7.27196,-12.9271,22.2242,-7.43123,6.94495,11.9735,-3.57031,3.42976,1.69526e-14,-5.1684e-15,-33.2934,-12.6789,-74.4513,38.1763,8.0176,-45.7292,-3.82019,7.12502,-18.4852,-32.9619,1.69526e-14,-5.1684e-15,-30.6061,10.5533,81.6083,26.9933,-4.62307,-8.59313,28.8094,7.12502,17.3381,58.0561,-9.09277,2.45534,12.7248,29.0279,-21.3943,-12.3526,-2.48876,-4.47014,1.3876,-25.0985,19.3408,-12.0707,13.4097,-14.8708
0.576626,17.8996,-0.682648,2.00665,-4.86252,2.89674,-0.159738,-1.0651,-6.35458,-1.09445,-1.43775,1.39827,-0.849081,-0.66109,5.02101,-23.5574,-7.22394,-13.0064,21.9315,-7.33983,7.04122,11.8625,-3.51922,3.49217,-5.2511e-15,1.19271e-15,-33.1965,-12.3367,-74.6319,39.3048,7.86477,-46.0673,-3.4882,7.12502,-18.8104,-32.5987,-5.2511e-15,1.19271e-15,-30.3962,10.4918,81.5846,26.9678,-5.13072,-8.30722,29.1334,7.12502,17.6132,58.3556,-9.05103,2.34791,12.6715,29.0407,-21.3689,-12.2921,-2.26184,-4.46607,1.44244,-25.1465,19.3365,-12.0919,13.2744,-15.0917
0.581465,17.898,-0.684836,1.99311,-4.76262,2.90298,-0.14496,-1.00714,-6.33572,-1.05673,-1.36067,1.34871,-0.830219,-0.624477,4.95852,-23.482,-7.17406,-13.0915,21.566,-7.2554,7.1389,11.7061,-3.47268,3.55497,2.3e-15,8.74653e-15,-33.0048,-12.0367,-74.8157,40.3485,8.02527,-46.3724,-3.44681,7.12502,-19.1039,-32.5286,2.3e-15,8.74653e-15,-30.3275,10.3671,81.5516,27.0591,-5.38994,-7.96218,29.3945,7.12502,17.9452,58.5866,-9.03288,2.2741,12.6551,29.0783,-21.3677,-12.2791,-2.0992,-4.45709,1.47601,-25.158,19.3134,-12.0947,13.1887,-15.3031
0.585002,17.897,-0.687929,1.99702,-4.63168,2.9648,-0.075206,-0.996277,-6.45054,-1.0952,-1.35246,1.33963,-0.908209,-0.615687,5.01604,-23.3724,-7.06456,-13.0604,21.2435,-7.08739,7.05693,11.5383,-3.40285,3.54683,-3.29524e-14,-3.97569e-15,-32.849,-11.4759,-74.9826,41.4356,8.30567,-46.701,-3.49927,7.12502,-19.4199,-32.5495,-3.29524e-14,-3.97569e-15,-30.5223,10.1732,81.6054,27.2739,-4.93981,-8.4124,29.2259,7.12502,17.512,58.4572,-9.04303,2.19828,12.5816,29.1177,-21.4231,-12.3416,-2.25447,-4.49238,1.50325,-25.2214,19.3019,-12.0803,12.98,-15.2947
0.588952,17.8978,-0.689471,1.98784,-4.52495,3.02611,-0.0495278,-0.979364,-6.56943,-1.08554,-1.33214,1.32602,-0.913361,-0.604625,5.06959,-23.3264,-6.95316,-13.008,20.9078,-6.91356,6.96829,11.3767,-3.32748,3.53254,-6.11573e-15,-1.03368e-14,-32.5859,-10.8082,-75.2026,42.5744,8.30083,-47.0015,-3.2095,7.12502,-19.7087,-32.2304,-6.11573e-15,-1.03368e-14,-30.6518,10.0133,81.6375,27.493,-4.53758,-8.7707,29.2293,7.12502,17.1672,58.4909,-9.0228,2.19998,12.5064,29.1433,-21.5047,-12.3758,-2.04045,-4.50674,1.56422,-25.2899,19.3027,-12.0647,12.7833,-15.3984
0.593943,17.8976,-0.689381,1.97317,-4.44872,2.99339,-0.0572703,-0.94748,-6.55148,-1.06018,-1.28835,1.31533,-0.889307,-0.584443,5.04776,-23.2622,-6.85699,-13.0006,20.526,-6.75487,6.91102,11.2005,-3.25797,3.53415,1.37573e-14,-2.66371e-14,-32.2114,-10.1433,-75.4327,43.6961,8.22487,-47.4188,-2.77264,7.12502,-20.1099,-31.7519,1.37573e-14,-2.66371e-14,-30.7392,10.1339,81.5311,27.7039,-4.93748,-8.23012,29.8083,7.12502,17.6874,59.0239,-8.98551,2.19051,12.5331,29.1606,-21.6402,-12.3835,-1.45214,-4.47824,1.56047,-25.2683,19.281,-12.0454,12.7444,-15.6068
0.5973,17.8988,-0.690761,1.94755,-4.41008,2.89272,-0.031386,-0.890998,-6.46242,-1.02533,-1.21347,1.29707,-0.879912,-0.549028,4.97824,-23.2793,-6.81589,-13.0393,20.2698,-6.66905,6.91675,11.0998,-3.21715,3.55418,1.57762e-14,-3.18055e-15,-31.8447,-9.5568,-75.6979,44.9797,8.18733,-47.9277,-2.68146,7.12502,-20.5989,-31.6085,1.57762e-14,-3.18055e-15,-30.7257,10.3196,81.3358,27.7478,-5.64824,-7.39496,30.0743,7.12502,18.4909,59.2155,-8.93293,2.33017,12.6571,29.1432,-21.8525,-12.5478,-1.10918,-4.45361,1.59588,-25.1567,19.2629,-12.0091,12.6849,-15.668
0.600161,17.899,-0.692929,1.92831,-4.36791,2.86277,0.000696656,-0.820573,-6.47834,-0.98338,-1.12086,1.26962,-0.867212,-0.504205,4.95857,-23.2976,-6.76464,-13.1119,20.0339,-6.57039,6.96971,11.0089,-3.1675,3.5998,-2.16691e-14,2.38542e-15,-31.434,-9.1002,-75.857,46.2728,8.29809,-48.3598,-2.36465,7.12502,-21.0141,-31.2462,-2.16691e-14,2.38542e-15,-30.6457,10.3378,81.2517,27.7299,-5.88936,-7.23244,29.902,7.12502,18.6473,59.0282,-8.89245,2.41108,12.7027,29.1049,-21.9779,-12.7768,-1.24481,-4.45739,1.65341,-25.1183,19.2638,-11.9853,12.5768,-15.6546
0.604151,17.9001,-0.693587,1.9091,-4.29354,2.80359,0.0572545,-0.763187,-6.49117,-0.975524,-1.04787,1.28851,-0.900114,-0.46654,4.98623,-23.2252,-6.69486,-13.1785,19.7126,-6.43951,6.95316,10.8638,-3.11156,3.62398,-9.69231e-15,-2.90226e-14,-30.9855,-8.59895,-75.9025,47.5445,8.29161,-48.5875,-1.78642,7.12502,-21.2328,-30.6435,-9.69231e-15,-2.90226e-14,-30.5915,10.0892,81.3149,27.6727,-5.52199,-7.60609,29.8263,7.12502,18.2878,58.9866,-8.82749,2.42266,12.7725,29.0554,-22.0024,-12.9598,-1.46747,-4.43914,1.69216,-25.054,19.2805,-11.9581,12.4193,-15.7122
0.609042,17.9015,-0.692699,1.95229,-4.1978,2.76468,-0.0225263,-0.721318,-6.49853,-0.936274,-0.985588,1.28239,-0.82303,-0.439101,4.98222,-23.2463,-6.63234,-13.1934,19.3427,-6.32335,6.94313,10.718,-3.05445,3.63773,-1.15513e-14,1.27222e-14,-30.4074,-8.30915,-75.9427,48.864,8.4789,-48.8772,-1.45784,7.12502,-21.5111,-30.2834,-1.15513e-14,1.27222e-14,-30.4656,9.95976,81.311,27.6054,-5.44892,-7.55969,30.0449,7.12502,18.3325,59.201,-8.82466,2.37692,12.8041,29.024,-22.0209,-13.0121,-1.37325,-4.49794,1.68185,-25.0159,19.2923,-11.9912,12.3311,-15.7738
0.616027,17.8999,-0.693446,1.93882,-4.07622,2.75762,-0.0571049,-0.666926,-6.49397,-0.885288,-0.909513,1.24247,-0.761741,-0.404717,4.93688,-23.3488,-6.62624,-13.3509,19.1873,-6.27416,7.09226,10.685,-3.0211,3.72356,4.70871e-15,1.07344e-14,-29.7474,-8.16031,-75.9527,50.1533,8.58946,-49.0875,-1.28297,7.12502,-21.713,-30.0853,4.70871e-15,1.07344e-14,-30.3383,10.1041,81.1536,27.4414,-5.93536,-7.07761,30.2935,7.12502,18.7962,59.4054,-8.75463,2.33385,12.7904,28.9825,-22.05,-12.9989,-1.15959,-4.53489,1.68109,-25.022,19.3496,-12.0219,12.2232,-16.0133
0.621551,17.9003,-0.698225,1.93461,-3.9168,2.79176,-0.0395095,-0.606889,-6.53964,-0.877756,-0.831087,1.17061,-0.774784,-0.365118,4.88782,-23.3883,-6.63988,-13.4049,19.0266,-6.26445,7.10842,10.6345,-3.01514,3.73717,1.04176e-14,-2.3059e-14,-29.1279,-8.14126,-75.9287,51.4845,8.53912,-49.1993,-1.24585,7.12502,-21.8204,-30.0357,1.04176e-14,-2.3059e-14,-30.1952,10.4453,80.9438,27.135,-6.42297,-7.17801,30.1834,7.12502,18.6996,59.3046,-8.71806,2.30962,12.7479,28.9448,-22.1056,-13.063,-1.0415,-4.58677,1.59502,-25.0677,19.4165,-12.0454,12.116,-16.0834
0.625102,17.9014,-0.706076,1.93176,-3.64969,2.71942,0.00657229,-0.58832,-6.50979,-0.882097,-0.809673,1.14204,-0.808743,-0.353402,4.84168,-23.2525,-6.61695,-13.3897,18.7317,-6.22044,7.01163,10.4933,-3.00319,3.70417,1.62444e-15,0,-28.4624,-8.11208,-75.8547,52.8146,8.43769,-49.3372,-1.24593,7.12502,-21.9528,-30.0203,1.62444e-15,0,-30.0577,10.6455,80.8133,26.8162,-6.27381,-8.02655,29.517,7.12502,17.8833,58.7148,-8.65636,2.23146,12.8478,28.8828,-22.1694,-13.2569,-0.645082,-4.66362,1.4935,-24.9758,19.5024,-12.0327,11.9495,-15.7834
0.629493,17.9006,-0.709921,1.86583,-3.38202,2.68265,0.0602035,-0.594833,-6.5226,-0.8763,-0.822107,1.12445,-0.831341,-0.358956,4.83127,-23.1606,-6.54987,-13.4302,18.4899,-6.10664,6.9746,10.3763,-2.95612,3.71442,8.5027e-15,-3.18055e-15,-27.6935,-8.06241,-75.7593,54.0629,8.39461,-49.6606,-1.31088,7.12502,-22.2633,-30.0485,8.5027e-15,-3.18055e-15,-29.9879,10.9576,80.6687,26.5338,-6.37483,-8.42201,29.181,7.12502,17.5027,58.4131,-8.48879,2.1861,12.9083,28.7911,-22.2557,-13.4136,-0.438453,-4.67707,1.4111,-24.9288,19.5935,-11.9863,11.7988,-15.6906
0.637231,17.9012,-0.705556,1.82554,-3.19515,2.52014,0.0104367,-0.57256,-6.36187,-0.846647,-0.78727,1.12777,-0.779014,-0.345256,4.74276,-23.2439,-6.5198,-13.4604,18.3702,-6.0227,6.91992,10.3373,-2.9225,3.71077,-6.33316e-15,-5.56597e-15,-26.8517,-8.01785,-75.6562,55.2851,8.18266,-50.06,-1.2782,7.12502,-22.6467,-29.9695,-6.33316e-15,-5.56597e-15,-29.9255,11.2518,80.5048,26.3819,-6.70614,-8.30434,29.346,7.12502,17.616,58.568,-8.32929,2.04554,13.0769,28.6964,-22.2293,-13.4732,-0.43348,-4.64917,1.31141,-24.7671,19.6722,-12.0527,11.7166,-15.8488
0.646156,17.9021,-0.701134,1.82267,-3.07256,2.43993,-0.0937096,-0.508947,-6.30979,-0.81749,-0.694383,1.12726,-0.702859,-0.302464,4.71114,-23.1881,-6.48608,-13.3834,18.1444,-5.95496,6.72958,10.2289,-2.90535,3.63783,2.17576e-15,5.1684e-15,-25.9172,-8.12661,-75.4703,56.4344,8.11993,-50.3806,-1.02393,7.12502,-22.9544,-29.6774,2.17576e-15,5.1684e-15,-29.9269,11.0904,80.503,26.453,-6.55264,-8.2211,29.9673,7.12502,17.6961,59.1821,-8.22357,1.94741,13.1312,28.6108,-22.287,-13.4015,0.0417216,-4.65305,1.32258,-24.702,19.7315,-12.1281,11.5668,-15.9493
0.653742,17.9,-0.699913,1.8152,-2.91881,2.46154,-0.150492,-0.417521,-6.34854,-0.803968,-0.568678,1.06946,-0.673364,-0.24083,4.67202,-23.1614,-6.4713,-13.291,18.0052,-5.91636,6.53015,10.1599,-2.90245,3.55525,1.97853e-15,6.36111e-15,-24.956,-8.43637,-75.2394,57.5768,8.23377,-50.5121,-1.09842,7.12502,-23.0805,-29.7361,1.97853e-15,6.36111e-15,-29.8999,10.8724,80.4825,26.5478,-6.29816,-8.07279,30.5411,7.12502,17.8388,59.743,-8.12856,1.88031,13.0866,28.5204,-22.3434,-13.4371,0.143413,-4.6848,1.22697,-24.7597,19.8076,-12.1485,11.5484,-16.131
0.658319,17.899,-0.699973,1.82237,-2.70316,2.44998,-0.139385,-0.35789,-6.40688,-0.856825,-0.491824,1.02183,-0.744106,-0.198355,4.65562,-23.224,-6.44134,-13.2783,18.0336,-5.85504,6.46551,10.172,-2.88038,3.53936,1.43187e-15,-7.15625e-15,-24.0041,-8.6817,-74.9944,58.6808,8.29631,-50.7066,-1.33204,7.12502,-23.2672,-29.9463,1.43187e-15,-7.15625e-15,-29.8295,10.9473,80.3304,26.3467,-6.47861,-8.08714,30.6752,7.12502,17.825,59.8782,-8.04212,1.79985,13.0985,28.4242,-22.3906,-13.5739,0.237404,-4.74159,1.21455,-24.7451,19.8903,-12.2443,11.3119,-16.1054
0.661547,17.8983,-0.699187,1.72932,-2.51342,2.38368,-0.0174734,-0.288668,-6.47828,-0.898673,-0.409503,1.00873,-0.866209,-0.15141,4.6831,-23.3539,-6.42975,-13.2566,18.1366,-5.81938,6.41916,10.226,-2.86751,3.52443,1.2227e-15,5.76476e-15,-23.0339,-8.85956,-74.7101,59.7296,8.40213,-51.0367,-1.50305,7.12502,-23.5838,-30.0769,1.2227e-15,5.76476e-15,-29.7074,11.1422,80.1423,25.9658,-6.8352,-7.9654,30.6114,7.12502,17.9421,59.8038,-7.8529,1.83985,13.1883,28.3302,-22.5056,-13.7699,0.476402,-4.67786,1.16485,-24.6624,19.9675,-12.3406,11.1546,-16.0094
0.66621,17.8993,-0.698033,1.6492,-2.2273,2.32768,0.0270183,-0.226214,-6.54742,-0.891443,-0.329552,0.996199,-0.893924,-0.110152,4.70894,-23.4037,-6.43038,-13.215,18.1356,-5.79369,6.28233,10.2258,-2.86802,3.47132,6.52417e-15,2.38542e-15,-22.0033,-9.18677,-74.3472,60.7006,8.67449,-51.2548,-1.36401,7.12502,-23.793,-29.9108,6.52417e-15,2.38542e-15,-29.5475,11.1837,80.0513,25.6814,-6.98305,-7.71556,30.7551,7.12502,18.1825,59.9253,-7.64821,1.87102,13.2712,28.2412,-22.7148,-14.0255,0.666412,-4.63542,1.04473,-24.5988,20.0197,-12.3174,10.9819,-15.6841
0.673146,17.9002,-0.69708,1.70505,-1.86133,2.32245,-0.122636,-0.226519,-6.57932,-0.907519,-0.320304,0.948779,-0.827774,-0.107332,4.6768,-23.3601,-6.40636,-13.2422,18.0374,-5.74124,6.2309,10.1764,-2.85082,3.4651,-6.81265e-15,2.52457e-14,-20.8358,-9.47682,-74.021,61.5723,9.00876,-51.5697,-1.09681,7.12502,-24.095,-29.6039,-6.81265e-15,2.52457e-14,-29.4216,11.4029,79.8988,25.5198,-7.30767,-7.98256,30.4465,7.12502,17.9256,59.6404,-7.56435,1.78762,13.2788,28.1733,-22.9465,-14.1579,1.16179,-4.73584,1.02075,-24.5927,20.0395,-12.2883,10.6572,-15.7219
0.682459,17.8998,-0.693903,1.77013,-1.52486,2.4114,-0.242551,-0.182795,-6.68117,-1.01445,-0.257445,0.876721,-0.879257,-0.0707225,4.65884,-23.1592,-6.42882,-13.2807,17.9926,-5.76571,6.1396,10.1262,-2.87823,3.43578,3.04234e-15,-8.74653e-15,-19.8463,-9.55343,-73.4998,62.529,9.08341,-51.9823,-1.6223,7.12502,-24.4906,-30.0764,3.04234e-15,-8.74653e-15,-29.4618,11.4987,79.7846,25.3936,-7.70561,-8.91074,29.0613,7.12502,17.0324,58.3346,-7.5192,1.50246,13.1458,28.1528,-23.0201,-14.1394,1.25747,-4.80733,0.880667,-24.708,20.016,-12.262,10.4492,-15.6954
0.690252,17.8982,-0.689218,1.79689,-1.21716,2.49754,-0.358639,-0.121259,-6.81682,-1.06414,-0.169206,0.806908,-0.877083,-0.0245,4.6622,-22.9889,-6.47368,-13.3209,17.8666,-5.82385,6.09136,10.0571,-2.91389,3.41585,1.04921e-14,9.54166e-15,-18.7882,-9.73965,-72.9777,63.5236,9.12131,-52.373,-1.79017,7.12502,-24.865,-30.1931,1.04921e-14,9.54166e-15,-29.4314,11.5913,79.6683,25.2297,-8.07966,-9.55461,27.8758,7.12502,16.4125,57.2015,-7.43968,1.25271,13.0269,28.1471,-23.1072,-14.1657,1.2621,-4.80082,0.706185,-24.8113,19.9876,-12.3127,10.2446,-15.2828
0.695987,17.8977,-0.689103,1.862,-0.909191,2.54617,-0.472001,-0.0598994,-6.93472,-1.08961,-0.0802387,0.741897,-0.851654,0.0204823,4.66065,-23.01,-6.55328,-13.5468,17.8676,-5.90014,6.28756,10.0836,-2.94136,3.51012,-1.18386e-14,-1.25234e-14,-17.4353,-10.4123,-72.5806,64.1247,9.50848,-52.4703,-1.34747,7.12502,-24.9583,-29.7375,-1.18386e-14,-1.25234e-14,-29.2828,11.5894,79.5754,25.0729,-8.08787,-9.46428,27.9047,7.12502,16.4995,57.2231,-7.42741,1.08797,12.9674,28.1331,-23.1574,-14.2842,1.22674,-4.86028,0.641103,-24.8649,19.9631,-12.3292,9.99419,-15.0256
0.703295,17.8993,-0.690584,1.88445,-0.519768,2.49564,-0.482161,-0.00877952,-6.94332,-1.14457,-0.0135558,0.681321,-0.911633,0.057286,4.60226,-22.8963,-6.59407,-13.5519,17.7637,-5.96062,6.25387,10.032,-2.97338,3.48905,-1.31462e-14,-7.65321e-15,-16.1725,-10.6118,-72.0353,64.6017,9.46595,-52.5613,-1.30305,7.12502,-25.0455,-29.681,-1.31462e-14,-7.65321e-15,-29.1541,11.7086,79.393,24.972,-7.93273,-8.99546,28.2716,7.12502,16.9508,57.552,-7.33167,1.03297,13.037,28.0916,-23.3456,-14.4503,1.81385,-4.91509,0.547725,-24.8094,19.9847,-12.3259,9.70241,-15.0976
0.708552,17.8993,-0.688148,1.75276,0.0204848,2.52107,-0.345926,0.0452387,-7.04564,-1.1913,0.0452925,0.580012,-1.04458,0.0931857,4.55425,-22.6869,-6.62672,-13.4193,17.6963,-6.03415,6.058,9.96788,-3.02321,3.38699,-1.1076e-14,-1.38155e-14,-15.053,-10.6249,-71.3114,65.1192,9.15592,-52.5239,-2.15488,7.12502,-25.0096,-30.5378,-1.1076e-14,-1.38155e-14,-29.0517,11.7293,79.2303,24.8858,-7.809,-8.73818,28.5475,7.12502,17.1985,57.8064,-6.98218,0.962793,13.0539,27.9932,-23.6201,-14.7342,2.08815,-4.83654,0.479633,-24.8119,20.0712,-12.3969,9.28667,-15.2545
0.71463,17.8968,-0.685221,1.57678,0.598745,2.50363,-0.218799,0.0868661,-7.09193,-1.14844,0.0913984,0.493651,-1.0777,0.116224,4.49007,-22.783,-6.70136,-13.4065,17.8199,-6.1376,6.08461,10.0404,-3.06751,3.37708,1.0444e-15,-6.01324e-15,-13.6751,-11.208,-70.7448,65.6046,9.26532,-52.2568,-2.65948,7.12502,-24.7536,-31.0778,1.0444e-15,-6.01324e-15,-28.8868,11.5909,79.161,24.9341,-7.47257,-8.61024,28.8397,7.12502,17.3216,58.0878,-6.57324,0.736808,13.0984,27.867,-23.8297,-14.9464,2.25887,-4.73431,0.474005,-24.7634,20.1835,-12.4591,8.80361,-15.4447
0.723305,17.8984,-0.684431,1.4811,1.24016,2.27505,-0.164815,0.0958116,-6.92328,-1.12977,0.100609,0.502902,-1.08905,0.119174,4.40446,-22.7488,-6.78896,-13.6125,17.8295,-6.24046,6.27761,10.0632,-3.10743,3.46321,8.32411e-16,1.49089e-16,-12.2755,-11.7395,-70.1002,66.037,9.32551,-52.1497,-2.65792,7.12502,-24.651,-31.0903,8.32411e-16,1.49089e-16,-28.816,11.5551,79.0976,24.8318,-7.89841,-8.79709,27.9775,7.12502,17.1418,57.2413,-6.2551,0.421507,13.3722,27.7604,-23.9922,-15.2289,2.07794,-4.7247,0.322564,-24.4943,20.2754,-12.4845,8.33524,-15.5162
0.730677,17.8964,-0.681683,1.4608,1.83751,2.14496,-0.202091,0.0964045,-6.84441,-1.15843,0.10342,0.473847,-1.09761,0.120747,4.32977,-22.6648,-6.89012,-13.8796,17.8091,-6.35662,6.50512,10.0719,-3.1541,3.56984,-5.86337e-15,2.24254e-14,-10.9664,-11.9924,-69.3563,66.5116,9.26529,-52.2991,-3.13347,7.12502,-24.7942,-31.5462,-5.86337e-15,2.24254e-14,-28.7526,11.7318,78.9172,24.6755,-8.33127,-8.79095,27.6711,7.12502,17.1477,56.9344,-6.03624,0.0970218,13.5184,27.6745,-24.21,-15.3792,2.30711,-4.80502,0.172017,-24.3393,20.3794,-12.4809,7.93293,-15.6404
0.736227,17.8945,-0.676082,1.47887,2.24159,2.15308,-0.301774,0.177286,-6.91977,-1.18692,0.216915,0.382646,-1.08542,0.178068,4.27673,-22.7223,-7.02502,-14.195,17.8882,-6.52252,6.88853,10.1551,-3.20817,3.7318,-2.70883e-15,-3.08116e-15,-9.5366,-12.4372,-68.6107,66.7488,9.43007,-52.5129,-3.28754,7.12502,-24.9991,-31.6719,-2.70883e-15,-3.08116e-15,-28.6751,11.6184,78.8617,24.9116,-8.03028,-8.75742,28.6703,7.12502,17.1799,57.9309,-5.90084,-0.0254617,13.5218,27.5963,-24.3591,-15.6084,2.24466,-4.90166,0.101866,-24.3457,20.4847,-12.5333,7.63729,-15.7169
0.741411,17.894,-0.672073,1.46477,2.68684,2.13377,-0.341962,0.25223,-6.963,-1.20508,0.318241,0.26931,-1.09394,0.229292,4.18264,-22.6849,-7.10011,-14.1678,17.7882,-6.65271,6.94995,10.1285,-3.25775,3.72743,-2.14625e-15,-2.61402e-14,-8.01016,-13.0346,-67.9241,66.8371,9.77235,-52.6348,-3.2994,7.12502,-25.1159,-31.6675,-2.14625e-15,-2.61402e-14,-28.6588,11.3441,78.7929,25.2598,-7.57466,-8.60986,29.0791,7.12502,17.322,58.3272,-5.74899,-0.115682,13.5683,27.5542,-24.4969,-15.9179,1.94035,-4.93459,0.00208749,-24.3144,20.542,-12.5708,7.27426,-15.5026
0.749943,17.892,-0.668861,1.48648,3.30931,2.12454,-0.363205,0.26495,-6.97588,-1.26493,0.333673,0.15629,-1.14518,0.239864,4.07231,-22.5276,-7.17824,-14.1,17.5722,-6.77956,6.86421,10.0318,-3.32036,3.66424,5.53491e-15,-1.39149e-15,-6.53008,-13.4963,-67.2041,66.9482,9.94622,-52.9608,-4.01808,7.12502,-25.4282,-32.342,5.53491e-15,-1.39149e-15,-28.6743,11.3047,78.6445,25.4257,-7.5138,-8.44484,29.1322,7.12502,17.4808,58.3662,-5.59034,-0.390645,13.5864,27.523,-24.7186,-16.1417,2.12666,-4.99605,-0.0804558,-24.3011,20.5785,-12.5745,6.76756,-15.6024
0.758892,17.8909,-0.663223,1.59136,4.01814,2.18797,-0.537771,0.245875,-7.07087,-1.28706,0.320469,0.0375643,-1.06838,0.231517,4.00333,-22.5622,-7.29303,-14.2355,17.4882,-6.93013,7.05864,10.0379,-3.37421,3.72966,-7.49791e-15,1.2424e-14,-4.94114,-14.02,-66.4805,67.0382,10.3562,-53.1596,-5.17434,7.12502,-25.6187,-33.471,-7.49791e-15,1.2424e-14,-28.6354,11.1643,78.5532,25.7109,-7.2681,-8.06859,29.5271,7.12502,17.8428,58.7286,-5.46913,-0.84153,13.5098,27.457,-24.9195,-16.2645,2.45531,-5.15749,-0.196018,-24.3656,20.6397,-12.5976,6.20103,-15.7576
0.764868,17.8926,-0.658748,1.67889,4.6196,2.19363,-0.705053,0.252255,-7.16742,-1.30616,0.341613,-0.032372,-0.997115,0.240718,3.98568,-22.44,-7.34886,-14.3283,17.2995,-7.01028,7.15413,9.96565,-3.40558,3.76569,1.50238e-14,-2.0276e-14,-3.30854,-14.5935,-65.6936,66.9928,10.9508,-52.6998,-5.58934,7.12502,-25.1781,-33.9487,1.50238e-14,-2.0276e-14,-28.6556,11.05,78.4589,26.0051,-7.00853,-8.24083,29.6139,7.12502,17.6771,58.8303,-5.35519,-1.05112,13.5389,27.3737,-25.1624,-16.5276,2.58927,-5.31279,-0.301641,-24.351,20.697,-12.5894,5.75662,-15.7278
0.769224,17.8954,-0.655057,1.71236,5.13419,2.17669,-0.698471,0.287872,-7.27276,-1.40876,0.383931,-0.0932301,-1.1129,0.269454,3.98109,-22.0772,-7.40683,-14.4683,17.0444,-7.11807,7.26737,9.83417,-3.45503,3.81436,-1.92697e-14,-3.97569e-16,-1.86643,-15.0014,-64.8733,66.9388,11.1289,-52.6052,-5.51193,7.12502,-25.0875,-33.884,-1.92697e-14,-3.97569e-16,-28.7177,11.0992,78.312,26.2196,-6.90595,-8.82464,29.5702,7.12502,17.1152,58.8364,-5.20612,-1.18813,13.5895,27.2673,-25.4126,-16.6861,3.16806,-5.41465,-0.423186,-24.3099,20.7589,-12.6246,5.38488,-15.6326
0.774457,17.8935,-0.649492,1.59078,5.72271,2.13833,-0.529438,0.321056,-7.26042,-1.45812,0.410616,-0.219878,-1.26115,0.288397,3.84135,-21.9258,-7.4838,-14.4651,16.9566,-7.25648,7.31046,9.79439,-3.51561,3.80807,3.03768e-15,-2.78299e-15,-0.392722,-15.4047,-64.1495,66.7921,11.0713,-53.0432,-5.35109,7.12502,-25.5072,-33.6638,3.03768e-15,-2.78299e-15,-28.6361,11.0924,78.1002,26.3442,-6.76409,-9.00696,29.3498,7.12502,16.9397,58.6311,-4.86421,-1.24289,13.6738,27.1633,-25.7689,-16.9999,3.52677,-5.32534,-0.460476,-24.2374,20.8288,-12.7442,4.87855,-15.6667
0.783142,17.8915,-0.640277,1.51825,6.32307,2.09499,-0.546439,0.365926,-7.16976,-1.41182,0.47277,-0.372532,-1.20848,0.314416,3.63214,-21.9455,-7.62789,-14.4564,16.8527,-7.45841,7.34322,9.7855,-3.60223,3.78344,5.64051e-15,7.55382e-15,1.2214,-15.945,-63.418,66.6057,11.1741,-53.4961,-5.79625,7.12502,-25.9409,-34.0462,5.64051e-15,7.55382e-15,-28.5547,11.013,77.8988,26.63,-6.74287,-8.92773,29.1148,7.12502,17.016,58.3895,-4.57479,-1.34412,13.7566,27.0953,-26.0495,-17.2889,3.65759,-5.26675,-0.660747,-24.1872,20.8751,-12.8411,4.56237,-15.5489
0.790391,17.8917,-0.633336,1.62999,6.89804,2.11664,-0.741983,0.417749,-7.20072,-1.40673,0.557977,-0.497058,-1.1022,0.352856,3.52156,-21.9737,-7.80274,-14.5512,16.8269,-7.66924,7.36829,9.81132,-3.70166,3.77097,1.23246e-14,3.57812e-15,2.85989,-16.5692,-62.6801,66.3238,11.6467,-54.3002,-6.66869,7.12502,-26.7107,-34.8036,1.23246e-14,3.57812e-15,-28.5625,10.7898,77.8108,26.9784,-6.48981,-9.00512,28.8828,7.12502,16.9415,58.164,-4.52245,-1.56493,13.7554,27.0734,-26.2916,-17.5742,3.53215,-5.40654,-0.741135,-24.1987,20.8919,-12.8067,4.07878,-14.9883
0.797803,17.8935,-0.628061,1.82343,7.46615,2.17317,-0.985971,0.4308,-7.26576,-1.42694,0.595341,-0.60021,-0.989954,0.368381,3.45309,-21.9349,-7.95912,-14.8259,16.6671,-7.83485,7.54356,9.78747,-3.77444,3.84869,-9.23106e-15,-7.95139e-16,4.66542,-17.09,-61.9678,65.9599,11.8604,-54.7922,-7.47117,7.12502,-27.1813,-35.5333,-9.23106e-15,-7.95139e-16,-28.5608,10.7036,77.7343,27.2956,-6.1996,-9.06701,28.7668,7.12502,16.8819,58.053,-4.59201,-1.91462,13.7068,27.097,-26.3826,-17.7731,3.14062,-5.63638,-0.614403,-24.2309,20.8816,-12.8057,3.37973,-14.9423
0.805139,17.8952,-0.622822,1.95219,8.04126,2.2125,-1.19929,0.441038,-7.2951,-1.42214,0.627707,-0.728021,-0.867638,0.379933,3.33929,-21.7114,-8.06351,-14.9816,16.3339,-7.98327,7.6907,9.6621,-3.83626,3.90285,-7.01958e-15,-7.55382e-15,6.49509,-17.7317,-61.355,65.6008,11.8951,-54.655,-7.82941,7.12502,-27.0502,-35.912,-7.01958e-15,-7.55382e-15,-28.5755,10.5739,77.6031,27.5748,-5.8185,-9.21352,28.8468,7.12502,16.7409,58.145,-4.59753,-2.21235,13.6865,27.1394,-26.5406,-17.9659,3.26173,-5.79916,-0.502715,-24.246,20.8753,-12.8473,2.72804,-15.5219
0.812712,17.8939,-0.617268,1.93496,8.59638,2.25876,-1.30424,0.479787,-7.31012,-1.37525,0.690443,-0.922607,-0.764758,0.405793,3.14801,-21.6378,-8.10405,-14.866,16.2063,-8.09214,7.73274,9.61394,-3.87443,3.88224,1.67352e-14,-1.27222e-14,8.24524,-18.4629,-60.8835,65.2485,12.0623,-54.6185,-8.31908,7.12502,-27.0152,-36.4071,1.67352e-14,-1.27222e-14,-28.5716,10.4665,77.3204,27.8547,-5.62763,-9.19857,28.9062,7.12502,16.7553,58.2032,-4.42631,-2.52145,13.641,27.1319,-26.6359,-18.2312,2.7837,-5.81047,-0.399722,-24.2671,20.9223,-12.9367,2.09493,-15.6868
0.818729,17.8917,-0.610574,1.89969,9.11886,2.21832,-1.35154,0.498801,-7.29194,-1.35429,0.720732,-1.04047,-0.717858,0.418167,3.01685,-22.0409,-8.1586,-14.7063,16.6558,-8.12357,7.50792,9.82917,-3.901,3.76564,9.34288e-15,1.59028e-15,10.0351,-19.0118,-60.4457,64.7885,12.351,-54.8993,-8.82092,7.12502,-27.2838,-36.867,9.34288e-15,1.59028e-15,-28.5696,10.4834,77.063,28.0324,-5.32541,-9.46094,28.5864,7.12502,16.5027,57.9046,-4.22818,-2.76691,13.7036,27.0693,-26.7688,-18.4882,2.61737,-5.84364,-0.326729,-24.1924,21.0308,-13.0526,1.53532,-15.4126
0.822289,17.8922,-0.603995,1.89901,9.58607,2.05529,-1.33483,0.549686,-7.16987,-1.41117,0.783067,-1.12597,-0.78937,0.451599,2.86,-22.3293,-8.27489,-14.2976,17.0731,-8.23236,6.82623,9.98989,-4.00063,3.43267,2.98922e-14,-7.95139e-16,11.736,-19.5739,-59.9802,64.2603,12.5717,-55.0319,-8.52986,7.12502,-27.4107,-36.5559,2.98922e-14,-7.95139e-16,-28.709,10.3882,76.8188,28.3088,-4.98577,-9.69289,28.5354,7.12502,16.2794,57.872,-4.08594,-2.78505,13.9483,26.9826,-27.1029,-18.7327,3.20495,-5.94613,-0.377182,-23.9816,21.1627,-13.1745,1.12176,-15.2832
0.829021,17.8926,-0.599896,1.95931,10.0451,1.93029,-1.40864,0.634628,-6.97343,-1.44276,0.899302,-1.27309,-0.786287,0.507819,2.59971,-22.3492,-8.4751,-14.0733,17.0903,-8.47493,6.37669,9.99405,-4.1478,3.193,7.35503e-15,-1.11319e-14,13.4663,-20.3313,-59.5812,63.7626,12.7293,-54.8095,-8.34129,7.12502,-27.198,-36.4009,7.35503e-15,-1.11319e-14,-28.8104,10.3571,76.5161,28.6462,-5.18247,-9.14217,29.2352,7.12502,16.8096,58.5275,-4.01762,-2.92303,14.119,26.8935,-27.2811,-19.0103,3.16054,-6.10229,-0.442571,-23.827,21.2868,-13.2554,0.717163,-15.1043
0.835217,17.8909,-0.59482,2.07833,10.5554,1.93086,-1.57914,0.690558,-6.90047,-1.41385,0.989418,-1.45296,-0.664546,0.547012,2.37682,-22.4408,-8.7412,-14.0826,17.213,-8.80819,6.282,10.086,-4.31178,3.09973,2.37051e-14,1.59028e-14,15.3116,-21.0773,-59.2309,63.2444,12.926,-54.6529,-8.55696,7.12502,-27.0481,-36.6399,2.37051e-14,1.59028e-14,-28.7509,10.2548,76.2276,28.8891,-5.32106,-9.56031,29.5275,7.12502,16.407,58.8536,-3.958,-3.14207,14.1341,26.7931,-27.5471,-19.1484,3.54469,-6.29014,-0.510325,-23.8147,21.4065,-13.3827,0.303983,-15.1547
0.839406,17.8909,-0.589457,2.22039,11.0364,2.05957,-1.68128,0.73514,-7.0547,-1.44031,1.05828,-1.6017,-0.641294,0.582019,2.31108,-22.0818,-8.90559,-14.3082,16.8216,-9.05182,6.49625,9.9322,-4.41616,3.17771,1.13804e-14,-2.8625e-14,17.1152,-21.6174,-58.8528,62.656,13.2267,-54.8668,-9.08339,7.12502,-27.2527,-37.1344,1.13804e-14,-2.8625e-14,-28.771,10.2395,75.9888,29.0523,-5.42296,-10.7238,29.1854,7.12502,15.2866,58.6005,-3.91429,-3.24659,14.0326,26.7103,-27.8005,-19.3174,4.22588,-6.47838,-0.602866,-23.9316,21.5321,-13.5221,-0.103954,-14.8766
0.842276,17.8907,-0.585096,2.22772,11.5,2.04085,-1.56877,0.781389,-7.09526,-1.52552,1.10547,-1.69178,-0.796036,0.612275,2.23821,-21.6867,-8.86604,-14.6363,16.0549,-9.04988,7.06403,9.63694,-4.37108,3.44139,3.05631e-14,1.98785e-14,18.9583,-22.0999,-58.5401,61.9134,13.5775,-54.8056,-9.23472,7.12502,-27.1942,-37.2949,3.05631e-14,1.98785e-14,-29.0087,10.1788,75.7704,29.3344,-5.28972,-11.1576,29.4675,7.12502,14.8686,58.914,-3.76396,-3.21674,14.122,26.6265,-28.1167,-19.4979,4.74813,-6.56081,-0.746945,-23.8855,21.6526,-13.5907,-0.443718,-14.6899
0.842507,17.8899,-0.582001,2.23007,11.9927,1.8246,-1.49986,0.819476,-6.88794,-1.58083,1.14501,-1.79445,-0.888525,0.633549,2.0155,-21.6338,-8.89966,-14.8493,15.9109,-9.12556,7.48588,9.61875,-4.37262,3.61297,-5.86663e-14,2.70347e-14,20.8519,-22.6868,-58.4226,61.2111,13.9684,-54.3988,-9.0863,7.12502,-26.805,-37.2067,-5.86663e-14,2.70347e-14,-29.1528,10.0963,75.4524,29.593,-5.14299,-11.0732,29.831,7.12502,14.9499,59.2714,-3.65945,-3.29183,14.4323,26.5326,-28.4758,-19.6725,5.16684,-6.71188,-0.822351,-23.6104,21.7754,-13.632,-0.847306,-14.5571
0.842919,17.8902,-0.580242,2.24945,12.59,1.72361,-1.46688,0.826247,-6.80828,-1.58555,1.1501,-1.91868,-0.907842,0.635423,1.84273,-21.5972,-9.02248,-14.9973,15.8573,-9.29693,7.68756,9.63234,-4.43912,3.67896,-1.26725e-14,3.02153e-14,22.4258,-23.2611,-58.2169,60.8536,14.5013,-54.0944,-8.94782,7.12502,-26.5137,-37.1126,-1.26725e-14,3.02153e-14,-29.1349,10.1446,75.0893,29.6938,-5.18628,-10.8419,29.8798,7.12502,15.1728,59.3036,-3.5326,-3.55596,14.6057,26.4239,-28.6437,-20.0204,4.93571,-6.87215,-0.902185,-23.4556,21.9162,-13.6892,-1.3587,-14.9715
0.845701,17.8898,-0.575248,2.23857,13.1461,1.68386,-1.346,0.829261,-6.79574,-1.66542,1.1387,-2.03031,-1.05474,0.634992,1.71769,-21.3202,-9.12908,-15.0528,15.6725,-9.45923,7.67072,9.54098,-4.52373,3.65991,6.4605e-16,3.89618e-14,23.77,-23.5453,-57.758,60.4617,14.9824,-53.9587,-9.12272,7.12502,-26.3838,-37.307,6.4605e-16,3.89618e-14,-29.2914,10.1494,74.7726,29.7565,-5.11557,-10.8264,29.9336,7.12502,15.1877,59.3562,-3.37788,-3.90604,14.6764,26.3646,-28.7278,-20.2372,4.7883,-6.95337,-0.928868,-23.375,22.0105,-13.7328,-1.89425,-15.0773
0.847525,17.8931,-0.57088,2.25179,13.5572,1.62917,-1.1556,0.86029,-6.78445,-1.83177,1.15323,-2.13434,-1.3325,0.652823,1.59868,-20.9889,-9.14561,-15.0242,15.5168,-9.52127,7.59404,9.4311,-4.56525,3.626,8.3738e-15,-2.8625e-14,25.2331,-23.5678,-57.2588,59.7372,15.0465,-54.337,-9.13707,7.12502,-26.7459,-37.2666,8.3738e-15,-2.8625e-14,-29.7586,10.1607,74.4139,30.0875,-5.23354,-10.7563,30.4048,7.12502,15.2552,59.8223,-3.29851,-4.06553,14.7621,26.3643,-28.9724,-20.2979,5.27489,-7.03084,-0.832813,-23.2769,22.0421,-13.7744,-2.42768,-14.7264
0.848906,17.8967,-0.56771,2.4121,13.9699,1.7109,-1.15729,0.904188,-6.88705,-1.94891,1.2048,-2.29191,-1.45595,0.684921,1.49146,-20.7629,-9.17717,-15.061,15.3656,-9.59978,7.66832,9.35481,-4.59977,3.65046,1.94809e-14,-1.43125e-14,26.8358,-23.7767,-56.908,58.9705,15.1833,-54.6799,-8.79435,7.12502,-27.074,-36.8733,1.94809e-14,-1.43125e-14,-30.069,10.1785,74.078,30.4434,-5.47213,-10.3244,31.0416,7.12502,15.6713,60.4269,-3.3477,-4.28907,14.7063,26.3572,-29.1576,-20.3985,5.37654,-7.21639,-0.978053,-23.3447,22.0814,-13.7886,-2.71037,-14.7215
0.848233,17.8955,-0.56359,2.52549,14.4261,1.77107,-1.16583,0.961266,-6.94387,-1.97162,1.27947,-2.47934,-1.47757,0.722898,1.32934,-20.5668,-9.27826,-15.1122,15.0743,-9.77767,7.83778,9.25289,-4.66883,3.69314,-9.49197e-15,4.13472e-14,28.4676,-24.2743,-56.7884,58.3308,15.7888,-54.865,-8.66905,7.12502,-27.2511,-36.7203,-9.49197e-15,4.13472e-14,-30.0655,10.1413,73.7472,30.5518,-5.4936,-10.0105,30.9908,7.12502,15.9735,60.3522,-3.34997,-4.55141,14.6853,26.3446,-29.3373,-20.5154,5.87966,-7.36167,-1.08159,-23.3764,22.1298,-13.8326,-3.05843,-14.9097
0.84944,17.8968,-0.558693,2.53638,14.8799,1.55303,-1.06452,1.01107,-6.73025,-2.07821,1.32947,-2.55451,-1.64092,0.75078,1.12946,-20.3731,-9.34636,-15.274,14.9533,-9.8861,8.01048,9.20945,-4.71427,3.76559,2.54444e-14,-4.77083e-15,30.0315,-24.6225,-56.6445,57.6439,16.4386,-54.897,-8.29523,7.12502,-27.2817,-36.3417,2.54444e-14,-4.77083e-15,-30.2435,10.2423,73.3922,30.5399,-5.51922,-10.2353,30.7198,7.12502,15.7571,60.0984,-3.27648,-4.67105,14.9607,26.2849,-29.6932,-20.5272,6.47476,-7.50713,-1.23444,-23.1134,22.2254,-13.8665,-3.37729,-14.7298
0.849968,17.8985,-0.554132,2.57446,15.2457,1.43183,-1.03313,1.07313,-6.68138,-2.1629,1.40389,-2.62839,-1.74819,0.791124,1.02352,-20.1374,-9.41604,-15.3182,14.7937,-10.0137,8.0746,9.13544,-4.77385,3.7798,-1.32689e-14,-6.36111e-15,31.5794,-24.9392,-56.5894,57.0119,17.1284,-54.5112,-7.97829,7.12502,-26.9126,-36.0822,-1.32689e-14,-6.36111e-15,-30.4098,10.4488,73.0502,30.4907,-5.58266,-10.6255,30.0557,7.12502,15.3813,59.4636,-3.2137,-4.76991,15.1243,26.1993,-29.9631,-20.513,7.13164,-7.67218,-1.27736,-22.9602,22.3588,-13.947,-3.67136,-14.6739
0.848787,17.8978,-0.549381,2.50338,15.5972,1.1468,-1.02869,1.15634,-6.44662,-2.13298,1.51557,-2.70745,-1.71783,0.841138,0.811534,-20.1053,-9.53169,-15.1887,14.6551,-10.2001,8.03295,9.09471,-4.85657,3.71496,3.40419e-14,-1.35174e-14,33.232,-25.3268,-56.5666,56.3246,17.6762,-54.4306,-7.56827,7.12502,-26.8354,-35.684,3.40419e-14,-1.35174e-14,-30.4382,10.5649,72.6738,30.5373,-5.77135,-10.6195,29.5905,7.12502,15.387,58.9979,-3.06293,-4.80184,15.4941,26.0411,-30.1655,-20.7795,7.30024,-7.79645,-1.32056,-22.6247,22.5572,-14.0727,-3.93139,-14.7564
0.848373,17.8981,-0.544453,2.51081,15.9311,1.0689,-1.04459,1.23372,-6.38326,-2.09232,1.62145,-2.85223,-1.66712,0.890007,0.627688,-20.2179,-9.62227,-15.1858,14.6169,-10.3309,8.15516,9.12351,-4.90128,3.73204,9.56154e-14,2.54444e-14,34.861,-25.7199,-56.6422,55.8086,18.2879,-54.3909,-7.90158,7.12502,-26.7974,-36.0232,9.56154e-14,2.54444e-14,-30.4541,10.3942,72.3972,30.7138,-5.70347,-10.6072,29.7796,7.12502,15.3989,59.186,-2.9694,-4.91193,15.6249,25.9219,-30.2388,-21.0228,7.24912,-7.92038,-1.44611,-22.5176,22.7091,-14.1437,-4.13246,-14.7362
0.849679,17.8983,-0.53748,2.526,16.2553,0.825878,-1.11871,1.32368,-6.15984,-2.07533,1.74834,-2.92969,-1.60518,0.947674,0.425619,-20.447,-9.7413,-15.2747,14.7754,-10.4728,8.30875,9.24947,-4.95186,3.76846,8.19987e-15,1.90833e-14,36.469,-26.0791,-56.7249,55.268,19.1434,-54.398,-8.50789,7.12502,-26.8042,-36.6284,8.19987e-15,1.90833e-14,-30.4805,10.1646,72.2239,30.9055,-5.60273,-10.7189,29.8453,7.12502,15.2913,59.26,-2.90547,-4.9406,15.9422,25.7782,-30.4453,-21.1473,7.60155,-8.09591,-1.62064,-22.2413,22.8776,-14.2156,-4.27613,-14.7459
0.854739,17.8972,-0.526068,2.55327,16.5018,0.791067,-1.18451,1.42579,-6.1214,-2.07792,1.88926,-3.05922,-1.57263,1.01592,0.2719,-20.2729,-9.87466,-15.3646,14.5934,-10.6879,8.49224,9.19967,-5.04106,3.8148,2.80286e-14,-1.59028e-15,37.9127,-26.2386,-56.6056,54.6374,19.9364,-54.7022,-8.86922,7.12502,-27.0953,-36.9448,2.80286e-14,-1.59028e-15,-30.5565,10.131,71.9668,31.0108,-5.82312,-10.6496,29.9062,7.12502,15.358,59.3158,-2.81337,-5.07621,15.9806,25.6851,-30.5159,-21.1947,7.60372,-8.15462,-1.75662,-22.2065,22.9875,-14.3065,-4.3791,-14.651
0.859366,17.8976,-0.516726,2.57521,16.7408,0.653243,-1.25693,1.48384,-6.01647,-2.07389,1.97264,-3.1409,-1.52511,1.05442,0.131606,-20.047,-9.93751,-15.3599,14.2167,-10.8131,8.60055,9.0526,-5.0908,3.83777,-3.57812e-14,2.06736e-14,39.3998,-26.2437,-56.5807,54.0637,20.602,-55.0178,-8.55905,7.12502,-27.3972,-36.5873,-3.57812e-14,2.06736e-14,-30.6436,10.3263,71.6128,31.0872,-6.126,-10.497,29.7334,7.12502,15.505,59.1317,-2.76295,-5.26508,16.125,25.5862,-30.466,-21.2752,7.43256,-8.25944,-1.83644,-22.0606,23.1082,-14.4149,-4.50188,-14.6695
0.857558,17.8981,-0.514189,2.60045,17.0332,0.632342,-1.15394,1.56429,-6.05027,-2.08966,2.0694,-3.25389,-1.60105,1.10439,0.0297616,-19.9084,-10.0234,-15.4236,13.9577,-10.9519,8.75489,8.97054,-5.14501,3.88218,-8.02593e-14,6.67916e-14,40.7925,-26.3915,-56.5392,53.5402,21.2173,-55.0997,-7.0529,7.12502,-27.4756,-35.0687,-8.02593e-14,6.67916e-14,-30.6969,10.4078,71.3601,31.1755,-6.29139,-10.5579,29.5213,7.12502,15.4463,58.9242,-2.72722,-5.42022,16.18,25.531,-30.4952,-21.4307,7.01812,-8.35506,-1.909,-22.0084,23.1865,-14.4469,-4.72775,-14.7923
0.854792,17.8999,-0.512356,2.62663,17.3451,0.489538,-1.081,1.65341,-5.95242,-2.13003,2.17857,-3.38442,-1.6797,1.15882,-0.162954,-19.8505,-10.1221,-15.3025,13.8992,-11.1336,8.77485,8.95729,-5.22252,3.84171,-6.31638e-14,2.8625e-14,41.968,-26.584,-56.5087,53.1475,21.7858,-55.0579,-5.90373,7.12502,-27.4356,-33.9259,-6.31638e-14,2.8625e-14,-30.7495,10.2366,71.1099,31.3004,-6.24191,-10.5712,29.4637,7.12502,15.4335,58.8676,-2.6962,-5.59839,16.3772,25.4358,-30.446,-21.5637,6.96101,-8.52378,-1.9325,-21.8206,23.3184,-14.5173,-5.00499,-14.3271
0.855087,17.9017,-0.506811,2.68141,17.5996,0.342364,-1.15829,1.73431,-5.84346,-2.16781,2.29041,-3.48194,-1.67132,1.21278,-0.322728,-19.6484,-10.2037,-15.3306,13.72,-11.2849,8.89415,8.88996,-5.28746,3.86837,-2.08724e-15,-3.97569e-14,43.2135,-26.6103,-56.4743,52.7186,22.4921,-55.0674,-6.12274,7.12502,-27.4446,-34.1434,-2.08724e-15,-3.97569e-14,-30.9003,10.1132,70.8357,31.4819,-6.39388,-10.1933,29.3133,7.12502,15.7975,58.6887,-2.68891,-5.78369,16.5546,25.3441,-30.454,-21.5107,7.16576,-8.71033,-2.00189,-21.6528,23.4601,-14.6133,-5.13832,-14.4798
0.854569,17.9035,-0.499858,2.66257,17.801,0.0488615,-1.22876,1.8071,-5.63704,-2.15114,2.39413,-3.50551,-1.60816,1.25981,-0.458786,-19.6707,-10.2782,-15.3542,13.5758,-11.3834,8.97369,8.86312,-5.32488,3.88237,-2.98177e-16,2.06736e-14,44.5048,-26.5346,-56.3981,52.4141,23.2191,-55.0442,-6.41339,7.12502,-27.4225,-34.4376,-2.98177e-16,2.06736e-14,-30.9321,10.1224,70.5937,31.549,-6.44842,-10.0248,29.1483,7.12502,15.9597,58.5108,-2.66932,-5.91515,16.8918,25.2496,-30.3756,-21.5932,6.90344,-8.86722,-2.17386,-21.3197,23.6097,-14.6421,-5.21274,-14.3133
0.852246,17.9066,-0.495584,2.64676,18.0539,-0.212901,-1.26475,1.86019,-5.44753,-2.11164,2.46965,-3.56671,-1.53834,1.29258,-0.624467,-19.6989,-10.37,-15.2441,13.4253,-11.5292,8.98773,8.82847,-5.38376,3.84533,1.93318e-14,-6.36111e-15,45.7308,-26.482,-56.4086,52.1647,23.9523,-55.2321,-5.84034,7.12502,-27.6021,-33.836,1.93318e-14,-6.36111e-15,-30.8508,10.0514,70.4087,31.5546,-5.97714,-10.6899,28.9468,7.12502,15.3192,58.3594,-2.62653,-5.96015,17.2287,25.1289,-30.4943,-21.7395,7.26065,-9.04349,-2.26308,-21.012,23.7695,-14.7105,-5.34515,-14.3203
0.851005,17.9103,-0.49364,2.71904,18.3075,-0.326047,-1.29013,1.95326,-5.37268,-2.14912,2.59296,-3.70851,-1.55642,1.35307,-0.812474,-19.4683,-10.4559,-15.1768,13.2122,-11.7198,9.13105,8.74624,-5.46142,3.8606,2.98177e-16,-9.54166e-15,46.7471,-26.466,-56.3737,51.8532,24.739,-55.5814,-4.90219,7.12502,-27.9361,-32.8439,2.98177e-16,-9.54166e-15,-30.9071,9.62904,70.2738,31.7226,-5.32035,-11.5468,29.0629,7.12502,14.4937,58.5367,-2.6288,-6.07723,17.3913,24.9763,-30.5068,-21.8845,7.3698,-9.27422,-2.39576,-20.8692,23.9467,-14.797,-5.46348,-14.1023
0.851583,17.9133,-0.492563,2.72893,18.5474,-0.592494,-1.22156,2.01304,-5.13808,-2.21269,2.66275,-3.76442,-1.64831,1.38627,-1.00478,-19.5081,-10.5181,-15.2352,13.2284,-11.8158,9.28681,8.78521,-5.49312,3.90532,-5.2504e-14,-1.11319e-14,47.9177,-26.3012,-56.4092,51.4132,25.6077,-55.8226,-4.5767,7.12502,-28.1667,-32.4807,-5.2504e-14,-1.11319e-14,-31.0077,9.53369,70.0995,31.8275,-4.97402,-12.0732,29.1098,7.12502,13.9864,58.6193,-2.63981,-6.19765,17.7021,24.8569,-30.526,-21.9996,7.42981,-9.46805,-2.57078,-20.5755,24.0951,-14.8259,-5.51368,-14.0824
0.851985,17.9146,-0.490188,2.66365,18.7884,-0.80655,-1.06461,2.11272,-4.92132,-2.231,2.78164,-3.84701,-1.74285,1.44326,-1.21781,-19.5331,-10.6282,-15.2454,13.1915,-11.9682,9.33775,8.80017,-5.55871,3.89748,-1.74434e-14,-3.33958e-14,49.0905,-26.1947,-56.3326,50.8838,26.2708,-55.883,-4.84888,7.12502,-28.2244,-32.7434,-1.74434e-14,-3.33958e-14,-30.8649,9.69055,69.8868,31.6285,-5.09596,-12.4194,28.9174,7.12502,13.6528,58.4496,-2.55322,-6.2861,17.94,24.7502,-30.5203,-22.0878,7.33577,-9.55593,-2.68416,-20.3449,24.2302,-14.9058,-5.58013,-14.2075
0.851746,17.9132,-0.487475,2.62207,18.9955,-0.875148,-0.90552,2.21198,-4.88626,-2.257,2.89948,-3.94729,-1.85405,1.50265,-1.34959,-19.4431,-10.7343,-15.4172,13.1336,-12.1265,9.5809,8.81407,-5.62054,3.983,1.28092e-13,-6.52014e-14,50.0811,-25.9944,-56.2185,50.5287,26.8213,-55.8966,-4.80356,7.12502,-28.2374,-32.6959,1.28092e-13,-6.52014e-14,-30.5882,10.4907,69.5013,31.0546,-5.91892,-12.31,28.4422,7.12502,13.7583,57.9673,-2.45404,-6.43982,18.0155,24.6494,-30.3451,-22.2546,6.92507,-9.62286,-2.75954,-20.2607,24.3585,-14.9886,-5.70753,-14.0267
0.852931,17.9122,-0.483782,2.62527,19.1753,-0.993289,-0.88231,2.27433,-4.8138,-2.27926,2.9794,-4.0105,-1.88395,1.5416,-1.45748,-19.304,-10.7893,-15.7174,13.0479,-12.2109,9.9517,8.81919,-5.64385,4.14654,-1.963e-14,1.43125e-14,51.1382,-25.6806,-56.388,50.2889,27.6865,-55.8825,-4.56104,7.12502,-28.2239,-32.4556,-1.963e-14,1.43125e-14,-30.4739,11.1229,69.1702,30.7201,-6.42839,-11.6752,28.4044,7.12502,14.37,57.887,-2.42715,-6.55182,18.143,24.575,-30.3708,-22.2834,6.7772,-9.72084,-2.80687,-20.1301,24.45,-14.9381,-5.83272,-13.2955
0.855677,17.9149,-0.477632,2.75495,19.2945,-1.02364,-1.01817,2.33977,-4.78472,-2.28323,3.07655,-4.13245,-1.80459,1.58806,-1.59385,-19.3732,-10.8475,-15.7715,13.0359,-12.3007,10.1317,8.85568,-5.66894,4.19904,1.81639e-14,4.77083e-15,52.2058,-25.4159,-56.6607,49.9989,28.7126,-55.8208,-3.66849,7.12502,-28.165,-31.5728,1.81639e-14,4.77083e-15,-30.4807,11.4251,68.8786,30.7509,-6.59342,-11.4912,29.5115,7.12502,14.5473,58.9815,-2.52129,-6.79371,18.1656,24.5272,-30.1231,-22.2966,6.33599,-9.87234,-2.97177,-20.0896,24.5124,-14.7517,-5.83541,-11.9256
0.857055,17.9191,-0.471451,2.77354,19.4104,-1.16427,-1.03668,2.42838,-4.6536,-2.29848,3.19487,-4.25567,-1.7965,1.64436,-1.79401,-19.3507,-10.9231,-15.622,12.9429,-12.4458,10.1411,8.83023,-5.72875,4.15545,1.85864e-14,1.11319e-14,53.1451,-25.1424,-56.8004,49.7388,29.6257,-55.7032,-3.24065,7.12502,-28.0525,-31.1634,1.85864e-14,1.11319e-14,-30.5178,11.6086,68.5383,30.7813,-6.63661,-12.1863,30.7292,7.12502,13.8775,60.2462,-2.50767,-6.88438,18.3129,24.4568,-30.045,-22.2426,6.37085,-9.97406,-3.05163,-19.93,24.581,-14.7802,-5.87384,-11.8831
0.857157,17.9222,-0.468436,2.7631,19.5504,-1.36499,-0.991834,2.5161,-4.47372,-2.34628,3.30543,-4.36687,-1.85442,1.69699,-2.01314,-19.2193,-10.991,-15.4951,12.8686,-12.5993,10.178,8.79749,-5.79517,4.12706,9.93923e-16,-1.43125e-14,53.8407,-24.8003,-56.6577,49.5133,30.3803,-55.6737,-2.86087,7.12502,-28.0244,-30.7882,9.93923e-16,-1.43125e-14,-30.5558,11.5041,68.3111,30.7876,-6.44097,-12.7251,31.2749,7.12502,13.3581,60.8267,-2.49605,-6.88407,18.5341,24.3809,-30.0716,-22.2201,6.63089,-10.0994,-3.15195,-19.7098,24.6436,-14.9519,-5.87243,-13.0572
0.855572,17.9207,-0.465131,2.72184,19.7655,-1.56825,-0.916129,2.55243,-4.36967,-2.38844,3.34607,-4.38108,-1.9334,1.71655,-2.0913,-19.1151,-11.0613,-15.5677,12.8212,-12.7008,10.2332,8.78623,-5.84439,4.14285,4.79071e-14,-1.90833e-14,54.5552,-24.2187,-56.3273,49.1982,31.0012,-55.5708,-2.92888,7.12502,-27.926,-30.8723,4.79071e-14,-1.90833e-14,-30.6513,11.8537,68.0615,30.7255,-6.80256,-12.5104,30.6694,7.12502,13.5651,60.2075,-2.43724,-6.95716,18.7745,24.2736,-29.9672,-22.3325,6.51463,-10.2153,-3.12668,-19.479,24.727,-15.1088,-6.03492,-13.7807
0.854266,17.9198,-0.458332,2.74816,20.0504,-1.61971,-0.90337,2.55809,-4.4048,-2.40706,3.35144,-4.43033,-1.95904,1.72006,-2.12416,-19.1987,-11.1305,-15.6056,12.8565,-12.7701,10.2107,8.82222,-5.87759,4.12538,5.28519e-14,-1.74931e-14,55.2461,-23.5749,-55.6589,48.727,31.3966,-55.5707,-4.28084,7.12502,-27.9259,-32.2243,5.28519e-14,-1.74931e-14,-30.7362,12.4554,67.7286,30.5985,-7.62587,-11.9972,30.1047,7.12502,14.0597,59.6092,-2.35406,-7.05792,18.8496,24.1571,-29.9956,-22.3001,6.871,-10.339,-3.14462,-19.4,24.8192,-15.1995,-6.2416,-14.0218
0.85479,17.9208,-0.455309,2.73402,20.2781,-1.78085,-0.862756,2.59248,-4.26091,-2.37302,3.39669,-4.48483,-1.93455,1.73944,-2.2613,-19.4373,-11.246,-15.6038,12.8413,-12.8864,10.2014,8.87138,-5.9237,4.09278,8.79001e-14,-3.18055e-15,56.1127,-23.03,-55.1247,48.2517,31.8187,-55.4108,-4.4999,7.12502,-27.773,-32.4681,8.79001e-14,-3.18055e-15,-30.757,12.601,67.5727,30.6648,-7.75683,-11.6233,29.9976,7.12502,14.42,59.4767,-2.28355,-7.12575,19.0015,24.0277,-30.1607,-22.1324,7.53481,-10.4594,-3.22473,-19.2234,24.9342,-15.2502,-6.3414,-13.8511
0.855797,17.923,-0.454425,2.82165,20.3531,-1.87415,-0.902162,2.65645,-4.21133,-2.39599,3.48355,-4.54073,-1.92907,1.78183,-2.3461,-19.3903,-11.297,-15.5564,12.6692,-12.9591,10.1815,8.80916,-5.95824,4.0684,7.54885e-14,-2.70347e-14,56.7878,-22.3988,-54.5725,47.993,32.3492,-55.2903,-5.17966,7.12502,-27.6577,-33.1664,7.54885e-14,-2.70347e-14,-30.8522,12.5235,67.5057,30.7512,-7.55488,-11.4374,29.9214,7.12502,14.5991,59.3876,-2.35195,-7.16965,19.0736,23.9111,-30.2111,-21.9703,8.06347,-10.6455,-3.33093,-19.1302,25.0347,-15.3014,-6.28511,-13.5605
0.856436,17.9252,-0.453151,2.87148,20.4041,-2.1002,-0.926149,2.74409,-4.03398,-2.47053,3.59825,-4.6009,-1.97647,1.83654,-2.50915,-19.1879,-11.3088,-15.4394,12.4861,-13.0317,10.2053,8.71622,-5.99128,4.05468,-3.60297e-15,3.18055e-14,57.1234,-21.7555,-53.8333,47.8611,32.9249,-55.384,-4.95597,7.12502,-27.7474,-32.9283,-3.60297e-15,3.18055e-14,-31.0236,12.5207,67.3018,30.8728,-7.33726,-11.1838,29.7192,7.12502,14.8435,59.1676,-2.45019,-7.28264,19.3053,23.8144,-29.9998,-22.0253,7.84221,-10.8435,-3.40352,-18.892,25.1273,-15.3349,-6.24867,-13.422
0.859021,17.9272,-0.450425,2.93134,20.4808,-2.23152,-0.951508,2.80199,-3.93436,-2.52185,3.67452,-4.65818,-2.00412,1.87307,-2.62486,-19.0582,-11.3263,-15.2996,12.3066,-13.0892,10.147,8.62652,-6.02128,4.00975,2.32702e-14,-2.22639e-14,57.4618,-21.0381,-52.9982,47.7407,33.4843,-55.2439,-4.05112,7.12502,-27.6135,-32.0449,2.32702e-14,-2.22639e-14,-31.2287,12.5315,67.1425,31.0336,-7.17317,-11.1743,29.5514,7.12502,14.8525,58.9991,-2.50283,-7.50826,19.4186,23.7324,-29.8018,-21.9589,7.59953,-11.0211,-3.47623,-18.7627,25.2124,-15.3121,-6.22917,-13.3403
0.862218,17.9287,-0.44729,2.99727,20.5446,-2.36771,-1.00504,2.86849,-3.80834,-2.55631,3.76528,-4.71704,-1.99597,1.91602,-2.75455,-18.993,-11.3925,-15.3059,12.1458,-13.1868,10.2028,8.57844,-6.06401,4.01602,4.81059e-14,-4.29375e-14,57.7716,-20.2776,-51.9885,47.5528,34.1484,-55.0037,-3.97974,7.12502,-27.3837,-32.0101,4.81059e-14,-4.29375e-14,-31.1974,12.7787,67.0557,30.9192,-7.32657,-11.2197,29.4444,7.12502,14.8088,58.8953,-2.5619,-7.69799,19.5351,23.6347,-29.6522,-21.8872,7.54559,-11.2133,-3.49397,-18.6297,25.3308,-15.3471,-6.21918,-13.5524
0.863647,17.9289,-0.447083,2.98107,20.5634,-2.47626,-0.909422,2.95967,-3.68292,-2.58018,3.87881,-4.82163,-2.05662,1.97023,-2.93996,-18.9669,-11.4546,-15.275,12.0501,-13.2977,10.3052,8.56216,-6.10589,4.02856,-7.70601e-14,4.13472e-14,57.8862,-19.4713,-50.7375,47.4067,34.7069,-54.8704,-4.44687,7.12502,-27.2562,-32.4973,-7.70601e-14,4.13472e-14,-31.0929,13.0069,66.9121,30.7491,-7.56386,-11.2302,29.6348,7.12502,14.7987,59.0864,-2.55435,-7.74621,19.6233,23.5585,-29.5652,-21.8678,7.53548,-11.2806,-3.55068,-18.5144,25.4429,-15.3754,-6.16392,-13.0555
0.864815,17.9301,-0.447505,3.00838,20.5852,-2.63677,-0.85851,3.04623,-3.54368,-2.59521,3.99046,-4.85889,-2.08585,2.02341,-3.0605,-19.0783,-11.5814,-15.3988,12.0167,-13.4452,10.4455,8.60859,-6.16318,4.06459,-1.12446e-13,3.65764e-14,57.9348,-18.6129,-49.1261,47.345,34.9936,-54.8546,-4.22129,7.12502,-27.2411,-32.2741,-1.12446e-13,3.65764e-14,-31.0225,13.2616,66.8289,30.6089,-7.71614,-11.0933,29.7183,7.12502,14.9306,59.1601,-2.6171,-7.71979,19.7897,23.5019,-29.5155,-21.8145,7.84568,-11.4247,-3.6092,-18.3363,25.5574,-15.2726,-6.14454,-11.9256
0.8678,17.9313,-0.446982,3.07304,20.6447,-2.77975,-0.874402,3.09864,-3.43523,-2.6295,4.06012,-4.87698,-2.10153,2.05632,-3.14048,-19.133,-11.6631,-15.4275,11.9764,-13.54,10.4602,8.61949,-6.20516,4.05518,1.10419e-14,1.11319e-14,57.9249,-17.7074,-47.355,47.353,35.4533,-54.7627,-4.39531,7.12502,-27.1532,-32.4619,1.10419e-14,1.11319e-14,-31.0896,13.5289,66.743,30.558,-7.74645,-11.0105,29.3588,7.12502,15.0104,58.7948,-2.70334,-7.87329,19.932,23.4571,-29.3445,-21.7706,7.53334,-11.6003,-3.58753,-18.1865,25.6718,-15.1561,-6.24642,-10.3677
0.871075,17.9323,-0.449305,3.14822,20.7285,-2.89878,-0.968511,3.13263,-3.32136,-2.56977,4.1155,-4.91789,-1.9742,2.08129,-3.23745,-19.2812,-11.7165,-15.3996,11.8368,-13.5978,10.5288,8.60781,-6.21879,4.05954,5.76227e-14,-2.8625e-14,58.0025,-16.8574,-45.6973,47.3903,36.1371,-54.7807,-4.60175,7.12502,-27.1704,-32.6656,5.76227e-14,-2.8625e-14,-31.056,13.4909,66.7707,30.6773,-7.45923,-10.9741,29.057,7.12502,15.0455,58.4903,-2.81922,-8.00746,20.0463,23.4456,-29.2327,-21.8034,7.05415,-11.7831,-3.62423,-18.0792,25.7565,-15.112,-6.19732,-9.91673
0.875001,17.9331,-0.452512,3.19425,20.7709,-3.03371,-1.06691,3.15898,-3.19951,-2.49872,4.16141,-4.93413,-1.83406,2.10164,-3.31229,-19.4237,-11.7937,-15.3876,11.6809,-13.6823,10.5921,8.59379,-6.24623,4.05998,-4.25896e-14,-6.36111e-15,58.0326,-15.8949,-43.728,47.498,36.6566,-54.8669,-4.13461,7.12502,-27.2528,-32.1856,-4.25896e-14,-6.36111e-15,-31.0558,13.5888,66.8112,30.7949,-7.40079,-10.9193,29.0007,7.12502,15.0982,58.4301,-2.94223,-8.09182,20.1689,23.4691,-29.1294,-21.791,6.53248,-11.9457,-3.67003,-17.9521,25.8046,-15.1692,-6.11713,-10.9388
0.879175,17.9348,-0.453262,3.26682,20.8263,-3.0699,-1.07927,3.2043,-3.16581,-2.51675,4.22158,-5.01406,-1.83542,2.1309,-3.41403,-19.3536,-11.9048,-15.3559,11.4633,-13.8553,10.6899,8.53692,-6.31927,4.06196,7.90418e-14,7.95139e-15,57.7891,-14.8811,-41.5461,47.7235,37.0785,-54.9275,-3.61329,7.12502,-27.3109,-31.6551,7.90418e-14,7.95139e-15,-31.0573,13.8868,66.674,30.6896,-7.71157,-10.8896,28.8958,7.12502,15.1268,58.323,-3.04469,-8.22476,20.1842,23.4902,-29.0323,-21.6647,6.6016,-12.0918,-3.62668,-17.9255,25.8403,-15.3471,-6.1179,-12.3915
0.882102,17.9372,-0.452598,3.3511,20.8379,-3.10298,-1.1026,3.29029,-3.12387,-2.52804,4.337,-5.12898,-1.81813,2.18748,-3.55574,-19.4005,-11.9595,-15.4341,11.4398,-13.9581,10.9836,8.5816,-6.3423,4.15314,-7.72527e-14,-7.95139e-15,57.4746,-13.968,-39.3134,47.9642,37.7852,-54.8284,-3.98551,7.12502,-27.216,-32.0422,-7.72527e-14,-7.95139e-15,-30.9455,14.0209,66.5784,30.55,-7.80333,-11.0263,28.8063,7.12502,14.9951,58.2434,-3.17175,-8.30876,20.2067,23.5248,-28.9243,-21.5844,6.78992,-12.1999,-3.59177,-17.8814,25.8544,-15.4503,-6.18795,-12.7327
0.884302,17.9403,-0.451005,3.43636,20.824,-3.18388,-1.17644,3.35881,-3.05411,-2.53746,4.43263,-5.20779,-1.77136,2.23388,-3.67173,-19.5582,-11.9307,-15.3531,11.4181,-13.9244,11.0408,8.59511,-6.31178,4.16103,8.82107e-14,-3.33958e-14,57.233,-13.0217,-37.0162,48.2419,38.5141,-54.7718,-3.90361,7.12502,-27.1619,-31.9688,8.82107e-14,-3.33958e-14,-30.9122,13.8695,66.6337,30.6234,-7.39575,-11.069,29.0819,7.12502,14.954,58.5221,-3.31676,-8.3018,20.2915,23.5446,-28.8034,-21.6536,6.52997,-12.3177,-3.60924,-17.7894,25.8777,-15.4548,-6.18162,-12.4933
0.886347,17.9408,-0.449978,3.49606,20.8819,-3.16053,-1.21018,3.40185,-3.14713,-2.5376,4.49199,-5.26933,-1.75266,2.26492,-3.6818,-19.5298,-11.8982,-15.0667,11.142,-13.9059,10.8806,8.45978,-6.30696,4.07121,3.67752e-14,-1.43125e-14,56.9377,-11.9895,-34.534,48.5856,39.1322,-54.8229,-3.1064,7.12502,-27.2107,-31.164,3.67752e-14,-1.43125e-14,-30.9249,13.7316,66.7622,30.6744,-7.08032,-11.2713,29.4677,7.12502,14.7592,58.9222,-3.3767,-8.37915,20.2514,23.5543,-28.7147,-21.7284,6.08135,-12.4072,-3.56963,-17.8174,25.9217,-15.4629,-6.26539,-12.4032
0.887943,17.941,-0.449394,3.49308,21.0002,-3.29891,-1.20802,3.41717,-3.08405,-2.53154,4.51284,-5.26676,-1.74202,2.27436,-3.71393,-19.5757,-11.8984,-14.9372,11.0169,-13.9101,10.8159,8.41057,-6.30771,4.02893,3.34455e-14,2.06736e-14,56.5633,-10.9016,-31.9174,49.0896,39.9557,-55.2556,-3.29849,7.12502,-27.6246,-31.2905,3.34455e-14,2.06736e-14,-30.9406,13.8602,66.8231,30.6693,-7.17198,-11.2283,29.5003,7.12502,14.8005,58.9518,-3.42036,-8.40104,20.4014,23.5628,-28.781,-21.7281,6.27672,-12.5196,-3.37758,-17.6723,25.9781,-15.5398,-6.54548,-12.365
0.8904,17.9405,-0.446711,3.47538,21.025,-3.42922,-1.19379,3.46994,-3.02432,-2.50726,4.58378,-5.26672,-1.71726,2.30884,-3.74683,-19.617,-11.9853,-15.0701,10.9789,-14.0293,11.0542,8.45042,-6.34588,4.10639,-4.34344e-14,-4.29375e-14,56.1996,-9.86947,-29.1826,49.5882,40.818,-55.6051,-4.66654,7.12502,-27.9588,-32.6046,-4.34344e-14,-4.29375e-14,-30.9039,14.1614,66.8224,30.541,-7.53546,-11.0939,29.0613,7.12502,14.93,58.5032,-3.46061,-8.43094,20.541,23.5781,-28.61,-21.8251,6.09766,-12.5664,-3.30306,-17.5451,26.0236,-15.599,-6.58736,-12.7515
0.894902,17.9406,-0.446307,3.54091,21.0477,-3.48793,-1.23616,3.50237,-3.01088,-2.49273,4.63058,-5.31104,-1.67187,2.3319,-3.79648,-19.7522,-12.0679,-15.119,11.0344,-14.1554,11.2674,8.53067,-6.38207,4.1574,7.85199e-15,9.54166e-15,55.8628,-8.82058,-26.4091,50.2071,41.374,-55.6598,-5.62815,7.12502,-28.011,-33.5577,7.85199e-15,9.54166e-15,-30.7911,14.3149,66.8143,30.4067,-7.58546,-10.9668,28.7788,7.12502,15.0525,58.2116,-3.55455,-8.47096,20.5852,23.5859,-28.6068,-21.7112,6.50869,-12.6842,-3.21887,-17.4918,26.079,-15.6479,-6.68433,-12.994
0.900984,17.9462,-0.448498,3.6456,21.0589,-3.53489,-1.26978,3.53614,-2.92683,-2.50514,4.67718,-5.39985,-1.64977,2.3537,-3.93336,-19.8889,-12.0695,-15.0278,10.9492,-14.1682,11.3454,8.52638,-6.37193,4.16366,5.95857e-14,1.90833e-14,55.5323,-7.73715,-23.7345,50.9291,41.7667,-55.8094,-5.56829,7.12502,-28.1541,-33.4744,5.95857e-14,1.90833e-14,-30.7366,14.2308,66.8115,30.3712,-7.33662,-10.9272,28.5179,7.12502,15.0906,57.9479,-3.72155,-8.45951,20.6265,23.612,-28.4645,-21.8617,6.01947,-12.8263,-3.28264,-17.4446,26.1406,-15.5515,-6.71364,-11.7936
0.905399,17.9504,-0.449299,3.65861,21.0105,-3.56267,-1.16427,3.61415,-2.91017,-2.53659,4.77265,-5.45921,-1.7308,2.40093,-4.01359,-19.9241,-12.08,-15.0094,10.8626,-14.1804,11.3801,8.50617,-6.3725,4.16986,1.02623e-13,-5.725e-14,55.1109,-6.6316,-20.9151,51.7478,42.2589,-55.7689,-5.54737,7.12502,-28.1153,-33.4598,1.02623e-13,-5.725e-14,-30.7746,14.2628,66.8274,30.3305,-7.34498,-10.8163,28.1707,7.12502,15.1974,57.5925,-3.78903,-8.49153,20.6267,23.67,-28.3297,-21.8441,5.80753,-12.8411,-3.31714,-17.4227,26.1901,-15.3709,-6.72,-10.0146
0.909996,17.9505,-0.450628,3.63924,21.0084,-3.70676,-1.0692,3.6896,-2.79352,-2.57793,4.86528,-5.4716,-1.81161,2.44518,-4.10046,-19.8188,-12.1165,-15.0502,10.6987,-14.2318,11.4429,8.44876,-6.39726,4.1931,3.53837e-14,-3.49861e-14,54.7332,-5.55672,-18.0567,52.4878,42.9842,-55.6684,-5.63996,7.12502,-28.0193,-33.5681,3.53837e-14,-3.49861e-14,-30.8186,14.3419,66.9204,30.3543,-7.4031,-10.8712,28.3545,7.12502,15.1446,57.7804,-3.84372,-8.54626,20.7553,23.75,-28.2458,-21.7601,5.88324,-12.8859,-3.19092,-17.2865,26.2174,-15.2594,-6.87671,-9.06297
0.914956,17.9493,-0.449054,3.58851,21.1427,-3.74313,-0.980442,3.72042,-2.77222,-2.54516,4.90292,-5.51061,-1.82055,2.46355,-4.1579,-19.887,-12.171,-15.075,10.7689,-14.3043,11.4844,8.4989,-6.42537,4.1944,-6.5102e-15,-4.77083e-15,54.3759,-4.58216,-15.1465,53.3207,43.3455,-55.5217,-4.72044,7.12502,-27.879,-32.6715,-6.5102e-15,-4.77083e-15,-30.7509,14.248,67.0718,30.408,-7.24892,-10.9608,28.9018,7.12502,15.0582,58.3342,-3.81462,-8.70411,20.7686,23.8367,-28.1385,-21.7399,5.58223,-12.8864,-3.19338,-17.2624,26.2559,-15.3674,-6.977,-9.65552
0.917391,17.9453,-0.443319,3.45313,21.4431,-3.71264,-0.853388,3.68476,-2.88612,-2.44296,4.85284,-5.5342,-1.79637,2.44039,-4.12349,-20.1294,-12.2312,-15.0921,11.028,-14.3744,11.507,8.63932,-6.44574,4.18046,1.38155e-14,-3.18055e-15,54.0193,-3.63102,-12.3837,54.2191,43.7271,-55.6235,-4.20244,7.12502,-27.9764,-32.1376,1.38155e-14,-3.18055e-15,-30.7168,14.6502,66.93,30.1124,-7.7656,-10.5937,26.9894,7.12502,15.4118,56.3949,-3.63011,-8.76424,20.7309,23.914,-28.36,-21.7539,6.00254,-12.8009,-3.27368,-17.2965,26.3143,-15.6283,-7.06603,-11.2867
0.921358,17.9435,-0.443596,3.43974,21.5691,-3.80928,-0.788775,3.70436,-2.85618,-2.4645,4.87388,-5.55113,-1.84991,2.45031,-4.16385,-19.9694,-12.2224,-15.1099,10.732,-14.3963,11.7262,8.53711,-6.44467,4.26183,9.34288e-14,1.27222e-14,53.6325,-2.58719,-9.60543,55.1025,44.2562,-56.3067,-4.55969,7.12502,-28.6293,-32.3866,9.34288e-14,1.27222e-14,-30.7542,14.4871,67.0444,30.2174,-7.45199,-10.5335,27.1266,7.12502,15.4698,56.5276,-3.66691,-8.78494,20.8221,23.9726,-28.4919,-21.7158,6.29842,-12.8915,-3.26445,-17.2215,26.3663,-15.7745,-7.0942,-12.1517
0.928162,17.9446,-0.44898,3.53183,21.4473,-3.97597,-0.810143,3.79464,-2.68322,-2.54269,4.99213,-5.59716,-1.89387,2.50632,-4.31058,-19.7854,-12.2171,-15.1276,10.3828,-14.4208,11.9482,8.41412,-6.44629,4.34472,-5.71506e-14,3.18055e-14,53.2585,-1.59829,-7.01335,55.9818,44.8965,-56.5121,-3.49064,7.12502,-28.8255,-31.2843,-5.71506e-14,3.18055e-14,-30.7979,14.2257,67.1643,30.445,-7.05272,-10.4197,27.6643,7.12502,15.5794,57.0568,-3.9052,-8.76827,20.9627,23.9927,-28.225,-21.7254,5.88345,-13.0855,-3.23797,-17.0752,26.4182,-15.75,-7.02415,-12.1735
0.933761,17.9462,-0.445863,3.48644,21.6048,-4.06727,-0.811687,3.77033,-2.6748,-2.47195,4.96405,-5.5677,-1.8232,2.49251,-4.28049,-19.9797,-12.22,-15.1401,10.3662,-14.3879,11.9483,8.43659,-6.42309,4.34541,2.05742e-14,6.99722e-14,53.0644,-0.76046,-4.4645,56.8562,45.4156,-57.0858,-1.44997,7.12502,-29.3734,-29.1489,2.05742e-14,6.99722e-14,-30.7583,14.4613,67.2136,30.4023,-7.1671,-10.4688,27.7983,7.12502,15.5321,57.1945,-3.8913,-8.82987,21.0516,24.0019,-28.1525,-21.9147,5.42865,-13.115,-3.25818,-16.9885,26.4775,-15.7908,-7.15859,-12.1314
0.935655,17.9419,-0.431543,3.12957,22.2403,-4.06306,-0.625066,3.59828,-2.85465,-2.19196,4.73835,-5.49602,-1.67139,2.38307,-4.1048,-20.2209,-12.2478,-15.1246,10.1959,-14.3713,11.9399,8.41389,-6.40575,4.33558,-2.88238e-15,-9.54166e-15,53.0031,-0.0879745,-2.32099,57.5921,46.0322,-57.5565,-0.223884,7.12502,-29.8227,-27.8431,-2.88238e-15,-9.54166e-15,-30.5976,14.104,67.7651,30.6789,-5.5978,-12.1313,29.7198,7.12502,13.9304,59.2332,-3.37132,-9.12784,21.0728,24.0213,-28.4487,-22.1623,4.94575,-12.7719,-3.49583,-16.953,26.5194,-15.8834,-7.62598,-11.9297
0.941002,17.9481,-0.428219,3.22357,22.2282,-4.19012,-0.793716,3.63693,-2.83895,-2.14652,4.80328,-5.44408,-1.52968,2.41568,-4.04482,-20.4545,-12.3108,-15.2031,10.1753,-14.4033,11.982,8.45854,-6.40989,4.34698,-1.26725e-13,3.81667e-14,53.0177,0.478241,-0.641391,58.2233,46.8691,-57.694,0.532015,7.12502,-29.9539,-27.0636,-1.26725e-13,3.81667e-14,-30.5545,15.0599,67.5472,30.5549,-7.30932,-10.3369,28.3227,7.12502,15.6592,57.709,-3.55598,-9.09941,21.2107,24.0601,-28.2803,-22.2843,4.60225,-12.9246,-3.4433,-16.8248,26.533,-15.833,-7.68277,-11.7635
0.947069,17.9506,-0.42383,3.23487,22.3549,-4.2948,-0.910987,3.62287,-2.80667,-2.09556,4.79509,-5.44248,-1.40915,2.41139,-4.04968,-20.5628,-12.3625,-15.1348,10.1787,-14.4673,11.9344,8.4764,-6.4367,4.30497,-7.02704e-14,3.18055e-15,52.8965,1.06147,0.949964,58.9466,47.4559,-58.1261,1.06149,7.12502,-30.3661,-26.4589,-7.02704e-14,3.18055e-15,-30.5014,12.9951,68.8758,31.8776,-2.85713,-14.4391,36.4466,7.12502,11.7057,66.0996,-3.60019,-9.11007,21.3112,24.1309,-28.3396,-22.2268,5.16809,-12.9763,-3.431,-16.7224,26.5264,-15.8482,-7.77635,-11.7703
0.952504,17.9506,-0.419209,3.18178,22.4583,-4.32012,-0.902914,3.61332,-2.852,-2.07987,4.78274,-5.47502,-1.39911,2.4058,-4.05818,-20.4462,-12.4083,-15.0021,10.0129,-14.555,11.8591,8.39626,-6.48501,4.24967,4.55217e-14,-1.04958e-13,52.6566,1.69101,2.53833,59.749,47.877,-58.5412,1.26748,7.12502,-30.762,-26.1791,4.55217e-14,-1.04958e-13,-30.627,12.652,69.0491,32.2876,-2.20772,-14.7422,38.2665,7.12502,11.4133,67.9358,-3.59335,-9.09388,21.3153,24.2573,-28.4155,-22.2099,5.60125,-12.9187,-3.38026,-16.7029,26.5115,-15.9048,-7.95608,-11.6795
0.957565,17.9529,-0.417524,3.13248,22.5481,-4.36514,-0.811844,3.61952,-2.83037,-2.10168,4.7842,-5.54044,-1.46536,2.4061,-4.14603,-20.2656,-12.36,-15.044,9.86148,-14.5352,12.0928,8.3387,-6.46525,4.34639,2.41523e-14,9.54166e-15,52.2804,2.20414,3.96214,60.5395,48.3201,-58.7904,1.66216,7.12502,-30.9996,-25.7394,2.41523e-14,9.54166e-15,-30.7691,12.3395,69.079,32.5283,-1.88018,-14.6304,39.0688,7.12502,11.5212,68.7322,-3.62241,-9.07219,21.3423,24.4123,-28.4864,-22.2455,5.69743,-12.8858,-3.36313,-16.6687,26.5014,-15.9107,-8.14259,-11.4859
0.964463,17.9548,-0.41661,3.1005,22.6844,-4.4409,-0.724266,3.60754,-2.78753,-2.14664,4.76038,-5.57463,-1.55575,2.39341,-4.21412,-20.0137,-12.2292,-15.2094,9.71263,-14.411,12.4971,8.28151,-6.38992,4.54048,-4.55217e-14,-5.08889e-14,51.8628,2.70116,5.29256,61.3279,48.5415,-59.163,1.59981,7.12502,-31.3546,-25.7335,-4.55217e-14,-5.08889e-14,-30.9544,12.2331,69.022,32.6294,-1.89192,-14.425,39.1818,7.12502,11.7193,68.8339,-3.65117,-9.08525,21.4124,24.5579,-28.5489,-22.2905,5.64959,-12.9078,-3.33432,-16.6091,26.5174,-15.9152,-8.29716,-11.4932
0.967898,17.9544,-0.414604,3.01475,22.84,-4.47147,-0.542829,3.58165,-2.8825,-2.17727,4.71187,-5.57462,-1.69951,2.37018,-4.17632,-19.8705,-12.1604,-15.2328,9.63627,-14.3416,12.5861,8.23324,-6.35739,4.59246,5.02925e-14,-7.63333e-14,51.5496,3.19085,6.24184,61.9527,48.8577,-59.6729,2.03572,7.12502,-31.8404,-25.2021,5.02925e-14,-7.63333e-14,-31.1376,12.3867,68.8912,32.5798,-2.19557,-14.0291,38.4596,7.12502,12.1011,68.0897,-3.60091,-9.1467,21.4372,24.6578,-28.3509,-22.5061,5.08844,-12.8726,-3.32566,-16.5881,26.5681,-15.9395,-8.43131,-11.7214
0.972017,17.954,-0.41183,2.8742,22.9892,-4.62182,-0.354953,3.54425,-2.81735,-2.20706,4.64877,-5.57352,-1.83382,2.33728,-4.22632,-19.9172,-12.161,-15.1885,9.77782,-14.353,12.5338,8.28191,-6.36284,4.56351,-4.25399e-14,1.27222e-14,51.2792,3.60549,6.85496,62.4786,49.0971,-59.9365,2.74997,7.12502,-32.0914,-24.4376,-4.25399e-14,1.27222e-14,-31.3225,12.7449,68.5984,32.4433,-2.72441,-13.4445,37.1628,7.12502,12.6647,66.7588,-3.55104,-9.258,21.5725,24.7343,-28.1104,-22.7436,4.09509,-12.8216,-3.26577,-16.4305,26.6331,-15.9781,-8.71066,-11.5701
0.979146,17.9559,-0.407331,2.76036,23.14,-4.85569,-0.329683,3.49136,-2.61849,-2.16801,4.58091,-5.5705,-1.7956,2.30041,-4.33288,-20.104,-12.1835,-15.0338,9.87512,-14.3841,12.4085,8.32636,-6.37386,4.48511,1.51076e-14,-6.36111e-15,50.9988,3.76645,7.35634,62.9023,49.0677,-60.3533,2.5476,7.12502,-32.4882,-24.5592,1.51076e-14,-6.36111e-15,-31.3805,13.2983,68.2393,32.2146,-3.39021,-12.7652,35.4122,7.12502,13.3196,64.9665,-3.55424,-9.28701,21.7976,24.7922,-27.992,-22.9148,3.66218,-12.8139,-3.23926,-16.1913,26.6887,-15.9641,-8.99029,-10.6726
0.986081,17.9576,-0.403212,2.71449,23.3315,-4.88753,-0.342766,3.44844,-2.65265,-2.05522,4.53081,-5.58165,-1.67629,2.27639,-4.31852,-20.3639,-12.2782,-14.8852,9.86335,-14.4866,12.269,8.35434,-6.41708,4.3878,-3.926e-14,4.45278e-14,50.5638,3.72735,7.6853,63.3302,49.0093,-60.8534,2.10396,7.12502,-32.9639,-24.9039,-3.926e-14,4.45278e-14,-31.2947,13.9615,67.9549,31.8918,-4.27622,-12.2165,33.5208,7.12502,13.8484,63.0398,-3.52124,-9.39676,21.7946,24.8484,-27.9306,-22.9334,3.75249,-12.782,-3.37174,-16.1694,26.7273,-15.8047,-9.11454,-9.17458
0.991025,17.9613,-0.397533,2.66851,23.4823,-4.93881,-0.355029,3.41635,-2.72962,-1.96539,4.49341,-5.5691,-1.58565,2.25912,-4.25711,-20.5029,-12.37,-14.9147,9.76494,-14.5832,12.3302,8.36447,-6.45225,4.39064,-1.92821e-14,-9.54166e-15,50.205,3.65204,7.78214,63.5765,49.0635,-61.0604,2.01676,7.12502,-33.1607,-24.9494,-1.92821e-14,-9.54166e-15,-31.2938,14.4056,67.7388,31.7247,-4.99177,-11.6352,31.7805,7.12502,14.4085,61.2604,-3.50389,-9.4486,21.8193,24.945,-27.8457,-22.9714,3.51801,-12.7506,-3.48078,-16.124,26.7272,-15.7036,-9.20497,-8.44374
0.99372,17.9651,-0.394324,2.57945,23.6107,-5.08916,-0.271413,3.39644,-2.71063,-1.95001,4.46268,-5.55392,-1.61806,2.24342,-4.2568,-20.4775,-12.4084,-15.1086,9.67725,-14.6336,12.6329,8.38101,-6.45789,4.51373,1.0635e-14,-6.36111e-15,49.7994,3.57023,7.68995,63.642,49.2344,-61.4728,1.99943,7.12502,-33.5528,-24.8825,1.0635e-14,-6.36111e-15,-31.3836,14.6943,67.5164,31.6429,-5.60077,-11.1074,30.4053,7.12502,14.9171,59.8482,-3.48967,-9.46875,21.959,25.0735,-27.9902,-22.8528,3.78542,-12.7282,-3.53715,-15.9621,26.7166,-15.6935,-9.29608,-8.51045
0.999757,17.9684,-0.394301,2.59765,23.7434,-5.10065,-0.178466,3.37492,-2.78631,-2.00403,4.42424,-5.5825,-1.73169,2.22492,-4.25338,-20.4023,-12.3645,-15.267,9.68493,-14.5854,12.8616,8.39858,-6.42452,4.62625,3.15074e-14,9.54166e-15,49.2963,3.4871,7.48132,63.7089,49.283,-61.8289,1.98602,7.12502,-33.8912,-24.8218,3.15074e-14,9.54166e-15,-31.5268,14.8865,67.2959,31.4798,-6.11994,-10.6219,28.851,7.12502,15.3847,58.2586,-3.57512,-9.56735,21.9528,25.226,-27.9823,-22.8726,3.58212,-12.7654,-3.64254,-15.9606,26.6889,-15.78,-9.32629,-9.24908
1.00457,17.9683,-0.393743,2.60373,23.8772,-5.19936,-0.162878,3.35536,-2.81544,-2.01842,4.39608,-5.56349,-1.76045,2.21123,-4.21891,-20.4516,-12.2952,-15.3204,9.78491,-14.4942,12.9441,8.4395,-6.37395,4.67685,-4.42296e-14,3.49861e-14,48.8446,3.2395,7.31229,63.6886,48.9528,-61.7433,1.99239,7.12502,-33.8099,-24.8334,-4.42296e-14,3.49861e-14,-31.6571,14.8501,67.2019,31.457,-6.279,-10.2383,27.6805,7.12502,15.7542,57.0593,-3.68548,-9.6537,22.0463,25.3618,-27.9206,-22.8422,3.65494,-12.856,-3.72419,-15.8614,26.6849,-15.9766,-9.41565,-10.3637
1.0108,17.9688,-0.39014,2.59498,23.9783,-5.22842,-0.15181,3.33031,-2.8989,-1.95231,4.36505,-5.52116,-1.70953,2.19711,-4.1257,-20.6135,-12.3222,-15.3752,9.79788,-14.4712,12.8454,8.46107,-6.36645,4.64982,6.0033e-14,4.45278e-14,48.5053,2.78628,7.07203,63.4952,48.5658,-61.8666,2.51216,7.12502,-33.927,-24.2878,6.0033e-14,4.45278e-14,-31.6552,14.9563,67.2497,31.4269,-6.36886,-9.99433,26.8713,7.12502,15.9891,56.2315,-3.73609,-9.7488,22.0441,25.5075,-27.7286,-22.8695,3.35636,-12.8688,-3.69331,-15.8477,26.677,-16.1271,-9.52293,-11.0782
1.0167,17.9715,-0.387989,2.56715,24.1056,-5.33159,-0.0914566,3.27071,-2.87722,-1.83883,4.28869,-5.44536,-1.63409,2.15883,-4.0568,-21.0438,-12.3898,-15.4103,9.79191,-14.4414,12.639,8.50653,-6.35263,4.57505,-8.70677e-14,5.725e-14,48.2201,2.11938,6.69096,63.1828,48.3037,-61.9643,2.85481,7.12502,-34.0198,-23.9246,-8.70677e-14,5.725e-14,-31.5106,15.1793,67.3941,31.4657,-6.3152,-9.9858,26.7664,7.12502,15.9973,56.1258,-3.79431,-9.79661,22.1306,25.6311,-27.6672,-22.9073,3.34841,-12.9081,-3.76943,-15.761,26.6906,-16.1285,-9.55304,-11.0076
1.0233,17.9736,-0.389566,2.63203,24.2778,-5.35999,-0.0340132,3.18932,-2.89816,-1.7835,4.17963,-5.41358,-1.61835,2.10467,-4.01224,-21.428,-12.3991,-15.622,9.83487,-14.3601,12.7831,8.60043,-6.29215,4.65736,-3.10104e-14,3.81667e-14,47.8264,1.44528,6.11674,62.8796,48.2815,-61.9507,3.16688,7.12502,-34.0069,-23.6154,-3.10104e-14,3.81667e-14,-31.4219,15.2646,67.5307,31.5713,-6.15034,-10.0749,26.9165,7.12502,15.9115,56.2829,-3.95897,-9.91263,22.1504,25.7874,-27.6515,-22.94,3.38793,-12.993,-3.91707,-15.7389,26.6687,-16.109,-9.54602,-11.0806
1.02979,17.9759,-0.389604,2.66893,24.4849,-5.36822,0.0606368,3.13421,-2.92473,-1.79395,4.09928,-5.44355,-1.68587,2.0648,-4.03443,-21.599,-12.3893,-15.8972,9.9929,-14.3253,13.1443,8.73169,-6.24528,4.82267,-3.85642e-14,4.13472e-14,47.3934,0.869861,5.31641,62.391,48.2859,-61.9852,2.86,7.12502,-34.0397,-23.9149,-3.85642e-14,4.13472e-14,-31.4333,15.4112,67.4035,31.5152,-6.54331,-9.99574,26.649,7.12502,15.9877,56.0093,-4.07426,-10.1338,22.141,25.9408,-27.495,-22.9904,2.95056,-13.0445,-4.08153,-15.7284,26.6352,-16.0432,-9.68876,-10.6519
1.03548,17.9789,-0.387676,2.71639,24.6688,-5.37876,0.0933359,3.08967,-2.95697,-1.78902,4.03779,-5.48991,-1.70107,2.03449,-4.06589,-21.6458,-12.4084,-15.7908,9.97289,-14.355,13.0525,8.72015,-6.26132,4.76797,7.15625e-15,-6.04305e-14,47.0535,0.23815,4.39778,61.7163,48.2669,-61.9915,2.24206,7.12502,-34.0456,-24.5316,7.15625e-15,-6.04305e-14,-31.3333,15.6843,67.2023,31.3176,-6.96858,-9.82922,26.2517,7.12502,16.1481,55.599,-4.19526,-10.3034,22.1421,26.1023,-27.3318,-23.0994,2.36034,-13.0988,-4.22722,-15.7181,26.5806,-15.9908,-9.77035,-10.6994
1.04116,17.9808,-0.384047,2.76212,24.8682,-5.37379,0.143723,3.05594,-3.04232,-1.81928,3.98677,-5.51125,-1.76751,2.01016,-4.04454,-21.6044,-12.4385,-15.6765,9.98504,-14.3992,12.8521,8.69615,-6.29751,4.67487,-5.1684e-15,-4.13472e-14,46.6023,-0.435483,3.53252,61.0962,48.269,-61.8206,2.35665,7.12502,-33.8833,-24.4529,-5.1684e-15,-4.13472e-14,-31.3596,15.9436,66.9763,31.1489,-7.45371,-9.3241,25.2569,7.12502,16.6344,54.5641,-4.277,-10.4266,22.1382,26.2372,-27.2912,-23.1762,2.12616,-13.1495,-4.34335,-15.7259,26.5237,-15.9135,-9.8958,-10.5373
1.04708,17.9833,-0.38066,2.7688,25.0359,-5.33994,0.278597,3.04143,-3.15604,-1.87385,3.95355,-5.53961,-1.90714,1.99514,-4.02144,-21.5114,-12.4352,-15.746,10.011,-14.3991,12.8849,8.69819,-6.3012,4.69953,4.17448e-15,-1.27222e-14,46.0669,-1.20642,2.66387,60.5084,48.0798,-61.5188,1.0774,7.12502,-33.5965,-25.795,4.17448e-15,-1.27222e-14,-31.505,16.0284,66.7484,31.0778,-7.89081,-8.74014,24.3171,7.12502,17.1966,53.5761,-4.29397,-10.555,22.0801,26.3675,-27.3081,-23.1191,2.18476,-13.121,-4.42797,-15.7638,26.4654,-15.7261,-10.057,-9.61176
1.05437,17.9866,-0.379091,2.74223,25.1969,-5.44198,0.343779,3.02707,-3.12555,-1.90219,3.92884,-5.54304,-1.97189,1.98232,-4.04702,-21.2645,-12.3797,-15.8653,9.73577,-14.3402,13.0998,8.58568,-6.27138,4.81193,4.85035e-14,-3.18055e-15,45.5745,-2.07102,1.84084,59.8309,47.6821,-61.0484,-2.5992,7.12502,-33.1494,-29.5678,4.85035e-14,-3.18055e-15,-31.6164,15.6337,66.7977,31.2527,-7.3912,-9.1221,24.9917,7.12502,16.8289,54.2824,-4.33083,-10.6998,22.1354,26.4763,-27.3684,-22.9705,2.56779,-13.1245,-4.54487,-15.6693,26.4254,-15.443,-10.214,-8.03972
1.06167,17.9873,-0.380035,2.74882,25.363,-5.48814,0.386203,3.02163,-3.12061,-1.87806,3.92038,-5.56778,-1.96918,1.97803,-4.07703,-21.2654,-12.378,-15.753,9.59651,-14.3469,13.0598,8.52763,-6.27448,4.78083,4.96962e-14,3.18055e-15,45.0665,-3.08824,1.0406,59.0608,47.3641,-60.7764,-4.18393,7.12502,-32.8907,-31.2071,4.96962e-14,3.18055e-15,-31.566,15.0672,66.997,31.4801,-6.67835,-9.57406,25.8325,7.12502,16.3938,55.1597,-4.37773,-10.7933,22.1453,26.5756,-27.5085,-22.8035,3.23539,-13.1695,-4.69286,-15.6332,26.3982,-15.3908,-10.3042,-7.96975
1.06839,17.9855,-0.379621,2.67797,25.5854,-5.55589,0.514867,2.98247,-3.06279,-1.82398,3.86397,-5.56464,-1.98463,1.94897,-4.1106,-21.5512,-12.4259,-15.693,9.78403,-14.3744,12.9112,8.62242,-6.28446,4.70513,-2.24627e-14,5.08889e-14,44.5672,-4.19353,0.283413,58.3413,46.9673,-60.6031,-4.24921,7.12502,-32.7258,-31.3069,-2.24627e-14,5.08889e-14,-31.4849,14.8574,67.0756,31.5537,-6.51714,-9.71442,25.8737,7.12502,16.2586,55.212,-4.33751,-10.9459,22.1766,26.6454,-27.6149,-22.7241,3.53526,-13.1735,-4.75549,-15.5747,26.3993,-15.6394,-10.4734,-9.42895
1.07599,17.9869,-0.377351,2.73305,25.8274,-5.51329,0.588282,2.93594,-3.09509,-1.80894,3.79752,-5.59845,-2.01347,1.91627,-4.13048,-21.6637,-12.4489,-15.6005,9.80823,-14.3854,12.7491,8.62781,-6.29548,4.62979,-2.92213e-14,1.59028e-14,44.1582,-5.33571,-0.628285,57.5555,46.6239,-60.4976,-4.45236,7.12502,-32.6255,-31.5309,-2.92213e-14,1.59028e-14,-31.4043,14.6312,67.1937,31.6542,-6.09226,-10.3486,26.0693,7.12502,15.648,55.4565,-4.38377,-11.1734,22.1135,26.7197,-27.691,-22.7089,3.48062,-13.2533,-4.74917,-15.6328,26.399,-15.7636,-10.7142,-10.2946
1.08136,17.9889,-0.376529,2.78448,26.0602,-5.58936,0.676104,2.86318,-3.09292,-1.84469,3.69272,-5.56451,-2.10688,1.86389,-4.10103,-21.6434,-12.4342,-15.653,9.70742,-14.344,12.7636,8.58942,-6.27811,4.65167,-4.45278e-14,6.67916e-14,44.0819,-6.52173,-1.7165,56.4603,46.4562,-60.6776,-3.93261,7.12502,-32.7967,-30.9755,-4.45278e-14,6.67916e-14,-31.3898,14.6528,67.2137,31.6931,-5.94524,-10.8285,26.1838,7.12502,15.1857,55.6066,-4.48864,-11.3174,22.2083,26.7765,-27.6723,-22.8189,3.46127,-13.3966,-4.69463,-15.5419,26.4143,-15.7468,-11.0727,-10.2554
1.08536,17.9886,-0.374404,2.76893,26.2438,-5.60255,0.836454,2.81142,-3.17187,-1.8382,3.61185,-5.54469,-2.20047,1.82473,-4.04386,-21.7229,-12.4165,-15.7567,9.67752,-14.2889,12.8529,8.60011,-6.24476,4.70561,4.6118e-14,9.54166e-15,44.0158,-7.84633,-2.94784,55.3484,46.5091,-60.8177,-3.03452,7.12502,-32.9299,-30.0495,4.6118e-14,9.54166e-15,-31.3679,15.0567,66.9331,31.5034,-6.71208,-10.2195,25.5014,7.12502,15.7723,54.8788,-4.47208,-11.4533,22.2145,26.8105,-27.5214,-22.8787,3.25379,-13.4202,-4.66501,-15.5227,26.4437,-15.7292,-11.3051,-10.0026
1.08945,17.9882,-0.372282,2.8118,26.4213,-5.58778,0.955833,2.77556,-3.24545,-1.86319,3.55261,-5.58438,-2.2984,1.79625,-4.051,-21.8281,-12.4308,-15.7527,9.73355,-14.3051,12.8873,8.64147,-6.24402,4.70997,-6.4605e-14,2.22639e-14,43.796,-9.18447,-4.10826,54.401,46.4433,-60.3064,-3.59187,7.12502,-32.4434,-30.7079,-6.4605e-14,2.22639e-14,-31.4423,15.1018,66.6593,31.5054,-7.05392,-9.65186,25.0214,7.12502,16.3189,54.3548,-4.49867,-11.5851,22.2007,26.8268,-27.4368,-22.8875,3.08367,-13.5305,-4.58556,-15.5421,26.4845,-15.7201,-11.5789,-9.83006
1.09397,17.9895,-0.371343,2.75008,26.5938,-5.76867,1.07873,2.7607,-3.10401,-1.87207,3.52712,-5.59452,-2.36863,1.78096,-4.1475,-21.9802,-12.4874,-15.7425,9.83205,-14.3781,12.9204,8.71238,-6.26716,4.70031,6.55989e-15,3.49861e-14,43.7864,-10.5643,-5.49193,53.2163,46.4227,-60.0493,-4.25212,7.12502,-32.1988,-31.418,6.55989e-15,3.49861e-14,-31.4841,14.6901,66.6517,31.7999,-6.70087,-9.72845,25.5942,7.12502,16.2451,54.9336,-4.52356,-11.6036,22.3869,26.874,-27.5606,-22.9259,3.27349,-13.6123,-4.53423,-15.3612,26.5074,-15.6917,-11.845,-9.49951
1.09992,17.9948,-0.370814,2.75423,26.7577,-5.94873,1.14643,2.77656,-2.94009,-1.91568,3.54507,-5.61714,-2.43953,1.78683,-4.2692,-22.0516,-12.5424,-15.7384,9.90734,-14.458,12.9518,8.7638,-6.29758,4.69232,-2.92213e-14,-9.54166e-15,43.8459,-11.9358,-6.88541,51.8819,46.2083,-60.258,-4.94762,7.12502,-32.3974,-32.0731,-2.92213e-14,-9.54166e-15,-31.4425,14.3198,66.6777,31.9663,-6.54783,-9.93538,26.2399,7.12502,16.0459,55.5955,-4.65693,-11.607,22.5806,26.9642,-27.6636,-23.0623,3.04795,-13.7447,-4.55224,-15.1916,26.5102,-15.5523,-12.0014,-9.02792
1.10776,17.9985,-0.373631,2.94911,26.8829,-5.9584,1.10137,2.77399,-2.91245,-1.96564,3.54237,-5.63173,-2.46339,1.78497,-4.29932,-22.0804,-12.5622,-15.8355,9.91839,-14.456,12.9729,8.78082,-6.29695,4.71336,-3.3197e-14,2.22639e-14,44.0661,-13.4503,-8.44551,50.6052,46.0556,-60.3781,-5.01034,7.12502,-32.5117,-32.1123,-3.3197e-14,2.22639e-14,-31.3887,14.3674,66.6246,31.9096,-6.84158,-9.83833,26.0629,7.12502,16.1393,55.4109,-4.94387,-11.6226,22.6124,27.0729,-27.7307,-23.1538,2.97789,-13.992,-4.53441,-15.1875,26.5026,-15.1935,-12.2033,-7.45194
1.11449,17.9961,-0.377289,3.08781,26.9976,-5.89667,1.15266,2.75668,-2.98507,-1.9879,3.51284,-5.63778,-2.52096,1.77145,-4.26831,-22.3129,-12.6095,-15.871,10.1096,-14.4799,12.9123,8.88358,-6.30345,4.68442,1.76918e-14,-3.49861e-14,45.0129,-14.9554,-10.9968,48.9708,46.7907,-60.6849,-3.98758,7.12502,-32.8037,-31.029,1.76918e-14,-3.49861e-14,-31.3385,14.5526,66.5251,31.8466,-7.13852,-9.71053,25.5335,7.12502,16.2624,54.8715,-5.13993,-11.742,22.5428,27.2028,-27.6673,-23.1475,2.67494,-14.15,-4.5591,-15.2606,26.4817,-15.1408,-12.3058,-7.65774
1.12108,17.9925,-0.378751,3.13867,27.1768,-5.91704,1.20967,2.73774,-2.94662,-1.99537,3.48415,-5.6857,-2.5571,1.75621,-4.34281,-22.3483,-12.6456,-15.7951,10.1011,-14.5448,12.9053,8.88951,-6.32967,4.65694,4.63168e-14,6.36111e-15,45.1153,-16.5955,-11.9999,47.8412,46.1731,-59.9342,-4.05097,7.12502,-32.0892,-31.239,4.63168e-14,6.36111e-15,-31.2969,14.404,66.454,31.9987,-7.09659,-9.74581,25.4073,7.12502,16.2284,54.7481,-5.2571,-11.945,22.5354,27.3322,-27.5826,-23.1311,2.35179,-14.2826,-4.56765,-15.263,26.476,-15.3806,-12.4701,-9.10939
1.12342,17.9911,-0.3762,3.1362,27.4414,-5.99212,1.31209,2.6909,-2.93191,-2.02071,3.41359,-5.7264,-2.64156,1.72034,-4.39866,-22.1483,-12.6047,-15.5987,9.87685,-14.5421,12.8293,8.75857,-6.33823,4.61017,1.10922e-13,2.8625e-14,45.4063,-18.1668,-13.553,46.6493,45.9427,-59.83,-4.23848,7.12502,-31.99,-31.4464,1.10922e-13,2.8625e-14,-31.2913,13.8656,66.483,32.3739,-6.64598,-9.66174,25.919,7.12502,16.3094,55.2531,-5.30218,-12.1035,22.6261,27.4162,-27.61,-23.1834,2.28632,-14.4098,-4.55239,-15.1844,26.506,-15.4955,-12.7792,-9.70098
1.12309,17.9897,-0.372355,3.11867,27.6111,-6.048,1.46402,2.66919,-2.96666,-2.03653,3.37254,-5.73758,-2.74728,1.70015,-4.39925,-22.0525,-12.595,-15.5698,9.69554,-14.5369,12.8499,8.68046,-6.33806,4.61823,-2.50469e-14,5.40694e-14,45.8712,-19.7477,-15.2726,45.4634,45.7862,-59.993,-4.8564,7.12502,-32.1452,-32.0331,-2.50469e-14,5.40694e-14,-31.3234,13.3286,66.5168,32.6601,-6.156,-9.77109,26.4063,7.12502,16.2041,55.7491,-5.30076,-12.1332,22.7047,27.4396,-27.7037,-23.2201,2.55223,-14.4845,-4.46842,-15.1147,26.559,-15.49,-13.0849,-9.69635
1.12505,17.9914,-0.372196,3.10943,27.8135,-6.21415,1.61031,2.63036,-2.84137,-2.08143,3.31235,-5.72183,-2.87322,1.66711,-4.46128,-22.1342,-12.6194,-15.5467,9.76604,-14.5526,12.7539,8.70857,-6.34913,4.57568,8.44835e-14,-3.49861e-14,46.523,-21.3491,-17.061,44.2387,45.6191,-59.6422,-5.98983,7.12502,-31.8111,-33.2335,8.44835e-14,-3.49861e-14,-31.36,13.325,66.3225,32.5893,-6.38629,-9.90325,25.884,7.12502,16.0768,55.2371,-5.36852,-12.1885,22.895,27.4478,-27.6427,-23.3665,2.03665,-14.634,-4.40006,-14.9386,26.6097,-15.5286,-13.3817,-9.61664
1.12807,17.9939,-0.370827,3.11345,28.0389,-6.29612,1.7153,2.57768,-2.78595,-2.04262,3.23965,-5.70558,-2.89399,1.62972,-4.47686,-22.3534,-12.6881,-15.6599,9.86246,-14.5862,12.7562,8.78946,-6.3582,4.57859,-4.8901e-14,9.54166e-15,47.3334,-23.0568,-18.8666,43.0983,45.3011,-59.2777,-7.10665,7.12502,-31.464,-34.4186,-4.8901e-14,9.54166e-15,-31.2433,13.5261,66.1845,32.4928,-6.77785,-9.82724,25.0892,7.12502,16.15,54.4364,-5.39969,-12.3017,22.9854,27.4637,-27.6319,-23.4139,2.05452,-14.7469,-4.30123,-14.8586,26.6335,-15.537,-13.7112,-9.56155
1.13112,17.9948,-0.369075,3.20511,28.2723,-6.29493,1.72076,2.50387,-2.84765,-2.00809,3.14126,-5.69559,-2.87065,1.58217,-4.42679,-22.5448,-12.7051,-15.8598,9.95181,-14.5631,12.946,8.8807,-6.32829,4.67111,6.95746e-15,-1.59028e-14,48.1618,-24.6796,-20.7151,42.1695,44.755,-58.9822,-7.11206,7.12502,-31.1824,-34.4786,6.95746e-15,-1.59028e-14,-31.1224,13.7039,66.096,32.5043,-6.85394,-9.78329,24.9197,7.12502,16.1923,54.2634,-5.47692,-12.4397,23.0088,27.4662,-27.6551,-23.4092,2.15096,-14.9039,-4.33688,-14.8463,26.6419,-15.4401,-13.9644,-9.33056
1.13066,17.9979,-0.36709,3.27496,28.4438,-6.29013,1.74107,2.48074,-2.9555,-1.97255,3.1079,-5.70288,-2.85258,1.56789,-4.37234,-22.6471,-12.7484,-15.8438,9.89763,-14.5987,12.9225,8.87985,-6.3418,4.65051,-5.56597e-15,2.54444e-14,48.8784,-26.2477,-22.4577,41.3661,44.0708,-58.7328,-7.51955,7.12502,-30.9446,-34.9316,-5.56597e-15,2.54444e-14,-30.9177,13.7949,66.0213,32.5233,-6.91112,-10.1331,25.0309,7.12502,15.8554,54.4017,-5.52879,-12.3997,23.0504,27.4794,-27.7123,-23.4893,2.1309,-14.9969,-4.30032,-14.8414,26.6294,-15.4636,-14.1383,-9.57805
1.13301,18.0008,-0.364887,3.25246,28.559,-6.32163,1.83623,2.47007,-2.95377,-1.94498,3.08866,-5.74517,-2.87644,1.55802,-4.42102,-22.6645,-12.7594,-15.7662,9.86243,-14.6287,12.9102,8.86799,-6.35332,4.62854,-6.36111e-14,1.59028e-14,49.8165,-27.8155,-24.5206,40.4464,43.5986,-58.2607,-8.20473,7.12502,-30.4945,-35.7013,-6.36111e-14,1.59028e-14,-30.7852,13.5486,65.9429,32.5835,-6.83202,-10.5795,25.012,7.12502,15.4256,54.4164,-5.50692,-12.2627,23.1019,27.4985,-27.8022,-23.6588,1.77283,-15.0058,-4.29766,-14.8156,26.634,-15.4935,-14.2574,-9.70114
1.13784,18.0012,-0.361813,3.34482,28.612,-6.32658,1.83792,2.48839,-2.94987,-1.97635,3.11064,-5.80282,-2.90552,1.56859,-4.48607,-22.5186,-12.773,-15.8524,9.76612,-14.6724,13.0964,8.84295,-6.36678,4.70226,9.93923e-15,9.54166e-15,50.7669,-29.2354,-26.4845,39.5524,43.1526,-57.8337,-8.57702,7.12502,-30.0873,-36.1485,9.93923e-15,9.54166e-15,-30.8083,12.9796,65.9133,32.8176,-6.45748,-10.2263,24.7751,7.12502,15.7657,54.153,-5.60412,-12.1768,23.1284,27.527,-27.9087,-23.7154,1.74528,-15.0923,-4.27076,-14.8162,26.6427,-15.3713,-14.3362,-9.25643
1.13761,18.003,-0.366299,3.48968,28.9178,-6.37137,1.9013,2.43074,-2.88081,-2.03167,3.02809,-5.85657,-2.99684,1.52543,-4.58382,-22.3837,-12.7749,-15.6759,9.64537,-14.7016,12.912,8.75282,-6.39766,4.61225,-1.78906e-14,-1.27222e-14,51.8191,-30.651,-28.5999,38.7332,42.8222,-57.653,-8.79656,7.12502,-29.9148,-36.3992,-1.78906e-14,-1.27222e-14,-30.8518,12.7924,65.7376,33.04,-6.62359,-9.52923,23.9113,7.12502,16.4369,53.2349,-5.80718,-12.358,23.2228,27.5345,-27.8695,-23.825,1.55833,-15.3613,-4.5735,-14.7449,26.6878,-14.9865,-14.3829,-7.66297
1.14249,18.0016,-0.360488,3.45251,28.7873,-6.35966,1.95875,2.52255,-2.93345,-2.02767,3.14453,-5.90107,-3.01909,1.58433,-4.60906,-22.2848,-12.7952,-15.563,9.58161,-14.7423,12.755,8.69695,-6.43168,4.53769,3.47873e-14,-9.54166e-15,53.0222,-32.0183,-30.8506,37.9419,42.4344,-57.6765,-8.34845,7.12502,-29.9372,-35.9471,3.47873e-14,-9.54166e-15,-30.8083,12.7997,65.5361,33.1117,-7.03974,-9.09958,23.223,7.12502,16.8506,52.5119,-5.75252,-12.2896,23.1751,27.5643,-27.6927,-23.8846,1.19555,-15.2482,-4.4711,-14.7546,26.7152,-14.8536,-14.4273,-6.67497
1.13604,18.0024,-0.365159,3.36468,29.1891,-6.50626,2.23642,2.42488,-2.84882,-2.02086,2.99931,-5.89982,-3.17284,1.50936,-4.66417,-22.3608,-12.8554,-15.8548,9.73032,-14.814,13.1244,8.82884,-6.43755,4.68984,5.54609e-14,2.54444e-14,54.2174,-33.3035,-33.0404,37.211,42.2758,-57.8279,-8.42752,7.12502,-30.0817,-36,5.54609e-14,2.54444e-14,-30.6052,12.5273,65.6039,33.1868,-6.6389,-10.0453,24.4731,7.12502,15.94,53.8372,-5.76327,-12.3785,23.3712,27.5872,-27.9442,-24.0549,1.38286,-15.3853,-4.62119,-14.5962,26.7626,-14.9808,-14.643,-7.5785
1.14124,18.0009,-0.354477,3.39786,28.9815,-6.5255,2.11086,2.5124,-2.91586,-1.98509,3.12334,-5.95969,-3.05801,1.57297,-4.68649,-22.497,-12.8791,-15.9578,9.82831,-14.857,13.3883,8.92519,-6.43013,4.78257,7.4743e-14,-1.59028e-14,55.3229,-34.4749,-35.0549,36.6303,41.9774,-57.9341,-9.68622,7.12502,-30.183,-37.2402,7.4743e-14,-1.59028e-14,-30.4203,11.9127,65.8025,33.6351,-5.76997,-10.2431,26.4154,7.12502,15.7495,55.7946,-5.78189,-12.188,23.3766,27.6052,-27.8618,-23.9886,1.48213,-15.374,-4.33056,-14.5926,26.7843,-15.3686,-14.6823,-9.05723
1.13466,18.0014,-0.361006,3.44933,29.3648,-6.67938,2.27436,2.39408,-2.83493,-2.04562,2.95367,-5.97767,-3.21815,1.48566,-4.75504,-22.4492,-12.8593,-15.8341,9.79393,-14.8601,13.3274,8.89094,-6.43511,4.74443,2.46493e-14,-6.36111e-15,56.4287,-35.4847,-37.1053,36.2457,41.3396,-57.7665,-10.4062,7.12502,-30.0231,-37.9893,2.46493e-14,-6.36111e-15,-30.4167,8.77553,67.3881,35.487,1.1651,-16.3085,36.246,7.12502,9.90252,65.9931,-5.94352,-12.3663,23.6004,27.597,-27.9661,-24.0747,2.08534,-15.7067,-4.49619,-14.4161,26.8543,-15.4036,-14.9043,-9.36002
1.14018,18.0021,-0.35456,3.49238,29.1297,-6.68084,2.1928,2.45751,-2.925,-2.05446,3.03936,-5.99458,-3.18001,1.53046,-4.7221,-22.3778,-12.8333,-15.8408,9.73388,-14.8268,13.3259,8.85443,-6.42392,4.75415,4.83047e-14,-1.33583e-13,57.6678,-36.3422,-39.1837,35.9836,40.6114,-57.4575,-10.317,7.12502,-29.7282,-37.9532,4.83047e-14,-1.33583e-13,-30.3749,11.6243,65.5439,33.911,-5.75066,-9.41614,26.0251,7.12502,16.5458,55.3397,-5.97257,-12.1123,23.5974,27.5924,-27.977,-24.1213,2.12118,-15.7053,-4.28323,-14.4295,26.9112,-15.4831,-14.8607,-9.46816
1.13763,18.0021,-0.360568,3.50194,29.3969,-6.86648,2.27615,2.36031,-2.77631,-2.0543,2.91017,-5.96791,-3.22827,1.46255,-4.77611,-22.3554,-12.8397,-16.0085,9.55163,-14.8054,13.5242,8.8177,-6.40405,4.85315,5.36719e-15,-3.18055e-15,58.8698,-37.1325,-41.1247,35.7686,39.8847,-57.1526,-10.3067,7.12502,-29.4372,-37.9944,5.36719e-15,-3.18055e-15,-30.3006,11.4115,65.4657,33.86,-5.12037,-10.1622,24.916,7.12502,15.8275,54.289,-6.09153,-12.2047,23.825,27.5743,-28.2169,-24.1644,2.32229,-15.9383,-4.53003,-14.2226,27.0062,-15.428,-14.8481,-9.48004
1.13868,17.9992,-0.357494,3.37732,29.2742,-6.92122,2.40296,2.42227,-2.79612,-2.00918,2.98623,-5.96859,-3.24949,1.50076,-4.77437,-22.3759,-12.8537,-16.0309,9.49106,-14.791,13.4469,8.79162,-6.40449,4.83217,-5.54609e-14,1.90833e-14,59.8783,-37.8576,-42.8811,35.7061,39.3256,-56.7541,-10.2151,7.12502,-29.0567,-37.9691,-5.54609e-14,1.90833e-14,-30.1995,11.1027,65.4793,33.9163,-4.68228,-10.1153,24.0094,7.12502,15.8726,53.3788,-5.94662,-12.0842,23.849,27.5511,-28.2947,-24.094,2.50498,-15.8289,-4.39174,-14.1705,27.0983,-15.5161,-14.9028,-9.40682
1.13857,17.9982,-0.35898,3.35958,29.2949,-7.04624,2.4328,2.39103,-2.72714,-1.97186,2.94804,-5.92898,-3.22827,1.48046,-4.76953,-22.552,-12.8653,-16.0044,9.60707,-14.7579,13.2479,8.83217,-6.39755,4.75969,-7.95139e-15,5.08889e-14,60.8374,-38.3999,-44.4284,35.7423,38.7707,-56.5596,-10.6743,7.12502,-28.8709,-38.4602,-7.95139e-15,5.08889e-14,-30.0782,11.4732,65.2128,33.8219,-5.46892,-9.88921,23.7821,7.12502,16.0903,53.1341,-5.99962,-12.0765,23.9846,27.5275,-28.3005,-24.1024,2.59132,-15.9473,-4.44858,-14.0415,27.2076,-15.5422,-14.8488,-9.30213
1.13821,17.9987,-0.362592,3.34564,29.351,-7.10265,2.48751,2.34838,-2.73689,-1.92827,2.89034,-5.8906,-3.21978,1.45218,-4.72189,-22.5684,-12.8452,-15.7702,9.56877,-14.7095,12.821,8.75427,-6.40531,4.58739,-7.43455e-14,1.27222e-14,61.8347,-38.7871,-46.0593,35.7929,38.3922,-56.8024,-10.9628,7.12502,-29.1028,-38.7088,-7.43455e-14,1.27222e-14,-30.0209,11.7334,65.0636,33.9732,-6.04743,-9.70382,24.5613,7.12502,16.2688,53.8988,-6.02978,-12.1631,24.0435,27.5379,-28.3142,-24.0421,2.92374,-16.0078,-4.48746,-13.9845,27.2758,-15.4368,-14.8737,-8.64869
1.13807,18.0001,-0.365128,3.33482,29.2996,-7.09325,2.52289,2.34161,-2.78784,-1.88679,2.87908,-5.91122,-3.19896,1.44772,-4.71456,-22.5281,-12.8153,-15.5267,9.45132,-14.6767,12.5175,8.65501,-6.41161,4.45632,7.99114e-14,-3.81667e-14,62.6696,-39.0428,-47.6143,35.9235,38.1935,-56.8524,-11.5521,7.12502,-29.1506,-39.2899,7.99114e-14,-3.81667e-14,-29.9741,11.2869,65.2507,34.5949,-5.32264,-10.0557,27.3523,7.12502,15.93,56.7172,-6.04185,-12.1875,24.0133,27.5696,-28.2284,-24.004,2.91016,-15.9966,-4.5192,-13.991,27.3473,-15.1645,-14.8653,-7.15708
1.13819,17.9999,-0.367846,3.36105,29.213,-7.09529,2.52347,2.33333,-2.8154,-1.87582,2.86694,-5.94391,-3.18845,1.44212,-4.73247,-22.6201,-12.7859,-15.4866,9.54736,-14.6361,12.4773,8.69001,-6.39061,4.44068,-2.66371e-14,-3.18055e-15,63.3907,-39.1843,-49.0742,36.1438,37.9818,-56.7288,-11.9701,7.12502,-29.0325,-39.7283,-2.66371e-14,-3.18055e-15,-29.9625,11.5072,64.9489,34.4646,-5.58881,-9.82897,25.6979,7.12502,16.1483,55.0452,-6.12788,-12.1992,24.0016,27.6311,-27.9473,-24.0976,2.29101,-16.0417,-4.50474,-13.9968,27.4,-15.2161,-14.758,-7.19486
1.13804,17.9965,-0.371044,3.31633,29.1239,-7.14276,2.58818,2.32762,-2.74183,-1.85489,2.85846,-5.99048,-3.1979,1.43592,-4.8251,-22.7035,-12.7468,-15.641,9.61199,-14.5691,12.6861,8.74805,-6.34199,4.5446,-1.11319e-14,3.18055e-15,63.8717,-39.2233,-50.1924,36.4738,37.5002,-56.6181,-12.1585,7.12502,-28.9267,-39.9349,-1.11319e-14,3.18055e-15,-29.9199,11.1028,64.929,34.7367,-5.09979,-9.98538,26.8033,7.12502,15.9977,56.1627,-6.16114,-12.2655,24.0174,27.7117,-27.7637,-24.0137,2.05508,-16.0365,-4.45733,-13.9652,27.4205,-15.5835,-14.6665,-8.9186
1.13842,17.9962,-0.371508,3.3131,29.0386,-7.16691,2.60022,2.31086,-2.72292,-1.84221,2.83638,-6.0115,-3.19098,1.42438,-4.85692,-22.8146,-12.713,-15.7535,9.71451,-14.5029,12.7991,8.8109,-6.29958,4.60866,-1.19271e-15,-4.13472e-14,64.2354,-39.1072,-51.1022,36.851,36.9976,-56.5684,-13.8416,7.12502,-28.8793,-41.626,-1.19271e-15,-4.13472e-14,-29.9352,10.6759,64.9601,35.0812,-4.5413,-10.0936,28.0847,7.12502,15.8935,57.4525,-6.23953,-12.3503,24.0254,27.8393,-27.6138,-23.9034,1.81753,-16.0258,-4.36472,-13.9574,27.3896,-15.7386,-14.6328,-9.96299
1.13804,17.9979,-0.372671,3.24111,28.925,-7.14939,2.6852,2.31064,-2.78413,-1.86225,2.82641,-6.0131,-3.26345,1.42019,-4.82913,-22.3919,-12.6466,-15.8253,9.45689,-14.445,12.8611,8.65867,-6.29009,4.66727,2.78299e-15,2.22639e-14,63.992,-38.8315,-51.2851,37.4189,36.3708,-56.493,-12.971,7.12502,-28.8073,-40.7677,2.78299e-15,2.22639e-14,-30.0922,10.4861,64.8865,35.2785,-4.1358,-10.1571,28.327,7.12502,15.8324,57.6996,-6.23848,-12.3404,23.9763,27.9826,-27.5269,-23.8602,1.46848,-15.8902,-4.43825,-13.9751,27.3477,-15.7204,-14.5111,-9.77478
1.13867,17.9988,-0.376733,3.23625,28.7151,-6.98353,2.78367,2.35398,-2.93191,-1.94226,2.86442,-6.10977,-3.40289,1.44103,-4.85903,-21.5546,-12.5637,-16.1356,9.01165,-14.4318,13.3725,8.44505,-6.2897,4.92146,-7.55382e-14,1.59028e-14,62.8094,-38.5395,-50.351,38.1829,35.3301,-56.5665,-12.667,7.12502,-28.8775,-40.4518,-7.55382e-14,1.59028e-14,-30.2893,10.2868,64.6635,35.3497,-4.01674,-10.2854,28.4378,7.12502,15.7088,57.8202,-6.24878,-12.2939,23.7697,28.1425,-27.3103,-23.8452,0.96238,-15.7208,-4.5526,-14.151,27.2856,-15.7068,-14.178,-9.68479
1.13909,17.9989,-0.381304,3.26066,28.4197,-6.89734,2.79583,2.41507,-3.04144,-1.9942,2.93597,-6.14529,-3.46342,1.47854,-4.84193,-21.0934,-12.4652,-16.2882,8.80521,-14.3545,13.6155,8.32534,-6.26043,5.05843,1.03766e-13,-6.36111e-15,61.7487,-38.1094,-49.4348,38.9592,34.5796,-56.5733,-12.2415,7.12502,-28.884,-40.0252,1.03766e-13,-6.36111e-15,-30.3977,10.103,64.5495,35.3927,-3.89968,-10.5173,28.6028,7.12502,15.4854,58.0027,-6.33434,-12.183,23.6598,28.3086,-27.1687,-23.8228,0.520905,-15.6014,-4.56404,-14.2474,27.2241,-15.6346,-13.8908,-9.62814
1.13805,18.0011,-0.38645,3.20144,28.1617,-6.95689,2.83922,2.42781,-3.01999,-1.98984,2.95119,-6.11303,-3.483,1.48548,-4.82299,-21.0915,-12.409,-16.2884,8.84065,-14.2685,13.5466,8.31748,-6.22629,5.05109,3.1408e-14,-5.08889e-14,61.7216,-37.398,-49.476,39.2733,34.6239,-56.6892,-12.0209,7.12502,-28.9947,-39.7855,3.1408e-14,-5.08889e-14,-30.4345,9.9508,64.5029,35.4217,-3.69206,-10.7662,28.4171,7.12502,15.2457,57.8353,-6.41862,-12.0305,23.7028,28.4743,-27.1,-23.8204,0.58487,-15.5062,-4.48931,-14.1963,27.1814,-15.5765,-13.7398,-9.48439
1.13798,18.0013,-0.392248,3.15456,27.9428,-6.99161,2.83449,2.40909,-2.9888,-1.94864,2.93043,-6.09786,-3.4378,1.47458,-4.82118,-21.1989,-12.4131,-16.4864,8.8818,-14.2532,13.814,8.38637,-6.19796,5.17169,2.38542e-15,-2.54444e-14,61.4025,-36.6129,-48.9454,39.6951,34.4882,-56.7414,-11.5766,7.12502,-29.0445,-39.3327,2.38542e-15,-2.54444e-14,-30.378,10.2879,64.3258,35.2864,-3.98683,-10.7097,28.2407,7.12502,15.3001,57.6547,-6.4913,-12.0446,23.6937,28.6265,-26.9846,-23.6437,0.51294,-15.4413,-4.42759,-14.1748,27.1702,-15.5961,-13.62,-9.37972
1.13947,17.9996,-0.394825,3.08279,27.4988,-7.01009,2.81052,2.48083,-2.96638,-1.91605,3.03007,-6.10909,-3.3826,1.52372,-4.84816,-21.3118,-12.3874,-16.511,9.021,-14.2146,13.8524,8.45119,-6.17192,5.19194,-4.37326e-15,-6.04305e-14,60.7587,-35.8059,-48.3058,40.4254,34.6244,-56.4839,-11.4684,7.12502,-28.7985,-39.2667,-4.37326e-15,-6.04305e-14,-30.3292,10.5789,64.1381,35.122,-4.31501,-11.2305,28.5589,7.12502,14.7984,58.0106,-6.53577,-12.0448,23.6268,28.7731,-26.6666,-23.4273,0.106767,-15.2807,-4.2619,-14.1766,27.1733,-15.5852,-13.3714,-9.02725
1.141,17.999,-0.400998,3.04005,27.0547,-6.95594,2.85057,2.54185,-2.94812,-1.89239,3.10946,-6.16888,-3.37176,1.56237,-4.92707,-21.4142,-12.3236,-16.3094,9.16597,-14.1474,13.654,8.47312,-6.14579,5.10244,-7.7526e-14,4.13472e-14,60.0837,-34.8177,-47.9349,41.334,35.1829,-56.182,-11.7498,7.12502,-28.5102,-39.5967,-7.7526e-14,4.13472e-14,-30.3692,10.6133,63.9275,35.1529,-4.29591,-11.4697,28.5847,7.12502,14.568,58.0531,-6.6067,-11.8958,23.4995,28.9268,-26.4396,-23.3648,-0.312883,-15.1036,-4.24673,-14.2513,27.1788,-15.4491,-12.9762,-8.35338
1.14212,17.9986,-0.406597,3.0073,26.6551,-6.89062,2.81204,2.59225,-2.95487,-1.81605,3.1832,-6.19115,-3.26518,1.59968,-4.94482,-21.582,-12.3517,-16.4185,9.22653,-14.1567,13.7848,8.5423,-6.13454,5.15671,9.54166e-15,2.54444e-14,59.3431,-33.768,-47.105,42.1482,35.6162,-56.3844,-11.8792,7.12502,-28.7035,-39.6936,9.54166e-15,2.54444e-14,-30.3604,10.5399,63.8498,35.2055,-4.10091,-10.3327,27.5721,7.12502,15.6632,56.9581,-6.66029,-11.7398,23.3786,29.0877,-26.3099,-23.2836,-0.320952,-14.9155,-4.18528,-14.3436,27.1859,-15.2698,-12.6463,-7.4988
1.14221,17.9957,-0.412624,2.87701,26.2601,-6.8538,2.87762,2.63356,-2.96778,-1.74712,3.23744,-6.16857,-3.22918,1.62715,-4.9173,-21.6978,-12.4024,-16.5846,9.28168,-14.1912,13.9302,8.61063,-6.13814,5.2216,-9.54166e-15,2.54444e-14,58.5091,-32.5561,-45.8772,42.9491,35.784,-56.6612,-11.409,7.12502,-28.9679,-39.1782,-9.54166e-15,2.54444e-14,-30.3807,10.529,63.8154,35.1856,-4.01788,-9.5342,26.98,7.12502,16.4322,56.304,-6.62764,-11.6646,23.2669,29.2702,-26.073,-23.1593,-0.352496,-14.6608,-4.07973,-14.409,27.1747,-15.367,-12.3273,-8.00194
1.1425,17.9922,-0.419958,2.82123,25.7681,-6.82961,2.87802,2.68951,-2.94356,-1.70239,3.31537,-6.16663,-3.17682,1.66557,-4.93083,-21.8272,-12.4287,-16.4938,9.31087,-14.2119,13.8114,8.62628,-6.14888,5.15859,-5.76476e-14,3.18055e-15,57.7221,-31.26,-44.6413,43.7917,36.172,-56.4553,-11.421,7.12502,-28.7713,-39.2239,-5.76476e-14,3.18055e-15,-30.395,10.5922,63.77,35.2256,-3.9925,-10.5667,28.132,7.12502,15.4379,57.5355,-6.70681,-11.5332,23.1775,29.4573,-25.8453,-22.9141,-0.0550465,-14.5023,-4.00246,-14.4573,27.1443,-15.6354,-11.8448,-9.48337
1.14339,17.9901,-0.427899,2.85599,25.2665,-6.74303,2.85168,2.73912,-2.95955,-1.69889,3.38172,-6.19919,-3.15327,1.6987,-4.95786,-21.9649,-12.4269,-16.307,9.35661,-14.2155,13.6504,8.63549,-6.1517,5.06963,-1.59028e-14,2.8625e-14,56.9572,-29.879,-43.4229,44.6345,36.5905,-56.4727,-11.4076,7.12502,-28.7879,-39.2076,-1.59028e-14,2.8625e-14,-30.5104,10.4455,63.7506,35.3967,-3.67813,-11.0913,28.79,7.12502,14.9326,58.2318,-6.86269,-11.3084,23.0332,29.6486,-25.812,-22.6489,0.587538,-14.4048,-3.8296,-14.5724,27.0947,-15.7005,-11.5197,-9.92453
