JuanDHNZ/ProyectoFinalCD/preprocessing/sports_trials_csv/14_29.csv
root1,root2,root3,root4,root5,root6,lowerback1,lowerback2,lowerback3,upperback1,upperback2,upperback3,thorax1,thorax2,thorax3,lowerneck1,lowerneck2,lowerneck3,upperneck1,upperneck2,upperneck3,head1,head2,head3,rclavicle1,rclavicle2,rhumerus1,rhumerus2,rhumerus3,rradius1,rwrist1,rhand1,rhand2,rfingers1,rthumb1,rthumb2,lclavicle1,lclavicle2,lhumerus1,lhumerus2,lhumerus3,lradius1,lwrist1,lhand1,lhand2,lfingers1,lthumb1,lthumb2,rfemur1,rfemur2,rfemur3,rtibia1,rfoot1,rfoot2,rtoes1,lfemur1,lfemur2,lfemur3,ltibia1,lfoot1,lfoot2,ltoes1
9.94802,17.8302,0.305169,-7.42043,-85.0678,14.4748,1.90232,-0.410732,0.778047,0.155443,-0.535323,2.86721,-0.886821,-0.279364,2.51918,-22.3463,4.43159,-6.83482,23.8126,7.88914,2.32578,11.0323,3.18619,3.18699,2.18663e-15,-7.15625e-15,-42.1844,-14.8804,-69.4571,30.7947,17.2417,-20.5727,2.44528,7.12502,5.78687,-27.4557,2.18663e-15,-7.15625e-15,-26.7468,-4.92013,92.7103,28.1998,-9.23968,-11.3484,22.9952,7.12502,14.6849,52.4551,-15.5679,4.85693,21.8383,30.9647,-20.1065,-3.75128,8.19797,-15.3467,0.465834,-16.5155,25.4617,-9.73993,19.5722,-15.1879
9.94485,17.8294,0.302599,-7.38091,-85.1642,14.5544,1.86109,-0.329098,1.03899,0.0918486,-0.420689,2.83893,-0.935304,-0.222908,2.34037,-22.5137,4.28696,-6.71954,24.3074,7.75613,2.01136,11.2811,3.06465,3.06037,5.1684e-15,-3.4191e-14,-42.2698,-14.8166,-69.5187,30.7627,17.2008,-20.1556,2.85839,7.12502,6.18958,-27.0312,5.1684e-15,-3.4191e-14,-26.9407,-5.06974,92.8679,28.0535,-9.31131,-12.1869,23.8391,7.12502,13.8769,53.3561,-15.7337,4.75674,21.8479,30.9907,-19.9968,-3.62738,7.88466,-15.4763,0.501594,-16.5106,25.5032,-9.6391,19.686,-15.5506
9.93816,17.8289,0.290622,-7.44062,-85.1601,14.5543,1.91446,-0.285528,1.11257,0.10974,-0.36051,2.84516,-0.94928,-0.193381,2.30415,-22.5892,4.2515,-6.44107,24.7716,7.72597,1.64345,11.5063,2.99942,2.89685,6.16232e-15,-2.78299e-14,-42.3262,-14.8109,-69.5759,30.801,17.3413,-19.8518,2.98087,7.12502,6.48285,-26.8999,6.16232e-15,-2.78299e-14,-27.0408,-4.76803,92.9064,27.7291,-9.7724,-12.516,23.7773,7.12502,13.5598,53.3157,-15.666,4.79461,21.9102,31.0544,-20.0939,-3.6664,8.5027,-15.3625,0.457078,-16.4532,25.4691,-9.70597,19.653,-15.2074
9.93409,17.8312,0.279818,-8.24118,-85.0763,15.2435,2.04229,-0.28382,1.14948,0.143879,-0.354964,2.83569,-0.986401,-0.190895,2.27428,-22.6188,4.10939,-6.65844,25.1113,7.58951,1.71846,11.6369,2.90811,2.95112,-9.54166e-15,-9.54166e-15,-42.2634,-14.5553,-69.7711,30.7883,17.4179,-19.7702,2.88386,7.12502,6.56166,-26.9945,-9.54166e-15,-9.54166e-15,-27.1518,-4.57432,93.0821,27.4863,-9.92463,-12.8573,24.1851,7.12502,13.2307,53.7452,-15.5231,4.64348,21.9104,31.0638,-20.1531,-3.66003,9.44519,-15.2506,0.411291,-16.4796,25.5107,-9.72174,19.5316,-15.3277
9.93415,17.831,0.273102,-9.7302,-85.0127,16.6964,2.14203,-0.264951,1.1901,0.141696,-0.325672,2.7986,-1.0459,-0.176211,2.21314,-22.5794,3.87478,-7.12931,25.4173,7.33968,2.01843,11.7264,2.77481,3.10824,7.7526e-15,0,-42.1778,-14.1324,-70.0463,30.7549,17.3975,-19.5099,2.96555,7.12502,6.81297,-26.9048,7.7526e-15,0,-27.3276,-4.77402,93.3454,27.3895,-9.6528,-14.5998,25.8493,7.12502,11.5507,55.5111,-15.4662,4.52738,21.8047,31.0411,-20.117,-3.66495,8.99747,-15.2457,0.426468,-16.6024,25.561,-9.54222,19.4866,-16.0553
9.93204,17.8289,0.26478,-10.1671,-85.0549,17.1298,2.18066,-0.223792,1.32401,0.119613,-0.265848,2.76131,-1.09274,-0.14686,2.09808,-22.4543,3.74675,-7.33343,25.7788,7.16536,2.21179,11.834,2.68349,3.19449,-1.39149e-15,-7.95139e-15,-42.1287,-13.752,-70.3645,30.748,17.4108,-19.1896,3.09078,7.12502,7.12214,-26.7694,-1.39149e-15,-7.95139e-15,-27.476,-4.70149,93.4068,27.1843,-9.91694,-12.3403,24.4817,7.12502,13.7291,54.0088,-15.4336,4.73234,21.789,31.0058,-20.1484,-3.82161,7.78126,-15.2725,0.519371,-16.5899,25.6196,-9.52436,19.4268,-15.8141
9.92627,17.8309,0.255548,-10.4837,-85.1218,17.5012,2.12737,-0.193534,1.38867,0.071069,-0.224092,2.7553,-1.11402,-0.126237,2.05422,-22.2901,3.67336,-7.24472,26.2032,7.03484,2.14117,11.9822,2.59942,3.14338,2.22639e-14,0,-42.0692,-13.5433,-70.5434,30.6925,17.6438,-19.1445,3.16004,7.12502,7.16567,-26.6986,2.22639e-14,0,-27.5853,-4.18273,93.3279,26.8947,-10.3536,-11.6671,23.9899,7.12502,14.3778,53.472,-15.4508,5.00478,21.7665,30.9432,-20.1878,-3.87326,7.9812,-15.3652,0.644278,-16.563,25.7264,-9.57463,19.3525,-15.4044
9.91787,17.8317,0.249739,-11.6029,-85.1734,18.6338,2.05511,-0.163255,1.41437,0.0478906,-0.184432,2.72544,-1.09845,-0.106328,2.00756,-22.1409,3.54518,-7.16289,26.6722,6.82884,2.07262,12.1558,2.47854,3.08404,1.98785e-16,-1.74931e-14,-42.0019,-13.377,-70.6894,30.6398,17.8989,-19.3194,3.34068,7.12502,6.99684,-26.5237,1.98785e-16,-1.74931e-14,-27.6958,-3.95493,93.2962,26.6171,-10.303,-13.0827,24.6794,7.12502,13.0135,54.2535,-15.4119,5.01878,21.7003,30.8774,-20.1197,-3.88347,7.56514,-15.3951,0.830134,-16.6241,25.846,-9.72452,19.1738,-14.7908
9.9077,17.8281,0.242564,-12.2675,-85.1882,19.2314,1.97924,-0.155459,1.50941,0.0911851,-0.175875,2.68849,-1.0121,-0.102483,1.91538,-22.1125,3.37802,-7.29553,27.2535,6.59709,2.20188,12.3834,2.34561,3.13722,-7.95139e-16,1.90833e-14,-41.8258,-13.1441,-70.9465,30.5654,18.0868,-19.288,3.53618,7.12502,7.02714,-26.3272,-7.95139e-16,1.90833e-14,-27.7862,-3.81852,93.3236,26.3852,-10.1975,-11.7106,23.737,7.12502,14.3359,53.2221,-15.279,4.87174,21.7156,30.8425,-20.0556,-3.91974,6.53099,-15.3348,1.0432,-16.6503,25.9443,-9.73623,18.9843,-14.9722
9.90194,17.8272,0.230294,-12.3695,-85.1632,19.2611,1.99929,-0.178671,1.51831,0.0960919,-0.206666,2.73942,-1.01748,-0.118282,1.96376,-21.9452,3.2068,-7.56285,27.8051,6.39478,2.3115,12.5693,2.20952,3.20384,5.96354e-16,2.54444e-14,-41.664,-12.944,-71.0325,30.5805,18.5277,-18.942,3.64872,7.12502,7.36113,-26.2032,5.96354e-16,2.54444e-14,-27.8999,-3.30728,93.3706,26.1659,-10.2194,-11.5434,23.7969,7.12502,14.497,53.2705,-15.1825,4.80612,21.7611,30.8527,-20.0798,-3.84271,6.75421,-15.3048,1.40967,-16.6291,26.0296,-9.50469,18.6304,-15.9778
9.90066,17.8284,0.216594,-12.2736,-85.084,19.0987,2.08275,-0.234234,1.40861,0.0626043,-0.280102,2.86587,-1.09581,-0.155044,2.15836,-21.6602,3.04677,-7.79142,28.2821,6.21002,2.31253,12.7095,2.07282,3.21908,7.95139e-16,0,-41.5288,-12.7016,-71.0178,30.6845,18.8766,-18.6416,3.73397,7.12502,7.65106,-26.1076,7.95139e-16,0,-28.0887,-2.66919,93.4213,26.0295,-10.4037,-10.573,22.8704,7.12502,15.4318,52.2743,-15.1104,4.77737,21.805,30.8858,-20.1327,-3.7678,7.23812,-15.3266,1.8583,-16.6011,26.1179,-9.19026,18.1465,-17.0753
9.90068,17.8291,0.20609,-13.0364,-84.8933,19.8671,2.13089,-0.327457,1.25019,0.00310311,-0.404479,2.93665,-1.17889,-0.216248,2.32482,-21.5741,2.86219,-8.00999,28.9294,5.9601,2.46278,12.9592,1.91891,3.29248,8.15017e-15,3.18055e-14,-41.2879,-12.2293,-71.1523,30.7333,18.7588,-18.3483,3.59307,7.12502,7.93414,-26.238,8.15017e-15,3.18055e-14,-28.3312,-2.39789,93.5775,26.0218,-10.046,-10.6194,22.9739,7.12502,15.3871,52.3813,-15.1286,4.73768,21.721,30.954,-20.2293,-3.83019,7.41509,-15.4184,2.04032,-16.697,26.1596,-8.91425,17.8275,-17.8379
9.89893,17.8262,0.195316,-14.1966,-84.7327,21.0772,2.10411,-0.395615,1.04948,-0.0525194,-0.49841,2.95558,-1.21615,-0.261436,2.46021,-21.5097,2.59932,-8.29335,29.5693,5.56424,2.78054,13.215,1.71816,3.4198,-2.98177e-15,-1.43125e-14,-41.0462,-11.84,-71.3406,30.8048,18.5968,-18.1756,3.4443,7.12502,8.1009,-26.3804,-2.98177e-15,-1.43125e-14,-28.4765,-2.26613,93.7003,25.9426,-9.5956,-11.5269,23.9523,7.12502,14.5129,53.4247,-15.2071,4.78643,21.6003,31.043,-20.3579,-3.97626,7.43291,-15.4998,1.89283,-16.8129,26.165,-8.77211,17.8275,-18.1168
9.89475,17.8256,0.182952,-14.8137,-84.7044,21.6504,2.15192,-0.369111,0.967846,-0.10521,-0.46155,2.94585,-1.29777,-0.24187,2.4958,-21.2537,2.28631,-8.51718,30.1138,5.08352,2.97121,13.411,1.47357,3.4653,-7.35503e-15,1.43125e-14,-40.9776,-11.7664,-71.4042,30.8782,18.7372,-18.0316,3.59719,7.12502,8.23987,-26.2221,-7.35503e-15,1.43125e-14,-28.5858,-1.76176,93.5359,25.6432,-10.5149,-10.7203,23.6167,7.12502,15.29,53.0315,-15.1868,4.84715,21.5948,31.138,-20.474,-4.01787,8.2915,-15.4309,1.69084,-16.8034,26.1612,-8.80224,17.9373,-18.0023
9.88898,17.8293,0.170393,-13.7758,-84.6168,20.5812,2.15229,-0.372351,1.05826,-0.152334,-0.462557,2.98129,-1.34672,-0.243035,2.48192,-20.9617,1.99044,-8.72809,30.655,4.65437,3.03176,13.6052,1.23321,3.46444,-5.96354e-16,-1.43125e-14,-40.8587,-11.817,-71.3859,30.9377,18.981,-17.9952,3.73139,7.12502,8.27495,-26.0865,-5.96354e-16,-1.43125e-14,-28.8148,-1.96129,93.7689,25.6726,-9.98759,-11.552,24.4247,7.12502,14.4887,53.8989,-15.1615,4.74144,21.7391,31.2148,-20.6166,-3.96618,9.7538,-15.4156,1.58757,-16.6542,26.1788,-8.98788,17.8633,-17.2332
9.88546,17.8293,0.166154,-14.0052,-84.3968,20.8844,2.05467,-0.490384,1.01833,-0.203131,-0.622076,3.0148,-1.33764,-0.32234,2.54339,-20.7114,1.7716,-8.94464,31.1927,4.3454,3.07359,13.8017,1.04105,3.47746,1.39149e-14,1.59028e-14,-40.4867,-11.2839,-71.6279,30.9517,18.7207,-18.2891,3.46156,7.12502,7.99134,-26.3674,1.39149e-14,1.59028e-14,-29.0105,-1.80028,93.8592,25.6922,-9.99421,-11.7063,24.5315,7.12502,14.34,54.0163,-15.2511,4.50204,21.6503,31.259,-20.6347,-3.90258,9.83802,-15.5661,1.65075,-16.7402,26.2131,-9.05189,17.5954,-16.5265
9.8847,17.8237,0.163607,-15.3656,-84.2105,22.301,1.9763,-0.606253,0.852746,-0.226155,-0.781382,3.02011,-1.30919,-0.40044,2.64608,-20.5513,1.56267,-9.164,31.814,4.05129,3.13378,14.0562,0.85156,3.50604,6.55989e-15,-4.6118e-14,-40.0987,-10.7694,-71.898,31.0381,18.5117,-18.63,3.31927,7.12502,7.66227,-26.5219,6.55989e-15,-4.6118e-14,-29.1752,-1.69618,93.9633,25.7082,-9.97034,-11.6086,24.5262,7.12502,14.4341,54.0042,-15.3047,4.40107,21.4301,31.2581,-20.5907,-3.92164,8.62134,-15.7002,1.74979,-16.9481,26.2951,-9.02652,17.3593,-16.0677
9.87823,17.8228,0.147733,-15.7328,-84.1575,22.5587,2.02032,-0.647702,0.736074,-0.203018,-0.83856,3.01306,-1.30634,-0.428071,2.70658,-20.2945,1.32821,-9.31146,32.3479,3.64548,3.28173,14.2621,0.641044,3.53404,2.127e-14,-7.95139e-15,-39.8891,-11.1179,-71.8985,31.2036,18.921,-18.6712,3.50057,7.12502,7.62256,-26.3421,2.127e-14,-7.95139e-15,-29.3421,-1.4964,93.9048,25.7738,-9.9721,-12.6137,25.3404,7.12502,13.4655,54.8851,-15.1131,4.66591,21.4354,31.2083,-20.6937,-4.1389,8.09961,-15.6293,1.81754,-16.9249,26.4369,-9.14919,17.196,-15.9003
9.87168,17.826,0.133886,-14.5337,-84.0683,21.2896,2.01509,-0.711269,0.827306,-0.176957,-0.922429,3.01559,-1.27455,-0.471038,2.66002,-20.0119,1.11102,-9.38033,32.8395,3.25549,3.35001,14.4502,0.437981,3.51661,1.61016e-14,-3.02153e-14,-39.6005,-11.0614,-72.086,31.4098,18.7384,-18.6461,3.55315,7.12502,7.64673,-26.2886,1.61016e-14,-3.02153e-14,-29.4737,-1.43477,93.8437,25.893,-9.59106,-14.0209,25.8981,7.12502,12.1089,55.5277,-14.9681,4.7219,21.5896,31.1354,-20.7336,-4.20833,8.52964,-15.6651,1.76538,-16.7755,26.6151,-9.18859,17.1263,-16.1879
9.86906,17.8271,0.125167,-12.5352,-83.97,19.2619,1.9906,-0.794745,1.03414,-0.156074,-1.03138,3.06749,-1.2377,-0.527751,2.59984,-19.9297,0.858942,-9.53514,33.4741,2.87663,3.38595,14.7524,0.21522,3.51155,-9.34288e-15,3.18055e-15,-39.2598,-10.7309,-72.3408,31.6696,18.2845,-18.6636,3.50704,7.12502,7.62984,-26.3353,-9.34288e-15,3.18055e-15,-29.6656,-1.86831,94.0166,26.1651,-8.68924,-15.2083,26.2183,7.12502,10.9639,55.912,-14.8933,4.62389,21.8163,31.0481,-20.6976,-4.21758,8.73794,-15.806,1.67261,-16.5673,26.8378,-9.14308,17.1572,-16.28
9.86914,17.8231,0.111307,-11.1379,-83.918,17.7826,2.05794,-0.856294,1.08329,-0.122789,-1.11241,3.14854,-1.23763,-0.569342,2.6591,-19.8999,0.546507,-9.94316,34.0912,2.40171,3.70865,15.063,-0.0376663,3.65433,-3.57812e-15,-6.36111e-15,-38.9615,-10.7486,-72.4154,31.975,18.3025,-18.6206,3.64767,7.12502,7.67136,-26.1932,-3.57812e-15,-6.36111e-15,-29.7452,-1.73057,93.9876,26.3346,-8.89016,-15.3522,26.1459,7.12502,10.8251,55.8469,-14.7667,4.79774,22.0203,30.9781,-20.8245,-4.32339,9.52583,-15.8889,1.72573,-16.3651,27.0765,-9.13253,17.0442,-16.3386
9.86949,17.8197,0.103447,-9.18207,-83.7013,15.9631,1.8669,-0.97664,1.23886,-0.134556,-1.2761,3.21942,-1.13808,-0.653014,2.64577,-19.6553,0.320898,-10.2579,34.5314,2.01716,3.95213,15.2434,-0.241807,3.75369,3.24019e-14,-5.56597e-14,-38.5674,-10.1689,-72.7608,32.2828,17.6814,-18.7045,3.51838,7.12502,7.59041,-26.3254,3.24019e-14,-5.56597e-14,-29.7219,-0.748174,93.6317,26.3823,-9.89655,-15.0806,25.516,7.12502,11.087,55.2031,-14.9101,4.61889,22.2094,30.9354,-20.8261,-4.35977,9.76739,-16.2526,1.76041,-16.1872,27.2938,-9.04497,16.7876,-16.8555
9.8607,17.8199,0.0991913,-7.744,-83.4084,14.6868,1.50582,-1.07116,1.42211,-0.0979808,-1.41328,3.27283,-0.896055,-0.723718,2.59267,-19.4015,0.115751,-10.4678,34.9087,1.70847,3.96361,15.3962,-0.429783,3.74741,-6.36111e-15,-1.43125e-14,-38.1913,-9.85019,-72.91,32.6988,17.0072,-18.4824,3.47076,7.12502,7.80478,-26.3652,-6.36111e-15,-1.43125e-14,-29.8578,-0.989014,93.868,26.9041,-8.39653,-16.6571,26.3858,7.12502,9.56618,56.1487,-15.0407,4.2192,22.3268,30.9089,-20.8214,-4.27853,10.1274,-16.6002,1.91872,-16.1214,27.4962,-8.87998,16.4088,-17.7448
9.85194,17.8241,0.0914449,-7.21639,-83.2927,14.1292,1.40011,-1.10045,1.49614,-0.0121569,-1.45926,3.32651,-0.747596,-0.748005,2.60363,-19.1654,-0.0957073,-10.7173,35.2157,1.43427,3.91016,15.5205,-0.613252,3.72386,4.96962e-15,-1.11319e-14,-37.9139,-9.93949,-72.8187,33.2518,16.4717,-17.8659,3.93038,7.12502,8.39975,-25.8826,4.96962e-15,-1.11319e-14,-29.9721,-1.37495,94.0302,27.3765,-7.51127,-17.1741,26.7944,7.12502,9.06732,56.5795,-14.9343,4.02574,22.4257,30.8565,-20.8805,-4.13523,11.3573,-16.6779,1.99788,-16.0682,27.7262,-8.87452,16.2838,-18.1197
9.84803,17.8248,0.0764173,-6.58193,-83.2105,13.4901,1.37836,-1.1332,1.46449,0.0250163,-1.50627,3.37074,-0.693665,-0.771925,2.66683,-18.9805,-0.248151,-10.733,35.6269,1.19464,3.76559,15.7074,-0.770817,3.63006,-5.96354e-15,1.59028e-15,-37.6707,-9.71613,-72.9792,33.7351,16.186,-18.0667,4.09443,7.12502,8.20597,-25.7262,-5.96354e-15,1.59028e-15,-29.9904,-1.31565,93.9603,27.6097,-7.65324,-17.0592,26.7912,7.12502,9.17826,56.5715,-14.8696,4.09088,22.5577,30.792,-20.93,-4.31348,11.3235,-16.8106,2.01111,-15.961,27.9534,-8.90995,16.2401,-17.9303
9.84287,17.8208,0.05877,-5.98099,-83.0719,12.8906,1.2865,-1.16111,1.39801,0.0932109,-1.55029,3.38027,-0.568647,-0.794112,2.71143,-18.6766,-0.40483,-10.6639,35.8876,0.876722,3.69487,15.7984,-0.928242,3.53218,-4.77083e-15,-6.36111e-15,-37.3997,-9.55266,-73.2811,34.153,16.5954,-18.9313,3.62242,7.12502,7.37149,-26.2292,-4.77083e-15,-6.36111e-15,-29.9544,-0.894601,93.6709,27.7901,-8.36738,-16.5004,26.522,7.12502,9.71735,56.2778,-14.815,4.25877,22.661,30.7171,-20.9824,-4.60272,10.4041,-16.9832,2.10901,-15.8745,28.1918,-8.85008,16.0682,-18.1435
9.83713,17.8206,0.0434563,-6.13777,-82.92,13.009,1.20867,-1.22554,1.19951,0.209891,-1.64679,3.4546,-0.394059,-0.843317,2.89731,-18.4948,-0.529822,-10.6027,36.1842,0.723768,3.37198,15.9263,-1.05576,3.35717,3.43897e-14,9.54166e-15,-37.0562,-9.10127,-73.5822,34.7257,16.2335,-19.8001,3.08255,7.12502,6.53276,-26.7967,3.43897e-14,9.54166e-15,-29.9434,-0.436816,93.5117,28.141,-8.71039,-16.2141,26.4481,7.12502,9.99363,56.1908,-14.7211,4.28468,22.6625,30.6673,-21.0457,-4.69592,10.2406,-17.1001,2.17344,-15.8787,28.4394,-8.93017,15.8861,-18.1162
9.83306,17.8215,0.0307477,-6.1652,-82.7839,13.0243,1.15998,-1.33806,1.02434,0.292877,-1.80497,3.54098,-0.266894,-0.923867,3.08436,-18.4409,-0.582536,-10.3224,36.6237,0.724413,2.751,16.1481,-1.14159,3.04382,-1.39149e-15,-1.43125e-14,-36.6967,-8.1854,-74.0314,35.4329,15.0615,-20.3765,2.3619,7.12502,5.97636,-27.5338,-1.39149e-15,-1.43125e-14,-29.8862,0.218161,93.3566,28.4388,-9.00922,-16.2268,26.8912,7.12502,9.98136,56.6345,-14.6731,4.19232,22.685,30.6431,-21.0595,-4.67924,10.2282,-17.2334,2.13751,-15.8594,28.6732,-9.02529,15.7814,-18.1353
9.83092,17.8171,0.0177123,-6.689,-82.6828,13.5241,1.19828,-1.44797,0.840037,0.349136,-1.95481,3.57457,-0.216424,-0.999565,3.22459,-18.2928,-0.629545,-10.2318,36.9369,0.690117,2.40948,16.2829,-1.21978,2.87389,-6.95746e-15,1.90833e-14,-36.3096,-7.53877,-74.3327,35.9517,14.743,-20.554,2.02849,7.12502,5.80497,-27.872,-6.95746e-15,1.90833e-14,-29.8609,0.619366,93.194,28.7661,-9.10293,-15.9578,27.3488,7.12502,10.2408,57.0795,-14.6336,4.05435,22.6692,30.6539,-21.041,-4.7417,9.84276,-17.3367,2.28754,-15.9175,28.8734,-8.99727,15.5958,-18.0088
9.82863,17.8141,0.00531693,-6.93623,-82.6494,13.7198,1.27992,-1.48464,0.771037,0.403587,-2.00449,3.59126,-0.200891,-1.02508,3.28273,-18.0563,-0.72878,-10.4013,37.1313,0.543736,2.38711,16.3412,-1.32617,2.86634,-1.25234e-14,2.06736e-14,-35.9769,-7.29834,-74.4291,36.3573,14.9631,-20.4243,2.39281,7.12502,5.93021,-27.5042,-1.25234e-14,2.06736e-14,-29.87,0.64829,93.0555,29.0735,-8.64782,-15.6178,26.9895,7.12502,10.5689,56.7037,-14.5818,3.97489,22.6924,30.6914,-21.0651,-4.69045,9.91687,-17.403,2.51302,-15.9628,29.0774,-8.87488,15.5283,-18.1808
9.82604,17.8157,-0.00761627,-6.88047,-82.6387,13.6004,1.36554,-1.45665,0.741553,0.469765,-1.96914,3.65722,-0.179455,-1.00887,3.36851,-17.8245,-0.881063,-10.7328,37.2956,0.353878,2.43106,16.3911,-1.46125,2.90834,-1.59028e-15,4.77083e-15,-35.7455,-7.11679,-74.4008,36.8981,15.0638,-20.3544,2.79358,7.12502,5.9977,-27.1015,-1.59028e-15,4.77083e-15,-29.8867,0.399407,93.0283,29.3812,-7.58651,-15.4677,26.1239,7.12502,10.7136,55.8307,-14.5244,4.1217,22.7383,30.7563,-21.2011,-4.65276,10.7157,-17.4672,2.65554,-15.9566,29.2931,-8.72856,15.5758,-18.471
9.82281,17.8134,-0.0208394,-6.70995,-82.5441,13.3253,1.40541,-1.48418,0.635752,0.624696,-2.01515,3.78053,-0.0322105,-1.03576,3.55469,-17.8391,-1.07291,-11.2282,37.5465,0.148563,2.61025,16.5504,-1.61074,3.04074,1.98785e-15,-2.22639e-14,-35.349,-6.85799,-74.4313,37.4537,14.8087,-20.5251,2.90057,7.12502,5.83283,-26.9991,1.98785e-15,-2.22639e-14,-29.7826,0.232429,93.0696,29.7085,-6.83366,-15.3857,25.5308,7.12502,10.7927,55.2335,-14.4315,4.15271,22.8183,30.8124,-21.3452,-4.69792,11.6782,-17.5355,2.73382,-15.9167,29.5378,-8.55173,15.5226,-18.7736
9.82132,17.8134,-0.0297748,-6.81582,-82.386,13.2293,1.55532,-1.54497,0.57765,0.817808,-2.1025,3.83548,0.0911952,-1.08317,3.64652,-18.0311,-1.28935,-11.7528,37.9298,-0.115545,2.92942,16.8325,-1.77716,3.23565,-6.16232e-15,-1.27222e-14,-34.85,-6.82908,-74.5588,37.8946,14.5579,-20.7876,3.04273,7.12502,5.57945,-26.8638,-6.16232e-15,-1.27222e-14,-29.5726,0.31724,93.0216,29.9306,-6.79435,-15.4559,25.2956,7.12502,10.7251,55.0018,-14.2326,3.89226,22.8821,30.8554,-21.4051,-4.66479,12.3089,-17.5253,2.86483,-15.9329,29.8046,-8.40281,15.3516,-19.0835
9.82002,17.8163,-0.0372345,-7.2301,-82.3433,13.5435,1.68675,-1.4737,0.619509,0.909621,-2.007,3.81646,0.103975,-1.03611,3.60449,-17.9605,-1.50797,-12.1453,38.1783,-0.400106,3.06774,16.9865,-1.95128,3.31746,1.64991e-14,-3.18055e-15,-34.5246,-6.89349,-74.6109,38.3062,14.7062,-20.997,3.0524,7.12502,5.37725,-26.8594,1.64991e-14,-3.18055e-15,-29.5827,0.153474,92.9979,30.2219,-6.82317,-15.3797,25.1212,7.12502,10.7985,54.8236,-14.1283,3.86726,22.8828,30.8882,-21.4443,-4.72317,12.4835,-17.5945,2.98639,-15.9991,30.103,-8.32313,15.3201,-18.9928
9.81943,17.8151,-0.0444705,-7.74885,-82.3359,14.0873,1.71745,-1.4003,0.651072,0.924057,-1.90693,3.7567,0.0926014,-0.985131,3.52412,-17.5834,-1.60922,-12.3222,38.2051,-0.597158,3.12421,16.9315,-2.0565,3.33388,-8.74653e-15,1.90833e-14,-34.3228,-6.67517,-74.7269,38.7712,14.8244,-21.1607,3.01696,7.12502,5.21923,-26.8988,-8.74653e-15,1.90833e-14,-29.6891,-0.02505,92.9091,30.5127,-6.87522,-15.1182,24.9554,7.12502,11.0507,54.6445,-14.1486,3.95531,22.8214,30.9035,-21.4428,-4.77663,12.0448,-17.8056,2.93016,-16.0673,30.4395,-8.32886,15.4787,-18.2227
9.81898,17.812,-0.0551698,-8.16908,-82.2702,14.5993,1.68267,-1.42472,0.614642,0.937328,-1.9392,3.67076,0.125648,-1.00041,3.4548,-17.3357,-1.60595,-12.2377,38.2833,-0.687654,3.12492,16.9189,-2.09087,3.3018,2.04748e-14,7.95139e-15,-34.0459,-6.36461,-75.0169,39.2539,14.8091,-21.0768,2.96005,7.12502,5.30018,-26.9537,2.04748e-14,7.95139e-15,-29.7271,-0.142713,92.7558,30.7686,-6.65242,-15.3979,24.9222,7.12502,10.781,54.6255,-14.2347,4.12023,22.7448,30.8854,-21.48,-4.90327,11.2423,-18.1514,2.97595,-16.1389,30.8383,-8.41082,15.4551,-17.6203
9.81868,17.8074,-0.0649293,-8.27881,-82.1451,14.6746,1.73666,-1.48381,0.613941,1.03617,-2.01998,3.63039,0.199865,-1.04177,3.41435,-17.3138,-1.6446,-12.2336,38.4503,-0.757364,3.08315,17.0122,-2.13849,3.27172,3.3197e-14,-1.11319e-14,-33.6169,-6.02326,-75.2933,39.6551,14.7339,-20.9615,2.794,7.12502,5.41151,-27.1169,3.3197e-14,-1.11319e-14,-29.7343,-0.443984,92.6404,31.1072,-6.19705,-15.6794,25.0402,7.12502,10.5095,54.7575,-14.1762,4.10488,22.7555,30.8375,-21.4735,-5.08674,10.5291,-18.4103,3.07412,-16.187,31.3,-8.24838,15.3287,-18.4443
9.82073,17.8017,-0.066417,-8.17435,-81.8781,14.2167,2.11575,-1.55635,0.76954,1.21952,-2.11288,3.62334,0.175007,-1.0898,3.32952,-17.2619,-1.72687,-12.4206,38.584,-0.831127,3.05488,17.0861,-2.21141,3.27943,1.59028e-15,-7.95139e-15,-33.1727,-5.70371,-75.449,39.9799,14.7919,-20.9903,2.81029,7.12502,5.38375,-27.1013,1.59028e-15,-7.95139e-15,-29.7192,-0.667453,92.5221,31.4234,-6.28846,-15.3412,24.8002,7.12502,10.8356,54.5007,-13.7582,3.74825,22.8376,30.7634,-21.4417,-5.23338,9.93156,-18.3865,2.96739,-16.1878,31.8181,-8.08494,15.2283,-18.7781
9.81755,17.8059,-0.082541,-7.31306,-81.9324,13.6272,1.86684,-1.54782,0.840073,1.20638,-2.10773,3.65039,0.299164,-1.0875,3.30996,-17.098,-1.70631,-12.4602,38.647,-0.77413,2.91836,17.0754,-2.22117,3.2341,2.38542e-14,-3.81667e-14,-32.7639,-5.2964,-75.7513,40.2671,14.79,-21.2892,2.75002,7.12502,5.09507,-27.1687,2.38542e-14,-3.81667e-14,-29.493,-0.519595,92.3527,31.4071,-6.69816,-15.3097,24.8355,7.12502,10.866,54.5344,-14.0139,3.89374,22.9838,30.6757,-21.4232,-5.38355,9.75659,-19.0063,3.31073,-16.0958,32.3508,-7.88134,15.0472,-18.5513
9.81452,17.8098,-0.0942758,-6.87192,-81.9232,13.2516,1.87977,-1.59203,0.932176,1.20478,-2.16423,3.61154,0.288248,-1.11471,3.21919,-16.8802,-1.65507,-12.4587,38.6812,-0.731916,2.87388,17.0339,-2.21676,3.2201,-3.18055e-15,-7.15625e-14,-32.3744,-4.69629,-76.2084,40.5255,14.4248,-21.7651,2.5104,7.12502,4.63562,-27.4189,-3.18055e-15,-7.15625e-14,-29.3072,-0.784681,92.1641,31.4328,-6.48008,-15.4992,25.2999,7.12502,10.6833,55.0083,-14.043,3.97252,23.0801,30.6179,-21.42,-5.44533,9.60524,-19.3838,3.59069,-16.0717,32.8533,-7.68749,14.9435,-18.3214
9.81234,17.8138,-0.103976,-7.32626,-81.913,13.6708,1.94949,-1.58971,0.893746,1.28674,-2.16211,3.56056,0.332583,-1.11413,3.18882,-16.7484,-1.69331,-12.485,38.7185,-0.806673,2.84954,17.0304,-2.2594,3.19914,-1.15295e-14,5.08889e-14,-31.9621,-4.21894,-76.5188,40.796,14.2992,-21.8685,2.75586,7.12502,4.53579,-27.1756,-1.15295e-14,5.08889e-14,-29.2861,-1.14284,91.9793,31.6796,-6.26292,-15.412,25.3009,7.12502,10.7674,55.0049,-13.9682,4.05439,23.0384,30.5789,-21.4599,-5.40316,10.109,-19.6181,3.75831,-16.1601,33.3385,-7.60068,14.9667,-17.96
9.80969,17.8176,-0.111618,-8.16991,-81.8582,14.5546,1.92416,-1.56511,0.764739,1.385,-2.13536,3.53492,0.449996,-1.10255,3.23187,-16.7331,-1.79329,-12.5571,38.7674,-0.921058,2.79074,17.0699,-2.3284,3.16402,-1.39149e-15,1.11319e-14,-31.5218,-3.89848,-76.6925,41.1305,14.3311,-21.8811,2.88586,7.12502,4.52357,-27.0458,-1.39149e-15,1.11319e-14,-29.0423,-0.776547,91.8123,31.6478,-6.93108,-15.0274,24.9795,7.12502,11.1383,54.6638,-13.9928,4.06648,22.906,30.5657,-21.5217,-5.27175,11.4682,-19.9272,3.94595,-16.3372,33.8137,-7.53505,14.9158,-17.5363
9.80617,17.8219,-0.11808,-8.27204,-81.7856,14.7491,1.87768,-1.56572,0.747897,1.41392,-2.13898,3.53891,0.506679,-1.10502,3.24349,-16.6123,-1.8566,-12.7371,38.8163,-1.00234,2.82781,17.0802,-2.38846,3.19712,-1.27222e-14,2.06736e-14,-31.1334,-3.50163,-76.8913,41.4371,14.2486,-22.0575,2.75044,7.12502,4.3532,-27.1848,-1.27222e-14,2.06736e-14,-28.725,-0.618286,91.7497,31.4818,-7.05378,-15.1589,25.02,7.12502,11.0114,54.7112,-14.0821,3.78802,22.9176,30.5581,-21.4752,-5.1676,12.3316,-20.3343,4.06838,-16.4167,34.302,-7.34698,14.863,-17.1866
9.80327,17.8284,-0.124871,-8.62618,-81.6749,15.205,1.84506,-1.60005,0.704173,1.43282,-2.18648,3.52454,0.547839,-1.12918,3.25236,-16.4534,-1.89043,-12.9904,38.8382,-1.02772,2.88735,17.0614,-2.43236,3.26302,1.64991e-14,-1.90833e-14,-30.7282,-2.93552,-77.0601,41.7423,14.3429,-21.52,2.69544,7.12502,4.87223,-27.2285,1.64991e-14,-1.90833e-14,-28.6658,-0.4653,91.6339,31.5892,-7.16594,-15.1738,24.9932,7.12502,10.9971,54.6852,-14.1856,3.49508,22.875,30.5571,-21.3834,-5.16135,12.1664,-20.77,4.12448,-16.5641,34.7891,-7.04194,14.9478,-17.1516
9.80017,17.8329,-0.130554,-8.75879,-81.5593,15.4451,1.84625,-1.63401,0.685804,1.42494,-2.23126,3.51849,0.541857,-1.15146,3.25711,-16.1472,-1.90093,-12.9634,38.6522,-0.980237,2.57174,16.8815,-2.44309,3.118,9.93923e-16,1.74931e-14,-30.4503,-2.29823,-77.2018,42.1926,14.437,-20.914,2.57828,7.12502,5.45742,-27.3314,9.93923e-16,1.74931e-14,-28.7293,-0.188895,91.5259,31.7244,-7.28262,-15.169,24.8461,7.12502,11.0017,54.5378,-14.2832,3.38933,22.8149,30.5473,-21.4152,-5.0405,12.4484,-21.2182,4.19003,-16.7084,35.2814,-6.65967,15.1155,-17.6427
9.79723,17.835,-0.141469,-9.98175,-81.4544,16.6493,2.01436,-1.62099,0.471746,1.44045,-2.21094,3.45574,0.468071,-1.14163,3.3177,-15.8308,-1.9327,-12.6083,38.4676,-0.97845,1.99163,16.7018,-2.46144,2.79013,-7.95139e-16,3.18055e-15,-30.2015,-1.80779,-77.3596,42.5381,14.4388,-21.0577,2.62458,7.12502,5.31863,-27.2887,-7.95139e-16,3.18055e-15,-28.7093,-0.209346,91.4076,31.7648,-7.2171,-15.2633,24.9978,7.12502,10.9108,54.6943,-14.2248,3.4488,22.6144,30.525,-21.4607,-5.03587,12.3498,-21.5125,4.22278,-16.9714,35.7765,-6.34338,15.2844,-17.4879
9.79422,17.8359,-0.155863,-13.3829,-81.2843,19.9286,2.2788,-1.59135,-0.128762,1.52469,-2.17461,3.33233,0.422016,-1.12652,3.53486,-15.7128,-2.00073,-12.5297,38.4517,-1.02068,1.69876,16.6711,-2.50834,2.63612,1.03368e-14,-1.90833e-14,-29.8652,-1.36823,-77.4564,42.7992,14.5547,-21.3815,3.17821,7.12502,5.00595,-26.7427,1.03368e-14,-1.90833e-14,-28.5309,0.0259782,91.3147,31.6373,-7.41835,-15.4939,25.1923,7.12502,10.6884,54.9004,-14.0194,3.61574,22.0826,30.4997,-21.5357,-5.20239,11.6146,-21.6617,4.42245,-17.5694,36.2759,-6.17013,15.2968,-16.5132
9.78893,17.8401,-0.16445,-15.0589,-81.1243,21.5352,2.38102,-1.59968,-0.437601,1.64396,-2.19219,3.26525,0.497414,-1.13909,3.64096,-15.67,-2.03859,-12.5726,38.4427,-1.03298,1.59592,16.6602,-2.53339,2.59485,3.35946e-14,-1.43125e-14,-29.4078,-1.06621,-77.5707,42.9729,14.9375,-21.5977,3.76335,7.12502,4.7972,-26.1623,3.35946e-14,-1.43125e-14,-28.1898,0.343089,91.2304,31.4064,-7.5843,-15.654,25.2607,7.12502,10.5339,54.9767,-13.8596,3.66862,21.8011,30.4492,-21.5729,-5.309,11.3634,-21.891,4.65522,-17.9397,36.8088,-6.07916,15.3057,-15.5552
9.7818,17.8462,-0.169061,-14.9181,-81.0655,21.4722,2.29736,-1.608,-0.420098,1.73029,-2.20647,3.22383,0.631472,-1.14799,3.58403,-15.6607,-2.03587,-12.4421,38.4888,-1.05439,1.53133,16.6814,-2.53484,2.53977,-2.62396e-14,2.8625e-14,-29.0629,-0.612859,-77.7269,43.378,14.7887,-21.6507,3.77664,7.12502,4.74607,-26.1502,-2.62396e-14,2.8625e-14,-27.9112,0.34142,91.0397,31.3014,-7.42969,-15.5486,25.1621,7.12502,10.6356,54.873,-13.8858,3.52225,21.7963,30.3822,-21.4905,-5.2564,11.2014,-22.3336,4.78183,-18.0528,37.3747,-6.02288,15.5355,-14.3367
9.77517,17.8507,-0.174181,-14.7046,-81.0474,21.4532,2.19174,-1.58629,-0.379476,1.71271,-2.17648,3.18778,0.66753,-1.13192,3.5203,-15.6231,-2.03199,-12.3226,38.6142,-1.06442,1.41702,16.7381,-2.54707,2.46623,-4.37326e-15,1.90833e-14,-28.9328,0.209625,-77.9976,44.0652,14.18,-21.7179,2.64854,7.12502,4.68114,-27.2797,-4.37326e-15,1.90833e-14,-27.7924,0.691881,90.792,31.2028,-7.52668,-15.5129,24.7872,7.12502,10.67,54.4962,-14.0551,3.4781,21.7936,30.3175,-21.4313,-5.24871,10.7197,-22.9581,4.89137,-18.1643,37.9567,-5.85204,15.8078,-12.9198
9.76827,17.854,-0.174742,-14.8007,-81.0137,21.7354,2.12117,-1.53597,-0.292682,1.65897,-2.10528,3.12365,0.641509,-1.09334,3.4029,-15.5153,-2.1038,-12.3608,38.7204,-1.17489,1.36558,16.7813,-2.61398,2.4295,-8.34896e-15,-1.11319e-14,-28.7524,0.243342,-77.9857,44.2247,14.9669,-21.6273,3.60095,7.12502,4.76866,-26.3254,-8.34896e-15,-1.11319e-14,-27.7379,1.07725,90.619,31.0735,-7.72667,-15.5323,24.621,7.12502,10.6513,54.331,-14.2327,3.4007,21.7245,30.3167,-21.444,-5.17572,10.4449,-23.5238,4.99748,-18.3426,38.4911,-5.47887,15.9716,-12.8507
9.76338,17.858,-0.17686,-15.2667,-80.8925,22.328,2.14272,-1.52309,-0.355635,1.62787,-2.08638,3.08529,0.597123,-1.08293,3.3997,-15.3881,-2.15911,-12.507,38.7289,-1.2279,1.33779,16.7647,-2.6629,2.43249,-2.16675e-14,1.59028e-15,-28.5658,0.465125,-78.0556,44.5424,15.0085,-21.9244,3.84476,7.12502,4.48179,-26.0878,-2.16675e-14,1.59028e-15,-27.6918,1.50378,90.5347,30.9603,-8.04456,-15.8981,24.9704,7.12502,10.2985,54.6983,-14.3647,3.19271,21.6068,30.3447,-21.4348,-5.07669,10.7894,-24.0149,5.10503,-18.5934,38.999,-4.98815,15.971,-12.579
9.76002,17.8637,-0.185266,-15.8958,-80.7179,23.0343,2.19726,-1.51857,-0.558072,1.66505,-2.08298,3.05494,0.610729,-1.08313,3.48341,-15.2985,-2.23191,-12.6915,38.6067,-1.2554,1.26474,16.6875,-2.70226,2.42629,-1.61016e-14,6.36111e-15,-28.2754,0.66157,-78.1254,44.9121,14.8314,-22.0733,3.89542,7.12502,4.33799,-26.0401,-1.61016e-14,6.36111e-15,-27.4836,2.01759,90.4328,30.7745,-8.51318,-16.2004,25.4289,7.12502,10.0068,55.171,-14.4401,3.06162,21.4886,30.3505,-21.4477,-5.13278,11.289,-24.4883,5.11059,-18.8421,39.4991,-4.57392,15.9926,-11.5182
9.75536,17.8685,-0.191431,-16.3397,-80.6716,23.5117,2.26051,-1.46926,-0.59336,1.73893,-2.01739,2.94431,0.643949,-1.05049,3.38875,-15.2727,-2.30851,-12.6575,38.5353,-1.35403,1.19746,16.653,-2.74018,2.37243,-2.22639e-14,-3.18055e-15,-27.9759,0.925148,-78.3042,45.2519,14.5221,-22.0909,3.90199,7.12502,4.32097,-26.0339,-2.22639e-14,-3.18055e-15,-27.2506,1.98485,90.1936,30.6356,-8.40458,-16.1812,25.4279,7.12502,10.0254,55.1692,-14.4273,3.23048,21.4022,30.3002,-21.5289,-5.1979,11.5603,-24.8998,5.22337,-18.9972,40.0283,-4.41799,15.9508,-10.1967
9.74701,17.8698,-0.192223,-16.675,-80.7611,23.831,2.37431,-1.36927,-0.479373,1.76847,-1.87995,2.81868,0.593585,-0.979016,3.19565,-15.0508,-2.29861,-12.2505,38.4502,-1.39667,0.898856,16.5462,-2.73492,2.16199,1.15295e-14,9.54166e-15,-27.8369,1.0971,-78.4804,45.6161,14.2939,-21.9676,3.9695,7.12502,4.44002,-25.964,1.15295e-14,9.54166e-15,-27.2168,1.6399,90.0064,30.6388,-7.88705,-16.2385,25.36,7.12502,9.97011,55.1039,-14.3128,3.41942,21.3483,30.1675,-21.497,-5.18605,11.1858,-25.2393,5.41768,-19.1002,40.6117,-4.28129,15.9233,-8.93699
9.73644,17.8707,-0.195348,-16.3346,-80.7787,23.4486,2.50342,-1.3131,-0.419944,1.80238,-1.80445,2.82625,0.550032,-0.94112,3.17186,-14.7669,-2.22974,-11.6971,38.2012,-1.28632,0.319253,16.3235,-2.67456,1.83172,1.66979e-14,-4.29375e-14,-27.6976,1.29982,-78.5448,45.9924,14.1602,-21.7391,3.98662,7.12502,4.6607,-25.9421,1.66979e-14,-4.29375e-14,-27.182,1.5392,89.9901,30.6538,-7.51812,-16.3224,25.5239,7.12502,9.88915,55.2716,-14.1397,3.37362,21.4257,29.9656,-21.3978,-5.18856,10.7927,-25.607,5.59636,-19.1284,41.2195,-3.88003,15.7433,-8.61246
9.72545,17.8749,-0.201506,-15.4739,-80.7109,22.5574,2.61594,-1.30155,-0.38196,1.86175,-1.79105,2.89657,0.548452,-0.93613,3.22504,-14.7096,-2.22832,-11.5087,38.1165,-1.26145,0.0917226,16.2601,-2.66231,1.7045,1.35174e-14,1.74931e-14,-27.4435,1.68854,-78.586,46.299,13.8079,-21.9028,3.68189,7.12502,4.50265,-26.2503,1.35174e-14,1.74931e-14,-27.0835,1.64356,89.9958,30.6501,-7.48025,-16.1179,25.7139,7.12502,10.0864,55.4522,-13.9795,3.24541,21.5926,29.7725,-21.3097,-5.21407,10.5072,-26.004,5.75904,-19.0979,41.7959,-3.47409,15.3629,-8.88161
9.71265,17.8807,-0.206147,-14.9576,-80.6576,22.065,2.68869,-1.27754,-0.330633,1.88813,-1.75867,2.90934,0.531759,-0.920002,3.21029,-14.7705,-2.26765,-11.6523,38.2562,-1.30848,0.187191,16.3557,-2.69722,1.7615,-7.15625e-15,-3.18055e-15,-27.2548,1.9719,-78.6497,46.6398,13.6047,-22.0611,3.32667,7.12502,4.34976,-26.6087,-7.15625e-15,-3.18055e-15,-27.0706,1.96631,89.901,30.6618,-7.83884,-15.4422,25.4607,7.12502,10.7383,55.1663,-13.8963,3.31353,21.6729,29.6491,-21.3657,-5.26655,10.61,-26.3821,5.73817,-19.0641,42.2857,-3.47709,15.2147,-7.75902
9.70128,17.8828,-0.209288,-15.189,-80.6132,22.3173,2.77535,-1.192,-0.354903,1.92761,-1.64492,2.87349,0.516726,-0.863309,3.18638,-14.7488,-2.33619,-11.7872,38.2968,-1.39896,0.256437,16.3832,-2.74526,1.79932,9.14409e-15,1.59028e-14,-27.1013,1.87479,-78.6256,47.0201,13.7422,-21.961,3.28412,7.12502,4.44646,-26.6492,9.14409e-15,1.59028e-14,-27.0268,2.04504,89.8631,30.674,-8.12726,-14.5716,24.981,7.12502,11.5779,54.6412,-13.8398,3.29163,21.6199,29.5764,-21.4363,-5.31464,10.732,-26.7056,5.64276,-19.1413,42.6868,-3.65043,15.1081,-6.29555
9.69082,17.8801,-0.209282,-15.3086,-80.5852,22.4475,2.84982,-1.13387,-0.373441,1.99187,-1.56927,2.86043,0.536766,-0.826668,3.18275,-14.7244,-2.37018,-11.8564,38.2437,-1.43128,0.273075,16.3546,-2.76084,1.81383,4.29375e-14,-1.43125e-14,-26.8778,1.99506,-78.6515,47.333,13.6574,-22.2722,3.3578,7.12502,4.14595,-26.5816,4.29375e-14,-1.43125e-14,-26.9345,2.03589,89.8632,30.7103,-8.13347,-14.274,24.7686,7.12502,11.8649,54.4124,-13.8026,2.92307,21.6303,29.5273,-21.372,-5.33106,10.1177,-27.0144,5.61917,-19.2604,43.0108,-3.57676,14.5987,-6.9572
9.6788,17.8814,-0.20933,-15.051,-80.5952,22.2179,2.90238,-1.10117,-0.328141,2.04426,-1.52611,2.84609,0.55701,-0.805495,3.14207,-14.7079,-2.38534,-11.8477,38.1974,-1.46151,0.292076,16.3284,-2.76485,1.81623,7.15625e-15,-3.97569e-14,-26.6281,2.14149,-78.7618,47.5779,13.6768,-22.613,3.60638,7.12502,3.81683,-26.3392,7.15625e-15,-3.97569e-14,-26.8626,2.10627,89.8098,30.7358,-8.12564,-14.3,24.845,7.12502,11.8399,54.4903,-13.7963,2.58971,21.7313,29.5078,-21.2885,-5.33965,9.55604,-27.3262,5.71792,-19.3085,43.2602,-3.53509,13.6895,-7.97072
9.66342,17.8838,-0.213065,-14.4004,-80.5826,21.6794,2.87258,-1.10429,-0.332154,2.04985,-1.53204,2.90701,0.581663,-0.809634,3.20663,-14.7211,-2.37194,-11.895,38.2003,-1.42372,0.294938,16.3316,-2.75533,1.83244,1.07344e-14,-4.92986e-14,-26.4552,2.39759,-78.7943,47.9337,13.7645,-22.6437,3.90939,7.12502,3.78721,-26.0367,1.07344e-14,-4.92986e-14,-26.9106,2.3793,89.8128,30.8332,-8.14901,-14.3234,24.839,7.12502,11.8172,54.4856,-13.8531,2.56794,21.836,29.4863,-21.2774,-5.27773,9.40826,-27.7249,5.76164,-19.2568,43.4482,-3.7221,12.5201,-8.18487
9.64818,17.88,-0.215442,-14.5875,-80.5542,21.9617,2.85156,-1.08159,-0.44891,2.07748,-1.50539,2.91776,0.623652,-0.798319,3.28219,-14.6972,-2.38705,-12.0315,38.169,-1.42895,0.362133,16.3139,-2.76491,1.8853,-3.85642e-14,1.90833e-14,-26.2628,2.63644,-78.8142,48.273,13.7838,-22.6196,4.12156,7.12502,3.81042,-25.8241,-3.85642e-14,1.90833e-14,-26.9878,2.41413,89.8527,30.9937,-7.88813,-14.4652,24.6685,7.12502,11.6805,54.3229,-13.8835,2.68194,21.7548,29.4692,-21.3064,-5.21755,8.79239,-28.0614,5.60115,-19.3525,43.5648,-4.00515,11.3668,-8.85112
9.63125,17.8774,-0.216086,-15.4561,-80.5823,22.8497,2.90736,-0.989444,-0.552516,2.13203,-1.38373,2.80131,0.640484,-0.737807,3.21834,-14.6204,-2.42978,-11.9793,38.1333,-1.52689,0.380089,16.2828,-2.79153,1.86801,3.26007e-14,-2.70347e-14,-26.0823,2.753,-78.9927,48.5907,13.5626,-22.6981,3.83269,7.12502,3.73462,-26.1143,3.26007e-14,-2.70347e-14,-26.9917,2.052,89.7881,31.0281,-7.51754,-14.5442,24.2532,7.12502,11.6043,53.9119,-13.8384,2.73891,21.5974,29.4741,-21.363,-5.08904,8.56899,-28.2576,5.42513,-19.5227,43.606,-4.32529,10.2827,-9.26502
9.61446,17.8736,-0.214613,-15.428,-80.6063,22.8809,2.93354,-0.942061,-0.537922,2.16041,-1.31979,2.73135,0.648986,-0.705187,3.13672,-14.5696,-2.44962,-11.8167,38.0942,-1.58153,0.293741,16.2498,-2.79916,1.79319,7.95139e-15,9.54166e-15,-25.9491,3.06562,-79.2316,48.9893,13.1083,-23.0063,3.04125,7.12502,3.43704,-26.9108,7.95139e-15,9.54166e-15,-26.9923,1.93413,89.6716,31.015,-7.50532,-14.572,23.9712,7.12502,11.5775,53.6314,-13.8711,2.7371,21.6072,29.5317,-21.4499,-5.02279,8.61143,-28.5318,5.48927,-19.5932,43.5632,-4.57925,9.04147,-9.29499
9.59887,17.8685,-0.21129,-14.5645,-80.6166,22.0683,2.98808,-0.90905,-0.374284,2.18165,-1.27283,2.71924,0.633529,-0.680119,3.03183,-14.6068,-2.46771,-11.7724,38.1118,-1.6184,0.305712,16.2695,-2.80564,1.78427,-1.59028e-15,1.74931e-14,-25.7939,3.14386,-79.335,49.2785,13.2235,-23.2426,2.82604,7.12502,3.20886,-27.1296,-1.59028e-15,1.74931e-14,-27.0443,2.08637,89.6102,31.0944,-7.69458,-14.4611,23.9003,7.12502,11.6845,53.5544,-13.9055,2.79034,21.7414,29.6097,-21.542,-5.0145,8.44636,-28.8116,5.67288,-19.5918,43.4511,-4.65786,7.73986,-10.5764
9.58068,17.8661,-0.212875,-14.6846,-80.5655,22.2184,3.07343,-0.786792,-0.393563,2.21928,-1.10869,2.60143,0.613092,-0.596966,2.91857,-14.6097,-2.54654,-11.5266,38.1301,-1.76639,0.188938,16.2844,-2.84531,1.6645,1.98785e-15,1.59028e-15,-25.6723,2.73706,-79.3683,49.4783,13.7385,-23.3128,3.11383,7.12502,3.14105,-26.8428,1.98785e-15,1.59028e-15,-27.0691,1.95514,89.5951,31.1758,-7.75699,-14.4716,23.981,7.12502,11.6744,53.6357,-13.9105,2.79686,21.7043,29.7163,-21.5094,-5.06835,7.6729,-29.0342,5.73046,-19.731,43.2766,-4.77206,6.44567,-11.9666
9.56143,17.8631,-0.214957,-14.701,-80.4619,22.3361,3.07174,-0.595979,-0.401426,2.26614,-0.852929,2.42566,0.645444,-0.467462,2.73531,-14.6503,-2.72772,-11.195,38.1563,-2.11126,0.135741,16.3239,-2.94237,1.52251,-2.14687e-14,-2.70347e-14,-25.6324,2.02267,-79.4055,49.7742,14.1319,-23.3712,3.52882,7.12502,3.08459,-26.4286,-2.14687e-14,-2.70347e-14,-26.9824,1.32654,89.6417,31.261,-7.54557,-14.7344,24.4523,7.12502,11.4209,54.1212,-14.005,2.69005,21.687,29.8306,-21.5042,-5.12586,7.64924,-29.3376,5.5963,-19.8352,43.0416,-4.92241,5.32331,-12.1471
9.54289,17.8556,-0.213197,-14.0678,-80.3708,21.7891,3.09253,-0.487415,-0.299992,2.30071,-0.705842,2.34546,0.659394,-0.392277,2.59209,-14.6909,-2.85823,-11.1497,38.1836,-2.36207,0.2685,16.3661,-3.01766,1.52815,-8.74653e-15,-1.59028e-15,-25.5735,1.66682,-79.4576,50.0953,14.2833,-23.4874,3.70628,7.12502,2.97237,-26.2527,-8.74653e-15,-1.59028e-15,-26.9889,0.755257,89.7223,31.4212,-7.35641,-14.9328,24.9203,7.12502,11.2296,54.5998,-14.0886,2.58621,21.8003,29.9266,-21.63,-5.12659,8.83079,-29.627,5.56657,-19.8613,42.7256,-5.10981,4.22838,-13.1129
9.52344,17.8514,-0.207084,-13.5247,-80.3668,21.2838,3.2025,-0.423083,-0.166987,2.29436,-0.615884,2.32071,0.58532,-0.345119,2.49069,-14.6532,-2.887,-11.1789,38.1791,-2.4301,0.349784,16.3609,-3.03689,1.55777,2.06736e-14,-4.77083e-15,-25.5751,1.80906,-79.5018,50.4604,14.1618,-23.6088,3.55505,7.12502,2.85512,-26.4056,2.06736e-14,-4.77083e-15,-27.1565,0.544529,89.7853,31.5951,-7.37353,-14.8259,25.115,7.12502,11.3326,54.7888,-14.0982,2.42839,21.8939,29.9861,-21.7236,-4.93957,9.81229,-29.8472,5.67094,-19.8937,42.3486,-5.30603,3.1861,-13.745
9.50024,17.8523,-0.203709,-13.9423,-80.4158,21.7754,3.22392,-0.388612,-0.283599,2.32507,-0.573212,2.30592,0.603999,-0.325393,2.54006,-14.6425,-2.86047,-11.2285,38.1024,-2.36901,0.356733,16.3153,-3.01247,1.58171,-2.38542e-15,-1.43125e-14,-25.4322,1.98854,-79.5394,50.7059,14.2913,-23.6092,3.78079,7.12502,2.85481,-26.1799,-2.38542e-15,-1.43125e-14,-27.2385,0.428217,89.7962,31.7105,-7.08748,-14.7557,25.2042,7.12502,11.4003,54.8742,-14.1212,2.27932,21.8205,30.0336,-21.7126,-4.79639,9.89273,-30.0249,5.54566,-20.0286,41.894,-5.33423,2.59247,-13.4232
9.47501,17.8547,-0.206489,-14.3423,-80.36,22.2813,3.15876,-0.389373,-0.544512,2.36769,-0.582168,2.34544,0.687876,-0.33438,2.72717,-14.6362,-2.83598,-11.3812,38.0513,-2.27499,0.350098,16.2858,-2.99303,1.62275,-7.55382e-15,-7.95139e-15,-25.2505,2.04638,-79.4998,50.9231,14.5149,-23.5271,4.24642,7.12502,2.93409,-25.7131,-7.55382e-15,-7.95139e-15,-27.2483,0.502352,89.839,31.7097,-6.81737,-14.7459,24.9351,7.12502,11.4098,54.6046,-14.1515,2.36599,21.7126,30.0903,-21.8361,-4.8641,9.76303,-30.2235,5.43688,-20.2394,41.3421,-5.27866,2.14232,-13.8654
9.45391,17.8486,-0.20428,-14.142,-80.2239,22.1906,3.16337,-0.379972,-0.609762,2.37167,-0.571059,2.34954,0.689566,-0.329642,2.76792,-14.5665,-2.83604,-11.3965,38.0152,-2.27461,0.341995,16.2506,-2.99335,1.62337,1.59028e-15,1.74931e-14,-25.1946,2.04834,-79.4783,51.2663,14.3407,-23.4794,4.55299,7.12502,2.98018,-25.4059,1.59028e-15,1.74931e-14,-27.3447,0.657206,89.8926,31.7516,-6.85164,-14.7744,24.6416,7.12502,11.3823,54.3127,-14.1987,2.57649,21.6479,30.1672,-22.0809,-4.95601,9.62569,-30.4499,5.32393,-20.4055,40.7226,-5.25595,1.70301,-14.6328
9.43568,17.8377,-0.196439,-14.0562,-80.1418,22.1997,3.23061,-0.387976,-0.61751,2.37273,-0.581487,2.33663,0.653546,-0.334575,2.75986,-14.5381,-2.81188,-11.3571,37.965,-2.22495,0.276749,16.2122,-2.97265,1.59791,1.98785e-15,-1.59028e-15,-25.1321,2.22949,-79.5121,51.5951,14.0658,-23.5947,4.65653,7.12502,2.86879,-25.3039,1.98785e-15,-1.59028e-15,-27.3837,0.932049,89.8563,31.7081,-7.03573,-14.5187,24.4398,7.12502,11.629,54.0971,-14.2593,2.70995,21.6006,30.254,-22.2302,-5.1341,8.5143,-30.6208,5.11731,-20.5391,40.0509,-5.20031,1.51808,-15.1443
9.41183,17.8254,-0.190809,-13.501,-80.1379,21.6847,3.27872,-0.369627,-0.538131,2.40808,-0.556286,2.32622,0.660677,-0.321648,2.70406,-14.5144,-2.79194,-11.3887,37.9466,-2.20735,0.33643,16.1964,-2.95964,1.63363,2.98177e-14,-1.43125e-14,-25.0459,2.42677,-79.5666,51.8506,13.98,-24.1056,4.85152,7.12502,2.37537,-25.115,2.98177e-14,-1.43125e-14,-27.3583,1.13342,89.7626,31.5732,-7.29709,-14.1717,24.1118,7.12502,11.9635,53.75,-14.2614,2.72558,21.7174,30.3355,-22.3039,-5.329,6.98888,-30.7482,5.19174,-20.5822,39.3489,-5.12788,1.33807,-14.9164
9.38226,17.8174,-0.186268,-12.7154,-80.0564,20.9328,3.24161,-0.318295,-0.422007,2.49075,-0.488115,2.30101,0.761505,-0.287831,2.61033,-14.4377,-2.825,-11.3617,37.8301,-2.27767,0.370097,16.1221,-2.97084,1.63392,3.97569e-16,-1.11319e-14,-24.9341,2.33068,-79.5609,52.0749,14.0653,-24.6428,5.41714,7.12502,1.85658,-24.5545,3.97569e-16,-1.11319e-14,-27.2451,1.18649,89.7172,31.4499,-7.58128,-14.2404,23.8705,7.12502,11.8973,53.5125,-14.2276,2.49494,21.856,30.3902,-22.4088,-5.34165,6.31089,-30.8909,5.16892,-20.6014,38.6094,-5.06476,1.31825,-14.3231
9.35493,17.813,-0.179927,-12.461,-79.9247,20.7306,3.2426,-0.324643,-0.463972,2.54631,-0.499628,2.31227,0.819114,-0.295539,2.64567,-14.3832,-2.83092,-11.3846,37.7317,-2.26281,0.328008,16.0582,-2.96687,1.62395,-1.94809e-14,-3.18055e-15,-24.7726,2.5213,-79.505,52.2463,13.9886,-24.9214,6.19741,7.12502,1.58748,-23.7764,-1.94809e-14,-3.18055e-15,-27.1944,1.47964,89.7037,31.3495,-7.80613,-14.6678,23.7291,7.12502,11.4851,53.3945,-14.2062,2.26802,21.8705,30.4234,-22.5271,-5.33583,6.58908,-31.0172,4.8009,-20.6749,37.8454,-5.04885,1.56927,-14.234
9.3301,17.8092,-0.173167,-12.1222,-79.7572,20.5074,3.26264,-0.396079,-0.545857,2.53801,-0.596545,2.34128,0.805497,-0.345222,2.72426,-14.4165,-2.80827,-11.5285,37.7906,-2.19065,0.351879,16.0964,-2.95782,1.67095,1.11319e-14,-3.18055e-15,-24.543,2.64467,-79.5218,52.2884,14.0417,-25.4048,7.0196,7.12502,1.12061,-22.9572,1.11319e-14,-3.18055e-15,-27.3046,1.73138,89.6955,31.3558,-7.78853,-15.0176,23.6193,7.12502,11.1478,53.3032,-14.2372,1.98205,21.92,30.3937,-22.5591,-5.49863,6.3194,-31.2171,4.41279,-20.7628,37.0744,-5.04714,1.99699,-14.8117
9.30332,17.8042,-0.166885,-11.5927,-79.6259,20.0763,3.27955,-0.401977,-0.46498,2.55355,-0.602276,2.2915,0.810768,-0.346652,2.62763,-14.4451,-2.8258,-11.6899,37.8662,-2.23501,0.542172,16.1516,-2.97595,1.77378,1.70955e-14,-3.18055e-14,-24.3576,2.39898,-79.6,52.3434,14.3151,-26.2748,7.69089,7.12502,0.28037,-22.2887,1.70955e-14,-3.18055e-14,-27.3737,1.26454,89.76,31.4711,-7.14113,-15.0749,23.8624,7.12502,11.0925,53.5492,-14.2274,1.70272,22.0272,30.3153,-22.5277,-5.66706,6.02861,-31.4307,4.34968,-20.8755,36.2918,-5.06318,2.54706,-16.0344
9.27209,17.8022,-0.163716,-10.1735,-79.525,18.6448,3.35405,-0.41611,-0.309004,2.60154,-0.620201,2.34661,0.818281,-0.355384,2.59756,-14.4145,-2.82348,-11.7945,37.884,-2.2486,0.66175,16.158,-2.98032,1.84245,-1.19271e-15,-4.77083e-15,-24.2499,2.46673,-79.6002,52.458,14.5127,-27.3504,8.15488,7.12502,-0.758515,-21.8235,-1.19271e-15,-4.77083e-15,-27.4295,1.00931,89.8229,31.5423,-6.77154,-15.1271,24.2606,7.12502,11.0421,53.9502,-14.0691,1.62057,22.3137,30.2308,-22.6198,-5.8168,6.08923,-31.5367,4.25786,-20.7565,35.4896,-5.20832,3.05412,-17.2673
9.23856,17.8004,-0.162444,-8.29334,-79.363,16.7138,3.46226,-0.455594,-0.178023,2.63379,-0.672986,2.48835,0.793898,-0.382759,2.67229,-14.3717,-2.79475,-11.8633,37.9269,-2.20202,0.683328,16.1682,-2.97067,1.87243,-1.98785e-15,1.74931e-14,-24.0627,2.45718,-79.5175,52.4451,14.7761,-28.1154,8.67065,7.12502,-1.49741,-21.3038,-1.98785e-15,1.74931e-14,-27.5217,1.04643,89.8973,31.5217,-6.83598,-15.1588,24.3349,7.12502,11.0116,54.026,-13.8521,1.73964,22.6823,30.1472,-22.8829,-6.04459,6.66216,-31.6064,3.88384,-20.4922,34.6433,-5.17412,3.40278,-18.0616
9.20627,17.7928,-0.154878,-8.17239,-79.1965,16.5909,3.54858,-0.447712,-0.218888,2.67388,-0.664147,2.48189,0.786866,-0.37945,2.68915,-14.2922,-2.7936,-11.9111,37.9257,-2.19349,0.672593,16.1494,-2.97497,1.87853,3.57812e-15,-1.59028e-15,-23.8701,2.27823,-79.456,52.432,15.1603,-29.0303,9.05859,7.12502,-2.38098,-20.9079,3.57812e-15,-1.59028e-15,-27.4949,0.954947,89.9296,31.403,-6.89186,-14.908,24.3157,7.12502,11.2535,53.9938,-13.6616,1.83317,22.6559,30.058,-23.1071,-6.13567,6.82158,-31.6779,3.65572,-20.6144,33.7406,-4.84644,3.47822,-17.041
9.17381,17.7853,-0.141546,-8.55559,-78.9699,16.9906,3.6058,-0.493029,-0.272311,2.74136,-0.726978,2.42432,0.827172,-0.412123,2.66187,-14.2538,-2.80835,-11.953,37.8904,-2.18316,0.613552,16.1231,-2.98201,1.86236,1.23246e-14,-1.43125e-14,-23.7153,2.47872,-79.3752,52.5373,15.4197,-30.0423,9.24904,7.12502,-3.35831,-20.7043,1.23246e-14,-1.43125e-14,-27.379,1.26983,89.8469,31.2167,-7.30039,-14.5212,24.2302,7.12502,11.6265,53.8877,-13.4782,1.84779,22.4757,29.9722,-23.0868,-6.09602,7.31686,-31.7702,3.41523,-20.879,32.8533,-4.64927,3.68705,-15.5475
9.13821,17.7819,-0.123961,-7.93171,-78.3752,16.3447,3.65401,-0.664218,-0.136836,2.79968,-0.953417,2.41367,0.868762,-0.524603,2.58108,-14.2545,-2.8468,-12.0457,37.941,-2.2122,0.606548,16.156,-3.01049,1.86972,-2.5842e-14,-2.22639e-14,-23.5868,2.41177,-79.2136,52.6488,15.9309,-31.1192,9.40817,7.12502,-4.39826,-20.5262,-2.5842e-14,-2.22639e-14,-27.3454,1.68724,89.7988,31.1044,-7.77313,-14.129,24.1174,7.12502,12.0048,53.7532,-13.2645,1.47731,22.4672,29.9351,-22.9606,-6.03174,8.79757,-31.8479,2.68268,-20.9728,31.9461,-4.58931,4.20024,-14.7986
9.11266,17.7726,-0.111146,-7.51399,-79.1493,15.4512,4.37369,-0.355514,0.131789,2.97537,-0.536745,2.43102,0.626226,-0.315968,2.44213,-14.2644,-2.89764,-12.1093,37.996,-2.28569,0.651401,16.196,-3.04554,1.8871,-5.96354e-15,-1.35174e-14,-23.4502,2.07733,-79.1431,52.6968,16.6888,-32.4936,9.21728,7.12502,-5.72526,-20.6854,-5.96354e-15,-1.35174e-14,-27.3603,1.6515,89.8032,31.1136,-7.70663,-13.865,24.1008,7.12502,12.2592,53.7215,-12.7014,1.66235,22.7404,29.8659,-22.8095,-5.56933,8.52079,-31.368,3.08181,-20.7077,31.0836,-4.69302,5.00808,-14.6633
9.07949,17.7603,-0.0990416,-7.20648,-79.2358,14.9619,4.66326,-0.284836,0.244081,3.08381,-0.440522,2.40406,0.571246,-0.268072,2.34956,-14.2305,-2.91362,-12.1425,38.0171,-2.32371,0.700403,16.2032,-3.05952,1.90819,5.96354e-15,8.74653e-15,-23.252,1.83286,-79.1141,52.6431,17.4499,-33.6687,9.29685,7.12502,-6.85978,-20.572,5.96354e-15,8.74653e-15,-27.398,1.25975,89.8375,31.1897,-7.33039,-13.7014,24.2578,7.12502,12.417,53.869,-12.3336,1.67973,22.8552,29.776,-23.3741,-5.66523,7.44053,-31.2481,3.02711,-20.6986,30.228,-4.67571,5.38015,-15.1703
9.04088,17.7553,-0.0899226,-6.91915,-78.9643,14.7582,4.62896,-0.359958,0.173023,3.11174,-0.544625,2.41927,0.624071,-0.32185,2.40898,-14.1358,-2.87453,-12.2306,37.9783,-2.26021,0.724193,16.1576,-3.0407,1.94652,-2.5842e-14,-3.18055e-15,-23.0582,2.12619,-79.0262,52.6529,17.7516,-35.0573,8.68526,7.12502,-8.20008,-21.1356,-2.5842e-14,-3.18055e-15,-27.4039,1.10705,89.8231,31.1756,-7.2415,-13.7514,24.3213,7.12502,12.3688,53.9354,-12.2153,1.50952,22.8827,29.6879,-23.9547,-5.87208,7.21647,-31.4695,2.66124,-20.7789,29.3726,-4.65364,5.46139,-16.2314
9.0034,17.7553,-0.0819795,-6.47293,-78.6577,14.4196,4.62848,-0.420342,0.0589926,3.11654,-0.629895,2.49156,0.635024,-0.367219,2.55107,-14.1646,-2.86923,-12.3427,38.0805,-2.20721,0.696022,16.2179,-3.0445,1.96196,-4.37326e-15,-7.15625e-15,-22.9211,2.61376,-78.8694,52.7514,17.6924,-36.7454,7.12999,7.12502,-9.82902,-22.6206,-4.37326e-15,-7.15625e-15,-27.3731,1.50452,89.8091,31.0274,-7.72521,-13.9796,24.4344,7.12502,12.1488,54.0617,-12.1547,1.37648,22.9119,29.6368,-24.2269,-5.97339,7.41812,-31.6983,2.24907,-20.8116,28.4497,-4.63134,5.4961,-16.7263
8.96341,17.7525,-0.0742129,-6.27526,-78.4132,14.2339,4.71034,-0.418971,-0.00520085,3.13424,-0.630039,2.49441,0.608404,-0.368426,2.59097,-14.1645,-2.89192,-12.4154,38.2676,-2.22376,0.675935,16.3202,-3.07583,1.9616,-7.95139e-16,-5.56597e-15,-22.8504,2.44677,-78.759,52.751,17.96,-38.0837,6.13913,7.12502,-11.12,-23.5462,-7.95139e-16,-5.56597e-15,-27.4417,1.79334,89.8153,30.9731,-8.07696,-14.223,24.6807,7.12502,11.9141,54.3217,-11.9634,1.42825,22.923,29.587,-24.3821,-6.0792,7.88364,-31.7609,2.02983,-20.9176,27.5106,-4.53895,5.44334,-17.0246
8.92213,17.7441,-0.0641405,-5.71351,-78.2514,13.6729,4.74616,-0.449622,-0.00290232,3.18771,-0.673492,2.53584,0.646046,-0.391967,2.63433,-14.0785,-2.86001,-12.4592,38.2683,-2.14756,0.596134,16.2949,-3.06227,1.94832,1.47101e-14,-1.11319e-14,-22.6335,2.09596,-78.6505,52.6208,18.6083,-39.2154,5.43474,7.12502,-12.2114,-24.1888,1.47101e-14,-1.11319e-14,-27.5031,1.87212,89.8269,31.0348,-7.89057,-14.1165,24.6983,7.12502,12.0167,54.3333,-11.7735,1.51424,23.0276,29.5492,-24.645,-6.10675,8.48342,-31.8136,1.90231,-20.9394,26.5861,-4.47745,5.34919,-17.5825
8.88048,17.7374,-0.0492214,-5.19777,-78.013,13.1965,4.7578,-0.512618,-0.00312777,3.23862,-0.76028,2.58179,0.696752,-0.437289,2.68523,-14.0196,-2.84228,-12.4305,38.1924,-2.07168,0.431356,16.2342,-3.0444,1.88529,-1.55052e-14,8.74653e-15,-22.317,1.92572,-78.4598,52.422,19.0723,-40.4115,4.52593,7.12502,-13.3644,-25.0255,-1.55052e-14,8.74653e-15,-27.5353,1.89838,89.8066,31.0677,-7.66963,-13.7323,24.5046,7.12502,12.3872,54.1176,-11.6438,1.41653,23.0978,29.5587,-24.8873,-6.17797,8.52598,-31.9191,1.56434,-20.9405,25.6502,-4.419,5.29097,-17.4613
8.83483,17.7325,-0.0357062,-4.99152,-77.7988,13.0127,4.74039,-0.498967,-0.0897853,3.31438,-0.749195,2.61715,0.785685,-0.435371,2.76948,-13.9733,-2.88019,-12.4727,38.1443,-2.10569,0.400901,16.2031,-3.06369,1.87429,-9.54166e-15,-8.74653e-15,-22.0521,1.53434,-78.154,52.2612,19.2607,-41.3463,3.76039,7.12502,-14.2653,-25.7296,-9.54166e-15,-8.74653e-15,-27.5056,1.94284,89.842,31.0098,-7.68218,-13.5039,24.4291,7.12502,12.6074,54.0287,-11.501,1.24494,23.1393,29.5972,-24.8446,-6.49287,7.37341,-31.9997,1.37042,-21.0403,24.7475,-4.34269,5.05096,-17.2846
8.79347,17.7303,-0.0295753,-4.74481,-77.7987,13.0195,4.57354,-0.429179,-0.309364,3.29113,-0.66451,2.68105,0.854123,-0.397019,2.95422,-13.9148,-2.86295,-12.5518,38.161,-2.07006,0.413735,16.1975,-3.05901,1.90064,2.0276e-14,-1.82882e-14,-21.8542,1.25348,-77.8388,52.0811,19.2127,-42.0978,3.0502,7.12502,-14.9893,-26.3873,2.0276e-14,-1.82882e-14,-27.5408,2.15894,89.8961,30.9585,-7.86806,-13.5953,24.4074,7.12502,12.5193,54.0124,-11.6251,1.18316,23.1702,29.5821,-24.6249,-6.73258,5.72739,-32.351,1.48511,-21.1563,23.9022,-4.27023,4.67362,-17.4729
8.76009,17.7283,-0.0302362,-3.911,-78.1032,12.9173,4.03153,-0.301063,-0.561182,3.09853,-0.497246,2.78699,0.952676,-0.314866,3.1956,-13.8218,-2.82832,-12.7309,38.1916,-1.99763,0.450909,16.1911,-3.05274,1.96117,-3.97569e-14,-4.77083e-15,-21.6507,1.15614,-77.5347,51.7909,19.1071,-42.8924,2.32074,7.12502,-15.7548,-27.058,-3.97569e-14,-4.77083e-15,-27.6775,2.28403,89.9783,30.995,-7.86668,-13.9345,24.4166,7.12502,12.1923,54.0412,-12.3297,1.46914,23.2369,29.5482,-24.6174,-6.66313,5.85983,-33.2369,1.73938,-21.1355,23.081,-4.14802,4.49625,-16.8952
8.70585,17.7203,-0.0121771,-3.70029,-78.1245,12.7205,3.94755,-0.268595,-0.555272,3.16356,-0.457556,2.8053,1.06429,-0.297324,3.20919,-13.7105,-2.82405,-12.862,38.189,-1.97909,0.466331,16.1661,-3.06222,1.99473,-4.37326e-15,0,-21.4055,0.908955,-77.2875,51.4523,19.0437,-43.7487,1.4875,7.12502,-16.5793,-27.8243,-4.37326e-15,0,-27.7666,2.39949,89.9903,31.0081,-7.79247,-14.1383,24.2869,7.12502,11.9958,53.9231,-12.0797,1.7431,23.2485,29.4462,-24.9757,-6.70695,6.05292,-33.2702,1.44116,-21.072,22.3125,-4.09693,4.50662,-16.6352
8.65983,17.7145,0.00279955,-3.49773,-78.041,12.6691,3.85881,-0.354731,-0.709678,3.18032,-0.579521,2.9127,1.1417,-0.36366,3.41025,-13.7237,-2.74816,-13.1254,38.1673,-1.77988,0.464046,16.1504,-3.01773,2.07341,1.39149e-14,4.77083e-15,-21.0509,0.844705,-77.0345,51.1188,18.9205,-44.6243,0.554663,7.12502,-17.4221,-28.6846,1.39149e-14,4.77083e-15,-27.7775,2.9916,89.9809,30.9077,-7.91104,-14.3208,24.0954,7.12502,11.8197,53.7418,-11.9914,1.85395,23.2435,29.2935,-24.9698,-7.03108,4.54703,-33.5336,1.16076,-21.0731,21.6035,-3.97475,4.40133,-16.2592
8.6101,17.71,0.0231076,-2.62491,-78.0587,11.8431,3.84099,-0.40172,-0.625145,3.21466,-0.644814,3.03524,1.19207,-0.398438,3.49095,-13.8888,-2.72126,-13.3694,38.3073,-1.63824,0.459341,16.2605,-3.0047,2.13531,3.97569e-15,-7.95139e-15,-20.778,0.772692,-76.7681,50.8177,18.6545,-45.4094,-0.332391,7.12502,-18.1775,-29.503,3.97569e-15,-7.95139e-15,-27.8644,3.42806,89.9708,30.9388,-8.02,-14.2027,24.1261,7.12502,11.9336,53.766,-11.7765,1.83224,23.4054,29.0931,-25.0977,-6.9816,5.08174,-33.6762,0.665603,-20.7485,20.9134,-3.95697,4.74651,-14.9091
8.55662,17.7026,0.0429773,-1.82541,-78.0435,11.0555,3.81839,-0.349095,-0.461442,3.24662,-0.572704,3.04004,1.2311,-0.36063,3.40119,-14.1365,-2.84445,-13.3596,38.6656,-1.75894,0.353638,16.5239,-3.09017,2.06056,-3.18055e-15,-3.18055e-14,-20.6871,0.45304,-76.5223,50.5254,18.3361,-46.1951,-0.931644,7.12502,-18.9333,-30.0302,-3.18055e-15,-3.18055e-14,-27.9736,3.21031,89.9653,31.0012,-7.9213,-13.8817,24.0467,7.12502,12.2431,53.6684,-11.5196,1.84785,23.56,28.9358,-25.5267,-6.76144,7.19722,-33.7384,0.255448,-20.4748,20.1909,-3.86708,4.86914,-14.8186
8.50129,17.6959,0.0602055,-1.60609,-77.9764,10.8797,3.74788,-0.291279,-0.559238,3.30186,-0.501267,3.06037,1.32416,-0.328702,3.475,-14.0053,-2.82278,-13.4815,38.6068,-1.79067,0.573748,16.4653,-3.08524,2.17637,2.8625e-14,-1.59028e-15,-20.49,0.0570871,-76.2052,50.113,18.1996,-46.9121,-1.60361,7.12502,-19.6228,-30.6333,2.8625e-14,-1.59028e-15,-27.9365,2.97119,90.0143,30.9183,-7.71036,-13.6345,24.1079,7.12502,12.4815,53.7152,-11.2623,1.92903,23.5884,28.7676,-25.7896,-6.72577,8.1475,-33.8107,0.0130295,-20.412,19.4989,-3.75184,4.69995,-15.8709
8.4456,17.6914,0.0785139,-1.29981,-77.9217,10.6483,3.63321,-0.160992,-0.465216,3.38524,-0.32793,2.97046,1.46142,-0.241102,3.32375,-13.9941,-2.94744,-13.5411,38.6194,-2.04379,0.805407,16.4948,-3.16238,2.24582,-2.94201e-14,1.43125e-14,-20.2458,-1.00804,-75.9201,49.5116,18.6783,-47.3932,-1.9528,7.12502,-20.0852,-30.9346,-2.94201e-14,1.43125e-14,-27.7979,2.61367,89.9987,30.8034,-7.63369,-13.7122,24.2475,7.12502,12.4066,53.8593,-11.0365,1.99538,23.6376,28.5656,-25.8394,-6.88148,7.79754,-33.9286,-0.141547,-20.3553,18.8716,-3.78359,4.74576,-16.7356
8.38666,17.6872,0.0994339,-0.621051,-77.932,9.95183,3.69721,-0.165768,-0.494761,3.37288,-0.336662,3.07718,1.41469,-0.247579,3.45159,-13.9507,-2.9246,-13.6021,38.7205,-1.98143,0.729409,16.5348,-3.16489,2.23298,-3.97569e-15,1.90833e-14,-20.0662,-1.44925,-75.5364,48.8727,19.2465,-47.665,-2.20171,7.12502,-20.3465,-31.1559,-3.97569e-15,1.90833e-14,-28.0365,2.99328,89.9683,30.8234,-7.84287,-14.0591,24.3051,7.12502,12.0721,53.9368,-10.6971,2.05796,23.7817,28.3462,-25.8944,-6.99893,7.59524,-33.9528,-0.464694,-20.0839,18.3119,-3.93749,5.12228,-17.2271
8.32576,17.682,0.117524,0.327641,-78.0552,8.90017,3.75628,0.160793,-0.136426,3.41613,0.110691,2.82921,1.39751,-0.0130825,2.98175,-13.6251,-3.11275,-13.0474,38.7339,-2.54053,0.833778,16.4911,-3.29667,2.0896,-1.86858e-14,1.03368e-14,-20.3005,-3.06114,-75.4074,48.4778,19.651,-47.9194,-2.72699,7.12502,-20.5909,-31.6549,-1.86858e-14,1.03368e-14,-28.1302,2.00515,89.7569,30.7917,-7.73729,-14.4158,24.3296,7.12502,11.7282,53.9813,-10.253,2.118,24.0109,28.1125,-25.937,-6.95045,7.55269,-33.9037,-0.480652,-19.8085,17.799,-3.90074,4.93253,-18.0959
8.2666,17.6749,0.138479,1.1533,-78.1637,8.14397,3.64004,-0.0984613,-0.266766,3.50555,-0.2533,3.19612,1.57787,-0.20813,3.44399,-13.901,-2.81677,-13.8645,38.7474,-1.79484,0.857151,16.527,-3.11135,2.36906,6.59965e-14,-1.11319e-14,-19.691,-2.38953,-75.0448,47.962,19.7987,-48.1375,-3.37916,7.12502,-20.8005,-32.2842,6.59965e-14,-1.11319e-14,-28.2079,3.5621,89.7939,30.8439,-7.92193,-14.3849,24.3541,7.12502,11.758,54.0041,-10.0172,1.93077,24.1595,27.8899,-25.8015,-6.88331,6.72123,-34.0469,-0.308117,-19.7244,17.2674,-3.7034,4.48747,-19.9773
8.20638,17.6732,0.164857,1.54851,-78.3477,7.93495,3.43151,0.123611,-0.157512,3.51246,0.0459466,3.067,1.68253,-0.0539944,3.24193,-13.8014,-2.90287,-13.5867,38.7892,-2.0369,0.874679,16.5374,-3.16754,2.28804,-1.70955e-14,-1.43125e-14,-19.8155,-3.13543,-74.8366,47.6189,20.0245,-48.5552,-4.47591,7.12502,-21.2018,-33.3365,-1.70955e-14,-1.43125e-14,-28.2265,3.11667,89.7399,30.7573,-7.88977,-14.1205,24.2032,7.12502,12.0129,53.8384,-9.8993,1.87053,24.1618,27.6661,-25.6688,-6.77574,6.26153,-34.2366,-0.623504,-19.4876,16.7408,-3.71331,4.77704,-20.599
8.14211,17.6726,0.191805,1.05983,-78.528,8.51179,3.34207,0.349444,-0.223259,3.50647,0.350197,2.90334,1.70887,0.100459,3.104,-13.6532,-3.00421,-13.4031,38.8484,-2.30181,0.934868,16.5506,-3.24325,2.23816,-8.34896e-15,-1.35174e-14,-20.1199,-3.5986,-74.5399,47.4501,19.9056,-48.7864,-5.7711,7.12502,-21.4239,-34.6066,-8.34896e-15,-1.35174e-14,-28.3523,2.57931,89.7039,30.6686,-7.64667,-13.9304,24.0204,7.12502,12.1962,53.6448,-9.64405,2.00752,23.9825,27.4783,-25.7566,-6.67021,6.61836,-34.2085,-1.20341,-19.2733,16.155,-3.78277,5.37045,-20.8116
8.07429,17.6668,0.219396,1.53899,-78.6286,7.91886,3.41571,0.57175,0.030448,3.55358,0.652734,2.76148,1.70317,0.258778,2.80827,-13.559,-3.13121,-13.1538,38.9496,-2.6017,0.957961,16.6003,-3.33031,2.15351,3.49861e-14,3.18055e-15,-20.3666,-4.54764,-74.2961,47.1753,20.182,-49.1899,-7.56018,7.12502,-21.8114,-36.3511,3.49861e-14,3.18055e-15,-28.4879,1.95522,89.6258,30.703,-7.38158,-13.8703,24.1141,7.12502,12.2542,53.7351,-9.18058,2.19181,24.0606,27.3176,-25.9623,-6.58095,7.07693,-33.9279,-1.63381,-18.9018,15.4664,-3.88394,5.93033,-20.5591
8.00882,17.6591,0.249059,2.36704,-78.6538,7.04413,3.46865,0.821952,0.389971,3.582,0.996167,2.5748,1.69496,0.440923,2.40607,-13.488,-3.32145,-12.7234,39.0816,-3.04686,0.971581,16.6775,-3.45133,2.00689,-2.38542e-15,5.56597e-15,-20.5508,-5.79631,-74.1261,46.7634,20.5324,-50.0583,-10.2248,7.12502,-22.645,-38.9163,-2.38542e-15,5.56597e-15,-28.56,1.23663,89.503,30.6979,-7.32726,-13.9095,24.3508,7.12502,12.2164,53.9741,-8.78659,2.29068,24.192,27.1484,-26.139,-6.50501,7.22041,-33.7169,-2.23246,-18.4374,14.7624,-3.88343,6.5692,-20.8924
7.94784,17.651,0.273257,2.21654,-78.6273,7.32157,3.5207,1.06896,0.469668,3.49403,1.33882,2.29138,1.56974,0.620911,2.06002,-13.3048,-3.48905,-12.2268,39.1645,-3.53228,1.07675,16.6989,-3.56468,1.8842,2.46493e-14,8.74653e-15,-20.87,-6.85343,-73.9976,46.3723,20.4987,-50.4478,-11.7654,7.12502,-23.0189,-40.4108,2.46493e-14,8.74653e-15,-28.6961,0.786132,89.2483,30.6463,-7.45458,-13.5912,24.26,7.12502,12.5232,53.8647,-8.56284,2.18269,24.1037,26.9617,-26.1998,-6.37031,7.24818,-33.7419,-2.38435,-18.4217,14.1594,-3.73627,6.37091,-21.7506
7.8711,17.6449,0.314161,2.07964,-78.7043,7.45382,3.434,0.725664,0.324231,3.51702,0.86977,2.56441,1.65142,0.377842,2.43461,-13.4769,-3.11244,-12.9941,39.2604,-2.70894,1.08193,16.7496,-3.35357,2.16298,-5.96354e-15,1.03368e-14,-20.4916,-5.65961,-73.6864,45.8855,20.3473,-50.1995,-11.9437,7.12502,-22.7805,-40.6186,-5.96354e-15,1.03368e-14,-29.0654,2.65065,89.1406,30.6736,-7.56569,-13.1174,23.796,7.12502,12.98,53.3723,-8.25322,2.05285,23.9522,26.9051,-26.2516,-6.08568,7.50447,-33.5193,-3.09273,-18.1091,13.4941,-3.68837,6.69142,-21.0057
7.79607,17.64,0.343729,2.11818,-78.8816,7.36296,3.43719,0.824782,0.321146,3.58515,0.99947,2.52113,1.7153,0.442053,2.38984,-13.586,-3.09964,-12.8781,39.31,-2.67202,1.00444,16.7952,-3.33263,2.1138,1.59028e-15,-9.54166e-15,-20.5388,-6.0196,-73.4846,45.5409,20.6928,-49.8248,-12.4798,7.12502,-22.4209,-41.1985,1.59028e-15,-9.54166e-15,-29.1809,2.61732,88.9989,30.5885,-7.39433,-13.0127,23.5702,7.12502,13.081,53.14,-7.9115,2.21888,23.9182,26.9034,-26.4106,-5.87716,8.2115,-33.2093,-3.29362,-17.886,12.805,-3.62273,6.62976,-19.1385
7.7222,17.6085,0.370016,2.06911,-79.0962,7.42483,3.47625,1.07681,0.329406,3.59649,1.33928,2.36319,1.69541,0.614975,2.21503,-13.5514,-3.18972,-12.535,39.2499,-2.86472,0.896116,16.7572,-3.36738,1.97292,-4.45278e-14,3.81667e-14,-20.8119,-6.77905,-73.2688,45.2544,21.1025,-49.4578,-12.9361,7.12502,-22.0687,-41.6968,-4.45278e-14,3.81667e-14,-29.3466,2.18459,88.8603,30.5881,-7.28715,-13.0004,23.8062,7.12502,13.0928,53.3752,-7.65855,2.37926,23.8808,26.9683,-26.5227,-5.76154,7.99387,-32.9787,-1.07997,-19.2932,12.0988,-2.59621,4.1267,-28.1405
7.6497,17.5922,0.399126,2.25262,-79.2453,7.38573,3.38576,1.26016,0.412234,3.55757,1.59,2.18673,1.70375,0.745995,1.98324,-13.4678,-3.23296,-12.2801,39.2096,-3.04527,0.974649,16.7195,-3.38805,1.93411,3.57812e-14,5.56597e-15,-21.057,-7.51642,-73.1278,44.9186,21.4355,-49.7596,-13.4366,7.12502,-22.3584,-42.1628,3.57812e-14,5.56597e-15,-29.5407,2.2154,88.6107,30.6417,-7.43464,-12.7655,23.8496,7.12502,13.3193,53.4039,-7.56199,2.62307,23.843,27.0689,-26.737,-5.69583,7.81444,-32.8051,-0.683225,-19.544,11.3495,-2.00915,3.03585,-32.1219
7.57961,17.5863,0.439653,1.41747,-79.3465,8.53025,3.18923,1.35458,0.371412,3.45231,1.72264,1.98717,1.70553,0.816935,1.80148,-13.4934,-3.24629,-12.0281,39.3402,-3.11745,0.896223,16.7911,-3.39754,1.84141,-2.06736e-14,-2.62396e-14,-21.3116,-8.04181,-72.9958,44.6143,21.9119,-50.07,-14.1231,7.12502,-22.6563,-42.8133,-2.06736e-14,-2.62396e-14,-29.8008,2.30216,88.4091,30.6846,-7.53656,-12.8171,23.6671,7.12502,13.2695,53.2247,-7.59836,2.6735,23.4912,27.1431,-26.935,-5.47123,7.58729,-32.7596,-1.21508,-19.5015,10.7122,-1.59976,2.90705,-32.5166
7.50974,17.5773,0.482642,0.791443,-79.5422,9.44292,3.03333,1.49158,0.413424,3.30514,1.91447,1.80773,1.64292,0.919081,1.59187,-13.3471,-3.27522,-11.9713,39.4331,-3.23241,0.940803,16.8128,-3.43684,1.83224,-1.19271e-15,-4.77083e-15,-21.7373,-8.27432,-72.7882,44.4378,22.241,-49.9425,-14.4384,7.12502,-22.5339,-43.1434,-1.19271e-15,-4.77083e-15,-30.1763,2.08186,88.3206,30.7234,-7.23922,-13.0929,23.7785,7.12502,13.0036,53.3533,-7.54812,2.49334,23.1597,27.0559,-26.8779,-5.11665,7.04303,-32.8044,-1.58807,-19.4254,10.3636,-1.45437,3.03939,-31.4471
7.43123,17.5641,0.512473,2.24747,-79.7779,7.98157,3.09526,1.67793,0.664979,3.16922,2.17383,1.7349,1.47431,1.05624,1.36735,-12.9458,-3.26286,-11.7506,39.4523,-3.42066,1.09465,16.7289,-3.46644,1.83534,2.54444e-14,-2.22639e-14,-22.3698,-8.56748,-72.648,44.373,22.5329,-49.7398,-14.681,7.12502,-22.3393,-43.4095,2.54444e-14,-2.22639e-14,-30.7358,1.82277,88.1087,30.8503,-6.97419,-12.8791,24.1445,7.12502,13.2097,53.706,-7.17159,2.53308,23.3953,26.8637,-26.8294,-5.03586,6.15925,-32.7113,-1.61947,-18.9813,10.2469,-1.48975,2.87689,-30.6158
7.35404,17.554,0.544228,3.12389,-79.9129,7.0523,3.17964,1.20168,0.374462,3.31865,1.51751,2.27135,1.57197,0.71157,2.09365,-13.657,-2.79622,-12.8327,39.4743,-2.25002,1.11042,16.8566,-3.14955,2.23037,1.66979e-14,-6.36111e-15,-21.6447,-6.68154,-72.443,44.1205,22.8201,-49.3722,-15.0682,7.12502,-21.9864,-43.8386,1.66979e-14,-6.36111e-15,-31.0481,4.17378,88.0571,31.0631,-7.02285,-12.8106,24.2463,7.12502,13.2758,53.8035,-6.72623,2.60468,23.5422,26.6135,-26.7533,-5.14814,5.33807,-32.6742,-1.9035,-18.621,10.4115,-1.4968,2.93717,-30.3967
7.27708,17.5469,0.586461,3.22082,-80.0377,6.96824,3.24234,1.30758,0.572862,3.36353,1.66291,2.1504,1.58733,0.789202,1.85457,-13.7845,-2.84543,-12.7261,39.3881,-2.31924,1.11819,16.8445,-3.15078,2.20291,1.55052e-14,2.78299e-14,-21.9379,-7.08111,-72.2881,44.1364,23.3677,-48.8351,-15.1152,7.12502,-21.4707,-43.9454,1.55052e-14,2.78299e-14,-31.2554,3.67492,88.0454,31.2015,-6.37088,-13.0856,24.1711,7.12502,13.0107,53.7453,-6.30735,2.58808,23.4784,26.3436,-26.6526,-5.23432,4.19176,-32.703,-2.24409,-18.4625,10.7429,-1.36523,3.08209,-30.3034
7.19598,17.5408,0.629474,3.21392,-80.2032,7.08151,3.2648,1.67236,0.932627,3.2883,2.16698,1.74044,1.51221,1.0556,1.22074,-13.5824,-3.10559,-12.0974,39.2763,-2.93667,1.13542,16.7653,-3.29499,1.99443,2.70347e-14,-4.77083e-15,-22.7946,-8.44184,-72.1953,44.3447,23.9154,-48.0524,-14.477,7.12502,-20.7188,-43.3911,2.70347e-14,-4.77083e-15,-31.5539,2.38301,87.8411,31.3138,-5.95735,-13.1035,24.0132,7.12502,12.9934,53.5886,-6.01299,2.58268,23.3571,26.1439,-26.5061,-5.36849,2.43004,-32.7416,-2.25482,-18.5044,10.9938,-1.14409,2.87239,-29.9857
7.11071,17.5344,0.66653,2.22949,-80.3892,8.26903,3.11874,1.33177,0.401888,3.23877,1.69891,2.04605,1.5249,0.807825,1.84335,-13.8072,-2.74932,-12.929,39.2489,-2.03855,0.984173,16.7564,-3.07702,2.22763,1.07344e-14,-2.46493e-14,-22.6929,-6.91907,-72.0231,44.4966,24.1071,-46.9095,-13.829,7.12502,-19.6203,-42.859,1.07344e-14,-2.46493e-14,-32.136,4.60185,87.6264,31.4837,-6.47935,-13.1193,23.9694,7.12502,12.9782,53.5457,-5.83842,2.69435,23.0524,26.004,-26.4785,-5.39592,1.57059,-32.846,-1.90127,-18.9438,11.2425,-1.0173,2.34381,-29.2807
7.02671,17.5299,0.704875,1.2936,-80.5359,9.35482,3.01904,1.0716,0.0347092,3.21041,1.34331,2.2239,1.54943,0.620854,2.24041,-13.9474,-2.46856,-13.4897,39.1899,-1.39223,0.937213,16.717,-2.90396,2.41638,-7.95139e-15,-7.95139e-16,-22.7852,-5.54584,-71.941,44.8036,24.144,-45.8144,-13.8276,7.12502,-18.5672,-42.9615,-7.95139e-15,-7.95139e-16,-32.6139,6.159,87.4078,31.5682,-6.6325,-13.5254,24.1425,7.12502,12.5867,53.7433,-5.62458,2.87511,22.7856,25.8906,-26.5073,-5.48545,1.11522,-32.8955,-2.09285,-19.1134,11.559,-1.05644,2.5305,-26.9183
6.94205,17.5241,0.75193,0.987372,-80.6415,9.71998,3.04368,0.361872,-0.398957,3.15806,0.377104,2.88294,1.51423,0.118915,3.18088,-14.3305,-1.82439,-15.1655,39.2109,0.176304,0.930563,16.7125,-2.52961,2.97211,1.59028e-14,-7.15625e-15,-22.3688,-2.24087,-71.6217,44.9703,23.721,-45.0128,-14.2357,7.12502,-17.796,-43.4414,1.59028e-14,-7.15625e-15,-33.4382,9.37939,87.3538,31.7242,-6.98979,-13.5291,24.0461,7.12502,12.5831,53.6472,-5.29745,2.89955,22.6023,25.7648,-26.489,-5.43381,0.542637,-32.8794,-2.3043,-19.2062,11.9816,-1.01955,2.43917,-25.513
6.85639,17.5202,0.800846,1.68396,-80.7021,9.10263,3.02926,0.865612,0.193573,3.13473,1.07032,2.38419,1.47652,0.485766,2.31989,-14.0837,-2.20913,-14.0724,39.2104,-0.787316,0.922706,16.7205,-2.75174,2.61552,-2.50469e-14,-1.43125e-14,-23.429,-3.91867,-71.6785,45.3303,23.8299,-43.7932,-13.3132,7.12502,-16.6221,-42.6214,-2.50469e-14,-1.43125e-14,-33.4447,7.6422,87.1489,31.5833,-6.86766,-13.3873,23.8265,7.12502,12.7198,53.4191,-4.99545,2.87457,22.5558,25.6473,-26.4899,-5.15456,0.652124,-32.9414,-1.98471,-19.3993,12.4409,-0.513061,1.32068,-24.9331
6.76878,17.5231,0.845925,2.06814,-80.7834,8.86116,2.94386,1.18259,0.565733,3.10465,1.50679,2.00344,1.49556,0.717348,1.71307,-14.0005,-2.4574,-13.2706,39.247,-1.39849,0.850623,16.7547,-2.88854,2.33873,2.18663e-14,-2.22639e-14,-24.2903,-5.12966,-71.7171,45.7013,23.8938,-42.2355,-11.6586,7.12502,-15.122,-41.0861,2.18663e-14,-2.22639e-14,-33.4886,6.45237,86.899,31.4953,-6.68703,-13.292,23.864,7.12502,12.8117,53.4508,-4.79297,3.01575,22.4592,25.6163,-26.4849,-4.83201,1.66749,-33.0439,-1.73121,-19.5755,12.8133,0.564428,0.2046,-23.0383
6.68077,17.5256,0.890259,0.930622,-80.7946,10.1161,2.95398,1.64121,0.766283,3.08266,2.13401,1.39205,1.48143,1.04408,0.962751,-13.8734,-2.84945,-12.045,39.3018,-2.36788,0.779687,16.797,-3.10592,1.9244,-2.10712e-14,0,-25.3546,-6.74108,-71.8181,46.1514,23.9011,-41.1438,-11.1115,7.12502,-14.0702,-40.6152,-2.10712e-14,0,-33.3881,4.51546,86.6204,31.3602,-6.32404,-13.1771,24.1183,7.12502,12.9224,53.6981,-4.62228,3.16539,22.1418,25.7396,-26.5046,-4.8675,1.58001,-33.0774,-1.96296,-19.8075,13.0741,2.17835,-0.635725,-20.2609
6.59273,17.5213,0.937543,-0.850376,-80.6934,11.9338,2.9992,1.23829,0.189631,3.08389,1.58355,1.70598,1.43895,0.754236,1.61543,-14.0701,-2.54113,-12.7813,39.4138,-1.5765,0.59112,16.8651,-2.93361,2.10474,1.11319e-14,1.11319e-14,-25.2796,-4.96851,-71.5781,46.3066,23.8204,-40.4714,-11.2512,7.12502,-13.4221,-40.7988,1.11319e-14,1.11319e-14,-33.8205,6.35273,86.5504,31.2758,-6.6104,-12.9791,23.8998,7.12502,13.1134,53.4675,-4.40649,3.31655,21.7554,26.0213,-26.597,-5.19432,0.753513,-33.0485,-1.71448,-20.5282,13.3014,3.71713,-2.73817,-22.7501
6.50664,17.5191,0.983751,-1.929,-80.6119,13.0713,3.06497,0.750833,-0.339213,3.06568,0.918273,2.15065,1.38659,0.406036,2.38038,-14.3132,-2.15524,-13.8306,39.5247,-0.579416,0.461371,16.9305,-2.72088,2.40081,9.93923e-15,-3.18055e-15,-25.0255,-3.03886,-71.2567,46.3117,24.0025,-40.0573,-11.3288,7.12502,-13.023,-40.9023,9.93923e-15,-3.18055e-15,-34.3088,8.63537,86.5052,31.1814,-7.07844,-12.9125,23.6482,7.12502,13.1775,53.2118,-4.31719,3.47126,21.4591,26.4917,-26.7144,-5.18305,0.931003,-33.0705,-0.508921,-21.6506,13.5013,4.0101,-5.64737,-30.135
6.42001,17.5187,1.02329,-2.92995,-80.4784,14.1333,3.14883,0.128109,-1.01299,3.04064,0.0662683,2.71356,1.35255,-0.0403998,3.35724,-14.6426,-1.66496,-15.2038,39.5894,0.665223,0.43579,16.9624,-2.44327,2.84086,9.93923e-15,-1.66979e-14,-24.576,-0.88901,-70.8934,46.2039,24.4227,-39.7767,-11.2577,7.12502,-12.7525,-40.8482,9.93923e-15,-1.66979e-14,-34.8699,11.3254,86.475,31.138,-7.50208,-12.9656,23.5611,7.12502,13.1263,53.1279,-4.34753,3.53705,21.2026,27.1716,-26.8299,-5.17899,0.735475,-33.0759,0.675295,-22.6557,13.6638,3.86455,-7.29159,-33.0803
6.33313,17.5217,1.06414,-4.08263,-80.3281,15.2864,3.23389,0.782569,-0.709748,3.10725,0.957235,1.95463,1.33041,0.421781,2.38423,-14.1094,-2.17151,-13.6869,39.4825,-0.72,0.542783,16.8627,-2.73987,2.38976,-2.46493e-14,-7.15625e-15,-25.817,-3.87745,-70.8924,46.3293,25.6083,-39.437,-10.262,7.12502,-12.425,-39.8727,-2.46493e-14,-7.15625e-15,-34.4112,8.77899,86.23,30.732,-7.38581,-12.663,23.638,7.12502,13.418,53.1858,-4.36846,3.53235,20.9041,27.9842,-26.8794,-5.16551,0.334138,-33.0018,1.16349,-23.2589,13.9774,3.94131,-7.5969,-32.0877
6.24594,17.5251,1.10315,-5.4461,-80.0828,16.7618,3.24319,1.3804,-0.552134,3.12836,1.768,1.22901,1.33566,0.839928,1.53259,-13.6009,-2.64787,-12.2114,39.4036,-2.01884,0.630266,16.7587,-3.01937,1.95078,2.06736e-14,3.10104e-14,-27.0975,-6.62366,-70.7995,46.4423,26.7334,-39.1224,-9.10547,7.12502,-12.1217,-38.7343,2.06736e-14,3.10104e-14,-33.9066,6.18801,86.0454,30.2644,-7.20581,-12.5352,23.7486,7.12502,13.5412,53.2883,-4.52564,3.5217,20.4667,28.9115,-26.9418,-4.60051,1.91512,-33.0426,1.2667,-23.7768,14.4389,3.961,-7.7078,-30.614
6.15585,17.527,1.14146,-5.8811,-79.7541,17.3931,3.01003,0.770234,-1.18905,3.16935,0.937213,1.72411,1.51686,0.40463,2.42052,-13.7852,-2.19686,-13.2544,39.3971,-0.943307,0.511093,16.7411,-2.76151,2.26448,1.98785e-15,1.59028e-14,-26.6473,-4.93489,-70.4793,46.2311,27.3296,-38.8256,-8.87843,7.12502,-11.8355,-38.524,1.98785e-15,1.59028e-14,-34.1197,8.24315,86.0961,30.0491,-7.34392,-12.7212,23.9419,7.12502,13.362,53.4935,-4.87261,3.38776,20.2017,29.9868,-26.9203,-4.32341,1.53432,-33.1597,1.56451,-24.3066,14.8465,3.86688,-8.56746,-29.2034
6.06663,17.5291,1.18315,-6.14097,-79.5985,17.743,2.92026,0.567003,-1.39491,3.20557,0.66064,1.86406,1.61524,0.258807,2.68661,-13.6781,-2.05563,-13.5434,39.3208,-0.613933,0.373729,16.6538,-2.68742,2.30977,1.51076e-14,2.06736e-14,-26.7683,-4.69932,-70.2476,46.1222,28.2306,-38.67,-9.48381,7.12502,-11.6854,-39.1379,1.51076e-14,2.06736e-14,-34.139,9.04951,86.0156,29.7204,-7.53353,-12.8669,24.1301,7.12502,13.2215,53.6909,-5.22664,3.31849,20.0326,31.1831,-26.6636,-4.46425,-1.02519,-33.1359,1.86258,-24.7114,15.2304,3.50031,-9.79394,-28.5914
5.97874,17.5359,1.2261,-7.00323,-79.5535,18.6621,2.91147,0.792878,-1.36037,3.23275,0.966758,1.59141,1.6353,0.416022,2.38174,-13.3584,-2.22519,-13.0686,39.35,-1.07753,0.358769,16.6174,-2.80749,2.14278,1.59028e-15,1.59028e-15,-27.493,-5.80482,-70.1131,46.0764,29.0206,-39.1566,-10.7776,7.12502,-12.1546,-40.4045,1.59028e-15,1.59028e-15,-33.9197,8.53899,85.7555,29.2858,-7.91812,-12.7541,24.2784,7.12502,13.3302,53.832,-5.60168,3.40234,19.7455,32.4382,-26.2119,-4.60816,-3.1069,-33.0664,1.82301,-24.9961,15.7094,3.03568,-10.5137,-28.244
5.88957,17.5458,1.27074,-7.60867,-79.4711,19.2953,2.89732,1.40972,-0.940339,3.31601,1.80429,0.890976,1.71993,0.850871,1.41472,-12.9975,-2.79464,-11.7741,39.4806,-2.47493,0.556295,16.6711,-3.15621,1.76753,-3.33958e-14,2.06736e-14,-28.707,-8.31035,-70.0285,46.0664,29.4897,-39.9074,-12.1746,7.12502,-12.8785,-41.7573,-3.33958e-14,2.06736e-14,-33.3175,6.42271,85.3449,28.8361,-8.2227,-12.3316,24.3428,7.12502,13.7374,53.8693,-5.99475,3.37312,19.4749,33.7729,-25.6236,-4.45135,-3.01851,-32.941,1.69736,-25.2119,16.1493,2.66881,-10.7716,-27.6435
5.80051,17.5587,1.31876,-7.81655,-79.4136,19.5126,2.83454,1.28303,-1.07064,3.36423,1.63147,1.00802,1.80336,0.758934,1.61265,-12.8106,-2.68246,-12.1134,39.5117,-2.28958,0.658849,16.6381,-3.12375,1.90611,1.47101e-14,-1.03368e-14,-28.8596,-8.0971,-69.7702,45.82,29.7926,-40.1594,-12.8749,7.12502,-13.1214,-42.4421,1.47101e-14,-1.03368e-14,-33.3633,7.16598,85.1918,28.6928,-8.60944,-12.0126,24.4083,7.12502,14.0448,53.9137,-6.45954,3.16562,19.2298,35.2317,-24.8685,-4.15501,-2.74964,-32.7359,1.7432,-25.4262,16.4642,2.38355,-10.8297,-26.6986
5.71198,17.5766,1.36445,-8.39257,-79.4231,20.0373,2.81914,1.24161,-1.23188,3.45687,1.57133,1.05239,1.9043,0.722422,1.75112,-12.6435,-2.59816,-12.204,39.5288,-2.17746,0.666516,16.5986,-3.09436,1.94632,3.85642e-14,1.59028e-15,-28.9978,-8.37377,-69.646,45.525,30.4996,-40.1018,-13.1484,7.12502,-13.0659,-42.7192,3.85642e-14,1.59028e-15,-33.3552,7.38903,85.1331,28.6416,-8.67565,-11.8894,24.626,7.12502,14.1636,54.1231,-6.94736,3.15147,18.9578,36.8039,-24.022,-4.16047,-4.35084,-32.4618,1.78897,-25.64,16.7637,2.21302,-10.8484,-25.3812
5.62348,17.5977,1.40741,-9.24848,-79.4833,20.8659,2.79209,1.29218,-1.35147,3.54109,1.63666,0.992631,2.00224,0.750971,1.75785,-12.5386,-2.60888,-12.1643,39.6588,-2.24279,0.672038,16.6466,-3.12365,1.93072,3.89618e-14,1.90833e-14,-29.2121,-8.62057,-69.5336,45.1767,31.1995,-40.0204,-13.2737,7.12502,-12.9875,-42.8494,3.89618e-14,1.90833e-14,-33.2998,7.24702,85.0441,28.6345,-8.71994,-11.7791,24.8531,7.12502,14.2699,54.3428,-7.56274,3.30591,18.653,38.5144,-23.0159,-4.28447,-5.63997,-32.2166,1.99805,-25.9634,17.0033,2.06415,-11.1818,-24.0324
5.53637,17.6159,1.45201,-10.0053,-79.5799,21.6374,2.73748,1.33099,-1.45281,3.60246,1.68707,0.968218,2.09208,0.772324,1.79126,-12.5011,-2.59441,-12.1508,39.8399,-2.22362,0.599829,16.7334,-3.13605,1.89822,-2.82274e-14,-8.74653e-15,-29.4074,-8.60349,-69.377,44.7825,31.9412,-39.9888,-13.6355,7.12502,-12.957,-43.2132,-2.82274e-14,-8.74653e-15,-33.2748,7.3415,84.9693,28.6528,-8.97801,-11.5714,24.9781,7.12502,14.47,54.4536,-8.34392,3.45102,18.3461,40.374,-21.7089,-4.31012,-5.12798,-31.943,2.2245,-26.271,17.1045,1.94437,-11.5195,-22.592
5.45157,17.6325,1.49895,-10.7541,-79.7348,22.3616,2.76802,1.32705,-1.55756,3.64215,1.67862,0.991968,2.1128,0.764228,1.87431,-12.4401,-2.50033,-12.1522,39.9649,-2.06238,0.479014,16.7722,-3.09754,1.87157,2.8625e-14,-7.95139e-16,-29.5467,-8.50624,-69.214,44.3779,32.7266,-39.9262,-14.3194,7.12502,-12.8966,-43.9009,2.8625e-14,-7.95139e-16,-33.3277,7.43574,84.9098,28.761,-9.0467,-11.2164,24.9795,7.12502,14.8121,54.4301,-9.21083,3.55704,18.0366,42.3669,-20.1569,-4.41637,-4.85877,-31.5297,2.19877,-26.4066,17.0824,1.91886,-11.4545,-21.156
5.36549,17.6513,1.54194,-12.5422,-79.8776,24.1074,2.79825,1.32665,-1.84873,3.69324,1.67421,0.93263,2.14283,0.754581,1.97661,-12.4097,-2.40696,-12.1118,40.1147,-1.92532,0.395322,16.8327,-3.05932,1.84948,2.34566e-14,3.18055e-15,-29.5868,-8.32773,-69.1331,43.8538,33.4733,-39.6975,-14.702,7.12502,-12.6762,-44.2973,2.34566e-14,3.18055e-15,-33.3555,7.16643,84.8516,28.9478,-8.70978,-11.0237,25.1468,7.12502,14.9976,54.5837,-10.1262,3.70098,17.5497,44.4351,-18.6098,-4.81816,-5.6776,-31.0358,1.99018,-26.6378,17.0234,1.84767,-11.0746,-20.1261
5.28066,17.6669,1.58125,-14.3433,-79.9671,25.8857,2.83607,1.35818,-2.07433,3.71752,1.71454,0.805112,2.14249,0.770615,1.97091,-12.2985,-2.34037,-12.0724,40.2374,-1.88147,0.417847,16.8657,-3.04293,1.86038,-5.56597e-15,-8.74653e-15,-29.6979,-8.26112,-69.1315,43.2798,34.1461,-39.6431,-14.8295,7.12502,-12.6237,-44.428,-5.56597e-15,-8.74653e-15,-33.3956,6.87538,84.7117,29.159,-8.57418,-10.6922,25.0249,7.12502,15.317,54.4376,-11.1335,3.92915,17.0912,46.551,-17.1067,-5.55896,-7.02115,-30.583,2.0202,-27.0279,16.9011,1.66774,-10.9995,-19.9774
5.19868,17.6757,1.61983,-15.2226,-80.0153,26.7014,2.94606,1.28298,-2.22665,3.71097,1.60874,0.857202,2.07417,0.714078,2.10844,-12.187,-2.20636,-12.2882,40.3419,-1.65574,0.423128,16.8828,-2.99459,1.9389,-2.0276e-14,1.19271e-14,-29.7152,-7.81624,-68.9757,42.7275,34.5524,-39.6278,-14.8019,7.12502,-12.609,-44.4014,-2.0276e-14,1.19271e-14,-33.5491,7.04696,84.6251,29.3701,-8.69404,-10.4273,24.5824,7.12502,15.5721,53.9755,-12.1521,4.23634,16.8336,48.6741,-15.5608,-6.28244,-5.9976,-30.0932,2.18063,-27.3165,16.7185,1.53678,-11.1502,-19.9763
5.11704,17.6827,1.65606,-16.2521,-79.9939,27.7105,2.98416,1.0573,-2.60098,3.70531,1.29867,1.06671,2.05193,0.547475,2.53767,-12.1475,-1.96791,-12.7716,40.3729,-1.13238,0.312719,16.8614,-2.87877,2.06166,2.18663e-14,-1.51076e-14,-29.4939,-7.05154,-68.5991,42.1811,35.246,-39.2801,-14.1896,7.12502,-12.2737,-43.8095,2.18663e-14,-1.51076e-14,-33.812,7.51724,84.7101,29.7006,-8.61071,-10.5668,24.3689,7.12502,15.4378,53.7724,-13.2586,4.40287,16.4866,50.7854,-14.0356,-6.76008,-3.33684,-29.6328,2.29639,-27.632,16.5331,1.44392,-11.3449,-19.4398
5.0366,17.687,1.68873,-17.4181,-79.9113,28.8661,2.97338,0.866286,-2.95281,3.74155,1.03837,1.12005,2.10623,0.406387,2.79466,-12.1486,-1.78942,-12.9542,40.3495,-0.773001,0.203234,16.8235,-2.77774,2.10458,-8.74653e-15,-1.19271e-14,-29.2916,-6.71798,-68.3857,41.6903,36.2346,-38.9915,-13.5903,7.12502,-11.9955,-43.2266,-8.74653e-15,-1.19271e-14,-34.0161,7.99229,84.5638,30.105,-8.80261,-10.6063,24.3283,7.12502,15.3997,53.7347,-14.3773,4.32052,16.0679,52.8486,-12.6341,-6.89433,-2.5498,-29.2166,2.46127,-28.0182,16.3993,1.22599,-11.6735,-18.9636
4.95729,17.6959,1.71956,-18.6475,-79.7862,30.0512,3.00515,0.763436,-3.23012,3.80193,0.897516,1.00907,2.15931,0.328316,2.8381,-12.194,-1.69634,-12.7659,40.3769,-0.661738,0.146257,16.8337,-2.71509,2.06489,1.39149e-14,-2.22639e-14,-29.2628,-6.79463,-68.4306,41.2743,37.0274,-38.9959,-13.2875,7.12502,-11.9997,-42.9235,1.39149e-14,-2.22639e-14,-34.1132,7.88877,84.2815,30.5758,-8.7107,-10.4679,24.209,7.12502,15.533,53.6051,-15.4387,4.25371,15.6705,54.8183,-11.368,-6.81872,-4.13118,-28.7387,2.70548,-28.4313,16.1963,1.15437,-12.0966,-17.9841
4.87989,17.7068,1.74821,-19.1353,-79.6024,30.5291,3.04638,0.685257,-3.43883,3.80074,0.78971,0.97323,2.14151,0.270125,2.91942,-12.154,-1.67009,-12.7719,40.437,-0.679554,0.254946,16.8557,-2.71432,2.11176,1.98785e-14,-7.15625e-15,-29.3611,-6.79301,-68.3998,40.9326,37.4837,-38.9607,-13.4028,7.12502,-11.9658,-43.0408,1.98785e-14,-7.15625e-15,-34.2334,7.32805,84.2324,31.0715,-8.3187,-10.5123,24.316,7.12502,15.4903,53.7154,-16.4811,4.25572,15.4237,56.641,-10.8708,-6.8693,-5.68022,-28.2595,3.02152,-28.7898,15.8503,1.15587,-12.7037,-17.0451
4.80294,17.7244,1.7754,-19.521,-79.4454,30.8349,3.18055,0.614046,-3.63691,3.79661,0.686225,0.992425,2.0685,0.214532,3.05077,-12.0867,-1.66174,-12.8836,40.4986,-0.678577,0.30552,16.8751,-2.73071,2.15355,2.66371e-14,3.18055e-15,-29.5036,-6.73343,-68.2846,40.7161,38.0084,-38.733,-13.5629,7.12502,-11.7462,-43.2135,2.66371e-14,3.18055e-15,-34.3418,6.83875,84.2691,31.4969,-8.07087,-10.741,24.3002,7.12502,15.27,53.7166,-17.4782,4.07439,15.217,58.458,-10.95,-7.10765,-7.29709,-28.0039,3.13817,-28.9916,16.1638,0.804818,-13.0043,-15.8514
4.7249,17.7549,1.80646,-19.7734,-79.3744,30.956,3.32828,0.287524,-3.81773,3.8399,0.237548,1.21149,2.06658,-0.0191726,3.38542,-12.2472,-1.41236,-13.5292,40.5305,-0.0853706,0.288282,16.898,-2.59918,2.35609,-2.38542e-14,3.97569e-15,-29.2088,-5.7696,-68.2241,40.5095,38.5329,-38.7923,-13.6857,7.12502,-11.8034,-43.3331,-2.38542e-14,3.97569e-15,-34.5528,7.52803,84.2279,32.0113,-7.86775,-10.7522,24.1649,7.12502,15.2592,53.5821,-18.4468,3.58126,15.0173,60.1472,-10.797,-6.4508,-7.35343,-27.6906,3.06042,-29.0238,16.5533,0.43568,-13.0776,-14.5871
4.6567,17.7015,1.83666,-19.8282,-79.3106,30.8571,3.48141,-0.23007,-4.05353,3.90301,-0.471577,1.61267,2.11672,-0.389899,3.94565,-12.5148,-0.988086,-14.5752,40.4781,0.925522,0.247686,16.8659,-2.35907,2.68561,-2.06736e-14,-1.82882e-14,-28.6254,-3.9416,-68.1738,40.3315,38.9203,-38.9418,-13.9622,7.12502,-11.9475,-43.6013,-2.06736e-14,-1.82882e-14,-34.8445,8.95364,84.2163,32.6166,-7.49272,-10.7689,24.1476,7.12502,15.2431,53.566,-19.4496,4.82094,15.2062,61.9921,-11.4044,-5.30012,-1.38355,-27.4545,2.97332,-29.0794,16.8796,0.110859,-13.1218,-14.6809
4.58549,17.6984,1.8646,-19.7764,-79.1948,30.6597,3.62189,-0.249772,-4.05511,3.95491,-0.504149,1.5671,2.09449,-0.406908,3.90058,-12.4617,-1.02721,-14.412,40.478,0.810429,0.229645,16.8604,-2.38336,2.63002,-8.34896e-15,3.97569e-15,-28.8104,-3.74977,-68.2069,40.2889,39.2642,-38.7119,-13.7644,7.12502,-11.7259,-43.4162,-8.34896e-15,3.97569e-15,-34.7801,8.3527,84.1555,33.0413,-7.00602,-10.9574,24.0673,7.12502,15.0615,53.4994,-20.4772,4.5816,15.1462,63.6631,-11.4535,-5.30364,-1.65922,-27.3092,2.90999,-29.1493,17.5065,-0.515365,-13.1325,-15.1426
4.51747,17.7216,1.88022,-19.2533,-78.9267,30.1768,3.66501,0.109971,-3.84335,3.93328,-0.013925,1.10355,1.99647,-0.145885,3.29215,-12.1068,-1.42896,-13.191,40.4823,-0.229425,0.249507,16.8391,-2.6091,2.25584,6.36111e-15,1.59028e-15,-29.5986,-5.21407,-68.3896,40.2767,39.732,-38.7106,-13.8908,7.12502,-11.7246,-43.5427,6.36111e-15,1.59028e-15,-34.3632,5.80468,83.9906,33.331,-6.47291,-11.2613,24.1269,7.12502,14.7687,53.5807,-21.6532,4.1837,15.1283,65.1564,-11.3014,-3.57494,0.686026,-27.3326,3.07172,-29.2793,18.0289,-0.951357,-13.5757,-14.2323
4.4444,17.6982,1.90218,-19.4577,-78.7001,30.3586,3.62228,0.229192,-3.78466,3.9886,0.15071,0.872799,2.0632,-0.0613706,3.01745,-11.9213,-1.60105,-12.7872,40.4484,-0.670045,0.329918,16.7998,-2.71004,2.14932,2.18663e-14,-9.54166e-15,-29.9336,-5.86005,-68.4681,40.2101,40.1718,-38.9912,-14.4003,7.12502,-11.9952,-44.0366,2.18663e-14,-9.54166e-15,-34.0085,4.37242,83.9302,33.6045,-6.18185,-11.6153,24.3353,7.12502,14.4277,53.8138,-22.758,4.64619,15.0704,66.6069,-11.5263,-2.99611,1.30177,-27.038,2.94516,-29.4512,18.0159,-1.14852,-13.7626,-14.1099
4.37071,17.7242,1.92851,-19.6312,-78.5017,30.4628,3.64092,0.110582,-3.86944,4.04091,-0.0104188,0.868654,2.12049,-0.146736,3.06376,-11.8656,-1.54278,-12.8057,40.4219,-0.568506,0.273045,16.7632,-2.67893,2.144,-8.74653e-15,1.59028e-14,-29.8957,-5.83815,-68.525,40.1317,40.7443,-39.0734,-14.1589,7.12502,-12.0745,-43.7905,-8.74653e-15,1.59028e-14,-33.7458,4.19172,83.8027,33.791,-5.99392,-12.2666,24.3817,7.12502,13.8001,53.9039,-23.7513,4.33559,14.9044,67.7763,-11.1217,-2.14896,-0.808495,-26.6159,2.62701,-29.5412,17.9958,-1.41479,-13.597,-13.7185
4.30148,17.7335,1.94992,-19.0348,-78.3261,29.7595,3.76976,0.0206091,-3.83996,4.05934,-0.135921,0.879686,2.0776,-0.20884,3.06102,-11.825,-1.53315,-12.6166,40.4616,-0.575023,0.143816,16.7719,-2.67464,2.05138,9.14409e-15,2.38542e-15,-29.9887,-5.90317,-68.5951,40.1194,41.4068,-39.1269,-13.7999,7.12502,-12.126,-43.4285,9.14409e-15,2.38542e-15,-33.5493,4.01379,83.5796,34.0805,-5.87791,-12.6249,24.3403,7.12502,13.4548,53.8857,-24.7873,3.7577,14.9323,68.9416,-10.8796,-1.54543,-3.77659,-26.3218,2.26884,-29.4111,18.2117,-1.66202,-13.3866,-12.4945
4.23076,17.7345,1.96721,-17.9495,-78.1105,28.6057,3.8464,-0.0352724,-3.73927,4.04527,-0.211844,0.923967,2.02573,-0.243574,3.05184,-11.7102,-1.56773,-12.5288,40.5327,-0.691143,0.158197,16.789,-2.7127,2.02285,1.23246e-14,-7.15625e-15,-30.2169,-5.78596,-68.5582,40.1387,41.8847,-39.2148,-13.6701,7.12502,-12.2108,-43.2937,1.23246e-14,-7.15625e-15,-33.3732,3.79495,83.3727,34.4042,-5.92216,-12.4279,24.3073,7.12502,13.6446,53.8401,-25.8338,3.34069,15.0961,69.9892,-10.8251,-1.2876,-5.54299,-26.0039,2.04168,-29.2034,18.2439,-1.43861,-13.4125,-10.024
4.16194,17.7377,1.98432,-17.6074,-77.9367,28.2227,3.93432,-0.155397,-3.79462,4.04464,-0.378052,1.00953,1.99096,-0.328866,3.17525,-11.76,-1.54025,-12.7174,40.6015,-0.595414,0.160593,16.8374,-2.70871,2.0716,7.95139e-15,-3.18055e-15,-30.2748,-5.44542,-68.5405,40.1085,42.7581,-39.7464,-14.3132,7.12502,-12.7233,-43.9056,7.95139e-15,-3.18055e-15,-33.1794,4.05205,83.1378,34.7099,-6.11856,-12.2862,24.1561,7.12502,13.7812,53.6796,-26.9625,3.05844,15.1314,70.9713,-10.4497,-0.783217,-6.50469,-25.8144,1.67527,-29.036,18.5496,-0.890503,-12.9597,-4.67496
4.09575,17.7378,1.9987,-17.7209,-77.736,28.251,4.09258,-0.355471,-4.06863,4.0835,-0.660955,1.16463,1.97373,-0.480885,3.49724,-11.9358,-1.44634,-13.0548,40.6015,-0.307621,0.120132,16.8678,-2.65068,2.15907,9.54166e-15,-6.04305e-14,-30.1389,-5.13762,-68.5164,40.0006,44.2852,-40.4107,-15.1491,7.12502,-13.3637,-44.7006,9.54166e-15,-6.04305e-14,-32.9461,4.85562,82.877,34.9914,-6.48128,-12.2473,24.0939,7.12502,13.8187,53.6149,-28.0044,2.8063,15.1507,71.8483,-10.1566,-0.282304,-8.48154,-25.6331,1.35745,-29.0235,18.9447,-0.826061,-12.667,-1.07076
4.02993,17.7356,2.01315,-17.678,-77.5144,28.151,4.19713,-0.502208,-4.25026,4.10233,-0.867527,1.26726,1.9597,-0.590967,3.71164,-11.9586,-1.37782,-13.3149,40.5944,-0.143622,0.162994,16.8613,-2.61906,2.25068,-3.1408e-14,7.95139e-15,-30.086,-4.92873,-68.4475,39.9035,45.309,-40.6543,-14.7569,7.12502,-13.5984,-44.2928,-3.1408e-14,7.95139e-15,-32.7782,5.38924,82.6493,35.4154,-6.64079,-12.064,24.2363,7.12502,13.9954,53.7452,-29.0472,2.72896,15.2444,72.6362,-10.2564,-0.0398196,-11.1779,-25.4878,1.20237,-29.0967,19.2875,-1.14807,-12.8507,-0.182069
3.96331,17.7294,2.03092,-17.0902,-77.2996,27.4098,4.31444,-0.643013,-4.13233,4.17192,-1.0585,1.24967,1.98144,-0.686264,3.63214,-11.9404,-1.34127,-13.1484,40.5905,-0.0982145,0.0414515,16.848,-2.59282,2.17425,9.93923e-15,1.51076e-14,-30.0321,-4.51804,-68.6271,39.8482,45.4162,-40.7853,-14.1167,7.12502,-13.7247,-43.6441,9.93923e-15,1.51076e-14,-32.6013,5.58393,82.2704,35.9304,-6.60385,-13.2263,24.1611,7.12502,12.8751,53.744,-29.9973,2.47058,15.4005,73.3463,-10.3819,0.784924,-11.4377,-25.2273,0.979232,-29.0559,19.5751,-1.88509,-13.1268,-3.0161
3.90397,17.7206,2.03989,-16.4373,-76.9074,26.5215,4.68636,-0.853266,-4.19259,4.21325,-1.35812,1.24617,1.84673,-0.836812,3.6761,-11.9946,-1.29075,-12.8145,40.6285,-0.0373735,-0.16331,16.8721,-2.54999,2.0333,1.78906e-14,-2.38542e-15,-29.9928,-3.96803,-68.934,39.8435,45.4428,-40.8759,-14.1578,7.12502,-13.8121,-43.6793,1.78906e-14,-2.38542e-15,-32.5127,5.80028,81.8545,36.5547,-6.45352,-14.9635,24.06,7.12502,11.1999,53.7411,-30.881,1.91262,15.511,74.0471,-10.4294,2.10334,-10.8528,-24.9264,1.17384,-29.2107,19.8522,-3.15211,-14.0617,-9.13825
3.83639,17.7143,2.05725,-16.4879,-76.7028,26.3385,4.97241,-0.94663,-4.276,4.2357,-1.49889,1.23169,1.72624,-0.907778,3.718,-12.0199,-1.23243,-12.7379,40.7233,0.00235518,-0.107162,16.9231,-2.52326,2.05141,-1.19271e-14,1.59028e-14,-30.1113,-3.81969,-68.9966,39.7902,46.0376,-41.4594,-13.832,7.12502,-14.3744,-43.3143,-1.19271e-14,1.59028e-14,-32.4598,5.89352,81.5822,37.1674,-6.15693,-14.9055,24.1457,7.12502,11.2559,53.8237,-31.8029,1.41525,15.5106,74.6873,-10.3753,3.07373,-13.5452,-24.5518,1.12887,-29.3118,20.1485,-3.91489,-14.2605,-10.213
3.77895,17.7112,2.06492,-16.6662,-76.4874,26.5295,5.13338,-1.00665,-4.49756,4.19392,-1.59373,1.25836,1.61093,-0.957221,3.87792,-12.0474,-1.18794,-12.8825,40.7772,0.0657491,0.019004,16.9548,-2.50685,2.14426,2.14687e-14,-5.56597e-15,-30.1521,-3.63726,-68.9456,39.6861,46.617,-42.2133,-13.5822,7.12502,-15.1006,-43.0114,2.14687e-14,-5.56597e-15,-32.3555,5.94424,81.4419,37.7724,-5.86404,-13.8805,24.5315,7.12502,12.2443,54.1531,-33.0575,0.91838,15.4878,75.2731,-10.2661,3.73015,-15.7918,-24.4652,0.894679,-29.3214,20.4625,-3.59283,-14.1875,-5.57255
3.71751,17.7095,2.07584,-16.9289,-76.3269,26.8068,5.15426,-1.03545,-4.61855,4.23354,-1.63789,1.24749,1.64882,-0.984331,3.93616,-12.0725,-1.28528,-13.0202,40.7651,-0.0571707,0.0728489,16.9691,-2.56885,2.17158,4.01545e-14,-3.18055e-15,-30.0963,-3.17501,-69.0915,39.7327,46.8222,-42.0325,-14.3951,7.12502,-14.9265,-43.8373,4.01545e-14,-3.18055e-15,-32.1358,6.09567,81.3393,38.3127,-5.89728,-12.9904,24.9533,7.12502,13.1024,54.5217,-34.2516,0.477879,15.4406,75.7396,-10.1537,4.55615,-16.0988,-24.3999,0.439541,-29.2885,20.8532,-3.60401,-14.0168,-4.52764
3.6543,17.6993,2.08737,-17.3146,-76.1712,27.0955,5.31655,-1.20576,-4.9435,4.27208,-1.88747,1.39765,1.64321,-1.12136,4.28713,-12.1006,-1.30616,-13.3256,40.6583,0.055187,-0.0640107,16.9205,-2.58363,2.18009,1.39149e-14,2.38542e-14,-29.8518,-2.09481,-69.2244,39.7979,47.0281,-41.8435,-15.1503,7.12502,-14.7444,-44.6059,1.39149e-14,2.38542e-14,-32.0751,6.93563,81.2476,38.8995,-5.97935,-11.7092,25.2344,7.12502,14.3372,54.7193,-35.2925,0.0859939,15.3987,76.1212,-10.1319,5.2947,-16.2642,-24.2949,0.179183,-29.4006,21.3746,-4.64476,-14.0999,-9.14526
3.59716,17.6865,2.08917,-16.6619,-76.0298,26.7073,5.22044,-1.40873,-5.22344,4.16892,-2.16329,1.61444,1.64282,-1.26585,4.67817,-12.1143,-1.20752,-13.477,40.4769,0.344227,-0.293933,16.8087,-2.50931,2.15075,1.15295e-14,-2.22639e-14,-29.6216,-0.939487,-69.3373,39.8043,47.0536,-42.2589,-15.4815,7.12502,-15.1446,-44.9074,1.15295e-14,-2.22639e-14,-32.098,7.44155,81.1478,39.634,-5.46088,-11.5955,25.3284,7.12502,14.4467,54.8055,-36.7685,-0.260677,15.6212,76.4202,-10.0418,5.56411,-17.1423,-24.6768,0.35509,-29.4047,21.9593,-5.04364,-14.3269,-7.8565
3.53802,17.6749,2.09255,-15.8955,-76.0107,26.2123,5.00533,-1.2158,-5.03554,4.10609,-1.8841,1.43341,1.649,-1.11552,4.36994,-11.9436,-1.38204,-12.9194,40.3955,-0.107692,-0.277653,16.7439,-2.59437,1.98854,2.38542e-15,6.36111e-15,-29.8694,-1.34215,-69.5827,39.7618,47.2745,-42.611,-15.6416,7.12502,-15.4837,-45.0415,2.38542e-15,6.36111e-15,-31.8117,6.34967,80.9456,40.3671,-4.61387,-13.5619,25.3374,7.12502,12.5515,54.9404,-38.2673,-0.4203,15.9142,76.6214,-10.0854,5.58404,-18.2857,-25.0463,0.50201,-29.2689,22.5062,-4.11745,-13.833,3.48973
3.47898,17.6629,2.09787,-15.6635,-75.9588,26.0615,4.98104,-0.933214,-4.8648,4.10803,-1.49751,1.16707,1.60632,-0.912358,3.98491,-11.7297,-1.65475,-12.314,40.3718,-0.771151,-0.157291,16.7119,-2.74824,1.82915,-5.1684e-15,1.27222e-14,-30.1911,-2.14296,-69.7702,39.7221,47.7569,-42.7121,-15.3976,7.12502,-15.5811,-44.79,-5.1684e-15,1.27222e-14,-31.4257,5.15322,80.7547,41.0376,-4.03665,-15.1034,25.5,7.12502,11.065,55.1884,-39.5214,-0.454994,16.0331,76.7318,-10.173,5.79616,-17.0105,-25.1826,0.780121,-29.3255,22.9961,-5.85765,-14.8887,-6.83226
3.41853,17.6553,2.10183,-16.151,-75.8832,26.4903,5.14141,-0.855972,-5.08951,4.13191,-1.41135,1.09742,1.53768,-0.872799,4.04004,-11.6425,-1.71472,-12.0654,40.3143,-0.923496,-0.21088,16.6636,-2.77446,1.73784,7.95139e-15,-7.95139e-15,-30.2247,-1.93232,-69.8869,39.7421,48.0493,-42.6425,-15.2274,7.12502,-15.514,-44.625,7.95139e-15,-7.95139e-15,-31.281,4.88184,80.6495,41.7946,-3.51092,-15.5125,25.6695,7.12502,10.6704,55.3786,-40.5659,-0.381657,15.9729,76.7184,-10.2826,6.16866,-15.5403,-25.0995,0.683379,-29.415,23.4483,-6.73935,-14.9495,-9.7262
3.36185,17.6502,2.10047,-16.4108,-75.7245,26.8148,5.24005,-0.850481,-5.40651,4.14077,-1.42168,1.11177,1.50379,-0.88509,4.2363,-11.6681,-1.74827,-12.0454,40.2212,-0.955392,-0.232994,16.6219,-2.77902,1.72033,-1.19271e-14,-1.03368e-14,-30.1179,-1.46007,-69.9608,39.8213,48.1162,-42.5897,-15.4145,7.12502,-15.4632,-44.8161,-1.19271e-14,-1.03368e-14,-31.1496,4.77149,80.6159,42.6496,-2.94014,-15.4785,25.6703,7.12502,10.7032,55.3777,-41.744,-0.353635,16.0352,76.5575,-10.5726,6.22759,-18.6272,-25.1134,0.357547,-29.4139,23.8477,-6.91648,-14.7884,-8.14777
3.30245,17.6412,2.10551,-16.0944,-75.5378,26.4695,5.41154,-1.10283,-5.60286,4.17307,-1.77786,1.34294,1.49885,-1.07308,4.6036,-11.9167,-1.57793,-12.7282,40.1938,-0.510445,-0.0801736,16.6516,-2.67977,1.98034,2.90226e-14,-7.15625e-15,-29.6506,-0.39923,-70.0037,39.8257,48.1548,-42.6747,-15.5659,7.12502,-15.5451,-44.9611,2.90226e-14,-7.15625e-15,-31.198,5.5571,80.6297,43.5272,-2.35486,-15.7343,25.4764,7.12502,10.4565,55.1963,-42.7661,-0.727662,16.2691,76.1097,-10.285,6.76467,-19.8899,-25.0103,0.0785434,-29.2864,24.1814,-6.99441,-14.7139,-5.6589
3.24835,17.6345,2.10146,-15.2822,-75.277,25.8096,5.52462,-1.66261,-5.92764,4.07858,-2.5462,1.78906,1.47196,-1.46875,5.28343,-12.3061,-1.16198,-13.8515,40.2403,0.478808,-0.000334778,16.7153,-2.44808,2.3728,4.25399e-14,8.74653e-15,-28.9373,1.48153,-70.048,39.7932,48.2256,-42.6977,-15.4453,7.12502,-15.5672,-44.8388,4.25399e-14,8.74653e-15,-31.5735,7.23552,80.5992,44.4577,-1.82019,-16.1887,25.3137,7.12502,10.0181,55.0552,-43.6477,-0.575491,15.9266,75.6106,-8.56316,9.05453,-1.98636,-25.1661,-0.217816,-29.0865,24.5182,-7.07098,-14.7898,-4.11213
3.18963,17.6384,2.09905,-14.3159,-75.0878,24.9216,5.6255,-1.95701,-6.01716,4.03969,-2.9508,2.0715,1.45286,-1.67681,5.64747,-12.4753,-0.966107,-14.3164,40.1578,0.986419,-0.104666,16.6798,-2.32306,2.48947,2.34566e-14,-2.62396e-14,-28.4903,2.68193,-70.0884,39.7433,48.1762,-42.6902,-15.3436,7.12502,-15.56,-44.7376,2.34566e-14,-2.62396e-14,-31.7127,8.0889,80.5866,45.3562,-1.46007,-16.3677,25.3319,7.12502,9.84546,55.0817,-44.6136,-0.640995,15.9566,74.9265,-7.59166,9.36067,4.17469,-25.251,-0.378959,-28.8413,24.8974,-7.38644,-14.8971,-3.96276
3.13225,17.6337,2.0973,-13.9057,-74.8755,24.5447,5.65922,-1.72609,-5.87458,4.10964,-2.63745,1.86098,1.44283,-1.51495,5.33623,-12.2753,-1.21721,-13.6564,40.0178,0.433764,-0.211118,16.5928,-2.44378,2.23862,5.40694e-14,-3.89618e-14,-28.597,2.00491,-70.2329,39.685,48.0651,-42.7166,-15.431,7.12502,-15.5854,-44.8231,5.40694e-14,-3.89618e-14,-31.2763,7.16314,80.5156,46.0682,-1.16995,-16.2979,25.186,7.12502,9.91278,54.9326,-45.5917,-1.10663,16.155,74.2092,-7.69447,8.89463,0.746152,-25.3114,-0.426034,-28.7729,25.3385,-7.63713,-15.1038,-3.66096
3.07589,17.6235,2.0933,-13.2222,-74.5854,23.8614,5.73761,-1.18315,-5.41526,4.18908,-1.89582,1.36248,1.34148,-1.12427,4.5313,-11.881,-1.75146,-12.5215,40.0139,-0.845794,0.0272341,16.5658,-2.74847,1.94035,3.29983e-14,-3.18055e-15,-29.2056,-0.00494981,-70.3961,39.6577,48.1017,-42.7332,-15.0968,7.12502,-15.6014,-44.4876,3.29983e-14,-3.18055e-15,-30.5622,4.78668,80.4115,46.722,-0.721236,-16.3637,25.0667,7.12502,9.84926,54.8164,-46.4532,-1.70395,16.6314,73.338,-8.15883,8.56663,-3.51334,-25.3503,-0.546721,-28.6292,25.7701,-7.89086,-15.3368,-3.58096
3.0184,17.6093,2.08818,-12.7329,-74.2903,23.403,5.85881,-0.897694,-5.34458,4.23054,-1.51906,1.18688,1.26407,-0.930671,4.29651,-11.717,-2.00941,-12.0996,40.0564,-1.46885,0.272728,16.5834,-2.90123,1.87502,1.55052e-14,1.59028e-15,-29.4632,-0.93706,-70.3862,39.6328,48.1953,-42.5866,-14.8953,7.12502,-15.4602,-44.2971,1.55052e-14,1.59028e-15,-30.1001,3.37342,80.4679,47.4436,-0.156377,-16.5488,25.116,7.12502,9.67072,54.874,-47.1911,-2.33667,17.2641,72.2839,-8.31173,8.51984,-7.60285,-25.4912,-0.82372,-28.4644,26.3544,-8.30084,-15.3195,-3.13333
2.95759,17.6054,2.08739,-12.1487,-73.9924,22.9087,5.90323,-0.978552,-5.52498,4.25242,-1.63789,1.32456,1.28713,-0.997749,4.54754,-11.8288,-1.9229,-12.2593,40.121,-1.2904,0.326261,16.6359,-2.84746,1.9564,1.98785e-14,-9.54166e-15,-29.2034,-0.392594,-70.3853,39.5185,48.028,-42.4959,-15.0901,7.12502,-15.3729,-44.4986,1.98785e-14,-9.54166e-15,-29.9251,3.33797,80.5656,48.1765,0.301881,-16.7469,24.9749,7.12502,9.47956,54.7417,-47.9755,-2.87799,17.6272,71.0867,-8.05351,8.57102,-11.5944,-25.7506,-1.3701,-28.2636,27.093,-9.15359,-14.5811,-5.13247
2.89626,17.5772,2.0838,-11.3324,-73.6919,22.138,5.97654,-0.979869,-5.46765,4.27912,-1.64179,1.38962,1.27476,-1.00007,4.58469,-11.8521,-1.93943,-12.3123,40.1699,-1.32113,0.404167,16.6722,-2.8575,1.99588,8.74653e-15,4.77083e-15,-29.0458,-0.276238,-70.3912,39.3363,47.8138,-42.2802,-14.8811,7.12502,-15.1651,-44.3054,8.74653e-15,4.77083e-15,-29.6969,3.04191,80.6576,48.8409,0.559353,-16.9301,24.9548,7.12502,9.30275,54.7296,-48.5523,-3.40242,18.0427,69.723,-8.03212,8.20693,-14.4888,-25.9672,-1.55822,-28.1152,27.8236,-9.15226,-15.3801,-2.9771
2.83533,17.5405,2.07783,-10.3821,-73.3553,21.2801,5.97975,-0.931111,-5.20469,4.29177,-1.56448,1.33059,1.26553,-0.954462,4.37116,-11.7257,-2.0313,-12.2756,40.1619,-1.56837,0.620695,16.6544,-2.91941,2.04699,-4.6118e-14,9.54166e-15,-29.0854,-0.49429,-70.5339,39.1286,47.6989,-42.1604,-15.199,7.12502,-15.0496,-44.632,-4.6118e-14,9.54166e-15,-29.4055,2.25023,80.5914,49.5063,0.98324,-16.9315,25.0087,7.12502,9.30145,54.7835,-49.0592,-4.03907,18.6717,68.2413,-8.26612,7.28212,-19.6692,-26.1102,-1.6869,-27.9383,28.2607,-9.71622,-15.374,-3.58625
2.7776,17.538,2.0665,-9.30871,-72.9646,20.3015,6.0613,-0.965666,-5.08405,4.29681,-1.60934,1.37949,1.22797,-0.974063,4.35783,-11.6706,-2.06475,-12.3331,40.1291,-1.65371,0.753075,16.6314,-2.94006,2.10343,4.41302e-14,-2.78299e-14,-29.0224,-0.508985,-70.5656,38.8572,47.7553,-42.4806,-15.5562,7.12502,-15.3581,-44.9658,4.41302e-14,-2.78299e-14,-29.3246,2.21313,80.725,50.2412,0.804851,-16.7672,24.8712,7.12502,9.45995,54.6388,-49.6324,-4.39594,18.9582,66.6951,-7.71746,6.61841,-18.5835,-26.1441,-1.90514,-27.6453,28.4179,-9.99282,-15.3907,-3.37396
2.72073,17.5732,2.05679,-8.27711,-72.559,19.3356,6.20004,-1.00201,-5.04772,4.28783,-1.6638,1.52647,1.15159,-1.00051,4.4967,-11.7188,-2.0846,-12.4344,40.2533,-1.65503,0.768604,16.7157,-2.95905,2.12767,6.59965e-14,1.03368e-14,-28.9186,-0.602381,-70.3124,38.4988,47.8749,-43.1336,-15.0605,7.12502,-15.987,-44.4208,6.59965e-14,1.03368e-14,-29.1972,2.2287,80.9546,50.8124,0.707869,-16.8715,24.4712,7.12502,9.3593,54.2435,-50.1476,-4.23144,18.6804,65.0603,-6.64477,6.18693,-10.1839,-25.985,-2.10023,-27.3658,28.3021,-10.0792,-15.6401,-3.55661
2.65803,17.6006,2.04992,-7.58073,-72.1441,18.7172,6.24111,-1.02548,-4.98211,4.30676,-1.6939,1.54371,1.15015,-1.01491,4.47973,-11.7147,-2.12186,-12.4126,40.3525,-1.74795,0.84096,16.7765,-2.98754,2.14124,-1.11319e-14,-1.59028e-14,-28.8969,-0.55713,-70.2775,38.2592,47.6188,-43.2681,-14.8037,7.12502,-16.1165,-44.1536,-1.11319e-14,-1.59028e-14,-29.0073,2.05371,81.0563,51.3906,0.736583,-17.0626,24.3036,7.12502,9.17497,54.0841,-50.6254,-4.25123,18.5496,63.3933,-6.02292,5.43845,-10.3888,-25.6444,-2.39247,-27.1938,27.8422,-10.0724,-15.7508,-4.5212
2.59735,17.609,2.03795,-6.6636,-71.7366,17.9561,6.27896,-1.04272,-4.89913,4.2721,-1.71379,1.58098,1.09368,-1.02065,4.47415,-11.6304,-2.17747,-12.4302,40.3693,-1.87445,0.933732,16.7766,-3.02797,2.16592,2.10712e-14,-3.18055e-15,-28.9751,-0.243326,-70.3526,38.121,47.1624,-42.829,-15.2876,7.12502,-15.6937,-44.6711,2.10712e-14,-3.18055e-15,-28.8902,1.74388,81.1641,52.0119,0.743995,-17.0498,24.4041,7.12502,9.18731,54.1839,-51.2618,-4.72978,19.0199,61.6266,-5.43101,4.37989,-20.2107,-25.4176,-2.80636,-26.8871,27.3551,-9.89921,-15.8294,-4.51705
2.53248,17.6283,2.02907,-6.33379,-71.4412,17.5551,6.47549,-0.962718,-4.87738,4.31151,-1.61714,1.62293,1.01515,-0.972038,4.50581,-11.4869,-2.28682,-12.5021,40.3492,-2.04674,0.954959,16.7496,-3.10205,2.16046,5.1684e-15,3.18055e-15,-29.1452,0.0463715,-70.3073,38.0267,46.7562,-42.2179,-16.0961,7.12502,-15.1051,-45.525,5.1684e-15,3.18055e-15,-28.7416,1.41392,81.3898,52.5192,0.721939,-17.034,24.3863,7.12502,9.20251,54.1655,-51.2998,-4.68332,18.7854,59.8902,-4.569,3.68817,-19.0356,-24.9257,-3.33367,-26.6546,26.9715,-9.8331,-15.5946,-4.09936
2.46615,17.6283,2.0178,-5.97739,-71.1106,17.2396,6.55472,-0.898385,-4.95304,4.33929,-1.53985,1.6839,0.99579,-0.936363,4.61017,-11.4064,-2.36701,-12.6333,40.3654,-2.18977,1.08537,16.7573,-3.16035,2.21931,1.15295e-14,8.74653e-15,-29.2647,0.234758,-70.2205,37.8826,46.5639,-41.6292,-16.8705,7.12502,-14.538,-46.341,1.15295e-14,8.74653e-15,-28.5513,1.05564,81.6034,53.0012,0.823838,-17.0833,24.3319,7.12502,9.15493,54.1132,-51.3238,-4.66636,18.5996,58.0694,-3.63425,2.84604,-14.3782,-24.6888,-3.53097,-26.5276,26.7886,-9.8734,-15.6921,-3.45376
2.39855,17.6398,2.00436,-4.88454,-70.7113,16.3122,6.42256,-0.883928,-4.80611,4.38399,-1.50697,1.76553,1.10938,-0.922214,4.60655,-11.4476,-2.4463,-12.717,40.4182,-2.33177,1.2424,16.8143,-3.20811,2.28142,-2.06736e-14,-1.59028e-14,-29.3296,0.33289,-70.1711,37.6415,46.5414,-41.0299,-16.9899,7.12502,-13.9604,-46.5011,-2.06736e-14,-1.59028e-14,-28.2618,0.525933,81.734,53.4773,1.05964,-17.2075,24.3202,7.12502,9.03515,54.1067,-51.6523,-4.60943,18.5375,56.1814,-2.47947,1.80488,-10.1772,-24.6501,-3.84658,-26.1489,26.6344,-9.86903,-15.8861,-2.80482
