JuanDHNZ/ProyectoFinalCD/preprocessing/sports_trials_csv/14_27.csv
root1,root2,root3,root4,root5,root6,lowerback1,lowerback2,lowerback3,upperback1,upperback2,upperback3,thorax1,thorax2,thorax3,lowerneck1,lowerneck2,lowerneck3,upperneck1,upperneck2,upperneck3,head1,head2,head3,rclavicle1,rclavicle2,rhumerus1,rhumerus2,rhumerus3,rradius1,rwrist1,rhand1,rhand2,rfingers1,rthumb1,rthumb2,lclavicle1,lclavicle2,lhumerus1,lhumerus2,lhumerus3,lradius1,lwrist1,lhand1,lhand2,lfingers1,lthumb1,lthumb2,rfemur1,rfemur2,rfemur3,rtibia1,rfoot1,rfoot2,rtoes1,lfemur1,lfemur2,lfemur3,ltibia1,lfoot1,lfoot2,ltoes1
6.71921,17.8309,2.00658,-4.64982,-68.4464,12.0279,0.337179,-0.353376,-2.15744,-0.129935,-0.48227,2.13755,-0.286147,-0.238395,3.40861,-21.8242,1.56503,-8.1307,25.7664,4.22402,2.53738,11.8579,1.34794,2.9831,1.77912e-14,1.74931e-14,-38.7039,-8.06647,-70.3552,39.0074,14.229,-16.6154,3.10061,7.12502,9.60645,-26.6604,1.77912e-14,1.74931e-14,-31.9851,6.60478,85.7589,30.8532,-7.57888,-11.5501,21.849,7.12502,14.4905,51.323,-14.6901,-1.26869,21.1464,33.46,-23.1063,-3.49199,13.3215,-12.9378,0.530686,-23.4853,29.9516,-13.675,4.5635,-13.1255
6.71615,17.8276,1.99872,-4.79461,-68.3905,12.1472,0.411239,-0.388023,-2.2779,-0.150127,-0.53004,2.18312,-0.343311,-0.260924,3.52473,-21.7696,1.59171,-8.23207,25.7486,4.29717,2.51811,11.8344,1.36851,3.0019,1.59028e-15,-2.06736e-14,-38.6996,-7.72089,-70.3845,38.8891,14.0769,-16.9019,3.148,7.12502,9.33,-26.6255,1.59028e-15,-2.06736e-14,-32.0333,6.74796,85.7885,30.8892,-7.44321,-11.5868,21.8119,7.12502,14.4552,51.2885,-14.6383,-1.18731,21.1332,33.4361,-23.0884,-3.72816,12.7316,-12.8953,0.637345,-23.5185,29.9479,-13.6366,4.4781,-13.3156
6.71327,17.826,1.98984,-4.8423,-68.3311,12.192,0.465654,-0.405147,-2.36922,-0.184471,-0.554107,2.22855,-0.405909,-0.271291,3.62416,-21.7137,1.56547,-8.38618,25.7542,4.30025,2.54407,11.8218,1.35753,3.03621,6.64935e-14,3.18055e-14,-38.7664,-7.47159,-70.3872,38.8176,13.9558,-17.377,3.1933,7.12502,8.87155,-26.6002,6.64935e-14,3.18055e-14,-32.1101,6.94079,85.7905,30.939,-7.48394,-11.6782,21.7882,7.12502,14.3671,51.271,-14.6249,-1.18382,21.1581,33.4142,-23.012,-3.97863,11.81,-12.8679,0.643513,-23.5236,29.8916,-13.5736,4.5173,-14.1487
6.71075,17.8259,1.98457,-4.83065,-68.2799,12.1911,0.46098,-0.38166,-2.3468,-0.199184,-0.522427,2.21283,-0.421266,-0.254997,3.59505,-21.6349,1.53234,-8.43644,25.7203,4.2481,2.59056,11.794,1.3373,3.05108,2.42517e-14,3.18055e-15,-38.8572,-7.49851,-70.3907,38.7513,13.9052,-17.5479,3.24449,7.12502,8.70659,-26.556,2.42517e-14,3.18055e-15,-32.1162,7.08139,85.7591,30.9396,-7.57643,-11.8235,21.7687,7.12502,14.2271,51.2615,-14.6167,-1.18607,21.1747,33.3819,-22.9864,-4.10973,10.9384,-12.8494,0.525553,-23.5142,29.8295,-13.5567,4.6351,-14.4701
6.70825,17.8281,1.98027,-4.87485,-68.2777,12.2463,0.454097,-0.350562,-2.30926,-0.194622,-0.480393,2.1528,-0.416869,-0.234065,3.51139,-21.582,1.53801,-8.33541,25.6562,4.22069,2.56893,11.7631,1.33544,3.01911,1.81888e-14,1.11319e-14,-38.8967,-7.76636,-70.4049,38.6412,14.1079,-17.5661,3.38716,7.12502,8.6891,-26.414,1.81888e-14,1.11319e-14,-32.0969,7.18309,85.6747,30.9559,-7.59478,-11.7585,21.7436,7.12502,14.2897,51.2319,-14.5498,-0.973734,21.1178,33.332,-23.0854,-3.82149,12.7907,-12.8067,0.439778,-23.5194,29.7621,-13.5722,4.72315,-14.0902
6.70594,17.8289,1.97437,-4.88891,-68.3049,12.3152,0.42337,-0.335949,-2.33257,-0.212548,-0.460323,2.12036,-0.41967,-0.22357,3.49075,-21.5965,1.56314,-8.21411,25.6878,4.23005,2.51889,11.7815,1.34338,2.98313,7.63333e-14,1.59028e-15,-38.9379,-7.94641,-70.3968,38.5742,14.3509,-17.6966,3.48989,7.12502,8.56312,-26.3165,7.63333e-14,1.59028e-15,-32.0986,7.18128,85.6106,30.9879,-7.52987,-11.6274,21.8106,7.12502,14.416,51.2899,-14.5277,-0.596837,21.0794,33.2699,-23.2792,-3.62972,14.8554,-12.8136,0.356477,-23.5254,29.6951,-13.5582,4.8383,-13.9934
6.70577,17.8277,1.9694,-4.7084,-68.2865,12.2341,0.364294,-0.356285,-2.27235,-0.256636,-0.48606,2.10079,-0.430396,-0.235869,3.43643,-21.5407,1.58995,-8.16598,25.6259,4.24203,2.5278,11.7462,1.35784,2.97728,3.27001e-14,7.95139e-15,-39.0111,-7.91369,-70.431,38.5921,14.3944,-17.7908,3.48573,7.12502,8.47219,-26.3243,3.27001e-14,7.95139e-15,-32.1047,7.1887,85.5123,30.9786,-7.55213,-11.6314,21.8132,7.12502,14.4122,51.2928,-14.5896,-0.245237,21.1349,33.2049,-23.5078,-3.78307,15.587,-12.8965,0.238026,-23.4801,29.636,-13.5541,4.91296,-14.0814
6.70692,17.8274,1.96313,-4.45077,-68.2244,12.0695,0.301431,-0.374713,-2.17874,-0.274012,-0.509323,2.09407,-0.41202,-0.24792,3.37632,-21.5045,1.56581,-8.19547,25.4939,4.20676,2.55203,11.689,1.34883,2.9812,5.05907e-14,-7.95139e-15,-39.0158,-7.90206,-70.4785,38.5578,14.4323,-17.886,3.46526,7.12502,8.38032,-26.3485,5.05907e-14,-7.95139e-15,-32.0618,7.25858,85.449,30.9597,-7.59226,-11.5385,21.7854,7.12502,14.5017,51.2586,-14.6678,-0.153089,21.2325,33.1336,-23.5877,-4.00603,15.3183,-12.9956,0.222088,-23.4058,29.591,-13.5654,4.88999,-14.3725
6.70974,17.8267,1.95475,-4.28474,-68.1518,12.0215,0.251882,-0.388702,-2.17228,-0.29778,-0.527162,2.08562,-0.407403,-0.256628,3.36375,-21.5442,1.56276,-8.14392,25.4658,4.20262,2.505,11.689,1.34702,2.95469,-2.22639e-14,2.06736e-14,-39.0101,-8.09189,-70.4757,38.5015,14.642,-17.6503,3.49197,7.12502,8.60779,-26.3126,-2.22639e-14,2.06736e-14,-32.0239,7.29314,85.4404,30.9573,-7.57198,-11.6199,21.7764,7.12502,14.4232,51.2552,-14.7814,-0.213986,21.2869,33.061,-23.5308,-4.14822,14.7027,-13.1357,0.291612,-23.3739,29.5526,-13.5457,4.83105,-14.7262
6.71232,17.8271,1.95242,-4.19797,-68.0752,11.9733,0.247431,-0.423306,-2.13233,-0.278766,-0.573146,2.06717,-0.382536,-0.280373,3.32219,-21.7236,1.59304,-7.97428,25.5666,4.23501,2.40702,11.7676,1.3602,2.90221,7.7526e-15,1.59028e-15,-38.982,-8.23875,-70.4886,38.4852,14.7948,-17.2536,3.58798,7.12502,8.9906,-26.2004,7.7526e-15,1.59028e-15,-31.9393,7.30094,85.3932,30.9236,-7.52417,-11.7714,21.7623,7.12502,14.2773,51.2515,-14.812,-0.258344,21.3037,33.0105,-23.5366,-4.20813,14.3996,-13.1781,0.155527,-23.3723,29.5006,-13.5459,4.94648,-14.484
6.71299,17.8283,1.94809,-4.04171,-68.0998,11.9406,0.147591,-0.444474,-2.13881,-0.292224,-0.600125,2.07727,-0.338198,-0.294406,3.33555,-21.9053,1.64884,-7.87853,25.6935,4.30849,2.38188,11.8504,1.39327,2.89622,2.16675e-14,-4.77083e-15,-38.9293,-8.14453,-70.5558,38.4617,14.7512,-17.5071,3.53497,7.12502,8.746,-26.2638,2.16675e-14,-4.77083e-15,-31.9057,7.4104,85.3073,30.9128,-7.58353,-11.7718,21.7413,7.12502,14.2769,51.2305,-14.9487,-0.256573,21.3573,32.9662,-23.4774,-4.37875,13.5164,-13.2868,0.187639,-23.3659,29.4437,-13.5551,5.01104,-14.4403
6.71515,17.8249,1.94291,-4.24395,-68.1062,12.1962,0.177044,-0.441711,-2.23898,-0.307006,-0.596862,2.05539,-0.369354,-0.291695,3.36988,-21.9926,1.66333,-7.92861,25.7862,4.32876,2.47871,11.8977,1.40654,2.94867,-4.19436e-14,1.59028e-14,-38.9211,-8.08148,-70.5935,38.4328,14.7164,-17.8434,3.43756,7.12502,8.42142,-26.3745,-4.19436e-14,1.59028e-14,-31.9363,7.39951,85.284,30.9461,-7.62897,-11.7782,21.7446,7.12502,14.2707,51.2342,-14.9753,-0.21466,21.2899,32.918,-23.4301,-4.57202,13.0072,-13.3051,0.347369,-23.4793,29.4039,-13.5959,4.96466,-14.9348
6.71805,17.8245,1.93844,-4.28945,-68.0693,12.2839,0.219046,-0.421247,-2.2732,-0.326386,-0.570154,2.05244,-0.414502,-0.277217,3.38655,-22.0049,1.62951,-7.99779,25.8121,4.29125,2.53242,11.9093,1.38912,2.97549,-7.05686e-15,-4.77083e-15,-38.9884,-8.10995,-70.5508,38.4976,14.7138,-17.7763,3.42606,7.12502,8.4862,-26.3834,-7.05686e-15,-4.77083e-15,-31.928,7.17963,85.3675,30.9297,-7.53104,-11.7857,21.9258,7.12502,14.2635,51.4159,-14.9834,-0.0511529,21.2571,32.8603,-23.5614,-4.65023,13.4838,-13.3491,0.455457,-23.5187,29.3928,-13.6084,4.89678,-15.3318
6.71988,17.825,1.93293,-4.09339,-68.0893,12.1598,0.192826,-0.394038,-2.28576,-0.350488,-0.53372,2.11843,-0.426573,-0.258556,3.46159,-21.9688,1.5892,-8.12189,25.7409,4.27225,2.53916,11.8734,1.37245,2.99255,-6.24184e-14,-1.59028e-15,-39.0385,-8.03065,-70.4957,38.5727,14.5934,-17.4688,3.50044,7.12502,8.78293,-26.2968,-6.24184e-14,-1.59028e-15,-31.9418,7.03094,85.4971,30.9333,-7.40973,-11.7573,21.9661,7.12502,14.2909,51.4544,-15.0652,-0.0836971,21.3396,32.8002,-23.5901,-4.7173,13.187,-13.4444,0.392683,-23.4523,29.4011,-13.6693,4.96014,-14.796
6.72251,17.824,1.92779,-3.69473,-68.1543,11.7991,0.193383,-0.370359,-2.2008,-0.372674,-0.502256,2.2093,-0.451994,-0.242656,3.50749,-21.8601,1.55614,-8.30968,25.5838,4.26137,2.60057,11.7862,1.36486,3.03757,-1.25234e-14,1.59028e-14,-39.0588,-7.95567,-70.427,38.5894,14.5483,-17.2361,3.62744,7.12502,9.00753,-26.1603,-1.25234e-14,1.59028e-14,-31.9626,7.13588,85.5546,30.8644,-7.51829,-11.7149,21.7413,7.12502,14.3317,51.2266,-15.1291,-0.127301,21.5133,32.7217,-23.5826,-4.64379,13.3506,-13.528,0.325586,-23.2874,29.4239,-13.7477,5.08278,-14.3759
6.72531,17.8238,1.92507,-3.35988,-68.2277,11.4838,0.174905,-0.360217,-2.06273,-0.340288,-0.488598,2.25251,-0.410203,-0.23757,3.47373,-21.9439,1.5621,-8.34739,25.5752,4.29808,2.58328,11.7968,1.37557,3.04465,1.23246e-14,1.11319e-14,-38.9467,-7.9602,-70.4503,38.5557,14.5005,-17.2891,3.67962,7.12502,8.95637,-26.1103,1.23246e-14,1.11319e-14,-31.8974,7.25818,85.5288,30.7784,-7.62305,-11.6746,21.5607,7.12502,14.3706,51.0433,-15.1487,-0.13372,21.6424,32.6274,-23.5452,-4.48799,13.8754,-13.5895,0.399264,-23.1634,29.4569,-13.7927,5.14876,-14.7684
6.72883,17.8236,1.9222,-3.37878,-68.2757,11.4517,0.275555,-0.36757,-2.02193,-0.30257,-0.499599,2.24938,-0.427491,-0.243429,3.44808,-22.0492,1.56987,-8.35254,25.5927,4.32086,2.59162,11.8223,1.38559,3.05516,5.32743e-14,-3.02153e-14,-38.8723,-7.81963,-70.5858,38.5626,14.3845,-17.5716,3.6247,7.12502,8.68378,-26.1767,5.32743e-14,-3.02153e-14,-31.876,7.3333,85.4622,30.7204,-7.72984,-11.6,21.5064,7.12502,14.4424,50.9838,-15.0747,-0.319117,21.6575,32.5427,-23.4213,-4.33118,13.8942,-13.5459,0.432192,-23.1442,29.4743,-13.8628,5.15233,-14.1531
6.73324,17.8233,1.91564,-3.23187,-68.256,11.27,0.376924,-0.38365,-1.97928,-0.285573,-0.522108,2.26205,-0.465475,-0.254527,3.43794,-22.0828,1.5575,-8.31789,25.5515,4.2897,2.6085,11.815,1.37954,3.05063,-4.57205e-15,-2.06736e-14,-38.8619,-7.6851,-70.7126,38.6212,14.212,-17.8169,3.4702,7.12502,8.44702,-26.3409,-4.57205e-15,-2.06736e-14,-31.8342,7.3901,85.3828,30.6294,-7.86844,-11.3502,21.5046,7.12502,14.6832,50.9647,-15.0324,-0.359353,21.7368,32.4804,-23.3978,-4.25974,13.9453,-13.5321,0.437283,-23.0527,29.4513,-13.8808,5.11031,-13.4773
6.73808,17.8244,1.90811,-2.94682,-68.2481,11.0747,0.375484,-0.398211,-1.96036,-0.33292,-0.54131,2.30462,-0.511575,-0.263048,3.47164,-22.0227,1.57689,-8.20177,25.5086,4.30068,2.49777,11.7922,1.38259,2.98905,-7.35503e-15,-7.95139e-15,-38.8713,-7.63685,-70.7441,38.6348,13.9984,-17.955,3.49723,7.12502,8.31377,-26.3192,-7.35503e-15,-7.95139e-15,-31.8293,7.54697,85.3145,30.5095,-8.04438,-11.3134,21.5808,7.12502,14.7185,51.0383,-15.1405,-0.202412,21.8227,32.4447,-23.4151,-4.27687,14.0854,-13.6484,0.558561,-22.9554,29.379,-13.8238,5.02188,-13.5445
6.74007,17.8261,1.90451,-3.00265,-68.3448,11.2155,0.32993,-0.413194,-2.03253,-0.342145,-0.56116,2.3155,-0.493239,-0.272864,3.52347,-22.0146,1.65361,-8.11261,25.5489,4.391,2.44866,11.8037,1.42311,2.97084,3.37934e-15,4.77083e-15,-38.8032,-7.57367,-70.803,38.6271,13.9759,-17.9785,3.60273,7.12502,8.29108,-26.2146,3.37934e-15,4.77083e-15,-31.8067,7.76379,85.1929,30.387,-8.30996,-11.4096,21.651,7.12502,14.6259,51.1153,-15.2303,-0.11906,21.7739,32.4175,-23.3565,-4.26584,13.963,-13.6868,0.549347,-23.0046,29.2809,-13.7907,5.18307,-13.8755
6.7406,17.8272,1.90208,-3.37064,-68.4742,11.5886,0.333766,-0.390094,-2.13402,-0.301454,-0.530698,2.24708,-0.455713,-0.258119,3.50971,-22.0245,1.67795,-8.05589,25.5911,4.39815,2.47666,11.8214,1.43386,2.97458,-3.77691e-15,6.36111e-15,-38.7543,-7.64506,-70.874,38.5933,14.0693,-18.4564,3.33426,7.12502,7.82989,-26.5008,-3.77691e-15,6.36111e-15,-31.7732,7.87754,85.0467,30.2868,-8.59247,-11.5152,21.6593,7.12502,14.5241,51.1309,-15.216,-0.106173,21.6341,32.3875,-23.2781,-4.22288,13.5438,-13.5911,0.398141,-23.1509,29.1736,-13.7877,5.47126,-14.097
6.74548,17.8305,1.89059,-3.26552,-68.5437,11.6123,0.300206,-0.378159,-2.2304,-0.325352,-0.514652,2.26061,-0.461716,-0.249314,3.57795,-22.0156,1.65035,-8.10324,25.5802,4.36158,2.52121,11.8152,1.41942,2.99288,1.17283e-14,1.59028e-14,-38.7257,-7.76015,-70.8745,38.6332,14.2423,-18.8091,2.81762,7.12502,7.48942,-27.0298,1.17283e-14,1.59028e-14,-31.7401,7.95833,84.9737,30.1958,-8.77212,-11.3616,21.5829,7.12502,14.6722,51.0438,-15.3635,0.0255339,21.6615,32.335,-23.2877,-4.22595,13.8742,-13.7063,0.385387,-23.1123,29.0853,-13.7418,5.47702,-13.9793
6.74884,17.8328,1.88274,-2.94645,-68.6589,11.3517,0.26732,-0.348098,-2.14046,-0.314669,-0.474084,2.2907,-0.435956,-0.230015,3.55768,-21.9785,1.61541,-8.20174,25.4818,4.32527,2.58015,11.7682,1.40625,3.02177,-3.95581e-14,1.90833e-14,-38.6632,-7.76974,-70.9122,38.6675,14.3502,-18.3034,3.2432,7.12502,7.97756,-26.5863,-3.95581e-14,1.90833e-14,-31.7047,8.00541,84.9514,30.1516,-8.73446,-11.2376,21.605,7.12502,14.7916,51.0571,-15.4351,0.214247,21.7931,32.2592,-23.3115,-4.22198,14.4623,-13.7701,0.378016,-22.9696,29.0307,-13.7812,5.56741,-13.6022
6.75295,17.832,1.88115,-2.74923,-68.7878,11.1426,0.271533,-0.286087,-1.94042,-0.268138,-0.390981,2.26264,-0.398492,-0.190289,3.41496,-21.9797,1.57995,-8.20768,25.4179,4.28562,2.55063,11.7474,1.38684,3.0038,-3.8763e-14,-2.22639e-14,-38.608,-7.85002,-70.9544,38.6798,14.3506,-17.8451,3.70268,7.12502,8.41981,-26.1095,-3.8763e-14,-2.22639e-14,-31.6279,7.92606,84.9456,30.1034,-8.56065,-11.4564,21.85,7.12502,14.5808,51.3175,-15.43,0.260775,21.8889,32.1829,-23.1982,-4.21344,14.2553,-13.7555,0.247485,-22.8774,29.0132,-13.8115,5.82628,-13.3405
6.75655,17.834,1.87726,-2.67225,-68.889,11.1022,0.265829,-0.247247,-1.85819,-0.25484,-0.338724,2.21646,-0.386217,-0.164653,3.32043,-21.9525,1.58313,-8.11272,25.4246,4.26955,2.49376,11.7496,1.38078,2.96402,2.42517e-14,-6.36111e-15,-38.6065,-7.93026,-71.0417,38.7064,14.392,-17.9581,3.65041,7.12502,8.31079,-26.1661,2.42517e-14,-6.36111e-15,-31.6101,7.92852,84.8405,30.057,-8.5834,-11.5533,21.8348,7.12502,14.4874,51.309,-15.4712,0.383766,21.916,32.137,-23.1833,-4.23067,14.3351,-13.7912,0.17746,-22.8443,28.9942,-13.7779,5.98395,-13.4515
6.76099,17.8353,1.87112,-2.72231,-68.9228,11.2393,0.252293,-0.267251,-1.89988,-0.262645,-0.365122,2.17812,-0.384728,-0.177545,3.30448,-21.9579,1.59609,-8.10458,25.4825,4.25995,2.58146,11.7703,1.38671,2.99582,2.22639e-14,-3.02153e-14,-38.5785,-7.97198,-71.1426,38.719,14.5457,-18.1573,3.68823,7.12502,8.11854,-26.1358,2.22639e-14,-3.02153e-14,-31.6336,8.00034,84.7124,30.0148,-8.72971,-11.4954,21.787,7.12502,14.5432,51.2572,-15.5644,0.488858,21.8642,32.1208,-23.2114,-4.105,15.265,-13.8846,0.157769,-22.8769,28.9684,-13.7429,6.00682,-13.3397
6.76545,17.8354,1.86484,-2.92398,-68.9882,11.4946,0.281909,-0.275312,-2.01093,-0.264799,-0.376402,2.1651,-0.402144,-0.182468,3.354,-21.8862,1.60123,-8.17854,25.4559,4.25506,2.68439,11.741,1.39266,3.04321,-1.5704e-14,-9.54166e-15,-38.536,-8.06039,-71.1365,38.7245,14.6948,-18.2726,3.96919,7.12502,8.00723,-25.8591,-1.5704e-14,-9.54166e-15,-31.6768,8.0238,84.704,29.9777,-8.65548,-11.4535,21.9188,7.12502,14.5836,51.3861,-15.6236,0.54852,21.7685,32.1,-23.1404,-3.9552,15.8714,-13.9359,0.182391,-22.9602,28.9509,-13.6989,6.08061,-13.5915
6.76835,17.8355,1.85899,-2.99084,-69.1413,11.6064,0.28524,-0.249796,-2.08576,-0.249895,-0.342898,2.19685,-0.390591,-0.165868,3.42886,-21.8259,1.59344,-8.31525,25.4143,4.26202,2.76426,11.7072,1.39514,3.09385,-2.0276e-14,-2.38542e-14,-38.4783,-8.05677,-71.1066,38.7814,14.6138,-18.2764,4.28167,7.12502,8.00353,-25.5468,-2.0276e-14,-2.38542e-14,-31.6975,8.06415,84.7662,29.9607,-8.44078,-11.4,21.9595,7.12502,14.6352,51.423,-15.6764,0.614187,21.7546,32.0513,-23.0306,-3.92494,15.3822,-13.9979,0.310055,-22.9753,28.971,-13.7094,6.13739,-13.6434
6.77124,17.8375,1.85498,-2.68997,-69.3062,11.3627,0.223985,-0.217315,-1.96856,-0.228299,-0.298927,2.22103,-0.337836,-0.14541,3.38701,-21.9252,1.5752,-8.39568,25.508,4.25859,2.8246,11.7594,1.38945,3.13435,1.74931e-14,1.59028e-14,-38.4628,-7.89115,-71.2179,38.9282,14.3688,-18.2914,4.28733,7.12502,7.98909,-25.5417,1.74931e-14,1.59028e-14,-31.6994,7.92812,84.8029,29.9715,-8.23686,-11.4502,21.9658,7.12502,14.5868,51.4328,-15.749,0.70474,21.8773,31.9739,-22.8652,-3.96167,15.0747,-14.1019,0.34846,-22.8494,29.028,-13.7534,6.19099,-13.2354
6.7764,17.8383,1.85043,-2.33885,-69.4314,11.0414,0.226542,-0.176966,-1.78972,-0.218038,-0.244823,2.21481,-0.333444,-0.119091,3.27929,-22.1029,1.53913,-8.4302,25.7016,4.219,2.89822,11.8687,1.36925,3.17188,3.47873e-14,-1.90833e-14,-38.5312,-7.7779,-71.3168,39.112,14.3068,-18.1385,4.37293,7.12502,8.1367,-25.4504,3.47873e-14,-1.90833e-14,-31.7235,7.61275,84.821,29.9949,-8.07711,-11.6699,22.0023,7.12502,14.3751,51.4846,-15.7925,0.839584,22.0183,31.8837,-22.794,-3.95614,15.3623,-14.2203,0.32847,-22.7011,29.1216,-13.7933,6.30912,-13.1311
6.78272,17.8361,1.84487,-2.29792,-69.5722,11.0246,0.287658,-0.143559,-1.73978,-0.216091,-0.20041,2.17745,-0.369117,-0.096455,3.21251,-22.166,1.53096,-8.42724,25.7981,4.19529,2.95996,11.918,1.36292,3.19551,4.8901e-14,-3.18055e-15,-38.5838,-7.67975,-71.4505,39.2651,14.2606,-18.0411,4.38524,7.12502,8.23067,-25.4344,4.8901e-14,-3.18055e-15,-31.7917,7.38647,84.8012,30.0541,-8.01271,-12.0016,22.0599,7.12502,14.0555,51.5646,-15.8273,0.955222,22.0477,31.8075,-22.7846,-3.95785,15.5626,-14.3184,0.294367,-22.6732,29.2284,-13.8389,6.47409,-13.1647
6.78842,17.8328,1.84017,-2.41711,-69.7113,11.1901,0.321366,-0.135566,-1.77102,-0.2115,-0.189987,2.14945,-0.384021,-0.0909067,3.2013,-22.1803,1.53887,-8.39912,25.8991,4.2035,2.93927,11.9609,1.36139,3.1878,5.725e-14,3.18055e-15,-38.5785,-7.45,-71.6219,39.4193,14.0866,-18.2539,4.26488,7.12502,8.0253,-25.5628,5.725e-14,3.18055e-15,-31.8267,7.38831,84.7306,30.0263,-8.10279,-12.1369,21.9636,7.12502,13.9251,51.4773,-15.8996,0.956649,22.0164,31.7745,-22.6701,-3.91334,15.4365,-14.4233,0.34786,-22.7179,29.3224,-13.8752,6.53758,-13.2933
6.7947,17.8305,1.83336,-2.52046,-69.7835,11.3164,0.392042,-0.14176,-1.80012,-0.202394,-0.198957,2.13881,-0.413645,-0.0949623,3.20703,-22.1994,1.51691,-8.43843,26.0005,4.17387,2.98707,12.0039,1.34573,3.21133,2.08724e-14,4.77083e-15,-38.5607,-7.25167,-71.7526,39.5419,13.9947,-18.3891,4.2747,7.12502,7.89476,-25.5579,2.08724e-14,4.77083e-15,-31.8296,7.35193,84.672,29.9779,-8.20659,-12.0086,21.8645,7.12502,14.0488,51.3697,-15.9642,0.875613,21.9997,31.7912,-22.5775,-3.80398,15.1845,-14.5032,0.435156,-22.7376,29.388,-13.9086,6.47772,-13.2417
6.80197,17.8294,1.82499,-2.64259,-69.8683,11.449,0.502052,-0.129807,-1.83785,-0.190637,-0.184165,2.12288,-0.464244,-0.0868118,3.21213,-22.2713,1.47926,-8.47213,26.1436,4.12209,3.04806,12.075,1.32069,3.23816,8.34896e-15,3.18055e-15,-38.4978,-7.24526,-71.8149,39.5658,14.0239,-18.3409,4.53798,7.12502,7.94128,-25.2928,8.34896e-15,3.18055e-15,-31.8398,7.30278,84.6236,29.9405,-8.41097,-11.8596,21.7396,7.12502,14.1923,51.2347,-16.0251,0.852446,21.9839,31.8424,-22.5476,-3.76765,14.6047,-14.5602,0.582717,-22.7568,29.4396,-13.9423,6.41499,-13.3843
6.80847,17.8284,1.81725,-2.76692,-70.0132,11.6481,0.538922,-0.112828,-1.91757,-0.206178,-0.162137,2.11025,-0.50222,-0.0747257,3.24407,-22.2282,1.47729,-8.43181,26.2664,4.11264,3.00043,12.118,1.30745,3.21473,1.53064e-14,6.36111e-15,-38.4635,-7.16562,-71.8965,39.6092,13.9868,-18.3356,4.71125,7.12502,7.94647,-25.1194,1.53064e-14,6.36111e-15,-31.8774,7.39016,84.5528,29.9163,-8.5896,-11.8595,21.7568,7.12502,14.1924,51.252,-16.1702,0.790459,21.94,31.9135,-22.4396,-3.63558,14.2068,-14.6707,0.718925,-22.7972,29.4899,-13.9556,6.42223,-13.2192
6.81362,17.8271,1.81127,-2.79136,-70.2181,11.795,0.501396,-0.0875863,-1.98898,-0.238016,-0.128392,2.13938,-0.516021,-0.0570261,3.31414,-22.1747,1.46882,-8.48808,26.471,4.12757,2.95226,12.1879,1.29073,3.21304,2.92213e-14,9.54166e-15,-38.4741,-7.0129,-71.9241,39.7317,13.9756,-18.3192,4.83444,7.12502,7.96222,-24.9956,2.92213e-14,9.54166e-15,-31.9198,7.57615,84.506,29.8814,-8.75733,-11.9512,21.9861,7.12502,14.1041,51.4874,-16.3845,0.705359,21.9001,31.9828,-22.225,-3.31827,14.5284,-14.8432,0.828696,-22.8192,29.5647,-13.9636,6.50618,-13.318
6.81895,17.8248,1.80829,-2.98785,-70.431,12.0541,0.518053,-0.0716542,-2.04382,-0.256313,-0.107506,2.13395,-0.545567,-0.0456645,3.33939,-22.1704,1.44994,-8.57119,26.7978,4.12195,2.973,12.3147,1.26541,3.24383,4.94974e-14,-3.18055e-15,-38.5164,-6.8657,-71.9566,39.9204,14.0528,-18.1233,4.98223,7.12502,8.15132,-24.8405,4.94974e-14,-3.18055e-15,-31.9864,7.62296,84.457,29.8677,-8.68413,-11.8172,22.2065,7.12502,14.2332,51.6988,-16.5215,0.626273,21.8142,32.0361,-22.0476,-2.9819,14.8741,-14.9536,0.806089,-22.8938,29.6819,-14.013,6.74857,-13.6303
6.82716,17.8228,1.80494,-3.01757,-70.6265,12.0454,0.664528,-0.0353985,-1.99797,-0.2541,-0.0605251,2.14074,-0.628915,-0.0211618,3.32032,-22.1749,1.39216,-8.66842,27.1272,4.04483,3.06527,12.4475,1.21672,3.29356,-5.96354e-15,0,-38.5983,-6.77368,-71.9803,40.1848,14.18,-18.1724,4.90386,7.12502,8.10395,-24.9207,-5.96354e-15,0,-32.0374,7.63028,84.4262,29.8552,-8.60643,-11.4233,22.2557,7.12502,14.6127,51.7209,-16.5607,0.588003,21.8541,32.0768,-21.9027,-2.91677,14.2029,-15.012,0.836491,-22.8661,29.8434,-14.0545,6.88995,-13.6209
6.83392,17.8193,1.80192,-2.76334,-70.8073,11.7563,0.761472,-0.0179972,-1.8698,-0.252764,-0.0374357,2.18092,-0.683619,-0.00955201,3.2893,-22.2757,1.33781,-8.70974,27.6086,3.97706,3.10923,12.6644,1.16316,3.3245,-3.22031e-14,4.77083e-15,-38.6433,-6.65803,-72.0192,40.3914,14.1965,-18.4851,4.79371,7.12502,7.80216,-25.0423,-3.22031e-14,4.77083e-15,-32.0557,7.85315,84.3294,29.7464,-8.75759,-11.1329,22.1657,7.12502,14.8924,51.6104,-16.6087,0.526533,21.9987,32.102,-21.939,-2.89218,13.8795,-15.1188,0.986008,-22.7371,30.0562,-14.1246,6.84598,-13.1485
6.84081,17.8138,1.79358,-2.70446,-70.9771,11.6836,0.855129,-0.00928669,-1.88503,-0.242415,-0.0270157,2.21866,-0.726282,-0.00384771,3.33689,-22.446,1.26808,-8.73099,28.2222,3.90825,3.08394,12.9555,1.09381,3.33119,-9.64106e-14,-1.43125e-14,-38.6172,-6.49128,-72.0518,40.5333,14.2072,-18.6793,4.86152,7.12502,7.61471,-24.9814,-9.64106e-14,-1.43125e-14,-32.0324,7.99184,84.273,29.5937,-8.80933,-11.1508,22.1116,7.12502,14.8752,51.5575,-16.6663,0.66093,22.0842,32.1288,-22.3139,-2.99068,14.0383,-15.2759,1.3557,-22.6711,30.313,-14.1617,6.64252,-13.0156
6.85105,17.8111,1.78393,-2.75279,-71.0855,11.6834,1.05206,-0.00669761,-1.92109,-0.247027,-0.0257748,2.23067,-0.841572,-0.00131274,3.37,-22.3794,1.21684,-8.73859,28.6285,3.84159,3.02731,13.1167,1.03257,3.31073,4.4329e-14,-1.59028e-15,-38.639,-6.31513,-72.1351,40.7915,14.3068,-18.4923,4.42751,7.12502,7.79519,-25.4088,4.4329e-14,-1.59028e-15,-32.0625,7.86688,84.2868,29.5561,-8.57003,-11.3937,22.3425,7.12502,14.6412,51.8056,-16.696,0.809651,22.131,32.1851,-22.5845,-3.05828,14.5785,-15.4252,1.67836,-22.639,30.5833,-14.1761,6.50373,-13.2753
6.86092,17.8086,1.77636,-2.87231,-71.1338,11.7825,1.21798,0.00644104,-1.90328,-0.255036,-0.00949942,2.17799,-0.944014,0.00838308,3.30552,-22.3248,1.10069,-8.81482,29.1361,3.66741,3.09189,13.327,0.92856,3.33503,4.90998e-14,6.36111e-15,-38.6932,-6.13371,-72.3488,41.2532,14.6045,-18.0212,2.71753,7.12502,8.24985,-27.1014,4.90998e-14,6.36111e-15,-32.0828,7.67651,84.2554,29.5553,-8.33155,-11.6159,22.3261,7.12502,14.4271,51.8046,-16.7728,0.670385,22.1304,32.2704,-22.5586,-3.02079,14.4855,-15.6057,1.78927,-22.6549,30.8659,-14.1593,6.48227,-13.6153
6.86755,17.8031,1.77036,-3.21745,-71.2196,12.0966,1.34489,0.0295428,-1.93833,-0.250135,0.0194892,2.12679,-1.01224,0.0240952,3.27202,-22.2586,0.928666,-8.99947,29.7402,3.44482,3.16579,13.581,0.786357,3.37589,-1.06549e-13,-3.18055e-15,-38.723,-6.04779,-72.3798,41.3983,14.7614,-17.9984,2.71942,7.12502,8.27187,-27.0986,-1.06549e-13,-3.18055e-15,-32.11,7.64035,84.2177,29.5053,-8.30062,-11.9057,22.2049,7.12502,14.1479,51.7032,-16.8049,0.545625,22.0567,32.345,-22.4585,-3.00547,13.862,-15.7468,1.81631,-22.7516,31.1896,-14.1308,6.57146,-14.1467
6.87464,17.8,1.76449,-3.48013,-71.2882,12.3341,1.43803,0.00890961,-1.93429,-0.230268,-0.0091469,2.09083,-1.04204,0.00994666,3.23335,-22.2972,0.725419,-9.23462,30.405,3.19967,3.25852,13.889,0.627096,3.4335,8.7664e-14,-1.98785e-14,-38.6833,-5.91428,-72.3923,41.3877,14.7579,-18.4503,3.94236,7.12502,7.83574,-25.8924,8.7664e-14,-1.98785e-14,-32.1572,7.80208,84.1474,29.4688,-8.40367,-12.272,22.1055,7.12502,13.7949,51.6281,-16.8267,0.53932,22.0054,32.3984,-22.4142,-3.02307,13.5696,-15.9324,1.96471,-22.8221,31.5577,-14.0945,6.52005,-13.9639
6.88173,17.7986,1.75955,-3.66541,-71.3285,12.5268,1.48683,-0.0229671,-1.90916,-0.203431,-0.0520356,2.05354,-1.03887,-0.0120328,3.18169,-22.4579,0.419806,-9.66872,31.1116,2.84072,3.51183,14.2516,0.415696,3.57505,-4.1546e-14,-1.59028e-14,-38.6104,-5.57506,-72.6043,41.7609,14.9227,-18.3555,2.82881,7.12502,7.92722,-27.0026,-4.1546e-14,-1.59028e-14,-32.116,7.96691,84.046,29.3817,-8.44205,-12.3304,21.9649,7.12502,13.7386,51.4914,-16.8599,0.629564,21.9399,32.4318,-22.6439,-2.83216,14.8736,-16.2005,2.17172,-22.8875,31.9758,-14.0175,6.44537,-13.4137
6.88826,17.7943,1.75435,-3.80778,-71.4,12.6683,1.55033,-0.0521225,-1.93026,-0.183971,-0.0921147,2.05893,-1.05171,-0.0320155,3.20026,-22.4189,0.176046,-10.1914,31.7289,2.57189,3.77811,14.5311,0.237005,3.74674,1.21259e-14,0,-38.5001,-5.4659,-72.5822,41.8717,15.2252,-18.3744,2.92124,7.12502,7.90897,-26.9108,1.21259e-14,0,-32.0486,8.05638,83.9769,29.2888,-8.27558,-12.2146,21.8308,7.12502,13.8502,51.3496,-16.8845,0.824501,21.8748,32.4463,-22.9346,-2.65161,16.2112,-16.4926,2.22871,-22.9092,32.4548,-13.9681,6.42895,-12.8534
6.89484,17.7897,1.74592,-3.89952,-71.4178,12.7426,1.64591,-0.0946907,-1.98069,-0.169237,-0.150993,2.05086,-1.086,-0.0608253,3.22215,-22.1998,0.0387093,-10.4354,32.2653,2.38664,3.85227,14.7402,0.102489,3.80036,5.22804e-14,2.8625e-14,-38.3912,-5.36168,-72.6606,42.0257,15.4014,-18.5386,2.69751,7.12502,7.75051,-27.1404,5.22804e-14,2.8625e-14,-31.9934,8.14221,83.8563,29.1867,-8.23362,-12.1379,21.7328,7.12502,13.9241,51.2465,-16.8927,0.844139,21.8612,32.433,-22.9874,-2.59965,16.4772,-16.8239,2.28107,-22.9034,33.0104,-13.9018,6.32146,-12.6742
6.90214,17.7883,1.73791,-3.82281,-71.3866,12.629,1.82432,-0.167472,-1.97797,-0.203856,-0.249729,2.07914,-1.21454,-0.107946,3.25347,-21.8902,-0.0445429,-10.563,32.7866,2.27409,3.76735,14.924,-0.0109693,3.77771,-3.02153e-14,1.27222e-14,-38.3136,-5.1504,-72.7666,42.1894,15.3785,-18.8344,2.35919,7.12502,7.46497,-27.4891,-3.02153e-14,1.27222e-14,-32.0539,8.45158,83.7142,29.1261,-8.37577,-12.1855,21.7961,7.12502,13.8783,51.313,-16.876,0.82671,21.9231,32.4031,-22.9324,-2.72364,16.3432,-17.1768,2.41716,-22.864,33.6375,-13.8073,6.21133,-12.9725
6.90769,17.7874,1.73012,-3.67099,-71.4153,12.3765,2.1059,-0.256881,-2.03624,-0.263556,-0.372453,2.22163,-1.42393,-0.165004,3.43967,-21.4503,-0.0914555,-10.8568,33.2797,2.23424,3.74412,15.0578,-0.106178,3.81814,9.34288e-15,4.77083e-15,-38.2552,-4.78443,-72.7289,42.3664,15.4294,-18.9456,2.22988,7.12502,7.35764,-27.6222,9.34288e-15,4.77083e-15,-32.2491,8.994,83.6321,29.1522,-8.50301,-12.2999,21.8509,7.12502,13.768,51.3754,-16.7864,0.887187,22.052,32.3599,-22.9126,-2.89472,15.9453,-17.497,2.65021,-22.7706,34.3296,-13.696,6.09656,-13.2561
6.91224,17.7878,1.72044,-3.51435,-71.4114,12.1183,2.32761,-0.363577,-2.14742,-0.255423,-0.519497,2.38005,-1.52676,-0.236096,3.67355,-21.1015,-0.097369,-11.102,33.8111,2.24703,3.71849,15.2271,-0.176714,3.8621,5.96354e-16,-4.77083e-15,-38.0467,-4.39856,-72.6795,42.4346,15.5728,-19.2512,2.60924,7.12502,7.06272,-27.2529,5.96354e-16,-4.77083e-15,-32.301,9.5458,83.5514,29.1522,-8.70011,-12.1761,21.8326,7.12502,13.8873,51.3489,-16.6947,0.897528,22.1801,32.3174,-22.8983,-2.94486,15.8067,-17.8659,2.78767,-22.6531,35.0718,-13.5787,5.90526,-12.9992
6.91631,17.7871,1.71543,-3.38608,-71.3905,12.0104,2.32664,-0.431055,-2.18441,-0.205303,-0.610702,2.44705,-1.46641,-0.283168,3.76663,-20.7937,-0.169423,-11.3058,34.332,2.14606,3.70216,15.4154,-0.288596,3.88333,-2.18663e-14,1.90833e-14,-37.7378,-4.25483,-72.6766,42.4692,15.6964,-19.6122,2.89484,7.12502,6.71417,-26.9787,-2.18663e-14,1.90833e-14,-32.1796,9.74118,83.5215,29.1148,-8.78184,-11.8786,21.7325,7.12502,14.174,51.229,-16.734,0.807384,22.2321,32.2851,-22.8241,-2.89418,15.871,-18.3851,2.82343,-22.616,35.854,-13.4246,5.8172,-13.1634
6.91988,17.7865,1.71104,-3.12019,-71.4041,11.831,2.24843,-0.487924,-2.10156,-0.176352,-0.683882,2.45067,-1.38768,-0.322227,3.72466,-20.4754,-0.227116,-11.2623,34.8936,2.07141,3.39578,15.6317,-0.403755,3.74215,-6.14245e-14,-1.11319e-14,-37.4811,-4.32881,-72.7176,42.6237,15.8175,-19.6546,2.95688,7.12502,6.67326,-26.918,-6.14245e-14,-1.11319e-14,-32.0817,9.80066,83.4461,29.1204,-8.75093,-11.677,21.7447,7.12502,14.3683,51.2275,-16.8562,0.696577,22.3268,32.248,-22.6002,-2.96652,15.2785,-19.008,2.94249,-22.549,36.6798,-13.2741,5.6466,-12.5481
6.92317,17.7874,1.70577,-2.81936,-71.4192,11.5328,2.26865,-0.544545,-1.94064,-0.13052,-0.756158,2.43683,-1.34832,-0.360972,3.62144,-20.3074,-0.215035,-10.8495,35.6343,2.13245,2.68189,15.9769,-0.485324,3.39029,-1.01181e-13,-2.54444e-14,-37.2443,-4.50895,-72.6715,42.8186,16.4279,-19.7192,2.70114,7.12502,6.61087,-27.1757,-1.01181e-13,-2.54444e-14,-32.0198,10.0394,83.2659,29.1656,-8.8708,-11.5734,21.7147,7.12502,14.4681,51.1903,-16.8924,0.520139,22.4794,32.199,-22.2623,-3.07954,14.1543,-19.5819,3.20084,-22.4439,37.5504,-13.1192,5.43134,-11.6894
6.92252,17.7879,1.69949,-2.59606,-71.4807,11.2577,2.32106,-0.575817,-1.92035,-0.065972,-0.798492,2.50236,-1.30754,-0.383992,3.67932,-20.1087,-0.223519,-10.6296,36.2817,2.16165,2.17105,16.272,-0.569558,3.14582,1.63003e-14,7.95139e-15,-37.0249,-4.66778,-72.409,42.9987,17.6831,-19.9426,2.30209,7.12502,6.39526,-27.5814,1.63003e-14,7.95139e-15,-31.9965,10.2763,83.1882,29.261,-8.92973,-11.588,21.6325,7.12502,14.454,51.1091,-16.8253,0.467569,22.6012,32.1269,-22.1897,-3.01841,14.1843,-20.0955,3.5625,-22.348,38.4608,-12.918,5.29067,-11.3114
6.92244,17.7886,1.69343,-2.27562,-71.555,10.8864,2.37449,-0.612942,-1.91732,0.00994663,-0.849282,2.61799,-1.25392,-0.411671,3.79911,-19.823,-0.274273,-10.674,36.7831,2.12797,1.89791,16.4741,-0.671259,3.03177,-3.57812e-14,-9.54166e-15,-36.7545,-4.64027,-72.2301,43.2077,18.4523,-20.0616,2.06466,7.12502,6.28036,-27.8222,-3.57812e-14,-9.54166e-15,-31.9473,10.4496,83.2017,29.3898,-8.80817,-11.8633,21.6489,7.12502,14.1887,51.1443,-16.7586,0.389735,22.7405,32.0411,-22.0939,-2.76462,14.6734,-20.6263,3.96048,-22.2197,39.384,-12.6787,5.10778,-10.9229
6.92472,17.7918,1.69101,-1.94808,-71.6006,10.5091,2.41876,-0.634731,-1.7787,0.108889,-0.876677,2.66771,-1.17622,-0.429144,3.77271,-19.5793,-0.377892,-10.7986,37.3197,2.0053,1.74056,16.7126,-0.806407,2.96625,4.87022e-14,-2.8625e-14,-36.4772,-4.55601,-72.2863,43.5066,18.5438,-19.9466,1.63617,7.12502,6.39137,-28.2474,4.87022e-14,-2.8625e-14,-31.8524,10.5087,83.2405,29.5425,-8.67675,-12.2351,21.8187,7.12502,13.8304,51.3389,-16.6967,0.185431,22.8847,31.9455,-21.8092,-2.57882,14.3862,-21.161,4.21349,-22.1171,40.2834,-12.4531,5.06119,-11.4804
6.92622,17.7912,1.68817,-1.85715,-71.6701,10.3633,2.46963,-0.634845,-1.71585,0.249965,-0.877971,2.69028,-1.06036,-0.434104,3.75988,-19.4043,-0.492991,-10.9355,37.7882,1.87427,1.60879,16.9364,-0.937625,2.9112,1.5704e-14,-4.77083e-15,-36.1516,-4.48993,-72.3626,43.8342,18.573,-19.6972,1.39341,7.12502,6.63214,-28.4827,1.5704e-14,-4.77083e-15,-31.7429,10.4669,83.3072,29.7733,-8.49682,-12.2775,21.8745,7.12502,13.7896,51.3974,-16.6054,0.200409,22.944,31.8385,-21.9193,-2.47778,15.3091,-21.6655,4.34324,-22.0804,41.1546,-12.2883,5.0772,-12.9798
6.9277,17.7889,1.68309,-1.88854,-71.7775,10.3255,2.55018,-0.660782,-1.73943,0.398482,-0.91635,2.69972,-0.949503,-0.457209,3.78395,-19.1228,-0.521007,-10.986,38.0901,1.82236,1.48954,17.0377,-1.00996,2.85645,3.18055e-14,-2.8625e-14,-35.7907,-4.42,-72.4381,44.1162,18.7447,-19.5967,1.56279,7.12502,6.72914,-28.3103,3.18055e-14,-2.8625e-14,-31.704,10.3721,83.3287,30.0918,-8.21153,-12.1445,21.9255,7.12502,13.9178,51.4397,-16.4897,0.323795,22.9723,31.7393,-22.0472,-2.4332,16.0198,-22.1328,4.47766,-22.0456,41.9671,-12.217,5.01489,-14.482
6.92821,17.7893,1.67604,-1.76833,-71.9379,10.0975,2.68007,-0.701618,-1.76685,0.54719,-0.975341,2.75152,-0.863597,-0.490637,3.85561,-18.8558,-0.50186,-11.0611,38.3949,1.82741,1.43388,17.1375,-1.05403,2.84555,2.26615e-14,1.59028e-14,-35.4405,-4.28012,-72.5289,44.4828,18.8337,-19.5302,1.49243,7.12502,6.79336,-28.3786,2.26615e-14,1.59028e-14,-31.7597,10.4923,83.2936,30.4802,-8.0467,-12.0512,21.9356,7.12502,14.0077,51.4437,-16.3395,0.524917,23.0717,31.6508,-22.1422,-2.38789,16.251,-22.5862,4.81547,-21.9448,42.7276,-12.1556,4.68637,-14.8092
6.92772,17.7907,1.67456,-1.8757,-72.0691,10.142,2.7843,-0.717653,-1.86636,0.692505,-1.00328,2.832,-0.767325,-0.508833,3.99657,-18.7396,-0.535154,-11.2555,38.8197,1.83119,1.35441,17.346,-1.12931,2.84789,7.55382e-15,3.18055e-15,-35.0987,-3.85442,-72.5458,44.891,18.6229,-19.9458,1.29464,7.12502,6.39216,-28.5889,7.55382e-15,3.18055e-15,-31.7999,10.6613,83.3825,30.8653,-8.00078,-11.9978,21.9914,7.12502,14.0591,51.4959,-16.221,0.73227,23.0492,31.5647,-22.2327,-2.3458,16.4893,-23.072,5.013,-21.9715,43.4307,-12.1976,4.25386,-14.7081
6.92812,17.7916,1.676,-2.24531,-72.1659,10.5063,2.85497,-0.689217,-1.96351,0.829444,-0.971163,2.80489,-0.667752,-0.49647,4.02223,-18.5896,-0.593754,-11.3062,39.1945,1.75671,1.22717,17.5292,-1.21738,2.78668,-5.36719e-15,-1.27222e-14,-34.8407,-3.43348,-72.6396,45.2833,18.3683,-20.727,1.25746,7.12502,5.63792,-28.6475,-5.36719e-15,-1.27222e-14,-31.7515,10.4964,83.5109,31.2117,-7.82127,-12.0181,22.107,7.12502,14.0396,51.6128,-16.1742,0.70838,22.9302,31.4838,-22.162,-2.34554,15.9796,-23.5951,5.03205,-22.1374,44.0582,-12.3639,3.83251,-15.099
6.92867,17.7907,1.67491,-2.2274,-72.2654,10.4648,2.97359,-0.660512,-1.94697,0.934782,-0.935745,2.81598,-0.629048,-0.481433,4.02415,-18.3733,-0.633246,-11.4025,39.4561,1.69815,1.15725,17.6301,-1.28848,2.75995,-1.53064e-14,6.36111e-15,-34.589,-3.16375,-72.6697,45.622,18.2426,-20.7178,1.30442,7.12502,5.64681,-28.6003,-1.53064e-14,6.36111e-15,-31.7935,10.2373,83.628,31.6294,-7.56919,-12.1398,22.2603,7.12502,13.9223,51.7742,-16.1552,0.600192,22.967,31.4535,-22.1386,-2.26507,15.3584,-24.1319,5.13516,-22.1578,44.5886,-12.4108,3.12374,-15.3962
6.92607,17.7919,1.67426,-1.88199,-72.4179,10.1261,3.04286,-0.616847,-1.82565,1.0203,-0.877093,2.87928,-0.585814,-0.454873,4.01949,-18.1989,-0.701393,-11.6699,39.7017,1.63036,1.18354,17.7332,-1.37412,2.80595,-3.47873e-14,2.38542e-14,-34.3341,-3.00517,-72.6018,45.9478,18.2046,-20.2305,1.29156,7.12502,6.11733,-28.6001,-3.47873e-14,2.38542e-14,-31.9081,10.0814,83.7301,32.1164,-7.37107,-12.3339,22.2782,7.12502,13.7353,51.8048,-16.1817,0.574284,23.1177,31.4587,-21.997,-2.25473,14.9371,-24.6914,5.30292,-22.0658,45.0229,-12.3739,2.2494,-15.1417
6.92044,17.7937,1.67566,-1.91799,-72.6047,10.1681,3.07074,-0.693706,-1.92419,1.128,-0.986267,3.03314,-0.477102,-0.514681,4.23819,-17.9927,-0.636146,-12.0538,39.854,1.84828,1.10186,17.7532,-1.37406,2.8742,7.15625e-15,-1.27222e-14,-33.932,-2.22888,-72.5816,46.2791,18.0505,-20.0907,1.23866,7.12502,6.25222,-28.6491,7.15625e-15,-1.27222e-14,-32.102,10.4683,83.8356,32.5688,-7.26166,-12.4319,22.232,7.12502,13.6408,51.765,-16.1924,0.522422,23.1496,31.4599,-21.7408,-2.28378,14.1809,-25.1826,5.40699,-22.0878,45.3813,-12.3258,1.53502,-14.4722
6.91326,17.7904,1.68024,-2.14852,-72.7878,10.4329,3.05328,-0.897317,-2.1654,1.22418,-1.26869,3.24401,-0.333121,-0.663009,4.60195,-17.7346,-0.408918,-12.4032,39.894,2.3387,0.89882,17.6725,-1.26982,2.92805,2.62396e-14,-3.18055e-14,-33.4427,-0.896524,-72.6157,46.6551,17.6236,-19.8949,1.24064,7.12502,6.44126,-28.6414,2.62396e-14,-3.18055e-14,-32.3883,11.2183,83.9041,32.9695,-7.19138,-12.2842,22.046,7.12502,13.7831,51.5694,-16.2207,0.381332,23.0951,31.4505,-21.576,-2.22261,13.3766,-25.667,5.41583,-22.2098,45.6511,-12.259,1.17193,-15.9216
6.91231,17.7833,1.6766,-2.03336,-72.8445,10.3844,3.13922,-1.02252,-2.32613,1.29337,-1.44426,3.39134,-0.285005,-0.755415,4.85331,-17.5573,-0.311541,-12.6102,39.9493,2.56556,0.76717,17.6437,-1.23791,2.94192,6.95746e-15,2.8625e-14,-33.0122,-0.208077,-72.622,46.9446,17.4042,-19.7268,1.46217,7.12502,6.60357,-28.4149,6.95746e-15,2.8625e-14,-32.5985,11.5861,83.9609,33.3784,-7.17899,-12.0966,21.8309,7.12502,13.9639,51.3419,-16.2947,0.330584,23.15,31.4572,-21.5826,-2.20397,12.6303,-26.2483,5.44646,-22.227,45.8352,-12.1244,0.811235,-18.8933
6.90378,17.7806,1.67942,-1.80338,-73.0042,10.2069,3.13495,-0.983161,-2.25538,1.4045,-1.39338,3.42239,-0.174424,-0.734668,4.84237,-17.4304,-0.335775,-12.789,40.0764,2.54784,0.786271,17.6859,-1.28156,2.97759,-2.48481e-14,1.59028e-15,-32.6443,-0.281916,-72.5947,47.1352,17.6268,-19.7253,1.59889,7.12502,6.60501,-28.2781,-2.48481e-14,1.59028e-15,-32.6764,11.454,84.0817,33.7478,-7.04896,-12.144,21.6155,7.12502,13.9182,51.1297,-16.3344,0.405328,23.2191,31.4582,-21.5708,-2.17222,11.9679,-26.7613,5.48892,-22.1926,45.9213,-11.9789,0.278401,-19.7257
6.89255,17.7798,1.6835,-1.87989,-73.1678,10.3231,3.15257,-0.915643,-2.22737,1.51703,-1.30554,3.38718,-0.078923,-0.694474,4.78614,-17.2731,-0.32711,-12.8366,40.127,2.55702,0.740663,17.6755,-1.29598,2.96447,-2.54444e-14,7.95139e-15,-32.3804,-0.160699,-72.6497,47.4033,17.575,-19.7898,1.47214,7.12502,6.54278,-28.4068,-2.54444e-14,7.95139e-15,-32.6936,11.1184,84.1955,34.0528,-6.83847,-12.3463,21.6546,7.12502,13.7233,51.182,-16.346,0.446703,23.198,31.4524,-21.5629,-2.12526,11.7879,-27.1908,5.46895,-22.2683,45.8964,-11.6275,-0.184722,-20.0843
6.88239,17.78,1.68748,-1.87082,-73.2877,10.3667,3.17351,-0.855232,-2.14746,1.6357,-1.22567,3.31613,0.0199814,-0.657714,4.66333,-17.1132,-0.351996,-12.7781,40.0616,2.4955,0.657891,17.6062,-1.31693,2.90143,-8.74653e-15,-4.77083e-15,-32.1833,0.0864711,-72.759,47.7944,17.3669,-20.0459,1.30305,7.12502,6.2955,-28.5834,-8.74653e-15,-4.77083e-15,-32.6763,10.7369,84.237,34.3502,-6.73541,-12.5221,21.642,7.12502,13.5538,51.1808,-16.3615,0.621346,23.1806,31.4446,-21.6095,-2.05436,12.4693,-27.6193,5.28882,-22.3305,45.7455,-11.1031,-0.353545,-21.2539
6.86936,17.7836,1.6914,-1.89508,-73.4387,10.4512,3.1498,-0.804936,-2.14187,1.77009,-1.1616,3.26739,0.164043,-0.630567,4.60566,-17.005,-0.374386,-12.7736,40.0197,2.43736,0.650452,17.5601,-1.33621,2.88452,5.52621e-14,6.36111e-15,-31.9206,0.178285,-72.8383,48.1319,17.4729,-20.3567,1.49821,7.12502,5.99549,-28.397,5.52621e-14,6.36111e-15,-32.6728,10.5693,84.2252,34.5934,-6.81833,-12.6323,21.558,7.12502,13.4476,51.1039,-16.3735,0.730479,23.1798,31.4306,-21.5274,-2.0916,12.4561,-28.0406,5.2194,-22.3862,45.4754,-10.5542,-0.578306,-21.8849
6.85358,17.7893,1.6977,-1.81882,-73.6473,10.4429,3.12966,-0.777855,-2.15882,1.86658,-1.12897,3.28462,0.272193,-0.618706,4.63107,-16.9646,-0.348274,-12.8459,40.102,2.4957,0.627853,17.5925,-1.33509,2.89736,5.68524e-14,4.77083e-15,-31.6828,0.517996,-72.8975,48.4562,17.5055,-20.5876,1.61863,7.12502,5.77248,-28.2827,5.68524e-14,4.77083e-15,-32.7382,10.4884,84.269,34.8183,-6.73382,-12.5939,21.5807,7.12502,13.4847,51.1241,-16.3749,0.637049,23.2143,31.3796,-21.3748,-2.02861,12.0515,-28.4266,5.24192,-22.4411,45.1203,-9.86966,-0.86939,-21.8738
6.83901,17.7947,1.70439,-1.83952,-73.7896,10.5292,3.18246,-0.752228,-2.09655,1.92946,-1.0949,3.22607,0.30148,-0.602416,4.5341,-16.8932,-0.335425,-12.8283,40.1532,2.50024,0.596103,17.604,-1.33995,2.87987,-3.97569e-16,6.36111e-15,-31.5711,0.860683,-73.0086,48.8313,17.4266,-20.8323,1.64124,7.12502,5.53627,-28.2664,-3.97569e-16,6.36111e-15,-32.7837,10.305,84.2455,34.9883,-6.51143,-12.0939,21.5526,7.12502,13.9666,51.0634,-16.3427,0.625285,23.1789,31.3019,-21.3789,-1.90755,11.8652,-28.7766,5.12289,-22.5174,44.6877,-9.11376,-1.22112,-21.182
6.82533,17.7964,1.70836,-2.02236,-73.8644,10.7929,3.25825,-0.73991,-2.09194,1.978,-1.07923,3.14012,0.305592,-0.594653,4.44242,-16.6653,-0.286946,-12.8358,40.0541,2.51795,0.620964,17.4845,-1.32085,2.89165,-3.57812e-14,-3.18055e-15,-31.4393,1.06178,-73.132,49.1499,17.3943,-20.6777,1.68308,7.12502,5.68557,-28.2206,-3.57812e-14,-3.18055e-15,-32.7985,10.3061,84.1083,35.0585,-6.41333,-11.4482,21.3525,7.12502,14.5887,50.8194,-16.3082,0.792783,23.0711,31.2087,-21.4851,-1.77256,12.1776,-29.1445,4.92539,-22.6085,44.201,-8.65608,-1.29777,-21.0367
6.81009,17.7951,1.7123,-2.01403,-73.9497,10.9565,3.24572,-0.723498,-2.15159,1.98306,-1.05826,3.10535,0.316326,-0.584449,4.43928,-16.4323,-0.225269,-12.8911,39.9844,2.55146,0.693304,17.3773,-1.29843,2.93648,3.93594e-14,-1.11319e-14,-31.3391,1.30879,-73.2243,49.4754,17.3559,-20.2458,1.58506,7.12502,6.10248,-28.3071,3.93594e-14,-1.11319e-14,-32.8865,10.1865,84.0495,35.1351,-6.34352,-11.095,21.3336,7.12502,14.929,50.7756,-16.3847,0.83572,23.0115,31.115,-21.4295,-1.56957,12.5523,-29.6116,4.80436,-22.6888,43.639,-8.49788,-0.987549,-22.0386
6.79221,17.7927,1.71837,-1.85404,-74.1011,10.8867,3.28116,-0.649646,-2.09242,2.01783,-0.959367,3.0789,0.321441,-0.534987,4.37578,-16.295,-0.217677,-12.9482,39.9966,2.55244,0.690031,17.3493,-1.30764,2.94315,3.4191e-14,-2.22639e-14,-31.2832,1.51269,-73.255,49.7979,17.4001,-20.2263,1.50919,7.12502,6.12133,-28.3824,3.4191e-14,-2.22639e-14,-32.9653,9.81409,84.1182,35.2135,-6.24691,-11.087,21.5004,7.12502,14.9367,50.9418,-16.383,0.867457,23.0394,31.0225,-21.3113,-1.40929,13.165,-29.9497,4.66687,-22.7162,43.0195,-8.57838,-0.554132,-22.2519
6.77148,17.7919,1.72781,-1.79794,-74.3082,10.8572,3.29726,-0.588998,-1.96257,2.11151,-0.877569,3.01506,0.39792,-0.495487,4.23294,-16.1933,-0.179313,-12.925,39.9657,2.60835,0.619611,17.3034,-1.28847,2.91504,-4.33351e-14,2.06736e-14,-31.1555,1.9102,-73.3228,50.1436,17.2653,-20.2717,1.67227,7.12502,6.07747,-28.2206,-4.33351e-14,2.06736e-14,-32.9762,9.67157,84.0813,35.2148,-6.17786,-11.1328,21.5596,7.12502,14.8926,51.0043,-16.3074,0.933674,23.0541,30.9563,-21.2205,-1.31626,13.3235,-30.1306,4.45496,-22.7259,42.3163,-8.84624,-0.131837,-20.4791
6.75327,17.7906,1.73521,-1.42314,-74.4432,10.551,3.35466,-0.526178,-1.80695,2.15412,-0.791234,2.96876,0.398845,-0.451258,4.09465,-16.0618,-0.166561,-12.818,39.9012,2.59709,0.534704,17.2377,-1.28229,2.85322,2.74323e-14,-1.59028e-14,-31.062,2.17058,-73.3734,50.4789,17.1571,-20.2164,1.90257,7.12502,6.13089,-27.9887,2.74323e-14,-1.59028e-14,-32.9754,9.51652,84.038,35.1442,-6.1581,-11.2319,21.6261,7.12502,14.7971,51.0778,-16.2894,0.988594,23.1504,30.8952,-21.2458,-1.21473,13.6231,-30.4007,4.32878,-22.67,41.5393,-8.9869,0.210311,-18.6645
6.73567,17.7946,1.74214,-1.24455,-74.4899,10.5261,3.38545,-0.469427,-1.82571,2.15686,-0.716586,2.98976,0.378698,-0.414072,4.12541,-15.9649,-0.219754,-12.8953,39.8787,2.53546,0.498362,17.2093,-1.32144,2.83721,2.5842e-14,-2.70347e-14,-30.9872,2.31555,-73.2981,50.7684,17.2772,-20.4205,1.85914,7.12502,5.93384,-28.0378,2.5842e-14,-2.70347e-14,-32.9493,9.4175,84.1276,34.9998,-6.22822,-11.3951,21.6018,7.12502,14.6398,51.065,-16.3534,0.916758,23.1635,30.8301,-21.1711,-1.08565,14.0743,-30.7614,4.22707,-22.7432,40.6879,-8.98704,0.594427,-18.1578
6.71296,17.8016,1.75472,-1.33565,-74.5892,10.7484,3.38059,-0.448746,-1.91892,2.18181,-0.692905,3.04686,0.407183,-0.404813,4.23682,-15.9161,-0.20911,-13.0913,39.8746,2.61774,0.469408,17.1905,-1.32194,2.87134,4.41302e-14,-2.06736e-14,-30.8687,2.85928,-73.239,51.0407,17.0338,-20.9235,1.92577,7.12502,5.44818,-27.9842,4.41302e-14,-2.06736e-14,-32.9516,9.53175,84.192,34.8909,-6.23271,-11.4114,21.3803,7.12502,14.6242,50.8447,-16.3628,0.715707,23.1182,30.7447,-20.9879,-1.00464,13.5985,-31.025,4.10274,-22.9024,39.8032,-8.99953,1.0954,-18.4774
6.6861,17.8063,1.76806,-1.09663,-74.7616,10.5862,3.38777,-0.382886,-1.81685,2.21156,-0.603493,3.032,0.424439,-0.359845,4.16084,-15.8614,-0.172517,-13.1637,39.8992,2.65867,0.538338,17.1829,-1.30775,2.92231,-7.95139e-16,-3.49861e-14,-30.8413,3.48967,-73.4067,51.3989,16.1305,-21.3409,1.93037,7.12502,5.04518,-27.9896,-7.95139e-16,-3.49861e-14,-33.008,9.53325,84.1294,34.8468,-6.09611,-11.3923,21.2101,7.12502,14.6426,50.6731,-16.319,0.629031,23.1644,30.645,-20.8861,-0.893222,13.9414,-31.2374,3.99409,-22.9449,38.9058,-8.94678,1.65003,-19.0228
6.66046,17.8081,1.7754,-0.877219,-74.8959,10.427,3.45088,-0.313768,-1.72286,2.25664,-0.509878,2.95779,0.425613,-0.312164,4.02811,-15.8476,-0.158916,-13.0417,39.8967,2.64936,0.504931,17.1792,-1.29639,2.88464,-5.1684e-15,-2.70347e-14,-30.762,3.75444,-73.6205,51.7167,15.7018,-21.5263,1.7038,7.12502,4.86614,-28.2203,-5.1684e-15,-2.70347e-14,-32.9589,9.53564,83.9759,34.6457,-6.15672,-11.4127,21.1091,7.12502,14.6229,50.5736,-16.2473,0.677094,23.2046,30.5061,-20.9595,-0.773892,15.2825,-31.4471,3.93504,-22.9704,38.0091,-8.92253,1.91107,-18.5171
6.63643,17.8056,1.78145,-0.839141,-74.9206,10.4937,3.49823,-0.311053,-1.79285,2.2856,-0.509316,2.96202,0.429682,-0.313356,4.07252,-15.829,-0.152199,-13.004,39.8729,2.71767,0.312216,17.165,-1.28893,2.80152,-2.5842e-14,-1.98785e-14,-30.5287,3.78946,-73.5033,51.7833,16.1754,-21.5979,2.38842,7.12502,4.79707,-27.5373,-2.5842e-14,-1.98785e-14,-32.8854,9.77123,83.8956,34.3156,-6.46619,-11.5392,20.9755,7.12502,14.5011,50.4487,-16.2038,0.673184,23.1887,30.3708,-21.1111,-0.78789,14.6423,-31.6592,3.95144,-23.0792,37.0794,-8.94794,1.83778,-16.4333
6.60411,17.8004,1.7968,-0.274907,-75.03,10.0225,3.42049,-0.31918,-1.68699,2.32286,-0.519795,3.04741,0.512201,-0.320745,4.10066,-15.771,-0.105539,-13.1386,39.8229,2.86585,0.19697,17.1161,-1.26217,2.79654,3.89618e-14,4.77083e-15,-30.3116,4.16445,-73.3392,51.8878,16.4144,-21.8794,2.8997,7.12502,4.52523,-27.032,3.89618e-14,4.77083e-15,-32.9309,10.0867,83.8852,34.1119,-6.81599,-11.5618,21.104,7.12502,14.4792,50.5789,-16.137,0.779376,23.2644,30.2623,-21.2713,-0.546573,13.9983,-31.8297,3.79665,-22.9942,36.0923,-9.03994,2.1361,-13.4886
6.57462,17.7942,1.81007,0.254556,-75.1293,9.55541,3.41865,-0.273464,-1.50316,2.36598,-0.455715,3.02391,0.550153,-0.287929,3.96999,-15.7214,-0.112933,-13.1527,39.8153,2.84599,0.203635,17.1009,-1.26991,2.79787,2.34566e-14,8.74653e-15,-30.2327,4.49967,-73.3605,52.1563,16.3837,-22.1949,2.63549,7.12502,4.22052,-27.3024,2.34566e-14,8.74653e-15,-32.932,10.0974,83.7929,33.9259,-7.01883,-11.487,21.4056,7.12502,14.5513,50.8753,-16.0621,0.897435,23.3535,30.1865,-21.3615,-0.339794,13.9097,-31.9496,3.42748,-22.8684,35.0186,-9.13486,2.90535,-12.8922
6.54821,17.7898,1.82292,0.144218,-75.1513,9.76088,3.47372,-0.21125,-1.43868,2.39381,-0.370186,2.88902,0.539364,-0.243014,3.79132,-15.729,-0.165166,-13.0175,39.8703,2.73648,0.167574,17.1446,-1.30259,2.73987,6.75868e-14,2.14687e-14,-30.1068,4.39062,-73.3975,52.3233,16.6472,-22.3829,2.36647,7.12502,4.03903,-27.575,6.75868e-14,2.14687e-14,-32.841,10.034,83.6277,33.6559,-7.15608,-11.4549,21.3851,7.12502,14.5823,50.8525,-16.03,0.757918,23.2924,30.1251,-21.3837,-0.195173,13.6572,-32.0567,3.15647,-22.982,33.8772,-9.12029,3.47582,-13.7902
6.51713,17.7882,1.83611,-0.0838925,-75.1674,10.0364,3.5283,-0.186737,-1.46781,2.44927,-0.339323,2.82385,0.563197,-0.228503,3.73957,-15.7348,-0.168472,-12.958,39.8817,2.74449,0.0868242,17.1557,-1.30233,2.6946,1.74931e-14,-2.94201e-14,-29.8567,4.31671,-73.3785,52.3568,16.9787,-22.726,2.2945,7.12502,3.70766,-27.653,1.74931e-14,-2.94201e-14,-32.7947,10.2382,83.4679,33.4205,-7.38742,-11.3886,21.386,7.12502,14.6461,50.8487,-15.9137,0.669644,23.2095,30.0728,-21.4803,-0.0885609,13.5108,-32.092,3.0787,-23.1461,32.7085,-9.00663,3.54706,-13.4189
6.48478,17.7858,1.84468,0.103485,-75.1578,9.98188,3.51475,-0.168576,-1.48557,2.44888,-0.315185,2.80863,0.568536,-0.216423,3.73305,-15.6753,-0.186333,-12.9907,39.8906,2.70789,0.103556,17.1483,-1.31981,2.70072,3.73715e-14,-2.38542e-15,-29.6841,4.43648,-73.3443,52.3957,17.2095,-23.1264,2.18975,7.12502,3.32105,-27.7641,3.73715e-14,-2.38542e-15,-32.7347,10.1478,83.4262,33.0933,-7.25078,-11.5049,21.4929,7.12502,14.5341,50.9638,-15.8867,0.790166,23.2165,30.0013,-21.6084,-0.108541,13.9522,-32.2625,3.04567,-23.2547,31.584,-8.83934,3.48762,-13.0761
6.44983,17.7832,1.85404,0.718962,-75.1609,9.40789,3.59646,-0.150734,-1.40684,2.4509,-0.290291,2.83351,0.522704,-0.203009,3.71403,-15.647,-0.19437,-12.9154,39.9696,2.69567,0.0115924,17.1905,-1.33353,2.64374,-1.43125e-14,2.62396e-14,-29.5459,4.72305,-73.2858,52.4674,17.3479,-23.2863,2.151,7.12502,3.16664,-27.8052,-1.43125e-14,2.62396e-14,-32.6833,10.0611,83.3916,32.7337,-7.04108,-11.7575,21.5164,7.12502,14.2907,51.0046,-15.7737,0.884178,23.3735,29.921,-21.6701,-0.153141,13.5844,-32.3531,3.07915,-23.2479,30.4873,-8.65154,3.51318,-13.8785
6.4115,17.7801,1.87258,1.43987,-75.1826,8.68521,3.62959,-0.188473,-1.25995,2.49063,-0.339798,2.91303,0.54835,-0.228569,3.71495,-15.6962,-0.155826,-12.9517,40.0713,2.81834,-0.108875,17.2561,-1.31729,2.61752,3.97569e-16,-9.54166e-15,-29.3405,5.16647,-73.2141,52.5624,17.3429,-23.3871,2.35684,7.12502,3.06927,-27.6008,3.97569e-16,-9.54166e-15,-32.7066,10.427,83.2812,32.464,-7.29761,-11.6955,21.5561,7.12502,14.3504,51.0401,-15.6128,0.7357,23.5769,29.847,-21.5983,-0.0363973,13.5973,-32.3867,3.05057,-23.2043,29.4024,-8.37637,3.61173,-14.8521
6.38065,17.7816,1.88501,1.84887,-75.1323,8.37933,3.67119,-0.261427,-1.2807,2.49425,-0.439138,2.99619,0.537271,-0.279738,3.81633,-15.7218,-0.0888729,-13.0843,40.106,2.997,-0.184907,17.2716,-1.28076,2.63733,-5.96354e-15,2.38542e-15,-29.0757,5.5092,-73.0904,52.6396,17.38,-23.6504,2.55565,7.12502,2.81503,-27.4055,-5.96354e-15,2.38542e-15,-32.6875,10.6421,83.2725,32.1898,-7.21144,-11.7254,21.6606,7.12502,14.3217,51.1466,-15.5794,0.442941,23.6874,29.7707,-21.4591,0.164607,15.2536,-32.557,2.94776,-23.2508,28.3424,-7.89143,3.55186,-16.9122
6.34375,17.7806,1.89834,1.85856,-75.1869,8.32406,3.80638,-0.230231,-1.31425,2.56723,-0.401508,2.99917,0.534286,-0.263004,3.8381,-15.7141,-0.0775657,-13.1213,40.1068,3.04242,-0.228131,17.2689,-1.27389,2.63195,-1.15295e-14,-4.37326e-14,-28.832,5.57709,-72.959,52.6637,17.607,-23.8561,2.46639,7.12502,2.61636,-27.4973,-1.15295e-14,-4.37326e-14,-32.6307,10.3782,83.4256,31.9866,-6.4467,-12.3869,21.8439,7.12502,13.6842,51.374,-15.3537,0.243966,23.6664,29.6825,-21.5446,0.553524,15.907,-32.5316,3.09058,-23.433,27.3242,-7.52882,3.50005,-20.3531
6.30149,17.7728,1.91384,2.22432,-75.2434,7.88411,3.88226,-0.146687,-1.15841,2.64338,-0.288302,2.95253,0.56016,-0.205917,3.6981,-15.591,-0.122028,-13.0812,40.0928,2.93548,-0.229355,17.2389,-1.30799,2.60413,2.54444e-14,-2.62396e-14,-28.711,5.45442,-72.9437,52.7013,17.8094,-24.2175,2.30951,7.12502,2.26727,-27.6582,2.54444e-14,-2.62396e-14,-32.577,10.6369,83.1503,31.6749,-7.56543,-11.0783,21.5628,7.12502,14.945,51.0036,-15.0691,0.338539,23.7234,29.5834,-21.8917,0.780896,15.4732,-32.4456,3.28925,-23.5333,26.3321,-7.32332,3.51492,-22.7495
6.25918,17.764,1.92997,2.94871,-75.2719,7.153,3.89266,-0.0923034,-0.912812,2.6881,-0.210234,2.90359,0.59306,-0.164571,3.5058,-15.5113,-0.131792,-13.0379,40.1321,2.86283,-0.164103,17.2426,-1.32327,2.61328,-1.19271e-15,1.74931e-14,-28.6845,5.4753,-72.9766,52.7833,17.795,-24.6186,2.22146,7.12502,1.87988,-27.75,-1.19271e-15,1.74931e-14,-32.4967,10.7558,82.8682,31.2886,-8.30618,-10.0678,21.2328,7.12502,15.9184,50.5986,-14.8516,0.572095,23.8947,29.4578,-22.0868,0.741632,15.4165,-32.4033,2.94175,-23.3632,25.3867,-7.22966,3.98703,-22.2418
6.21674,17.7618,1.94592,3.18968,-75.3676,6.98249,3.85595,-0.0556192,-0.892131,2.72197,-0.161881,2.87909,0.644887,-0.140934,3.46696,-15.5623,-0.122313,-13.138,40.2645,2.90094,-0.118432,17.3254,-1.32863,2.65962,-2.46493e-14,1.98785e-14,-28.5977,5.56928,-72.9408,52.811,17.8834,-24.9454,2.04423,7.12502,1.56432,-27.9298,-2.46493e-14,1.98785e-14,-32.4671,11.1279,82.5531,30.9376,-9.36792,-8.88286,20.834,7.12502,17.0592,50.105,-14.7054,0.668083,23.9224,29.3098,-22.1044,0.752725,15.2622,-32.4727,2.70203,-23.3712,24.5194,-7.43054,4.54017,-20.1294
6.17559,17.7639,1.96313,3.15733,-75.3644,7.14414,3.81,-0.0559746,-0.931968,2.71292,-0.162498,2.84581,0.661275,-0.141137,3.45485,-15.4612,-0.093882,-13.2179,40.2659,2.94891,-0.122423,17.2966,-1.32186,2.67854,5.32743e-14,-9.54166e-15,-28.3546,5.46322,-72.8762,52.6665,18.2389,-25.2872,1.95944,7.12502,1.23423,-28.0167,5.32743e-14,-9.54166e-15,-32.5044,11.252,82.4745,30.7459,-9.62284,-9.20802,21.0559,7.12502,16.7462,50.3537,-14.6165,0.54019,23.8449,29.1611,-22.1604,0.835142,15.1035,-32.6545,2.75339,-23.6067,23.7153,-7.39038,4.73314,-19.2905
6.1336,17.7663,1.98089,3.72446,-75.2658,6.68148,3.7468,-0.0667197,-0.791523,2.70838,-0.172716,2.82097,0.691829,-0.144269,3.3498,-15.2782,-0.0704327,-13.0596,40.186,2.93317,-0.228426,17.21,-1.31073,2.59735,-2.46493e-14,-3.97569e-15,-28.0663,5.47246,-72.8048,52.5208,18.3752,-25.4795,2.10094,7.12502,1.04841,-27.8762,-2.46493e-14,-3.97569e-15,-32.5066,10.5775,82.7789,30.7427,-7.75946,-11.4408,21.9895,7.12502,14.5958,51.4559,-14.5151,0.241333,23.9814,28.9981,-22.1991,0.721492,14.1112,-32.8344,2.78414,-23.6777,23.0079,-6.89544,4.75264,-20.1819
6.08658,17.7669,1.99732,4.67972,-75.2552,5.76567,3.65858,-0.0326437,-0.581165,2.76445,-0.124323,2.79141,0.794803,-0.118825,3.19862,-15.3218,-0.0881845,-12.8781,40.3101,2.8525,-0.228793,17.2963,-1.32578,2.55346,-7.55382e-15,-7.95139e-16,-27.8591,5.46538,-72.8021,52.4562,18.4909,-25.6102,2.19348,7.12502,0.92221,-27.7843,-7.55382e-15,-7.95139e-16,-32.4258,10.7109,82.4601,30.5491,-8.33982,-10.5915,21.7924,7.12502,15.414,51.1978,-14.3147,-0.0816707,24.2709,28.7649,-22.0245,0.604565,12.8508,-32.9958,2.77611,-23.5447,22.5102,-6.41535,4.80333,-20.3011
6.03722,17.7663,2.01993,6.01537,-75.3276,4.54783,3.46201,0.0239834,-0.261352,2.80365,-0.0453699,2.81668,0.93972,-0.0770391,3.04166,-15.4125,-0.12881,-12.9576,40.4885,2.7792,-0.0927308,17.4209,-1.36336,2.61899,-1.94809e-14,6.36111e-15,-27.6544,5.37411,-72.7036,52.3613,18.8241,-25.7425,2.29422,7.12502,0.794434,-27.684,-1.94809e-14,6.36111e-15,-32.3416,10.732,82.3498,30.3504,-8.6068,-10.148,21.4921,7.12502,15.8411,50.8641,-14.1575,-0.324975,24.586,28.4494,-21.6947,0.66221,11.3456,-33.3087,2.66714,-23.2874,22.2249,-6.11004,5.06806,-20.1936
5.99312,17.7623,2.04437,8.596,-75.2544,2.33733,3.0561,0.0358293,0.379259,2.71454,-0.0209303,2.90887,1.0734,-0.056258,2.7746,-15.3398,-0.149263,-12.924,40.5145,2.75875,-0.193375,17.4243,-1.38287,2.56229,-2.14687e-14,-7.15625e-15,-27.5035,5.35474,-72.6266,52.2646,19.0715,-26.2415,2.14009,7.12502,0.312497,-27.8394,-2.14687e-14,-7.15625e-15,-32.2837,10.4528,82.3566,30.1524,-8.49253,-10.0743,21.4337,7.12502,15.9121,50.8,-14.2837,-0.363158,25.1675,28.1114,-21.5515,0.712932,10.4663,-34.0185,2.53384,-22.7958,22.0627,-5.78783,5.48575,-20.1801
5.94449,17.7553,2.06741,10.2787,-75.1709,0.769579,2.90477,0.0536846,0.843411,2.69175,0.00766601,2.92726,1.13346,-0.0354783,2.53161,-15.2674,-0.159398,-12.8219,40.5881,2.72158,-0.273792,17.4542,-1.39977,2.50042,-7.95139e-16,2.46493e-14,-27.401,5.39584,-72.6929,52.2289,19.0405,-27.1018,1.35972,7.12502,-0.518415,-28.6194,-7.95139e-16,2.46493e-14,-32.2633,10.0544,82.3653,30.0117,-8.17043,-10.4965,21.7395,7.12502,15.5055,51.1377,-14.1077,-0.291393,25.5542,27.7982,-21.7302,0.953534,12.1455,-34.3569,1.95875,-22.2603,21.9681,-5.54468,6.47667,-19.2401
5.89297,17.7441,2.09429,10.6924,-75.2082,0.31541,2.90462,0.0911309,0.952288,2.73324,0.0565543,2.94464,1.17454,-0.0104126,2.48752,-15.2281,-0.162008,-12.9474,40.6918,2.7331,-0.238284,17.5018,-1.4185,2.54025,3.77691e-14,-1.66979e-14,-27.2481,5.39627,-72.5372,52.0562,19.3829,-27.609,1.23046,7.12502,-1.00825,-28.7469,3.77691e-14,-1.66979e-14,-32.2792,10.0834,82.3859,29.8477,-8.20868,-10.679,21.8197,7.12502,15.3297,51.2315,-13.7886,-0.496146,25.6196,27.5584,-21.631,1.17415,11.5082,-34.3705,1.12613,-21.917,21.8698,-5.72034,8.03728,-18.0117
5.84201,17.7334,2.11872,11.338,-75.1827,-0.221573,2.7292,0.113765,1.05863,2.7473,0.0827386,2.95849,1.28645,0.00391114,2.4418,-15.2023,-0.181162,-12.919,40.7227,2.73727,-0.363907,17.5196,-1.43304,2.47771,1.59028e-14,7.95139e-15,-27.06,5.11724,-72.3544,51.7605,20.1944,-27.7392,1.88857,7.12502,-1.13405,-28.0882,1.59028e-14,7.95139e-15,-32.3024,10.2939,82.2659,29.725,-8.61664,-10.3664,21.5849,7.12502,15.6308,50.9734,-13.6958,-0.677551,25.7386,27.4723,-21.411,1.08678,8.59555,-34.4897,0.907019,-21.8048,21.6603,-6.10582,9.0726,-17.0023
5.78728,17.7283,2.13816,11.6907,-75.2811,-0.499312,2.60534,0.149321,1.03087,2.76209,0.12693,2.91984,1.36939,0.0261427,2.41716,-15.1739,-0.181257,-12.9088,40.7697,2.73768,-0.396473,17.5409,-1.44046,2.46057,1.86858e-14,-1.66979e-14,-26.9348,4.97032,-72.3767,51.6222,20.7266,-28.1548,1.57517,7.12502,-1.53542,-28.399,1.86858e-14,-1.66979e-14,-32.3498,10.5526,82.0665,29.638,-8.9215,-10.2845,21.5267,7.12502,15.7096,50.9091,-13.598,-0.419243,25.7804,27.5474,-21.5422,1.01311,8.54899,-34.4768,1.09387,-21.8993,21.3482,-6.17331,9.66366,-16.4091
5.73577,17.7258,2.16461,10.9902,-75.6583,0.248513,2.64787,0.239303,0.778743,2.73923,0.249548,2.7825,1.31687,0.0862469,2.4153,-15.0545,-0.150628,-12.9448,40.8192,2.77655,-0.426526,17.5366,-1.44007,2.45798,5.96354e-15,1.90833e-14,-26.9737,5.31772,-72.4503,51.6833,20.6267,-28.9536,0.527579,7.12502,-2.30688,-29.4397,5.96354e-15,1.90833e-14,-32.4485,10.6402,81.9269,29.551,-8.94613,-10.4686,21.6124,7.12502,15.5324,51.0086,-13.5176,-0.209187,25.4958,27.699,-21.7299,1.35715,10.6894,-34.327,1.1254,-22.193,21.0563,-6.02619,10.4178,-16.3604
5.67344,17.7192,2.17363,10.1729,-75.7758,1.51659,2.18219,0.286104,0.188968,2.64364,0.306077,2.6615,1.47461,0.108908,2.62326,-14.9751,-0.1561,-12.8339,40.8877,2.7571,-0.54651,17.5626,-1.45414,2.37885,1.07344e-14,-1.51076e-14,-26.9875,5.39834,-72.4695,51.5998,20.7321,-29.7315,-0.0304664,7.12502,-3.05813,-29.9883,1.07344e-14,-1.51076e-14,-32.4724,10.3868,81.8493,29.5242,-8.61833,-10.5685,21.5803,7.12502,15.4361,50.9839,-13.7829,-0.185796,25.1305,27.7781,-21.9756,1.63373,11.9447,-34.6614,1.4298,-22.8213,20.9535,-5.73054,10.4711,-16.9278
5.61339,17.7055,2.18964,9.80508,-75.7707,1.99338,2.02298,0.301349,-0.122923,2.64825,0.323569,2.62415,1.56636,0.112983,2.76109,-14.9418,-0.185083,-12.8422,40.9737,2.73014,-0.61207,17.6101,-1.48353,2.34444,1.53064e-14,-3.97569e-15,-26.8849,5.20847,-72.3938,51.3427,21.1887,-30.2637,-0.0959321,7.12502,-3.57207,-30.0457,1.53064e-14,-3.97569e-15,-32.4947,10.2195,81.8435,29.5556,-8.24181,-10.56,21.669,7.12502,15.4444,51.072,-13.689,-0.189727,24.989,27.8584,-22.2763,1.77075,12.2537,-34.6714,1.80049,-23.2616,20.9336,-5.31583,10.2788,-17.5268
5.56639,17.6949,2.23446,11.3273,-75.7652,-3.14213e-05,2.44443,0.366316,0.615137,2.78027,0.413887,2.67961,1.46633,0.167036,2.40035,-14.8906,-0.241039,-13.0729,41.0245,2.66377,-0.495254,17.6289,-1.53306,2.42588,-4.96962e-15,1.27222e-14,-26.8452,5.01397,-72.1671,51.1078,21.5824,-30.456,0.599452,7.12502,-3.75781,-29.3472,-4.96962e-15,1.27222e-14,-32.5133,10.2629,81.8727,29.5445,-8.30178,-10.5255,21.7678,7.12502,15.4775,51.1683,-13.0602,-0.669814,25.4614,27.8974,-22.2804,2.1321,11.5941,-34.1078,1.60973,-22.7297,21.0055,-5.08707,10.5185,-16.5426
5.49817,17.6882,2.24816,11.4427,-75.7253,0.112891,2.10671,0.409291,0.337341,2.74656,0.466097,2.64653,1.61693,0.189619,2.52417,-14.8534,-0.266762,-13.1462,41.0761,2.59508,-0.377514,17.6497,-1.55878,2.48084,2.10712e-14,3.97569e-15,-26.8405,4.64685,-71.9979,50.7646,22.1548,-30.497,1.67194,7.12502,-3.79743,-28.274,2.10712e-14,3.97569e-15,-32.5621,10.3826,81.7614,29.5414,-8.62929,-10.6486,21.8075,7.12502,15.359,51.217,-13.0794,-0.723858,25.4286,27.9516,-22.3305,2.14652,11.5569,-34.1883,1.25865,-22.6664,21.142,-4.99198,10.4722,-14.4147
5.4469,17.6851,2.28699,11.1002,-75.8276,0.268629,2.37657,0.46001,0.423889,2.76791,0.541363,2.49145,1.48646,0.231086,2.31297,-14.7766,-0.259837,-13.0571,41.0955,2.55572,-0.36885,17.6423,-1.56076,2.46183,1.55052e-14,1.35174e-14,-26.8527,4.28373,-71.959,50.4251,22.7231,-30.826,2.14449,7.12502,-4.11511,-27.7955,1.55052e-14,1.35174e-14,-32.6759,10.4176,81.6196,29.5884,-8.69229,-10.9627,21.9585,7.12502,15.0564,51.391,-12.6655,-0.762949,25.2967,28.013,-22.2887,2.37168,12.117,-33.8098,1.21279,-22.7568,21.3072,-4.72154,10.1552,-13.3248
5.37143,17.681,2.29254,11.148,-75.7435,0.51457,1.96227,0.438032,-0.051911,2.68742,0.507183,2.5022,1.63306,0.207097,2.59483,-14.7508,-0.239849,-13.0131,41.2228,2.56996,-0.394678,17.709,-1.56412,2.44437,2.54444e-14,-9.54166e-15,-26.8978,4.29287,-71.9612,50.2385,22.9801,-31.3473,2.24537,7.12502,-4.61847,-27.6843,2.54444e-14,-9.54166e-15,-32.7796,10.4001,81.5276,29.6185,-8.61129,-11.0734,21.996,7.12502,14.9497,51.4365,-12.755,-0.445721,25.2819,28.1494,-22.5278,2.04686,12.2489,-33.9142,1.38096,-23.0058,21.372,-3.91259,9.31185,-13.0517
5.31054,17.6761,2.31963,11.0125,-75.7996,0.725767,1.88598,0.457365,-0.181789,2.65312,0.535101,2.42508,1.63873,0.220721,2.58866,-14.7591,-0.210593,-12.9544,41.3673,2.61573,-0.455358,17.7941,-1.55898,2.41413,-3.49861e-14,-1.43125e-14,-27.002,4.43861,-72.012,50.1937,23.2065,-32.1541,1.35523,7.12502,-5.39756,-28.556,-3.49861e-14,-1.43125e-14,-32.8938,10.3713,81.4281,29.7138,-8.55319,-11.0541,22.0716,7.12502,14.9684,51.5107,-12.6227,-0.364084,25.1867,28.2438,-22.6231,2.02518,12.2271,-33.829,1.47582,-23.1663,21.5,-3.13369,8.50712,-10.9943
5.24798,17.6781,2.34931,10.9472,-75.8957,0.715336,1.89631,0.538416,-0.186488,2.6973,0.644969,2.2895,1.67448,0.276861,2.45128,-14.6629,-0.19253,-12.8511,41.3671,2.58262,-0.433969,17.7685,-1.55147,2.39981,2.10712e-14,1.19271e-14,-27.1293,4.55828,-72.1552,50.2358,23.3171,-33.1023,-0.652425,7.12502,-6.313,-30.5384,2.10712e-14,1.19271e-14,-32.8656,9.92855,81.4,29.7959,-8.08147,-11.05,22.1333,7.12502,14.9724,51.572,-12.3088,-0.27127,25.1088,28.2956,-22.6607,2.15857,12.8202,-33.6651,1.60718,-23.2227,21.6983,-2.48341,7.82901,-8.18232
5.1803,17.6816,2.37912,10.7275,-75.9924,0.886932,1.8554,0.631231,-0.246374,2.7382,0.771389,2.10334,1.73535,0.341067,2.2935,-14.5592,-0.194391,-12.6608,41.3403,2.48113,-0.38867,17.7288,-1.5515,2.36948,9.74045e-15,1.59028e-14,-27.2738,4.35334,-72.3176,50.126,23.5624,-33.731,-1.50946,7.12502,-6.91987,-31.3764,9.74045e-15,1.59028e-14,-32.733,9.44147,81.2867,29.7752,-7.66034,-11.064,22.1229,7.12502,14.9589,51.5627,-11.9981,-0.400451,25.0153,28.2952,-22.5383,2.1108,11.8097,-33.6079,1.8017,-23.3593,21.9782,-2.06005,7.40622,-6.94876
5.11356,17.6825,2.40234,10.3593,-76.0344,1.25744,1.83362,0.671564,-0.515465,2.73741,0.827174,1.98443,1.74234,0.366068,2.32242,-14.5491,-0.173104,-12.4604,41.3995,2.47717,-0.468431,17.7625,-1.53789,2.29702,-9.34288e-15,2.38542e-14,-27.3557,4.01405,-72.3888,49.7975,24.021,-34.2078,-1.33127,7.12502,-7.38015,-31.1826,-9.34288e-15,2.38542e-14,-32.6766,9.20529,81.1549,29.7088,-7.53731,-11.1192,22.081,7.12502,14.9056,51.5247,-11.7874,-0.245,24.9153,28.4141,-22.5164,1.83291,11.047,-33.5584,2.33099,-23.6824,22.1175,-1.69903,6.8779,-7.78503
5.06352,17.6816,2.4433,10.869,-76.0393,0.255445,2.43808,0.745908,-0.136855,2.83519,0.928334,1.92754,1.50627,0.423125,2.04319,-14.6323,-0.202742,-12.4254,41.5601,2.44713,-0.49498,17.8831,-1.5617,2.27404,-6.55989e-15,7.95139e-16,-27.4093,3.54167,-72.3539,49.4083,24.6619,-34.8322,-1.34054,7.12502,-7.98283,-31.1698,-6.55989e-15,7.95139e-16,-32.6312,9.13251,81.1213,29.6812,-7.57305,-11.2903,22.0757,7.12502,14.7408,51.5315,-11.1797,-0.152364,25.1086,28.6688,-22.5535,2.01432,12.3311,-32.9429,2.647,-23.5102,22.1204,-1.23277,6.68853,-8.77047
4.99503,17.6823,2.45355,8.91392,-75.9092,2.30046,2.39292,0.768606,-0.950435,2.85818,0.953452,1.77989,1.544,0.42354,2.34905,-14.7052,-0.265735,-12.4389,41.6608,2.36096,-0.465941,17.969,-1.60154,2.27542,5.76476e-15,5.56597e-15,-27.4464,3.23615,-72.293,49.0684,25.2197,-35.2576,-1.5032,7.12502,-8.39342,-31.3164,5.76476e-15,5.56597e-15,-32.5279,9.38726,81.0265,29.6928,-7.8356,-11.3841,21.9957,7.12502,14.6504,51.4582,-11.1773,-0.131132,24.5913,29.1221,-22.7319,2.01704,13.8663,-32.7447,2.81489,-24.1221,21.988,-0.605582,6.37507,-8.08872
4.9242,17.6836,2.46977,6.48793,-75.8165,4.50777,2.61958,0.737698,-1.78369,2.95593,0.901345,1.62959,1.51097,0.3833,2.66152,-14.7082,-0.248257,-12.4926,41.7118,2.40061,-0.453145,17.9968,-1.59723,2.2978,3.63776e-14,2.38542e-14,-27.4689,3.14639,-72.262,48.6766,25.7666,-35.5724,-1.30844,7.12502,-8.6972,-31.1093,3.63776e-14,2.38542e-14,-32.5221,9.77942,80.8654,29.705,-7.99818,-11.1748,21.9894,7.12502,14.8521,51.4371,-10.9024,-0.392477,24.0412,29.6833,-22.8006,1.71098,12.1948,-32.1402,3.06346,-24.7914,21.8314,-0.223806,6.08016,-6.74155
4.85502,17.6851,2.49299,4.92604,-75.7673,5.92612,2.7273,0.726564,-2.25485,3.03053,0.880309,1.4256,1.52564,0.365168,2.71609,-14.6261,-0.213935,-12.4757,41.6866,2.39517,-0.360603,17.9546,-1.58109,2.33676,-2.94201e-14,-2.38542e-15,-27.4423,2.55398,-72.2994,48.0407,26.6379,-35.9075,-0.386968,7.12502,-9.02057,-30.1741,-2.94201e-14,-2.38542e-15,-32.4789,9.92498,80.6105,29.7167,-8.02824,-11.0333,21.8866,7.12502,14.9884,51.3242,-10.7854,-0.542184,23.6693,30.3487,-22.7941,1.47002,10.7624,-31.6205,3.33399,-25.274,21.6884,-0.160119,5.72089,-6.04813
4.78838,17.6959,2.51947,4.74249,-75.7433,6.08816,2.71826,0.792171,-2.28253,3.04253,0.970427,1.22152,1.54005,0.411903,2.52028,-14.4602,-0.225619,-12.3012,41.6386,2.264,-0.297072,17.887,-1.5907,2.31158,-4.67144e-14,2.62396e-14,-27.5562,1.93425,-72.3616,47.4579,27.3114,-36.3777,0.282694,7.12502,-9.47428,-29.4843,-4.67144e-14,2.62396e-14,-32.3923,9.87738,80.3707,29.736,-8.15023,-11.3447,22.0003,7.12502,14.6884,51.46,-10.8133,-0.530693,23.5639,31.0075,-22.7117,1.69528,12.3991,-31.3694,3.45194,-25.3685,21.7948,-0.358373,5.3359,-6.5665
4.72341,17.7032,2.54435,4.92173,-75.7447,5.88489,2.74411,0.870474,-2.30922,3.03587,1.07539,1.11199,1.51385,0.465704,2.42044,-14.3023,-0.219027,-12.224,41.6434,2.19276,-0.23276,17.8492,-1.59667,2.31444,-2.32578e-14,1.31198e-14,-27.7643,1.93962,-72.4801,47.1867,27.4267,-36.6381,-0.627448,7.12502,-9.72544,-30.3829,-2.32578e-14,1.31198e-14,-32.3414,9.83972,80.2467,29.742,-8.34394,-11.2302,22.0613,7.12502,14.7987,51.5129,-10.9341,-0.792748,23.556,31.726,-22.4081,2.10567,13.569,-31.2018,3.47893,-25.3054,22.063,-0.657409,4.88227,-6.92656
4.66355,17.7008,2.56918,4.92502,-75.721,5.89655,2.78986,0.892309,-2.44153,3.02739,1.10246,1.04412,1.47702,0.478246,2.42369,-14.2679,-0.16472,-12.2015,41.688,2.26387,-0.235312,17.8597,-1.56841,2.322,-2.72335e-14,-6.75868e-15,-27.8357,1.92365,-72.5811,46.7751,27.6749,-36.7481,-1.2104,7.12502,-9.83164,-30.9609,-2.72335e-14,-6.75868e-15,-32.242,9.8053,80.1928,29.7214,-8.28369,-11.0465,21.9642,7.12502,14.9757,51.4027,-11.2364,-1.21678,23.5377,32.5646,-21.9028,2.24414,12.7258,-31.1201,3.62239,-25.3427,22.3752,-1.02758,4.45281,-5.72214
4.60468,17.7051,2.5997,4.83689,-75.6455,5.99122,2.82545,0.836794,-2.52303,3.02033,1.02725,0.978777,1.45424,0.440355,2.40291,-14.2413,-0.0766306,-12.1381,41.7389,2.42729,-0.378242,17.875,-1.51878,2.27267,-2.46493e-14,-5.96354e-15,-27.7999,1.8575,-72.6579,46.1533,28.1114,-37.0784,-1.42801,7.12502,-10.1503,-31.1632,-2.46493e-14,-5.96354e-15,-32.1825,9.96414,80.1247,29.6925,-8.06585,-11.3201,21.9187,7.12502,14.7121,51.3767,-11.5871,-1.51444,23.4457,33.579,-21.4562,2.36127,12.2581,-31.0101,3.75151,-25.4293,22.6651,-1.40809,4.31447,-4.55287
4.54489,17.7113,2.63031,4.78831,-75.5671,6.04347,2.82415,0.7965,-2.57601,3.02738,0.973484,0.917853,1.46571,0.41291,2.371,-14.1469,-0.0259189,-12.2007,41.7355,2.51331,-0.398364,17.8422,-1.49736,2.28823,3.20043e-14,8.34896e-15,-27.7706,1.84943,-72.7056,45.5479,28.4149,-37.3795,-1.93047,7.12502,-10.4407,-31.6512,3.20043e-14,8.34896e-15,-32.1182,10.1981,80.0562,29.7061,-7.95114,-11.2149,21.9827,7.12502,14.8135,51.4333,-12.0057,-1.77439,23.3638,34.7728,-21.0251,2.33709,11.0485,-30.8887,3.93609,-25.5442,22.8949,-1.67784,4.10277,-4.43726
4.48639,17.7132,2.65489,4.61669,-75.5008,6.27538,2.81515,0.591097,-2.917,3.00257,0.694062,1.03288,1.45791,0.266368,2.68577,-14.0971,0.188981,-12.5961,41.6702,2.96506,-0.423874,17.7566,-1.38133,2.42276,-2.8625e-14,-9.14409e-15,-27.5405,2.46294,-72.7242,44.9024,28.7882,-37.3962,-2.16655,7.12502,-10.4569,-31.8865,-2.8625e-14,-9.14409e-15,-32.2364,11.0838,79.9754,29.8106,-7.97901,-11.0354,22.0133,7.12502,14.9864,51.451,-12.5939,-2.14531,23.2833,36.1335,-20.448,2.22926,8.92877,-30.8065,4.19598,-25.7306,23.0294,-1.86403,3.67592,-4.28571
4.42527,17.7189,2.68036,4.77954,-75.5724,6.10677,2.81693,0.297862,-3.22853,2.9828,0.296042,1.26262,1.46266,0.0593133,3.10454,-14.173,0.533357,-13.1476,41.7214,3.72114,-0.551238,17.7514,-1.19714,2.58934,-1.88845e-15,3.97569e-16,-27.1871,3.64561,-72.8134,44.2249,29.0891,-37.6343,-2.64617,7.12502,-10.6865,-32.3544,-1.88845e-15,3.97569e-16,-32.5709,12.5132,79.8587,30.0008,-8.1205,-11.2478,22.0395,7.12502,14.7817,51.4924,-13.1826,-2.37162,23.2402,37.6281,-19.7693,2.38804,8.26276,-30.6015,4.43711,-25.7774,23.1046,-2.08391,3.39429,-4.43383
4.36205,17.7279,2.70957,5.00485,-75.6643,5.74946,2.87904,0.264139,-3.22783,3.03321,0.248275,1.25809,1.48357,0.0337408,3.10016,-14.225,0.619844,-13.3013,41.8476,3.91856,-0.575803,17.8243,-1.16085,2.63917,2.11706e-14,2.3059e-14,-27.1129,4.06977,-72.9655,43.6962,29.2275,-37.8312,-3.44292,7.12502,-10.8765,-33.1413,2.11706e-14,2.3059e-14,-32.5413,12.8054,79.8128,30.0659,-8.18146,-11.35,22.0327,7.12502,14.6833,51.4928,-13.6977,-2.49808,23.1783,39.2762,-19.0972,2.52048,7.92139,-30.2585,4.69564,-25.7865,23.2015,-2.33382,3.15689,-5.09469
4.30398,17.7415,2.73338,5.03629,-75.6563,5.72062,2.91395,0.338849,-3.23303,3.02836,0.348466,1.10335,1.45181,0.0862632,2.94155,-14.2844,0.576434,-13.0218,41.9978,3.85414,-0.771863,17.9481,-1.18449,2.48976,-2.97183e-14,3.18055e-15,-27.2387,3.77729,-73.0879,43.1968,29.708,-37.6059,-3.59325,7.12502,-10.6591,-33.3029,-2.97183e-14,3.18055e-15,-32.3287,12.3765,79.7791,30.0942,-8.08364,-11.3235,21.9492,7.12502,14.7088,51.4074,-14.4161,-2.20455,23.0721,41.0423,-18.6195,2.42119,8.34728,-30.114,5.06084,-25.9278,23.3301,-2.4883,2.72229,-5.31048
4.24896,17.7445,2.75801,4.99472,-75.5775,5.78018,2.98348,0.296285,-3.36336,3.00547,0.287842,1.05991,1.39387,0.0556136,2.97081,-14.3938,0.619423,-12.6715,42.0479,4.07712,-1.39157,18.0323,-1.1363,2.17875,-5.1684e-15,7.55382e-15,-27.2148,3.74268,-73.0901,42.5993,30.4306,-37.0473,-3.02826,7.12502,-10.1203,-32.7649,-5.1684e-15,7.55382e-15,-32.2713,12.2979,79.81,30.273,-7.86302,-11.0782,21.9738,7.12502,14.9451,51.4146,-15.2275,-1.79533,22.9601,42.8662,-18.0302,2.18755,9.11919,-29.934,5.21005,-26.0471,23.3243,-2.54367,2.4032,-5.00844
4.19225,17.7426,2.78158,5.17186,-75.5594,5.58032,3.04626,0.259531,-3.50324,2.99537,0.233943,1.07926,1.35242,0.0268815,3.07033,-14.3726,0.686257,-12.5589,42.0327,4.29249,-1.78427,18.0299,-1.08967,2.01197,-2.06736e-14,1.66979e-14,-27.1972,4.13682,-73.1161,42.1151,30.7575,-36.7684,-3.02659,7.12502,-9.85118,-32.7761,-2.06736e-14,1.66979e-14,-32.2748,12.2276,79.9097,30.5295,-7.7597,-10.9597,21.9377,7.12502,15.0593,51.37,-16.0969,-1.57289,22.9346,44.7518,-17.1559,1.79477,9.0968,-29.6839,5.21255,-26.0205,23.3025,-2.63523,2.20564,-4.44275
4.13102,17.764,2.80292,4.74875,-75.6401,5.95846,3.10648,0.263298,-3.81262,2.9904,0.231235,1.03871,1.31402,0.0213114,3.20264,-14.33,0.761255,-12.5993,42.129,4.42313,-1.82636,18.0698,-1.06084,2.02033,1.50082e-14,7.15625e-15,-27.2534,4.56182,-73.1928,41.715,30.9642,-36.5228,-3.3204,7.12502,-9.61424,-33.081,1.50082e-14,7.15625e-15,-32.2787,12.0074,79.9913,30.8051,-7.70019,-10.998,21.8361,7.12502,15.0224,51.2711,-16.9742,-2.67041,22.5867,46.5391,-15.3575,2.10113,7.49227,-29.2851,5.36483,-26.1423,23.1594,-2.79048,1.98626,-3.93426
4.07508,17.765,2.82254,4.1722,-75.6448,6.49207,3.22817,0.241617,-4.16839,2.98333,0.190393,0.987343,1.24262,-0.00322605,3.3506,-14.4272,0.833545,-12.7005,42.3092,4.5511,-1.73936,18.1886,-1.03362,2.10131,-3.3197e-14,-1.51076e-14,-27.2369,4.75781,-73.2814,41.1989,31.4494,-36.2556,-3.58082,7.12502,-9.35644,-33.3532,-3.3197e-14,-1.51076e-14,-32.2571,11.8241,80.0396,31.1146,-7.49567,-10.8783,21.8793,7.12502,15.1377,51.3057,-17.8299,-2.2453,22.3497,48.3208,-14.4935,1.38384,6.9827,-28.9146,5.58911,-26.3497,22.9586,-2.901,1.78307,-3.58878
4.02167,17.78,2.84543,4.28094,-75.4635,6.37125,3.30414,0.19316,-4.13997,2.99584,0.123732,0.867794,1.21887,-0.0347375,3.21238,-14.4829,0.872166,-12.7517,42.3564,4.55674,-1.522,18.2142,-1.01265,2.21503,-4.27387e-15,-4.77083e-15,-27.2076,4.62023,-73.4118,40.6966,32.1276,-35.8937,-3.8457,7.12502,-9.00723,-33.6334,-4.27387e-15,-4.77083e-15,-32.1047,11.5425,80.0186,31.4143,-7.3395,-10.6128,21.9887,7.12502,15.3935,51.3956,-18.7597,-3.03345,22.1762,50.0355,-13.1679,1.53829,6.59356,-28.5468,5.67419,-26.393,22.6351,-2.8849,1.5684,-3.59659
3.9718,17.7838,2.86362,3.20702,-75.2596,7.37025,3.50744,0.129406,-4.39105,3.02741,0.0242269,0.659004,1.14707,-0.086303,3.14033,-14.4429,0.936647,-12.7834,42.276,4.58573,-1.33135,18.1363,-0.969771,2.31575,2.75317e-14,7.35503e-15,-27.1163,4.11493,-73.499,40.1829,33.2531,-35.3355,-3.64119,7.12502,-8.4686,-33.4514,2.75317e-14,7.35503e-15,-31.962,11.1529,79.9903,31.7176,-7.25551,-10.5891,22.0844,7.12502,15.4163,51.4896,-19.6172,-3.61419,21.7287,51.7878,-12.1753,1.71281,6.13239,-28.1172,5.70019,-26.7197,22.3786,-2.8716,1.2526,-3.70142
3.92703,17.7766,2.86883,0.90252,-74.9962,9.56814,3.89641,0.19942,-5.0947,3.06506,0.0776485,0.311522,0.966284,-0.0657818,3.17577,-14.4207,0.864386,-12.4734,42.2806,4.35373,-1.27239,18.1465,-1.00067,2.25011,1.98785e-15,-1.17283e-14,-27.1214,3.00246,-73.6432,39.6522,34.4386,-34.9392,-3.04164,7.12502,-8.08613,-32.8669,1.98785e-15,-1.17283e-14,-31.7281,10.2842,80.0002,32.0311,-7.14466,-10.4853,22.0043,7.12502,15.5163,51.4018,-20.4487,-4.02622,21.0162,53.4988,-11.5906,1.6107,3.27981,-27.647,5.84977,-27.3998,22.1191,-2.85593,0.791282,-3.97014
3.87387,17.7753,2.87903,-0.454449,-74.7867,10.856,4.10876,0.409881,-5.49376,3.10694,0.331252,-0.063588,0.86877,0.0580167,3.00385,-14.3661,0.657706,-11.8902,42.3718,3.85799,-1.30687,18.2267,-1.11101,2.04538,2.53947e-14,-8.49804e-15,-27.3572,1.96499,-73.8493,39.2529,35.1083,-34.7705,-2.74885,7.12502,-7.92326,-32.5804,2.53947e-14,-8.49804e-15,-31.3363,8.89957,80.0411,32.2277,-6.89973,-10.4507,21.8265,7.12502,15.5496,51.2213,-21.3155,-4.33621,20.5464,55.1207,-11.3749,1.48721,-1.8034,-27.2742,5.98864,-27.8324,22.0085,-3.02554,0.510912,-4.12367
3.81577,17.7795,2.89255,-0.31755,-74.5617,10.7097,4.12047,0.519043,-5.56544,3.13981,0.473269,-0.198277,0.883737,0.12731,2.90009,-14.2613,0.517092,-11.6985,42.4094,3.54954,-1.27009,18.2413,-1.19592,1.97358,1.68097e-14,-2.20403e-14,-27.5289,1.43547,-73.9157,38.9427,35.5765,-34.584,-2.94213,7.12502,-7.74331,-32.7803,1.68097e-14,-2.20403e-14,-30.9054,7.61802,80.1817,32.38,-6.47789,-10.7158,21.7622,7.12502,15.2943,51.1767,-22.2352,-4.68811,20.5066,56.5917,-11.4112,1.70362,-5.27991,-27.08,6.35901,-27.9468,21.9936,-3.24027,-0.035435,-3.79494
3.76108,17.7771,2.90314,-0.0288774,-74.304,10.4335,4.11512,0.550626,-5.67939,3.19465,0.512659,-0.24523,0.939856,0.142281,2.91432,-14.2596,0.441535,-11.6056,42.4388,3.41644,-1.2883,18.2698,-1.2361,1.92541,-2.9372e-14,2.65346e-14,-27.5828,1.22097,-73.9589,38.7067,35.8662,-34.2954,-3.04554,7.12502,-7.46473,-32.8938,-2.9372e-14,2.65346e-14,-30.5458,6.30971,80.3262,32.7417,-5.78597,-10.7755,21.7187,7.12502,15.2368,51.1375,-23.14,-5.02734,20.5276,57.8847,-11.3598,2.37824,-4.97453,-26.9896,6.81243,-28.048,22.0639,-3.45382,-0.603599,-2.8841
3.71125,17.7735,2.90759,0.261564,-74.066,10.132,4.2413,0.530985,-5.84187,3.21667,0.472385,-0.262761,0.895693,0.119831,2.98799,-14.3356,0.433676,-11.4758,42.4959,3.41381,-1.37066,18.3303,-1.23233,1.86417,-9.20621e-15,9.79014e-15,-27.6726,1.32065,-74.0905,38.5713,36.1328,-34.1391,-3.15356,7.12502,-7.31383,-33.0072,-9.20621e-15,9.79014e-15,-30.4011,6.60923,80.457,33.0655,-6.49322,-11.0189,21.5497,7.12502,15.0023,50.9863,-24.0156,-5.06823,20.5571,59.0185,-11.2994,3.10471,-2.33422,-26.8879,6.98147,-28.0113,22.2009,-3.69733,-0.894975,-2.39319
3.65663,17.7774,2.91776,0.707839,-73.8502,9.59284,4.39573,0.315964,-5.95943,3.20432,0.171788,-0.116805,0.825571,-0.031121,3.21516,-14.3331,0.640486,-11.8095,42.5513,3.82468,-1.35099,18.3333,-1.13038,2.00402,-2.96313e-14,4.09993e-15,-27.6351,2.1846,-74.2494,38.3773,36.2399,-33.9144,-3.9807,7.12502,-7.09694,-33.8417,-2.96313e-14,4.09993e-15,-30.4596,7.37132,80.483,33.3864,-6.80256,-11.1084,21.44,7.12502,14.9161,50.883,-24.8054,-5.19707,20.5902,60.0009,-11.1441,3.7588,-1.61805,-26.6783,6.83525,-27.8215,22.3888,-4.05266,-0.981739,-3.73039
3.60366,17.7857,2.92204,1.12098,-73.5105,9.22307,4.49227,-0.324035,-6.51639,3.08622,-0.704622,0.454774,0.756597,-0.476176,4.15334,-14.4571,1.18859,-13.1045,42.6319,5.07273,-1.30875,18.3147,-0.863524,2.46647,2.3469e-14,-6.78353e-15,-27.2136,4.65047,-74.2474,38.103,35.9621,-33.3674,-5.20599,7.12502,-6.56889,-35.0841,2.3469e-14,-6.78353e-15,-30.8692,9.58377,80.5245,33.7216,-7.07541,-10.8935,21.166,7.12502,15.1231,50.5934,-25.7323,-5.5464,20.6252,60.8464,-10.9038,4.60448,-2.92981,-26.6867,6.8327,-27.749,22.6744,-4.45125,-1.30894,-4.32348
3.55077,17.7842,2.92684,1.47571,-73.2286,8.82583,4.57008,0.201448,-6.12007,3.21507,0.00100585,-0.159271,0.757394,-0.117305,3.26779,-14.3599,0.6868,-11.8937,42.7714,3.83594,-1.11822,18.4592,-1.12556,2.13141,1.09332e-14,-1.85864e-14,-27.7374,2.12463,-74.6571,37.9144,36.3296,-32.9101,-5.75828,7.12502,-6.12739,-35.6497,1.09332e-14,-1.85864e-14,-29.8311,7.2018,80.4206,33.7822,-6.9814,-10.935,21.1877,7.12502,15.0831,50.6182,-26.5448,-5.76988,20.7288,61.5685,-10.7201,5.55122,-3.53008,-26.6111,6.55976,-27.546,23.0299,-4.77038,-1.11734,-2.15979
3.49811,17.7723,2.93435,1.85578,-73.0385,8.39605,4.63487,0.175206,-6.13414,3.27202,-0.0386781,-0.190121,0.784251,-0.139858,3.24527,-14.3919,0.693117,-11.8953,42.8385,3.83702,-1.07557,18.5065,-1.12507,2.15277,-2.38045e-14,-1.50082e-14,-27.6787,1.68596,-74.7553,37.628,36.7111,-32.6905,-5.54648,7.12502,-5.9154,-35.4439,-2.38045e-14,-1.50082e-14,-29.5619,7.03885,80.373,34.0764,-7.11681,-11.1582,21.2938,7.12502,14.8681,50.7403,-27.3667,-6.02455,20.9064,62.1897,-10.5279,6.41481,-4.81291,-26.5524,6.3097,-27.3244,23.4064,-5.02197,-0.952428,-0.494935
3.44593,17.7673,2.94162,2.43379,-72.8273,7.85742,4.67165,-0.268953,-6.52944,3.2035,-0.644533,0.308155,0.768881,-0.44983,4.00738,-14.4834,1.06264,-12.8489,42.8897,4.7737,-1.20672,18.4989,-0.946009,2.42075,1.40764e-14,-5.76476e-15,-27.3396,3.06994,-74.5292,37.3149,36.9921,-32.5016,-5.38772,7.12502,-5.73303,-35.2902,1.40764e-14,-5.76476e-15,-29.8176,8.46587,80.5176,34.4618,-7.05678,-11.3237,21.3162,7.12502,14.7087,50.7744,-28.2872,-6.19017,21.0956,62.6944,-10.2614,7.24762,-6.93841,-26.6614,6.38187,-27.1931,23.8051,-5.31932,-1.275,-1.87092
3.39531,17.7706,2.94906,3.10463,-72.5353,7.22008,4.75382,-0.498696,-6.65865,3.15918,-0.960483,0.576878,0.722979,-0.608959,4.37262,-14.5043,1.22473,-13.356,42.9154,5.21107,-1.26535,18.488,-0.871448,2.55596,-1.84621e-14,-1.57537e-14,-27.2827,3.60861,-74.4757,37.1004,37.2393,-32.3403,-5.84231,7.12502,-5.5773,-35.7489,-1.84621e-14,-1.57537e-14,-29.734,8.88865,80.604,34.808,-6.57764,-11.5423,21.3696,7.12502,14.4981,50.843,-29.1763,-6.08551,21.2446,63.1017,-10.0693,7.70096,-8.30868,-26.7538,6.04088,-26.9215,24.2515,-5.67671,-1.25458,-3.22674
3.34391,17.7783,2.95466,4.11412,-72.2199,6.17924,4.82521,-0.499921,-6.43672,3.19048,-0.958411,0.60411,0.710646,-0.605381,4.27658,-14.441,1.18357,-13.4228,42.9653,5.10388,-1.12544,18.499,-0.906393,2.6147,5.00565e-14,-1.08835e-14,-27.4426,3.16896,-74.5996,37.002,37.3778,-32.2086,-6.326,7.12502,-5.45017,-36.2359,5.00565e-14,-1.08835e-14,-29.3442,8.36553,80.548,35.1323,-6.1104,-11.7781,21.3197,7.12502,14.2708,50.8093,-29.981,-6.58214,21.545,63.3413,-9.69499,8.10543,-8.91565,-26.7654,5.54656,-26.4435,24.6724,-5.90924,-1.08516,-5.00686
3.29281,17.7764,2.95913,4.97857,-71.8982,5.25927,4.9378,-0.401957,-6.19146,3.23006,-0.826651,0.508003,0.665829,-0.534869,4.03472,-14.3268,1.06082,-13.156,43.0396,4.77048,-1.02921,18.5356,-0.98233,2.55539,3.97321e-14,1.98785e-15,-27.7233,2.24159,-74.7821,36.9165,37.6959,-32.1762,-6.5812,7.12502,-5.41882,-36.4919,3.97321e-14,1.98785e-15,-28.952,7.75824,80.4204,35.4777,-6.20092,-11.9244,21.5318,7.12502,14.1298,51.0313,-30.779,-7.01169,21.8448,63.4908,-9.44331,8.26336,-10.1057,-26.8538,5.41363,-26.1131,25.2295,-6.25451,-1.11914,-5.27889
3.2439,17.774,2.96226,6.19719,-71.6012,4.14959,4.90745,-0.151539,-5.76052,3.24594,-0.475136,0.265838,0.649315,-0.350302,3.52637,-14.273,0.771863,-12.5463,43.1635,4.07071,-0.885704,18.6476,-1.14088,2.39626,3.20043e-14,1.98785e-16,-28.0625,0.59924,-75.0123,36.6792,38.3367,-32.2767,-6.8696,7.12502,-5.51587,-36.7778,3.20043e-14,1.98785e-16,-28.4489,6.85219,80.3061,35.8702,-6.50141,-12.1473,22.005,7.12502,13.9151,51.5194,-31.7876,-7.70918,22.419,63.5138,-9.21327,8.52968,-14.3781,-27.196,5.45664,-25.7757,25.8842,-6.82727,-1.09658,-1.85367
3.19793,17.7492,2.96769,7.14073,-71.3017,3.30706,4.88401,-0.00249067,-5.40453,3.29547,-0.261684,0.0885112,0.686368,-0.239033,3.13359,-14.3993,0.535551,-12.2493,43.2989,3.55742,-0.664915,18.7962,-1.26961,2.36247,-1.02374e-14,5.36719e-15,-28.2823,-0.162969,-75.2364,36.5227,38.3849,-32.2868,-6.95995,7.12502,-5.52564,-36.8679,-1.02374e-14,5.36719e-15,-28.0368,6.32252,80.2652,36.3567,-6.48304,-12.3875,22.128,7.12502,13.6836,51.6582,-32.8008,-8.63655,23.194,63.4725,-9.60425,8.64174,-25.6251,-27.5367,5.03375,-25.4138,26.5817,-7.20881,-0.869432,-3.28774
3.15186,17.7359,2.97176,7.57707,-71.0246,2.9727,4.93525,0.00302719,-5.33008,3.28746,-0.254936,0.0332745,0.647729,-0.232791,3.0347,-14.3927,0.470428,-12.3159,43.3237,3.39272,-0.443428,18.8102,-1.31357,2.45194,-9.64106e-15,-1.72943e-14,-28.4954,-0.0219435,-75.4626,36.5266,38.0011,-32.2616,-7.30935,7.12502,-5.50135,-37.2179,-9.64106e-15,-1.72943e-14,-27.854,6.08224,80.2226,36.9006,-6.13121,-12.5862,21.9338,7.12502,13.4921,51.4767,-33.8956,-9.29405,23.6852,63.4091,-10.2199,8.31958,-35.4394,-27.7929,4.45314,-25.1785,27.1794,-7.3935,-0.616662,-9.24464
3.10211,17.7404,2.97547,8.07558,-70.768,2.51879,5.04337,-0.0398301,-5.36957,3.25563,-0.320166,0.118555,0.56172,-0.263526,3.14859,-14.3038,0.51135,-12.4322,43.3319,3.44977,-0.377192,18.7815,-1.30049,2.51347,-6.91771e-14,1.17283e-14,-28.6917,0.413424,-75.6211,36.5152,37.7805,-32.26,-8.01139,7.12502,-5.49972,-37.92,-6.91771e-14,1.17283e-14,-27.7119,6.28861,80.2022,37.3603,-6.05659,-12.6592,21.7265,7.12502,13.4217,51.2742,-34.9612,-9.71531,24.0969,63.3162,-10.6758,7.88662,-40.6472,-27.9,4.05603,-24.9192,27.6101,-7.61773,-0.4047,-12.3349
3.05207,17.7519,2.97718,8.78441,-70.5078,1.7897,5.19491,-0.0874595,-5.4074,3.27136,-0.393675,0.302483,0.502746,-0.301325,3.36441,-14.3759,0.544214,-12.5204,43.4016,3.58526,-0.470843,18.8413,-1.28151,2.50962,2.25621e-14,5.56597e-15,-28.7391,0.851272,-75.6653,36.3575,37.763,-32.3594,-8.42791,7.12502,-5.59574,-38.334,2.25621e-14,5.56597e-15,-27.6193,6.63416,80.2758,37.9696,-5.92226,-12.678,21.7157,7.12502,13.4035,51.2645,-35.9986,-10.0155,24.4969,63.2106,-11.1274,7.77175,-43.5543,-27.8657,3.85938,-24.5681,27.8134,-7.8321,-0.26094,-11.0574
3.00814,17.7644,2.97841,8.87695,-70.2629,1.86555,5.20093,-0.0858798,-5.70367,3.30357,-0.403433,0.437477,0.538926,-0.313724,3.67136,-14.433,0.484119,-12.6332,43.3669,3.60408,-0.600175,18.8446,-1.30532,2.47154,-2.08227e-14,-1.80894e-14,-28.5939,0.654117,-75.4661,35.9992,38.2064,-32.4846,-8.38607,7.12502,-5.71665,-38.289,-2.08227e-14,-1.80894e-14,-27.4109,6.79061,80.5012,38.5922,-5.57325,-12.8257,21.6896,7.12502,13.2612,51.2478,-37.1879,-10.2841,24.5124,63.0475,-11.1446,7.66486,-44.1884,-27.9498,3.44332,-24.4452,27.977,-8.09453,0.0783987,-7.39686
2.96671,17.7659,2.97252,8.89753,-70.0614,2.13576,5.18218,-0.217815,-6.21538,3.24169,-0.598175,0.669953,0.517855,-0.417874,4.21013,-14.4507,0.541628,-13.1388,43.3303,3.87193,-0.617185,18.8071,-1.28393,2.59896,7.17116e-14,-3.02153e-14,-28.4002,1.00164,-75.2725,35.667,38.7347,-32.4672,-8.38642,7.12502,-5.69979,-38.2898,7.17116e-14,-3.02153e-14,-27.3429,7.32152,80.6808,39.138,-5.22017,-12.9139,21.5344,7.12502,13.1762,51.098,-38.4123,-10.2318,24.364,62.7862,-10.4896,7.09157,-41.8207,-28.1911,3.03939,-24.3779,28.1971,-8.37415,0.280348,-6.11255
2.91103,17.7556,2.96827,10.0549,-70.0061,0.916378,5.23587,-0.44003,-6.25876,3.25683,-0.897827,1.06339,0.548077,-0.573532,4.65812,-14.5414,0.780374,-13.9075,43.3511,4.45761,-0.493903,18.7825,-1.17123,2.8961,5.2181e-15,5.1684e-15,-28.2068,2.26989,-75.2903,35.4298,38.7995,-32.6765,-8.40722,7.12502,-5.90189,-38.305,5.2181e-15,5.1684e-15,-27.4888,8.09763,80.6869,39.7882,-4.7662,-12.7858,21.4604,7.12502,13.2997,51.0161,-39.0712,-9.81152,24.5579,62.3481,-9.30855,10.6374,-32.7886,-28.1552,2.61268,-23.7187,28.4934,-8.66346,0.708432,-6.49344
2.86165,17.7439,2.95581,10.9235,-69.8116,-0.00398796,5.41858,-0.559706,-6.30149,3.28089,-1.07101,1.30767,0.500024,-0.662842,4.94788,-14.6246,0.923664,-14.3769,43.3403,4.7797,-0.308885,18.7509,-1.09611,3.12442,1.635e-14,-6.65929e-15,-28.1253,2.89461,-75.2884,35.2452,39.1696,-32.7566,-8.21822,7.12502,-5.97918,-38.1138,1.635e-14,-6.65929e-15,-27.5258,8.29745,80.7047,40.5205,-4.21189,-12.9584,21.6067,7.12502,13.1333,51.1732,-39.5481,-9.44441,24.5604,61.7598,-7.46572,12.9169,-19.1156,-28.2206,2.5993,-23.2552,28.879,-9.0334,0.616472,-6.36535
2.8206,17.733,2.94514,11.136,-69.5748,-0.133441,5.66206,-0.582061,-6.43803,3.27652,-1.12388,1.32955,0.371039,-0.687286,5.05532,-14.4988,0.969623,-14.3994,43.0958,4.81294,-0.255256,18.5531,-1.04879,3.15535,1.18277e-14,-2.48481e-14,-28.3203,3.62222,-75.4304,35.4305,39.1706,-32.5204,-8.36799,7.12502,-5.75122,-38.2699,1.18277e-14,-2.48481e-14,-27.4464,8.24601,80.6744,41.2093,-3.91239,-13.186,21.6951,7.12502,12.9139,51.2755,-40.3422,-9.51593,24.6087,61.1096,-6.42646,13.3771,-12.002,-28.4057,2.49393,-23.0918,29.2463,-9.34892,0.541742,-6.50879
2.78105,17.7239,2.93203,11.4069,-69.3433,-0.409066,6.03006,-0.57696,-6.51667,3.28092,-1.14715,1.33432,0.17615,-0.694021,5.11341,-14.15,1.03028,-14.2174,42.6459,4.78808,-0.303084,18.1846,-0.981492,3.08537,-1.68967e-15,-3.24019e-14,-28.7588,4.98428,-75.7938,35.9719,38.2106,-32.2589,-8.9673,7.12502,-5.49868,-38.876,-1.68967e-15,-3.24019e-14,-27.3651,8.10242,80.6133,41.8649,-3.65936,-13.29,21.7711,7.12502,12.8136,51.3579,-41.1142,-9.456,24.865,60.3933,-6.54256,13.1524,-11.6939,-28.4157,2.29052,-22.8262,29.4076,-9.48372,0.542321,-7.28055
2.74138,17.7291,2.91346,11.8905,-69.1059,-0.752805,6.22474,-0.55848,-6.64122,3.25765,-1.14283,1.37979,0.0475549,-0.688699,5.23581,-14.0189,1.03612,-14.0415,42.4232,4.76418,-0.4229,18.026,-0.952546,2.99054,-4.07509e-14,9.93923e-16,-29.0115,5.77558,-76.0896,36.2159,37.5001,-32.5241,-9.6807,7.12502,-5.75477,-39.5826,-4.07509e-14,9.93923e-16,-27.2559,7.86088,80.5827,42.5282,-3.43032,-13.3524,21.9585,7.12502,12.7535,51.549,-42.024,-9.14429,25.0735,59.6405,-7.18043,12.8344,-14.2183,-28.4708,2.45671,-22.6074,29.3337,-9.50014,0.209677,-8.19163
2.69199,17.7518,2.9055,12.3114,-68.9551,-1.16049,6.32876,-0.543313,-6.7129,3.33429,-1.13342,1.4608,0.0720021,-0.689727,5.36222,-14.0948,1.04035,-14.1429,42.3833,4.82974,-0.426908,18.0167,-0.937721,3.01917,1.51076e-14,-9.54166e-15,-28.9794,6.00848,-76.1626,36.1218,37.5889,-32.8425,-10.2893,7.12502,-6.06216,-40.1826,1.51076e-14,-9.54166e-15,-27.1337,7.77477,80.5952,43.1838,-3.31582,-13.2751,21.7586,7.12502,12.828,51.3444,-42.7287,-8.82441,25.0542,58.8355,-7.26266,12.6975,-14.2551,-28.2226,2.2444,-22.2931,29.096,-9.51931,0.358572,-7.30733
2.6431,17.7734,2.89463,12.5314,-68.8431,-1.2815,6.37326,-0.505124,-6.83518,3.37202,-1.09249,1.45198,0.0837263,-0.672721,5.42062,-14.0592,1.05301,-14.1677,42.3375,4.85565,-0.429947,17.9774,-0.924335,3.02587,-4.87022e-15,-6.36111e-15,-29.0145,5.90192,-76.2024,36.0122,38.0267,-32.6744,-10.5427,7.12502,-5.89982,-40.4405,-4.87022e-15,-6.36111e-15,-27.0402,7.33418,80.569,43.8504,-2.84251,-13.5681,21.5488,7.12502,12.5455,51.1521,-43.5211,-8.73317,24.9974,57.9771,-7.18768,12.3564,-13.0964,-27.9923,2.00499,-22.0774,28.7413,-9.55619,0.475579,-5.43266
2.59658,17.787,2.88288,12.6645,-68.6745,-1.23496,6.39112,-0.453767,-6.90977,3.38229,-1.02995,1.36974,0.0754844,-0.641654,5.37331,-14.0071,1.02621,-14.0183,42.2722,4.7936,-0.506565,17.9368,-0.925681,2.95326,-5.09883e-14,6.55989e-15,-29.1558,5.8676,-76.2905,36.0309,38.1046,-32.4608,-10.4361,7.12502,-5.69368,-40.3396,-5.09883e-14,6.55989e-15,-26.9126,6.67799,80.4821,44.4837,-2.40928,-13.7262,21.6995,7.12502,12.3931,51.3121,-44.4219,-9.05657,25.0186,57.0691,-7.36557,11.8281,-14.1906,-27.843,1.71909,-21.9433,28.3439,-9.4885,0.446013,-3.89456
2.54997,17.7991,2.86946,13.0074,-68.3689,-1.33742,6.31206,-0.46863,-6.85693,3.40943,-1.04068,1.30705,0.146458,-0.649088,5.27628,-13.9787,1.00156,-13.9899,42.164,4.72839,-0.452005,17.8664,-0.924391,2.96251,4.88016e-14,-2.78299e-15,-29.2893,6.00481,-76.4924,36.1606,37.8615,-32.6757,-10.6508,7.12502,-5.9011,-40.5487,4.88016e-14,-2.78299e-15,-26.7342,6.34377,80.3538,45.0493,-2.42235,-13.4955,21.7826,7.12502,12.6155,51.3816,-45.3211,-9.25347,25.1015,56.079,-7.91437,11.2213,-18.9353,-27.8337,1.72234,-21.7991,27.9978,-9.1799,-0.147017,-2.97138
2.50197,17.8149,2.85934,13.3918,-68.0891,-1.54863,6.25444,-0.507888,-6.82494,3.45911,-1.0861,1.33018,0.236371,-0.676607,5.28319,-14.0298,1.00591,-14.0934,42.1643,4.74847,-0.35684,17.8708,-0.917228,3.03008,3.20043e-14,-2.0276e-14,-29.3286,6.21069,-76.6294,36.2006,37.6774,-32.9096,-11.2759,7.12502,-6.12694,-41.1673,3.20043e-14,-2.0276e-14,-26.5763,6.15787,80.3159,45.5647,-2.2957,-13.6006,21.4668,7.12502,12.5142,51.072,-46.0623,-9.30499,25.158,54.9932,-8.52012,10.8239,-24.761,-27.7983,1.72803,-21.6118,27.7459,-9.08017,-0.36745,-3.85594
2.45676,17.8274,2.84409,13.5412,-67.7393,-1.67934,6.50889,-0.544353,-6.90299,3.46832,-1.1574,1.39941,0.118589,-0.710435,5.40924,-14.0704,1.01245,-14.1842,42.3218,4.7742,-0.296009,17.9688,-0.927985,3.08147,1.18277e-14,-5.1684e-15,-29.4062,6.38596,-76.5821,36.1219,37.6397,-32.9734,-11.5313,7.12502,-6.18854,-41.421,1.18277e-14,-5.1684e-15,-26.5598,5.78191,80.3386,46.0648,-2.02594,-14.0069,21.5261,7.12502,12.1224,51.1549,-46.6001,-9.71704,25.2866,53.8225,-7.57883,10.2743,-19.5843,-27.6364,1.71957,-21.4304,27.5592,-9.21235,-0.322875,-5.40133
2.41067,17.8345,2.8282,14.0614,-67.3016,-2.04781,6.6114,-0.613812,-6.836,3.42774,-1.25277,1.47768,0.0333542,-0.753218,5.46167,-14.0307,1.00845,-14.216,42.3438,4.78121,-0.31918,17.973,-0.933886,3.07698,-2.0773e-14,1.25234e-14,-29.2295,5.86057,-76.4372,35.5214,38.169,-33.2599,-10.4076,7.12502,-6.46508,-40.2889,-2.0773e-14,1.25234e-14,-26.5747,5.54347,80.2814,46.5567,-2.03305,-14.113,21.4834,7.12502,12.0202,51.1183,-47.2382,-10.0616,25.5206,52.585,-7.25265,9.59698,-18.7217,-27.6907,1.78251,-21.1611,27.4241,-9.33756,-0.620178,-5.99529
2.36132,17.8397,2.81487,14.6595,-66.9228,-2.44954,6.54221,-0.644217,-6.67837,3.44718,-1.27838,1.5184,0.0921758,-0.766983,5.41448,-13.9877,0.972875,-14.1834,42.2509,4.75325,-0.416718,17.9172,-0.940678,3.0199,-1.2921e-14,-1.11319e-14,-28.7635,4.584,-76.2155,34.516,39.3217,-33.4803,-9.01959,7.12502,-6.67787,-38.8943,-1.2921e-14,-1.11319e-14,-26.4072,5.45601,80.2087,46.9119,-2.28766,-13.9423,21.1199,7.12502,12.1847,50.7451,-47.8512,-10.2597,25.713,51.3322,-6.89762,8.63993,-18.2044,-27.811,1.91111,-20.8927,27.3494,-9.54048,-0.887815,-7.07727
2.31073,17.8417,2.80322,14.8541,-66.5943,-2.57663,6.58821,-0.639524,-6.61343,3.51845,-1.2713,1.54469,0.138575,-0.767281,5.40487,-13.9381,0.967531,-14.2761,42.2246,4.75642,-0.379763,17.8855,-0.941955,3.05327,1.2921e-15,-1.43125e-14,-28.5548,3.69034,-75.9556,33.9604,40.1772,-33.4921,-9.15285,7.12502,-6.68924,-39.0272,1.2921e-15,-1.43125e-14,-26.2412,5.1929,80.2095,47.2589,-2.35724,-13.7953,20.9538,7.12502,12.3265,50.5705,-48.2873,-10.6008,25.7796,50.0893,-6.26588,7.62269,-14.9675,-27.7586,1.76343,-20.6679,27.3234,-9.86182,-0.765644,-7.9575
2.25986,17.8365,2.79141,14.5089,-66.2936,-2.13442,6.71344,-0.683392,-6.83987,3.54006,-1.35114,1.56751,0.110717,-0.810557,5.56489,-13.825,1.00849,-14.5107,42.2026,4.84024,-0.307664,17.8285,-0.930037,3.13861,1.59028e-14,2.0276e-14,-28.6218,3.69617,-75.8533,33.8631,40.3117,-33.5519,-9.6982,7.12502,-6.74701,-39.5707,1.59028e-14,2.0276e-14,-26.1903,4.96866,80.2703,47.5497,-2.21919,-14.0997,20.9285,7.12502,12.0329,50.5626,-48.7336,-11.1495,25.6514,48.8812,-5.65888,6.76681,-12.3816,-27.7242,1.63344,-20.7131,27.3663,-9.84829,-0.916328,-7.41158
2.20795,17.8302,2.77665,14.256,-65.9974,-1.62251,6.65424,-0.759088,-7.07446,3.54297,-1.46032,1.54315,0.169867,-0.870277,5.67741,-13.7859,1.02002,-14.6164,42.1693,4.89229,-0.327125,17.7952,-0.923379,3.15523,-1.37161e-14,-1.64991e-14,-28.7277,4.43249,-76.0106,33.9341,39.735,-33.4825,-9.85218,7.12502,-6.67999,-39.7268,-1.37161e-14,-1.64991e-14,-26.0978,4.77975,80.232,47.812,-2.0553,-14.3826,21.0544,7.12502,11.7602,50.7042,-49.2849,-11.5852,25.4592,47.6649,-5.03067,5.73999,-11.7779,-27.9645,1.81021,-20.8666,27.5959,-9.87049,-1.49983,-7.18166
2.15308,17.82,2.75832,14.3282,-65.5962,-1.48023,6.53079,-0.817358,-7.09174,3.60306,-1.52853,1.51871,0.311242,-0.91185,5.66108,-13.8046,0.994064,-14.6146,42.1696,4.87037,-0.342922,17.8044,-0.931293,3.14532,-1.44119e-14,5.1684e-15,-28.7397,4.86736,-76.1281,33.9044,39.518,-33.2214,-10.0556,7.12502,-6.42795,-39.9381,-1.44119e-14,5.1684e-15,-25.8828,4.74133,80.1411,48.0178,-2.27179,-14.0181,21.2469,7.12502,12.1117,50.8763,-49.7686,-12.1194,25.4605,46.4621,-4.21922,4.66641,-9.77998,-28.255,2.00872,-20.8314,27.9112,-10.145,-2.11991,-7.59535
2.0947,17.7968,2.73896,14.711,-65.0306,-1.82924,6.57771,-0.857139,-6.8693,3.66407,-1.57168,1.57349,0.349136,-0.934443,5.59483,-13.7213,0.962601,-14.6155,42.1977,4.81081,-0.343544,17.8059,-0.953483,3.1348,-1.799e-14,-1.45113e-14,-28.7785,4.59092,-76.0391,33.7014,40.1679,-32.9513,-9.93733,7.12502,-6.16721,-39.8276,-1.799e-14,-1.45113e-14,-25.7425,4.58271,80.0975,48.2415,-2.41295,-13.7739,21.1573,7.12502,12.3471,50.7727,-50.0936,-13.041,25.7601,45.2645,-2.98967,3.95161,-3.20348,-28.3857,2.08782,-20.5182,28.161,-10.3058,-2.73541,-7.21132
2.0358,17.7885,2.72215,14.5846,-64.5478,-1.65766,6.66465,-0.845326,-6.86463,3.70708,-1.56163,1.56576,0.343782,-0.930725,5.58519,-13.5668,0.896535,-14.5968,42.223,4.67817,-0.351019,17.7949,-1.00134,3.10398,-3.27995e-14,5.08889e-14,-28.9081,4.26322,-75.8985,33.4823,40.6583,-32.839,-9.5756,7.12502,-6.05882,-39.469,-3.27995e-14,5.08889e-14,-25.5804,4.14897,80.0794,48.3738,-2.29721,-13.6631,20.9666,7.12502,12.4539,50.5756,-50.3066,-13.6728,25.5578,44.1315,-1.98239,2.99256,0.218272,-28.3593,1.96334,-20.4219,28.2338,-10.2584,-3.15444,-6.35111
1.98337,17.7997,2.70023,14.2109,-64.0028,-1.07941,6.68999,-0.882138,-6.98896,3.71847,-1.61893,1.4988,0.3524,-0.961066,5.58905,-13.4323,0.841774,-14.601,42.2552,4.53857,-0.267418,17.7865,-1.04359,3.1191,-3.18055e-14,-5.96354e-15,-29.038,4.11834,-75.8717,33.3303,40.8508,-32.7443,-9.43266,7.12502,-5.96739,-39.3286,-3.18055e-14,-5.96354e-15,-25.3737,3.79866,80.0179,48.4117,-2.25952,-13.3674,20.9096,7.12502,12.739,50.501,-50.5387,-13.7126,24.763,43.0565,-1.55473,1.48589,0.260743,-28.4116,1.83427,-20.5184,28.1632,-10.1651,-3.59297,-6.15522
1.93346,17.8196,2.67761,13.9451,-63.4516,-0.695068,6.76575,-0.91076,-6.97451,3.76685,-1.66142,1.41324,0.363595,-0.98328,5.49451,-13.3333,0.802605,-14.4657,42.276,4.40138,-0.214005,17.7819,-1.06582,3.09783,-8.64713e-15,-2.50469e-14,-29.0624,4.03422,-75.9729,33.1158,40.8951,-32.5858,-9.71725,7.12502,-5.81437,-39.6175,-8.64713e-15,-2.50469e-14,-25.1596,3.48174,79.9401,48.4146,-2.29176,-13.7428,21.0461,7.12502,12.3771,50.6597,-50.5919,-13.4486,23.7653,42.0443,-1.29902,-0.0424038,0.397698,-28.3264,1.88636,-20.5679,27.9613,-10.1051,-4.1426,-6.19992
1.88044,17.8306,2.65452,14.0651,-62.8928,-0.732333,6.81571,-0.910691,-6.86326,3.80246,-1.65783,1.44836,0.369528,-0.981591,5.46888,-13.2125,0.759036,-14.3035,42.27,4.30475,-0.310567,17.7633,-1.08551,3.00796,-2.71341e-14,-7.95139e-16,-29.1343,4.03941,-75.9341,32.886,40.8182,-32.5199,-9.80573,7.12502,-5.7507,-39.7077,-2.71341e-14,-7.95139e-16,-24.983,3.21007,80.0233,48.422,-2.24317,-14.3988,21.2131,7.12502,11.7445,50.8638,-50.5855,-13.2825,23.1119,41.0882,-0.972568,-1.33441,0.390935,-28.2456,1.88585,-20.3983,27.7415,-10.0772,-4.52863,-6.63183
1.81448,17.8236,2.64812,14.1744,-62.56,-0.83983,6.68081,-0.901585,-6.72402,3.90461,-1.62715,1.53211,0.544136,-0.975134,5.47064,-13.1143,0.755309,-14.4027,42.294,4.34071,-0.378402,17.7547,-1.09395,2.99853,2.03754e-14,-2.98177e-15,-29.3821,4.44686,-75.7524,32.893,40.5861,-32.3062,-9.89007,7.12502,-5.54441,-39.7975,2.03754e-14,-2.98177e-15,-24.9026,3.38841,80.1258,48.413,-2.41474,-14.3436,21.1554,7.12502,11.7978,50.8031,-50.4664,-13.3165,22.7245,40.14,-0.366262,-2.29967,-0.816089,-28.0046,1.56014,-20.1475,27.5473,-10.1865,-4.36455,-7.56225
1.76128,17.8194,2.62928,14.0192,-61.8847,-0.704546,6.82052,-1.04241,-6.58863,3.99284,-1.81578,1.61033,0.583484,-1.07309,5.48846,-13.0264,0.78169,-14.6207,42.2744,4.41777,-0.341076,17.7109,-1.08638,3.06469,4.96962e-15,-6.95746e-15,-29.5011,4.83453,-75.6394,32.8229,40.4467,-31.8842,-9.95942,7.12502,-5.13694,-39.8772,4.96962e-15,-6.95746e-15,-24.8375,3.72542,80.0924,48.4505,-2.60684,-13.7603,20.9511,7.12502,12.3602,50.5657,-50.2534,-13.4205,22.1143,39.2231,0.138469,-3.46755,-2.69333,-27.8108,1.35834,-20.0081,27.3248,-10.1807,-4.72708,-7.62872
1.71353,17.8432,2.60579,14.2639,-61.0037,-1.15113,7.12878,-1.21249,-6.12077,4.09846,-2.03477,1.73745,0.539059,-1.17884,5.37611,-12.9457,0.789922,-14.6851,42.2394,4.41458,-0.283656,17.6652,-1.08188,3.10088,3.10104e-14,-4.05521e-14,-29.5582,5.03018,-75.6025,32.6562,40.3653,-31.4519,-9.8415,7.12502,-4.71953,-39.7689,3.10104e-14,-4.05521e-14,-24.7416,3.77183,80.0383,48.4511,-2.44408,-13.6286,20.9403,7.12502,12.4872,50.5473,-49.7043,-12.9588,21.0695,38.3697,-0.209781,-5.14784,1.22714,-27.4845,0.939265,-19.5012,27.0148,-10.1293,-4.95383,-7.50562
1.6604,17.8797,2.57659,14.6652,-60.1157,-1.79272,7.39119,-1.28293,-5.63345,4.2068,-2.11483,1.88577,0.502276,-1.21529,5.26656,-12.8581,0.721608,-14.6055,42.2378,4.26227,-0.24467,17.6538,-1.11841,3.08029,-1.53064e-14,-4.75095e-14,-29.7706,5.22778,-75.5926,32.5095,40.2183,-31.2547,-10.0768,7.12502,-4.52904,-40.0084,-1.53064e-14,-4.75095e-14,-24.609,3.5697,80.1173,48.3541,-2.26388,-14.0123,20.8627,7.12502,12.1173,50.4919,-48.9803,-12.0612,19.6963,37.6368,-1.29083,-6.79499,8.27489,-27.0764,0.537446,-18.873,26.581,-10.0404,-5.10993,-8.17392
1.59939,17.8952,2.54945,14.6723,-59.4127,-1.92459,7.47127,-1.15791,-5.24748,4.30806,-1.92984,1.79587,0.519093,-1.11818,4.94296,-12.536,0.531877,-14.2267,42.2434,3.77842,-0.186374,17.615,-1.23345,2.95941,-6.17226e-14,-6.36111e-15,-30.1649,4.7839,-75.6459,32.2674,40.4298,-31.2511,-10.158,7.12502,-4.52559,-40.0896,-6.17226e-14,-6.36111e-15,-24.383,2.88135,80.1755,48.1663,-2.27538,-14.4106,20.6747,7.12502,11.7332,50.3261,-48.4307,-11.5341,18.5506,37.0273,-1.62906,-7.82932,10.6414,-26.6464,0.159432,-18.5139,26.0554,-9.87275,-5.25726,-8.66301
1.53859,17.8984,2.5152,14.544,-58.7089,-1.83911,7.58674,-0.96731,-4.97055,4.35753,-1.66554,1.62036,0.457452,-0.977852,4.5886,-12.1304,0.294304,-13.6463,42.2852,3.14417,-0.119767,17.5856,-1.37816,2.7823,3.29983e-14,-3.37934e-15,-30.6059,3.90468,-75.7352,31.9453,40.7287,-31.3226,-9.87199,7.12502,-4.59465,-39.8022,3.29983e-14,-3.37934e-15,-24.1395,1.83924,80.1557,47.987,-2.27373,-14.6811,20.8704,7.12502,11.4723,50.5365,-48.0342,-11.2112,17.5958,36.5601,-1.70215,-8.63501,10.7213,-26.3464,-0.0795911,-18.2873,25.5769,-9.62929,-5.5554,-8.91789
1.47456,17.908,2.48689,14.225,-58.0154,-1.59928,7.72859,-0.951054,-4.91951,4.47845,-1.64855,1.60831,0.500674,-0.973443,4.54803,-12.0137,0.202379,-13.4013,42.2076,2.95002,-0.186738,17.5296,-1.412,2.67668,-2.04748e-14,5.88403e-14,-30.766,3.5813,-75.6988,31.6182,41.0082,-31.2514,-9.66788,7.12502,-4.52585,-39.5995,-2.04748e-14,5.88403e-14,-23.9756,1.62046,80.1989,47.9208,-2.366,-14.625,21.5758,7.12502,11.5264,51.2389,-47.5417,-10.9032,16.4843,36.2191,-1.71302,-9.3112,9.86242,-26.0159,-0.425671,-18.1776,25.2212,-9.46497,-5.64991,-9.32726
1.40815,17.916,2.46803,14.1781,-57.3963,-1.45003,7.59269,-1.0244,-4.8228,4.58274,-1.73325,1.70729,0.694017,-1.02372,4.59639,-12.0863,0.180089,-13.4589,42.1815,2.98102,-0.231517,17.5348,-1.40754,2.67356,6.85807e-15,1.05356e-14,-30.9485,3.77704,-75.5974,31.4627,41.3062,-31.2457,-9.88203,7.12502,-4.52044,-39.8138,6.85807e-15,1.05356e-14,-23.9103,1.89894,80.3344,47.9207,-2.20846,-14.3603,21.8735,7.12502,11.7817,51.5221,-47.2136,-10.6934,15.4889,35.9239,-1.34109,-9.67795,7.90827,-25.8733,-0.812232,-18.0338,24.9448,-9.428,-5.62119,-9.83616
1.35008,17.9251,2.43402,14.5256,-56.5545,-1.67834,7.61092,-1.12038,-4.5348,4.57604,-1.84264,1.87629,0.684807,-1.07434,4.6172,-12.0586,0.140979,-13.4504,42.219,2.93383,-0.25449,17.5561,-1.42606,2.65508,2.56929e-14,2.84262e-14,-31.172,4.00555,-75.5302,31.2536,41.5998,-31.4709,-10.1945,7.12502,-4.73785,-40.1215,2.56929e-14,2.84262e-14,-23.9032,1.95017,80.4446,47.806,-1.79752,-14.2651,21.553,7.12502,11.8735,51.1963,-46.8532,-10.3663,14.6543,35.6575,-1.34983,-10.1028,8.50685,-25.9198,-1.04297,-17.5982,24.6822,-9.33906,-6.05506,-10.2346
