JuanDHNZ/ProyectoFinalCD/preprocessing/sports_trials_csv/14_26.csv
root1,root2,root3,root4,root5,root6,lowerback1,lowerback2,lowerback3,upperback1,upperback2,upperback3,thorax1,thorax2,thorax3,lowerneck1,lowerneck2,lowerneck3,upperneck1,upperneck2,upperneck3,head1,head2,head3,rclavicle1,rclavicle2,rhumerus1,rhumerus2,rhumerus3,rradius1,rwrist1,rhand1,rhand2,rfingers1,rthumb1,rthumb2,lclavicle1,lclavicle2,lhumerus1,lhumerus2,lhumerus3,lradius1,lwrist1,lhand1,lhand2,lfingers1,lthumb1,lthumb2,rfemur1,rfemur2,rfemur3,rtibia1,rfoot1,rfoot2,rtoes1,lfemur1,lfemur2,lfemur3,ltibia1,lfoot1,lfoot2,ltoes1
-3.91009,17.9362,-3.98348,5.24652,1.22851,-0.147822,4.43628,-1.75093,-2.16478,0.0549489,-2.40553,1.60772,-2.27117,-1.1687,3.01886,-20.9909,-8.76128,-13.1103,21.5175,-9.41105,5.55961,11.3876,-4.68666,2.61969,6.68413e-15,-8.15017e-15,-31.5112,-5.52287,-81.2718,34.9188,20.2779,-18.5945,1.1592,7.12502,7.69658,-28.6807,6.68413e-15,-8.15017e-15,-26.0547,7.22054,84.9179,37.8447,-5.68538,-8.85572,30.6222,7.12502,17.0853,59.891,-12.3432,2.99062,22.5155,27.6377,-18.3358,-3.01205,12.4882,-15.4835,-2.93698,-14.8581,26.3263,-9.59229,11.7042,-19.625
-3.9376,17.9379,-3.99985,5.2853,1.01373,-0.184358,4.50144,-1.70516,-2.09385,0.107777,-2.34032,1.67091,-2.25785,-1.13746,3.04167,-21.0075,-8.73191,-13.005,21.5181,-9.37943,5.47601,11.3769,-4.67364,2.57777,1.06598e-14,-4.96962e-15,-31.4313,-5.7677,-81.0119,34.4507,20.5754,-18.6724,1.06656,7.12502,7.62134,-28.7761,1.06598e-14,-4.96962e-15,-26.1237,6.99143,85.1478,38.182,-5.59393,-8.95769,30.6179,7.12502,16.9872,59.8951,-12.4616,3.05548,22.6394,27.6278,-18.2716,-2.94302,12.608,-15.5838,-2.85841,-14.724,26.3584,-9.51086,11.8633,-19.3489
-3.96841,17.9401,-4.01715,5.40562,0.663894,-0.127632,4.48246,-1.62064,-2.18349,0.11131,-2.23084,1.7221,-2.24552,-1.08194,3.13776,-20.9226,-8.66965,-12.9264,21.5619,-9.30915,5.39015,11.3613,-4.64847,2.54923,-1.59028e-15,7.55382e-15,-31.3411,-6.13853,-80.6679,33.8578,21.0026,-18.6566,1.2467,7.12502,7.63658,-28.5954,-1.59028e-15,7.55382e-15,-26.3316,6.82059,85.3615,38.5412,-5.52222,-8.99151,30.5871,7.12502,16.9546,59.8671,-12.7061,3.28538,22.6511,27.661,-18.2189,-2.90009,12.8541,-15.7361,-2.59021,-14.6946,26.3517,-9.38467,11.9694,-19.0675
-3.9962,17.9432,-4.03239,5.56649,0.249969,-0.0845609,4.3858,-1.5156,-2.21645,0.152938,-2.09019,1.76037,-2.15567,-1.01331,3.18337,-20.9082,-8.61478,-12.8923,21.5794,-9.23361,5.34562,11.3532,-4.6176,2.5417,-3.13086e-15,-1.47101e-14,-31.1578,-6.59625,-80.3488,33.3483,21.6391,-18.6883,1.24955,7.12502,7.606,-28.5937,-3.13086e-15,-1.47101e-14,-26.4409,6.68469,85.5772,38.8034,-5.49379,-9.06271,30.1942,7.12502,16.8861,59.4801,-13.0022,3.4034,22.6604,27.6667,-18.0262,-2.64682,12.9735,-15.9204,-2.31169,-14.6799,26.38,-9.22473,12.1656,-19.3679
-4.01992,17.9481,-4.04531,5.67983,-0.00958948,-0.106928,4.33219,-1.45605,-2.09351,0.223992,-2.00344,1.78492,-2.06191,-0.973492,3.1313,-20.9679,-8.60533,-12.8358,21.5675,-9.21944,5.30904,11.3532,-4.60954,2.52026,-4.12478e-15,1.03368e-14,-31.0516,-7.03242,-80.0746,32.992,22.2701,-18.8567,1.04093,7.12502,7.44351,-28.8081,-4.12478e-15,1.03368e-14,-26.4871,6.51112,85.7689,38.9547,-5.55018,-9.80451,28.9091,7.12502,16.1719,58.2545,-13.2121,3.3979,22.7465,27.6818,-17.8914,-2.25358,13.0282,-16.0638,-2.16863,-14.5912,26.3936,-9.06133,12.3165,-19.6468
-4.04455,17.9496,-4.05952,5.67893,-0.171771,-0.13505,4.45815,-1.44182,-2.01836,0.28566,-1.98109,1.85063,-2.07076,-0.963347,3.15848,-21.0091,-8.5806,-12.7931,21.6385,-9.17841,5.24473,11.3778,-4.59533,2.49607,1.82882e-14,-5.96354e-15,-30.9705,-7.37271,-79.7677,32.4931,22.3027,-18.6509,0.954553,7.12502,7.64208,-28.8874,1.82882e-14,-5.96354e-15,-26.5842,6.40977,85.9647,39.0842,-5.60177,-10.8852,27.5438,7.12502,15.1311,56.9707,-13.2816,3.48159,22.8539,27.6932,-17.8263,-2.06073,13.5025,-16.1197,-2.11839,-14.4769,26.4113,-8.90082,12.4335,-19.5998
-4.06969,17.9513,-4.07189,5.68392,-0.298868,-0.112017,4.57467,-1.46409,-2.02304,0.311199,-2.01096,1.92273,-2.10495,-0.977724,3.24072,-20.9143,-8.46966,-12.7325,21.6528,-9.0398,5.18263,11.345,-4.53789,2.49172,5.36719e-15,-1.03368e-14,-30.9246,-7.66629,-79.4714,31.9758,22.2454,-19.0379,1.20314,7.12502,7.26853,-28.652,5.36719e-15,-1.03368e-14,-26.748,6.41712,86.1133,39.1642,-5.66628,-11.3566,26.9044,7.12502,14.6769,56.365,-13.3628,3.60985,22.9169,27.7164,-17.7459,-2.09413,13.7147,-16.1768,-2.12363,-14.4116,26.4247,-8.79067,12.5845,-19.3015
-4.09006,17.9533,-4.08235,5.75115,-0.465648,0.0708326,4.53845,-1.46706,-2.10842,0.36294,-2.01881,1.93282,-2.02753,-0.982792,3.29736,-20.8683,-8.35126,-12.6882,21.6489,-8.88299,5.14252,11.3148,-4.46956,2.49974,1.68967e-14,-1.86858e-14,-30.8251,-8.05975,-79.1337,31.6323,22.7872,-19.2708,0.738742,7.12502,7.04372,-29.1241,1.68967e-14,-1.86858e-14,-26.8304,6.28276,86.3074,39.168,-5.69206,-11.3111,26.8674,7.12502,14.7208,56.3247,-13.5424,3.57466,22.7847,27.7793,-17.636,-2.05277,13.0538,-16.2375,-2.0843,-14.5609,26.4034,-8.66143,12.7233,-19.1604
-4.11125,17.9518,-4.09425,5.729,-0.615327,0.195211,4.56537,-1.46799,-2.16918,0.444879,-2.02326,1.95638,-1.95496,-0.986707,3.35534,-20.8491,-8.25798,-12.6099,21.6974,-8.75449,5.0405,11.3074,-4.41877,2.47353,-1.68967e-15,1.51076e-14,-30.687,-8.53884,-78.786,31.0373,22.8041,-19.3921,1.09775,7.12502,6.92662,-28.7689,-1.68967e-15,1.51076e-14,-26.9277,6.07302,86.4949,39.1313,-5.70142,-11.1246,27.0558,7.12502,14.9005,56.4999,-13.6382,3.5646,22.7284,27.8501,-17.5235,-2.16778,12.7103,-16.1993,-1.92213,-14.6559,26.3751,-8.53931,12.7519,-19.0966
-4.13489,17.9513,-4.10713,5.66819,-0.67744,0.28981,4.74519,-1.49422,-2.23089,0.474807,-2.06315,1.99549,-2.01826,-1.0053,3.4384,-20.8335,-8.17117,-12.488,21.8039,-8.63599,4.88054,11.3187,-4.37671,2.41705,-8.89561e-15,1.11319e-14,-30.6899,-9.07822,-78.386,30.5953,23.3493,-19.8276,1.77121,7.12502,6.50629,-28.1089,-8.89561e-15,1.11319e-14,-27.0882,5.91805,86.6605,38.9987,-5.84702,-11.1813,26.9993,7.12502,14.8458,56.4475,-13.662,3.64938,22.7169,27.9033,-17.4191,-2.53087,12.7091,-16.1608,-1.90305,-14.6934,26.3538,-8.40903,12.8169,-19.0933
-4.15745,17.9542,-4.12128,5.74202,-0.738638,0.302991,4.85756,-1.48497,-2.14292,0.467493,-2.04705,2.01979,-2.09212,-0.99649,3.41705,-20.8346,-8.09449,-12.3493,21.8964,-8.54481,4.75996,11.3316,-4.34016,2.36713,-8.54774e-15,7.95139e-15,-30.7987,-9.55667,-78.0437,30.4123,23.6002,-20.2648,2.31642,7.12502,6.08415,-27.5762,-8.54774e-15,7.95139e-15,-27.2362,5.61259,86.8426,38.8788,-5.86208,-11.4653,26.7145,7.12502,14.5722,56.1826,-13.8193,3.83216,22.779,27.9479,-17.3109,-2.83795,12.8754,-16.2646,-1.85606,-14.6328,26.3167,-8.37699,12.8331,-18.7804
-4.17739,17.9598,-4.13182,5.8496,-0.858971,0.342115,4.7954,-1.46418,-2.06968,0.524743,-2.01444,2.03921,-2.0026,-0.982996,3.39051,-20.9844,-8.00746,-12.1713,22.0458,-8.42259,4.60102,11.3875,-4.28898,2.29815,1.82882e-14,-6.75868e-15,-30.7128,-9.97857,-77.7637,30.1116,23.5361,-20.0925,2.43447,7.12502,6.25047,-27.4533,1.82882e-14,-6.75868e-15,-27.3027,5.43766,86.9901,38.757,-6.06509,-11.2205,26.5884,7.12502,14.8081,56.0393,-14.0121,4.00785,22.7845,28.0058,-17.2342,-2.87055,13.4968,-16.339,-1.76692,-14.6165,26.2318,-8.35719,12.8804,-18.0862
-4.19572,17.9629,-4.13858,5.85455,-0.905616,0.539927,4.79705,-1.50805,-2.15967,0.583458,-2.07776,2.04765,-1.93489,-1.01583,3.45248,-21.0766,-7.8864,-12.131,22.216,-8.24329,4.54393,11.4478,-4.21266,2.30017,3.83654e-14,-1.98785e-15,-30.6281,-10.2921,-77.478,29.8231,23.4726,-20.0456,2.2713,7.12502,6.29583,-27.6151,3.83654e-14,-1.98785e-15,-27.4136,5.5014,87.1233,38.541,-6.43804,-11.0517,26.4163,7.12502,14.9706,55.8552,-14.0805,3.98352,22.6322,28.066,-17.1929,-2.83673,13.4035,-16.3049,-1.81279,-14.7807,26.1385,-8.22333,12.9827,-17.6922
-4.21427,17.9636,-4.14853,5.84432,-0.912973,0.768354,4.89443,-1.558,-2.30468,0.619542,-2.15323,2.05897,-1.94073,-1.05284,3.55305,-21.0427,-7.74631,-12.1796,22.261,-8.05875,4.62766,11.4475,-4.12478,2.37292,-1.83876e-14,1.82882e-14,-30.6138,-10.5267,-77.2042,29.5985,23.4496,-20.2412,2.0523,7.12502,6.10698,-27.8397,-1.83876e-14,1.82882e-14,-27.5601,5.40113,87.3077,38.2793,-6.59956,-11.3581,26.1112,7.12502,14.6755,55.5718,-14.1469,3.95843,22.455,28.1253,-17.2104,-2.86655,13.3628,-16.2895,-1.83106,-14.9886,26.04,-8.01396,13.056,-17.8404
-4.23477,17.9635,-4.16269,5.83311,-0.84019,0.848614,5.03065,-1.62604,-2.34758,0.683515,-2.24692,2.12916,-1.93923,-1.10008,3.65906,-21.1235,-7.59407,-11.9626,22.2891,-7.83519,4.36935,11.4301,-4.03712,2.28062,-4.47266e-15,1.27222e-14,-30.6009,-10.767,-76.9377,29.4501,23.3933,-20.3598,2.07956,7.12502,5.99242,-27.8157,-4.47266e-15,1.27222e-14,-27.6224,5.22017,87.4991,37.9544,-6.63139,-11.5343,26.0778,7.12502,14.5057,55.5507,-14.2195,3.966,22.4514,28.2126,-17.2616,-2.94845,13.8287,-16.2933,-1.75626,-15.0319,25.8941,-7.76279,13.0097,-18.331
-4.25597,17.9653,-4.17558,5.82754,-0.80858,0.818451,5.12107,-1.67965,-2.27986,0.732728,-2.31406,2.224,-1.93246,-1.1347,3.7255,-21.0605,-7.44617,-11.7288,22.2396,-7.62486,4.05195,11.3555,-3.96278,2.16502,-2.68359e-14,5.56597e-15,-30.6581,-10.9661,-76.6611,29.3616,23.3429,-20.3494,2.08957,7.12502,6.00245,-27.8054,-2.68359e-14,5.56597e-15,-27.661,5.30607,87.6245,37.4963,-6.9699,-11.3602,25.7759,7.12502,14.6734,55.2367,-14.2993,4.04214,22.5759,28.3234,-17.3679,-3.06325,14.1115,-16.272,-1.74813,-14.9382,25.7239,-7.55788,13.0688,-18.2439
-4.27219,17.9691,-4.1845,5.88051,-0.863718,0.98028,5.17026,-1.69306,-2.30229,0.71886,-2.33392,2.21579,-1.9721,-1.14353,3.73312,-21.0499,-7.29375,-11.6247,22.376,-7.42954,3.97383,11.3797,-3.87813,2.1543,3.15074e-14,-3.89618e-14,-30.8456,-11.1832,-76.3997,29.2992,23.2878,-20.3788,2.28138,7.12502,5.97415,-27.6144,3.15074e-14,-3.89618e-14,-27.8025,5.36587,87.6485,37.1288,-7.94355,-10.5788,25.6873,7.12502,15.4262,55.0917,-14.471,3.99343,22.4607,28.4505,-17.4079,-3.10609,13.9041,-16.2825,-1.8359,-15.0729,25.5516,-7.41962,13.2426,-17.6652
-4.28751,17.9682,-4.19521,5.9641,-0.903916,1.22343,5.1903,-1.70884,-2.42014,0.741526,-2.36211,2.20706,-1.95323,-1.1575,3.7925,-21.2185,-7.14899,-11.6168,22.5453,-7.21311,3.98452,11.4568,-3.77873,2.19097,5.46658e-15,-1.11319e-14,-30.9413,-11.3348,-76.1597,29.3102,23.1155,-20.3035,2.33328,7.12502,6.04684,-27.5604,5.46658e-15,-1.11319e-14,-27.8848,5.41918,87.6776,36.8147,-9.09177,-9.40455,25.8006,7.12502,16.557,55.1143,-14.6886,3.95599,22.2534,28.5681,-17.464,-3.14537,13.4378,-16.3144,-1.90198,-15.2963,25.402,-7.37754,13.3764,-16.7943
-4.30467,17.9611,-4.20791,6.04298,-0.85016,1.3077,5.24046,-1.73364,-2.42178,0.760237,-2.39531,2.23975,-1.95776,-1.17418,3.8309,-21.2781,-7.0207,-11.4742,22.5775,-7.04686,3.88904,11.4553,-3.70336,2.16083,8.94531e-16,-2.70347e-14,-31.1296,-11.3304,-75.9803,29.4693,22.7768,-20.3008,2.06034,7.12502,6.04944,-27.8333,8.94531e-16,-2.70347e-14,-27.9072,5.37295,87.7283,36.3459,-9.36782,-9.00082,25.7258,7.12502,16.9456,55.0066,-14.915,3.96299,22.2449,28.7102,-17.5293,-3.32596,12.6536,-16.3248,-1.91223,-15.3233,25.2206,-7.39877,13.3643,-15.9676
-4.32237,17.958,-4.21877,6.07965,-0.765629,1.20447,5.33461,-1.76583,-2.25592,0.769965,-2.42768,2.3446,-2.00003,-1.19059,3.85171,-21.23,-6.90354,-11.4145,22.5589,-6.89551,3.84506,11.4217,-3.63621,2.16271,-7.7526e-15,-3.81667e-14,-31.2553,-11.4761,-75.7296,29.4571,22.6838,-20.3246,2.13199,7.12502,6.02646,-27.7623,-7.7526e-15,-3.81667e-14,-27.8955,5.49133,87.7979,35.7195,-9.86652,-8.98121,25.6604,7.12502,16.9645,54.9396,-15.0597,3.99991,22.4436,28.8431,-17.5916,-3.49706,12.4586,-16.3169,-1.79673,-15.1621,25.0526,-7.30211,13.2532,-16.069
-4.33953,17.9611,-4.22573,6.14944,-0.710913,1.35801,5.31163,-1.81309,-2.33762,0.80514,-2.49436,2.38674,-1.93999,-1.22498,3.94384,-21.3379,-6.77803,-11.4171,22.6707,-6.70098,3.82694,11.4674,-3.55153,2.18808,-4.07509e-15,-1.98785e-14,-31.2556,-11.6793,-75.4753,29.383,22.7293,-20.3721,2.49252,7.12502,5.98054,-27.4031,-4.07509e-15,-1.98785e-14,-27.8478,5.69986,87.8712,35.0883,-10.9513,-8.77372,25.8564,7.12502,17.1642,55.1183,-15.2036,3.98937,22.3379,28.9457,-17.6074,-3.54311,12.8362,-16.3656,-1.69787,-15.3054,24.919,-7.09882,13.1849,-16.4509
-4.35594,17.9633,-4.23226,6.25342,-0.618801,1.51852,5.27068,-1.85053,-2.40347,0.812793,-2.54696,2.41147,-1.90072,-1.25171,4.00799,-21.3754,-6.66801,-11.3642,22.7293,-6.54848,3.78452,11.4798,-3.48423,2.18985,1.25234e-14,7.95139e-16,-31.3802,-11.7416,-75.2689,29.4342,22.463,-20.3227,2.41464,7.12502,6.02831,-27.4796,1.25234e-14,7.95139e-16,-27.8818,5.61122,87.9966,34.5506,-11.4824,-8.69312,26.2044,7.12502,17.2418,55.4595,-15.3558,3.94998,22.2223,29.0101,-17.6636,-3.60151,13.0811,-16.4792,-1.71185,-15.4414,24.7929,-6.94048,13.1814,-16.6989
-4.37031,17.9624,-4.23814,6.32562,-0.532611,1.50947,5.22677,-1.86636,-2.24539,0.85501,-2.55822,2.43673,-1.83751,-1.26004,3.94266,-21.3439,-6.54989,-11.2829,22.6605,-6.4161,3.80036,11.4332,-3.41494,2.20655,-7.65321e-15,-7.95139e-16,-31.5747,-11.786,-75.1363,29.5617,22.1556,-20.2908,2.24583,7.12502,6.05903,-27.6475,-7.65321e-15,-7.95139e-16,-27.9075,5.46482,88.0467,34.0603,-11.4794,-8.62009,26.2058,7.12502,17.3121,55.4548,-15.4786,3.98361,22.2951,29.0872,-17.7532,-3.72033,13.1203,-16.538,-1.68414,-15.3862,24.616,-6.81111,13.1501,-16.7558
-4.38351,17.9641,-4.24465,6.39795,-0.414595,1.58098,5.16721,-1.91144,-2.16687,0.934969,-2.61327,2.46126,-1.71959,-1.29126,3.92236,-21.5812,-6.40354,-11.08,22.7207,-6.21838,3.6889,11.4717,-3.32021,2.16235,5.13858e-14,-1.35174e-14,-31.6123,-11.9138,-74.9913,29.5373,22.1989,-20.6077,2.14739,7.12502,5.75314,-27.7545,5.13858e-14,-1.35174e-14,-27.7824,5.79848,88.0098,33.4141,-11.9893,-8.27866,25.9379,7.12502,17.6407,55.1577,-15.5961,4.001,22.2668,29.1427,-17.8669,-3.81754,13.5208,-16.5884,-1.73069,-15.4211,24.4716,-6.67908,13.1396,-16.9513
-4.39491,17.9673,-4.2542,6.42883,-0.170787,1.74908,5.27009,-1.98843,-2.19553,0.952899,-2.71802,2.48679,-1.74725,-1.34313,3.97525,-21.7682,-6.24478,-10.8268,22.8574,-6.01603,3.52633,11.5266,-3.22769,2.0931,-1.61016e-14,-7.95139e-16,-31.6594,-11.9751,-74.8057,29.4088,22.1183,-20.5103,1.13631,7.12502,5.84719,-28.763,-1.61016e-14,-7.95139e-16,-27.7572,6.19678,87.9593,32.7986,-13.054,-7.4406,26.0629,7.12502,18.447,55.2082,-15.6784,3.82004,22.1445,29.1935,-17.9583,-3.87647,13.9069,-16.6162,-1.96881,-15.5513,24.3417,-6.58905,13.1747,-16.8618
-4.40548,17.9682,-4.26704,6.34934,0.227197,1.76965,5.57621,-2.11256,-2.06856,0.928762,-2.87643,2.58659,-1.93086,-1.41892,4.03197,-21.6632,-6.13975,-10.811,22.8663,-5.85848,3.42466,11.4937,-3.17013,2.08207,-2.00773e-14,7.95139e-16,-31.7774,-11.858,-74.596,29.2736,21.6663,-20.0004,-0.0397821,7.12502,6.33943,-29.9249,-2.00773e-14,7.95139e-16,-27.8749,6.37971,87.9861,32.3179,-13.8457,-6.49135,26.4382,7.12502,19.36,55.4945,-15.6401,3.58202,22.2164,29.2553,-18.0558,-4.05091,13.9401,-16.5811,-2.13173,-15.5136,24.1812,-6.48372,12.9731,-16.5399
-4.41775,17.9708,-4.27726,6.34368,0.513559,1.87971,5.77937,-2.22822,-2.07579,0.866569,-3.03017,2.66637,-2.09077,-1.49157,4.14093,-21.4904,-6.02464,-10.8871,22.8454,-5.67454,3.36357,11.4397,-3.10387,2.10643,2.18663e-15,9.54166e-15,-31.9517,-11.7183,-74.4078,29.206,21.4821,-19.7797,-0.35773,7.12502,6.55247,-30.2364,2.18663e-15,9.54166e-15,-28.0167,6.55468,88.0004,31.7666,-14.276,-6.13608,26.5016,7.12502,19.7015,55.5232,-15.6746,3.47034,22.1672,29.3286,-18.1191,-4.20419,14.2241,-16.5784,-2.33107,-15.5684,24.0015,-6.41992,12.9071,-16.2771
-4.43035,17.9742,-4.28124,6.45803,0.608729,2.05848,5.70644,-2.26083,-2.1785,0.861457,-3.07885,2.68813,-2.04446,-1.51607,4.22111,-21.562,-5.93343,-10.8731,22.9576,-5.54152,3.3557,11.4845,-3.04506,2.12313,-1.25234e-14,7.15625e-15,-32.1178,-11.7682,-74.2338,29.216,21.6175,-19.8234,-0.317145,7.12502,6.51034,-30.1971,-1.25234e-14,7.15625e-15,-28.0439,6.8237,87.9422,31.1007,-14.7687,-6.10668,26.3089,7.12502,19.7298,55.3277,-15.8238,3.36349,22.0109,29.39,-18.149,-4.18349,14.5263,-16.6348,-2.47045,-15.7207,23.8349,-6.36213,13.0423,-16.3135
-4.44437,17.9773,-4.2846,6.49881,0.684971,2.18886,5.71496,-2.2268,-2.22198,0.873624,-3.03636,2.68477,-2.0383,-1.49484,4.23941,-21.6389,-5.92621,-10.8606,23.0916,-5.53606,3.38338,11.55,-3.03938,2.13146,3.02153e-14,-7.15625e-15,-32.3275,-11.8653,-74.0859,29.2296,21.602,-19.8049,-0.463313,7.12502,6.52815,-30.3427,3.02153e-14,-7.15625e-15,-28.0965,6.92886,87.8976,30.5363,-15.1746,-5.9732,26.3463,7.12502,19.8581,55.3518,-15.9202,3.32383,21.9177,29.468,-18.2398,-4.21032,14.589,-16.5898,-2.57572,-15.8196,23.6359,-6.22459,13.1091,-16.3346
-4.45772,17.9802,-4.29099,6.61111,0.793794,2.27469,5.64409,-2.22575,-2.22371,0.902458,-3.03372,2.72316,-1.967,-1.49535,4.27561,-21.774,-5.91709,-10.892,23.1702,-5.50088,3.40065,11.6046,-3.02386,2.14688,4.63168e-14,-4.13472e-14,-32.4211,-11.7986,-73.9983,29.3032,21.4673,-19.7588,-0.510904,7.12502,6.57265,-30.3889,4.63168e-14,-4.13472e-14,-28.0422,7.21535,87.8824,29.9438,-15.5901,-6.02098,26.6661,7.12502,19.8122,55.6763,-16.1033,3.37251,21.8675,29.5356,-18.322,-4.38502,14.357,-16.6421,-2.56093,-15.8737,23.4421,-6.09587,13.041,-16.276
-4.47065,17.9816,-4.29809,6.74962,0.952274,2.35134,5.51728,-2.27974,-2.22419,0.962167,-3.10374,2.78336,-1.82491,-1.53411,4.33445,-21.965,-5.8991,-10.9788,23.2082,-5.43764,3.46143,11.6554,-2.99374,2.19137,1.78906e-14,-9.54166e-15,-32.3874,-11.8345,-73.9067,29.3214,21.5514,-19.6251,-0.507687,7.12502,6.70178,-30.3816,1.78906e-14,-9.54166e-15,-27.9272,7.45892,87.8938,29.4015,-15.8412,-6.20515,27.071,7.12502,19.6351,56.0994,-16.2934,3.32084,21.8363,29.5906,-18.3285,-4.56428,14.3472,-16.7282,-2.5301,-15.9153,23.2518,-5.99754,12.902,-16.4888
-4.48346,17.9831,-4.30571,6.82649,1.18784,2.42977,5.5069,-2.33756,-2.21142,0.972495,-3.17902,2.8277,-1.79979,-1.57244,4.37706,-21.8599,-5.89582,-11.0198,23.115,-5.43043,3.46227,11.6007,-2.99345,2.201,3.1408e-14,-8.74653e-15,-32.4061,-11.9789,-73.7605,29.1713,21.6814,-19.5486,-0.57933,7.12502,6.77556,-30.4509,3.1408e-14,-8.74653e-15,-27.9841,7.53629,87.8777,28.9444,-15.8732,-6.24245,27.2921,7.12502,19.5993,56.3241,-16.3941,3.25752,21.8141,29.6262,-18.3614,-4.74333,14.551,-16.7722,-2.5453,-15.9506,23.0661,-5.85982,12.6803,-16.4637
-4.49343,17.9849,-4.30836,6.84262,1.30101,2.55868,5.5504,-2.32794,-2.2563,0.952538,-3.16864,2.84365,-1.84224,-1.56582,4.42129,-21.6212,-5.88502,-11.0131,23.0015,-5.42392,3.38217,11.5092,-3.0008,2.17485,-7.77248e-14,4.77083e-15,-32.5673,-12.0132,-73.6039,29.0577,21.5843,-19.6214,-0.676344,7.12502,6.70535,-30.5502,-7.77248e-14,4.77083e-15,-28.136,7.68929,87.8229,28.4732,-16.0465,-6.17995,27.3893,7.12502,19.6594,56.4152,-16.4286,3.27557,21.7096,29.6809,-18.4616,-4.82732,14.8099,-16.6971,-2.62131,-16.0546,22.8473,-5.70416,12.6333,-16.3192
-4.50131,17.9844,-4.3085,6.79593,1.32535,2.54042,5.63429,-2.28754,-2.13931,0.959248,-3.10795,2.86567,-1.89281,-1.53506,4.37859,-21.5475,-5.87188,-10.9694,23.0047,-5.41403,3.3246,11.4924,-3.00071,2.14938,4.09496e-14,-1.59028e-14,-32.7603,-12.1929,-73.4599,28.9601,21.7433,-19.5943,-0.43687,7.12502,6.7315,-30.3099,4.09496e-14,-1.59028e-14,-28.2575,7.94098,87.6765,28.0223,-16.2945,-6.13388,27.3272,7.12502,19.7037,56.3486,-16.4163,3.27515,21.7711,29.7516,-18.4974,-4.90389,14.6775,-16.5355,-2.81312,-15.9821,22.592,-5.57446,12.8103,-15.9983
-4.51159,17.9811,-4.31283,6.77978,1.42792,2.61873,5.73144,-2.28237,-2.16229,0.97409,-3.1026,2.89463,-1.92934,-1.53167,4.42592,-21.6064,-5.8527,-10.9279,23.0681,-5.37536,3.25542,11.5213,-2.98898,2.12266,2.78299e-14,-7.95139e-15,-32.8141,-12.4495,-73.3233,28.808,22.1093,-19.4197,-0.113012,7.12502,6.90002,-29.9806,2.78299e-14,-7.95139e-15,-28.2909,8.35619,87.5326,27.5147,-16.6253,-6.26821,27.0514,7.12502,19.5745,56.086,-16.4508,3.31046,21.7427,29.8266,-18.5771,-5.07909,14.5482,-16.4303,-3.00446,-15.9949,22.3327,-5.49879,12.8971,-15.7798
-4.5219,17.9798,-4.31966,6.83682,1.62485,2.81058,5.68748,-2.33915,-2.29176,1.03841,-3.18557,2.93361,-1.8214,-1.57573,4.5404,-21.7294,-5.83519,-11.0066,23.0649,-5.30164,3.23766,11.5402,-2.9636,2.1391,4.6118e-14,1.82882e-14,-32.68,-12.4953,-73.2541,28.6309,22.276,-19.3129,0.0990431,7.12502,7.00316,-29.7651,4.6118e-14,1.82882e-14,-28.2463,8.75263,87.4453,27.1031,-16.8152,-6.37324,27.1368,7.12502,19.4735,56.1816,-16.5355,3.29665,21.5784,29.8676,-18.686,-5.23859,14.7694,-16.4322,-3.11964,-16.1422,22.1176,-5.43183,12.9067,-15.4556
-4.53067,17.9834,-4.3247,6.87202,1.80823,2.90061,5.58792,-2.38416,-2.26388,1.163,-3.24405,2.93784,-1.63307,-1.61092,4.52311,-21.8802,-5.85779,-11.0721,22.9807,-5.30749,3.30483,11.5413,-2.95983,2.17078,-4.96962e-14,2.06736e-14,-32.5646,-12.346,-73.3496,28.5774,22.1929,-19.3244,-0.0479072,7.12502,6.99202,-29.9124,-4.96962e-14,2.06736e-14,-28.1223,9.00142,87.2941,26.7088,-17.0532,-6.26877,27.1744,7.12502,19.574,56.2091,-16.5956,3.23759,21.5315,29.892,-18.7307,-5.47675,14.3058,-16.4401,-3.05977,-16.2137,21.9084,-5.31252,12.882,-15.5868
-4.54,17.9921,-4.33027,6.92523,1.97068,2.95248,5.52777,-2.38474,-2.20084,1.20107,-3.24112,2.92815,-1.56464,-1.61156,4.47277,-21.7919,-5.86288,-11.0485,22.8809,-5.3344,3.31192,11.4879,-2.96779,2.16626,8.74653e-15,-6.36111e-15,-32.642,-12.3708,-73.3684,28.5561,22.1051,-19.2369,-0.147531,7.12502,7.07651,-30.0092,8.74653e-15,-6.36111e-15,-28.129,9.22048,87.1097,26.3545,-17.404,-6.24425,27.0735,7.12502,19.5975,56.1057,-16.6857,3.16905,21.5209,29.9361,-18.7567,-5.64012,13.8508,-16.4787,-3.18344,-16.183,21.6936,-5.54526,13.0346,-13.85
-4.54919,18.0002,-4.33778,7.10635,2.13765,3.16573,5.39477,-2.36704,-2.31717,1.16803,-3.22337,2.89129,-1.52181,-1.60272,4.49305,-21.5886,-5.83694,-10.9474,22.6999,-5.3281,3.21149,11.3737,-2.96751,2.11678,-6.36111e-14,4.13472e-14,-32.7693,-12.4606,-73.3313,28.5066,21.9725,-19.1367,-0.158466,7.12502,7.17323,-30.0169,-6.36111e-14,4.13472e-14,-28.2153,9.25427,87.0049,26.1319,-17.5193,-6.27975,27.2613,7.12502,19.5634,56.297,-16.9317,3.04424,21.315,30.0217,-18.7908,-5.70694,13.8947,-16.6167,-3.45732,-16.2902,21.4855,-6.12596,13.3258,-10.8727
-4.55749,17.9944,-4.34765,7.20173,2.32775,3.3117,5.45052,-2.33574,-2.35172,1.12749,-3.18434,2.85205,-1.59877,-1.58074,4.47377,-21.5949,-5.84856,-10.8136,22.7122,-5.37226,3.14802,11.3763,-2.98376,2.06419,-5.14852e-14,6.36111e-15,-32.8915,-12.5864,-73.3194,28.4276,21.8712,-19.19,-0.259467,7.12502,7.12172,-30.1196,-5.14852e-14,6.36111e-15,-28.3193,9.31731,86.8611,25.933,-17.7033,-6.19314,27.4858,7.12502,19.6467,56.513,-17.1158,2.93027,21.197,30.1416,-18.8331,-5.7723,14.0739,-16.6334,-3.27199,-16.4519,21.2848,-6.28253,13.3432,-10.7815
-4.56677,17.9831,-4.35793,7.23826,2.4635,3.3635,5.52135,-2.31108,-2.36237,1.13525,-3.15246,2.86677,-1.63184,-1.56414,4.49669,-21.7166,-5.86774,-10.8338,22.8008,-5.38904,3.18846,11.4361,-2.98807,2.07764,1.8487e-14,-6.36111e-15,-32.8853,-12.6899,-73.3371,28.3069,21.8681,-19.3099,-0.234489,7.12502,7.006,-30.0985,1.8487e-14,-6.36111e-15,-28.3149,9.5447,86.6963,25.5973,-17.8445,-6.14696,27.398,7.12502,19.6911,56.4207,-17.2761,2.96272,21.186,30.3208,-18.9632,-5.91827,14.2051,-16.5485,-2.89445,-16.5449,21.0633,-6.16115,13.1657,-13.3575
-4.57436,17.9822,-4.36637,7.31148,2.61489,3.47699,5.4171,-2.29362,-2.39615,1.22233,-3.13095,2.85601,-1.48465,-1.55771,4.49509,-21.8996,-5.88006,-10.8896,22.8269,-5.38035,3.2505,11.4837,-2.97933,2.10801,4.07509e-14,-4.13472e-14,-32.7218,-12.645,-73.4689,28.2252,21.6803,-19.2198,-0.261105,7.12502,7.09294,-30.1223,4.07509e-14,-4.13472e-14,-28.1512,9.66916,86.5953,25.3181,-17.7333,-6.18833,27.4614,7.12502,19.6513,56.4882,-17.4804,2.82396,21.1021,30.5328,-19.0278,-6.00863,13.9751,-16.5111,-2.99343,-16.6171,20.8465,-6.09554,13.182,-15.8536
-4.5805,17.9813,-4.37483,7.3726,2.77536,3.60923,5.31966,-2.25571,-2.37463,1.28579,-3.07992,2.78262,-1.37499,-1.53531,4.39675,-21.9698,-5.90462,-10.8108,22.8282,-5.43062,3.24196,11.4981,-2.99505,2.08233,3.06128e-14,1.59028e-15,-32.6098,-12.8939,-73.5416,28.0858,21.6172,-18.9154,-0.257028,7.12502,7.38681,-30.1081,3.06128e-14,1.59028e-15,-28.108,9.69231,86.4478,25.2774,-17.5438,-6.04717,27.6928,7.12502,19.787,56.7056,-17.645,2.65351,20.9961,30.7077,-19.0499,-6.04965,13.8313,-16.4269,-3.03062,-16.7191,20.6778,-6.25335,13.0182,-16.8126
-4.58662,17.9761,-4.38191,7.38137,2.9111,3.63857,5.29408,-2.23693,-2.30455,1.29127,-3.05089,2.77377,-1.362,-1.52117,4.34494,-21.8214,-5.90632,-10.7169,22.7253,-5.44994,3.12399,11.4257,-3.01028,2.02246,-4.31363e-14,1.19271e-14,-32.5231,-13.0799,-73.5495,27.8374,21.5446,-18.6165,-0.143557,7.12502,7.67535,-29.9843,-4.31363e-14,1.19271e-14,-28.2299,9.81328,86.2816,25.2641,-17.3228,-6.0352,27.6611,7.12502,19.7985,56.6727,-17.7087,2.59999,20.9939,30.8007,-19.1099,-6.06526,14.0372,-16.2429,-2.9041,-16.7291,20.6,-6.80059,12.6606,-17.1225
-4.59383,17.977,-4.38864,7.37992,3.01888,3.69053,5.34346,-2.2514,-2.33528,1.25456,-3.07093,2.83451,-1.42049,-1.52949,4.43019,-21.6663,-5.86976,-10.8494,22.6836,-5.36345,3.0951,11.3784,-2.98763,2.05043,8.94531e-15,-2.14687e-14,-32.4701,-12.8722,-73.6066,27.6781,21.292,-18.576,-0.339501,7.12502,7.71436,-30.1788,8.94531e-15,-2.14687e-14,-28.4623,10.0986,86.1549,25.2681,-16.776,-6.47296,27.2263,7.12502,19.3776,56.2808,-17.7468,2.66903,20.9638,30.8767,-19.2029,-6.17564,14.1611,-16.1184,-2.91143,-16.7377,20.5449,-7.29355,12.3493,-18.7849
-4.60133,17.9794,-4.39617,7.4022,3.14276,3.72184,5.39163,-2.28518,-2.37343,1.23305,-3.11676,2.92182,-1.45822,-1.55135,4.5483,-21.653,-5.81323,-11.058,22.6758,-5.22891,3.1527,11.3718,-2.93801,2.12837,-7.15625e-15,-1.11319e-14,-32.4491,-12.424,-73.7647,27.7429,20.8052,-18.6366,-0.76432,7.12502,7.65591,-30.6057,-7.15625e-15,-1.11319e-14,-28.6242,10.631,85.9964,25.2765,-16.3436,-6.6832,27.1378,7.12502,19.1755,56.2125,-17.8123,2.66098,20.9688,30.9362,-19.2343,-6.30142,14.1932,-16.0645,-2.90086,-16.722,20.518,-7.66156,12.0674,-19.7023
-4.60784,17.9801,-4.40341,7.43684,3.34822,3.79272,5.37753,-2.27687,-2.37795,1.24065,-3.10559,2.93156,-1.44278,-1.54617,4.55939,-21.6175,-5.8063,-11.1033,22.6027,-5.19892,3.125,11.3361,-2.93075,2.13081,-1.17283e-14,-3.97569e-15,-32.4774,-12.3175,-73.8984,27.8553,20.292,-18.5578,-0.760877,7.12502,7.73193,-30.5995,-1.17283e-14,-3.97569e-15,-28.7014,11.1171,85.7711,25.3447,-16.1651,-6.37724,27.0991,7.12502,19.4697,56.1443,-17.8741,2.50211,20.9276,30.9734,-19.2717,-6.36095,14.1208,-15.9959,-2.83918,-16.7706,20.5418,-8.06264,11.7044,-20.1648
-4.61487,17.9802,-4.41043,7.40506,3.53516,3.88779,5.46524,-2.23394,-2.3885,1.23278,-3.05033,2.89161,-1.50678,-1.51688,4.52533,-21.5973,-5.79946,-11.0562,22.6171,-5.19616,3.08201,11.3347,-2.93124,2.1082,-1.49089e-14,1.74931e-14,-32.4336,-12.57,-73.9557,27.759,20.0562,-18.2154,-0.553045,7.12502,8.06246,-30.3793,-1.49089e-14,1.74931e-14,-28.8534,11.3158,85.5854,25.5,-15.5345,-6.14096,27.2334,7.12502,19.6968,56.2555,-17.8531,2.389,20.8639,30.9826,-19.3053,-6.46512,13.9998,-15.8594,-2.79881,-16.8606,20.6521,-8.67085,11.4855,-19.787
-4.62179,17.9784,-4.42046,7.34307,3.76289,3.95232,5.62892,-2.2123,-2.37371,1.2062,-3.02236,2.86474,-1.63044,-1.49976,4.49645,-21.6019,-5.82528,-11.0481,22.7243,-5.22535,3.04345,11.3773,-2.95058,2.08778,2.78299e-15,1.51076e-14,-32.3179,-12.9487,-73.9713,27.6069,19.9318,-17.8928,-0.607624,7.12502,8.37378,-30.4216,2.78299e-15,1.51076e-14,-29.0385,11.3723,85.4693,25.6718,-14.4151,-5.90321,27.5528,7.12502,19.9254,56.5513,-17.8068,2.30463,20.8461,30.9677,-19.3476,-6.65116,13.8105,-15.7343,-2.75387,-16.9163,20.8489,-9.19873,11.2141,-19.1706
-4.62747,17.9789,-4.43369,7.28285,4.07309,3.93596,5.72791,-2.22174,-2.2806,1.21412,-3.02952,2.89685,-1.67995,-1.50261,4.48247,-21.5231,-5.86285,-11.1541,22.7096,-5.2504,3.03964,11.363,-2.97197,2.10036,1.92821e-14,-1.59028e-14,-32.2509,-13.3109,-73.914,27.6414,19.7485,-17.665,-0.636713,7.12502,8.59364,-30.4418,1.92821e-14,-1.59028e-14,-29.1106,11.4582,85.412,25.8329,-13.1387,-6.21875,27.2832,7.12502,19.6221,56.313,-17.7403,2.09834,20.9312,30.9344,-19.348,-6.81839,13.3888,-15.6726,-2.53015,-16.9146,21.1181,-9.30424,10.7403,-21.8762
-4.63289,17.9801,-4.44483,7.19146,4.36739,3.74411,5.77651,-2.23901,-2.05902,1.23822,-3.03732,3.00483,-1.68723,-1.50741,4.47194,-21.4923,-5.83062,-11.2203,22.7519,-5.16975,2.97928,11.368,-2.95026,2.10284,-7.35503e-15,1.11319e-14,-32.2398,-13.5343,-73.8623,27.808,19.2678,-17.4824,-0.371719,7.12502,8.76983,-30.1695,-7.35503e-15,1.11319e-14,-29.1783,11.7334,85.3064,26.0258,-12.0916,-5.83287,27.1222,7.12502,19.993,56.1137,-17.6548,1.93057,21.2064,30.9115,-19.3234,-6.98694,12.9835,-15.5496,-2.23991,-16.7292,21.4065,-9.4567,10.3227,-24.257
-4.63805,17.9757,-4.45334,7.11292,4.56699,3.61088,5.79227,-2.22863,-1.90973,1.244,-3.01287,3.08137,-1.69593,-1.49556,4.46639,-21.5049,-5.74572,-11.2302,22.9082,-5.02274,2.89338,11.4165,-2.89915,2.09767,-2.3059e-14,1.74931e-14,-32.2067,-13.9733,-73.784,27.9703,18.6371,-17.1968,-0.480433,7.12502,9.04544,-30.2665,-2.3059e-14,1.74931e-14,-29.2772,11.866,85.2376,26.4006,-10.8239,-4.73224,28.1477,7.12502,21.0507,57.0251,-17.6033,1.92545,21.402,30.9198,-19.3348,-7.27591,12.3325,-15.2989,-2.15534,-16.5775,21.7048,-9.87222,10.1675,-23.6911
-4.64302,17.9706,-4.4634,7.05335,4.76253,3.70452,5.83791,-2.20751,-1.97962,1.27242,-2.98938,3.08342,-1.69042,-1.48406,4.50794,-21.6918,-5.71302,-11.1963,23.1211,-4.92265,2.74171,11.5207,-2.87341,2.04997,-9.34288e-15,-9.54166e-15,-32.0585,-14.6756,-73.6862,28.1558,17.8672,-16.8065,-1.12907,7.12502,9.42202,-30.8985,-9.34288e-15,-9.54166e-15,-29.2584,11.6986,85.3506,26.8438,-8.67004,-4.86498,28.7038,7.12502,20.9231,57.5953,-17.5723,1.88255,21.3357,30.9654,-19.3789,-7.43751,12.0781,-15.0115,-2.10146,-16.6714,21.9979,-10.2627,10.108,-22.6371
-4.64768,17.968,-4.47466,7.02799,4.98005,3.80381,5.82547,-2.16715,-2.03315,1.27739,-2.93921,3.06296,-1.68132,-1.45901,4.51291,-21.6744,-5.70021,-11.2355,23.2039,-4.88225,2.70185,11.5465,-2.86577,2.04878,-1.19271e-14,3.18055e-15,-32.0368,-15.2191,-73.6646,28.4934,16.5244,-16.6131,-1.88528,7.12502,9.60863,-31.6462,-1.19271e-14,3.18055e-15,-29.2698,11.1795,85.5898,27.2611,-5.90117,-6.15172,28.2258,7.12502,19.6865,57.2489,-17.588,1.84093,21.2526,31.0414,-19.5101,-7.56907,12.2083,-14.8065,-1.91674,-16.8116,22.2748,-10.4748,10.1053,-22.8749
-4.65212,17.9672,-4.48414,7.03541,5.19736,3.86245,5.7177,-2.12547,-2.01971,1.25855,-2.8832,3.00605,-1.64951,-1.43134,4.43778,-21.5798,-5.65469,-11.2348,23.3238,-4.83995,2.73128,11.5717,-2.84636,2.06902,3.18055e-14,-1.27222e-14,-32.1211,-15.4729,-73.8326,29.0095,14.6308,-16.4692,-2.56035,7.12502,9.74748,-32.3148,3.18055e-14,-1.27222e-14,-29.3973,10.4527,85.8088,27.72,-3.2222,-7.1344,28.1548,7.12502,18.7416,57.272,-17.6251,1.75297,21.2193,31.1116,-19.6259,-7.63217,12.5117,-14.648,-1.51259,-16.9472,22.5781,-10.582,10.0298,-23.6148
-4.65751,17.9677,-4.4927,7.00262,5.44888,3.84729,5.64785,-2.11311,-1.97823,1.25898,-2.86387,3.0051,-1.61398,-1.42247,4.40877,-21.5862,-5.62422,-11.2256,23.4864,-4.78896,2.69127,11.6301,-2.83135,2.06172,-1.59028e-14,-1.59028e-15,-32.0795,-15.6818,-74.0179,29.5039,12.6593,-16.4177,-3.03797,7.12502,9.79721,-32.7901,-1.59028e-14,-1.59028e-15,-29.4769,9.95283,85.9821,28.1973,-0.901401,-7.62662,28.544,7.12502,18.2681,57.7062,-17.6063,1.68276,21.2737,31.151,-19.7128,-7.77603,12.4146,-14.4305,-1.26106,-16.9717,22.9485,-10.7096,10.0661,-23.5755
-4.66335,17.9693,-4.50057,6.96372,5.68613,3.90596,5.57768,-2.10738,-2.06498,1.28215,-2.86056,3.03862,-1.54515,-1.42232,4.48844,-21.5781,-5.60375,-11.2353,23.5302,-4.69708,2.47848,11.6345,-2.81953,1.99934,-3.43897e-14,-1.59028e-15,-31.8828,-15.9432,-74.1076,29.9309,10.6829,-16.467,-2.88985,7.12502,9.7496,-32.6442,-3.43897e-14,-1.59028e-15,-29.398,9.89588,86.0874,28.6908,0.827407,-7.57767,29.1577,7.12502,18.3152,58.3154,-17.5578,1.61315,21.2444,31.1521,-19.7911,-7.88964,12.6041,-14.2007,-1.04041,-17.0786,23.3842,-11.0785,10.178,-22.4397
-4.66893,17.9722,-4.50605,6.94249,5.93901,4.12024,5.48018,-2.09884,-2.2793,1.28993,-2.86183,2.99272,-1.47429,-1.42404,4.55699,-21.5811,-5.55773,-11.1834,23.6279,-4.59628,2.29035,11.6595,-2.7962,1.93783,-2.54444e-14,-1.74931e-14,-31.6888,-16.2596,-74.2672,30.3807,8.50181,-16.6286,-2.78623,7.12502,9.59366,-32.5478,-2.54444e-14,-1.74931e-14,-29.2879,10.0716,86.038,29.2898,2.19537,-6.86592,29.6061,7.12502,18.9998,58.6981,-17.4961,1.47827,21.0441,31.139,-19.8888,-7.98341,12.7687,-13.945,-0.820871,-17.3786,23.845,-11.5374,10.3061,-20.608
-4.6767,17.9788,-4.51412,6.9217,6.30188,4.23225,5.38474,-2.12935,-2.38056,1.27647,-2.9078,2.95829,-1.42723,-1.44758,4.57682,-21.6638,-5.51015,-11.1588,23.9052,-4.48794,2.15422,11.7709,-2.76919,1.90043,-1.5704e-14,1.59028e-14,-31.5247,-16.5149,-74.5361,30.8951,6.18489,-16.7289,-3.52163,7.12502,9.49694,-33.2876,-1.5704e-14,1.59028e-14,-29.0616,10.1013,85.9826,29.7662,3.56111,-6.19324,29.9116,7.12502,19.6466,58.9388,-17.4533,1.35849,20.9712,31.1337,-20.0041,-8.24735,12.6334,-13.7355,-0.528059,-17.5607,24.32,-11.5997,10.316,-20.6886
-4.68253,17.98,-4.52504,6.84537,6.68161,4.22481,5.28396,-2.18191,-2.35154,1.30881,-2.97538,2.96584,-1.33225,-1.48391,4.56612,-21.7341,-5.4855,-11.2749,24.1794,-4.39364,2.12403,11.8874,-2.74797,1.92328,-4.03533e-14,2.06736e-14,-31.3042,-16.7727,-74.7767,31.4177,3.87638,-16.6973,-3.64084,7.12502,9.52744,-33.4054,-4.03533e-14,2.06736e-14,-28.5416,9.90709,86.0141,29.9448,4.98225,-5.86442,29.8605,7.12502,19.9627,58.8551,-17.3629,1.19453,21.0262,31.1116,-20.0578,-8.44543,12.6087,-13.5429,-0.24373,-17.6063,24.8706,-11.3503,10.3418,-22.6
-4.68606,17.9788,-4.53562,6.76747,6.94161,4.27949,5.16994,-2.17204,-2.36014,1.3513,-2.96282,2.91461,-1.22838,-1.48032,4.51011,-21.7561,-5.46629,-11.3724,24.4687,-4.33657,2.152,12.0043,-2.73502,1.95985,2.68359e-14,1.74931e-14,-31.0955,-17.2195,-74.9661,31.9028,1.62607,-16.6914,-2.99089,7.12502,9.53315,-32.7552,2.68359e-14,1.74931e-14,-28.0809,9.40197,86.0993,30.2775,6.4311,-5.89339,29.455,7.12502,19.9348,58.4525,-17.2719,0.991737,20.9925,31.0826,-20.098,-8.48559,12.7207,-13.3426,0.162534,-17.7536,25.4891,-11.2683,10.3836,-23.6502
-4.69099,17.9806,-4.54879,6.67183,7.22762,4.30598,5.15284,-2.18581,-2.36634,1.33209,-2.98173,2.87632,-1.23861,-1.48917,4.47451,-21.6689,-5.38756,-11.4489,24.7841,-4.20987,2.15331,12.104,-2.69443,1.99727,7.35503e-15,-1.59028e-15,-30.7934,-17.3445,-75.27,32.3143,-0.801825,-16.7152,-3.04987,7.12502,9.51012,-32.8153,7.35503e-15,-1.59028e-15,-27.847,8.73665,86.2044,30.8726,8.01698,-5.97346,29.6897,7.12502,19.8579,58.6952,-17.1646,0.829933,20.9991,31.0606,-20.1622,-8.57989,12.9627,-13.1267,0.635417,-17.8669,26.1591,-11.318,10.2585,-23.7588
-4.6968,17.9822,-4.56487,6.61091,7.58583,4.32022,5.08284,-2.24248,-2.44751,1.29702,-3.06007,2.90329,-1.22244,-1.5282,4.55009,-21.5647,-5.28996,-11.5118,25.1223,-4.01303,1.98662,12.2017,-2.64485,1.98102,4.09496e-14,-4.77083e-15,-30.4098,-16.8689,-75.6814,32.8602,-3.60235,-16.9597,-3.62187,7.12502,9.27423,-33.3979,4.09496e-14,-4.77083e-15,-27.4712,8.19153,86.3585,31.3238,9.37129,-5.95494,30.2588,7.12502,19.8757,59.2625,-17.0934,0.664854,21.0166,31.0394,-20.2032,-8.70669,13.2303,-13.0112,1.08632,-17.9568,26.8898,-11.3779,10.1269,-23.7528
-4.6978,17.9801,-4.5806,6.47055,7.88864,4.28196,5.04384,-2.26096,-2.42069,1.28822,-3.08276,2.90423,-1.20896,-1.5397,4.53539,-21.4267,-5.24858,-11.5695,25.4787,-3.89928,1.81242,12.3069,-2.63379,1.94683,-3.77691e-15,9.54166e-15,-30.001,-16.211,-76.1367,33.4351,-6.68573,-17.2349,-3.62852,7.12502,9.00867,-33.4162,-3.77691e-15,9.54166e-15,-26.8805,7.64437,86.4498,31.552,10.5696,-5.87364,30.2106,7.12502,19.9538,59.2061,-16.9589,0.469899,21.0788,31.0039,-20.2196,-8.76569,13.3162,-12.8323,1.43304,-17.9943,27.6552,-11.5387,10.1596,-23.4891
-4.70163,17.9798,-4.59909,6.30209,8.275,4.20289,5.06773,-2.27223,-2.31922,1.29029,-3.09342,2.85228,-1.22758,-1.54456,4.42573,-21.3678,-5.24886,-11.587,25.9506,-3.87679,1.73958,12.4818,-2.64883,1.92808,1.59028e-14,-4.77083e-15,-29.4527,-15.7746,-76.5982,33.9143,-9.62562,-17.1012,-3.42976,7.12502,9.1377,-33.2118,1.59028e-14,-4.77083e-15,-26.0997,6.96281,86.4311,31.621,11.6906,-5.7728,30.1699,7.12502,20.0508,59.1553,-16.8185,0.389423,21.2079,30.9889,-20.3498,-9.00872,13.1924,-12.6055,1.65587,-17.9615,28.377,-11.8328,10.1419,-21.7576
-4.70734,17.9825,-4.61575,6.16687,8.78761,4.25915,4.97337,-2.32814,-2.36,1.34116,-3.1705,2.78412,-1.11702,-1.58595,4.37538,-21.2968,-5.22071,-11.6865,26.4129,-3.80366,1.72787,12.6517,-2.64153,1.95536,3.29983e-14,7.95139e-15,-28.6485,-15.2315,-77.1282,34.4505,-12.2117,-17.2942,-3.8116,7.12502,8.95148,-33.6017,3.29983e-14,7.95139e-15,-25.0705,6.3452,86.4234,31.6154,12.5521,-5.69161,30.2056,7.12502,20.1288,59.1828,-16.6706,0.20993,21.2015,30.9827,-20.5359,-9.28734,13.1888,-12.3611,1.7984,-18.0692,29.0692,-12.1863,10.0374,-19.1789
-4.7117,17.9823,-4.6281,6.02867,9.20599,4.38749,4.80849,-2.39093,-2.54311,1.38314,-3.26241,2.74224,-0.96529,-1.63578,4.42964,-21.0893,-5.15724,-11.8113,26.8174,-3.65717,1.60884,12.7662,-2.61867,1.96006,-5.88403e-14,4.13472e-14,-27.8661,-14.3975,-77.5949,35.0748,-14.4395,-17.6928,-4.27952,7.12502,8.56677,-34.0857,-5.88403e-14,4.13472e-14,-24.1034,5.66296,86.4641,31.831,13.6553,-5.75487,30.3155,7.12502,20.068,59.2991,-16.4844,0.0142507,21.0924,30.9554,-20.6821,-9.45147,13.5753,-12.089,2.16973,-18.2733,29.7561,-12.3738,9.87801,-18.2667
-4.71617,17.98,-4.64401,5.84324,9.56063,4.3699,4.71414,-2.41396,-2.59039,1.41283,-3.29469,2.71728,-0.87777,-1.65424,4.42593,-20.8066,-5.12611,-11.8861,27.2255,-3.57177,1.44682,12.8704,-2.62423,1.92998,-1.66979e-14,-6.36111e-15,-27.1705,-13.8308,-77.8858,35.6249,-16.0658,-17.8982,-4.71709,7.12502,8.36861,-34.5313,-1.66979e-14,-6.36111e-15,-23.1034,5.03195,86.4375,32.1103,14.7122,-5.49897,30.8751,7.12502,20.3139,59.8328,-16.2929,-0.104917,21.1376,30.9263,-20.7638,-9.63932,13.5849,-11.8008,2.6315,-18.3194,30.398,-12.3836,9.74595,-17.9719
-4.72078,17.9791,-4.6628,5.65793,9.96298,4.19834,4.63824,-2.42984,-2.50011,1.42224,-3.31051,2.73074,-0.828672,-1.6632,4.38538,-20.4936,-5.08812,-11.9658,27.6407,-3.4965,1.34284,12.9737,-2.62747,1.92194,-2.28602e-14,-1.27222e-14,-26.4168,-13.4156,-78.1563,36.2673,-17.5109,-17.6511,-4.34483,7.12502,8.60709,-34.1494,-2.28602e-14,-1.27222e-14,-21.9432,4.43014,86.4032,32.3358,15.4811,-5.10044,31.7643,7.12502,20.6969,60.6807,-16.1257,-0.204957,21.3594,30.885,-20.8595,-9.90667,13.4442,-11.5515,2.92725,-18.1967,31.0312,-12.4383,9.64863,-17.6155
-4.72546,17.9795,-4.68213,5.50343,10.3753,4.10562,4.53848,-2.44554,-2.52265,1.45561,-3.3313,2.74347,-0.734587,-1.67617,4.40584,-20.2494,-5.08678,-12.1269,28.0545,-3.46264,1.32789,13.0984,-2.64545,1.95353,3.85642e-14,-1.90833e-14,-25.4057,-12.9017,-78.4527,36.9404,-19.0767,-17.2426,-4.18786,7.12502,9.00126,-33.9758,3.85642e-14,-1.90833e-14,-20.6117,3.92018,86.3959,32.5642,16.0841,-4.86025,32.4055,7.12502,20.9277,61.2966,-15.971,-0.379919,21.4857,30.8031,-20.8941,-10.1191,13.3558,-11.2967,3.13234,-18.1691,31.6762,-12.5314,9.59231,-17.7171
-4.73067,17.9777,-4.70679,5.37122,10.8189,4.00216,4.52345,-2.46976,-2.53617,1.46242,-3.3638,2.75934,-0.714324,-1.69303,4.43025,-20.0433,-5.08096,-12.2377,28.455,-3.41302,1.24707,13.2227,-2.65997,1.95318,3.97569e-16,-6.36111e-15,-24.3202,-12.2296,-78.7128,37.6319,-20.7898,-17.5673,-5.62495,7.12502,8.68792,-35.4262,3.97569e-16,-6.36111e-15,-19.2076,3.30393,86.3641,32.8207,17.0343,-4.85584,32.7259,7.12502,20.9319,61.6165,-15.8294,-0.486607,21.6318,30.6717,-20.9177,-10.4285,13.6736,-11.0908,3.39361,-18.1242,32.3095,-12.5604,9.44168,-18.1688
-4.73516,17.981,-4.73492,5.21065,11.2317,3.85396,4.61943,-2.47524,-2.45221,1.43798,-3.3682,2.74868,-0.798252,-1.69281,4.37796,-19.8823,-5.06064,-12.2745,28.8813,-3.33477,1.0881,13.3628,-2.6657,1.91412,4.51241e-14,-3.10104e-14,-23.2239,-11.5597,-78.9874,38.3773,-22.5579,-18.2762,-6.92549,7.12502,8.00378,-36.7539,4.51241e-14,-3.10104e-14,-17.7576,2.5358,86.2954,33.087,18.3144,-5.13066,33.0455,7.12502,20.6679,61.965,-15.6849,-0.468579,21.8137,30.5466,-20.9874,-10.8344,13.9376,-10.9336,3.80442,-18.0381,32.881,-12.3208,9.37622,-17.7699
-4.73776,17.9905,-4.75713,5.08366,11.6603,3.83472,4.56509,-2.50014,-2.50166,1.47692,-3.40365,2.71261,-0.723808,-1.71264,4.36568,-19.8317,-5.05196,-12.297,29.2935,-3.25573,0.916378,13.521,-2.67091,1.86552,-5.1684e-14,3.26007e-14,-21.981,-10.8867,-79.2605,39.2228,-24.3408,-18.6033,-6.74682,7.12502,7.68809,-36.5871,-5.1684e-14,3.26007e-14,-16.1822,1.95947,86.2236,33.4269,19.5288,-5.51327,33.3369,7.12502,20.3002,62.2959,-15.5275,-0.568633,21.8452,30.4058,-21.0467,-11.1877,13.5994,-10.8054,4.14242,-18.119,33.4262,-11.8776,9.44701,-17.176
-4.73918,17.9941,-4.77659,4.97601,12.1119,3.93903,4.47855,-2.56338,-2.7003,1.50977,-3.49631,2.67803,-0.623002,-1.76214,4.43957,-19.6822,-5.01528,-12.4582,29.6097,-3.13595,0.84416,13.6213,-2.65775,1.88767,2.5842e-14,-1.03368e-14,-20.6414,-10.2644,-79.4032,40.0403,-25.8349,-18.3328,-5.76844,7.12502,7.94917,-35.599,2.5842e-14,-1.03368e-14,-14.5868,1.58448,86.122,33.8692,20.7642,-5.9671,33.5131,7.12502,19.864,62.518,-15.3502,-0.785912,21.7429,30.2829,-21.0354,-11.4506,13.1569,-10.5971,4.43219,-18.319,33.9364,-11.7401,9.28277,-16.3797
-4.74285,17.994,-4.80023,4.82677,12.5045,3.79594,4.55847,-2.5745,-2.7382,1.46608,-3.51309,2.73412,-0.704991,-1.7684,4.5257,-19.6095,-5.00223,-12.6264,29.9819,-3.03357,0.771257,13.7647,-2.65551,1.90639,6.75868e-15,8.74653e-15,-19.3243,-9.82743,-79.402,40.7884,-27.1049,-18.279,-5.08469,7.12502,8.00103,-34.9133,6.75868e-15,8.74653e-15,-12.9938,1.00795,86.0367,34.302,22.3326,-6.53989,33.5246,7.12502,19.3133,62.5855,-15.2297,-0.866321,21.9143,30.2153,-21.0907,-11.7083,13.2469,-10.3632,4.70685,-18.2241,34.3815,-11.8346,9.05898,-15.4575
-4.74626,17.9917,-4.82897,4.6755,12.8261,3.68103,4.71147,-2.54677,-2.88879,1.39013,-3.48382,2.8357,-0.855738,-1.74982,4.72608,-19.4459,-4.98809,-12.8091,30.2609,-2.90979,0.608924,13.8482,-2.65523,1.89622,-1.59028e-14,-7.95139e-16,-18.0443,-9.43598,-79.2627,41.5861,-28.4331,-18.3637,-4.84004,7.12502,7.91928,-34.6717,-1.59028e-14,-7.95139e-16,-11.3812,0.516467,86.0378,34.7117,23.9315,-6.85646,33.807,7.12502,19.0089,62.8981,-15.1685,-0.956782,22.0451,30.217,-21.1571,-11.9123,13.3533,-10.1297,5.10358,-18.1903,34.7659,-11.8598,8.9458,-15.2311
-4.74576,17.9893,-4.85624,4.6709,13.1515,3.7107,4.64894,-2.56718,-3.06573,1.29841,-3.518,2.8453,-0.900336,-1.76468,4.83698,-19.2078,-4.90989,-12.8842,30.4533,-2.7297,0.401183,13.8697,-2.6217,1.86113,-1.23246e-14,-1.59028e-14,-16.6287,-9.05843,-79.1995,42.311,-29.6859,-18.545,-5.0991,7.12502,7.74435,-34.9373,-1.23246e-14,-1.59028e-14,-9.83057,0.206507,85.9753,35.1981,25.6679,-7.11859,33.6509,7.12502,18.7568,62.7666,-15.2752,-1.12498,22.006,30.2743,-21.1608,-12.085,13.5463,-9.97641,5.52369,-18.3422,35.0957,-11.9146,8.77088,-15.5223
-4.7448,17.9866,-4.88238,4.66741,13.529,3.63933,4.49562,-2.61641,-3.05062,1.28115,-3.58075,2.79974,-0.829874,-1.79736,4.77547,-19.4025,-4.82611,-12.7694,30.7929,-2.53123,0.192432,14.0406,-2.56478,1.79142,-2.08724e-14,2.38542e-15,-15.0203,-8.79585,-79.2587,43.0478,-30.9534,-19.0586,-5.62306,7.12502,7.24855,-35.4789,-2.08724e-14,2.38542e-15,-8.11592,-0.0029776,85.7807,35.6193,27.147,-6.41642,34.0609,7.12502,19.432,63.1099,-15.4334,-1.24029,22.0744,30.426,-21.2391,-12.2725,13.8795,-9.81293,5.7982,-18.3739,35.3423,-12.0132,8.56455,-15.4135
-4.7449,17.9782,-4.91285,4.63771,13.9207,3.54845,4.3963,-2.64835,-3.02049,1.29781,-3.62111,2.72706,-0.75979,-1.8192,4.67823,-19.5583,-4.78835,-12.6433,31.0464,-2.43739,0.0565561,14.1748,-2.53822,1.73064,-5.68524e-14,-1.74931e-14,-13.2532,-8.64958,-79.3342,43.6396,-32.1504,-19.2628,-5.77512,7.12502,7.05148,-35.6377,-5.68524e-14,-1.74931e-14,-6.27959,-0.451471,85.5389,36.1389,28.7378,-6.29539,35.0375,7.12502,19.5484,64.0747,-15.6154,-1.44408,22.1648,30.6279,-21.3497,-12.3865,14.0868,-9.59452,6.04878,-18.3864,35.4967,-11.9906,8.69756,-15.1258
-4.74152,17.9638,-4.94473,4.61438,14.2876,3.49811,4.31916,-2.67837,-2.98789,1.29373,-3.65942,2.63005,-0.725612,-1.83869,4.55623,-19.4542,-4.75265,-12.6403,31.1031,-2.38008,0.00400307,14.1731,-2.52207,1.72094,-6.75868e-15,-3.18055e-14,-11.4248,-8.48281,-79.3921,44.1494,-33.1653,-19.3175,-5.70761,7.12502,6.99868,-35.5719,-6.75868e-15,-3.18055e-14,-4.48286,-1.02668,85.2931,36.678,30.8601,-8.6129,34.281,7.12502,17.319,63.5294,-15.8187,-1.7907,22.201,30.8218,-21.3039,-12.437,13.9711,-9.30462,6.24183,-18.4595,35.5881,-11.9465,9.25481,-13.841
-4.73675,17.9571,-4.974,4.60044,14.6082,3.41253,4.22558,-2.70716,-2.95857,1.27652,-3.69542,2.57725,-0.692979,-1.85694,4.48142,-19.3809,-4.69321,-12.5896,31.1552,-2.26586,-0.147391,14.1703,-2.48956,1.67293,-7.55382e-14,8.74653e-15,-9.68371,-8.11979,-79.336,44.8101,-34.1679,-19.6367,-5.68757,7.12502,6.69056,-35.5619,-7.55382e-14,8.74653e-15,-2.66112,-1.41039,85.0838,37.1022,32.7567,-10.4622,33.2468,7.12502,15.5385,62.6425,-16.0111,-2.00195,22.2713,31.0287,-21.4043,-12.5546,13.3931,-9.02352,6.37205,-18.5078,35.6114,-12.0155,9.63955,-11.8509
-4.7334,17.9552,-5.00307,4.53148,14.9982,3.29049,4.22626,-2.75422,-2.92336,1.24128,-3.75689,2.54786,-0.727914,-1.88618,4.43462,-19.3369,-4.63438,-12.5437,31.2449,-2.1532,-0.273945,14.1912,-2.45645,1.63505,5.96354e-16,-9.54166e-15,-7.97506,-7.95609,-79.2354,45.413,-34.8677,-19.6053,-5.47508,7.12502,6.72088,-35.3484,5.96354e-16,-9.54166e-15,-0.999406,-1.74397,84.8934,37.7247,34.2818,-10.3413,33.1565,7.12502,15.6549,62.5431,-16.1303,-2.0328,22.3825,31.227,-21.6207,-12.8401,13.1508,-8.74386,6.50775,-18.5032,35.5689,-12.0759,9.7531,-10.7121
-4.7306,17.9495,-5.03631,4.49585,15.3174,3.29471,4.25747,-2.78922,-3.02917,1.20893,-3.80962,2.46804,-0.771998,-1.91097,4.41625,-19.2996,-4.57363,-12.5076,31.3327,-2.05134,-0.348282,14.2138,-2.42191,1.61802,3.46879e-14,-7.15625e-15,-6.16797,-8.01711,-79.1924,45.9347,-35.3916,-19.3444,-5.55669,7.12502,6.97273,-35.4218,3.46879e-14,-7.15625e-15,0.547783,-2.00181,84.6873,38.5016,35.661,-10.1458,32.9677,7.12502,15.8432,62.3394,-16.2902,-2.10518,22.3445,31.4031,-21.7139,-13,13.5632,-8.47198,6.76606,-18.6654,35.465,-12.02,9.94842,-10.613
-4.72549,17.9441,-5.06797,4.50095,15.4577,3.26347,4.11885,-2.76718,-3.1304,1.22965,-3.78251,2.4094,-0.673308,-1.90003,4.40245,-19.2618,-4.52562,-12.4436,31.3741,-1.95244,-0.500555,14.2155,-2.39417,1.56391,8.28932e-14,7.95139e-16,-4.28126,-8.12163,-79.1363,46.5202,-36.0653,-19.4233,-5.68406,7.12502,6.89649,-35.5517,8.28932e-14,7.95139e-16,2.31579,-2.10323,84.5675,39.0794,36.932,-9.98344,32.9602,7.12502,15.9996,62.3195,-16.5011,-2.2208,22.3286,31.5718,-21.8621,-12.9423,14.4212,-8.23051,7.21175,-18.8491,35.3139,-11.7909,10.2885,-11.3281
-4.71917,17.9372,-5.09662,4.50407,15.6323,3.23656,4.00897,-2.75467,-3.22648,1.20741,-3.76809,2.35449,-0.633755,-1.89342,4.3934,-19.1527,-4.44394,-12.3421,31.3754,-1.80891,-0.714981,14.1802,-2.34952,1.48751,7.95139e-15,-4.53229e-14,-2.51887,-8.30488,-79.074,47.1576,-36.6576,-19.5969,-5.61948,7.12502,6.72894,-35.4926,7.95139e-15,-4.53229e-14,4.0613,-2.27424,84.4414,39.5557,38.3607,-10.5559,32.8563,7.12502,15.4483,62.2589,-16.6879,-2.30407,22.3126,31.7551,-22.018,-12.9275,14.9577,-7.96675,7.78161,-19.0241,35.115,-11.5173,10.481,-13.0411
-4.7123,17.9321,-5.12701,4.5084,16.0136,3.1556,3.96435,-2.79944,-3.23599,1.13952,-3.82765,2.3202,-0.674599,-1.92107,4.36494,-19.0594,-4.35417,-12.3111,31.4514,-1.66714,-0.800894,14.1835,-2.29912,1.47445,-8.65707e-14,1.43125e-14,-0.760776,-8.6047,-79.0028,47.7412,-37.2051,-19.6703,-5.61206,7.12502,6.65811,-35.4874,-8.65707e-14,1.43125e-14,5.70471,-2.441,84.3646,40.0563,39.6038,-11.1998,32.6775,7.12502,14.828,62.127,-16.8748,-2.50694,22.3581,31.9305,-21.7477,-13.1343,13.4798,-7.71966,8.08929,-19.1042,34.8821,-11.503,10.5678,-13.9457
-4.70647,17.9263,-5.16107,4.51129,16.4542,2.99398,3.95437,-2.87834,-3.20729,1.07267,-3.93133,2.34173,-0.728031,-1.97067,4.3763,-19.0828,-4.30994,-12.4016,31.6185,-1.56469,-0.775589,14.2591,-2.26925,1.51762,2.28602e-15,-2.3059e-14,1.05542,-8.8654,-78.921,48.3379,-37.9514,-19.7847,-5.68681,7.12502,6.54764,-35.5656,2.28602e-15,-2.3059e-14,7.37412,-2.63955,84.265,40.5476,40.8731,-10.2093,32.506,7.12502,15.7821,61.8827,-17.1078,-2.65227,22.496,32.1274,-21.7506,-13.3376,13.0306,-7.52528,8.18491,-19.1058,34.5873,-11.5958,10.7698,-14.5221
-4.70038,17.9171,-5.19413,4.45398,16.7622,2.80641,3.9597,-2.92189,-3.17665,1.03977,-3.9882,2.35317,-0.760561,-1.99785,4.37434,-19.0959,-4.27874,-12.3777,31.7093,-1.48889,-0.860856,14.2976,-2.24945,1.49223,6.64935e-14,7.95139e-15,2.83447,-9.19648,-78.9228,48.9658,-38.6686,-20.0091,-5.72108,7.12502,6.33107,-35.6065,6.64935e-14,7.95139e-15,8.97351,-2.86272,84.1219,41.061,42.1898,-8.73945,31.1647,7.12502,17.1972,60.4237,-17.2819,-2.68952,22.6576,32.3355,-22.4214,-13.2999,15.2618,-7.24529,8.38322,-19.0843,34.231,-11.7651,10.972,-15.2294
-4.69064,17.9077,-5.22377,4.47539,16.9726,2.80352,3.81629,-2.9267,-3.26225,1.04492,-3.99579,2.27035,-0.674498,-2.00363,4.3278,-19.0318,-4.2138,-12.3355,31.7287,-1.40813,-0.882004,14.2853,-2.21268,1.49237,-1.61016e-14,3.18055e-15,4.63723,-9.6647,-79.0112,49.589,-39.5147,-20.3947,-5.7996,7.12502,5.95878,-35.6958,-1.61016e-14,3.18055e-15,10.5824,-3.15294,83.9595,41.4675,43.425,-8.13722,31.7143,7.12502,17.7768,60.9217,-17.4867,-2.82559,22.6126,32.5538,-22.4219,-13.3943,14.8314,-6.96214,8.7354,-19.2897,33.8173,-11.8311,11.2066,-17.3008
-4.68241,17.9008,-5.25612,4.50654,17.317,2.75635,4.16146,-2.90197,-3.12529,0.663394,-3.96834,2.10315,-1.28445,-1.96935,4.11295,-18.5885,-4.16468,-12.2897,31.9799,-1.41737,-0.861357,14.2995,-2.216,1.49731,3.37934e-15,-1.51076e-14,5.71641,-10.3667,-79.0467,50.3844,-40.4943,-20.5492,-5.98872,7.12502,5.80959,-35.8891,3.37934e-15,-1.51076e-14,11.6819,-3.67019,83.8746,41.8256,44.5673,-7.82751,32.0078,7.12502,18.0748,61.1879,-17.7244,-3.05157,22.616,32.7695,-22.0244,-13.5973,12.9787,-6.75566,8.92116,-19.4609,33.3614,-11.998,11.6158,-19.4846
-4.67583,17.8947,-5.28983,4.44765,17.7909,2.64284,3.99784,-3.01315,-3.24478,0.821272,-4.1168,2.14554,-1.0049,-2.05247,4.21281,-18.7489,-4.14008,-12.2973,31.9718,-1.33586,-0.901395,14.3264,-2.18761,1.49487,6.47044e-14,-4.77083e-15,7.81664,-10.8906,-79.2238,51.0767,-41.5558,-20.4777,-6.10172,7.12502,5.87865,-36.0002,6.47044e-14,-4.77083e-15,13.6057,-3.53413,83.9142,42.121,45.9468,-7.58873,31.1019,7.12502,18.3045,60.2607,-17.884,-3.36763,22.7009,32.9898,-21.9679,-13.7268,12.3786,-6.4359,8.75772,-19.5254,32.8505,-12.8609,11.9296,-18.1128
-4.66857,17.8881,-5.32068,4.45065,18.2362,2.52172,3.86343,-3.11818,-3.34233,0.87302,-4.25688,2.19259,-0.852226,-2.12714,4.30993,-18.7803,-4.11842,-12.4289,31.9601,-1.28437,-0.805358,14.3277,-2.1674,1.56493,-3.30976e-14,1.11319e-14,9.76189,-11.3553,-79.4286,51.9043,-42.9207,-20.7792,-6.44412,7.12502,5.58757,-36.3505,-3.30976e-14,1.11319e-14,15.3106,-3.60855,83.9046,42.56,47.2104,-7.84198,30.0063,7.12502,18.0609,59.1877,-18.0984,-3.48459,22.789,33.1991,-22.2502,-13.8512,12.934,-6.14156,8.55739,-19.5431,32.2754,-14.0279,12.0241,-14.6103
-4.6601,17.8831,-5.35092,4.57631,18.6606,2.51017,3.76976,-3.17305,-3.48574,0.750561,-4.3344,2.1687,-0.90954,-2.16243,4.36664,-18.5193,-4.10289,-12.4995,31.9892,-1.30747,-0.716257,14.2862,-2.17268,1.61234,-9.93923e-15,2.38542e-14,11.332,-11.9074,-79.5636,52.8662,-44.4821,-21.2795,-6.88803,7.12502,5.10444,-36.8066,-9.93923e-15,2.38542e-14,16.6652,-3.98581,83.8556,43.1019,48.4839,-7.9966,29.1495,7.12502,17.9121,58.3447,-18.389,-3.56233,22.7618,33.3866,-22.4294,-14.0434,13.4714,-5.98745,8.43826,-19.6947,31.6097,-14.8138,12.2133,-12.549
-4.64939,17.8804,-5.38078,4.69933,19.1582,2.58704,3.70652,-3.244,-3.64929,0.609454,-4.43578,2.09039,-1.00318,-2.20807,4.38177,-18.2768,-4.08728,-12.4556,32.1529,-1.32272,-0.735623,14.3063,-2.1817,1.59754,5.76476e-15,-1.59028e-14,12.6982,-12.5837,-79.7436,53.8721,-45.6815,-21.0924,-6.87968,7.12502,5.28518,-36.7938,5.76476e-15,-1.59028e-14,17.8789,-4.40999,83.7889,43.7765,50.0033,-8.19031,29.6846,7.12502,17.7257,58.8967,-18.6293,-3.83829,22.6442,33.5698,-22.5702,-14.2204,13.4265,-5.83308,8.03669,-19.9937,30.8403,-15.3251,12.7704,-11.758
-4.63717,17.8794,-5.4071,4.69188,19.6728,2.51763,3.69513,-3.33873,-3.68521,0.628833,-4.56362,2.04741,-0.964531,-2.27323,4.35954,-18.4652,-4.10653,-12.3715,32.2912,-1.32825,-0.770519,14.4085,-2.18524,1.56603,2.0276e-14,-1.59028e-14,14.328,-13.2375,-80.0605,54.8487,-46.8767,-20.4545,-6.40752,7.12502,5.90099,-36.3053,2.0276e-14,-1.59028e-14,19.2764,-4.71569,83.7067,44.6526,51.6568,-8.8908,30.8203,7.12502,17.0516,60.0919,-18.7722,-4.1178,22.6636,33.7522,-22.7049,-14.4097,13.0661,-5.5487,7.38976,-20.1411,30.0122,-15.9112,13.4045,-10.437
-4.62425,17.8792,-5.43114,4.74082,20.0817,2.47344,3.62617,-3.42158,-3.80073,0.691555,-4.67622,2.03856,-0.841323,-2.33373,4.41039,-18.7985,-4.13237,-12.3797,32.3952,-1.30809,-0.751893,14.5284,-2.18106,1.57452,5.36719e-15,0,16.0053,-13.628,-80.3233,55.9389,-48.3725,-20.2157,-5.98531,7.12502,6.13153,-35.8766,5.36719e-15,0,20.6901,-4.86797,83.6923,45.6135,53.3731,-9.87614,31.2925,7.12502,16.1029,60.6435,-18.9552,-4.31773,22.6514,33.9364,-22.8444,-14.4916,13.1106,-5.31531,6.88803,-20.3099,29.1751,-16.3643,14.0399,-9.30022
-4.61299,17.8737,-5.46048,4.8504,20.4544,2.42824,3.55794,-3.47545,-3.89641,0.616823,-4.7503,2.03918,-0.864676,-2.3688,4.46474,-18.6926,-4.12607,-12.5114,32.4171,-1.30808,-0.633425,14.518,-2.18053,1.64663,-4.72114e-14,7.95139e-15,17.2359,-13.8968,-80.3578,57.2128,-49.9936,-20.0284,-5.562,7.12502,6.31244,-35.4479,-4.72114e-14,7.95139e-15,21.8252,-5.063,83.7819,46.6456,55.3445,-10.7512,31.5084,7.12502,15.2601,60.9255,-19.2451,-4.46914,22.6448,34.119,-22.9102,-14.5738,13.2312,-5.26206,6.6829,-20.5113,28.3934,-16.2162,14.9482,-10.3371
-4.60258,17.862,-5.49131,4.85736,20.8825,2.2782,3.59859,-3.53077,-3.87432,0.546775,-4.82519,2.03357,-0.954044,-2.40269,4.45467,-18.6078,-4.12341,-12.4694,32.5091,-1.32762,-0.630111,14.541,-2.18618,1.63876,-1.25234e-14,1.15295e-14,18.3786,-14.2569,-80.4957,58.678,-51.5844,-19.9139,-5.37127,7.12502,6.42291,-35.2539,-1.25234e-14,1.15295e-14,22.7983,-5.3743,83.8222,47.933,57.7465,-11.5101,31.8978,7.12502,14.529,61.369,-19.4881,-4.46402,22.7387,34.3302,-23.0873,-14.852,13.1678,-5.22888,6.63041,-20.6193,27.702,-15.5151,15.9938,-13.4972
-4.59105,17.854,-5.51828,4.9114,21.3845,2.21313,3.51999,-3.59865,-4.09195,0.587802,-4.92022,2.12234,-0.831521,-2.45427,4.66247,-18.7194,-4.17226,-12.5009,32.5323,-1.33659,-0.711334,14.5796,-2.2061,1.60728,4.00551e-14,-7.55382e-15,19.8437,-14.6836,-80.7197,60.2458,-52.8445,-20.1616,-5.4815,7.12502,6.1838,-35.3712,4.00551e-14,-7.55382e-15,23.8562,-5.53697,84.0988,49.3558,60.3727,-12.2489,32.0891,7.12502,13.8171,61.6103,-19.7255,-4.58375,22.7524,34.5534,-23.3615,-15.1066,13.1376,-5.20343,6.45038,-20.771,27.122,-15.0419,16.6573,-15.6487
-4.57557,17.8472,-5.545,5.06777,21.9319,2.19757,3.12265,-3.6257,-4.51155,0.761032,-4.95349,2.34941,-0.370712,-2.48871,5.09482,-18.8275,-4.34489,-12.768,32.3866,-1.45906,-0.76876,14.5572,-2.29204,1.60347,-4.58199e-14,-6.36111e-15,21.3981,-15.0802,-80.6185,61.9201,-53.956,-20.3348,-5.33103,7.12502,6.01658,-35.2256,-4.58199e-14,-6.36111e-15,25.0361,-5.65324,84.7359,51.0132,63.0623,-12.9537,32.5252,7.12502,13.1378,62.0914,-20.0337,-4.88712,22.7148,34.7705,-23.5605,-15.1583,13.588,-5.23263,5.98685,-20.9476,26.6311,-15.1765,17.0501,-15.4188
-4.56179,17.8414,-5.57457,5.17813,22.445,2.10615,3.18604,-3.70662,-4.46339,0.667796,-5.06336,2.30858,-0.497052,-2.53782,5.03624,-18.8811,-4.39824,-12.7442,32.4306,-1.53933,-0.75106,14.5942,-2.32268,1.59145,-2.08724e-14,-1.98785e-15,22.2342,-15.2932,-80.7009,63.7734,-54.9636,-19.7263,-4.39345,7.12502,6.604,-34.2705,-2.08724e-14,-1.98785e-15,25.6796,-5.88153,84.8501,52.861,65.8681,-13.7492,33.5023,7.12502,12.371,63.1163,-20.3305,-5.15634,22.7518,34.9725,-23.7706,-15.1624,14.1027,-5.25263,5.49513,-21.0195,26.1955,-15.4516,17.3801,-14.2955
-4.54808,17.8349,-5.6083,5.20913,22.904,2.0025,3.18816,-3.7769,-4.51592,0.749711,-5.15781,2.35282,-0.393515,-2.59018,5.10907,-19.0142,-4.46238,-12.8291,32.3102,-1.59561,-0.719007,14.5758,-2.34747,1.6066,-9.00495e-14,-5.1684e-15,23.3028,-15.3382,-80.5968,65.6517,-56.1311,-18.9174,-3.37067,7.12502,7.38483,-33.2218,-9.00495e-14,-5.1684e-15,26.4739,-6.14417,84.9077,54.8067,68.6111,-13.8447,33.9083,7.12502,12.2789,63.5279,-20.561,-5.42468,22.7991,35.1531,-23.9326,-15.2378,14.3008,-5.25618,4.95719,-21.0805,25.7929,-15.6762,17.7746,-13.561
-4.52889,17.8298,-5.63877,5.27089,23.3295,1.9177,3.13677,-3.8582,-4.54885,0.806035,-5.2647,2.3823,-0.287829,-2.6483,5.15254,-19.0743,-4.46864,-12.8437,32.1831,-1.5944,-0.716326,14.5317,-2.34261,1.60975,-2.38542e-15,-1.74931e-14,24.1941,-15.2093,-80.3902,67.4634,-57.4924,-18.7391,-2.81975,7.12502,7.55694,-32.6648,-2.38542e-15,-1.74931e-14,27.1717,-6.34054,84.9591,56.8273,71.1661,-12.9498,33.5277,7.12502,13.1416,63.0936,-20.8211,-5.76428,22.8098,35.3351,-23.9288,-15.3292,14.1764,-5.2543,4.36491,-21.1756,25.3766,-15.9459,18.1278,-12.8078
-4.51038,17.8266,-5.66264,5.38231,23.7614,1.87585,3.07885,-3.94331,-4.64615,0.814055,-5.37913,2.38747,-0.223578,-2.70806,5.20831,-19.1989,-4.4659,-12.7295,32.1647,-1.57429,-0.81508,14.5464,-2.33338,1.55231,-7.25564e-14,1.55052e-14,24.8014,-15.1233,-80.0928,69.3144,-58.4325,-18.235,-2.02458,7.12502,8.04352,-31.8515,-7.25564e-14,1.55052e-14,27.7821,-6.35091,85.2192,58.7746,73.1675,-12.1317,33.2927,7.12502,13.9301,62.8061,-21.0872,-6.00797,22.7708,35.5096,-23.9594,-15.4532,14.0781,-5.23837,3.76135,-21.2882,24.9574,-16.2067,18.4537,-11.9978
-4.49407,17.8226,-5.68773,5.55428,24.1825,1.92936,3.13632,-3.99758,-4.79833,0.70247,-5.4601,2.36835,-0.348378,-2.74265,5.28447,-19.2188,-4.50942,-12.8003,32.2509,-1.62033,-0.766179,14.5957,-2.35817,1.57523,8.89561e-14,1.07344e-14,25.1704,-15.0942,-79.6842,71.3913,-59.0526,-17.3104,-1.35805,7.12502,8.93583,-31.1488,8.89561e-14,1.07344e-14,28.1126,-6.39757,85.6963,60.6776,74.4347,-11.6102,33.1446,7.12502,14.4326,62.6227,-21.3649,-6.25378,22.6484,35.6719,-24.0938,-15.4861,14.3856,-5.26448,3.24342,-21.484,24.5376,-16.2888,18.7664,-11.671
-4.47887,17.817,-5.71391,5.666,24.5718,1.8723,3.25079,-4.0231,-4.82381,0.562725,-5.50152,2.33872,-0.552025,-2.75382,5.28509,-19.0953,-4.59534,-12.9551,32.2761,-1.76962,-0.596068,14.5952,-2.4169,1.64521,-2.98177e-16,-3.26007e-14,25.4543,-15.0433,-79.242,73.5304,-59.826,-16.7486,-1.27607,7.12502,9.47796,-31.0429,-2.98177e-16,-3.26007e-14,28.3182,-6.6013,85.9968,62.6892,75.4155,-10.9514,32.5777,7.12502,15.0673,62.0094,-21.6156,-6.41352,22.6494,35.8151,-24.1856,-15.6368,14.4003,-5.31193,2.83191,-21.5509,24.1512,-16.1747,19.0365,-12.3539
-4.46101,17.8136,-5.73724,5.69239,24.8981,1.75323,3.40419,-4.05208,-4.73668,0.460465,-5.54524,2.25651,-0.754451,-2.76681,5.17013,-19.029,-4.63887,-12.8332,32.3162,-1.87942,-0.614631,14.6026,-2.45253,1.59829,-1.36664e-14,1.82882e-14,25.5285,-14.8813,-78.7533,75.7485,-60.5984,-16.6759,-0.967537,7.12502,9.54804,-30.7312,-1.36664e-14,1.82882e-14,28.5554,-6.79827,86.0677,64.6282,76.4985,-9.90066,31.8517,7.12502,16.0793,61.2046,-21.7944,-6.49231,22.6913,35.9602,-24.2661,-15.7886,14.2357,-5.29326,2.53048,-21.5405,23.7887,-16.173,19.1595,-12.6248
-4.44101,17.8093,-5.76168,5.70113,25.2428,1.72451,3.42423,-4.06464,-4.74328,0.500427,-5.56341,2.17047,-0.730166,-2.77718,5.08463,-18.9936,-4.68926,-12.7352,32.2989,-1.99091,-0.622279,14.5915,-2.48752,1.55919,-1.635e-14,-1.51076e-14,25.7366,-14.8248,-78.2262,77.903,-61.2569,-16.2504,0.255032,7.12502,9.95861,-29.4894,-1.635e-14,-1.51076e-14,28.8716,-7.00084,86.2517,66.4254,77.1147,-8.1928,31.2846,7.12502,17.7233,60.4968,-21.9116,-6.70055,22.625,36.0793,-24.2519,-15.8386,14.0183,-5.22196,2.1885,-21.6226,23.4737,-16.231,19.239,-12.3733
-4.42284,17.8046,-5.78572,5.74766,25.6155,1.7284,2.80261,-4.04352,-5.01937,0.948548,-5.51177,2.22357,0.105438,-2.788,5.21786,-19.0948,-4.85493,-12.9124,32.0113,-2.21941,-0.463352,14.5063,-2.57123,1.61069,1.12313e-13,1.98785e-15,26.5845,-14.9245,-77.5613,79.9376,-61.6781,-15.5348,2.27151,7.12502,10.6489,-27.4386,1.12313e-13,1.98785e-15,29.6828,-7.28723,86.6817,68.2724,76.8965,-6.50937,30.7337,7.12502,19.3426,59.7917,-22.0388,-6.96485,22.5366,36.1723,-24.2739,-15.8794,13.9032,-5.19759,1.87157,-21.7023,23.1973,-16.248,19.2284,-12.2788
-4.40896,17.8025,-5.80974,5.81028,25.9574,1.61451,3.31148,-4.11228,-4.89264,0.52915,-5.6279,2.11957,-0.620375,-2.81329,5.10488,-18.8334,-4.73812,-12.7929,32.3168,-2.13353,-0.425938,14.5757,-2.52656,1.62655,2.5842e-14,1.35174e-14,26.021,-14.4609,-76.86,82.1641,-61.8345,-14.7835,3.08765,7.12502,11.3735,-26.5839,2.5842e-14,1.35174e-14,29.0636,-7.49259,86.7984,70.2659,77.1906,-5.62599,29.933,7.12502,20.1919,58.9036,-22.2307,-7.06519,22.5871,36.2429,-24.442,-15.9935,14.3563,-5.27378,1.7139,-21.6314,22.9587,-16.2679,19.1008,-12.5455
-4.39458,17.8025,-5.83612,5.84986,26.2484,1.46169,3.61952,-4.12061,-4.8599,0.263424,-5.65477,2.12321,-1.06656,-2.80681,5.13151,-18.5691,-4.71915,-12.8194,32.4465,-2.12946,-0.433784,14.5771,-2.53311,1.63243,-8.39368e-14,-1.59028e-15,25.6639,-14.1741,-76.1327,84.3962,-62.1508,-13.9341,2.2961,7.12502,12.1927,-27.3286,-8.39368e-14,-1.59028e-15,28.6279,-7.70359,87.028,72.239,78.029,-4.94708,28.8614,7.12502,20.8443,57.7617,-22.4221,-7.11029,22.6682,36.3042,-24.5303,-16.149,14.5157,-5.34985,1.51612,-21.5395,22.7314,-16.2653,19.0536,-12.5884
-4.37713,17.8021,-5.86043,5.91185,26.4716,1.38195,3.64896,-4.10557,-4.92265,0.177641,-5.63996,2.11969,-1.16786,-2.79401,5.1696,-18.3764,-4.74473,-12.84,32.4786,-2.18623,-0.439427,14.5543,-2.56059,1.62608,-6.22693e-14,-1.35174e-14,25.4877,-13.9981,-75.5195,86.6704,-62.2449,-13.3116,1.40105,7.12502,12.7928,-28.187,-6.22693e-14,-1.35174e-14,28.3573,-7.95298,87.297,74.1742,78.3257,-3.74807,27.6964,7.12502,21.9959,56.4657,-22.5966,-7.15869,22.6707,36.359,-24.5349,-16.3011,14.3653,-5.39335,1.22937,-21.5359,22.5354,-16.4871,19.0407,-11.4747
-4.35732,17.8017,-5.88141,5.97377,26.6269,1.41098,3.58098,-4.05015,-5.05802,0.166073,-5.56981,2.05139,-1.14456,-2.75871,5.16747,-18.0476,-4.78466,-12.859,32.3652,-2.30479,-0.413559,14.4395,-2.60333,1.62381,3.78685e-14,-7.95139e-16,25.152,-13.8467,-74.861,88.9682,-62.2458,-11.8963,1.67472,7.12502,14.1569,-27.8229,3.78685e-14,-7.95139e-16,28.0983,-8.33066,87.4584,76.0142,78.3012,-2.08413,26.7927,7.12502,23.5927,55.3654,-22.7233,-7.20622,22.552,36.4274,-24.5424,-16.413,14.1654,-5.39365,1.16391,-21.6356,22.3649,-16.6252,18.9137,-10.9736
-4.33811,17.8018,-5.90452,6.04284,26.7848,1.48469,3.55694,-4.00068,-5.26322,0.112036,-5.51308,1.98279,-1.18169,-2.72681,5.21026,-17.7077,-4.78697,-12.8162,32.3311,-2.36387,-0.453543,14.3518,-2.62551,1.59546,2.09469e-14,1.98785e-16,24.5971,-13.673,-74.1231,90.9535,-63.0158,-9.51006,3.58699,7.12502,16.4554,-25.7351,2.09469e-14,1.98785e-16,27.6788,-8.66446,87.5369,77.8341,78.1232,-0.266836,25.6612,7.12502,25.3348,53.9984,-22.8572,-7.32677,22.3942,36.5142,-24.5239,-16.491,13.9428,-5.41206,1.13748,-21.7769,22.1899,-16.486,18.7874,-11.1267
-4.31905,17.8024,-5.93053,6.13728,26.8897,1.5419,3.50052,-3.93235,-5.38966,0.0671899,-5.42664,1.87949,-1.20601,-2.6809,5.16943,-17.5123,-4.78161,-12.7689,32.3809,-2.41294,-0.414947,14.3326,-2.63593,1.59819,3.3694e-14,-5.1684e-15,24.02,-13.5111,-73.4306,92.9509,-63.7919,-7.5502,5.03872,7.12502,18.3416,-24.1166,3.3694e-14,-5.1684e-15,27.169,-9.01329,87.5725,79.6292,77.8453,1.71732,24.2431,7.12502,27.2342,52.297,-23.0526,-7.47401,22.2492,36.6073,-24.4347,-16.5189,13.9159,-5.47782,1.11679,-21.9109,22.0377,-16.3397,18.6751,-11.3327
-4.29824,17.8032,-5.95359,6.17068,26.9258,1.4905,3.27959,-3.85516,-5.46717,0.14469,-5.31434,1.84571,-1.01283,-2.63273,5.15342,-17.4259,-4.79399,-12.7699,32.3325,-2.45579,-0.38191,14.2949,-2.64682,1.60599,5.2827e-14,-2.28602e-14,23.5656,-13.25,-72.7681,95.0398,-63.9207,-6.07923,5.60936,7.12502,19.7562,-23.4066,5.2827e-14,-2.28602e-14,26.7185,-9.33034,87.6104,81.4398,77.5297,3.5529,23.1708,7.12502,28.9888,50.9365,-23.2149,-7.55075,22.2143,36.6888,-24.283,-16.6196,13.5485,-5.53995,1.27197,-21.927,21.9304,-16.1393,18.4712,-11.8011
-4.27792,17.8057,-5.97604,6.13215,27.0132,1.38812,2.93108,-3.7984,-5.56356,0.365033,-5.21915,1.87704,-0.590648,-2.60454,5.19954,-17.3871,-4.85146,-12.8883,32.1222,-2.53427,-0.319885,14.2027,-2.67705,1.63785,3.15074e-14,6.75868e-15,23.2305,-12.9534,-72.0878,97.027,-63.8313,-4.39687,6.40701,7.12502,21.3728,-22.4342,3.15074e-14,6.75868e-15,26.3699,-9.64407,87.5605,83.2277,77.0395,4.97701,22.4827,7.12502,30.348,50.0063,-23.2808,-7.55846,22.2265,36.7418,-24.2709,-16.7556,13.1193,-5.57192,1.41332,-21.8741,21.8902,-16.1754,18.1631,-11.6506
-4.258,17.8087,-5.99726,6.17633,27.103,1.44534,2.94753,-3.7836,-5.6539,0.317393,-5.20502,1.78038,-0.652017,-2.59376,5.15316,-17.3128,-4.84264,-12.9313,32.1224,-2.53717,-0.263706,14.1882,-2.67543,1.66865,4.49005e-14,5.1684e-15,22.3591,-12.473,-71.4966,99.0713,-63.6104,-2.36256,7.39344,7.12502,23.3256,-21.2134,4.49005e-14,5.1684e-15,25.4706,-9.9237,87.3926,84.9819,76.3652,6.40903,21.9069,7.12502,31.713,49.17,-23.3502,-7.51459,22.0667,36.7952,-24.3666,-16.8168,13.1831,-5.61671,1.5539,-21.9835,21.8655,-16.2625,17.8509,-11.2583
-4.23556,17.8107,-6.01836,6.24788,27.1087,1.51844,2.80465,-3.71686,-5.82455,0.345512,-5.11328,1.73501,-0.544176,-2.55186,5.18793,-17.329,-4.88726,-12.938,32.1293,-2.56185,-0.357508,14.1978,-2.69941,1.62666,3.04638e-14,3.26007e-14,21.5602,-12.0139,-70.8051,101.038,-63.4296,-0.277562,8.27412,7.12502,25.3245,-20.0646,3.04638e-14,3.26007e-14,24.5958,-10.2402,87.3445,86.6998,75.7019,7.66032,21.5453,7.12502,32.904,48.5657,-23.441,-7.49001,21.8798,36.8508,-24.3851,-16.7438,13.6702,-5.69834,1.77722,-22.1299,21.8732,-16.3377,17.5393,-10.7858
-4.21146,17.8129,-6.04177,6.42613,27.1346,1.71758,3.02665,-3.69596,-5.82857,0.0771519,-5.1069,1.48545,-0.969575,-2.52659,4.96149,-17.2044,-4.81272,-12.8174,32.2885,-2.518,-0.322723,14.2329,-2.66731,1.63104,7.72775e-15,-1.45113e-14,20.2623,-11.3603,-70.2889,102.865,-63.2718,1.93602,8.92172,7.12502,27.4434,-19.0992,7.72775e-15,-1.45113e-14,23.2421,-10.6249,86.9797,88.4269,75.219,8.42089,21.2048,7.12502,33.6271,48.0705,-23.6273,-7.61052,21.5724,36.9297,-24.2439,-16.6793,13.6854,-5.85452,2.02722,-22.4176,21.8971,-16.3436,17.2303,-10.8675
-4.18684,17.8114,-6.06471,6.49669,27.1869,1.80907,2.71368,-3.63499,-5.98649,0.263611,-5.00798,1.42665,-0.60599,-2.49361,4.95464,-17.3327,-4.88543,-12.8989,32.104,-2.59644,-0.280263,14.1879,-2.69753,1.64591,3.03395e-14,-5.96354e-16,19.6257,-10.912,-69.629,104.472,-63.0521,4.24766,9.62834,7.12502,29.6521,-18.0214,3.03395e-14,-5.96354e-16,22.567,-10.9873,86.7896,90.0205,74.6865,9.18061,21.0917,7.12502,34.3488,47.7974,-23.7559,-7.73563,21.3631,37.0263,-24.1382,-16.6525,13.3642,-5.95094,2.18813,-22.5937,21.9351,-16.4279,16.9575,-10.8316
-4.16326,17.8073,-6.08714,6.45863,27.2484,1.77663,2.75793,-3.61208,-5.98564,0.22985,-4.98147,1.362,-0.675002,-2.47691,4.8919,-17.4621,-4.86952,-12.7834,32.1467,-2.54091,-0.412714,14.2269,-2.67975,1.58048,5.82066e-14,-6.70898e-15,18.6714,-10.2259,-69.1132,105.974,-62.6874,6.86744,10.4476,7.12502,32.1495,-16.7283,5.82066e-14,-6.70898e-15,21.4473,-11.2659,86.5348,91.438,74.0716,10.0341,21.1344,7.12502,35.1587,47.6533,-23.8146,-7.79206,21.2805,37.1346,-24.1232,-16.6758,13.0916,-6.00216,2.31283,-22.643,21.9789,-16.3934,16.7734,-10.9448
-4.13922,17.8036,-6.1116,6.41049,27.3356,1.79741,2.7533,-3.60853,-6.04958,0.359782,-4.97495,1.35241,-0.534241,-2.48152,4.91118,-17.9199,-4.8938,-12.8588,32.1343,-2.4628,-0.444375,14.3198,-2.66059,1.58596,-6.76675e-14,-1.20762e-14,18.0055,-9.58256,-68.5982,107.275,-62.1808,9.976,11.3321,7.12502,35.1036,-15.1997,-6.76675e-14,-1.20762e-14,20.4411,-11.4921,86.2872,92.7448,73.4765,10.8531,20.9324,7.12502,35.935,47.2648,-23.8092,-7.83938,21.1341,37.2386,-24.2202,-16.6196,13.3138,-6.01701,2.42351,-22.7445,22.044,-16.392,16.5506,-10.9421
-4.11438,17.8001,-6.13462,6.32309,27.329,1.68922,2.7156,-3.55841,-5.81831,0.554718,-4.89447,1.25929,-0.349699,-2.45177,4.67374,-18.5784,-4.96159,-12.9824,32.09,-2.46813,-0.280756,14.4501,-2.65564,1.66146,-6.87671e-15,-2.23633e-15,17.3679,-9.11223,-68.2612,108.383,-61.3892,13.5655,12.4612,7.12502,38.4997,-13.2003,-6.87671e-15,-2.23633e-15,19.4301,-11.7896,85.9028,94.0191,72.9809,11.3184,20.8239,7.12502,36.3757,47.0472,-23.844,-7.8939,21.1242,37.3339,-24.1674,-16.5234,13.5291,-6.04976,2.47282,-22.7558,22.1157,-16.4126,16.5421,-11.0839
-4.08675,17.7982,-6.15593,6.23367,27.3001,1.57554,2.75893,-3.50173,-5.65222,0.582816,-4.81634,1.19433,-0.374036,-2.41212,4.51541,-18.9384,-4.98997,-13.0174,32.1311,-2.44741,-0.242963,14.5481,-2.64858,1.68057,1.17997e-14,-2.39784e-15,16.4254,-8.47121,-67.8231,109.379,-60.322,17.3544,13.6592,7.12502,42.063,-10.9097,1.17997e-14,-2.39784e-15,18.1186,-12.0922,85.6114,95.0773,72.3784,11.5,20.79,7.12502,36.5476,46.9701,-23.8959,-7.94028,21.1006,37.4367,-24.0131,-16.5158,13.331,-6.06978,2.60984,-22.771,22.1817,-16.3979,16.4935,-11.5098
-4.05835,17.7959,-6.17885,6.24694,27.372,1.59683,2.79579,-3.4875,-5.61888,0.492339,-4.80156,1.0888,-0.501829,-2.39818,4.39443,-18.8751,-4.98038,-12.9638,32.0276,-2.47244,-0.228775,14.4866,-2.64654,1.67426,-7.56779e-15,4.69629e-15,15.2179,-7.69922,-67.4009,110.273,-58.9649,20.8552,14.6803,7.12502,45.3309,-8.68773,-7.56779e-15,4.69629e-15,16.6612,-12.4926,85.3583,95.8516,71.6885,11.3372,20.7705,7.12502,36.3935,46.9893,-23.9889,-8.08169,20.9508,37.5638,-23.9543,-16.4835,13.05,-6.13476,2.73424,-22.911,22.2426,-16.3849,16.3642,-11.74
-4.03197,17.7922,-6.20856,6.30812,27.5134,1.69756,2.83,-3.50395,-5.64586,0.438959,-4.82854,0.968654,-0.581199,-2.40749,4.29063,-18.8401,-5.00451,-12.9557,31.847,-2.55397,-0.14653,14.4028,-2.66194,1.69254,-7.44076e-14,1.11319e-14,14.0855,-6.93813,-67.0539,110.943,-57.5905,24.0593,15.9065,7.12502,48.2961,-6.16695,-7.44076e-14,1.11319e-14,15.3271,-12.8381,85.1683,96.402,70.9351,11.0415,20.8457,7.12502,36.1135,47.1343,-24.1433,-8.25716,20.7305,37.735,-23.9308,-16.5009,12.7171,-6.2325,2.77207,-23.1245,22.2716,-16.3715,16.2006,-11.7739
-4.00701,17.7863,-6.2361,6.25371,27.536,1.7663,2.55063,-3.43096,-5.93632,0.703397,-4.71469,0.999307,-0.138548,-2.37102,4.45116,-19.0233,-5.12762,-13.0601,31.5389,-2.70218,-0.0797137,14.3204,-2.71649,1.70663,5.90515e-14,7.40473e-15,13.375,-6.33823,-66.4859,111.363,-56.0845,26.7671,17.4103,7.12502,50.7784,-3.3939,5.90515e-14,7.40473e-15,14.469,-13.1818,85.1111,96.71,70.1707,10.5925,20.8367,7.12502,35.688,47.2293,-24.1965,-8.36131,20.5302,37.9175,-23.932,-16.4199,12.9406,-6.23052,2.80324,-23.3173,22.3436,-16.405,16.1586,-11.9048
-3.98003,17.7806,-6.25527,6.06214,27.3437,1.79888,2.3545,-3.29976,-6.1064,0.95071,-4.52419,0.918116,0.210618,-2.29295,4.4374,-19.2304,-5.2017,-13.0869,31.349,-2.83446,0.0922123,14.2919,-2.74539,1.75371,6.17599e-14,-1.10325e-14,12.4941,-5.71119,-66.0401,111.609,-54.2321,29.053,18.8181,7.12502,52.8536,-0.766492,6.17599e-14,-1.10325e-14,13.5433,-13.5695,84.9053,96.7072,69.5083,10.3023,20.7975,7.12502,35.413,47.2561,-24.0944,-8.3568,20.3478,38.1029,-23.8375,-16.272,13.0259,-6.07169,3.2957,-23.4514,22.4565,-16.4901,15.9395,-12.2853
-3.95694,17.7797,-6.28698,6.04413,27.6849,1.62186,2.16287,-3.31327,-6.04908,1.04495,-4.52608,0.970455,0.415293,-2.30284,4.44274,-19.2974,-5.31594,-13.1626,31.0914,-3.02183,0.232862,14.21,-2.80505,1.78771,6.55741e-14,1.29707e-14,11.485,-5.14659,-65.409,111.646,-52.7331,30.7805,19.9761,7.12502,54.4073,1.41722,6.55741e-14,1.29707e-14,12.6629,-13.9835,84.8756,96.4722,68.8958,10.0442,20.9389,7.12502,35.1683,47.4555,-24.2932,-8.61501,20.4147,38.2806,-23.8031,-16.2749,13.3342,-6.32332,3.14723,-23.3916,22.6174,-16.4631,15.8151,-12.2785
-3.9326,17.7758,-6.31221,5.9066,27.7523,1.47481,2.40862,-3.26865,-5.86852,0.914116,-4.48205,0.854786,0.113491,-2.26648,4.24463,-19.2963,-5.33811,-13.0341,31.0283,-3.13743,0.328729,14.1855,-2.82425,1.78479,-2.21148e-14,-9.34288e-15,10.1213,-4.48557,-65.1022,111.501,-51.749,32.4479,20.6504,7.12502,55.8932,3.17813,-2.21148e-14,-9.34288e-15,11.4697,-14.3674,84.6574,96.069,68.3844,9.56721,21.0623,7.12502,34.7157,47.6843,-24.3576,-8.59713,20.4207,38.4731,-23.6929,-16.3478,13.2977,-6.39552,3.0711,-23.3644,22.8182,-16.6229,15.8103,-11.7079
-3.91054,17.7691,-6.33581,5.71816,27.7204,1.41125,2.40215,-3.15132,-5.98738,1.11844,-4.32161,0.831997,0.316751,-2.19767,4.2783,-19.7058,-5.49787,-13.0722,30.8819,-3.35865,0.510949,14.2296,-2.89306,1.81679,-3.78933e-15,9.83984e-15,9.28932,-4.08538,-64.6709,111.08,-50.8665,33.4382,20.9054,7.12502,56.7686,4.12829,-3.78933e-15,9.83984e-15,11.081,-14.7762,84.4384,95.2796,67.98,8.77685,21.2222,7.12502,33.9653,48.0137,-24.3331,-8.54034,20.3507,38.697,-23.6723,-16.3894,13.2121,-6.37074,3.20311,-23.3979,23.0391,-16.816,15.7009,-11.3972
-3.8877,17.7611,-6.36472,5.65475,27.7674,1.4481,2.28221,-3.06019,-6.15737,1.32595,-4.18905,0.773147,0.590867,-2.14556,4.29658,-20.0476,-5.67024,-13.0658,30.6992,-3.62766,0.69629,14.2455,-2.97505,1.83451,4.37078e-14,5.86415e-15,8.51809,-3.70123,-64.2768,110.45,-49.9937,33.3779,20.8294,7.12502,56.7154,4.00875,4.37078e-14,5.86415e-15,10.8015,-15.2859,84.1282,94.2863,67.651,7.93407,21.8552,7.12502,33.1643,48.8206,-24.4318,-8.64758,20.1827,38.963,-23.6584,-16.2704,13.1124,-6.45034,3.44594,-23.5253,23.2243,-16.7962,15.4486,-11.7684
-3.86141,17.7552,-6.39168,5.66594,27.9078,1.60552,2.78349,-3.07599,-6.19578,0.905437,-4.25805,0.553641,-0.130356,-2.14556,4.13941,-19.6834,-5.57369,-12.8268,30.8079,-3.63252,0.698954,14.2042,-2.9536,1.80322,4.06515e-14,2.5842e-15,6.88802,-2.85873,-64.1581,109.675,-49.0575,33.2073,20.7575,7.12502,56.5651,3.81482,4.06515e-14,2.5842e-15,9.44375,-15.7886,83.8101,93.2911,67.4636,7.0424,22.4701,7.12502,32.3161,49.6121,-24.54,-8.84822,19.8838,39.253,-23.5822,-16.2069,12.8916,-6.51623,3.59015,-23.7808,23.3932,-16.7754,15.2178,-12.2733
-3.83673,17.7505,-6.41719,5.54111,28.071,1.63394,2.80558,-3.04983,-6.40065,0.828043,-4.23289,0.567793,-0.209454,-2.12907,4.27225,-19.2579,-5.56988,-12.9502,30.6661,-3.67921,0.771592,14.0596,-2.97337,1.85215,2.75565e-14,-4.96962e-15,5.85185,-2.39157,-63.7702,108.592,-48.0656,33.0944,20.5098,7.12502,56.4654,3.48698,2.75565e-14,-4.96962e-15,8.7801,-16.2933,83.736,91.9897,67.2669,6.09356,22.4539,7.12502,31.4125,49.7759,-24.5695,-9.0012,19.7092,39.5356,-23.4957,-16.2845,12.5035,-6.48393,3.62929,-23.8956,23.5533,-16.8462,15.0034,-12.1766
-3.81502,17.7481,-6.44092,5.32451,28.137,1.51028,2.82893,-2.97046,-6.48953,0.869066,-4.12954,0.633249,-0.181246,-2.07989,4.3883,-19.2816,-5.66221,-13.1721,30.6381,-3.78151,0.918517,14.0725,-3.02165,1.9284,2.64135e-14,-1.13307e-14,5.18356,-2.15962,-63.4762,107.232,-47.1452,32.6291,19.7414,7.12502,56.0538,2.39345,2.64135e-14,-1.13307e-14,8.64405,-16.8732,83.5123,90.4193,67.1672,4.77343,22.7285,7.12502,30.1538,50.2878,-24.5997,-8.98689,19.6693,39.8208,-23.3325,-16.4322,11.9795,-6.44034,3.76263,-23.8553,23.6997,-16.9337,14.8112,-12.0833
-3.79474,17.7461,-6.46354,5.09715,28.3113,1.39972,2.8403,-2.90186,-6.5401,0.983005,-4.03614,0.665643,-0.0752821,-2.03993,4.44553,-19.4848,-5.79918,-13.3481,30.6355,-3.93797,1.07423,14.1385,-3.08708,1.98723,1.47598e-14,-4.17448e-15,4.6267,-2.14126,-63.2074,105.745,-46.3799,31.4733,18.6701,7.12502,55.0264,0.55059,1.47598e-14,-4.17448e-15,8.8673,-17.5761,83.0991,88.8049,67.4935,3.27586,23.7913,7.12502,28.7241,51.6022,-24.5862,-9.06841,19.6234,40.1046,-23.1336,-16.5726,11.2841,-6.37473,3.82134,-23.8099,23.8805,-17.0237,14.5757,-12.0375
-3.77252,17.7429,-6.48874,4.90931,28.6184,1.43241,2.8783,-2.90422,-6.74314,0.973443,-4.04774,0.68486,-0.0891027,-2.04574,4.58151,-19.1623,-5.82901,-13.4753,30.5725,-4.01121,1.13586,14.0544,-3.12296,2.0254,3.62285e-14,-9.74045e-15,3.97116,-2.0036,-62.9602,104.102,-45.7949,30.3321,18.0339,7.12502,54.0053,-0.800537,3.62285e-14,-9.74045e-15,8.99044,-18.1605,82.8941,87.1383,67.9931,1.97713,25.109,7.12502,27.4827,53.1236,-24.511,-9.38398,19.4328,40.4094,-22.891,-16.5234,10.8162,-6.28199,3.74722,-23.907,24.076,-17.0006,14.3677,-12.3667
-3.74882,17.7388,-6.51322,4.67143,28.9038,1.3379,2.80565,-2.95033,-6.847,1.01046,-4.10518,0.742296,0.00914243,-2.07967,4.69362,-18.8997,-5.83265,-13.5657,30.5173,-4.03442,1.15172,13.9803,-3.1397,2.04712,-1.05853e-14,-4.17448e-15,3.66482,-1.87,-62.8226,102.231,-45.2105,29.2653,17.4779,7.12502,53.0452,-1.9858,-1.05853e-14,-4.17448e-15,9.264,-18.4604,82.7465,85.2992,68.6975,0.98301,26.547,7.12502,26.5316,54.7091,-24.4342,-9.67418,19.3464,40.7208,-22.7315,-16.391,10.6526,-6.21716,3.77336,-23.8855,24.2817,-16.9734,14.1278,-12.7141
-3.72537,17.7359,-6.53933,4.46268,29.1324,1.20209,2.73654,-3.01887,-6.81327,1.15813,-4.18517,0.815377,0.214492,-2.13128,4.74107,-19.4092,-5.89746,-13.7623,30.713,-3.98302,1.19791,14.1818,-3.13982,2.09774,-7.72775e-15,-2.5842e-15,3.90868,-1.74643,-62.7618,100.161,-44.5992,27.4461,16.4533,7.12502,51.3969,-4.00381,-7.72775e-15,-2.5842e-15,9.65623,-18.619,82.4484,83.6593,69.6558,-0.721081,27.8607,7.12502,24.8995,56.2589,-24.438,-9.77348,19.2829,41.0433,-22.5963,-16.353,10.5809,-6.23568,3.87009,-23.833,24.493,-16.9854,13.8949,-12.9803
-3.7022,17.7336,-6.56589,4.25514,29.3124,1.03957,2.67949,-3.05549,-6.8355,1.14007,-4.23111,0.896639,0.241778,-2.15555,4.83501,-19.3324,-5.83859,-13.7419,30.8144,-3.8657,1.0615,14.1976,-3.10942,2.06236,-9.14409e-14,1.49089e-14,3.96322,-1.60696,-62.7345,98.0159,-44.1336,25.345,14.97,7.12502,49.4777,-6.52276,-9.14409e-14,1.49089e-14,10.0581,-18.9807,82.1256,82.0024,70.5104,-2.81766,28.9472,7.12502,22.889,57.6087,-24.4807,-9.75141,19.2483,41.3589,-22.4277,-16.4216,10.1795,-6.28007,3.90548,-23.7575,24.7029,-17.0482,13.7196,-12.9523
-3.67782,17.73,-6.59051,4.00888,29.4523,0.908581,2.59977,-3.07959,-6.95271,0.992449,-4.26556,0.953081,0.151295,-2.16663,4.95981,-18.5722,-5.6709,-13.6078,30.7833,-3.74228,0.903911,14.0009,-3.06195,2.01394,-1.80397e-14,6.75868e-15,3.82318,-1.45687,-62.7504,95.8853,-43.9865,22.968,12.8921,7.12502,47.2893,-9.64563,-1.80397e-14,6.75868e-15,10.3503,-19.3876,81.8706,80.2745,71.5786,-4.45853,29.685,7.12502,21.3136,58.533,-24.4662,-9.81702,19.1637,41.6835,-22.1534,-16.4062,9.58916,-6.23237,3.9478,-23.7197,24.8935,-17.1474,13.5562,-12.8181
-3.65284,17.7274,-6.61871,3.76824,29.6242,0.807751,2.61999,-3.1712,-6.88653,1.05649,-4.38535,0.976885,0.219599,-2.23066,4.94655,-18.8429,-5.60229,-13.6539,30.9892,-3.56597,0.883812,14.1367,-3.00164,2.04117,9.83984e-15,-8.34896e-15,4.41622,-1.38645,-62.8716,93.6817,-44.0429,19.9709,10.5965,7.12502,44.508,-13.0943,9.83984e-15,-8.34896e-15,10.7273,-19.4741,81.5226,78.8722,72.7911,-5.59206,30.168,7.12502,20.2245,59.1351,-24.447,-9.9329,19.0276,42.0061,-21.8287,-16.3713,9.19134,-6.16599,3.84884,-23.7382,25.0743,-17.1927,13.5134,-12.6528
-3.62886,17.7261,-6.64691,3.52963,29.8028,0.66416,2.65469,-3.292,-6.78407,1.16855,-4.54264,1.05052,0.335741,-2.3166,4.96364,-19.4482,-5.54716,-13.7447,31.3006,-3.32308,0.841025,14.3897,-2.9258,2.07368,-5.51627e-14,1.59028e-15,5.30236,-1.28105,-62.9658,91.4139,-44.2105,16.4155,8.48309,7.12502,41.1823,-16.3751,-5.51627e-14,1.59028e-15,11.2717,-19.3629,81.2273,77.5645,74.016,-6.54391,30.81,7.12502,19.3094,59.8713,-24.4802,-9.995,18.9487,42.3503,-21.4614,-16.4723,8.44517,-6.1073,3.74626,-23.7058,25.2236,-17.2747,13.4394,-12.3722
-3.607,17.7229,-6.67164,3.21576,29.962,0.491893,2.65648,-3.3701,-6.74419,1.33032,-4.64074,1.12828,0.519173,-2.377,5.01535,-19.9945,-5.51105,-13.7084,31.6201,-3.13764,0.730528,14.6356,-2.87018,2.04883,4.83295e-14,-6.75868e-15,6.18766,-1.29147,-63.0123,89.168,-44.4366,12.8856,6.53076,7.12502,37.8578,-19.307,4.83295e-14,-6.75868e-15,12.1691,-19.278,80.946,76.1054,75.4455,-7.04491,31.4666,7.12502,18.8276,60.5754,-24.4626,-9.92129,18.8926,42.7123,-21.1043,-16.7217,7.61818,-5.96342,3.72778,-23.6222,25.3182,-17.2846,13.3242,-12.1737
-3.58186,17.719,-6.69748,2.99619,30.0198,0.473012,2.66545,-3.40997,-6.7732,1.42528,-4.69209,1.13731,0.622897,-2.40928,5.03737,-20.3308,-5.45931,-13.6919,31.8949,-2.97766,0.672803,14.8206,-2.81937,2.0482,-2.34069e-14,-1.59028e-14,7.12753,-1.31232,-63.0988,86.8284,-44.7511,8.97679,4.57832,7.12502,34.1552,-22.1709,-2.34069e-14,-1.59028e-14,13.0648,-19.1804,80.7013,74.6566,76.7431,-7.2131,31.4346,7.12502,18.6659,60.5591,-24.4865,-9.86863,18.6745,43.1093,-20.7325,-16.758,6.85054,-5.81466,3.68561,-23.727,25.3894,-17.2419,13.3301,-11.95
-3.55474,17.7176,-6.72413,2.85625,30.0201,0.556873,2.6802,-3.47866,-6.89422,1.31896,-4.79104,1.11532,0.526395,-2.45326,5.08735,-20.0539,-5.28649,-13.6841,32.064,-2.75609,0.640906,14.8166,-2.73563,2.08155,-5.54485e-14,-3.37934e-15,7.94259,-1.16523,-63.3233,84.4726,-45.533,4.38665,1.96179,7.12502,29.7848,-25.6642,-5.54485e-14,-3.37934e-15,13.4957,-19.0261,80.551,73.3635,77.8605,-7.42755,30.7606,7.12502,18.4596,59.9047,-24.5467,-9.86034,18.3495,43.5304,-20.3599,-16.6305,6.67594,-5.65956,3.5898,-23.9515,25.4536,-17.3046,13.3889,-11.3968
-3.53227,17.7154,-6.74989,2.72533,30.0754,0.567641,2.67498,-3.56777,-6.9894,1.23887,-4.91451,1.12908,0.472994,-2.51177,5.15743,-19.9262,-5.15636,-13.6394,32.2544,-2.57595,0.585354,14.858,-2.66944,2.08838,1.23023e-13,-6.16232e-15,8.88393,-1.12497,-63.5824,82.4038,-46.8789,-0.0415335,-0.47083,7.12502,25.5506,-28.7773,1.23023e-13,-6.16232e-15,14.0765,-18.8464,80.3443,72.1304,78.7513,-7.37467,30.274,7.12502,18.5104,59.4133,-24.6534,-9.78562,18.1251,43.9724,-20.1052,-16.6082,6.77811,-5.56846,3.6467,-24.067,25.4951,-17.3709,13.2587,-11.0236
-3.51138,17.7148,-6.77362,2.58801,30.0431,0.464029,2.59478,-3.59561,-6.98301,1.24272,-4.94566,1.15339,0.527918,-2.52973,5.17286,-20.0375,-5.09925,-13.601,32.4607,-2.49202,0.621196,14.9692,-2.63301,2.11284,-3.35698e-14,-7.35503e-15,10.0111,-1.28624,-63.797,80.4709,-48.7091,-4.07915,-2.26177,7.12502,21.678,-31.0681,-3.35698e-14,-7.35503e-15,15.0522,-18.7474,80.0776,70.9219,79.395,-7.38829,30.2718,7.12502,18.4973,59.4123,-24.8503,-9.52689,18.0331,44.4155,-19.946,-16.6768,7.04068,-5.53298,3.88135,-24.0531,25.5035,-17.3849,13.075,-11.0003
-3.48497,17.7154,-6.79719,2.43841,29.869,0.389186,2.53955,-3.56921,-6.95653,1.23312,-4.90631,1.15252,0.540902,-2.51009,5.15377,-20.2068,-5.03768,-13.4303,32.7621,-2.369,0.471653,15.1308,-2.59392,2.04458,-7.77993e-14,-4.77083e-15,11.1947,-1.55109,-64.0617,78.5586,-50.7097,-7.97749,-3.50769,7.12502,17.9305,-32.7011,-7.77993e-14,-4.77083e-15,16.0366,-18.6286,79.852,69.8341,79.7957,-7.66772,30.5542,7.12502,18.2285,59.72,-25.0435,-9.24557,17.895,44.8626,-19.628,-16.6831,6.34319,-5.41532,3.99056,-24.109,25.4806,-17.4396,13.0764,-10.5974
-3.4562,17.7126,-6.81855,2.23139,29.6542,0.404619,2.6074,-3.54586,-6.95961,1.22987,-4.88031,1.13611,0.494672,-2.49518,5.1437,-20.337,-4.96245,-13.3645,33.0147,-2.20303,0.346936,15.2629,-2.54456,2.01231,-3.56446e-14,1.0138e-14,12.494,-1.83715,-64.4244,76.6999,-52.6025,-11.2901,-4.60594,7.12502,14.741,-34.0618,-3.56446e-14,1.0138e-14,17.0286,-18.4319,79.6337,68.7638,79.9745,-8.04912,31.3945,7.12502,17.8616,60.5943,-25.1239,-8.95562,17.6285,45.3222,-19.2666,-16.5408,5.50901,-5.13228,4.01594,-24.2695,25.4159,-17.514,13.2336,-10.2133
-3.43157,17.7075,-6.83724,2.12002,29.5491,0.571465,2.60761,-3.56367,-7.14787,1.26132,-4.90723,1.11691,0.545682,-2.51264,5.22714,-20.4263,-4.90312,-13.4498,33.1979,-2.07178,0.382689,15.362,-2.50333,2.06679,-2.97804e-14,1.82882e-14,13.9144,-2.14151,-64.7395,74.7986,-54.4931,-13.9159,-5.10251,7.12502,12.2102,-34.7261,-2.97804e-14,1.82882e-14,18.1216,-18.2524,79.3283,67.7392,80.156,-8.40395,32.7884,7.12502,17.5201,62.0189,-25.2358,-8.64261,17.2213,45.8114,-19.0711,-16.4437,5.58136,-4.87857,4.02603,-24.5499,25.3155,-17.4814,13.3577,-10.4158
-3.41096,17.7042,-6.85891,2.07563,29.5625,0.730539,2.56984,-3.60789,-7.36941,1.28437,-4.96743,1.1194,0.619251,-2.54799,5.34896,-20.4,-4.84648,-13.5454,33.3063,-1.98819,0.483141,15.4032,-2.47068,2.14286,-3.42655e-14,-7.65321e-15,15.3326,-2.50735,-65.0254,73.0978,-56.08,-15.9777,-5.85387,7.12502,10.2216,-35.5855,-3.42655e-14,-7.65321e-15,19.2898,-18.1241,79.0189,66.7722,80.1862,-8.8215,33.7332,7.12502,17.1183,62.9991,-25.4227,-8.43392,16.8555,46.3094,-18.7047,-16.4223,5.81087,-4.74603,4.03791,-24.7969,25.236,-17.3627,13.3486,-10.359
-3.3895,17.6998,-6.88313,1.9552,29.4377,0.81086,2.68154,-3.56657,-7.42028,1.32399,-4.92056,1.07604,0.591505,-2.52456,5.33904,-20.6251,-4.82152,-13.529,33.5367,-1.92928,0.541128,15.5589,-2.44631,2.17553,8.39617e-14,6.95746e-15,16.6952,-2.98505,-65.3489,71.5578,-57.4382,-18.1047,-6.2292,7.12502,8.16931,-36.0513,8.39617e-14,6.95746e-15,20.6876,-18.0522,78.6517,65.7847,80.1245,-9.15482,34.113,7.12502,16.7974,63.4064,-25.5909,-8.20554,16.5918,46.7904,-18.1682,-16.3477,6.11895,-4.58512,4.1532,-24.9793,25.1881,-17.31,13.3389,-10.0832
-3.36714,17.6937,-6.9036,1.77394,29.223,0.717153,2.75941,-3.49308,-7.27313,1.39639,-4.8225,1.04765,0.593424,-2.47617,5.23048,-21.0266,-4.83047,-13.4665,33.8002,-1.89025,0.555192,15.7732,-2.43283,2.17621,-3.88873e-15,1.96797e-14,18.1219,-3.4979,-65.6777,70.0709,-58.6486,-20.0874,-6.3368,7.12502,6.25547,-36.2244,-3.88873e-15,1.96797e-14,22.2391,-17.9703,78.2606,64.7783,79.8592,-9.21421,34.2006,7.12502,16.7402,63.4988,-25.7805,-7.85048,16.5173,47.2218,-17.6643,-16.2543,6.84043,-4.47172,4.32558,-25.0063,25.1899,-17.2931,13.4527,-10.2714
-3.34591,17.6911,-6.92192,1.58057,29.0814,0.600802,2.78756,-3.46281,-7.15381,1.47365,-4.77884,1.06878,0.643236,-2.45761,5.18474,-21.3207,-4.80983,-13.4109,34.0665,-1.79908,0.507287,15.9623,-2.40728,2.16303,3.21907e-14,-1.78906e-15,19.6253,-3.97798,-66.0306,68.6734,-59.4395,-21.9842,-7.27984,7.12502,4.42403,-37.2136,3.21907e-14,-1.78906e-15,23.7364,-17.8307,77.8632,63.846,79.4326,-9.25467,34.3038,7.12502,16.7013,63.6054,-25.9319,-7.47834,16.4524,47.6028,-17.291,-16.1968,7.49342,-4.35674,4.42983,-24.9947,25.2101,-17.3321,13.5488,-10.3904
-3.32499,17.6887,-6.93805,1.42221,28.9997,0.557933,2.83005,-3.4534,-7.12385,1.49187,-4.76828,1.09657,0.636752,-2.45264,5.19919,-21.3694,-4.74478,-13.4291,34.2937,-1.6772,0.515135,16.0759,-2.36802,2.19543,-5.39079e-14,-6.36111e-15,21.0232,-4.4109,-66.3844,67.4707,-59.9789,-23.8666,-8.95345,7.12502,2.6062,-38.9173,-5.39079e-14,-6.36111e-15,25.0573,-17.6369,77.5973,62.9821,78.8592,-9.26607,34.5824,7.12502,16.6903,63.8848,-26.0443,-7.23966,16.3211,47.9345,-16.901,-16.0856,7.95359,-4.23212,4.55016,-25.032,25.2245,-17.3656,13.5205,-10.2634
-3.30239,17.6826,-6.95328,1.38935,28.9334,0.650595,2.87029,-3.43781,-7.18465,1.46517,-4.75288,1.0824,0.588236,-2.44274,5.22245,-21.3604,-4.69101,-13.4303,34.4796,-1.60412,0.555565,16.1594,-2.34008,2.23001,4.28008e-14,-2.68359e-15,22.2623,-4.77948,-66.6546,66.5716,-60.4515,-25.5356,-10.2826,7.12502,0.994233,-40.26,4.28008e-14,-2.68359e-15,26.3304,-17.4628,77.4018,62.2577,78.1992,-9.16291,34.6427,7.12502,16.7896,63.9368,-26.2037,-7.07168,16.0706,48.2293,-16.5614,-16.0069,8.64911,-4.13249,4.65928,-25.211,25.162,-17.342,13.4733,-10.0858
-3.27958,17.679,-6.96568,1.40471,28.8653,0.716,2.86613,-3.41576,-7.22886,1.34356,-4.72868,1.08359,0.464633,-2.42287,5.25338,-21.0877,-4.61696,-13.3852,34.6211,-1.51596,0.464752,16.1574,-2.31562,2.20457,-2.2736e-15,7.45443e-15,23.2921,-5.05523,-66.8239,65.8395,-60.8074,-26.771,-10.9954,7.12502,-0.198958,-40.975,-2.2736e-15,7.45443e-15,27.4115,-17.3317,77.2801,61.663,77.4932,-8.98347,34.4015,7.12502,16.9623,63.6808,-26.4198,-6.8473,15.8531,48.4695,-16.2281,-15.8711,9.01432,-4.08532,4.84135,-25.359,25.0806,-17.3092,13.406,-10.1668
-3.25809,17.6789,-6.97479,1.43405,28.8026,0.872315,2.78344,-3.39135,-7.47766,1.22586,-4.70033,1.10933,0.407635,-2.40508,5.41829,-20.4823,-4.52307,-13.3661,34.6303,-1.44115,0.346134,16.0136,-2.29626,2.17081,-2.60905e-15,1.37161e-14,24.2134,-5.26003,-66.8971,65.282,-60.9576,-27.4971,-11.1427,7.12502,-0.900155,-41.1205,-2.60905e-15,1.37161e-14,28.3751,-17.1444,77.2371,61.196,76.9228,-8.87095,34.3688,7.12502,17.0707,63.6388,-26.5974,-6.60345,15.548,48.6402,-15.9153,-15.642,8.71378,-3.97818,4.98127,-25.5813,25.0017,-17.3358,13.3319,-9.92483
-3.23857,17.6786,-6.98383,1.37622,28.7444,0.925929,2.77061,-3.38991,-7.62728,1.16062,-4.70365,1.15013,0.363566,-2.40438,5.54625,-20.0475,-4.42322,-13.382,34.679,-1.34964,0.323956,15.9282,-2.2632,2.18681,3.77815e-14,-1.19271e-15,25.1632,-5.4473,-67.0868,64.8874,-60.8304,-27.7855,-10.6435,7.12502,-1.17876,-40.6199,3.77815e-14,-1.19271e-15,29.3596,-16.9132,77.0272,60.8871,76.5475,-8.78179,34.4953,7.12502,17.1565,63.7578,-26.6778,-6.39658,15.3525,48.7098,-15.7737,-15.2627,8.0719,-3.84362,5.02496,-25.6958,24.9663,-17.3997,13.275,-9.48009
-3.22058,17.6783,-6.99297,1.23144,28.7782,0.842904,3.10301,-3.4819,-7.36311,0.944278,-4.85339,1.04363,-0.0565832,-2.45397,5.3216,-19.7635,-4.21445,-13.1973,34.976,-1.14014,0.316607,15.9829,-2.16486,2.19944,3.31784e-14,3.27995e-15,25.8061,-5.45523,-67.587,64.7448,-60.5359,-27.4995,-9.79374,7.12502,-0.902525,-39.7716,3.31784e-14,3.27995e-15,30.0832,-16.7081,76.5043,60.7252,76.3355,-8.72091,34.3308,7.12502,17.2151,63.5883,-26.6736,-6.1357,15.2834,48.6785,-15.9074,-14.8309,7.2224,-3.71857,4.93258,-25.6717,24.9801,-17.4823,13.2406,-9.11863
-3.20215,17.6765,-7.00044,1.13303,28.8728,0.75828,3.21967,-3.55983,-7.3342,0.871012,-4.96781,1.13996,-0.174964,-2.50501,5.41826,-19.6152,-4.12104,-13.1613,35.1799,-0.956288,0.134027,16.0356,-2.11823,2.15238,-4.08627e-14,1.09332e-14,26.6528,-5.48523,-67.6668,64.8677,-60.3266,-26.5893,-9.11277,7.12502,-0.0234488,-39.0925,-4.08627e-14,1.09332e-14,30.9927,-16.3403,76.3651,60.6897,76.2573,-8.71568,33.98,7.12502,17.2201,63.237,-26.6727,-5.93154,15.2351,48.5423,-15.9589,-14.2987,6.73334,-3.67636,4.85131,-25.6474,25.0461,-17.5643,13.1699,-8.78675
-3.18145,17.6739,-7.00903,1.25962,28.9812,0.809839,3.13166,-3.63392,-7.37434,0.822371,-5.06259,1.19949,-0.153201,-2.55245,5.49858,-19.5523,-4.06527,-13.151,35.325,-0.808053,-0.0438663,16.0838,-2.08695,2.10316,1.17687e-13,4.57205e-15,27.5135,-5.58778,-67.7289,65.2002,-60.029,-25.5993,-8.60177,7.12502,0.932799,-38.5795,1.17687e-13,4.57205e-15,31.9486,-15.9502,76.2617,60.8012,76.2174,-8.43417,33.6003,7.12502,17.491,62.8334,-26.8374,-5.84198,15.0528,48.3097,-15.9074,-13.6883,6.88201,-3.81197,4.81313,-25.7692,25.1306,-17.6452,13.0334,-8.33571
-3.15853,17.6756,-7.01434,1.41802,29.0897,0.883275,3.03275,-3.68148,-7.35809,0.760674,-5.12008,1.19643,-0.155107,-2.5793,5.48182,-19.4886,-4.00106,-13.1339,35.518,-0.701545,-0.0805844,16.157,-2.05382,2.10704,-3.01283e-15,3.8266e-15,28.1336,-5.70379,-67.7429,65.8123,-59.8175,-24.7056,-7.84534,7.12502,1.79592,-37.8175,-3.01283e-15,3.8266e-15,32.7949,-15.6804,76.0646,61.0909,76.2665,-7.84832,33.093,7.12502,18.0548,62.275,-27.0201,-5.77062,14.8338,47.9892,-15.8079,-13.2409,6.40421,-3.95649,4.76125,-25.9224,25.2112,-17.7392,12.94,-7.99552
-3.13873,17.6787,-7.01505,1.33107,29.2086,0.723489,3.02119,-3.70306,-7.20365,0.783724,-5.14235,1.24898,-0.130278,-2.59214,5.44848,-19.4229,-3.97128,-13.1085,35.6996,-0.664023,-0.0841604,16.2295,-2.04276,2.11059,6.31545e-14,-2.59414e-14,28.6503,-5.81704,-67.6459,66.7331,-59.6839,-23.7159,-7.14125,7.12502,2.7517,-37.1032,6.31545e-14,-2.59414e-14,33.638,-15.4513,75.9355,61.5138,76.234,-6.99985,32.1334,7.12502,18.871,61.238,-27.021,-5.55081,14.8569,47.6034,-15.8712,-12.9369,5.59353,-3.93577,4.71484,-25.8181,25.251,-17.7446,12.8864,-8.18566
-3.12018,17.6777,-7.01251,1.19566,29.2878,0.565897,3.03131,-3.69075,-7.07818,0.839713,-5.12085,1.31844,-0.0856776,-2.58489,5.44886,-19.3475,-3.99122,-13.1086,35.8518,-0.677674,-0.130919,16.2915,-2.06106,2.08902,7.22458e-15,-4.96962e-15,29.0983,-5.91311,-67.4069,67.8921,-59.5918,-22.8568,-6.31247,7.12502,3.58139,-36.2621,7.22458e-15,-4.96962e-15,34.4628,-15.1624,75.9733,62.0188,76.0928,-5.91515,31.2305,7.12502,19.9139,60.2302,-26.9352,-5.29651,14.8974,47.1548,-15.9463,-12.6325,4.69106,-3.85107,4.75658,-25.6972,25.2666,-17.6263,12.7889,-8.60667
-3.09981,17.6769,-7.01005,1.21945,29.3702,0.586302,3.05786,-3.70537,-7.11507,0.81643,-5.14394,1.38477,-0.111762,-2.59534,5.54165,-19.2519,-3.95449,-13.0551,36.0282,-0.57268,-0.316519,16.3523,-2.0439,2.0205,-4.35074e-14,-7.20594e-16,29.3768,-5.83667,-67.039,69.2928,-59.3934,-21.9951,-5.24797,7.12502,4.41348,-35.182,-4.35074e-14,-7.20594e-16,35.0593,-14.7657,76.146,62.5975,75.851,-4.64684,30.6052,7.12502,21.1327,59.4735,-26.9488,-5.19034,14.7716,46.675,-15.9697,-12.2316,3.29026,-3.83146,4.78108,-25.7674,25.2633,-17.5498,12.7468,-8.97874
-3.07869,17.6769,-7.00717,1.20867,29.4594,0.489782,3.14508,-3.73216,-6.95801,0.7184,-5.18402,1.42306,-0.266917,-2.60644,5.50556,-19.0894,-3.84819,-12.9316,36.1853,-0.411313,-0.477899,16.3798,-1.98883,1.9624,-2.25621e-14,1.05107e-14,29.3597,-5.69059,-66.6882,70.8538,-59.1028,-20.9347,-4.05436,7.12502,5.43744,-33.9646,-2.25621e-14,1.05107e-14,35.4206,-14.4206,76.3036,63.3081,75.5325,-3.05579,29.8746,7.12502,22.6604,58.5643,-26.9895,-5.06721,14.7419,46.1565,-16.0749,-11.6955,1.59063,-3.81362,4.70316,-25.7398,25.2337,-17.5229,12.7498,-9.24802
-3.05833,17.6773,-7.00158,1.26871,29.6034,0.483856,3.16333,-3.75718,-6.85283,0.636066,-5.21797,1.39563,-0.369728,-2.61684,5.42401,-18.9602,-3.74563,-12.7463,36.3397,-0.303746,-0.562261,16.4148,-1.93619,1.91721,-4.62594e-14,-6.95746e-15,29.0967,-5.72069,-66.3214,72.6113,-59.1319,-19.1767,-2.9582,7.12502,7.13454,-32.8179,-4.62594e-14,-6.95746e-15,35.7311,-14.1998,76.349,64.2817,75.136,-1.72366,29.1552,7.12502,23.9384,57.683,-27.0258,-4.92129,14.606,45.5968,-16.0167,-11.2215,0.883924,-3.8092,4.62866,-25.7871,25.1984,-17.494,12.695,-9.32851
-3.03901,17.6766,-6.99354,1.36065,29.7436,0.561665,3.10808,-3.77051,-6.85735,0.606938,-5.23316,1.34872,-0.370921,-2.62333,5.37492,-18.7849,-3.71573,-12.6604,36.4746,-0.308824,-0.566877,16.4396,-1.93099,1.902,-7.04692e-14,4.32357e-15,28.9181,-5.85843,-65.9509,74.4206,-59.3158,-17.0778,-1.85556,7.12502,9.16025,-31.6366,-7.04692e-14,4.32357e-15,36.0711,-13.9628,76.3749,65.3748,74.8418,-0.589421,28.8612,7.12502,25.0257,57.2418,-27.0152,-4.75405,14.398,44.9811,-15.6479,-10.9458,1.08504,-3.79661,4.56213,-25.8996,25.1838,-17.5382,12.6138,-9.37351
-3.02311,17.6785,-6.9835,1.27507,29.7989,0.31871,3.08716,-3.75205,-6.6896,0.615729,-5.20094,1.44225,-0.360939,-2.60826,5.37634,-18.7103,-3.73317,-12.6783,36.612,-0.317745,-0.59698,16.4951,-1.9465,1.89113,-1.07002e-14,-2.98177e-16,29.0339,-5.90047,-65.4869,76.1487,-59.3003,-15.0936,-0.934405,7.12502,11.0745,-30.6222,-1.07002e-14,-2.98177e-16,36.3819,-13.6711,76.496,66.4793,74.6401,0.508129,28.5201,7.12502,26.077,56.75,-27.0041,-4.38213,14.5175,44.3267,-15.3719,-10.7717,2.05477,-3.7572,4.57342,-25.6882,25.1304,-17.5523,12.5176,-9.37949
-3.0076,17.681,-6.97447,1.25353,29.8308,0.130248,3.02143,-3.7353,-6.5552,0.754327,-5.16543,1.55035,-0.187372,-2.60121,5.4017,-19.0491,-3.75913,-12.6717,36.678,-0.259794,-0.684294,16.6099,-1.9398,1.86015,-2.33704e-14,2.93207e-15,29.5435,-5.92085,-65.0149,77.754,-59.145,-13.2007,0.143154,7.12502,12.8998,-29.4382,-2.33704e-14,2.93207e-15,36.8688,-13.2941,76.5838,67.5836,74.288,1.90641,27.7346,7.12502,27.4151,55.76,-27.0539,-4.04018,14.6127,43.6338,-15.0144,-10.7333,2.26042,-3.75592,4.60388,-25.5298,25.0484,-17.4664,12.4455,-9.65382
-2.98857,17.681,-6.96495,1.39786,29.9147,0.257046,2.90988,-3.75657,-6.6473,0.883363,-5.1854,1.58578,0.0233271,-2.6231,5.47509,-19.3089,-3.7585,-12.6353,36.6835,-0.167965,-0.828213,16.6718,-1.9199,1.80591,1.04898e-14,-3.72721e-15,29.8034,-5.86765,-64.4804,79.5471,-59.0082,-11.0875,1.5076,7.12502,14.9362,-27.9339,1.04898e-14,-3.72721e-15,37.2008,-12.9326,76.6007,68.8643,73.7847,3.53218,26.72,7.12502,28.969,54.4891,-27.0823,-3.80994,14.3667,42.8985,-14.686,-10.5601,2.44024,-3.72552,4.57044,-25.6869,24.9405,-17.3303,12.493,-10.1666
-2.96686,17.6842,-6.95447,1.53642,30.0777,0.351193,2.71837,-3.77777,-6.75364,0.726614,-5.20829,1.5923,-0.0185415,-2.6291,5.53365,-18.3264,-3.67834,-12.5014,36.4963,-0.199036,-1.02117,16.3375,-1.92212,1.69985,1.0034e-14,7.95139e-15,29.1172,-5.62597,-63.7419,81.6135,-58.9975,-8.95336,3.14795,7.12502,16.9913,-26.1289,1.0034e-14,7.95139e-15,36.992,-12.8586,76.6884,70.2144,73.288,5.00529,25.6888,7.12502,30.375,53.2075,-27.1072,-3.50772,14.0709,42.1357,-14.5272,-10.2147,4.42304,-3.66366,4.41089,-25.8292,24.7682,-17.2418,12.5333,-10.2825
-2.94986,17.6934,-6.94014,1.52641,30.1718,0.218677,2.71473,-3.76774,-6.71403,0.498458,-5.19984,1.64335,-0.253079,-2.60984,5.57528,-17.3782,-3.59282,-12.3807,36.4014,-0.227507,-1.14945,16.061,-1.92062,1.62641,1.88473e-14,-1.70706e-14,28.3524,-5.2961,-62.9682,83.7175,-59.0239,-6.67757,4.5079,7.12502,19.1809,-24.5662,1.88473e-14,-1.70706e-14,36.603,-12.7974,76.7459,71.5652,72.8415,6.846,24.8826,7.12502,32.1291,52.0626,-27.1367,-2.86081,13.9469,41.3779,-14.4921,-10.0159,7.18935,-3.52395,4.27163,-25.724,24.5001,-17.189,12.5147,-10.0043
-2.93439,17.7012,-6.92315,1.50029,30.1912,0.101515,2.87148,-3.78704,-6.434,0.686814,-5.22252,1.64417,-0.167453,-2.62907,5.42322,-18.3443,-3.6462,-12.566,36.639,-0.126241,-0.980355,16.4114,-1.9013,1.74301,-1.34024e-15,-1.87976e-14,28.5573,-5.21675,-62.3873,85.7156,-59.1092,-4.28198,5.64251,7.12502,21.4832,-23.1862,-1.34024e-15,-1.87976e-14,36.8248,-12.3741,76.4343,73.0577,72.4698,8.98189,24.2144,7.12502,34.1601,50.9625,-27.1225,-2.35429,13.9054,40.5998,-14.3705,-9.99921,6.75745,-3.34813,4.29149,-25.6177,24.2301,-17.1201,12.4719,-9.94172
-2.91669,17.7066,-6.90518,1.62562,30.1823,0.205809,2.80565,-3.75663,-6.53782,0.71365,-5.18,1.64104,-0.0997631,-2.61122,5.47134,-18.2326,-3.65704,-12.7056,36.5445,-0.172219,-0.836509,16.3399,-1.91311,1.82207,8.30516e-14,-8.77137e-15,28.1075,-5.07147,-61.5249,87.7484,-59.3785,-1.83895,6.69716,7.12502,23.8279,-21.8451,8.30516e-14,-8.77137e-15,36.7104,-12.1717,76.3362,74.5199,72.1659,11.2225,23.8934,7.12502,36.2849,50.1394,-27.2014,-2.14374,13.7228,39.817,-13.8623,-10.0476,2.83768,-3.19925,4.29684,-25.7451,23.9546,-17.0465,12.4816,-10.0855
-2.90117,17.712,-6.88523,1.64893,30.2093,0.159634,2.73838,-3.73224,-6.56929,0.783297,-5.14187,1.72465,0.0153194,-2.59897,5.56731,-18.2821,-3.70549,-12.8293,36.5003,-0.175739,-0.87608,16.3351,-1.93525,1.82405,-3.11719e-14,-6.85807e-15,27.7138,-4.84175,-60.6433,89.8079,-59.4107,0.488387,7.63137,7.12502,26.0581,-20.6013,-3.11719e-14,-6.85807e-15,36.6667,-11.9854,76.3113,75.7659,71.8762,13.9119,23.47,7.12502,38.8265,49.0396,-27.2779,-1.81185,13.6784,39.0245,-13.4161,-10.2625,0.0820829,-3.02303,4.27533,-25.705,23.6758,-16.9852,12.4471,-10.0263
-2.88577,17.7158,-6.86325,1.67582,30.3346,0.134081,2.66502,-3.75445,-6.5797,0.841377,-5.16545,1.75582,0.123888,-2.61671,5.59709,-18.3538,-3.71677,-12.8299,36.5105,-0.163934,-0.911541,16.3579,-1.9363,1.81025,-8.14893e-14,2.83268e-15,27.1415,-4.51773,-59.9756,91.8794,-59.0824,2.90565,8.72074,7.12502,28.3704,-19.1495,-8.14893e-14,2.83268e-15,36.3565,-11.8597,76.2081,77.0602,71.4422,17.1768,22.7692,7.12502,41.8965,47.3938,-27.2778,-1.423,13.588,38.2113,-13.3297,-10.4772,-0.518099,-2.85296,4.18557,-25.6631,23.4384,-17.0216,12.34,-9.56061
-2.86992,17.7191,-6.84215,1.74531,30.4182,0.171518,2.61022,-3.73875,-6.61328,0.842799,-5.14181,1.72094,0.152312,-2.60584,5.57528,-18.244,-3.7054,-12.6904,36.5005,-0.198301,-0.959883,16.3251,-1.93579,1.76008,-4.91153e-14,6.83322e-15,26.2439,-4.23082,-59.2983,93.8205,-58.9398,5.76548,9.86929,7.12502,31.0998,-17.5131,-4.91153e-14,6.83322e-15,35.8861,-11.8241,76.0936,78.4677,70.8072,20.8453,22.5662,7.12502,45.3217,45.9379,-27.2853,-1.06399,13.4401,37.387,-13.26,-10.6174,-1.67834,-2.71263,4.12314,-25.6918,23.2383,-17.0763,12.2641,-9.11372
-2.85271,17.7219,-6.82149,1.83514,30.4062,0.0323265,2.47854,-3.67247,-6.40063,0.788509,-5.04108,1.67087,0.131691,-2.55189,5.39709,-18.1054,-3.72204,-12.5056,36.4778,-0.301606,-0.997217,16.2821,-1.9551,1.69429,1.47551e-14,-1.2014e-14,25.3439,-3.97018,-58.546,95.7288,-58.9069,8.27855,10.5585,7.12502,33.4918,-16.3366,1.47551e-14,-1.2014e-14,35.3488,-11.8961,75.9527,79.9331,70.0619,24.4882,23.1501,7.12502,48.6909,45.034,-27.4069,-0.774649,13.4877,36.5726,-13.0839,-10.619,-2.37058,-2.68697,4.12671,-25.582,23.0315,-17.0664,12.2527,-9.03508
-2.8357,17.7244,-6.79862,1.95142,30.4256,0.0719542,2.38053,-3.64619,-6.40674,0.774948,-5.00033,1.63499,0.163995,-2.53204,5.35655,-18.0889,-3.73436,-12.4205,36.459,-0.332105,-1.05463,16.2692,-1.96268,1.64913,-4.1526e-14,4.22417e-15,24.5468,-3.56194,-57.7499,97.6982,-58.5427,10.5171,11.0355,7.12502,35.6167,-15.3742,-4.1526e-14,4.22417e-15,34.7475,-11.8768,75.8171,81.3258,69.4071,28.2948,23.7387,7.12502,52.1676,43.7442,-27.4705,-0.629997,13.3832,35.7966,-12.8597,-10.4152,-1.28057,-2.57992,4.09972,-25.6317,22.8177,-17.0026,12.2479,-9.14577
-2.82205,17.726,-6.77418,2.0236,30.4418,0.147399,2.3348,-3.62451,-6.55275,0.805387,-4.97099,1.66756,0.232682,-2.52153,5.46733,-18.0572,-3.77385,-12.5706,36.358,-0.362502,-1.01563,16.2165,-1.98528,1.68583,-1.84295e-14,3.98812e-15,23.1221,-3.10897,-57.0041,99.7011,-57.7682,13.2524,12.1784,7.12502,38.2042,-13.5649,-1.84295e-14,3.98812e-15,34.125,-11.7513,75.8139,82.6364,68.7061,32.5149,24.569,7.12502,55.9526,41.9955,-27.5059,-0.252638,13.1883,35.0404,-12.689,-10.3058,1.40575,-2.39977,4.08316,-25.6992,22.5976,-16.9858,12.2831,-9.45079
