JuanDHNZ/ProyectoFinalCD/preprocessing/sports_trials_csv/14_24.csv
root1,root2,root3,root4,root5,root6,lowerback1,lowerback2,lowerback3,upperback1,upperback2,upperback3,thorax1,thorax2,thorax3,lowerneck1,lowerneck2,lowerneck3,upperneck1,upperneck2,upperneck3,head1,head2,head3,rclavicle1,rclavicle2,rhumerus1,rhumerus2,rhumerus3,rradius1,rwrist1,rhand1,rhand2,rfingers1,rthumb1,rthumb2,lclavicle1,lclavicle2,lhumerus1,lhumerus2,lhumerus3,lradius1,lwrist1,lhand1,lhand2,lfingers1,lthumb1,lthumb2,rfemur1,rfemur2,rfemur3,rtibia1,rfoot1,rfoot2,rtoes1,lfemur1,lfemur2,lfemur3,ltibia1,lfoot1,lfoot2,ltoes1
-2.03354,17.8526,-5.86654,4.57503,1.40291,-1.88425,2.12945,-1.90449,-3.18427,-0.273677,-2.5923,2.43202,-1.22085,-1.26785,4.36936,-17.3322,-9.86422,-12.4003,21.5737,-12.0436,6.69402,11.0219,-5.77811,2.57772,-1.31695e-15,-1.78906e-15,-34.16,-12.7407,-77.5004,30.9907,20.6406,-20.4078,1.05737,7.12502,5.94611,-28.8392,-1.31695e-15,-1.78906e-15,-27.3063,3.29812,86.6961,24.2041,-13.8024,-9.50432,29.7469,7.12502,16.4609,59.0685,-15.4895,9.37028,19.0591,30.9173,-17.3918,-3.445,-0.902845,-10.1458,3.69573,-22.9048,25.9109,-17.097,17.3871,-9.02492
-2.0344,17.8542,-5.86606,4.59152,1.41556,-1.89611,2.08029,-1.90191,-3.16543,-0.233829,-2.58718,2.44162,-1.15317,-1.26762,4.36553,-17.5651,-9.89786,-12.362,21.6932,-12.0735,6.66962,11.109,-5.78449,2.54793,-4.12975e-14,1.90833e-14,-34.0784,-12.6771,-77.5708,31.0614,20.5648,-20.363,0.94525,7.12502,5.98937,-28.9501,-4.12975e-14,1.90833e-14,-27.2004,3.49701,86.6619,24.1873,-13.8891,-9.49321,29.6996,7.12502,16.4716,59.0204,-15.4777,9.33815,19.0734,30.8758,-17.3117,-3.39917,-0.513087,-10.1823,3.73654,-22.894,25.9038,-17.0514,17.4014,-9.21091
-2.03556,17.8541,-5.86558,4.56811,1.43932,-1.90705,2.06397,-1.90086,-3.14202,-0.194772,-2.58474,2.45395,-1.10452,-1.2683,4.36337,-17.7913,-9.90957,-12.3682,21.833,-12.077,6.7003,11.207,-5.77628,2.54982,-7.97623e-15,4.77083e-15,-33.991,-12.6454,-77.612,31.0687,20.5513,-20.3714,0.94099,7.12502,5.98128,-28.9546,-7.97623e-15,4.77083e-15,-27.1426,3.56458,86.6642,24.1576,-13.9402,-9.55704,29.6068,7.12502,16.4102,58.9326,-15.4434,9.31676,19.0912,30.8831,-17.3289,-3.36384,-0.280561,-10.1439,3.74933,-22.8745,25.8771,-17.0192,17.3827,-9.09438
-2.03616,17.8537,-5.86565,4.5698,1.47229,-1.88658,2.01235,-1.90686,-3.16688,-0.166798,-2.59204,2.47769,-1.0439,-1.27365,4.39939,-17.8903,-9.92853,-12.4083,21.8847,-12.0871,6.71689,11.2503,-5.77914,2.55596,-1.57288e-14,1.19271e-14,-33.9325,-12.6112,-77.597,31.0864,20.5499,-20.3553,1.05298,7.12502,5.99679,-28.8421,-1.57288e-14,1.19271e-14,-27.1042,3.6029,86.7083,24.1599,-13.9788,-9.65959,29.6924,7.12502,16.3114,59.0264,-15.4487,9.26016,19.0718,30.9113,-17.331,-3.3266,-0.382142,-10.1267,3.71833,-22.8916,25.8196,-17.0032,17.3758,-8.85589
-2.03753,17.853,-5.86691,4.56828,1.50243,-1.80762,1.96869,-1.89176,-3.25055,-0.157044,-2.57312,2.45935,-1.00845,-1.26473,4.42525,-17.7555,-9.95664,-12.3746,21.7694,-12.1357,6.67841,11.1816,-5.80669,2.53386,1.6027e-14,-2.50469e-14,-33.9187,-12.6293,-77.5836,31.0674,20.5778,-20.3593,1.02534,7.12502,5.99293,-28.8699,1.6027e-14,-2.50469e-14,-27.1139,3.58903,86.7012,24.24,-13.9677,-9.50427,29.6765,7.12502,16.461,58.9982,-15.4651,9.20477,18.9945,30.9619,-17.3431,-3.32825,-0.462563,-10.103,3.6678,-22.9717,25.7497,-16.9743,17.3832,-8.77682
-2.03958,17.8537,-5.86683,4.62378,1.49442,-1.62913,1.89157,-1.88138,-3.42864,-0.205722,-2.562,2.41423,-1.01075,-1.25733,4.47698,-17.5215,-9.97528,-12.3741,21.6386,-12.1645,6.60714,11.0866,-5.83473,2.51275,-4.02539e-14,3.57812e-15,-33.9242,-12.6411,-77.5628,30.987,20.6302,-20.2836,0.98141,7.12502,6.06607,-28.9117,-4.02539e-14,3.57812e-15,-27.1957,3.51303,86.6947,24.2965,-13.796,-9.16955,29.5859,7.12502,16.7832,58.8805,-15.5545,9.1615,18.7904,31.0235,-17.3385,-3.28245,-0.462692,-10.1243,3.72959,-23.1701,25.6724,-16.8969,17.3358,-9.0719
-2.0414,17.8539,-5.86834,4.64946,1.46723,-1.55017,1.85932,-1.89427,-3.54073,-0.244051,-2.58084,2.43169,-1.02449,-1.26511,4.55852,-17.3098,-9.92941,-12.4628,21.5067,-12.099,6.63179,10.999,-5.81556,2.55597,-2.36802e-14,-1.07344e-14,-33.9174,-12.494,-77.5826,30.9695,20.5366,-20.2728,0.900721,7.12502,6.07648,-28.9921,-2.36802e-14,-1.07344e-14,-27.272,3.65934,86.6849,24.3101,-13.7556,-8.90148,29.6377,7.12502,17.0413,58.9102,-15.6157,9.22901,18.6914,31.076,-17.3633,-3.25474,-0.434971,-10.124,3.75619,-23.2555,25.5998,-16.7954,17.3409,-9.45401
-2.0425,17.8536,-5.87024,4.64287,1.44577,-1.53774,1.88112,-1.88423,-3.57131,-0.274728,-2.56861,2.4487,-1.06749,-1.25717,4.59493,-17.1555,-9.89344,-12.5371,21.4332,-12.0646,6.71516,10.9504,-5.80085,2.60999,-3.598e-14,9.14409e-15,-33.9085,-12.4196,-77.5919,30.9494,20.4234,-20.3133,0.900766,7.12502,6.03732,-28.9932,-3.598e-14,9.14409e-15,-27.3734,3.73711,86.6888,24.3753,-13.8178,-8.6676,29.8435,7.12502,17.2664,59.0964,-15.6369,9.27898,18.6692,31.1177,-17.4351,-3.24164,-0.376086,-10.094,3.81299,-23.2657,25.5514,-16.75,17.2552,-9.47146
-2.04248,17.8548,-5.87095,4.67034,1.44913,-1.49757,1.85243,-1.87975,-3.58779,-0.263524,-2.56228,2.44076,-1.04018,-1.25479,4.59445,-17.2501,-9.89874,-12.5081,21.4848,-12.0637,6.68659,10.9831,-5.7986,2.59143,1.44864e-14,-2.08724e-14,-33.7883,-12.4491,-77.6213,30.8992,20.4697,-20.357,0.862294,7.12502,5.99514,-29.0329,1.44864e-14,-2.08724e-14,-27.3238,3.84961,86.6699,24.3504,-13.9322,-8.55816,29.9121,7.12502,17.3717,59.1558,-15.6789,9.23858,18.6167,31.1389,-17.4572,-3.19758,-0.583121,-10.1148,3.81248,-23.3147,25.5385,-16.7407,17.2076,-9.56592
-2.04395,17.8543,-5.87412,4.69261,1.47045,-1.48363,1.83868,-1.86935,-3.58505,-0.240737,-2.54802,2.43187,-1.01104,-1.24881,4.58227,-17.3718,-9.93128,-12.5005,21.5361,-12.1032,6.70129,11.0297,-5.81057,2.58345,2.92213e-14,-9.93923e-15,-33.7067,-12.4488,-77.6697,30.909,20.4652,-20.4287,0.744442,7.12502,5.92594,-29.1527,2.92213e-14,-9.93923e-15,-27.2624,3.71032,86.7019,24.3741,-13.8138,-8.55056,30.0762,7.12502,17.379,59.3193,-15.7231,9.24882,18.6028,31.1527,-17.4466,-3.20831,-0.395433,-10.1587,3.78406,-23.3297,25.5403,-16.6973,17.2536,-9.59348
-2.04626,17.8549,-5.87923,4.68528,1.48752,-1.45073,1.88876,-1.85049,-3.6144,-0.233975,-2.52507,2.41378,-1.03415,-1.23671,4.5815,-17.4249,-9.95461,-12.512,21.5525,-12.1501,6.78672,11.0577,-5.82131,2.60548,-2.98674e-14,-3.97569e-16,-33.712,-12.3946,-77.7339,30.9793,20.4026,-20.517,0.516169,7.12502,5.84064,-29.3833,-2.98674e-14,-3.97569e-16,-27.23,3.64619,86.6917,24.3572,-13.7991,-8.47024,30.1531,7.12502,17.4563,59.3893,-15.7383,9.28337,18.586,31.1665,-17.4399,-3.30928,-0.502247,-10.178,3.7918,-23.3531,25.539,-16.6645,17.2207,-9.49245
-2.04775,17.8546,-5.88146,4.68408,1.48258,-1.45205,1.91792,-1.83985,-3.56981,-0.226253,-2.51086,2.3865,-1.04717,-1.22969,4.52862,-17.5379,-9.9742,-12.4986,21.5841,-12.1931,6.87503,11.1007,-5.82618,2.62306,-1.73937e-15,-9.34288e-15,-33.7331,-12.3591,-77.8143,31.0748,20.3218,-20.555,0.477126,7.12502,5.804,-29.4234,-1.73937e-15,-9.34288e-15,-27.2073,3.7174,86.6366,24.325,-13.8822,-8.52054,30.103,7.12502,17.4079,59.3435,-15.7471,9.28664,18.5957,31.1728,-17.4598,-3.35685,-0.724012,-10.194,3.79825,-23.3434,25.5438,-16.6292,17.2442,-9.49727
-2.04803,17.8536,-5.88118,4.69289,1.44917,-1.4411,1.89704,-1.83252,-3.53287,-0.217172,-2.49985,2.36115,-1.02994,-1.22499,4.48014,-17.5609,-9.98094,-12.5194,21.5594,-12.2147,6.95985,11.1058,-5.8272,2.65222,-2.65874e-15,-5.36719e-15,-33.7051,-12.3304,-77.8886,31.1196,20.2671,-20.5791,0.620626,7.12502,5.78076,-29.2805,-2.65874e-15,-5.36719e-15,-27.2406,3.75938,86.5874,24.3376,-13.9145,-8.57857,29.875,7.12502,17.3521,59.1204,-15.7676,9.2484,18.5719,31.1762,-17.4472,-3.26983,-0.464491,-10.197,3.78101,-23.3636,25.5367,-16.6516,17.299,-9.61584
-2.04774,17.8543,-5.88056,4.73276,1.43598,-1.43076,1.80853,-1.83071,-3.49248,-0.208525,-2.49437,2.32919,-0.975078,-1.22396,4.42033,-17.5029,-9.98342,-12.5361,21.5165,-12.2383,7.03508,11.0881,-5.83233,2.68022,1.91827e-14,5.76476e-15,-33.6595,-12.4177,-77.9466,31.1046,20.2931,-20.5321,0.789458,7.12502,5.8261,-29.1104,1.91827e-14,5.76476e-15,-27.2405,3.76907,86.5353,24.3065,-13.9731,-8.58878,29.8314,7.12502,17.3422,59.0777,-15.8121,9.17383,18.5492,31.1789,-17.4297,-3.15027,-0.276638,-10.2205,3.7549,-23.3847,25.5227,-16.7124,17.3232,-9.62012
-2.04828,17.8555,-5.8806,4.76976,1.46404,-1.43861,1.70724,-1.84715,-3.47449,-0.185426,-2.51317,2.33099,-0.89327,-1.23584,4.40783,-17.5236,-9.99176,-12.4701,21.5202,-12.2402,6.93766,11.0817,-5.83847,2.63373,2.83641e-14,9.93923e-16,-33.5925,-12.4522,-78.007,31.1264,20.3754,-20.5136,0.698022,7.12502,5.84397,-29.2014,2.83641e-14,9.93923e-16,-27.1971,3.78811,86.5157,24.2742,-14.019,-8.57961,29.8636,7.12502,17.3511,59.1091,-15.8492,9.15626,18.5548,31.1915,-17.4123,-3.14772,-0.293516,-10.2421,3.76482,-23.3739,25.497,-16.704,17.2625,-9.32484
-2.04864,17.8559,-5.88135,4.79389,1.498,-1.37486,1.6835,-1.85338,-3.51288,-0.181672,-2.52183,2.30712,-0.874649,-1.24052,4.40385,-17.6231,-10.018,-12.3913,21.5613,-12.2647,6.84345,11.1057,-5.85103,2.57908,-1.36789e-14,-7.55382e-15,-33.5548,-12.4818,-78.056,31.1773,20.3778,-20.5035,0.420696,7.12502,5.8537,-29.4784,-1.36789e-14,-7.55382e-15,-27.1376,3.75553,86.515,24.2047,-14.0325,-8.50911,29.9091,7.12502,17.4189,59.1486,-15.8622,9.10944,18.4855,31.1999,-17.4462,-3.15955,-0.474528,-10.2656,3.7995,-23.445,25.481,-16.6615,17.2172,-9.37911
-2.04964,17.8552,-5.88216,4.80319,1.54541,-1.3128,1.63776,-1.88108,-3.54619,-0.13795,-2.55839,2.28099,-0.800039,-1.26127,4.39322,-17.7226,-10.0187,-12.3272,21.5671,-12.2638,6.81551,11.1198,-5.84576,2.55539,-5.73991e-15,-5.96354e-15,-33.4136,-12.4677,-78.1464,31.171,20.3025,-20.5451,0.305855,7.12502,5.81355,-29.5944,-5.73991e-15,-5.96354e-15,-27.0285,3.70061,86.4943,24.1574,-13.9517,-8.44642,29.9465,7.12502,17.4792,59.1807,-15.8667,9.09878,18.4136,31.2219,-17.4903,-3.16208,-0.195516,-10.2714,3.74914,-23.5095,25.457,-16.6576,17.2266,-9.47467
-2.05075,17.8556,-5.88315,4.80626,1.54762,-1.34466,1.61874,-1.88419,-3.50853,-0.118764,-2.56116,2.2896,-0.770596,-1.26386,4.37968,-17.756,-10.0093,-12.3291,21.5943,-12.2612,6.86529,11.1396,-5.83796,2.57275,-2.82274e-14,2.52457e-14,-33.3381,-12.4328,-78.2097,31.1881,20.1958,-20.6007,0.319502,7.12502,5.75988,-29.5822,-2.82274e-14,2.52457e-14,-27.0051,3.67824,86.4716,24.1678,-13.9276,-8.51364,29.8336,7.12502,17.4146,59.0735,-15.8903,9.09606,18.4465,31.2409,-17.421,-3.11786,0.0167022,-10.2781,3.75591,-23.4664,25.4351,-16.6621,17.1926,-9.36679
-2.05222,17.8551,-5.88425,4.80332,1.54342,-1.33637,1.61868,-1.88985,-3.52648,-0.111577,-2.56903,2.29525,-0.761329,-1.26808,4.39562,-17.7249,-9.99569,-12.363,21.5667,-12.2592,6.95781,11.1324,-5.83004,2.61316,-8.67198e-15,2.38542e-15,-33.3224,-12.3735,-78.2477,31.2153,19.9651,-20.8572,0.56377,7.12502,5.51223,-29.3445,-8.67198e-15,2.38542e-15,-26.9878,3.69858,86.4496,24.1381,-13.9928,-8.52785,29.8758,7.12502,17.4009,59.117,-15.9086,9.08474,18.4408,31.2457,-17.4029,-3.09575,-0.0369257,-10.2692,3.70586,-23.4669,25.4314,-16.6509,17.2139,-9.15969
-2.05395,17.8561,-5.88374,4.83285,1.50361,-1.29253,1.54603,-1.86835,-3.55881,-0.0988897,-2.53913,2.26044,-0.710776,-1.25441,4.37421,-17.7419,-10.0022,-12.282,21.5783,-12.286,6.93991,11.1356,-5.83724,2.58883,9.31803e-16,1.19271e-15,-33.291,-12.4775,-78.2767,31.1802,19.854,-21.0986,0.94745,7.12502,5.27917,-28.9668,9.31803e-16,1.19271e-15,-26.9378,3.73963,86.3862,24.0929,-14.1462,-8.43744,29.9259,7.12502,17.4879,59.1593,-15.9422,9.11514,18.3876,31.2355,-17.4567,-3.11014,0.0578052,-10.2959,3.75133,-23.5147,25.4428,-16.6149,17.2196,-9.32628
-2.05653,17.856,-5.88446,4.85483,1.45567,-1.32396,1.52356,-1.83637,-3.52766,-0.102238,-2.49519,2.2649,-0.707216,-1.23252,4.35989,-17.783,-10.0234,-12.2607,21.6417,-12.3101,6.89705,11.1649,-5.85,2.56379,-1.87603e-15,-3.57812e-15,-33.3162,-12.452,-78.3091,31.3367,20.0022,-20.8074,0.774965,7.12502,5.56031,-29.1321,-1.87603e-15,-3.57812e-15,-26.9349,3.70243,86.3769,24.1022,-14.1864,-8.48884,29.7932,7.12502,17.4384,59.031,-15.9777,9.19045,18.4233,31.2302,-17.486,-3.15323,-0.111755,-10.3266,3.83784,-23.4772,25.4545,-16.6142,17.1716,-9.45571
-2.05823,17.8562,-5.88507,4.84247,1.474,-1.34573,1.55928,-1.82573,-3.50714,-0.0869225,-2.48152,2.27036,-0.713505,-1.22588,4.35479,-17.907,-10.0452,-12.2476,21.7337,-12.3363,6.89867,11.2247,-5.8566,2.55227,-2.45748e-14,-9.93923e-16,-33.3046,-12.4583,-78.3307,31.4717,20.1581,-20.5509,0.556873,7.12502,5.808,-29.3435,-2.45748e-14,-9.93923e-16,-26.8812,3.55257,86.4006,24.0426,-14.1115,-8.59586,29.6474,7.12502,17.3354,58.8943,-15.9576,9.17957,18.4581,31.2138,-17.4489,-3.15698,-0.0790298,-10.3274,3.81382,-23.4442,25.4754,-16.613,17.1497,-9.5769
-2.05919,17.8559,-5.88588,4.8434,1.55212,-1.36258,1.57662,-1.84188,-3.47498,-0.0804104,-2.50286,2.28026,-0.715291,-1.23676,4.34768,-17.97,-10.0655,-12.277,21.7716,-12.3666,6.95463,11.2603,-5.86404,2.56888,4.96962e-15,6.55989e-15,-33.2714,-12.5012,-78.3191,31.4715,20.1896,-20.6308,0.684916,7.12502,5.73079,-29.2176,4.96962e-15,6.55989e-15,-26.8152,3.48182,86.4253,23.9499,-14.1596,-8.55918,29.6898,7.12502,17.3707,58.9336,-15.9308,9.14273,18.4893,31.1881,-17.4116,-3.18109,-0.120148,-10.3588,3.79909,-23.4128,25.516,-16.6132,17.0634,-9.69599
-2.06071,17.8561,-5.8868,4.80062,1.58294,-1.40409,1.65038,-1.85519,-3.41819,-0.094639,-2.52134,2.30383,-0.77079,-1.24467,4.34351,-17.9505,-10.0691,-12.3563,21.7777,-12.3641,7.0013,11.2681,-5.86446,2.59906,-1.51573e-15,1.19271e-15,-33.295,-12.4735,-78.2999,31.4681,20.2255,-20.655,0.654979,7.12502,5.70745,-29.2482,-1.51573e-15,1.19271e-15,-26.879,3.57023,86.415,23.9514,-14.2864,-8.55248,29.7045,7.12502,17.3772,58.9477,-15.8758,9.1862,18.5483,31.1688,-17.4297,-3.2186,0.0498664,-10.337,3.76298,-23.3538,25.5461,-16.6115,17.0849,-9.74315
-2.06182,17.8555,-5.88744,4.77556,1.583,-1.45257,1.7161,-1.85844,-3.35204,-0.122641,-2.52593,2.31722,-0.83821,-1.24518,4.32335,-17.858,-10.0615,-12.3565,21.7197,-12.3522,6.96881,11.2252,-5.86582,2.59338,-3.26255e-14,9.54166e-15,-33.327,-12.4134,-78.3304,31.4841,20.234,-20.6418,0.574188,7.12502,5.72015,-29.3286,-3.26255e-14,9.54166e-15,-26.9558,3.56211,86.4088,23.9805,-14.2403,-8.64899,29.6029,7.12502,17.2843,58.8543,-15.8495,9.21709,18.6111,31.1565,-17.4731,-3.23079,0.361313,-10.3308,3.73743,-23.2944,25.5733,-16.6382,17.1453,-9.53141
-2.06348,17.8554,-5.88735,4.78567,1.58957,-1.47003,1.76258,-1.86127,-3.34354,-0.192534,-2.53061,2.33072,-0.935455,-1.24408,4.33618,-17.6965,-10.0312,-12.3119,21.6912,-12.3171,6.87892,11.1703,-5.86189,2.567,3.79182e-14,-1.55052e-14,-33.4163,-12.4258,-78.3041,31.4991,20.3478,-20.5282,0.495702,7.12502,5.82988,-29.4041,3.79182e-14,-1.55052e-14,-27.0596,3.58838,86.4,23.9516,-14.256,-8.83326,29.4965,7.12502,17.1069,58.7634,-15.8498,9.22527,18.6349,31.1341,-17.5021,-3.25637,0.332195,-10.3533,3.71107,-23.2702,25.6065,-16.7438,17.1668,-9.15148
-2.06474,17.8558,-5.88608,4.80146,1.5967,-1.44025,1.76045,-1.86057,-3.38048,-0.221548,-2.53033,2.34375,-0.961971,-1.24262,4.3712,-17.683,-10.0308,-12.2668,21.7256,-12.2993,6.75096,11.1661,-5.86537,2.51741,1.11319e-14,-2.38542e-15,-33.4531,-12.371,-78.2886,31.5153,20.2933,-20.5779,0.38796,7.12502,5.78191,-29.5132,1.11319e-14,-2.38542e-15,-27.0792,3.64354,86.432,23.9159,-14.2724,-8.96454,29.4249,7.12502,16.9806,58.7027,-15.8541,9.18468,18.6136,31.1188,-17.4632,-3.32974,-0.476942,-10.3751,3.81616,-23.2985,25.6284,-16.7286,17.0757,-9.29428
-2.06612,17.8552,-5.88382,4.78427,1.61876,-1.48168,1.74167,-1.86222,-3.32466,-0.207344,-2.53067,2.36063,-0.938421,-1.24386,4.35609,-17.683,-10.0439,-12.2602,21.7249,-12.314,6.73026,11.1654,-5.87386,2.50624,-5.11871e-15,7.55382e-15,-33.4235,-12.4413,-78.2611,31.4698,20.366,-20.6505,0.461156,7.12502,5.71178,-29.4419,-5.11871e-15,7.55382e-15,-27.0259,3.73722,86.4243,23.861,-14.3565,-8.88027,29.4707,7.12502,17.0617,58.7415,-15.8252,9.16963,18.678,31.119,-17.476,-3.38649,-0.99164,-10.3512,3.82716,-23.2401,25.6348,-16.6699,17.0487,-9.60297
-2.0676,17.855,-5.88256,4.73823,1.61655,-1.48206,1.80615,-1.84654,-3.30979,-0.213709,-2.51107,2.35309,-0.984052,-1.23295,4.34222,-17.5861,-10.0644,-12.2436,21.6402,-12.3546,6.73077,11.1186,-5.89377,2.50094,4.17448e-15,-4.17448e-15,-33.4968,-12.4431,-78.2569,31.5195,20.316,-20.6709,0.37784,7.12502,5.6921,-29.5257,4.17448e-15,-4.17448e-15,-27.039,3.70472,86.4224,23.8667,-14.3082,-8.78453,29.5486,7.12502,17.1538,58.8114,-15.7704,9.22505,18.6843,31.1319,-17.5366,-3.36873,-0.789927,-10.2934,3.812,-23.231,25.6366,-16.6923,17.0462,-9.60526
-2.06819,17.8552,-5.88314,4.7554,1.63374,-1.44438,1.83306,-1.83591,-3.33631,-0.240931,-2.4982,2.34798,-1.02754,-1.22488,4.3534,-17.5667,-10.0745,-12.2855,21.6561,-12.373,6.77664,11.1293,-5.90065,2.52125,1.95803e-14,-4.17448e-15,-33.5749,-12.4972,-78.2052,31.5696,20.3649,-20.7016,0.318928,7.12502,5.66242,-29.5854,1.95803e-14,-4.17448e-15,-27.0525,3.71866,86.4358,23.8613,-14.3281,-8.80719,29.4644,7.12502,17.132,58.7291,-15.7993,9.21433,18.6375,31.1441,-17.5306,-3.31286,-0.30237,-10.3229,3.82686,-23.2695,25.6402,-16.6794,17.0189,-9.529
-2.06908,17.8543,-5.88305,4.79271,1.65085,-1.41685,1.79433,-1.83171,-3.34576,-0.257313,-2.4919,2.34043,-1.02323,-1.22149,4.34967,-17.4965,-10.0632,-12.3032,21.6061,-12.373,6.83433,11.1029,-5.89759,2.54791,-1.86361e-15,1.2921e-14,-33.5926,-12.5792,-78.1562,31.5292,20.441,-20.7257,0.412153,7.12502,5.63919,-29.4928,-1.86361e-15,1.2921e-14,-27.0746,3.62669,86.4649,23.9031,-14.2245,-8.79873,29.4873,7.12502,17.1402,58.7513,-15.8437,9.18765,18.6043,31.1617,-17.4944,-3.29252,0.00617568,-10.357,3.81293,-23.2993,25.6299,-16.6441,17.0338,-9.55877
-2.07102,17.8557,-5.88219,4.81336,1.67323,-1.43563,1.78642,-1.84201,-3.31495,-0.275631,-2.5046,2.35579,-1.03699,-1.22737,4.34858,-17.4253,-10.0434,-12.3599,21.5421,-12.3522,6.90564,11.0729,-5.88674,2.58922,5.73991e-15,3.37934e-15,-33.5868,-12.5836,-78.1395,31.5124,20.4772,-20.6652,0.472646,7.12502,5.69764,-29.4308,5.73991e-15,3.37934e-15,-27.1155,3.5686,86.4817,23.9505,-14.1873,-8.60975,29.615,7.12502,17.3221,58.8631,-15.8828,9.17371,18.6281,31.1973,-17.4959,-3.32806,-0.181805,-10.3485,3.81188,-23.2711,25.589,-16.5651,17.0215,-9.66684
-2.07178,17.8567,-5.88048,4.82611,1.70571,-1.4189,1.78012,-1.85328,-3.31386,-0.296869,-2.51937,2.36527,-1.05347,-1.23401,4.35834,-17.3763,-10.0243,-12.3911,21.5312,-12.3263,6.92238,11.0603,-5.87713,2.60669,3.05631e-14,-4.96962e-15,-33.6061,-12.6323,-78.0847,31.502,20.5589,-20.5177,0.540429,7.12502,5.83997,-29.3591,3.05631e-14,-4.96962e-15,-27.1706,3.50092,86.5162,23.9969,-14.1685,-8.54795,29.7871,7.12502,17.3815,59.0299,-15.9013,9.15184,18.6123,31.2333,-17.5525,-3.32516,-0.223359,-10.3476,3.84349,-23.2847,25.5422,-16.5152,16.9868,-9.96458
-2.07166,17.8562,-5.87642,4.81432,1.68529,-1.25919,1.76917,-1.84354,-3.45845,-0.303575,-2.5097,2.33157,-1.05058,-1.22829,4.40463,-17.4093,-10.0199,-12.4641,21.613,-12.3187,6.98723,11.1063,-5.87094,2.64098,2.60905e-14,-9.54166e-15,-33.639,-12.5857,-78.0492,31.4972,20.6056,-20.5048,0.588359,7.12502,5.85247,-29.3108,2.60905e-14,-9.54166e-15,-27.2176,3.45323,86.5533,24.0319,-14.1476,-8.47951,29.7578,7.12502,17.4474,58.9948,-15.8746,9.12061,18.4309,31.2624,-17.6137,-3.24931,-0.215243,-10.2948,3.92212,-23.4669,25.5063,-16.5795,16.9506,-9.94891
-2.07247,17.8553,-5.87549,4.79509,1.68419,-1.19691,1.78361,-1.83962,-3.52697,-0.275591,-2.50639,2.33099,-1.02735,-1.2273,4.44258,-17.5382,-10.0248,-12.538,21.6903,-12.3142,7.0654,11.1703,-5.86177,2.67591,-2.65874e-15,8.74653e-15,-33.5515,-12.5535,-78.0478,31.4545,20.6194,-20.5066,0.566566,7.12502,5.85072,-29.3327,-2.65874e-15,8.74653e-15,-27.1548,3.45988,86.5943,24.0431,-14.1407,-8.42054,29.6906,7.12502,17.5042,58.9225,-15.86,9.07721,18.3695,31.2932,-17.6102,-3.20382,-0.21681,-10.2543,3.83858,-23.5355,25.4782,-16.5508,17.0163,-9.81412
-2.07538,17.8549,-5.87755,4.78927,1.66808,-1.27157,1.79728,-1.81961,-3.46168,-0.22815,-2.47823,2.3595,-0.990565,-1.21527,4.43415,-17.7079,-10.0594,-12.4958,21.763,-12.3279,6.95471,11.2198,-5.87196,2.61971,1.48095e-14,-1.86858e-14,-33.3841,-12.6464,-78.036,31.2738,20.6439,-20.5054,0.638607,7.12502,5.85186,-29.2606,1.48095e-14,-1.86858e-14,-27.0571,3.47373,86.6136,24.0655,-14.1435,-8.5402,29.355,7.12502,17.389,58.5972,-15.8906,9.13081,18.4639,31.3292,-17.5808,-3.23901,-0.0573456,-10.2544,3.73924,-23.4455,25.454,-16.5138,17.1234,-9.76893
-2.07835,17.8533,-5.87788,4.78052,1.65964,-1.27819,1.79813,-1.81634,-3.47024,-0.198081,-2.47392,2.37509,-0.959498,-1.21433,4.4544,-17.7957,-10.0744,-12.4154,21.7872,-12.3197,6.79844,11.2272,-5.87716,2.54857,-9.88954e-15,-3.97569e-16,-33.2907,-12.6655,-78.0116,31.0873,20.6027,-20.5439,0.756367,7.12502,5.81468,-29.1438,-9.88954e-15,-3.97569e-16,-27.0154,3.41938,86.6597,24.0919,-14.0313,-8.67304,29.1768,7.12502,17.2611,58.4303,-15.8936,9.16592,18.4873,31.3517,-17.6014,-3.28765,-0.25836,-10.2394,3.64799,-23.4313,25.4516,-16.5706,17.1823,-9.76284
-2.08055,17.853,-5.87605,4.76353,1.68608,-1.2027,1.79802,-1.83708,-3.56237,-0.182452,-2.50365,2.37743,-0.936304,-1.22961,4.50906,-17.7773,-10.0754,-12.4428,21.7405,-12.3105,6.79322,11.2069,-5.87638,2.55341,1.03368e-14,-9.34288e-15,-33.2939,-12.5565,-78.0115,31.1787,20.5003,-20.435,0.641063,7.12502,5.91982,-29.2562,1.03368e-14,-9.34288e-15,-27.0353,3.35912,86.7113,24.1702,-13.8885,-8.55237,29.4033,7.12502,17.3773,58.6465,-15.8558,9.15654,18.4147,31.3701,-17.6557,-3.26912,-0.254236,-10.1983,3.68718,-23.5094,25.4456,-16.5913,17.0802,-9.90105
-2.08232,17.8531,-5.87327,4.77085,1.71464,-1.17655,1.76158,-1.86148,-3.59935,-0.183589,-2.53587,2.39724,-0.911197,-1.24617,4.54968,-17.7706,-10.0619,-12.5086,21.7613,-12.2831,6.82485,11.2177,-5.86582,2.58003,-2.79789e-14,4.8901e-14,-33.3077,-12.3955,-78.0149,31.2914,20.306,-20.3809,0.538217,7.12502,5.97211,-29.3576,-2.79789e-14,4.8901e-14,-27.0755,3.40249,86.7473,24.2451,-13.9045,-8.43744,29.4999,7.12502,17.4879,58.7333,-15.8511,9.13436,18.3954,31.3886,-17.6846,-3.24927,-0.290672,-10.1795,3.76868,-23.529,25.4207,-16.5703,16.9775,-9.96002
-2.08327,17.8525,-5.87196,4.7614,1.7108,-1.11815,1.79225,-1.86681,-3.64846,-0.203176,-2.54494,2.39944,-0.945393,-1.24926,4.5816,-17.7653,-10.0677,-12.478,21.7868,-12.2676,6.69582,11.213,-5.87149,2.53142,-3.52594e-14,1.47101e-14,-33.3479,-12.334,-77.978,31.2929,20.1581,-20.3472,0.619453,7.12502,6.00462,-29.2755,-3.52594e-14,1.47101e-14,-27.1426,3.4043,86.7957,24.3175,-13.8297,-8.44343,29.5223,7.12502,17.4821,58.7562,-15.8492,9.11446,18.3371,31.4018,-17.679,-3.29859,-0.819879,-10.1568,3.7648,-23.5878,25.4053,-16.57,16.9863,-10.0187
-2.08343,17.8534,-5.87144,4.73918,1.73953,-1.13375,1.88802,-1.87561,-3.5841,-0.269141,-2.55807,2.3902,-1.06882,-1.2519,4.54131,-17.6411,-10.0376,-12.4355,21.7993,-12.2376,6.63082,11.1832,-5.86589,2.51187,1.66731e-14,2.98177e-15,-33.4889,-12.3143,-77.9495,31.293,20.1296,-20.3389,0.737727,7.12502,6.01264,-29.157,1.66731e-14,2.98177e-15,-27.2451,3.3219,86.8035,24.3219,-13.7376,-8.4883,29.5835,7.12502,17.439,58.8213,-15.8189,9.10039,18.3615,31.4018,-17.6842,-3.36331,-1.20477,-10.1291,3.71126,-23.5674,25.4107,-16.5931,17.0105,-9.72549
-2.08445,17.8526,-5.871,4.72976,1.79076,-1.17546,1.94547,-1.89013,-3.5085,-0.314454,-2.57715,2.39663,-1.14868,-1.25913,4.50909,-17.5259,-9.99615,-12.5024,21.791,-12.21,6.7613,11.1697,-5.84723,2.5791,3.40667e-14,2.78299e-15,-33.5768,-12.3261,-77.9238,31.2633,20.1249,-20.3536,0.825422,7.12502,5.99845,-29.0697,3.40667e-14,2.78299e-15,-27.2888,3.40166,86.7828,24.2824,-13.9271,-8.58494,29.5263,7.12502,17.3459,58.7722,-15.7888,9.11955,18.417,31.406,-17.765,-3.40237,-1.19242,-10.1268,3.64124,-23.5128,25.4284,-16.5985,17.0124,-9.62274
-2.08596,17.8516,-5.87015,4.75531,1.8242,-1.19675,1.9154,-1.8864,-3.45866,-0.305388,-2.57017,2.39381,-1.12548,-1.25667,4.47639,-17.6095,-9.99803,-12.4808,21.8463,-12.214,6.76933,11.2056,-5.84384,2.57445,2.85256e-14,-2.06736e-14,-33.5868,-12.3377,-77.914,31.2638,20.0586,-20.3321,0.850389,7.12502,6.01919,-29.0441,2.85256e-14,-2.06736e-14,-27.2054,3.29423,86.818,24.2452,-13.8382,-8.72869,29.5005,7.12502,17.2076,58.7586,-15.8196,9.10368,18.4454,31.4146,-17.7814,-3.38174,-0.921556,-10.177,3.59554,-23.4789,25.4534,-16.5887,17.0148,-9.92355
-2.08853,17.8498,-5.86873,4.76366,1.82434,-1.1815,1.87975,-1.87019,-3.47195,-0.278588,-2.54795,2.38689,-1.07993,-1.24705,4.47418,-17.6827,-10.0026,-12.4369,21.8789,-12.2152,6.73076,11.2257,-5.84306,2.55048,-1.23246e-14,8.34896e-15,-33.6203,-12.4314,-77.8737,31.3106,20.0523,-20.2741,0.865717,7.12502,6.07516,-29.0272,-1.23246e-14,8.34896e-15,-27.1389,3.16626,86.8581,24.2515,-13.7047,-8.78634,29.5705,7.12502,17.1521,58.8334,-15.8385,9.1137,18.4362,31.4348,-17.7798,-3.36932,0.0652174,-10.1958,3.55261,-23.4842,25.4864,-16.6146,17.05,-10.1163
-2.09089,17.8499,-5.86759,4.7874,1.84133,-1.16797,1.84943,-1.88331,-3.48067,-0.283433,-2.56488,2.38629,-1.06581,-1.25573,4.4777,-17.6835,-9.94309,-12.3582,21.8969,-12.1319,6.64698,11.2119,-5.80891,2.52317,-8.07563e-15,1.19271e-15,-33.6582,-12.4723,-77.8474,31.3094,20.1583,-20.2689,0.906893,7.12502,6.08017,-28.9859,-8.07563e-15,1.19271e-15,-27.1757,3.07173,86.8729,24.3083,-13.6578,-8.68819,29.7046,7.12502,17.2466,58.9593,-15.88,9.14416,18.4273,31.4813,-17.8317,-3.41502,0.968375,-10.2234,3.51261,-23.4829,25.4942,-16.6646,17.0314,-9.93538
-2.09271,17.8485,-5.86627,4.78975,1.86069,-1.17671,1.84697,-1.88392,-3.43454,-0.260053,-2.56464,2.37552,-1.04288,-1.25686,4.43974,-17.7145,-9.89991,-12.1991,21.8435,-12.0755,6.52541,11.1714,-5.78394,2.4641,2.11457e-14,-1.74931e-14,-33.6463,-12.4485,-77.8703,31.3206,20.1776,-20.2936,0.855952,7.12502,6.05641,-29.0375,2.11457e-14,-1.74931e-14,-27.1725,3.06211,86.8654,24.3559,-13.723,-8.64081,29.6498,7.12502,17.2922,58.9005,-15.9007,9.17025,18.445,31.5441,-17.8749,-3.425,0.354631,-10.2172,3.51141,-23.4608,25.4827,-16.715,16.9787,-9.57603
-2.0947,17.8471,-5.86395,4.79664,1.86676,-1.07021,1.81534,-1.86837,-3.51544,-0.210908,-2.54532,2.32508,-0.975346,-1.24929,4.43026,-17.7577,-9.89927,-12.0985,21.7764,-12.0904,6.51527,11.1479,-5.78248,2.4411,4.81307e-14,-2.10712e-14,-33.5989,-12.5562,-77.8665,31.2838,20.2778,-20.4069,0.857589,7.12502,5.94702,-29.0389,4.81307e-14,-2.10712e-14,-27.1114,3.01485,86.8715,24.4303,-13.7617,-8.63043,29.6691,7.12502,17.3022,58.9189,-15.9248,9.12585,18.3373,31.6113,-17.8802,-3.38617,-0.519821,-10.2019,3.5345,-23.568,25.4561,-16.704,16.9051,-9.51863
-2.09636,17.8464,-5.8617,4.83306,1.88564,-0.98153,1.75967,-1.86208,-3.57698,-0.195975,-2.53707,2.28688,-0.928693,-1.24626,4.42267,-17.8317,-9.91114,-12.1687,21.8523,-12.1238,6.66551,11.2096,-5.7834,2.49694,7.28049e-15,-7.15625e-15,-33.5676,-12.6665,-77.8388,31.2322,20.3889,-20.4233,0.785434,7.12502,5.93117,-29.1115,7.28049e-15,-7.15625e-15,-27.0488,3.00852,86.8692,24.4345,-13.7479,-8.54924,29.733,7.12502,17.3803,58.9759,-15.9789,9.09426,18.2396,31.6662,-17.9139,-3.35146,-0.639726,-10.2136,3.56841,-23.663,25.4388,-16.6405,16.8624,-9.75425
-2.09836,17.8465,-5.85937,4.83435,1.9623,-0.94327,1.75515,-1.87718,-3.60323,-0.197994,-2.55773,2.28057,-0.925265,-1.25653,4.43117,-17.939,-9.88735,-12.1666,21.99,-12.0832,6.65222,11.2762,-5.76323,2.49434,1.51573e-15,7.35503e-15,-33.6029,-12.705,-77.7925,31.2444,20.4806,-20.4125,0.810185,7.12502,5.94153,-29.0865,1.51573e-15,7.35503e-15,-26.9979,3.10028,86.862,24.3787,-13.7759,-8.50706,29.7693,7.12502,17.4209,59.0087,-15.9909,9.06274,18.2154,31.7255,-17.9977,-3.38324,-0.539267,-10.198,3.58763,-23.6878,25.4115,-16.5937,16.8057,-9.79014
-2.09987,17.8459,-5.85785,4.8238,2.03593,-0.934937,1.80804,-1.90473,-3.60763,-0.233388,-2.5959,2.31232,-0.985758,-1.27348,4.47027,-17.908,-9.82086,-12.1378,21.9941,-11.9655,6.52184,11.2481,-5.72408,2.46509,-2.55438e-14,8.15017e-15,-33.6982,-12.5334,-77.7619,31.305,20.422,-20.4805,0.796269,7.12502,5.87593,-29.1023,-2.55438e-14,8.15017e-15,-26.9946,3.24522,86.8817,24.3357,-13.8489,-8.48575,29.8287,7.12502,17.4414,59.0663,-15.9849,8.96996,18.2266,31.7744,-18.017,-3.39438,-0.685171,-10.1833,3.6795,-23.6816,25.4029,-16.5394,16.7073,-10.1056
-2.1015,17.8448,-5.85621,4.8062,2.05786,-0.899489,1.83734,-1.91751,-3.64347,-0.228899,-2.61441,2.3343,-0.993048,-1.28245,4.51474,-17.914,-9.75471,-12.1534,21.9928,-11.8458,6.44995,11.2324,-5.67964,2.46272,1.72197e-14,-2.38542e-15,-33.6823,-12.4071,-77.7334,31.2847,20.3321,-20.5357,0.872634,7.12502,5.82261,-29.0274,1.72197e-14,-2.38542e-15,-26.9801,3.2954,86.9098,24.3517,-13.9216,-8.49172,29.8513,7.12502,17.4357,59.0894,-15.9782,8.94298,18.1949,31.8277,-18.0127,-3.38541,-0.662267,-10.1586,3.67754,-23.7158,25.3984,-16.4648,16.6814,-10.396
-2.10477,17.8429,-5.85473,4.75975,2.05297,-0.904645,1.89683,-1.9028,-3.66385,-0.228487,-2.59677,2.35583,-1.02595,-1.27267,4.55074,-17.8924,-9.67494,-12.1591,22.0081,-11.7347,6.45072,11.223,-5.63059,2.48473,2.70099e-14,-1.25234e-14,-33.6966,-12.4224,-77.6757,31.2289,20.3337,-20.5655,0.892357,7.12502,5.7939,-29.0084,2.70099e-14,-1.25234e-14,-26.987,3.28167,86.9459,24.3388,-13.9599,-8.58614,29.7585,7.12502,17.3448,59.0046,-15.9609,8.96364,18.2195,31.8859,-18.0246,-3.39311,-0.39119,-10.1058,3.66467,-23.6907,25.4027,-16.5061,16.6223,-10.2357
-2.10792,17.8428,-5.85338,4.72314,2.08304,-0.877542,1.95569,-1.89183,-3.71251,-0.248218,-2.58498,2.36233,-1.07811,-1.2648,4.58769,-17.8333,-9.58254,-12.1516,22.0516,-11.6245,6.47993,11.218,-5.57866,2.51625,1.44616e-14,-1.51076e-14,-33.7224,-12.4564,-77.625,31.1761,20.3021,-20.5498,0.766578,7.12502,5.80902,-29.1338,1.44616e-14,-1.51076e-14,-27.0319,3.16163,86.9931,24.3284,-13.8907,-8.70499,29.7016,7.12502,17.2304,58.9577,-15.945,8.98887,18.2091,31.9429,-18.0766,-3.41956,-0.25539,-10.057,3.64644,-23.6983,25.4013,-16.5449,16.5514,-10.0907
-2.11109,17.8413,-5.85173,4.68233,2.13959,-0.846978,2.00878,-1.89499,-3.75956,-0.240104,-2.5918,2.37336,-1.09625,-1.26762,4.62785,-17.9826,-9.46951,-12.1398,22.2893,-11.4733,6.51145,11.321,-5.50192,2.54695,-2.28602e-15,-1.25234e-14,-33.7463,-12.4639,-77.6007,31.1952,20.3565,-20.5055,0.576897,7.12502,5.85179,-29.3223,-2.28602e-15,-1.25234e-14,-27.0023,3.12804,87.0156,24.3058,-13.8541,-8.68163,29.7847,7.12502,17.2529,59.0389,-15.9111,8.96915,18.2036,31.9988,-18.1143,-3.44656,0.572277,-10.0024,3.65091,-23.706,25.3981,-16.5546,16.471,-10.0889
-2.11496,17.8408,-5.84915,4.62282,2.22361,-0.872906,2.05797,-1.88983,-3.73508,-0.196871,-2.58551,2.38711,-1.08043,-1.26582,4.62907,-18.2988,-9.35136,-12.031,22.5658,-11.3019,6.4611,11.4567,-5.41316,2.53061,1.64246e-14,-5.1684e-15,-33.7505,-12.5427,-77.5832,31.2088,20.3437,-20.501,0.438596,7.12502,5.85612,-29.4605,1.64246e-14,-5.1684e-15,-26.9246,3.00001,87.0748,24.2868,-13.8309,-8.85505,29.6722,7.12502,17.086,58.9409,-15.8618,9.00727,18.2625,32.0573,-18.2184,-3.53922,1.43087,-9.93144,3.67767,-23.6482,25.3755,-16.5425,16.3634,-10.2168
-2.11718,17.8398,-5.8469,4.61342,2.31014,-0.844504,2.05001,-1.89087,-3.73601,-0.18326,-2.58673,2.38038,-1.06208,-1.26715,4.62196,-18.3677,-9.16168,-11.8066,22.5737,-11.0288,6.23897,11.4144,-5.2963,2.46129,-1.40143e-14,-7.95139e-16,-33.7268,-12.6554,-77.5604,31.1058,20.3386,-20.6112,0.364448,7.12502,5.7497,-29.5375,-1.40143e-14,-7.95139e-16,-26.9036,2.84917,87.1388,24.2829,-13.8486,-8.97838,29.6567,7.12502,16.9673,58.9356,-15.8762,8.97179,18.2496,32.1286,-18.2726,-3.61872,0.434661,-9.91665,3.71446,-23.6648,25.3514,-16.486,16.2908,-10.5605
-2.11957,17.8401,-5.8433,4.56928,2.34693,-0.780483,2.05659,-1.88468,-3.78102,-0.169066,-2.57985,2.37056,-1.05038,-1.26404,4.63699,-18.3652,-8.93213,-11.6135,22.6086,-10.6957,5.99805,11.3652,-5.15924,2.40277,-3.67255e-14,7.15625e-15,-33.7396,-12.6824,-77.539,31.0698,20.2549,-20.5797,0.346217,7.12502,5.78016,-29.5549,-3.67255e-14,7.15625e-15,-26.9499,2.83968,87.1782,24.3364,-13.9705,-8.97172,29.7555,7.12502,16.9737,59.0339,-15.8618,8.93507,18.1967,32.2227,-18.286,-3.60462,-0.229044,-9.85523,3.78783,-23.7161,25.3401,-16.4783,16.1981,-10.59
-2.12239,17.8393,-5.84218,4.5836,2.41844,-0.708322,2.03695,-1.89972,-3.86556,-0.17319,-2.60126,2.39037,-1.03667,-1.27457,4.70514,-18.5571,-8.69003,-11.4399,22.8726,-10.3216,5.7303,11.4371,-5.0043,2.33693,4.07012e-14,-5.1684e-15,-33.7356,-12.7045,-77.463,31.0534,20.3029,-20.5265,0.533257,7.12502,5.83151,-29.3665,4.07012e-14,-5.1684e-15,-26.9609,2.81008,87.2687,24.3486,-13.921,-9.03398,29.8004,7.12502,16.9137,59.0839,-15.9276,8.89599,18.1297,32.3452,-18.3428,-3.58492,-0.0477059,-9.87669,3.77857,-23.7738,25.3476,-16.5036,16.0968,-10.3284
-2.12565,17.8364,-5.84387,4.66636,2.48614,-0.672387,1.99641,-1.89874,-3.88335,-0.2016,-2.59914,2.39765,-1.04231,-1.27269,4.72181,-18.8069,-8.41435,-11.1545,23.1255,-9.91425,5.42059,11.5055,-4.82911,2.24191,-1.96548e-14,1.27222e-14,-33.736,-12.8419,-77.379,31.0317,20.4256,-20.5307,0.586541,7.12502,5.82749,-29.3133,-1.96548e-14,1.27222e-14,-26.9038,2.68057,87.3506,24.2643,-13.8256,-9.16815,29.7476,7.12502,16.7846,59.0421,-16.0833,8.86316,18.0912,32.4811,-18.3651,-3.56543,0.0814093,-10.0039,3.82783,-23.7987,25.3804,-16.4475,15.9926,-10.4109
-2.12889,17.8331,-5.84401,4.61366,2.60467,-0.670254,2.07847,-1.90044,-3.8476,-0.207407,-2.60285,2.41578,-1.09465,-1.27325,4.72402,-19.0524,-8.10781,-10.9768,23.4933,-9.45219,5.16849,11.6248,-4.6331,2.19436,-1.15295e-14,9.14409e-15,-33.8498,-12.8725,-77.2978,31.1263,20.3915,-20.5156,0.505711,7.12502,5.84204,-29.3938,-1.15295e-14,9.14409e-15,-26.8688,2.44087,87.4693,24.1998,-13.7157,-9.20155,29.7825,7.12502,16.7524,59.0797,-16.0749,8.78474,18.1263,32.6246,-18.352,-3.60452,0.0695021,-9.98078,3.82563,-23.7669,25.4165,-16.4539,15.8937,-10.6122
-2.13294,17.828,-5.84136,4.43669,2.85655,-0.655537,2.26994,-1.95942,-3.83472,-0.2134,-2.68671,2.45243,-1.19784,-1.31248,4.76483,-19.213,-7.72761,-10.8395,23.8962,-8.88585,4.92658,11.7378,-4.39604,2.17797,1.74931e-14,-1.86858e-14,-34.0158,-12.7985,-77.1961,31.238,20.2822,-20.5093,0.316846,7.12502,5.84808,-29.5825,1.74931e-14,-1.86858e-14,-26.9038,2.44912,87.5316,24.1103,-13.797,-9.1538,29.7107,7.12502,16.7984,59.004,-15.9018,8.629,18.1929,32.792,-18.4403,-3.69632,0.110382,-9.80287,3.79048,-23.7195,25.4256,-16.4837,15.6897,-10.7387
-2.13592,17.8247,-5.83714,4.30636,3.01407,-0.523032,2.38339,-1.97121,-3.94593,-0.211187,-2.7089,2.4714,-1.25076,-1.32149,4.85285,-19.4555,-7.34024,-10.7733,24.3205,-8.29479,4.75431,11.8832,-4.14546,2.20107,4.19933e-15,5.96354e-15,-34.0968,-12.7988,-77.0399,31.279,20.2306,-20.501,0.102567,7.12502,5.85617,-29.7965,4.19933e-15,5.96354e-15,-26.9291,2.46101,87.6544,24.0453,-13.8807,-9.12426,29.7798,7.12502,16.8268,59.0707,-15.7935,8.50203,18.0988,32.9816,-18.5572,-3.7037,-0.300123,-9.62452,3.84691,-23.8181,25.4017,-16.5166,15.4719,-10.6525
-2.1401,17.8207,-5.83263,4.24352,3.05705,-0.319852,2.3874,-1.93344,-4.1037,-0.169455,-2.66356,2.42887,-1.21004,-1.29976,4.89587,-19.9321,-6.9082,-10.5932,24.8682,-7.66329,4.62053,12.1176,-3.85966,2.22309,9.19379e-16,1.59028e-14,-34.0381,-13.0468,-76.9207,31.2107,20.3831,-20.5076,0.0721175,7.12502,5.84975,-29.8271,9.19379e-16,1.59028e-14,-26.8553,2.29984,87.7686,23.9754,-13.9321,-9.06965,29.9005,7.12502,16.8794,59.187,-15.7957,8.45553,17.8943,33.197,-18.6731,-3.61394,-0.131632,-9.49398,3.93169,-24.0104,25.3506,-16.5594,15.2997,-10.5262
-2.14523,17.8162,-5.83155,4.22318,3.08157,-0.193004,2.3868,-1.9234,-4.19027,-0.157086,-2.6527,2.42005,-1.19474,-1.29447,4.93512,-20.3324,-6.38091,-10.5388,25.4121,-6.92836,4.71553,12.3457,-3.51406,2.37587,-2.57675e-14,2.38542e-14,-34.0228,-13.0629,-76.8809,31.2288,20.3775,-20.4885,-0.00431651,7.12502,5.86823,-29.9031,-2.57675e-14,2.38542e-14,-26.8247,2.22843,87.8471,23.9714,-13.9042,-8.87865,30.1111,7.12502,17.0632,59.3817,-15.8863,8.38388,17.7758,33.4419,-18.7471,-3.53081,-0.00787269,-9.44246,4.00019,-24.119,25.288,-16.5136,15.2075,-10.503
-2.15044,17.8129,-5.83334,4.21356,3.07511,-0.123855,2.37976,-1.8715,-4.21502,-0.131824,-2.58362,2.42894,-1.17127,-1.26088,4.95585,-20.657,-5.88796,-10.4329,25.8688,-6.20483,4.61924,12.5181,-3.19572,2.44896,-2.98674e-14,1.63003e-14,-33.9997,-13.1496,-76.7969,31.2415,20.3097,-20.5054,-0.0997381,7.12502,5.85187,-29.9989,-2.98674e-14,1.63003e-14,-26.7392,2.08947,87.9618,23.9738,-13.8859,-8.72273,30.3012,7.12502,17.2133,59.5588,-16.0276,8.2902,17.729,33.7161,-18.7403,-3.49546,-0.29782,-9.43206,4.07889,-24.1674,25.2463,-16.4657,15.1454,-10.3699
-2.15436,17.8112,-5.83527,4.21876,3.0832,-0.0732095,2.38689,-1.81784,-4.23198,-0.127048,-2.51234,2.45646,-1.17671,-1.22497,4.99267,-20.9162,-5.35763,-9.98731,26.2606,-5.39493,4.02084,12.6192,-2.87395,2.28873,5.46658e-16,-3.97569e-15,-34.035,-13.1876,-76.6939,31.2916,20.1581,-20.5958,-0.0534447,7.12502,5.76456,-29.955,5.46658e-16,-3.97569e-15,-26.713,1.78634,88.1323,24.0494,-13.7771,-8.87664,30.2456,7.12502,17.0652,59.516,-16.1854,8.10981,17.6953,34.0012,-18.7064,-3.39874,-0.640482,-9.43942,4.16109,-24.2,25.2305,-16.459,15.0244,-10.3876
-2.15984,17.8094,-5.83477,4.13748,3.16201,-0.0650426,2.45546,-1.79816,-4.21271,-0.10246,-2.48725,2.49758,-1.19175,-1.21256,5.02617,-21.0959,-4.72812,-9.46358,26.5875,-4.47885,3.43293,12.6783,-2.49796,2.13797,-2.23136e-14,1.82882e-14,-34.0746,-13.1499,-76.6208,31.3464,19.9773,-20.662,0.0752696,7.12502,5.70068,-29.828,-2.23136e-14,1.82882e-14,-26.7951,1.37617,88.3006,24.2794,-13.6208,-9.22408,29.9893,7.12502,16.7307,59.2884,-16.2181,7.92808,17.7299,34.2777,-18.6843,-3.33015,-0.780811,-9.36214,4.2281,-24.1599,25.2242,-16.4475,14.851,-10.4109
-2.16454,17.8076,-5.83096,4.0338,3.2476,-0.0468667,2.50436,-1.79108,-4.17255,-0.0721993,-2.47762,2.54068,-1.18888,-1.20864,5.04929,-21.229,-4.06358,-9.07949,26.9041,-3.52513,3.03637,12.741,-2.09551,2.09036,-1.35174e-14,-7.95139e-15,-34.0632,-13.2514,-76.4974,31.3157,20.0095,-20.6276,0.280199,7.12502,5.73391,-29.6222,-1.35174e-14,-7.95139e-15,-26.8961,1.05563,88.4653,24.5271,-13.5358,-9.25996,29.7372,7.12502,16.6962,59.0392,-16.2142,7.69477,17.7446,34.5457,-18.6961,-3.17974,-0.682801,-9.25157,4.2885,-24.1347,25.2336,-16.4579,14.7199,-10.5048
-2.16785,17.8066,-5.82815,3.97739,3.25529,-0.0396493,2.57001,-1.72888,-4.07477,-0.105236,-2.39357,2.56006,-1.27282,-1.16403,5.01527,-21.2229,-3.36508,-8.50191,27.1955,-2.56673,2.51902,12.7687,-1.68864,1.96392,-5.46658e-16,-1.43125e-14,-34.1195,-13.4995,-76.3193,31.2059,20.2347,-20.7146,0.461896,7.12502,5.64988,-29.4428,-5.46658e-16,-1.43125e-14,-26.8844,0.65024,88.6189,24.544,-13.5236,-9.18582,29.6541,7.12502,16.7676,58.9501,-16.3063,7.3975,17.7381,34.8144,-18.6156,-2.82842,-0.304706,-9.20185,4.36757,-24.1175,25.2736,-16.5173,14.6073,-10.5198
-2.17206,17.8056,-5.82781,3.94843,3.27196,-0.0993348,2.64773,-1.65645,-3.90674,-0.169861,-2.29367,2.58802,-1.40006,-1.11023,4.95082,-21.1672,-2.6301,-7.79873,27.5119,-1.58118,1.93341,12.8053,-1.26676,1.79311,6.4605e-15,-6.75868e-15,-34.2787,-13.6775,-76.1627,31.2014,20.3139,-20.7747,0.495066,7.12502,5.59185,-29.4112,6.4605e-15,-6.75868e-15,-26.7811,0.101901,88.7654,24.4814,-13.5233,-8.86096,29.5646,7.12502,17.0803,58.8338,-16.4284,7.13119,17.8071,35.085,-18.4992,-2.54367,-0.229684,-9.19662,4.3445,-24.0267,25.3303,-16.6048,14.5524,-10.3606
-2.17677,17.7999,-5.82944,3.88783,3.36726,-0.0484424,2.76085,-1.60917,-3.8263,-0.195388,-2.23124,2.58836,-1.49998,-1.07634,4.90844,-21.2573,-1.9608,-7.38419,27.8622,-0.615952,1.50307,12.9059,-0.864131,1.72597,7.45443e-16,3.18055e-15,-34.4126,-13.6736,-76.0635,31.273,20.0426,-20.8413,0.440615,7.12502,5.52755,-29.4673,7.45443e-16,3.18055e-15,-26.7503,-0.592308,88.9605,24.6616,-13.4991,-8.36507,29.9308,7.12502,17.5575,59.158,-16.4819,6.80812,17.7638,35.3745,-18.3989,-2.19251,0.480208,-9.17104,4.3728,-24.0491,25.3875,-16.6184,14.443,-10.4596
-2.18227,17.7958,-5.8292,3.78094,3.48063,-0.0152637,2.86578,-1.55645,-3.75951,-0.146924,-2.16127,2.60333,-1.51864,-1.04221,4.88657,-21.46,-1.35781,-7.13574,28.1175,0.300512,1.1569,13.0042,-0.488395,1.71017,-2.58917e-14,2.18663e-14,-34.4578,-13.7864,-75.9312,31.3221,19.9297,-20.9472,0.559476,7.12502,5.42532,-29.3511,-2.58917e-14,2.18663e-14,-26.7404,-1.36083,89.1889,25.0215,-13.3141,-8.66256,29.3751,7.12502,17.2712,58.6277,-16.5126,6.42101,17.756,35.6859,-18.2335,-1.8635,0.837358,-9.08368,4.40353,-24.0307,25.4378,-16.7139,14.2516,-10.0955
-2.18706,17.7937,-5.82553,3.69889,3.52645,0.0606548,2.85537,-1.46881,-3.74369,-0.0333748,-2.04352,2.58957,-1.40995,-0.988446,4.85647,-21.6907,-0.766884,-6.87146,28.3747,1.19361,0.827143,13.1174,-0.120791,1.69513,8.29926e-15,-4.37326e-15,-34.3799,-14.0798,-75.8115,31.3062,20.0244,-21.033,0.520275,7.12502,5.34246,-29.3924,8.29926e-15,-4.37326e-15,-26.61,-2.28994,89.3969,25.4581,-12.9105,-9.33469,27.8836,7.12502,16.6242,57.1916,-16.62,6.06632,17.6672,36.0333,-18.0629,-1.48466,0.994471,-9.00262,4.43361,-24.0782,25.4759,-16.7471,14.1864,-10.097
-2.19325,17.7951,-5.82317,3.72,3.57317,0.0861147,2.72054,-1.35723,-3.61517,0.0760781,-1.88694,2.55787,-1.24412,-0.917197,4.73886,-21.9156,-0.141099,-6.59285,28.7281,2.1024,0.602696,13.2735,0.265498,1.72444,-6.16232e-15,2.22639e-14,-34.2973,-14.5229,-75.6949,31.3014,20.167,-21.0018,0.540461,7.12502,5.37257,-29.3714,-6.16232e-15,2.22639e-14,-26.3574,-3.39398,89.5511,25.8782,-12.6669,-9.28893,27.1115,7.12502,16.6683,56.4158,-16.8443,5.77548,17.607,36.393,-17.8976,-1.12902,0.856529,-9.04631,4.42288,-24.0762,25.5242,-16.7746,14.1102,-10.0561
-2.20153,17.794,-5.82804,3.81113,3.71556,0.15752,2.65045,-1.30675,-3.55281,0.108536,-1.81577,2.5518,-1.18121,-0.884044,4.69222,-21.9994,0.573264,-6.26063,29.0754,3.06871,0.501519,13.3984,0.699792,1.8034,6.31141e-15,-1.03368e-14,-34.2871,-14.717,-75.6224,31.3915,20.1354,-20.9175,0.446739,7.12502,5.45399,-29.4631,6.31141e-15,-1.03368e-14,-26.1856,-4.21699,89.6347,26.3484,-12.5083,-8.88842,26.945,7.12502,17.0538,56.2165,-17.1427,5.42688,17.4815,36.7799,-17.7021,-0.721037,0.708528,-9.19421,4.44667,-24.1124,25.5685,-16.7263,13.911,-9.99398
-2.21179,17.7939,-5.8356,3.86617,3.95324,0.147998,2.68008,-1.30043,-3.45354,0.121034,-1.80453,2.58883,-1.18802,-0.87892,4.67475,-21.9437,1.27044,-5.97058,29.3253,4.00315,0.431449,13.4581,1.12328,1.89314,1.28216e-14,9.54166e-15,-34.2869,-14.8618,-75.5506,31.4465,20.1482,-20.9655,0.417018,7.12502,5.4077,-29.494,1.28216e-14,9.54166e-15,-26.0723,-4.91419,89.6852,26.8727,-12.344,-8.80018,26.7207,7.12502,17.1388,55.9847,-17.4155,5.07462,17.4504,37.2037,-17.4769,-0.355869,0.855095,-9.32127,4.46382,-24.0417,25.5935,-16.6887,13.6434,-9.96748
-2.22125,17.7925,-5.83574,3.78709,4.06174,0.149372,2.80857,-1.21335,-3.35273,0.127718,-1.68799,2.60069,-1.26812,-0.819227,4.62986,-21.7908,1.84094,-5.7995,29.5878,4.79679,0.356072,13.5106,1.47125,1.97471,-5.71506e-15,-7.15625e-15,-34.3941,-14.9928,-75.4292,31.3933,19.8977,-21.3972,0.936618,7.12502,4.99082,-28.9846,-5.71506e-15,-7.15625e-15,-26.0163,-5.52667,89.7214,27.3647,-12.5076,-8.82882,26.538,7.12502,17.1112,55.8045,-17.5498,4.86654,17.3983,37.6711,-17.2676,0.0303452,1.05476,-9.24366,4.52825,-23.9827,25.5894,-16.6917,13.441,-9.9955
-2.22973,17.7913,-5.82996,3.69252,4.02602,0.303306,2.88328,-1.07343,-3.37158,0.143653,-1.50453,2.53245,-1.31419,-0.726517,4.56507,-21.6886,2.39461,-5.57937,29.9475,5.55513,0.294727,13.6197,1.80675,2.05084,8.89561e-15,-1.59028e-15,-34.6319,-15.0289,-75.3324,31.4044,19.3697,-21.7369,2.14615,7.12502,4.66282,-27.7825,8.89561e-15,-1.59028e-15,-26.0054,-6.39568,89.7222,27.9187,-12.5054,-8.94469,26.3503,7.12502,16.9997,55.6265,-17.692,4.69334,17.1544,38.1655,-16.9853,0.517184,0.635195,-9.08771,4.65721,-24.11,25.5453,-16.6407,13.384,-10.3055
-2.2366,17.7882,-5.82462,3.66439,3.93613,0.530743,2.85587,-0.920602,-3.46355,0.192868,-1.30391,2.45443,-1.26873,-0.627642,4.52772,-21.4908,3.0266,-5.44229,30.0984,6.38008,0.417337,13.6068,2.198,2.21632,6.21202e-15,0,-34.805,-15.0276,-75.2605,31.4957,19.0156,-21.8294,2.77113,7.12502,4.57347,-27.1595,6.21202e-15,0,-25.8402,-7.23977,89.6559,28.4836,-12.3166,-8.78587,26.2916,7.12502,17.1526,55.5545,-17.9198,4.54158,16.7898,38.6669,-16.7092,1.20741,0.39119,-8.9941,4.81188,-24.3332,25.4984,-16.6176,13.308,-10.4965
-2.24607,17.7882,-5.82321,3.62743,3.90988,0.619272,2.93061,-0.777296,-3.46043,0.17262,-1.11447,2.44919,-1.35136,-0.530445,4.51563,-21.0737,3.68115,-5.40516,30.1766,7.21295,0.66554,13.5042,2.60683,2.43699,6.70898e-15,1.35174e-14,-35.0918,-14.9455,-75.1501,31.6396,18.7793,-21.8924,2.58541,7.12502,4.51268,-27.3465,6.70898e-15,1.35174e-14,-25.7356,-8.07181,89.5922,29.1012,-12.079,-8.50288,26.4588,7.12502,17.4249,55.6978,-18.1545,4.47844,16.5877,39.1675,-16.4491,1.76361,0.423886,-8.93675,4.98073,-24.3833,25.479,-16.572,13.1718,-10.8343
-2.2591,17.787,-5.82474,3.54556,4.00356,0.512188,3.06975,-0.645053,-3.25443,0.167179,-0.933907,2.47235,-1.4566,-0.438683,4.41856,-20.9579,4.16812,-5.25447,30.5372,7.86931,0.716561,13.6091,2.90603,2.54994,1.00386e-14,-3.97569e-15,-35.3571,-14.9853,-75.0465,31.7222,18.6152,-21.9093,2.53832,7.12502,4.49636,-27.394,1.00386e-14,-3.97569e-15,-25.5033,-8.80339,89.4391,29.6128,-12.0131,-8.30692,26.5266,7.12502,17.6135,55.7488,-18.3486,4.32004,16.6176,39.6437,-16.033,2.26469,1.69193,-8.88578,5.06791,-24.1899,25.4929,-16.5342,13.0084,-11.0986
-2.27157,17.7827,-5.8231,3.44404,4.15616,0.468117,3.1512,-0.534082,-3.06518,0.272237,-0.781723,2.43527,-1.41242,-0.366523,4.26662,-21.213,4.52317,-4.94193,30.9818,8.39826,0.508201,13.8626,3.11839,2.53219,3.8266e-15,-1.51076e-14,-35.4093,-15.1795,-75.0203,31.7251,18.5752,-21.6869,2.53044,7.12502,4.71114,-27.3972,3.8266e-15,-1.51076e-14,-25.0646,-9.48454,89.1372,30.1153,-12.0927,-8.29567,26.3663,7.12502,17.6243,55.5875,-18.4762,4.11613,16.5515,40.0965,-15.5827,2.89977,-0.947195,-8.79419,5.15208,-24.0605,25.508,-16.5883,12.7752,-11.132
-2.28287,17.7814,-5.8193,3.39181,4.34391,0.572978,3.21718,-0.45495,-3.01361,0.314801,-0.676853,2.36382,-1.41719,-0.315088,4.15928,-21.3211,4.88061,-4.34136,31.3949,8.94878,-0.081252,14.1199,3.31949,2.31635,7.7526e-15,-2.54444e-14,-35.498,-15.3569,-74.9454,31.5905,18.5858,-21.5668,2.5883,7.12502,4.82706,-27.3367,7.7526e-15,-2.54444e-14,-24.7292,-10.226,88.7902,30.7466,-12.0202,-8.31931,26.6293,7.12502,17.6016,55.8525,-18.5989,3.95298,16.2949,40.5343,-15.2072,3.64278,-1.86492,-8.73792,5.17742,-24.1076,25.5176,-16.6206,12.5867,-11.2871
-2.29646,17.7832,-5.81846,3.39711,4.56347,0.672368,3.25189,-0.386707,-3.00349,0.346926,-0.586652,2.33387,-1.41251,-0.27068,4.1188,-21.2869,5.21931,-3.88568,31.6086,9.47164,-0.573442,14.2546,3.5173,2.14559,-9.93923e-17,-7.95139e-16,-35.5735,-15.4733,-74.8398,31.4644,18.5715,-21.494,2.8721,7.12502,4.89741,-27.0513,-9.93923e-17,-7.95139e-16,-24.3058,-10.9616,88.4046,31.3847,-11.8466,-8.27544,26.8839,7.12502,17.6438,56.1033,-18.7936,3.84173,16.0423,40.9743,-14.8603,4.33819,-2.41828,-8.73457,5.10868,-24.148,25.4829,-16.568,12.4375,-11.39
-2.31105,17.7843,-5.81823,3.43508,4.81165,0.761216,3.25704,-0.334182,-3.01819,0.394909,-0.517137,2.34178,-1.37232,-0.237402,4.13209,-21.1323,5.52882,-3.70311,31.595,9.93062,-0.791239,14.2321,3.70969,2.104,2.43511e-15,1.19271e-14,-35.606,-15.4234,-74.7819,31.4155,18.5063,-21.4824,3.14768,7.12502,4.90855,-26.7755,2.43511e-15,1.19271e-14,-23.7479,-11.3229,87.9568,31.9037,-11.909,-8.31253,26.6932,7.12502,17.6081,55.9159,-19.0344,3.60836,15.7877,41.4061,-14.5118,5.1301,-3.33169,-8.76652,5.17077,-24.1716,25.4226,-16.4574,12.1392,-11.3867
-2.32565,17.7833,-5.81745,3.46684,5.10015,0.888416,3.28871,-0.288552,-3.03699,0.417927,-0.457754,2.33195,-1.3719,-0.207974,4.13019,-20.9645,5.78768,-3.68624,31.6316,10.319,-0.835408,14.2084,3.87625,2.14602,1.1778e-14,3.97569e-15,-35.7114,-15.2905,-74.7185,31.4739,18.6392,-21.4225,2.94622,7.12502,4.9664,-26.9756,1.1778e-14,3.97569e-15,-23.1701,-11.7521,87.4631,32.3955,-11.8052,-8.54777,26.5797,7.12502,17.3817,55.8225,-19.2432,3.38187,15.4699,41.8178,-14.2545,6.05251,-3.74924,-8.76814,5.17365,-24.2327,25.3292,-16.327,11.8556,-11.3793
-2.34099,17.7798,-5.81469,3.4194,5.42271,0.925383,3.36135,-0.223067,-2.91824,0.46425,-0.368222,2.29418,-1.37438,-0.164527,4.02012,-20.9359,5.98018,-3.68224,31.797,10.5881,-0.748692,14.2627,3.9997,2.23116,-8.79622e-15,-1.19271e-14,-35.875,-15.5137,-74.5386,31.6177,19.6527,-20.6929,1.98247,7.12502,5.67082,-27.9216,-8.79622e-15,-1.19271e-14,-22.5539,-12.4108,86.8721,32.9221,-11.5785,-8.89392,26.5313,7.12502,17.0485,55.8032,-19.3298,3.26339,15.2565,42.1961,-14.229,6.90449,-5.04221,-8.66675,5.12167,-24.1862,25.1825,-16.2055,11.6137,-11.51
-2.35824,17.7835,-5.80799,3.32689,5.74842,0.985591,3.44263,-0.136231,-2.84227,0.546553,-0.252074,2.24787,-1.34642,-0.108701,3.92401,-20.9541,6.12271,-3.63646,31.9183,10.7908,-0.72768,14.3172,4.09059,2.2731,-9.19379e-15,6.36111e-15,-35.9647,-15.5467,-74.5768,31.4766,18.9972,-21.3355,2.17228,7.12502,5.05043,-27.7475,-9.19379e-15,6.36111e-15,-21.7731,-12.921,86.2088,33.3316,-11.6405,-8.96362,26.258,7.12502,16.9815,55.5357,-19.3657,3.23908,15.0056,42.5219,-14.2694,7.65136,-6.9302,-8.4778,5.13095,-24.1498,24.9976,-16.1183,11.3055,-11.7626
-2.37638,17.7904,-5.80037,3.28153,6.11992,1.09188,3.48441,-0.0783742,-2.83912,0.602901,-0.176188,2.21472,-1.31874,-0.0721999,3.88442,-20.8553,6.25308,-3.59385,31.9182,10.9837,-0.77709,14.2987,4.17543,2.27626,1.3418e-15,1.11319e-14,-36.0112,-15.8641,-74.4139,31.3547,19.6003,-21.2419,1.65714,7.12502,5.14077,-28.2605,1.3418e-15,1.11319e-14,-20.9601,-13.2822,85.4965,33.7301,-11.7696,-8.87848,26.0935,7.12502,17.0634,55.3641,-19.451,3.2202,14.6805,42.7831,-14.1022,8.39913,-7.45408,-8.3175,5.09521,-24.1674,24.7767,-15.9939,11.0378,-12.2842
-2.39883,17.7971,-5.79442,3.25918,6.57826,1.06742,3.49472,-0.053065,-2.7541,0.619691,-0.1392,2.22907,-1.31071,-0.0543969,3.84945,-20.6118,6.40772,-3.52271,31.8801,11.1791,-0.797974,14.2309,4.27509,2.27792,1.43622e-14,6.36111e-15,-36.1613,-16.0131,-74.262,31.2786,19.9794,-21.1828,1.34618,7.12502,5.19787,-28.5701,1.43622e-14,6.36111e-15,-20.1547,-13.5635,84.7109,34.1073,-11.8379,-9.93981,25.5888,7.12502,16.0416,54.9447,-19.4813,3.25624,14.5475,42.9784,-14.037,9.06658,-7.481,-8.19586,4.94443,-24.0189,24.508,-15.7838,10.7959,-12.4999
-2.42267,17.8021,-5.78742,3.26794,7.11737,1.0848,3.42305,-0.055106,-2.73352,0.646007,-0.139377,2.25717,-1.24346,-0.0561558,3.86647,-20.4258,6.52279,-3.54317,31.8923,11.3293,-0.738863,14.186,4.35246,2.3218,-4.57205e-15,-1.66979e-14,-36.4024,-15.8491,-74.1887,31.336,19.6782,-21.2922,1.28247,7.12502,5.0922,-28.6363,-4.57205e-15,-1.66979e-14,-19.1961,-13.6716,83.9239,34.3106,-11.9555,-11.8056,24.6748,7.12502,14.2444,54.1663,-19.4354,3.30708,14.3774,43.1039,-14.0923,9.58801,-7.36473,-8.11067,4.78427,-23.9038,24.2722,-15.6143,10.4507,-12.6096
-2.44601,17.8038,-5.77785,3.30075,7.65414,1.2961,3.26919,-0.0865242,-2.93627,0.717128,-0.185202,2.2781,-1.07932,-0.0827137,4.00392,-20.3705,6.59309,-3.74943,31.9369,11.4666,-0.610254,14.1655,4.40737,2.42717,-3.52843e-14,2.14687e-14,-36.5224,-15.7525,-74.0514,31.3601,19.6828,-21.1609,1.2061,7.12502,5.21903,-28.7096,-3.52843e-14,2.14687e-14,-18.1095,-13.7632,83.1289,34.3897,-11.7412,-11.4676,25.4517,7.12502,14.57,54.92,-19.3519,3.26459,13.9631,43.1493,-14.0785,9.94815,-6.80411,-8.03907,4.73055,-24.0067,24.1062,-15.4786,10.0472,-12.8629
-2.47032,17.8034,-5.76602,3.33846,8.13683,1.46857,3.15445,-0.0778952,-3.0502,0.758433,-0.175254,2.25818,-0.973142,-0.0802886,4.04665,-20.3638,6.61422,-3.97732,31.9961,11.5187,-0.412189,14.1554,4.43137,2.55124,1.20265e-14,-2.14687e-14,-36.6601,-15.8905,-73.8829,31.2285,19.6372,-20.8263,1.08098,7.12502,5.54201,-28.8265,1.20265e-14,-2.14687e-14,-17.0369,-14.1722,82.2841,34.4537,-10.8639,-9.7693,27.8599,7.12502,16.2058,57.2025,-19.2267,3.36508,13.5913,43.0967,-14.2259,9.90599,-6.08726,-7.99161,4.70548,-24.0671,23.9735,-15.3502,9.6939,-13.1199
-2.49731,17.8035,-5.75437,3.37829,8.59741,1.55129,3.09115,-0.0727098,-3.05373,0.767301,-0.167242,2.23525,-0.929373,-0.0772963,4.02416,-20.405,6.67147,-4.07836,32.1126,11.6204,-0.306323,14.1968,4.47341,2.63286,-2.11706e-14,4.77083e-15,-36.7147,-15.9474,-73.7948,30.8716,19.3662,-20.3052,0.85975,7.12502,6.04518,-29.034,-2.11706e-14,4.77083e-15,-16.0005,-14.5446,81.3604,34.6044,-9.88943,-9.33008,29.3612,7.12502,16.6287,58.6688,-19.0817,3.63177,13.3141,42.9511,-14.7342,9.45908,-6.06884,-7.97579,4.7291,-24.0122,23.851,-15.2652,9.26965,-13.2078
-2.52385,17.8055,-5.74236,3.3842,9.09626,1.60723,3.03819,-0.06431,-3.03154,0.802451,-0.15427,2.2208,-0.86488,-0.0726918,3.9957,-20.5413,6.7027,-4.04708,32.2811,11.6761,-0.281158,14.3,4.4936,2.66205,-1.09332e-14,-1.35174e-14,-36.7379,-16.0974,-73.6914,30.5557,19.3001,-19.9866,0.693511,7.12502,6.35271,-29.1912,-1.09332e-14,-1.35174e-14,-14.7799,-14.7249,80.342,34.6884,-9.41121,-9.3891,29.8557,7.12502,16.5719,59.1681,-18.8842,3.84554,13.0738,42.7181,-15.363,8.76117,-6.54842,-7.92946,4.71487,-23.9234,23.7403,-15.2103,8.78745,-13.1366
-2.55096,17.8093,-5.72795,3.34712,9.70991,1.66192,3.02957,-0.0698455,-2.99584,0.822759,-0.160496,2.20149,-0.838788,-0.0766635,3.95555,-20.5056,6.72275,-3.96612,32.3372,11.68,-0.270994,14.3216,4.50619,2.65501,-2.28602e-15,-5.56597e-15,-36.8881,-16.2601,-73.5754,30.4282,19.5481,-20.4037,0.631526,7.12502,5.95005,-29.2649,-2.28602e-15,-5.56597e-15,-13.4915,-14.8145,79.2909,34.6346,-9.3704,-9.20759,30.1594,7.12502,16.7466,59.4572,-18.5808,3.94304,12.8617,42.4164,-16.0032,7.75698,-7.52614,-7.79835,4.59088,-23.8292,23.5939,-15.0879,8.33414,-13.3324
-2.57726,17.8144,-5.71319,3.3236,10.2867,1.697,3.04371,-0.0663656,-2.92381,0.794296,-0.153915,2.19167,-0.876839,-0.0722018,3.90447,-20.3633,6.75128,-3.92374,32.3665,11.7046,-0.268284,14.3055,4.52661,2.64792,4.12478e-14,6.36111e-15,-37.0325,-16.3882,-73.4123,30.2698,19.8508,-20.8627,0.522617,7.12502,5.50694,-29.3858,4.12478e-14,6.36111e-15,-12.2629,-14.6934,78.2673,34.5835,-9.47239,-8.99177,30.2679,7.12502,16.9544,59.5479,-18.2324,4.16905,12.6573,42.0356,-16.7208,6.51638,-8.31322,-7.68819,4.36792,-23.7282,23.4476,-14.9584,8.0115,-13.3787
-2.60686,17.8192,-5.69767,3.27808,10.8816,1.74385,3.05245,-0.117336,-2.93082,0.796743,-0.221857,2.2233,-0.872963,-0.106265,3.9438,-20.3327,6.78812,-3.94048,32.4363,11.7739,-0.266006,14.3271,4.55351,2.66511,1.28216e-14,2.06736e-14,-37.0666,-16.3724,-73.2865,29.9895,19.7798,-20.3422,0.463881,7.12502,6.00947,-29.4309,1.28216e-14,2.06736e-14,-11.0241,-14.0967,77.2271,34.5017,-10.0179,-8.72353,30.515,7.12502,17.2126,59.7726,-17.8139,4.4946,12.4475,41.5813,-17.4707,5.13793,-8.59745,-7.57922,4.16902,-23.6176,23.3288,-14.8896,7.67987,-13.755
-2.64042,17.8212,-5.68138,3.2638,11.504,1.81136,2.82473,-0.184751,-3.11051,0.931694,-0.310839,2.35845,-0.596704,-0.15859,4.18706,-20.3967,6.772,-4.12507,32.4241,11.8409,-0.311361,14.3263,4.5537,2.69101,-2.32578e-14,1.27222e-14,-36.866,-16.502,-73.047,29.6491,19.744,-19.7007,0.440279,7.12502,6.62877,-29.436,-2.32578e-14,1.27222e-14,-9.4032,-13.1117,76.3286,34.1212,-10.832,-8.6067,30.8215,7.12502,17.325,60.0693,-17.3901,4.93755,12.1946,41.0575,-18.1315,3.97929,-5.20195,-7.51348,3.95642,-23.5126,23.2557,-14.8255,7.33281,-13.9615
-2.67384,17.8217,-5.66306,3.30882,12.0374,1.83175,2.43658,-0.168994,-3.30771,1.11336,-0.284642,2.54526,-0.192624,-0.157993,4.48939,-20.5747,6.70443,-4.30223,32.4213,11.8535,-0.396525,14.3608,4.52184,2.69759,1.32192e-14,-1.11319e-14,-36.5981,-16.5794,-72.7591,29.4662,19.6716,-19.3947,0.111833,7.12502,6.92415,-29.7549,1.32192e-14,-1.11319e-14,-7.61596,-12.3906,75.5428,33.7806,-11.1177,-8.98829,30.7433,7.12502,16.9577,60.0231,-17.0434,5.40798,11.9673,40.5005,-18.7166,2.90157,0.509108,-7.53399,3.78257,-23.3642,23.2281,-14.7576,6.97963,-13.789
-2.70744,17.8221,-5.64807,3.36007,12.6126,1.84263,2.3054,-0.154178,-3.32901,1.13176,-0.261822,2.60777,-0.102035,-0.149081,4.56523,-20.694,6.66602,-4.31706,32.5552,11.82,-0.370657,14.4448,4.50063,2.71709,-2.27608e-14,-1.11319e-14,-36.6425,-16.5532,-72.5915,29.4002,19.4676,-19.3817,-0.289147,7.12502,6.93672,-30.1555,-2.27608e-14,-1.11319e-14,-6.0837,-11.8511,74.603,33.6586,-11.1226,-9.34731,30.2153,7.12502,16.6121,59.5243,-16.7056,5.60671,11.84,39.8967,-19.2406,1.17664,1.07476,-7.63263,3.64992,-23.2029,23.2731,-14.7466,6.60177,-14.1325
-2.74211,17.8226,-5.63726,3.31969,13.1743,1.88278,2.43824,-0.181894,-3.25334,1.05931,-0.300152,2.57364,-0.247724,-0.163343,4.4886,-20.61,6.67108,-4.28078,32.6513,11.7917,-0.286809,14.4647,4.50433,2.73966,1.6201e-14,-7.15625e-15,-36.7689,-16.6759,-72.469,29.1369,19.5079,-19.427,-0.289429,7.12502,6.89296,-30.1572,1.6201e-14,-7.15625e-15,-4.77481,-11.3135,73.5478,33.4892,-11.1587,-9.52614,30.1134,7.12502,16.4399,59.4368,-16.2959,5.64297,11.7758,39.2791,-19.5813,-0.905602,-2.84917,-7.65322,3.47699,-23.0685,23.3185,-14.7372,6.27286,-14.4663
-2.77963,17.824,-5.6214,3.24993,13.6681,1.73549,2.45997,-0.214091,-3.05652,1.01285,-0.338631,2.60386,-0.304937,-0.180031,4.40949,-20.4796,6.69186,-4.23217,32.7076,11.7821,-0.224165,14.4586,4.51765,2.75088,4.57205e-15,-1.90833e-14,-36.8621,-16.7947,-72.3675,28.9014,19.6104,-19.0922,-0.221978,7.12502,7.21612,-30.0789,4.57205e-15,-1.90833e-14,-3.45326,-10.8093,72.485,33.2194,-11.2239,-9.86494,30.2572,7.12502,16.1137,59.6073,-15.9093,5.98132,11.891,38.6276,-19.867,-2.62078,-3.73874,-7.64237,3.23588,-22.7248,23.3246,-14.6989,6.06397,-14.7954
-2.81713,17.8264,-5.6018,3.24809,14.1721,1.68487,2.44916,-0.231227,-2.91587,0.96264,-0.357905,2.57585,-0.349828,-0.187504,4.30108,-20.3372,6.74614,-4.14177,32.7275,11.8031,-0.163592,14.4356,4.55134,2.75763,-1.76918e-14,-4.13472e-14,-37.016,-16.9161,-72.3183,28.831,19.6026,-18.6647,-0.110663,7.12502,7.62883,-29.9531,-1.76918e-14,-4.13472e-14,-2.0414,-10.2776,71.4091,32.9042,-11.2743,-10.1424,30.2628,7.12502,15.8465,59.6343,-15.5712,6.32486,11.8539,37.9486,-20.0264,-3.90266,-2.33994,-7.64009,3.1003,-22.4908,23.3039,-14.6883,5.79286,-15.3934
-2.8513,17.8269,-5.58043,3.23649,14.6362,1.7359,2.47978,-0.238208,-2.81112,0.924355,-0.365677,2.49244,-0.406967,-0.189308,4.15554,-20.2128,6.82952,-4.11195,32.6935,11.865,-0.0481648,14.3813,4.60594,2.8005,2.65378e-14,2.8625e-14,-37.1787,-16.9394,-72.3649,28.907,19.4534,-18.4265,-0.0518598,7.12502,7.85873,-29.8858,2.65378e-14,2.8625e-14,-0.53168,-9.51399,70.368,32.4426,-11.4172,-10.3188,30.3172,7.12502,15.6766,59.7021,-15.1666,6.56526,11.6987,37.2287,-20.0552,-4.89891,-1.06454,-7.57991,2.93272,-22.3801,23.2798,-14.6857,5.5601,-15.4676
-2.88674,17.8269,-5.56022,3.22942,14.9934,1.70666,2.43618,-0.268054,-2.70129,0.904107,-0.402023,2.48656,-0.40088,-0.207104,4.08785,-20.1336,6.92018,-4.15995,32.6225,11.9633,0.0685467,14.3139,4.6674,2.86247,1.81888e-14,1.27222e-14,-37.1546,-16.6435,-72.4918,28.8883,19.3224,-18.4242,-0.103602,7.12502,7.86096,-29.9375,1.81888e-14,1.27222e-14,0.893211,-8.58627,69.3471,32.0543,-11.4634,-10.3964,30.6575,7.12502,15.6019,60.0482,-14.8137,6.83515,11.6379,36.4886,-20.0426,-5.84656,-0.467369,-7.55962,2.74397,-22.1823,23.2258,-14.6545,5.38857,-15.4403
-2.9262,17.8265,-5.54217,3.29768,15.3397,1.7162,2.27099,-0.27452,-2.68582,0.9204,-0.407483,2.49762,-0.291135,-0.212168,4.08933,-20.0993,6.94967,-4.15364,32.5598,11.9781,0.121822,14.2728,4.68796,2.87995,2.87244e-14,1.59028e-15,-37.0215,-16.3351,-72.6125,28.7542,19.2035,-18.6668,-0.0837942,7.12502,7.62676,-29.9263,2.87244e-14,1.59028e-15,2.37987,-7.69535,68.3873,31.668,-11.7034,-10.5835,30.637,7.12502,15.4217,60.0417,-14.5674,7.14319,11.5378,35.7528,-20.0371,-6.72748,-0.0264916,-7.62004,2.70035,-22.0046,23.1459,-14.5838,5.09457,-15.6831
-2.96317,17.8261,-5.5192,3.31499,15.712,1.75493,2.12867,-0.271874,-2.60253,0.95236,-0.400345,2.44172,-0.180328,-0.210872,3.98274,-20.1028,6.95668,-3.99938,32.5438,11.9482,0.0808868,14.2818,4.68905,2.83467,2.29596e-14,4.77083e-15,-36.9876,-16.5836,-72.5538,28.5467,19.7188,-19.081,0.218003,7.12502,7.22696,-29.6386,2.29596e-14,4.77083e-15,3.91782,-6.97985,67.3585,31.2478,-11.8479,-10.6625,30.5608,7.12502,15.3456,59.9714,-14.2404,7.38959,11.4339,35.0094,-19.9094,-7.33251,-0.273969,-7.60609,2.78801,-21.8502,23.093,-14.5601,4.64563,-15.932
-2.9995,17.8281,-5.49318,3.31669,15.9962,1.88555,2.09011,-0.273006,-2.61848,0.910146,-0.401763,2.36369,-0.202457,-0.210471,3.91078,-20.0596,6.98916,-3.94986,32.5629,11.9451,0.176292,14.2748,4.70928,2.86218,3.57812e-15,-1.82882e-14,-37.0772,-16.6398,-72.5204,28.4127,20.0244,-19.3315,0.628815,7.12502,6.98512,-29.2359,3.57812e-15,-1.82882e-14,5.31436,-6.13896,66.34,30.6706,-12.0269,-10.7416,30.3789,7.12502,15.2694,59.7953,-13.8771,7.6149,11.2455,34.2832,-19.8554,-7.40855,-1.92808,-7.51704,2.7514,-21.8088,23.058,-14.5602,4.38999,-16.1496
-3.03945,17.8286,-5.47348,3.25273,16.2485,1.86861,2.14093,-0.244287,-2.5067,0.871822,-0.362134,2.31108,-0.27493,-0.188395,3.79261,-19.9523,6.99512,-3.97517,32.4905,11.8831,0.361602,14.2005,4.71529,2.91832,-9.64106e-15,1.51076e-14,-37.1062,-16.4895,-72.6215,28.3725,19.812,-19.2632,0.894609,7.12502,7.05111,-28.9679,-9.64106e-15,1.51076e-14,6.70479,-5.66173,65.1705,30.1206,-11.972,-10.9217,30.152,7.12502,15.0959,59.5815,-13.5219,7.77424,11.243,33.5701,-19.8714,-7.24313,-4.16543,-7.4363,2.47788,-21.613,23.0524,-14.5451,4.40688,-16.1244
-3.08312,17.8266,-5.45596,3.23441,16.49,1.8092,2.14859,-0.242288,-2.41138,0.847614,-0.357468,2.31205,-0.30513,-0.184971,3.73968,-19.8681,7.02336,-3.99345,32.3668,11.892,0.424879,14.1193,4.73601,2.93648,-7.81224e-14,1.51076e-14,-36.9774,-16.4103,-72.6695,28.3075,19.836,-19.2203,1.0353,7.12502,7.09251,-28.8259,-7.81224e-14,1.51076e-14,7.99616,-4.96083,64.1296,29.8959,-12.0466,-11.0696,30.7857,7.12502,14.9535,60.2258,-13.2866,7.85005,11.3245,32.9343,-19.8121,-7.09212,-4.37526,-7.45899,2.25103,-21.3599,23.0674,-14.5228,4.39197,-16.1774
-3.12199,17.8245,-5.43589,3.30994,16.6836,1.76405,2.01646,-0.260739,-2.40667,0.840972,-0.379342,2.42488,-0.235291,-0.197132,3.8535,-19.9329,7.08704,-4.05905,32.3253,12.0358,0.357153,14.1126,4.78144,2.94605,-5.13858e-14,1.11319e-14,-36.7457,-16.1577,-72.6065,28.309,19.9943,-19.1344,0.678078,7.12502,7.17546,-29.1803,-5.13858e-14,1.11319e-14,9.17612,-3.76165,63.4034,29.9885,-12.1022,-10.7417,32.3366,7.12502,15.2693,61.753,-13.1634,7.70627,11.3828,32.4053,-19.6443,-6.61234,-3.11263,-7.55952,2.06588,-21.1435,23.1367,-14.5879,4.34653,-16.4816
-3.16072,17.8193,-5.41499,3.38841,16.8354,1.85939,1.89653,-0.241703,-2.63345,0.882982,-0.355788,2.55828,-0.124385,-0.188708,4.11898,-20.0719,7.12696,-4.21312,32.262,12.1549,0.354198,14.1006,4.81479,2.99337,3.43897e-14,-3.18055e-15,-36.4469,-15.9643,-72.4413,28.2927,20.1507,-19.0961,0.611792,7.12502,7.21234,-29.2453,3.43897e-14,-3.18055e-15,10.356,-3.09583,62.6008,30.0555,-11.1847,-11.5625,33.4779,7.12502,14.4785,62.9528,-12.999,7.39946,11.3229,32.0253,-19.5481,-6.09476,-3.14911,-7.63033,2.03395,-21.0768,23.2629,-14.6812,4.2238,-16.5851
-3.20657,17.8167,-5.39791,3.38069,16.968,1.8075,1.9338,-0.207333,-2.69309,0.86724,-0.310832,2.66543,-0.164468,-0.165422,4.26356,-20.074,7.15385,-4.36412,32.1657,12.2027,0.458115,14.0359,4.83945,3.06001,-2.90226e-14,3.97569e-15,-36.2937,-15.7474,-72.4115,28.3458,19.8021,-19.3513,1.15641,7.12502,6.96609,-28.709,-2.90226e-14,3.97569e-15,11.5505,-2.94277,61.492,29.8153,-9.82163,-13.2384,33.718,7.12502,12.8634,63.3016,-12.7813,7.10201,11.5079,31.766,-19.621,-5.95793,-4.99579,-7.73882,1.89174,-20.8411,23.4539,-14.7324,4.29649,-16.6753
-3.25878,17.814,-5.38826,3.27709,17.0484,1.57603,2.09687,-0.189292,-2.55286,0.836087,-0.285413,2.78203,-0.29039,-0.149469,4.30568,-20.0341,7.22074,-4.40842,32.107,12.3025,0.477733,13.9928,4.88543,3.08549,-1.5704e-14,-1.11319e-14,-36.0731,-15.5391,-72.4613,28.42,19.7851,-19.2986,0.778667,7.12502,7.01689,-29.085,-1.5704e-14,-1.11319e-14,12.9938,-1.70127,60.7286,28.9276,-10.0892,-13.9049,33.515,7.12502,12.2208,63.1379,-12.5787,6.9426,11.9454,31.5822,-19.7604,-5.8976,-5.54967,-7.85074,1.57169,-20.4007,23.6411,-14.7442,4.56753,-16.6814
-3.31513,17.8134,-5.38041,3.12485,17.0897,1.20511,2.07601,-0.189129,-2.35804,0.966111,-0.280971,2.97653,-0.145493,-0.151622,4.39668,-20.0103,7.30314,-4.56826,31.8771,12.44,0.516589,13.8666,4.94558,3.13392,1.93815e-14,2.3059e-14,-35.6005,-15.387,-72.5457,28.6663,20.1193,-18.8356,-0.431286,7.12502,7.46383,-30.2796,1.93815e-14,2.3059e-14,14.7268,0.543405,60.4225,27.7445,-11.4515,-13.8784,33.3426,7.12502,12.2463,62.964,-12.4243,6.95217,12.562,31.3957,-19.7125,-5.80601,-4.58074,-7.93937,1.37466,-19.7837,23.7909,-14.7403,4.69972,-16.7519
-3.36376,17.8154,-5.36183,3.0365,17.1318,1.04567,2.2816,-0.187405,-2.23833,0.865121,-0.276462,3.03462,-0.365235,-0.143474,4.39055,-19.8484,7.38351,-4.58596,31.7653,12.5055,0.619057,13.7688,4.99865,3.17083,1.27222e-14,-3.65764e-14,-35.5595,-15.1714,-72.6355,28.875,20.0472,-18.7824,-0.665631,7.12502,7.5152,-30.5121,1.27222e-14,-3.65764e-14,16.0286,2.12485,59.8564,26.8262,-11.9376,-14.0216,33.1845,7.12502,12.1083,62.8141,-12.2433,6.72691,12.9432,31.1831,-19.4378,-5.62008,-3.35586,-7.90267,1.28741,-19.4182,23.8493,-14.7463,4.75826,-16.8814
-3.40685,17.8179,-5.34073,2.94531,17.165,0.988209,2.31711,-0.192139,-2.15051,0.909472,-0.281467,3.05184,-0.339501,-0.146932,4.35873,-19.8452,7.46751,-4.54584,31.6133,12.6034,0.603664,13.7027,5.05207,3.16618,3.67752e-15,7.95139e-15,-35.198,-14.954,-72.8373,28.8678,19.4841,-19.1023,-0.341482,7.12502,7.2064,-30.1988,3.67752e-15,7.95139e-15,17.4016,3.5456,59.1789,26.0536,-12.1018,-14.5161,33.0036,7.12502,11.6314,62.6607,-12.0298,6.34542,13.2016,30.97,-19.4058,-5.51733,-3.26414,-7.71673,0.909634,-19.2034,23.7542,-14.6745,5.0852,-17.1268
-3.44934,17.8201,-5.31519,2.93974,17.0755,1.06376,2.31878,-0.165956,-2.20103,0.915353,-0.247927,3.03047,-0.337321,-0.130352,4.36437,-19.8724,7.56733,-4.50743,31.5674,12.742,0.579749,13.6888,5.11532,3.17245,-4.27387e-15,4.77083e-15,-34.9183,-14.6836,-73.0422,28.9626,18.8951,-19.23,-0.189719,7.12502,7.08313,-30.0512,-4.27387e-15,4.77083e-15,18.6061,4.8912,58.4572,25.41,-12.2738,-15.1061,33.0266,7.12502,11.0624,62.7151,-11.9192,5.93365,13.3089,30.8285,-19.6186,-5.37126,-4.25124,-7.4935,0.52959,-19.154,23.5082,-14.5139,5.55217,-17.4558
-3.49076,17.8219,-5.28476,3.01226,16.9257,1.28803,2.25554,-0.128183,-2.3981,0.875717,-0.201268,2.98369,-0.346264,-0.106597,4.42632,-19.8061,7.66654,-4.51204,31.595,12.8739,0.621261,13.6772,5.17944,3.20724,-6.13251e-14,-4.77083e-15,-34.7922,-14.3641,-73.1428,29.1761,18.6161,-19.2178,0.0691076,7.12502,7.09489,-29.792,-6.13251e-14,-4.77083e-15,19.5457,5.67028,57.5147,24.871,-11.6554,-15.4478,33.557,7.12502,10.7328,63.2628,-11.8686,5.50728,13.2391,30.7741,-19.6548,-4.95584,-4.11967,-7.25703,0.332222,-19.2592,23.2022,-14.3683,5.88957,-17.4855
-3.5342,17.8262,-5.2638,3.08665,16.7929,1.39785,2.24184,-0.107576,-2.47106,0.811958,-0.174692,2.97117,-0.406395,-0.0912611,4.45422,-19.7106,7.76883,-4.50812,31.6016,12.9978,0.675949,13.6496,5.24494,3.24133,7.15625e-15,6.91771e-14,-34.6296,-14.0319,-73.253,29.413,18.5755,-19.1747,0.0522189,7.12502,7.1365,-29.8075,7.15625e-15,6.91771e-14,20.4108,6.32355,56.5624,24.2749,-10.7265,-15.3304,34.1998,7.12502,10.846,63.8997,-11.8983,5.20328,13.2937,30.7768,-19.5405,-4.76725,-4.2662,-7.10206,-0.066336,-19.2526,22.9409,-14.2148,6.3994,-17.5383
-3.57906,17.8345,-5.24741,3.12721,16.6742,1.33815,2.25621,-0.0967921,-2.43582,0.76682,-0.158601,3.04022,-0.462257,-0.0813621,4.50587,-19.7881,7.84412,-4.54824,31.6934,13.1218,0.719701,13.6938,5.29401,3.29315,-2.75317e-14,1.59028e-15,-34.4306,-13.7645,-73.3196,29.7444,18.5949,-19.0634,-0.021529,7.12502,7.24397,-29.8775,-2.75317e-14,1.59028e-15,21.3559,7.21754,55.7973,23.5334,-10.15,-14.8721,34.4862,7.12502,11.2881,64.1624,-11.9758,5.10042,13.5316,30.781,-19.5041,-4.72323,-4.68307,-7.02898,-0.522631,-19.0661,22.7836,-14.1234,6.93526,-17.3804
-3.62727,17.8431,-5.23211,3.11671,16.583,1.11785,2.23429,-0.10578,-2.20386,0.777079,-0.164855,3.09531,-0.439467,-0.0848524,4.43135,-19.8296,7.94535,-4.50475,31.6375,13.2455,0.732854,13.6755,5.35663,3.3103,2.14687e-14,2.38542e-14,-34.1485,-13.5947,-73.48,30.0414,18.5057,-19.0658,0.176852,7.12502,7.24162,-29.6792,2.14687e-14,2.38542e-14,22.3246,8.12269,54.9502,22.7917,-9.82991,-14.6135,34.6571,7.12502,11.5375,64.3196,-12.0691,5.16497,13.9483,30.7607,-19.4728,-4.74293,-4.73971,-7.02428,-0.82779,-18.6905,22.7163,-14.0315,7.38309,-17.6282
-3.67985,17.8486,-5.21747,3.00107,16.4155,0.837006,2.31363,-0.0968177,-1.86513,0.809809,-0.146157,3.09591,-0.453151,-0.0753613,4.23926,-19.7491,8.07668,-4.36957,31.4722,13.3534,0.765734,13.5894,5.43501,3.30462,-2.34566e-14,8.74653e-15,-33.8049,-13.4996,-73.7641,30.2992,18.2773,-19.0085,0.294244,7.12502,7.29695,-29.5599,-2.34566e-14,8.74653e-15,23.5468,9.9347,54.6667,21.6782,-11.0792,-14.2468,34.2961,7.12502,11.8911,63.9384,-12.0846,5.34385,14.4404,30.7097,-19.3277,-4.70321,-4.24655,-6.94365,-1.11488,-18.2464,22.6887,-13.9115,7.92249,-18.0286
-3.73127,17.8538,-5.19759,2.98151,16.2166,0.758432,2.2989,-0.0768725,-1.86497,0.833648,-0.119323,3.15735,-0.422584,-0.0627597,4.30226,-19.6823,8.20078,-4.31752,31.4062,13.5073,0.757371,13.546,5.51249,3.30969,-1.59028e-14,-9.54166e-15,-33.4631,-13.198,-73.9263,30.6351,17.9835,-19.0256,0.0998566,7.12502,7.28048,-29.7549,-1.59028e-14,-9.54166e-15,25.1177,13.2657,55.6783,20.138,-14.5077,-13.8024,33.5673,7.12502,12.3196,63.1844,-12.0979,5.53949,14.7036,30.642,-19.2386,-4.61533,-3.91562,-6.89345,-1.35482,-18.02,22.6924,-13.8385,8.43808,-18.5905
-3.7802,17.8602,-5.17635,3.07203,16.068,0.735657,2.15513,-0.0963425,-2.00144,0.854667,-0.147011,3.29059,-0.317062,-0.0790133,4.51867,-19.7332,8.33949,-4.33763,31.3929,13.7407,0.694103,13.548,5.60211,3.32796,-5.36719e-15,-8.74653e-15,-33.119,-12.7138,-74.0163,31.0581,17.7871,-19.0504,-0.0677754,7.12502,7.25648,-29.9234,-5.36719e-15,-8.74653e-15,26.4382,16.064,56.4306,18.9272,-17.4805,-13.2328,32.9704,7.12502,12.8688,62.5537,-12.1739,5.64847,14.8948,30.5771,-19.0285,-4.46396,-2.95169,-6.95104,-1.61617,-17.8606,22.7061,-13.666,8.94716,-19.3489
-3.83033,17.8628,-5.15864,3.06603,15.9195,0.604801,2.1675,-0.113767,-1.99797,0.843868,-0.168969,3.43184,-0.33251,-0.0896114,4.6646,-19.6766,8.48978,-4.36058,31.3238,13.9651,0.669964,13.4993,5.69988,3.34967,-8.94531e-15,1.51076e-14,-32.959,-12.1524,-74.1236,31.6053,17.5763,-19.2314,-0.0992807,7.12502,7.08178,-29.9608,-8.94531e-15,1.51076e-14,27.1721,17.3512,56.1691,18.1918,-18.7535,-13.3609,33.4357,7.12502,12.7453,63.0267,-12.202,5.82455,15.22,30.5316,-18.6588,-4.27109,-0.670922,-6.90563,-2.01166,-17.5824,22.665,-13.5291,9.53474,-19.799
-3.88002,17.8614,-5.14252,3.02875,15.8483,0.44874,2.24443,-0.123097,-1.92331,0.80696,-0.178201,3.56318,-0.412445,-0.0921034,4.75989,-19.5666,8.59444,-4.36696,31.3174,14.1154,0.6618,13.4684,5.7679,3.36332,3.55825e-14,-9.54166e-15,-32.8765,-11.7204,-74.1812,32.2173,17.2782,-19.2664,-0.362259,7.12502,7.04798,-30.2249,3.55825e-14,-9.54166e-15,27.8165,18.2933,55.8317,17.4874,-19.8003,-14.0153,34.2536,7.12502,12.1143,63.8829,-12.1795,5.88478,15.5745,30.4766,-18.6157,-4.21713,0.142014,-6.84232,-2.40724,-17.2744,22.6001,-13.4337,10.0305,-20.0174
-3.92883,17.8645,-5.12364,3.11805,15.7721,0.396957,2.14529,-0.138077,-1.99334,0.775062,-0.197889,3.68619,-0.386929,-0.102028,4.92848,-19.4437,8.68507,-4.33427,31.2688,14.2437,0.602629,13.4265,5.82573,3.34553,-1.3418e-14,-3.97569e-15,-32.684,-11.5079,-74.1425,32.7404,16.985,-18.988,-0.322007,7.12502,7.31672,-30.1755,-1.3418e-14,-3.97569e-15,28.5032,19.3942,55.6353,16.7116,-21.174,-14.1237,33.9889,7.12502,12.0098,63.6243,-12.2067,5.86493,15.8002,30.4051,-18.901,-4.26791,-1.47289,-6.87506,-2.65038,-17.0773,22.5345,-13.3986,10.4698,-20.2465
-3.97911,17.8694,-5.10273,3.18755,15.6887,0.393013,2.08841,-0.147316,-2.11002,0.743954,-0.211113,3.7862,-0.384728,-0.108337,5.09989,-19.3441,8.79072,-4.30512,31.2474,14.3859,0.582832,13.3961,5.89302,3.34791,1.20265e-14,7.15625e-15,-32.5165,-11.2257,-74.1406,33.344,16.6567,-18.7394,-0.45725,7.12502,7.55667,-30.3023,1.20265e-14,7.15625e-15,29.2939,20.8333,55.782,15.946,-23.4582,-13.3896,33.5535,7.12502,12.7176,63.1462,-12.204,5.96393,15.9907,30.3301,-19.016,-4.18179,-1.45622,-6.84882,-2.86227,-16.917,22.436,-13.3553,10.8421,-20.1385
-4.02988,17.8737,-5.08213,3.18786,15.6511,0.34774,2.13871,-0.16534,-2.12686,0.742822,-0.234878,3.87211,-0.411105,-0.119713,5.20041,-19.4325,8.90625,-4.37949,31.3295,14.5579,0.687186,13.4257,5.96868,3.43423,9.24349e-15,-1.59028e-15,-32.3517,-10.7418,-74.2534,34.0642,15.9732,-18.5974,-1.05411,7.12502,7.69379,-30.8942,9.24349e-15,-1.59028e-15,30.0709,22.2233,55.9286,15.3644,-25.9496,-11.8588,34.2259,7.12502,14.1931,63.721,-12.1866,6.04727,16.2468,30.263,-18.7454,-4.10481,0.26935,-6.74522,-3.22622,-16.7007,22.2834,-13.3353,11.212,-19.8613
-4.07888,17.8762,-5.06232,3.16243,15.664,0.250124,2.11769,-0.230644,-2.14866,0.819426,-0.322727,4.03507,-0.309933,-0.167155,5.38552,-19.5352,9.03791,-4.39395,31.3003,14.7901,0.594744,13.4362,6.05352,3.44315,1.74931e-14,1.11319e-14,-32.0181,-10.1788,-74.3671,34.7007,15.2609,-18.6223,-1.49584,7.12502,7.6697,-31.3368,1.74931e-14,1.11319e-14,30.7001,23.4786,55.9773,14.8562,-27.657,-10.8469,35.0649,7.12502,15.168,64.489,-12.1175,6.12549,16.5464,30.1894,-18.7727,-4.17402,0.489683,-6.62557,-3.55292,-16.4297,22.1045,-13.2392,11.6047,-19.2441
-4.12488,17.8772,-5.04305,3.18651,15.7125,0.18071,2.01795,-0.321654,-2.15977,0.883699,-0.444647,4.19683,-0.172912,-0.23242,5.56348,-19.5513,9.14796,-4.41392,31.2242,15.0027,0.442557,13.416,6.12567,3.41946,1.58034e-14,-2.22639e-14,-31.5942,-9.57695,-74.4461,35.1529,14.7453,-18.7981,-1.88241,7.12502,7.50006,-31.7294,1.58034e-14,-2.22639e-14,31.2234,24.7877,56.1318,14.394,-29.0653,-11.377,34.8176,7.12502,14.6573,64.2796,-12.0597,6.14587,16.8005,30.0871,-18.9086,-4.27978,-0.382148,-6.56548,-3.9301,-16.1971,21.9539,-12.9463,12.1837,-18.8247
-4.16963,17.8781,-5.02534,3.28005,15.7863,0.208707,1.9937,-0.401606,-2.19184,0.834083,-0.550262,4.29819,-0.197016,-0.284232,5.69071,-19.5385,9.22264,-4.55955,31.2608,15.142,0.50745,13.4041,6.17911,3.4869,1.76918e-14,-2.70347e-14,-31.3441,-9.22041,-74.4068,35.5103,14.6278,-18.8762,-1.97205,7.12502,7.4247,-31.8218,1.76918e-14,-2.70347e-14,31.5198,25.7279,56.1138,14.06,-30.2385,-11.9112,34.8033,7.12502,14.1426,64.3019,-12.0896,6.04671,16.9198,29.9518,-18.7946,-4.09248,0.915561,-6.57037,-4.32605,-16.0731,21.8449,-12.7345,12.6529,-18.6572
-4.21667,17.88,-5.00782,3.26319,15.8303,0.0503724,2.05008,-0.450789,-2.07385,0.801894,-0.611877,4.41982,-0.254565,-0.313131,5.75323,-19.568,9.28516,-4.52015,31.309,15.2381,0.476247,13.4346,6.21722,3.48944,-2.37548e-14,4.13472e-14,-31.199,-9.06889,-74.3615,35.9577,14.6755,-18.8266,-1.78319,7.12502,7.47252,-31.6312,-2.37548e-14,4.13472e-14,31.5706,26.0559,55.6598,13.9198,-30.5933,-11.6405,35.0419,7.12502,14.4034,64.5221,-12.0624,6.05545,17.2633,29.8071,-18.6815,-3.99754,1.91878,-6.52536,-4.62535,-15.7368,21.741,-12.7609,12.9079,-18.1546
-4.26137,17.8833,-4.98964,3.25924,15.8497,-0.181779,2.02857,-0.489747,-1.86387,0.819559,-0.659035,4.5657,-0.219555,-0.337383,5.78712,-19.7398,9.35933,-4.45518,31.3992,15.3851,0.367801,13.5232,6.26115,3.48049,-4.80065e-14,6.36111e-15,-30.938,-8.83439,-74.3531,36.4244,14.5097,-18.9083,-1.59566,7.12502,7.39365,-31.4465,-4.80065e-14,6.36111e-15,31.7701,26.7353,55.5579,13.7989,-31.3569,-11.2686,35.0435,7.12502,14.7618,64.4978,-12.0557,6.11391,17.6787,29.6745,-18.597,-3.97334,2.63057,-6.50035,-4.92486,-15.3268,21.6239,-12.8072,13.1184,-17.8647
-4.30204,17.8868,-4.97008,3.39529,15.9868,-0.125812,1.9351,-0.564648,-1.85092,0.788255,-0.758124,4.61803,-0.187414,-0.387268,5.83583,-19.8169,9.43541,-4.44181,31.4764,15.5161,0.340696,13.5728,6.30871,3.49903,4.63168e-14,-2.06736e-14,-30.7358,-8.73076,-74.3147,36.8435,14.4547,-18.9047,-1.56248,7.12502,7.39717,-31.4132,4.63168e-14,-2.06736e-14,31.7725,27.0213,55.2494,13.7606,-31.5157,-11.507,35.2434,7.12502,14.532,64.7144,-12.0752,5.8562,17.7482,29.537,-18.435,-3.7258,3.51891,-6.55353,-5.19063,-15.2304,21.5454,-12.8197,13.2229,-17.7235
-4.34364,17.8888,-4.95097,3.4303,16.1928,-0.0801637,1.94496,-0.667669,-1.85981,0.746569,-0.894187,4.69474,-0.218725,-0.454307,5.9249,-19.7544,9.49257,-4.37014,31.5222,15.6117,0.242571,13.5947,6.34315,3.46606,7.25564e-15,-2.22639e-14,-30.6914,-8.51898,-74.2613,37.3332,14.3259,-19.252,-1.23945,7.12502,7.06192,-31.1016,7.25564e-15,-2.22639e-14,31.1955,26.3175,54.1293,13.9474,-30.3849,-11.9445,35.5651,7.12502,14.1105,65.066,-11.9634,5.5771,17.8538,29.4064,-18.394,-3.55231,3.76691,-6.54534,-5.41434,-15.1176,21.4724,-12.7596,13.2806,-17.8519
-4.3885,17.8892,-4.93564,3.34737,16.3315,-0.324973,1.99099,-0.74102,-1.63401,0.749723,-0.986088,4.85815,-0.231506,-0.499765,5.97027,-19.7288,9.5303,-4.39446,31.5812,15.6653,0.283123,13.6058,6.36755,3.4945,-3.83654e-14,6.83819e-14,-30.5773,-8.33728,-74.2044,37.8104,14.0989,-19.899,-0.702526,7.12502,6.43729,-30.5847,-3.83654e-14,6.83819e-14,31.0451,26.4724,53.7579,14.0266,-30.4718,-11.6843,35.6277,7.12502,14.3612,65.111,-11.8592,5.625,18.2998,29.3162,-18.392,-3.63925,3.93682,-6.49567,-5.61959,-14.6865,21.3408,-12.5796,13.4145,-18.7368
-4.43264,17.8904,-4.92002,3.31589,16.4314,-0.51865,2.04844,-0.771082,-1.37231,0.733817,-1.01894,4.93417,-0.279644,-0.514425,5.90206,-19.6851,9.55913,-4.3035,31.6094,15.6684,0.302843,13.6142,6.3819,3.48773,-5.36719e-14,-2.70347e-14,-30.4938,-8.38627,-74.1713,38.2609,13.9071,-20.2147,-0.46408,7.12502,6.13254,-30.3553,-5.36719e-14,-2.70347e-14,31.0781,26.7521,53.665,14.1144,-30.7931,-11.2428,35.4943,7.12502,14.7866,64.9468,-11.833,5.67797,18.6793,29.2408,-18.3928,-3.68843,4.23618,-6.4544,-5.97107,-14.3249,21.1854,-12.384,13.7035,-19.0192
-4.47296,17.8937,-4.90356,3.39237,16.5702,-0.449987,2.08229,-0.832308,-1.31479,0.714735,-1.09826,4.95226,-0.310093,-0.553257,5.89053,-19.7326,9.58601,-4.26537,31.5935,15.7238,0.22386,13.6288,6.39778,3.46444,-5.96354e-14,-2.06736e-14,-30.3869,-8.28129,-74.1428,38.6228,13.7205,-20.4611,-0.625107,7.12502,5.89462,-30.5231,-5.96354e-14,-2.06736e-14,30.5949,26.1371,52.8522,14.4952,-29.6822,-11.1475,35.5883,7.12502,14.8784,65.034,-11.8306,5.48146,18.7487,29.1511,-18.376,-3.61906,4.34628,-6.44765,-6.12763,-14.2444,21.0416,-12.2197,13.7715,-19.3973
-4.51317,17.898,-4.88698,3.4951,16.7356,-0.37829,2.04042,-0.883786,-1.28809,0.716553,-1.16675,4.9882,-0.276808,-0.588245,5.91368,-19.9842,9.5806,-4.3157,31.7594,15.7565,0.263873,13.7435,6.39348,3.51971,-3.8763e-14,-1.27222e-14,-30.2351,-8.25237,-74.0398,38.8688,13.648,-20.4289,-1.06301,7.12502,5.92571,-30.9601,-3.8763e-14,-1.27222e-14,29.8962,24.8696,51.5819,15.0386,-27.8584,-11.1052,35.7927,7.12502,14.9192,65.2354,-11.8277,5.21141,18.8182,29.0715,-18.3481,-3.55911,4.12952,-6.46856,-6.13822,-14.1425,20.8736,-12.0894,13.6488,-19.64
-4.55507,17.9025,-4.86889,3.54832,16.8891,-0.4388,1.97371,-0.905373,-1.16686,0.727654,-1.19399,5.02814,-0.226567,-0.602708,5.88532,-20.1637,9.55525,-4.2747,31.8984,15.7003,0.354649,13.8363,6.37248,3.55993,9.54166e-15,2.06736e-14,-30.1178,-8.38454,-73.9539,39.1079,13.6282,-20.5031,-1.34205,7.12502,5.85411,-31.2412,9.54166e-15,2.06736e-14,29.2174,23.3981,50.2735,15.7163,-25.9663,-10.988,35.7204,7.12502,15.0321,65.1547,-11.8069,5.08953,19.0492,28.9934,-18.3372,-3.52887,4.72017,-6.4771,-6.25463,-13.8972,20.6975,-11.9732,13.6235,-19.4324
-4.5948,17.9065,-4.85287,3.60752,17.0188,-0.522063,2.01953,-0.92432,-0.942242,0.630497,-1.21007,5.03685,-0.35519,-0.606472,5.76805,-20.0927,9.54524,-4.19509,31.932,15.6365,0.410357,13.8381,6.36287,3.55604,6.44062e-14,-2.70347e-14,-30.1955,-8.54193,-73.8739,39.3651,13.6054,-20.9274,-0.706076,7.12502,5.4444,-30.6161,6.44062e-14,-2.70347e-14,28.5211,22.1566,49.2519,16.4613,-24.4694,-11.0038,35.5903,7.12502,15.0168,65.0258,-11.8063,5.0715,19.2981,28.8863,-18.2794,-3.58748,5.67289,-6.50853,-6.51839,-13.649,20.5514,-11.7749,13.7753,-19.7468
-4.63279,17.9095,-4.84014,3.70312,17.1604,-0.57266,2.04778,-0.942066,-0.715773,0.539052,-1.22468,5.03304,-0.468618,-0.610256,5.63629,-20.0199,9.51527,-4.14056,31.9296,15.5529,0.451638,13.824,6.3419,3.54493,-5.94366e-14,1.59028e-14,-30.2613,-8.77902,-73.7657,39.5953,13.7363,-20.9272,-0.480487,7.12502,5.44467,-30.3905,-5.94366e-14,1.59028e-14,27.8032,20.8297,48.2924,17.3583,-22.5952,-10.9724,36.5584,7.12502,15.0471,65.9916,-11.8562,5.06089,19.4984,28.7606,-18.2416,-3.63372,6.17148,-6.59899,-6.74523,-13.4336,20.433,-11.6347,13.8564,-19.7626
-4.67211,17.9132,-4.82457,3.75192,17.2842,-0.641917,2.01124,-0.944305,-0.525061,0.537373,-1.22374,5.05617,-0.453536,-0.609771,5.55073,-20.1282,9.45041,-4.17615,32.0088,15.4453,0.563959,13.8682,6.29975,3.5873,-9.14409e-15,2.06736e-14,-30.2537,-8.91718,-73.6655,39.7921,13.7757,-20.7633,-0.680872,7.12502,5.60286,-30.5868,-9.14409e-15,2.06736e-14,27.1358,19.495,47.391,18.4185,-20.7331,-10.9594,36.6146,7.12502,15.0596,66.0469,-11.884,5.1325,19.727,28.6862,-18.3655,-3.69058,6.40311,-6.61424,-7.05083,-13.2057,20.2784,-11.4849,14.0481,-19.5233
-4.71111,17.9174,-4.8088,3.75905,17.4373,-0.634744,2.10972,-0.949925,-0.370108,0.50105,-1.22415,5.01643,-0.550363,-0.607951,5.42281,-20.1881,9.41558,-4.07716,32.1009,15.3549,0.615606,13.9268,6.27199,3.58796,-4.29375e-14,-6.36111e-15,-30.3556,-8.94478,-73.6422,39.9782,13.6568,-20.9846,-0.397637,7.12502,5.3892,-30.3091,-4.29375e-14,-6.36111e-15,26.6377,18.7027,46.8408,19.4756,-20.2368,-10.9215,35.296,7.12502,15.0961,64.7256,-11.8166,5.10136,19.8886,28.64,-18.4704,-3.80382,6.50861,-6.54051,-7.3629,-13.0739,20.1184,-11.3925,14.2727,-19.3534
-4.74711,17.9173,-4.79551,3.82815,17.6141,-0.448154,2.22568,-0.962422,-0.335769,0.447933,-1.23614,4.91179,-0.672037,-0.611656,5.29657,-20.2692,9.38269,-3.97414,32.2151,15.2527,0.712772,13.995,6.24463,3.6059,1.98785e-14,-5.88403e-14,-30.4959,-8.92577,-73.6346,40.1662,13.4636,-21.3026,-0.0464244,7.12502,5.08222,-29.9655,1.98785e-14,-5.88403e-14,26.1839,18.1178,46.4915,20.4971,-19.7989,-11.1229,35.5742,7.12502,14.9021,65.0181,-11.7622,4.90552,19.841,28.6135,-18.4993,-3.7729,6.61463,-6.48113,-7.47429,-13.1425,19.9587,-11.3555,14.2942,-19.7961
-4.7835,17.9174,-4.7808,3.87183,17.7442,-0.451543,2.23688,-0.968219,-0.148037,0.429576,-1.23841,4.87779,-0.701825,-0.612305,5.15424,-20.3962,9.29922,-4.02433,32.3065,15.1,0.891536,14.0416,6.19042,3.67026,3.77691e-15,5.88403e-14,-30.5648,-9.00469,-73.6015,40.255,13.2796,-21.5413,0.328716,7.12502,4.85169,-29.5957,3.77691e-15,5.88403e-14,25.5804,17.3184,46.0411,21.7268,-18.5023,-11.7775,36.7299,7.12502,14.2715,66.2195,-11.7946,4.90205,19.9944,28.6215,-18.5646,-3.90145,6.66552,-6.44047,-7.49344,-12.999,19.7788,-11.3976,14.26,-19.5237
-4.82041,17.9195,-4.76678,3.94732,17.8889,-0.459604,2.21461,-0.974254,0.0178747,0.424328,-1.24263,4.86853,-0.698163,-0.614499,5.0496,-20.4391,9.20788,-4.06776,32.2306,14.9591,0.932182,14.0136,6.13382,3.66747,-4.11484e-14,-3.65764e-14,-30.527,-9.05791,-73.5424,40.2163,13.0556,-21.5986,0.547063,7.12502,4.79634,-29.3786,-4.11484e-14,-3.65764e-14,25.0316,16.8373,45.8301,23.1122,-17.8786,-12.3789,36.5398,7.12502,13.6919,66.0694,-11.8902,4.8986,20.1577,28.6635,-18.6425,-4.05579,6.54634,-6.44351,-7.5232,-12.8283,19.5335,-11.3757,14.2572,-19.3099
-4.85656,17.9213,-4.75412,3.9607,18.0385,-0.429379,2.29022,-0.948876,0.0605142,0.428453,-1.20486,4.90613,-0.739722,-0.59496,5.06541,-20.4183,9.1126,-4.10459,32.1285,14.8227,0.922088,13.9672,6.07617,3.63957,3.67752e-14,-4.45278e-14,-30.4065,-9.07059,-73.3818,40.0531,12.8858,-21.4732,0.369963,7.12502,4.91749,-29.553,3.67752e-14,-4.45278e-14,24.6313,16.9101,46.2162,24.626,-18.191,-12.8015,35.6088,7.12502,13.2846,65.1654,-11.8757,4.88443,20.2852,28.7193,-18.7531,-4.17741,6.14574,-6.31987,-7.62441,-12.7283,19.1786,-11.2563,14.3657,-19.9211
-4.89084,17.9294,-4.74026,3.98631,18.1475,-0.448948,2.35313,-0.908794,0.0492344,0.377038,-1.14549,5.0357,-0.830212,-0.563071,5.20849,-20.3427,9.01855,-4.17011,32.1966,14.712,0.924039,13.9795,6.0203,3.63158,4.57205e-14,1.27222e-14,-30.3734,-8.95804,-73.0867,39.8924,12.8042,-21.4802,0.215762,7.12502,4.91072,-29.7073,4.57205e-14,1.27222e-14,24.1496,17.0542,46.8646,26.3023,-18.3476,-13.5787,35.1778,7.12502,12.5353,64.7818,-11.9518,4.94356,20.429,28.7907,-18.8607,-4.31604,5.66756,-6.19743,-7.66029,-12.6031,18.7398,-10.89,14.5233,-19.6564
-4.92296,17.9482,-4.72435,4.13283,18.2762,-0.298447,2.29421,-0.913251,-0.00879349,0.31678,-1.1517,5.05977,-0.856944,-0.564926,5.26669,-20.2291,8.95165,-4.1796,32.2221,14.6316,0.875531,13.9745,5.97956,3.59596,3.39922e-14,-1.43125e-14,-30.363,-8.83604,-72.9018,39.6825,12.8347,-21.8584,0.346942,7.12502,4.54547,-29.5843,3.39922e-14,-1.43125e-14,23.3368,16.7443,46.9678,28.2674,-17.6937,-14.8681,35.6718,7.12502,11.2919,65.3478,-12.2137,5.09125,20.3447,28.8782,-18.9082,-4.53236,5.8617,-6.18907,-7.52884,-12.6635,18.3551,-10.4888,14.5361,-18.5265
-4.95519,17.96,-4.7105,4.19319,18.4598,-0.222817,2.213,-0.931178,0.0568251,0.381575,-1.17869,5.07729,-0.743191,-0.580641,5.24576,-20.3389,8.88491,-4.27084,32.2306,14.5605,0.911346,13.9925,5.9399,3.61962,2.40529e-14,-2.38542e-14,-30.1789,-8.83442,-72.7604,39.4562,13.0227,-21.5376,-0.122489,7.12502,4.85522,-30.0469,2.40529e-14,-2.38542e-14,22.4264,16.0407,46.6948,30.4493,-16.3248,-16.4446,36.7236,7.12502,9.77121,66.4769,-12.3821,5.2074,20.3645,28.9433,-19.0022,-4.78054,6.01651,-6.20171,-7.47769,-12.6434,18.1724,-10.3634,14.538,-17.0651
-4.98713,17.9528,-4.70289,4.2315,18.6032,-0.224108,2.0766,-0.935267,0.149569,0.53518,-1.19189,5.13257,-0.508121,-0.591746,5.24641,-20.5947,8.81776,-4.42144,32.2125,14.5072,0.971125,14.0217,5.90146,3.67208,3.598e-14,-1.59028e-14,-29.8665,-8.82114,-72.6192,39.2816,13.2305,-20.9667,-0.563843,7.12502,5.40652,-30.4749,3.598e-14,-1.59028e-14,21.626,15.4891,46.5048,32.6731,-15.0197,-17.6228,37.239,7.12502,8.6344,67.0425,-12.3745,5.09326,20.5105,28.9746,-19.1084,-4.7505,6.38215,-6.28627,-7.57274,-12.5532,18.1958,-10.3441,14.7417,-16.5209
-5.01871,17.9349,-4.6985,4.2687,18.7273,-0.114118,2.32414,-0.951787,0.231956,0.44531,-1.20077,5.06514,-0.741895,-0.59252,5.13518,-20.7107,8.78376,-4.40603,32.3704,14.4365,1.08267,14.1074,5.87673,3.71837,5.62561e-14,-1.90833e-14,-29.9554,-8.70531,-72.5809,39.1146,13.4038,-20.6877,-0.549009,7.12502,5.67586,-30.453,5.62561e-14,-1.90833e-14,20.4298,14.6029,45.9428,35.0536,-13.8061,-18.4515,37.2955,7.12502,7.83457,67.1303,-12.2082,4.81519,20.5556,28.9807,-19.2354,-4.51708,6.99376,-6.38899,-7.66697,-12.5888,18.3975,-10.4494,14.9054,-17.0217
-5.04999,17.9266,-4.68997,4.28073,18.8547,-0.0244463,2.41038,-0.949733,0.291252,0.442945,-1.19427,5.00279,-0.795868,-0.588756,5.03758,-20.6828,8.72196,-4.21728,32.3367,14.3043,0.989924,14.1183,5.82969,3.63032,-1.41137e-14,2.70347e-14,-29.9348,-8.70187,-72.5306,38.8642,13.5954,-20.3933,-0.678067,7.12502,5.96012,-30.5742,-1.41137e-14,2.70347e-14,19.4828,14.188,45.7576,37.3816,-13.2273,-19.502,37.0991,7.12502,6.82056,66.9693,-12.0951,4.67978,20.6159,28.978,-19.2941,-4.47295,7.17562,-6.51926,-7.81415,-12.5992,18.6892,-10.7325,15.0578,-16.4814
-5.08148,17.9288,-4.68203,4.32275,19.1107,-0.0111489,2.48909,-0.960347,0.45852,0.388926,-1.1993,4.94844,-0.899853,-0.589912,4.88793,-20.4748,8.64124,-4.05525,32.1549,14.0915,0.991441,14.0142,5.77354,3.54745,-1.15295e-14,-2.38542e-14,-30.0246,-8.70405,-72.4432,38.6581,13.6241,-20.3696,-0.686215,7.12502,5.98298,-30.5817,-1.15295e-14,-2.38542e-14,18.7148,14.0588,45.9297,39.6373,-13.1209,-20.9055,37.0272,7.12502,5.46561,66.9367,-12.1292,4.68172,20.7352,28.9684,-19.3327,-4.63505,7.32929,-6.78968,-7.71608,-12.4943,18.9347,-10.7776,14.9559,-15.8373
-5.11495,17.9321,-4.67437,4.34477,19.4087,-0.0199344,2.62405,-1.01063,0.61602,0.337207,-1.25477,4.92943,-1.02812,-0.616286,4.78397,-20.4725,8.55165,-4.10957,32.1847,13.9087,1.19081,14.0067,5.71698,3.60299,-8.84592e-14,5.08889e-14,-30.0466,-8.6739,-72.3717,38.3935,13.3852,-20.5628,-0.315665,7.12502,5.79649,-30.2164,-8.84592e-14,5.08889e-14,17.965,14.1616,46.2176,41.8252,-13.262,-22.4191,37.2605,7.12502,4.00403,67.2026,-12.1599,4.77884,20.8746,28.965,-19.4614,-4.79335,8.24669,-7.01414,-7.40106,-12.3693,19.0387,-10.5267,14.7648,-16.1598
-5.14522,17.9332,-4.6631,4.39151,19.601,-0.0526061,2.69629,-1.03168,0.772691,0.256882,-1.2716,4.92165,-1.15364,-0.623314,4.69033,-20.4819,8.43337,-4.19188,32.2732,13.7047,1.38182,14.0278,5.64314,3.66089,-4.37326e-15,-3.18055e-15,-30.1452,-8.64809,-72.2882,38.0336,13.2903,-20.7545,0.0507285,7.12502,5.61135,-29.855,-4.37326e-15,-3.18055e-15,17.1784,14.2212,46.4514,43.9519,-13.4669,-24.0265,37.2467,7.12502,2.4518,67.2124,-12.2026,4.79584,21.0362,28.9557,-19.5237,-4.91069,8.42189,-7.146,-7.35702,-12.2575,19.0555,-10.4295,14.9226,-16.3651
-5.17246,17.9317,-4.65079,4.46904,19.7848,0.0299749,2.67754,-1.07543,0.810375,0.226858,-1.32833,4.9055,-1.17096,-0.651493,4.65399,-20.4593,8.34881,-4.18893,32.307,13.5628,1.43105,14.0385,5.58819,3.65701,6.34123e-14,0,-30.1141,-8.57413,-72.1913,37.4817,13.7538,-20.9691,0.59923,7.12502,5.40417,-29.3119,6.34123e-14,0,16.5586,14.8162,47.0076,45.9275,-14.362,-25.6378,36.7809,7.12502,0.895564,66.7587,-12.209,4.70286,21.0879,28.9574,-19.5737,-5.05978,8.09372,-7.23825,-7.42736,-12.2677,19.0328,-10.4449,15.0945,-16.1408
-5.20096,17.9355,-4.63879,4.49599,19.9953,0.0620712,2.67519,-1.12811,0.880267,0.268898,-1.39801,4.92012,-1.1225,-0.68728,4.63124,-20.5078,8.29668,-4.1766,32.3109,13.4951,1.40081,14.0577,5.55381,3.63627,-8.54774e-15,4.13472e-14,-29.9182,-8.60251,-72.0616,36.9666,14.2364,-20.6501,0.389484,7.12502,5.71218,-29.5135,-8.54774e-15,4.13472e-14,16.1666,15.7648,47.8539,47.8791,-15.6204,-27.1724,36.5133,7.12502,-0.586556,66.4923,-12.2238,4.81079,21.1823,29.0106,-19.7588,-5.23307,8.50059,-7.27156,-7.45421,-12.2066,18.8912,-10.3121,15.0924,-16.133
-5.2315,17.9438,-4.62903,4.50789,20.1901,0.0458942,2.78673,-1.12089,0.975904,0.257742,-1.38028,4.90944,-1.20043,-0.677949,4.56822,-20.5707,8.1855,-4.07707,32.3236,13.2966,1.40864,14.0919,5.47796,3.59724,-2.54444e-14,3.97569e-14,-29.9343,-8.9396,-71.8595,36.6591,14.5909,-19.8173,-0.455375,7.12502,6.51619,-30.3351,-2.54444e-14,3.97569e-14,15.7493,16.1771,48.4691,49.8756,-16.3753,-28.604,36.8367,7.12502,-1.96929,66.8074,-12.3237,5.00815,21.2819,29.1125,-19.9439,-5.2506,10.7632,-7.26257,-7.40844,-12.07,18.6592,-10.0374,14.9937,-15.6238
-5.25856,17.9512,-4.62184,4.59179,20.3226,0.232287,2.91052,-1.10842,0.932607,0.235498,-1.3607,4.82261,-1.29525,-0.667334,4.50469,-20.7342,8.04701,-4.07523,32.4077,13.053,1.56154,14.1582,5.38671,3.63145,-1.74931e-14,9.54166e-15,-29.9596,-9.12051,-71.7292,36.3866,14.7483,-19.7357,-0.601092,7.12502,6.59496,-30.4784,-1.74931e-14,9.54166e-15,15.2115,16.3403,48.8001,51.8683,-16.829,-29.9887,37.5892,7.12502,-3.30654,67.5433,-12.4459,5.18552,21.1279,29.2265,-20.1287,-5.16645,13.5102,-7.20953,-7.31587,-12.1982,18.4081,-9.65964,15.1077,-15.8638
-5.2857,17.9533,-4.6119,4.60554,20.3808,0.27201,3.01341,-1.08756,0.976844,0.233186,-1.32732,4.80705,-1.35913,-0.650306,4.46469,-20.7893,7.9629,-4.05371,32.445,12.9117,1.60456,14.1897,5.33113,3.6275,-8.5875e-14,-3.65764e-14,-29.9659,-9.22383,-71.5894,36.1674,14.8113,-20.0698,-0.483371,7.12502,6.27245,-30.3705,-8.5875e-14,-3.65764e-14,14.5889,16.5381,49.0517,53.8356,-17.3654,-31.078,37.9078,7.12502,-4.35842,67.8429,-12.5114,5.32766,21.1632,29.3286,-20.2456,-5.11931,14.7227,-7.13248,-7.16824,-12.2024,18.1807,-9.2968,15.2729,-16.7409
-5.31117,17.9528,-4.59831,4.596,20.4604,0.250972,3.07441,-1.04704,1.07048,0.228183,-1.2675,4.78325,-1.4053,-0.620458,4.38593,-20.8535,7.87167,-3.96036,32.5453,12.725,1.68814,14.2545,5.26727,3.62516,-2.66371e-14,-1.74931e-14,-30.0677,-9.60038,-71.3725,35.8678,15.2442,-20.0282,-0.555324,7.12502,6.31259,-30.4413,-2.66371e-14,-1.74931e-14,14.0417,16.6551,49.2831,55.7533,-17.798,-31.8832,37.6775,7.12502,-5.13597,67.5952,-12.5242,5.34151,21.2966,29.3858,-20.2759,-5.17838,14.5824,-7.11086,-7.11125,-12.1291,18.0564,-9.11865,15.2627,-17.3193
-5.33492,17.9534,-4.5856,4.65744,20.6376,0.304535,3.04379,-1.04968,1.11669,0.220951,-1.27094,4.74204,-1.39727,-0.622547,4.31616,-20.9508,7.75482,-3.95439,32.6519,12.4966,1.87414,14.3142,5.18972,3.67111,6.1822e-14,-2.8625e-14,-30.1271,-9.90042,-71.1647,35.5124,15.6754,-19.5143,-0.739434,7.12502,6.80871,-30.61,6.1822e-14,-2.8625e-14,13.593,16.9039,49.5906,57.5344,-18.2659,-32.7476,37.3565,7.12502,-5.97052,67.2524,-12.5451,5.36236,21.3436,29.3844,-20.3541,-5.24028,15.1537,-7.22468,-7.04603,-12.106,18.0849,-8.93298,15.2138,-17.5673
-5.35977,17.9534,-4.57645,4.68292,20.8546,0.247066,2.9919,-1.08029,1.25943,0.253442,-1.30956,4.76887,-1.33477,-0.642959,4.26309,-21.0348,7.64969,-3.97495,32.6963,12.3268,1.95551,14.35,5.12191,3.68577,6.91771e-14,1.74931e-14,-30.0538,-10.0009,-71.0281,35.2258,15.5442,-19.5275,-0.996598,7.12502,6.796,-30.8675,6.91771e-14,1.74931e-14,13.2005,17.2349,49.957,59.2547,-18.565,-33.5784,37.0773,7.12502,-6.7726,66.949,-12.5515,5.3477,21.5127,29.3626,-20.4517,-5.30985,15.2044,-7.39435,-6.83441,-11.9519,18.1934,-8.64052,15.2126,-18.0488
-5.38387,17.9524,-4.56711,4.69073,20.9948,0.236833,2.94777,-1.09758,1.31375,0.295386,-1.33389,4.79632,-1.26589,-0.655862,4.26016,-20.9938,7.57436,-3.88125,32.6596,12.2107,1.85594,14.3468,5.07049,3.60889,2.5842e-14,-6.36111e-15,-29.9883,-10.1441,-70.8818,34.9413,15.2959,-19.8965,-1.00606,7.12502,6.43975,-30.8882,2.5842e-14,-6.36111e-15,12.6847,17.5532,50.3149,61.1478,-18.6427,-34.222,36.6813,7.12502,-7.39384,66.5321,-12.5387,5.26194,21.6382,29.358,-20.499,-5.41304,14.5981,-7.53115,-6.59537,-11.8619,18.3222,-8.35769,15.2524,-18.9897
-5.40707,17.9509,-4.55788,4.70734,21.0893,0.275431,2.99663,-1.08495,1.31625,0.266469,-1.3131,4.80674,-1.32422,-0.644839,4.27054,-20.9329,7.47598,-3.83119,32.761,12.049,1.86735,14.3886,5.0053,3.58138,-1.70955e-14,1.43125e-14,-30.085,-10.36,-70.6483,34.6927,15.4008,-19.9994,-0.894927,7.12502,6.34039,-30.78,-1.70955e-14,1.43125e-14,12.0748,17.8002,50.6482,63.0557,-18.7875,-34.9478,36.3092,7.12502,-8.09438,66.1342,-12.5379,5.14441,21.7032,29.3756,-20.5035,-5.43778,14.7467,-7.63308,-6.48901,-11.8333,18.4414,-8.22782,15.298,-19.405
-5.43195,17.9492,-4.55195,4.72109,21.2336,0.247266,3.16293,-1.08302,1.40462,0.160504,-1.29414,4.83128,-1.52928,-0.633758,4.2514,-20.8339,7.33885,-3.96156,32.9071,11.819,2.09738,14.4108,4.92172,3.65601,5.1684e-15,-3.97569e-14,-30.2926,-10.5783,-70.4061,34.4849,15.399,-20.1265,-1.0195,7.12502,6.21765,-30.9082,5.1684e-15,-3.97569e-14,11.5111,17.9884,50.9265,64.6387,-19.1485,-35.7638,35.7693,7.12502,-8.88191,65.5624,-12.589,5.037,21.8365,29.412,-20.5018,-5.49705,15.0287,-7.76036,-6.54577,-11.7173,18.5246,-8.19005,15.3239,-19.5253
-5.45667,17.9463,-4.54308,4.71219,21.3575,0.252542,3.28971,-1.07729,1.42312,0.105994,-1.27682,4.85072,-1.65766,-0.623964,4.26468,-20.6897,7.23638,-3.99615,32.921,11.6412,2.18669,14.3824,4.85794,3.65916,-6.77856e-14,-1.74931e-14,-30.4102,-10.7627,-70.1569,34.1731,15.4243,-20.2025,-0.948153,7.12502,6.14434,-30.839,-6.77856e-14,-1.74931e-14,11.0793,18.1372,51.1349,65.927,-19.585,-36.4598,35.3738,7.12502,-9.55342,65.1372,-12.5876,5.03512,21.9346,29.4379,-20.5632,-5.53585,15.3669,-7.84409,-6.52028,-11.6501,18.6039,-8.12821,15.282,-19.6554
-5.48119,17.9451,-4.53015,4.65087,21.3778,0.223399,3.27465,-1.02574,1.44034,0.166137,-1.21059,4.86101,-1.59161,-0.591536,4.26128,-20.5823,7.15206,-3.92412,32.8867,11.4719,2.20972,14.3541,4.8015,3.62065,1.59028e-14,-4.77083e-15,-30.4632,-11.0692,-69.9358,33.9077,15.5585,-20.1405,-0.711435,7.12502,6.20421,-30.6006,1.59028e-14,-4.77083e-15,10.7704,18.2395,51.2879,67.1222,-19.9845,-37.1953,35.2567,7.12502,-10.263,64.9863,-12.5326,5.10425,22.0698,29.4391,-20.6151,-5.59537,15.5563,-7.83197,-6.54292,-11.5431,18.6766,-8.19902,15.3692,-19.2655
-5.50437,17.9453,-4.51995,4.6059,21.4315,0.186941,3.21494,-1.01182,1.4913,0.238021,-1.1959,4.87311,-1.48582,-0.585349,4.2418,-20.59,7.07296,-3.94803,32.9684,11.3111,2.36998,14.3831,4.74963,3.66593,1.61016e-14,6.67916e-14,-30.4993,-11.2183,-69.8291,33.7689,15.4098,-20.155,-0.75974,7.12502,6.19015,-30.6493,1.61016e-14,6.67916e-14,10.4637,18.3806,51.3738,68.2038,-20.3096,-38.0449,35.2852,7.12502,-11.0826,64.9725,-12.5018,5.13544,22.209,29.4399,-20.6587,-5.69419,15.6908,-7.83831,-6.50438,-11.4211,18.7111,-8.21609,15.3663,-18.6977
-5.52602,17.9464,-4.51276,4.67632,21.5901,0.266286,3.17487,-1.02082,1.48291,0.242054,-1.21049,4.85598,-1.45845,-0.592805,4.22824,-20.6088,6.91007,-4.09357,33.0807,11.0513,2.59544,14.4196,4.64882,3.74242,2.66371e-14,8.11041e-14,-30.5565,-11.4365,-69.6647,33.6146,15.4715,-20.0241,-0.83686,7.12502,6.31651,-30.7227,2.66371e-14,8.11041e-14,10.2398,18.5121,51.5037,69.101,-20.7708,-38.9257,35.3748,7.12502,-11.932,65.0148,-12.5495,5.10783,22.2099,29.448,-20.718,-5.72561,16.3325,-7.95518,-6.48458,-11.4009,18.7268,-8.24573,15.2563,-17.8161
-5.54627,17.9475,-4.50282,4.82918,21.7369,0.458477,3.08497,-1.03455,1.36689,0.24017,-1.23781,4.81912,-1.40653,-0.606333,4.25439,-20.67,6.74591,-4.15098,33.2243,10.826,2.64688,14.5011,4.54459,3.74719,3.49861e-14,-4.13472e-14,-30.6122,-11.6997,-69.4585,33.4881,15.6551,-19.8235,-1.04381,7.12502,6.51017,-30.9237,3.49861e-14,-4.13472e-14,10.131,18.7058,51.6075,69.7752,-21.1926,-39.7868,35.5138,7.12502,-12.7623,65.1037,-12.6352,4.99293,22.0943,29.4813,-20.7431,-5.72131,16.3738,-8.08161,-6.4676,-11.5009,18.7062,-8.20493,15.132,-17.6158
-5.56586,17.9464,-4.49063,4.89792,21.8378,0.58875,3.01578,-1.0309,1.32242,0.261733,-1.23977,4.7609,-1.34569,-0.607836,4.21678,-20.6952,6.62878,-4.0586,33.4014,10.6369,2.63787,14.6038,4.46459,3.7102,3.97569e-16,1.11319e-14,-30.6917,-11.9491,-69.3632,33.3335,15.5421,-20.0413,-1.14332,7.12502,6.29999,-31.0296,3.97569e-16,1.11319e-14,10.0776,18.8228,51.6188,70.2563,-21.3949,-40.8951,35.5352,7.12502,-13.8305,65.0554,-12.6434,4.82646,22.0531,29.5196,-20.7351,-5.67053,16.1202,-8.09477,-6.44684,-11.5486,18.6601,-8.05625,15.0122,-18.1644
-5.58666,17.9449,-4.47968,4.92502,21.9588,0.652217,2.94617,-1.04224,1.32559,0.283158,-1.2594,4.72808,-1.28414,-0.61827,4.17946,-20.6194,6.50542,-4.06993,33.4856,10.4353,2.70651,14.6289,4.38503,3.7066,-1.07344e-14,-2.38542e-14,-30.7676,-12.1859,-69.2841,33.1102,15.5345,-20.2282,-0.812265,7.12502,6.11949,-30.7039,-1.07344e-14,-2.38542e-14,10.0792,18.9196,51.6089,70.4991,-21.5082,-41.9924,35.4487,7.12502,-14.8878,64.8937,-12.6342,4.69603,22.0836,29.538,-20.7544,-5.65774,16.0839,-8.10634,-6.54062,-11.5233,18.6273,-7.91446,15.0124,-18.4215
-5.6099,17.9458,-4.46758,4.93577,22.1336,0.652336,2.82754,-1.05717,1.31244,0.316682,-1.28569,4.76009,-1.18043,-0.631977,4.21794,-20.6052,6.31981,-4.24798,33.6237,10.1782,2.86563,14.6773,4.27132,3.76331,3.97569e-15,4.77083e-15,-30.8488,-12.4451,-69.0993,32.9873,15.8525,-19.8936,-0.849038,7.12502,6.44255,-30.7311,3.97569e-15,4.77083e-15,10.2421,19.0576,51.7103,70.5053,-21.4885,-42.717,35.0191,7.12502,-15.5858,64.4112,-12.6136,4.69874,22.1994,29.5309,-20.8532,-5.82036,15.9194,-8.16043,-6.68136,-11.4177,18.6158,-7.82029,14.997,-18.4025
-5.63198,17.9464,-4.45865,4.85026,22.3184,0.556257,2.87556,-1.06966,1.424,0.284801,-1.2938,4.80786,-1.24108,-0.635623,4.2067,-20.5301,6.1442,-4.3036,33.851,9.93804,2.90704,14.7713,4.1599,3.7589,1.63003e-14,-1.59028e-15,-31.117,-12.5976,-68.9147,33.0095,16.0072,-19.7318,-1.16621,7.12502,6.5987,-31.0434,1.63003e-14,-1.59028e-15,10.4089,19.1965,51.8643,70.3427,-21.4156,-43.2148,34.3987,7.12502,-16.0652,63.7527,-12.5222,4.74079,22.4104,29.5055,-20.9732,-6.01524,15.9699,-8.18255,-6.65934,-11.2273,18.6175,-7.60153,14.8553,-19.0546
-5.65267,17.9458,-4.45372,4.78073,22.4648,0.524233,2.94811,-1.05991,1.50839,0.259279,-1.27324,4.80277,-1.31132,-0.625112,4.15504,-20.4208,5.97458,-4.18092,34.0835,9.69236,2.802,14.8842,4.04698,3.66435,-2.92213e-14,6.04305e-14,-31.3826,-12.7315,-68.817,32.9846,15.8074,-19.8371,-1.09377,7.12502,6.49709,-30.9741,-2.92213e-14,6.04305e-14,10.6851,19.2753,51.9725,69.9579,-21.3359,-43.5241,33.8553,7.12502,-16.363,63.185,-12.445,4.77071,22.5428,29.4822,-21.0283,-6.13508,16.253,-8.17883,-6.71219,-11.1146,18.6101,-7.45686,14.8035,-19.184
-5.67412,17.9451,-4.44785,4.77118,22.5925,0.592568,2.95685,-1.05498,1.46585,0.2416,-1.2674,4.77489,-1.33446,-0.62187,4.15026,-20.1906,5.80972,-4.06859,34.1881,9.4529,2.66575,14.9117,3.93899,3.54508,7.55382e-15,3.18055e-15,-31.567,-12.9093,-68.7282,32.8527,15.8211,-19.798,-0.978516,7.12502,6.53485,-30.8577,7.55382e-15,3.18055e-15,10.9495,19.2676,51.9258,69.4414,-20.9701,-43.5529,33.2796,7.12502,-16.3907,62.6071,-12.3776,4.77026,22.5712,29.4487,-21.0336,-6.21492,16.423,-8.21166,-6.6718,-11.096,18.6317,-7.3622,14.6717,-19.2308
-5.69658,17.9459,-4.44107,4.77947,22.7903,0.68612,2.97547,-1.08995,1.40832,0.216911,-1.31445,4.75232,-1.36664,-0.644911,4.16195,-20.1826,5.66568,-4.15014,34.4756,9.26879,2.72675,15.0445,3.84798,3.5686,4.75095e-14,-4.77083e-15,-31.7584,-13.0125,-68.6379,32.8042,15.9838,-19.6768,-1.04089,7.12502,6.65181,-30.9164,4.75095e-14,-4.77083e-15,11.2309,19.2653,51.8068,68.7346,-20.4565,-43.4786,33.1123,7.12502,-16.3193,62.4456,-12.3303,4.69494,22.5778,29.4463,-21.0731,-6.31226,16.6302,-8.25288,-6.69928,-11.0846,18.6304,-7.29984,14.5034,-19.2152
-5.71756,17.9462,-4.43262,4.72007,23.0672,0.638744,2.94872,-1.15699,1.50973,0.249399,-1.40213,4.78503,-1.31444,-0.689444,4.14095,-20.5286,5.49666,-4.44881,34.9632,9.10964,2.93244,15.3302,3.74564,3.72185,-3.45885e-14,3.02153e-14,-31.8671,-13.0655,-68.5654,32.8359,16.0063,-19.5844,-1.21327,7.12502,6.74107,-31.086,-3.45885e-14,3.02153e-14,11.7139,19.3651,51.8145,67.7345,-19.9286,-43.2503,32.9965,7.12502,-16.0994,62.3477,-12.2667,4.64136,22.7302,29.4585,-21.271,-6.44192,16.7511,-8.29594,-6.60433,-10.9319,18.6267,-7.14694,14.2523,-19.2983
