JuanDHNZ/ProyectoFinalCD/preprocessing/sports_trials_csv/14_23.csv
root1,root2,root3,root4,root5,root6,lowerback1,lowerback2,lowerback3,upperback1,upperback2,upperback3,thorax1,thorax2,thorax3,lowerneck1,lowerneck2,lowerneck3,upperneck1,upperneck2,upperneck3,head1,head2,head3,rclavicle1,rclavicle2,rhumerus1,rhumerus2,rhumerus3,rradius1,rwrist1,rhand1,rhand2,rfingers1,rthumb1,rthumb2,lclavicle1,lclavicle2,lhumerus1,lhumerus2,lhumerus3,lradius1,lwrist1,lhand1,lhand2,lfingers1,lthumb1,lthumb2,rfemur1,rfemur2,rfemur3,rtibia1,rfoot1,rfoot2,rtoes1,lfemur1,lfemur2,lfemur3,ltibia1,lfoot1,lfoot2,ltoes1
-0.851369,17.7181,13.105,-172.31,-4.3624,177.681,-3.16239,-1.62846,-5.55724,-1.2748,-2.0623,1.99909,0.726267,-1.04072,5.10884,-17.3669,5.23618,-9.03957,36.2994,6.89486,3.12614,15.0986,0.99066,3.78078,2.91716e-14,1.11319e-14,-32.9542,-8.6919,-77.23,32.407,18.6141,-20.442,2.91612,7.12502,5.9131,-26.9814,2.91716e-14,1.11319e-14,7.76902,-35.5657,82.7091,134.119,52.7842,-18.1073,25.7029,7.12502,8.16673,55.525,-16.1821,2.16206,21.1696,33.0077,-24.4834,-8.05462,10.4399,-10.1572,-3.2453,-24.4291,21.0987,-14.0086,4.00109,-14.7898
-0.853111,17.7168,13.1006,-172.345,-4.41023,177.811,-3.14893,-1.63131,-5.45016,-1.26721,-2.07093,2.04715,0.725889,-1.0456,5.09809,-17.4513,5.20075,-9.07618,36.3018,6.85586,3.1816,15.1177,0.980118,3.80855,1.49089e-16,-2.46493e-14,-32.9991,-8.74554,-77.1819,32.4566,18.6071,-20.4669,3.01852,7.12502,5.88909,-26.8796,1.49089e-16,-2.46493e-14,7.88487,-35.6294,82.6729,134.056,52.4096,-15.2419,25.0214,7.12502,10.9314,54.7168,-16.1079,2.17013,21.3183,32.9656,-24.521,-8.03541,10.6257,-10.1527,-3.15014,-24.29,21.1692,-14.1165,3.85989,-15.0489
-0.854857,17.7168,13.0997,-172.349,-4.34072,177.77,-3.14468,-1.6081,-5.50984,-1.27005,-2.03791,2.02565,0.717494,-1.02851,5.11123,-17.4509,5.15609,-9.0822,36.262,6.79155,3.1959,15.1031,0.959585,3.80461,1.41634e-14,1.59028e-14,-33.0561,-8.77268,-77.1768,32.4962,18.5715,-20.4584,2.88716,7.12502,5.8973,-27.0108,1.41634e-14,1.59028e-14,8.0508,-35.7611,82.5584,134.077,52.4389,-14.8247,24.9417,7.12502,11.3338,54.6154,-16.1059,2.18212,21.2592,32.9785,-24.4388,-7.93614,10.7481,-10.1298,-3.05559,-24.3498,21.1718,-14.1584,3.75004,-15.0364
-0.858261,17.7179,13.1008,-172.278,-4.21579,177.745,-3.18221,-1.58051,-5.53275,-1.29525,-1.99968,2.01173,0.707707,-1.00882,5.11088,-17.5341,5.11437,-9.09014,36.2783,6.74777,3.19253,15.1345,0.93868,3.80203,1.56543e-14,-2.22639e-14,-33.0598,-8.75744,-77.1906,32.4861,18.5876,-20.3981,2.722,7.12502,5.95545,-27.1743,1.56543e-14,-2.22639e-14,8.13294,-35.8747,82.508,134.163,52.8941,-15.8841,24.9153,7.12502,10.3119,54.6425,-16.1934,2.24713,21.1978,32.9773,-24.3954,-7.83896,11.11,-10.2213,-3.01634,-24.4048,21.1932,-14.1502,3.82276,-15.006
-0.860007,17.7198,13.1021,-172.229,-4.13857,177.758,-3.19076,-1.57725,-5.58808,-1.29816,-1.9942,2.04968,0.71182,-1.00632,5.18206,-17.6699,5.08671,-9.0937,36.3157,6.75011,3.14063,15.1881,0.928682,3.78854,-1.54058e-14,1.66979e-14,-32.9865,-8.80485,-77.1501,32.4533,18.6903,-20.2745,2.77186,7.12502,6.07485,-27.121,-1.54058e-14,1.66979e-14,8.27592,-35.7114,82.4992,134.105,53.7543,-18.4812,25.007,7.12502,7.80591,54.8429,-16.2726,2.26893,21.2012,32.9944,-24.31,-7.95003,10.6235,-10.2834,-2.97086,-24.4011,21.1816,-14.1325,3.83542,-14.8153
-0.862866,17.7182,13.1009,-172.231,-4.16147,177.765,-3.16889,-1.60503,-5.61143,-1.30829,-2.03257,2.07483,0.695777,-1.02495,5.22058,-17.6534,1.40094,-7.89522,36.2646,8.26396,1.35439,15.4083,3.78742,3.75733,1.54058e-15,-3.97569e-16,-32.9707,-8.82464,-77.1151,32.4284,18.7487,-20.1805,2.84165,7.12502,6.16558,-27.0486,1.54058e-15,-3.97569e-16,8.37988,-35.2873,82.5526,133.927,55.0945,-22.283,25.2634,7.12502,4.13551,55.203,-16.2721,2.20759,21.2052,33.0009,-24.2941,-7.99512,10.2232,-10.2762,-2.90334,-24.4068,21.1864,-14.1299,3.79938,-14.923
-0.866874,17.7173,13.0975,-172.258,-4.24257,177.783,-3.171,-1.63327,-5.5583,-1.27714,-2.0698,2.05643,0.731731,-1.04504,5.16882,-17.7611,1.38051,-7.82876,36.289,8.22488,1.32127,15.4526,3.76731,3.73161,-1.59028e-14,8.34896e-15,-32.9486,-8.9309,-77.1412,32.4174,18.8712,-20.3046,2.82202,7.12502,6.0457,-27.0717,-1.59028e-14,8.34896e-15,8.55634,-35.1731,82.4574,133.819,55.5738,-24.1658,25.3974,7.12502,2.31721,55.3646,-16.2105,2.17103,21.218,32.9915,-24.3433,-7.95322,10.3626,-10.2371,-2.89132,-24.3977,21.2218,-14.1778,3.77027,-14.9188
-0.869246,17.7178,13.0978,-172.29,-4.27347,177.805,-3.13292,-1.64497,-5.54561,-1.23588,-2.08544,2.05325,0.754636,-1.0539,5.15791,-17.8338,1.38729,-7.72998,36.226,8.2132,1.22224,15.4502,3.75444,3.66942,2.38045e-14,-2.06736e-14,-32.8757,-8.93985,-77.1903,32.3996,18.8719,-20.4188,2.65558,7.12502,5.93553,-27.2413,2.38045e-14,-2.06736e-14,8.70585,-35.2482,82.3579,133.808,55.172,-23.3551,25.441,7.12502,3.10022,55.3982,-16.1704,2.21919,21.2406,32.9809,-24.3517,-7.96078,10.5397,-10.2273,-2.8415,-24.3772,21.2605,-14.2493,3.67722,-14.8982
-0.870724,17.7176,13.0993,-172.314,-4.27318,177.93,-3.10793,-1.63933,-5.4565,-1.22684,-2.08278,2.10415,0.748502,-1.05295,5.16116,-17.8106,1.38675,-7.74646,36.1321,8.19905,1.18345,15.4018,3.73985,3.64544,2.39039e-14,1.19271e-14,-32.8179,-8.81426,-77.1963,32.3311,18.7747,-20.537,2.65035,7.12502,5.82141,-27.2497,2.39039e-14,1.19271e-14,8.75043,-35.2429,82.3806,133.821,54.9844,-21.3128,25.4835,7.12502,5.0723,55.4028,-16.167,2.27488,21.3816,32.9827,-24.3546,-8.09688,10.2744,-10.2244,-2.86898,-24.2378,21.2593,-14.2173,3.67974,-15.0592
-0.872627,17.7176,13.0992,-172.342,-4.25549,177.921,-3.05756,-1.64662,-5.51234,-1.21378,-2.09292,2.12626,0.737819,-1.05773,5.21674,-17.8323,1.397,-7.78769,36.0532,8.21259,1.1514,15.3684,3.73215,3.63583,6.5102e-15,-2.38542e-15,-32.7382,-8.71867,-77.1844,32.2787,18.6947,-20.5048,2.75993,7.12502,5.85246,-27.1392,6.5102e-15,-2.38542e-15,8.80217,-35.1522,82.4351,133.825,54.8274,-19.946,25.7182,7.12502,6.39195,55.6017,-16.14,2.31351,21.3653,32.9922,-24.3443,-8.13781,10.3494,-10.188,-2.8779,-24.2523,21.2417,-14.1939,3.65861,-14.9121
-0.875735,17.7196,13.0971,-172.31,-4.19769,177.768,-3.06106,-1.67128,-5.7076,-1.23992,-2.12015,2.10454,0.722151,-1.07002,5.30407,-17.8251,1.40139,-7.81811,36.0581,8.22055,1.17107,15.366,3.73393,3.65022,-7.05686e-15,-2.98177e-14,-32.7573,-8.66384,-77.1894,32.2941,18.6798,-20.4198,2.70105,7.12502,5.93454,-27.1958,-7.05686e-15,-2.98177e-14,8.80456,-35.1426,82.4063,133.843,54.4532,-20.167,26.0125,7.12502,6.17854,55.9024,-16.1809,2.24338,21.1793,33.0112,-24.2421,-8.08615,10.0007,-10.1908,-2.81709,-24.4345,21.2217,-14.2216,3.62461,-14.5303
-0.879739,17.7212,13.0946,-172.295,-4.13634,177.673,-3.09179,-1.69377,-5.8134,-1.26612,-2.14592,2.07491,0.718222,-1.08217,5.33157,-17.7189,1.39474,-7.87713,36.0463,8.19384,1.24322,15.3292,3.73008,3.68025,1.98288e-14,-1.15295e-14,-32.8063,-8.64621,-77.2058,32.2886,18.7042,-20.4391,2.65261,7.12502,5.91585,-27.2448,1.98288e-14,-1.15295e-14,8.80297,-35.182,82.3641,133.844,53.9804,-20.7887,26.167,7.12502,5.57836,56.0736,-16.1974,2.27213,21.0482,33.0287,-24.2151,-8.06414,9.86978,-10.174,-2.78221,-24.5591,21.1885,-14.2063,3.6336,-14.0834
-0.882431,17.7208,13.0938,-172.318,-4.1021,177.704,-3.0764,-1.70182,-5.79745,-1.28021,-2.15887,2.08484,0.696592,-1.08785,5.33299,-17.6176,1.3561,-8.03058,35.9835,8.12031,1.34444,15.2664,3.69624,3.72651,1.52567e-14,-7.95139e-16,-32.8622,-8.70621,-77.1797,32.2872,18.8437,-20.4052,2.68457,7.12502,5.94862,-27.2119,1.52567e-14,-7.95139e-16,8.90224,-35.2052,82.2943,133.82,53.5536,-19.7921,25.7203,7.12502,6.54054,55.5993,-16.1655,2.29223,21.0712,33.0302,-24.2364,-8.07194,9.85394,-10.1348,-2.75347,-24.535,21.1638,-14.1823,3.64733,-14.314
-0.884345,17.7212,13.0932,-172.339,-4.05681,177.752,-3.05816,-1.69823,-5.76624,-1.27931,-2.15663,2.11488,0.68706,-1.08666,5.34732,-17.5652,1.30001,-8.12564,35.9001,8.05865,1.29109,15.2191,3.6508,3.70204,5.01931e-14,-3.53837e-14,-32.8383,-8.70043,-77.145,32.2488,18.9144,-20.3821,2.67904,7.12502,5.97095,-27.2168,5.01931e-14,-3.53837e-14,8.99767,-35.0682,82.3014,133.665,53.0027,-17.8604,25.153,7.12502,8.40504,54.9657,-16.1329,2.39551,21.1134,33.0142,-24.2968,-8.10717,10.0908,-10.1092,-2.75417,-24.4959,21.1606,-14.1597,3.70086,-14.3542
-0.886229,17.7231,13.0924,-172.356,-4.0656,177.831,-3.03389,-1.70412,-5.68243,-1.27495,-2.16837,2.12877,0.677193,-1.0925,5.3143,-17.6004,1.27294,-8.15435,35.8598,8.02315,1.25827,15.2116,3.62342,3.68554,2.88238e-15,-1.11319e-14,-32.8101,-8.64589,-77.1757,32.2214,18.8205,-20.4446,2.60187,7.12502,5.9106,-27.2957,2.88238e-15,-1.11319e-14,9.10371,-34.9028,82.2789,133.516,52.7169,-17.1265,25.0721,7.12502,9.11331,54.8552,-16.1067,2.44714,21.1901,32.9964,-24.2753,-8.05705,10.4924,-10.0854,-2.74607,-24.4154,21.1573,-14.1864,3.67405,-14.2842
-0.88944,17.7239,13.0911,-172.391,-4.05899,177.831,-3.0277,-1.71397,-5.69812,-1.23661,-2.17954,2.13293,0.71563,-1.09974,5.32654,-17.6529,1.23021,-8.28668,35.7532,7.93887,1.30608,15.169,3.56904,3.70652,1.72446e-14,1.23246e-14,-32.7833,-8.63378,-77.1855,32.2473,18.772,-20.4832,2.53254,7.12502,5.87334,-27.3661,1.72446e-14,1.23246e-14,9.22774,-34.8771,82.2378,133.55,52.9803,-16.2187,24.7858,7.12502,9.98918,54.5288,-16.0694,2.40315,21.178,32.9978,-24.1976,-8.0001,10.3541,-10.014,-2.64128,-24.4346,21.1097,-14.1672,3.61517,-14.7004
-0.891898,17.7243,13.0906,-172.384,-4.0257,177.785,-3.04274,-1.73312,-5.78059,-1.22021,-2.20129,2.14665,0.747416,-1.11183,5.38602,-17.6613,1.20084,-8.40011,35.6009,7.88203,1.28673,15.0988,3.5218,3.69643,-5.56597e-15,3.1408e-14,-32.7405,-8.52767,-77.178,32.2533,18.7342,-20.4158,2.406,7.12502,5.93843,-27.4908,-5.56597e-15,3.1408e-14,9.30274,-34.8909,82.2222,133.572,53.0673,-16.8101,24.9291,7.12502,9.4186,54.6986,-16.0928,2.44331,21.1084,33.0316,-24.2662,-8.04333,10.2584,-9.94635,-2.63988,-24.493,20.9828,-14.0845,3.60127,-14.4665
-0.895651,17.7286,13.0906,-172.422,-3.99309,177.769,-3.01404,-1.72949,-5.80597,-1.17775,-2.19518,2.15361,0.775664,-1.11015,5.40811,-17.7971,1.14928,-8.42312,35.5757,7.83382,1.20106,15.1271,3.47618,3.65991,-2.47487e-14,1.94809e-14,-32.683,-8.42304,-77.182,32.2802,18.6268,-20.5202,2.31909,7.12502,5.83761,-27.5805,-2.47487e-14,1.94809e-14,9.44298,-34.9267,82.205,133.371,52.1886,-19.2996,25.857,7.12502,7.01594,55.7208,-16.0864,2.35611,21.0747,33.0994,-24.3301,-8.27552,9.26979,-9.82186,-2.5878,-24.5247,20.8102,-14.0265,3.53915,-14.3634
-0.899353,17.7379,13.0905,-172.389,-3.9628,177.748,-3.03428,-1.71728,-5.82073,-1.18091,-2.17731,2.14149,0.781328,-1.10129,5.40412,-17.8049,1.10671,-8.50529,35.4747,7.74611,1.22829,15.081,3.42793,3.66274,-2.2413e-14,-2.38542e-15,-32.7252,-8.44565,-77.184,32.3301,18.6648,-20.6778,2.34603,7.12502,5.68542,-27.5577,-2.2413e-14,-2.38542e-15,9.53574,-34.8054,82.2043,133.128,51.8259,-21.0438,25.9259,7.12502,5.33209,55.8388,-16.1544,2.31186,21.0354,33.156,-22.8886,-9.21107,13.0086,-9.80487,-2.53688,-24.5552,20.6867,-13.9999,3.45934,-14.4131
-0.902579,17.7417,13.0915,-172.38,-3.93339,177.743,-3.04283,-1.7293,-5.84089,-1.16458,-2.19179,2.15334,0.806187,-1.10965,5.42677,-17.7789,1.08724,-8.66069,35.2792,7.6625,1.30752,14.9754,3.37832,3.69117,2.19657e-14,3.1408e-14,-32.6635,-8.47693,-77.1802,32.302,18.7642,-20.7304,2.39379,7.12502,5.63469,-27.5113,2.19657e-14,3.1408e-14,9.5786,-34.4716,82.2304,133.106,53.1621,-22.8696,25.5627,7.12502,3.56899,55.5125,-16.2036,2.31131,21.0133,33.2061,-22.3006,-9.54747,14.2094,-9.76657,-2.51908,-24.5752,20.59,-13.9491,3.46269,-14.3933
-0.90438,17.7383,13.0946,-172.399,-3.92718,177.805,-3.02618,-1.7663,-5.81716,-1.12846,-2.24176,2.1834,0.841474,-1.13652,5.44219,-17.831,1.0979,-8.71322,35.1189,7.63406,1.30559,14.9104,3.35024,3.68345,-1.38652e-14,-8.74653e-15,-32.5272,-8.39573,-77.2395,32.1935,18.7563,-20.8523,2.58382,7.12502,5.51692,-27.3244,-1.38652e-14,-8.74653e-15,9.69065,-34.1684,82.1693,133.001,53.4049,-22.4504,25.5606,7.12502,3.97389,55.5033,-16.2076,2.33103,21.092,33.2258,-22.2598,-9.60117,14.2105,-9.72761,-2.46571,-24.5172,20.5355,-13.9034,3.46607,-14.3955
-0.905926,17.7369,13.095,-172.419,-3.87606,177.787,-3.01828,-1.81453,-5.89889,-1.10861,-2.3031,2.19003,0.869398,-1.16838,5.49253,-17.842,1.11774,-8.73731,34.9792,7.61458,1.30626,14.8463,3.33273,3.67366,-9.34288e-15,2.06736e-14,-32.4992,-8.19336,-77.3676,32.2101,18.6767,-20.8946,2.56672,7.12502,5.4761,-27.3425,-9.34288e-15,2.06736e-14,9.75006,-33.8993,82.0688,132.719,51.9267,-19.0407,25.64,7.12502,7.26585,55.4953,-16.1784,2.38862,21.0621,33.2241,-22.316,-9.55846,14.2367,-9.7019,-2.48434,-24.5456,20.5379,-13.8898,3.52834,-14.1219
-0.907755,17.7403,13.0937,-172.429,-3.84907,177.899,-3.00794,-1.86062,-5.81178,-1.0973,-2.36817,2.22019,0.88228,-1.20186,5.47152,-17.7399,1.10135,-8.94935,34.6834,7.50441,1.42138,14.6753,3.27103,3.71177,3.97569e-16,-1.19271e-14,-32.5447,-8.09775,-77.4544,32.3583,18.7001,-20.7597,2.49837,7.12502,5.60632,-27.4075,3.97569e-16,-1.19271e-14,9.76033,-33.6831,81.9701,132.432,50.8198,-17.285,25.26,7.12502,8.96034,55.0497,-16.1506,2.48139,21.1681,33.192,-22.3486,-9.58647,13.9686,-9.72646,-2.52566,-24.4225,20.5891,-13.9279,3.56882,-14.1141
-0.909901,17.7426,13.0934,-172.451,-3.7747,177.97,-3.01466,-1.86974,-5.75518,-1.05984,-2.38044,2.22947,0.924726,-1.21005,5.4475,-17.6168,1.03907,-9.16676,34.3279,7.32377,1.49922,14.4818,3.1734,3.71999,1.78906e-14,-1.35174e-14,-32.4928,-8.10869,-77.5183,32.4221,18.7419,-20.7276,2.46844,7.12502,5.63738,-27.4366,1.78906e-14,-1.35174e-14,9.7535,-33.582,81.9281,132.207,50.2247,-18.6763,25.0019,7.12502,7.61762,54.8447,-16.1265,2.57929,21.2214,33.1685,-22.3403,-9.56292,14.1774,-9.72054,-2.48907,-24.3615,20.6135,-13.98,3.56017,-14.2032
-0.912965,17.7419,13.0945,-172.411,-3.64932,177.971,-3.03976,-1.83401,-5.73342,-1.07817,-2.33243,2.20298,0.911282,-1.1852,5.4093,-17.7209,0.979616,-9.10011,34.2022,7.21534,1.36743,14.465,3.10677,3.63263,-3.51352e-14,-2.26615e-14,-32.476,-8.17901,-77.5245,32.4062,18.7882,-20.7323,2.43856,7.12502,5.63286,-27.4666,-3.51352e-14,-2.26615e-14,9.69058,-33.5453,81.9231,132.044,49.8602,-19.6147,24.7246,7.12502,6.71178,54.5983,-16.1798,2.52745,21.1997,33.1278,-22.2037,-9.50687,13.9579,-9.78035,-2.4811,-24.3886,20.6511,-13.9794,3.64378,-14.092
-0.915685,17.7402,13.0949,-172.361,-3.57463,177.938,-3.05702,-1.8089,-5.73521,-1.06664,-2.29604,2.14684,0.925726,-1.16717,5.35257,-17.9867,0.932286,-9.00018,34.0975,7.09801,1.28579,14.4912,3.03724,3.56426,2.55935e-14,-8.74653e-15,-32.4442,-8.34092,-77.57,32.4213,18.8801,-20.729,2.31615,7.12502,5.63602,-27.5889,2.55935e-14,-8.74653e-15,9.76064,-33.5335,81.7942,131.913,49.445,-19.1967,24.7345,7.12502,7.11528,54.5949,-16.2237,2.503,21.1447,33.0887,-22.1445,-9.44731,14.0081,-9.84977,-2.46195,-24.439,20.7029,-14.0096,3.7098,-13.8822
-0.91767,17.7435,13.0947,-172.33,-3.51165,177.938,-3.09236,-1.75446,-5.69497,-0.9939,-2.21731,2.05066,1.00496,-1.13058,5.23056,-18.2321,0.862351,-8.95734,33.8894,6.86828,1.35621,14.4595,2.93062,3.53994,-8.49804e-15,-3.97569e-16,-32.3697,-8.68295,-77.6466,32.4476,18.9987,-20.6169,2.22908,7.12502,5.74424,-27.6731,-8.49804e-15,-3.97569e-16,9.99419,-33.5833,81.5242,131.75,49.1368,-18.8686,24.8791,7.12502,7.43198,54.7285,-16.2513,2.51763,21.1281,33.0661,-22.1675,-9.36323,14.1696,-9.8816,-2.40352,-24.452,20.7304,-14.0904,3.68985,-13.3182
-0.918173,17.7451,13.0951,-172.309,-3.46169,177.932,-3.12652,-1.73535,-5.73117,-0.93487,-2.18538,2.01326,1.08083,-1.11763,5.21155,-18.3486,0.833144,-8.98868,33.5553,6.70711,1.38849,14.3382,2.84562,3.51187,-1.36664e-14,4.37326e-15,-32.3,-8.83754,-77.6976,32.4755,19.0423,-20.5538,2.2252,7.12502,5.80512,-27.6753,-1.36664e-14,4.37326e-15,10.1168,-33.4787,81.3504,131.558,49.0153,-18.6498,24.6948,7.12502,7.64322,54.5366,-16.2921,2.55186,21.1179,33.0628,-22.1268,-9.35696,14.3253,-9.89037,-2.37817,-24.4583,20.7179,-14.183,3.66192,-12.5387
-0.918992,17.7425,13.095,-172.299,-3.43013,177.962,-3.17507,-1.75601,-5.71452,-0.893503,-2.20937,2.01685,1.1536,-1.13266,5.20246,-18.3999,0.845135,-9.13743,33.2084,6.61908,1.49947,14.1854,2.79289,3.54449,-1.77415e-14,2.14687e-14,-32.2165,-8.90415,-77.7279,32.4461,19.081,-20.536,2.26865,7.12502,5.82233,-27.6314,-1.77415e-14,2.14687e-14,10.0519,-33.191,81.2992,131.38,49.1281,-18.4637,24.351,7.12502,7.82276,54.1863,-16.3212,2.5773,21.1398,33.0577,-22.0825,-9.37177,14.218,-9.91318,-2.38084,-24.4249,20.7071,-14.0704,3.72425,-13.2147
-0.919746,17.7429,13.0959,-172.298,-3.3964,178.034,-3.19126,-1.77733,-5.66833,-0.863078,-2.23858,2.06368,1.1982,-1.14949,5.22267,-18.4885,0.833619,-9.24062,32.9403,6.55546,1.49181,14.0856,2.74055,3.53282,2.60905e-14,1.19271e-14,-32.1509,-8.82664,-77.7433,32.4911,18.9523,-20.4852,2.03779,7.12502,5.87135,-27.8609,2.60905e-14,1.19271e-14,9.88962,-32.9335,81.3678,131.193,49.0022,-18.3667,24.2119,7.12502,7.91639,54.0437,-16.3231,2.63134,21.1999,33.0481,-22.1189,-9.31658,14.2198,-9.92426,-2.39475,-24.3406,20.6866,-13.9825,3.7492,-13.5529
-0.921338,17.7449,13.0977,-172.282,-3.36187,178.146,-3.15728,-1.79717,-5.57833,-0.864037,-2.27167,2.12691,1.18171,-1.16588,5.23701,-18.6152,0.794149,-9.29939,32.7128,6.48368,1.3947,14.0207,2.67697,3.48099,1.72943e-14,-3.4191e-14,-32.1208,-8.69566,-77.7496,32.563,18.8073,-20.4581,1.79393,7.12502,5.89759,-28.104,1.72943e-14,-3.4191e-14,9.59063,-32.7781,81.4588,131.065,48.6948,-17.5191,24.3335,7.12502,8.73439,54.1328,-16.346,2.61331,21.3174,33.0332,-22.0637,-9.30362,13.9014,-9.94924,-2.41686,-24.2271,20.6637,-13.9409,3.8255,-13.9097
-0.92216,17.7467,13.0989,-172.266,-3.35823,178.201,-3.10895,-1.85021,-5.5626,-0.873119,-2.3473,2.18485,1.15705,-1.20326,5.28643,-18.7596,0.77404,-9.32995,32.5202,6.45253,1.27263,13.9751,2.63112,3.424,9.93923e-17,-1.63003e-14,-32.0482,-8.53181,-77.7933,32.5651,18.6435,-20.4417,1.53288,7.12502,5.91335,-28.3646,9.93923e-17,-1.63003e-14,9.15166,-32.5742,81.5262,131.02,48.7482,-16.5929,24.382,7.12502,9.62816,54.142,-16.3636,2.61732,21.3718,33.0031,-22.0327,-9.31087,13.9742,-9.97757,-2.4392,-24.1648,20.6598,-13.9092,3.83645,-14.1045
-0.921911,17.7471,13.0992,-172.251,-3.32176,178.234,-3.01727,-1.87605,-5.57305,-0.992823,-2.39165,2.21899,0.989532,-1.21869,5.33105,-18.7142,0.729415,-9.32102,32.4398,6.3985,1.15921,13.9406,2.59396,3.36282,2.05742e-14,2.78299e-15,-32.2147,-8.47259,-77.7635,32.5377,18.5827,-20.4789,1.51347,7.12502,5.87742,-28.385,2.05742e-14,2.78299e-15,8.46277,-32.3764,81.7023,130.954,49.0595,-17.1259,24.5649,7.12502,9.11387,54.348,-16.3771,2.68809,21.3992,32.9725,-22.0332,-9.34151,14.0557,-10.0032,-2.30611,-24.1294,20.6602,-13.9083,3.73529,-13.8119
-0.923432,17.7481,13.0992,-172.192,-3.21047,178.225,-3.00198,-1.85605,-5.54742,-1.1362,-2.37179,2.18042,0.827276,-1.20146,5.2804,-18.6136,0.671877,-9.31554,32.3956,6.2998,1.13636,13.9072,2.55231,3.33179,1.39646e-14,3.97569e-15,-32.4619,-8.63012,-77.7227,32.4832,18.7055,-20.5295,1.7839,7.12502,5.82863,-28.1159,1.39646e-14,3.97569e-15,7.69811,-32.1749,81.9269,130.848,49.3827,-17.7594,24.9081,7.12502,8.50256,54.7169,-16.4556,2.65859,21.3655,32.9644,-21.9323,-9.27524,14.1149,-10.0383,-2.20491,-24.1622,20.6201,-13.898,3.75832,-13.7693
-0.926107,17.7491,13.0982,-172.127,-3.13986,178.184,-3.06198,-1.86676,-5.55226,-1.18515,-2.3846,2.14864,0.810769,-1.2067,5.2483,-18.7065,0.627996,-9.33467,32.3384,6.22429,1.12584,13.907,2.50826,3.31721,3.48867e-14,-3.97569e-15,-32.5228,-8.83329,-77.7007,32.4392,18.9664,-20.5654,2.1506,7.12502,5.79392,-27.7502,3.48867e-14,-3.97569e-15,6.97104,-32.037,82.0812,130.725,49.1384,-18.0826,24.609,7.12502,8.19065,54.4302,-16.5191,2.62395,21.2966,32.9593,-21.893,-9.20317,14.1232,-10.0608,-2.15328,-24.231,20.5732,-13.8868,3.79228,-13.9247
-0.926548,17.7511,13.0981,-172.135,-3.13775,178.113,-3.01356,-1.92596,-5.65527,-1.18949,-2.46277,2.15275,0.793829,-1.24498,5.309,-18.9728,0.600309,-9.35404,32.3845,6.19876,1.13106,13.9862,2.47984,3.32703,-6.31141e-15,1.11319e-14,-32.5392,-8.81385,-77.737,32.517,19.009,-20.5282,1.97321,7.12502,5.82987,-27.9266,-6.31141e-15,1.11319e-14,6.23032,-31.8469,82.2196,130.526,48.5285,-18.5748,23.9602,7.12502,7.71561,53.7995,-16.4829,2.72249,21.2151,32.9417,-21.9728,-9.24049,14.1672,-10.0342,-2.11234,-24.303,20.5383,-13.8751,3.72192,-13.9781
-0.928093,17.7543,13.0978,-172.172,-3.13333,178.061,-2.91507,-1.99559,-5.72734,-1.20805,-2.55888,2.15199,0.735345,-1.29057,5.3483,-19.2294,0.57214,-9.25772,32.4612,6.18016,1.02833,14.0858,2.45434,3.27718,3.91109e-14,-2.90226e-14,-32.6222,-8.78415,-77.7755,32.6455,19.0743,-20.4517,1.71305,7.12502,5.90377,-28.1847,3.91109e-14,-2.90226e-14,5.40593,-31.515,82.3721,130.295,48.1295,-18.8415,23.7378,7.12502,7.45812,53.5863,-16.4321,2.74353,21.1567,32.936,-21.9847,-9.26487,14.1217,-9.9602,-2.09855,-24.359,20.4884,-13.9244,3.61991,-13.5294
-0.930635,17.7576,13.0967,-172.184,-3.07048,178.11,-2.86824,-2.03281,-5.68873,-1.23903,-2.61432,2.1896,0.684646,-1.31658,5.36546,-19.3634,0.537298,-9.20582,32.4287,6.16997,0.846029,14.1137,2.4228,3.19529,1.61513e-14,-1.35174e-14,-32.6445,-8.73793,-77.7531,32.6698,19.1431,-20.4158,1.64797,7.12502,5.93834,-28.2488,1.61513e-14,-1.35174e-14,4.44403,-31.1001,82.6443,130.022,47.8475,-18.4285,24.031,7.12502,7.85675,53.865,-16.4304,2.79378,21.2049,32.9571,-21.9734,-9.32118,13.6169,-9.88808,-2.07992,-24.3171,20.4014,-13.92,3.60226,-13.2043
-0.932255,17.7532,13.0975,-172.214,-2.98381,178.115,-2.76869,-2.05082,-5.69023,-1.29632,-2.64619,2.20721,0.574771,-1.32818,5.38818,-19.4121,0.504814,-9.1782,32.4096,6.15982,0.70448,14.126,2.39912,3.13259,-9.29318e-15,-3.97569e-15,-32.6582,-8.76159,-77.7071,32.5472,19.2551,-20.4501,1.76996,7.12502,5.90526,-28.1277,-9.29318e-15,-3.97569e-15,3.24395,-30.646,83.0631,129.64,47.6206,-17.7332,24.4389,7.12502,8.5278,54.2467,-16.4251,2.83094,21.1935,33.002,-22.0003,-9.26512,13.6258,-9.81765,-2.05369,-24.3176,20.3028,-13.7914,3.68425,-13.8306
-0.9327,17.7498,13.0984,-172.268,-2.94883,178.017,-2.61426,-2.09101,-5.77787,-1.35844,-2.70684,2.16678,0.434151,-1.35219,5.40016,-19.6017,0.461308,-9.05554,32.648,6.14592,0.625656,14.2835,2.38819,3.09574,-1.98785e-15,2.22639e-14,-32.7352,-8.87944,-77.7091,32.4674,19.3225,-20.4641,1.69469,7.12502,5.89172,-28.2034,-1.98785e-15,2.22639e-14,1.99631,-30.2112,83.4118,129.203,47.0242,-17.092,24.6595,7.12502,9.14659,54.4412,-16.3862,2.82652,21.0821,33.0453,-22.0457,-9.21073,13.7508,-9.73657,-2.04136,-24.4245,20.2244,-13.6787,3.69091,-14.7178
-0.932486,17.7497,13.1012,-172.267,-2.8156,177.956,-2.49905,-2.05921,-5.84845,-1.41449,-2.67025,2.12212,0.307541,-1.32813,5.4007,-19.8606,0.378291,-8.82222,32.879,6.06518,0.456472,14.4658,2.34552,2.99335,5.2181e-16,2.3059e-14,-32.8131,-9.15915,-77.6833,32.4358,19.331,-20.4956,1.69258,7.12502,5.8613,-28.2064,5.2181e-16,2.3059e-14,0.952787,-29.9385,83.6346,128.677,46.1,-16.9429,24.6143,7.12502,9.29042,54.3896,-16.421,2.97786,20.9899,33.0663,-22.0327,-9.1533,14.1925,-9.71722,-2.06385,-24.4954,20.1809,-13.6306,3.7698,-14.7032
-0.93411,17.7513,13.1042,-172.21,-2.64702,178.088,-2.47054,-2.00389,-5.69023,-1.44933,-2.60354,2.12345,0.239828,-1.29286,5.31683,-20.1614,0.28535,-8.645,33.0859,5.97877,0.301488,14.6459,2.29328,2.90347,-1.56046e-14,-7.95139e-16,-32.7765,-9.38752,-77.6943,32.4006,19.3008,-20.4683,1.62737,7.12502,5.88766,-28.2708,-1.56046e-14,-7.95139e-16,-0.0409673,-29.5989,83.8364,128.069,45.4206,-17.0276,24.1302,7.12502,9.20868,53.9092,-16.516,3.07031,21.1016,33.0484,-21.9831,-9.07608,14.1941,-9.7829,-1.92447,-24.3667,20.1662,-13.6245,3.78258,-14.5756
-0.937067,17.7537,13.1073,-172.155,-2.4819,178.29,-2.47163,-2.00795,-5.46176,-1.47345,-2.61742,2.20923,0.211684,-1.30049,5.27681,-20.4001,0.260248,-8.60298,33.2573,6.03282,0.162898,14.7856,2.29117,2.8636,-3.05134e-14,-1.70955e-14,-32.6332,-9.28389,-77.7181,32.3262,19.1719,-20.3984,1.77756,7.12502,5.95522,-28.1187,-3.05134e-14,-1.70955e-14,-1.31669,-28.9577,84.217,127.416,44.7145,-16.791,23.7135,7.12502,9.43698,53.4822,-16.6022,3.13363,21.2927,33.0092,-21.934,-8.97534,14.3707,-9.86412,-1.81064,-24.1646,20.162,-13.5798,3.78086,-14.6406
-0.93956,17.7559,13.1096,-172.16,-2.32657,178.383,-2.42236,-2.04813,-5.35576,-1.51267,-2.67961,2.29618,0.151202,-1.33049,5.30792,-20.49,0.256074,-8.62811,33.4372,6.15559,0.0106421,14.8933,2.31749,2.83919,-5.00937e-14,1.19271e-14,-32.5488,-9.11139,-77.6983,32.2657,19.1264,-20.3725,1.99204,7.12502,5.98021,-27.9036,-5.00937e-14,1.19271e-14,-2.75492,-28.1575,84.7013,126.682,43.883,-16.2602,23.4916,7.12502,9.94911,53.2365,-16.6076,3.14383,21.3597,32.9581,-21.8497,-8.80999,14.559,-9.88805,-1.72698,-24.0674,20.2033,-13.648,3.73684,-13.8772
-0.940038,17.7594,13.1105,-172.211,-2.23845,178.304,-2.29405,-2.10216,-5.43317,-1.59362,-2.75976,2.31377,0.0104097,-1.36464,5.37424,-20.4307,0.235868,-8.61599,33.6124,6.21236,-0.0892914,14.9669,2.33483,2.81479,-8.4235e-15,-1.19271e-14,-32.6334,-9.09359,-77.6659,32.2666,19.2199,-20.3576,1.8045,7.12502,5.9946,-28.0907,-8.4235e-15,-1.19271e-14,-4.25141,-27.3487,85.1256,125.829,43.0867,-15.6409,23.1726,7.12502,10.5466,52.888,-16.5413,3.16256,21.2461,32.9285,-21.8234,-8.68948,14.8106,-9.85961,-1.61068,-24.15,20.2715,-13.756,3.62916,-13.3242
-0.940841,17.7565,13.1146,-172.2,-2.11674,178.277,-2.22956,-2.13288,-5.44883,-1.67793,-2.80789,2.33241,-0.104958,-1.38414,5.40562,-20.4276,0.193777,-8.60739,33.8829,6.23837,-0.121692,15.096,2.34533,2.8194,-5.54112e-15,1.15295e-14,-32.6858,-9.06295,-77.6358,32.232,19.2637,-20.2497,1.57268,7.12502,6.09874,-28.3195,-5.54112e-15,1.15295e-14,-5.69616,-26.549,85.4897,124.813,42.0994,-15.0295,22.7061,7.12502,11.1363,52.3906,-16.5725,3.22972,21.2007,32.9251,-22.2075,-8.29636,13.6748,-9.88841,-1.44934,-24.1879,20.313,-13.8073,3.59216,-13.6837
-0.943294,17.748,13.1202,-172.106,-1.83887,178.211,-2.29476,-2.08967,-5.48443,-1.70874,-2.7481,2.31267,-0.107764,-1.3537,5.40545,-20.6082,0.152378,-8.52867,34.2105,6.2564,-0.149142,15.2968,2.35208,2.81967,1.47598e-14,-7.55382e-15,-32.6907,-8.96695,-77.644,32.2542,19.0919,-20.1913,1.62805,7.12502,6.15514,-28.2625,1.47598e-14,-7.55382e-15,-6.82349,-25.7201,85.6902,123.594,41.106,-14.3089,22.4587,7.12502,11.8313,52.1044,-16.741,3.21221,21.0917,32.9385,-23.2466,-7.05608,10.2438,-10.0059,-1.22676,-24.3031,20.3556,-13.7849,3.67305,-14.3925
-0.945512,17.7445,13.1235,-172.03,-1.55742,178.126,-2.40695,-2.03197,-5.57358,-1.66172,-2.66185,2.30465,-0.00449447,-1.31393,5.44529,-20.8805,0.0913065,-8.47306,34.486,6.25376,-0.207228,15.4983,2.33696,2.80635,1.08338e-14,-2.62396e-14,-32.5278,-9.22524,-77.5493,32.2118,19.1659,-20.1245,1.81973,7.12502,6.21965,-28.069,1.08338e-14,-2.62396e-14,-7.86488,-24.911,85.836,122.251,40.1766,-13.7326,22.0937,7.12502,12.3869,51.7067,-16.8658,3.17462,20.9531,32.9264,-23.2756,-6.78274,9.73723,-10.1302,-1.08245,-24.4366,20.4637,-13.8551,3.80321,-14.3855
-0.94811,17.7448,13.1248,-171.983,-1.37109,178.138,-2.4664,-1.98413,-5.52268,-1.60381,-2.59361,2.30175,0.0772798,-1.28349,5.41229,-21.1073,-0.00354161,-8.40689,34.7074,6.19822,-0.312827,15.6712,2.29579,2.75733,-1.86858e-14,2.18663e-14,-32.3371,-9.62381,-77.4735,32.1798,19.263,-20.0773,1.89346,7.12502,6.26517,-27.9939,-1.86858e-14,2.18663e-14,-8.92554,-24.2019,85.9522,120.878,39.0507,-13.1299,21.8913,7.12502,12.968,51.4683,-16.9322,3.15687,20.9328,32.9133,-23.2243,-6.62927,9.40059,-10.2188,-1.03334,-24.4405,20.5651,-13.9404,3.85531,-14.1065
-0.949991,17.7448,13.1268,-172.015,-1.26987,178.204,-2.38736,-1.96134,-5.4042,-1.58703,-2.56872,2.31006,0.0425989,-1.2707,5.3571,-21.1916,-0.10235,-8.27331,34.9726,6.15481,-0.492032,15.8399,2.26787,2.66747,2.10712e-14,1.19271e-15,-32.3035,-9.91543,-77.4215,32.2172,19.3347,-20.0556,1.85149,7.12502,6.28615,-28.0352,2.10712e-14,1.19271e-15,-9.90239,-23.5332,86.1001,119.409,37.7029,-12.665,22.0585,7.12502,13.4161,51.6065,-16.9021,3.05809,20.9967,32.8851,-23.1474,-6.53208,9.02144,-10.2092,-0.993461,-24.3765,20.6448,-14.0227,3.86365,-13.9485
-0.951178,17.7449,13.1283,-172.016,-1.09573,178.282,-2.28478,-1.93196,-5.29665,-1.66169,-2.54062,2.33371,-0.0991161,-1.25222,5.32719,-21.121,-0.231198,-8.24188,35.2632,6.03572,-0.503127,15.9769,2.22664,2.64938,4.47266e-16,-1.31198e-14,-32.4465,-9.9793,-77.3912,32.3168,19.3125,-20.0665,1.75413,7.12502,6.27565,-28.1329,4.47266e-16,-1.31198e-14,-11.1166,-22.6702,86.3638,117.877,36.3414,-12.1454,22.1728,7.12502,13.9169,51.6871,-16.9323,2.99454,21.0592,32.866,-22.9776,-6.34307,9.0197,-10.2269,-0.843134,-24.3108,20.7043,-14.0697,3.82222,-13.6509
-0.951093,17.7439,13.13,-172.027,-0.883806,178.348,-2.12865,-1.87043,-5.19532,-1.7772,-2.47285,2.32781,-0.319151,-1.21095,5.27393,-21.0481,-0.432277,-8.31621,35.7063,5.78887,-0.27615,16.1813,2.15278,2.73489,-2.8625e-14,2.82274e-14,-32.7819,-9.91386,-77.3895,32.5786,19.1246,-20.169,1.68614,7.12502,6.1767,-28.2038,-2.8625e-14,2.82274e-14,-12.8297,-21.7385,86.7559,116.314,34.8468,-11.4453,22.0575,7.12502,14.5915,51.5243,-16.9522,3.04414,21.1083,32.8553,-22.8484,-6.1903,9.25233,-10.239,-0.692398,-24.2637,20.7644,-14.0856,3.82289,-13.4025
-0.950423,17.7423,13.1343,-172.035,-0.634375,178.296,-2.02964,-1.80102,-5.24719,-1.81894,-2.38545,2.31946,-0.427576,-1.16261,5.3016,-20.9297,-0.601935,-8.53069,35.9828,5.59949,-0.0475654,16.2881,2.08594,2.84713,-5.76476e-15,-7.15625e-15,-32.9554,-9.92327,-77.3242,32.8032,19.1156,-20.3236,1.25881,7.12502,6.02742,-28.6354,-5.76476e-15,-7.15625e-15,-14.2906,-20.8164,87.0329,114.503,33.003,-10.636,21.5259,7.12502,15.3711,50.9345,-17.0059,3.07639,21.0186,32.876,-22.7715,-5.99987,9.33607,-10.2538,-0.552538,-24.3446,20.8051,-14.1112,3.90259,-13.1913
-0.949343,17.7404,13.1394,-171.98,-0.442167,178.257,-2.16154,-1.78896,-5.39455,-1.74467,-2.36012,2.44135,-0.269952,-1.15528,5.5075,-20.6404,-0.730937,-9.00067,35.9175,5.49231,0.133155,16.1759,2.01666,2.97537,-6.36111e-15,-8.74653e-15,-32.8001,-9.97217,-77.1448,32.9075,19.2779,-20.5503,0.938396,7.12502,5.80857,-28.962,-6.36111e-15,-8.74653e-15,-15.194,-19.7935,87.3039,112.526,31.1059,-9.9053,21.1795,7.12502,16.0748,50.5328,-17.1225,3.13362,20.9514,32.9003,-22.7079,-5.90975,9.40856,-10.3418,-0.408184,-24.408,20.8542,-14.1749,4.00339,-13.6153
-0.949769,17.7406,13.146,-171.988,-0.311712,178.288,-1.87843,-1.82466,-5.2698,-1.90245,-2.42993,2.45673,-0.586498,-1.17934,5.46413,-20.1392,-0.721307,-9.13716,36.0403,5.57535,0.18558,16.1105,2.07173,3.03535,-2.68359e-15,3.97569e-15,-32.9534,-9.90903,-77.1675,32.9155,19.3342,-20.6273,0.926269,7.12502,5.73416,-28.9761,-2.68359e-15,3.97569e-15,-16.5778,-18.7436,87.4768,110.659,29.6562,-9.56012,21.3179,7.12502,16.4072,50.644,-17.1589,3.16631,20.9694,32.9129,-22.6223,-5.79619,9.663,-10.3771,-0.399378,-24.3861,20.9254,-14.2522,4.11087,-13.7858
-0.950922,17.7427,13.1516,-172.088,-0.220283,178.357,-1.89199,-1.82405,-5.28088,-1.73528,-2.42317,2.59756,-0.400602,-1.18411,5.61376,-20.0091,-0.730015,-9.17696,36.0804,5.70205,-0.040182,16.1084,2.09812,2.96973,-3.63279e-14,1.19271e-14,-32.6251,-9.84193,-77.0635,32.8292,19.271,-20.7042,0.99322,7.12502,5.65993,-28.9112,-3.63279e-14,1.19271e-14,-17.4519,-17.6905,87.7482,108.601,28.4078,-9.32941,21.6575,7.12502,16.6293,50.9651,-17.065,3.1824,21.0416,32.9008,-22.5867,-5.72285,9.66157,-10.3225,-0.343546,-24.3168,21.04,-14.4032,4.10916,-12.9987
-0.95365,17.7466,13.1564,-172.12,-0.110947,178.431,-1.70585,-1.74705,-4.98801,-1.78708,-2.33129,2.45127,-0.58726,-1.13329,5.30392,-20.0228,-0.743794,-8.55407,36.4906,5.7226,-0.385973,16.3527,2.15092,2.74394,5.66536e-15,-9.54166e-15,-32.8875,-10.13,-77.1697,32.9464,19.3548,-20.7534,1.22677,7.12502,5.61248,-28.6789,5.66536e-15,-9.54166e-15,-18.5649,-17.0842,87.7096,106.443,27.1449,-9.22606,22.1273,7.12502,16.7288,51.4265,-17.0662,3.11251,21.1127,32.9028,-22.4775,-5.6738,9.39514,-10.3172,-0.262809,-24.2598,21.1377,-14.6659,4.13485,-12.0494
-0.954389,17.7454,13.1635,-172.093,0.0215629,178.479,-1.63952,-1.67722,-4.81431,-1.81109,-2.24235,2.36263,-0.670018,-1.08736,5.11728,-20.0563,-0.769839,-7.92467,36.9032,5.76384,-0.809497,16.6119,2.20433,2.48556,-1.30701e-14,-5.56597e-15,-33.0846,-10.3441,-77.2284,33.1285,19.3331,-20.6957,1.15502,7.12502,5.66815,-28.7492,-1.30701e-14,-5.56597e-15,-19.5031,-16.4977,87.6981,104.064,25.7083,-9.17103,22.2442,7.12502,16.7818,51.5389,-17.1758,3.1388,21.1533,32.9412,-22.3932,-5.66581,9.20709,-10.3916,-0.192205,-24.2222,21.1852,-14.6803,4.2049,-12.3427
-0.953485,17.7387,13.1699,-172.093,0.195631,178.469,-1.60121,-1.7294,-4.80938,-1.81654,-2.19977,2.37041,-0.69826,-1.01533,5.12387,-19.7479,-0.79038,-7.69938,37.0456,5.83508,-1.10832,16.6332,2.24761,2.33427,-5.31749e-15,-1.35174e-14,-33.1611,-10.3712,-77.2116,33.2351,19.3745,-20.6519,1.06553,7.12502,5.71048,-28.8375,-5.31749e-15,-1.35174e-14,-20.4684,-15.6434,87.8004,101.549,24.1355,-9.20872,22.378,7.12502,16.7455,51.6758,-17.273,3.20537,21.1326,33.028,-22.3517,-5.62771,9.12054,-10.4331,-0.184972,-24.2382,21.1723,-14.4836,4.37804,-13.4924
-0.951003,17.7351,13.1756,-172.094,0.329431,178.417,-1.56681,-1.75452,-4.87472,-1.8277,-2.2341,2.39707,-0.72151,-1.03072,5.18951,-19.3096,-0.761577,-7.76891,37.1406,5.96184,-1.12487,16.5724,2.3191,2.36197,3.60794e-14,-3.18055e-15,-33.2655,-10.0824,-77.3,33.4016,18.8732,-20.9548,1.26859,7.12502,5.41803,-28.6422,3.60794e-14,-3.18055e-15,-21.4364,-14.6175,87.9016,99.0007,22.3819,-9.33211,22.9173,7.12502,16.6267,52.2252,-17.3724,3.27384,21.0665,33.1517,-22.348,-5.5308,9.16766,-10.423,-0.238499,-24.289,21.1008,-14.3196,4.52986,-13.9094
-0.947022,17.7346,13.1832,-172.05,0.456802,178.364,-1.5632,-1.75142,-4.9397,-1.79964,-2.23073,2.40524,-0.692463,-1.03049,5.23458,-19.2658,-0.75684,-7.88427,37.5121,6.10223,-0.989058,16.7431,2.39287,2.48826,9.29318e-15,3.26007e-14,-33.2804,-9.81014,-77.4126,33.5289,18.0629,-21.167,1.73981,7.12502,5.21312,-28.1761,9.29318e-15,3.26007e-14,-22.1489,-13.6702,87.9451,96.3381,20.4347,-9.48295,23.7941,7.12502,16.4815,53.1141,-17.521,3.37332,21.0012,33.2676,-22.335,-5.41988,9.32812,-10.4718,-0.15548,-24.3443,21.0371,-14.2421,4.52836,-13.9424
-0.942783,17.7351,13.1921,-172.046,0.53311,178.311,-1.49849,-1.71702,-5.00624,-1.72544,-2.19008,2.40902,-0.655007,-1.01394,5.27772,-19.3289,-0.837409,-7.866,37.8477,6.12479,-1.03424,16.9435,2.40334,2.49074,2.05742e-14,-9.54166e-15,-33.1512,-10.0104,-77.3132,33.4665,18.2954,-20.8715,2.06423,7.12502,5.49841,-27.8444,2.05742e-14,-9.54166e-15,-22.6357,-12.8589,87.9598,93.4338,18.4041,-9.78,24.7171,7.12502,16.1955,54.0606,-17.6198,3.48242,20.945,33.3597,-22.3201,-5.46766,9.24004,-10.4991,-0.0932816,-24.3915,21.0076,-14.215,4.50247,-14.0585
-0.939497,17.7341,13.201,-172.205,0.478719,178.373,-1.23601,-1.72063,-4.97829,-1.66324,-2.20815,2.49512,-0.733491,-1.02302,5.35875,-19.1935,-0.921991,-7.80009,38.1377,6.17812,-1.22055,17.0822,2.42733,2.42325,-1.43622e-14,-2.78299e-14,-33.1728,-10.089,-77.1312,33.4808,18.6651,-20.59,2.02306,7.12502,5.7702,-27.8784,-1.43622e-14,-2.78299e-14,-23.1762,-12.0309,88.0627,90.4545,16.4689,-10.3438,25.3724,7.12502,15.6526,54.7593,-17.5128,3.4847,21.0513,33.4359,-22.3541,-5.56875,8.85869,-10.362,-0.0468281,-24.2988,20.9946,-14.1034,4.4121,-14.1378
-0.936364,17.7312,13.2109,-172.428,0.442918,178.328,-0.919939,-1.73761,-5.04212,-1.60729,-2.2477,2.53607,-0.84425,-1.04161,5.44663,-19.0189,-1.00516,-7.79451,38.499,6.25293,-1.32719,17.245,2.46726,2.40877,1.85864e-14,-2.3059e-14,-33.2537,-10.0223,-77.0474,33.5134,18.5258,-20.5276,2.16522,7.12502,5.8304,-27.7346,1.85864e-14,-2.3059e-14,-23.7388,-11.2508,88.1673,87.5032,14.7356,-11.4568,26.1516,7.12502,14.5804,55.6191,-17.3297,3.48279,21.0231,33.4966,-22.4017,-5.61451,8.83038,-10.1605,-0.0631322,-24.3296,21.0122,-14.0706,4.3739,-14.0562
-0.933392,17.7319,13.2195,-172.448,0.444679,178.243,-0.853105,-1.73393,-5.07616,-1.54734,-2.24809,2.52858,-0.818972,-1.045,5.45915,-18.87,-1.09235,-7.89264,38.7553,6.27032,-1.32437,17.3499,2.47807,2.44356,-2.37548e-14,2.54444e-14,-33.2269,-10.0891,-77.0233,33.4884,18.554,-20.5054,2.28719,7.12502,5.85192,-27.612,-2.37548e-14,2.54444e-14,-24.163,-10.5288,88.2338,84.5453,12.8624,-12.5829,27.5749,7.12502,13.4952,57.1177,-17.3503,3.47614,20.9219,33.5207,-22.3699,-5.52651,9.42536,-10.2037,-0.0473582,-24.4251,21.0908,-14.1508,4.46056,-14.449
-0.928975,17.7319,13.2283,-172.387,0.409316,178.293,-0.812824,-1.72083,-4.97165,-1.52256,-2.23234,2.53966,-0.821309,-1.03867,5.41228,-18.6162,-1.16847,-7.97575,38.8915,6.22467,-1.27221,17.3599,2.47498,2.4764,2.84262e-14,-1.59028e-15,-33.2757,-10.0541,-77.0692,33.5927,18.6999,-20.585,1.82397,7.12502,5.77507,-28.0773,2.84262e-14,-1.59028e-15,-24.5472,-9.81146,88.2891,81.5858,10.6942,-13.7186,29.2032,7.12502,12.4004,58.8153,-17.4447,3.47641,20.9866,33.5398,-22.3623,-5.47894,10.0976,-10.3268,-0.0183566,-24.3502,21.1394,-14.2254,4.46252,-14.6175
-0.92507,17.7324,13.2376,-172.387,0.352861,178.308,-0.677284,-1.72378,-4.89663,-1.52128,-2.24289,2.53238,-0.89766,-1.04271,5.36639,-18.3695,-1.23827,-7.95593,39.1039,6.19774,-1.26153,17.4185,2.49097,2.48157,-1.58531e-14,3.49861e-14,-33.4383,-9.91519,-77.1622,33.8634,18.7998,-20.5138,1.06684,7.12502,5.84373,-28.8326,-1.58531e-14,3.49861e-14,-24.9731,-9.05879,88.3592,78.6737,8.60967,-14.9728,30.0388,7.12502,11.191,59.7204,-17.4663,3.33653,21.0318,33.5523,-22.385,-5.43548,9.76444,-10.379,0.0717365,-24.3103,21.1837,-14.313,4.22595,-13.7186
-0.922444,17.7369,13.2417,-172.298,0.427819,178.234,-0.733489,-1.72734,-4.89284,-1.49655,-2.2468,2.48991,-0.841887,-1.04782,5.31738,-18.1525,-1.28012,-7.86949,39.294,6.23584,-1.36421,17.4794,2.52549,2.43616,-3.41413e-14,2.62396e-14,-33.4527,-9.827,-77.278,33.9468,18.804,-20.4851,1.04504,7.12502,5.87151,-28.8536,-3.41413e-14,2.62396e-14,-25.2897,-8.2507,88.3127,75.8211,6.57773,-15.5423,30.6689,7.12502,10.6416,60.3794,-17.5914,3.2261,20.9483,33.5518,-22.3345,-5.38617,9.23341,-10.5165,0.106995,-24.3899,21.2628,-14.3988,4.1501,-12.6832
-0.918145,17.7351,13.2436,-172.096,0.565404,178.224,-0.904596,-1.72325,-4.85928,-1.49138,-2.23303,2.48559,-0.743596,-1.04393,5.28811,-17.9498,-1.27962,-7.81806,39.4204,6.33464,-1.4706,17.5053,2.57725,2.40319,1.55052e-14,6.36111e-15,-33.3748,-9.78689,-77.3231,33.8428,18.7937,-20.489,1.15605,7.12502,5.86769,-28.7427,1.55052e-14,6.36111e-15,-25.619,-7.41508,88.2305,73.0643,4.38909,-14.6315,32.7168,7.12502,11.5202,62.3803,-17.8644,3.16658,20.9278,33.5717,-22.2142,-5.29464,8.87602,-10.7919,0.187822,-24.4016,21.3328,-14.2971,4.23932,-13.4486
-0.912587,17.7301,13.2524,-171.969,0.614518,178.286,-0.925328,-1.7371,-4.77107,-1.4478,-2.25045,2.51655,-0.68672,-1.0561,5.26848,-17.868,-1.26748,-7.76974,39.5739,6.45211,-1.55199,17.5754,2.63183,2.38907,2.23136e-14,-1.19271e-14,-33.254,-9.70092,-77.385,33.7449,18.9041,-20.4653,0.827547,7.12502,5.89064,-29.0706,2.23136e-14,-1.19271e-14,-25.9328,-6.44976,88.1841,70.3477,2.07675,-14.4121,34.4733,7.12502,11.7317,64.1248,-18.0888,3.18854,21.0016,33.6361,-22.166,-5.25212,8.93635,-10.9837,0.233087,-24.3249,21.3334,-14.1319,4.25133,-14.3324
-0.906827,17.7288,13.2658,-171.953,0.548886,178.245,-0.769646,-1.78772,-4.75409,-1.42426,-2.32662,2.50327,-0.741386,-1.09436,5.2488,-17.6525,-1.2847,-7.77199,39.7615,6.51731,-1.54981,17.626,2.67829,2.41066,-1.98785e-16,-7.95139e-16,-33.2211,-9.45339,-77.4969,33.7252,18.8545,-20.306,0.625808,7.12502,6.04436,-29.268,-1.98785e-16,-7.95139e-16,-26.2831,-5.32422,88.0853,67.6587,-0.142024,-16.053,34.8535,7.12502,10.149,64.5887,-18.1934,3.12308,20.9868,33.7253,-22.1733,-5.24792,9.03,-11.0481,0.345042,-24.3432,21.3104,-14.0839,4.07323,-14.0196
-0.898576,17.7293,13.279,-171.95,0.440367,178.082,-0.583179,-1.84672,-4.90658,-1.39978,-2.41702,2.47375,-0.804839,-1.13868,5.30974,-17.4088,-1.3177,-7.74384,39.9075,6.55357,-1.59916,17.6514,2.71142,2.39516,-8.69683e-15,1.19271e-14,-33.1736,-9.33913,-77.5635,33.6601,18.8164,-20.2966,0.644365,7.12502,6.05344,-29.2492,-8.69683e-15,1.19271e-14,-26.4977,-4.05927,87.9032,64.9511,-2.12019,-17.1508,35.6359,7.12502,9.08984,65.42,-18.2737,3.11002,20.8538,33.8195,-22.222,-5.30222,9.29052,-11.0957,0.313677,-24.4668,21.2782,-14.0996,4.01757,-13.7471
-0.892641,17.7299,13.2835,-171.961,0.477815,177.942,-0.549584,-1.8436,-5.0407,-1.27225,-2.41811,2.459,-0.687481,-1.14687,5.36886,-17.3648,-1.34671,-7.67082,40.0657,6.64749,-1.76761,17.7446,2.74688,2.33409,1.15792e-14,3.73715e-14,-33.0413,-9.42824,-77.5509,33.6012,18.9514,-20.2724,0.660853,7.12502,6.07681,-29.232,1.15792e-14,3.73715e-14,-26.5032,-2.80691,87.7696,62.1935,-4.05441,-17.3233,36.3177,7.12502,8.92341,66.109,-18.3205,3.13663,20.715,33.8936,-22.1971,-5.2759,9.429,-11.0931,0.273804,-24.6039,21.271,-14.1346,4.12443,-14.0748
-0.89024,17.7247,13.2811,-172.024,0.645902,177.864,-0.565637,-1.80532,-5.05819,-1.13447,-2.36903,2.42849,-0.543346,-1.13174,5.34383,-17.2885,-1.36472,-7.63419,40.2687,6.76159,-1.86592,17.8495,2.79833,2.31694,-7.50412e-15,-8.74653e-15,-32.9979,-9.47924,-77.5619,33.5775,19.0231,-20.1155,0.781207,7.12502,6.22836,-29.1072,-7.50412e-15,-8.74653e-15,-26.5443,-1.67985,87.5915,59.4446,-5.74365,-17.467,35.6041,7.12502,8.78474,65.4012,-18.2817,3.15823,20.6171,33.9408,-22.1903,-5.10798,9.62506,-11.0026,0.179406,-24.7071,21.2796,-14.1756,4.3938,-14.1862
-0.885245,17.7215,13.2872,-172.01,0.744733,177.942,-0.514865,-1.79706,-4.88893,-1.07296,-2.36106,2.40306,-0.516969,-1.13175,5.22162,-17.1326,-1.38552,-7.58,40.4376,6.81882,-1.91476,17.9121,2.83863,2.30383,3.03147e-15,-1.03368e-14,-33.0029,-9.58464,-77.6296,33.4868,19.1261,-20.1628,0.874713,7.12502,6.18266,-29.0151,3.03147e-15,-1.03368e-14,-26.6512,-0.587148,87.3219,56.7471,-7.06592,-17.6873,34.6906,7.12502,8.57213,64.4966,-18.3173,3.17153,20.7094,33.9256,-22.1416,-4.97959,9.97162,-11.0526,0.0278833,-24.61,21.3557,-14.1634,4.68928,-14.1474
-0.876575,17.7224,13.2972,-171.892,0.790676,178.034,-0.512096,-1.82022,-4.74886,-1.03234,-2.39173,2.41446,-0.477713,-1.1501,5.15285,-17.0227,-1.42089,-7.70597,40.5886,6.84184,-1.82549,17.9633,2.85026,2.37729,9.14409e-15,7.95139e-16,-32.9154,-9.7062,-77.6542,33.3212,19.3813,-20.2046,1.0202,7.12502,6.14233,-28.8708,9.14409e-15,7.95139e-16,-26.7454,0.590267,87.0635,54.2137,-8.11638,-17.8328,34.279,7.12502,8.4317,64.0907,-18.4625,3.2001,20.8314,33.8783,-22.086,-4.94213,10.134,-11.2684,-0.0405111,-24.4701,21.4763,-14.1568,4.81595,-13.8591
-0.868614,17.7283,13.3045,-171.751,0.831305,178.131,-0.563358,-1.80558,-4.56546,-0.996193,-2.3698,2.3999,-0.422118,-1.14255,5.03122,-16.8176,-1.4564,-7.78164,40.6828,6.84046,-1.76596,17.96,2.86232,2.41898,1.3418e-15,-3.57812e-14,-32.9284,-9.76333,-77.6939,33.3218,19.4825,-20.2094,1.02371,7.12502,6.1377,-28.8674,1.3418e-15,-3.57812e-14,-26.828,1.79245,86.7947,51.7759,-9.06786,-17.8129,33.3751,7.12502,8.45088,63.1861,-18.6306,3.18933,20.9527,33.8187,-21.9696,-4.99712,9.77888,-11.5096,0.124095,-24.3527,21.6133,-14.3659,4.7557,-13.3463
-0.861411,17.7378,13.3118,-171.649,0.837606,178.039,-0.522554,-1.78994,-4.57891,-0.97695,-2.35241,2.34591,-0.429048,-1.13489,4.98378,-16.6096,-1.50645,-7.75887,40.7961,6.85836,-1.8387,17.9799,2.88257,2.38902,4.22417e-15,-1.27222e-14,-32.9811,-9.83241,-77.6892,33.3301,19.2599,-20.2874,1.08148,7.12502,6.06237,-28.8118,4.22417e-15,-1.27222e-14,-26.9458,2.95322,86.4755,49.4315,-9.93747,-17.5636,33.1332,7.12502,8.69144,62.9343,-18.7776,3.12195,20.865,33.808,-21.8674,-4.98508,9.834,-11.6486,0.181476,-24.4403,21.6818,-14.5985,4.83085,-12.7655
-0.853595,17.7391,13.3206,-171.608,0.777951,177.928,-0.379715,-1.82255,-4.69057,-0.950664,-2.40307,2.35925,-0.471084,-1.1597,5.06496,-16.4894,-1.55607,-7.94066,40.964,6.89018,-1.73841,18.0377,2.89379,2.48085,2.88238e-15,-1.27222e-14,-33.0356,-9.77197,-77.6415,33.3119,18.8823,-20.4187,1.21642,7.12502,5.93555,-28.6804,2.88238e-15,-1.27222e-14,-27.1526,4.15899,86.2054,47.3012,-10.4815,-17.4125,33.4024,7.12502,8.83729,63.1973,-18.8863,2.98147,20.7783,33.8359,-21.7973,-4.8847,10.0245,-11.7525,0.22519,-24.5266,21.7026,-14.6301,4.76722,-12.8818
-0.843853,17.7341,13.3289,-171.596,0.840134,177.931,-0.229644,-1.80316,-4.71162,-0.908232,-2.38418,2.37184,-0.512541,-1.15036,5.09463,-16.3643,-1.57978,-8.02311,41.1168,6.92514,-1.65342,18.0874,2.91933,2.54811,-1.02374e-14,-1.27222e-14,-33.1403,-9.73544,-77.6377,33.354,18.6246,-20.3701,1.48511,7.12502,5.98252,-28.4104,-1.02374e-14,-1.27222e-14,-27.3459,5.26016,85.9076,45.2048,-10.6351,-16.6526,33.1149,7.12502,9.57058,62.8775,-18.9704,3.01718,20.8068,33.8956,-21.8064,-4.8043,10.2727,-11.8348,0.290975,-24.4877,21.6883,-14.416,4.76491,-14.169
-0.833258,17.7321,13.3357,-171.505,0.992624,177.929,-0.216687,-1.75783,-4.70355,-0.86473,-2.32558,2.32833,-0.484308,-1.1236,5.04467,-16.2508,-1.5842,-7.8633,41.2141,6.99106,-1.80137,18.1294,2.96262,2.46965,5.96354e-15,1.35174e-14,-33.2282,-9.83712,-77.6726,33.3767,18.6502,-20.3334,1.7956,7.12502,6.01794,-28.0989,5.96354e-15,1.35174e-14,-27.4641,6.25037,85.5183,43.0427,-10.3815,-15.888,32.7561,7.12502,10.3082,62.4834,-19.1361,3.1905,20.8104,33.9492,-21.8118,-4.8151,10.2334,-11.9562,0.308827,-24.4697,21.6633,-14.2145,4.91372,-14.9507
-0.821599,17.7323,13.3452,-171.338,1.07676,177.905,-0.231799,-1.73304,-4.67195,-0.842844,-2.29323,2.26693,-0.460932,-1.10943,4.96201,-16.1577,-1.57695,-7.71896,41.2671,7.05972,-1.94615,18.1498,3.00231,2.39315,9.0447e-15,-1.51076e-14,-33.2463,-10.0037,-77.7046,33.2648,18.7981,-20.3682,1.94621,7.12502,5.98434,-27.9493,9.0447e-15,-1.51076e-14,-27.5652,7.19812,85.1216,40.9557,-9.9609,-15.662,32.7152,7.12502,10.5263,62.4316,-19.3612,3.19669,20.8071,33.9701,-21.7443,-4.73021,10.6528,-12.1637,0.354228,-24.4658,21.6626,-14.1575,4.94148,-14.9076
-0.810591,17.7359,13.3529,-171.3,1.05522,177.94,-0.155151,-1.72172,-4.54576,-0.724929,-2.2825,2.21717,-0.39054,-1.11037,4.83887,-16.1964,-1.60187,-7.65834,41.3127,7.03886,-1.98211,18.1926,2.99456,2.3651,-9.44227e-15,-4.13472e-14,-33.1508,-10.1994,-77.7444,33.1415,18.9217,-20.399,2.06836,7.12502,5.9546,-27.828,-9.44227e-15,-4.13472e-14,-27.5663,8.09977,84.7464,38.9059,-9.68984,-15.4421,32.9864,7.12502,10.7383,62.6919,-19.4071,3.21924,20.8755,33.9504,-21.755,-4.6616,11.1456,-12.2592,0.234261,-24.3705,21.7056,-14.1859,5.02399,-14.754
-0.801665,17.7379,13.361,-171.316,0.984598,178.048,0.0417226,-1.72766,-4.3932,-0.646047,-2.29706,2.24975,-0.422516,-1.11919,4.79129,-16.1799,-1.64173,-7.71735,41.3901,7.06852,-2.02687,18.2388,2.99449,2.36524,2.48481e-15,-2.78299e-14,-33.1488,-10.1539,-77.7317,33.113,18.8559,-20.3649,2.09173,7.12502,5.98749,-27.8037,2.48481e-15,-2.78299e-14,-27.6432,9.05835,84.4373,36.8793,-9.50604,-15.1104,33.1967,7.12502,11.0583,62.8854,-19.3978,3.2361,21.0278,33.9253,-21.7865,-4.69508,11.4781,-12.3025,0.110551,-24.1987,21.7591,-14.198,5.09006,-14.793
-0.791323,17.737,13.3694,-171.264,1.03794,178.123,0.173219,-1.67897,-4.33665,-0.636224,-2.23584,2.28346,-0.493995,-1.08669,4.79885,-15.9644,-1.67889,-7.76988,41.4117,7.08808,-2.08355,18.1996,3.0046,2.3498,1.19271e-15,-1.35174e-14,-33.283,-10.0532,-77.7012,33.1556,18.6762,-20.2779,1.78882,7.12502,6.07156,-28.1042,1.19271e-15,-1.35174e-14,-27.6981,10.0445,84.1001,34.8175,-9.40821,-14.6762,33.7124,7.12502,11.477,63.3782,-19.4986,3.31817,21.1321,33.9437,-21.7709,-4.70925,11.5633,-12.3815,0.12108,-24.0834,21.7491,-14.1902,5.11731,-15.1504
-0.778656,17.7381,13.3762,-171.145,1.18852,178.048,0.141482,-1.63141,-4.4192,-0.608059,-2.17297,2.24339,-0.453023,-1.0572,4.80252,-15.7887,-1.69031,-7.76623,41.4459,7.10706,-2.10116,18.1752,3.02395,2.34324,-1.63003e-14,1.11319e-14,-33.3694,-9.97856,-77.7368,33.1455,18.59,-20.1887,1.68109,7.12502,6.15767,-28.2094,-1.63003e-14,1.11319e-14,-27.7663,11.2761,83.5924,32.8021,-9.54317,-14.0727,33.9914,7.12502,12.059,63.624,-19.6971,3.42795,21.0552,33.9923,-21.7396,-4.62861,11.7774,-12.5285,0.230426,-24.1568,21.7206,-14.0489,5.19883,-15.5757
-0.772519,17.7412,13.389,-170.927,1.17755,177.762,0.10081,-1.66656,-4.58813,-0.604638,-2.22236,2.14305,-0.418756,-1.0836,4.79222,-15.7433,-1.68719,-7.77671,41.4802,7.17074,-2.15562,18.1875,3.04428,2.33327,-1.64991e-14,1.59028e-15,-33.4333,-9.95706,-77.7589,33.1843,18.6755,-20.1567,1.64634,7.12502,6.18852,-28.2433,-1.64991e-14,1.59028e-15,-27.8853,12.5068,83.0522,30.6691,-9.13133,-14.7333,32.0917,7.12502,11.422,61.7606,-20.0248,3.04153,20.7605,34.0558,-21.528,-4.35284,11.6664,-12.7892,0.22426,-24.466,21.6899,-13.838,5.09104,-15.3699
-0.757715,17.7414,13.3954,-170.88,1.25031,177.68,0.155972,-1.60401,-4.66469,-0.512488,-2.14303,2.08537,-0.363581,-1.04813,4.77588,-15.7998,-1.75326,-7.74731,41.5766,7.128,-2.19654,18.2677,3.02421,2.30843,-2.68359e-15,2.70347e-14,-33.4907,-10.0984,-77.7122,33.195,18.7703,-20.1326,1.76935,7.12502,6.21176,-28.1196,-2.68359e-15,2.70347e-14,-27.912,13.5677,82.5634,28.8743,-9.36193,-14.2121,32.3869,7.12502,11.9246,62.0273,-20.1422,3.12339,20.715,34.0991,-21.5125,-4.38046,11.7138,-12.8643,0.195054,-24.5027,21.6666,-13.7005,5.12801,-15.009
-0.743964,17.7401,13.3954,-170.843,1.40243,177.695,0.104068,-1.51302,-4.62184,-0.381718,-2.0196,2.02417,-0.217914,-0.994035,4.68441,-15.8501,-1.80429,-7.65168,41.6622,7.08213,-2.24556,18.3411,3.01213,2.26658,2.36554e-14,7.15625e-15,-33.4288,-10.3285,-77.6784,32.9092,19.1008,-20.5681,2.2383,7.12502,5.79131,-27.6626,2.36554e-14,7.15625e-15,-27.9482,14.7178,81.9796,27.0953,-9.81184,-13.7454,32.7981,7.12502,12.3746,62.4118,-20.2107,3.37011,20.7415,34.1077,-21.5764,-4.36522,12.4147,-12.9162,0.144239,-24.4503,21.6801,-13.6715,5.34093,-14.8757
-0.732153,17.7381,13.3973,-170.846,1.52824,177.731,0.16672,-1.4928,-4.59593,-0.312161,-1.99457,2.03539,-0.184788,-0.984045,4.68214,-15.7394,-1.80169,-7.7162,41.6747,7.14555,-2.27988,18.3203,3.03055,2.27252,8.84592e-15,-1.27222e-14,-33.4546,-10.2678,-77.629,32.5786,19.5755,-21.2184,2.74388,7.12502,5.16352,-27.1732,8.84592e-15,-1.27222e-14,-28.2609,16.0395,81.3141,25.5561,-10.1981,-13.3287,33.036,7.12502,12.7763,62.6251,-20.2075,3.35519,20.8121,34.0541,-21.5127,-4.22675,12.5193,-12.967,0.149988,-24.3835,21.7943,-13.7592,5.53885,-14.7971
-0.717094,17.7358,13.4028,-170.792,1.5219,177.757,0.308119,-1.4953,-4.63063,-0.336607,-2.0034,2.08732,-0.285238,-0.984777,4.76047,-15.5549,-1.82056,-7.86848,41.6784,7.18771,-2.27538,18.2708,3.03858,2.30604,1.88845e-14,4.77083e-15,-33.6166,-10.1413,-77.5344,32.4622,19.7265,-21.3189,2.90133,7.12502,5.06644,-27.0181,1.88845e-14,4.77083e-15,-28.8237,17.4923,80.6179,24.2681,-10.865,-12.9404,33.5638,7.12502,13.1506,63.1291,-20.2581,3.3357,20.8887,33.9738,-21.4683,-4.12935,13.0151,-13.1157,0.0398827,-24.29,21.9403,-13.8345,5.71598,-14.8063
-0.700019,17.7342,13.411,-170.676,1.43914,177.828,0.384691,-1.48771,-4.57296,-0.331936,-1.99534,2.11364,-0.325309,-0.979607,4.75741,-15.4674,-1.8159,-7.78361,41.6635,7.24491,-2.41357,18.2513,3.06515,2.23677,1.39149e-14,1.59028e-15,-33.7191,-10.1753,-77.461,32.5142,19.7146,-20.9319,2.67247,7.12502,5.44011,-27.2377,1.39149e-14,1.59028e-15,-29.2707,18.8041,79.9268,22.9936,-11.7764,-12.6794,33.7314,7.12502,13.4022,63.2803,-20.3934,3.3003,21.0385,33.8981,-21.3539,-4.19316,12.9074,-13.3511,0.0293711,-24.1427,22.0761,-13.7932,5.66853,-14.9959
-0.683673,17.735,13.4205,-170.562,1.4333,177.917,0.421467,-1.46057,-4.45486,-0.301427,-1.95926,2.10939,-0.32275,-0.962428,4.68662,-15.4241,-1.81812,-7.75101,41.7261,7.27948,-2.42428,18.2789,3.08833,2.23596,4.57205e-15,1.51076e-14,-33.7323,-10.4176,-77.3896,32.4578,19.9527,-20.5867,2.55641,7.12502,5.77344,-27.3449,4.57205e-15,1.51076e-14,-29.5639,20.1275,79.147,21.6185,-12.9051,-12.8244,33.5596,7.12502,13.2625,63.1177,-20.5383,3.28414,21.1978,33.8329,-21.2078,-4.24353,12.8152,-13.5779,-0.0396935,-23.9839,22.1986,-13.7531,5.71061,-15.1252
-0.669038,17.7384,13.4286,-170.469,1.55464,177.868,0.466775,-1.40359,-4.48853,-0.269912,-1.88624,2.05871,-0.324729,-0.926862,4.65379,-15.4479,-1.84819,-7.76003,41.8239,7.26727,-2.38292,18.3422,3.08746,2.26058,9.93923e-15,-1.63003e-14,-33.6775,-10.4427,-77.3981,32.3191,19.9133,-20.4419,2.74212,7.12502,5.91317,-27.1554,9.93923e-15,-1.63003e-14,-29.9283,21.4077,78.3161,20.4603,-14.0206,-12.7351,33.8158,7.12502,13.3486,63.3682,-20.6565,3.31422,21.177,33.7779,-21.0768,-4.18345,12.7794,-13.7535,-0.0680782,-23.9917,22.3238,-13.9113,5.80879,-14.3465
-0.654939,17.7434,13.4348,-170.423,1.60567,177.772,0.553005,-1.38371,-4.56072,-0.213018,-1.86519,1.98153,-0.317276,-0.918324,4.61588,-15.4774,-1.83642,-7.64577,41.8101,7.27137,-2.45023,18.3489,3.09393,2.20952,-1.0138e-14,2.78299e-15,-33.6028,-10.4093,-77.4931,32.2308,19.7497,-20.4821,2.62309,7.12502,5.87438,-27.2755,-1.0138e-14,2.78299e-15,-30.3633,22.5394,77.4718,19.496,-15.051,-12.4438,34.0568,7.12502,13.6293,63.5906,-20.7059,3.38849,21.1096,33.7398,-21.0652,-4.25189,12.4234,-13.8551,-0.0639786,-24.0457,22.4084,-14.0927,5.81541,-13.6376
-0.641627,17.7431,13.4418,-170.379,1.50254,177.907,0.636974,-1.4297,-4.40501,-0.148859,-1.92675,2.02742,-0.294778,-0.950931,4.57673,-15.4029,-1.75629,-7.54564,41.6879,7.39382,-2.60578,18.2664,3.14055,2.13475,8.24956e-15,-1.23246e-14,-33.53,-10.3083,-77.5021,32.1767,19.6473,-20.4447,2.21824,7.12502,5.91053,-27.6793,8.24956e-15,-1.23246e-14,-30.8708,23.9776,76.5482,18.5726,-16.3622,-12.209,33.9075,7.12502,13.8556,63.426,-20.7398,3.33419,21.3214,33.7182,-21.0157,-4.32397,11.9842,-13.9799,-0.0984685,-23.838,22.4721,-13.8717,5.79784,-14.1967
-0.626585,17.7443,13.4466,-170.302,1.54265,177.97,0.592246,-1.41774,-4.37117,-0.0773849,-1.90641,2.10185,-0.196881,-0.944269,4.63237,-15.3628,-1.75317,-7.61995,41.6824,7.48979,-2.69855,18.259,3.15965,2.12283,-1.63003e-14,2.46493e-14,-33.4711,-10.3955,-77.3295,32.1067,19.8,-20.2211,2.26544,7.12502,6.12639,-27.626,-1.63003e-14,2.46493e-14,-31.4482,25.1864,75.8177,17.8809,-17.5012,-11.9851,33.7684,7.12502,14.0714,63.272,-20.8212,3.39431,21.4233,33.7006,-20.9349,-4.32,11.9862,-14.1339,-0.293485,-23.7134,22.5555,-13.6478,6.11061,-15.0263
-0.609798,17.747,13.4547,-170.2,1.59729,177.914,0.5782,-1.3494,-4.43463,-0.00111768,-1.81473,2.0897,-0.119244,-0.902075,4.65404,-15.5094,-1.82591,-7.75404,41.8032,7.42847,-2.58304,18.3622,3.12043,2.19777,-1.91827e-14,-1.19271e-15,-33.3134,-10.6365,-77.1908,31.9012,19.8161,-20.1452,2.63281,7.12502,6.19964,-27.2565,-1.91827e-14,-1.19271e-15,-31.8959,25.9992,75.2574,17.4221,-18.4713,-11.8132,34.0169,7.12502,14.237,63.509,-20.9618,3.43531,21.3908,33.6945,-20.8879,-4.22975,12.3686,-14.3193,-0.547593,-23.7066,22.6499,-13.5578,6.435,-14.8348
-0.591619,17.7481,13.4642,-170.058,1.5983,177.892,0.648078,-1.33785,-4.47005,-0.0318017,-1.80335,2.06348,-0.191116,-0.894027,4.64925,-15.5128,-1.84361,-7.79204,41.8769,7.39843,-2.47994,18.399,3.11585,2.25022,1.78906e-15,-1.70955e-14,-33.3358,-10.566,-77.215,31.856,19.5977,-20.1437,2.50485,7.12502,6.20104,-27.3844,1.78906e-15,-1.70955e-14,-32.5183,26.3285,74.7361,17.206,-18.962,-11.4951,34.1049,7.12502,14.5435,63.5751,-21.1681,3.41329,21.3963,33.7462,-20.8818,-4.01307,12.9224,-14.5393,-0.642225,-23.6554,22.6843,-13.4486,6.50643,-14.5817
-0.57636,17.7437,13.4739,-169.958,1.59344,177.972,0.758563,-1.32564,-4.37087,-0.116338,-1.79135,2.04612,-0.345092,-0.882232,4.57937,-15.1798,-1.82618,-7.66799,41.8559,7.41909,-2.54384,18.3038,3.16102,2.19529,8.24956e-15,-2.22639e-14,-33.6039,-10.3639,-77.2637,32.0204,19.3451,-20.2625,1.67922,7.12502,6.08643,-28.2133,8.24956e-15,-2.22639e-14,-33.2781,26.4051,74.2096,17.0575,-19.2781,-11.4444,33.947,7.12502,14.5923,63.4137,-21.3469,3.35742,21.517,33.818,-20.857,-3.78926,13.287,-14.6642,-0.92043,-23.4509,22.7243,-13.5903,6.52803,-13.7108
-0.561574,17.7303,13.4831,-169.989,1.61502,178.035,0.883652,-1.25899,-4.29817,-0.0422109,-1.70582,2.0188,-0.351462,-0.840818,4.51155,-15.0642,-1.82884,-7.4265,41.8405,7.43955,-2.74379,18.2854,3.19203,2.06268,-1.68967e-15,-7.95139e-15,-33.6433,-10.7918,-77.1592,32.0551,19.4779,-20.3575,1.16221,7.12502,5.99465,-28.733,-1.68967e-15,-7.95139e-15,-33.7904,26.6984,73.7239,16.9424,-19.8329,-11.1943,33.7716,7.12502,14.8333,63.2206,-21.386,3.31488,21.6364,33.8838,-20.8069,-3.68889,13.1498,-14.5993,-1.3461,-23.2376,22.8139,-13.9446,6.60018,-12.4339
-0.545002,17.7244,13.4923,-169.959,1.62559,178.126,0.977273,-1.2579,-4.2597,0.00920035,-1.70472,2.10333,-0.349656,-0.840591,4.57923,-15.0943,-1.80578,-7.52345,41.8732,7.5564,-2.76709,18.3129,3.22054,2.09408,1.14301e-14,-4.05521e-14,-33.5653,-10.9947,-76.9804,31.9979,19.5501,-20.2488,1.06484,7.12502,6.09963,-28.8274,1.14301e-14,-4.05521e-14,-34.3535,27.084,73.4021,16.9807,-20.1597,-10.7867,33.6675,7.12502,15.2259,63.0872,-21.454,3.24128,21.7957,33.8951,-20.7098,-3.61204,13.0562,-14.6658,-1.61341,-23.0347,22.9618,-14.0709,6.7221,-11.6382
-0.528206,17.7252,13.5003,-169.969,1.55921,178.142,1.11663,-1.35431,-4.34032,-0.0275405,-1.8369,2.2442,-0.443748,-0.902448,4.7768,-14.8289,-1.76219,-7.81281,41.8406,7.71448,-2.72719,18.2115,3.26326,2.18521,-5.96354e-16,2.38542e-15,-33.583,-10.5604,-76.851,31.9456,19.37,-20.1275,0.600763,7.12502,6.21676,-29.288,-5.96354e-16,2.38542e-15,-35.1067,27.0496,73.3181,17.2163,-19.702,-10.4643,33.7256,7.12502,15.5365,63.1215,-21.401,3.28782,21.869,33.7961,-20.6932,-3.52986,13.7963,-14.8191,-1.70983,-22.9448,23.2409,-14.0679,6.7597,-11.5662
-0.512715,17.7321,13.5031,-169.947,1.53423,178.047,1.19558,-1.34749,-4.42737,-0.0795091,-1.83303,2.24037,-0.539449,-0.896844,4.82533,-14.5588,-1.78157,-7.8395,41.8534,7.73554,-2.75827,18.1505,3.28712,2.17546,1.04362e-14,1.59028e-15,-33.7506,-10.4762,-76.7347,31.9515,19.2602,-19.9513,0.216316,7.12502,6.38683,-29.6674,1.04362e-14,1.59028e-15,-35.6338,26.5549,73.3586,17.3496,-19.1479,-10.4632,33.4973,7.12502,15.5376,62.8931,-21.3223,3.34585,21.8086,33.5788,-20.6184,-3.51202,13.9889,-15.1228,-1.7501,-23.0298,23.6589,-13.9578,6.97619,-13.9651
-0.497538,17.7482,13.5062,-169.821,1.58218,178.108,1.17375,-1.27091,-4.32441,-0.0774734,-1.72792,2.23698,-0.540436,-0.844225,4.76177,-14.509,-1.80883,-7.75715,41.8683,7.72741,-2.83951,18.1564,3.29317,2.12328,2.98177e-15,-1.43125e-14,-33.8095,-10.606,-76.6273,31.9787,19.1644,-19.8508,0.356596,7.12502,6.48389,-29.5242,2.98177e-15,-1.43125e-14,-35.8529,25.7157,73.6773,17.6159,-18.2901,-10.3047,33.309,7.12502,15.6902,62.6929,-21.3245,3.37344,21.904,33.3107,-20.4304,-3.4323,14.4449,-15.6215,-1.49616,-23.0248,24.1217,-13.6334,7.26587,-18.1126
-0.479079,17.7584,13.5138,-169.705,1.57384,178.203,1.16001,-1.26882,-4.26657,-0.0325594,-1.72157,2.29108,-0.487179,-0.842853,4.78412,-14.6152,-1.81475,-7.76629,41.9241,7.77046,-2.86954,18.2213,3.29818,2.12475,1.69961e-14,-7.95139e-16,-33.7142,-10.584,-76.5666,31.9637,19.0427,-19.8824,0.722683,7.12502,6.45331,-29.159,1.69961e-14,-7.95139e-16,-36.0553,24.9251,74.0741,18.1088,-17.2428,-9.81953,33.3078,7.12502,16.1574,62.6544,-21.3584,3.20971,22.0785,33.075,-20.1311,-3.34346,14.3134,-16.0457,-1.39085,-22.9222,24.5611,-13.4371,7.50317,-20.2821
-0.460282,17.7598,13.5221,-169.681,1.49975,178.239,1.21455,-1.28428,-4.27033,0.0184267,-1.74271,2.32537,-0.461635,-0.85475,4.82276,-14.6075,-1.81874,-7.79958,41.952,7.78037,-2.84044,18.233,3.30093,2.14691,-6.16232e-15,6.36111e-15,-33.6693,-10.4481,-76.5554,31.9818,18.8853,-20.0033,0.832826,7.12502,6.33658,-29.0524,-6.16232e-15,6.36111e-15,-36.2449,23.9925,74.543,18.578,-15.9727,-9.65398,33.2259,7.12502,16.3168,62.5594,-21.3264,3.05358,22.1977,32.9026,-19.9424,-3.28231,13.9187,-16.344,-1.45338,-22.8308,24.9528,-13.1483,7.78177,-21.4758
-0.443168,17.7603,13.5286,-169.687,1.46193,178.293,1.31985,-1.23923,-4.18241,0.070766,-1.68422,2.307,-0.476629,-0.82604,4.7551,-14.58,-1.84923,-7.74321,41.9722,7.71897,-2.82593,18.2388,3.2893,2.1328,5.46658e-15,-9.54166e-15,-33.7303,-10.3914,-76.5751,32.1117,18.7409,-20.0928,0.522996,7.12502,6.25026,-29.3648,5.46658e-15,-9.54166e-15,-36.3685,22.9725,74.9907,19.0051,-14.7425,-9.61677,32.7947,7.12502,16.3527,62.1253,-21.3035,3.05376,22.3246,32.8178,-19.8279,-3.36963,13.2487,-16.5659,-1.43404,-22.738,25.2741,-12.9593,7.99185,-22.392
-0.427484,17.7627,13.5336,-169.695,1.55723,178.271,1.421,-1.13079,-4.1662,0.125599,-1.54314,2.25294,-0.494855,-0.75617,4.68971,-14.6295,-1.88752,-7.63559,41.9862,7.6602,-2.87917,18.2688,3.27386,2.08103,2.82274e-14,-6.36111e-15,-33.7981,-10.4354,-76.5565,32.2263,18.6464,-20.1917,0.370798,7.12502,6.15473,-29.5198,2.82274e-14,-6.36111e-15,-36.5178,22.3172,75.2507,19.4721,-13.9578,-9.38518,32.224,7.12502,16.5756,61.5361,-21.301,3.05571,22.337,32.7593,-19.703,-3.30533,12.7601,-16.7564,-1.34893,-22.7521,25.6154,-12.9861,8.14101,-22.5622
-0.410142,17.7671,13.5423,-169.587,1.68355,178.263,1.39914,-1.03579,-4.1959,0.148927,-1.41627,2.23281,-0.472594,-0.693729,4.68322,-14.6944,-1.89617,-7.60046,42.0172,7.65879,-2.87817,18.3059,3.27651,2.07887,8.05078e-15,1.19271e-14,-33.7819,-10.3727,-76.5378,32.2907,18.5761,-20.1168,0.572787,7.12502,6.22708,-29.3157,8.05078e-15,1.19271e-14,-36.6814,21.7085,75.5317,20.0338,-13.1898,-9.07033,32.0339,7.12502,16.8787,61.3204,-21.4192,3.0346,22.3561,32.6571,-19.5511,-3.19079,12.6008,-17.1126,-1.29279,-22.7354,26.0377,-13.1226,8.26395,-21.759
-0.390785,17.7712,13.5514,-169.476,1.68401,178.247,1.37997,-0.998233,-4.23581,0.157151,-1.36659,2.21622,-0.458434,-0.669515,4.68748,-14.7005,-1.89821,-7.53586,42.0605,7.6553,-2.86411,18.3339,3.28865,2.07636,3.07122e-14,1.03368e-14,-33.7755,-10.2685,-76.5563,32.389,18.5015,-19.9304,0.765862,7.12502,6.40703,-29.1172,3.07122e-14,1.03368e-14,-36.8233,21.0439,75.8379,20.5839,-12.3177,-8.93912,31.8478,7.12502,17.005,61.1235,-21.4786,3.01239,22.3867,32.5118,-19.4827,-3.07283,12.7914,-17.4819,-1.3021,-22.7161,26.5195,-13.3595,8.35632,-20.4178
-0.373087,17.7748,13.5542,-169.504,1.55431,178.371,1.45059,-1.00706,-4.114,0.210018,-1.37581,2.2727,-0.444008,-0.674685,4.67805,-14.672,-1.91563,-7.46364,42.0769,7.66587,-2.95283,18.3464,3.2969,2.02583,1.03368e-14,-4.13472e-14,-33.7031,-10.2805,-76.5007,32.3363,18.5551,-19.7855,0.733879,7.12502,6.54691,-29.1449,1.03368e-14,-4.13472e-14,-36.996,20.4691,76.1749,21.2031,-11.409,-8.87162,31.6397,7.12502,17.07,60.9097,-21.3313,2.9841,22.5969,32.3309,-19.5003,-3.0525,13.1994,-17.7388,-1.29177,-22.5491,27.067,-13.453,8.44734,-20.254
-0.35669,17.7777,13.5571,-169.565,1.52882,178.424,1.54992,-0.959772,-4.02536,0.293547,-1.31266,2.2674,-0.422899,-0.644673,4.62238,-14.7897,-1.9453,-7.42527,42.1413,7.63173,-2.93648,18.4178,3.28476,2.02665,-3.57812e-15,1.03368e-14,-33.5825,-10.4687,-76.4396,32.2019,18.6894,-19.9133,0.805309,7.12502,6.42349,-29.0773,-3.57812e-15,1.03368e-14,-37.0631,19.9287,76.4575,21.803,-10.6075,-8.77169,31.5932,7.12502,17.1662,60.8549,-21.1812,3.0117,22.72,32.1323,-19.4519,-3.12398,13.2451,-18.0176,-1.261,-22.4724,27.6687,-13.3508,8.61567,-20.7903
-0.339492,17.7806,13.5657,-169.483,1.57915,178.446,1.48879,-0.881755,-3.94927,0.383584,-1.20497,2.21173,-0.310628,-0.595247,4.51754,-14.9813,-1.97546,-7.38803,42.193,7.54581,-2.85078,18.4952,3.25253,2.04981,-1.93815e-14,1.59028e-14,-33.4049,-10.6189,-76.4719,32.1627,18.8032,-20.1378,0.97583,7.12502,6.20682,-28.9132,-1.93815e-14,1.59028e-14,-36.9663,19.5116,76.6342,22.2978,-10.041,-8.60567,31.2665,7.12502,17.326,60.5142,-21.232,2.95239,22.8067,31.9418,-19.2561,-3.09298,12.8692,-18.4686,-1.18619,-22.4385,28.2806,-13.2121,8.79745,-21.4301
-0.320426,17.7835,13.5772,-169.407,1.51757,178.516,1.45954,-0.847114,-3.868,0.421857,-1.15559,2.2075,-0.261894,-0.572072,4.46543,-14.9233,-2.00684,-7.39565,42.1953,7.47548,-2.79273,18.4766,3.23458,2.06339,1.28216e-14,-4.77083e-15,-33.3337,-10.6368,-76.4656,32.1771,18.7973,-20.062,1.16534,7.12502,6.27997,-28.7216,1.28216e-14,-4.77083e-15,-37.0092,19.2826,76.7172,22.8245,-9.72903,-8.68161,30.9905,7.12502,17.2529,60.2446,-21.2641,2.84465,22.9598,31.7751,-19.2186,-3.00402,13.1951,-18.9359,-1.14847,-22.324,28.8967,-13.0236,8.89248,-22.2574
-0.302156,17.7856,13.5863,-169.468,1.41119,178.529,1.57813,-0.831453,-3.88283,0.451695,-1.13663,2.24843,-0.298512,-0.561545,4.51798,-14.7907,-2.03675,-7.43502,42.166,7.47577,-2.85059,18.4286,3.23295,2.0402,7.05686e-15,-3.26007e-14,-33.3285,-10.5727,-76.363,32.1756,18.7267,-19.9192,1.18968,7.12502,6.41786,-28.6931,7.05686e-15,-3.26007e-14,-37.2133,18.985,76.909,23.5149,-9.21768,-8.84113,30.796,7.12502,17.0994,60.0636,-21.1362,2.82892,23.0414,31.6061,-19.2383,-2.93345,14.7105,-19.2746,-1.14119,-22.2624,29.5502,-12.842,8.97185,-23.1787
-0.284815,17.7882,13.5939,-169.518,1.26253,178.526,1.73878,-0.806701,-3.87929,0.477604,-1.1074,2.25232,-0.365036,-0.545275,4.52217,-14.7801,-2.07149,-7.39751,42.1677,7.40595,-2.83651,18.4275,3.21492,2.02726,1.82882e-14,-7.95139e-15,-33.3622,-10.6188,-76.281,32.24,18.7557,-19.8991,1.4224,7.12502,6.43719,-28.4598,1.82882e-14,-7.95139e-15,-37.3208,18.5393,77.1171,24.1824,-8.60885,-8.81603,30.7027,7.12502,17.1235,59.9682,-21.0409,2.7813,23.1048,31.4433,-19.1163,-2.91141,15.7274,-19.6333,-1.20767,-22.184,30.2239,-12.744,8.95999,-23.2266
-0.266293,17.7925,13.602,-169.509,1.17424,178.567,1.77359,-0.772875,-3.80659,0.570978,-1.0611,2.19965,-0.295842,-0.5251,4.42503,-14.915,-2.08937,-7.23298,42.1361,7.29452,-2.8464,18.4483,3.1817,1.97257,1.19271e-15,-3.37934e-14,-33.1907,-10.6103,-76.4073,32.2391,18.7132,-19.9729,1.67068,7.12502,6.36593,-28.2137,1.19271e-15,-3.37934e-14,-37.1528,18.0406,77.2907,24.7099,-7.94779,-8.89495,30.5603,7.12502,17.0476,59.8322,-21.0027,2.78924,23.2023,31.2954,-19.0236,-2.86085,16.6769,-20.0936,-1.24326,-22.0439,30.9113,-12.4765,8.82742,-23.637
-0.246206,17.7944,13.6147,-169.477,1.18155,178.568,1.81493,-0.73572,-3.82416,0.608499,-1.0136,2.14932,-0.286044,-0.502368,4.38221,-14.9581,-2.11486,-7.13804,42.1604,7.21234,-2.82214,18.4749,3.16262,1.95302,2.48481e-15,7.95139e-15,-33.0019,-10.69,-76.4951,32.0553,18.8837,-20.1103,1.94565,7.12502,6.2333,-27.9426,2.48481e-15,7.95139e-15,-37.0881,17.8186,77.2942,25.1555,-7.54852,-9.03778,30.0846,7.12502,16.9101,59.3684,-21.0089,2.8255,23.2587,31.1355,-18.9206,-2.81569,17.094,-20.6279,-1.19965,-21.9517,31.6346,-12.0067,8.69516,-24.9615
-0.22751,17.7973,13.6276,-169.476,1.10725,178.532,1.90888,-0.750087,-3.90394,0.592375,-1.03658,2.18767,-0.350657,-0.511871,4.46945,-14.8866,-2.14084,-7.30291,42.236,7.22089,-2.70594,18.4906,3.16311,2.04081,-3.37934e-15,2.22639e-14,-32.907,-10.722,-76.3788,31.8768,19.2051,-20.1501,2.33597,7.12502,6.19495,-27.5534,-3.37934e-15,2.22639e-14,-37.2506,17.707,77.411,25.805,-7.27273,-9.05908,29.9999,7.12502,16.8896,59.2855,-20.9575,2.81221,23.292,30.935,-18.7708,-2.89565,17.4643,-21.1393,-1.14532,-21.8961,32.4267,-11.616,8.52268,-26.1692
-0.211394,17.8064,13.6348,-169.523,0.955294,178.498,2.05739,-0.705523,-3.87212,0.555516,-0.980528,2.20997,-0.477955,-0.47962,4.47629,-14.6572,-2.22979,-7.45452,42.198,7.15743,-2.73627,18.4094,3.131,2.03666,-2.38542e-15,-1.66979e-14,-33.0141,-10.715,-76.1615,31.8485,19.3058,-20.186,2.68218,7.12502,6.1602,-27.2083,-2.38542e-15,-1.66979e-14,-37.3608,17.3877,77.652,26.4209,-7.00651,-9.07731,30.0546,7.12502,16.872,59.3417,-20.8076,2.7106,23.3377,30.7187,-18.6546,-2.96693,17.7783,-21.6223,-1.19663,-21.8185,33.2746,-11.3416,8.26386,-26.5989
-0.19447,17.8177,13.6426,-169.504,0.801916,178.509,2.1366,-0.603243,-3.78645,0.500782,-0.84433,2.226,-0.594214,-0.407355,4.44307,-14.4134,-2.33751,-7.53588,42.1329,7.05325,-2.80983,18.3136,3.09105,1.99184,-1.36167e-14,-4.77083e-15,-33.1934,-10.7099,-75.9695,31.9363,19.2212,-20.3077,2.67021,7.12502,6.0428,-27.2236,-1.36167e-14,-4.77083e-15,-37.2685,16.8775,77.953,26.822,-6.63627,-9.146,29.9614,7.12502,16.8059,59.2541,-20.7017,2.58149,23.4335,30.4591,-18.5763,-2.97749,17.8566,-22.2547,-1.28042,-21.6635,34.2128,-10.9756,7.8722,-26.8587
-0.176352,17.8273,13.6524,-169.509,0.697404,178.414,2.24233,-0.546002,-3.85359,0.479734,-0.773605,2.20912,-0.681908,-0.369559,4.46356,-14.3837,-2.39515,-7.55114,42.1591,7.02308,-2.85371,18.3276,3.07942,1.97155,2.78299e-15,-1.51076e-14,-33.2862,-10.7544,-75.8625,32.0402,19.2278,-20.2767,3.0259,7.12502,6.07265,-26.8671,2.78299e-15,-1.51076e-14,-37.134,16.599,78.1057,27.1341,-6.43344,-9.19393,29.7449,7.12502,16.7598,59.0415,-20.5663,2.39,23.4062,30.1334,-18.4231,-2.96564,17.9071,-22.9111,-1.25938,-21.6297,35.2673,-10.6534,7.33042,-26.2478
-0.159307,17.8397,13.6605,-169.527,0.593316,178.406,2.26964,-0.52288,-3.83151,0.571661,-0.74102,2.19884,-0.606459,-0.356104,4.43913,-14.6409,-2.44884,-7.55586,42.2291,6.95306,-2.82487,18.4395,3.03693,1.98107,-1.87852e-14,7.95139e-15,-33.097,-10.9043,-75.8383,31.9676,19.4356,-20.2666,3.54909,7.12502,6.08239,-26.3436,-1.87852e-14,7.95139e-15,-36.8495,16.4697,78.2365,27.5438,-6.26891,-9.27381,29.6803,7.12502,16.6829,58.9834,-20.4028,2.00581,23.5031,29.7701,-18.1458,-2.88119,17.7036,-23.6114,-1.15922,-21.5032,36.4427,-10.2981,6.74825,-25.8832
-0.140555,17.8503,13.6718,-169.543,0.397753,178.626,2.3376,-0.505349,-3.55214,0.632325,-0.708393,2.23791,-0.588591,-0.339684,4.32075,-14.7115,-2.49742,-7.69316,42.1968,6.82938,-2.67903,18.4269,2.97648,2.04814,4.07509e-15,2.14687e-14,-32.9159,-11.0784,-75.7962,31.8374,19.7412,-20.3116,3.84732,7.12502,6.03899,-26.0466,4.07509e-15,2.14687e-14,-36.6329,16.2586,78.3514,28.0963,-5.84498,-9.26411,29.4742,7.12502,16.6922,58.7765,-20.2511,1.73889,23.8621,29.4156,-17.9561,-2.9108,17.6658,-24.4067,-0.986716,-21.106,37.6813,-9.7553,6.07624,-26.107
-0.119383,17.8602,13.685,-169.578,0.0346409,178.822,2.51991,-0.48837,-3.30021,0.637171,-0.753612,2.28187,-0.685753,-0.389929,4.22742,-14.6831,-2.52748,-7.70182,42.1282,6.75176,-2.67152,18.3778,2.94626,2.03438,9.34288e-15,1.59028e-14,-32.8248,-11.1584,-75.7703,31.7489,19.9321,-20.4232,3.99004,7.12502,5.93128,-25.9069,9.34288e-15,1.59028e-14,-36.4128,15.9662,78.4008,28.4844,-5.29666,-9.29678,28.7377,7.12502,16.6607,58.0427,-20.05,1.4714,24.2206,29.0114,-17.8167,-3.09508,17.4739,-25.2802,-0.840196,-20.729,39.0103,-9.03039,5.31228,-26.6449
-0.102771,17.8714,13.693,-169.599,-0.27763,178.655,2.6054,-0.544083,-3.42551,0.668383,-0.832704,2.2306,-0.692752,-0.429286,4.2484,-14.7039,-2.55451,-7.63888,42.1258,6.69832,-2.69235,18.3855,2.93127,2.00405,4.67144e-15,-1.90833e-14,-32.6954,-11.2204,-75.7785,31.712,20.0597,-20.5005,4.20979,7.12502,5.85666,-25.6893,4.67144e-15,-1.90833e-14,-36.2015,15.7081,78.4433,28.8055,-5.06567,-9.43146,27.9148,7.12502,16.5311,57.2306,-19.8296,1.10748,24.1448,28.5608,-17.7095,-3.15189,17.193,-26.1804,-0.787584,-20.7864,40.4068,-8.28923,4.68487,-27.6382
-0.102162,17.8845,13.7113,-169.443,-0.785317,178.668,2.63989,-0.663961,-3.07422,0.600377,-0.983958,2.20587,-0.773498,-0.502334,4.02926,-14.6772,-2.59172,-7.61712,42.1048,6.64821,-2.73337,18.3705,2.91229,1.97069,2.38542e-15,1.43125e-14,-32.5861,-11.0952,-75.8424,31.7509,19.9414,-20.6064,4.09791,7.12502,5.75434,-25.804,2.38542e-15,1.43125e-14,-36.033,15.5298,78.5174,29.1063,-5.14408,-9.54004,27.1593,7.12502,16.4265,56.4838,-19.7787,0.343672,24.2276,28.0964,-17.4272,-2.83847,17.9267,-27.3509,-0.828477,-20.6976,41.8672,-7.42361,3.99132,-28.792
-0.0771914,17.8907,13.722,-169.569,-0.913015,178.831,2.94343,-0.589999,-2.99243,0.591974,-0.892749,2.26869,-0.96099,-0.454414,4.05032,-14.6365,-2.68161,-7.75087,42.0891,6.51648,-2.66462,18.3473,2.85159,2.00032,-5.56597e-15,-3.33958e-14,-32.5957,-10.7636,-75.9793,32.0221,19.4095,-20.6143,3.30122,7.12502,5.7467,-26.6009,-5.56597e-15,-3.33958e-14,-35.8816,15.2684,78.6508,29.4363,-5.25616,-9.81128,26.5194,7.12502,16.1654,55.8653,-19.4789,0.722046,24.4764,27.6407,-17.3024,-3.24219,18.7219,-28.3021,-0.512371,-20.3473,43.3846,-6.69826,3.33096,-28.312
-0.0612051,17.9026,13.733,-169.486,-1.15856,178.881,3.02975,-0.5478,-2.85314,0.553958,-0.834064,2.26986,-1.05585,-0.423034,3.97228,-14.6745,-2.77079,-7.90213,42.0692,6.34473,-2.51606,18.3367,2.77559,2.0631,-1.74931e-14,3.18055e-15,-32.5683,-10.7581,-75.9872,32.2398,19.1086,-20.452,2.73426,7.12502,5.90346,-27.1635,-1.74931e-14,3.18055e-15,-35.6092,14.8632,78.8439,29.7588,-5.33732,-10.1209,25.8789,7.12502,15.8672,55.2488,-19.4085,0.446029,24.6232,27.1938,-17.0068,-3.1591,19.1907,-29.5036,-0.327306,-20.1786,44.9898,-6.28985,3.02395,-28.0655
-0.0506524,17.9117,13.7416,-169.572,-1.401,178.825,3.17963,-0.556124,-2.78627,0.61593,-0.848179,2.23647,-1.07636,-0.43159,3.902,-14.7294,-2.78289,-7.88802,42.0125,6.29085,-2.50698,18.317,2.75259,2.05253,4.17448e-15,-1.74931e-14,-32.4142,-10.7535,-75.998,32.32,18.9966,-20.3027,2.71781,7.12502,6.04755,-27.1759,4.17448e-15,-1.74931e-14,-35.3458,14.4755,79.0551,30.3614,-5.23305,-10.0411,26.3216,7.12502,15.9441,55.6854,-19.1211,0.0702334,24.6444,26.7438,-16.7826,-3.05101,19.5312,-30.5116,-0.18018,-20.1811,46.6825,-6.41256,2.8535,-29.1878
-0.0430181,17.921,13.7532,-169.714,-1.61222,178.685,3.43126,-0.586979,-2.79697,0.686995,-0.897441,2.19874,-1.14037,-0.45697,3.87419,-14.8316,-2.77591,-7.87485,41.9905,6.33285,-2.57983,18.3363,2.7563,2.02554,-1.05356e-14,-1.43125e-14,-32.2642,-10.5272,-76.0396,32.4598,18.7983,-20.1163,2.72441,7.12502,6.22754,-27.1641,-1.05356e-14,-1.43125e-14,-35.1493,14.0101,79.3746,31.2725,-4.76762,-9.78019,27.6208,7.12502,16.1953,56.9643,-18.7747,-0.328743,24.5526,26.2747,-16.6053,-2.9327,19.5398,-31.4632,0.135221,-20.3713,48.4623,-6.86083,2.44859,-30.6921
-0.0307944,17.9357,13.7646,-169.812,-1.83107,178.684,3.66826,-0.61297,-2.7872,0.705653,-0.939369,2.2523,-1.24954,-0.477633,3.92986,-14.8791,-2.79455,-7.94913,41.9925,6.3528,-2.60171,18.3523,2.7488,2.03397,-4.96962e-15,-4.37326e-14,-32.1796,-10.1822,-76.0387,32.6145,18.5999,-20.0815,2.53633,7.12502,6.26115,-27.3511,-4.96962e-15,-4.37326e-14,-35.0165,13.7629,79.6157,31.9706,-4.54928,-9.68332,28.322,7.12502,16.2886,57.6578,-18.4409,-0.620892,24.6154,25.759,-16.3942,-2.92104,19.5413,-32.5414,0.521955,-20.4074,50.3293,-7.39361,1.63339,-30.4982
-0.0134578,17.9517,13.7755,-169.89,-2.18052,178.832,3.92429,-0.65559,-2.66572,0.673851,-0.999133,2.35957,-1.42056,-0.506092,3.98022,-14.8233,-2.8057,-7.99949,41.9554,6.37035,-2.63838,18.3176,2.75016,2.02764,6.55989e-15,1.82882e-14,-32.0838,-9.9927,-75.9676,32.6117,18.6662,-19.997,2.47644,7.12502,6.3427,-27.4086,6.55989e-15,1.82882e-14,-34.8782,13.5609,79.7941,32.4665,-4.45557,-9.7324,28.5437,7.12502,16.2413,57.8834,-18.0704,-0.829785,24.8718,25.1539,-16.2185,-3.10548,19.6521,-33.7342,0.858557,-20.2378,52.2435,-7.936,0.612842,-29.1286
0.00456238,17.9706,13.7849,-169.998,-2.51671,178.874,4.21577,-0.656552,-2.61228,0.696096,-1.00648,2.3906,-1.56064,-0.509225,3.98785,-14.8728,-2.84584,-7.96032,41.9042,6.29048,-2.67345,18.3048,2.71715,1.98814,-5.76476e-15,9.54166e-15,-31.8878,-10.1305,-75.9095,32.545,18.7957,-20.0107,2.47641,7.12502,6.32952,-27.409,-5.76476e-15,9.54166e-15,-34.5877,13.1418,80.0245,32.9591,-4.22746,-9.88161,28.4505,7.12502,16.0977,57.8019,-17.5867,-0.975741,24.994,24.462,-16.1188,-3.29566,20.3243,-34.8362,1.19581,-20.1994,54.1539,-8.46814,-0.0699842,-29.6911
0.0210463,17.9947,13.7917,-170.09,-2.79468,178.802,4.39618,-0.646411,-2.66292,0.769112,-1.0018,2.3889,-1.58609,-0.50856,4.01712,-14.8909,3.70936,-9.72092,42.1745,2.91645,0.594666,18.0752,-2.13904,1.97204,-1.90833e-14,3.97569e-15,-31.6564,-10.3189,-75.8455,32.4664,18.9321,-20.1855,2.71999,7.12502,6.16074,-27.1704,-1.90833e-14,3.97569e-15,-34.2301,12.8009,80.2397,33.4338,-4.0379,-9.97877,27.9934,7.12502,16.0041,57.3523,-17.0818,-0.962949,24.9617,23.7195,-16.0132,-3.55958,21.0651,-35.9465,1.47368,-20.2869,56.0408,-9.03814,-0.451538,-30.9034
0.0352805,18.0125,13.799,-170.131,-3.09915,178.752,4.45823,-0.694106,-2.68365,0.845048,-1.07061,2.38768,-1.53618,-0.546191,4.03157,-14.8559,3.65016,-9.69248,42.039,2.86664,0.573297,17.9912,-2.13292,1.95289,1.80894e-14,-3.18055e-15,-31.4457,-10.2422,-75.8805,32.5165,18.9747,-20.1608,2.73618,7.12502,6.1846,-27.1535,1.80894e-14,-3.18055e-15,-33.9392,12.6738,80.3211,33.9108,-4.02484,-10.0166,27.5987,7.12502,15.9677,56.9605,-16.6407,-1.00043,24.9824,22.9211,-15.8547,-3.98816,20.6472,-37.2024,1.70886,-20.3681,57.9121,-9.57209,-0.809809,-30.7513
0.049687,18.0293,13.8054,-170.221,-3.37931,178.697,4.62533,-0.635644,-2.67381,0.967871,-0.999711,2.28757,-1.51157,-0.514243,3.91984,-15.1108,3.49456,-9.45319,42.0579,2.64576,0.549699,18.0943,-2.16755,1.86884,6.36111e-15,3.49861e-14,-31.2569,-10.4985,-75.9416,32.5794,18.9773,-20.0076,2.68358,7.12502,6.33252,-27.2018,6.36111e-15,3.49861e-14,-33.5406,12.222,80.4112,34.4287,-4.02421,-10.0252,27.313,7.12502,15.9594,56.6755,-16.1145,-1.05263,24.9994,22.0522,-15.6339,-4.40283,19.862,-38.388,2.03705,-20.5322,59.8025,-10.1941,-1.20929,-30.185
0.0633584,18.0524,13.8071,-170.347,-3.55507,178.676,4.83161,-0.425036,-2.53505,1.17506,-0.724402,2.08882,-1.44219,-0.383488,3.62061,-15.5937,3.20881,-9.11742,42.0888,2.23124,0.614429,18.2796,-2.23464,1.78014,-7.7526e-15,-1.74931e-14,-30.9527,-11.2159,-75.9969,32.5002,18.991,-20.1953,2.98788,7.12502,6.15128,-26.9028,-7.7526e-15,-1.74931e-14,-32.9887,11.2947,80.6056,35.0514,-3.80758,-10.108,27.1433,7.12502,15.8796,56.5122,-15.4818,-0.842213,24.9636,21.163,-15.5341,-4.58977,21.0472,-39.5174,2.41133,-20.6822,61.7294,-10.9273,-1.62917,-29.6393
0.0766993,18.0765,13.812,-170.38,-3.73412,178.664,4.94304,-0.320483,-2.46357,1.30885,-0.589833,2.00301,-1.37949,-0.321365,3.48372,-15.7812,3.08223,-8.96421,41.9991,2.06133,0.702665,18.2887,-2.22992,1.77475,4.57205e-15,3.18055e-15,-30.5697,-11.6262,-76.0256,32.3674,18.9905,-20.4636,3.05598,7.12502,5.89228,-26.8421,4.57205e-15,3.18055e-15,-32.5497,10.783,80.7559,35.6299,-3.60698,-10.2503,27.0263,7.12502,15.7426,56.406,-14.9783,-0.563923,24.9347,20.2437,-15.4379,-4.91514,22.6378,-40.8321,2.70607,-20.7844,63.6872,-11.7529,-2.018,-29.7675
0.0888676,18.0953,13.825,-170.14,-3.65369,178.75,4.80715,-0.246798,-2.43387,1.29557,-0.486591,2.05366,-1.32513,-0.270422,3.51187,-15.7423,3.09126,-9.05957,41.8918,2.1187,0.779624,18.2054,-2.19194,1.84321,5.96354e-16,-7.95139e-16,-30.3335,-11.6937,-75.9677,32.4319,19.1367,-20.4757,2.86672,7.12502,5.8806,-27.0317,5.96354e-16,-7.95139e-16,-32.3309,10.6804,80.8926,36.2031,-3.54382,-10.3752,26.8851,7.12502,15.6223,56.2743,-14.8904,-0.753282,25.1178,19.2764,-14.6701,-5.23364,21.5138,-42.4992,3.22121,-20.8793,65.6821,-12.617,-2.05036,-30.124
0.0974015,18.1082,13.8444,-169.604,-3.27148,178.95,4.47828,-0.0792456,-2.28649,1.10627,-0.240704,2.07998,-1.35584,-0.140819,3.44001,-15.5375,3.09632,-9.11943,41.7959,2.11277,0.815709,18.0908,-2.18951,1.8693,-1.98785e-15,0,-30.321,-11.7468,-75.908,32.5173,19.3012,-20.2907,2.71858,7.12502,6.05912,-27.1748,-1.98785e-15,0,-32.3147,10.5784,80.9527,36.7568,-3.53129,-10.4645,26.6464,7.12502,15.5363,56.0423,-15.1463,-0.817713,25.3794,18.2676,-13.6983,-5.31711,20.4496,-44.5271,3.95725,-20.9625,67.6952,-13.2021,-2.00676,-30.1603
0.10452,18.1324,13.8546,-169.329,-3.02985,178.919,4.37043,0.0448128,-2.31562,1.01331,-0.06937,2.03349,-1.40419,-0.0505651,3.39861,-15.4498,3.09477,-9.08242,41.7708,2.10642,0.769003,18.055,-2.18951,1.83944,-9.54166e-15,1.98785e-14,-30.2708,-11.7644,-75.8803,32.5801,19.3187,-19.9854,2.60773,7.12502,6.35386,-27.277,-9.54166e-15,1.98785e-14,-32.3079,10.2949,81.0379,37.3392,-3.27464,-10.855,26.5345,7.12502,15.1602,55.9592,-15.0103,-0.800541,25.3389,17.2573,-12.9859,-5.28477,20.1374,-46.1804,4.51521,-21.2756,69.5832,-13.6692,-2.25865,-30.0604
0.11249,18.1651,13.8591,-169.322,-3.00108,178.791,4.46893,0.0346703,-2.46843,1.01102,-0.0915934,2.06294,-1.45962,-0.0604592,3.5173,-15.4263,3.18047,-9.2153,41.8155,2.26451,0.775961,18.061,-2.15514,1.89329,4.17448e-15,2.38542e-14,-30.0903,-11.4654,-75.8629,32.6077,19.2483,-20.0456,2.80502,7.12502,6.29576,-27.0814,4.17448e-15,2.38542e-14,-32.2159,10.297,81.1347,37.8211,-2.99103,-10.9694,26.5282,7.12502,15.05,55.9611,-14.5139,-0.806676,25.2057,16.2037,-12.4682,-5.45004,19.4992,-47.5172,4.89941,-21.6719,71.3199,-14.3256,-2.49167,-30.6243
0.121859,18.189,13.8693,-169.328,-3.08437,178.643,4.68006,-0.0542685,-2.69451,0.946677,-0.223457,2.15034,-1.6322,-0.121521,3.74527,-15.3391,3.3414,-9.46554,41.9084,2.50943,0.862648,18.0657,-2.10613,2.01753,7.55382e-15,2.38542e-14,-29.8992,-11.0373,-75.8295,32.5381,19.1563,-20.3801,3.06685,7.12502,5.97281,-26.829,7.55382e-15,2.38542e-14,-32.0656,10.7052,81.162,38.0474,-2.93491,-10.8325,26.4149,7.12502,15.1818,55.8379,-13.9839,-0.7472,25.0596,15.0847,-11.9058,-5.86978,19.1652,-48.8645,5.12195,-22.0466,72.9228,-15.0625,-2.63708,-31.1236
0.128951,18.2069,13.8772,-169.322,-3.24286,178.531,4.83908,-0.0613583,-2.7238,0.961898,-0.238495,2.09261,-1.70433,-0.12784,3.70401,-15.3869,3.34763,-9.52397,41.9519,2.48185,1.03742,18.0979,-2.10054,2.1072,5.96354e-15,3.18055e-15,-29.6424,-11.1555,-75.8879,32.4593,19.1692,-20.4522,2.93063,7.12502,5.90328,-26.9671,5.96354e-15,3.18055e-15,-31.9066,10.4983,81.2136,38.5039,-2.68605,-11.0057,26.3595,7.12502,15.015,55.7951,-13.4537,-0.708793,24.959,13.9777,-11.4052,-6.34659,19.4059,-50.1754,5.18385,-22.3357,74.439,-15.6241,-2.82799,-31.0736
0.133799,18.2253,13.8824,-169.341,-3.29847,178.468,4.99025,0.0743316,-2.5903,1.07679,-0.0588279,1.89744,-1.68612,-0.0415121,3.41523,-15.5707,3.1828,-9.22674,41.9008,2.21567,1.03526,18.1436,-2.13167,2.01458,-5.76476e-15,-4.37326e-14,-29.4072,-11.6979,-76.0081,32.5756,19.281,-20.2373,2.5492,7.12502,6.11069,-27.3427,-5.76476e-15,-4.37326e-14,-31.5717,9.79187,81.2553,39.022,-2.42278,-11.1487,26.4344,7.12502,14.8773,55.8803,-12.9533,-0.62097,24.8978,12.992,-11.0113,-6.74872,19.6024,-51.4363,5.356,-22.631,75.9251,-16.1815,-2.92489,-31.7305
0.138495,18.2427,13.8886,-169.331,-3.26816,178.383,5.15026,0.147437,-2.58727,1.06446,0.0351688,1.82255,-1.79559,0.00776389,3.33055,-15.3407,3.13495,-9.18045,41.7673,2.12543,0.986009,18.0118,-2.15287,1.96612,-3.18055e-15,2.38542e-15,-29.3527,-11.7256,-76.0382,32.712,19.2749,-20.22,2.41051,7.12502,6.12743,-27.4809,-3.18055e-15,2.38542e-15,-31.3902,9.51365,81.2964,39.3377,-2.33892,-11.21,26.4762,7.12502,14.8182,55.9264,-12.4771,-0.476095,24.7917,11.9918,-10.5347,-7.08541,19.7537,-52.7308,5.59356,-22.9717,77.403,-16.7413,-3.15542,-31.8303
0.143594,18.2593,13.8949,-169.305,-3.22125,178.204,5.28379,0.0892531,-2.82477,0.993539,-0.0555063,1.88102,-1.93597,-0.031984,3.53249,-14.9816,3.26226,-9.38721,41.6668,2.33645,0.924533,17.8389,-2.115,2.00504,-5.36719e-15,6.36111e-15,-29.284,-11.0256,-76.0761,32.836,19.0614,-20.3428,2.54628,7.12502,6.00888,-27.3485,-5.36719e-15,6.36111e-15,-31.5096,9.75295,81.3186,39.6906,-2.26439,-11.2913,26.3592,7.12502,14.7399,55.8152,-11.9827,-0.377704,24.5821,10.9173,-10.0096,-7.34984,19.7642,-54.0208,5.76379,-23.4029,78.8,-17.1511,-3.44775,-31.6213
0.14843,18.2746,13.901,-169.274,-3.19358,178.174,5.43029,0.113243,-2.84422,1.00461,-0.0295097,1.88795,-2.00863,-0.0184551,3.54964,-15.0169,3.28074,-9.47494,41.6426,2.41291,0.941925,17.8266,-2.08918,2.04449,1.39149e-15,2.8625e-14,-29.1569,-10.6356,-76.1916,33.0897,18.8232,-20.3574,2.50352,7.12502,5.99473,-27.3917,1.39149e-15,2.8625e-14,-31.6053,9.68221,81.3331,40.2674,-2.14736,-11.227,26.2394,7.12502,14.8018,55.6908,-11.5084,-0.366156,24.5678,9.8133,-9.40871,-7.59071,19.1793,-55.3417,5.89834,-23.6429,80.0771,-17.496,-3.79908,-31.6071
0.14993,18.2905,13.9029,-169.23,-3.15492,178.124,5.48844,0.208174,-2.7693,1.09243,0.09567,1.79991,-1.96074,0.0401696,3.40699,-15.2506,3.19536,-9.49505,41.6598,2.3374,1.01232,17.9034,-2.09914,2.07461,-3.77691e-15,6.36111e-15,-28.9558,-10.5949,-76.3204,33.3111,18.6069,-20.1991,2.33492,7.12502,6.14764,-27.5559,-3.77691e-15,6.36111e-15,-31.4801,9.31922,81.3671,40.8356,-2.0074,-11.1819,26.0606,7.12502,14.8453,55.5088,-11.0137,-0.351325,24.5106,8.6699,-8.8144,-7.871,19.033,-56.614,5.9514,-23.8837,81.193,-17.8849,-4.26971,-31.4111
0.150675,18.3049,13.9062,-169.173,-3.09071,178.097,5.53177,0.222887,-2.7225,1.11861,0.115278,1.79037,-1.95946,0.0486086,3.36931,-15.2776,3.23308,-9.6302,41.6617,2.43849,1.05126,17.9004,-2.0729,2.136,1.19271e-15,1.66979e-14,-28.7649,-10.1656,-76.4504,33.4697,18.3463,-20.0634,2.33604,7.12502,6.27858,-27.5509,1.19271e-15,1.66979e-14,-31.3217,9.24602,81.3799,41.1589,-1.8851,-11.2177,26.0027,7.12502,14.8108,55.4534,-10.4838,-0.305966,24.4714,7.4386,-8.19933,-8.13007,19.2228,-57.8592,6.02957,-24.1056,82.2153,-18.1645,-4.8726,-30.4567
0.151181,18.3131,13.9137,-169.106,-2.93391,178.142,5.64167,0.255482,-2.65826,1.11556,0.158889,1.8111,-2.02737,0.0705321,3.35164,-15.2424,3.3089,-9.73449,41.6471,2.5908,1.04924,17.8684,-2.02778,2.18061,-5.76476e-15,-2.3059e-14,-28.5887,-9.64722,-76.5891,33.6584,18.1764,-20.1402,2.57408,7.12502,6.20447,-27.3151,-5.76476e-15,-2.3059e-14,-31.1484,9.28105,81.379,41.3583,-1.89901,-11.2403,25.8561,7.12502,14.789,55.3084,-9.97961,-0.154806,24.4894,6.15079,-7.52389,-8.39173,19.4421,-59.1265,6.21531,-24.3062,83.1872,-18.3105,-5.23699,-29.8976
0.146868,18.3208,13.918,-169.07,-2.74002,178.086,5.80446,0.345655,-2.61855,1.10403,0.276801,1.73689,-2.13886,0.131184,3.24367,-15.1701,3.34619,-9.70344,41.6396,2.62559,1.05494,17.8414,-2.00605,2.1837,2.38542e-15,1.03368e-14,-28.492,-9.34032,-76.7218,33.8164,18.1252,-20.3072,2.66218,7.12502,6.04325,-27.2316,2.38542e-15,1.03368e-14,-31.104,9.09219,81.3448,41.6578,-1.88366,-11.1214,25.6573,7.12502,14.9036,55.1012,-9.33192,0.00350531,24.3614,4.63522,-6.81924,-8.70858,19.6114,-60.2847,6.3562,-24.6559,84.0521,-18.4837,-5.34993,-30.4567
0.145619,18.331,13.9148,-169.133,-2.62914,178.016,5.98832,0.398456,-2.60307,1.15728,0.339809,1.65804,-2.1909,0.161325,3.14831,-14.9802,3.29787,-9.78629,41.3766,2.57879,1.13358,17.6375,-1.99161,2.22881,9.93923e-16,7.95139e-16,-28.3607,-9.04262,-76.9103,34.0074,18.1563,-20.2645,2.49845,7.12502,6.08441,-27.3942,9.93923e-16,7.95139e-16,-31.0918,8.89645,81.2581,42.0091,-1.83315,-11.1518,25.35,7.12502,14.8743,54.796,-8.3776,0.0772923,24.2705,2.82507,-5.9715,-9.16001,19.1156,-61.2551,6.45629,-24.9698,84.7995,-18.878,-5.61592,-31.0874
0.146397,18.3451,13.9109,-169.187,-2.59458,177.945,6.15078,0.436371,-2.62261,1.21575,0.381229,1.6174,-2.2243,0.180276,3.11384,-14.7683,3.21411,-9.91222,41.1001,2.49039,1.19455,17.4269,-2.0033,2.26486,-1.15295e-14,-2.70347e-14,-28.2096,-8.68059,-77.0594,34.237,18.1356,-20.2023,2.39318,7.12502,6.14446,-27.4977,-1.15295e-14,-2.70347e-14,-31.0538,8.74,81.2124,42.3126,-1.81087,-11.2214,25.0026,7.12502,14.8072,54.4536,-6.89873,0.0799307,24.2087,-1.66979e-14,-4.65034,-9.76825,18.6788,-62.1936,6.4618,-25.226,85.4156,-19.3044,-6.01492,-30.9815
0.148903,18.3566,13.9075,-169.21,-2.56315,177.883,6.28337,0.484541,-2.66665,1.25457,0.436552,1.59554,-2.26254,0.207074,3.11142,-14.9986,3.25368,-9.87083,41.3777,2.53584,1.16602,17.6448,-2.01247,2.25297,-8.15017e-15,-7.95139e-15,-28.1131,-8.33027,-77.1641,34.5028,17.9573,-20.1923,2.39826,7.12502,6.15414,-27.4924,-8.15017e-15,-7.95139e-15,-31.0646,8.65448,81.1765,42.608,-1.95068,-11.1751,24.6325,7.12502,14.8518,54.0802,-6.79994,0.081897,24.1487,1.43125e-14,-4.69857,-9.75727,18.9663,-63.0763,6.42778,-25.4219,85.8778,-19.4404,-6.74472,-29.9828
0.148906,18.3653,13.9038,-169.279,-2.53939,177.886,6.45985,0.517141,-2.63789,1.29601,0.47424,1.62405,-2.32114,0.224169,3.12132,-15.1863,3.32403,-9.87423,41.6108,2.65468,1.1155,17.8225,-1.99898,2.25129,3.37934e-15,2.06736e-14,-27.9545,-7.92212,-77.2002,34.6319,17.8126,-20.1687,2.55829,7.12502,6.17697,-27.3317,3.37934e-15,2.06736e-14,-31.0852,8.68077,81.1697,42.8511,-2.09485,-11.2495,24.2522,7.12502,14.7801,53.7052,-6.63074,0.0834938,24.1424,-7.95139e-15,-4.8226,-9.73946,19.4104,-63.8456,6.37363,-25.5301,86.2332,-19.7092,-7.57284,-30.4663
0.147235,18.3757,13.899,-169.354,-2.4492,177.844,6.63643,0.57989,-2.63449,1.33929,0.550105,1.61789,-2.38057,0.260593,3.10614,-15.0991,3.3091,-9.95026,41.595,2.63355,1.12114,17.7907,-2.01813,2.26209,-1.0138e-14,-3.97569e-15,-27.7864,-7.63158,-77.2476,34.7847,17.7075,-20.1786,2.48793,7.12502,6.16739,-27.4023,-1.0138e-14,-3.97569e-15,-31.0442,8.6045,81.1636,42.9916,-2.18188,-11.233,24.2238,7.12502,14.796,53.6756,-6.51581,0.137334,24.0552,-1.19271e-14,-4.91854,-9.70921,19.6371,-64.565,6.33741,-25.693,86.5071,-20.3439,-8.022,-32.362
0.144033,18.3771,13.8898,-169.382,-2.33899,177.844,6.73567,0.674158,-2.51781,1.36297,0.678183,1.51782,-2.41837,0.323256,2.92483,-15.0387,3.2919,-9.75691,41.6092,2.54856,1.06563,17.7945,-2.0288,2.18671,1.13307e-14,-2.38542e-15,-27.7827,-7.54807,-77.4197,35.0925,17.6339,-20.327,2.30357,7.12502,6.02415,-27.5908,1.13307e-14,-2.38542e-15,-30.9676,8.38915,81.0462,43.0554,-2.22843,-11.0119,24.3284,7.12502,15.0091,53.7644,-6.47957,0.224298,24.0189,-7.95139e-16,-4.99024,-9.65535,19.8851,-65.306,6.26864,-25.7799,86.7641,-20.8851,-8.39195,-33.0366
0.138795,18.3733,13.8774,-169.419,-2.24097,177.787,6.76731,0.717691,-2.50603,1.42532,0.732213,1.46771,-2.37466,0.347284,2.86147,-15.0938,3.32802,-9.72606,41.6283,2.61266,1.06985,17.8151,-1.99535,2.19673,2.38542e-15,-7.95139e-16,-27.6834,-7.27251,-77.555,35.2851,17.5279,-20.5316,2.37886,7.12502,5.8266,-27.521,2.38542e-15,-7.95139e-16,-30.9182,8.33924,81.0005,43.1903,-2.18256,-11.0517,24.673,7.12502,14.9707,54.1119,-6.43399,0.290966,23.9464,2.14687e-14,-4.98366,-9.69361,19.9892,-65.9684,6.14403,-25.9275,86.9393,-21.3444,-8.51159,-32.9748
0.13418,18.373,13.8647,-169.425,-2.15883,177.702,6.76594,0.731191,-2.58314,1.45784,0.743386,1.47086,-2.34212,0.351764,2.9074,-15.0213,3.38496,-9.73862,41.6302,2.71327,0.995198,17.7916,-1.97099,2.18015,-1.07344e-14,-1.11319e-14,-27.5455,-6.88333,-77.5973,35.3499,17.4491,-20.6385,2.67039,7.12502,5.7234,-27.2323,-1.07344e-14,-1.11319e-14,-30.9985,8.42801,80.9745,43.3406,-2.22302,-11.0608,24.8736,7.12502,14.9619,54.3131,-6.42152,0.338884,23.8487,-1.74931e-14,-4.90284,-9.73304,19.4526,-66.6148,6.02249,-26.1211,86.9835,-21.6336,-8.38045,-33.3049
0.131593,18.3765,13.8503,-169.479,-2.04254,177.727,6.80262,0.80523,-2.52262,1.56101,0.838961,1.43892,-2.26149,0.393918,2.83187,-15.0141,3.36807,-9.63539,41.5995,2.6987,0.909084,17.7785,-1.96497,2.12083,6.55989e-15,8.74653e-15,-27.319,-6.76709,-77.6826,35.4645,17.526,-20.5453,2.97825,7.12502,5.81338,-26.922,6.55989e-15,8.74653e-15,-30.9886,8.3712,80.8872,43.4707,-2.30036,-11.0515,24.8378,7.12502,14.9709,54.2767,-6.30047,0.438242,23.8568,2.22639e-14,-4.97049,-9.68164,19.4648,-67.1586,5.96955,-26.1719,86.9279,-21.6406,-8.64109,-33.8715
0.129353,18.3801,13.8352,-169.563,-1.93173,177.844,6.91481,0.913399,-2.34221,1.69134,0.983613,1.39265,-2.19567,0.458708,2.66908,-15.2039,3.30628,-9.52704,41.6414,2.61855,0.912356,17.8621,-1.97236,2.09453,5.56597e-15,1.03368e-14,-27.0856,-6.82015,-77.8029,35.6186,17.5636,-20.4698,2.83673,7.12502,5.88626,-27.0615,5.56597e-15,1.03368e-14,-30.9445,8.17159,80.8054,43.613,-2.39434,-11.0431,24.9515,7.12502,14.979,54.3897,-6.16094,0.549307,23.9722,3.97569e-14,-4.94795,-9.64812,19.5576,-67.6233,5.93098,-26.0543,86.8092,-21.3398,-9.81096,-32.6953
0.126939,18.3791,13.8204,-169.683,-1.81677,177.937,7.0587,1.00106,-2.19973,1.77987,1.09973,1.35287,-2.18853,0.511725,2.5362,-15.3099,3.27234,-9.491,41.6978,2.5409,0.994754,17.9267,-1.98576,2.11543,-6.16232e-15,1.90833e-14,-26.9362,-6.7421,-77.9282,35.771,17.4372,-20.5719,2.55407,7.12502,5.78771,-27.3469,-6.16232e-15,1.90833e-14,-30.9682,8.07133,80.6957,43.6861,-2.53016,-10.9143,25.0639,7.12502,15.1031,54.4929,-5.99792,0.656162,24.0573,-7.15625e-15,-4.92889,-9.64696,19.3739,-67.9427,5.86326,-25.9003,86.6225,-21.1519,-11.035,-30.4471
0.122654,18.3759,13.8064,-169.772,-1.66843,177.804,7.17663,1.03206,-2.35966,1.81976,1.1235,1.34343,-2.21729,0.522657,2.61334,-15.2652,3.29335,-9.60111,41.7161,2.56365,1.05537,17.9193,-1.99076,2.16559,1.92821e-14,1.90833e-14,-26.8333,-6.40941,-77.9743,35.9601,17.2742,-20.7115,2.74173,7.12502,5.65292,-27.1629,1.92821e-14,1.90833e-14,-30.9685,8.34076,80.6271,43.5895,-2.73606,-10.7368,25.2712,7.12502,15.274,54.6872,-5.85391,0.754971,23.8995,1.59028e-14,-4.90905,-9.70087,18.699,-68.1724,5.72312,-26.005,86.3466,-21.2578,-11.6152,-29.628
0.116984,18.3742,13.7911,-169.804,-1.62423,177.646,7.27909,0.97254,-2.54202,1.78735,1.03001,1.37398,-2.30553,0.478823,2.75519,-15.062,3.41616,-9.7155,41.6995,2.73331,1.05199,17.8386,-1.95041,2.20883,-9.14409e-15,3.18055e-15,-26.8128,-6.00314,-78.0117,36.1663,17.1614,-20.6116,2.92627,7.12502,5.74931,-26.9757,-9.14409e-15,3.18055e-15,-31.0223,8.79438,80.5453,43.3754,-2.90255,-10.734,25.491,7.12502,15.2767,54.9069,-5.77486,0.750876,23.7324,4.77083e-15,-4.87562,-9.76161,18.19,-68.422,5.45323,-26.1264,85.9965,-21.2247,-12.1173,-29.121
0.111225,18.3703,13.7716,-169.792,-1.60153,177.632,7.26659,0.976333,-2.53305,1.7727,1.03732,1.3993,-2.3145,0.483061,2.77571,-14.8507,3.4388,-9.78006,41.6634,2.73396,1.0517,17.7597,-1.96355,2.21535,-5.96354e-16,1.19271e-14,-26.7739,-5.88806,-77.991,36.2696,17.1716,-20.5022,2.94163,7.12502,5.85502,-26.9575,-5.96354e-16,1.19271e-14,-31.0664,9.01008,80.5086,43.1956,-3.08965,-10.7904,25.4696,7.12502,15.2224,54.8896,-5.75232,0.755014,23.7143,-9.54166e-15,-4.88985,-9.7805,17.8904,-68.7178,5.18026,-26.0798,85.6187,-20.8028,-12.8402,-27.606
0.105162,18.3624,13.7477,-169.771,-1.49776,177.759,7.15726,1.0213,-2.3999,1.81299,1.10803,1.42151,-2.21481,0.514988,2.7185,-14.8125,3.43607,-9.72775,41.6873,2.68946,1.06057,17.7671,-1.97505,2.20141,7.95139e-16,-1.03368e-14,-26.6423,-5.82988,-78.0091,36.2743,17.2331,-20.5952,3.13223,7.12502,5.7652,-26.7693,7.95139e-16,-1.03368e-14,-31.1445,9.0582,80.445,43.1651,-3.26376,-10.8859,25.4916,7.12502,15.1304,54.9186,-5.74497,0.8663,23.8326,-5.56597e-15,-4.88159,-9.79382,17.4624,-68.9953,4.98415,-25.8872,85.2473,-21.1011,-12.9922,-27.967
0.102428,18.3558,13.725,-169.765,-1.35183,177.89,7.13941,1.06572,-2.31912,1.83247,1.17222,1.44581,-2.1879,0.545294,2.69258,-14.8235,3.46885,-9.63561,41.732,2.70608,1.04565,17.7961,-1.96094,2.18085,0,-1.59028e-15,-26.5067,-5.71668,-78.0721,36.3193,17.1824,-20.5617,3.04225,7.12502,5.79754,-26.8584,0,-1.59028e-15,-31.2453,9.17726,80.3227,43.074,-3.51167,-10.8602,25.4078,7.12502,15.1552,54.8328,-5.70911,1.02026,23.9576,-7.15625e-15,-4.88378,-9.78167,16.7735,-69.1958,4.88344,-25.6955,84.8505,-21.4042,-13.002,-29.5906
0.100529,18.3548,13.7035,-169.766,-1.27583,177.872,7.12057,1.0853,-2.38039,1.87318,1.19209,1.43993,-2.13781,0.553373,2.71978,-14.7618,3.456,-9.62406,41.661,2.67826,1.06291,17.7397,-1.95874,2.18225,-3.37934e-15,5.56597e-15,-26.3144,-5.66035,-78.1539,36.4172,17.0821,-20.4136,2.63527,7.12502,5.94055,-27.2615,-3.37934e-15,5.56597e-15,-31.3055,9.25963,80.2274,42.9705,-3.67379,-10.8451,25.3873,7.12502,15.1698,54.8112,-5.64396,1.07866,23.9501,-1.59028e-15,-4.84851,-9.80788,15.7857,-69.2942,4.72206,-25.6675,84.3789,-21.6199,-12.9091,-30.0574
0.0970666,18.3534,13.679,-169.764,-1.24815,177.843,7.07674,1.07632,-2.47485,1.88581,1.17462,1.47109,-2.10176,0.544174,2.80756,-14.6466,3.45208,-9.71086,41.6469,2.6489,1.09496,17.7005,-1.98376,2.20404,1.05356e-14,1.82882e-14,-26.1844,-5.58403,-78.1963,36.4711,17.0588,-20.4736,2.29897,7.12502,5.88255,-27.5994,1.05356e-14,1.82882e-14,-31.4569,9.36953,80.1717,42.9002,-3.72957,-10.7629,25.5443,7.12502,15.2489,54.9622,-5.59585,1.08626,23.93,-1.59028e-14,-4.76278,-9.83729,15.2715,-69.3554,4.49458,-25.6174,83.8703,-20.3206,-13.4939,-29.9151
0.0940142,18.3507,13.656,-169.764,-1.15496,177.809,7.14358,1.08114,-2.59833,1.83753,1.17325,1.48197,-2.19131,0.546895,2.88746,-14.5334,3.49397,-9.67047,41.6827,2.66374,1.05364,17.6917,-1.98909,2.17592,1.39149e-15,-7.15625e-15,-26.1967,-5.48753,-78.2364,36.4762,17.0632,-20.7412,2.60945,7.12502,5.62418,-27.2959,1.39149e-15,-7.15625e-15,-31.6472,9.42029,80.088,42.7518,-3.79154,-10.7377,25.8274,7.12502,15.2732,55.2436,-5.53868,1.15535,23.8806,4.77083e-15,-4.72363,-9.82094,14.8289,-69.3947,4.30041,-25.5493,83.3591,-20.4082,-13.3767,-26.617
0.0895183,18.3451,13.6307,-169.783,-1.07385,177.882,7.15849,1.09195,-2.55865,1.8633,1.1882,1.48899,-2.17344,0.552635,2.87099,-14.5373,3.47852,-9.5294,41.6162,2.67609,0.890715,17.6627,-1.97631,2.07867,-1.2921e-14,-7.95139e-16,-26.1062,-5.46741,-78.3035,36.4984,17.0921,-20.8116,2.69566,7.12502,5.55629,-27.2115,-1.2921e-14,-7.95139e-16,-31.6795,9.46924,79.9872,42.5656,-3.82553,-10.7823,26.1338,7.12502,15.2302,55.5532,-5.43116,1.23146,23.9468,3.97569e-15,-4.73513,-9.7875,14.5175,-69.3726,4.09995,-25.3454,82.8524,-19.8947,-13.8122,-32.9807
0.0850537,18.3373,13.6045,-169.823,-1.08358,177.943,7.1679,1.06317,-2.51326,1.92532,1.14881,1.51766,-2.11168,0.529029,2.87905,-14.6037,3.45713,-9.51204,41.5117,2.72065,0.808613,17.6209,-1.95085,2.04909,-8.94531e-15,3.97569e-15,-25.9436,-5.4419,-78.3689,36.5319,17.155,-20.7496,2.60311,7.12502,5.61607,-27.3025,-8.94531e-15,3.97569e-15,-31.6639,9.59818,79.9132,42.3573,-3.8944,-10.7628,26.2612,7.12502,15.249,55.6791,-5.26449,1.21402,24.0128,7.15625e-15,-4.88085,-9.73605,15.02,-69.2781,3.84754,-25.1788,82.3045,-19.857,-14.1685,-35.9385
0.0800016,18.3315,13.5773,-169.902,-1.0892,178.003,7.23574,1.0402,-2.45276,1.96096,1.11765,1.52777,-2.10957,0.511161,2.85771,-14.5929,3.44929,-9.56869,41.5213,2.66383,0.940326,17.6208,-1.96576,2.10964,1.98785e-15,2.62396e-14,-25.8189,-5.48565,-78.4601,36.4851,17.2208,-20.7365,2.71872,7.12502,5.62878,-27.1865,1.98785e-15,2.62396e-14,-31.7742,9.76886,79.8047,42.1496,-4.07329,-10.7961,25.9461,7.12502,15.2169,55.3665,-5.06467,1.19709,24.0746,1.59028e-15,-4.98367,-9.69606,15.8058,-69.1201,3.60085,-25.0061,81.775,-19.091,-14.4204,-35.7692
0.0734951,18.3234,13.5465,-169.962,-1.0126,178.009,7.2859,1.06117,-2.45548,1.96965,1.14291,1.51459,-2.13001,0.523462,2.84276,-14.5367,3.44662,-9.56916,41.574,2.58057,1.04343,17.6378,-1.99411,2.14042,-3.18055e-15,-8.74653e-15,-25.8633,-5.41697,-78.5441,36.5879,17.1513,-20.7252,2.72844,7.12502,5.63964,-27.1765,-3.18055e-15,-8.74653e-15,-31.9107,9.8905,79.7027,41.907,-4.3031,-10.7221,25.4662,7.12502,15.2882,54.8811,-4.91189,1.25168,24.0612,0,-5.09924,-9.68175,16.1696,-68.9423,3.4259,-24.9269,81.2574,-18.5552,-14.5746,-33.9945
0.0675649,18.3135,13.5158,-169.944,-0.98412,178.097,7.28192,1.0721,-2.3998,1.96804,1.16179,1.55395,-2.13047,0.532384,2.85042,-14.5208,3.43992,-9.5596,41.5268,2.58486,1.02652,17.6069,-1.98689,2.13236,7.35503e-15,3.97569e-15,-25.9043,-5.32264,-78.5665,36.7372,17.0847,-20.6072,2.65764,7.12502,5.75364,-27.2442,7.35503e-15,3.97569e-15,-31.9644,10.0349,79.6758,41.6261,-4.47941,-10.7643,25.1688,7.12502,15.2475,54.5869,-4.81303,1.27981,24.1419,3.4191e-14,-5.20471,-9.6184,16.2654,-68.8091,3.18545,-24.7217,80.7424,-17.7433,-14.7056,-33.297
0.0618042,18.3031,13.4849,-169.905,-1.04345,178.237,7.26421,1.0851,-2.22887,2.03433,1.18708,1.57062,-2.05093,0.540358,2.76962,-14.7176,3.33964,-9.50864,41.4582,2.51704,0.973539,17.6292,-1.99412,2.09376,-1.43125e-14,-4.77083e-15,-25.768,-5.53478,-78.6161,36.8109,17.1257,-20.5813,2.63608,7.12502,5.77862,-27.2651,-1.43125e-14,-4.77083e-15,-31.9172,10.0131,79.6765,41.4461,-4.57624,-10.7131,25.2541,7.12502,15.2969,54.6684,-4.75279,1.23488,24.3052,-1.51076e-14,-5.18712,-9.60332,15.9215,-68.6694,2.86906,-24.432,80.2126,-16.7546,-14.8153,-31.9395
0.0569483,18.2965,13.4504,-169.93,-1.04647,178.294,7.26799,1.12453,-2.19003,2.08428,1.23867,1.55535,-2.00373,0.563368,2.72752,-14.786,3.24184,-9.43146,41.423,2.37095,0.971024,17.6402,-2.03128,2.05604,-1.39149e-15,-2.94201e-14,-25.7097,-5.73348,-78.7009,36.8557,17.1664,-20.7183,2.51858,7.12502,5.64629,-27.3862,-1.39149e-15,-2.94201e-14,-31.956,9.9162,79.6324,41.2848,-4.60014,-10.6246,25.6677,7.12502,15.3821,55.0755,-5.90757,1.22671,24.3846,2.6169,-6.45097,-9.15412,14.7075,-68.3879,2.59806,-24.2195,79.6667,-15.8114,-14.818,-29.951
0.0503245,18.2917,13.4153,-169.899,-0.884664,178.159,7.27763,1.10589,-2.45651,1.9435,1.20454,1.54831,-2.15733,0.555416,2.87248,-14.4776,3.35379,-9.42502,41.4578,2.41271,1.01028,17.5718,-2.02934,2.07107,-7.95139e-16,-1.03368e-14,-25.9472,-5.35443,-78.7875,36.9337,17.1331,-20.69,2.27673,7.12502,5.67361,-27.6273,-7.95139e-16,-1.03368e-14,-32.2155,10.0203,79.4986,40.9263,-4.53175,-10.6015,25.9196,7.12502,15.4044,55.3257,-6.70244,1.34216,24.1882,4.48909,-7.58782,-8.78719,14.7806,-68.0615,2.36743,-24.2189,79.1025,-14.9489,-14.5022,-30.0702
0.042828,18.2799,13.3831,-169.852,-0.724852,178.056,7.26886,1.07367,-2.7248,1.87749,1.14763,1.59226,-2.22269,0.531895,3.07448,-14.3901,3.46371,-9.4312,41.527,2.54628,0.957763,17.5792,-2.00281,2.06593,-7.55382e-15,-2.14687e-14,-25.9854,-4.90709,-78.8185,36.9261,17.1243,-20.5116,2.32046,7.12502,5.84592,-27.5789,-7.55382e-15,-2.14687e-14,-32.3081,10.3267,79.4458,40.56,-4.5444,-10.6201,25.8769,7.12502,15.3864,55.2843,-7.16796,1.46337,24.0318,5.57741,-8.30229,-8.52424,14.9415,-67.7581,2.15936,-24.1844,78.5603,-14.5493,-14.3121,-28.3484
0.0372968,18.2644,13.3494,-169.848,-0.737778,178.151,7.25688,1.04535,-2.71049,1.90933,1.10955,1.64513,-2.18112,0.510477,3.12517,-14.4075,3.44301,-9.46654,41.4498,2.54033,0.986446,17.5382,-1.99572,2.08635,-1.33186e-14,-1.59028e-14,-25.881,-4.8024,-78.8753,36.8307,17.128,-20.446,2.66595,7.12502,5.90919,-27.2316,-1.33186e-14,-1.59028e-14,-32.3447,10.5155,79.404,40.304,-4.58078,-10.4899,25.772,7.12502,15.5119,55.1698,-7.47017,1.45506,24.1518,6.37563,-8.73563,-8.38433,14.5598,-67.4438,1.93483,-23.959,78.0988,-14.1467,-14.1843,-28.1058
0.0305407,18.2558,13.3087,-169.864,-0.675231,178.272,7.23896,1.07928,-2.63095,1.90217,1.16138,1.65697,-2.18113,0.536173,3.08786,-14.3675,3.38083,-9.51755,41.3901,2.41969,1.10053,17.4975,-2.02877,2.12742,-1.09332e-14,6.36111e-15,-25.979,-4.79633,-78.9583,36.8625,17.0432,-20.5451,2.77182,7.12502,5.8136,-27.1284,-1.09332e-14,6.36111e-15,-32.4928,10.5489,79.3442,40.094,-4.68237,-10.3863,25.7221,7.12502,15.6116,55.1121,-7.63077,1.52022,24.2614,7.06678,-9.23879,-8.1829,15.0239,-67.0729,1.78157,-23.7593,77.7039,-14.1238,-14.118,-22.9957
