JuanDHNZ/ProyectoFinalCD/preprocessing/sports_trials_csv/14_22.csv
root1,root2,root3,root4,root5,root6,lowerback1,lowerback2,lowerback3,upperback1,upperback2,upperback3,thorax1,thorax2,thorax3,lowerneck1,lowerneck2,lowerneck3,upperneck1,upperneck2,upperneck3,head1,head2,head3,rclavicle1,rclavicle2,rhumerus1,rhumerus2,rhumerus3,rradius1,rwrist1,rhand1,rhand2,rfingers1,rthumb1,rthumb2,lclavicle1,lclavicle2,lhumerus1,lhumerus2,lhumerus3,lradius1,lwrist1,lhand1,lhand2,lfingers1,lthumb1,lthumb2,rfemur1,rfemur2,rfemur3,rtibia1,rfoot1,rfoot2,rtoes1,lfemur1,lfemur2,lfemur3,ltibia1,lfoot1,lfoot2,ltoes1
0.666036,17.6627,13.9334,-175.568,-38.1945,-179.626,4.63086,2.78503,0.130016,-0.848095,3.7655,2.0178,-3.5966,1.87999,1.71603,-18.407,9.49077,-5.26602,31.7633,13.1247,4.85551,12.9192,5.43784,4.73873,6.38099e-14,3.97569e-14,-38.0986,-10.172,-76.0017,33.7805,20.0917,-16.2237,4.07408,7.12502,9.98433,-25.6691,6.38099e-14,3.97569e-14,-29.1386,12.1839,83.8211,25.7124,-6.39683,-14.0385,26.3571,7.12502,12.092,55.9877,-18.3795,-4.11112,23.2105,35.4718,-22.6372,-7.0433,18.1824,-17.0198,2.61966,-22.2564,38.2907,-14.2198,13.829,-16.4528
0.674417,17.6818,13.9305,-175.704,-37.8765,-179.439,4.8498,2.79746,0.272697,-0.880101,3.79379,2.05451,-3.7472,1.89038,1.66023,-18.357,9.0008,-5.46191,32.2957,12.3835,4.98317,13.1554,5.05127,4.74484,-2.41523e-14,-1.35174e-14,-38.117,-10.13,-75.8845,33.7781,20.1999,-16.1737,3.91393,7.12502,10.0326,-25.8269,-2.41523e-14,-1.35174e-14,-29.1713,11.4148,84.3067,26.218,-5.18894,-14.1913,26.6602,7.12502,11.9447,56.2994,-18.3641,-4.19124,23.4461,35.4114,-22.4585,-7.94882,11.8051,-17.6756,2.44265,-21.9913,39.5182,-13.8002,13.7514,-16.4229
0.682358,17.6849,13.928,-175.804,-37.5848,-179.394,5.03267,2.76019,0.259146,-0.826399,3.74528,2.12078,-3.79862,1.86608,1.73253,-18.8104,8.47933,-6.00141,33.1964,11.6859,5.30257,13.6179,4.63923,4.94134,-5.14355e-14,-3.81667e-14,-37.8482,-9.95799,-75.7565,33.5456,20.2875,-16.245,3.88007,7.12502,9.96381,-25.8641,-5.14355e-14,-3.81667e-14,-29.1448,11.0671,84.6765,26.6577,-4.42197,-15.1131,28.113,7.12502,11.0556,57.8018,-18.1135,-4.14373,23.4949,35.0915,-22.3463,-8.10047,11.2162,-18.296,2.10692,-21.8154,40.8155,-13.4456,13.6271,-15.3562
0.689089,17.702,13.9218,-175.922,-37.2549,-179.454,5.22943,2.70965,0.101727,-0.699183,3.66898,2.2051,-3.79097,1.831,1.90768,-19.1273,7.95797,-6.43773,33.875,11.0333,5.35352,14.0015,4.23489,5.00131,1.69961e-14,1.82882e-14,-37.5398,-9.72779,-75.6443,33.401,20.3606,-16.565,3.98379,7.12502,9.65504,-25.7749,1.69961e-14,1.82882e-14,-29.1022,11.5943,84.6417,26.7343,-5.01258,-14.9905,27.5028,7.12502,11.174,57.1853,-17.8906,-3.98268,23.4466,34.8548,-21.8373,-8.16836,11.8157,-18.7435,1.66054,-21.6956,41.9902,-12.6954,13.4766,-12.9122
0.693368,17.7007,13.9183,-176.077,-36.8524,-179.359,5.3672,2.68827,0.107802,-0.601938,3.64032,2.2752,-3.7711,1.81558,1.97518,-18.9709,7.46419,-6.49157,34.126,10.3713,5.02836,14.1609,3.85348,4.78955,-9.44227e-16,1.90833e-14,-37.3414,-9.55242,-75.5439,33.4533,20.3436,-16.6612,4.12552,7.12502,9.56226,-25.6375,-9.44227e-16,1.90833e-14,-29.0939,12.1516,84.5331,26.7859,-5.41133,-14.3037,26.3594,7.12502,11.8362,56.0049,-17.6624,-3.72076,23.5338,34.4947,-21.3948,-7.53383,16.8996,-19.3286,1.32179,-21.4925,43.2465,-11.6835,13.3752,-10.3369
0.694871,17.7187,13.9142,-176.199,-36.3901,-179.174,5.41731,2.68162,0.232926,-0.535061,3.63752,2.31493,-3.72468,1.8104,1.946,-18.8513,6.94977,-6.58329,34.4454,9.63404,4.85146,14.3492,3.45206,4.634,-4.75592e-14,7.95139e-16,-37.0787,-9.60909,-75.4259,33.3932,20.3262,-16.3807,4.28744,7.12502,9.83288,-25.463,-4.75592e-14,7.95139e-16,-29.2522,11.8932,84.6133,27.2418,-4.75222,-14.1918,26.3987,7.12502,11.9442,56.038,-17.5404,-3.46471,23.7154,34.2465,-20.9835,-7.86393,13.9958,-19.9252,1.10333,-21.2398,44.3412,-11.0123,13.2529,-9.84086
0.695497,17.7018,13.9099,-176.3,-35.8971,-179.108,5.50311,2.694,0.277346,-0.476085,3.6557,2.305,-3.70902,1.81769,1.9068,-18.7798,6.4221,-6.84772,34.9316,8.8382,4.91638,14.6013,3.02493,4.6034,7.76254e-14,6.36111e-15,-36.8527,-9.74952,-75.3057,33.275,20.2782,-16.3784,4.30918,7.12502,9.83508,-25.4411,7.76254e-14,6.36111e-15,-29.641,11.2387,84.66,27.8957,-3.9524,-14.3033,27.0297,7.12502,11.8367,56.6751,-17.4477,-3.23145,23.7327,34.0712,-20.8447,-7.04466,17.9416,-20.516,0.890961,-21.0884,45.4111,-10.6597,13.0761,-11.0044
0.693271,17.6937,13.9081,-176.353,-35.3711,-179.146,5.60685,2.70086,0.271206,-0.41386,3.66358,2.29222,-3.7027,1.82099,1.893,-18.5496,5.9268,-7.16437,35.2855,8.11726,4.89693,14.76,2.62067,4.53986,1.61016e-13,-2.22639e-14,-36.7139,-9.88596,-75.1604,33.3114,20.3425,-18.0208,4.29483,7.12502,8.25025,-25.5241,1.61016e-13,-2.22639e-14,-29.9553,11.2367,84.6265,28.3104,-3.662,-14.4131,27.2296,7.12502,11.7307,56.8811,-17.4343,-3.12948,23.6719,34.1246,-20.6979,-6.53537,18.4409,-20.982,0.691792,-21.0436,46.2061,-10.3608,12.7409,-11.9286
0.690074,17.693,13.9092,-176.274,-34.7801,-179.32,5.64074,2.68302,0.120471,-0.313812,3.62734,2.27177,-3.62498,1.80538,1.96023,-18.4574,5.44896,-7.51254,35.6393,7.47572,4.80211,14.9524,2.23521,4.46927,1.01579e-13,-1.43125e-14,-36.4454,-10.0255,-75.02,33.3784,20.7723,-20.0018,4.30378,7.12502,6.33812,-25.5814,1.01579e-13,-1.43125e-14,-30.0319,11.5313,84.66,28.6122,-3.2803,-14.8294,27.0138,7.12502,11.3293,56.6878,-17.4229,-3.03926,23.4992,34.0787,-20.3821,-6.25587,17.8226,-21.4246,0.467669,-21.113,46.8056,-10.4967,12.0276,-14.4365
0.683019,17.7098,13.9073,-176.183,-34.2014,-179.433,5.56228,2.64573,-0.0245742,-0.186573,3.5635,2.27252,-3.45585,1.77536,2.05457,-18.4687,4.99526,-7.7725,36.043,6.86714,4.64718,15.2027,1.86289,4.36961,2.79292e-14,-6.36111e-15,-36.0037,-10.2223,-74.9116,33.27,21.0662,-20.2398,4.03599,7.12502,6.10834,-25.8559,2.79292e-14,-6.36111e-15,-29.986,11.698,84.7338,28.861,-2.80501,-15.3524,27.5848,7.12502,10.8248,57.2858,-17.4123,-2.97942,23.4092,34.0723,-20.1777,-6.54398,12.4709,-21.764,0.204159,-21.1216,47.0795,-11.045,10.7765,-18.6351
0.670848,17.7307,13.9019,-176.165,-33.581,-179.379,5.40075,2.63258,0.0160983,-0.0812931,3.54259,2.25929,-3.25208,1.76291,2.03018,-18.3777,4.53928,-7.94479,36.4936,6.17589,4.53122,15.4648,1.46726,4.25125,-2.39536e-14,-7.95139e-15,-35.6533,-10.2535,-74.9787,33.1628,20.4664,-19.3243,3.55103,7.12502,6.99212,-26.3135,-2.39536e-14,-7.95139e-15,-30.0214,11.8632,84.6514,29.0071,-2.82804,-15.0246,27.9762,7.12502,11.141,57.6604,-17.41,-2.57821,23.4098,34.0317,-20.1885,-6.46011,11.4555,-22.0207,-0.100727,-20.9607,47.1427,-11.584,9.39341,-19.757
0.659399,17.739,13.8992,-176.204,-32.902,-179.346,5.42468,2.63403,0.0291962,-0.0351188,3.54352,2.25787,-3.21693,1.76236,2.02142,-18.1427,4.02891,-8.12696,36.9261,5.43971,4.22353,15.704,1.01964,4.0327,7.09661e-14,1.19271e-14,-35.633,-10.3017,-74.9765,33.5207,19.8568,-17.6149,3.00206,7.12502,8.64193,-26.8011,7.09661e-14,1.19271e-14,-30.1731,12.3503,84.5218,29.1133,-3.30508,-14.2627,27.7839,7.12502,11.8758,57.4271,-17.3756,-2.13613,23.3876,33.9712,-19.9741,-6.34826,11.0154,-22.1788,-0.425461,-20.8091,47.0106,-11.9745,8.13738,-19.9471
0.647961,17.7314,13.902,-176.15,-32.1859,-179.428,5.51113,2.6492,-0.0216783,-0.0132709,3.56039,2.21582,-3.24388,1.77136,2.00155,-17.9962,3.51007,-8.32381,37.4133,4.68931,3.929,15.9949,0.562349,3.82015,3.17062e-14,5.56597e-15,-35.7798,-10.6993,-74.8173,34.1941,20.0422,-16.4325,2.64112,7.12502,9.78287,-27.1116,3.17062e-14,5.56597e-15,-30.2577,12.6644,84.4777,29.156,-3.38063,-14.1578,27.2813,7.12502,11.9769,56.9187,-17.4054,-1.8746,23.2609,33.8896,-19.668,-6.03087,10.6462,-22.3943,-0.807885,-20.7575,46.7516,-12.4281,6.934,-21.512
0.633724,17.7333,13.9024,-176.035,-31.4383,-179.633,5.55436,2.63453,-0.209429,0.0485503,3.52773,2.18345,-3.21238,1.75778,2.07539,-18.0111,3.05081,-8.71762,37.9417,4.05243,3.80677,16.3272,0.149149,3.73808,-1.52269e-13,-7.15625e-15,-35.5161,-10.785,-74.7081,34.3091,20.238,-16.5053,2.6986,7.12502,9.71263,-27.0575,-1.52269e-13,-7.15625e-15,-30.4789,12.7946,84.4608,29.2888,-3.13304,-14.2796,26.725,7.12502,11.8595,56.3691,-17.4814,-1.52858,22.9906,33.9576,-19.5511,-5.61641,11.6321,-22.5094,-1.28052,-20.8064,46.3505,-12.975,5.78983,-22.4676
0.614059,17.7381,13.8944,-175.87,-30.7069,-179.971,5.48353,2.59394,-0.51736,0.111932,3.45287,2.10815,-3.11778,1.72539,2.18101,-17.9282,2.67417,-9.05872,38.3625,3.51113,3.68627,16.5792,-0.20691,3.65331,1.18973e-13,4.77083e-15,-34.9693,-10.4047,-74.7847,33.9524,19.9343,-16.6021,2.68181,7.12502,9.61928,-27.0786,1.18973e-13,4.77083e-15,-30.827,12.7744,84.384,29.4618,-2.78621,-14.311,25.9316,7.12502,11.8292,55.5774,-17.5189,-1.30601,22.5791,34.0581,-19.3044,-5.13343,12.3913,-22.479,-1.87939,-20.9836,45.8624,-13.5857,4.74345,-22.7933
0.593867,17.7376,13.885,-175.705,-30.017,-180.318,5.42201,2.54874,-0.835611,0.139355,3.37286,2.00864,-3.06385,1.69091,2.26648,-17.6055,2.32471,-9.23038,38.5645,3.00437,3.36677,16.6675,-0.534511,3.43977,3.19049e-14,1.82882e-14,-34.5764,-10.1745,-74.8456,33.7392,19.4759,-16.593,2.83331,7.12502,9.628,-26.9267,3.19049e-14,1.82882e-14,-31.1029,12.9129,84.2851,29.5126,-2.68357,-14.3627,25.4125,7.12502,11.7794,55.0612,-17.535,-1.17347,22.186,34.1252,-19.0809,-4.76935,11.7924,-22.4109,-2.55715,-21.1586,45.2732,-14.2176,3.47185,-23.5262
0.578063,17.7361,13.8833,-175.633,-29.1711,-180.114,5.25772,2.54205,-0.694989,0.136681,3.37166,2.01512,-2.96661,1.68761,2.20186,-17.3321,2.01338,-9.32513,38.6939,2.53822,3.072,16.7244,-0.819764,3.23055,-4.94974e-14,1.59028e-14,-34.4069,-10.2844,-74.8848,33.985,19.2636,-16.7626,3.18857,7.12502,9.4644,-26.5789,-4.94974e-14,1.59028e-14,-31.242,13.133,84.1752,29.5219,-2.78477,-14.228,25.3359,7.12502,11.9093,54.9771,-17.8241,-0.783676,22.3245,34.206,-18.8874,-4.50584,10.9418,-22.6026,-3.00864,-20.7765,44.5999,-14.8086,1.78233,-23.9166
0.559234,17.7378,13.8832,-175.348,-28.177,-179.919,4.8439,2.5786,-0.572541,0.115904,3.42678,2.02756,-2.75209,1.713,2.16001,-17.2607,1.67767,-9.56865,38.9109,2.04728,2.94686,16.8736,-1.1167,3.12517,1.78906e-15,-5.56597e-15,-34.1847,-10.4633,-74.8963,34.2708,19.5348,-17.0125,3.25374,7.12502,9.22329,-26.5245,1.78906e-15,-5.56597e-15,-31.5081,13.1347,84.1236,29.6906,-2.72478,-14.1772,25.3399,7.12502,11.9583,54.9783,-18.366,-0.420579,22.4173,34.2882,-18.5855,-4.05906,10.0758,-22.9599,-3.3873,-20.398,43.8057,-15.5407,0.430719,-24.672
0.533357,17.7336,13.8818,-175.03,-27.3596,-180.117,4.63326,2.5601,-0.698768,0.0733163,3.39672,1.96042,-2.67982,1.70083,2.1721,-17.2279,1.33319,-9.9859,39.186,1.56485,2.9081,17.063,-1.42991,3.09042,-2.37548e-14,-1.27222e-14,-33.9769,-10.466,-74.8856,34.414,19.88,-17.1928,3.09264,7.12502,9.04927,-26.6932,-2.37548e-14,-1.27222e-14,-31.9504,13.014,84.1042,29.927,-2.5648,-14.2303,25.3415,7.12502,11.9071,54.9829,-18.625,-0.164115,22.1067,34.2165,-18.2481,-3.68702,10.2678,-23.1229,-4.05086,-20.4208,42.9982,-16.1668,-0.538799,-25.6441
0.505472,17.7322,13.8773,-174.985,-26.7895,-180.158,4.63761,2.42556,-0.675614,0.0663933,3.21842,1.99486,-2.68208,1.61145,2.20732,-17.0418,1.12551,-10.3166,39.2558,1.33768,2.68992,17.0841,-1.63334,2.99857,-6.49032e-14,9.54166e-15,-33.7157,-10.087,-74.9077,34.4994,19.8356,-17.5199,2.92809,7.12502,8.73366,-26.8712,-6.49032e-14,9.54166e-15,-32.1515,13.4235,84.0619,29.763,-2.66479,-14.244,25.3066,7.12502,11.8938,54.9488,-18.6424,-0.0424391,21.9793,34.1615,-17.9623,-3.41147,10.6867,-23.0089,-4.91496,-20.2637,42.005,-16.3189,-1.95122,-24.9711
0.477999,17.7005,13.8687,-175.168,-26.1736,-180.098,4.66471,2.31227,-0.600433,0.200955,3.0665,2.02716,-2.54954,1.53174,2.21162,-16.7744,1.00147,-10.3031,39.1281,1.19936,2.31927,16.9715,-1.74771,2.79178,7.46436e-14,-2.54444e-14,-33.2532,-9.68489,-75.05,34.4585,19.5935,-17.8792,2.82496,7.12502,8.3869,-26.9885,7.46436e-14,-2.54444e-14,-32.2107,13.9873,83.8937,29.483,-3.01049,-13.9986,25.0801,7.12502,12.1305,54.7085,-18.4387,0.0194094,21.949,34.1929,-17.7809,-2.44613,13.3187,-22.6115,-5.67259,-20.015,40.8284,-16.4861,-3.36658,-23.9012
0.451841,17.6903,13.8564,-175.467,-25.5664,-180.143,4.9099,2.23497,-0.630079,0.31507,2.95805,1.99596,-2.56435,1.47604,2.19684,-16.3451,0.893263,-10.1056,38.957,1.00512,1.9123,16.7989,-1.86132,2.52609,5.30755e-14,2.38542e-15,-32.8712,-9.52561,-75.146,34.3032,19.4412,-17.9934,2.92367,7.12502,8.27669,-26.8942,5.30755e-14,2.38542e-15,-32.544,14.0273,83.7533,29.4556,-3.13092,-13.8097,24.9765,7.12502,12.3126,54.594,-18.0762,0.07509,21.8273,34.2854,-17.7441,-2.00756,13.7492,-21.9495,-6.4744,-19.8659,39.4553,-16.7277,-4.42739,-23.5082
0.424028,17.7032,13.8439,-175.515,-24.9294,-180.375,5.08113,2.15882,-0.805019,0.317272,2.84701,1.91474,-2.65744,1.4236,2.21301,-15.9949,0.802111,-10.0739,38.9014,0.820438,1.68744,16.7025,-1.98148,2.37668,-2.29596e-14,3.18055e-15,-32.6567,-9.33181,-75.2228,34.3108,19.2155,-17.9623,2.97159,7.12502,8.30669,-26.8451,-2.29596e-14,3.18055e-15,-33.0273,13.8135,83.6775,29.5189,-2.97566,-13.6767,25.0448,7.12502,12.4408,54.6545,-17.9515,0.273459,21.5158,34.3897,-17.8215,-2.18063,10.4825,-21.4437,-7.32419,-19.9007,38.0196,-16.6462,-5.29422,-22.9331
0.394685,17.719,13.8314,-175.43,-24.2293,-180.426,4.98043,2.05747,-0.859014,0.311737,2.70933,1.91984,-2.60314,1.3556,2.26253,-15.9463,0.744877,-10.1894,38.9497,0.741561,1.59133,16.726,-2.06554,2.33412,5.47652e-14,-7.95139e-16,-32.4613,-8.87566,-75.3307,34.5337,18.9917,-17.9226,2.76628,7.12502,8.34499,-27.0489,5.47652e-14,-7.95139e-16,-33.5161,13.7542,83.6255,29.6005,-2.7579,-13.5703,25.2447,7.12502,12.5434,54.8482,-18.1053,0.58704,21.3473,34.5944,-17.9503,-1.985,9.4415,-20.9845,-7.99879,-19.7935,36.4889,-16.4018,-5.98663,-22.5069
0.364982,17.7255,13.8216,-175.411,-23.4139,-180.323,4.87447,2.02132,-0.785396,0.328349,2.66426,1.96901,-2.52352,1.33117,2.27938,-15.908,0.692945,-10.3085,38.9123,0.67069,1.56645,16.7039,-2.12457,2.32715,4.87022e-14,3.4191e-14,-32.2862,-8.64353,-75.349,34.8594,18.9307,-17.7582,2.54302,7.12502,8.50368,-27.2658,4.87022e-14,3.4191e-14,-33.7584,13.993,83.5294,29.3615,-2.92892,-13.3491,25.2488,7.12502,12.7566,54.8391,-18.1949,1.09308,21.2677,34.7276,-18.0099,-1.33721,11.5865,-20.5031,-8.68478,-19.5409,35.0253,-15.3983,-6.46281,-19.7496
0.332659,17.7273,13.8138,-175.336,-22.6167,-180.45,4.72237,1.98536,-0.912877,0.429365,2.60705,1.96656,-2.33724,1.30172,2.35965,-15.9424,0.626962,-10.446,38.8366,0.605864,1.56036,16.6791,-2.17333,2.33464,-5.94366e-14,-2.78299e-14,-31.9874,-8.42278,-75.377,35.2743,18.7141,-17.5185,2.46563,7.12502,8.73503,-27.3336,-5.94366e-14,-2.78299e-14,-33.7507,14.1613,83.5501,28.941,-3.07979,-13.4703,25.1566,7.12502,12.6398,54.7541,-18.2458,1.28226,21.0144,34.6833,-17.7444,-0.910254,11.0784,-20.0879,-9.376,-19.5342,33.7464,-13.8787,-6.65611,-15.3659
0.302156,17.7306,13.8034,-175.242,-21.8649,-180.532,4.47598,1.91287,-1.05704,0.546463,2.50086,1.99225,-2.08096,1.24679,2.48472,-16.0965,0.594303,-10.6166,38.818,0.608431,1.59254,16.7084,-2.19713,2.37816,2.59414e-14,1.59028e-15,-31.6238,-8.00662,-75.4847,35.6195,18.3069,-17.6412,2.84678,7.12502,8.61665,-26.9574,2.59414e-14,1.59028e-15,-33.8236,14.2028,83.5828,28.599,-3.24523,-13.6784,25.1439,7.12502,12.4392,54.7537,-18.2644,1.4471,20.8126,34.5845,-17.5294,-0.369211,10.8006,-19.777,-9.86355,-19.4869,32.5435,-13.4031,-6.58119,-12.069
0.271147,17.7408,13.7931,-175.145,-21.0994,-180.476,4.31657,1.86779,-1.04817,0.511397,2.44278,2.00976,-2.02515,1.21798,2.50608,-16.0781,0.616218,-10.5968,38.8224,0.609364,1.55631,16.7059,-2.21112,2.35495,-1.50082e-14,-3.02153e-14,-31.5138,-7.75048,-75.5508,35.9112,18.0721,-17.6432,3.10478,7.12502,8.61465,-26.6995,-1.50082e-14,-3.02153e-14,-34.0227,14.4566,83.4282,28.1561,-3.77122,-13.5514,25.2642,7.12502,12.5616,54.8665,-18.3638,1.70205,20.7412,34.5406,-17.3981,0.137559,10.804,-19.5316,-10.3407,-19.267,31.3218,-14.3771,-6.3075,-12.4735
0.240019,17.7429,13.7858,-175.048,-20.344,-180.486,4.29439,1.84153,-1.0829,0.387022,2.41012,2.02068,-2.14085,1.20502,2.53738,-15.8651,0.662351,-10.5995,38.8328,0.586758,1.5625,16.6582,-2.23923,2.34782,2.11706e-14,3.65764e-14,-31.59,-7.61231,-75.4938,36.2638,18.1792,-17.2638,2.44647,7.12502,8.9808,-27.3424,2.11706e-14,3.65764e-14,-34.1887,14.7552,83.3053,27.5913,-4.25193,-13.4179,25.6551,7.12502,12.6903,55.2496,-18.4185,1.92952,20.6023,34.3615,-17.1635,0.500908,10.3557,-19.3661,-10.8012,-19.1561,30.4866,-13.8404,-6.32677,-9.43165
0.209694,17.7352,13.7781,-174.992,-19.5769,-180.524,4.33587,1.80064,-1.14672,0.28286,2.35559,2.01559,-2.27074,1.18127,2.56844,-15.727,0.750891,-10.5884,38.8506,0.628509,1.61069,16.6262,-2.23142,2.36965,1.88845e-14,-1.98785e-14,-31.6589,-7.4581,-75.4812,36.573,18.2982,-17.2809,2.06897,7.12502,8.96425,-27.7206,1.88845e-14,-1.98785e-14,-34.3718,14.8822,83.209,27.0834,-4.49637,-13.3354,26.1247,7.12502,12.7698,55.7141,-18.4347,2.12018,20.4525,34.1922,-16.7438,0.907547,10.187,-19.1974,-10.9358,-19.1715,29.8621,-13.1356,-5.99837,-8.10837
0.18063,17.7026,13.7693,-175.05,-18.796,-180.375,4.33301,1.74485,-1.09586,0.249905,2.2837,2.10039,-2.30068,1.14484,2.6317,-15.6746,0.853628,-10.5941,38.8111,0.752812,1.60823,16.5797,-2.19044,2.38785,-7.65321e-15,-1.51076e-14,-31.5903,-7.11872,-75.5274,36.8688,17.8303,-17.3929,2.12276,7.12502,8.85622,-27.6714,-7.65321e-15,-1.51076e-14,-34.5849,15.1569,83.0692,26.6024,-4.80989,-13.3788,26.1661,7.12502,12.728,55.7582,-18.3666,2.44578,20.4899,34.1136,-16.3158,1.84901,13.1617,-18.8363,-10.4752,-19.1859,29.3709,-11.9132,-4.74001,-5.38826
0.148893,17.7005,13.7578,-175.134,-18.0189,-180.288,4.29586,1.68827,-1.10557,0.278381,2.20639,2.17092,-2.24952,1.1049,2.71661,-15.6608,0.922629,-10.5447,38.7425,0.830798,1.5849,16.5321,-2.15788,2.37977,4.79071e-14,-6.36111e-15,-31.3305,-6.73889,-75.6102,37.0665,16.9105,-17.5657,2.42597,7.12502,8.68944,-27.3752,4.79071e-14,-6.36111e-15,-34.7511,15.4815,82.9158,26.1472,-5.18788,-13.2383,26.2967,7.12502,12.8635,55.8803,-18.324,2.77911,20.4376,34.1123,-16.1337,2.37024,14.3693,-18.3927,-10.0789,-19.277,29.0163,-12.2419,-4.48963,-5.4235
0.116285,17.7297,13.7488,-175.05,-17.3292,-180.4,4.222,1.63146,-1.19895,0.261901,2.12761,2.12921,-2.22244,1.06717,2.73293,-15.7926,0.957914,-10.5764,38.8225,0.818744,1.75486,16.603,-2.15787,2.45778,1.41137e-14,-3.4191e-14,-31.0848,-6.67491,-75.6792,37.1193,16.5888,-18.0574,2.8827,7.12502,8.21494,-26.9376,1.41137e-14,-3.4191e-14,-34.9393,15.25,82.9177,25.9392,-5.14206,-12.9823,26.7473,7.12502,13.1102,56.3152,-18.4517,3.16028,20.1048,34.1142,-16.2038,2.52557,14.0991,-17.8943,-9.58517,-19.6286,28.87,-13.2293,-4.60866,-6.65444
0.0865263,17.738,13.7446,-174.904,-16.7518,-180.466,4.15023,1.54809,-1.32316,0.184897,2.01358,2.16397,-2.26052,1.01338,2.84682,-15.8833,1.04959,-10.6364,38.9341,0.922319,1.82883,16.6729,-2.13487,2.51728,6.53008e-14,-2.22639e-14,-31.1149,-6.79751,-75.561,37.4299,16.7709,-18.3307,3.2437,7.12502,7.95121,-26.5867,6.53008e-14,-2.22639e-14,-35.0872,15.2954,82.9032,25.5155,-5.37923,-12.8882,26.9592,7.12502,13.2009,56.5212,-18.6602,3.1226,19.9845,34.1977,-16.2295,2.51855,11.1456,-17.661,-9.11343,-19.9131,28.5952,-13.3992,-4.71721,-6.08782
0.059922,17.7338,13.7415,-174.881,-16.2046,-180.435,4.19096,1.42325,-1.41764,0.121285,1.84394,2.23991,-2.34425,0.931274,2.98774,-15.9281,1.17924,-10.5565,39.0135,1.08031,1.76825,16.7121,-2.08737,2.50065,4.47266e-15,-4.92986e-14,-31.3367,-6.92967,-75.4606,37.9565,17.0143,-18.4325,3.3221,7.12502,7.85287,-26.5121,4.47266e-15,-4.92986e-14,-35.022,15.8685,82.6549,24.6607,-6.07949,-12.8688,26.9805,7.12502,13.2197,56.5413,-18.7634,3.58636,19.8402,34.2981,-16.203,2.8957,13.4447,-17.3269,-8.64749,-20.1009,28.2351,-13.4554,-4.23656,-7.26543
0.0329357,17.7355,13.7359,-174.882,-15.7142,-180.472,4.24386,1.29153,-1.54585,0.0710875,1.66344,2.26566,-2.4187,0.844399,3.09683,-16.0109,1.29983,-10.5556,39.1693,1.16389,1.91927,16.8025,-2.05875,2.58057,2.73329e-14,-1.74931e-14,-31.4649,-6.99864,-75.4115,38.2659,17.1826,-18.5845,3.15565,7.12502,7.70619,-26.6839,2.73329e-14,-1.74931e-14,-35.1445,16.1964,82.3847,24.096,-6.57367,-12.6075,27.1895,7.12502,13.4715,56.7338,-18.8011,3.80341,19.6834,34.3782,-16.1802,3.18692,13.6516,-16.9985,-8.24933,-20.3499,27.8513,-13.3764,-3.39257,-8.76965
0.00718503,17.745,13.731,-174.816,-15.3213,-180.649,4.26904,1.12792,-1.83015,0.00784827,1.4342,2.27285,-2.49019,0.736165,3.27892,-16.0758,1.4272,-10.5974,39.3007,1.27014,2.07936,16.8732,-2.0239,2.67642,1.83876e-14,3.57812e-14,-31.2223,-6.97683,-75.3691,38.1746,17.168,-18.7623,3.0067,7.12502,7.53464,-26.8391,1.83876e-14,3.57812e-14,-35.4013,16.5459,82.0854,23.7333,-7.12928,-12.0627,27.3419,7.12502,13.9966,56.8507,-18.8485,4.00777,19.3956,34.5196,-16.286,3.19614,12.9095,-16.7296,-7.8907,-20.6998,27.3004,-12.9885,-3.18908,-8.58806
-0.0193156,17.7418,13.7267,-174.744,-15.0528,-180.753,4.22376,0.913927,-2.02912,-0.0222416,1.14101,2.319,-2.47988,0.593012,3.45907,-16.1368,1.51406,-10.6098,39.3133,1.39098,2.07748,16.883,-1.98801,2.69686,-2.15681e-14,-7.15625e-15,-31.358,-7.03253,-75.3111,38.887,17.1404,-18.7997,2.96535,7.12502,7.49845,-26.8817,-2.15681e-14,-7.15625e-15,-35.2822,17.1358,81.7871,23.0305,-7.8339,-11.9121,27.5234,7.12502,14.1417,57.0221,-18.8054,4.20855,19.1703,34.5954,-16.4352,3.19804,12.809,-16.5592,-7.5906,-20.9057,26.857,-12.6874,-3.60129,-9.29387
-0.0460533,17.7353,13.7189,-174.689,-14.7504,-180.902,4.18622,0.746081,-2.25664,-0.0164066,0.907641,2.3134,-2.4387,0.479261,3.59753,-16.2859,1.55659,-10.587,39.3208,1.44474,2.11794,16.9178,-1.96211,2.72097,-4.77083e-15,-3.33958e-14,-31.4925,-7.24127,-75.2494,39.2755,17.0588,-18.9392,3.13299,7.12502,7.3638,-26.7189,-4.77083e-15,-3.33958e-14,-35.1282,17.4859,81.526,22.3723,-8.3866,-12.0066,27.6779,7.12502,14.0506,57.183,-18.8554,4.28229,18.9132,34.5728,-16.3817,3.26254,12.3048,-16.4147,-7.36381,-21.1391,26.7385,-12.6322,-3.79426,-9.84758
-0.0715228,17.7632,13.7127,-174.65,-14.4086,-181.081,4.20747,0.595045,-2.54351,-0.046463,0.693926,2.31228,-2.46823,0.377922,3.77238,-16.2079,1.6223,-10.6694,39.2313,1.4921,2.26281,16.8386,-1.93473,2.80553,-1.95803e-14,-1.27222e-14,-31.3446,-7.4753,-75.1772,39.187,17.0448,-19.4734,2.78149,7.12502,6.84821,-27.0877,-1.95803e-14,-1.27222e-14,-35.1632,17.7038,81.3105,21.8546,-9.05401,-12.0227,27.663,7.12502,14.0352,57.1691,-18.7733,4.44715,18.6103,34.4872,-16.2656,3.45579,13.0529,-16.3102,-7.13931,-21.4447,26.7974,-12.6836,-3.60397,-7.46158
-0.0948171,17.7207,13.7095,-174.624,-14.0824,-181.182,4.23672,0.426704,-2.78797,-0.104382,0.45884,2.34294,-2.52693,0.266343,3.95795,-15.9988,1.67953,-10.7447,39.0762,1.53099,2.32343,16.695,-1.91962,2.8457,-1.63997e-14,8.74653e-15,-30.9181,-7.89711,-75.1071,38.7813,17.1796,-20.1646,2.55369,7.12502,6.18086,-27.3361,-1.63997e-14,8.74653e-15,-35.0854,18.1849,80.9892,21.2188,-9.98453,-11.8571,27.7633,7.12502,14.1947,57.2583,-18.8283,4.33462,18.5279,34.5378,-15.9724,3.7748,13.7809,-16.2548,-7.00032,-21.6453,26.7248,-12.6643,-3.52238,-5.2775
-0.118354,17.7212,13.7051,-174.636,-13.7861,-181.423,4.32798,0.278367,-3.12107,-0.100641,0.243722,2.2996,-2.55652,0.164693,4.11577,-15.9997,1.70563,-10.6962,39.0143,1.54121,2.32452,16.6602,-1.90926,2.83693,8.24956e-15,-1.19271e-14,-30.6258,-8.4838,-75.0063,38.5375,17.1653,-20.2224,2.30221,7.12502,6.12513,-27.5892,8.24956e-15,-1.19271e-14,-34.7819,18.8048,80.5925,20.4959,-11.0152,-11.6412,27.9919,7.12502,14.4027,57.4722,-18.8211,4.49442,18.2024,34.5918,-16.0531,3.67009,12.2011,-16.1159,-6.77691,-21.9874,26.7373,-12.8572,-3.74642,-4.75294
-0.143129,17.7464,13.702,-174.461,-13.294,-181.526,4.16676,0.215552,-3.3444,-0.127606,0.15462,2.29012,-2.48613,0.122948,4.23804,-16.0867,1.72794,-10.6683,39.0111,1.52384,2.43813,16.6774,-1.89951,2.87992,8.34896e-15,-4.77083e-15,-30.4754,-9.02064,-74.9036,38.4247,17.0109,-20.0944,1.891,7.12502,6.2487,-27.9968,8.34896e-15,-4.77083e-15,-34.5426,19.1852,80.3267,20.0155,-11.8919,-11.3297,27.8486,7.12502,14.7029,57.3072,-19.2809,5.00739,17.8792,34.8877,-16.3721,3.35619,10.3866,-16.0516,-6.1497,-22.234,26.4992,-13.0483,-3.79645,-5.37304
-0.16856,17.7499,13.7029,-174.125,-12.4968,-181.348,3.77649,0.255913,-3.29519,-0.221485,0.222234,2.34985,-2.37048,0.155627,4.26765,-16.1053,1.76675,-10.7514,39.0069,1.52375,2.62493,16.6723,-1.89105,2.97687,-3.3694e-14,-4.77083e-15,-30.4089,-9.54122,-74.7882,38.329,16.9023,-20.3402,2.89063,7.12502,6.01136,-27.0041,-3.3694e-14,-4.77083e-15,-34.3837,19.3348,80.1765,19.7163,-12.4507,-10.953,27.2322,7.12502,15.0658,56.664,-19.9521,5.39834,17.8947,35.2277,-16.4263,3.57165,9.62173,-16.2029,-5.42993,-22.1201,26.0832,-12.9261,-3.96493,-5.00631
-0.196338,17.7563,13.7028,-173.936,-11.8668,-181.242,3.57477,0.244377,-3.27281,-0.338773,0.213997,2.37152,-2.37734,0.153833,4.278,-15.8728,1.82454,-10.6969,38.941,1.50666,2.65646,16.5777,-1.89414,2.97058,-6.4605e-15,1.51076e-14,-30.6521,-9.89141,-74.7026,38.4563,16.6124,-20.522,3.67947,7.12502,5.8359,-26.2202,-6.4605e-15,1.51076e-14,-34.4508,19.3304,79.9391,19.5192,-12.818,-10.62,26.8126,7.12502,15.3865,56.22,-20.4135,5.69589,17.8397,35.5844,-16.4503,3.7995,9.13765,-16.1919,-4.91576,-22.081,25.6822,-12.806,-4.1736,-5.52557
-0.225091,17.7514,13.7029,-173.977,-11.4855,-181.285,3.60434,0.21055,-3.33388,-0.377726,0.166207,2.31086,-2.42942,0.133124,4.25232,-15.5877,1.83964,-10.4279,38.8627,1.39102,2.56214,16.4779,-1.92236,2.85274,-2.62396e-14,-2.06736e-14,-30.969,-10.3276,-74.6399,38.5943,16.214,-20.7247,2.88763,7.12502,5.64018,-27.0173,-2.62396e-14,-2.06736e-14,-34.436,19.0627,79.774,19.3703,-13.224,-10.5486,26.7842,7.12502,15.4553,56.1863,-20.4831,5.8594,17.658,35.7692,-16.4303,3.97837,9.20886,-16.0709,-4.46031,-22.2533,25.6435,-12.9615,-4.339,-6.49919
-0.250742,17.7473,13.7022,-173.917,-11.0579,-181.344,3.48958,0.19789,-3.46519,-0.372781,0.147529,2.27302,-2.35829,0.12438,4.28815,-15.5305,1.8172,-10.293,38.8117,1.27593,2.59218,16.4461,-1.94622,2.8199,1.77912e-14,1.66979e-14,-31.0963,-10.8126,-74.5915,38.6329,15.8606,-20.9064,2.11868,7.12502,5.46475,-27.7909,1.77912e-14,1.66979e-14,-34.0999,18.6256,79.8594,19.2426,-13.6064,-10.5659,27.139,7.12502,15.4386,56.5424,-20.686,6.14358,17.4634,35.9755,-16.4514,4.02921,9.12855,-16.0413,-4.01851,-22.4335,25.5668,-13.0236,-4.41589,-6.32214
-0.278254,17.7465,13.7004,-173.71,-10.5417,-181.323,3.22036,0.170938,-3.49228,-0.399954,0.118431,2.25397,-2.23205,0.108161,4.2846,-15.621,1.80859,-10.2591,38.8173,1.21681,2.6824,16.4741,-1.95655,2.84396,-1.88845e-15,5.40694e-14,-31.1418,-11.2003,-74.5824,38.5898,15.5271,-21.1515,2.19535,7.12502,5.22806,-27.7202,-1.88845e-15,5.40694e-14,-33.7885,18.1205,79.984,19.3088,-13.6662,-10.5669,27.5142,7.12502,15.4376,56.9177,-21.0986,6.4621,17.3358,36.2124,-16.4449,4.06919,9.08248,-16.1419,-3.65137,-22.5056,25.4455,-13.0438,-4.42211,-5.69359
-0.30889,17.7474,13.6964,-173.617,-10.1243,-181.308,3.08246,0.106335,-3.47128,-0.395172,0.0367863,2.24256,-2.14131,0.064977,4.2644,-15.8456,1.79707,-10.2726,38.9619,1.1876,2.71277,16.6087,-1.98506,2.85658,-2.14687e-14,-3.97569e-15,-31.2218,-11.3936,-74.5911,38.5826,15.1995,-21.485,2.12969,7.12502,4.90603,-27.7935,-2.14687e-14,-3.97569e-15,-33.5304,17.4983,80.1425,19.4846,-13.3853,-10.4018,27.6318,7.12502,15.5967,57.023,-21.3176,6.6719,17.236,36.3272,-16.4343,4.04411,9.6746,-16.2253,-3.40697,-22.5728,25.6314,-13.2161,-4.45624,-4.86875
-0.336772,17.7502,13.6904,-173.671,-9.74584,-181.503,3.10325,0.0443902,-3.659,-0.347085,-0.0525601,2.14112,-2.09448,0.0213188,4.26952,-16.0012,1.79863,-10.2461,39.1007,1.12245,2.8112,16.7249,-2.01344,2.88541,3.47873e-14,3.97569e-15,-31.2965,-11.5699,-74.6959,38.5489,14.9195,-21.1667,1.04659,7.12502,5.21338,-28.8693,3.47873e-14,3.97569e-15,-33.2777,16.795,80.2507,19.7359,-12.9751,-10.5084,27.7588,7.12502,15.4941,57.158,-21.3383,6.72683,16.9958,36.44,-16.386,3.82056,9.92333,-16.1676,-3.04663,-22.8877,25.9189,-13.5076,-4.58843,-4.19256
-0.360916,17.6966,13.6856,-173.637,-9.32447,-181.756,3.0569,0.00683548,-3.93833,-0.374071,-0.110287,2.04562,-2.09031,-0.00287603,4.33122,-15.901,1.83754,-10.244,39.1305,1.06488,2.95992,16.7154,-2.03047,2.93755,3.27995e-14,-1.59028e-15,-31.4548,-11.7383,-74.7339,38.4367,14.6441,-20.5401,-0.235792,7.12502,5.81833,-30.1359,3.27995e-14,-1.59028e-15,-33.1343,16.0844,80.3781,20.0409,-12.4726,-10.804,27.8491,7.12502,15.2093,57.2701,-21.3952,6.68907,16.7132,36.586,-16.367,4.22171,12.701,-16.2451,-2.55747,-23.3066,26.1574,-13.8518,-4.5942,-4.20055
-0.386582,17.6743,13.6825,-173.574,-8.95857,-181.911,3.0436,-0.0580998,-4.10002,-0.440222,-0.202098,1.97416,-2.14134,-0.0436612,4.35316,-15.7565,1.89098,-10.1877,39.1123,1.04117,3.03273,16.668,-2.03244,2.95078,5.12864e-14,1.59028e-15,-31.6412,-11.8298,-74.777,38.2499,14.4007,-20.8017,0.0983689,7.12502,5.56578,-29.8085,5.12864e-14,1.59028e-15,-33.0064,15.3685,80.4803,20.4763,-11.776,-10.8,28.2497,7.12502,15.2131,57.6703,-21.6509,6.72999,16.4858,36.9883,-16.8859,4.37502,12.2451,-16.1618,-2.30036,-23.588,25.9855,-13.925,-4.53289,-4.69298
-0.413388,17.6866,13.6761,-173.597,-8.68601,-182.036,3.05443,-0.143125,-4.21882,-0.456275,-0.320292,1.91797,-2.15125,-0.100396,4.3678,-15.6879,1.94548,-10.1522,39.1713,1.03494,3.08058,16.6802,-2.04137,2.96092,7.95139e-16,4.77083e-15,-31.8833,-11.8818,-74.8256,38.1725,14.3897,-21.4002,0.703528,7.12502,4.98797,-29.2178,7.95139e-16,4.77083e-15,-32.8938,14.7147,80.5577,21.0682,-11.186,-10.54,28.8914,7.12502,15.4635,58.2929,-21.8652,6.66723,16.3227,37.4759,-17.716,3.97183,8.24978,-15.9094,-2.36994,-23.7656,25.7553,-13.9423,-4.34462,-4.98982
-0.434424,17.7359,13.6723,-173.59,-8.45091,-182.198,3.08832,-0.213879,-4.41028,-0.472796,-0.423143,1.85754,-2.17566,-0.148084,4.41877,-15.6507,1.95456,-10.1566,39.2583,0.98657,3.08684,16.7213,-2.08211,2.95249,-2.53947e-14,1.51076e-14,-32.1326,-11.8766,-74.9013,38.1314,14.2443,-21.6804,0.706425,7.12502,4.71734,-29.2211,-2.53947e-14,1.51076e-14,-32.851,14.3374,80.4506,21.5973,-11.036,-10.254,28.88,7.12502,15.7391,58.26,-22.2625,6.66053,16.1261,38.1429,-18.7054,3.0585,2.92789,-15.4758,-2.46161,-23.9449,25.1339,-13.7301,-4.31949,-4.19378
-0.444005,17.7373,13.6741,-173.626,-8.28027,-182.375,3.20886,-0.296282,-4.72295,-0.435058,-0.549783,1.80959,-2.18864,-0.207613,4.55327,-15.6495,1.89166,-10.2357,39.251,0.872256,3.12946,16.7273,-2.14134,2.96331,-3.0911e-14,1.43125e-14,-32.1577,-11.9155,-75.0742,37.8562,13.8433,-22.476,1.66177,7.12502,3.9491,-28.2814,-3.0911e-14,1.43125e-14,-32.7694,14.2202,80.2012,22.0267,-11.2269,-10.3952,28.3128,7.12502,15.6031,57.7034,-22.5042,6.44408,16.0585,38.7888,-19.474,2.57781,1.09426,-15,-2.22237,-24.1518,24.3848,-13.3951,-4.60285,-3.60609
-0.449171,17.7415,13.6675,-173.883,-8.13614,-182.572,3.50012,-0.38429,-5.15909,-0.365891,-0.697967,1.79277,-2.25984,-0.275551,4.7939,-15.6143,1.90696,-10.3241,39.3077,0.817588,3.2736,16.7497,-2.1733,3.03125,1.89342e-14,7.95139e-16,-32.2347,-11.8923,-75.2164,37.611,13.7118,-22.8639,2.27991,7.12502,3.57456,-27.6699,1.89342e-14,7.95139e-16,-32.5932,14.1014,79.9969,22.283,-11.181,-11.0821,27.5391,7.12502,14.9414,56.9801,-22.3979,6.20295,16.0325,39.36,-20.0719,2.17793,0.483154,-14.3279,-1.74776,-24.4073,23.7248,-13.2152,-4.8993,-4.28685
-0.461626,17.7418,13.6574,-174.131,-7.79876,-182.655,3.71967,-0.395844,-5.39626,-0.310334,-0.734663,1.78341,-2.31897,-0.290526,4.92349,-15.6291,1.95278,-10.3826,39.4411,0.809637,3.37915,16.8224,-2.19522,3.08585,-8.69683e-15,1.59028e-14,-32.3752,-12.0204,-75.2212,37.4173,14.3917,-22.4282,1.93148,7.12502,3.99525,-28.0108,-8.69683e-15,1.59028e-14,-32.2007,14.1665,79.7493,22.2719,-11.2225,-11.7683,26.7047,7.12502,14.2803,56.1937,-22.356,5.99407,16.0876,39.8116,-20.5086,1.88987,0.0134598,-13.8519,-1.43768,-24.5465,23.4663,-13.2285,-4.95123,-4.01607
-0.479039,17.7421,13.6515,-174.224,-7.31047,-182.685,3.81259,-0.35975,-5.48859,-0.310414,-0.696194,1.74364,-2.37566,-0.268378,4.93366,-15.5743,1.98756,-10.3837,39.5193,0.803619,3.37455,16.8505,-2.21902,3.07915,6.5102e-15,1.59028e-14,-32.5438,-12.1373,-75.2879,37.2049,15.0029,-22.1851,1.70614,7.12502,4.23003,-28.2316,6.5102e-15,1.59028e-14,-31.9182,14.3182,79.4181,22.4176,-11.3556,-12.2551,26.2774,7.12502,13.8112,55.7989,-22.5219,5.6979,16.2083,40.1995,-20.8572,1.54276,-1.1767,-13.6292,-1.17583,-24.6625,23.3329,-13.312,-4.84806,-3.46613
-0.493917,17.7421,13.6515,-174.152,-6.94086,-182.704,3.77888,-0.366167,-5.57907,-0.362816,-0.707662,1.71816,-2.40893,-0.270312,4.95906,-15.4784,2.03044,-10.4599,39.5886,0.781356,3.48603,16.8618,-2.24459,3.13489,1.09332e-14,-1.31198e-14,-32.7033,-12.3065,-75.3547,36.9227,15.6064,-22.1082,1.7258,7.12502,4.30426,-28.2105,1.09332e-14,-1.31198e-14,-31.7208,14.4421,79.0922,22.6423,-11.3952,-12.7028,25.9838,7.12502,13.3797,55.5341,-22.7556,5.00312,16.4594,40.4452,-21.0357,0.747221,-4.61153,-13.7588,-0.904137,-24.7763,23.483,-13.5768,-4.6777,-3.79803
-0.505801,17.7367,13.6493,-174.053,-6.66215,-182.748,3.68883,-0.371073,-5.69074,-0.423674,-0.714918,1.69532,-2.41956,-0.270287,4.99827,-15.295,2.06987,-10.4801,39.585,0.762551,3.53196,16.8127,-2.2617,3.15013,1.59028e-15,7.95139e-15,-32.9661,-12.6191,-75.3031,36.7032,16.1914,-21.6348,1.64878,7.12502,4.76145,-28.2777,1.59028e-15,7.95139e-15,-31.5105,14.4676,78.9103,23.0888,-10.9599,-13.0741,26.3493,7.12502,13.0218,55.9229,-22.9747,4.47307,16.638,40.5857,-21.2787,0.184568,-5.22299,-13.9837,-0.680886,-24.9151,23.7902,-13.953,-4.42009,-4.01674
-0.517831,17.7044,13.6402,-174.042,-6.32712,-182.79,3.55721,-0.374391,-5.80996,-0.414322,-0.716716,1.69011,-2.33442,-0.27255,5.05862,-15.1571,2.11598,-10.4818,39.5712,0.801883,3.47981,16.7664,-2.26322,3.12857,4.82053e-15,-3.97569e-15,-33.2839,-12.6877,-75.3011,36.5886,16.492,-21.4009,1.64128,7.12502,4.9873,-28.28,4.82053e-15,-3.97569e-15,-31.4082,14.45,78.814,23.9029,-9.95751,-13.0259,27.436,7.12502,13.0682,57.0066,-23.1064,3.97605,16.8654,40.643,-21.1327,-0.034009,-2.94892,-14.1277,-0.481378,-25.0389,24.1508,-14.1773,-4.20525,-4.03446
-0.531283,17.6962,13.6299,-174.033,-5.95211,-182.747,3.39615,-0.390923,-5.85273,-0.376261,-0.730308,1.70111,-2.20198,-0.284194,5.09237,-15.1904,2.14232,-10.4419,39.6458,0.816817,3.41995,16.8147,-2.2754,3.09535,9.34288e-15,5.56597e-15,-33.536,-12.5653,-75.4246,36.5308,16.5897,-21.3247,1.61793,7.12502,5.06088,-28.3016,9.34288e-15,5.56597e-15,-31.3643,14.4231,78.6442,24.7186,-9.01212,-13.174,27.9045,7.12502,12.9254,57.4841,-23.1598,3.53709,17.1434,40.7087,-20.8757,-0.0756993,-0.176937,-14.2378,-0.392718,-25.0487,24.4857,-14.3516,-3.91383,-4.58178
-0.542534,17.6899,13.6261,-173.956,-5.6175,-182.689,3.28768,-0.391358,-5.88931,-0.383827,-0.725701,1.71747,-2.14882,-0.282902,5.12855,-15.2763,2.14495,-10.4591,39.7744,0.790351,3.41913,16.909,-2.30954,3.093,-8.84592e-15,1.59028e-15,-33.7083,-12.7337,-75.4729,36.2976,16.9226,-21.1703,1.8362,7.12502,5.20991,-28.0798,-8.84592e-15,1.59028e-15,-31.0812,14.4943,78.4442,25.1573,-8.29731,-13.5558,27.7047,7.12502,12.5574,57.3074,-23.3142,3.10756,17.4207,40.8142,-21.1123,0.0755029,0.441643,-14.4187,-0.457272,-25.0095,24.7659,-14.4735,-3.6297,-5.17154
-0.553256,17.6921,13.6262,-173.89,-5.31859,-182.649,3.26674,-0.344372,-5.8717,-0.392818,-0.661567,1.68797,-2.15532,-0.250651,5.08439,-15.4247,2.13838,-10.4364,39.932,0.757601,3.40852,17.0371,-2.33987,3.08017,6.5102e-15,1.03368e-14,-33.8912,-13.2597,-75.4184,35.9673,17.4163,-21.1102,2.19762,7.12502,5.26798,-27.7169,6.5102e-15,1.03368e-14,-30.5946,14.4422,78.3205,25.4444,-7.4429,-13.9207,27.9548,7.12502,12.2056,57.5786,-23.5174,2.69567,17.6827,41.0137,-21.3478,0.181417,0.000601823,-14.5134,-0.395433,-24.9998,24.847,-14.4672,-3.59167,-5.10702
-0.565105,17.6929,13.6273,-173.853,-4.97997,-182.625,3.30213,-0.270369,-5.85125,-0.41945,-0.564948,1.65578,-2.21598,-0.199941,5.0351,-15.4653,2.14043,-10.4123,40.0139,0.740903,3.37769,17.0951,-2.35991,3.05851,5.66536e-15,-1.15295e-14,-34.2213,-13.599,-75.3777,35.8741,17.5906,-20.8641,2.0539,7.12502,5.50554,-27.8546,5.66536e-15,-1.15295e-14,-30.2475,14.5083,78.1588,25.7906,-6.79803,-14.3974,28.0728,7.12502,11.7459,57.7235,-23.7026,2.20062,17.939,41.2259,-21.2352,0.201103,-1.00241,-14.5717,-0.265689,-25.0238,24.8971,-14.5021,-3.47411,-4.85937
-0.577267,17.6924,13.6226,-173.839,-4.60691,-182.61,3.27612,-0.21501,-5.87579,-0.446592,-0.490895,1.65362,-2.23901,-0.161066,5.04306,-15.3426,2.18292,-10.3955,40.0295,0.754345,3.36194,17.0702,-2.3658,3.04648,-2.28602e-15,-1.70955e-14,-34.5892,-13.6347,-75.42,35.8724,17.5455,-20.5225,1.63869,7.12502,5.83535,-28.261,-2.28602e-15,-1.70955e-14,-30.0687,14.6986,78.0065,26.2164,-6.15106,-15.0346,28.0145,7.12502,11.1314,57.6993,-23.7818,1.83812,18.1545,41.3715,-21.2653,0.265817,-1.52149,-14.5712,-0.205476,-25.0579,24.9549,-14.5322,-3.22702,-4.64115
-0.589396,17.6938,13.6142,-173.806,-4.23476,-182.531,3.19686,-0.179814,-5.81945,-0.476532,-0.437624,1.64194,-2.23277,-0.134588,4.99559,-15.2782,2.24177,-10.2445,40.0795,0.795772,3.23774,17.0792,-2.3579,2.96688,4.07509e-15,-2.10712e-14,-34.9258,-13.7155,-75.5002,35.7252,17.6212,-20.4475,1.5362,7.12502,5.90778,-28.3614,4.07509e-15,-2.10712e-14,-29.9451,14.5514,77.9104,26.6931,-5.2325,-15.7096,28.0701,7.12502,10.4803,57.7889,-23.862,1.55719,18.4256,41.477,-21.2841,0.42474,-1.51105,-14.5666,-0.0470918,-25.0338,24.9529,-14.559,-3.01031,-4.78964
-0.593245,17.695,13.6026,-173.942,-4.11675,-182.501,3.26355,-0.201624,-5.83074,-0.422043,-0.4708,1.61181,-2.20967,-0.153423,4.9724,-15.2946,2.25123,-10.2102,40.0914,0.789075,3.23649,17.0904,-2.35977,2.95832,-7.40473e-15,-7.15625e-15,-35.1178,-13.9485,-75.5665,35.3922,17.8911,-20.5623,1.67052,7.12502,5.7969,-28.2302,-7.40473e-15,-7.15625e-15,-29.7986,14.4056,77.7558,27.2247,-4.52151,-15.9169,27.952,7.12502,10.2803,57.6808,-23.6554,1.27393,18.6864,41.5257,-21.2401,0.388251,-1.51982,-14.3415,0.169869,-25.0131,24.8981,-14.6656,-3.05202,-5.15516
-0.587961,17.6942,13.5858,-174.16,-4.29874,-182.526,3.35832,-0.33853,-5.99176,-0.306186,-0.663777,1.63298,-2.11625,-0.254316,5.09562,-15.4167,2.26865,-10.276,40.142,0.8264,3.28559,17.1445,-2.3535,3.0004,-1.26228e-14,5.96354e-15,-35.2016,-14.0818,-75.63,35.0222,18.1072,-20.5134,1.76177,7.12502,5.84417,-28.1376,-1.26228e-14,5.96354e-15,-29.7287,14.3126,77.6226,27.9373,-3.74047,-16.1115,27.6967,7.12502,10.0926,57.4347,-23.1928,0.968125,18.9097,41.5269,-21.3207,0.342495,-1.12113,-13.9792,0.367409,-24.9834,24.7995,-14.8343,-3.37652,-5.67202
-0.587162,17.6921,13.5718,-174.292,-4.38421,-182.587,3.39509,-0.428896,-6.11969,-0.260109,-0.7915,1.61533,-2.07098,-0.319672,5.15603,-15.4024,2.31001,-10.2388,40.1571,0.862447,3.28143,17.1449,-2.33961,2.9969,-1.10822e-14,2.34566e-14,-35.4522,-14.209,-75.6775,34.7444,18.1674,-20.405,1.83864,7.12502,5.94879,-28.0578,-1.10822e-14,2.34566e-14,-29.6327,14.0539,77.5301,28.5682,-2.81996,-16.4364,27.6092,7.12502,9.77914,57.3621,-22.8492,0.599715,19.0634,41.4995,-21.2342,0.493283,-0.953571,-13.6844,0.472093,-25.0175,24.6632,-14.9295,-3.53991,-6.07114
-0.591624,17.6912,13.5591,-174.423,-4.23716,-182.69,3.42609,-0.433707,-6.24492,-0.210719,-0.80509,1.57016,-2.0345,-0.328009,5.18051,-15.362,2.38107,-10.1098,40.1487,0.96138,3.1699,17.1221,-2.29785,2.93886,2.81777e-14,4.77083e-15,-35.7187,-14.2585,-75.7247,34.5404,18.0719,-20.3697,2.03379,7.12502,5.98292,-27.8617,2.81777e-14,4.77083e-15,-29.2913,13.9642,77.4075,28.8009,-2.2612,-16.5325,27.1936,7.12502,9.68646,56.9509,-22.582,0.298362,19.1201,41.4589,-21.0174,0.601974,-1.27914,-13.4033,0.730326,-25.1445,24.5433,-14.9467,-3.65216,-6.05116
-0.595657,17.692,13.5445,-174.494,-3.97688,-182.782,3.37263,-0.409416,-6.38644,-0.170452,-0.774521,1.55484,-1.96541,-0.314925,5.24225,-15.3711,2.44909,-10.0795,40.1874,1.0755,3.08672,17.1361,-2.26652,2.91456,5.46658e-16,6.75868e-15,-35.9564,-14.254,-75.7586,34.403,18.1387,-20.3382,1.98403,7.12502,6.01331,-27.9106,5.46658e-16,6.75868e-15,-28.8255,14.0139,77.326,28.8625,-2.07783,-17.6277,25.847,7.12502,8.6296,55.6506,-22.3633,0.146147,19.1664,41.3849,-20.6983,0.588189,-1.59644,-13.2126,1.10028,-25.2981,24.4683,-15.047,-3.73348,-5.90251
-0.600369,17.6928,13.5303,-174.457,-3.68706,-182.826,3.26795,-0.396045,-6.45727,-0.221441,-0.752951,1.55986,-1.96153,-0.301786,5.28571,-15.2699,2.51293,-10.1972,40.1924,1.14783,3.15399,17.1021,-2.25558,2.97505,-2.03754e-15,2.38542e-15,-36.2108,-14.1866,-75.7817,34.2185,18.4063,-20.2792,1.59903,7.12502,6.07023,-28.294,-2.03754e-15,2.38542e-15,-28.4944,13.9177,77.289,29.1161,-1.74772,-19.6291,24.0218,7.12502,6.69792,53.8958,-22.2141,0.0425425,19.2411,41.2516,-20.3266,0.606449,-1.01567,-13.1838,1.37772,-25.4245,24.4403,-15.1712,-3.60954,-5.5204
-0.603364,17.6898,13.5133,-174.403,-3.4356,-182.87,3.08233,-0.399171,-6.55525,-0.237269,-0.748103,1.57244,-1.87297,-0.300869,5.35183,-15.1159,2.56298,-10.2434,40.1067,1.21843,3.14482,17.0072,-2.23351,2.98693,-6.75868e-15,5.1684e-15,-36.408,-14.2457,-75.7696,33.9539,18.7603,-20.3383,1.50033,7.12502,6.01322,-28.3943,-6.75868e-15,5.1684e-15,-28.3453,13.6451,77.3502,29.7236,-0.87781,-20.0519,23.9756,7.12502,6.28969,53.8622,-22.0622,-0.042421,19.3022,41.0378,-19.8134,0.58586,0.576623,-13.1781,1.44221,-25.5146,24.4595,-15.2173,-3.33116,-5.77528
-0.606715,17.6824,13.4952,-174.41,-3.22358,-182.896,2.90399,-0.404213,-6.56817,-0.156804,-0.741934,1.55506,-1.69017,-0.306857,5.33739,-15.1971,2.59675,-10.3253,40.0716,1.28944,3.2518,16.9974,-2.19425,3.06466,-4.87022e-15,2.18663e-14,-36.5285,-14.3613,-75.8054,33.7365,18.9348,-20.1972,1.67329,7.12502,6.14945,-28.2175,-4.87022e-15,2.18663e-14,-28.1009,13.3495,77.4043,30.2693,-0.186193,-19.4401,24.7719,7.12502,6.88033,54.6401,-21.8408,-0.0370232,19.3714,40.7385,-19.4047,0.572875,4.3671,-13.1408,1.39507,-25.5409,24.5352,-15.1483,-3.09215,-6.10412
-0.608169,17.6789,13.4772,-174.451,-3.10448,-182.876,2.82487,-0.434248,-6.55212,-0.111125,-0.775056,1.57273,-1.59362,-0.328471,5.34649,-15.294,2.63123,-10.46,40.0895,1.36492,3.3594,17.02,-2.16963,3.15254,7.45443e-16,-1.19271e-15,-36.7011,-14.4478,-75.7929,33.5197,19.0392,-19.9631,2.26715,7.12502,6.37546,-27.6169,7.45443e-16,-1.19271e-15,-27.8191,13.318,77.3132,30.5143,-0.477192,-19.6987,23.5465,7.12502,6.63071,53.4227,-21.5742,-0.0736669,19.4985,40.3719,-19.1605,0.207184,7.2318,-13.0633,1.33751,-25.5102,24.6145,-15.1026,-2.97276,-6.02928
-0.610049,17.6746,13.4598,-174.477,-3.00192,-182.829,2.75072,-0.44177,-6.48899,-0.117752,-0.777909,1.58162,-1.55902,-0.331401,5.31901,-15.2246,2.68179,-10.4473,40.0823,1.42247,3.34906,16.9918,-2.1496,3.15317,7.20594e-15,1.98785e-14,-36.9153,-14.5431,-75.7713,33.2907,19.1402,-19.8689,2.59228,7.12502,6.46634,-27.289,7.20594e-15,1.98785e-14,-27.7463,13.1838,77.1975,30.8661,-0.797077,-19.2684,22.9746,7.12502,7.04611,52.8373,-21.3103,-0.0953613,19.6427,39.9488,-19.0664,-0.318603,8.42734,-13.0065,1.24902,-25.4655,24.7083,-15.093,-2.95002,-5.41909
-0.610805,17.6699,13.4451,-174.504,-2.81174,-182.874,2.65282,-0.424887,-6.56971,-0.0761121,-0.750436,1.59196,-1.46363,-0.321721,5.37298,-15.2477,2.71767,-10.3692,40.0762,1.52554,3.17709,16.9897,-2.12001,3.07875,-1.54058e-15,-3.57812e-15,-36.9545,-14.5737,-75.774,32.9846,19.2012,-19.7878,2.4709,7.12502,6.54465,-27.408,-1.54058e-15,-3.57812e-15,-27.6604,12.8247,77.3522,31.6898,-0.650744,-17.7485,30.6365,7.12502,8.51305,60.4449,-21.0823,-0.0716554,19.6634,39.5105,-19.1624,-0.816228,8.07565,-12.9721,1.27101,-25.5278,24.8307,-15.1477,-2.90706,-5.11576
-0.602363,17.6707,13.4454,-174.318,-2.9163,-182.819,2.61783,-0.488115,-6.56582,-0.152229,-0.833092,1.62005,-1.51076,-0.35886,5.40328,-15.3455,2.73477,-10.2936,40.124,1.56444,3.11265,17.0398,-2.10526,3.04483,-8.94531e-16,1.82882e-14,-37.018,-14.6893,-75.8041,32.6892,19.3963,-19.7075,2.39198,7.12502,6.6222,-27.4845,-8.94531e-16,1.82882e-14,-27.3593,12.8637,77.2766,32.1306,-1.59775,-19.0761,26.656,7.12502,7.23169,56.5125,-21.1167,-0.160012,19.8328,39.0659,-19.3598,-1.27291,7.6026,-13.2696,1.24209,-25.4274,24.984,-15.1415,-2.99621,-5.32551
-0.585616,17.6733,13.4633,-173.874,-3.31361,-182.743,2.61412,-0.641407,-6.5587,-0.365865,-1.04035,1.67002,-1.69989,-0.448922,5.46109,-15.3747,2.74327,-10.226,40.1125,1.57989,3.07971,17.0409,-2.09043,3.02134,-8.69683e-15,3.97569e-15,-37.1247,-14.9204,-75.7906,32.4325,19.7143,-19.6229,2.63137,7.12502,6.70387,-27.2425,-8.69683e-15,3.97569e-15,-27.0282,12.6445,77.2908,32.4544,-1.64441,-18.7632,26.8057,7.12502,7.53376,56.6515,-21.4424,-0.270529,20.0541,38.6504,-19.5296,-1.65167,7.91111,-13.9369,1.22585,-25.2591,25.1263,-15.0482,-3.40548,-5.51517
-0.577028,17.6733,13.4683,-173.624,-3.42298,-182.655,2.61644,-0.726288,-6.47098,-0.501159,-1.1531,1.72097,-1.82593,-0.497502,5.47036,-15.3917,2.79584,-10.2597,40.096,1.6823,3.08192,17.0251,-2.05192,3.04626,1.28216e-14,-9.54166e-15,-37.225,-14.9381,-75.8188,32.2095,19.8316,-19.6116,2.56937,7.12502,6.71473,-27.3042,1.28216e-14,-9.54166e-15,-26.9677,12.2172,77.4073,32.9409,-0.813788,-17.1062,31.136,7.12502,9.13287,60.9182,-21.5394,-0.311657,20.2434,38.27,-19.7327,-1.85769,7.32904,-14.3082,1.25417,-25.126,25.248,-15.0586,-3.57706,-6.01505
-0.573845,17.673,13.4614,-173.629,-3.45225,-182.772,2.70612,-0.772681,-6.51396,-0.511609,-1.22306,1.68561,-1.8772,-0.529907,5.46224,-15.4225,2.84389,-10.2233,40.0637,1.78806,3.02495,17.0065,-2.00593,3.03309,-1.31695e-14,1.39149e-14,-37.2901,-15.0032,-75.849,31.9643,19.9408,-19.5506,2.39631,7.12502,6.77362,-27.4753,-1.31695e-14,1.39149e-14,-26.8879,11.7572,77.4976,33.417,-0.391799,-18.8741,28.6009,7.12502,7.42667,58.4505,-21.3413,-0.419243,20.1882,37.9691,-19.9624,-2.05358,6.14177,-14.2999,1.28925,-25.253,25.3233,-15.1578,-3.60259,-5.81088
-0.568663,17.6752,13.4541,-173.587,-3.56071,-182.955,2.74839,-0.852492,-6.63227,-0.516191,-1.33717,1.6418,-1.88806,-0.585228,5.48872,-15.5759,2.89684,-10.0759,40.1249,1.91948,2.84012,17.0745,-1.95977,2.94913,5.46658e-16,-1.03368e-14,-37.237,-15.0329,-75.8973,31.6653,20.0816,-19.4871,2.25207,7.12502,6.83496,-27.6176,5.46658e-16,-1.03368e-14,-26.5579,11.4323,77.5781,33.566,-0.0574725,-18.4627,28.852,7.12502,7.82381,58.6873,-21.2084,-0.5519,20.0643,37.7371,-20.0373,-2.2263,5.78114,-14.3109,1.39728,-25.4501,25.349,-15.2767,-3.78298,-5.0006
-0.566393,17.6745,13.4439,-173.609,-3.45322,-183.016,2.76799,-0.85757,-6.64797,-0.528331,-1.34612,1.64124,-1.91009,-0.588337,5.49802,-15.6516,2.96828,-10.132,40.2491,2.00635,2.90573,17.1505,-1.94067,3.00505,2.24627e-14,6.75868e-15,-37.2859,-14.998,-75.8903,31.4293,20.1978,-19.4277,2.25744,7.12502,6.89229,-27.6104,2.24627e-14,6.75868e-15,-26.2104,11.4797,77.5828,33.4165,-0.250712,-17.551,27.8525,7.12502,8.70365,57.653,-21.0107,-0.505895,20.0074,37.5482,-20.0522,-2.10817,6.5228,-14.2455,1.45717,-25.5173,25.3737,-15.3112,-3.71824,-4.86797
-0.564503,17.6713,13.433,-173.564,-3.19213,-182.956,2.6411,-0.817542,-6.58867,-0.530575,-1.28151,1.68284,-1.85056,-0.55874,5.50277,-15.6683,2.99855,-10.2613,40.2705,2.04288,3.03447,17.1564,-1.93123,3.09319,-1.60022e-14,-7.95139e-16,-37.3762,-14.9681,-75.8583,31.2543,20.3804,-19.3026,2.40771,7.12502,7.01307,-27.4561,-1.60022e-14,-7.95139e-16,-26.053,11.5692,77.617,33.5906,-0.761667,-17.5528,26.6076,7.12502,8.70195,56.4083,-20.9232,-0.33955,20.0671,37.3667,-20.0431,-2.03241,6.66331,-14.2888,1.42447,-25.4487,25.4518,-15.2697,-3.42502,-5.29576
-0.557809,17.6679,13.4299,-173.503,-2.93362,-182.863,2.61204,-0.786684,-6.52589,-0.530827,-1.23579,1.72419,-1.84135,-0.536812,5.50821,-15.7013,3.0326,-10.2274,40.2133,2.13682,2.96663,17.1265,-1.88883,3.07344,-3.47873e-15,1.51076e-14,-37.3347,-15.0041,-75.8579,30.9819,20.6668,-19.0982,2.5892,7.12502,7.21032,-27.268,-3.47873e-15,1.51076e-14,-25.9673,11.3372,77.7845,34.0499,-0.481088,-18.6204,27.3781,7.12502,7.67158,57.219,-20.9043,-0.057057,20.1648,37.1752,-20.0659,-1.94747,7.10801,-14.3981,1.43582,-25.3268,25.5604,-15.235,-3.19943,-5.32487
-0.55007,17.6656,13.4285,-173.489,-2.68744,-182.683,2.64862,-0.732435,-6.30531,-0.516266,-1.15813,1.73956,-1.86151,-0.500158,5.39665,-15.7497,3.06504,-10.0851,40.1827,2.21132,2.84301,17.1209,-1.84773,3.00644,1.18774e-14,-8.34896e-15,-37.2595,-15.0661,-75.9506,30.738,20.8112,-19.092,2.67056,7.12502,7.21631,-27.1864,1.18774e-14,-8.34896e-15,-25.7666,11.0814,77.909,34.3608,-0.0811941,-18.8801,29.4431,7.12502,7.42086,59.293,-20.8398,0.324252,20.3358,36.9837,-20.0242,-1.81076,8.10394,-14.4466,1.47745,-25.1055,25.6393,-15.2841,-3.00748,-5.66225
-0.543499,17.6673,13.4252,-173.485,-2.46566,-182.542,2.71084,-0.7061,-6.11218,-0.531035,-1.12059,1.76235,-1.91991,-0.481146,5.31077,-15.7797,-2.31172,-8.49333,40.2017,4.81257,0.113055,17.3621,2.28093,2.97731,2.06736e-14,-3.97569e-16,-37.2109,-15.0092,-76.0527,30.5015,20.8953,-19.2215,2.74826,7.12502,7.09139,-27.1129,2.06736e-14,-3.97569e-16,-25.7184,11.2152,77.8815,34.6176,-0.521837,-18.5889,29.891,7.12502,7.70198,59.7307,-20.7629,0.650046,20.4513,36.8121,-19.9744,-1.63172,8.83126,-14.452,1.44798,-24.933,25.6889,-15.33,-2.72523,-5.77237
-0.537306,17.6719,13.4222,-173.467,-2.2205,-182.607,2.71366,-0.665505,-6.1431,-0.522043,-1.06767,1.74139,-1.91931,-0.454608,5.30433,-15.8126,-2.28245,-8.46584,40.2204,4.87962,0.0621327,17.3806,2.30357,2.96349,6.75868e-15,8.34896e-15,-37.1042,-15.025,-76.1019,30.2413,21.0657,-19.0666,2.81646,7.12502,7.24082,-27.0397,6.75868e-15,8.34896e-15,-25.6693,11.1737,77.977,34.9358,-0.450608,-18.4643,29.7687,7.12502,7.82223,59.604,-20.7445,0.842777,20.3569,36.6885,-19.8351,-1.48883,9.34333,-14.4436,1.43837,-24.9944,25.7132,-15.3298,-2.48653,-5.56594
-0.532005,17.6762,13.4204,-173.46,-2.01928,-182.652,2.74431,-0.640962,-6.13323,-0.533716,-1.0368,1.73291,-1.95319,-0.437791,5.28938,-15.7472,-2.2525,-8.40911,40.2303,4.9657,-0.0462587,17.372,2.33779,2.9202,-3.37934e-15,-1.27222e-14,-37.0644,-15.0319,-76.1177,30.0871,21.322,-18.8757,2.79893,7.12502,7.42514,-27.0508,-3.37934e-15,-1.27222e-14,-25.5935,10.9777,78.1649,35.1574,0.0473991,-18.4859,30.2384,7.12502,7.80142,60.0745,-20.7462,0.923124,20.3025,36.6222,-19.6836,-1.36,9.45365,-14.4159,1.42294,-25.0418,25.6959,-15.388,-2.27169,-5.27789
-0.52363,17.6787,13.4199,-173.473,-1.9315,-182.552,2.84905,-0.639139,-6.02124,-0.543911,-1.03636,1.80428,-2.02326,-0.436112,5.30258,-15.665,-2.1987,-8.44326,40.151,5.05943,-0.0998454,17.304,2.36641,2.91206,-1.635e-14,5.96354e-15,-37.0147,-14.9208,-76.1384,30.0374,21.4953,-18.8369,2.7239,7.12502,7.46254,-27.1245,-1.635e-14,5.96354e-15,-25.59,10.9817,78.2802,35.3399,-0.210704,-18.7563,29.2903,7.12502,7.54035,59.1359,-20.7396,0.859019,20.4524,36.5919,-19.6033,-1.29706,9.12377,-14.3618,1.30647,-24.9088,25.6677,-15.4315,-1.99624,-5.44034
-0.51411,17.6813,13.4192,-173.504,-1.80451,-182.53,2.96542,-0.636708,-6.00021,-0.514208,-1.03846,1.84568,-2.05729,-0.437025,5.33596,-15.666,-2.12436,-8.47757,40.0338,5.13406,-0.0970535,17.2325,2.38587,2.92369,3.97569e-15,1.70955e-14,-36.8687,-14.6535,-76.2696,30.0199,21.525,-18.7695,2.72593,7.12502,7.52762,-27.1201,3.97569e-15,1.70955e-14,-25.5642,11.0584,78.381,35.5063,-0.520332,-19.1873,28.0385,7.12502,7.12433,57.8986,-20.7168,0.81702,20.5076,36.5682,-19.4967,-1.13936,9.25369,-14.3218,1.10187,-24.8433,25.6913,-15.3698,-1.63416,-6.03446
-0.506547,17.6862,13.4165,-173.522,-1.5278,-182.547,3.01244,-0.601845,-5.98817,-0.480956,-0.994015,1.82434,-2.05588,-0.415977,5.30533,-15.7054,-2.07102,-8.40091,39.9894,5.17752,-0.130077,17.2167,2.40369,2.89987,-8.44835e-16,1.31198e-14,-36.7139,-14.3476,-76.4828,29.9643,21.5852,-18.715,2.69865,7.12502,7.58022,-27.1455,-8.44835e-16,1.31198e-14,-25.4733,11.0787,78.4577,35.5932,-0.587265,-18.9,28.7837,7.12502,7.40163,58.6343,-20.7054,0.891287,20.4797,36.5437,-19.3337,-0.821597,10.1233,-14.3043,0.940922,-24.8295,25.7402,-15.2929,-1.31532,-5.98675
-0.498438,17.6895,13.4188,-173.392,-1.32261,-182.5,2.9589,-0.602872,-5.89424,-0.499823,-0.989111,1.82801,-2.04729,-0.414484,5.25477,-15.7973,-2.03111,-8.37828,40.0208,5.22901,-0.114945,17.2536,2.42243,2.9149,-7.45443e-15,2.22639e-14,-36.5227,-14.1898,-76.6523,29.8526,21.82,-18.6818,2.58327,7.12502,7.61229,-27.2597,-7.45443e-15,2.22639e-14,-25.4728,10.8211,78.5968,35.754,-0.688124,-18.8805,29.9025,7.12502,7.4205,59.7523,-20.8754,0.86615,20.5374,36.5153,-19.1332,-0.571799,10.7027,-14.4587,0.833054,-24.7557,25.775,-15.2549,-1.11012,-5.0824
-0.484793,17.6904,13.4269,-173.225,-1.35688,-182.517,2.97875,-0.688606,-5.93656,-0.529904,-1.10606,1.89409,-2.072,-0.470674,5.3538,-15.8909,-1.9306,-8.4156,39.9728,5.38351,-0.126716,17.2419,2.46901,2.94176,-3.77691e-15,-3.97569e-15,-36.3244,-14.0581,-76.7389,29.8366,21.971,-18.8046,2.68891,7.12502,7.4938,-27.1583,-3.77691e-15,-3.97569e-15,-25.5596,10.5624,78.8624,35.9474,-1.09871,-19.4508,29.9088,7.12502,6.87,59.7773,-21.0577,0.774255,20.5683,36.4657,-19.0561,-0.497675,11.1963,-14.6944,0.710538,-24.7117,25.817,-15.166,-1.12245,-4.51692
-0.471371,17.691,13.4305,-173.182,-1.43743,-182.5,3.04282,-0.782331,-5.9411,-0.493247,-1.23386,1.98269,-2.05071,-0.536304,5.45551,-15.9629,-1.82436,-8.43821,39.8767,5.54234,-0.181695,17.2003,2.51358,2.94371,5.76476e-15,-3.57812e-15,-36.1116,-13.7163,-76.8779,29.9717,21.8119,-18.8593,2.77091,7.12502,7.44094,-27.0782,5.76476e-15,-3.57812e-15,-25.6238,10.5633,79.1158,36.1611,-1.42773,-19.6398,29.7657,7.12502,6.68754,59.6401,-21.0445,0.752695,20.6374,36.3775,-19.0944,-0.464786,11.605,-14.7894,0.611966,-24.6301,25.8912,-15.1808,-1.06959,-4.6764
-0.458501,17.693,13.4293,-173.156,-1.4072,-182.508,3.06553,-0.7997,-5.9445,-0.444657,-1.25764,2.01743,-2.00903,-0.551044,5.49468,-16.1172,-1.81405,-8.43927,39.8866,5.56975,-0.210471,17.2455,2.50877,2.93905,4.47266e-15,-2.06736e-14,-35.981,-13.4835,-76.9867,30.2003,21.7504,-18.8959,2.8648,7.12502,7.40564,-26.9856,4.47266e-15,-2.06736e-14,-25.6146,10.5343,79.3205,36.3101,-1.42357,-19.5649,29.6302,7.12502,6.75986,59.5023,-20.9993,0.832523,20.6716,36.2562,-19.1362,-0.459988,11.5167,-14.8543,0.74022,-24.6216,25.9635,-15.2702,-1.02816,-5.06343
-0.444916,17.6947,13.4278,-173.11,-1.32907,-182.586,3.08576,-0.817668,-5.9875,-0.443948,-1.28447,1.9987,-2.0155,-0.563703,5.50107,-16.246,-1.78221,-8.26573,39.9429,5.64744,-0.362967,17.3179,2.5388,2.8611,1.97791e-14,-5.56597e-15,-35.9799,-13.212,-77.1534,30.5211,21.675,-19.032,2.84419,7.12502,7.27425,-27.0108,1.97791e-14,-5.56597e-15,-25.5335,10.3064,79.4376,36.2536,-1.30017,-19.5108,29.7567,7.12502,6.81207,59.6271,-20.9619,0.8903,20.6176,36.091,-19.0977,-0.389831,11.9772,-14.969,1.12416,-24.7264,26.0629,-15.3964,-1.13448,-5.45417
-0.431984,17.6988,13.4256,-173.093,-1.23977,-182.635,3.07626,-0.854294,-5.98138,-0.419767,-1.33238,1.98396,-1.97886,-0.589743,5.48347,-16.2849,-1.7023,-8.15757,39.9588,5.7696,-0.428443,17.3356,2.59313,2.83678,2.0276e-14,-5.56597e-15,-35.8961,-12.8114,-77.416,30.8342,21.3323,-19.0106,2.76086,7.12502,7.29492,-27.0934,2.0276e-14,-5.56597e-15,-25.4706,10.013,79.5573,36.19,-0.903297,-19.1097,29.3783,7.12502,7.19926,59.2358,-20.8944,0.9086,20.6009,35.9141,-19.0242,-0.304376,12.1263,-15.0383,1.29724,-24.7687,26.1641,-15.4649,-1.13999,-5.5386
-0.420543,17.6974,13.4219,-173.056,-1.11278,-182.554,3.05927,-0.845309,-5.83732,-0.438828,-1.31432,2.01554,-1.99381,-0.581463,5.43375,-16.1956,-1.67651,-8.17887,39.9409,5.81881,-0.440114,17.3009,2.61366,2.84119,3.97569e-16,-2.54444e-14,-35.8826,-12.5015,-77.5731,31.1137,21.0472,-18.908,2.83568,7.12502,7.39392,-27.0151,3.97569e-16,-2.54444e-14,-25.5438,9.68941,79.7678,36.1433,-0.493881,-18.1446,27.9504,7.12502,8.13079,57.774,-20.8369,0.974518,20.7123,35.7374,-18.9468,-0.144999,12.2958,-15.1069,1.25513,-24.6406,26.2513,-15.4659,-0.991132,-4.95224
-0.407221,17.6933,13.4188,-173.041,-1.01783,-182.605,3.15966,-0.8317,-5.83762,-0.501174,-1.30274,2.00785,-2.11668,-0.569646,5.4287,-16.1803,-1.70524,-8.1995,40.0251,5.81932,-0.444919,17.3456,2.61399,2.84847,-1.33186e-14,-2.3059e-14,-36.0043,-12.1067,-77.7164,31.5247,20.6342,-18.9934,3.08568,7.12502,7.31155,-26.768,-1.33186e-14,-2.3059e-14,-25.71,9.42741,79.9402,36.1481,-0.424993,-17.2505,26.6276,7.12502,8.99363,56.4158,-20.7506,0.952128,20.691,35.5887,-18.8609,0.0758153,12.4475,-15.1155,1.14562,-24.6408,26.2994,-15.4219,-0.868379,-4.75973
-0.393148,17.6964,13.4168,-173.029,-1.01685,-182.612,3.19511,-0.856681,-5.77895,-0.462834,-1.33537,2.02776,-2.09317,-0.588681,5.41783,-16.3764,-1.70739,-8.29395,40.0964,5.84513,-0.381674,17.4298,2.60614,2.9064,-2.98177e-15,7.95139e-15,-35.8803,-11.7691,-77.8544,31.8527,20.3196,-19.141,3.2094,7.12502,7.16904,-26.6492,-2.98177e-15,7.95139e-15,-25.6708,9.20816,80.1178,36.1826,-0.413119,-16.6627,26.3984,7.12502,9.56084,56.1615,-20.6799,0.931621,20.7313,35.4482,-18.8414,0.100342,11.8742,-15.1334,0.960312,-24.5645,26.3455,-15.3312,-0.77757,-4.73307
-0.377932,17.7002,13.4156,-173.04,-1.0083,-182.614,3.20979,-0.899028,-5.71697,-0.367136,-1.38943,2.04413,-1.99586,-0.622666,5.40083,-16.5354,-1.6352,-8.25219,40.0543,5.96184,-0.464772,17.4466,2.63519,2.88296,1.15295e-14,-2.22639e-14,-35.5871,-11.4324,-78.074,32.0908,20.0625,-19.1912,3.15446,7.12502,7.12057,-26.7058,1.15295e-14,-2.22639e-14,-25.5034,9.01655,80.2949,36.0976,-0.403586,-16.4357,26.247,7.12502,9.77982,55.9999,-20.6019,0.987716,20.7817,35.3341,-18.7944,0.0678562,11.4436,-15.1346,0.90504,-24.4942,26.3706,-15.2316,-0.729003,-5.02062
-0.361492,17.7039,13.412,-173.02,-0.985058,-182.624,3.24528,-0.91382,-5.70497,-0.363059,-1.41061,2.06753,-2.00844,-0.633161,5.42026,-16.4821,-1.58936,-8.17954,39.9499,6.01225,-0.57022,17.379,2.65237,2.82374,1.81888e-14,-8.74653e-15,-35.4644,-11.3293,-78.1543,32.3215,20.0609,-19.2508,3.10311,7.12502,7.0631,-26.759,1.81888e-14,-8.74653e-15,-25.5087,8.82662,80.4776,36.0287,-0.560724,-16.3351,25.9558,7.12502,9.87684,55.7041,-20.5693,1.06911,20.8155,35.2744,-18.7985,0.133982,11.811,-15.1413,0.857615,-24.4389,26.3647,-15.1886,-0.654891,-5.22075
-0.346265,17.7063,13.4096,-172.944,-0.953594,-182.556,3.23418,-0.910235,-5.57544,-0.411722,-1.4007,2.10735,-2.05588,-0.626924,5.38839,-16.4044,-1.60849,-8.22188,39.9807,6.02262,-0.583801,17.3774,2.65535,2.82784,1.15295e-14,-5.56597e-15,-35.4793,-11.2015,-78.185,32.6735,19.9755,-19.306,2.98022,7.12502,7.00975,-26.8837,1.15295e-14,-5.56597e-15,-25.587,8.65673,80.6592,35.9538,-0.732648,-16.0123,25.8685,7.12502,10.1883,55.6018,-20.6497,1.03792,20.948,35.2644,-18.706,0.139976,11.5368,-15.23,0.874966,-24.3202,26.376,-15.1076,-0.580449,-5.45774
-0.33125,17.6995,13.4105,-172.835,-0.877014,-182.536,3.18196,-0.916365,-5.48419,-0.434077,-1.40285,2.14383,-2.05053,-0.628822,5.37384,-16.4826,-1.6259,-8.35695,40.1051,6.08894,-0.551868,17.4625,2.66525,2.88844,-6.95746e-16,-1.35174e-14,-35.4216,-10.8147,-78.3086,33.0807,19.5115,-19.3471,2.73933,7.12502,6.97013,-27.1259,-6.95746e-16,-1.35174e-14,-25.6024,8.67245,80.8149,35.798,-1.04392,-15.709,25.631,7.12502,10.4809,55.3498,-20.7421,1.07854,21.0129,35.1783,-18.5536,0.211163,12.0116,-15.4406,0.984292,-24.282,26.5546,-15.1286,-0.409375,-6.63434
-0.314645,17.6943,13.4133,-172.821,-0.813697,-182.52,3.29387,-0.932871,-5.41291,-0.440261,-1.42818,2.15494,-2.11785,-0.640113,5.34895,-16.5311,-1.59324,-8.36545,40.1087,6.14897,-0.565496,17.4748,2.68217,2.8957,2.70347e-14,-4.77083e-15,-35.3037,-10.4811,-78.4868,33.3586,19.3138,-19.4282,2.86101,7.12502,6.89184,-27.0068,2.70347e-14,-4.77083e-15,-25.6527,8.70536,80.8874,35.7101,-1.34693,-15.3704,25.2139,7.12502,10.8075,54.9158,-20.7499,1.23827,21.0636,35.1678,-18.5007,0.282627,12.8591,-15.5688,1.08888,-24.2357,26.7374,-15.0922,-0.310423,-6.98484
-0.296834,17.7108,13.4165,-172.813,-0.852516,-182.47,3.46728,-0.967591,-5.30146,-0.471477,-1.47934,2.17018,-2.24319,-0.662378,5.30889,-16.5169,-1.56061,-8.25178,40.0279,6.16542,-0.667516,17.4324,2.68935,2.82673,1.75924e-14,3.4191e-14,-35.1804,-10.3318,-78.5924,33.5181,19.3652,-19.4761,3.06284,7.12502,6.84557,-26.8065,1.75924e-14,3.4191e-14,-25.774,8.63634,80.997,35.6449,-1.89937,-15.2989,25.1052,7.12502,10.8765,54.8036,-20.6705,1.43439,21.1637,35.0416,-18.5543,0.254757,13.5542,-15.7653,0.909148,-24.0789,27.0462,-15.1226,-0.402054,-4.65233
-0.280302,17.6898,13.4217,-172.789,-0.845489,-182.366,3.51895,-0.969989,-5.10973,-0.477849,-1.47749,2.21711,-2.2824,-0.662979,5.25037,-16.4693,-1.54956,-8.26665,39.9902,6.20139,-0.720196,17.4011,2.69722,2.80893,2.48481e-14,0,-35.0743,-10.2069,-78.5899,33.7254,19.3008,-19.5348,3.14104,7.12502,6.78888,-26.7301,2.48481e-14,0,-25.9444,8.47682,81.2149,35.4993,-2.7615,-15.6029,25.1058,7.12502,10.5833,54.8193,-20.6319,1.61888,21.3128,34.8743,-18.5381,0.309864,14.4469,-16.0056,1.10362,-23.9824,27.4634,-15.3032,-0.173473,-6.56649
-0.265423,17.6974,13.4231,-172.792,-0.75421,-182.294,3.54874,-0.963189,-4.95169,-0.455164,-1.4635,2.25627,-2.28015,-0.659169,5.2012,-16.4343,-1.49009,-8.24914,39.979,6.33927,-0.813269,17.3868,2.74746,2.78873,-1.0138e-14,-1.59028e-15,-34.9723,-9.96855,-78.6701,34.0662,19.058,-19.4976,3.04263,7.12502,6.82484,-26.8274,-1.0138e-14,-1.59028e-15,-26.0277,8.45485,81.384,35.2548,-3.41764,-16.0036,24.6873,7.12502,10.1967,54.4202,-20.5034,1.6469,21.4278,34.583,-18.4056,0.330562,13.9302,-16.2852,1.02127,-23.8031,27.9884,-15.2743,-0.197253,-5.72548
-0.252983,17.707,13.4171,-172.85,-0.661152,-182.248,3.62417,-0.943837,-4.78459,-0.44519,-1.43445,2.25421,-2.31976,-0.646222,5.10437,-16.329,-1.44248,-8.16059,39.9195,6.41658,-0.925824,17.3322,2.78412,2.73149,-1.21259e-14,5.56597e-15,-34.9484,-9.76294,-78.7641,34.4228,18.927,-19.4443,2.90115,7.12502,6.87628,-26.9672,-1.21259e-14,5.56597e-15,-26.2266,8.54795,81.4808,35.0874,-3.8752,-16.3677,23.851,7.12502,9.84539,53.6008,-20.3838,1.56705,21.5395,34.3871,-18.2191,0.275529,12.7912,-16.4719,1.05303,-23.697,28.4478,-15.0619,-0.234606,-5.76773
-0.244712,17.71,13.404,-172.973,-0.577198,-182.248,3.6188,-0.89854,-4.56773,-0.355651,-1.36511,2.1956,-2.23865,-0.619262,4.91461,-16.3036,-1.47187,-8.17305,39.8777,6.33238,-0.883092,17.3021,2.75269,2.73344,-6.75868e-15,2.14687e-14,-34.8342,-9.65846,-78.8642,34.683,18.7537,-19.5504,2.59984,7.12502,6.77381,-27.2718,-6.75868e-15,2.14687e-14,-26.4267,8.55209,81.6114,35.0282,-4.25129,-16.4228,23.6364,7.12502,9.79227,53.3887,-20.1375,1.45933,21.5782,34.1727,-18.0272,0.325796,12.0742,-16.5744,1.13781,-23.7,28.9716,-14.9878,-0.129792,-6.90283
-0.231294,17.7126,13.3991,-173.041,-0.550015,-182.22,3.61266,-0.872696,-4.39337,-0.273258,-1.32374,2.18686,-2.1588,-0.605417,4.80286,-16.2559,-1.48281,-8.2622,39.7799,6.27493,-0.821055,17.2313,2.72318,2.75794,-1.21259e-14,-2.38542e-14,-34.7311,-9.63722,-78.8823,34.968,18.6418,-19.5449,2.39227,7.12502,6.7792,-27.4792,-1.21259e-14,-2.38542e-14,-26.4624,8.49243,81.7762,34.8941,-4.39126,-16.2371,23.753,7.12502,9.97144,53.4968,-19.9624,1.39873,21.6494,34.0324,-17.9218,0.455336,12.2868,-16.808,1.17596,-23.6276,29.5367,-14.8874,-0.0588267,-7.20924
-0.215642,17.709,13.4027,-172.999,-0.484696,-182.186,3.63897,-0.861055,-4.32166,-0.237778,-1.30674,2.21907,-2.13969,-0.599557,4.795,-16.386,-1.45839,-8.22361,39.7559,6.3053,-0.864594,17.2528,2.72482,2.73809,-2.14687e-14,7.15625e-15,-34.5896,-9.48263,-78.9288,35.2452,18.4858,-19.5593,2.4488,7.12502,6.76528,-27.4231,-2.14687e-14,7.15625e-15,-26.4609,8.58917,81.8906,34.7118,-4.42537,-16.1982,23.6241,7.12502,10.0089,53.3661,-19.9808,1.37963,21.7197,33.94,-17.7479,0.651612,12.782,-17.2646,1.28283,-23.5648,30.1748,-14.6663,0.0306248,-9.96915
-0.202257,17.7011,13.4075,-172.967,-0.394905,-181.988,3.69433,-0.83088,-4.03613,-0.212441,-1.25795,2.27633,-2.1548,-0.579707,4.69111,-16.5166,-1.47496,-8.10399,39.7892,6.31841,-1.01553,17.3176,2.71948,2.65739,-7.25564e-15,-3.97569e-15,-34.3845,-9.33521,-78.9844,35.3989,18.3614,-19.632,2.3517,7.12502,6.69511,-27.5225,-7.25564e-15,-3.97569e-15,-26.433,8.71246,81.9806,34.398,-4.55505,-16.3219,23.416,7.12502,9.8896,53.1637,-20.0061,1.45198,21.9534,33.824,-17.5954,0.847746,13.6339,-17.7959,1.58242,-23.3633,30.9436,-14.4069,0.0873176,-15.1791
-0.186869,17.7037,13.4169,-172.94,-0.415363,-181.747,3.8031,-0.784557,-3.67372,-0.215185,-1.18605,2.34031,-2.23239,-0.547339,4.55095,-16.5127,-1.54237,-8.19188,39.8104,6.22199,-0.946059,17.3272,2.67687,2.68717,-2.48481e-15,1.27222e-14,-34.2347,-9.30972,-78.9388,35.5343,18.2331,-19.5863,2.2194,7.12502,6.73914,-27.6534,-2.48481e-15,1.27222e-14,-26.3547,8.8638,82.1485,33.9899,-4.85054,-16.2913,23.3748,7.12502,9.91908,53.1211,-20.0067,1.48831,22.2606,33.6791,-17.4812,0.887157,14.3425,-18.3943,1.78259,-23.073,31.8293,-14.1577,0.019155,-18.3019
-0.16956,17.7114,13.4245,-172.927,-0.442552,-181.743,3.92136,-0.7547,-3.6203,-0.214198,-1.14796,2.36085,-2.30245,-0.52764,4.54266,-16.4629,-1.55591,-8.22781,39.7703,6.18586,-0.9149,17.2907,2.66349,2.69712,1.0138e-14,7.95139e-15,-34.086,-9.25228,-78.8772,35.5968,18.0986,-19.5703,2.40282,7.12502,6.7546,-27.4694,1.0138e-14,7.95139e-15,-26.377,9.09109,82.2707,33.7266,-5.2541,-16.7407,22.5963,7.12502,9.4855,52.3628,-19.9425,1.46435,22.3191,33.4847,-17.3414,0.917346,14.7118,-18.995,1.87588,-23.0127,32.8204,-13.8596,-0.134993,-18.9832
-0.153774,17.7155,13.4262,-172.995,-0.431526,-181.93,4.08975,-0.745774,-3.82727,-0.206655,-1.15027,2.35496,-2.38535,-0.52396,4.65785,-16.4219,-1.52509,-8.14788,39.7498,6.23743,-0.990959,17.2729,2.68977,2.65707,-2.01766e-14,2.14687e-14,-33.9338,-9.03924,-78.8522,35.5997,17.9604,-19.7354,2.57947,7.12502,6.59528,-27.2978,-2.01766e-14,2.14687e-14,-26.5637,9.39464,82.3168,33.5849,-5.7847,-17.6888,21.1461,7.12502,8.57064,50.9522,-19.7638,1.44009,22.1682,33.2605,-17.1608,0.910836,14.4422,-19.507,1.9837,-23.1825,33.8624,-13.4297,-0.222147,-19.7349
-0.138387,17.7202,13.4288,-173.086,-0.413786,-181.983,4.25158,-0.678156,-3.82295,-0.18402,-1.06558,2.34444,-2.46238,-0.480444,4.64273,-16.3553,-1.55581,-8.1471,39.7509,6.1914,-0.978353,17.258,2.67917,2.6535,-1.74931e-14,-1.90833e-14,-33.8206,-9.05296,-78.7643,35.6315,17.9037,-19.8137,2.64225,7.12502,6.51965,-27.2374,-1.74931e-14,-1.90833e-14,-26.6185,9.5635,82.4029,33.25,-6.16953,-18.2715,20.054,7.12502,8.00826,49.8823,-19.5464,1.49378,22.1566,33.0363,-17.1219,0.933595,14.8273,-20.0495,2.12503,-23.2079,34.9021,-12.8627,-0.301134,-20.5711
-0.121666,17.7249,13.4316,-173.124,-0.349754,-181.926,4.30178,-0.624737,-3.67964,-0.124329,-0.990309,2.32564,-2.43961,-0.447106,4.53737,-16.3445,-1.55825,-8.16263,39.7406,6.14905,-0.892167,17.2443,2.67089,2.68564,2.5842e-15,-8.74653e-15,-33.5915,-9.03112,-78.7805,35.5528,17.9027,-20.0258,2.77355,7.12502,6.31494,-27.1123,2.5842e-15,-8.74653e-15,-26.5763,9.71278,82.4522,32.8752,-6.23996,-18.5726,19.7962,7.12502,7.71769,49.6354,-19.3897,1.64933,22.2704,32.7945,-17.1634,0.867544,15.6364,-20.7082,2.24674,-23.0782,35.9742,-12.2458,-0.454981,-21.0861
-0.107059,17.7324,13.4293,-173.246,-0.332615,-181.936,4.38061,-0.608706,-3.63718,-0.0261125,-0.971305,2.33769,-2.38491,-0.442428,4.52493,-16.3185,-1.55563,-8.14734,39.6704,6.16036,-0.975759,17.2042,2.66621,2.64278,1.08338e-14,1.11319e-14,-33.3191,-8.88469,-78.7705,35.474,17.9149,-20.1829,2.80992,7.12502,6.16322,-27.0804,1.08338e-14,1.11319e-14,-26.5551,10.0148,82.5087,32.5279,-6.3242,-18.5043,19.8588,7.12502,7.78362,49.6955,-19.125,1.61832,22.3239,32.5186,-17.0928,0.852675,16.0307,-21.2948,2.2699,-23.0064,37.1103,-11.6188,-0.602486,-20.9554
-0.0931774,17.7413,13.4271,-173.333,-0.360782,-181.898,4.50666,-0.595399,-3.5783,-0.0217053,-0.955546,2.41524,-2.45253,-0.434697,4.57401,-16.2517,-1.61068,-8.25796,39.7244,6.17272,-1.02499,17.2213,2.6568,2.64559,2.98177e-16,-3.18055e-14,-33.1552,-8.76309,-78.6444,35.4347,17.9653,-20.1251,2.57292,7.12502,6.21909,-27.3158,2.98177e-16,-3.18055e-14,-26.6573,10.3587,82.6121,32.1822,-6.48866,-18.2685,20.1345,7.12502,8.01124,49.9627,-18.886,1.51979,22.4371,32.2199,-16.9701,0.818287,16.0883,-21.964,2.30734,-22.8833,38.3441,-10.9032,-0.799647,-21.1751
-0.0810138,17.7513,13.4314,-173.294,-0.0641513,-181.881,4.60503,-0.43295,-3.47921,-0.0702812,-0.73595,2.3705,-2.5828,-0.321911,4.45947,-16.252,-1.68909,-8.27477,39.8357,6.06182,-0.931118,17.2825,2.62594,2.67776,1.78906e-15,1.74931e-14,-33.1265,-8.93322,-78.5324,35.4482,18.0576,-20.0199,2.63481,7.12502,6.32059,-27.2509,1.78906e-15,1.74931e-14,-26.8073,10.6356,82.6132,31.8935,-6.84038,-17.4097,21.2694,7.12502,8.84002,51.0642,-18.823,1.62249,22.4715,31.8929,-16.7032,0.900168,16.3288,-22.8337,2.72114,-22.8464,39.6781,-10.219,-1.00986,-22.5167
-0.0700478,17.7609,13.4425,-173.146,0.331372,-181.816,4.62471,-0.273666,-3.3179,-0.152356,-0.452323,2.29527,-2.70786,-0.151131,4.27042,-16.0548,-1.73717,-8.19778,39.7797,5.90858,-0.874018,17.2038,2.59425,2.65445,-2.08724e-15,-1.35174e-14,-33.2196,-9.0849,-78.4598,35.5936,18.1447,-19.8536,2.92626,7.12502,6.48111,-26.9546,-2.08724e-15,-1.35174e-14,-27.0153,10.7405,82.5708,31.733,-7.05848,-15.817,23.739,7.12502,10.3767,53.4629,-18.9144,1.82684,22.5383,31.5286,-16.307,0.949722,16.4171,-23.9321,3.13599,-22.7468,41.1077,-9.34374,-1.20499,-22.8456
-0.055564,17.7713,13.4502,-173.111,0.466492,-181.667,4.64179,-0.171139,-3.13693,-0.166337,-0.302405,2.33573,-2.74723,-0.0763939,4.19997,-15.7833,-1.78438,-8.28839,39.689,5.81751,-0.82665,17.0846,2.56638,2.66422,2.38542e-15,3.97569e-15,-33.2201,-9.0585,-78.3368,35.683,18.0709,-19.8695,3.01092,7.12502,6.46577,-26.8704,2.38542e-15,3.97569e-15,-27.2256,10.8223,82.6232,31.6223,-7.13254,-14.9531,25.0397,7.12502,11.21,54.7202,-18.7981,2.03195,22.734,31.1223,-16.0928,0.833709,16.7329,-24.9566,3.34003,-22.4861,42.6187,-8.37136,-1.42934,-22.4591
-0.0419352,17.7851,13.4476,-173.239,0.388112,-181.621,4.7228,-0.158993,-3.06304,-0.0924812,-0.277768,2.4051,-2.71869,-0.0646527,4.2288,-15.7127,-1.82308,-8.51972,39.6861,5.77793,-0.678838,17.0556,2.54079,2.76163,7.95139e-15,0,-33.0582,-8.95322,-78.1908,35.6002,17.9762,-19.9888,2.98649,7.12502,6.35063,-26.8983,7.95139e-15,0,-27.4097,11.174,82.7051,31.4834,-7.36752,-14.8973,24.8075,7.12502,11.2638,54.4851,-18.4126,2.09688,22.8465,30.6838,-16.0716,0.619133,16.9618,-25.7824,3.42724,-22.3299,44.1967,-7.40129,-1.61917,-21.6921
-0.0298765,17.8004,13.4419,-173.375,0.233826,-181.616,4.78571,-0.180808,-2.94474,0.0454467,-0.299314,2.3875,-2.60994,-0.0803348,4.14421,-15.9698,-1.84597,-8.56164,39.76,5.73163,-0.569311,17.156,2.51379,2.81849,-2.98177e-15,-1.59028e-15,-32.7631,-9.0812,-78.1546,35.5162,18.08,-19.7809,2.83302,7.12502,6.55133,-27.0457,-2.98177e-15,-1.59028e-15,-27.3856,11.5282,82.6405,31.1618,-7.64465,-14.8625,24.541,7.12502,11.2974,54.2168,-17.9984,1.97346,22.9184,30.2262,-15.9449,0.580371,17.2344,-26.6068,3.51,-22.2609,45.8485,-6.63528,-1.70503,-22.0847
-0.0171333,17.8122,13.4401,-173.444,0.0740141,-181.548,4.8616,-0.114797,-2.72913,0.125758,-0.286531,2.35305,-2.57358,-0.114861,3.98684,-16.2692,-1.89361,-8.33364,39.8843,5.67726,-0.683172,17.3147,2.49537,2.73244,1.00386e-14,-4.77083e-15,-32.5308,-9.25399,-78.1464,35.5088,18.1549,-19.5426,2.37307,7.12502,6.78142,-27.4983,1.00386e-14,-4.77083e-15,-27.3661,11.6679,82.5695,30.8371,-7.79864,-14.9391,24.4424,7.12502,11.2235,54.1222,-17.6778,1.77637,23.0724,29.7605,-15.7259,0.572279,17.5457,-27.5486,3.65049,-22.1517,47.5677,-6.33718,-1.5896,-24.9838
-0.00395025,17.82,13.4416,-173.517,-0.0403276,-181.443,5.02843,-0.0872876,-2.58635,0.117317,-0.246461,2.38847,-2.67991,-0.0954861,3.9417,-16.3139,-1.93788,-8.1198,40.0104,5.67007,-0.846248,17.412,2.5078,2.63141,-1.39149e-15,-1.03368e-14,-32.4436,-9.21888,-78.0638,35.4393,18.125,-19.6728,2.38369,7.12502,6.65569,-27.4917,-1.39149e-15,-1.03368e-14,-27.5852,11.7416,82.5631,30.6926,-7.77871,-15.0473,24.5687,7.12502,11.1191,54.2541,-17.3528,1.64648,23.2558,29.2827,-15.5061,0.525343,17.9725,-28.5326,3.74762,-21.9871,49.3508,-6.49069,-1.44724,-26.9083
0.00618516,17.8326,13.4396,-173.626,-0.182771,-181.304,5.22173,-0.0765577,-2.3723,0.083277,-0.224277,2.4304,-2.82607,-0.0851732,3.86457,-16.1237,-1.97891,-8.11314,40.0078,5.60938,-0.839192,17.3646,2.50028,2.61964,3.47873e-15,6.52014e-14,-32.4477,-9.16178,-77.9401,35.3125,18.0767,-19.7909,2.61114,7.12502,6.54165,-27.2678,3.47873e-15,6.52014e-14,-27.9515,11.887,82.5266,30.6257,-7.88841,-14.9312,24.6805,7.12502,11.2311,54.3599,-16.9592,1.54037,23.4684,28.7835,-15.2261,0.401687,18.0825,-29.527,3.68803,-21.7523,51.2174,-7.1599,-1.6389,-25.9736
0.0164498,17.8465,13.4338,-173.763,-0.210159,-181.227,5.44235,-0.0597648,-2.26002,0.0518539,-0.199363,2.49667,-2.98472,-0.0722169,3.87055,-15.9388,-1.97216,-8.35071,39.9523,5.62808,-0.696205,17.274,2.50415,2.72225,7.85199e-15,3.89618e-14,-32.4697,-8.8733,-77.8028,35.2842,17.8871,-19.8117,2.51031,7.12502,6.52157,-27.3693,7.85199e-15,3.89618e-14,-28.4307,12.1465,82.5012,30.6468,-7.84907,-14.9713,24.8196,7.12502,11.1924,54.5011,-16.5225,1.54664,23.5984,28.253,-15.0564,0.260339,17.7148,-30.5187,3.74004,-21.613,53.168,-8.16781,-2.28235,-24.49
0.0266055,17.8613,13.4294,-173.889,-0.188623,-181.141,5.62025,-0.0141672,-2.13145,0.0914176,-0.13602,2.54032,-3.0492,-0.0436822,3.83951,-15.9887,-1.9892,-8.53873,39.9428,5.6105,-0.571574,17.2726,2.48242,2.80796,-7.95139e-16,-3.97569e-15,-32.3562,-8.70112,-77.6928,35.2388,17.8324,-19.7658,2.42547,7.12502,6.56593,-27.4527,-7.95139e-16,-3.97569e-15,-28.714,12.3297,82.481,30.6225,-7.67701,-15.0619,24.7973,7.12502,11.105,54.4835,-16.1045,1.54095,23.7397,27.7131,-15.0439,0.120949,16.8803,-31.5151,3.91769,-21.5259,55.1995,-9.08392,-2.91761,-24.362
0.0351933,17.8781,13.4266,-173.921,-0.283026,-181.093,5.70217,0.0274567,-1.99256,0.127734,-0.0751421,2.54956,-3.06272,-0.0168307,3.76587,-16.1383,-2.0532,-8.59553,40.0049,5.52852,-0.506067,17.3459,2.44225,2.8396,-1.19271e-15,-2.38542e-14,-32.2253,-8.78848,-77.5569,35.1692,17.9589,-19.8294,2.68135,7.12502,6.50452,-27.1988,-1.19271e-15,-2.38542e-14,-28.8119,12.4309,82.4852,30.4505,-7.58684,-14.9905,24.7509,7.12502,11.1739,54.4333,-15.7742,1.42948,23.8283,27.1615,-14.9125,0.0591168,16.8976,-32.6708,4.01331,-21.5024,57.2881,-9.69717,-3.18758,-24.9541
0.0450944,17.8915,13.4265,-173.979,-0.455156,-181.141,5.87806,0.0259255,-2.02364,0.121354,-0.0813693,2.56902,-3.16759,-0.0180485,3.80589,-16.0853,-2.06267,-8.49305,39.8989,5.5078,-0.657225,17.2844,2.4313,2.74289,-6.4605e-15,-5.88403e-14,-32.1562,-8.71327,-77.424,35.1107,18.0328,-19.9665,2.58091,7.12502,6.37216,-27.3032,-6.4605e-15,-5.88403e-14,-29.0246,12.712,82.4256,30.2505,-7.72751,-14.845,24.7606,7.12502,11.3142,54.4354,-15.4162,1.28578,23.8292,26.5843,-14.6816,-0.0937649,16.7343,-33.8707,4.03753,-21.5689,59.3739,-10.2027,-3.33139,-25.5334
0.0570372,17.9094,13.425,-174.094,-0.629355,-181.23,6.081,0.0521114,-2.12505,0.13963,-0.0561472,2.56079,-3.26471,-0.00274814,3.85427,-15.9632,-2.08828,-8.32174,39.7669,5.43191,-0.820637,17.1945,2.41016,2.61623,-1.59028e-15,5.56597e-15,-32.0908,-8.71102,-77.3136,35.0815,17.9774,-19.9987,2.21658,7.12502,6.3411,-27.6685,-1.59028e-15,5.56597e-15,-29.2364,12.821,82.3787,30.0986,-7.6618,-14.8185,24.8305,7.12502,11.3398,54.5039,-14.9662,1.22491,23.7884,25.9709,-14.4455,-0.293273,16.288,-35.0088,4.03931,-21.6856,61.4667,-10.8592,-3.48987,-25.4325
0.0685618,17.9312,13.4223,-174.208,-0.795458,-181.237,6.25673,0.0833524,-2.11356,0.184727,-0.0181778,2.55444,-3.31982,0.0153374,3.83888,-15.93,3.1749,-9.72181,39.846,2.88838,1.71635,16.9754,-1.59974,2.56363,2.88238e-15,3.18055e-15,-32.0156,-8.7523,-77.2347,35.1281,17.8529,-19.9408,1.97964,7.12502,6.39698,-27.9038,2.88238e-15,3.18055e-15,-29.4186,12.9178,82.3062,29.9726,-7.5145,-14.7408,25.0488,7.12502,11.4147,54.7181,-14.4932,1.24249,23.8327,25.3256,-14.1498,-0.492616,16.5926,-36.1602,4.08485,-21.7437,63.5726,-11.5588,-3.61167,-24.9955
0.0785443,17.9516,13.4187,-174.269,-0.926149,-181.305,6.3564,0.0951509,-2.17469,0.255999,-0.0108022,2.55471,-3.30262,0.0177128,3.87349,-16.0127,3.12887,-9.74132,39.7522,2.87861,1.73519,16.9459,-1.58273,2.57869,4.07509e-15,6.36111e-15,-31.8463,-8.70523,-77.1509,35.0912,17.8391,-19.8891,2.13845,7.12502,6.44687,-27.7434,4.07509e-15,6.36111e-15,-29.598,13.2393,82.1843,29.8734,-7.60264,-14.4803,25.2969,7.12502,11.666,54.9521,-14.0389,1.31659,23.7966,24.5849,-13.9273,-0.76519,16.9176,-37.3454,4.09405,-21.8812,65.6937,-12.1752,-3.65821,-24.2599
0.0888331,17.9757,13.4125,-174.327,-1.05459,-181.507,6.42728,0.126627,-2.36606,0.324602,0.0150145,2.52183,-3.27366,0.0318668,3.94545,-16.0269,3.03578,-9.8089,39.5789,2.81956,1.73832,16.8605,-1.58679,2.58521,-1.09332e-15,2.14687e-14,-31.7339,-8.76426,-76.9785,35.0069,17.8624,-19.985,2.35456,7.12502,6.3543,-27.5301,-1.09332e-15,2.14687e-14,-29.8553,13.5127,82.0682,29.7548,-7.78519,-14.2953,25.2493,7.12502,11.8444,54.8944,-13.5441,1.33356,23.612,23.8063,-13.7951,-1.09183,16.7343,-38.5127,4.07464,-22.1872,67.7911,-12.7901,-3.53885,-24.1697
0.0992216,18.0008,13.4057,-174.397,-1.21031,-181.609,6.5215,0.158078,-2.40697,0.387723,0.049998,2.49117,-3.26415,0.0480643,3.93369,-16.0377,2.93247,-9.85347,39.4438,2.72685,1.73154,16.7992,-1.60851,2.57671,5.96354e-16,-2.38542e-15,-31.6985,-8.91068,-76.8243,35.0321,17.876,-20.1013,2.37257,7.12502,6.24198,-27.5155,5.96354e-16,-2.38542e-15,-30.1921,13.6303,81.9672,29.6426,-7.66877,-14.7044,24.6627,7.12502,11.4499,54.3301,-13.0107,1.36547,23.5406,22.9883,-13.6011,-1.44212,16.8814,-39.6859,4.0827,-22.3978,69.8514,-13.4715,-3.1858,-24.9051
0.109166,18.0196,13.4032,-174.453,-1.33002,-181.628,6.67477,0.177348,-2.40788,0.425456,0.070835,2.49711,-3.31285,0.0577043,3.93935,-16.1068,2.88242,-9.901,39.4224,2.69207,1.74672,16.8077,-1.61924,2.58869,2.78299e-15,4.13472e-14,-31.619,-9.10813,-76.6882,35.0742,17.9989,-19.9825,2.26821,7.12502,6.3567,-27.6164,2.78299e-15,4.13472e-14,-30.4119,13.7781,81.8711,29.4706,-7.58823,-15.0025,24.4772,7.12502,11.1623,54.1603,-12.5087,1.4079,23.5619,22.1204,-13.2462,-1.67059,17.4647,-40.8673,4.15957,-22.5263,71.8877,-14.1834,-2.9718,-25.0293
0.117881,18.0439,13.4011,-174.476,-1.48809,-181.605,6.83981,0.175756,-2.34645,0.440032,0.0688422,2.5018,-3.39003,0.0559812,3.91068,-16.1682,2.84567,-9.94135,39.4401,2.62236,1.86783,16.8334,-1.6326,2.64077,5.96354e-16,-3.26007e-14,-31.5783,-9.26271,-76.5657,35.094,18.1223,-19.9282,2.17367,7.12502,6.40912,-27.7094,5.96354e-16,-3.26007e-14,-30.411,14.096,81.7027,29.0738,-7.69655,-14.8508,24.7661,7.12502,11.3087,54.4412,-12.0363,1.41036,23.6298,21.2396,-12.9686,-2.14837,16.8132,-42.137,4.17088,-22.6373,73.8428,-14.8622,-2.8309,-24.9463
0.117349,18.0652,13.4032,-174.599,-1.53179,-181.579,7.18237,0.197546,-2.19529,0.472118,0.100252,2.48335,-3.55108,0.0695679,3.80477,-16.1757,2.81948,-9.94019,39.3713,2.60249,1.88442,16.7995,-1.62514,2.64634,-8.34896e-15,-3.97569e-14,-31.5633,-9.29669,-76.4709,35.1007,18.1659,-20.1448,2.01587,7.12502,6.20006,-27.8734,-8.34896e-15,-3.97569e-14,-30.5007,14.5031,81.4916,28.7863,-7.87124,-14.5596,24.9903,7.12502,11.5895,54.6498,-11.5216,1.28332,23.6667,20.4182,-12.1326,-2.22602,18.2365,-43.3559,4.25925,-22.8171,75.7252,-15.5772,-2.65824,-25.4585
0.0922012,18.0788,13.4128,-174.957,-1.39702,-181.644,7.89051,0.270106,-1.80344,0.543993,0.21034,2.34891,-3.88003,0.11788,3.43434,-16.1106,2.79395,-9.92798,39.1981,2.6352,1.7788,16.6925,-1.60086,2.60307,1.39149e-15,1.11319e-14,-31.4783,-9.44311,-76.3807,35.0026,18.2081,-20.4276,1.92368,7.12502,5.92698,-27.9734,1.39149e-15,1.11319e-14,-30.6345,14.7468,81.2909,28.5268,-7.94318,-14.3065,25.1763,7.12502,11.8335,54.822,-10.8214,0.787946,23.4966,19.5642,-11.4036,-1.83036,18.3474,-44.2962,4.30519,-23.1857,77.5223,-16.2933,-2.46167,-25.0208
0.111851,18.1,13.4003,-174.091,-0.901007,-181.73,6.9508,0.486412,-2.1334,0.366976,0.499419,2.31752,-3.56074,0.272297,3.55557,-16.0383,2.73083,-10.0167,39.0898,2.53132,1.9206,16.6189,-1.61892,2.66455,-3.97569e-16,-9.54166e-15,-31.4321,-9.71471,-76.2833,34.9281,18.1704,-20.3756,2.00142,7.12502,5.97719,-27.8943,-3.97569e-16,-9.54166e-15,-30.7749,14.835,81.1086,28.2249,-7.93856,-14.0954,25.2616,7.12502,12.0372,54.8954,-11.3212,1.32705,23.3932,18.6797,-10.9401,-1.97882,18.7794,-46.5161,4.88766,-23.5386,79.2439,-16.9593,-2.42318,-25.1772
0.120734,18.1177,13.3932,-173.764,-0.846973,-181.688,6.67314,0.592085,-2.08996,0.313973,0.651017,2.29187,-3.47083,0.34809,3.48946,-16.0102,2.64762,-10.138,39.0555,2.37259,2.138,16.598,-1.66096,2.75689,8.34896e-15,1.27222e-14,-31.481,-10.0799,-76.1565,34.9494,18.069,-20.2148,2.05637,7.12502,6.13248,-27.8349,8.34896e-15,1.27222e-14,-30.9358,14.8066,80.9821,28.0145,-7.83615,-14.1017,25.3512,7.12502,12.0311,54.9854,-11.2076,1.51992,23.4476,17.7941,-10.5423,-2.26671,19.008,-48.1628,5.05524,-23.7129,80.8391,-17.5973,-2.28166,-26.1646
0.124318,18.1335,13.3889,-173.797,-0.927254,-181.566,6.83008,0.631148,-1.89453,0.370953,0.711461,2.30077,-3.50203,0.37271,3.38176,-16.2287,2.6155,-10.1178,39.1663,2.36447,2.11626,16.7148,-1.66817,2.74817,8.15017e-15,1.82882e-14,-31.455,-10.1403,-76.1232,34.9966,17.7585,-20.269,1.94076,7.12502,6.08016,-27.952,8.15017e-15,1.82882e-14,-31.0692,14.9259,80.8281,27.8524,-7.84404,-14.1219,25.3845,7.12502,12.0115,55.0199,-10.7205,1.55679,23.6032,16.9153,-10.1333,-2.56707,19.0926,-49.3583,5.02594,-23.7316,82.3118,-18.1484,-2.37967,-26.2368
0.130787,18.1559,13.3841,-173.885,-0.946153,-181.519,7.04215,0.688164,-1.85277,0.443003,0.783739,2.3357,-3.55155,0.405553,3.38667,-16.495,2.59007,-10.0755,39.3416,2.38423,2.00874,16.8807,-1.68228,2.70187,7.95139e-15,-7.95139e-15,-31.3732,-10.2034,-76.0387,34.9971,17.5478,-20.3565,1.78097,7.12502,5.99567,-28.1142,7.95139e-15,-7.95139e-15,-31.2213,15.1076,80.7152,27.6673,-7.93203,-14.0949,25.4114,7.12502,12.0376,55.0452,-10.1486,1.74254,23.6608,15.9862,-9.69921,-2.93478,18.976,-50.4203,5.04755,-23.8104,83.6182,-18.6577,-2.68839,-25.4471
0.137385,18.1722,13.3811,-173.885,-0.950505,-181.604,7.21385,0.769926,-1.97798,0.463304,0.879966,2.35004,-3.6361,0.455797,3.46195,-16.7346,2.6065,-9.92962,39.5628,2.44021,1.83931,17.0663,-1.68177,2.61446,5.1684e-15,3.33958e-14,-31.4102,-10.2462,-75.8963,35.1082,17.4189,-20.2907,1.62593,7.12502,6.05917,-28.2674,5.1684e-15,3.33958e-14,-31.4303,15.19,80.6427,27.543,-8.0262,-13.8824,25.5573,7.12502,12.2425,55.1789,-9.67344,1.82321,23.5733,15.0589,-9.28309,-3.18539,18.9772,-51.5652,5.04397,-24.0573,84.7875,-19.1307,-2.89992,-25.1658
0.14097,18.1878,13.3759,-173.802,-0.971907,-181.724,7.27795,0.848979,-2.04807,0.471572,0.978573,2.27215,-3.67066,0.50682,3.4096,-16.9452,2.66554,-9.55736,39.7556,2.51606,1.59761,17.2342,-1.64359,2.45779,6.95746e-15,-5.56597e-15,-31.4576,-10.4253,-75.8524,35.1618,17.3932,-20.2843,1.62505,7.12502,6.06536,-28.2681,6.95746e-15,-5.56597e-15,-31.5682,15.2183,80.4651,27.3983,-8.1443,-13.6791,25.7616,7.12502,12.4385,55.3715,-9.32927,1.73049,23.4642,14.2184,-8.8995,-3.33462,18.4375,-52.7625,4.96304,-24.3549,85.8307,-19.4233,-3.15486,-25.527
0.142395,18.2042,13.3688,-173.755,-0.979357,-181.687,7.33829,0.901291,-1.97355,0.501393,1.05136,2.26374,-3.67744,0.54059,3.35057,-16.9669,2.69017,-9.42681,39.7949,2.54298,1.51796,17.264,-1.62516,2.40472,-8.94531e-15,-5.32743e-14,-31.3998,-10.4747,-75.8068,35.0848,17.3099,-20.3328,1.95566,7.12502,6.01855,-27.9389,-8.94531e-15,-5.32743e-14,-31.7179,15.1929,80.348,27.2942,-8.09907,-13.6025,25.8165,7.12502,12.5123,55.4219,-8.95307,1.75287,23.5013,13.3995,-8.55684,-3.50534,18.3905,-53.8908,4.9362,-24.4906,86.7491,-19.7407,-3.40908,-26.3564
0.14645,18.2166,13.3628,-173.658,-1.00424,-181.703,7.42417,0.950434,-2.00327,0.465434,1.11478,2.24992,-3.7679,0.574827,3.34541,-16.8988,2.66347,-9.45792,39.7677,2.47532,1.59847,17.2332,-1.64076,2.43436,3.57812e-15,-4.05521e-14,-31.4868,-10.5845,-75.7362,35.114,17.3645,-20.2408,2.02996,7.12502,6.1073,-27.862,3.57812e-15,-4.05521e-14,-31.9258,15.1934,80.188,27.1371,-8.1489,-13.5832,25.7426,7.12502,12.5309,55.3468,-8.59102,1.8136,23.4896,12.4951,-8.20728,-3.77942,18.2837,-55.0325,4.85233,-24.6493,87.569,-20.1235,-3.76415,-26.1907
0.149296,18.2284,13.356,-173.604,-1.12116,-181.668,7.61229,0.974458,-1.87953,0.441518,1.15386,2.20102,-3.89746,0.593747,3.21835,-16.975,2.62961,-9.41506,39.7584,2.42666,1.63576,17.2511,-1.63989,2.4385,2.18663e-15,2.8625e-14,-31.5695,-10.6112,-75.8019,35.1912,17.2578,-20.351,1.87739,7.12502,6.00095,-28.0176,2.18663e-15,2.8625e-14,-32.0299,15.2391,79.952,26.8609,-8.29374,-13.5773,25.6798,7.12502,12.5367,55.2837,-8.14059,1.85047,23.5386,11.5213,-7.93856,-4.10696,18.2253,-56.0943,4.68282,-24.7188,88.3061,-20.529,-4.24827,-25.4277
0.149765,18.2364,13.3463,-173.541,-1.21643,-181.578,7.71869,0.982384,-1.68546,0.495027,1.17516,2.17631,-3.89838,0.598466,3.07964,-17.1064,2.57617,-9.36967,39.6766,2.4302,1.54082,17.2449,-1.62605,2.39309,9.54166e-15,-1.03368e-14,-31.4106,-10.4995,-75.9491,35.176,17.054,-20.5251,1.6067,7.12502,5.8329,-28.293,9.54166e-15,-1.03368e-14,-32.0804,15.2494,79.7925,26.7533,-8.26541,-13.4784,25.9584,7.12502,12.632,55.5564,-7.70765,1.80466,23.6538,10.572,-7.53302,-4.33224,18.2719,-57.1249,4.53964,-24.7513,88.9244,-20.861,-4.65794,-25.0265
0.151182,18.2423,13.3353,-173.47,-1.22425,-181.468,7.75378,1.04594,-1.56689,0.55043,1.26615,2.20881,-3.8647,0.638869,3.03622,-17.0601,2.48997,-9.42961,39.5045,2.36918,1.51087,17.1447,-1.63871,2.38087,-6.95746e-15,-7.95139e-16,-31.3004,-10.424,-75.9576,35.1361,17.0329,-20.4966,1.4956,7.12502,5.86035,-28.4034,-6.95746e-15,-7.95139e-16,-32.2463,14.9893,79.8138,26.8514,-8.00421,-13.4403,26.3092,7.12502,12.6688,55.905,-7.27814,1.78954,23.7792,9.60175,-7.10716,-4.47523,18.8251,-58.1105,4.48735,-24.7636,89.3752,-21.19,-4.96107,-25.1943
0.153064,18.2501,13.3215,-173.466,-1.25573,-181.494,7.82682,1.11539,-1.59098,0.570227,1.35483,2.20898,-3.89147,0.682867,3.03932,-16.8322,2.42117,-9.58776,39.3175,2.2644,1.6359,16.9866,-1.66552,2.44435,7.15625e-15,1.19271e-14,-31.4422,-10.326,-75.9108,35.2134,17.026,-20.3968,1.62586,7.12502,5.95673,-28.2704,7.15625e-15,1.19271e-14,-32.5555,14.762,79.806,27.0668,-7.82517,-13.3245,26.601,7.12502,12.7803,56.1899,-6.75189,1.72852,23.7547,8.63667,-6.76621,-4.63,19.0183,-58.883,4.38623,-24.9197,89.6299,-21.5797,-4.96197,-25.9862
0.154853,18.2577,13.3076,-173.491,-1.2257,-181.49,7.92374,1.19269,-1.57864,0.636853,1.45366,2.17891,-3.8819,0.729393,2.98891,-16.7568,2.38661,-9.65988,39.2227,2.20218,1.75954,16.9159,-1.66849,2.50254,-1.05356e-14,-7.15625e-15,-31.4529,-10.2393,-75.9699,35.2514,16.834,-20.4266,1.91118,7.12502,5.92799,-27.9859,-1.05356e-14,-7.15625e-15,-32.6672,14.6904,79.6926,27.1022,-7.77631,-13.079,26.6298,7.12502,13.0171,56.2037,-6.23727,1.73183,23.768,7.73518,-6.37792,-4.81594,18.5965,-59.5701,4.3221,-25.0252,89.7575,-21.8898,-5.0176,-25.9118
0.156726,18.2626,13.2973,-173.447,-1.18541,-181.459,8.04319,1.26175,-1.51662,0.684599,1.54592,2.12781,-3.90197,0.772506,2.88862,-16.6929,2.33177,-9.67518,39.0885,2.12505,1.81812,16.8318,-1.67324,2.51905,-1.5704e-14,-1.35174e-14,-31.4012,-10.1864,-76.0975,35.259,16.688,-20.4927,2.13656,7.12502,5.86416,-27.7623,-1.5704e-14,-1.35174e-14,-32.7239,14.7297,79.51,27.0831,-7.83489,-12.9988,26.4308,7.12502,13.0944,55.9997,-5.89265,1.75294,23.8085,7.00717,-6.03565,-4.93615,18.5987,-60.3609,4.25885,-25.1,89.8133,-21.8995,-5.65967,-24.1015
0.156888,18.2653,13.2877,-173.371,-1.19361,-181.464,8.15186,1.31657,-1.517,0.715569,1.61548,2.11742,-3.93469,0.806031,2.8685,-16.5243,2.23244,-9.84027,38.84,2.0248,1.88803,16.6618,-1.69836,2.56071,6.55989e-15,1.59028e-14,-31.3699,-10.1653,-76.1026,35.2508,16.9093,-20.5349,2.30248,7.12502,5.82345,-27.5975,6.55989e-15,1.59028e-14,-33.0073,14.7168,79.3933,27.0582,-8.23034,-13.4632,25.6796,7.12502,12.6467,55.2767,-5.68912,1.72272,23.8048,6.49352,-5.83569,-5.00784,18.6885,-61.1152,4.12354,-25.1899,89.8173,-21.7627,-6.61044,-22.3718
0.15591,18.2684,13.278,-173.29,-1.24376,-181.468,8.21857,1.35299,-1.49334,0.753648,1.66284,2.1178,-3.93473,0.82761,2.84923,-16.4643,2.20589,-9.92975,38.7155,2.02465,1.92485,16.5792,-1.68821,2.59357,-1.8487e-14,-3.97569e-15,-31.2691,-10.258,-76.0529,35.1527,17.3883,-20.4724,2.36938,7.12502,5.88371,-27.5289,-1.8487e-14,-3.97569e-15,-33.3016,14.67,79.2912,26.9333,-8.85487,-14.0851,24.676,7.12502,12.0471,54.3093,-5.57473,1.65147,23.8078,6.15237,-5.72873,-5.05344,18.154,-61.7898,3.94251,-25.2598,89.7865,-21.7536,-7.20408,-21.7094
0.153995,18.2683,13.2643,-173.151,-1.24655,-181.422,8.20751,1.41766,-1.38861,0.735455,1.75883,2.0867,-3.94912,0.874084,2.74637,-16.4758,2.22768,-9.82742,38.8054,2.02173,1.89674,16.6315,-1.68586,2.56335,-8.54774e-15,1.27222e-14,-31.2669,-10.3672,-76.0411,35.058,17.6823,-20.3737,2.2692,7.12502,5.97902,-27.6264,-8.54774e-15,1.27222e-14,-33.4769,14.5332,79.2145,26.9254,-8.81848,-14.2916,24.6195,7.12502,11.8479,54.2643,-5.5767,1.63625,23.8465,5.97248,-5.72798,-5.08431,17.8289,-62.4139,3.82368,-25.2907,89.6858,-22.0249,-7.30774,-21.9154
0.15299,18.2665,13.2464,-173.065,-1.27697,-181.41,8.18772,1.49043,-1.33607,0.738144,1.86009,2.04612,-3.93815,0.923453,2.66287,-16.3408,2.19765,-9.77513,38.7694,1.924,1.93112,16.5858,-1.7087,2.5509,1.33186e-14,1.98785e-14,-31.3662,-10.4634,-76.038,35.0776,17.8089,-20.1701,2.38428,7.12502,6.17558,-27.5057,1.33186e-14,1.98785e-14,-33.677,14.312,79.1828,27.1557,-8.50009,-14.0362,25.2292,7.12502,12.0942,54.8596,-5.54152,1.5859,23.8545,5.86035,-5.7848,-5.08967,18.2751,-62.9268,3.68104,-25.3613,89.4352,-22.2171,-7.23855,-22.4677
0.153448,18.262,13.2307,-173.042,-1.30982,-181.286,8.28171,1.54761,-1.20468,0.811246,1.94194,2.07143,-3.91593,0.958479,2.6044,-16.2885,2.14105,-9.91042,38.6073,1.86954,2.06666,16.4868,-1.70691,2.6271,-9.93923e-16,7.95139e-16,-31.295,-10.5204,-76.0787,35.0741,17.8428,-20.0016,2.72229,7.12502,6.3383,-27.1629,-9.93923e-16,7.95139e-16,-33.6868,14.261,79.2032,27.2771,-8.43229,-13.9444,25.6597,7.12502,12.1827,55.2849,-5.43238,1.54609,24.0045,5.69106,-5.79088,-5.12647,18.6077,-63.4335,3.56633,-25.2731,89.0375,-22.0255,-7.37371,-22.1874
0.151063,18.2625,13.2174,-173.017,-1.17484,-181.189,8.48239,1.62735,-1.12736,0.839958,2.05059,2.0965,-4.00256,1.00945,2.57,-16.2081,2.12372,-10.0631,38.4892,1.87124,2.16442,16.4006,-1.69941,2.6973,-3.49861e-14,-5.00937e-14,-31.2053,-10.4267,-76.1578,35.0469,17.8755,-19.9048,2.66661,7.12502,6.43174,-27.2157,-3.49861e-14,-5.00937e-14,-33.7911,14.2517,79.2023,27.414,-8.26688,-13.997,26.0261,7.12502,12.132,55.6544,-5.35265,1.66741,24.0912,5.53071,-5.69481,-5.14908,18.4104,-63.8822,3.5664,-25.229,88.4878,-21.8384,-7.18912,-21.9961
0.146744,18.2668,13.2021,-172.912,-0.956839,-181.216,8.56454,1.73579,-1.19608,0.851836,2.18724,2.09163,-4.04608,1.07815,2.58527,-16.1708,2.11558,-10.1817,38.5018,1.87719,2.18765,16.3962,-1.71289,2.72882,-1.74931e-14,1.11319e-14,-31.1214,-10.2701,-76.204,35.0228,17.8566,-19.8273,2.36849,7.12502,6.50658,-27.5116,-1.74931e-14,1.11319e-14,-34.008,14.2703,79.1523,27.6939,-7.76616,-13.6352,26.2328,7.12502,12.4808,55.8401,-5.35232,1.85733,24.0091,5.35266,-5.59722,-5.14457,18.1153,-64.2954,3.57126,-25.3231,87.9117,-21.8263,-6.62115,-22.6396
0.14317,18.2688,13.1859,-172.775,-0.907718,-181.347,8.51379,1.79532,-1.32145,0.934592,2.25065,2.02401,-3.9373,1.10932,2.58005,-16.2598,2.09662,-10.0167,38.5127,1.89594,1.97872,16.4313,-1.70641,2.61306,2.60408e-14,-1.66979e-14,-30.9244,-10.2515,-76.3134,34.9853,17.8437,-19.8243,2.37702,7.12502,6.50947,-27.5029,2.60408e-14,-1.66979e-14,-34.001,14.388,79.0427,27.8991,-7.34797,-13.1156,26.3711,7.12502,12.9817,55.9472,-5.37301,1.86855,23.8393,5.18925,-5.56173,-5.12879,18.0573,-64.6432,3.42797,-25.5322,87.3674,-21.7346,-6.11761,-23.4427
0.140253,18.2684,13.1676,-172.724,-1.02931,-181.332,8.55043,1.79435,-1.26292,1.00159,2.24924,1.98425,-3.88407,1.10501,2.50588,-16.2192,2.08831,-9.85208,38.4634,1.88659,1.83474,16.4022,-1.69878,2.51901,3.97569e-16,-5.56597e-15,-30.8729,-10.2138,-76.4501,35.0508,17.8992,-19.9114,2.60476,7.12502,6.42538,-27.2778,3.97569e-16,-5.56597e-15,-34.0215,14.1866,79.0698,28.1111,-7.00105,-13.0925,27.2852,7.12502,13.004,56.8599,-5.35967,1.7256,23.858,5.18222,-5.63534,-5.06961,17.8583,-64.8526,3.15109,-25.5293,86.8027,-21.5109,-5.76236,-23.6607
0.137468,18.2656,13.1441,-172.693,-1.11535,-181.212,8.6177,1.78519,-1.12387,1.03368,2.24609,1.99534,-3.88312,1.09936,2.43826,-16.2072,2.09318,-10.0033,38.4771,1.86312,2.04422,16.4,-1.69989,2.63493,1.55052e-14,3.18055e-14,-30.8442,-10.0615,-76.5964,35.073,17.9428,-19.9998,2.70218,7.12502,6.33998,-27.1829,1.55052e-14,3.18055e-14,-34.1965,13.9049,79.1223,28.3458,-6.61708,-13.3022,27.928,7.12502,12.8019,57.5155,-5.43652,1.63205,23.9952,5.45308,-5.80794,-4.94835,17.9949,-64.9828,2.93649,-25.375,86.2351,-21.2249,-5.46703,-23.2565
0.136531,18.2596,13.1198,-172.604,-1.19002,-181.157,8.58372,1.78738,-1.06321,1.10464,2.24993,1.9874,-3.7879,1.09746,2.39725,-16.3268,2.05986,-10.2134,38.4865,1.82086,2.30528,16.4286,-1.70363,2.78431,-3.99557e-14,-7.15625e-15,-30.7315,-9.95418,-76.7665,35.1315,17.8913,-19.9241,2.62184,7.12502,6.41307,-27.2611,-3.99557e-14,-7.15625e-15,-34.2496,13.8465,79.0649,28.4347,-6.24727,-13.3793,27.6538,7.12502,12.7276,57.2459,-5.61481,1.54603,24.0677,5.79154,-6.02681,-4.8261,18.3177,-65.124,2.72545,-25.2842,85.6471,-20.8908,-5.27389,-23.024
0.138596,18.2547,13.0988,-172.526,-1.21794,-181.206,8.58074,1.82531,-1.18874,1.16708,2.28548,1.97256,-3.72759,1.11502,2.44921,-16.2767,2.02664,-10.3046,38.4477,1.76219,2.40328,16.3975,-1.72081,2.83351,-2.80286e-14,-4.29375e-14,-30.6005,-10.01,-76.8556,35.0766,17.9776,-19.9517,2.4792,7.12502,6.38642,-27.4045,-2.80286e-14,-4.29375e-14,-34.3114,13.9689,78.9426,28.4699,-5.98338,-13.3221,26.9277,7.12502,12.7827,56.5163,-5.78549,1.49239,24.0342,6.11415,-6.21164,-4.72613,18.391,-65.2018,2.58358,-25.3337,85.0314,-20.5401,-5.17744,-22.5105
0.139884,18.2488,13.0806,-172.534,-1.22127,-181.228,8.75074,1.89928,-1.25712,1.21353,2.37207,1.94832,-3.78053,1.15724,2.4482,-16.1365,1.9821,-10.3607,38.3283,1.68483,2.4708,16.3053,-1.73687,2.85813,-5.1684e-15,2.54444e-14,-30.507,-10.1499,-76.896,34.9303,18.1012,-20.1577,2.64113,7.12502,6.18755,-27.2485,-5.1684e-15,2.54444e-14,-34.4327,13.9766,78.8778,28.5707,-5.88811,-13.3608,26.5573,7.12502,12.7454,56.1483,-5.90774,1.46039,24.0253,6.53521,-6.47151,-4.58793,18.3378,-65.1683,2.45467,-25.3511,84.3758,-19.9689,-4.95626,-22.5645
0.137061,18.2425,13.0574,-172.602,-1.34698,-181.045,8.93823,1.8908,-1.03158,1.29162,2.37245,1.96642,-3.79537,1.14972,2.33623,-16.0947,1.96254,-10.3677,38.2243,1.68016,2.462,16.242,-1.72634,2.85477,-5.96354e-16,3.97569e-15,-30.4254,-10.0717,-77.0448,34.9768,18.1112,-20.0087,2.5693,7.12502,6.33143,-27.3161,-5.96354e-16,3.97569e-15,-34.6127,13.7991,78.8759,28.8297,-5.69974,-13.3028,26.6576,7.12502,12.8013,56.2451,-5.91315,1.33111,24.247,6.89095,-6.71028,-4.47279,18.2368,-65.0492,2.21853,-25.1192,83.7056,-19.4352,-4.83578,-22.3515
0.134616,18.2427,13.0291,-172.444,-1.40748,-181.193,8.85289,1.90908,-1.21522,1.31373,2.37983,1.90836,-3.73029,1.15628,2.38091,-15.9791,1.94533,-10.3893,38.1324,1.64415,2.49326,16.1682,-1.72943,2.86456,-3.97569e-15,-6.36111e-15,-30.3996,-9.95443,-77.1914,35.1084,18.0504,-19.8971,2.43647,7.12502,6.43918,-27.4456,-3.97569e-15,-6.36111e-15,-34.734,13.468,79.0056,29.3108,-5.03312,-12.8798,27.9058,7.12502,13.209,57.4673,-6.13438,1.23382,24.0849,7.20131,-6.93099,-4.32365,18.1742,-65.0085,1.92336,-25.192,82.9858,-18.6922,-4.97989,-21.7699
0.13296,18.2365,13.0018,-172.336,-1.46668,-181.095,8.83445,1.94431,-1.18187,1.31755,2.43017,1.94398,-3.71887,1.1804,2.39357,-15.7839,1.91495,-10.4566,38.0203,1.58338,2.52903,16.067,-1.74978,2.87816,5.76476e-15,0,-30.4108,-9.84801,-77.2802,35.1665,18.0058,-20.042,2.43405,7.12502,6.2993,-27.4523,5.76476e-15,0,-34.87,13.2905,79.1299,29.7351,-4.58538,-12.4482,28.9163,7.12502,13.625,58.4504,-6.30412,1.1711,24.2007,7.51405,-7.18265,-4.16004,18.0846,-64.9687,1.70872,-24.9749,82.3571,-17.7815,-5.39533,-20.6723
0.130408,18.2286,12.9734,-172.248,-1.51815,-181.019,8.84236,1.95539,-1.14313,1.35087,2.44591,1.95233,-3.68821,1.18609,2.37887,-15.7699,1.9146,-10.4153,37.9792,1.60434,2.46052,16.0431,-1.73817,2.84471,3.77691e-15,2.38542e-15,-30.318,-9.7447,-77.4269,35.1999,18.111,-20.0826,2.31514,7.12502,6.26007,-27.5724,3.77691e-15,2.38542e-15,-34.9667,13.4203,78.9898,29.5816,-4.94855,-12.7548,27.5981,7.12502,13.3296,57.1518,-6.49752,1.1115,24.2906,7.93028,-7.43098,-4.02862,17.8182,-64.8571,1.50908,-24.8205,81.7409,-16.8379,-5.56987,-20.3191
0.128162,18.2209,12.9457,-172.2,-1.6134,-181.01,8.88272,1.96397,-1.16213,1.40116,2.45129,1.93497,-3.65876,1.18703,2.37053,-15.8017,1.9076,-10.4113,38.006,1.58654,2.49059,16.0653,-1.74016,2.85567,-4.17448e-15,1.98785e-14,-30.1431,-9.70168,-77.5805,35.1659,18.1314,-20.1293,2.32361,7.12502,6.21502,-27.5652,-4.17448e-15,1.98785e-14,-35.0489,13.3933,78.8896,29.464,-5.19738,-13.1281,26.2997,7.12502,12.9698,55.8765,-6.65559,0.996111,24.3168,8.34665,-7.71901,-3.88015,18.093,-64.654,1.27222,-24.7408,81.1802,-16.1252,-5.62706,-20.1593
0.126779,18.2126,12.9192,-172.147,-1.74795,-181.006,8.92859,1.95732,-1.22945,1.4359,2.43346,1.9501,-3.65081,1.17764,2.42565,-15.6736,1.87333,-10.4585,37.9,1.53607,2.50581,15.9841,-1.75516,2.85988,-3.81667e-14,-2.94201e-14,-30.0251,-9.50633,-77.7043,35.1414,18.052,-20.2147,2.64979,7.12502,6.13253,-27.2415,-3.81667e-14,-2.94201e-14,-35.1206,13.3027,78.9226,29.5933,-5.12747,-13.0106,26.3811,7.12502,13.083,55.9507,-6.87118,0.844171,24.3622,8.86131,-8.04672,-3.70852,18.1226,-64.4374,0.958327,-24.6334,80.7282,-15.7428,-5.62153,-18.4651
0.122937,18.2056,12.8866,-172.1,-1.77129,-181.058,8.90468,1.98762,-1.39072,1.51099,2.45499,1.98392,-3.56907,1.18745,2.55091,-15.6271,1.82534,-10.5201,37.8083,1.53194,2.39859,15.9306,-1.7706,2.82222,1.63003e-14,-4.77083e-15,-29.9164,-9.32143,-77.7638,35.163,18.1906,-20.327,3.0053,7.12502,6.02411,-26.8891,1.63003e-14,-4.77083e-15,-35.1509,13.4035,78.9874,29.6686,-5.16843,-13.02,26.2173,7.12502,13.0739,55.7875,-7.06594,0.791643,24.3204,9.41288,-8.34949,-3.51587,18.13,-64.1598,0.779508,-24.6509,80.4193,-15.4595,-5.35087,-15.5114
0.117348,18.1951,12.8513,-172.054,-1.77818,-181.105,8.86653,2.00322,-1.50448,1.57819,2.46168,1.98281,-3.48327,1.18951,2.61518,-15.5787,1.83217,-10.6498,37.7744,1.53723,2.51995,15.8968,-1.76531,2.89848,-2.82274e-14,-3.18055e-15,-29.8155,-9.07864,-77.9019,35.2426,18.2169,-20.3456,2.99536,7.12502,6.00612,-26.8995,-2.82274e-14,-3.18055e-15,-35.2684,13.4767,79.0003,29.8318,-5.1818,-13.0227,26.1498,7.12502,13.0713,55.7202,-7.25252,0.752892,24.2608,9.95609,-8.64807,-3.32081,17.7402,-63.8557,0.609766,-24.6676,80.2771,-15.6527,-4.62135,-14.3688
0.11392,18.1832,12.8197,-171.964,-1.8079,-181.121,8.88576,2.01431,-1.59415,1.56594,2.46907,1.97235,-3.51048,1.19516,2.65316,-15.2679,1.82737,-10.8164,37.59,1.47365,2.71207,15.7274,-1.77462,2.99461,-4.17448e-15,3.33958e-14,-29.8093,-8.8644,-78.0521,35.3396,18.1549,-20.2642,2.77187,7.12502,6.08471,-27.1208,-4.17448e-15,3.33958e-14,-35.5009,13.3557,79.0106,30.0083,-5.06758,-13.1323,26.0283,7.12502,12.9657,55.6054,-7.50164,0.701138,24.2488,10.5048,-8.95784,-3.15715,17.4474,-63.6603,0.438251,-24.6347,80.2685,-16.1013,-3.57607,-15.304
0.110205,18.1708,12.7869,-171.856,-1.85527,-181.05,8.94085,2.0481,-1.58587,1.51202,2.51751,1.96733,-3.59942,1.22163,2.63482,-14.9007,1.77842,-10.8387,37.3536,1.36919,2.69367,15.5316,-1.80664,2.96568,-2.26615e-14,-1.03368e-14,-29.8525,-8.80883,-78.159,35.4015,18.0481,-20.1373,2.63471,7.12502,6.20729,-27.2543,-2.26615e-14,-1.03368e-14,-35.6967,13.1265,79.04,30.1563,-5.00129,-13.1312,26.0314,7.12502,12.9668,55.6084,-7.778,0.660774,24.3323,11.0705,-9.31084,-2.96749,17.4505,-63.5403,0.301692,-24.5147,80.3541,-16.8573,-3.85123,-14.8612
0.106225,18.1621,12.7522,-171.739,-1.90655,-180.979,8.92787,2.06298,-1.58475,1.51672,2.53747,1.97532,-3.58883,1.23129,2.64051,-15.0499,1.78522,-10.7593,37.4892,1.39011,2.62156,15.6354,-1.80683,2.92753,3.97569e-14,4.77083e-15,-29.7183,-8.6687,-78.301,35.4066,18.0858,-20.0117,2.41717,7.12502,6.32854,-27.4683,3.97569e-14,4.77083e-15,-35.8107,12.9908,79.0937,30.37,-4.90603,-13.0541,26.1466,7.12502,13.041,55.7189,-8.05736,0.676891,24.409,11.6529,-9.7326,-2.82505,17.638,-63.42,0.152484,-24.3983,80.4795,-17.4492,-4.23824,-13.3306
0.102736,18.1554,12.7183,-171.619,-1.97876,-180.985,8.90668,2.06042,-1.67007,1.52399,2.5265,1.97105,-3.57237,1.2269,2.68619,-14.9541,1.7925,-10.8172,37.4172,1.3916,2.68126,15.5742,-1.79867,2.96228,-3.16068e-14,5.56597e-15,-29.5795,-8.48467,-78.4575,35.4107,18.214,-20.0712,2.3217,7.12502,6.27112,-27.5655,-3.16068e-14,5.56597e-15,-35.9168,12.9392,79.1256,30.564,-4.7359,-12.9807,26.3135,7.12502,13.1118,55.8813,-8.35455,0.61987,24.4009,12.2709,-10.1518,-2.6547,17.401,-63.2604,-0.0302575,-24.3724,80.5754,-18.0422,-4.31604,-12.8931
0.0982354,18.1427,12.6832,-171.512,-2.08337,-180.884,8.90574,2.07358,-1.5962,1.54666,2.54903,1.97952,-3.54682,1.23586,2.65107,-14.5959,1.67117,-11.2319,37.0782,1.18459,3.05724,15.3305,-1.8596,3.15591,1.98785e-16,-2.3059e-14,-29.459,-8.40524,-78.5819,35.4432,18.3441,-20.2668,2.47372,7.12502,6.08227,-27.419,1.98785e-16,-2.3059e-14,-35.8867,12.8694,79.2104,30.603,-4.64999,-13.1528,26.3782,7.12502,12.9459,55.9566,-8.64996,0.493709,24.5231,12.9064,-10.5633,-2.48861,16.6653,-63.1162,-0.195259,-24.25,80.642,-18.6672,-4.12579,-12.7514
0.0941165,18.1289,12.6491,-171.353,-2.17971,-180.849,8.88746,2.09113,-1.59469,1.54049,2.5732,1.95245,-3.54315,1.24838,2.61949,-14.3715,1.58934,-11.471,36.8701,1.01027,3.37613,15.1848,-1.90133,3.30205,-1.98785e-15,-2.3059e-14,-29.3459,-8.39767,-78.7065,35.4146,18.5015,-20.5113,2.92472,7.12502,5.84619,-26.9746,-1.98785e-15,-2.3059e-14,-35.8292,12.6906,79.3034,30.5507,-4.60772,-13.3182,26.2238,7.12502,12.7865,55.8122,-8.99668,0.380002,24.5794,13.5066,-10.9127,-2.36334,16.1996,-63.0825,-0.344069,-24.2065,80.6076,-19.155,-3.94344,-11.5771
