JuanDHNZ/ProyectoFinalCD/preprocessing/sports_trials_csv/14_25.csv
root1,root2,root3,root4,root5,root6,lowerback1,lowerback2,lowerback3,upperback1,upperback2,upperback3,thorax1,thorax2,thorax3,lowerneck1,lowerneck2,lowerneck3,upperneck1,upperneck2,upperneck3,head1,head2,head3,rclavicle1,rclavicle2,rhumerus1,rhumerus2,rhumerus3,rradius1,rwrist1,rhand1,rhand2,rfingers1,rthumb1,rthumb2,lclavicle1,lclavicle2,lhumerus1,lhumerus2,lhumerus3,lradius1,lwrist1,lhand1,lhand2,lfingers1,lthumb1,lthumb2,rfemur1,rfemur2,rfemur3,rtibia1,rfoot1,rfoot2,rtoes1,lfemur1,lfemur2,lfemur3,ltibia1,lfoot1,lfoot2,ltoes1
-0.723987,17.9076,-1.44808,6.23056,-7.39876,1.27584,1.99583,-1.22354,-2.47495,-1.39431,-1.66568,1.99003,-2.423,-0.772727,3.50415,-17.5473,-9.87069,-13.135,20.383,-11.6854,6.49205,10.6237,-5.68772,2.67552,-4.96962e-17,1.27222e-14,-30.5437,-7.49965,-81.0569,29.9715,22.946,-21.9431,-0.160471,7.12502,4.46376,-30.0934,-4.96962e-17,1.27222e-14,-35.194,23.2579,74.5273,27.9217,-12.5535,-7.77122,29.1381,7.12502,18.129,58.3133,-17.8197,5.6733,16.7094,31.217,-17.7198,-4.18953,10.6226,-8.16734,-3.46425,-20.1096,20.934,-13.9164,15.7372,-16.9358
-0.698243,17.9093,-1.46185,6.29291,-7.30925,1.34615,1.97628,-1.26051,-2.59101,-1.33503,-1.71853,1.98127,-2.34382,-0.799565,3.56074,-17.8476,-9.87834,-13.0392,20.4728,-11.6634,6.40558,10.6972,-5.67218,2.62185,1.8487e-14,3.4191e-14,-30.3267,-7.51637,-81.0146,29.8756,22.9187,-21.7699,-0.0632605,7.12502,4.63093,-29.9926,1.8487e-14,3.4191e-14,-34.9941,23.2064,74.6348,27.7548,-11.8914,-7.76148,29.6026,7.12502,18.1383,58.7769,-17.9486,5.56995,16.5383,31.2194,-17.6728,-4.18591,10.6412,-8.34621,-3.40312,-20.2481,20.9735,-13.9125,15.5428,-16.6615
-0.671868,17.9104,-1.47162,6.3202,-7.31125,1.41071,1.93213,-1.22439,-2.68268,-1.37599,-1.6725,1.96906,-2.36282,-0.774207,3.59774,-17.7081,-9.87949,-13.2026,20.5832,-11.6724,6.50845,10.7313,-5.68147,2.68673,1.10325e-14,-1.27222e-14,-30.4278,-7.60867,-80.8339,29.8235,22.9113,-21.6121,0.0198171,7.12502,4.78332,-29.9062,1.10325e-14,-1.27222e-14,-35.0816,23.0821,74.6579,27.7133,-11.8961,-7.74585,29.6617,7.12502,18.1534,58.8345,-18.0399,5.51875,16.3681,31.2327,-17.5992,-4.1874,10.5607,-8.42672,-3.41901,-20.4119,20.9707,-13.872,15.5613,-16.7613
-0.644318,17.9126,-1.47751,6.27224,-7.3363,1.4092,1.96659,-1.1839,-2.69023,-1.38763,-1.61914,1.97829,-2.39812,-0.746474,3.61087,-17.5346,-9.88623,-13.3728,20.6322,-11.6886,6.61091,10.7378,-5.69531,2.75294,-2.77305e-14,1.11319e-14,-30.5644,-7.76442,-80.6244,29.8037,22.9959,-21.6464,0.18023,7.12502,4.75023,-29.7465,-2.77305e-14,1.11319e-14,-35.1971,23.1639,74.5738,27.6712,-12.1986,-8.37053,28.5052,7.12502,17.5523,57.7328,-18.0096,5.57357,16.2682,31.2397,-17.6095,-4.25404,10.1278,-8.40493,-3.41595,-20.5179,20.9713,-13.8634,15.5817,-16.5852
-0.615654,17.9137,-1.48152,6.20643,-7.3162,1.46654,1.99063,-1.16852,-2.71863,-1.35582,-1.60049,1.9519,-2.38039,-0.737663,3.59895,-17.5098,-9.89609,-13.3781,20.649,-11.692,6.55865,10.7367,-5.70384,2.73522,2.79292e-14,-1.43125e-14,-30.6274,-7.80945,-80.5062,29.7524,22.9857,-21.8246,0.32746,7.12502,4.57814,-29.6031,2.79292e-14,-1.43125e-14,-35.219,23.1062,74.6094,27.6586,-11.832,-8.59472,28.5452,7.12502,17.3365,57.792,-17.9494,5.62463,16.0985,31.2631,-17.6439,-4.29271,10.0509,-8.36039,-3.3457,-20.6855,20.9401,-13.7808,15.4935,-16.5777
-0.588344,17.9164,-1.4891,6.23809,-7.21442,1.53065,1.92482,-1.17666,-2.76502,-1.30226,-1.61251,1.8958,-2.28749,-0.745914,3.56471,-17.6873,-9.90754,-13.2096,20.7246,-11.7106,6.46358,10.7811,-5.70549,2.66507,-2.86747e-14,7.95139e-16,-30.6077,-7.76321,-80.516,29.7554,22.8605,-22.0163,0.184445,7.12502,4.39299,-29.75,-2.86747e-14,7.95139e-16,-35.1358,23.0337,74.6289,27.7814,-11.642,-6.25577,31.4309,7.12502,19.5865,60.4643,-18.0082,5.61521,15.9207,31.2988,-17.7223,-4.31593,10.2596,-8.44358,-3.17117,-20.8365,20.8936,-13.6008,15.2013,-16.4805
-0.562452,17.9203,-1.49971,6.25501,-7.17763,1.63467,1.97303,-1.17001,-2.88716,-1.26849,-1.60978,1.82444,-2.27887,-0.743774,3.56033,-17.8776,-9.9061,-13.1017,20.7803,-11.7292,6.51515,10.8348,-5.69475,2.65646,3.06625e-14,-2.38542e-14,-30.5631,-7.79748,-80.5418,29.8047,22.789,-22.0166,-0.0706174,7.12502,4.39279,-30.0051,3.06625e-14,-2.38542e-14,-35.0427,22.9641,74.5532,27.9846,-12.1294,-7.3268,29.8687,7.12502,18.5565,59.0036,-18.1104,5.62917,15.7071,31.3412,-17.7329,-4.4152,9.9368,-8.53464,-2.94655,-21.0226,20.8477,-13.3565,14.8573,-16.337
-0.536221,17.9211,-1.50513,6.20296,-7.19428,1.73809,2.01986,-1.13973,-2.99724,-1.24995,-1.57475,1.77578,-2.28757,-0.724963,3.57176,-17.8332,-9.90772,-13.1904,20.7841,-11.7357,6.60479,10.841,-5.69555,2.70274,2.37051e-14,-9.93923e-15,-30.5639,-7.91781,-80.4369,29.7406,22.7622,-22.0054,-0.0878885,7.12502,4.40352,-30.0221,2.37051e-14,-9.93923e-15,-34.9966,22.8602,74.5755,27.9573,-12.1995,-7.58299,29.78,7.12502,18.3101,58.9382,-18.1247,5.66472,15.4928,31.3699,-17.773,-4.49767,9.73067,-8.52557,-2.87568,-21.2321,20.8317,-13.2666,14.7628,-16.4625
-0.507671,17.9218,-1.51003,6.14444,-7.10843,1.77579,1.98094,-1.17717,-3.02097,-1.13494,-1.62454,1.75184,-2.14303,-0.754308,3.55899,-17.9444,-9.89311,-13.1282,20.764,-11.7032,6.56003,10.8432,-5.6778,2.67879,-8.84592e-15,5.96354e-15,-30.3911,-7.99361,-80.3977,29.6386,22.7692,-22.0291,0.132641,7.12502,4.38065,-29.8021,-8.84592e-15,5.96354e-15,-34.8774,23.0494,74.4743,27.4814,-12.1224,-8.5375,27.6639,7.12502,17.3916,56.9059,-18.0844,5.56076,15.3683,31.3926,-17.7789,-4.58796,9.05171,-8.50616,-2.81504,-21.3768,20.8355,-13.2386,14.6243,-16.486
-0.479652,17.9225,-1.51957,6.1331,-6.9646,1.76491,1.91447,-1.24432,-2.98896,-0.999164,-1.71146,1.73156,-1.96001,-0.804061,3.51847,-18.1869,-9.87298,-12.9632,20.756,-11.6622,6.4664,10.8629,-5.65031,2.61813,9.64106e-15,2.38542e-15,-30.1852,-7.99654,-80.4338,29.5866,22.8759,-22.1109,0.319491,7.12502,4.30166,-29.6168,9.64106e-15,2.38542e-15,-34.6694,23.0012,74.5618,27.7334,-11.6789,-8.96269,28.3066,7.12502,16.9823,57.5842,-18.0778,5.49807,15.2964,31.3888,-17.7907,-4.73166,8.93787,-8.59012,-2.67445,-21.448,20.9015,-13.1772,14.3765,-16.6052
-0.453617,17.9225,-1.53207,6.08812,-6.92593,1.74291,2.0365,-1.23347,-2.97693,-0.967411,-1.69976,1.71905,-1.99757,-0.798132,3.50119,-18.378,-9.86856,-12.9116,20.8867,-11.6348,6.39917,10.9357,-5.6368,2.58306,-7.04692e-14,-7.95139e-15,-30.1433,-8.10098,-80.3673,29.4927,22.9718,-22.0774,0.189519,7.12502,4.33402,-29.7461,-7.04692e-14,-7.95139e-15,-34.6728,23.0853,74.4702,27.7591,-11.9833,-8.80946,28.0942,7.12502,17.1298,57.3591,-18.0704,5.58595,15.2273,31.3723,-17.7515,-4.8609,9.44757,-8.66439,-2.44617,-21.497,20.9952,-13.2003,14.1504,-16.8349
-0.429095,17.9218,-1.5459,6.08588,-6.90449,1.6579,2.23257,-1.18032,-2.92813,-1.07261,-1.63205,1.74072,-2.22243,-0.758772,3.50103,-17.9184,-9.88915,-13.1769,20.6391,-11.7144,6.70076,10.8065,-5.6707,2.73643,-1.50082e-14,-1.31198e-14,-30.3485,-8.24183,-80.1852,29.4484,22.9389,-22.0494,0.126153,7.12502,4.36109,-29.8089,-1.50082e-14,-1.31198e-14,-34.7886,22.9174,74.4789,27.7341,-11.7473,-7.99587,28.978,7.12502,17.9128,58.173,-18.1289,5.65096,15.2439,31.3804,-17.6382,-5.0795,8.9408,-8.78433,-2.10415,-21.4571,21.0626,-13.1796,13.767,-16.9366
-0.401976,17.919,-1.55698,6.10146,-6.82113,1.70387,2.29251,-1.16383,-2.95246,-1.14487,-1.61336,1.70223,-2.33259,-0.746068,3.47714,-17.3169,-9.89051,-13.445,20.2419,-11.8045,7.10754,10.6059,-5.70202,2.93169,2.33572e-14,2.8625e-14,-30.5657,-8.31945,-80.0678,29.4918,22.9973,-22.0892,0.0768208,7.12502,4.32265,-29.8591,2.33572e-14,2.8625e-14,-34.8794,22.6597,74.478,27.7007,-11.5035,-8.23758,28.8721,7.12502,17.6802,58.0883,-18.1901,5.60297,15.0977,31.4047,-17.616,-5.16047,8.47134,-8.91286,-1.90499,-21.5776,21.1183,-13.1625,13.4226,-16.827
-0.373039,17.9144,-1.5636,6.07155,-6.76271,1.8132,2.28649,-1.19385,-3.04643,-1.07149,-1.65718,1.64896,-2.24903,-0.769659,3.47517,-17.7669,-9.85129,-13.1323,20.6062,-11.6836,6.66444,10.7574,-5.66162,2.72805,2.5842e-14,-2.38542e-15,-30.4904,-8.33667,-80.0693,29.4638,23.165,-22.1433,0.116012,7.12502,4.27043,-29.8209,2.5842e-14,-2.38542e-15,-34.7735,22.7177,74.4279,27.642,-11.6232,-8.88453,28.0077,7.12502,17.0576,57.2788,-18.202,5.54628,14.866,31.438,-17.6344,-5.07046,8.89471,-8.95302,-1.88833,-21.776,21.1597,-13.2439,13.265,-16.3764
-0.34534,17.9105,-1.5706,6.01454,-6.76318,1.78676,2.35744,-1.17708,-3.05453,-1.06458,-1.63606,1.68791,-2.28225,-0.758127,3.52105,-17.955,-9.79947,-13.0837,20.8929,-11.54,6.37217,10.8597,-5.62201,2.63249,-2.48481e-15,-1.74931e-14,-30.5829,-8.33858,-79.9152,29.4979,23.2794,-22.0111,0.205765,7.12502,4.39809,-29.7286,-2.48481e-15,-1.74931e-14,-34.8136,22.7524,74.4592,27.7042,-11.8154,-8.65799,28.3969,7.12502,17.2756,57.649,-18.1939,5.60014,14.789,31.4875,-17.6772,-4.97334,9.5455,-8.9305,-1.96138,-21.8194,21.1698,-13.377,13.2677,-15.7891
-0.318647,17.9103,-1.57785,6.01647,-6.72877,1.81651,2.29091,-1.15061,-3.07402,-1.06607,-1.60004,1.66854,-2.24939,-0.740625,3.50887,-17.8417,-9.79502,-13.1831,20.9373,-11.5341,6.41049,10.8639,-5.62595,2.66658,1.90833e-14,-2.38542e-15,-30.7097,-8.31769,-79.8218,29.5906,23.1613,-21.9269,0.280849,7.12502,4.47938,-29.6518,1.90833e-14,-2.38542e-15,-34.8234,22.6601,74.4691,27.9448,-12.2929,-7.84962,29.5142,7.12502,18.0535,58.6963,-18.2484,5.5486,14.6543,31.5363,-17.7031,-4.87863,9.73534,-8.98997,-1.79767,-21.9257,21.1877,-13.4402,13.0376,-15.7522
-0.291257,17.9082,-1.58978,5.96437,-6.70874,1.90695,2.25415,-1.14725,-3.11093,-0.916338,-1.59709,1.56117,-2.07668,-0.745066,3.41495,-18.1193,-9.8161,-12.9852,20.9802,-11.5614,6.32561,10.9148,-5.62512,2.5903,1.52567e-14,-1.70955e-14,-30.5331,-8.1584,-79.9855,29.6711,22.9493,-21.9682,0.0495752,7.12502,4.43951,-29.8839,1.52567e-14,-1.70955e-14,-34.5448,22.7132,74.3761,27.8427,-12.7416,-8.22513,28.8044,7.12502,17.6922,58.0195,-18.2791,5.5545,14.4489,31.5744,-17.7047,-4.82381,10.0542,-9.04112,-1.50955,-22.113,21.2312,-13.3501,12.7771,-15.9203
-0.266069,17.9062,-1.60037,5.86583,-6.7298,1.93979,2.37423,-1.15373,-3.19332,-0.837213,-1.61149,1.54782,-2.05975,-0.752753,3.44989,-18.2479,-9.77933,-13.0293,21.0223,-11.5043,6.41643,10.9573,-5.58891,2.63504,1.78906e-15,-2.38542e-15,-30.5012,-7.88443,-80.0532,29.7538,22.859,-22.0378,-0.217771,7.12502,4.37223,-30.1526,1.78906e-15,-2.38542e-15,-34.4195,22.7412,74.3784,27.6217,-12.2434,-8.96416,28.0399,7.12502,16.9809,57.3176,-18.2552,5.53959,14.3211,31.6073,-17.717,-4.81853,10.1773,-9.0257,-1.21674,-22.2394,21.2787,-13.2785,12.5584,-16.318
-0.24193,17.9043,-1.60897,5.82016,-6.70169,2.00335,2.48061,-1.13492,-3.32869,-0.844623,-1.59398,1.54904,-2.12516,-0.740682,3.52976,-18.1851,-9.77131,-13.1312,21.0316,-11.4924,6.49218,10.9599,-5.58451,2.68242,2.57426e-14,-7.95139e-15,-30.6465,-7.84136,-79.9682,29.8712,22.7808,-21.9379,-0.190846,7.12502,4.4687,-30.1237,2.57426e-14,-7.95139e-15,-34.397,22.6193,74.4427,27.5907,-11.7259,-9.06226,28.0361,7.12502,16.8865,57.3219,-18.2652,5.52854,14.1635,31.6319,-17.7361,-4.90718,9.99608,-9.06522,-1.04457,-22.3848,21.3376,-13.3085,12.3467,-16.4315
-0.217317,17.9041,-1.62011,5.80649,-6.5992,2.02443,2.51368,-1.13596,-3.39696,-0.797514,-1.59836,1.54772,-2.09312,-0.743393,3.56712,-18.2699,-9.79175,-13.045,21.0469,-11.4946,6.34024,10.9656,-5.59387,2.61058,-1.07841e-14,2.46493e-14,-30.62,-7.91382,-79.8911,29.9113,22.6144,-21.7599,-0.00763651,7.12502,4.64059,-29.9368,-1.07841e-14,2.46493e-14,-34.3355,22.6916,74.4191,27.7792,-12.1562,-8.68785,28.2319,7.12502,17.2469,57.4865,-18.2887,5.5483,14.0555,31.634,-17.7568,-4.99,10.1517,-9.17004,-0.901214,-22.4623,21.4167,-13.3594,12.0476,-16.2373
-0.190193,17.9056,-1.62869,5.76065,-6.46456,2.00661,2.52441,-1.17808,-3.39042,-0.753526,-1.65402,1.56497,-2.04869,-0.772864,3.58289,-18.2626,-9.77552,-13.0471,21.0722,-11.4485,6.24628,10.9627,-5.58424,2.58531,-3.11098e-14,4.77083e-15,-30.6241,-7.94751,-79.8178,29.9388,22.6172,-21.7211,0.110296,7.12502,4.67806,-29.8181,-3.11098e-14,4.77083e-15,-34.3707,22.6639,74.4462,27.9718,-12.1311,-8.42988,28.6598,7.12502,17.4952,57.8925,-18.2461,5.32657,13.9958,31.6327,-17.6749,-4.90167,10.1398,-9.21832,-0.692933,-22.5176,21.5071,-13.4011,11.68,-16.0761
-0.163598,17.9055,-1.63699,5.76809,-6.34354,2.00735,2.5745,-1.20285,-3.39565,-0.816886,-1.68916,1.56968,-2.13882,-0.787349,3.59457,-18.1666,-9.75277,-13.1324,21.1923,-11.4097,6.23383,10.9905,-5.57816,2.6038,-1.32192e-14,3.18055e-15,-30.779,-8.01071,-79.7268,29.9609,22.802,-21.8344,0.00798475,7.12502,4.56871,-29.9227,-1.32192e-14,3.18055e-15,-34.4788,22.4223,74.5368,28.1098,-11.1468,-8.12918,29.6723,7.12502,17.7845,58.879,-18.2659,5.06702,13.9183,31.6254,-17.5714,-4.8819,9.49928,-9.3354,-0.532638,-22.5971,21.6338,-13.4557,11.3897,-15.7731
-0.138851,17.9029,-1.64886,5.72523,-6.21009,1.94289,2.68319,-1.21145,-3.37406,-0.840085,-1.70253,1.60816,-2.22215,-0.791885,3.62622,-18.0092,-9.73983,-13.2843,21.2492,-11.3896,6.29526,10.9948,-5.57851,2.65847,-3.8266e-14,-1.51076e-14,-30.9194,-8.08144,-79.6062,29.992,22.8801,-21.9655,0.0545186,7.12502,4.44205,-29.8789,-3.8266e-14,-1.51076e-14,-34.5738,22.3698,74.5241,28.065,-11.4846,-8.33789,29.1773,7.12502,17.5837,58.4022,-18.2393,4.99112,13.9265,31.6354,-17.5449,-4.97248,9.37791,-9.40826,-0.456184,-22.5936,21.7625,-13.4744,11.2231,-16.0457
-0.114158,17.8985,-1.6619,5.62885,-6.15052,1.82901,2.83058,-1.18457,-3.25866,-0.862378,-1.66622,1.63713,-2.33345,-0.772407,3.59415,-17.5291,-9.72314,-13.493,21.0271,-11.3892,6.39935,10.8442,-5.59429,2.74682,-7.45443e-16,1.39149e-14,-31.1658,-8.18423,-79.4488,30.0923,22.8651,-21.9336,0.162546,7.12502,4.47291,-29.7702,-7.45443e-16,1.39149e-14,-34.725,22.3551,74.4624,28.2743,-12.3301,-7.66052,29.7332,7.12502,18.2355,58.8984,-18.2048,4.93803,13.9836,31.683,-17.4821,-4.98424,9.54633,-9.40162,-0.392454,-22.5326,21.8606,-13.48,11.0803,-15.8855
-0.0900959,17.8955,-1.67312,5.55029,-6.20294,1.80805,2.94546,-1.15272,-3.27312,-0.856454,-1.62795,1.61789,-2.3954,-0.751939,3.58376,-17.3317,-9.67129,-13.4883,20.931,-11.3448,6.41616,10.7679,-5.57662,2.76788,-8.44835e-16,9.54166e-15,-31.277,-8.27133,-79.3989,30.1835,22.8073,-21.8131,0.324827,7.12502,4.58922,-29.6055,-8.44835e-16,9.54166e-15,-34.7833,22.1985,74.4366,28.328,-12.3156,-7.05935,30.1478,7.12502,18.8137,59.2579,-18.2406,4.93949,13.92,31.7564,-17.4308,-5.00301,9.49396,-9.41185,-0.214418,-22.5827,21.9401,-13.5273,10.9052,-15.39
-0.0679644,17.8952,-1.68118,5.50331,-6.24467,1.90131,2.95119,-1.14935,-3.44323,-0.730218,-1.63056,1.5635,-2.26529,-0.755998,3.62139,-17.6894,-9.64545,-13.2199,21.0345,-11.2926,6.24089,10.8371,-5.54301,2.65923,1.54058e-14,-1.78906e-14,-31.0301,-8.40836,-79.4701,30.1191,22.8683,-21.7972,0.543443,7.12502,4.60458,-29.3865,1.54058e-14,-1.78906e-14,-34.4976,22.1328,74.4692,28.0327,-11.643,-7.94074,29.0986,7.12502,17.9659,58.2888,-18.278,4.91614,13.7271,31.8469,-17.4265,-4.98072,9.32976,-9.42383,-0.0183042,-22.7634,22.0078,-13.6277,10.7059,-15.1231
-0.045388,17.8941,-1.68875,5.44503,-6.20583,1.94942,2.90356,-1.13361,-3.49653,-0.588832,-1.60982,1.52212,-2.09434,-0.751256,3.60396,-17.8339,-9.67686,-13.2572,20.9947,-11.326,6.33416,10.8615,-5.54604,2.68739,-2.24627e-14,2.70347e-14,-30.8704,-8.48104,-79.5007,30.0985,22.7518,-22.0281,0.636623,7.12502,4.38165,-29.298,-2.24627e-14,2.70347e-14,-34.1416,22.0687,74.5577,27.8312,-11.5333,-8.83333,27.9869,7.12502,17.1069,57.2538,-18.2783,4.77256,13.5936,31.9638,-17.4425,-4.8551,9.307,-9.40674,0.121554,-22.8932,22.0208,-13.6322,10.5487,-15.3236
-0.0243907,17.8904,-1.69964,5.38272,-6.1318,1.99068,2.89903,-1.11021,-3.56912,-0.536513,-1.58095,1.50897,-2.03891,-0.738113,3.62908,-17.633,-9.6841,-13.5477,20.8759,-11.3503,6.62743,10.822,-5.55086,2.84117,1.29707e-14,-2.62396e-14,-30.9164,-8.52266,-79.3965,30.1615,22.5816,-22.031,0.635299,7.12502,4.3788,-29.2994,1.29707e-14,-2.62396e-14,-34.0286,21.8227,74.6908,27.9648,-11.4147,-8.95274,27.9448,7.12502,16.9919,57.2216,-18.299,4.59181,13.4872,32.0775,-17.4467,-4.72327,9.23448,-9.42559,0.306083,-23.001,22.0309,-13.5682,10.3363,-15.7268
-0.00370687,17.8861,-1.70759,5.31138,-6.14969,2.13668,2.91508,-1.11902,-3.80043,-0.466497,-1.60205,1.46049,-1.96924,-0.748985,3.70946,-17.7126,-9.62166,-13.4598,20.9093,-11.2703,6.59999,10.8323,-5.509,2.82911,-9.64106e-15,1.98785e-14,-30.8708,-8.69278,-79.36,30.2118,22.6875,-21.8526,0.691385,7.12502,4.55112,-29.2397,-9.64106e-15,1.98785e-14,-33.9896,21.6222,74.7534,28.1369,-10.9179,-9.01857,28.5011,7.12502,16.9286,57.7833,-18.327,4.43991,13.2525,32.168,-17.4395,-4.58401,9.07657,-9.449,0.3565,-23.2276,22.0837,-13.5719,10.2848,-15.8186
0.0155585,17.884,-1.7186,5.28463,-6.11667,2.1319,2.99888,-1.15747,-3.88759,-0.422651,-1.65945,1.44471,-1.96394,-0.777644,3.74612,-17.8399,-9.54986,-13.2623,20.9159,-11.1719,6.46385,10.8254,-5.4612,2.76253,2.83765e-14,3.85642e-14,-30.8466,-8.80549,-79.3959,30.2763,22.796,-21.7583,0.663325,7.12502,4.64217,-29.2658,2.83765e-14,3.85642e-14,-33.9437,21.5332,74.7137,28.2452,-10.9641,-9.04743,28.533,7.12502,16.9008,57.8176,-18.3553,4.33789,13.1824,32.2252,-17.4512,-4.45648,9.33194,-9.53944,0.593459,-23.2722,22.1873,-13.5795,9.98972,-15.7677
0.0310202,17.8839,-1.73617,5.30613,-5.94989,2.06048,3.1045,-1.1728,-3.90853,-0.449573,-1.68427,1.47642,-2.04722,-0.787167,3.79521,-17.6852,-9.55963,-13.4332,20.8543,-11.1783,6.5551,10.7921,-5.47067,2.82624,9.59136e-15,-1.98785e-15,-30.9209,-8.90798,-79.3232,30.3175,22.7281,-21.8657,0.488287,7.12502,4.53846,-29.4431,9.59136e-15,-1.98785e-15,-33.9074,21.5374,74.6497,28.3338,-11.7303,-8.84792,28.0887,7.12502,17.0928,57.3568,-18.4057,4.30223,13.2098,32.2623,-17.531,-4.49539,9.93106,-9.72916,0.897497,-23.2109,22.3314,-13.603,9.52836,-15.6021
0.0504935,17.8841,-1.75068,5.34038,-5.71548,2.02108,3.1711,-1.17693,-3.89413,-0.554617,-1.69267,1.48359,-2.19241,-0.78612,3.79864,-17.4002,-9.58355,-13.4722,20.9449,-11.2141,6.42065,10.7706,-5.5134,2.78754,-1.54058e-14,2.18663e-14,-31.1832,-8.9893,-79.2162,30.406,22.5654,-21.9077,0.251609,7.12502,4.49793,-29.6806,-1.54058e-14,2.18663e-14,-34.0671,21.2473,74.6612,28.6025,-12.1816,-8.17816,28.654,7.12502,17.7374,57.865,-18.4627,4.14946,13.1975,32.293,-17.5787,-4.5654,10.3215,-9.94843,1.10341,-23.1953,22.5298,-13.6886,9.05804,-15.3177
0.0692208,17.8809,-1.76194,5.27348,-5.64478,1.93843,3.32395,-1.17132,-3.9176,-0.613624,-1.6912,1.53777,-2.33715,-0.780164,3.87341,-17.2782,-9.55623,-13.405,21.1252,-11.151,6.14003,10.7852,-5.51587,2.69101,-1.37658e-14,2.78299e-15,-31.3663,-8.98121,-79.1033,30.4829,22.5304,-21.8094,0.0896223,7.12502,4.59279,-29.8406,-1.37658e-14,2.78299e-15,-34.1944,20.9588,74.7702,28.8862,-11.8064,-7.76317,29.7487,7.12502,18.1367,58.9231,-18.4552,4.08733,13.2307,32.3376,-17.5637,-4.58064,10.6293,-10.0287,1.27791,-23.147,22.7359,-13.7747,8.80856,-15.1193
0.0839731,17.876,-1.77348,5.17586,-5.71207,1.92705,3.44042,-1.15774,-4.06413,-0.539817,-1.6825,1.55587,-2.32278,-0.77541,3.97646,-17.457,-9.49971,-13.3386,21.2972,-11.0404,6.01342,10.8578,-5.47159,2.64724,-1.2275e-14,-5.56597e-15,-31.2811,-8.99523,-79.1174,30.4828,22.5248,-21.8845,0.19971,7.12502,4.52028,-29.7321,-1.2275e-14,-5.56597e-15,-34.0706,20.8289,74.8221,28.6562,-11.2669,-8.19867,29.3959,7.12502,17.7177,58.6087,-18.4821,4.06703,13.1978,32.4304,-17.4818,-4.52513,10.84,-10.0583,1.50283,-23.18,22.894,-13.837,8.68038,-15.0747
0.101209,17.8736,-1.78072,5.12707,-5.6952,1.98564,3.40148,-1.1455,-4.12899,-0.42797,-1.66808,1.46617,-2.18768,-0.773359,3.91618,-17.5782,-9.47866,-13.2424,21.3322,-11.0323,6.05235,10.8883,-5.45301,2.64356,3.62285e-14,3.18055e-15,-31.1886,-9.1602,-79.2118,30.4804,22.4463,-22.0458,0.413431,7.12502,4.36452,-29.5216,3.62285e-14,3.18055e-15,-33.8213,20.4713,74.8877,28.5811,-10.9541,-6.32105,31.742,7.12502,19.5237,60.7818,-18.5278,3.83015,13.081,32.5612,-17.4272,-4.32091,10.8441,-10.0867,1.55714,-23.3086,23.0036,-13.9045,8.62206,-15.0096
0.119247,17.8697,-1.78825,5.08139,-5.61281,2.1292,3.40546,-1.15869,-4.27258,-0.452757,-1.69363,1.40082,-2.21102,-0.783622,3.93118,-17.3551,-9.4505,-13.3213,21.349,-11.0122,6.08419,10.858,-5.45247,2.67891,1.54058e-14,1.55052e-14,-31.3946,-9.1779,-79.2078,30.5557,22.4414,-22.1546,0.463122,7.12502,4.25944,-29.474,1.54058e-14,1.55052e-14,-33.8966,20.0964,74.9378,28.9037,-11.1616,-7.25531,30.5539,7.12502,18.6253,59.6823,-18.597,3.55354,12.8668,32.7253,-17.3779,-4.14371,10.8979,-10.1193,1.61423,-23.5204,23.0711,-13.9331,8.45766,-14.8794
0.134892,17.8649,-1.7978,5.02183,-5.58156,2.21858,3.45147,-1.18202,-4.42178,-0.491751,-1.7342,1.37613,-2.26972,-0.79982,3.9937,-17.0991,-9.37725,-13.4294,21.3803,-10.9122,6.06327,10.817,-5.42508,2.71466,1.19271e-15,-3.02153e-14,-31.5917,-9.03256,-79.2318,30.6628,22.3908,-22.1107,0.495005,7.12502,4.30187,-29.4413,1.19271e-15,-3.02153e-14,-34.0235,19.8947,74.9438,29.0642,-11.0945,-6.94974,30.6274,7.12502,18.9192,59.7273,-18.6857,3.40817,12.729,32.885,-17.3261,-4.13553,10.6646,-10.1608,1.70811,-23.6657,23.125,-13.9083,8.31225,-14.9678
0.151032,17.8608,-1.80623,4.94312,-5.59875,2.26932,3.47301,-1.20572,-4.54766,-0.402518,-1.77136,1.3505,-2.18308,-0.82102,4.03886,-17.2478,-9.32532,-13.4042,21.4847,-10.8093,5.98681,10.866,-5.38222,2.69531,-9.14409e-15,0,-31.468,-8.9215,-79.3385,30.6515,22.3335,-22.1022,0.578378,7.12502,4.31012,-29.3578,-9.14409e-15,0,-33.9085,19.9086,74.9246,28.9843,-10.6489,-7.10401,30.7953,7.12502,18.7708,59.9096,-18.7602,3.2749,12.6244,33.0504,-17.2607,-4.07759,10.6023,-10.1451,1.82147,-23.7778,23.1692,-13.9003,8.21678,-15.1779
0.166561,17.8585,-1.81235,4.79183,-5.61433,2.35964,3.53095,-1.19502,-4.64643,-0.266969,-1.76386,1.25068,-2.07664,-0.822189,3.98982,-17.4291,-9.30121,-13.2591,21.5327,-10.7818,5.94708,10.9026,-5.35853,2.65686,-2.5842e-15,-1.11319e-14,-31.2965,-9.13,-79.4506,30.5656,22.4989,-22.1357,0.455787,7.12502,4.2777,-29.481,-2.5842e-15,-1.11319e-14,-33.6959,19.7283,74.8917,29.0203,-10.4647,-6.36373,32.5726,7.12502,19.4827,61.6165,-18.7072,3.16124,12.4729,33.173,-17.2043,-3.96412,10.4262,-10.0448,1.9678,-23.9242,23.2709,-14.0165,8.04237,-14.9309
0.181841,17.8552,-1.81554,4.6586,-5.64096,2.46394,3.54333,-1.15174,-4.74365,-0.213602,-1.71179,1.16126,-2.03382,-0.797752,3.94888,-17.6913,-9.33458,-12.9956,21.9396,-10.7801,5.5316,11.0603,-5.38139,2.45485,-3.36443e-14,-1.78906e-14,-31.3991,-9.34736,-79.4504,30.5921,22.6532,-22.2117,0.26825,7.12502,4.20431,-29.67,-3.36443e-14,-1.78906e-14,-33.6617,19.4426,74.8451,29.1992,-11.118,-7.28649,30.9734,7.12502,18.5953,60.1047,-18.6272,2.94753,12.3059,33.2379,-17.1068,-3.78359,9.91928,-9.97379,2.08452,-24.0982,23.4403,-14.1282,7.97405,-14.8767
0.195106,17.8523,-1.82084,4.57967,-5.65131,2.28252,3.56534,-1.12156,-4.59457,-0.20307,-1.66566,1.1805,-2.04353,-0.776175,3.88304,-18.283,-9.43222,-12.687,22.7783,-10.7703,4.79431,11.4215,-5.43154,2.11305,7.40473e-15,1.39149e-14,-31.5115,-9.42239,-79.4395,30.5677,22.6628,-22.2056,0.325644,7.12502,4.21022,-29.6125,7.40473e-15,1.39149e-14,-33.6627,19.2381,74.8115,29.2172,-11.4363,-7.00234,30.7757,7.12502,18.8686,59.8806,-18.563,2.84958,12.4717,33.236,-17.0059,-3.7457,9.55572,-10.0069,2.15027,-23.9485,23.6548,-14.205,7.98631,-15.2453
0.205892,17.8493,-1.82964,4.49501,-5.64548,1.95359,3.72053,-1.11378,-4.36461,-0.229276,-1.65083,1.2658,-2.16296,-0.767256,3.84579,-18.196,-9.33933,-12.6679,22.9008,-10.6355,4.69375,11.431,-5.38481,2.09996,1.50082e-14,2.46493e-14,-31.6225,-9.25173,-79.5091,30.5415,22.5782,-22.1941,0.357722,7.12502,4.22132,-29.5802,1.50082e-14,2.46493e-14,-33.6442,18.9857,74.8512,28.9527,-10.6648,-7.12042,31.2362,7.12502,18.755,60.3521,-18.4883,2.88329,12.826,33.1935,-16.944,-3.86199,9.14983,-10.0658,2.09928,-23.6118,23.8911,-14.2654,8.05716,-15.2338
0.217449,17.848,-1.83395,4.45058,-5.59604,1.78516,3.80588,-1.10718,-4.28827,-0.299531,-1.64204,1.3206,-2.28479,-0.759004,3.8627,-17.3133,-9.07594,-12.9207,22.2888,-10.4056,5.14347,11.0535,-5.26399,2.38018,1.73937e-15,1.51076e-14,-31.8552,-9.03797,-79.5483,30.6074,22.3669,-22.2284,0.376057,7.12502,4.18825,-29.5625,1.73937e-15,1.51076e-14,-33.8103,18.6859,74.8566,28.7748,-10.1336,-7.26132,31.2588,7.12502,18.6195,60.3876,-18.432,2.81983,12.9831,33.1359,-16.9025,-3.84929,9.33314,-10.1665,2.0622,-23.4602,24.1321,-14.3495,8.03865,-15.1042
0.228443,17.8448,-1.83667,4.30916,-5.50523,1.74323,3.92187,-1.10852,-4.30358,-0.282387,-1.64925,1.31868,-2.33119,-0.761528,3.87262,-17.0269,-8.93294,-13.0225,22.0825,-10.2443,5.29276,10.9213,-5.18669,2.48919,8.57259e-15,1.66979e-14,-31.9944,-9.03604,-79.5649,30.6847,22.3356,-22.2584,0.222355,7.12502,4.15927,-29.7168,8.57259e-15,1.66979e-14,-33.9526,18.763,74.6759,28.7175,-10.8794,-7.78985,29.9625,7.12502,18.111,59.1393,-18.2492,2.73742,13.0024,33.106,-16.8616,-3.81886,9.35162,-10.1068,2.01433,-23.4444,24.3024,-14.4353,7.98103,-14.704
0.238586,17.8386,-1.8412,4.18091,-5.38698,1.75362,4.00524,-1.12117,-4.34113,-0.207471,-1.67141,1.2739,-2.29874,-0.774606,3.84951,-17.3294,-8.85175,-12.8389,22.2628,-10.101,5.12125,11.0095,-5.12159,2.41194,1.13059e-14,9.93923e-15,-31.99,-9.14241,-79.6234,30.6956,22.3918,-22.2416,0.0412176,7.12502,4.17544,-29.8976,1.13059e-14,9.93923e-15,-33.8103,18.7537,74.5841,28.771,-11.5518,-8.50673,28.8214,7.12502,17.4212,58.0607,-18.1077,2.72397,12.9622,33.1309,-16.8933,-3.87078,9.08948,-10.0408,2.00903,-23.4882,24.3757,-14.4479,7.90413,-14.8427
0.248986,17.8336,-1.84116,4.06318,-5.30883,1.87527,3.96277,-1.13211,-4.47732,-0.0863513,-1.69017,1.20707,-2.14615,-0.789059,3.85464,-17.6681,-8.7593,-12.7035,22.477,-9.93858,5.00166,11.1222,-5.04559,2.36297,2.03506e-14,8.74653e-15,-31.9175,-9.16394,-79.6885,30.6648,22.5326,-22.2411,-0.0547034,7.12502,4.17599,-29.9935,2.03506e-14,8.74653e-15,-33.4749,18.6388,74.6511,28.8794,-11.6127,-8.15596,29.709,7.12502,17.7588,58.918,-18.0048,2.67057,12.7852,33.2077,-16.9827,-3.80797,8.95889,-9.93557,1.96846,-23.6626,24.387,-14.4291,7.90554,-14.8537
0.262594,17.8298,-1.83861,3.98244,-5.24695,2.05914,3.81928,-1.15502,-4.64567,0.0830599,-1.72086,1.10814,-1.88587,-0.813377,3.84148,-18.0791,-8.67245,-12.5366,22.6019,-9.78622,4.90874,11.2164,-4.96598,2.31523,1.86112e-14,1.23246e-14,-31.723,-9.21862,-79.8043,30.6155,22.7541,-22.2333,-0.0849026,7.12502,4.18348,-30.0236,1.86112e-14,1.23246e-14,-33.1331,18.6297,74.6573,28.9338,-11.6121,-7.45244,30.7231,7.12502,18.4356,59.8695,-17.9381,2.54258,12.517,33.2978,-17.054,-3.60286,9.23737,-9.84451,1.8019,-23.9247,24.3806,-14.4387,8.0013,-14.7955
0.276574,17.8254,-1.83965,4.00129,-5.17259,2.21156,3.6783,-1.16391,-4.76347,0.134929,-1.73147,1.03004,-1.75118,-0.822601,3.82255,-18.236,-8.57116,-12.3776,22.5976,-9.61391,4.71383,11.2076,-4.8946,2.24404,-1.09332e-15,-3.57812e-15,-31.687,-9.25352,-79.8689,30.6112,22.6891,-22.2795,-0.198406,7.12502,4.13885,-30.1379,-1.09332e-15,-3.57812e-15,-32.961,18.594,74.669,28.8258,-11.4616,-7.28749,31.0305,7.12502,18.5943,60.1618,-17.9937,2.42334,12.2821,33.3875,-17.0907,-3.46402,9.62124,-9.8759,1.69806,-24.1568,24.3504,-14.3779,8.0569,-14.8247
0.289445,17.8236,-1.8405,4.0289,-5.09321,2.29435,3.56237,-1.17037,-4.80782,0.112557,-1.73691,1.01328,-1.70791,-0.825752,3.82755,-18.1831,-8.46575,-12.416,22.5275,-9.41357,4.55698,11.1465,-4.82643,2.2293,1.13804e-14,2.10712e-14,-31.7865,-9.28051,-79.8125,30.6013,22.6148,-22.4805,-0.0762372,7.12502,3.94475,-30.0195,1.13804e-14,2.10712e-14,-32.9136,18.4396,74.7678,28.5088,-10.9696,-6.8419,31.4216,7.12502,19.0229,60.5114,-18.0452,2.31185,12.1423,33.456,-17.0828,-3.4318,9.39248,-9.918,1.65131,-24.2989,24.3286,-14.3859,8.00681,-14.7008
0.300869,17.8221,-1.8413,4.01048,-4.96641,2.41082,3.48202,-1.17264,-4.92666,0.120345,-1.74075,0.998826,-1.65139,-0.828514,3.87732,-18.2191,-8.34544,-12.5305,22.4969,-9.21262,4.59874,11.1318,-4.73922,2.29591,-9.64106e-15,-3.97569e-15,-31.9275,-9.20434,-79.7667,30.706,22.4089,-22.6342,-0.0231163,7.12502,3.79635,-29.969,-9.64106e-15,-3.97569e-15,-32.8229,18.362,74.8565,28.0207,-10.7178,-6.16025,31.9308,7.12502,19.6783,60.9548,-18.0207,2.21503,11.9752,33.4958,-17.0864,-3.44794,9.40344,-9.92165,1.63861,-24.4589,24.3233,-14.3926,7.88332,-14.654
0.309419,17.8207,-1.84355,3.94783,-4.84568,2.49399,3.43605,-1.14887,-5.03741,0.169864,-1.71078,0.952459,-1.57583,-0.815989,3.88831,-18.358,-8.24406,-12.453,22.5187,-9.05798,4.54396,11.1442,-4.66683,2.28603,1.66482e-14,-2.34566e-14,-32.069,-9.20195,-79.802,30.8108,22.2906,-22.7711,-0.128385,7.12502,3.66415,-30.0766,1.66482e-14,-2.34566e-14,-32.645,18.1447,74.932,27.7333,-10.602,-6.4566,31.8907,7.12502,19.3934,60.9437,-17.9187,2.22582,11.8533,33.4877,-17.1478,-3.52265,9.58226,-9.8773,1.60236,-24.5651,24.3435,-14.4185,7.76949,-14.5126
0.318717,17.8208,-1.8429,3.90696,-4.77855,2.49375,3.37005,-1.12194,-5.05363,0.171574,-1.6724,0.926929,-1.54134,-0.797771,3.86761,-18.3793,-8.14465,-12.3686,22.47,-8.90064,4.40907,11.1037,-4.60371,2.25007,1.68222e-14,2.14687e-14,-32.1992,-9.26808,-79.8214,30.7969,22.3812,-22.8839,-0.21453,7.12502,3.55525,-30.1646,1.68222e-14,2.14687e-14,-32.5117,18.0003,74.975,27.6363,-10.4497,-7.69267,31.1083,7.12502,18.2045,60.2765,-17.8218,2.2854,11.8199,33.4466,-17.2121,-3.60125,9.61962,-9.84792,1.58976,-24.5774,24.3974,-14.4659,7.62449,-14.0608
0.32818,17.8204,-1.84376,3.8683,-4.7164,2.36599,3.35633,-1.10326,-4.93549,0.17593,-1.64191,0.944178,-1.53508,-0.783576,3.81725,-18.445,-8.04447,-12.3109,22.3979,-8.7352,4.30398,11.0654,-4.53437,2.22913,-3.3048e-15,-1.43125e-14,-32.2429,-9.40309,-79.8307,30.6913,22.5857,-23.1996,-0.186261,7.12502,3.25034,-30.1412,-3.3048e-15,-1.43125e-14,-32.4531,18.0886,74.9367,27.8349,-10.7539,-7.29273,31.5299,7.12502,18.5893,60.6617,-17.7225,2.44057,11.9367,33.3758,-17.273,-3.79074,9.59618,-9.85131,1.6441,-24.4425,24.494,-14.5237,7.43426,-13.7883
0.338911,17.8184,-1.84807,3.86266,-4.68273,2.23896,3.37809,-1.09637,-4.81833,0.154646,-1.62933,0.972133,-1.57291,-0.776574,3.78061,-18.5879,-7.92068,-12.1711,22.361,-8.52409,4.09382,11.0418,-4.44916,2.16226,1.66979e-14,-1.27222e-14,-32.2566,-9.37006,-79.8761,30.5868,22.6556,-23.4599,-0.148131,7.12502,2.999,-30.1068,1.66979e-14,-1.27222e-14,-32.4844,18.3444,74.8147,28.0533,-11.4455,-5.81961,32.6587,7.12502,20.0058,61.6488,-17.6822,2.58919,12.0405,33.2838,-17.3124,-3.92992,9.692,-9.92776,1.68999,-24.3309,24.6074,-14.5718,7.37345,-13.73
0.349692,17.8173,-1.85473,3.83994,-4.57609,2.22863,3.47045,-1.0875,-4.81539,0.134681,-1.62227,0.981533,-1.64584,-0.770651,3.79115,-18.7786,-7.83345,-12.1543,22.3361,-8.34977,3.9912,11.0473,-4.37737,2.14608,-1.15047e-14,6.16232e-15,-32.2983,-9.15003,-79.9442,30.5043,22.7766,-23.7731,-0.213912,7.12502,2.69647,-30.1766,-1.15047e-14,6.16232e-15,-32.3864,18.3576,74.89,27.9447,-11.391,-5.72975,33.0912,7.12502,20.0921,62.0722,-17.6219,2.66234,12.0151,33.2051,-17.354,-4.05453,9.93363,-10.0053,1.80493,-24.3456,24.6981,-14.5726,7.17145,-13.836
0.361704,17.8161,-1.85337,3.74757,-4.51547,2.23114,3.53228,-1.01792,-4.77156,0.149347,-1.53128,0.940771,-1.67681,-0.725087,3.72166,-18.8501,-7.79917,-12.2053,22.2376,-8.28323,4.03602,11.0228,-4.34329,2.17992,-1.99282e-14,4.17448e-15,-32.4504,-8.84773,-80.0835,30.5482,22.9332,-24.1231,-0.583247,7.12502,2.35849,-30.55,-1.99282e-14,4.17448e-15,-32.2492,18.1997,75.0338,27.8317,-11.1399,-5.87536,33.3942,7.12502,19.9522,62.3899,-17.4687,2.74612,11.9721,33.1555,-17.4316,-4.14685,9.95392,-9.93163,1.77291,-24.3923,24.7492,-14.6253,7.1888,-13.9717
0.376174,17.8131,-1.84399,3.64455,-4.55594,2.28163,3.43338,-0.915799,-4.74353,0.196825,-1.38928,0.87662,-1.5887,-0.657813,3.63028,-18.8999,-7.80035,-12.2419,22.133,-8.25865,4.02338,10.9924,-4.3341,2.18399,1.89342e-14,1.51076e-14,-32.5397,-8.53234,-80.2176,30.5218,23.1655,-24.3667,-0.708761,7.12502,2.12316,-30.6779,1.89342e-14,1.51076e-14,-32.1645,17.9252,75.1913,27.8828,-11.0927,-5.75209,33.4477,7.12502,20.0707,62.431,-17.3176,2.77286,11.8531,33.1325,-17.458,-4.07553,9.98474,-9.76697,1.68009,-24.5186,24.7394,-14.6611,7.34784,-14.1384
0.389907,17.8106,-1.83916,3.61967,-4.49268,2.39866,3.30901,-0.885517,-4.79815,0.200415,-1.34585,0.80336,-1.52,-0.637812,3.58061,-18.8857,-7.7712,-12.2584,21.9518,-8.19515,3.97673,10.9155,-4.30961,2.18123,4.62174e-15,-1.82882e-14,-32.5435,-8.066,-80.4172,30.4153,23.5013,-24.6268,-1.01424,7.12502,1.872,-30.9858,4.62174e-15,-1.82882e-14,-32.0816,17.8686,75.2078,27.7888,-11.208,-6.63676,32.1423,7.12502,19.2201,61.2125,-17.2331,2.70255,11.6611,33.0875,-17.4721,-4.00253,10.0869,-9.71746,1.68426,-24.7018,24.7262,-14.693,7.29335,-13.9333
0.401324,17.8109,-1.83678,3.63973,-4.43067,2.43526,3.18233,-0.873976,-4.85283,0.200432,-1.32595,0.803929,-1.44963,-0.629384,3.60845,-18.9395,-7.70517,-12.3097,21.7675,-8.06462,3.94956,10.8471,-4.25391,2.20029,-1.05604e-14,-1.80894e-14,-32.4664,-7.41406,-80.6582,30.3532,23.781,-24.872,-1.27952,7.12502,1.63519,-31.253,-1.05604e-14,-1.80894e-14,-31.971,18.064,75.1924,27.5186,-11.5091,-6.93763,31.1143,7.12502,18.9308,60.2131,-17.1905,2.61817,11.5735,32.9953,-17.4355,-4.00332,9.9192,-9.7494,1.7486,-24.7836,24.7639,-14.7171,7.18295,-13.8961
0.411287,17.8133,-1.83558,3.62676,-4.42304,2.23148,3.08775,-0.831062,-4.66531,0.252811,-1.25584,0.834918,-1.35274,-0.598979,3.52956,-19.1194,-7.65094,-12.3517,21.6766,-7.96836,4.03502,10.844,-4.19886,2.2493,-1.30204e-14,-4.77083e-15,-32.2562,-6.83972,-80.9524,30.2284,24.1858,-24.9326,-1.26868,7.12502,1.57663,-31.2426,-1.30204e-14,-4.77083e-15,-31.8891,18.5033,75.0081,27.1211,-12.2605,-6.68228,30.2685,7.12502,19.1764,59.3431,-17.0963,2.62997,11.7662,32.8615,-17.3619,-4.06499,9.66816,-9.7598,1.79174,-24.591,24.8564,-14.7782,7.13897,-13.8572
0.421407,17.8155,-1.83838,3.57229,-4.39856,1.8966,3.12339,-0.763691,-4.32829,0.293344,-1.1547,0.87724,-1.34633,-0.551161,3.37984,-19.249,-7.65862,-12.4191,21.5394,-7.95905,4.12887,10.8239,-4.18433,2.29223,-8.00108e-15,-1.70955e-14,-31.9704,-6.59434,-81.1441,29.9539,24.9863,-24.905,-1.40631,7.12502,1.6033,-31.38,-8.00108e-15,-1.70955e-14,-31.8277,18.9667,74.7816,26.6867,-13.2686,-8.59984,26.9014,7.12502,17.3316,56.1486,-16.9403,2.74693,12.1121,32.7319,-17.3544,-4.14917,9.85742,-9.73346,1.80097,-24.2524,24.9432,-14.8044,7.13012,-13.8504
0.433053,17.8153,-1.84246,3.5975,-4.38542,1.7784,3.11049,-0.692954,-4.21391,0.268605,-1.05636,0.87296,-1.37557,-0.501528,3.30723,-19.3506,-7.6947,-12.4657,21.3771,-7.98266,4.15936,10.7886,-4.19063,2.30406,-1.01877e-15,-7.35503e-15,-31.7382,-6.31329,-81.2974,29.7182,25.842,-24.9853,-1.53141,7.12502,1.5258,-31.5057,-1.01877e-15,-7.35503e-15,-31.7147,18.904,74.8708,26.608,-13.2663,-9.92617,25.4119,7.12502,16.0547,54.7667,-16.9096,2.76581,12.2005,32.6231,-17.3186,-4.15632,9.98493,-9.80736,1.69822,-24.1656,25.0113,-14.8375,7.20461,-13.6661
0.444397,17.8146,-1.84534,3.65554,-4.40858,1.96361,3.0089,-0.646082,-4.42,0.21853,-0.998321,0.797405,-1.37317,-0.470641,3.3418,-19.3296,-7.71471,-12.5619,21.1425,-7.9921,4.22191,10.7066,-4.19161,2.34117,-6.01324e-15,-1.05356e-14,-31.5274,-5.85108,-81.5031,29.6054,26.6992,-24.8687,-1.65338,7.12502,1.63837,-31.6268,-6.01324e-15,-1.05356e-14,-31.6278,18.5507,75.0967,26.8925,-12.457,-9.2026,26.9869,7.12502,16.7514,56.2842,-16.9878,2.67772,11.9494,32.5681,-17.2058,-4.1442,9.67789,-9.91696,1.66068,-24.4229,25.0371,-14.8084,7.26106,-13.7003
0.453862,17.8147,-1.84732,3.60385,-4.46875,2.06752,2.95932,-0.608989,-4.56862,0.232857,-0.952198,0.728463,-1.33358,-0.448116,3.35157,-19.2324,-7.71931,-12.6443,20.8313,-7.99892,4.30791,10.5827,-4.18749,2.38727,-8.84592e-15,-1.2921e-14,-31.2299,-5.29933,-81.7773,29.4883,27.2919,-24.2313,-2.0741,7.12502,2.25395,-32.0419,-8.84592e-15,-1.2921e-14,-31.5717,18.4245,75.1446,27.0412,-12.1521,-8.68916,27.6845,7.12502,17.2456,56.9392,-16.9457,2.79999,11.791,32.5294,-17.2115,-4.20798,9.69788,-9.88812,1.7277,-24.5816,25.0482,-14.7796,7.2843,-13.8464
0.462955,17.8153,-1.8513,3.58617,-4.54476,2.04429,2.88616,-0.560671,-4.64209,0.253437,-0.886299,0.718778,-1.27644,-0.416614,3.3792,-19.2335,-7.7416,-12.6475,20.6156,-8.02162,4.30773,10.5061,-4.19435,2.38428,1.02623e-14,-5.36719e-15,-30.7869,-4.75966,-82.009,29.1935,27.4288,-23.1928,-2.52023,7.12502,3.2569,-32.4751,1.02623e-14,-5.36719e-15,-31.5181,18.2844,75.2391,27.0759,-12.0378,-8.73883,27.7731,7.12502,17.1978,57.032,-16.9304,2.94527,11.7782,32.4798,-17.2284,-4.27633,9.66645,-9.89206,1.68909,-24.5975,25.0712,-14.7916,7.4067,-13.8032
0.473467,17.8167,-1.8577,3.51526,-4.58304,1.8522,2.95779,-0.493175,-4.51371,0.273013,-0.794986,0.740026,-1.30634,-0.371259,3.32631,-19.3703,-7.81728,-12.629,20.5066,-8.09727,4.2604,10.4955,-4.22864,2.34808,2.5842e-15,4.96962e-15,-30.3261,-4.21541,-82.2648,29.0249,27.2847,-22.4363,-3.32556,7.12502,3.98747,-33.268,2.5842e-15,4.96962e-15,-31.3908,18.2046,75.3349,27.016,-12.0451,-8.92268,27.8572,7.12502,17.0209,57.1315,-16.8374,3.05005,11.9645,32.4042,-17.2185,-4.35043,9.6306,-9.8443,1.58781,-24.419,25.1097,-14.817,7.56309,-13.933
0.483186,17.817,-1.86016,3.48086,-4.59848,1.64684,2.95714,-0.430919,-4.34967,0.271519,-0.706408,0.754701,-1.31733,-0.327565,3.24573,-19.3322,-7.91347,-12.791,20.2515,-8.21357,4.39744,10.4205,-4.27455,2.40483,-1.52319e-14,-8.74653e-15,-29.8978,-3.8143,-82.4099,28.8926,27.6936,-22.3396,-3.76141,7.12502,4.08082,-33.7021,-1.52319e-14,-8.74653e-15,-31.2928,17.9868,75.47,26.9995,-11.9659,-8.88175,28.1512,7.12502,17.0603,57.4221,-16.7548,3.05412,12.1706,32.3265,-17.1514,-4.33393,9.67596,-9.81744,1.58493,-24.2248,25.1401,-14.8473,7.60065,-13.9457
0.491489,17.8173,-1.86076,3.53809,-4.61587,1.74972,2.81119,-0.389394,-4.51362,0.248648,-0.65116,0.659074,-1.26322,-0.30015,3.2357,-19.3237,-8.01038,-12.8266,20.0221,-8.35659,4.49744,10.3549,-4.32735,2.4233,-4.93234e-15,1.8487e-14,-29.3509,-3.94482,-82.359,28.3301,29.458,-22.9839,-2.70435,7.12502,3.4586,-32.656,-4.93234e-15,1.8487e-14,-31.1793,17.6645,75.5784,27.0578,-11.7554,-8.72676,28.747,7.12502,17.2094,58.0049,-16.7997,2.98726,12.0195,32.2637,-17.0599,-4.30111,9.74196,-9.89364,1.61837,-24.3809,25.1614,-14.8216,7.60612,-14.0513
0.500882,17.818,-1.86334,3.58074,-4.61935,1.90037,2.74849,-0.368643,-4.71618,0.193844,-0.629574,0.531189,-1.28573,-0.286971,3.21652,-19.2762,-8.0979,-12.8568,19.8095,-8.51637,4.68596,10.2941,-4.37854,2.47102,2.2239e-14,4.07509e-15,-28.7507,-3.63785,-82.5822,28.2241,29.6955,-22.7796,-2.95342,7.12502,3.65594,-32.9018,2.2239e-14,4.07509e-15,-31.0868,17.4768,75.572,27.016,-11.7236,-8.82448,29.0627,7.12502,17.1154,58.3288,-16.8611,2.91416,11.8055,32.2298,-16.9839,-4.22802,9.95442,-9.95024,1.61628,-24.5872,25.1458,-14.8052,7.61014,-14.0502
0.511294,17.8161,-1.86936,3.53492,-4.6347,1.89082,2.84151,-0.361956,-4.8061,0.158001,-0.629487,0.510273,-1.37415,-0.283561,3.24674,-19.2945,-8.21063,-12.9844,19.6792,-8.66125,4.82164,10.277,-4.43645,2.51492,1.19271e-15,-1.09332e-15,-28.0734,-3.34531,-82.687,28.0905,30.0645,-22.7254,-3.1961,7.12502,3.70824,-33.1436,1.19271e-15,-1.09332e-15,-30.9817,17.5848,75.542,26.8128,-11.8647,-9.0159,29.0647,7.12502,16.9311,58.3467,-16.8311,2.93652,11.776,32.2198,-17.0006,-4.1843,9.8892,-9.89867,1.65435,-24.6074,25.0977,-14.7709,7.59535,-13.9648
0.521628,17.8151,-1.87581,3.49416,-4.60904,1.93529,2.89021,-0.369681,-4.95341,0.162453,-0.6474,0.488414,-1.39393,-0.291234,3.30823,-19.4052,-8.39792,-13.1487,19.5363,-8.87278,4.91165,10.279,-4.53065,2.53396,4.99446e-15,7.05686e-15,-27.2513,-3.01589,-82.7221,27.937,30.5194,-22.6775,-3.60442,7.12502,3.75458,-33.5511,4.99446e-15,7.05686e-15,-30.8482,17.571,75.5932,26.6832,-11.7312,-9.19632,29.0413,7.12502,16.7575,58.3381,-16.7888,2.92935,11.6881,32.2099,-17.0761,-4.14343,9.81598,-9.87764,1.73961,-24.6851,25.063,-14.7479,7.49162,-14.0945
0.532068,17.8148,-1.88012,3.48508,-4.58197,1.96977,2.80531,-0.376977,-5.05298,0.190742,-0.655852,0.422815,-1.31604,-0.297609,3.29565,-19.4681,-8.59806,-13.3288,19.366,-9.13386,5.12629,10.2747,-4.63494,2.59294,5.2181e-15,8.84592e-15,-26.3843,-2.58444,-82.7765,27.9073,30.8155,-22.7229,-4.1575,7.12502,3.7107,-34.1049,5.2181e-15,8.84592e-15,-30.7564,17.5049,75.5851,26.5734,-11.3883,-8.87953,29.6024,7.12502,17.0624,58.8731,-16.7725,2.9173,11.6092,32.1874,-17.108,-4.12523,9.9257,-9.89439,1.83647,-24.753,25.0682,-14.7488,7.39489,-14.1003
0.540713,17.8132,-1.88281,3.43962,-4.65153,2.05151,2.69832,-0.359303,-5.20249,0.207538,-0.631874,0.310934,-1.24066,-0.287387,3.26202,-19.3562,-8.79217,-13.4884,19.156,-9.4276,5.38175,10.2299,-4.7513,2.66304,6.49156e-16,1.15295e-14,-25.4562,-2.21043,-82.856,27.8475,30.9492,-22.7667,-4.54147,7.12502,3.66837,-34.4896,6.49156e-16,1.15295e-14,-30.7879,17.5543,75.4645,26.4953,-11.148,-7.72234,30.9789,7.12502,18.176,60.1497,-16.7365,2.96151,11.4711,32.1545,-17.0516,-4.02541,10.4085,-9.88118,2.01019,-24.8752,25.1092,-14.7981,7.29784,-13.9044
0.549726,17.8119,-1.88683,3.37673,-4.72254,2.03859,2.71749,-0.356884,-5.25189,0.159182,-0.63387,0.221774,-1.30158,-0.285724,3.19825,-19.1945,-9.00332,-13.6314,18.9865,-9.73242,5.52693,10.1866,-4.88597,2.6904,1.06684e-14,6.29899e-15,-24.5234,-1.8768,-82.8973,27.6804,31.2459,-22.8662,-4.71442,7.12502,3.5723,-34.6642,1.06684e-14,6.29899e-15,-30.8831,17.7699,75.1961,26.4585,-11.5046,-6.52546,32.0893,7.12502,19.3272,61.1489,-16.6895,2.98184,11.4404,32.112,-16.969,-3.92174,10.9672,-9.88334,2.18209,-24.894,25.2269,-14.9029,7.23144,-13.5977
0.558406,17.8104,-1.89649,3.33712,-4.78619,1.92343,2.84182,-0.366818,-5.22381,0.106547,-0.655915,0.170102,-1.42445,-0.292732,3.13156,-19.1867,-9.22789,-13.7776,18.9013,-10.0383,5.68599,10.2035,-5.01766,2.71745,6.35956e-15,9.34288e-15,-23.4534,-1.48984,-82.8555,27.5452,31.6615,-22.9118,-5.21679,7.12502,3.52825,-35.1673,6.35956e-15,9.34288e-15,-30.9488,17.9443,74.9327,26.5795,-12.1005,-6.64623,31.7728,7.12502,19.211,60.8439,-16.6689,3.00916,11.5406,32.025,-16.8516,-3.93106,10.857,-10,2.27232,-24.7969,25.5052,-15.0135,7.22496,-13.4363
0.562965,17.8094,-1.92407,3.3126,-4.84305,1.67161,3.22084,-0.401341,-5.15764,0.021182,-0.72399,0.200755,-1.7193,-0.317637,3.13371,-19.1835,-9.46544,-13.9605,18.7263,-10.3496,5.86007,10.1934,-5.15141,2.75419,4.11546e-15,1.50579e-14,-22.2938,-0.880967,-82.7521,27.5653,31.8869,-22.717,-5.56366,7.12502,3.71642,-35.511,4.11546e-15,1.50579e-14,-31.0065,18.1102,74.7176,26.6393,-12.3163,-7.165,30.9355,7.12502,18.7121,60.0555,-16.7196,3.25834,11.8303,31.9272,-16.7659,-4.19946,10.5913,-10.2439,2.36277,-24.5097,25.8189,-15.0412,7.19777,-13.2623
0.564447,17.8093,-1.96411,3.285,-4.84909,1.08802,3.83406,-0.448297,-4.82388,-0.132592,-0.80866,0.338721,-2.21684,-0.346746,3.10187,-18.9274,-9.72754,-14.1772,18.3625,-10.7185,6.04696,10.0805,-5.31642,2.79987,-6.49156e-15,9.24349e-15,-21.1543,-0.148341,-82.6169,27.7014,31.8042,-22.4588,-5.82181,7.12502,3.96575,-35.7646,-6.49156e-15,9.24349e-15,-31.0637,18.2053,74.508,26.5411,-12.2906,-6.61829,31.079,7.12502,19.2379,60.1475,-16.8176,3.67454,12.5135,31.8838,-16.7668,-4.64093,10.7424,-10.4712,2.47919,-23.8288,25.9944,-14.9534,7.09391,-12.9205
0.576114,17.808,-1.96975,3.22349,-4.94684,1.01299,3.87075,-0.493537,-4.85905,-0.155034,-0.874144,0.29454,-2.25499,-0.377849,3.08022,-18.7055,-9.99822,-14.3306,18.0853,-11.1091,6.20094,10.003,-5.4914,2.81903,6.14369e-15,9.64106e-15,-19.8105,0.581994,-82.4197,27.813,31.7638,-22.0203,-6.30418,7.12502,4.38916,-36.2387,6.14369e-15,9.64106e-15,-31.1311,18.2959,74.3038,26.5506,-12.6024,-6.65447,30.9077,7.12502,19.2031,59.9797,-16.8036,3.62517,12.5652,31.8935,-16.6452,-4.60642,10.3845,-10.4431,2.7582,-23.7824,26.0413,-15.0353,6.92886,-12.6536
0.597487,17.8054,-1.94435,3.09195,-5.12564,1.65342,3.39693,-0.530867,-5.43731,-0.0238639,-0.923212,-0.000421759,-1.84545,-0.411111,3.09457,-18.5995,-10.2814,-14.5068,17.8392,-11.5105,6.42885,9.96614,-5.66272,2.86115,2.24875e-15,-1.63003e-14,-18.236,1.27156,-82.0968,27.8635,31.8764,-21.4559,-6.58863,7.12502,4.93415,-36.5112,2.24875e-15,-1.63003e-14,-31.1343,18.3525,74.1289,26.5438,-12.7215,-7.39424,30.3309,7.12502,18.4916,59.472,-16.6493,3.13017,11.7445,31.9258,-16.3929,-4.04642,9.98233,-10.1575,3.08839,-24.6022,25.9928,-15.2396,6.82028,-12.6544
0.616129,17.8042,-1.93548,3.06134,-5.20053,1.86688,3.07588,-0.598543,-5.62593,0.0893403,-0.998825,-0.160759,-1.54106,-0.458608,3.03215,-18.5566,-10.643,-14.6302,17.5077,-11.9753,6.46875,9.90245,-5.87742,2.8157,-8.51047e-15,1.39149e-15,-16.5397,1.94789,-81.6276,27.9196,32.0287,-21.1757,-6.65373,7.12502,5.20469,-36.5698,-8.51047e-15,1.39149e-15,-31.0757,18.3499,74.0378,26.4535,-12.2541,-7.33357,30.778,7.12502,18.55,59.9136,-16.6108,2.7479,11.4191,31.9635,-16.2176,-3.64073,9.74628,-10.0022,3.15267,-24.9321,25.8501,-15.2083,6.84971,-12.588
0.626784,17.8057,-1.95054,3.14083,-5.16859,1.73986,3.03217,-0.713036,-5.5951,0.0795741,-1.1483,-0.198838,-1.51394,-0.534094,2.9808,-18.3786,-10.9785,-14.6841,17.0818,-12.4155,6.40479,9.76706,-6.09038,2.7347,1.30949e-14,-4.01545e-14,-14.8438,2.59704,-81.1186,28.0592,32.044,-21.1915,-6.67489,7.12502,5.18948,-36.5913,1.30949e-14,-4.01545e-14,-31.1209,18.4277,73.8771,26.42,-11.8695,-6.18637,32.3323,7.12502,19.6532,61.3589,-16.7335,2.72265,11.5194,31.9758,-16.1982,-3.63544,10.1413,-10.0725,3.12648,-24.8304,25.7319,-15.0919,6.85201,-12.4266
0.634644,17.8077,-1.97035,3.13461,-5.12971,1.57772,3.20785,-0.824971,-5.60012,-0.00756982,-1.31252,-0.217846,-1.68763,-0.60945,2.97486,-18.0197,-11.2202,-14.7819,16.7691,-12.7812,6.47589,9.64554,-6.26433,2.7279,1.30701e-14,1.33186e-14,-13.2364,3.13201,-80.544,28.3624,32.3144,-21.4934,-6.77674,7.12502,4.89799,-36.7001,1.30701e-14,1.33186e-14,-31.2816,18.3704,73.6648,26.4108,-11.5922,-5.43465,33.4564,7.12502,20.3758,62.4075,-16.7571,2.88036,11.6817,31.9421,-16.2366,-3.84028,10.2839,-10.1414,3.2167,-24.6639,25.7498,-15.0628,6.72929,-12.5273
0.644166,17.8085,-1.98231,3.054,-5.19534,1.43226,3.37176,-0.916729,-5.63432,-0.0534351,-1.44842,-0.212509,-1.8135,-0.672452,3.00935,-17.7942,-11.4618,-14.9109,16.558,-13.1299,6.58061,9.58713,-6.42653,2.73369,3.13086e-15,5.76476e-15,-11.5825,3.64958,-79.8284,28.8469,32.6595,-21.7365,-7.4305,7.12502,4.66318,-37.3592,3.13086e-15,5.76476e-15,-31.3875,18.2999,73.4934,26.2804,-11.4288,-5.47001,33.2383,7.12502,20.3418,62.193,-16.7006,3.14072,11.8151,31.9114,-16.285,-4.01374,10.2658,-10.1274,3.29059,-24.525,25.8155,-15.0901,6.72921,-12.1947
0.658438,17.8061,-1.9887,3.01884,-5.31975,1.5253,3.33096,-0.972065,-5.77446,-0.0206225,-1.52581,-0.324496,-1.74905,-0.712734,2.97417,-17.6424,-11.7528,-15.0686,16.2317,-13.5454,6.80165,9.52042,-6.60671,2.76997,1.69215e-14,2.18663e-14,-9.74447,4.14264,-79.0286,29.3577,32.5962,-21.201,-9.06612,7.12502,5.18028,-38.9828,1.69215e-14,2.18663e-14,-31.2646,18.3691,73.3054,25.8958,-11.8187,-5.7618,32.305,7.12502,20.0613,61.2893,-16.7375,3.25775,11.6482,31.9047,-16.2483,-4.05413,10.0681,-10.1623,3.38962,-24.6876,25.868,-15.1013,6.77711,-12.3148
0.673625,17.8022,-1.99763,2.96247,-5.39081,1.63294,3.33375,-1.01262,-5.92043,0.0172732,-1.58665,-0.453856,-1.70565,-0.744332,2.92441,-17.4352,-12.0702,-15.1698,15.8803,-14.0098,6.97766,9.43466,-6.81278,2.77673,-3.926e-15,1.90833e-14,-7.81723,4.33204,-78.1276,29.7265,33.0006,-20.4629,-10.4663,7.12502,5.89296,-40.3643,-3.926e-15,1.90833e-14,-31.1378,18.4477,73.0908,25.4167,-12.5532,-6.27556,31.2343,7.12502,19.5674,60.2696,-16.7591,3.24082,11.4821,31.9232,-16.1547,-4.04421,9.55895,-10.1626,3.46025,-24.869,25.9049,-15.0876,6.81894,-12.5186
0.688492,17.8007,-2.00724,2.88149,-5.51258,1.58592,3.48242,-1.02368,-5.97472,-0.0568594,-1.61796,-0.497674,-1.86266,-0.75348,2.91552,-17.0085,-12.3594,-15.3695,15.6141,-14.4491,7.14237,9.34668,-7.022,2.80727,-2.74571e-14,-1.78906e-14,-6.07882,4.62107,-77.1147,29.97,32.9105,-21.6817,-10.7521,7.12502,4.71615,-40.6796,-2.74571e-14,-1.78906e-14,-31.182,18.3612,72.9294,25.067,-13.0252,-6.40923,30.6827,7.12502,19.4389,59.7311,-16.7623,3.33556,11.4897,31.9635,-16.108,-4.03818,9.53804,-10.1147,3.63482,-24.8767,25.9172,-15.0873,6.82243,-12.5936
0.704324,17.7976,-2.01343,2.84602,-5.64831,1.51538,3.54411,-1.07397,-5.96743,-0.13038,-1.69275,-0.533616,-1.9676,-0.786384,2.88029,-16.6675,-12.58,-15.5606,15.3591,-14.7821,7.30605,9.26618,-7.1797,2.851,-1.40392e-14,-1.51076e-14,-4.339,5.33618,-76.0385,30.2411,31.7047,-23.8044,-9.87031,7.12502,2.66622,-39.8334,-1.40392e-14,-1.51076e-14,-31.3127,18.3383,72.7399,25.0455,-13.511,-7.49823,28.8234,7.12502,18.3916,57.9739,-16.8025,3.44538,11.5015,31.9874,-16.0393,-4.01278,9.79204,-10.1394,3.7722,-24.8673,25.9457,-15.0479,6.86346,-12.69
0.719692,17.796,-2.02134,2.77121,-5.73945,1.52499,3.59537,-1.12868,-6.02607,-0.111266,-1.77284,-0.618784,-1.97018,-0.8264,2.82985,-16.4737,-12.7928,-15.6606,15.0525,-15.1043,7.49537,9.18784,-7.32059,2.88613,-9.24349e-15,-3.33958e-14,-2.40118,5.70968,-74.9118,30.569,31.0937,-24.83,-9.51744,7.12502,1.67573,-39.4906,-9.24349e-15,-3.33958e-14,-31.2327,18.3622,72.5762,24.9259,-14.0137,-12.5991,22.6352,7.12502,13.4796,52.179,-16.7945,3.53024,11.4413,31.9778,-15.9513,-4.09032,9.58958,-10.1344,3.84571,-24.93,26.0024,-15.0579,6.88137,-12.4287
0.734826,17.7959,-2.02897,2.73448,-5.83755,1.53501,3.60395,-1.1434,-6.05919,-0.0764808,-1.7955,-0.73446,-1.93968,-0.839486,2.72968,-16.3527,-13.0394,-15.556,14.7692,-15.467,7.47092,9.0997,-7.48804,2.81002,-2.26863e-14,-1.98785e-15,-0.419897,5.68586,-73.704,30.965,31.0242,-25.1336,-10.1855,7.12502,1.38258,-40.1607,-2.26863e-14,-1.98785e-15,-30.9929,18.2751,72.513,24.5761,-13.7558,-8.59957,27.7979,7.12502,17.3319,57.0451,-16.8204,3.57406,11.3875,31.9663,-15.7956,-4.13913,9.16438,-10.1294,3.99063,-24.9908,26.0601,-15.1055,6.84736,-12.3059
0.748036,17.796,-2.03606,2.76927,-5.95248,1.46624,3.6025,-1.1302,-6.01989,-0.119244,-1.78028,-0.840792,-1.98904,-0.830476,2.59794,-16.1558,-13.2351,-15.4127,14.4994,-15.7835,7.45239,8.99504,-7.63482,2.74368,5.41688e-15,1.86858e-14,1.42789,5.61795,-72.4434,31.378,30.9163,-25.4113,-10.7823,7.12502,1.11431,-40.7592,5.41688e-15,1.86858e-14,-30.86,17.9645,72.4635,24.355,-13.3229,-7.80916,29.0708,7.12502,18.0925,58.2494,-16.9251,3.66062,11.4325,31.9852,-15.6967,-4.21554,8.59871,-10.1883,4.04483,-24.9736,26.0935,-15.1224,6.93149,-12.4043
0.760733,17.7943,-2.04161,2.75203,-6.11344,1.41921,3.59062,-1.11943,-6.02701,-0.154581,-1.7686,-0.918408,-2.02222,-0.823298,2.52153,-15.9106,-13.3506,-15.4668,14.2417,-15.9907,7.63296,8.90925,-7.72452,2.79267,-1.95306e-14,1.51076e-14,3.32398,5.5913,-71.1217,31.7211,30.8028,-25.7532,-11.0044,7.12502,0.784068,-40.9827,-1.95306e-14,1.51076e-14,-30.827,17.9389,72.2653,24.3307,-14.2088,-7.57312,29.2053,7.12502,18.3195,58.3626,-16.9961,3.64552,11.4576,32.0205,-15.5547,-4.22917,8.01212,-10.1975,4.13679,-24.986,26.1383,-15.1475,7.05323,-12.5443
0.773994,17.7919,-2.04473,2.70988,-6.32197,1.50687,3.49994,-1.06754,-6.14516,-0.123331,-1.69916,-1.05463,-1.94596,-0.790977,2.44103,-15.7755,-13.488,-15.4816,13.9835,-16.2256,7.84952,8.84588,-7.81882,2.83721,2.43511e-14,-1.90833e-14,5.26953,5.43813,-69.7434,32.0198,30.4356,-25.9646,-11.484,7.12502,0.579955,-41.4629,2.43511e-14,-1.90833e-14,-30.6789,17.7702,72.1508,24.419,-15.0401,-7.18139,29.5758,7.12502,18.6964,58.6973,-17.0592,3.58374,11.3144,32.0621,-15.4172,-4.18953,7.19809,-10.2081,4.337,-25.1491,26.2101,-15.2117,7.08448,-12.596
0.788016,17.7913,-2.04939,2.77679,-6.45056,1.45525,3.38315,-1.04818,-6.08861,-0.116165,-1.66448,-1.18333,-1.88134,-0.776877,2.27233,-15.8494,-13.655,-15.1954,13.8754,-16.4881,7.76906,8.81859,-7.93201,2.72381,2.52953e-14,-2.38542e-14,7.32029,5.05842,-68.4288,32.0406,29.9506,-25.728,-11.4143,7.12502,0.808496,-41.3925,2.52953e-14,-2.38542e-14,-30.4827,17.368,72.103,24.4682,-14.913,-7.08861,29.6286,7.12502,18.7856,58.7415,-17.2109,3.61542,11.3107,32.1111,-15.3529,-4.19568,6.91115,-10.3523,4.48059,-25.1549,26.2912,-15.2274,7.06544,-12.6865
0.802334,17.7914,-2.05685,2.86715,-6.50753,1.26096,3.38227,-1.05507,-5.90181,-0.160644,-1.66917,-1.23031,-1.9329,-0.779026,2.12058,-15.8151,-13.798,-15.0574,13.7236,-16.7064,7.73811,8.76998,-8.03111,2.66183,-2.01766e-14,-3.02153e-14,9.4089,4.81426,-67.0247,31.9571,29.2878,-25.8825,-11.0949,7.12502,0.659219,-41.0736,-2.01766e-14,-3.02153e-14,-30.3888,17.3154,71.98,24.5446,-15.1832,-8.37989,27.9342,7.12502,17.5433,57.1627,-17.3624,3.63684,11.4717,32.1614,-15.3051,-4.2237,6.86179,-10.4918,4.38677,-25.0054,26.3583,-15.1983,7.21844,-12.5432
0.81548,17.7904,-2.06399,2.87407,-6.54326,1.15845,3.45803,-1.07306,-5.81373,-0.201069,-1.69814,-1.27808,-2.01883,-0.79154,2.02598,-15.7196,-13.8745,-15.3039,13.6174,-16.8365,8.10567,8.78994,-8.07359,2.79942,-4.87022e-15,3.18055e-15,11.3913,4.74945,-65.5374,32.0169,28.4639,-26.6234,-11.3473,7.12502,-0.0563789,-41.327,-4.87022e-15,3.18055e-15,-30.3435,17.5763,71.7864,24.5756,-15.6381,-9.86203,26.3779,7.12502,16.1165,55.7278,-17.4064,3.73208,11.5471,32.181,-15.2701,-4.33841,6.98307,-10.5376,4.4566,-24.9379,26.4323,-15.2465,7.15678,-12.2965
0.828222,17.7911,-2.0668,2.93062,-6.52105,1.18769,3.42923,-1.11574,-5.8847,-0.273219,-1.76079,-1.35721,-2.0729,-0.819614,1.98717,-15.6275,-13.9054,-15.3938,13.5491,-16.9218,8.36497,8.79453,-8.09781,2.88777,-3.04638e-14,-1.66979e-14,13.276,4.42804,-64.0799,32.0759,28.2704,-26.8169,-11.4689,7.12502,-0.243215,-41.4485,-3.04638e-14,-1.66979e-14,-30.3359,17.2868,71.7922,24.56,-14.7634,-9.34823,27.778,7.12502,16.6112,57.0872,-17.4879,3.74152,11.473,32.1768,-15.247,-4.4468,7.00683,-10.6593,4.67674,-25.0134,26.5134,-15.3085,6.95158,-12.4597
0.839055,17.7926,-2.06843,2.99123,-6.48887,1.14746,3.41346,-1.13457,-5.89085,-0.340216,-1.7899,-1.43857,-2.13352,-0.831651,1.90868,-15.5161,-13.9838,-15.1096,13.3472,-17.0689,8.21724,8.68348,-8.17086,2.78646,4.96962e-16,3.97569e-15,15.0758,3.80816,-62.6455,32.0839,28.6055,-26.7644,-11.5923,7.12502,-0.192512,-41.572,4.96962e-16,3.97569e-15,-30.3787,16.7192,71.8493,24.7352,-13.6043,-8.42215,28.962,7.12502,17.5026,58.1941,-17.5639,3.72716,11.4789,32.1536,-15.1933,-4.54133,7.00093,-10.7831,4.7931,-25.0115,26.5994,-15.3596,6.81947,-12.44
0.849413,17.7931,-2.07347,3.02553,-6.44303,1.00694,3.50276,-1.13102,-5.75405,-0.381665,-1.78981,-1.50701,-2.23274,-0.830297,1.76485,-15.5002,-14.0936,-14.9143,13.1561,-17.2429,8.16653,8.61256,-8.24874,2.71866,3.97569e-16,7.95139e-15,16.8327,3.32005,-61.068,32.1501,28.5884,-26.9824,-12.4009,7.12502,-0.403075,-42.3803,3.97569e-16,7.95139e-15,-30.322,16.5412,71.7812,24.9566,-13.4153,-8.20289,28.9288,7.12502,17.7136,58.1419,-17.5955,3.79642,11.6042,32.1236,-15.1711,-4.69022,7.16952,-10.8736,4.86007,-24.8918,26.6733,-15.3773,6.74642,-12.6797
0.860194,17.7941,-2.08068,3.09688,-6.34855,0.852686,3.58308,-1.14621,-5.58619,-0.402445,-1.81085,-1.55228,-2.30421,-0.840983,1.62813,-15.7124,-14.1624,-15.0562,13.1666,-17.3303,8.4562,8.70377,-8.26266,2.80278,-3.23025e-15,2.62396e-14,18.6329,2.63792,-59.559,32.1935,28.6117,-27.0057,-12.6478,7.12502,-0.42561,-42.6271,-3.23025e-15,2.62396e-14,-30.1235,16.5343,71.7364,24.9761,-13.1477,-7.87911,29.1817,7.12502,18.0252,58.3664,-17.6515,3.89916,11.746,32.0817,-15.2299,-4.88573,7.55601,-11.0213,4.87289,-24.752,26.7488,-15.3742,6.6281,-12.6358
0.870457,17.7962,-2.08568,3.07904,-6.26371,0.760207,3.71259,-1.13458,-5.47819,-0.417668,-1.80289,-1.63656,-2.39919,-0.836357,1.48428,-15.7401,-14.2189,-15.1154,13.1349,-17.436,8.69213,8.73936,-8.29295,2.86721,-3.35946e-14,-1.90833e-14,20.3578,1.60077,-58.2934,32.1145,28.8796,-26.7451,-12.1157,7.12502,-0.173865,-42.0954,-3.35946e-14,-1.90833e-14,-30.08,16.5026,71.6451,25.2948,-12.9345,-6.8731,29.892,7.12502,18.9929,58.9847,-17.6174,3.95852,11.8292,32.0729,-15.3031,-5.05765,7.49318,-11.0637,4.81698,-24.6747,26.8117,-15.3722,6.59068,-12.5071
0.879882,17.7999,-2.08796,3.04416,-6.11091,0.636791,3.84668,-1.13228,-5.33517,-0.431452,-1.80571,-1.71837,-2.49549,-0.837707,1.3241,-15.6309,-14.295,-15.1573,13.0014,-17.591,8.95055,8.72416,-8.3491,2.93797,-6.26172e-15,-1.35174e-14,21.9619,0.539209,-57.039,32.0642,28.9652,-26.4037,-11.6683,7.12502,0.155881,-41.648,-6.26172e-15,-1.35174e-14,-30.1034,16.1775,71.6251,25.8025,-12.1965,-6.80268,30.4135,7.12502,19.0606,59.4996,-17.5073,3.99345,11.9494,32.0711,-15.4267,-5.21826,7.96439,-11.0591,4.67375,-24.5501,26.8746,-15.3916,6.55441,-12.3602
0.889131,17.8027,-2.08913,3.06789,-5.94675,0.52023,3.91985,-1.14948,-5.19581,-0.444228,-1.82975,-1.79125,-2.55489,-0.850559,1.17482,-15.6529,-14.3869,-15.0799,12.8427,-17.7486,9.09648,8.70035,-8.40651,2.94862,-4.96962e-17,2.14687e-14,23.4689,-0.360275,-55.594,32.1772,28.6798,-25.803,-11.3107,7.12502,0.735979,-41.2891,-4.96962e-17,2.14687e-14,-30.0049,15.9702,71.6024,26.0247,-11.5499,-7.28783,30.4746,7.12502,18.594,59.6059,-17.4654,3.88468,12.0856,32.073,-15.4971,-5.43766,7.15502,-11.1096,4.63536,-24.4306,26.9182,-15.4378,6.39695,-11.924
0.897422,17.8051,-2.08806,3.18701,-5.86719,0.259801,3.84236,-1.14833,-4.93913,-0.468104,-1.81145,-1.77986,-2.54409,-0.844971,1.04102,-15.7166,-14.5098,-14.9075,12.681,-17.9044,8.95354,8.64278,-8.48266,2.85133,-2.10215e-14,-3.97569e-15,24.9902,-1.42275,-54.2575,32.2087,28.4812,-25.299,-10.9364,7.12502,1.22277,-40.9127,-2.10215e-14,-3.97569e-15,-29.9481,15.8878,71.5804,26.3221,-11.5818,-6.70492,31.0215,7.12502,19.1546,60.0983,-17.5449,3.82876,12.3717,32.0706,-15.5084,-5.60872,6.62059,-11.2383,4.6736,-24.1674,26.9485,-15.4662,6.24962,-11.7806
0.905011,17.8083,-2.08453,3.27466,-5.79684,0.00788391,3.7719,-1.17004,-4.68293,-0.481538,-1.82431,-1.77949,-2.52513,-0.855289,0.897889,-15.7621,-14.6086,-14.7427,12.546,-18.0321,8.81667,8.58897,-8.54622,2.76318,2.78795e-14,1.03368e-14,26.5347,-2.52018,-53.1307,32.1379,28.177,-24.969,-10.5202,7.12502,1.54147,-40.4944,2.78795e-14,1.03368e-14,-29.9723,15.7096,71.5436,26.6593,-11.4823,-6.34954,31.4289,7.12502,19.4963,60.4715,-17.585,3.92864,12.607,32.0709,-15.6079,-5.67101,8.22825,-11.3154,4.73544,-23.91,26.984,-15.4973,6.0876,-11.5457
0.910862,17.8125,-2.0809,3.33705,-5.66123,-0.108772,3.72018,-1.20712,-4.52704,-0.481975,-1.86542,-1.86276,-2.50199,-0.879057,0.726411,-15.689,-14.63,-14.8862,12.3955,-18.0917,9.14147,8.58063,-8.55587,2.88338,6.11263e-15,-1.59028e-14,27.995,-3.5107,-52.0238,32.0895,27.5813,-24.8571,-10.4321,7.12502,1.64959,-40.4055,6.11263e-15,-1.59028e-14,-29.9182,15.3823,71.4793,26.8564,-11.0637,-6.4416,31.3451,7.12502,19.4078,60.3966,-17.573,4.06189,12.6751,32.0507,-15.8107,-5.66879,11.326,-11.402,4.78712,-23.787,27.0469,-15.5484,5.87542,-11.3385
0.915016,17.8113,-2.07918,3.33474,-5.54082,-0.133408,3.76059,-1.18303,-4.45064,-0.459593,-1.83479,-1.99058,-2.50954,-0.86593,0.551469,-15.5859,-14.6718,-15.132,12.1804,-18.1785,9.5877,8.57177,-8.57394,3.05422,-2.09718e-14,-3.02153e-14,29.3146,-4.70471,-50.8681,32.0812,27.1025,-24.6613,-10.2232,7.12502,1.8387,-40.1951,-2.09718e-14,-3.02153e-14,-29.8386,15.0977,71.4235,27.121,-10.7824,-6.43145,31.4313,7.12502,19.4176,60.4818,-17.5452,3.90889,12.7147,32.029,-15.8243,-5.75578,11.5695,-11.4371,4.78366,-23.7589,27.1007,-15.6007,5.75758,-11.2166
0.919224,17.807,-2.07604,3.38062,-5.47976,-0.192422,3.75715,-1.15255,-4.40532,-0.464812,-1.79374,-2.05169,-2.51801,-0.846366,0.461104,-15.5536,-14.7342,-15.1365,11.9773,-18.2679,9.68135,8.51866,-8.61075,3.07509,2.00773e-14,1.59028e-15,30.7146,-6.27643,-50.0512,31.9192,27.3585,-24.28,-9.36771,7.12502,2.20697,-39.336,2.00773e-14,1.59028e-15,-29.8298,14.9702,71.3851,27.4325,-10.6879,-6.26854,31.6471,7.12502,19.5742,60.6817,-17.6134,3.54234,12.8421,32.0163,-15.6744,-5.88973,9.51903,-11.5063,4.81984,-23.7166,27.1502,-15.649,5.70256,-11.6497
0.924393,17.807,-2.07141,3.45914,-5.44249,-0.275927,3.72648,-1.16219,-4.31648,-0.474488,-1.8022,-2.09612,-2.51447,-0.852145,0.365796,-15.6325,-14.7694,-15.1143,11.8384,-18.3113,9.76041,8.49632,-8.6214,3.08799,3.2054e-14,1.27222e-14,32.1597,-7.59086,-49.2531,31.7244,27.1543,-24.4177,-8.95602,7.12502,2.07392,-38.9257,3.2054e-14,1.27222e-14,-29.8893,14.8749,71.3163,27.8142,-10.6744,-6.08546,31.6656,7.12502,19.7502,60.6822,-17.6999,3.34925,12.9707,31.9807,-15.5181,-6.1127,8.07321,-11.5956,4.65925,-23.6537,27.2297,-15.6828,5.8017,-11.3516
0.926971,17.8083,-2.06643,3.50254,-5.42281,-0.345401,3.75453,-1.1666,-4.24281,-0.505924,-1.80981,-2.16961,-2.56703,-0.856306,0.250646,-15.7152,-14.7932,-15.1319,11.7845,-18.3494,9.89776,8.51309,-8.62546,3.12353,3.97569e-16,-1.43125e-14,33.4582,-8.63899,-48.3993,31.5096,26.3883,-24.9791,-9.05814,7.12502,1.53173,-39.0324,3.97569e-16,-1.43125e-14,-30.0255,14.6635,71.2296,28.1631,-10.3212,-6.49901,31.3908,7.12502,19.3526,60.4478,-17.7215,3.35007,13.0819,31.9148,-15.4673,-6.39604,7.74857,-11.6552,4.56692,-23.594,27.3352,-15.7459,5.86019,-11.3364
0.92798,17.8109,-2.06332,3.54013,-5.36978,-0.510682,3.83073,-1.17278,-4.14568,-0.556596,-1.81999,-2.15528,-2.66425,-0.860519,0.214246,-15.737,-14.863,-15.27,11.7548,-18.4345,10.0335,8.54493,-8.65845,3.16858,2.68359e-15,-4.77083e-15,34.8017,-9.82477,-47.6455,31.1792,26.1864,-25.1069,-8.75425,7.12502,1.40835,-38.7293,2.68359e-15,-4.77083e-15,-30.1723,14.5705,71.2149,28.3499,-9.71421,-7.47558,30.6982,7.12502,18.4134,59.8467,-17.6964,3.42878,13.3096,31.8406,-15.5911,-6.71175,7.18568,-11.7158,4.53116,-23.4207,27.4327,-15.7899,5.87695,-11.5452
0.928875,17.8131,-2.06245,3.57886,-5.25439,-0.679715,3.93461,-1.17293,-4.0218,-0.590052,-1.82151,-2.14266,-2.76043,-0.861145,0.161136,-15.6756,-14.9328,-15.4779,11.5883,-18.5289,10.2992,8.53912,-8.6922,3.27075,1.28216e-14,-2.38542e-14,36.009,-10.9946,-46.6591,30.8832,25.9018,-25.1325,-8.0262,7.12502,1.38357,-38.0015,1.28216e-14,-2.38542e-14,-30.2074,14.4969,71.2039,28.507,-9.47846,-7.91993,30.315,7.12502,17.9859,59.5034,-17.6439,3.40879,13.5453,31.7603,-15.6673,-6.97005,6.77199,-11.7982,4.45797,-23.2312,27.5276,-15.8245,5.82384,-11.506
0.931293,17.8126,-2.05776,3.5959,-5.12544,-0.783738,3.94699,-1.17575,-3.89483,-0.548349,-1.8192,-2.18584,-2.72958,-0.863218,0.0456298,-15.7184,-14.9957,-15.3944,11.3739,-18.6134,10.3347,8.47994,-8.72561,3.25771,3.61788e-14,3.18055e-15,37.0193,-11.791,-45.3031,30.7356,24.5896,-25.7819,-7.99563,7.12502,0.756427,-37.974,3.61788e-14,3.18055e-15,-30.0864,14.3504,71.1915,28.6338,-9.38989,-7.98217,30.4051,7.12502,17.926,59.5989,-17.5489,3.28298,13.6788,31.6725,-15.6699,-7.03707,6.89583,-11.8449,4.39567,-23.1223,27.6241,-15.9047,5.76908,-11.3917
0.933187,17.8134,-2.05014,3.5798,-5.0809,-0.904525,3.91391,-1.14296,-3.71611,-0.49114,-1.76501,-2.2732,-2.6614,-0.841216,-0.148481,-15.6341,-15.0707,-15.1545,11.0398,-18.7373,10.2611,8.3371,-8.78745,3.19314,1.92821e-14,-4.77083e-15,38.0282,-12.8242,-44.3036,30.5001,23.9054,-26.273,-8.29588,7.12502,0.282038,-38.2754,1.92821e-14,-4.77083e-15,-30.0138,13.9316,71.1498,28.8149,-9.10176,-7.95287,30.4182,7.12502,17.9542,59.6095,-17.4188,3.20186,13.8254,31.5736,-15.689,-7.03776,7.21858,-11.8377,4.40281,-22.9999,27.7278,-15.9995,5.76193,-11.5163
0.932762,17.8162,-2.04757,3.59137,-5.00771,-1.02806,3.95181,-1.12162,-3.56402,-0.467792,-1.73252,-2.34999,-2.66615,-0.828044,-0.313648,-15.5321,-15.1472,-15.0126,10.7226,-18.8559,10.2444,8.21231,-8.84669,3.16177,2.90226e-14,1.90833e-14,39.1349,-14.1966,-43.6802,30.1375,24.3124,-25.9666,-8.36462,7.12502,0.578034,-38.3436,2.90226e-14,1.90833e-14,-29.9981,13.5838,71.0655,29.033,-8.9558,-7.77022,30.3221,7.12502,18.1299,59.4971,-17.3284,3.14773,13.9948,31.4504,-15.79,-7.13765,7.66474,-11.8936,4.42572,-22.8662,27.8379,-16.0283,5.72706,-11.7095
0.932192,17.8175,-2.0456,3.61536,-4.86603,-1.16468,4.03022,-1.13456,-3.38503,-0.45512,-1.74623,-2.40396,-2.70377,-0.837574,-0.466629,-15.7008,-15.2456,-14.9782,10.7303,-18.9653,10.2033,8.24756,-8.89296,3.1135,7.25564e-15,6.36111e-15,40.5728,-15.7935,-43.532,29.3851,25.2082,-25.7487,-8.07562,7.12502,0.788487,-38.0539,7.25564e-15,6.36111e-15,-29.9871,13.336,70.9872,29.2089,-8.88786,-7.85484,30.1165,7.12502,18.0485,59.2991,-17.23,3.15953,14.1733,31.3146,-15.9379,-7.34317,7.81506,-11.9612,4.37688,-22.7039,27.9502,-16.0579,5.64188,-11.5624
0.930811,17.82,-2.03893,3.62271,-4.77766,-1.3463,4.07896,-1.1612,-3.18934,-0.438987,-1.77467,-2.4305,-2.72067,-0.854802,-0.600493,-15.8775,-15.3221,-14.9494,10.7434,-19.0506,10.2034,8.28829,-8.92437,3.08266,6.16232e-15,-4.77083e-15,42.1241,-17.2202,-43.5963,28.6281,25.9775,-25.7498,-8.25275,7.12502,0.787418,-38.231,6.16232e-15,-4.77083e-15,-30.0273,13.207,70.8515,29.3656,-8.85397,-7.97841,30.0797,7.12502,17.9296,59.2733,-17.1004,3.30995,14.393,31.1721,-16.0069,-7.61677,7.25459,-11.9777,4.33204,-22.4813,28.07,-16.1707,5.55778,-11.4369
0.929662,17.8195,-2.03325,3.67831,-4.72195,-1.5026,4.05145,-1.20127,-3.00234,-0.430317,-1.81811,-2.46586,-2.70254,-0.879816,-0.739302,-15.8565,-15.3707,-15.039,10.5616,-19.1288,10.446,8.26956,-8.94725,3.16207,-9.93923e-15,-6.36111e-15,43.3319,-18.3116,-43.3423,28.3214,26.241,-25.516,-8.76093,7.12502,1.0132,-38.7383,-9.93923e-15,-6.36111e-15,-30.1609,13.0202,70.7005,29.6707,-8.76254,-7.92484,30.266,7.12502,17.9812,59.4548,-17.0316,3.48116,14.5581,31.0218,-16.1004,-7.73822,7.65657,-12.0651,4.27604,-22.2992,28.1976,-16.3052,5.52946,-11.3061
0.928898,17.8196,-2.02725,3.69544,-4.66266,-1.65919,4.06077,-1.22828,-2.80816,-0.417545,-1.84539,-2.49832,-2.70144,-0.89667,-0.879384,-15.7962,-15.4126,-15.0976,10.3861,-19.1977,10.6184,8.23463,-8.97218,3.21926,-3.30976e-14,0,44.3599,-19.3572,-42.8687,28.0273,26.3613,-25.1547,-8.64557,7.12502,1.36214,-38.621,-3.30976e-14,0,-30.347,12.8217,70.5851,30.0242,-8.7497,-7.89085,30.3328,7.12502,18.0139,59.5186,-16.9223,3.60959,14.7113,30.8791,-16.175,-7.75866,8.0306,-12.1088,4.25252,-22.1236,28.3179,-16.3658,5.53135,-11.3772
0.927792,17.8201,-2.02033,3.67334,-4.62278,-1.81819,4.17375,-1.22693,-2.63268,-0.460009,-1.84224,-2.51827,-2.81485,-0.89676,-0.995137,-15.6398,-15.4361,-15.0919,10.2337,-19.2407,10.6204,8.16277,-9.00036,3.22488,-2.38542e-15,3.18055e-15,45.3757,-20.4218,-42.4758,27.5366,26.7321,-24.8416,-8.2937,7.12502,1.66452,-38.267,-2.38542e-15,3.18055e-15,-30.5682,12.5922,70.4854,30.3215,-8.66645,-7.76847,30.4159,7.12502,18.1316,59.5908,-16.7922,3.71395,14.8702,30.76,-16.2013,-7.80458,8.19422,-12.1049,4.32801,-21.9369,28.4373,-16.4294,5.45201,-11.3652
0.926052,17.82,-2.01235,3.6872,-4.5963,-1.89971,4.24093,-1.22458,-2.5181,-0.499709,-1.83918,-2.56515,-2.89874,-0.896647,-1.10575,-15.5558,-15.4678,-15.0234,10.102,-19.2898,10.5695,8.09821,-9.03024,3.19977,2.38542e-15,0,46.2128,-21.2765,-41.7898,27.1526,26.9292,-24.4537,-8.62721,7.12502,2.03918,-38.5972,2.38542e-15,0,-30.7674,12.5016,70.3369,30.607,-8.74499,-7.55729,30.7366,7.12502,18.3348,59.8926,-16.7123,3.72023,14.9556,30.6498,-16.1059,-7.81943,8.13625,-12.144,4.36437,-21.8372,28.5846,-16.5076,5.37809,-11.231
0.923478,17.819,-2.0066,3.66905,-4.55253,-2.02552,4.33355,-1.24381,-2.34331,-0.491464,-1.86107,-2.62154,-2.94976,-0.910548,-1.25815,-15.4929,-15.503,-14.8736,9.86883,-19.3479,10.5176,7.99627,-9.06218,3.16398,-1.41137e-14,1.90833e-14,47.1875,-22.2032,-41.4175,26.7473,27.3866,-24.0026,-9.27033,7.12502,2.47481,-39.2357,-1.41137e-14,1.90833e-14,-30.8872,12.4939,70.1209,30.7991,-8.83916,-7.53297,30.6874,7.12502,18.3582,59.8411,-16.5959,3.69139,15.1064,30.5576,-15.9852,-7.83212,7.41523,-12.1702,4.39584,-21.676,28.7448,-16.5939,5.27335,-10.9611
0.918902,17.8175,-2.00147,3.70556,-4.50703,-2.23311,4.38471,-1.27735,-2.14571,-0.489739,-1.89753,-2.62888,-2.98352,-0.931833,-1.37263,-15.5069,-15.5531,-14.8406,9.71415,-19.4183,10.5837,7.95974,-9.09033,3.17076,1.30204e-14,1.59028e-15,48.0614,-23.0495,-40.9622,26.4187,27.7032,-23.5623,-9.65949,7.12502,2.90003,-39.6195,1.30204e-14,1.59028e-15,-30.9625,12.5684,69.9047,30.8725,-9.02309,-7.71306,30.1276,7.12502,18.1849,59.2976,-16.552,3.69072,15.3585,30.4959,-15.9869,-7.84502,7.17806,-12.2606,4.45167,-21.4176,28.8949,-16.6816,5.18181,-11.0552
0.91436,17.8143,-1.99545,3.74879,-4.44805,-2.32683,4.39642,-1.28037,-2.01294,-0.469166,-1.89676,-2.7123,-2.97606,-0.934502,-1.53299,-15.6222,-15.6578,-14.8582,9.70485,-19.5704,10.7473,8.01459,-9.14488,3.18872,1.39149e-15,-6.36111e-15,48.5078,-23.8317,-40.0539,26.2338,27.5442,-23.1974,-9.67473,7.12502,3.25243,-39.6297,1.39149e-15,-6.36111e-15,-30.8959,12.444,69.7403,30.885,-9.00788,-7.90491,29.7024,7.12502,18.0003,58.8894,-16.5231,3.6069,15.4756,30.4406,-16.0195,-7.75665,7.55696,-12.3581,4.48681,-21.2906,29.0291,-16.7269,5.10236,-11.2521
0.909011,17.8122,-1.98969,3.74377,-4.37646,-2.36479,4.45768,-1.28496,-1.95247,-0.451647,-1.90418,-2.8028,-2.99772,-0.939915,-1.65852,-15.6194,-15.7559,-14.9462,9.61134,-19.7194,10.977,8.03693,-9.20105,3.24629,2.88238e-14,4.77083e-15,49.0343,-24.6215,-39.4435,26.0084,27.7301,-22.9491,-9.74459,7.12502,3.49221,-39.6957,2.88238e-14,4.77083e-15,-30.8732,12.361,69.5611,30.938,-9.00658,-7.93004,29.6792,7.12502,17.9761,58.8685,-16.4478,3.53951,15.5347,30.3714,-16.0491,-7.73963,7.6501,-12.3922,4.50466,-21.2153,29.1401,-16.7867,4.9867,-11.4333
0.904717,17.8121,-1.98151,3.70697,-4.34864,-2.4503,4.55781,-1.31803,-1.85407,-0.450001,-1.94886,-2.8712,-3.05881,-0.964164,-1.77887,-15.5519,-15.7892,-14.9988,9.49888,-19.7893,11.1742,8.02593,-9.22481,3.30853,1.30204e-14,2.22639e-14,49.7699,-25.3236,-39.2463,25.742,28.3398,-22.7744,-10.2691,7.12502,3.66097,-40.2174,1.30204e-14,2.22639e-14,-31.0176,12.2377,69.3504,31.1572,-8.97995,-7.74443,30.1101,7.12502,18.1547,59.2828,-16.3386,3.52555,15.6484,30.2937,-16.0639,-7.79328,7.4875,-12.3495,4.51074,-21.0919,29.2266,-16.8954,4.91347,-11.2206
0.90112,17.8135,-1.97118,3.71482,-4.34921,-2.56823,4.55377,-1.34251,-1.7088,-0.433913,-1.97458,-2.92793,-3.04736,-0.980032,-1.91729,-15.4509,-15.8205,-15.0527,9.35603,-19.848,11.3194,7.99198,-9.24939,3.35976,2.04748e-14,-2.70347e-14,50.3986,-25.964,-38.9025,25.507,28.777,-22.3436,-10.7658,7.12502,4.07702,-40.7066,2.04748e-14,-2.70347e-14,-31.2176,12.1346,69.166,31.4743,-8.95173,-7.70922,30.2568,7.12502,18.1886,59.4264,-16.2628,3.48968,15.7871,30.1978,-16.064,-7.75235,7.68115,-12.3499,4.50667,-20.9468,29.3179,-16.9848,4.92487,-11.0654
0.896676,17.8143,-1.96282,3.75801,-4.34017,-2.67988,4.51275,-1.34795,-1.59161,-0.450677,-1.97591,-2.96985,-3.04712,-0.983133,-2.02699,-15.279,-15.895,-15.0966,9.23723,-19.9658,11.3793,7.95073,-9.31087,3.37603,5.76476e-15,3.18055e-15,50.6929,-26.3988,-38.1049,25.3566,28.8521,-22.0314,-11.0288,7.12502,4.37845,-40.9635,5.76476e-15,3.18055e-15,-31.4217,12.2286,68.9539,31.6734,-9.02827,-7.8476,29.9348,7.12502,18.0555,59.1168,-16.2106,3.36827,15.9241,30.0966,-16.0271,-7.6526,7.80823,-12.4081,4.55308,-20.8122,29.4127,-17.0179,4.90704,-11.2723
0.890412,17.8125,-1.95774,3.77543,-4.33247,-2.83898,4.5573,-1.36484,-1.43163,-0.483387,-1.99373,-3.01126,-3.1134,-0.995092,-2.1569,-15.1819,-15.9672,-14.9338,9.15806,-20.0659,11.1577,7.8777,-9.37545,3.27693,4.19436e-14,2.54444e-14,51.0149,-26.8139,-37.4779,25.1489,29.1624,-21.7503,-11.4245,7.12502,4.64993,-41.3535,4.19436e-14,2.54444e-14,-31.5774,12.4029,68.6622,31.7208,-9.1461,-7.87927,29.7726,7.12502,18.025,58.9573,-16.1407,3.34763,16.1288,30.0022,-16.0231,-7.64792,7.63623,-12.4352,4.52011,-20.6101,29.4953,-17.0361,4.94004,-11.5813
0.887593,17.8114,-1.95161,3.85134,-4.2914,-2.95031,4.57568,-1.41715,-1.27811,-0.554997,-2.06067,-3.08607,-3.20797,-1.03201,-2.3144,-15.0547,-15.9978,-14.6994,9.03818,-20.1262,10.9429,7.7751,-9.4207,3.18234,-4.67144e-14,1.11319e-14,51.2991,-27.188,-36.9473,24.9812,29.5713,-21.3766,-11.8993,7.12502,5.01075,-41.8201,-4.67144e-14,1.11319e-14,-31.7492,12.5238,68.339,31.7704,-9.19125,-7.81445,30.165,7.12502,18.0874,59.344,-16.1547,3.14241,16.274,29.9203,-15.8848,-7.60975,7.03776,-12.5174,4.4381,-20.4861,29.5701,-17.0826,5.01685,-11.8248
0.885667,17.8138,-1.94171,3.93933,-4.30716,-2.99147,4.52281,-1.46068,-1.21805,-0.602681,-2.11789,-3.15815,-3.23443,-1.06255,-2.4193,-15.0049,-16.0434,-14.6767,9.00962,-20.1986,10.9439,7.76409,-9.45675,3.17063,5.96354e-16,1.27222e-14,51.5759,-27.5054,-36.4421,24.8676,29.8554,-21.065,-12.3195,7.12502,5.31161,-42.2329,5.96354e-16,1.27222e-14,-31.9237,12.6568,68.0648,31.8617,-9.16044,-7.77043,30.7563,7.12502,18.1297,59.9313,-16.1887,2.91242,16.3282,29.8395,-15.7344,-7.46576,6.77595,-12.5866,4.33071,-20.4492,29.6444,-17.1346,5.15504,-11.9087
0.879762,17.8167,-1.93202,3.96008,-4.36787,-3.05964,4.54369,-1.47788,-1.19933,-0.619011,-2.1428,-3.20845,-3.26668,-1.0759,-2.47939,-15.0948,-16.1099,-14.7072,9.13428,-20.282,10.9382,7.83232,-9.49172,3.14756,2.61402e-14,1.27222e-14,51.9345,-27.8655,-36.135,24.7088,30.3342,-20.8082,-12.6589,7.12502,5.55952,-42.566,2.61402e-14,1.27222e-14,-32.0701,12.7088,67.8338,31.9229,-9.09179,-7.82804,30.9343,7.12502,18.0743,60.1145,-16.1533,2.93725,16.4253,29.7874,-15.758,-7.42608,6.89105,-12.559,4.22406,-20.3598,29.686,-17.194,5.30503,-11.627
0.872019,17.8173,-1.92497,3.93175,-4.40528,-3.14731,4.64924,-1.49181,-1.16874,-0.653156,-2.16632,-3.26527,-3.3658,-1.08889,-2.55076,-15.1163,-16.1503,-14.7079,9.26931,-20.3359,10.869,7.87879,-9.51959,3.111,1.00386e-14,-3.81667e-14,52.1098,-28.1339,-35.6488,24.5193,30.8215,-20.3704,-12.7521,7.12502,5.98224,-42.6476,1.00386e-14,-3.81667e-14,-32.2681,12.6212,67.6119,32.0353,-8.77738,-7.80737,30.9036,7.12502,18.0942,60.0819,-16.063,3.04324,16.5546,29.7393,-15.855,-7.43046,7.36083,-12.512,4.21771,-20.2255,29.721,-17.2401,5.30081,-11.5511
0.864635,17.8162,-1.91709,3.90258,-4.50274,-3.17193,4.70849,-1.50821,-1.2069,-0.695139,-2.19647,-3.33527,-3.44529,-1.1041,-2.59772,-14.9967,-16.1494,-14.7169,9.26882,-20.3495,10.8603,7.86086,-9.5323,3.11496,7.25564e-15,-3.33958e-14,52.0965,-28.1951,-34.9312,24.4391,30.9588,-19.9187,-12.9344,7.12502,6.41835,-42.8172,7.25564e-15,-3.33958e-14,-32.5071,12.6798,67.3273,32.1536,-8.43024,-7.71286,31.0378,7.12502,18.1851,60.2077,-16.0103,3.08768,16.6094,29.7143,-15.7872,-7.46145,7.16781,-12.4415,4.26147,-20.1745,29.7469,-17.2984,5.33727,-11.8032
0.855971,17.8161,-1.90817,3.87926,-4.56187,-3.22892,4.6684,-1.53367,-1.2145,-0.65107,-2.23013,-3.39925,-3.38081,-1.1213,-2.65867,-15.0074,-16.1895,-14.8016,9.30365,-20.4157,11.0062,7.90871,-9.55408,3.15604,1.21259e-14,-4.77083e-15,52.2158,-28.3949,-34.4677,24.3888,31.1573,-19.4788,-13.3015,7.12502,6.84295,-43.1709,1.21259e-14,-4.77083e-15,-32.5921,12.9228,67.0395,32.152,-8.42966,-7.68944,31.0036,7.12502,18.2076,60.1714,-15.9588,3.11796,16.7081,29.7255,-15.8221,-7.47762,6.82995,-12.3628,4.34615,-20.0727,29.7588,-17.361,5.28966,-11.9426
0.847338,17.8166,-1.89969,3.84405,-4.59975,-3.23212,4.63612,-1.56307,-1.28349,-0.613478,-2.27351,-3.47852,-3.32618,-1.14234,-2.70007,-15.0548,-16.2441,-14.7969,9.40377,-20.5081,11.0713,7.96863,-9.58913,3.15198,-1.2921e-15,-3.81667e-14,52.4253,-28.6792,-34.3164,24.3077,31.5107,-18.9824,-13.3816,7.12502,7.32211,-43.2349,-1.2921e-15,-3.81667e-14,-32.7117,13.0852,66.7791,32.193,-8.45482,-7.54361,31.2804,7.12502,18.3479,60.4351,-15.916,3.18368,16.7494,29.7829,-15.9229,-7.5019,6.63483,-12.2785,4.3926,-20.0279,29.738,-17.4163,5.2742,-11.9482
0.839793,17.8156,-1.89034,3.90957,-4.67453,-3.22501,4.48256,-1.58703,-1.34762,-0.61833,-2.30597,-3.53925,-3.24612,-1.1581,-2.72856,-14.9891,-16.2731,-14.7535,9.33211,-20.5426,10.9817,7.9226,-9.61495,3.11928,-3.74709e-14,-3.49861e-14,52.4293,-28.7112,-33.8041,24.2795,31.536,-18.5972,-13.6852,7.12502,7.69393,-43.5252,-3.74709e-14,-3.49861e-14,-32.8472,13.2566,66.5537,32.1882,-8.43548,-7.26013,31.8898,7.12502,18.6206,61.0186,-15.9959,3.19229,16.7589,29.8396,-15.9136,-7.41632,6.94404,-12.3032,4.3598,-20.0223,29.7357,-17.4237,5.41311,-12.3024
0.832611,17.8141,-1.8825,3.9221,-4.83422,-3.20632,4.39422,-1.59259,-1.43987,-0.576698,-2.31573,-3.605,-3.15295,-1.16193,-2.74704,-15.0749,-16.2728,-14.6639,9.26587,-20.5151,10.8448,7.88483,-9.60708,3.06768,-4.1049e-14,3.18055e-15,52.4521,-28.6711,-33.2906,24.2973,31.4802,-18.2526,-14.54,7.12502,8.02655,-44.3676,-4.1049e-14,3.18055e-15,-32.9495,13.5053,66.3206,32.2041,-8.39697,-7.10252,32.1379,7.12502,18.7722,61.2521,-16.0356,3.25956,16.7456,29.9118,-15.919,-7.27471,7.31481,-12.2635,4.26227,-20.0391,29.7405,-17.4103,5.69104,-12.5329
0.82406,17.8124,-1.87565,3.87331,-5.02681,-3.25385,4.44976,-1.59353,-1.49662,-0.562372,-2.32328,-3.65417,-3.16965,-1.16513,-2.76433,-15.2069,-16.2492,-14.7014,9.45075,-20.4705,10.8251,7.96396,-9.58039,3.06002,1.60022e-14,3.18055e-15,52.4656,-28.6535,-32.8768,24.2398,31.4122,-17.9576,-14.8712,7.12502,8.31123,-44.6877,1.60022e-14,3.18055e-15,-33.136,13.7119,66.0624,32.1828,-8.36511,-7.35419,31.5277,7.12502,18.5301,60.6652,-16.0258,3.31304,16.8224,29.9975,-15.8686,-7.13557,7.212,-12.1668,4.25952,-19.9688,29.7509,-17.4393,5.89616,-12.5622
0.816656,17.8098,-1.87029,3.84518,-5.171,-3.31376,4.57379,-1.61172,-1.54188,-0.631568,-2.35878,-3.67981,-3.31183,-1.18233,-2.75884,-15.1779,-16.2079,-14.8975,9.6727,-20.4165,10.9151,8.05824,-9.55214,3.11726,-1.16289e-14,-4.77083e-15,52.5571,-28.6921,-32.6992,24.0429,31.5919,-17.8594,-14.516,7.12502,8.40604,-44.3287,-1.16289e-14,-4.77083e-15,-33.401,13.8636,65.8178,32.0904,-8.33862,-7.55138,31.1743,7.12502,18.3405,60.3297,-16.0266,3.33738,16.9179,30.0647,-15.8241,-7.0143,7.39169,-12.0942,4.3072,-19.876,29.7763,-17.5108,5.98274,-12.6649
0.810796,17.8082,-1.86297,3.81107,-5.34985,-3.28921,4.64545,-1.61433,-1.66829,-0.707834,-2.37694,-3.71312,-3.42829,-1.18936,-2.71835,-14.9631,-16.1529,-15.0794,9.56717,-20.337,10.9899,8.00608,-9.52545,3.19519,3.45885e-14,-2.22639e-14,52.5171,-28.5902,-32.3917,23.9423,31.705,-17.8961,-14.5847,7.12502,8.37062,-44.3988,3.45885e-14,-2.22639e-14,-33.6447,14.0038,65.6269,31.9418,-8.28354,-7.75911,31.6107,7.12502,18.1406,60.7847,-16.0227,3.34506,16.9123,30.1125,-15.7404,-6.84242,7.52084,-12.0156,4.44374,-19.8858,29.8046,-17.5687,6.02913,-12.8287
0.805234,17.8082,-1.85596,3.81586,-5.5676,-3.3979,4.6022,-1.59834,-1.67367,-0.722399,-2.35477,-3.70973,-3.4178,-1.17831,-2.71449,-14.8326,-16.1296,-15.1732,9.39145,-20.2895,11.0107,7.93234,-9.51232,3.23592,1.02374e-14,-4.77083e-15,52.4518,-28.5147,-32.0502,23.9451,31.7663,-17.5879,-14.5166,7.12502,8.66808,-44.3186,1.02374e-14,-4.77083e-15,-33.8033,14.2506,65.4422,31.8281,-8.3959,-7.71629,32.0572,7.12502,18.1818,61.2275,-16.0503,3.39874,17.0399,30.153,-15.6736,-6.66958,8.0597,-11.9546,4.4332,-19.759,29.8352,-17.6164,6.27562,-13.0158
0.797846,17.8107,-1.84946,3.80383,-5.76523,-3.50056,4.58216,-1.58448,-1.6875,-0.688759,-2.33601,-3.74284,-3.37191,-1.1691,-2.74342,-14.896,-16.1255,-15.1404,9.34801,-20.2797,11.0297,7.92591,-9.50325,3.23653,3.37934e-15,2.06736e-14,52.3762,-28.5288,-31.7225,23.9428,31.8735,-17.0705,-14.3328,7.12502,9.1673,-44.1135,3.37934e-15,2.06736e-14,-33.9146,14.3514,65.273,31.8508,-8.41995,-7.6148,32.2422,7.12502,18.2794,61.4033,-16.0676,3.48688,17.1773,30.206,-15.6125,-6.58198,8.27318,-11.8915,4.40557,-19.6252,29.8674,-17.6571,6.46292,-12.9191
0.789728,17.8105,-1.8425,3.78227,-5.89647,-3.6024,4.56484,-1.59064,-1.69779,-0.639308,-2.34318,-3.7782,-3.3124,-1.17285,-2.77479,-15.0115,-16.1411,-15.0089,9.34587,-20.2949,10.9423,7.92172,-9.50828,3.18284,-3.93594e-14,-2.54444e-14,52.496,-28.663,-31.7521,23.8583,32.297,-16.6813,-14.7205,7.12502,9.54281,-44.4844,-3.93594e-14,-2.54444e-14,-34.0088,14.4509,65.1027,31.8571,-8.41461,-7.47313,32.2955,7.12502,18.4157,61.4438,-16.0605,3.43022,17.3453,30.2382,-15.468,-6.61809,7.05822,-11.8438,4.42254,-19.4949,29.9216,-17.6653,6.60764,-13.2362
0.781344,17.8079,-1.83546,3.78219,-6.01114,-3.63716,4.45565,-1.60954,-1.77701,-0.584282,-2.36643,-3.79824,-3.19253,-1.18326,-2.75289,-14.981,-16.1424,-15.0062,9.19789,-20.2817,10.9215,7.86291,-9.50685,3.18497,5.86415e-15,-2.22639e-14,52.575,-28.6967,-31.6478,23.7997,32.48,-16.3282,-14.8214,7.12502,9.88354,-44.5694,5.86415e-15,-2.22639e-14,-34.0014,14.5922,64.9861,31.6153,-8.38857,-7.41426,32.019,7.12502,18.4724,61.1619,-16.0819,3.3245,17.4372,30.275,-15.2814,-6.62687,6.15141,-11.8227,4.52775,-19.4452,29.9662,-17.6578,6.72062,-13.8157
0.775219,17.8092,-1.82925,3.80084,-6.11602,-3.72127,4.37442,-1.62294,-1.77795,-0.561236,-2.3803,-3.81031,-3.12396,-1.1904,-2.76635,-14.8662,-16.1408,-15.0321,8.99338,-20.2693,10.9194,7.77704,-9.50953,3.20355,2.48481e-14,-3.49861e-14,52.3692,-28.5811,-31.1607,23.8049,32.303,-15.9424,-14.4904,7.12502,10.2557,-44.2204,2.48481e-14,-3.49861e-14,-33.9997,14.7812,64.8556,31.2775,-8.47779,-7.48366,31.4239,7.12502,18.4056,60.5731,-16.1168,3.28543,17.5474,30.3112,-15.1831,-6.51732,6.5109,-11.8209,4.52576,-19.3416,30.0241,-17.7189,6.84624,-13.8694
0.768334,17.8106,-1.82522,3.82551,-6.27332,-3.81581,4.38371,-1.62485,-1.78954,-0.57636,-2.38476,-3.814,-3.1447,-1.19249,-2.76292,-14.8611,-16.1544,-15.1133,8.97722,-20.2707,10.9278,7.78009,-9.51225,3.2167,4.47266e-15,2.06736e-14,51.9706,-28.3388,-30.442,23.9356,32.0092,-15.4897,-14.3315,7.12502,10.6925,-44.0394,4.47266e-15,2.06736e-14,-34.1225,14.8983,64.7198,31.1053,-8.64925,-7.62856,31.0792,7.12502,18.2662,60.2415,-16.1782,3.36033,17.6722,30.3585,-15.1717,-6.43382,6.83924,-11.8192,4.40166,-19.2306,30.0743,-17.7469,7.13425,-13.8066
0.760695,17.8085,-1.82112,3.78039,-6.43883,-3.90977,4.42541,-1.62119,-1.81087,-0.519967,-2.3812,-3.84153,-3.11011,-1.19054,-2.77929,-14.9031,-16.1794,-15.151,8.937,-20.3065,11.0397,7.79532,-9.52074,3.24735,-2.73329e-14,-2.38542e-14,51.8024,-28.2856,-30.1624,23.9759,31.9471,-15.2371,-14.2177,7.12502,10.9361,-43.9129,-2.73329e-14,-2.38542e-14,-34.154,14.8875,64.6241,31.0617,-8.63034,-7.66886,31.371,7.12502,18.2274,60.537,-16.1446,3.31897,17.8405,30.3821,-15.0504,-6.41435,6.26888,-11.7252,4.26875,-19.1101,30.1244,-17.8267,7.39107,-13.649
0.753721,17.8062,-1.81415,3.77757,-6.59347,-3.95329,4.33981,-1.62252,-1.85521,-0.439661,-2.37922,-3.87986,-2.97876,-1.18929,-2.79758,-14.9824,-16.2117,-15.1145,8.81755,-20.3412,11.0831,7.77415,-9.53103,3.24788,9.64106e-15,-1.59028e-15,51.7292,-28.2691,-30.0187,23.9968,32.0074,-14.9299,-14.0532,7.12502,11.2324,-43.7325,9.64106e-15,-1.59028e-15,-34.1089,14.8488,64.5758,30.8893,-8.63997,-7.78702,31.4182,7.12502,18.1138,60.5948,-16.1397,3.21875,17.9378,30.3933,-14.9905,-6.35177,5.77458,-11.6656,4.15865,-19.0564,30.181,-17.9143,7.63729,-13.5978
0.747161,17.8042,-1.80777,3.79548,-6.69031,-4.01059,4.29352,-1.64027,-1.87445,-0.404538,-2.40094,-3.90118,-2.9174,-1.20007,-2.8091,-14.9746,-16.2129,-15.0695,8.5984,-20.3345,11.1071,7.69763,-9.52817,3.25797,2.82274e-14,6.36111e-15,51.7348,-28.2664,-30.0191,23.9945,32.2751,-14.478,-13.9023,7.12502,11.6681,-43.5574,2.82274e-14,6.36111e-15,-34.1394,14.8024,64.5139,30.6642,-8.80952,-7.77711,31.0316,7.12502,18.1233,60.2073,-16.18,3.10287,18.0367,30.4154,-15.0297,-6.29054,5.88158,-11.6427,4.01878,-18.99,30.2415,-18.0071,7.87651,-13.3715
0.740573,17.8017,-1.80219,3.764,-6.79987,-4.06311,4.34019,-1.65377,-1.86954,-0.388575,-2.42115,-3.93469,-2.92965,-1.21051,-2.84412,-15.0138,-16.223,-15.1134,8.50221,-20.3312,11.1568,7.682,-9.52361,3.27945,-1.04362e-14,9.54166e-15,51.7964,-28.2703,-30.1844,23.9581,32.5451,-14.275,-13.7372,7.12502,11.8639,-43.3811,-1.04362e-14,9.54166e-15,-34.2188,14.8503,64.3962,30.4813,-8.99039,-7.7141,30.6113,7.12502,18.1839,59.7813,-16.194,2.94475,18.1371,30.4627,-15.0382,-6.12337,6.60183,-11.5568,3.89056,-18.9293,30.2723,-18.0449,8.14574,-13.471
0.732336,17.8009,-1.79645,3.71685,-6.94669,-4.09895,4.39173,-1.65955,-1.9289,-0.373326,-2.43379,-3.9405,-2.94118,-1.21582,-2.81471,-15.055,-16.2394,-15.3084,8.45729,-20.33,11.3227,7.71338,-9.51472,3.3531,9.74045e-15,-3.18055e-14,51.7267,-28.1081,-30.0448,23.9548,32.464,-14.3271,-13.7294,7.12502,11.8137,-43.3762,9.74045e-15,-3.18055e-14,-34.3526,14.9428,64.2965,30.3685,-8.97159,-7.65603,30.5829,7.12502,18.2398,59.7477,-16.1583,2.87887,18.2198,30.5176,-14.9909,-5.94911,6.86712,-11.4578,3.93761,-18.8743,30.3044,-18.078,8.26647,-13.562
0.724511,17.8034,-1.79001,3.73309,-7.13589,-4.09975,4.37229,-1.6407,-2.03956,-0.395834,-2.41503,-3.94931,-2.94869,-1.20481,-2.76334,-14.9345,-16.2663,-15.4327,8.31439,-20.3549,11.3849,7.66975,-9.53221,3.39506,1.36167e-14,2.38542e-14,51.3069,-27.7211,-29.3346,24.0667,31.9485,-14.2633,-13.9718,7.12502,11.8752,-43.615,1.36167e-14,2.38542e-14,-34.4938,14.8495,64.2888,30.3356,-8.81953,-7.74513,31.0191,7.12502,18.1541,60.1919,-16.1992,2.84378,18.2578,30.584,-14.9106,-5.82137,6.84557,-11.4274,4.08334,-18.8581,30.3314,-18.1004,8.31441,-13.6683
0.718704,17.7992,-1.78255,3.69578,-7.36429,-4.08486,4.38281,-1.56265,-2.08665,-0.438382,-2.318,-4.00518,-2.99584,-1.15628,-2.80095,-14.5394,-16.3095,-15.5131,8.02308,-20.435,11.416,7.53198,-9.59076,3.4347,1.02374e-14,-5.56597e-14,50.8305,-27.462,-28.8266,24.1589,32.1013,-14.142,-14.1957,7.12502,11.9922,-43.8322,1.02374e-14,-5.56597e-14,-34.5909,14.6722,64.2928,30.2144,-8.80337,-7.91663,31.1485,7.12502,17.9891,60.3366,-16.2384,2.67656,18.2997,30.6528,-14.8241,-5.72368,6.36805,-11.3257,4.16725,-18.8668,30.3418,-18.1628,8.43366,-13.6407
0.713377,17.7946,-1.77579,3.70082,-7.52467,-4.0736,4.37648,-1.48565,-2.12592,-0.545593,-2.22346,-4.03389,-3.09959,-1.10881,-2.81449,-13.9539,-16.3539,-15.7372,7.70301,-20.5315,11.5347,7.38228,-9.66296,3.52982,-6.06293e-15,-5.40694e-14,50.2732,-27.1155,-28.222,24.2404,32.6506,-13.9368,-14.4343,7.12502,12.19,-44.0591,-6.06293e-15,-5.40694e-14,-34.7257,14.4544,64.3192,29.9302,-8.9107,-7.9083,31.0805,7.12502,17.9971,60.2678,-16.3039,2.52089,18.3444,30.689,-14.7571,-5.70214,5.96202,-11.2745,4.17626,-18.8718,30.3526,-18.2293,8.54976,-13.4236
0.707491,17.7946,-1.77057,3.71765,-7.67897,-4.08854,4.40666,-1.44981,-2.18655,-0.654447,-2.18612,-4.0401,-3.22596,-1.08905,-2.78786,-13.5788,-16.3735,-15.8569,7.51879,-20.5804,11.5577,7.283,-9.70569,3.57382,2.31584e-14,4.45278e-14,49.7267,-26.6162,-27.5132,24.3614,32.7283,-13.8247,-14.6482,7.12502,12.2981,-44.2666,2.31584e-14,4.45278e-14,-34.9267,14.4324,64.2447,29.7305,-9.02553,-7.78224,31.0563,7.12502,18.1184,60.2325,-16.3528,2.43262,18.3988,30.7069,-14.6981,-5.63634,5.85448,-11.2272,4.14066,-18.8533,30.3595,-18.2643,8.74115,-13.2849
0.701092,17.7963,-1.76813,3.74855,-7.83753,-4.17528,4.4303,-1.46978,-2.19085,-0.657323,-2.21406,-4.03073,-3.24266,-1.10276,-2.77309,-13.5935,-16.3794,-15.8573,7.38805,-20.587,11.6442,7.25407,-9.70389,3.60182,-5.32743e-14,-4.77083e-15,49.5543,-26.3361,-27.2379,24.4232,32.6711,-13.9689,-14.6557,7.12502,12.1591,-44.2824,-5.32743e-14,-4.77083e-15,-35.036,14.652,64.0755,29.6537,-9.11987,-7.63079,30.8746,7.12502,18.2641,60.0371,-16.413,2.39387,18.5293,30.7206,-14.6897,-5.6123,5.81786,-11.1991,4.02138,-18.7591,30.3517,-18.2628,8.99641,-13.2011
0.695755,17.7984,-1.76513,3.82176,-7.90729,-4.13444,4.32919,-1.52781,-2.28894,-0.61975,-2.29124,-4.06831,-3.14727,-1.14011,-2.75442,-13.6577,-16.3827,-15.7694,7.20184,-20.5895,11.7082,7.20273,-9.69828,3.61123,5.6753e-14,9.54166e-15,49.5817,-26.2612,-27.2737,24.4515,32.9178,-13.9453,-14.6212,7.12502,12.1819,-44.2465,5.6753e-14,9.54166e-15,-35.119,14.7857,63.9251,29.6085,-9.22833,-7.77632,30.5379,7.12502,18.124,59.7135,-16.5205,2.2247,18.5243,30.7436,-14.5995,-5.52602,5.60009,-11.2504,3.87682,-18.8109,30.3377,-18.2581,9.19709,-13.2628
0.689093,17.7996,-1.75851,3.89512,-8.00036,-4.12987,4.19836,-1.55193,-2.37671,-0.612295,-2.32092,-4.0638,-3.06319,-1.15363,-2.70189,-13.6516,-16.3987,-15.7564,7.04886,-20.6023,11.7302,7.15468,-9.70454,3.61907,-2.22639e-14,-3.49861e-14,49.6242,-26.2078,-27.3102,24.4697,33.2534,-13.732,-14.5598,7.12502,12.3875,-44.1728,-2.22639e-14,-3.49861e-14,-35.1951,15.0113,63.799,29.3902,-9.54376,-8.0775,30.0068,7.12502,17.8343,59.2091,-16.6227,2.07517,18.5753,30.7956,-14.4956,-5.48073,5.1393,-11.2735,3.76576,-18.8208,30.3284,-18.2868,9.38158,-13.2187
0.681915,17.8004,-1.75181,3.94178,-8.12939,-4.20207,4.16615,-1.59366,-2.40032,-0.56867,-2.37291,-4.03214,-2.99917,-1.17901,-2.65357,-14.0167,-16.4224,-15.5217,7.04829,-20.5921,11.5523,7.16523,-9.69019,3.51365,-1.67973e-14,-1.59028e-14,49.7694,-26.1299,-27.3546,24.4525,33.4497,-13.7014,-14.66,7.12502,12.417,-44.2712,-1.67973e-14,-1.59028e-14,-35.2016,15.231,63.724,29.2105,-9.47409,-8.37437,29.6628,7.12502,17.5486,58.8908,-16.6834,2.14756,18.6988,30.883,-14.5709,-5.56223,5.08084,-11.2665,3.79331,-18.7298,30.3141,-18.2972,9.45936,-13.283
0.674169,17.7989,-1.74596,3.97307,-8.29404,-4.18561,4.20226,-1.58254,-2.47079,-0.598075,-2.3655,-4.04151,-3.04732,-1.17402,-2.62301,-14.086,-16.4807,-15.4801,6.90004,-20.645,11.5031,7.12368,-9.71603,3.48418,-2.18663e-15,1.90833e-14,49.6179,-25.9564,-27.1396,24.4629,33.4755,-13.9759,-14.679,7.12502,12.1524,-44.306,-2.18663e-15,1.90833e-14,-35.3085,15.2042,63.7166,29.1729,-9.36286,-8.41521,29.897,7.12502,17.5093,59.1285,-16.7428,2.24558,18.7116,30.9865,-14.6535,-5.5549,5.83903,-11.2465,3.84855,-18.7327,30.31,-18.3432,9.58032,-13.1735
0.664591,17.7975,-1.74125,3.9642,-8.40912,-4.21475,4.25932,-1.51382,-2.50757,-0.675154,-2.28174,-4.01085,-3.15402,-1.13086,-2.57406,-13.6387,-16.5889,-15.8419,6.56404,-20.7912,11.7009,7.02226,-9.80271,3.60253,-3.63776e-14,-3.18055e-15,49.1485,-25.7087,-26.5635,24.5547,33.4352,-14.1797,-14.5651,7.12502,11.9558,-44.2037,-3.63776e-14,-3.18055e-15,-35.5208,15.014,63.8308,29.175,-9.40259,-8.53771,29.9673,7.12502,17.3914,59.2093,-16.7506,2.20694,18.8005,31.0875,-14.6721,-5.44203,6.2203,-11.194,3.86891,-18.6727,30.3155,-18.3502,9.72329,-13.2081
0.656985,17.7954,-1.73608,3.98323,-8.44181,-4.25665,4.24365,-1.50032,-2.48996,-0.692249,-2.26221,-3.9912,-3.16215,-1.12122,-2.56513,-13.3977,-16.6732,-16.0686,6.31351,-20.9067,11.8909,6.96384,-9.86299,3.69059,3.26007e-14,-2.70347e-14,48.9837,-25.6215,-26.308,24.5538,33.5419,-14.1556,-14.5135,7.12502,11.9791,-44.1507,3.26007e-14,-2.70347e-14,-35.5411,15.0413,63.8555,28.9992,-9.40525,-8.65792,29.5698,7.12502,17.2757,58.822,-16.803,1.95985,18.9124,31.209,-14.6769,-5.2988,6.30122,-11.1752,3.84336,-18.6035,30.3026,-18.3161,9.80187,-13.2598
0.650823,17.7943,-1.72925,3.9322,-8.50325,-4.24375,4.26056,-1.50578,-2.47391,-0.643073,-2.26893,-4.0455,-3.12395,-1.12564,-2.63008,-13.3993,-16.7129,-15.9856,6.14243,-20.9726,11.9754,6.91918,-9.88944,3.69921,-1.49089e-14,-3.65764e-14,48.7002,-25.4371,-25.9008,24.6577,33.2501,-14.0375,-14.4972,7.12502,12.0929,-44.1277,-1.49089e-14,-3.65764e-14,-35.433,15.1849,63.7369,28.7693,-9.51341,-8.49742,29.4027,7.12502,17.4302,58.6412,-16.7826,1.75912,18.9461,31.315,-14.7506,-5.17981,6.76399,-11.069,3.81098,-18.6062,30.2939,-18.3485,9.8874,-13.4139
0.644511,17.7924,-1.72208,3.87127,-8.57451,-4.2536,4.26777,-1.51872,-2.46283,-0.574504,-2.28305,-4.06251,-3.05865,-1.13331,-2.65346,-13.4132,-16.7583,-15.9796,5.92821,-21.0373,12.1404,6.88037,-9.91187,3.74179,-2.95195e-14,-4.29375e-14,48.0175,-24.8765,-24.7164,24.9919,32.0099,-14.2176,-14.6184,7.12502,11.9193,-44.2591,-2.95195e-14,-4.29375e-14,-35.3645,15.3648,63.6504,28.5783,-9.62218,-8.52277,29.0789,7.12502,17.4058,58.3196,-16.7511,1.6169,19.0024,31.408,-14.8035,-5.09398,6.99532,-10.955,3.79039,-18.5826,30.2861,-18.3851,9.99933,-13.523
0.636184,17.7914,-1.71351,3.91748,-8.67695,-4.29031,4.17598,-1.51491,-2.4636,-0.558888,-2.27157,-4.03491,-2.98922,-1.12763,-2.62768,-13.4025,-16.8156,-16.0052,5.76326,-21.1017,12.1848,6.84145,-9.94242,3.75248,-3.75703e-14,-1.90833e-14,47.5534,-24.5112,-23.8928,25.2265,31.1758,-14.3954,-14.7303,7.12502,11.7478,-44.3809,-3.75703e-14,-1.90833e-14,-35.4415,15.402,63.6726,28.5627,-9.55905,-8.66355,28.91,7.12502,17.2703,58.1626,-16.8268,1.52738,19.1041,31.4832,-14.8057,-5.09795,6.29125,-10.9646,3.95356,-18.5282,30.2775,-18.3771,10.0306,-14.0291
0.624928,17.7905,-1.70424,3.98359,-8.80499,-4.24446,4.12129,-1.47293,-2.57116,-0.615798,-2.22107,-4.02962,-3.01156,-1.10052,-2.56612,-13.3413,-16.8824,-15.9954,5.71155,-21.1829,12.0816,6.81099,-9.99014,3.71192,-3.18055e-15,-1.27222e-14,47.5463,-24.5899,-24.0044,25.1564,31.429,-14.488,-14.6478,7.12502,11.6585,-44.3034,-3.18055e-15,-1.27222e-14,-35.6239,15.2788,63.7149,28.7857,-9.83912,-8.9877,28.686,7.12502,16.9583,57.9657,-16.9372,1.5367,19.1106,31.5544,-14.8692,-5.08645,6.05858,-11.0007,4.09831,-18.5601,30.2649,-18.3307,10.087,-14.5799
0.610919,17.7895,-1.69853,4.01786,-8.85032,-4.22338,4.11963,-1.44703,-2.66585,-0.626431,-2.19238,-4.04531,-3.01802,-1.0847,-2.53122,-13.4054,-16.9803,-15.8633,5.61147,-21.3086,12.0058,6.781,-10.0505,3.64964,-2.48481e-15,-9.54166e-15,47.7446,-24.9681,-24.5343,24.97,32.1023,-14.5129,-14.5814,7.12502,11.6345,-44.2384,-2.48481e-15,-9.54166e-15,-35.6771,15.4178,63.5821,29.0552,-10.914,-9.86505,27.1324,7.12502,16.1136,56.4825,-17.0071,1.55554,19.163,31.6033,-14.9217,-5.16157,6.0868,-11.0084,4.06707,-18.5485,30.2584,-18.3062,10.2153,-14.7276
0.598612,17.7869,-1.69417,4.04722,-8.8586,-4.27295,4.17002,-1.43643,-2.6806,-0.621983,-2.18061,-4.01993,-3.0399,-1.07815,-2.49622,-13.502,-17.0978,-15.7852,5.43043,-21.4557,12.0502,6.75333,-10.1142,3.62604,1.68967e-14,-2.54444e-14,47.6283,-25.0611,-24.4049,24.9472,32.1342,-14.5753,-14.6927,7.12502,11.5743,-44.3531,1.68967e-14,-2.54444e-14,-35.6423,15.462,63.555,29.0994,-11.3552,-12.2205,23.7479,7.12502,13.8445,53.2671,-17.079,1.44708,19.2971,31.6452,-14.8568,-5.26715,5.66111,-11.0121,3.99587,-18.459,30.2528,-18.2533,10.3087,-14.6648
0.587889,17.7868,-1.68763,4.09451,-8.88595,-4.3336,4.20423,-1.43282,-2.66658,-0.63967,-2.17704,-3.99568,-3.07687,-1.07613,-2.47816,-13.3481,-17.1538,-15.8209,5.19966,-21.5532,12.2243,6.69324,-10.1607,3.6827,2.25621e-14,4.45278e-14,47.3068,-24.9159,-23.9149,25.0179,31.6583,-14.8127,-14.9278,7.12502,11.3454,-44.6009,2.25621e-14,4.45278e-14,-35.6608,15.5034,63.5051,28.9889,-11.4043,-5.53492,31.5206,7.12502,20.2794,60.4819,-17.129,1.3465,19.4219,31.6739,-14.8788,-5.2513,5.52796,-11.018,3.87513,-18.3678,30.2608,-18.2763,10.4449,-14.6248
0.57565,17.7854,-1.67864,4.07371,-8.89479,-4.28679,4.17476,-1.45889,-2.72506,-0.575755,-2.21093,-4.02717,-2.99418,-1.09279,-2.47711,-13.2792,-17.1979,-15.8183,4.93587,-21.6175,12.3573,6.62238,-10.19,3.72386,4.25399e-14,-3.97569e-14,47.4586,-25.2228,-24.3092,24.919,31.8749,-15.0219,-14.8248,7.12502,11.1436,-44.5089,4.25399e-14,-3.97569e-14,-35.6566,15.6968,63.3486,29.0075,-11.9633,-7.93708,28.5229,7.12502,17.9694,57.7128,-17.0827,1.32998,19.4167,31.6966,-14.9693,-5.1941,5.90095,-10.9672,3.80737,-18.3897,30.2942,-18.3566,10.5248,-14.6652
0.563181,17.7854,-1.66954,4.03982,-8.81658,-4.30312,4.15557,-1.50486,-2.69381,-0.49658,-2.26626,-4.05555,-2.90527,-1.12167,-2.52164,-13.2189,-17.2544,-15.8196,4.67211,-21.6983,12.5046,6.55753,-10.2263,3.766,-9.44227e-15,-3.18055e-15,47.5627,-25.5804,-24.6702,24.8393,32.2927,-15.0046,-14.7145,7.12502,11.1603,-44.3977,-9.44227e-15,-3.18055e-15,-35.6724,15.8155,63.2224,29.1981,-12.3403,-8.16587,27.8883,7.12502,17.7492,57.0983,-16.9993,1.36248,19.4917,31.7111,-15.0965,-5.32095,5.60005,-10.9122,3.74023,-18.3233,30.3354,-18.4114,10.5217,-14.6706
0.550067,17.7846,-1.66305,4.07152,-8.76725,-4.38664,4.17831,-1.53164,-2.61702,-0.50197,-2.29948,-4.0537,-2.92738,-1.13935,-2.55987,-13.0423,-17.3159,-15.9155,4.46708,-21.8014,12.7042,6.51354,-10.2762,3.83677,-1.26228e-14,-1.74931e-14,47.3261,-25.6904,-24.4795,24.8746,32.3824,-14.9433,-14.9945,7.12502,11.2194,-44.6744,-1.26228e-14,-1.74931e-14,-35.7479,15.791,63.1662,29.3563,-12.3651,-7.93135,28.0994,7.12502,17.9749,57.2888,-17.0002,1.45795,19.6366,31.7405,-15.249,-5.44342,5.53305,-10.9293,3.68098,-18.1813,30.3676,-18.4112,10.5368,-14.9191
0.535825,17.7829,-1.65708,4.06278,-8.81013,-4.39066,4.26857,-1.49026,-2.67708,-0.521267,-2.2527,-4.03563,-2.99385,-1.11444,-2.50813,-12.9227,-17.4321,-16.0542,4.34047,-21.9585,12.8264,6.5049,-10.353,3.87305,-1.85864e-14,-5.24792e-14,46.914,-25.7174,-23.998,24.922,32.1756,-14.8837,-15.1751,7.12502,11.2769,-44.852,-1.85864e-14,-5.24792e-14,-35.7316,15.5011,63.3539,29.409,-11.864,-7.53339,29.1525,7.12502,18.3578,58.3063,-16.9777,1.52325,19.6832,31.769,-15.3177,-5.4359,5.4903,-10.8986,3.48708,-18.1431,30.3911,-18.4169,10.7226,-14.5695
0.520922,17.7811,-1.64842,4.03712,-8.80443,-4.32173,4.35039,-1.50116,-2.79534,-0.554881,-2.27984,-4.03861,-3.07102,-1.12542,-2.4407,-12.7488,-17.4717,-16.157,4.16661,-22.0203,12.9383,6.45567,-10.3876,3.92528,4.70126e-14,-3.18055e-15,46.7071,-25.7292,-23.8215,24.8678,32.0238,-15.1193,-14.9616,7.12502,11.0497,-44.6507,4.70126e-14,-3.18055e-15,-35.8209,15.2694,63.4902,29.4156,-10.9498,-6.88077,30.47,7.12502,18.9855,59.5634,-16.9301,1.40786,19.6535,31.7944,-15.3106,-5.30085,5.35446,-10.8477,3.38382,-18.1731,30.4007,-18.4415,10.8255,-14.6722
0.504282,17.7815,-1.63696,4.04836,-8.70724,-4.23854,4.35607,-1.57179,-2.94323,-0.578213,-2.38322,-4.03467,-3.09473,-1.174,-2.34626,-12.6503,-17.481,-16.2331,4.0101,-22.042,13.0967,6.42223,-10.3969,3.98902,2.13694e-14,-1.90833e-14,46.7778,-25.9658,-24.0992,24.7913,32.3954,-15.2749,-14.8836,7.12502,10.8996,-44.5807,2.13694e-14,-1.90833e-14,-35.9531,15.3158,63.4201,29.4578,-10.8172,-7.70953,29.1515,7.12502,18.1883,58.3211,-16.8942,1.30825,19.614,31.8167,-15.3655,-5.22315,5.36399,-10.8214,3.44169,-18.1968,30.3877,-18.4746,10.6799,-14.7279
0.4874,17.7832,-1.62537,4.01655,-8.59469,-4.20742,4.32197,-1.62993,-3.02505,-0.522404,-2.45932,-4.01726,-3.01517,-1.21084,-2.2788,-12.654,-17.5239,-16.3517,3.87692,-22.0916,13.2851,6.42433,-10.4133,4.05288,-1.15295e-14,3.97569e-14,46.701,-26.2194,-24.1127,24.8082,32.652,-15.2097,-14.9933,7.12502,10.9625,-44.687,-1.15295e-14,3.97569e-14,-35.9442,15.3823,63.3401,29.5142,-11.2096,-10.3318,25.4981,7.12502,15.6641,54.8841,-16.7986,1.21006,19.6366,31.8287,-15.4063,-5.18111,5.49256,-10.7408,3.5115,-18.151,30.3902,-18.55,10.4698,-14.4341
0.471579,17.7835,-1.61458,4.00754,-8.43966,-4.15895,4.28082,-1.66841,-3.07154,-0.502931,-2.50982,-4.02853,-2.9714,-1.23562,-2.26249,-12.4706,-17.5759,-16.3103,3.61238,-22.1704,13.2796,6.31627,-10.4628,4.05496,2.67365e-14,-4.77083e-15,46.399,-26.3393,-23.8058,24.7694,32.6855,-15.1609,-14.8672,7.12502,11.0096,-44.5584,2.67365e-14,-4.77083e-15,-35.9342,15.2225,63.3859,29.4907,-10.7983,-10.7647,25.02,7.12502,15.2471,54.438,-16.71,1.12332,19.6246,31.8133,-15.4766,-5.14513,6.06106,-10.741,3.52482,-18.1428,30.4264,-18.5241,10.3811,-14.7542
0.454708,17.7818,-1.60669,4.04768,-8.28043,-4.12472,4.31131,-1.70993,-3.12555,-0.569135,-2.57386,-4.0438,-3.0567,-1.26589,-2.24204,-12.1194,-17.5894,-16.1796,3.26684,-22.2271,13.2472,6.141,-10.5112,4.05896,3.71727e-14,7.79236e-14,45.8729,-26.2377,-23.2219,24.7802,32.4317,-15.2889,-14.6443,7.12502,10.8861,-44.3421,3.71727e-14,7.79236e-14,-36.0704,15.0017,63.4348,29.508,-9.89807,-8.61565,28.2853,7.12502,17.3164,57.5339,-16.6792,0.986126,19.6434,31.7814,-15.494,-5.08746,6.24943,-10.8426,3.43577,-18.1166,30.4801,-18.5196,10.359,-15.0568
0.435635,17.7809,-1.59896,4.08917,-8.24888,-4.21934,4.35126,-1.73208,-3.13513,-0.585937,-2.60552,-3.99693,-3.09443,-1.28058,-2.1845,-12.1864,-17.6282,-16.155,3.28817,-22.278,13.2653,6.16465,-10.5311,4.04621,-1.19271e-15,-3.33958e-14,45.448,-26.2628,-22.78,24.8895,32.2336,-15.3309,-14.5507,7.12502,10.8456,-44.2506,-1.19271e-15,-3.33958e-14,-36.1002,15.0191,63.4214,29.5819,-9.95831,-7.07221,30.5101,7.12502,18.8014,59.6215,-16.6501,0.953197,19.8094,31.7499,-15.5329,-5.02807,6.23057,-10.873,3.16323,-17.9569,30.5298,-18.5895,10.538,-14.8749
0.415419,17.7814,-1.58819,4.10435,-8.2376,-4.34639,4.33909,-1.75204,-3.08633,-0.551622,-2.62551,-3.95732,-3.05255,-1.29135,-2.17016,-12.3058,-17.6795,-16.267,3.36959,-22.3423,13.4364,6.25267,-10.5476,4.08458,3.57812e-14,2.06736e-14,45.2667,-26.4876,-22.7022,24.8715,32.2773,-15.3799,-14.4507,7.12502,10.7984,-44.1531,3.57812e-14,2.06736e-14,-36.0203,15.1487,63.3385,29.5666,-10.3689,-6.83444,30.7039,7.12502,19.03,59.7929,-16.5533,1.02281,20.0107,31.7084,-15.6381,-5.05683,6.17353,-10.827,2.88038,-17.7652,30.5824,-18.6604,10.7907,-14.7143
0.395496,17.7811,-1.57551,4.10719,-8.09256,-4.35221,4.32469,-1.81251,-3.09142,-0.542252,-2.70477,-3.95338,-3.03566,-1.33078,-2.15839,-12.2642,-17.7325,-16.3131,3.27359,-22.4076,13.47,6.23347,-10.5806,4.09422,-5.96354e-15,6.36111e-15,45.0603,-26.6704,-22.6175,24.8096,32.4784,-15.517,-14.4527,7.12502,10.666,-44.1619,-5.96354e-15,6.36111e-15,-36.0405,15.17,63.2564,29.5514,-10.42,-6.81639,30.5336,7.12502,19.0474,59.621,-16.4408,1.07955,20.0719,31.6691,-15.8015,-5.03147,6.72142,-10.8075,2.74954,-17.6837,30.6197,-18.6771,10.7904,-14.9186
0.3764,17.7802,-1.56442,4.05805,-7.95031,-4.34124,4.39056,-1.88492,-3.15443,-0.530326,-2.80667,-3.92377,-3.05758,-1.37979,-2.08357,-12.161,-17.7299,-16.3324,3.09382,-22.4034,13.5103,6.16707,-10.5839,4.12323,7.15625e-15,-7.95139e-15,44.7926,-26.7438,-22.3299,24.8105,32.4749,-15.6157,-14.4477,7.12502,10.5709,-44.1619,7.15625e-15,-7.95139e-15,-36.1563,15.186,63.2005,29.6587,-10.3616,-6.65546,30.6297,7.12502,19.2022,59.7017,-16.3138,1.12956,20.1187,31.638,-15.9102,-5.02655,7.19488,-10.7549,2.70987,-17.6123,30.6482,-18.6882,10.6889,-14.752
0.355865,17.7811,-1.55377,4.05093,-7.85862,-4.28861,4.3626,-1.92838,-3.30993,-0.512091,-2.86874,-3.88651,-3.01442,-1.40794,-1.95529,-12.0256,-17.7643,-16.4439,2.90707,-22.4527,13.6494,6.124,-10.6103,4.1841,1.55052e-14,-9.54166e-15,44.5568,-26.9411,-22.1143,24.8249,32.5635,-15.6694,-14.3256,7.12502,10.5191,-44.0424,1.55052e-14,-9.54166e-15,-36.1654,14.8128,63.3815,29.675,-9.52513,-7.19344,30.5115,7.12502,18.6848,59.6341,-16.2535,1.15814,20.132,31.6229,-16.0004,-5.14245,6.82896,-10.7367,2.6717,-17.5897,30.6743,-18.7078,10.6443,-14.7339
