JuanDHNZ/ProyectoFinalCD/preprocessing/sports_trials_csv/14_20.csv
root1,root2,root3,root4,root5,root6,lowerback1,lowerback2,lowerback3,upperback1,upperback2,upperback3,thorax1,thorax2,thorax3,lowerneck1,lowerneck2,lowerneck3,upperneck1,upperneck2,upperneck3,head1,head2,head3,rclavicle1,rclavicle2,rhumerus1,rhumerus2,rhumerus3,rradius1,rwrist1,rhand1,rhand2,rfingers1,rthumb1,rthumb2,lclavicle1,lclavicle2,lhumerus1,lhumerus2,lhumerus3,lradius1,lwrist1,lhand1,lhand2,lfingers1,lthumb1,lthumb2,rfemur1,rfemur2,rfemur3,rtibia1,rfoot1,rfoot2,rtoes1,lfemur1,lfemur2,lfemur3,ltibia1,lfoot1,lfoot2,ltoes1
-0.911983,17.127,-2.07041,6.56243,-1.55238,0.761094,5.55461,-0.702902,-2.9888,-0.385352,-1.07777,1.69595,-3.42737,-0.466488,3.52525,-22.7106,-3.58634,-11.1022,22.124,-2.91011,6.71518,11.2107,-1.42007,3.84584,-1.00883e-14,6.36111e-15,-30.5425,-4.12926,-84.417,33.44,19.5984,-20.1339,-0.414545,7.12502,6.21054,-30.3035,-1.00883e-14,6.36111e-15,-30.599,7.10415,85.4053,30.7644,-3.90678,-13.116,21.0654,7.12502,12.9814,50.6415,-21.3037,1.30024,16.6514,48.3075,-28.0965,-3.0152,-3.79936,-19.7287,4.2046,-20.3015,44.7797,-24.9439,4.17331,-20.0798
-0.917823,17.0648,-2.09532,6.5376,-1.39692,0.655226,5.92447,-0.706938,-2.87789,-0.210134,-1.08418,1.68726,-3.45535,-0.473669,3.45933,-22.9466,-3.61531,-11.0832,21.6901,-2.94062,6.81389,11.0965,-1.40802,3.86422,-6.36111e-15,-5.96354e-15,-30.1922,-4.50667,-84.3363,33.6483,19.2002,-20.7111,0.376062,7.12502,5.65328,-29.5285,-6.36111e-15,-5.96354e-15,-30.2765,7.10886,85.2231,31.2571,-2.56094,-8.68573,27.0222,7.12502,17.2489,56.2766,-21.994,1.1948,16.8057,49.6191,-28.3822,-3.06714,-4.36785,-20.7671,4.68885,-20.1162,46.5436,-25.2712,3.6524,-20.3917
-0.921682,17.0001,-2.11326,6.49429,-1.37742,0.520685,6.21335,-0.675769,-2.6913,-0.0365754,-1.03618,1.66282,-3.44522,-0.455817,3.32784,-23.1174,-3.63454,-10.9697,21.3046,-2.9536,6.73735,10.9827,-1.40436,3.80517,7.70291e-15,3.18055e-15,-29.8456,-5.09449,-84.1945,33.619,18.5762,-21.4912,1.27784,7.12502,4.9001,-28.6455,7.70291e-15,3.18055e-15,-29.9198,7.1523,84.9646,31.4909,-1.51829,-7.52978,29.1272,7.12502,18.3612,58.2806,-22.6227,1.25336,16.9599,50.8808,-28.7279,-2.9928,-4.79304,-21.6932,5.28814,-19.9202,48.2344,-25.616,3.1969,-21.1948
-0.924151,16.935,-2.13032,6.2613,-1.40711,0.394093,6.72525,-0.666528,-2.52211,0.136859,-1.02189,1.64815,-3.55706,-0.451857,3.22378,-23.2591,-3.61225,-10.8213,20.9977,-2.90373,6.57014,10.8847,-1.38282,3.71903,-6.65929e-15,-4.77083e-15,-29.5362,-5.80894,-83.9658,33.5499,17.9571,-21.8213,1.94472,7.12502,4.58129,-27.9857,-6.65929e-15,-4.77083e-15,-29.653,7.5382,84.501,31.7005,-1.03906,-7.39983,29.5452,7.12502,18.4862,58.6868,-23.0698,1.37626,17.1127,52.1642,-29.0986,-3.00515,-5.43582,-22.3621,5.80993,-19.6995,49.8527,-25.8725,2.79358,-21.5778
-0.925849,16.8709,-2.14536,5.99594,-1.3122,0.321564,7.18777,-0.724654,-2.38292,0.373479,-1.09806,1.61057,-3.56866,-0.495025,3.11974,-23.3377,-3.52323,-10.6472,20.5334,-2.79653,6.49198,10.7125,-1.32031,3.66801,2.18663e-15,1.15295e-14,-29.185,-6.64847,-83.7201,33.4384,17.2636,-21.9794,2.9348,7.12502,4.42869,-26.9989,2.18663e-15,1.15295e-14,-29.2131,8.16306,83.8825,31.8893,-0.756209,-6.89099,30.6214,7.12502,18.9757,59.7158,-23.4483,1.37448,17.2164,53.4719,-29.4284,-3.15001,-6.9336,-22.9283,6.08048,-19.495,51.4048,-26.0908,2.23697,-21.7139
-0.930649,16.8009,-2.1637,5.89156,-1.15334,0.247915,7.5405,-0.77944,-2.26008,0.542292,-1.16736,1.59453,-3.58892,-0.533147,3.04594,-23.3433,-3.46173,-10.6097,20.0055,-2.71268,6.51719,10.5114,-1.26679,3.67286,-4.47266e-15,-2.10712e-14,-28.7506,-7.66049,-83.3599,33.1405,16.566,-22.4009,4.06311,7.12502,4.02163,-25.8787,-4.47266e-15,-2.10712e-14,-28.6913,8.76339,83.2426,31.8603,-0.465656,-7.28883,30.8426,7.12502,18.593,59.9741,-23.9947,1.31384,17.3192,54.785,-29.6277,-3.49307,-9.53169,-23.5969,6.28856,-19.2954,52.8751,-26.1931,1.90315,-22.9746
-0.94123,16.7272,-2.18118,5.87064,-1.08378,0.0828992,7.85376,-0.758388,-2.13015,0.62397,-1.13246,1.61067,-3.68407,-0.517028,2.99155,-23.3188,-3.44747,-10.6383,19.5334,-2.68848,6.58996,10.3342,-1.2414,3.69783,8.94531e-16,-7.15625e-15,-28.3807,-9.1084,-82.8163,32.8861,16.1836,-22.0453,4.01459,7.12502,4.36501,-25.9204,8.94531e-16,-7.15625e-15,-28.1496,9.29196,82.5426,31.5437,-0.0166914,-8.64381,29.5592,7.12502,17.2893,58.8102,-24.6287,1.40027,17.5264,56.0422,-29.8841,-3.68376,-11.0426,-24.3278,6.58468,-18.9657,54.2628,-26.3889,1.4806,-23.9666
-0.954692,16.6706,-2.19104,5.71885,-1.05022,-0.0920274,8.22407,-0.725616,-2.06201,0.723546,-1.08676,1.64758,-3.79142,-0.494473,2.99327,-23.284,-3.41433,-10.6581,19.1771,-2.63043,6.60051,10.1939,-1.20955,3.70631,1.68967e-14,-2.18663e-14,-28.0433,-10.6668,-82.1521,32.6829,16.0426,-20.8854,2.61877,7.12502,5.48496,-27.2902,1.68967e-14,-2.18663e-14,-27.6007,10.2107,81.6468,31.1437,0.410756,-9.20612,28.8303,7.12502,16.748,58.1279,-25.0416,1.58284,17.7548,57.1841,-30.2146,-3.6319,-11.1635,-24.9536,6.90683,-18.5742,55.5418,-26.6976,0.700843,-24.0938
-0.965547,16.6248,-2.19674,5.57519,-0.92165,-0.215616,8.51083,-0.756617,-1.99919,0.814309,-1.1255,1.66381,-3.8557,-0.514498,2.9841,-23.2141,-3.34782,-10.5841,18.8841,-2.54192,6.51602,10.065,-1.16962,3.67072,-5.01931e-15,1.66979e-14,-27.7952,-12.1643,-81.4634,32.5118,15.9689,-19.683,0.755042,7.12502,6.64588,-29.1207,-5.01931e-15,1.66979e-14,-27.1676,11.7026,80.4408,30.7823,0.640909,-8.85933,28.8409,7.12502,17.0818,58.11,-25.3776,1.65949,17.9164,58.2279,-30.5171,-3.47257,-11.085,-25.5498,7.06526,-18.2425,56.7061,-27.041,-0.112043,-23.6618
-0.973481,16.5707,-2.19766,5.52491,-0.789216,-0.142612,8.61335,-0.793006,-2.1086,0.904133,-1.18688,1.63562,-3.81389,-0.545095,3.02451,-23.3141,-3.27928,-10.5327,18.7035,-2.44102,6.48839,10.007,-1.11816,3.66424,-3.72721e-15,1.55052e-14,-27.6247,-13.3098,-80.7689,32.4872,15.3171,-18.8866,-0.61338,7.12502,7.41464,-30.4634,-3.72721e-15,1.55052e-14,-26.7044,13.4786,79.1118,30.4019,0.738182,-8.56469,29.2563,7.12502,17.3654,58.5006,-25.7911,1.56983,17.8202,59.2448,-30.7777,-3.13259,-10.6995,-26.0669,7.15251,-18.1824,57.7299,-27.4302,-0.80375,-23.2374
-0.983828,16.5053,-2.19867,5.44388,-0.666432,-0.139921,8.72718,-0.807013,-2.17359,0.998198,-1.21309,1.64344,-3.77633,-0.558765,3.07358,-23.3941,-3.23217,-10.605,18.5082,-2.35754,6.58041,9.94533,-1.06948,3.71853,7.60351e-15,-1.33186e-14,-27.4754,-14.446,-79.9367,32.4222,14.6161,-18.3505,-1.1299,7.12502,7.93208,-30.9611,7.60351e-15,-1.33186e-14,-26.264,15.0027,77.8025,30.0767,1.03301,-8.85666,29.35,7.12502,17.0844,58.6188,-26.1969,1.42029,17.8356,60.2753,-31.0465,-2.94746,-10.8765,-26.4563,7.35607,-18.0527,58.6174,-27.8358,-1.33884,-23.3201
-0.996582,16.4425,-2.20204,5.35636,-0.541301,-0.203787,8.8649,-0.815542,-2.18556,1.05761,-1.22625,1.67836,-3.78947,-0.565338,3.12067,-23.3693,-3.2139,-10.687,18.3407,-2.31184,6.62429,9.87837,-1.04663,3.75128,-1.33683e-14,2.36554e-14,-27.3326,-15.6472,-78.9142,32.1407,14.2383,-18.1166,-1.18188,7.12502,8.15784,-31.0044,-1.33683e-14,2.36554e-14,-25.9536,16.1897,76.4726,29.8713,1.52198,-9.19543,29.0739,7.12502,16.7583,58.3706,-26.6171,1.27715,17.9721,61.2953,-31.3501,-3.05419,-11.5981,-26.7772,7.58359,-17.8633,59.3446,-28.333,-1.74485,-23.2725
-1.00863,16.3835,-2.20444,5.30451,-0.41312,-0.0591965,8.96878,-0.828275,-2.40214,1.06122,-1.26719,1.64875,-3.83677,-0.581783,3.21957,-23.3627,-3.16534,-10.6965,18.2629,-2.24109,6.62989,9.84274,-1.01272,3.76397,-5.06901e-15,7.15625e-15,-27.251,-16.6649,-77.785,31.7386,13.7529,-18.4844,-0.746413,7.12502,7.80284,-30.5824,-5.06901e-15,7.15625e-15,-25.6691,17.2928,75.0081,29.58,1.87037,-9.30657,28.8058,7.12502,16.6513,58.1116,-27.0337,1.04704,17.8753,62.2504,-31.6551,-3.04828,-12.1209,-26.9312,7.7535,-17.9579,59.8685,-28.8716,-1.8221,-23.3763
-1.02132,16.3249,-2.20324,5.27773,-0.314047,0.0699285,8.97252,-0.82591,-2.60961,1.06242,-1.28553,1.62282,-3.83228,-0.58804,3.31208,-23.4142,-3.11399,-10.7171,18.2547,-2.16062,6.64643,9.84144,-0.974149,3.78561,1.31198e-14,-3.18055e-15,-27.2792,-17.3744,-76.5826,31.5608,13.1431,-19.0483,-0.516982,7.12502,7.25854,-30.3725,1.31198e-14,-3.18055e-15,-25.4224,18.3053,73.4605,29.463,2.00942,-9.10108,29.3372,7.12502,16.8491,58.6262,-27.3664,0.827798,17.8047,63.0487,-31.9798,-2.97302,-12.2473,-26.9103,7.95587,-18.0743,60.1884,-29.4109,-1.51211,-24.1685
-1.03177,16.2782,-2.19504,5.19496,-0.233992,0.0631036,8.97173,-0.846535,-2.67765,1.06778,-1.31913,1.63419,-3.82189,-0.603899,3.36629,-23.3696,-3.01132,-10.6401,18.1669,-2.01588,6.51123,9.7859,-0.91687,3.74386,1.31198e-14,-7.95139e-16,-27.3158,-18.1555,-75.2373,31.3837,12.9664,-19.4701,-0.210164,7.12502,6.85138,-30.0793,1.31198e-14,-7.95139e-16,-25.2829,19.4139,71.7571,29.4538,1.838,-9.27355,30.1767,7.12502,16.6831,59.4798,-27.4809,0.568875,17.8885,63.5842,-32.2778,-2.98911,-12.5417,-26.7229,8.13745,-18.05,60.3101,-29.9377,-1.08704,-24.6563
-1.0385,16.2517,-2.17814,5.11802,-0.118907,0.123731,8.90301,-0.877378,-2.75083,1.08975,-1.36648,1.61525,-3.75577,-0.628067,3.39123,-23.522,-2.92746,-10.5007,18.2503,-1.88541,6.30944,9.82636,-0.869976,3.67008,-5.96354e-15,-2.38542e-15,-27.3365,-19.1825,-73.7174,31.2259,13.2703,-19.7045,0.358936,7.12502,6.62504,-29.5174,-5.96354e-15,-2.38542e-15,-25.0275,20.6021,69.9951,29.3378,1.67983,-10.3095,30.4024,7.12502,15.6856,59.7866,-27.3901,0.277564,17.8909,63.8189,-32.6209,-2.97643,-12.4016,-26.4691,8.22763,-18.1328,60.2683,-30.4373,-0.65928,-24.7106
-1.04436,16.2481,-2.15696,5.12516,0.0478754,0.192607,8.72697,-0.910434,-2.80665,1.11298,-1.41238,1.59881,-3.62886,-0.653076,3.40573,-23.806,-2.88516,-10.4596,18.4141,-1.79464,6.23113,9.92513,-0.833718,3.65342,3.42904e-15,7.95139e-15,-27.3445,-20.2427,-72.1265,31.2131,13.7382,-20.2439,0.597432,7.12502,6.10434,-29.2946,3.42904e-15,7.95139e-15,-24.7358,21.4285,68.3209,29.3743,2.20323,-11.3669,30.4113,7.12502,14.667,59.8725,-27.2143,-0.0661448,17.8769,63.7436,-32.9184,-2.82563,-11.898,-26.2975,8.1813,-18.2487,60.1045,-30.8104,-0.354181,-24.5137
-1.05059,16.2548,-2.13945,5.14527,0.280096,0.179918,8.61743,-0.945555,-2.76718,1.08635,-1.45229,1.61487,-3.59288,-0.673698,3.40213,-24.0637,-2.86807,-10.5133,18.5443,-1.72789,6.23976,10.0116,-0.804903,3.67957,-5.81445e-15,1.21259e-14,-27.5119,-21.0932,-70.4531,31.4535,13.9295,-21.0302,0.347995,7.12502,5.34517,-29.5646,-5.81445e-15,1.21259e-14,-24.6174,21.8545,66.7039,29.6918,3.23468,-12.1871,30.2437,7.12502,13.8767,59.7607,-26.9926,-0.41085,17.972,63.4359,-33.0868,-2.68947,-10.8159,-26.1515,7.97041,-18.257,59.8197,-30.9772,-0.122611,-24.5713
-1.05978,16.2695,-2.12139,5.07679,0.537858,0.00637654,8.62924,-0.997979,-2.61318,1.02373,-1.50511,1.68488,-3.66255,-0.699399,3.39554,-24.2993,-2.83443,-10.4634,18.6808,-1.65101,6.13837,10.0937,-0.777806,3.65043,1.68967e-15,-7.7526e-15,-27.8793,-21.6187,-68.7191,32.0173,13.5747,-21.9475,-0.572062,7.12502,4.4595,-30.5051,1.68967e-15,-7.7526e-15,-24.6627,22.3028,64.9116,30.1509,3.97961,-12.7205,30.1755,7.12502,13.3626,59.727,-26.5943,-0.643663,18.262,62.9329,-33.1877,-2.53635,-9.44177,-25.8395,7.65399,-18.0368,59.3874,-30.9652,0.0818193,-24.5119
-1.06572,16.2988,-2.09638,5.01235,0.779004,-0.0508138,8.51739,-1.05743,-2.56644,0.97556,-1.57611,1.72402,-3.6449,-0.734809,3.41555,-24.3405,-2.77349,-10.2574,18.7145,-1.56386,5.83844,10.1008,-0.759398,3.52174,-4.52235e-15,-9.14409e-15,-28.2764,-22.0916,-66.9614,32.8037,12.7647,-22.7042,-1.65102,7.12502,3.72873,-31.5981,-4.52235e-15,-9.14409e-15,-24.7889,22.7692,63.0105,30.8134,4.46437,-13.0753,30.3153,7.12502,13.0206,59.8889,-26.0921,-0.915839,18.3992,62.28,-33.1388,-2.54888,-8.64717,-25.4147,7.22095,-17.9602,58.7715,-30.7607,0.32468,-24.5476
-1.06618,16.3459,-2.06601,4.99204,1.03711,0.0728196,8.26666,-1.13366,-2.68305,0.98034,-1.68282,1.73476,-3.48804,-0.789416,3.49653,-24.3824,-2.70679,-10.1935,18.6368,-1.45941,5.71994,10.0693,-0.719113,3.48285,-1.21259e-14,-1.98785e-16,-28.5489,-22.6384,-65.1407,33.6343,11.6403,-23.0959,-2.06507,7.12502,3.35051,-32.0185,-1.21259e-14,-1.98785e-16,-24.8077,23.3632,61.1658,31.585,4.96404,-13.354,31.8941,7.12502,12.7519,61.4847,-25.54,-1.27232,18.2809,61.5025,-32.876,-2.50039,-8.13331,-24.9192,6.6764,-18.1143,57.9834,-30.4181,0.633356,-24.8151
-1.06722,16.4065,-2.03643,5.02675,1.28588,0.212419,8.02853,-1.20634,-2.85642,0.942293,-1.78829,1.78092,-3.37943,-0.841113,3.64691,-24.5779,-2.65824,-10.3635,18.6634,-1.33887,5.84199,10.1047,-0.659475,3.57535,2.41523e-14,5.1684e-15,-28.88,-23.1363,-63.1962,34.6136,10.2857,-23.2274,-2.24542,7.12502,3.22345,-32.2008,2.41523e-14,5.1684e-15,-24.9839,23.7896,59.3615,32.5959,5.64116,-13.4108,34.582,7.12502,12.6972,64.176,-25.0069,-1.57464,18.1289,60.636,-32.4201,-2.41079,-7.91877,-24.4315,6.10881,-18.2766,57.0714,-29.9022,0.880177,-25.0474
-1.0711,16.4747,-2.00806,5.02894,1.49637,0.149312,7.83967,-1.25052,-2.85973,0.906306,-1.83957,1.88519,-3.30352,-0.867242,3.75724,-24.7837,-2.65966,-10.4954,18.7196,-1.28231,5.89178,10.1575,-0.635907,3.62626,9.44227e-15,-4.37326e-15,-29.2387,-23.8088,-61.1345,35.6359,9.02866,-23.4447,-2.38908,7.12502,3.01368,-32.3475,9.44227e-15,-4.37326e-15,-25.2128,24.2803,57.4848,33.5724,6.08048,-13.1903,35.4692,7.12502,12.9097,65.0499,-24.4434,-1.70142,18.2193,59.6664,-31.74,-2.45766,-7.75591,-23.8819,5.53616,-18.1715,56.1067,-29.1995,1.02248,-25.0897
-1.07573,16.5517,-1.9807,4.97669,1.66061,-0.0592033,7.73385,-1.25995,-2.75154,0.857992,-1.8354,2.0361,-3.29337,-0.865381,3.85058,-24.8851,-2.67902,-10.5874,18.7431,-1.2504,5.83693,10.1816,-0.634257,3.62724,-1.08338e-14,1.82882e-14,-29.6547,-24.4972,-58.9611,36.6742,7.72646,-23.5846,-2.35532,7.12502,2.87856,-32.3156,-1.08338e-14,1.82882e-14,-25.4577,24.7164,55.6624,34.5998,6.41873,-12.9831,34.9641,7.12502,13.1095,64.5321,-23.7952,-1.68737,18.4769,58.5986,-30.8477,-2.52044,-7.26936,-23.2593,4.99418,-17.8609,55.1254,-28.2282,0.937301,-24.8772
-1.08064,16.6577,-1.95024,4.98707,1.76319,-0.196168,7.6,-1.23629,-2.73335,0.755918,-1.79557,2.15591,-3.32467,-0.843073,3.95922,-24.9092,-2.67721,-10.5777,18.7767,-1.21935,5.71549,10.1946,-0.634839,3.5869,-2.26118e-14,0,-30.179,-25.2473,-56.7226,37.7772,6.5801,-23.8536,-2.47998,7.12502,2.61871,-32.4437,-2.26118e-14,0,-25.7329,24.8572,53.9193,35.8358,7.27647,-12.6871,35.168,7.12502,13.3948,64.7174,-23.1691,-1.68469,18.6425,57.4424,-29.7141,-2.86145,-7.79772,-22.8317,4.58049,-17.6249,54.1514,-26.976,0.552928,-24.8837
-1.08365,16.7917,-1.915,5.00574,1.81974,-0.13567,7.40495,-1.21212,-2.88063,0.678734,-1.77124,2.17407,-3.29282,-0.828495,4.05444,-24.9283,-2.64066,-10.4443,18.781,-1.18534,5.59174,10.1947,-0.62455,3.52539,9.49197e-15,-7.15625e-15,-30.6415,-26.0739,-54.585,38.8769,5.57506,-24.3509,-2.77536,7.12502,2.13843,-32.7444,9.49197e-15,-7.15625e-15,-25.9479,24.8606,52.1086,37.0912,8.42457,-11.797,35.8718,7.12502,14.2526,65.3627,-22.5405,-1.71977,18.5394,56.2638,-28.2849,-2.87196,-7.31648,-22.4853,4.18708,-17.6144,53.1464,-25.5323,-0.059293,-24.6871
-1.08589,16.9194,-1.88365,4.98282,1.87422,-0.141979,7.21692,-1.20951,-2.95801,0.644548,-1.76972,2.18825,-3.22045,-0.827798,4.10742,-24.8629,-2.59157,-10.3893,18.67,-1.16738,5.68964,10.1411,-0.598282,3.55229,-5.31749e-15,-2.78299e-15,-30.9335,-26.9965,-52.56,39.8376,4.51986,-24.9828,-3.18176,7.12502,1.52816,-33.156,-5.31749e-15,-2.78299e-15,-26.14,24.7722,50.2806,38.3898,9.84161,-12.0825,35.2845,7.12502,13.9775,64.7946,-21.9539,-1.65888,18.4664,55.1533,-26.7022,-2.46309,-5.11481,-21.9509,3.83947,-17.5142,52.1098,-23.8375,-0.698179,-24.074
-1.08944,17.0424,-1.85769,4.96741,1.89508,-0.155852,7.04368,-1.18423,-3.04599,0.599469,-1.73793,2.23077,-3.16929,-0.8111,4.19404,-24.8566,-2.57405,-10.4005,18.6485,-1.15952,5.77176,10.1319,-0.584908,3.58486,1.42131e-14,3.18055e-15,-31.158,-28.0165,-50.4527,40.6493,3.82885,-25.7531,-3.70214,7.12502,0.78422,-33.6804,1.42131e-14,3.18055e-15,-26.342,24.6659,48.5417,39.6804,11.3558,-15.1494,31.0856,7.12502,11.0207,60.7763,-21.4793,-1.5773,18.3877,54.1571,-25.0655,-2.11887,-3.74312,-21.3208,3.62489,-17.4012,51.0079,-21.8503,-1.31247,-23.8166
-1.09174,17.1762,-1.8319,4.96003,1.92819,-0.203052,6.89351,-1.16646,-3.07623,0.542983,-1.71141,2.28868,-3.14368,-0.796919,4.26565,-25.0838,-2.55179,-10.28,18.8247,-1.12636,5.67308,10.2311,-0.574252,3.53959,-4.96962e-17,8.34896e-15,-31.3769,-29.0136,-48.3269,41.4231,3.52346,-26.4878,-3.84787,7.12502,0.074597,-33.8276,-4.96962e-17,8.34896e-15,-26.4382,24.9264,46.7875,40.7559,12.2171,-15.2076,32.7804,7.12502,10.9645,62.4741,-21.0849,-1.5874,18.3466,53.2398,-23.2982,-1.99256,-4.12743,-20.7485,3.44724,-17.2485,49.8773,-19.8522,-1.89127,-25.6293
-1.09429,17.3179,-1.80386,4.90401,1.97426,-0.223827,6.78217,-1.1567,-3.13951,0.499824,-1.69941,2.33122,-3.12414,-0.789653,4.34228,-25.2231,-2.52771,-10.1691,18.9373,-1.09739,5.57947,10.2926,-0.565285,3.49512,-2.09221e-14,1.51076e-14,-31.6194,-29.769,-46.3053,42.3353,3.11879,-27.0047,-4.14533,7.12502,-0.424668,-34.1247,-2.09221e-14,1.51076e-14,-26.4385,25.3245,45.044,41.7385,12.7409,-14.9427,33.3186,7.12502,11.22,62.9985,-20.695,-1.6322,18.2537,52.3632,-21.2012,-2.00866,-4.36137,-20.1591,3.29091,-17.084,48.7348,-17.828,-2.6801,-28.2179
-1.09676,17.4705,-1.77275,4.86215,1.97962,-0.208809,6.6048,-1.1435,-3.21634,0.442811,-1.68344,2.33565,-3.08315,-0.780722,4.38462,-25.1106,-2.46487,-10.0079,18.9034,-1.04832,5.44171,10.2543,-0.54835,3.42469,-2.70844e-14,2.42517e-14,-31.8754,-30.3592,-44.4047,43.3415,2.59484,-27.8258,-5.0578,7.12502,-1.21764,-35.0341,-2.70844e-14,2.42517e-14,-26.3721,25.8259,43.2256,42.6503,13.1303,-14.8238,32.9874,7.12502,11.3347,62.6611,-20.318,-1.68565,18.097,51.46,-18.8026,-2.17283,-3.89476,-19.619,3.31503,-16.9351,47.5971,-15.5271,-3.747,-29.5398
-1.09636,17.632,-1.73824,4.87027,1.98026,-0.171577,6.34986,-1.12086,-3.26811,0.367258,-1.65112,2.33382,-3.02042,-0.76422,4.40287,-24.9978,-2.39623,-10.0121,18.887,-0.979689,5.50463,10.2226,-0.510051,3.45816,2.19657e-14,-2.14687e-14,-32.1223,-30.9031,-42.5133,44.3577,2.34623,-28.7464,-6.09255,7.12502,-2.10682,-36.0619,2.19657e-14,-2.14687e-14,-26.0831,26.6034,41.5045,43.3788,13.4975,-15.7256,33.878,7.12502,10.4649,63.5975,-19.9792,-1.83824,17.8811,50.5133,-16.2401,-2.32112,-2.72395,-19.1724,3.5208,-16.7995,46.4578,-12.9892,-4.95776,-30.4239
-1.09598,17.7956,-1.70511,4.83218,1.98308,-0.117962,6.09885,-1.07825,-3.29494,0.355721,-1.59127,2.29666,-2.89796,-0.737045,4.3669,-24.9554,-2.40648,-10.2004,18.8532,-1.00549,5.81672,10.2074,-0.496755,3.59809,1.82882e-14,-1.90833e-14,-32.3147,-31.4774,-40.7028,45.2737,2.24351,-29.5272,-6.63684,7.12502,-2.86083,-36.5974,1.82882e-14,-1.90833e-14,-25.738,26.9452,39.9971,44.4262,14.6314,-17.2506,35.3253,7.12502,8.99357,65.1136,-19.6115,-2.07631,17.6368,49.5236,-13.4268,-2.8191,-1.77691,-18.7051,3.78823,-16.6474,45.2822,-10.1016,-6.346,-30.6528
-1.09619,17.9564,-1.676,4.74356,2.0323,-0.173573,5.9021,-1.05712,-3.19224,0.405985,-1.55201,2.27478,-2.74281,-0.723418,4.27588,-25.1853,-2.47463,-10.2414,19.026,-1.09045,5.93044,10.3191,-0.525671,3.63883,3.98563e-14,-1.78906e-14,-32.3119,-32.1399,-38.9946,46.075,2.09149,-29.9898,-6.83664,7.12502,-3.30765,-36.7907,3.98563e-14,-1.78906e-14,-25.4052,27.0784,38.4903,45.5704,15.5701,-18.0511,36.0042,7.12502,8.22099,65.8242,-19.2041,-2.28986,17.5118,48.4956,-10.6709,-3.52967,-0.673224,-18.2372,4.04543,-16.3237,44.0477,-6.97013,-7.81367,-30.5154
-1.0959,18.1125,-1.64706,4.61854,2.0906,-0.221141,5.78404,-1.06646,-3.12815,0.411994,-1.55777,2.26588,-2.67181,-0.728848,4.22712,-25.3092,-2.4646,-10.1446,19.2146,-1.0824,5.84886,10.4078,-0.527434,3.59957,-3.8266e-15,1.43125e-14,-32.2052,-32.7971,-37.3154,46.8881,2.12148,-30.152,-7.11066,7.12502,-3.46426,-37.0623,-3.8266e-15,1.43125e-14,-25.1234,27.3781,36.8422,46.5152,15.7747,-18.0576,36.0237,7.12502,8.21478,65.844,-18.7789,-2.532,17.3644,47.4365,-7.99463,-4.18699,1.06382,-17.702,4.24755,-15.9674,42.7276,-3.63842,-9.1647,-30.2949
-1.09624,18.2642,-1.61378,4.51808,2.11897,-0.257589,5.63734,-1.06332,-3.08368,0.364724,-1.5479,2.24829,-2.64108,-0.724465,4.17951,-25.2369,-2.39766,-10.0854,19.3256,-1.01849,5.83425,10.4291,-0.498555,3.59683,8.54774e-15,-1.19271e-14,-32.1962,-33.1734,-35.6661,47.8958,2.04652,-30.3983,-7.66941,7.12502,-3.70211,-37.617,8.54774e-15,-1.19271e-14,-24.8425,27.5288,35.172,47.4464,15.9446,-18.0133,35.9004,7.12502,8.25747,65.719,-18.3801,-2.80198,17.1701,46.3448,-5.23125,-4.91858,2.72777,-17.1659,4.34846,-15.5861,41.3229,-0.0712411,-10.2123,-29.6776
-1.09322,18.4098,-1.5784,4.42833,2.13017,-0.359493,5.49499,-1.05193,-2.90437,0.288804,-1.51895,2.22476,-2.64773,-0.710869,4.04868,-25.1137,-2.32458,-10.0606,19.44,-0.953686,5.87854,10.4429,-0.465042,3.62128,-1.41634e-14,-4.37326e-15,-32.1951,-33.3595,-34.0443,48.9647,1.66817,-30.6053,-8.05802,7.12502,-3.90196,-38.002,-1.41634e-14,-4.37326e-15,-24.5168,27.7292,33.4978,48.3504,15.9274,-17.7482,35.6128,7.12502,8.51336,65.4212,-18.0203,-2.98706,17.0063,45.2366,-2.44356,-5.85758,4.40114,-16.6361,4.32029,-15.1184,39.856,3.5772,-10.9071,-28.7403
-1.08917,18.5503,-1.54464,4.3597,2.18047,-0.443871,5.33507,-1.05067,-2.71588,0.206559,-1.50288,2.20554,-2.64978,-0.703919,3.91788,-25.0928,-2.30016,-10.1464,19.6699,-0.928159,6.01022,10.5218,-0.448318,3.69359,1.89342e-14,-1.43125e-14,-32.087,-33.5376,-32.4213,49.9595,1.3616,-30.4278,-8.05275,7.12502,-3.73061,-37.9998,1.89342e-14,-1.43125e-14,-24.1481,27.9433,31.8498,49.2395,15.7672,-17.0931,35.0275,7.12502,9.14553,64.8092,-17.7016,-3.09635,16.8212,44.1446,0.303455,-6.7384,4.92731,-16.1369,4.1602,-14.6554,38.3485,7.13619,-11.3788,-28.1425
-1.08661,18.6788,-1.51268,4.20542,2.26362,-0.418778,5.22134,-1.08204,-2.69493,0.159319,-1.54142,2.20039,-2.63211,-0.723115,3.90108,-25.1302,-2.26261,-10.2147,19.9668,-0.86283,6.05141,10.6319,-0.424449,3.73842,4.02539e-15,-6.36111e-15,-31.735,-33.6476,-30.9081,50.9086,1.17097,-30.0615,-7.879,7.12502,-3.37686,-37.832,4.02539e-15,-6.36111e-15,-23.861,28.0073,30.213,50.2491,15.6993,-16.6837,34.9023,7.12502,9.54053,64.6663,-17.2584,-3.21702,16.5276,43.1187,2.75196,-7.28106,4.55552,-15.5664,3.85506,-14.2774,36.8711,10.3201,-11.7201,-26.6111
-1.08337,18.7978,-1.47959,4.12475,2.29455,-0.361515,5.01755,-1.11077,-2.71816,0.0851506,-1.57781,2.17922,-2.59121,-0.740875,3.8903,-25.119,-2.18256,-10.12,20.2405,-0.761684,5.92669,10.7204,-0.392752,3.69983,1.26725e-14,-1.78906e-14,-31.2468,-33.622,-29.4481,51.8695,0.830684,-29.8731,-8.18557,7.12502,-3.19491,-38.1414,1.26725e-14,-1.78906e-14,-23.5517,27.9776,28.5197,51.2775,15.7503,-16.3703,34.962,7.12502,9.84294,64.712,-16.8542,-3.2742,16.169,42.218,4.49721,-7.48361,5.83495,-15.0611,3.45557,-13.9491,35.5,12.5643,-12.209,-24.161
-1.07917,18.9064,-1.44718,4.05361,2.27651,-0.358447,4.83996,-1.11325,-2.67784,-0.0127416,-1.57606,2.15245,-2.5946,-0.739163,3.83636,-24.9947,-2.11238,-10.0281,20.4591,-0.697558,5.8534,10.772,-0.371581,3.67246,1.23246e-14,-1.11319e-14,-30.7346,-33.6521,-27.9531,52.7961,0.638342,-29.8398,-8.76933,7.12502,-3.16278,-38.7256,1.23246e-14,-1.11319e-14,-22.9748,28.0509,26.8878,52.1004,15.6638,-16.3291,35.0045,7.12502,9.88267,64.7526,-16.4665,-3.26643,15.8668,41.4882,5.09857,-7.80911,7.50493,-14.5757,3.00265,-13.5708,34.3433,13.4947,-12.7577,-21.849
-1.07612,18.9958,-1.41858,3.95978,2.3121,-0.370814,4.68432,-1.10679,-2.62034,-0.106817,-1.56147,2.14304,-2.60736,-0.731073,3.79051,-24.6418,-2.08625,-10.1615,20.4672,-0.681324,5.97172,10.7106,-0.363579,3.73808,7.7526e-15,1.98785e-15,-30.1199,-33.7435,-26.364,53.5896,0.538292,-29.7988,-9.17521,7.12502,-3.12316,-39.1321,7.7526e-15,1.98785e-15,-22.2307,28.0137,25.3398,52.9127,15.6019,-16.1445,34.9169,7.12502,10.0607,64.6564,-16.1036,-3.21398,15.5942,40.9327,4.11182,-8.73995,7.76662,-14.1328,2.41816,-13.1598,33.459,13.2356,-12.4384,-20.6979
-1.07397,19.0699,-1.39541,3.89817,2.36661,-0.469939,4.52817,-1.10996,-2.51142,-0.207976,-1.5556,2.1887,-2.62617,-0.727531,3.77352,-24.0832,-1.9861,-10.3496,20.2598,-0.565058,6.10243,10.5234,-0.310138,3.82489,-9.49197e-15,-3.57812e-15,-29.3229,-33.8169,-24.7728,54.3432,0.366213,-29.9295,-9.71761,7.12502,-3.24941,-39.6726,-9.49197e-15,-3.57812e-15,-21.5518,27.9331,23.7393,53.7934,15.3909,-15.6494,34.7292,7.12502,10.5384,64.4451,-15.8341,-2.962,15.4272,40.5281,1.68933,-10.2765,6.8342,-13.7793,1.79839,-12.6659,32.8559,11.9533,-10.8334,-22.8078
-1.07235,19.1359,-1.37707,3.87902,2.36536,-0.455714,4.45506,-1.11571,-2.55157,-0.354123,-1.5623,2.24446,-2.73292,-0.725787,3.85534,-23.5389,-1.82585,-10.5493,20.0927,-0.345891,6.16928,10.3439,-0.21899,3.90599,-7.25564e-15,2.62396e-14,-28.3084,-33.8583,-23.1942,55.0121,0.44564,-29.707,-9.86326,7.12502,-3.03452,-39.8214,-7.25564e-15,2.62396e-14,-20.8665,27.9882,22.1066,54.5865,14.9775,-15.1277,34.6475,7.12502,11.0416,64.3371,-15.6652,-2.64061,15.1164,40.2202,-0.999915,-11.7711,6.68398,-13.4775,1.29114,-12.3186,32.4589,10.1999,-8.02218,-25.2772
-1.07083,19.1919,-1.36102,3.88177,2.31234,-0.321334,4.42946,-1.08359,-2.69133,-0.510734,-1.52634,2.23788,-2.88011,-0.700471,3.92761,-23.3881,-1.75334,-10.5917,20.2469,-0.233039,6.10261,10.3622,-0.184019,3.9083,3.47873e-16,-5.1684e-15,-27.2993,-33.8624,-21.6165,55.7253,0.585781,-29.1588,-9.18201,7.12502,-2.50507,-39.147,3.47873e-16,-5.1684e-15,-19.8924,28.1873,20.5559,55.2349,14.3265,-14.3754,34.3804,7.12502,11.7671,64.0299,-15.5708,-2.45332,14.6433,39.9374,-2.61154,-13.0098,7.7,-13.2003,0.877817,-12.1171,32.1879,8.38044,-4.65961,-26.087
-1.06775,19.2401,-1.34192,3.81718,2.26065,-0.24891,4.41346,-1.03947,-2.71251,-0.595018,-1.46913,2.20329,-2.96361,-0.668851,3.90112,-23.5354,-1.75636,-10.6117,20.5694,-0.216798,6.0969,10.505,-0.185178,3.92279,-1.38155e-14,-1.94809e-14,-26.2743,-33.8197,-20.1224,56.5662,0.308876,-29.0212,-8.87101,7.12502,-2.37221,-38.8376,-1.38155e-14,-1.94809e-14,-18.7387,28.3402,19.0404,55.8821,13.9396,-14.4919,34.2019,7.12502,11.6548,63.8577,-15.3747,-2.17141,14.2133,39.6245,-3.64109,-14.0518,9.11593,-12.8767,0.605876,-11.8252,31.9561,6.74398,-1.75774,-27.0304
-1.06582,19.2819,-1.32487,3.65089,2.20639,-0.206553,4.49305,-1.00502,-2.74885,-0.645787,-1.42639,2.20926,-3.06367,-0.644006,3.92821,-23.6328,-1.72692,-10.6925,20.86,-0.145202,6.11778,10.6225,-0.162512,3.9644,5.81445e-15,-3.97569e-16,-25.0193,-33.9295,-18.7198,57.3405,0.218197,-29.2105,-9.2221,7.12502,-2.55497,-39.1865,5.81445e-15,-3.97569e-16,-17.6385,28.384,17.5355,56.5423,13.8191,-15.9742,34.3002,7.12502,10.225,64.0317,-15.0263,-1.78428,13.8054,39.2503,-4.74522,-14.8064,9.83327,-12.4595,0.374727,-11.4692,31.7301,5.47761,0.259695,-27.4214
-1.06326,19.3134,-1.3109,3.4935,2.13284,-0.173204,4.61799,-0.984903,-2.75389,-0.733029,-1.40221,2.20482,-3.22646,-0.627143,3.92978,-23.6113,-1.64317,-10.6765,21.0514,-0.0188947,6.03898,10.6769,-0.118456,3.95741,5.71506e-15,-2.8625e-14,-23.6562,-34.0387,-17.3499,58.0244,0.394723,-29.3314,-9.50126,7.12502,-2.67178,-39.4643,5.71506e-15,-2.8625e-14,-16.4906,28.6184,15.9975,57.1832,13.4178,-17.0018,34.3542,7.12502,9.23362,64.132,-14.6662,-1.4312,13.3773,38.7998,-5.35964,-15.5003,9.96521,-12.0565,0.218143,-11.0916,31.5143,4.67209,1.63503,-25.9637
-1.06099,19.3345,-1.29599,3.27286,2.02905,-0.187466,4.78378,-0.949285,-2.70691,-0.768375,-1.3551,2.20024,-3.36174,-0.601196,3.90014,-23.6066,-1.6183,-10.7506,21.1833,0.0245937,6.09896,10.7202,-0.100486,4.00256,1.24986e-14,-1.98785e-15,-22.2668,-34.0371,-15.9453,58.7098,0.4943,-29.5501,-9.98068,7.12502,-2.88301,-39.9409,1.24986e-14,-1.98785e-15,-15.2421,28.9476,14.4968,57.8061,12.9734,-17.7403,34.3996,7.12502,8.52095,64.2077,-14.221,-0.952294,12.9826,38.2948,-5.99244,-16.1307,11.1358,-11.582,0.127714,-10.6578,31.3199,4.32311,2.79484,-24.3388
-1.0602,19.3444,-1.28128,3.08032,1.95344,-0.171311,4.92917,-0.92957,-2.74961,-0.803167,-1.33325,2.22528,-3.48022,-0.586194,3.95326,-23.5788,-1.60248,-10.8634,21.2745,0.0626077,6.17674,10.7448,-0.0852113,4.05845,-5.19325e-15,1.47101e-14,-20.7106,-34.0186,-14.6284,59.3747,0.538934,-29.8275,-10.3402,7.12502,-3.15089,-40.2967,-5.19325e-15,1.47101e-14,-13.9955,29.158,13.0051,58.421,12.8156,-17.8802,34.0383,7.12502,8.38597,63.8518,-13.8008,-0.423808,12.5647,37.7649,-6.68141,-16.6064,13.7247,-11.1414,-0.0333793,-10.2422,31.1448,4.5789,3.90875,-22.3052
-1.0592,19.3389,-1.26796,2.92033,1.90123,-0.115249,5.05762,-0.929715,-2.83195,-0.835268,-1.34019,2.25157,-3.58304,-0.585,4.03183,-23.6128,-1.56071,-10.8592,21.3895,0.159327,6.03573,10.785,-0.0615325,4.02415,2.17918e-14,-1.11319e-14,-18.9305,-34.2772,-13.4241,59.8632,0.710181,-29.8495,-10.0699,7.12502,-3.17212,-40.026,2.17918e-14,-1.11319e-14,-12.6782,29.5354,11.5796,59.021,12.5365,-16.7502,33.5128,7.12502,9.47637,63.2797,-13.439,0.0455496,12.0874,37.2362,-6.87373,-16.9964,15.5068,-10.7763,-0.251558,-9.84253,30.9825,4.88321,4.94198,-21.1594
-1.05809,19.3161,-1.25501,2.65827,1.88138,-0.015324,5.2514,-0.919586,-2.9346,-0.818203,-1.33772,2.24153,-3.67295,-0.579978,4.08414,-23.7191,-1.51043,-10.8173,21.5486,0.260139,5.90466,10.8545,-0.0322674,3.99023,-9.44227e-15,-2.38542e-15,-17.1311,-34.7825,-12.2276,60.2955,1.17,-29.5913,-9.77887,7.12502,-2.92276,-39.7386,-9.44227e-15,-2.38542e-15,-11.2477,29.9954,10.1986,59.6517,12.2478,-16.1147,33.4508,7.12502,10.0895,63.1889,-13.0058,0.49969,11.5524,36.7314,-6.55674,-17.4953,15.9462,-10.3535,-0.451972,-9.48162,30.8463,4.91212,5.47722,-22.27
-1.05827,19.2784,-1.24387,2.34911,1.91978,0.0854779,5.50275,-0.92715,-3.04412,-0.816052,-1.36132,2.2254,-3.80842,-0.586474,4.138,-23.6823,-1.46889,-10.8505,21.6611,0.329202,5.8883,10.8828,-0.00910626,4.00335,-4.74598e-15,1.31198e-14,-15.3804,-35.1158,-11.0322,60.8686,1.50326,-29.5811,-9.86873,7.12502,-2.91295,-39.8286,-4.74598e-15,1.31198e-14,-9.8251,30.392,8.77495,60.2917,12.0667,-16.3483,33.7272,7.12502,9.86418,63.4761,-12.5595,1.02329,11.038,36.2732,-6.02407,-18.1055,15.5507,-9.91366,-0.644211,-9.11506,30.7154,5.30512,5.87929,-24.0641
-1.05678,19.2278,-1.23443,2.10042,1.98373,0.155963,5.7281,-0.952314,-3.09203,-0.856735,-1.40379,2.21658,-3.97313,-0.602118,4.16658,-23.571,-1.42852,-10.8884,21.7296,0.392441,5.86217,10.8818,0.0102973,4.01034,1.09083e-14,6.36111e-15,-13.4987,-35.3669,-9.89145,61.3538,1.77369,-29.9118,-10.2963,7.12502,-3.23231,-40.2516,1.09083e-14,6.36111e-15,-8.33009,30.9012,7.45926,60.9211,11.9228,-17.3596,34.4849,7.12502,8.88835,64.2777,-12.1855,1.49074,10.5392,35.8648,-5.23215,-18.3437,14.9103,-9.58437,-0.914215,-8.70592,30.6032,8.24136,5.61505,-15.4571
-1.05517,19.1661,-1.2241,1.87944,1.9947,0.212175,5.9208,-0.948635,-3.09302,-0.90303,-1.40503,2.17736,-4.13094,-0.598663,4.13263,-23.5275,-1.35435,-10.8285,21.7885,0.478035,5.82729,10.8873,0.0479657,4.00195,-2.6165e-14,-7.95139e-15,-11.6518,-35.7359,-8.80102,61.8114,2.20522,-30.4108,-11.0371,7.12502,-3.71415,-40.9845,-2.6165e-14,-7.95139e-15,-6.59663,31.6419,6.34334,61.4995,11.6175,-18.9282,35.1694,7.12502,7.37443,65.0209,-11.8575,2.04398,10.0485,35.4961,-4.23919,-18.2028,14.0448,-9.30427,-1.25619,-8.26682,30.5225,8.4802,5.56468,-16.314
-1.05466,19.0909,-1.21411,1.62866,1.91055,0.287493,6.12543,-0.88993,-3.14283,-0.8902,-1.33708,2.13339,-4.23951,-0.56182,4.11412,-23.6019,-1.38623,-10.8159,21.9776,0.45209,5.76766,10.9747,0.0246831,3.9806,9.31803e-15,1.15295e-14,-9.8948,-36.2866,-7.69491,62.3754,2.66993,-30.4739,-11.2444,7.12502,-3.77507,-41.1907,9.31803e-15,1.15295e-14,-4.71965,32.5738,5.4249,62.0925,11.2105,-19.0745,34.766,7.12502,7.23326,64.6224,-11.551,2.68716,9.51578,35.1584,-3.01181,-17.8302,13.6324,-8.94992,-1.47556,-7.85639,30.4617,6.74084,5.12525,-24.1941
-1.05448,19.0032,-1.20718,1.38566,1.90638,0.376482,6.40016,-0.856982,-3.22185,-0.945096,-1.30753,2.10249,-4.45398,-0.53949,4.13239,-23.4741,-1.35712,-10.7527,21.9872,0.481134,5.6684,10.9526,0.029247,3.93619,2.11209e-15,8.74653e-15,-8.09251,-36.6798,-6.61373,62.9889,2.9655,-30.1783,-11.4109,7.12502,-3.48967,-41.3621,2.11209e-15,8.74653e-15,-2.83438,33.4345,4.63787,62.6889,10.8383,-17.8766,33.9054,7.12502,8.3894,63.7188,-11.2469,3.3877,8.98682,34.8443,-1.67868,-17.3751,13.4273,-8.62442,-1.8204,-7.44609,30.4085,6.97935,4.29731,-22.6135
-1.05326,18.9008,-1.20113,1.13799,2.03719,0.449812,6.71758,-0.898397,-3.28077,-1.04853,-1.37612,2.10195,-4.73402,-0.563379,4.18311,-23.2365,-1.33686,-10.7598,22.1097,0.512175,5.55861,10.9523,0.0232336,3.90192,4.78326e-15,-6.36111e-15,-6.004,-36.9946,-5.73344,63.5201,3.11167,-30.1901,-11.6129,7.12502,-3.501,-41.5639,4.78326e-15,-6.36111e-15,-1.02713,34.2453,3.80174,63.2799,10.5748,-17.2826,33.6057,7.12502,8.9626,63.3954,-10.9007,4.10176,8.49586,34.5482,-0.385258,-16.8526,13.0152,-8.40164,-2.34462,-7.02116,30.4313,6.96342,3.46279,-23.2413
-1.05381,18.7865,-1.19392,0.823357,2.12517,0.425021,7.02054,-0.92128,-3.26363,-1.04589,-1.41137,2.13654,-4.89905,-0.576719,4.2222,-23.2833,-1.31399,-10.8897,22.2942,0.578489,5.62323,11.0229,0.045485,3.96419,1.12438e-14,-3.18055e-15,-3.77516,-37.5299,-4.93406,63.9745,3.22536,-30.1405,-11.2563,7.12502,-3.45309,-41.2081,1.12438e-14,-3.18055e-15,0.894644,35.2774,3.08584,63.8638,10.2319,-17.1602,33.7298,7.12502,9.08076,63.5143,-10.4972,4.86055,8.13293,34.3194,0.447346,-16.2057,12.0905,-8.14817,-2.82044,-6.48234,30.5596,6.99573,2.53504,-25.4611
-1.05252,18.6614,-1.18608,0.537003,2.17564,0.20212,7.2484,-0.90747,-2.99154,-0.990822,-1.3709,2.19944,-4.97855,-0.562302,4.13508,-23.5082,-1.30691,-10.9798,22.4715,0.628948,5.6935,11.1257,0.0660729,4.02207,-1.67973e-14,-3.97569e-15,-1.70906,-38.2471,-4.09904,64.5254,3.60366,-29.8586,-10.7752,7.12502,-3.18095,-40.7312,-1.67973e-14,-3.97569e-15,3.14724,36.5617,2.74429,64.451,9.76867,-17.3099,33.4045,7.12502,8.93631,63.1952,-10.1516,5.63677,7.98378,34.2544,0.174424,-15.1893,10.0444,-7.95143,-3.23937,-5.73925,30.8123,7.23325,1.47385,-25.4664
-1.05046,18.517,-1.18239,0.328963,2.30119,0.0470718,7.49116,-0.921684,-2.795,-1.0086,-1.37398,2.25596,-5.13731,-0.564559,4.09095,-23.6636,-1.31771,-11.0264,22.6702,0.654686,5.67352,11.2274,0.0660757,4.03502,3.42282e-14,-1.90833e-14,0.567782,-39.0427,-3.46688,65.0036,4.24225,-29.4874,-10.6392,7.12502,-2.82238,-40.6003,3.42282e-14,-1.90833e-14,5.49945,37.759,2.5955,65.0369,9.32313,-18.3793,31.9655,7.12502,7.90425,61.7977,-9.90773,6.27983,7.76984,34.4924,-1.2652,-13.5513,4.64318,-7.97701,-3.68823,-5.07331,31.2242,7.39739,0.506567,-24.0365
-1.05022,18.3583,-1.18261,0.0933607,2.36999,-0.0314147,7.78378,-0.912671,-2.68552,-1.00943,-1.35696,2.25676,-5.30786,-0.55534,4.03647,-23.7418,-1.35912,-10.9793,22.8554,0.606258,5.60628,11.3176,0.0342866,4.00148,-2.08724e-14,9.93923e-15,2.87247,-39.899,-2.99532,65.5263,4.78452,-29.3542,-10.8504,7.12502,-2.69374,-40.8131,-2.08724e-14,9.93923e-15,7.97851,38.9991,2.56065,65.6502,9.0291,-17.3603,30.8241,7.12502,8.88762,60.6169,-9.72107,6.67896,7.5115,35.1153,-2.95363,-11.4787,-2.15268,-8.04754,-4.01059,-4.48427,31.8185,7.02558,-0.48455,-24.7552
-1.05143,18.1887,-1.18432,-0.149841,2.41905,-0.15018,8.02727,-0.895775,-2.55471,-0.978805,-1.32523,2.268,-5.41899,-0.54129,3.97684,-23.9394,-1.31485,-10.8888,22.9435,0.653648,5.62459,11.383,0.0650325,4.00665,-3.60297e-16,-1.27222e-14,5.09801,-40.704,-2.48156,66.1307,5.17573,-29.5605,-10.9839,7.12502,-2.89303,-40.944,-3.60297e-16,-1.27222e-14,10.5429,40.2578,2.70373,66.3613,8.73549,-17.9988,31.8265,7.12502,8.27153,61.6445,-9.61603,6.8643,7.30825,36.1721,-4.64287,-9.22364,-5.09059,-8.08528,-4.31946,-3.84591,32.5649,5.79176,-1.64117,-28.0962
-1.04975,18.0112,-1.18905,-0.362128,2.57408,-0.254796,8.24856,-0.937404,-2.41446,-0.946383,-1.36799,2.30885,-5.50872,-0.56447,3.95148,-23.9952,-1.3156,-10.9561,22.9549,0.680948,5.63864,11.3951,0.073229,4.0286,1.23122e-14,-3.18055e-15,7.52151,-41.6011,-2.18376,66.7986,5.82452,-29.6609,-10.9649,7.12502,-2.98998,-40.9237,1.23122e-14,-3.18055e-15,13.0477,41.4153,2.9131,67.1271,8.48469,-18.266,31.7577,7.12502,8.01359,61.5858,-9.62153,6.94737,7.10903,37.5848,-6.3156,-6.87722,-7.10463,-8.23496,-4.67394,-3.2278,33.5099,3.61103,-3.1844,-32.0215
-1.04934,17.8315,-1.19834,-0.558689,2.7588,-0.294166,8.5313,-0.998151,-2.34526,-0.917152,-1.44569,2.31465,-5.63307,-0.602493,3.93631,-24.0874,-1.32052,-10.9512,23.0055,0.683724,5.6373,11.4314,0.0737854,4.03075,1.83627e-14,-8.34896e-15,10.1107,-42.5926,-2.23392,67.504,6.73294,-29.6287,-10.7121,7.12502,-2.95884,-40.6713,1.83627e-14,-8.34896e-15,15.5808,42.5089,3.1652,67.9922,8.39948,-18.9084,30.4648,7.12502,7.39354,60.3156,-9.7733,7.0593,6.87782,39.1778,-8.09467,-4.88553,-11.7891,-8.49458,-4.89434,-2.69136,34.7152,0.809087,-5.03081,-35.8825
-1.05235,17.6485,-1.21063,-0.786526,2.94946,-0.295997,8.92437,-1.05746,-2.35558,-0.94183,-1.53207,2.30092,-5.87489,-0.639211,3.95251,-24.0853,-1.29362,-10.9441,23.0827,0.687037,5.74788,11.4585,0.0883738,4.07471,-2.0363e-14,-7.95139e-16,12.6949,-43.3649,-2.41755,68.2764,7.2527,-29.9989,-10.2465,7.12502,-3.31638,-40.2005,-2.0363e-14,-7.95139e-16,18.1078,43.4523,3.45523,68.9953,8.08446,-19.8621,31.3507,7.12502,6.47294,61.2318,-9.9755,7.10088,6.6229,40.8009,-9.97204,-3.19369,-16.926,-8.79634,-4.84389,-2.22243,36.1944,-1.92677,-6.48812,-38.8194
-1.05498,17.4692,-1.2201,-1.09303,3.10118,-0.356591,9.39245,-1.09142,-2.30784,-0.968859,-1.57705,2.32085,-6.16611,-0.655548,3.96941,-23.9249,-1.28791,-11.0267,23.0509,0.676937,5.85341,11.4159,0.0903309,4.1234,7.46685e-15,3.57812e-15,15.2171,-43.9664,-2.61601,69.2083,7.52482,-30.6534,-9.61419,7.12502,-3.94849,-39.5573,7.46685e-15,3.57812e-15,20.7743,44.3334,4.01622,69.996,7.53291,-20.3931,30.4241,7.12502,5.96033,60.3203,-10.139,7.11508,6.4414,42.398,-11.9614,-1.51066,-18.894,-9.10176,-4.48619,-1.76354,37.9049,-4.44677,-7.41332,-35.5257
-1.05572,17.2929,-1.22931,-1.42223,3.2338,-0.514605,9.85539,-1.12661,-2.08521,-0.924541,-1.60336,2.3209,-6.3856,-0.671661,3.86203,-23.8573,-1.29038,-10.9841,22.9578,0.650331,5.85115,11.3705,0.0842183,4.10704,-1.16165e-14,1.90833e-14,17.6637,-44.7147,-2.9608,70.3056,8.11263,-31.221,-9.26111,7.12502,-4.4965,-39.1934,-1.16165e-14,1.90833e-14,23.4897,45.259,4.70285,71.1063,7.04307,-20.7023,30.2822,7.12502,5.6618,60.1865,-10.418,7.01336,6.38505,44.0292,-13.8327,0.041014,-18.6828,-9.55186,-3.89532,-1.24024,39.7846,-7.03467,-8.29592,-36.387
-1.05462,17.1132,-1.2427,-1.74755,3.39779,-0.469175,10.4423,-1.16119,-2.06192,-0.887883,-1.65575,2.27742,-6.67781,-0.692798,3.8308,-24.011,-1.27396,-10.9611,22.9857,0.666389,5.91278,11.4075,0.102058,4.13242,3.12216e-14,-3.18055e-14,20.0604,-45.4665,-3.35909,71.5483,8.94608,-31.8562,-9.15661,7.12502,-5.10984,-39.075,3.12216e-14,-3.18055e-14,26.1706,46.1043,5.50389,72.3654,6.61358,-21.8875,30.1945,7.12502,4.51742,60.1263,-10.8179,6.71906,6.11827,45.7986,-15.4496,1.38161,-18.4706,-10.1507,-3.32934,-1.01983,41.7576,-9.59187,-9.15462,-38.3927
-1.0543,16.9314,-1.25775,-2.16331,3.563,-0.294605,11.1691,-1.189,-2.24627,-0.845453,-1.72609,2.27005,-7.03529,-0.712569,3.96494,-24.085,-1.27377,-11.1118,23.0054,0.69736,6.03853,11.4244,0.119201,4.21184,-2.55687e-14,2.50469e-14,22.4758,-46.0195,-3.73832,72.8671,9.57389,-32.8851,-8.54301,7.12502,-6.10325,-38.4351,-2.55687e-14,2.50469e-14,28.6161,46.8115,6.28224,73.7984,6.0415,-22.6321,29.587,7.12502,3.7984,59.5329,-11.2265,6.28652,5.74192,47.8039,-16.9597,2.44773,-19.4861,-10.6751,-2.81541,-1.02356,43.7516,-11.9301,-9.60259,-38.2538
-1.05297,16.7593,-1.26991,-2.6395,3.70322,-0.285203,11.8254,-1.23154,-2.26642,-0.71252,-1.79136,2.30943,-7.25898,-0.738866,4.05114,-24.0639,-1.26996,-11.1248,22.8578,0.731229,5.94904,11.3622,0.125766,4.1798,1.79527e-14,1.82882e-14,24.9412,-46.6185,-4.32634,74.2929,10.1619,-33.9967,-7.34439,7.12502,-7.1764,-37.2027,1.79527e-14,1.82882e-14,30.8826,47.5099,7.00357,75.3728,5.14473,-22.5217,30.1555,7.12502,3.90497,60.0995,-11.6865,5.80904,5.57147,50.0505,-18.4989,3.28915,-20.3124,-11.1164,-2.2442,-0.922868,45.7524,-14.1841,-9.38344,-37.1222
-1.05044,16.6012,-1.28257,-3.15134,3.80536,-0.234507,12.5038,-1.26352,-2.30097,-0.538519,-1.84822,2.30683,-7.45181,-0.762384,4.10018,-24.1002,-1.22578,-10.9996,22.6773,0.798177,5.78295,11.2959,0.150982,4.10104,-7.3923e-15,6.75868e-15,27.3114,-47.2151,-5.02851,75.8621,10.9647,-35.1776,-6.12238,7.12502,-8.31621,-35.9387,-7.3923e-15,6.75868e-15,33.1291,48.1722,7.73099,77.0351,4.02326,-24.4291,29.8707,7.12502,2.06297,59.8405,-12.2327,5.3274,5.37919,52.4334,-20.0265,3.69842,-21.2141,-11.5021,-1.62446,-0.92944,47.7691,-16.3967,-8.604,-37.4141
-1.04886,16.4511,-1.29982,-3.8313,3.78397,-0.202509,13.4544,-1.21292,-2.35264,-0.361044,-1.80182,2.30396,-7.80241,-0.730614,4.1513,-24.022,-1.20892,-10.8642,22.4963,0.808676,5.61577,11.214,0.150595,4.00997,3.42531e-14,-1.94809e-14,29.2851,-47.6419,-5.45976,77.6026,11.8666,-36.4829,-4.68473,7.12502,-9.57576,-34.4471,3.42531e-14,-1.94809e-14,35.3074,48.7094,8.50346,78.9079,2.84834,-26.4273,29.7106,7.12502,0.133083,59.6903,-12.793,4.90277,5.28324,54.8416,-21.3199,3.34121,-23.579,-11.6927,-1.0581,-0.9182,49.78,-18.5231,-7.87372,-38.4368
-1.04118,16.303,-1.31919,-4.53221,3.68149,-0.0658752,14.4615,-1.12413,-2.50079,-0.18784,-1.72136,2.31872,-8.18784,-0.67675,4.2713,-23.881,-1.23064,-10.9916,22.253,0.810381,5.61311,11.0963,0.146337,4.02012,8.15017e-15,-1.03368e-14,31.3579,-48.019,-6.07701,79.4127,12.8398,-37.8836,-2.90745,7.12502,-10.927,-32.6031,8.15017e-15,-1.03368e-14,37.167,49.0684,9.17384,80.9,1.67107,-28.6191,28.8875,7.12502,-1.98385,58.858,-13.3493,4.43001,5.03786,57.1605,-22.2218,3.117,-25.3803,-11.8099,-0.615523,-1.05146,51.7354,-20.2073,-7.33923,-39.0177
-1.02503,16.1665,-1.33705,-5.07329,3.66551,0.105673,15.2798,-1.08608,-2.58487,-0.0627222,-1.69906,2.30756,-8.51458,-0.654959,4.33201,-23.7553,-1.25308,-11.1586,22.0346,0.795213,5.72711,10.9914,0.145759,4.07897,-1.37161e-14,-7.95139e-15,33.304,-48.3088,-6.63649,81.2191,13.8451,-39.8077,-0.937955,7.12502,-12.7824,-30.5266,-1.37161e-14,-7.95139e-15,38.7824,49.3169,9.7,82.9969,0.531352,-30.2582,27.2034,7.12502,-3.56679,57.1533,-13.9388,3.88158,4.66147,59.3413,-22.9038,3.40791,-25.8412,-12.0817,-0.313386,-1.25917,53.5499,-21.4495,-6.81602,-38.6343
-1.0029,16.0491,-1.34895,-5.567,3.711,0.0816309,15.8595,-1.10645,-2.40886,0.150602,-1.70062,2.33256,-8.61305,-0.662385,4.27579,-23.7829,-1.29072,-11.1736,21.8473,0.76345,5.6865,10.9305,0.130625,4.05557,-5.14355e-15,7.95139e-15,34.8965,-48.6298,-6.98134,83.0723,14.7902,-42.5319,1.70871,7.12502,-15.4075,-27.6971,-5.14355e-15,7.95139e-15,40.1493,49.6718,10.0297,85.1478,-0.574294,-31.4947,24.9526,7.12502,-4.76081,54.8791,-14.4331,3.44501,4.46901,61.338,-23.4332,3.96298,-25.483,-12.3341,-0.158464,-1.23258,55.1407,-22.5338,-6.36618,-37.8937
-0.983857,15.9422,-1.3547,-5.9538,3.63345,0.121101,16.1718,-1.10133,-2.38884,0.401261,-1.69154,2.36895,-8.5155,-0.663779,4.30645,-23.8271,-1.29886,-11.245,21.6219,0.780863,5.70226,10.8531,0.141761,4.06913,-6.36111e-15,1.27222e-14,36.5339,-48.954,-7.51784,84.8071,15.7407,-45.2666,4.66529,7.12502,-18.0401,-24.5181,-6.36111e-15,1.27222e-14,41.1534,50.0434,10.0699,87.2206,-1.67873,-33.067,22.5246,7.12502,-6.27887,52.4115,-14.9515,3.22879,4.23954,63.1448,-23.71,4.19603,-25.7427,-12.4966,0.00401883,-1.19787,56.4407,-23.5845,-6.18511,-38.0395
-0.972779,15.8393,-1.35705,-6.22981,3.47979,0.266008,16.3746,-1.05692,-2.64069,0.551573,-1.67676,2.44045,-8.45747,-0.6485,4.52844,-23.6127,-1.26996,-11.4287,21.3239,0.837624,5.79693,10.6965,0.17218,4.13044,-2.16675e-14,3.81667e-14,38.1986,-49.0618,-8.03639,86.2935,16.8547,-47.5587,6.99808,7.12502,-20.2443,-21.967,-2.16675e-14,3.81667e-14,41.8352,50.2082,9.89496,89.0426,-2.84359,-35.0283,19.8872,7.12502,-8.17208,49.7092,-15.5149,3.14402,3.92333,64.7446,-23.9112,4.16709,-26.7984,-12.5687,0.139969,-1.17901,57.4484,-24.6384,-6.29238,-38.6117
-0.966214,15.7475,-1.35698,-6.43864,3.43225,0.420311,16.502,-1.03657,-2.98043,0.643759,-1.70856,2.52669,-8.4129,-0.651132,4.82664,-23.3067,-1.24556,-11.5349,21.0164,0.87357,5.79182,10.524,0.186573,4.13701,4.05024e-15,-7.15625e-15,39.6594,-49.0709,-8.40917,87.5262,18.3418,-49.7509,8.91873,7.12502,-22.35,-19.8085,4.05024e-15,-7.15625e-15,42.3108,50.2441,9.4902,90.5129,-3.90556,-36.9738,17.4222,7.12502,-10.0494,47.1622,-15.9993,3.15845,3.5804,66.1345,-24.0966,4.51019,-26.8734,-12.6185,0.0295544,-1.15678,58.2173,-25.6934,-6.3549,-39.3681
-0.958307,15.6635,-1.35394,-6.68449,3.42438,0.438335,16.6521,-1.03637,-3.12421,0.731597,-1.73286,2.59154,-8.39233,-0.657826,4.98897,-23.1142,-1.22096,-11.4635,20.8534,0.876271,5.72245,10.4298,0.188572,4.09218,-1.81639e-14,0,40.8362,-49.047,-8.81178,88.5393,19.9747,-51.7781,10.6941,7.12502,-24.2948,-17.7864,-1.81639e-14,0,42.5379,50.1901,8.84494,91.7354,-5.12395,-38.7719,15.776,7.12502,-11.7837,45.4245,-16.288,3.32873,3.37604,67.3083,-24.0126,4.99527,-26.0437,-12.5917,-0.223846,-0.965421,58.8325,-26.6212,-6.54532,-39.7493
-0.947192,15.5863,-1.34995,-6.89753,3.3904,0.284801,16.7588,-1.03967,-3.00694,0.824663,-1.71109,2.65921,-8.35394,-0.653161,4.99196,-23.0092,-1.22791,-11.4375,20.7848,0.832622,5.76777,10.3894,0.177707,4.09454,4.14963e-15,5.56597e-15,41.5844,-48.9428,-8.92543,89.3008,21.2942,-53.4939,11.4686,7.12502,-25.9388,-16.7816,4.14963e-15,5.56597e-15,42.704,50.1347,8.24144,92.68,-6.53915,-40.3683,15.1639,7.12502,-13.3228,44.718,-16.5137,3.54551,3.36155,68.2511,-23.9672,5.37461,-26.2508,-12.5796,-0.39888,-0.557545,59.349,-27.367,-7.04568,-39.771
-0.936635,15.5205,-1.34571,-6.9981,3.32159,0.299946,16.7362,-1.02213,-3.06139,0.896104,-1.69557,2.68666,-8.2627,-0.647112,5.04614,-22.8622,-1.23678,-11.5197,20.6967,0.792892,5.91632,10.3326,0.173005,4.15197,1.3418e-15,3.18055e-15,42.1793,-48.7871,-8.96715,89.7396,22.244,-54.7054,11.7177,7.12502,-27.0983,-16.3574,1.3418e-15,3.18055e-15,42.6825,50.0343,7.55404,93.219,-8.04415,-41.6943,14.7314,7.12502,-14.6006,44.1974,-16.7805,3.78773,3.15817,68.9643,-24.0889,5.79393,-27.5033,-12.6369,-0.365972,-0.361522,59.7818,-27.921,-7.59718,-39.9312
-0.92577,15.4733,-1.33619,-7.13794,3.2728,0.452658,16.6938,-0.998207,-3.23211,0.947446,-1.69609,2.68027,-8.17835,-0.644703,5.1337,-22.7,-1.22204,-11.6247,20.7016,0.797768,6.0398,10.3027,0.180765,4.21315,-9.39258e-15,3.97569e-15,42.6472,-48.6281,-8.97567,89.8379,22.748,-55.3137,11.8815,7.12502,-27.6802,-16.1016,-9.39258e-15,3.97569e-15,42.2532,49.8333,6.6115,93.4126,-9.20979,-42.7023,14.4282,7.12502,-15.5717,43.8213,-16.8056,4.0512,2.8099,69.4079,-24.2182,6.34534,-27.8874,-12.5775,-0.286812,-0.407374,60.133,-28.2785,-8.15563,-39.7305
-0.915122,15.449,-1.32053,-7.30506,3.33018,0.580419,16.6462,-1.02148,-3.40599,0.971878,-1.75578,2.71547,-8.11236,-0.669076,5.28267,-22.5372,-1.20575,-11.8579,20.835,0.827343,6.24392,10.3157,0.1955,4.33282,-4.03533e-14,-3.18055e-15,43.0832,-48.4134,-9.05659,89.6534,22.6746,-55.3017,12.0542,7.12502,-27.6687,-15.9308,-4.03533e-14,-3.18055e-15,41.5667,49.4979,5.64704,93.2205,-9.67905,-43.065,14.4989,7.12502,-15.9209,43.8645,-16.5706,4.17771,2.51791,69.5822,-24.368,6.84658,-27.5486,-12.448,-0.227798,-0.508102,60.3877,-28.5155,-8.51582,-39.3327
-0.905381,15.4353,-1.30797,-7.38428,3.51016,0.568585,16.5118,-1.10003,-3.4505,0.996903,-1.85842,2.79448,-7.9945,-0.720104,5.41055,-22.4386,-1.20565,-12.0407,20.9734,0.839562,6.38888,10.3448,0.199148,4.42122,-4.1223e-14,4.13472e-14,43.2632,-48.1453,-8.99,89.219,22.0131,-54.7918,12.1065,7.12502,-27.181,-15.9557,-4.1223e-14,4.13472e-14,40.7458,49.095,4.69697,92.6518,-9.51977,-42.8018,14.8693,7.12502,-15.6675,44.2549,-16.2995,4.12323,2.42641,69.5309,-24.4824,7.20262,-26.7896,-12.4835,-0.063306,-0.47693,60.571,-28.6365,-8.5205,-39.3359
-0.896457,15.4338,-1.2988,-7.4786,3.7287,0.407775,16.455,-1.19525,-3.36859,0.988157,-1.95851,2.90755,-7.95949,-0.770436,5.50686,-22.3143,-1.20416,-12.0568,21.1317,0.829021,6.38929,10.3807,0.18696,4.42605,-1.56543e-14,1.27222e-14,42.9577,-47.752,-8.6224,88.6665,20.9714,-54.1313,11.5987,7.12502,-26.549,-16.5608,-1.56543e-14,1.27222e-14,39.6196,48.6367,3.53696,91.8226,-8.81768,-42.0575,15.1893,7.12502,-14.9505,44.6297,-15.9369,3.97402,2.55492,69.2678,-24.55,7.37367,-26.4454,-12.537,0.0913627,-0.301014,60.6352,-28.5417,-8.58674,-39.4307
-0.889503,15.4556,-1.28554,-7.53721,3.98403,0.377106,16.4069,-1.24699,-3.42288,0.921522,-2.03136,2.96305,-7.99276,-0.800307,5.61513,-22.1244,-1.23398,-12.1059,21.3598,0.756883,6.46607,10.4355,0.150499,4.45711,2.09469e-14,-3.97569e-15,42.1767,-47.4323,-7.97503,87.949,19.9741,-53.3847,10.8386,7.12502,-25.8342,-17.4269,2.09469e-14,-3.97569e-15,38.4106,48.1015,2.43057,90.7161,-7.95294,-41.0336,15.2363,7.12502,-13.964,44.7474,-15.487,3.69735,2.57825,68.7856,-24.5587,7.24311,-26.7574,-12.4942,0.106284,-0.33881,60.5159,-28.4204,-8.54788,-39.8235
-0.884377,15.4933,-1.27257,-7.4768,4.2597,0.439424,16.2368,-1.25751,-3.56227,0.815132,-2.0673,2.96228,-8.0046,-0.810255,5.69802,-21.8572,-1.28,-12.082,21.51,0.642188,6.48459,10.4531,0.0950555,4.44468,8.52289e-15,1.59028e-15,41.097,-47.191,-7.29187,87.0767,19.3127,-52.5043,9.93422,7.12502,-24.9908,-18.4513,8.52289e-15,1.59028e-15,37.3735,47.4674,1.65873,89.3757,-7.05266,-40.0144,15.7471,7.12502,-12.9817,45.3232,-15.0441,3.32241,2.53101,68.1246,-24.561,6.89498,-27.1139,-12.4363,0.0120768,-0.532419,60.1619,-28.1222,-8.50862,-39.7253
-0.880042,15.5486,-1.25863,-7.41366,4.5176,0.426268,16.0548,-1.25989,-3.61097,0.694853,-2.07443,2.97007,-8.0311,-0.808552,5.73163,-21.6249,-1.33464,-12.0593,21.658,0.51424,6.52735,10.4774,0.0368762,4.44005,-9.69075e-15,-3.18055e-15,39.8224,-46.9221,-6.60691,86.1016,18.7513,-51.68,9.27448,7.12502,-24.2007,-19.2186,-9.69075e-15,-3.18055e-15,36.2703,46.7759,1.00108,87.99,-5.98372,-39.0553,16.2869,7.12502,-12.057,45.9195,-14.5022,2.96176,2.60943,67.2648,-24.5466,6.4772,-27.2762,-12.2765,-0.124789,-0.643296,59.5386,-27.6605,-8.67967,-39.3649
-0.873877,15.6196,-1.23996,-7.42422,4.7597,0.461836,15.998,-1.21631,-3.62835,0.60172,-2.02184,2.92813,-8.10812,-0.778644,5.68511,-21.4942,-1.45396,-12.0734,21.7527,0.306208,6.63169,10.5093,-0.0509102,4.45243,1.59028e-14,-9.54166e-15,38.2934,-46.7377,-5.91206,85.057,18.1485,-50.7843,9.05739,7.12502,-23.3417,-19.5474,1.59028e-14,-9.54166e-15,35.1065,46.1755,0.487278,86.6177,-5.00958,-38.0212,16.4337,7.12502,-11.0597,46.1223,-13.8255,2.69598,2.64917,66.2285,-24.3069,6.15182,-26.9659,-11.8838,-0.405378,-0.836564,58.6542,-27.0996,-8.90642,-39.0412
-0.864278,15.7043,-1.22012,-7.40133,4.89094,0.476208,15.8578,-1.11687,-3.55133,0.630553,-1.87659,2.87606,-8.02015,-0.715926,5.54429,-21.7461,-1.67751,-12.1175,21.8674,0.0132143,6.73399,10.6301,-0.177178,4.46239,2.64259e-14,-2.06736e-14,36.5178,-46.7558,-5.15717,83.995,17.5708,-49.8897,8.58321,7.12502,-22.4832,-20.128,2.64259e-14,-2.06736e-14,33.8238,45.7507,0.109675,85.2697,-4.21416,-37.0362,16.6756,7.12502,-10.1095,46.4128,-13.1667,2.63225,2.74176,65.013,-23.7811,5.91707,-25.9489,-11.3982,-0.719922,-1.03996,57.5649,-26.4222,-8.98018,-39.0599
-0.851105,15.804,-1.20194,-7.30275,4.9182,0.469756,15.5276,-1.04119,-3.41217,0.69329,-1.74806,2.82049,-7.78843,-0.669018,5.35852,-22.0268,-1.83515,-12.139,22.0026,-0.203214,6.87815,10.7556,-0.26094,4.49598,6.16232e-15,-2.06736e-14,34.6347,-46.7821,-4.49665,83.0507,17.0931,-49.2206,7.308,7.12502,-21.8408,-21.4795,6.16232e-15,-2.06736e-14,32.3616,45.2642,-0.336119,83.8548,-3.52627,-36.1629,17.1666,7.12502,-9.26697,46.943,-12.5459,2.66959,2.85919,63.6374,-23.0915,5.63344,-25.0973,-10.8848,-0.990392,-1.26496,56.3035,-25.5788,-8.81611,-39.3005
-0.838017,15.9209,-1.18042,-7.19519,4.90508,0.33195,15.1207,-1.02023,-3.16603,0.708263,-1.66959,2.80882,-7.56086,-0.647694,5.16959,-21.9994,-1.89305,-12.1521,21.9865,-0.318693,7.01128,10.7567,-0.297919,4.52982,3.14328e-15,2.38542e-15,32.7442,-46.6577,-4.01472,82.2026,16.398,-48.3772,6.43721,7.12502,-21.0308,-22.4424,3.14328e-15,2.38542e-15,30.7045,44.6785,-0.80893,82.4597,-2.99302,-35.1407,17.7788,7.12502,-8.28059,47.5965,-11.9011,2.8045,3.15712,62.1316,-22.1768,5.19705,-24.4833,-10.3195,-1.35201,-1.36989,54.9381,-24.359,-8.92184,-39.0297
-0.828875,16.0529,-1.15768,-7.07974,4.94902,0.220635,14.7535,-1.04228,-3.04777,0.679004,-1.66853,2.84973,-7.38932,-0.655522,5.13109,-21.9733,-1.8972,-12.1065,22.0579,-0.331848,6.96131,10.7797,-0.308585,4.50375,1.57785e-14,1.59028e-15,30.931,-46.3984,-3.67617,81.3294,15.3402,-47.5128,6.30621,7.12502,-20.2002,-22.6635,1.57785e-14,1.59028e-15,28.7036,44.0599,-1.34251,81.1462,-2.59437,-33.8569,18.2073,7.12502,-7.04147,48.0701,-11.2486,3.02101,3.46907,60.5387,-21.0376,4.6803,-24.0486,-9.75096,-1.8381,-1.52306,53.4995,-22.9232,-9.03626,-38.8114
-0.819608,16.1943,-1.13681,-6.87445,4.99655,0.213924,14.3171,-1.03268,-2.99303,0.629684,-1.63864,2.85196,-7.2029,-0.64777,5.07927,-22.048,-1.94685,-12.1,22.2118,-0.389011,6.93252,10.8573,-0.341238,4.48956,-1.65488e-14,-1.59028e-15,28.9697,-46.1812,-3.3934,80.4894,14.4542,-46.5478,5.52909,7.12502,-19.2725,-23.5359,-1.65488e-14,-1.59028e-15,26.673,43.3283,-1.66585,79.947,-2.06928,-32.601,18.2287,7.12502,-5.82902,48.1285,-10.7113,3.29337,3.64944,58.9075,-19.7016,4.12033,-23.6651,-9.26605,-2.32376,-1.82906,52.0262,-21.3026,-8.88008,-39.1358
-0.809891,16.3486,-1.11645,-6.68095,4.98781,0.1326,13.8611,-0.986827,-2.80548,0.606891,-1.54258,2.816,-6.9881,-0.613724,4.89646,-22.0134,-2.01958,-12.0205,22.1886,-0.519968,6.92062,10.8564,-0.395364,4.45088,1.00014e-14,2.38542e-15,26.5706,-45.92,-2.96221,79.7342,13.4819,-45.6183,4.24262,7.12502,-18.3785,-24.9092,1.00014e-14,2.38542e-15,24.7214,42.4839,-1.81849,78.8971,-1.29436,-31.6974,18.9395,7.12502,-4.95654,48.8615,-10.1815,3.72904,3.93411,57.2324,-18.1855,3.53823,-22.5591,-8.79821,-2.80994,-2.06308,50.5549,-19.2598,-8.89687,-38.5173
-0.800042,16.5199,-1.09699,-6.44058,5.00557,0.102565,13.4041,-0.948911,-2.67581,0.56786,-1.46806,2.77306,-6.78586,-0.587272,4.74547,-21.9047,-2.06642,-11.9077,22.0636,-0.618669,6.85248,10.8002,-0.437108,4.38622,1.07468e-14,-5.56597e-15,23.9215,-45.5073,-2.37635,79.0151,12.1455,-44.9606,3.50737,7.12502,-17.7458,-25.7029,1.07468e-14,-5.56597e-15,22.6024,41.5496,-1.95053,77.9161,-0.382109,-30.9593,20.1519,7.12502,-4.24384,50.0894,-9.68653,4.22956,4.19215,55.5525,-16.4803,2.73721,-21.1935,-8.40404,-3.43457,-2.39174,49.1082,-16.9608,-8.92906,-37.446
-0.787975,16.7009,-1.07569,-6.11731,5.0368,0.163833,12.9139,-0.933298,-2.62188,0.470072,-1.43489,2.72809,-6.62118,-0.576482,4.64489,-21.8283,-2.06388,-11.8583,22.0741,-0.640507,6.84587,10.7918,-0.444756,4.37179,1.10636e-14,-2.54444e-14,21.3711,-45.0102,-1.96775,78.3017,10.854,-44.3355,3.07182,7.12502,-17.1441,-26.1918,1.10636e-14,-2.54444e-14,20.3145,40.4814,-2.00069,77.0317,0.526798,-30.1375,20.9995,7.12502,-3.45023,50.9513,-9.28751,4.67001,4.31058,53.8922,-14.5493,1.84475,-19.6218,-8.12514,-4.08567,-2.83628,47.7122,-14.5408,-8.67881,-36.816
-0.778224,16.884,-1.05404,-5.83013,4.98547,0.0997994,12.4031,-0.920922,-2.47222,0.426504,-1.38964,2.72979,-6.38887,-0.564302,4.53602,-21.9786,-2.05914,-11.8514,22.2364,-0.622146,6.85496,10.8779,-0.437164,4.38388,-1.2424e-17,5.56597e-15,18.8922,-44.5804,-1.75761,77.6272,9.52571,-43.5454,2.6277,7.12502,-16.3836,-26.7004,-1.2424e-17,5.56597e-15,17.9291,39.4996,-1.9644,76.2403,1.46306,-29.0304,21.4205,7.12502,-2.38105,51.387,-8.96188,5.16953,4.57701,52.2702,-12.5227,0.71216,-18.1568,-7.87304,-4.58181,-3.08895,46.3627,-11.9722,-8.37517,-36.9681
-0.770785,17.0731,-1.03567,-5.48025,4.94641,0.021146,11.8287,-0.917498,-2.34701,0.410033,-1.36075,2.73277,-6.08942,-0.56099,4.4432,-22.1861,-2.05178,-11.7914,22.3401,-0.596563,6.8137,10.9523,-0.425906,4.36809,2.41026e-15,-6.36111e-15,16.3162,-44.1392,-1.61317,76.9949,8.11908,-42.886,1.96953,7.12502,-15.7486,-27.4097,2.41026e-15,-6.36111e-15,15.4027,38.5288,-1.96499,75.5282,2.56248,-29.0972,23.1531,7.12502,-2.44559,53.1188,-8.81492,5.69204,4.87636,50.6893,-10.3863,-0.785249,-16.4218,-7.78929,-5.00152,-3.30789,45.0429,-9.18423,-8.12022,-36.9589
-0.764897,17.2647,-1.02067,-5.16306,4.92019,-0.0561914,11.3741,-0.907914,-2.22333,0.365009,-1.32744,2.71853,-5.88805,-0.552485,4.3379,-22.2507,-2.03782,-11.6567,22.3765,-0.587867,6.70731,10.9764,-0.423925,4.30893,6.67171e-15,-1.66979e-14,13.6517,-43.5649,-1.55309,76.3379,6.87323,-42.4188,1.33668,7.12502,-15.2986,-28.0775,6.67171e-15,-1.66979e-14,12.8013,37.4244,-1.8299,74.9636,3.87222,-29.0365,22.3881,7.12502,-2.38694,52.3545,-8.67265,6.1974,5.19031,49.1219,-8.22297,-2.56572,-13.6167,-7.72887,-5.40353,-3.51178,43.7163,-6.18699,-7.89342,-36.9568
-0.759667,17.4589,-1.00597,-4.87943,4.86777,-0.120608,10.9312,-0.89922,-2.0819,0.365955,-1.29679,2.66977,-5.64528,-0.547413,4.18626,-22.4212,-2.03254,-11.4992,22.4151,-0.602195,6.65962,11.0233,-0.421878,4.26571,1.56543e-15,-1.98785e-14,11.0644,-43.0931,-1.72374,75.651,5.85433,-41.82,0.876506,7.12502,-14.7217,-28.5808,1.56543e-15,-1.98785e-14,10.2693,36.3977,-1.52478,74.4139,5.26687,-27.398,23.4732,7.12502,-0.804514,53.4514,-8.50022,6.73669,5.50827,47.5488,-6.13039,-4.50801,-11.495,-7.60533,-5.74634,-3.72758,42.3404,-3.02715,-7.60928,-37.4404
-0.753004,17.6559,-0.988898,-4.59894,4.82881,-0.0326706,10.4633,-0.898937,-2.10073,0.382357,-1.29773,2.6216,-5.36587,-0.554343,4.13081,-22.5675,-2.03669,-11.5454,22.4135,-0.587154,6.71214,11.0488,-0.410731,4.29707,-2.79168e-14,9.54166e-15,8.63866,-42.677,-2.07388,74.9074,5.27484,-41.01,0.45131,7.12502,-13.9413,-29.0613,-2.79168e-14,9.54166e-15,7.78622,35.4766,-1.03685,73.6823,6.3319,-26.4289,24.1541,7.12502,0.131512,54.1338,-8.328,7.17085,5.65164,45.9646,-4.15105,-6.62874,-9.81292,-7.46205,-6.1069,-4.14511,40.9152,0.288181,-7.18379,-37.2854
-0.746791,17.8534,-0.97093,-4.35974,4.76822,0.0484428,10.123,-0.884406,-2.12896,0.352349,-1.28144,2.56749,-5.20844,-0.549279,4.07749,-22.5984,-2.01115,-11.5906,22.3929,-0.559891,6.81956,11.0437,-0.387592,4.34894,-1.81391e-15,-7.15625e-15,6.08734,-42.097,-2.36415,74.1107,4.8699,-40.0995,0.208384,7.12502,-13.0637,-29.3625,-1.81391e-15,-7.15625e-15,5.46805,34.5353,-0.37909,72.793,7.19016,-25.8376,26.2057,7.12502,0.702612,56.1843,-8.16824,7.52194,5.84606,44.4145,-2.2898,-9.00014,-8.14511,-7.3247,-6.45008,-4.57866,39.4667,3.77036,-6.58678,-36.5218
-0.741499,18.0469,-0.957016,-4.0356,4.69291,0.0132681,9.72852,-0.89705,-2.04528,0.295249,-1.28666,2.53237,-5.04906,-0.556929,3.98291,-22.6318,-1.94957,-11.4945,22.4108,-0.505081,6.82478,11.0499,-0.353621,4.34439,-4.09993e-16,-8.74653e-15,3.68726,-41.5266,-2.86448,73.1667,4.60833,-39.2893,-0.1254,7.12502,-12.2826,-29.7447,-4.09993e-16,-8.74653e-15,3.115,33.6511,0.242966,71.8472,8.03944,-24.961,26.61,7.12502,1.54923,56.5841,-8.16177,7.7171,6.17435,42.9709,-0.702251,-11.4354,-5.52188,-7.33366,-6.69881,-4.87932,38.0352,7.26143,-5.81567,-34.7845
-0.736744,18.2299,-0.943064,-3.66066,4.61708,0.0736754,9.19632,-0.915273,-2.07025,0.268682,-1.31065,2.49579,-4.77635,-0.573932,3.94637,-22.5948,-1.90786,-11.4612,22.3598,-0.452534,6.79009,11.018,-0.330323,4.3317,-1.51573e-15,1.90833e-14,1.50249,-41.053,-3.58495,72.0574,4.54878,-38.6989,-0.414569,7.12502,-11.7133,-30.0671,-1.51573e-15,1.90833e-14,0.808242,32.9433,1.04503,70.8047,8.79516,-24.1601,26.7673,7.12502,2.32272,56.7344,-8.2522,7.76186,6.39424,41.7102,0.558923,-13.6132,-2.58994,-7.40262,-6.79776,-5.29429,36.7072,10.1772,-5.03574,-33.0022
-0.733272,18.4028,-0.929307,-3.37908,4.53651,0.111553,8.77901,-0.940513,-2.06484,0.260852,-1.34145,2.46323,-4.54856,-0.594191,3.90066,-22.5874,-1.8852,-11.5328,22.3087,-0.400929,6.81178,10.9923,-0.309079,4.35787,-5.29264e-15,-1.27222e-14,-0.604941,-40.5311,-4.39824,70.8942,4.23685,-38.2932,-0.671387,7.12502,-11.3221,-30.3458,-5.29264e-15,-1.27222e-14,-1.31952,32.3991,2.06343,69.6225,9.43389,-23.2033,27.2858,7.12502,3.24681,57.2408,-8.31784,7.73068,6.70017,40.6745,1.60079,-15.3976,-0.0865142,-7.39345,-6.83832,-5.69218,35.5727,12.1302,-4.20687,-31.5724
-0.728997,18.5629,-0.919503,-3.05964,4.47488,0.0970991,8.4234,-0.969746,-1.95604,0.229603,-1.36873,2.41042,-4.38303,-0.613415,3.77694,-22.7713,-1.87556,-11.5655,22.3592,-0.369312,6.87074,11.0421,-0.289328,4.39439,-3.23149e-14,1.98785e-14,-2.63171,-40.0492,-5.30489,69.6141,3.80447,-37.8492,-1.2547,7.12502,-10.8938,-30.9521,-3.23149e-14,1.98785e-14,-3.26986,31.935,3.13816,68.3021,10.3192,-22.3113,27.7828,7.12502,4.10812,57.7229,-8.50641,7.48704,7.07539,39.8727,2.3219,-16.4766,1.82896,-7.47427,-6.82985,-6.05699,34.6965,13.29,-3.50535,-30.9129
-0.726601,18.7073,-0.912753,-2.69545,4.3737,0.0803711,8.08437,-0.99087,-1.87971,0.158536,-1.38705,2.39534,-4.26745,-0.625582,3.71152,-23.0046,-1.84769,-11.5494,22.4809,-0.292215,6.811,11.1233,-0.261315,4.38827,1.56916e-14,0,-4.459,-39.5533,-6.27636,68.151,3.54718,-37.218,-1.65958,7.12502,-10.2849,-31.3881,1.56916e-14,0,-5.27605,31.4142,4.15636,66.8807,11.6485,-21.8348,28.2764,7.12502,4.56833,58.2071,-8.83356,7.19813,7.46047,39.293,2.33505,-16.5878,3.24516,-7.67207,-6.63185,-6.43989,34.0868,13.9515,-2.75642,-30.3266
-0.726378,18.8343,-0.906394,-2.40268,4.2004,0.0770514,7.7793,-0.968815,-1.8635,0.106512,-1.35324,2.40136,-4.15315,-0.610601,3.69714,-23.0907,-1.84443,-11.5671,22.5073,-0.24172,6.70548,11.1447,-0.253458,4.3612,-1.97045e-14,1.90833e-14,-6.24694,-39.0482,-7.19104,66.5668,3.26927,-36.6722,-1.6698,7.12502,-9.75843,-31.4237,-1.97045e-14,1.90833e-14,-7.28573,30.7575,5.16366,65.4136,13.3951,-21.7318,28.8742,7.12502,4.66775,58.8028,-9.14462,7.03464,7.88921,38.9042,1.84046,-15.6634,2.95477,-7.85994,-6.20039,-6.86355,33.7629,13.8472,-1.56046,-29.257
-0.724181,18.9472,-0.90282,-2.13823,4.05256,0.132462,7.51827,-0.943618,-1.88737,0.0768593,-1.32122,2.36232,-4.04019,-0.596338,3.65963,-23.0832,-1.82913,-11.5566,22.4416,-0.207325,6.64515,11.1152,-0.243006,4.33961,-2.78299e-15,-3.89618e-14,-7.99299,-38.5593,-8.10431,64.9171,2.71174,-36.2669,-1.83995,7.12502,-9.3673,-31.6118,-2.78299e-15,-3.89618e-14,-9.15614,30.1836,6.18771,63.8248,15.3378,-21.6708,29.3854,7.12502,4.72662,59.3127,-9.4864,6.87585,8.26982,38.6952,1.12593,-14.0446,1.44218,-8.10634,-5.73656,-7.38888,33.6802,13.098,-0.384729,-27.0568
-0.719083,19.0495,-0.901286,-1.88236,3.92723,0.152357,7.38205,-0.933123,-1.8585,-0.0289074,-1.30314,2.35495,-4.07587,-0.586114,3.63206,-22.9495,-1.78601,-11.6025,22.4141,-0.131795,6.59064,11.0723,-0.220312,4.33572,-1.39149e-15,2.38542e-14,-9.54521,-38.0031,-9.0998,63.2032,1.75743,-35.8108,-2.09906,7.12502,-8.92727,-31.8902,-1.39149e-15,2.38542e-14,-10.9143,29.5495,7.29885,62.0874,17.4887,-21.6588,30.0273,7.12502,4.73828,59.9543,-9.88197,6.50002,8.68998,38.6409,0.5211,-12.0701,-0.444972,-8.45693,-5.17489,-7.90071,33.7819,12.2256,-0.0504697,-25.0029
-0.714346,19.1382,-0.901826,-1.65685,3.79732,0.216938,7.30402,-0.909097,-1.83465,-0.130927,-1.26999,2.29962,-4.14236,-0.568309,3.55718,-22.905,-1.74769,-11.633,22.4427,-0.072127,6.58764,11.0683,-0.197469,4.3493,-1.32689e-14,1.51076e-14,-11.1594,-37.453,-10.0835,61.5311,0.440123,-35.2644,-2.34921,7.12502,-8.39993,-32.1622,-1.32689e-14,1.51076e-14,-12.4853,28.8459,8.49022,60.2401,19.7181,-21.5743,30.9448,7.12502,4.81986,60.87,-10.2836,6.02163,9.10264,38.7328,0.0302723,-10.1309,-2.14387,-8.80985,-4.54581,-8.49872,34.0111,11.4351,-0.394271,-24.6826
-0.709609,19.2178,-0.905772,-1.43455,3.69272,0.301612,7.21479,-0.85656,-1.79136,-0.161849,-1.19969,2.19561,-4.13251,-0.535172,3.415,-23.0602,-1.75055,-11.5508,22.4577,-0.0768296,6.55358,11.1034,-0.19567,4.3246,-1.26725e-15,-1.98785e-14,-12.8982,-37.0002,-10.9565,59.8912,-1.03042,-34.6645,-2.77228,7.12502,-7.82095,-32.6076,-1.26725e-15,-1.98785e-14,-13.6907,28.3427,9.82602,58.2295,21.8835,-21.2082,31.8766,7.12502,5.17329,61.7934,-10.7328,5.49647,9.52336,38.9441,-0.322169,-8.33538,-4.52639,-9.20775,-3.91839,-9.15422,34.3476,10.6973,-1.04411,-25.976
-0.704654,19.2854,-0.911664,-1.25333,3.59162,0.477119,7.19846,-0.78131,-1.86298,-0.195463,-1.10993,2.08177,-4.16555,-0.48932,3.32756,-22.9339,-1.82891,-11.5226,22.3661,-0.188283,6.46649,11.058,-0.253865,4.26511,-1.39149e-15,-2.38542e-15,-14.5768,-36.4888,-11.8388,58.2897,-2.64383,-34.2421,-3.30054,7.12502,-7.41328,-33.1506,-1.39149e-15,-2.38542e-15,-14.6895,28.1061,11.327,56.0563,23.8792,-20.8083,32.4822,7.12502,5.55945,62.3892,-11.179,4.90817,9.84226,39.2509,-0.372712,-6.61123,-6.28934,-9.60539,-3.24285,-9.92714,34.7948,9.65083,-1.86514,-27.6802
-0.699547,19.3377,-0.915573,-1.19789,3.44797,0.68228,7.25888,-0.704268,-1.98796,-0.204895,-1.02291,1.97849,-4.21522,-0.443585,3.28291,-22.9753,-1.79752,-11.3506,22.4453,-0.143884,6.253,11.0912,-0.247953,4.1662,-1.40764e-14,6.36111e-15,-16.0553,-35.9333,-12.8459,56.7433,-4.43336,-33.8377,-3.62296,7.12502,-7.02288,-33.4865,-1.40764e-14,6.36111e-15,-15.699,27.7774,12.8161,53.832,25.5973,-20.1976,32.9016,7.12502,6.14907,62.7923,-11.4945,4.36155,10.159,39.6275,-0.169074,-5.18221,-6.3389,-9.89152,-2.54756,-10.744,35.3557,8.46327,-3.07266,-28.3121
-0.694919,19.3743,-0.923094,-1.19175,3.25146,0.695923,7.37723,-0.635417,-1.91867,-0.198624,-0.929983,1.89791,-4.28419,-0.398733,3.15222,-22.8654,-1.77326,-11.1781,22.3862,-0.138825,6.08365,11.0481,-0.251783,4.07151,-1.42876e-15,-1.19271e-14,-17.4929,-35.4029,-13.998,55.3466,-6.40505,-33.1419,-4.18708,7.12502,-6.35119,-34.0719,-1.42876e-15,-1.19271e-14,-16.6898,27.2986,14.2182,51.6963,27.2324,-19.5061,33.3385,7.12502,6.8166,63.2088,-11.8129,3.84753,10.7464,40.0509,0.280986,-4.17284,-5.81975,-10.1838,-1.82304,-11.3558,36.0097,7.87789,-4.77072,-27.4878
-0.692588,19.3977,-0.93534,-1.22329,3.09412,0.606658,7.60063,-0.577524,-1.78434,-0.188105,-0.844576,1.86903,-4.40705,-0.35778,3.04116,-22.77,-1.77486,-11.1507,22.2586,-0.162026,6.08702,10.9848,-0.256883,4.0595,5.45415e-15,-2.78299e-15,-18.8526,-34.9281,-15.2136,54.0235,-8.3768,-32.5597,-5.17334,7.12502,-5.78917,-35.0743,5.45415e-15,-2.78299e-15,-17.6293,27.0152,15.736,49.6453,28.574,-19.071,33.8978,7.12502,7.23662,63.7541,-12.1208,3.3011,11.4859,40.4975,0.898179,-3.46917,-5.9192,-10.4887,-1.03872,-11.8488,36.7376,7.38823,-6.65926,-27.1933
-0.691009,19.4139,-0.947199,-1.24741,2.96437,0.683524,7.84275,-0.531726,-1.88639,-0.200022,-0.795827,1.85777,-4.55789,-0.32889,3.08646,-22.7772,-1.78891,-11.2561,22.2911,-0.166371,6.1713,10.9987,-0.258042,4.10901,-1.56046e-14,-3.97569e-15,-20.0411,-34.3997,-16.4639,52.7497,-10.2362,-32.3037,-6.11643,7.12502,-5.542,-36.024,-1.56046e-14,-3.97569e-15,-18.7041,26.7348,17.3181,47.6797,29.6752,-19.058,34.6468,7.12502,7.24915,64.5026,-12.4164,2.71438,12.0413,40.9583,1.59733,-2.72122,-7.40484,-10.7975,-0.303085,-12.5456,37.5047,6.94054,-8.07594,-26.8813
-0.686407,19.4167,-0.957441,-1.2136,2.95027,0.824601,7.94081,-0.548376,-2.03833,-0.179268,-0.833875,1.84816,-4.58703,-0.344074,3.16834,-22.8039,-1.78162,-11.2636,22.3224,-0.111526,6.02762,11.011,-0.252915,4.06612,-1.07841e-14,7.15625e-15,-21.221,-33.806,-17.771,51.7388,-12.2493,-32.0703,-7.0308,7.12502,-5.31659,-36.9441,-1.07841e-14,7.15625e-15,-19.8946,26.3644,18.8681,45.8647,30.7608,-18.8008,35.343,7.12502,7.4974,65.1902,-12.721,2.06438,12.515,41.4443,2.25327,-2.0491,-9.30362,-11.1899,0.284995,-13.3541,38.2752,6.92458,-8.98521,-26.5656
-0.682781,19.406,-0.965651,-1.11199,2.87081,0.897274,7.87546,-0.551151,-2.11941,-0.127168,-0.845188,1.83132,-4.49423,-0.350213,3.19583,-22.7958,-1.75512,-11.254,22.2319,-0.0562459,5.94837,10.9706,-0.234672,4.0404,4.00054e-15,1.03368e-14,-22.3969,-33.2018,-19.1787,50.8434,-14.28,-31.9735,-7.80617,7.12502,-5.22319,-37.7218,4.00054e-15,1.03368e-14,-21.0408,25.8274,20.4576,44.1897,31.8398,-18.3174,35.7672,7.12502,7.96401,65.5972,-13.1205,1.47506,13.0965,41.9489,2.91478,-1.61912,-10.4848,-11.6522,1.01764,-14.095,39.0345,6.94632,-9.78778,-27.3017
-0.678543,19.3838,-0.972811,-1.04685,2.72884,0.962233,7.84914,-0.52316,-2.18526,-0.0858725,-0.814438,1.81496,-4.43789,-0.335153,3.21136,-22.6544,-1.7466,-11.2853,22.0373,-0.0470412,5.94183,10.8712,-0.229786,4.03684,1.81391e-15,4.77083e-15,-23.547,-32.63,-20.6256,50.0221,-15.9885,-31.9254,-8.34011,7.12502,-5.17666,-38.2569,1.81391e-15,4.77083e-15,-22.1296,25.3874,22.1898,42.6601,32.7731,-17.8547,36.0897,7.12502,8.41061,65.9022,-13.4917,0.931337,13.6968,42.4594,3.34183,-1.32057,-10.9616,-12.0386,1.87496,-14.8417,39.8038,6.88845,-10.7023,-28.0538
-0.672138,19.3521,-0.975316,-0.972767,2.67647,0.951493,7.7501,-0.522368,-2.09139,-0.0316008,-0.805315,1.77473,-4.32797,-0.335627,3.11257,-22.57,-1.75808,-11.302,21.905,-0.0831561,6.0044,10.8097,-0.236757,4.05236,-3.05631e-15,2.78299e-15,-24.7347,-32.3819,-22.0479,49.1832,-17.1198,-31.5035,-8.68464,7.12502,-4.7693,-38.611,-3.05631e-15,2.78299e-15,-23.0867,25.1091,24.0208,41.2329,33.4508,-17.3919,36.2237,7.12502,8.85721,66.0178,-13.8156,0.245267,14.3546,42.9684,3.42076,-1.06147,-9.65441,-12.41,2.67909,-15.5244,40.5522,6.75836,-11.6546,-28.1164
-0.667693,19.3086,-0.979804,-0.826678,2.69513,0.917456,7.53366,-0.551694,-1.99525,0.0536672,-0.834382,1.74582,-4.11717,-0.356771,3.02599,-22.5611,-1.76164,-11.3855,21.7624,-0.0977979,6.15402,10.7561,-0.227663,4.11513,4.96962e-15,-4.77083e-15,-25.8358,-32.3736,-23.5523,48.3717,-17.9472,-30.9912,-9.03222,7.12502,-4.27468,-38.9691,4.96962e-15,-4.77083e-15,-24.0433,24.7163,25.92,40.0079,34.127,-17.204,36.2709,7.12502,9.03849,66.0572,-14.1715,-0.390211,15.0578,43.4576,3.33626,-0.95981,-6.69462,-12.8766,3.47798,-16.1786,41.252,6.51214,-12.5379,-27.8014
-0.664414,19.2535,-0.985493,-0.633963,2.61138,0.936411,7.2898,-0.535351,-1.99558,0.117383,-0.810572,1.72309,-3.9158,-0.349106,2.99461,-22.6779,-1.70617,-11.3706,21.6979,-0.0250753,6.21192,10.7458,-0.182879,4.14456,1.49089e-14,-1.27222e-14,-26.9258,-32.0989,-25.1167,47.7425,-19.0304,-30.8912,-9.28312,7.12502,-4.17806,-39.2219,1.49089e-14,-1.27222e-14,-25.0123,24.2877,27.8887,38.9247,34.7742,-17.5128,36.314,7.12502,8.74048,66.113,-14.6025,-0.773893,15.7202,43.9292,3.28097,-0.753305,-4.74069,-13.3534,4.28527,-16.8808,41.887,6.1794,-13.0904,-27.6787
-0.661193,19.1894,-0.988428,-0.462507,2.46948,0.855909,7.09804,-0.498889,-1.9335,0.148466,-0.753021,1.76042,-3.77993,-0.323825,2.98873,-22.6908,-1.67954,-11.3409,21.6256,0.0317247,6.10832,10.7164,-0.165425,4.10756,-1.23743e-14,7.95139e-15,-27.9733,-31.7353,-26.6564,47.1841,-20.0436,-30.9425,-9.50203,7.12502,-4.22764,-39.4398,-1.23743e-14,7.95139e-15,-25.9133,24.2618,29.8841,37.7627,35.0606,-17.7341,36.2843,7.12502,8.52698,66.0921,-15.0108,-0.97847,16.4775,44.389,3.17707,-0.372559,-3.87952,-13.7381,4.9857,-17.4451,42.4488,5.87912,-13.3131,-27.3256
-0.658844,19.1132,-0.992871,-0.350334,2.32662,0.758989,6.98435,-0.455226,-1.86008,0.196738,-0.686725,1.78673,-3.67089,-0.294156,2.96551,-22.7426,-1.67605,-11.3371,21.6276,0.0436043,6.10144,10.7256,-0.160131,4.10685,-5.73991e-15,2.78299e-15,-29.0103,-31.4836,-28.2475,46.6748,-20.9508,-31.0946,-9.82541,7.12502,-4.37452,-39.7602,-5.73991e-15,2.78299e-15,-26.7398,24.2892,31.863,36.651,35.1304,-17.8254,36.2837,7.12502,8.43887,66.0951,-15.3727,-1.23827,17.2378,44.8543,3.21466,-0.078057,-3.64873,-14.0231,5.6338,-17.9482,42.9484,5.39796,-13.3861,-26.7876
-0.653905,19.0234,-0.998745,-0.25569,2.2386,0.725794,6.92365,-0.44808,-1.83807,0.233986,-0.674769,1.79115,-3.59916,-0.290034,2.95508,-22.7929,-1.65967,-11.2949,21.6235,0.054831,6.11282,10.7319,-0.149414,4.10627,6.75868e-15,-5.1684e-15,-29.9724,-31.1768,-29.9707,46.3081,-22.0189,-31.2193,-10.173,7.12502,-4.49487,-40.1053,6.75868e-15,-5.1684e-15,-27.6795,24.1708,33.8282,35.7939,35.1915,-18.0552,36.395,7.12502,8.21706,66.2153,-15.6883,-1.53948,17.8997,45.3162,3.33636,0.00342632,-3.96732,-14.2781,6.09815,-18.5142,43.3876,4.8718,-13.2502,-26.4836
-0.65001,18.9189,-1.0063,-0.152467,2.14995,0.658077,6.91866,-0.448596,-1.82816,0.22344,-0.672933,1.83514,-3.60703,-0.288712,2.9951,-22.6793,-1.60537,-11.3003,21.4803,0.116717,6.12609,10.6517,-0.116915,4.11554,2.45996e-15,6.75868e-15,-30.8342,-30.9085,-31.6897,45.8821,-22.7922,-31.1461,-10.5136,7.12502,-4.42421,-40.4474,2.45996e-15,6.75868e-15,-28.7025,24.3223,35.7652,35.0437,35.0518,-17.8888,36.3469,7.12502,8.37768,66.1607,-16.0108,-1.72453,18.5842,45.7656,3.431,-0.187086,-4.45646,-14.5465,6.44291,-19.0125,43.7827,4.54196,-12.9045,-25.7639
-0.649158,18.8047,-1.01614,-0.0226251,2.06257,0.602593,6.90408,-0.450381,-1.86921,0.209311,-0.676971,1.87226,-3.61236,-0.289501,3.05723,-22.5034,-1.53415,-11.3041,21.2508,0.18877,6.16306,10.5272,-0.0747604,4.13123,2.83268e-15,9.93923e-15,-31.6446,-30.7519,-33.4727,45.4481,-23.2686,-30.9632,-10.8116,7.12502,-4.24764,-40.749,2.83268e-15,9.93923e-15,-29.6757,24.6165,37.6976,34.3981,34.9724,-17.7408,36.2747,7.12502,8.5205,66.0828,-16.3743,-1.81725,19.2427,46.1881,3.50009,-0.603562,-4.20033,-14.8327,6.68181,-19.5031,44.1277,4.27915,-12.2904,-24.5928
-0.648073,18.6797,-1.02603,0.0905359,1.97924,0.454289,6.88652,-0.471493,-1.81149,0.241651,-0.698211,1.93455,-3.56749,-0.301584,3.0908,-22.5664,-1.49351,-11.2305,21.1538,0.238548,6.1252,10.4983,-0.0473426,4.11021,1.77912e-14,-3.02153e-14,-32.3514,-30.4808,-35.4238,45.1937,-24.1979,-31.2363,-11.301,7.12502,-4.51129,-41.233,1.77912e-14,-3.02153e-14,-30.6886,24.7372,39.7397,34.1079,35.4117,-17.0054,36.3758,7.12502,9.23011,66.1538,-16.7139,-1.85976,19.9812,46.6247,3.49357,-1.14207,-2.6517,-15.1055,6.88944,-19.8534,44.437,3.95785,-11.4814,-23.9838
-0.645408,18.5463,-1.03501,0.21019,1.93635,0.276005,6.83674,-0.502072,-1.6915,0.306098,-0.727334,1.99383,-3.47154,-0.319703,3.0858,-22.7722,-1.45531,-11.129,21.0526,0.28838,6.10369,10.494,-0.0141771,4.09236,1.09332e-14,-2.10712e-14,-33.0626,-30.2255,-37.431,45.119,-25.2863,-31.5096,-11.9508,7.12502,-4.77524,-41.877,1.09332e-14,-2.10712e-14,-31.6397,24.6206,41.9505,34.0609,36.2852,-15.5367,36.1898,7.12502,10.6471,65.9,-16.9757,-1.92037,20.7104,47.1571,2.70949,-1.74425,0.975677,-15.385,6.92663,-20.1233,44.7169,3.77594,-10.3263,-23.7147
-0.641186,18.4019,-1.04303,0.334482,1.93817,0.19494,6.74188,-0.56962,-1.65177,0.338383,-0.812464,2.03079,-3.37933,-0.364115,3.10775,-22.7713,-1.35396,-11.0837,20.8358,0.402998,6.15529,10.4025,0.05458,4.11408,-1.70955e-14,-1.59028e-15,-33.6999,-30.0064,-39.4666,45.0024,-26.1396,-31.4171,-12.4614,7.12502,-4.68588,-42.3896,-1.70955e-14,-1.59028e-15,-32.5917,24.9101,44.0593,34.0335,37.0621,-14.8784,36.0473,7.12502,11.2821,65.7239,-17.1541,-2.13437,21.2644,47.8403,0.676777,-2.09401,4.89407,-15.6137,6.85831,-20.4706,45.0147,3.07692,-9.16134,-23.9984
-0.636719,18.2445,-1.05095,0.419704,1.88858,0.379143,6.68343,-0.609737,-1.86856,0.331135,-0.883947,1.97418,-3.34701,-0.397204,3.17707,-22.4995,-1.28329,-11.0192,20.6511,0.448938,6.15239,10.2809,0.0831216,4.09973,5.46658e-16,7.95139e-15,-34.4779,-29.2104,-41.6571,45.2367,-27.5621,-31.4242,-13.3294,7.12502,-4.69273,-43.2574,5.46658e-16,7.95139e-15,-33.5075,25.64,45.9613,33.8723,37.2334,-15.4337,36.308,7.12502,10.7464,66.0132,-17.2751,-2.28662,21.4459,48.6623,-2.27951,-1.94266,5.92242,-15.6859,6.75792,-21.063,45.4392,1.22504,-8.40956,-24.7166
-0.634801,18.0808,-1.0609,0.495873,1.8164,0.470326,6.64591,-0.620184,-2.03425,0.345801,-0.910932,1.95027,-3.3068,-0.409134,3.24741,-22.2146,-1.21691,-10.9064,20.245,0.475975,6.14231,10.0796,0.111568,4.06508,4.22417e-15,-3.18055e-15,-35.2029,-28.4496,-43.9046,45.4997,-29.1193,-31.4435,-14.2073,7.12502,-4.71142,-44.1349,4.22417e-15,-3.18055e-15,-34.3384,26.4581,47.8928,33.7551,37.2299,-16.5396,37.0847,7.12502,9.67953,66.8423,-17.4647,-2.16431,21.6799,49.5699,-5.37783,-1.35887,3.38421,-15.7193,6.73142,-21.4707,46.0969,-1.69203,-8.18439,-26.3545
-0.634752,17.9202,-1.07393,0.529719,1.85061,0.364384,6.7044,-0.659411,-2.01285,0.376364,-0.960999,1.99112,-3.30405,-0.434501,3.28315,-22.0565,-1.15196,-10.7868,19.8703,0.512357,6.14036,9.91296,0.145787,4.03648,6.75868e-15,-3.97569e-15,-35.5693,-28.9329,-45.8975,44.9896,-29.4327,-30.9839,-14.354,7.12502,-4.26758,-44.291,6.75868e-15,-3.97569e-15,-35.0656,27.061,50.0436,33.8744,37.9229,-17.5142,37.7712,7.12502,8.73915,67.5703,-17.6574,-1.95977,22.0664,50.519,-8.1669,-0.489531,1.7029,-15.7478,6.74532,-21.5914,47.0033,-5.08297,-7.69488,-25.2319
-0.634915,17.7626,-1.08839,0.551547,1.87697,0.311936,6.86248,-0.668193,-2.06281,0.356584,-0.977524,2.01404,-3.41078,-0.43978,3.34034,-21.8814,-1.10953,-10.6396,19.6019,0.502666,6.15084,9.78634,0.159048,4.00443,-1.03368e-14,2.38542e-15,-36.0622,-29.0274,-47.8775,44.5681,-29.7779,-30.5479,-14.3994,7.12502,-3.84661,-44.3445,-1.03368e-14,2.38542e-15,-35.7548,27.4586,52.3434,34.182,39.1845,-17.9906,38.457,7.12502,8.27944,68.2748,-17.8399,-1.66292,22.312,51.5138,-10.7649,0.420386,1.67948,-15.8592,6.85117,-21.7097,48.0974,-8.19792,-6.66299,-24.683
-0.631784,17.595,-1.10325,0.570852,1.81297,0.331152,7.03678,-0.651048,-2.12693,0.383914,-0.963153,1.98322,-3.48069,-0.430982,3.34636,-21.9594,-1.0849,-10.4725,19.4747,0.48653,6.17244,9.75636,0.170796,3.97976,1.68967e-15,-7.15625e-15,-36.6337,-28.232,-50.1752,44.7047,-30.8812,-30.2534,-14.85,7.12502,-3.56215,-44.7999,1.68967e-15,-7.15625e-15,-36.2598,27.9515,54.643,34.5511,40.8429,-18.245,38.9766,7.12502,8.03385,68.8039,-18.114,-1.26518,22.3984,52.5913,-13.2756,1.16117,2.26456,-16.1498,7.03679,-21.8557,49.289,-11.2614,-6.00847,-23.7546
-0.626079,17.4182,-1.12002,0.679704,1.79172,0.379975,7.1846,-0.664881,-2.1751,0.393653,-0.988734,1.949,-3.55137,-0.442068,3.34341,-22.1438,-1.09086,-10.3779,19.4006,0.45924,6.21024,9.76539,0.173432,3.97426,-6.75868e-15,-7.95139e-15,-36.9669,-27.5155,-52.4817,44.688,-31.7121,-29.7909,-15.3508,7.12502,-3.11554,-45.3077,-6.75868e-15,-7.95139e-15,-36.6837,28.2628,57.0532,35.0386,42.8627,-18.7326,39.2572,7.12502,7.56329,69.102,-18.6389,-0.91794,22.3739,53.7775,-15.4643,2.07079,3.67215,-16.6914,7.16996,-22.0096,50.5134,-14.2299,-6.10173,-22.1172
-0.624031,17.2449,-1.14792,0.790845,1.94916,0.343955,7.54347,-0.723068,-2.13483,0.340563,-1.06904,1.91026,-3.80323,-0.477847,3.29709,-22.2352,-1.08011,-10.1662,19.226,0.422374,6.18308,9.72337,0.174033,3.92061,-3.48867e-14,2.90226e-14,-37.1477,-26.9664,-54.7883,44.3717,-32.0947,-29.0222,-15.6709,7.12502,-2.37319,-45.6374,-3.48867e-14,2.90226e-14,-36.9149,28.4651,59.3959,35.3177,44.6137,-18.2199,39.32,7.12502,8.05811,69.1463,-19.3056,-0.852101,22.4255,55.1038,-17.3613,3.09092,3.08152,-17.3885,7.31291,-22.0415,51.8121,-16.4531,-6.33097,-20.266
-0.629062,17.0873,-1.18425,0.832114,2.05728,0.316427,8.18738,-0.735916,-2.17476,0.270119,-1.10072,1.85548,-4.23579,-0.484709,3.28198,-22.4454,-1.0548,-9.90676,19.0604,0.384877,6.22673,9.70519,0.187166,3.88637,-9.24349e-15,7.15625e-15,-37.2884,-26.3187,-57.1235,44.0162,-32.428,-27.5443,-16.125,7.12502,-0.945759,-46.1026,-9.24349e-15,7.15625e-15,-36.8107,28.7494,61.5697,35.1127,45.8707,-17.0806,39.3106,7.12502,9.15754,69.0918,-20.0768,-0.80549,22.4877,56.6219,-19.0316,3.95401,1.36167,-18.1151,7.65659,-22.0513,53.2174,-18.3005,-6.03172,-21.1848
-0.63025,16.9384,-1.22058,0.929491,1.9436,0.375339,8.76099,-0.671097,-2.28586,0.21387,-1.03811,1.76202,-4.62084,-0.444543,3.25392,-22.715,-1.07895,-9.71816,18.8851,0.286007,6.36403,9.69921,0.178324,3.88927,6.01324e-15,-3.57812e-15,-37.2953,-25.7986,-59.3113,43.515,-32.5426,-25.5915,-16.6091,7.12502,0.940265,-46.5868,6.01324e-15,-3.57812e-15,-36.4449,29.0316,63.68,34.6356,46.8246,-16.1645,39.6529,7.12502,10.0415,69.3933,-21.0853,-0.775984,22.4456,58.3592,-20.3681,4.66976,1.53142,-18.9661,8.17502,-22.1959,54.7502,-20.1432,-5.56983,-21.1833
-0.631859,16.7927,-1.25819,1.15878,1.80514,0.555233,9.16451,-0.562156,-2.49888,0.148674,-0.930153,1.60285,-4.92296,-0.381525,3.20401,-23.0076,-1.20822,-9.61417,18.7681,0.0526728,6.57847,9.73028,0.109113,3.91652,-4.96962e-15,1.23246e-14,-37.2622,-25.5346,-61.3476,42.9054,-32.373,-24.0982,-17.0993,7.12502,2.38249,-47.0658,-4.96962e-15,1.23246e-14,-35.8792,29.1643,65.7469,34.046,47.3936,-15.2047,39.9681,7.12502,10.9673,69.6616,-22.3884,-0.912268,22.2935,60.2869,-21.4,5.14019,2.30678,-20.0749,8.7263,-22.4969,56.3803,-21.5273,-5.56682,-19.972
-0.637025,16.6724,-1.29751,1.5073,1.68732,0.591632,9.49577,-0.481068,-2.64468,0.0459463,-0.848446,1.5379,-5.22203,-0.331238,3.21595,-23.2872,-1.35387,-9.63714,18.5659,-0.161282,6.80312,9.72763,0.0422221,3.96834,6.26172e-15,4.37326e-15,-37.1313,-25.1772,-63.3107,42.2798,-32.2711,-22.8112,-17.4728,7.12502,3.62539,-47.4217,6.26172e-15,4.37326e-15,-35.3112,29.6074,67.5856,33.2783,47.2048,-14.213,40.2228,7.12502,11.9238,69.8633,-23.9344,-1.16358,22.3654,62.2367,-22.1768,4.90151,1.07657,-21.4839,9.389,-22.6597,58.075,-22.5577,-5.69137,-18.9496
-0.642915,16.5767,-1.33809,2.01665,1.56608,0.370528,9.62756,-0.419904,-2.52923,-0.033048,-0.756842,1.54335,-5.38736,-0.284785,3.14741,-23.7685,-1.50724,-9.72962,18.3212,-0.369253,7.15447,9.74566,-0.00827344,4.07942,-7.05686e-15,-7.95139e-16,-36.8218,-24.9186,-65.1865,41.62,-32.2825,-21.488,-17.7992,7.12502,4.90315,-47.7225,-7.05686e-15,-7.95139e-16,-34.627,30.1537,69.2944,32.4884,46.6118,-13.853,40.671,7.12502,12.2709,70.291,-25.7484,-1.42568,22.7721,64.1038,-22.7478,3.99688,-1.35916,-23.1592,10.0493,-22.5626,59.7718,-23.4451,-5.75735,-16.9242
-0.648396,16.4795,-1.37683,2.35702,1.46699,0.0934709,9.6981,-0.373413,-2.3689,0.0715298,-0.677014,1.5623,-5.32441,-0.251825,3.06523,-24.3067,-1.63607,-9.69584,17.9264,-0.53843,7.34662,9.71663,-0.0473778,4.11401,3.47873e-16,-7.15625e-15,-36.2749,-24.8648,-66.9544,40.8842,-32.1462,-20.7786,-18.1129,7.12502,5.58809,-48.0192,3.47873e-16,-7.15625e-15,-33.735,30.4091,71.0718,31.857,46.369,-14.0332,40.9513,7.12502,12.097,70.5816,-27.2694,-1.77264,23.2586,65.806,-23.1731,3.39243,-2.70375,-24.549,10.6258,-22.3412,61.3625,-24.2007,-6.0862,-14.6443
-0.654125,16.3834,-1.40554,2.38583,1.45549,0.00616453,9.85377,-0.363078,-2.40555,0.273077,-0.67166,1.53103,-5.20056,-0.253287,3.05242,-24.6159,-1.73801,-9.54892,17.4719,-0.685435,7.34391,9.62326,-0.094318,4.05819,-1.58531e-14,1.07344e-14,-35.7487,-24.7531,-68.5509,40.1607,-31.9962,-20.6638,-18.6387,7.12502,5.69898,-48.5421,-1.58531e-14,1.07344e-14,-32.9351,30.3589,72.6632,31.3758,46.3527,-14.143,40.9559,7.12502,11.9912,70.5924,-28.2285,-2.23907,23.5014,67.3143,-23.6064,3.49745,-2.34739,-25.3591,11.0612,-22.2316,62.7057,-24.8403,-6.57977,-13.6046
-0.658887,16.3025,-1.42765,2.23342,1.52979,-0.0442524,10.0574,-0.366291,-2.50864,0.519331,-0.69146,1.52345,-5.05386,-0.26636,3.10595,-24.8855,-1.81922,-9.47533,17.1431,-0.791923,7.36838,9.56365,-0.127164,4.03341,8.19987e-15,-2.38542e-15,-35.2558,-24.5287,-69.8974,39.5035,-31.9299,-21.0096,-19.5314,7.12502,5.36505,-49.4435,8.19987e-15,-2.38542e-15,-32.0713,30.171,74.0625,30.7652,46.3161,-14.0568,41.1399,7.12502,12.0743,70.7716,-28.8195,-2.81834,23.6491,68.5648,-23.9862,3.82265,-2.22003,-25.7683,11.3586,-22.1001,63.7528,-25.4755,-6.84488,-14.1816
-0.660305,16.2383,-1.44705,2.01191,1.63161,-0.136705,10.2205,-0.39354,-2.54235,0.844798,-0.732383,1.55396,-4.80009,-0.294294,3.1614,-25.0748,-1.87923,-9.57677,16.5545,-0.837905,7.54079,9.39451,-0.124105,4.09215,9.44227e-15,3.77691e-15,-34.646,-24.157,-71.0763,38.9662,-31.8355,-21.4377,-20.429,7.12502,4.95171,-50.3511,9.44227e-15,3.77691e-15,-31.0292,29.915,75.3236,30.1309,46.3138,-14.2475,41.5842,7.12502,11.8904,71.2266,-29.152,-3.43121,23.759,69.4921,-24.1025,4.27719,-2.11661,-25.9302,11.5845,-21.8975,64.489,-26.1378,-7.01281,-14.8742
-0.660989,16.1872,-1.46123,1.80412,1.61394,-0.203968,10.2993,-0.393156,-2.56259,1.13131,-0.735336,1.54824,-4.54358,-0.303845,3.16491,-25.3905,-1.91251,-9.56794,16.2846,-0.852299,7.56793,9.35488,-0.118598,4.09493,1.78906e-15,-4.17448e-15,-34.0035,-23.7219,-72.0273,38.412,-31.7809,-22.0962,-21.2443,7.12502,4.31584,-51.1804,1.78906e-15,-4.17448e-15,-30.1681,29.3348,76.2766,29.8231,46.5015,-14.9219,42.6195,7.12502,11.2401,72.2984,-29.2079,-3.88913,23.7798,70.0415,-24.204,5.13264,-1.00666,-25.9655,11.9175,-21.726,64.9449,-26.6791,-7.30103,-14.8916
-0.661718,16.154,-1.47002,1.68289,1.50841,-0.223243,10.3013,-0.380174,-2.62677,1.30119,-0.725846,1.52936,-4.36708,-0.303698,3.178,-25.6301,-1.89495,-9.52795,16.1806,-0.805483,7.52222,9.35396,-0.094551,4.07891,-1.82385e-14,1.11319e-14,-33.435,-23.5543,-72.5362,37.8266,-31.656,-22.6156,-22.0957,7.12502,3.81435,-52.0414,-1.82385e-14,1.11319e-14,-29.6347,28.7428,76.85,29.915,46.5804,-15.5801,43.8554,7.12502,10.6052,73.5678,-29.1366,-4.22886,23.7083,70.2263,-24.301,6.29367,0.561825,-25.9225,12.3057,-21.6371,65.1417,-27.0347,-7.6672,-14.1659
-0.664466,16.1455,-1.4744,1.67671,1.45746,-0.284322,10.2425,-0.363237,-2.70069,1.33074,-0.708338,1.57077,-4.30327,-0.295146,3.25948,-25.6462,-1.87906,-9.55185,16.0937,-0.758497,7.46937,9.32143,-0.0791037,4.06872,6.75868e-15,2.98177e-15,-33.151,-23.6342,-72.4974,37.4319,-31.6,-22.8032,-22.6056,7.12502,3.63316,-52.5543,6.75868e-15,2.98177e-15,-29.3835,28.237,77.0535,30.158,46.4911,-15.5457,43.9726,7.12502,10.6384,73.6833,-29.0483,-4.55184,23.6817,70.0682,-24.1777,7.18675,1.96393,-25.8318,12.5965,-21.5347,65.0885,-27.3234,-7.87902,-13.6562
-0.66782,16.1592,-1.47472,1.73957,1.5844,-0.461266,10.1379,-0.40759,-2.63721,1.25766,-0.754459,1.64926,-4.31776,-0.317189,3.31107,-25.5004,-1.87671,-9.55038,16.0854,-0.756264,7.40888,9.29341,-0.0872234,4.04519,3.47873e-15,-3.97569e-16,-33.1494,-23.9993,-72.0372,37.2557,-31.4355,-22.6395,-22.7396,7.12502,3.79126,-52.6856,3.47873e-15,-3.97569e-16,-29.3415,27.9641,76.7896,30.4556,46.2057,-14.6101,42.8246,7.12502,11.5407,72.4869,-28.8862,-5.07604,23.8106,69.5961,-23.8856,7.731,2.88148,-25.7142,12.6656,-21.3441,64.7804,-27.4477,-7.91449,-13.737
-0.666611,16.1869,-1.47309,1.85994,1.74007,-0.575991,9.94078,-0.475199,-2.62584,1.15719,-0.835028,1.73789,-4.30561,-0.355498,3.40589,-25.5044,-1.82112,-9.41408,16.3266,-0.67352,7.12288,9.36913,-0.0769904,3.93842,-1.78409e-14,5.56597e-15,-33.2531,-24.6063,-71.2165,37.3748,-31.0612,-22.2383,-23.2399,7.12502,4.17862,-53.1786,-1.78409e-14,5.56597e-15,-29.3751,27.9757,76.2353,30.9445,45.8238,-13.8887,42.0432,7.12502,12.2364,71.6652,-28.6063,-5.67149,23.8733,68.8458,-23.4654,8.37202,4.7983,-25.5856,12.6395,-21.291,64.2178,-27.2846,-7.87359,-13.3061
-0.660889,16.2312,-1.46637,1.85507,1.77607,-0.597686,9.81162,-0.49654,-2.72381,1.06281,-0.866867,1.83832,-4.32675,-0.367124,3.56973,-25.283,-1.76912,-9.64516,16.382,-0.557962,7.19488,9.34128,-0.0338204,4.01806,-1.7344e-14,6.16232e-15,-33.4441,-25.3431,-70.0368,37.6069,-30.572,-21.8811,-23.6565,7.12502,4.52359,-53.5882,-1.7344e-14,6.16232e-15,-29.5705,28.2145,75.3749,31.5787,45.1565,-13.409,41.7706,7.12502,12.6989,71.3645,-28.0047,-6.16164,23.8081,67.8577,-22.7752,8.84416,7.80125,-25.163,12.6619,-21.352,63.4058,-26.9911,-7.6512,-13.0213
-0.654484,16.306,-1.4494,1.72081,1.76246,-0.648698,9.75558,-0.501916,-2.78075,0.928451,-0.87495,1.92859,-4.43309,-0.365295,3.69874,-25.0527,-1.71485,-9.76701,16.7277,-0.466589,7.16487,9.41519,-0.0115413,4.0469,-6.06293e-15,5.76476e-15,-33.7932,-26.2521,-68.4802,37.6641,-30.1776,-21.519,-23.3052,7.12502,4.87318,-53.2291,-6.06293e-15,5.76476e-15,-29.9494,28.5455,74.0918,32.164,44.1805,-12.3316,41.1321,7.12502,13.7374,70.6587,-27.1682,-6.58858,23.7711,66.6877,-22.0267,8.74509,9.59874,-24.4527,12.5496,-21.3298,62.3633,-26.5097,-7.40918,-12.8267
-0.647,16.4055,-1.42927,1.63093,1.77053,-0.663797,9.66548,-0.496907,-2.81747,0.769099,-0.868259,1.97568,-4.54879,-0.356123,3.76876,-24.9247,-1.69143,-9.76476,17.1704,-0.431584,7.0341,9.54576,-0.0196757,4.01472,-1.63997e-15,-1.90833e-14,-34.2246,-27.1623,-66.7203,37.8373,-29.9979,-21.2715,-23.0151,7.12502,5.11224,-52.9334,-1.63997e-15,-1.90833e-14,-30.24,28.6694,72.6996,32.8741,43.868,-12.1676,40.5695,7.12502,13.8954,70.0853,-26.4166,-7.00807,23.7098,65.4344,-21.2944,8.45811,9.73491,-23.7033,12.229,-21.3309,61.1311,-25.743,-7.23207,-12.8808
-0.638072,16.522,-1.41193,1.60764,1.78008,-0.719729,9.47769,-0.480568,-2.74843,0.670022,-0.833356,2.01589,-4.55077,-0.338371,3.7648,-24.8774,-1.68368,-9.77339,17.4556,-0.395969,6.88401,9.63502,-0.0272466,3.97419,-2.77305e-14,2.38542e-14,-34.4275,-27.9746,-64.9888,38.086,-29.9193,-21.6494,-23.1921,7.12502,4.74735,-53.1189,-2.77305e-14,2.38542e-14,-30.2836,28.5968,71.3592,33.7625,44.658,-13.3,40.6259,7.12502,12.804,70.2132,-25.8513,-7.34409,23.7005,64.1858,-20.3802,8.13781,9.28193,-22.968,11.8446,-21.2814,59.7687,-24.723,-7.01033,-13.8892
-0.630154,16.6545,-1.39458,1.58885,1.75392,-0.707172,9.23529,-0.448937,-2.76265,0.584312,-0.786879,2.03726,-4.50817,-0.314544,3.78563,-24.8047,-1.64793,-9.79248,17.7177,-0.328353,6.77278,9.70903,-0.0162169,3.95326,7.25564e-15,-6.36111e-15,-34.5901,-28.5144,-63.1949,38.3597,-29.8946,-22.2842,-23.3231,7.12502,4.13437,-53.2627,7.25564e-15,-6.36111e-15,-30.4023,28.5326,69.8309,34.6913,45.2669,-13.7722,40.3341,7.12502,12.3488,69.9494,-25.377,-7.54557,23.5908,63.012,-19.1301,7.69431,8.26597,-22.2016,11.3911,-21.2542,58.3117,-23.3568,-7.078,-14.709
-0.622348,16.7912,-1.37786,1.5847,1.69617,-0.661339,8.93968,-0.414576,-2.83203,0.471896,-0.741662,2.04906,-4.46293,-0.289957,3.82749,-24.629,-1.57386,-9.72699,17.9525,-0.238485,6.6221,9.75341,0.00537655,3.90557,-1.53561e-14,9.14409e-15,-34.801,-28.9669,-61.2711,38.6214,-29.711,-22.7239,-23.3401,7.12502,3.70977,-53.2876,-1.53561e-14,9.14409e-15,-30.6191,28.5343,68.0753,35.5771,45.4599,-13.8548,39.7797,7.12502,12.2691,69.3998,-24.9018,-7.61578,23.3979,61.8783,-17.5528,7.42674,7.27285,-21.4592,10.8684,-21.2361,56.869,-21.7127,-7.30126,-15.7866
-0.614817,16.9292,-1.36634,1.62279,1.59627,-0.629324,8.65902,-0.363663,-2.95137,0.329114,-0.67701,2.10928,-4.4584,-0.252821,3.94726,-24.5535,-1.51326,-9.69638,18.2647,-0.137379,6.43818,9.84225,0.0252381,3.85644,1.03865e-14,9.93923e-15,-35.0328,-29.2919,-59.2254,38.9713,-29.5633,-23.0583,-23.4401,7.12502,3.38676,-53.3929,1.03865e-14,9.93923e-15,-30.7755,28.5944,66.3046,36.3665,45.7979,-14.5644,39.5365,7.12502,11.5848,69.1963,-24.4987,-7.55645,23.1962,60.7307,-15.6959,7.21774,6.57882,-20.7993,10.3387,-21.1917,55.4965,-19.7536,-7.52397,-18.3479
-0.609838,17.0826,-1.35756,1.59892,1.46558,-0.691719,8.43683,-0.288016,-2.99015,0.251012,-0.57134,2.19152,-4.42369,-0.198345,4.04003,-24.7254,-1.47358,-9.6317,18.7006,-0.0455106,6.22133,10.0205,0.0391498,3.79457,-1.2921e-15,-2.62396e-14,-35.1944,-29.5931,-57.2092,39.4115,-29.4869,-23.6286,-23.3493,7.12502,2.83605,-53.3102,-1.2921e-15,-2.62396e-14,-30.7664,28.5123,64.5308,37.0719,46.3454,-15.5301,39.2949,7.12502,10.6535,69.0048,-24.0278,-7.3507,23.0736,59.4919,-13.4997,6.90442,5.92124,-20.2539,9.95827,-20.9752,54.2272,-17.5039,-7.97418,-20.0951
-0.604613,17.2469,-1.34908,1.50885,1.40465,-0.714697,8.24372,-0.252133,-2.97552,0.285608,-0.518725,2.17407,-4.28421,-0.176345,4.00344,-24.892,-1.48512,-9.58968,18.8146,-0.0674006,6.24279,10.0926,0.0344081,3.79725,-2.43511e-15,-1.59028e-15,-35.1694,-30.1327,-55.3366,39.7824,-29.0548,-24.2064,-23.1245,7.12502,2.27803,-53.0921,-2.43511e-15,-1.59028e-15,-30.6094,28.2359,62.6448,37.8514,46.9433,-16.047,39.4599,7.12502,10.1548,69.1948,-23.416,-7.13101,22.8343,58.1679,-10.754,6.66408,7.84594,-19.7542,9.62772,-20.7593,53.0007,-15.1099,-8.54088,-21.5079
-0.599709,17.4193,-1.33893,1.42948,1.39362,-0.706538,8.00814,-0.245473,-2.9783,0.355703,-0.505917,2.15283,-4.08016,-0.175676,3.97656,-25.2396,-1.47152,-9.50569,19.03,-0.0312457,6.17205,10.2284,0.0479431,3.77318,-6.70898e-16,6.36111e-15,-34.98,-30.8082,-53.4385,40.0572,-28.3507,-24.6136,-22.8664,7.12502,1.88475,-52.8378,-6.70898e-16,6.36111e-15,-30.3966,28.1474,60.6966,38.5699,47.1591,-16.2774,39.7635,7.12502,9.93253,69.5092,-22.8013,-6.96458,22.5206,56.7934,-7.84103,6.24373,9.73762,-19.2807,9.32717,-20.5305,51.7593,-12.2925,-9.44841,-22.2987
-0.596545,17.5981,-1.32312,1.31331,1.4057,-0.699215,7.83055,-0.274825,-3.02318,0.332428,-0.544248,2.17356,-4.00071,-0.195046,4.02547,-25.343,-1.37871,-9.51389,19.214,0.122373,6.11133,10.2996,0.107603,3.78232,-2.5842e-15,-7.95139e-16,-34.8006,-31.3222,-51.4756,40.2587,-27.6318,-24.9901,-22.5645,7.12502,1.52111,-52.5388,-2.5842e-15,-7.95139e-16,-30.3822,27.8976,58.6501,39.2393,47.5022,-16.7218,39.8801,7.12502,9.50375,69.6458,-22.1755,-6.77886,22.171,55.3715,-4.87245,5.48028,10.4603,-18.7343,9.05139,-20.2258,50.4456,-9.13426,-10.559,-22.2487
-0.593861,17.7736,-1.31023,1.26704,1.37908,-0.684016,7.62193,-0.306866,-3.07453,0.271409,-0.586035,2.19032,-3.94271,-0.215006,4.07405,-25.3034,-1.29286,-9.5237,19.2718,0.251817,6.06344,10.3021,0.15866,3.78745,6.5102e-15,4.77083e-15,-34.5957,-31.5949,-49.5404,40.5162,-27.0644,-25.4318,-22.4608,7.12502,1.09454,-52.4377,6.5102e-15,4.77083e-15,-30.3634,27.6875,56.4968,39.8381,47.7055,-17.0265,40.091,7.12502,9.20973,69.8698,-21.6688,-6.58066,21.8058,53.905,-1.8461,4.37211,10.9772,-18.2726,8.82,-19.8919,49.0737,-5.78951,-11.6675,-22.5184
-0.590432,17.9451,-1.29673,1.25481,1.26611,-0.648809,7.31327,-0.302457,-3.15338,0.246518,-0.579338,2.19924,-3.79516,-0.213072,4.12264,-25.2316,-1.24512,-9.51429,19.2627,0.331016,5.96835,10.2795,0.183214,3.76202,-2.26118e-15,9.54166e-15,-34.3188,-31.7356,-47.6358,40.8918,-26.6883,-25.864,-22.4024,7.12502,0.677143,-52.3811,-2.26118e-15,9.54166e-15,-30.1331,27.8033,54.2839,40.1759,47.5573,-16.26,40.1003,7.12502,9.94931,69.8452,-21.1869,-6.36708,21.4024,52.3659,1.17943,3.15252,11.8861,-17.8304,8.74806,-19.565,47.6157,-2.19556,-12.6232,-23.0647
-0.586316,18.1144,-1.27943,1.16022,1.20255,-0.742614,7.01887,-0.316689,-3.09082,0.272987,-0.58458,2.24477,-3.60201,-0.221158,4.13011,-25.3961,-1.20303,-9.46701,19.4776,0.422529,5.81889,10.3795,0.206683,3.72172,-1.52319e-14,2.50469e-14,-33.925,-32.0167,-45.7425,41.3071,-26.2911,-26.0093,-22.3877,7.12502,0.536758,-52.3668,-1.52319e-14,2.50469e-14,-29.7461,28.1641,52.0467,40.3332,47.2703,-15.72,40.0393,7.12502,10.4702,69.7586,-20.5833,-6.26593,21.1066,50.7528,4.17036,1.80477,12.7846,-17.264,8.66379,-19.0496,46.0525,1.52824,-13.3743,-24.0802
-0.580716,18.2809,-1.25972,1.01877,1.27297,-0.838877,6.74089,-0.386924,-2.94871,0.32736,-0.660798,2.25112,-3.3838,-0.267001,4.058,-25.6262,-1.14384,-9.31048,19.7111,0.513452,5.62916,10.4988,0.232996,3.65,-4.34841e-15,-9.93923e-15,-33.4279,-32.5843,-43.9169,41.7122,-25.7805,-26.032,-22.4912,7.12502,0.514834,-52.4703,-4.34841e-15,-9.93923e-15,-29.3738,28.3909,49.828,40.7511,47.142,-17.2883,40.3865,7.12502,8.95716,70.1764,-19.8965,-6.25963,20.7745,49.1171,6.98395,0.174516,14.2708,-16.6186,8.34844,-18.4773,44.3511,5.38755,-13.8481,-25.1212
-0.572068,18.4444,-1.23753,0.842657,1.46715,-0.797776,6.52211,-0.491915,-2.90576,0.31234,-0.793708,2.2286,-3.26527,-0.336306,4.01853,-25.488,-1.07525,-9.24437,19.772,0.612926,5.45608,10.4894,0.258935,3.59087,-1.2424e-15,-5.56597e-15,-33.002,-33.1588,-41.9754,42.1502,-25.3264,-26.1248,-22.6062,7.12502,0.425249,-52.5855,-1.2424e-15,-5.56597e-15,-29.1985,28.1386,47.5956,41.3897,47.1811,-18.9942,40.8646,7.12502,7.31079,70.7183,-19.1198,-6.35734,20.2574,47.5303,9.26668,-1.28627,14.6315,-15.9098,7.85341,-18.0338,42.5503,8.88329,-14.1525,-26.3144
-0.559372,18.5955,-1.21241,0.669233,1.75226,-0.695859,6.29669,-0.616356,-2.86632,0.236166,-0.953062,2.19626,-3.20442,-0.416602,3.97307,-25.3229,-1.03558,-9.36473,19.9872,0.696366,5.44858,10.5315,0.280416,3.62465,-1.57785e-14,2.14687e-14,-32.7049,-33.2794,-39.9058,42.7756,-25.2032,-26.2374,-22.5535,7.12502,0.316464,-52.533,-1.57785e-14,2.14687e-14,-29.0978,27.6673,45.3861,42.1264,47.1835,-19.6434,41.2247,7.12502,6.68409,71.0992,-18.301,-6.60895,19.6248,46.0707,10.9409,-2.06372,14.4292,-15.16,7.2011,-17.6502,40.7718,11.6181,-14.4269,-26.4615
-0.548658,18.7323,-1.18918,0.562181,2.00536,-0.628857,6.01906,-0.716415,-2.83825,0.141533,-1.07951,2.1722,-3.13625,-0.480185,3.93823,-25.2487,-1.0198,-9.41407,20.2736,0.735822,5.41217,10.6203,0.282435,3.63262,1.39149e-14,-7.95139e-16,-32.3485,-33.2982,-37.8801,43.4581,-25.0721,-26.3758,-22.4914,7.12502,0.182798,-52.4711,1.39149e-14,-7.95139e-16,-28.729,27.4656,43.1755,42.6167,46.927,-19.9766,41.4469,7.12502,6.3624,71.3313,-17.6078,-6.79773,19.071,44.7911,11.5971,-2.128,14.1863,-14.4754,6.50239,-17.2289,39.1533,13.2133,-15.0934,-25.3428
-0.538403,18.8583,-1.17175,0.522426,2.17224,-0.682155,5.78474,-0.789075,-2.7429,-0.0466185,-1.16358,2.21439,-3.19307,-0.519214,3.93275,-24.9897,-1.0107,-9.45471,20.4591,0.768071,5.28611,10.6405,0.271159,3.59958,-1.07095e-14,1.19271e-15,-31.8374,-33.3562,-35.8034,44.0235,-24.9527,-26.4656,-22.3423,7.12502,0.0960922,-52.322,-1.07095e-14,1.19271e-15,-28.2825,27.2165,40.9949,43.0617,46.7102,-20.1017,41.5573,7.12502,6.24163,71.4453,-17.0704,-6.8645,18.6801,43.7248,11.0079,-1.60523,11.9557,-13.9689,5.86268,-16.6812,37.8336,13.5214,-16.0011,-24.6084
-0.524208,18.9706,-1.15581,0.50935,2.32667,-0.843629,5.51632,-0.869904,-2.47021,-0.266593,-1.24567,2.2806,-3.26692,-0.559391,3.85114,-24.6761,-0.99874,-9.53618,20.6701,0.808855,5.17856,10.6591,0.261804,3.5814,-6.17475e-15,2.8625e-14,-31.2926,-33.3428,-33.6793,44.6377,-24.9985,-26.6459,-22.1264,7.12502,-0.0781024,-52.1061,-6.17475e-15,2.8625e-14,-27.9061,26.7697,38.8315,43.7195,46.6147,-20.1857,41.6386,7.12502,6.16051,71.529,-16.5596,-6.78433,18.408,42.8501,9.19908,-1.31788,8.2742,-13.5869,5.19418,-16.0454,36.8632,12.6429,-16.1844,-26.3786
-0.513361,19.0677,-1.1409,0.461836,2.43461,-0.898625,5.25223,-0.916771,-2.35628,-0.379643,-1.2948,2.33027,-3.23259,-0.584538,3.83755,-24.6969,-1.0152,-9.60774,20.9664,0.832596,5.10433,10.7711,0.249597,3.5781,-4.34841e-15,7.95139e-16,-30.575,-33.4819,-31.6227,45.3178,-24.9944,-26.9568,-21.8218,7.12502,-0.378391,-51.8012,-4.34841e-15,7.95139e-16,-27.2552,26.5916,36.7178,44.2699,46.3205,-20.1524,41.8017,7.12502,6.19266,71.6912,-15.9983,-6.50588,18.0127,42.151,6.63203,-1.80692,6.77256,-13.1719,4.41083,-15.5344,36.188,10.8245,-14.5304,-29.373
-0.504064,19.1579,-1.1281,0.460386,2.45322,-0.863679,4.93642,-0.925386,-2.3661,-0.432996,-1.30146,2.35513,-3.10883,-0.589184,3.86242,-24.8257,-1.01969,-9.63457,21.1875,0.866644,5.0384,10.8743,0.249217,3.57144,3.64024e-15,-2.38542e-15,-29.6524,-33.7702,-29.661,45.9303,-24.7124,-27.3604,-21.4471,7.12502,-0.768217,-51.4254,3.64024e-15,-2.38542e-15,-26.3106,26.6016,34.6602,44.6747,45.8933,-20.1238,41.7031,7.12502,6.22025,71.5918,-15.5285,-6.09708,17.5063,41.5767,3.87492,-2.57096,7.50407,-12.7867,3.6499,-15.1356,35.6945,8.80247,-11.3149,-29.6882
-0.495585,19.243,-1.1198,0.522091,2.45935,-0.806183,4.63115,-0.938786,-2.38528,-0.532253,-1.31564,2.3561,-3.03811,-0.595936,3.86931,-24.8539,-0.99867,-9.59159,21.3552,0.916286,4.9105,10.9392,0.254268,3.52987,-5.86415e-15,4.77083e-15,-28.6649,-33.934,-27.7426,46.48,-24.1868,-27.4015,-20.9265,7.12502,-0.807846,-50.9047,-5.86415e-15,4.77083e-15,-25.292,26.6545,32.5748,45.0482,45.4686,-19.9616,41.3407,7.12502,6.37685,71.2248,-15.1818,-5.63769,16.9725,41.0846,1.46944,-3.05823,8.25739,-12.4797,2.92539,-14.7436,35.2816,7.06127,-8.02383,-27.824
-0.486842,19.3185,-1.11545,0.458363,2.40511,-0.757843,4.55966,-0.922145,-2.39269,-0.653949,-1.29195,2.36301,-3.12544,-0.580524,3.87949,-24.9164,-1.03913,-9.65828,21.6513,0.899315,4.87956,11.0631,0.229032,3.53593,1.84373e-14,-4.37326e-15,-27.6963,-33.9227,-25.7866,47.0474,-23.5582,-27.4304,-20.4763,7.12502,-0.835747,-50.4544,1.84373e-14,-4.37326e-15,-24.3317,26.6222,30.513,45.5429,45.1579,-19.7525,41.1815,7.12502,6.57877,71.0593,-14.7405,-5.08092,16.4042,40.6182,-0.30658,-3.34767,8.77528,-12.0398,2.23433,-14.3037,34.8962,5.40886,-5.63382,-27.5955
-0.479257,19.3833,-1.11451,0.273757,2.29038,-0.688311,4.70126,-0.87232,-2.45346,-0.816638,-1.22999,2.36827,-3.3776,-0.54114,3.92151,-24.7281,-1.0873,-9.74938,21.8218,0.854614,4.84626,11.0967,0.190726,3.53381,-1.07592e-14,3.06128e-14,-26.7051,-33.9033,-23.8388,47.574,-22.8341,-27.6456,-19.8088,7.12502,-1.04363,-49.786,-1.07592e-14,3.06128e-14,-23.4353,26.3184,28.4597,46.1339,44.8892,-19.7646,41.0992,7.12502,6.5671,70.9774,-14.1959,-4.34271,15.7959,40.1875,-1.71212,-3.76095,8.32124,-11.4626,1.53547,-13.851,34.5074,4.01796,-3.92614,-27.8044
-0.470167,19.4389,-1.11513,0.116155,2.19925,-0.678262,4.76433,-0.829248,-2.40834,-0.930978,-1.17065,2.35092,-3.53791,-0.507827,3.87714,-24.6026,-1.07862,-9.67526,21.9345,0.862617,4.70709,11.117,0.178478,3.47255,-4.98515e-15,5.1684e-15,-25.629,-33.9853,-22.0041,48.0952,-21.9937,-27.7917,-19.1029,7.12502,-1.18477,-49.0793,-4.98515e-15,5.1684e-15,-22.3076,26.2063,26.45,46.5815,44.2312,-19.8406,40.6689,7.12502,6.49369,70.5493,-13.6643,-3.60886,15.2376,39.7794,-2.7597,-4.43525,6.94685,-10.8968,0.815199,-13.3218,34.1384,3.19379,-2.2813,-26.3648
-0.458889,19.4812,-1.11844,-0.0757973,2.14972,-0.575678,4.77947,-0.805464,-2.44329,-0.914289,-1.14279,2.3087,-3.53167,-0.494008,3.85092,-24.7405,-1.09298,-9.74241,22.1067,0.864731,4.77377,11.2062,0.178347,3.51556,1.56854e-15,1.59028e-15,-24.3004,-34.2245,-20.2882,48.4901,-21.0778,-28.0746,-18.338,7.12502,-1.45793,-48.3128,1.56854e-15,1.59028e-15,-20.986,26.3932,24.5502,47.0012,43.4165,-20.092,40.43,7.12502,6.25097,70.3178,-13.1055,-2.98573,14.5548,39.4124,-2.93527,-5.26898,5.70251,-10.3268,0.108992,-12.8986,33.8196,2.67396,-0.662688,-25.4698
-0.447112,19.5122,-1.1203,-0.314521,2.14452,-0.567939,4.82254,-0.800388,-2.43903,-0.896261,-1.13537,2.34079,-3.53739,-0.49021,3.8821,-24.8474,-1.12198,-9.79486,22.3232,0.86485,4.74091,11.3082,0.163747,3.51952,-5.12569e-15,1.19271e-14,-22.8549,-34.3124,-18.5802,48.8862,-20.2839,-28.6594,-17.7079,7.12502,-2.02272,-47.6781,-5.12569e-15,1.19271e-14,-19.7303,26.506,22.6733,47.4488,42.7027,-20.1625,40.0796,7.12502,6.18297,69.9693,-12.522,-2.3881,13.9827,39.0914,-2.54865,-6.11907,4.88855,-9.75342,-0.54864,-12.3571,33.5772,2.35836,0.691148,-25.2331
