JuanDHNZ/ProyectoFinalCD/preprocessing/sports_trials_csv/14_32.csv
root1,root2,root3,root4,root5,root6,lowerback1,lowerback2,lowerback3,upperback1,upperback2,upperback3,thorax1,thorax2,thorax3,lowerneck1,lowerneck2,lowerneck3,upperneck1,upperneck2,upperneck3,head1,head2,head3,rclavicle1,rclavicle2,rhumerus1,rhumerus2,rhumerus3,rradius1,rwrist1,rhand1,rhand2,rfingers1,rthumb1,rthumb2,lclavicle1,lclavicle2,lhumerus1,lhumerus2,lhumerus3,lradius1,lwrist1,lhand1,lhand2,lfingers1,lthumb1,lthumb2,rfemur1,rfemur2,rfemur3,rtibia1,rfoot1,rfoot2,rtoes1,lfemur1,lfemur2,lfemur3,ltibia1,lfoot1,lfoot2,ltoes1
-15.5748,17.7003,2.63351,4.55566,81.7591,2.10942,5.24955,-1.11342,-2.64932,0.997622,-1.54929,2.55555,-1.77296,-0.74564,4.23013,-14.0215,1.16278,-8.25117,38.0061,6.64362,-1.56096,15.6769,1.88365,2.05075,1.94809e-14,-6.36111e-15,-36.2198,-15.6446,-74.2106,33.502,24.4987,-21.9368,4.89388,7.12502,4.46975,-25.039,1.94809e-14,-6.36111e-15,-26.4671,10.0337,79.9737,25.7331,-11.1934,-12.8389,28.0581,7.12502,13.2485,57.617,-28.1381,-2.42106,17.2836,43.8513,-17.2009,-11.3867,7.20063,-8.63257,-0.386224,-22.5273,26.1234,-17.5844,-5.35021,-4.93132
-15.5081,17.6756,2.614,14.1398,81.6502,12.4441,5.66172,-0.891569,-4.09076,1.21339,-1.36165,2.00575,-1.77655,-0.651119,4.47016,-13.8936,1.09089,-8.17384,38.0237,6.48318,-1.48961,15.6579,1.84364,2.03969,1.51076e-14,1.59028e-14,-36.2677,-15.7992,-74.2811,33.5926,24.2359,-21.9921,5.00741,7.12502,4.41644,-24.9265,1.51076e-14,1.59028e-14,-26.3905,9.86236,79.8959,25.3913,-11.2113,-12.8164,28.1693,7.12502,13.2702,57.7269,-28.1398,-2.35365,15.8188,44.3225,-17.9038,-10.4061,14.6066,-7.06325,-0.29246,-24.4258,24.872,-17.2515,-4.90019,-5.95638
-15.4517,17.6659,2.59794,16.0183,81.9348,14.4011,5.65407,-0.857963,-4.34111,1.25457,-1.33331,1.90685,-1.72912,-0.638223,4.50636,-13.9277,1.06935,-8.20063,38.186,6.4548,-1.37254,15.7413,1.84073,2.09593,1.98785e-15,-2.38542e-15,-36.2345,-15.7592,-74.318,33.65,24.0984,-22.0054,5.27525,7.12502,4.40357,-24.659,1.98785e-15,-2.38542e-15,-26.3939,9.72237,79.9036,25.1475,-11.1643,-13.0484,28.4282,7.12502,13.0465,58.0002,-28.4773,-2.15327,15.837,44.0727,-16.9529,-10.7802,7.97088,-6.72175,-0.218196,-24.7697,24.6531,-17.2572,-5.02203,-6.30059
-15.3953,17.667,2.58303,14.6289,82.4273,12.9113,5.55598,-0.951701,-4.11277,1.22926,-1.43884,2.0149,-1.69197,-0.692111,4.49425,-13.9762,1.09358,-8.29972,38.3756,6.54672,-1.30845,15.8405,1.86915,2.16324,-5.01434e-14,2.62396e-14,-36.1209,-15.5564,-74.3169,33.6245,24.2239,-21.9845,5.53726,7.12502,4.42377,-24.3965,-5.01434e-14,2.62396e-14,-26.5094,9.96874,79.8948,24.9722,-11.1929,-13.3068,28.7746,7.12502,12.7974,58.3624,-28.9358,-2.00034,16.4251,43.7729,-17.4705,-10.2726,16.5724,-6.51676,-0.196553,-24.477,24.3935,-17.2224,-5.47567,-6.08463
-15.3411,17.6708,2.57024,10.8854,83.0734,9.03116,5.50816,-1.0439,-3.56993,1.17768,-1.52487,2.16378,-1.71991,-0.734882,4.34659,-13.9374,1.05727,-8.30925,38.4758,6.51618,-1.30081,15.884,1.85666,2.1661,-4.42296e-14,5.56597e-15,-36.0633,-15.2849,-74.3892,33.6819,24.0261,-21.7656,5.70665,7.12502,4.63515,-24.2226,-4.42296e-14,5.56597e-15,-26.6044,10.2203,79.8763,24.7982,-11.1366,-13.8034,29.2634,7.12502,12.3187,58.8805,-29.3171,-1.85548,17.3038,43.2309,-17.9962,-10.0173,22.3935,-6.51353,-0.496695,-23.8465,24.4454,-17.2668,-5.83269,-5.10587
-15.2874,17.6698,2.54592,10.3879,83.6155,8.4754,5.5251,-1.0727,-3.27483,1.15452,-1.54729,2.12952,-1.76016,-0.745858,4.14599,-13.9641,0.953826,-8.30176,38.5712,6.40034,-1.3318,15.9482,1.8037,2.13718,1.07841e-14,9.54166e-15,-36.0335,-15.1611,-74.4326,33.7822,23.7618,-21.6266,5.73994,7.12502,4.76935,-24.1864,1.07841e-14,9.54166e-15,-26.6673,10.2953,79.9262,24.6923,-11.0883,-14.1058,29.5369,7.12502,12.0271,59.1713,-29.6839,-1.85116,17.6393,42.6388,-17.6887,-9.99197,23.4958,-6.45315,-1.14731,-23.7722,24.4996,-17.1708,-5.96505,-3.26218
-15.2305,17.6669,2.52311,12.9377,83.9526,10.9972,5.50324,-1.08722,-3.37823,1.13239,-1.57601,2.01077,-1.76859,-0.759886,4.08266,-14.0526,0.879232,-8.20513,38.8171,6.36984,-1.44589,16.1108,1.78155,2.07742,8.79622e-15,-1.35174e-14,-35.973,-14.9813,-74.4744,33.8072,23.7447,-21.6498,5.79752,7.12502,4.74688,-24.1293,8.79622e-15,-1.35174e-14,-26.8247,10.4112,79.9469,24.6618,-11.0061,-14.297,29.5466,7.12502,11.8427,59.1917,-30.0653,-1.87978,17.6346,42.0564,-16.406,-10.2141,20.5064,-6.31978,-1.52282,-24.1049,24.5053,-17.2183,-5.98264,-2.82031
-15.1705,17.664,2.50846,14.9754,84.2184,12.9885,5.4459,-1.09669,-3.55239,1.10411,-1.59973,1.94746,-1.7604,-0.771282,4.11584,-14.0896,0.857863,-8.08071,39.0543,6.41053,-1.56989,16.2557,1.79432,2.01841,1.98785e-15,-1.11319e-14,-35.8908,-14.7788,-74.4987,33.7623,23.8736,-21.8289,5.96858,7.12502,4.57398,-23.962,1.98785e-15,-1.11319e-14,-27.0053,10.8796,79.9083,24.5536,-11.325,-14.4697,29.7102,7.12502,11.6762,59.3649,-30.4648,-1.83596,17.723,41.4801,-15.3877,-10.2789,18.9122,-6.1452,-1.5909,-24.3288,24.4217,-17.3176,-6.14562,-2.66202
-15.1089,17.6585,2.49338,16.3777,84.5051,14.353,5.37058,-1.12027,-3.65731,1.12049,-1.63467,1.95289,-1.69481,-0.79019,4.18066,-14.1205,0.856192,-8.1414,39.1497,6.47621,-1.60779,16.314,1.80643,2.02806,9.93923e-15,5.96354e-15,-35.7154,-14.4977,-74.4844,33.7426,23.9109,-21.995,6.26401,7.12502,4.41357,-23.67,9.93923e-15,5.96354e-15,-27.072,11.6516,79.8791,24.3028,-11.8605,-14.4639,29.694,7.12502,11.6818,59.3483,-30.8396,-1.78216,17.8718,40.8841,-14.9632,-10.2056,20.0329,-5.91423,-1.55878,-24.4502,24.2438,-17.4165,-6.41393,-2.29164
-15.0457,17.6514,2.47815,17.5398,84.8356,15.5257,5.32771,-1.11252,-3.65957,1.15358,-1.62326,1.92549,-1.63858,-0.786333,4.15092,-14.0008,0.826204,-8.17001,39.0976,6.42146,-1.59277,16.2577,1.78986,2.02655,8.99501e-15,1.07344e-14,-35.5912,-14.3088,-74.4647,33.7504,23.8204,-21.8849,6.46228,7.12502,4.5199,-23.4695,8.99501e-15,1.07344e-14,-27.1097,12.0161,79.9256,24.125,-12.0935,-14.4039,29.4782,7.12502,11.7396,59.1292,-31.124,-1.81442,18.0647,40.2129,-14.1617,-10.2227,19.143,-5.60699,-1.6635,-24.5418,24.0506,-17.4902,-6.55795,-2.05815
-14.9802,17.6493,2.46661,17.7545,85.1513,15.8091,5.37231,-1.07169,-3.61046,1.16625,-1.56724,1.91295,-1.65768,-0.758101,4.10766,-13.8863,0.763458,-8.18056,39.0767,6.30688,-1.55388,16.2203,1.75319,2.02341,1.29707e-14,-1.35174e-14,-35.5898,-14.2834,-74.3884,33.8048,23.8239,-21.5635,6.66261,7.12502,4.83029,-23.2623,1.29707e-14,-1.35174e-14,-27.2813,11.8539,80.154,24.1366,-11.8708,-14.6279,29.5918,7.12502,11.5237,59.2551,-31.3373,-1.82833,18.3329,39.5122,-13.3639,-10.2101,17.7132,-5.18987,-1.73587,-24.5472,23.8091,-17.5613,-6.61808,-2.32162
-14.912,17.6545,2.45585,18.3752,85.4455,16.4053,5.31325,-1.06711,-3.607,1.15962,-1.55933,1.91611,-1.6323,-0.754729,4.10701,-13.9583,0.721673,-8.20696,39.1725,6.29117,-1.56626,16.2907,1.73822,2.02541,1.01877e-14,-1.59028e-14,-35.5859,-14.2078,-74.3749,33.9267,23.9229,-21.7114,6.47735,7.12502,4.6874,-23.4508,1.01877e-14,-1.59028e-14,-27.4289,11.9527,80.3025,24.0246,-11.7131,-14.6382,29.3666,7.12502,11.5137,59.0304,-31.6369,-1.79,18.5659,38.8165,-12.8816,-10.3358,17.3292,-4.80729,-1.74558,-24.5374,23.453,-17.5662,-6.93138,-2.47047
-14.8431,17.658,2.44639,23.485,85.614,21.377,5.12252,-1.10673,-3.99694,1.1299,-1.6304,1.8538,-1.54003,-0.791541,4.26244,-14.2803,0.659639,-8.08726,39.4969,6.36339,-1.8083,16.5637,1.73376,1.92957,-2.8625e-14,1.03368e-14,-35.4672,-13.9381,-74.4558,33.9918,24.0382,-22.0355,5.92227,7.12502,4.37447,-24.0126,-2.8625e-14,1.03368e-14,-27.6382,12.2957,80.3525,23.9977,-11.6677,-14.3843,29.1063,7.12502,11.7585,58.7563,-32.0925,-1.87484,18.4567,38.1182,-12.2177,-10.5597,17.0302,-4.54452,-1.81074,-24.8958,23.0456,-17.5279,-7.2842,-2.25756
-14.7746,17.6541,2.43622,28.5016,85.6997,26.3103,4.97604,-1.12077,-4.34306,1.12614,-1.66494,1.7589,-1.45111,-0.810638,4.35757,-14.7247,0.541409,-7.7277,39.9971,6.40714,-2.25475,16.9915,1.7157,1.70253,9.79014e-15,-1.11319e-14,-35.2496,-13.3555,-74.6223,33.8943,23.6774,-22.1123,5.53807,7.12502,4.30034,-24.3983,9.79014e-15,-1.11319e-14,-27.8964,12.0459,80.5973,24.2601,-11.0574,-14.2516,29.4279,7.12502,11.8865,59.0705,-32.4719,-1.86799,18.3204,37.3576,-11.5594,-10.7325,17.1348,-4.25212,-1.83688,-25.3022,22.6969,-17.5232,-7.35657,-1.70261
-14.6988,17.6474,2.41864,27.6915,85.8943,25.5588,4.93234,-1.10792,-4.13287,1.15816,-1.63414,1.772,-1.40269,-0.797415,4.24872,-14.8315,0.501343,-7.59828,40.1767,6.44217,-2.44631,17.1366,1.71685,1.60852,-1.23743e-14,9.54166e-15,-35.0722,-12.5305,-74.7707,33.7475,23.0232,-22.0335,5.5077,7.12502,4.37643,-24.4271,-1.23743e-14,9.54166e-15,-28.171,11.2277,81.0801,24.585,-9.90637,-14.3307,29.9359,7.12502,11.8103,59.5829,-32.6103,-1.91893,18.6716,36.5278,-10.9475,-10.7672,16.8753,-3.75352,-2.04179,-25.2961,22.3891,-17.5943,-7.12247,-1.4077
-14.6195,17.6406,2.39903,25.5449,86.158,23.4167,4.81624,-1.0763,-3.76225,1.17926,-1.56791,1.80852,-1.33229,-0.767001,4.06985,-14.7246,0.468722,-7.73161,40.0917,6.3598,-2.31791,17.0518,1.68897,1.67057,-7.45443e-15,1.66979e-14,-35.0432,-12.1866,-74.776,33.7436,22.7004,-21.9792,5.65043,7.12502,4.42888,-24.2833,-7.45443e-15,1.66979e-14,-28.3372,10.7818,81.501,24.6587,-9.23698,-14.5258,30.0928,7.12502,11.622,59.7505,-32.7364,-2.06934,19.1515,35.6477,-10.2787,-10.8006,16.6258,-3.29816,-2.43487,-25.1755,22.0756,-17.657,-6.82051,-1.56355
-14.5478,17.6355,2.38204,27.1512,86.4376,24.9264,4.71818,-1.05481,-3.6178,1.13799,-1.53098,1.76479,-1.32889,-0.748547,3.93888,-14.5896,0.402929,-7.68319,40.0075,6.21061,-2.30251,16.9746,1.64625,1.63826,3.40419e-14,-2.3059e-14,-35.0941,-12.4302,-74.65,33.7636,22.7939,-21.9909,5.78292,7.12502,4.41752,-24.151,3.40419e-14,-2.3059e-14,-28.4695,11.0037,81.6516,24.4898,-9.3788,-14.4307,29.7903,7.12502,11.7138,59.4428,-32.977,-2.30368,19.4018,34.7091,-9.41536,-11.0013,15.8058,-3.0353,-2.5136,-25.2149,21.8185,-17.6991,-6.96052,-1.68225
-14.4788,17.6353,2.36712,31.8561,86.6237,29.4873,4.60172,-1.0604,-3.67697,1.0901,-1.541,1.67058,-1.31326,-0.753601,3.87287,-14.424,0.408056,-7.55294,39.8503,6.16706,-2.38139,16.8544,1.64888,1.56633,-2.38045e-14,1.63003e-14,-35.0719,-12.5835,-74.5848,33.8166,22.8241,-22.1363,5.58325,7.12502,4.2772,-24.3535,-2.38045e-14,1.63003e-14,-28.5704,11.6957,81.6322,24.159,-9.99565,-14.1481,29.4714,7.12502,11.9863,59.1082,-33.3061,-2.53624,19.4671,33.7727,-8.50805,-11.417,14.0685,-2.83057,-2.38474,-25.4071,21.5465,-17.6656,-7.41669,-1.27874
-14.4077,17.6346,2.35629,34.8591,86.8066,32.3205,4.4286,-1.11631,-3.72746,1.05976,-1.61308,1.68333,-1.23915,-0.791127,3.91417,-14.3791,0.483138,-7.56506,39.7678,6.28856,-2.41994,16.7967,1.69726,1.57034,2.33572e-15,4.77083e-15,-34.8913,-12.3243,-74.5595,33.8438,22.6145,-22.3057,5.44434,7.12502,4.11358,-24.4957,2.33572e-15,4.77083e-15,-28.7104,12.2925,81.7454,23.9211,-10.4562,-13.9402,29.1811,7.12502,12.1867,58.8061,-33.6051,-2.66508,19.6343,32.8598,-8.00377,-11.7391,14.2299,-2.58546,-2.37105,-25.4644,21.185,-17.604,-7.78851,-0.859198
-14.3355,17.6281,2.34524,37.6629,86.9969,35.0024,4.33362,-1.16814,-3.80664,1.02481,-1.68188,1.76765,-1.21054,-0.825622,4.0477,-14.3281,0.515745,-7.64723,39.665,6.38076,-2.49958,16.73,1.71861,1.56275,2.48481e-16,1.39149e-14,-34.7381,-11.9357,-74.4602,33.851,22.4766,-22.4482,5.36333,7.12502,3.97597,-24.5793,2.48481e-16,1.39149e-14,-28.9085,12.2271,82.1809,23.8917,-10.2281,-13.9483,28.9338,7.12502,12.179,58.5593,-33.8475,-2.93648,19.8611,31.932,-7.34335,-11.8672,14.5741,-2.26394,-2.39355,-25.5115,20.7714,-17.5901,-7.94501,-1.11424
-14.2621,17.6217,2.33136,41.7697,87.1557,39.0609,4.35054,-1.18487,-3.86927,0.97872,-1.7082,1.78109,-1.26261,-0.836764,4.0996,-14.2061,0.524223,-7.66397,39.54,6.36821,-2.50307,16.6314,1.72004,1.55703,2.57923e-14,-1.70955e-14,-34.7206,-11.8059,-74.3544,33.8971,22.4156,-22.3989,5.33726,7.12502,4.02361,-24.6045,2.57923e-14,-1.70955e-14,-29.1139,11.7997,82.6456,23.888,-9.7322,-13.8103,28.909,7.12502,12.312,58.5265,-34.0284,-3.28984,20.0792,30.9469,-6.36033,-12.1503,13.2605,-1.89747,-2.34069,-25.6321,20.4133,-17.6784,-8.08984,-1.53828
-14.1852,17.6185,2.32092,44.3532,87.2917,41.6832,4.39731,-1.17402,-3.88151,0.987582,-1.69512,1.80076,-1.27995,-0.829767,4.12749,-14.1477,0.521483,-7.76787,39.4654,6.35191,-2.43205,16.5698,1.71342,1.60091,2.26615e-14,-1.70955e-14,-34.6578,-11.829,-74.2241,33.9459,22.3066,-22.0691,5.30293,7.12502,4.34207,-24.6326,2.26615e-14,-1.70955e-14,-29.2895,11.3865,83.0814,23.8814,-9.33877,-13.5693,28.7398,7.12502,12.5444,58.3432,-34.0329,-3.36524,20.294,29.9353,-5.74168,-12.6516,12.2832,-1.40203,-2.51195,-25.7019,20.0672,-17.7873,-8.04599,-1.23508
-14.1032,17.6134,2.31832,44.0936,87.5139,41.468,4.39442,-1.10375,-3.78475,1.00178,-1.59574,1.83657,-1.2753,-0.780437,4.10479,-14.0305,0.461674,-7.79758,39.4013,6.23015,-2.38006,16.5053,1.67376,1.60454,1.66979e-14,-2.38542e-15,-34.6701,-11.9994,-74.0779,33.9654,22.1354,-21.9577,5.24698,7.12502,4.4496,-24.6863,1.66979e-14,-2.38542e-15,-29.4478,10.8969,83.4779,23.8295,-9.21915,-13.4228,28.5944,7.12502,12.6856,58.1891,-33.9577,-3.49668,20.7322,28.9104,-5.24913,-12.9987,11.8465,-0.855614,-2.75446,-25.5826,19.6951,-17.8441,-7.89973,-1.10928
-14.0205,17.6076,2.31225,45.5555,87.7249,42.8666,4.25989,-0.960906,-3.54749,0.988855,-1.39408,1.68096,-1.24322,-0.681117,3.79625,-13.8275,0.346624,-7.46383,39.366,5.87337,-2.26476,16.4415,1.60031,1.53128,3.72721e-15,-5.56597e-15,-34.8334,-12.4868,-74.0374,34.0127,21.939,-22.1484,5.21325,7.12502,4.26542,-24.7238,3.72721e-15,-5.56597e-15,-29.5415,10.1257,83.7452,23.7244,-9.42829,-13.0536,28.6192,7.12502,13.0415,58.1915,-33.9981,-3.76678,21.1237,27.8983,-4.70029,-13.1735,12.204,-0.444382,-2.71575,-25.5029,19.3051,-17.864,-8.03998,-1.50062
-13.9408,17.6061,2.30184,50.0378,87.9235,47.2524,4.10606,-0.881963,-3.34899,0.999659,-1.27843,1.54096,-1.16452,-0.625883,3.53007,-13.7197,0.256126,-7.19251,39.3194,5.5918,-2.17576,16.394,1.54115,1.47185,-2.19657e-14,-5.96354e-15,-34.8696,-12.8242,-74.0087,34.0638,21.7741,-22.3095,5.08792,7.12502,4.10987,-24.8522,-2.19657e-14,-5.96354e-15,-29.5779,9.55411,84.0417,23.6213,-9.6431,-12.6193,28.4793,7.12502,13.4602,58.0244,-34.116,-3.98448,21.377,26.958,-4.24338,-13.5405,12.243,-0.0833605,-2.53813,-25.489,18.8711,-17.8391,-8.42811,-1.57617
-13.8602,17.6041,2.29628,55.1677,88.0335,52.3667,4.09087,-0.927028,-3.44181,1.00759,-1.34118,1.57679,-1.13936,-0.657696,3.62202,-13.6782,0.281801,-7.1309,39.255,5.63862,-2.27159,16.3552,1.56037,1.42541,1.35174e-14,8.74653e-15,-34.7384,-12.8508,-73.9004,34.0259,21.7959,-22.1935,5.11459,7.12502,4.2219,-24.8233,1.35174e-14,8.74653e-15,-29.6618,9.56631,84.3458,23.4574,-9.82381,-12.3316,28.1298,7.12502,13.7374,57.6564,-34.1916,-4.37692,21.6719,26.0964,-3.60212,-13.7355,10.5711,0.421724,-2.59008,-25.5611,18.37,-17.7947,-8.54211,-1.42526
-13.7772,17.5966,2.2892,60.3248,88.0791,57.5474,4.1689,-0.95075,-3.518,0.971499,-1.37874,1.58999,-1.21465,-0.674189,3.68274,-13.5626,0.296663,-7.1618,39.189,5.64405,-2.25193,16.2895,1.56739,1.43706,-5.91384e-15,1.59028e-15,-34.7025,-12.8824,-73.7934,33.9672,21.7311,-22.1092,5.03581,7.12502,4.30331,-24.9005,-5.91384e-15,1.59028e-15,-29.8494,9.36413,84.6768,23.36,-9.78799,-12.1629,27.9567,7.12502,13.9,57.4722,-34.2372,-4.82794,21.9605,25.3022,-3.05786,-13.81,7.70961,0.999992,-2.59334,-25.6956,17.8457,-17.7795,-8.53148,-2.23196
-13.694,17.5876,2.27765,64.616,88.1962,61.8689,4.25282,-0.977678,-3.4355,0.949966,-1.41285,1.629,-1.28176,-0.68948,3.68047,-13.4836,0.278061,-7.27578,39.131,5.61055,-2.19021,16.2348,1.55002,1.47562,-4.47266e-15,9.93923e-15,-34.6576,-12.7418,-73.7091,33.9619,21.62,-22.2755,4.69467,7.12502,4.14269,-25.2448,-4.47266e-15,9.93923e-15,-30.0191,9.31408,85.0208,23.2458,-9.97423,-12.0805,27.9542,7.12502,13.9794,57.4642,-34.2315,-5.03991,22.2067,24.5702,-2.84627,-14.0761,5.37166,1.59203,-2.58709,-25.7625,17.3017,-17.8331,-8.35399,-4.16517
-13.6131,17.5781,2.27068,70.8673,88.2538,68.1455,4.35507,-1.01669,-3.45189,0.945613,-1.46777,1.65851,-1.33732,-0.715417,3.72553,-13.4791,0.276113,-7.34436,39.1385,5.6147,-2.14688,16.234,1.54846,1.50742,6.95746e-16,-1.19271e-15,-34.6372,-12.7223,-73.6216,34.0987,21.4857,-22.1196,4.63818,7.12502,4.29329,-25.2983,6.95746e-16,-1.19271e-15,-30.1345,9.43226,85.2963,23.0911,-10.4419,-11.8667,27.7281,7.12502,14.1855,57.2238,-34.2211,-5.14981,22.3233,23.9159,-2.78091,-14.4105,4.18365,2.17344,-2.66125,-25.8534,16.7566,-17.7579,-8.23327,-5.54156
-13.5318,17.5712,2.26891,75.0736,88.2333,72.4401,4.54852,-0.995498,-3.55036,0.947462,-1.4495,1.6603,-1.44267,-0.703427,3.78683,-13.4162,0.267408,-7.31402,39.1364,5.57335,-2.10984,16.2164,1.54403,1.51032,-1.70458e-14,7.55382e-15,-34.66,-12.9405,-73.5012,34.2792,21.2953,-21.4187,4.81046,7.12502,4.97008,-25.1113,-1.70458e-14,7.55382e-15,-30.2385,9.1784,85.6179,22.9699,-10.5921,-11.6715,27.5665,7.12502,14.3735,57.0489,-34.1148,-5.15494,22.421,23.29,-2.82367,-14.8628,4.15109,2.80269,-2.73043,-25.9536,16.2879,-17.6634,-8.23728,-5.83454
-13.4535,17.5628,2.26032,77.9577,88.0679,75.2137,4.57575,-0.984766,-3.74077,0.903349,-1.44626,1.65983,-1.4988,-0.699369,3.89514,-13.3807,0.274301,-7.23175,39.0906,5.59842,-2.22975,16.1917,1.55338,1.44683,-9.93923e-15,-9.93923e-15,-34.5716,-12.8579,-73.4211,34.3349,21.0851,-21.1718,4.87895,7.12502,5.20847,-25.037,-9.93923e-15,-9.93923e-15,-30.2984,8.87342,86.0322,22.8837,-10.3859,-11.4063,27.4631,7.12502,14.629,56.9271,-34.2709,-5.36758,22.5095,22.6795,-2.60174,-15.2427,3.7942,3.18351,-2.852,-26.2299,15.8553,-17.542,-8.10825,-5.82512
-13.3722,17.5553,2.25162,82.3917,88.0258,79.3982,4.42371,-1.01972,-3.7883,0.839511,-1.49111,1.68844,-1.47329,-0.721546,3.95124,-13.4537,0.258653,-7.25602,39.1454,5.61302,-2.25932,16.2403,1.5489,1.44346,-1.41137e-14,7.15625e-15,-34.4624,-12.6016,-73.3949,34.315,20.9418,-21.4936,4.79656,7.12502,4.89775,-25.1268,-1.41137e-14,7.15625e-15,-30.3646,8.7227,86.3661,22.8329,-10.401,-10.8351,27.0357,7.12502,15.1793,56.459,-34.5305,-5.7038,22.7372,22.0657,-2.33476,-15.6332,2.93871,3.41208,-2.9202,-26.3404,15.4143,-17.3786,-8.24311,-5.22343
-13.2804,17.5518,2.25431,85.8417,88.2149,82.8847,4.41145,-1.02197,-3.68285,0.892854,-1.48631,1.7441,-1.41315,-0.721395,3.94795,-13.5291,0.189417,-7.24383,39.2318,5.49496,-2.18805,16.3036,1.50663,1.45556,8.39865e-15,-7.55382e-15,-34.411,-12.6108,-73.4019,34.3049,20.992,-21.7537,4.8032,7.12502,4.64663,-25.1258,8.39865e-15,-7.55382e-15,-30.4082,8.58505,86.584,22.7639,-10.6471,-10.1658,26.8365,7.12502,15.824,56.2098,-34.3944,-5.59634,23.0566,21.5142,-2.33773,-16.4626,1.48536,3.99415,-2.74584,-26.1389,14.9664,-17.3642,-8.44236,-5.36067
-13.1887,17.5488,2.2551,87.1179,88.5527,84.3131,4.54686,-1.00358,-3.40062,0.97157,-1.44825,1.83366,-1.41623,-0.703499,3.88148,-13.5807,0.139515,-7.11819,39.3028,5.38509,-2.16681,16.3571,1.47889,1.4266,2.93207e-14,-5.56597e-15,-34.3813,-12.6659,-73.4454,34.3504,20.9421,-21.7525,4.75991,7.12502,4.64773,-25.1691,2.93207e-14,-5.56597e-15,-30.4422,8.53481,86.7549,22.6708,-10.9369,-9.33106,26.781,7.12502,16.6277,56.0887,-34.1748,-5.45191,23.5443,21.1176,-2.47978,-17.4128,0.775333,4.76117,-2.53311,-25.7924,14.4448,-17.3333,-8.47954,-5.85517
-13.1035,17.5499,2.24754,90.9058,88.5895,87.9223,4.46197,-1.01833,-3.32955,0.932529,-1.46154,1.89339,-1.408,-0.709966,3.90243,-13.5692,0.129149,-7.18816,39.2935,5.35997,-2.09712,16.3447,1.46864,1.46466,-2.41026e-14,2.14687e-14,-34.3502,-12.5282,-73.4186,34.4938,20.7277,-21.7405,4.59195,7.12502,4.65937,-25.3368,-2.41026e-14,2.14687e-14,-30.4298,8.84416,86.9673,22.5217,-11.3921,-9.3548,27.0645,7.12502,16.6049,56.3741,-34.4023,-5.87555,23.9382,20.834,-2.17121,-17.9222,0.026774,5.18006,-2.47307,-25.791,13.855,-17.0916,-8.54894,-5.12176
-13.0195,17.5434,2.23593,92.8826,88.0244,89.4387,4.13655,-1.0346,-3.78675,0.819271,-1.5001,1.78778,-1.32992,-0.72923,4.04694,-13.5861,0.138304,-7.33232,39.2817,5.38606,-2.01524,16.3351,1.46951,1.53012,-1.963e-14,-9.93923e-15,-34.2333,-12.3784,-73.3664,34.5629,20.6429,-21.7729,4.58641,7.12502,4.62806,-25.343,-1.963e-14,-9.93923e-15,-30.3778,8.85094,87.3247,22.44,-11.2634,-10.2307,27.5862,7.12502,15.7615,56.9644,-35.0224,-6.44345,23.7825,20.6768,-1.572,-18.2636,-2.45961,5.27809,-2.34084,-26.4368,13.2563,-16.7538,-8.68637,-3.86623
-12.9273,17.5307,2.23547,94.8728,87.7921,91.2439,4.0213,-1.04398,-4.01047,0.777562,-1.52113,1.71757,-1.30233,-0.739567,4.0993,-13.5627,0.116874,-7.25903,39.2842,5.31685,-1.99199,16.3317,1.45504,1.51522,-1.39149e-15,7.95139e-15,-34.1642,-12.5457,-73.3497,34.5174,20.6943,-21.6282,4.83059,7.12502,4.76774,-25.0958,-1.39149e-15,7.95139e-15,-30.4265,8.36715,87.6378,22.4507,-10.8427,-10.6738,27.6608,7.12502,15.3347,57.0722,-35.3106,-6.71553,23.8745,20.688,-1.46769,-19.0338,-4.10781,5.71347,-2.07341,-26.6802,12.6305,-16.5245,-8.82503,-3.16664
-12.8314,17.521,2.24047,98.8618,87.8691,95.29,4.12648,-1.08517,-3.99905,0.80016,-1.57766,1.7601,-1.3313,-0.767213,4.14196,-13.5587,0.0948408,-7.15106,39.324,5.25722,-2.00075,16.3552,1.44385,1.48309,-2.2413e-14,2.50469e-14,-34.1117,-12.7297,-73.3527,34.4682,20.8182,-21.4771,4.9594,7.12502,4.91367,-24.9636,-2.2413e-14,2.50469e-14,-30.514,8.02507,87.8781,22.4565,-10.6635,-10.7311,27.7336,7.12502,15.2796,57.1492,-35.2699,-7.09038,24.3341,20.7414,-1.5273,-19.7853,-5.04691,6.4151,-1.89924,-26.5879,12.065,-16.4362,-8.72086,-3.47223
-12.742,17.5064,2.23518,100.139,87.6838,96.351,4.05237,-1.09658,-4.17482,0.757725,-1.59885,1.76816,-1.32627,-0.77688,4.24949,-13.6638,0.0356809,-7.12152,39.4186,5.201,-2.04495,16.4371,1.4135,1.45297,3.27995e-15,7.15625e-15,-34.0042,-12.8155,-73.3337,34.4571,20.909,-21.6519,4.86823,7.12502,4.74488,-25.0586,3.27995e-15,7.15625e-15,-30.525,8.04879,88.1392,22.4449,-10.7804,-10.7012,27.8938,7.12502,15.3083,57.3072,-35.4936,-7.60035,24.6149,20.6333,-1.1215,-20.2949,-6.46517,6.66905,-1.65823,-26.8284,11.794,-16.4642,-8.48452,-4.41092
-12.6518,17.4889,2.22876,101.281,87.5435,97.1913,3.9175,-1.1196,-4.28026,0.65939,-1.63078,1.79484,-1.34506,-0.790612,4.33635,-13.7041,-0.0185151,-7.14467,39.5069,5.16557,-2.08995,16.4989,1.3867,1.43402,-7.85199e-15,-9.54166e-15,-34.0083,-12.982,-73.2625,34.5013,21.1202,-21.7315,4.97032,7.12502,4.66801,-24.9583,-7.85199e-15,-9.54166e-15,-30.5589,8.02519,88.4382,22.36,-10.855,-10.8326,28.0146,7.12502,15.1818,57.4376,-35.7243,-7.83817,24.8119,20.5019,-2.32393,-21.418,-1.49982,6.78063,-1.38453,-27.0303,11.6183,-16.5546,-8.30131,-5.76686
-12.5553,17.4782,2.22258,104.202,87.6692,99.8941,3.80583,-1.19456,-4.0708,0.579369,-1.71758,1.87697,-1.3595,-0.83303,4.30521,-13.5505,0.0830096,-7.27058,39.3363,5.22189,-1.87424,16.3515,1.42855,1.55321,1.71949e-14,-1.98785e-14,-34.0343,-12.9528,-73.2692,34.5661,21.1808,-21.6564,5.10973,7.12502,4.74052,-24.8172,1.71949e-14,-1.98785e-14,-30.6608,7.69112,88.8234,22.3705,-10.63,-11.4747,28.5252,7.12502,14.5631,57.994,-35.8184,-8.02051,25.2429,20.4817,-5.32375,-22.6347,9.6333,7.02936,-1.24445,-26.8869,11.3747,-16.3729,-8.48696,-4.79934
-12.4562,17.4755,2.21826,105.529,87.5845,101.072,3.71842,-1.18568,-4.01163,0.561038,-1.70191,1.81795,-1.33464,-0.826057,4.20759,-13.2936,0.232081,-7.29406,38.9556,5.19797,-1.49149,16.0607,1.48181,1.7045,5.96354e-15,-1.51076e-14,-34.073,-13.1658,-73.2908,34.5934,21.247,-21.659,5.18142,7.12502,4.73806,-24.7456,5.96354e-15,-1.51076e-14,-30.6422,7.36183,89.0838,22.3476,-10.6596,-11.8774,28.8441,7.12502,14.1751,58.3405,-35.8734,-8.39156,25.5121,20.5468,-6.59146,-23.2161,16.6439,7.35251,-1.30699,-26.9755,11.1486,-16.0731,-8.71172,-2.85263
-12.3578,17.4727,2.21937,108.14,87.3308,103.507,3.65442,-1.23362,-4.23132,0.517796,-1.77414,1.78504,-1.33031,-0.860966,4.29961,-13.1157,0.311143,-7.33298,38.7545,5.17146,-1.24015,15.8962,1.50802,1.80571,1.77912e-14,2.14687e-14,-34.0595,-13.3384,-73.2762,34.5549,21.3112,-21.5887,5.35895,7.12502,4.80597,-24.5665,1.77912e-14,2.14687e-14,-30.6804,7.31655,89.2597,22.3967,-10.7137,-11.6949,28.4582,7.12502,14.351,57.9422,-36.0126,-8.85104,25.6459,20.761,-6.1554,-23.5606,19.8021,7.69347,-1.48018,-27.2273,10.8028,-15.8393,-8.69361,-2.73469
-12.261,17.4689,2.22091,113.065,87.1275,108.137,3.53647,-1.37607,-4.3992,0.419,-1.96698,1.8527,-1.33769,-0.954833,4.47089,-13.0952,0.337666,-7.4261,38.813,5.22717,-1.18491,15.9152,1.52495,1.85607,-1.59028e-15,1.11319e-14,-33.9824,-13.3233,-73.236,34.5122,21.2512,-21.4633,5.30801,7.12502,4.92702,-24.6147,-1.59028e-15,1.11319e-14,-30.7527,7.35999,89.4289,22.4589,-10.9016,-11.0563,28.1013,7.12502,14.9663,57.5405,-36.3543,-9.40662,25.916,21.1897,-5.4404,-23.5847,20.7284,8.03638,-1.50814,-27.2898,10.1401,-15.3776,-9.01057,-2.63106
-12.1597,17.4664,2.22376,118.01,86.9215,112.882,3.49198,-1.47996,-4.46337,0.34826,-2.10758,1.86015,-1.36773,-1.02286,4.52032,-13.1882,0.287237,-7.31621,39.0406,5.21077,-1.28795,16.0655,1.51346,1.79853,4.47266e-15,-3.97569e-15,-34.0547,-13.4746,-73.2336,34.5903,21.1779,-21.2773,5.12678,7.12502,5.10656,-24.7917,4.47266e-15,-3.97569e-15,-30.7873,7.22957,89.5338,22.4643,-11.2668,-10.5243,27.9439,7.12502,15.4787,57.3442,-36.5622,-9.80374,26.0658,21.7203,-5.1168,-23.4946,21.0728,8.57699,-1.74945,-27.3238,9.3195,-14.8633,-9.19771,-3.08257
-12.0565,17.4728,2.2303,122.41,86.7239,117.21,3.58041,-1.56327,-4.53862,0.316718,-2.22563,1.86898,-1.43353,-1.07904,4.58042,-13.3262,0.219565,-7.1775,39.2951,5.18436,-1.42981,16.2459,1.49512,1.71857,2.38542e-15,7.95139e-15,-34.1477,-13.5546,-73.3103,34.6924,21.0476,-21.1721,4.95282,7.12502,5.20815,-24.9632,2.38542e-15,7.95139e-15,-30.7849,7.19322,89.5973,22.4431,-11.6138,-10.2401,27.9379,7.12502,15.7524,57.3169,-36.5216,-9.85058,26.0225,22.2232,-4.20481,-23.2663,19.6168,9.20218,-1.97549,-27.2916,8.60398,-14.3296,-9.4941,-3.10392
-11.9527,17.4858,2.23455,125.58,86.6006,120.241,3.61065,-1.64168,-4.57239,0.262225,-2.33221,1.94317,-1.49029,-1.12929,4.68328,-13.3114,0.191046,-7.2354,39.3294,5.18662,-1.47855,16.2634,1.48124,1.70873,-1.07344e-14,1.66979e-14,-34.1323,-13.5104,-73.3072,34.6712,20.7458,-21.1217,4.97312,7.12502,5.25679,-24.9417,-1.07344e-14,1.66979e-14,-30.7609,7.56534,89.5713,22.3256,-12.6471,-9.82457,27.8537,7.12502,16.1526,57.2007,-36.4437,-9.57061,25.9224,22.6187,-2.3434,-22.7646,14.9239,9.58763,-2.1257,-27.1845,8.16052,-13.7316,-9.94174,-1.50908
-11.8465,17.4885,2.23764,128.91,86.5184,123.336,3.52085,-1.72597,-4.5196,0.193122,-2.43857,2.01284,-1.49827,-1.18113,4.72822,-13.2714,0.183959,-7.21455,39.3307,5.17765,-1.50681,16.2565,1.478,1.69057,2.0773e-14,-2.78299e-14,-34.1674,-13.6171,-73.289,34.5812,20.9291,-21.5546,5.03008,7.12502,4.83885,-24.8947,2.0773e-14,-2.78299e-14,-30.7107,7.46961,89.7624,22.2417,-12.7614,-10.1009,28.0258,7.12502,15.8865,57.3941,-36.3393,-9.04758,25.7886,22.8606,-2.16331,-22.6718,13.1342,9.66107,-2.25966,-27.084,8.1423,-13.5727,-10.0645,-2.35143
-11.7364,17.4888,2.24726,133.997,86.5761,128.106,3.29383,-1.80514,-4.32261,0.123701,-2.52655,2.11106,-1.43654,-1.22654,4.71482,-13.1925,0.193537,-7.14147,39.2948,5.14194,-1.47717,16.2177,1.48061,1.68204,3.17062e-14,-6.36111e-15,-34.3611,-13.9927,-73.2702,34.6227,21.7237,-22.1226,4.96475,7.12502,4.29037,-24.9718,3.17062e-14,-6.36111e-15,-30.7434,6.75175,90.1303,22.4028,-11.8924,-10.7758,28.4213,7.12502,15.2364,57.8402,-36.2644,-8.62576,25.9382,22.9932,-3.49468,-22.8325,14.5688,9.48762,-2.38965,-26.7446,8.48876,-13.5387,-10.1503,-4.11387
-11.6249,17.4877,2.25925,137.959,86.6315,131.876,3.20127,-1.83429,-4.19639,0.0947023,-2.55534,2.20929,-1.41227,-1.24141,4.74358,-13.1612,0.157433,-7.18023,39.2847,5.0525,-1.38048,16.2012,1.4515,1.71485,-6.55989e-15,-1.66979e-14,-34.6158,-14.6805,-73.1403,34.8432,22.4327,-22.1636,4.83733,7.12502,4.25078,-25.1,-6.55989e-15,-1.66979e-14,-30.7671,6.05964,90.4198,22.5586,-11.5442,-10.8491,28.4736,7.12502,15.1659,57.8979,-36.0498,-8.20709,26.04,23.0643,-4.50016,-22.9707,15.8447,9.38972,-2.45008,-26.3865,8.98449,-13.4508,-10.3664,-5.31017
-11.5157,17.4838,2.26875,139.054,86.5803,132.847,3.24598,-1.83276,-4.25347,0.0797594,-2.55525,2.29243,-1.44648,-1.23937,4.86473,-13.1589,0.104413,-7.28976,39.2853,4.98662,-1.3331,16.1998,1.41465,1.74369,-1.64991e-14,-2.54444e-14,-34.7768,-15.12,-73.0066,35.0262,22.5869,-22.0433,4.79766,7.12502,4.36696,-25.1373,-1.64991e-14,-2.54444e-14,-30.7819,5.08056,90.9746,22.7619,-10.6329,-11.3066,28.5093,7.12502,14.7251,57.9663,-35.7584,-7.64455,25.8361,23.0835,-5.11074,-23.1888,18.0854,9.38618,-2.4573,-26.2599,9.43429,-13.3814,-10.5013,-7.30105
-11.4013,17.492,2.27665,139.471,86.5212,133.16,3.27039,-1.82959,-4.28586,0.0704436,-2.55207,2.34064,-1.46653,-1.23658,4.93448,-13.1086,0.0757239,-7.32572,39.2679,4.94134,-1.31718,16.1786,1.39495,1.74807,9.44227e-15,-3.49861e-14,-34.8771,-15.3043,-72.9318,34.9971,22.4749,-21.9146,5.03573,7.12502,4.49127,-24.8967,9.44227e-15,-3.49861e-14,-30.7925,4.40339,91.3767,22.9238,-9.9906,-11.7614,28.685,7.12502,14.2869,58.1736,-35.4574,-6.97837,25.5263,23.1403,-5.85638,-23.5817,21.2751,9.52,-2.44168,-26.1799,9.68216,-12.9529,-10.8221,-7.41942
-11.2833,17.5119,2.28363,141.017,86.4607,134.643,3.28934,-1.90872,-4.26373,0.100895,-2.65558,2.39996,-1.43181,-1.28976,4.98732,-13.1142,0.100133,-7.30275,39.221,4.9792,-1.36417,16.1568,1.40722,1.72845,2.72335e-14,-1.74931e-14,-34.8438,-15.3512,-72.9738,34.8319,22.2319,-21.7555,5.43841,7.12502,4.64482,-24.4907,2.72335e-14,-1.74931e-14,-30.7395,4.396,91.4089,23.0245,-10.1342,-11.6659,28.6791,7.12502,14.3789,58.161,-35.1402,-6.34345,25.2519,23.1962,-6.61683,-24.2446,24.1374,9.70353,-2.4729,-26.0219,9.93294,-12.2032,-11.4077,-5.5243
-11.1677,17.5368,2.2893,141.7,86.4158,135.205,3.28054,-1.97662,-4.23442,0.132122,-2.74319,2.44707,-1.3834,-1.33551,5.02154,-13.1797,0.119658,-7.35799,39.2204,5.02903,-1.36577,16.1704,1.41635,1.74655,-1.47101e-14,2.8625e-14,-34.7679,-15.3569,-73.0796,34.6929,22.1771,-21.9289,5.43014,7.12502,4.47746,-24.5025,-1.47101e-14,2.8625e-14,-30.6573,4.50478,91.3519,23.1236,-10.6186,-11.3576,28.5666,7.12502,14.676,58.0272,-34.9519,-6.12166,25.1746,23.1858,-6.52236,-24.7615,25.3763,9.69117,-2.459,-25.9105,10.4503,-11.6323,-11.8191,-5.56776
-11.0514,17.5683,2.29585,143.106,86.5931,136.492,3.28301,-1.9706,-3.95944,0.147325,-2.72328,2.47685,-1.38273,-1.32701,4.89583,-13.1781,0.111781,-7.37376,39.2822,4.99916,-1.28643,16.1987,1.41044,1.78017,1.60022e-14,1.27222e-14,-34.8294,-15.4453,-73.2379,34.5983,22.4895,-22.1225,5.22044,7.12502,4.29045,-24.7161,1.60022e-14,1.27222e-14,-30.6404,4.59171,91.1776,23.267,-11.4589,-10.6682,28.5029,7.12502,15.3401,57.9139,-34.7137,-5.82678,25.3137,23.1229,-6.43973,-24.9956,26.4023,9.5183,-2.61563,-25.6441,11.325,-11.1745,-11.9832,-5.78224
-10.9348,17.5911,2.30232,146.635,86.8859,139.939,3.30665,-1.93883,-3.48186,0.183534,-2.66075,2.52206,-1.38523,-1.29819,4.67041,-13.1198,0.0961304,-7.33369,39.2935,4.93055,-1.21807,16.1888,1.39781,1.79035,-3.89618e-14,1.03368e-14,-34.8786,-15.6233,-73.3882,34.4547,22.7675,-22.1473,5.17786,7.12502,4.26651,-24.7592,-3.89618e-14,1.03368e-14,-30.6141,4.01522,91.3061,23.5512,-10.8319,-10.6709,28.8131,7.12502,15.3375,58.2243,-34.3813,-5.42644,25.603,23.0469,-6.77473,-25.0319,27.6236,9.19069,-2.93868,-25.253,12.5761,-10.7414,-12.0066,-5.91607
-10.8197,17.6042,2.30656,150.906,87.2695,144.065,3.28898,-1.88796,-3.00782,0.201409,-2.56929,2.66351,-1.38087,-1.25397,4.54484,-13.0546,0.108068,-7.36926,39.2891,4.96265,-1.23324,16.17,1.40632,1.79406,-1.04362e-14,-7.15625e-15,-34.8656,-15.6536,-73.413,34.2932,22.7179,-22.1225,5.31288,7.12502,4.29053,-24.6236,-1.04362e-14,-7.15625e-15,-30.5587,3.52683,91.5693,23.7477,-9.77531,-11.0563,28.9555,7.12502,14.9663,58.3947,-34.1093,-5.08179,26.0285,22.9852,-7.05496,-25.0021,28.0628,8.6422,-3.21282,-24.8668,14.099,-10.4839,-11.778,-7.35328
-10.7064,17.6188,2.31161,154.679,87.7191,147.794,3.41842,-1.8185,-2.63285,0.247614,-2.45879,2.80412,-1.42648,-1.19875,4.47888,-13.0557,0.150508,-7.29025,39.3278,5.06045,-1.35065,16.1952,1.44206,1.74665,3.97569e-16,1.43125e-14,-34.8316,-15.5763,-73.4853,34.1464,22.6775,-22.0652,5.3812,7.12502,4.34582,-24.5542,3.97569e-16,1.43125e-14,-30.4674,3.38692,91.6192,23.812,-9.53888,-11.0362,28.7322,7.12502,14.9856,58.17,-33.7232,-4.59626,26.3937,22.9933,-7.45015,-25.0428,28.2139,8.10002,-2.99925,-24.4288,15.7256,-10.2198,-11.8117,-9.12944
-10.5933,17.6389,2.32127,154.957,88.013,148.097,3.6099,-1.79886,-2.48236,0.314575,-2.4276,2.82546,-1.47315,-1.18329,4.42065,-13.0568,0.202107,-7.13398,39.3565,5.10796,-1.39099,16.2125,1.47685,1.70984,7.95139e-16,-1.74931e-14,-34.788,-15.5638,-73.7349,33.9596,22.8835,-22.1514,5.30481,7.12502,4.26259,-24.6323,7.95139e-16,-1.74931e-14,-30.3202,3.48468,91.4817,23.7595,-9.31648,-11.3509,28.5201,7.12502,14.6824,57.9802,-33.3037,-4.30064,26.5655,23.0933,-7.77389,-24.9005,28.1637,7.58959,-2.60677,-24.1235,17.3508,-9.79201,-12.1572,-11.0973
-10.4775,17.6642,2.32403,152.196,88.2316,145.34,3.72428,-1.76539,-2.34599,0.390938,-2.37875,2.79941,-1.4699,-1.16043,4.317,-12.9839,0.232753,-7.07031,39.3435,5.09445,-1.32227,16.184,1.49077,1.72394,-4.07509e-14,1.66979e-14,-34.7453,-15.7047,-73.9166,33.7515,23.1263,-22.1245,5.37635,7.12502,4.2885,-24.5602,-4.07509e-14,1.66979e-14,-30.0775,3.91772,91.2072,23.5322,-9.44715,-11.7289,28.2397,7.12502,14.3183,57.726,-32.9914,-4.40971,26.7136,23.319,-7.88439,-24.3958,27.6666,7.05456,-2.36138,-23.964,18.9772,-9.05037,-12.5479,-12.2952
-10.3596,17.6906,2.32276,146.291,88.4269,139.403,3.78392,-1.71777,-2.26757,0.449426,-2.31132,2.82617,-1.45127,-1.12771,4.29844,-12.9065,0.256603,-7.20261,39.3675,5.13428,-1.23168,16.1694,1.5021,1.79209,1.28216e-14,3.18055e-15,-34.7347,-15.8658,-73.8868,33.6018,23.4785,-21.8046,5.62528,7.12502,4.59744,-24.3048,1.28216e-14,3.18055e-15,-29.9522,4.06724,91.2474,23.5214,-9.04843,-12.6725,28.5964,7.12502,13.4089,58.1449,-32.7749,-4.41391,26.7166,23.6958,-8.3215,-23.9508,27.5725,6.46762,-2.13001,-23.8753,20.596,-7.91501,-12.9912,-12.5165
-10.2425,17.7061,2.33231,131.734,88.3268,124.915,3.90785,-1.67574,-2.59685,0.562763,-2.27485,2.71046,-1.39908,-1.11137,4.3649,-12.9309,0.280995,-7.19452,39.4453,5.15685,-1.16614,16.2117,1.5183,1.82522,-1.86858e-14,-1.19271e-14,-34.7041,-15.9318,-74.0412,33.5102,23.8156,-21.592,5.4602,7.12502,4.80272,-24.4654,-1.86858e-14,-1.19271e-14,-29.8283,4.01436,91.2816,23.638,-8.44687,-13.6412,28.981,7.12502,12.475,58.5887,-32.4929,-4.77625,26.4753,24.0723,-8.68136,-23.2007,28.0931,5.89622,-1.86794,-24.0971,22.2958,-6.60371,-13.5226,-13.4876
-10.1258,17.7166,2.34095,119.575,88.1908,112.84,3.98699,-1.62349,-2.82519,0.712656,-2.22043,2.55189,-1.29173,-1.08839,4.32639,-12.8604,0.315887,-7.03324,39.4062,5.14881,-1.17642,16.1756,1.53848,1.78801,-1.09332e-15,-5.56597e-15,-34.5721,-15.894,-74.3314,33.3595,24.0444,-21.4348,5.2599,7.12502,4.9545,-24.6622,-1.09332e-15,-5.56597e-15,-29.5936,4.41289,90.8903,23.6294,-9.14958,-12.9064,28.4717,7.12502,13.1834,58.0349,-32.2456,-5.45768,26.3987,24.4719,-8.73177,-22.1369,28.4917,5.24762,-1.63161,-24.2735,24.0697,-5.01582,-14.0522,-14.7161
-10.0093,17.7318,2.34427,115.319,88.532,108.554,3.91912,-1.56985,-2.51322,0.859462,-2.1307,2.64079,-1.11933,-1.04867,4.23265,-12.7788,0.334508,-7.06749,39.3375,5.12874,-1.08591,16.1135,1.53973,1.82578,-2.61402e-14,-5.56597e-15,-34.3557,-15.7803,-74.4686,33.2127,24.132,-21.2743,5.26281,7.12502,5.10952,-24.6556,-2.61402e-14,-5.56597e-15,-29.317,4.82988,90.6663,23.6597,-9.66732,-12.096,27.9955,7.12502,13.9645,57.5065,-32.0715,-5.37799,26.708,24.9186,-9.27994,-21.7163,28.5076,4.34419,-1.33249,-23.7894,25.922,-2.95411,-14.583,-15.0119
-9.89775,17.7481,2.36275,118.676,88.4275,112.012,4.11563,-1.63304,-2.7156,0.951793,-2.22418,2.69673,-1.11541,-1.09588,4.41434,-12.7399,0.342721,-7.0696,39.4285,5.12735,-1.01813,16.1479,1.54704,1.85698,7.7526e-15,-2.06736e-14,-34.319,-15.6436,-74.5594,33.217,24.2647,-21.1223,5.31969,7.12502,5.25629,-24.5951,7.7526e-15,-2.06736e-14,-29.2202,4.75756,90.6873,23.8573,-9.44747,-12.0607,28.1027,7.12502,13.9985,57.6113,-31.6342,-4.82795,26.4318,25.2012,-10.3232,-21.9906,28.2637,3.39612,-1.07037,-23.4346,27.9464,-0.510483,-15.4286,-14.4392
-9.78826,17.7642,2.39061,122.377,88.0552,115.944,4.51978,-1.72623,-3.23495,1.02097,-2.37879,2.69584,-1.23343,-1.17061,4.72845,-12.6692,0.362239,-6.92119,39.5084,5.1592,-1.10638,16.1788,1.5711,1.79887,-1.92821e-14,3.18055e-15,-34.3678,-15.4196,-74.687,33.2388,24.2968,-20.9571,5.44963,7.12502,5.41581,-24.4612,-1.92821e-14,3.18055e-15,-29.2021,4.58623,90.6204,24.078,-9.6949,-11.5032,28.0404,7.12502,14.5357,57.5111,-30.955,-4.35896,25.9336,25.2969,-11.3228,-22.287,27.9988,2.48639,-0.774537,-23.1889,30.1121,2.22573,-16.3907,-13.9622
-9.67718,17.7855,2.40333,132.834,88.5264,126.346,4.59167,-1.74527,-2.71008,1.01352,-2.37318,2.88096,-1.29574,-1.16559,4.62658,-12.5958,0.347252,-6.91589,39.5767,5.12325,-1.0606,16.1956,1.56404,1.81233,1.13307e-14,-8.74653e-15,-34.4331,-14.9845,-74.8621,33.2861,24.2365,-20.9279,5.43921,7.12502,5.44392,-24.4709,1.13307e-14,-8.74653e-15,-29.1811,4.72887,90.3863,24.2443,-10.5603,-10.5455,27.8604,7.12502,15.4583,57.2624,-30.5731,-4.20892,26.5573,25.359,-11.8146,-22.2067,28.0238,1.22163,-0.398916,-22.1392,32.3561,4.71368,-17.1513,-15.6017
-9.56716,17.8022,2.41047,153.406,88.9519,146.752,4.51333,-1.77097,-2.07002,0.981441,-2.36921,3.03868,-1.3052,-1.1627,4.42569,-12.5461,0.341287,-6.97189,39.7099,5.03429,-0.783384,16.2395,1.55447,1.93066,-1.59028e-15,-7.95139e-16,-34.4886,-14.4673,-75.1071,33.388,24.1697,-20.781,5.60845,7.12502,5.58579,-24.2979,-1.59028e-15,-7.95139e-16,-29.1615,4.3744,90.2992,24.461,-10.702,-10.2797,27.8755,7.12502,15.7143,57.2575,-30.316,-4.60869,27.4156,25.2783,-11.839,-21.8197,27.975,-0.251049,-0.263292,-21.147,34.698,6.44455,-17.9287,-19.0046
-9.46318,17.8115,2.42406,158.882,88.8717,152.204,4.64808,-1.86044,-2.12423,0.965007,-2.49036,3.08034,-1.38206,-1.22121,4.51167,-12.4588,0.377262,-6.95753,39.7949,5.02069,-0.614066,16.2533,1.57382,1.99996,-3.77691e-14,1.35174e-14,-34.4765,-13.7924,-75.4232,33.5169,23.8579,-20.6295,5.76105,7.12502,5.73211,-24.1414,-3.77691e-14,1.35174e-14,-29.1748,3.513,90.493,24.8544,-9.63196,-10.8295,28.006,7.12502,15.1848,57.4288,-29.8327,-4.99715,27.6133,24.8887,-11.8139,-21.6438,27.9317,-1.68459,-0.339436,-20.7372,37.1628,7.42624,-19.0928,-22.4242
-9.35943,17.821,2.44366,188.216,88.8502,181.733,4.95972,-1.96808,-1.72364,1.03873,-2.60557,3.25848,-1.47922,-1.27626,4.48783,-12.4011,0.404837,-6.77414,39.8673,5.05678,-0.718182,16.2846,1.60115,1.92899,5.96354e-15,-1.51076e-14,-34.4813,-13.1105,-75.8013,33.7787,23.5912,-20.6661,5.50305,7.12502,5.69669,-24.4004,5.96354e-15,-1.51076e-14,-29.113,2.58608,90.7163,25.2784,-8.15982,-11.4702,27.9143,7.12502,14.5675,57.3828,-29.0355,-4.97312,28.2475,24.4235,-11.961,-21.7555,27.6106,-2.91942,-0.324967,-19.6996,39.6501,7.91167,-20.5611,-24.3278
-9.25279,17.8313,2.46865,235.615,88.2235,229.466,5.34225,-2.03416,-0.69645,1.20092,-2.61266,3.69371,-1.55128,-1.27584,4.37303,-12.4246,0.432801,-6.61896,39.9339,5.11665,-0.850708,16.3338,1.62768,1.85588,-2.16675e-14,3.97569e-15,-34.4562,-12.4761,-76.0585,34.0964,23.588,-20.6236,5.36813,7.12502,5.73773,-24.5342,-2.16675e-14,3.97569e-15,-28.9492,2.29477,90.7522,25.5867,-7.94432,-11.4417,27.4382,7.12502,14.595,56.9047,-28.036,-4.67175,29.673,24.0195,-12.2834,-21.8989,27.7426,-3.98977,-0.273151,-17.8542,42.0908,8.12664,-21.7918,-24.3239
-9.15045,17.8415,2.48638,249.381,87.5811,243.355,5.51836,-2.0745,-0.132179,1.31312,-2.614,4.02856,-1.54368,-1.27329,4.40806,-12.4881,0.453338,-6.76773,40.0604,5.14624,-0.681192,16.4043,1.63514,1.96598,9.34288e-15,1.59028e-15,-34.3135,-11.7885,-76.2343,34.3137,23.5232,-20.661,5.7853,7.12502,5.70162,-24.118,9.34288e-15,1.59028e-15,-28.7153,2.17286,90.7641,25.881,-8.28689,-11.0266,27.3676,7.12502,14.9949,56.8046,-27.3421,-4.68474,30.6386,23.6684,-12.3389,-21.8227,27.7108,-5.26014,-0.359366,-16.6411,44.4308,8.13499,-22.5388,-23.6524
-9.05427,17.8463,2.49732,256.263,87.5592,250.16,5.52297,-2.00065,-0.0923098,1.3654,-2.51232,4.06273,-1.50035,-1.22276,4.41357,-12.5201,0.449599,-6.85181,40.1758,5.07068,-0.404934,16.4592,1.62432,2.09346,2.50469e-14,1.03368e-14,-34.1851,-11.3184,-76.4631,34.5391,23.4023,-20.7986,6.00751,7.12502,5.56877,-23.8993,2.50469e-14,1.03368e-14,-28.4624,1.16345,90.9649,26.322,-7.4367,-10.9669,27.2776,7.12502,15.0524,56.7104,-27.0301,-4.76047,30.8934,23.5156,-12.1499,-21.5611,26.8938,-6.65738,-0.329168,-16.2732,46.5677,7.71869,-22.9044,-23.6498
-8.96221,17.8467,2.50806,264.798,87.5068,258.702,5.62707,-1.88823,-0.0725311,1.42572,-2.35938,4.06421,-1.50874,-1.14611,4.39709,-12.4175,0.437149,-6.78886,40.1818,4.94088,-0.210838,16.4306,1.60761,2.14331,-1.70955e-14,3.81667e-14,-34.1188,-10.9327,-76.6912,34.862,23.3342,-20.7601,5.81448,7.12502,5.60597,-24.0914,-1.70955e-14,3.81667e-14,-28.2074,0.105952,91.1444,26.7159,-6.56333,-11.0875,26.9295,7.12502,14.9362,56.371,-26.7626,-4.73651,31.1344,23.6713,-12.138,-21.2082,26.0463,-7.8939,-0.216454,-15.9745,48.4717,6.49193,-22.9418,-24.8905
-8.86545,17.853,2.51486,273.559,87.6462,267.616,5.76619,-1.80963,-0.244914,1.5416,-2.26828,3.96443,-1.47103,-1.10227,4.38734,-12.233,0.464546,-6.54747,40.1566,4.89609,-0.22882,16.3763,1.62664,2.07969,-1.31198e-14,-7.95139e-15,-33.9731,-10.1231,-77.1197,35.0517,23.0245,-20.9443,5.62092,7.12502,5.42809,-24.2896,-1.31198e-14,-7.95139e-15,-27.9698,-0.681013,91.083,27.0476,-6.3709,-10.5477,26.5953,7.12502,15.4562,55.9974,-26.368,-4.84462,31.0862,23.9599,-12.3386,-20.6069,25.6412,-8.88103,-0.0835529,-15.9532,50.1574,5.15834,-22.5569,-25.7831
-8.76486,17.865,2.51811,288.411,87.9762,282.556,5.76538,-1.72525,-0.64305,1.67915,-2.1914,3.76976,-1.3271,-1.06874,4.40132,-12.1474,0.535853,-6.31607,40.1412,4.94023,-0.276266,16.3499,1.67298,2.02181,2.62396e-14,1.74931e-14,-33.6727,-9.1545,-77.6177,35.0952,22.5681,-21.247,5.70285,7.12502,5.13584,-24.2149,2.62396e-14,1.74931e-14,-27.6424,-1.14441,90.8331,27.3537,-6.58679,-9.23095,25.784,7.12502,16.7241,55.0836,-26.0148,-4.97001,30.735,24.2261,-12.5379,-19.8957,25.5514,-9.86512,0.182968,-16.2373,51.7108,4.0275,-21.8498,-25.9087
-8.66921,17.8786,2.52314,309.173,88.0129,303.299,5.7721,-1.62193,-1.12354,1.72229,-2.08784,3.69272,-1.27977,-1.01989,4.58607,-12.0816,0.62243,-6.30929,40.1762,5.06525,-0.268771,16.3469,1.7262,2.04326,-1.37161e-14,0,-33.3908,-8.61405,-77.8009,35.1806,22.5021,-21.2391,5.93793,7.12502,5.14346,-23.9796,-1.37161e-14,0,-27.3336,-1.16215,90.6263,27.5471,-7.21226,-8.79223,25.4031,7.12502,17.1464,54.6666,-25.7764,-4.74065,30.4149,24.499,-12.7775,-19.438,25.4004,-10.9485,0.485676,-16.4844,53.1683,3.01965,-20.8307,-25.2807
-8.57852,17.8866,2.53128,322.939,87.6818,317.082,5.8791,-1.53495,-1.44585,1.71485,-1.9899,3.73572,-1.34247,-0.970335,4.812,-11.9246,0.706901,-6.50071,40.2192,5.21436,-0.184987,16.3174,1.77378,2.13516,-1.07344e-14,-2.38542e-15,-33.2008,-8.1873,-77.8447,35.3585,22.5496,-21.011,6.07087,7.12502,5.36377,-23.8412,-1.07344e-14,-2.38542e-15,-27.1473,-1.06474,90.4685,27.7748,-7.67831,-9.3825,25.6298,7.12502,16.5782,54.9417,-25.5075,-4.34804,30.3254,24.7578,-12.9799,-19.2082,25.1323,-12.0622,0.857941,-16.4225,54.5867,2.10444,-19.6669,-24.3389
-8.48851,17.89,2.53696,331.118,87.2768,325.274,5.9458,-1.52303,-1.66977,1.71456,-1.98604,3.79389,-1.37007,-0.968115,5.00252,-11.725,0.836722,-6.6993,40.2614,5.44989,-0.146634,16.2755,1.851,2.22068,-1.37161e-14,1.98785e-14,-32.9172,-7.64105,-77.9483,35.4058,22.6496,-20.8658,6.26608,7.12502,5.50392,-23.6424,-1.37161e-14,1.98785e-14,-26.9853,-0.727726,90.2311,28.0508,-7.93884,-9.75619,25.623,7.12502,16.2184,54.9646,-25.2832,-4.25462,30.3439,25.0264,-12.997,-18.7876,24.6674,-13.2216,1.07175,-16.333,55.9287,1.16151,-18.1162,-23.6726
-8.3993,17.8931,2.53735,336.077,86.8266,330.238,6.01475,-1.53092,-1.76479,1.68381,-1.99849,3.89742,-1.43167,-0.972474,5.16931,-11.3851,0.970917,-7.035,40.2396,5.69897,-0.0774929,16.1594,1.92412,2.33885,-1.31198e-14,-1.82882e-14,-32.6634,-7.00292,-77.9586,35.4655,22.7876,-20.7594,6.42964,7.12502,5.60664,-23.4762,-1.31198e-14,-1.82882e-14,-26.8304,-0.0280958,90.0343,28.2384,-8.40747,-9.81419,25.3933,7.12502,16.1626,54.7395,-25.0777,-4.15242,30.3855,25.3217,-13.1047,-18.3297,24.2837,-14.3795,1.27075,-16.2282,57.1638,0.210173,-16.3166,-23.2942
-8.30994,17.8973,2.54104,342.725,86.3121,336.912,6.04434,-1.46892,-2.00656,1.69813,-1.93392,3.85472,-1.43304,-0.941168,5.25886,-11.1239,1.1021,-7.13718,40.1897,5.87239,-0.0162868,16.0545,1.99669,2.40008,-1.66979e-14,-1.82882e-14,-32.4001,-7.01283,-77.9744,35.5814,23.3335,-20.758,6.35788,7.12502,5.60798,-23.5479,-1.66979e-14,-1.82882e-14,-26.6565,0.524016,89.6907,28.4684,-8.88691,-9.67692,25.2095,7.12502,16.2947,54.5448,-24.8209,-3.77566,30.2212,25.5997,-13.3032,-18.0529,23.8345,-15.4527,1.6854,-16.2815,58.2404,-0.766382,-14.5618,-23.4068
-8.22264,17.8992,2.54531,347.155,85.7498,341.387,6.05317,-1.42622,-2.21624,1.77147,-1.89438,3.77576,-1.36193,-0.924694,5.29167,-11.0364,1.25932,-7.07315,40.1756,6.08889,-0.0438218,16.0182,2.09256,2.40606,-2.5842e-15,-5.56597e-15,-32.0907,-7.5464,-77.9876,35.8289,24.049,-20.5627,6.33153,7.12502,5.79652,-23.5692,-2.5842e-15,-5.56597e-15,-26.3788,1.03749,89.2564,28.6919,-9.09965,-9.7965,25.2062,7.12502,16.1796,54.5509,-24.5243,-3.40362,30.103,25.8216,-13.4942,-17.7748,23.6536,-16.4928,1.93903,-16.3257,59.1788,-1.6114,-12.7508,-23.983
-8.13492,17.9025,2.54075,347.65,85.1554,341.908,6.04792,-1.43023,-2.06857,1.82603,-1.8895,3.8032,-1.30729,-0.923545,5.23457,-10.9215,1.41419,-7.13196,40.1729,6.37707,-0.159856,15.9829,2.19019,2.40633,-1.05356e-14,-1.59028e-14,-31.8063,-7.87182,-77.931,36.1706,24.1954,-20.1515,6.50397,7.12502,6.19359,-23.3855,-1.05356e-14,-1.59028e-14,-26.2114,1.4343,88.9703,29.0524,-8.9325,-9.90132,25.3662,7.12502,16.0787,54.7192,-24.2324,-3.2864,30.2655,26.018,-13.6351,-17.2922,23.4665,-17.5723,2.10755,-16.1505,60.0049,-2.31218,-11.0315,-25.2506
-8.04392,17.9039,2.52977,347.656,84.5303,342.065,6.12898,-1.38966,-1.74768,1.90553,-1.81514,3.78699,-1.28945,-0.886376,5.03082,-10.7139,1.50626,-7.16866,40.119,6.55871,-0.300128,15.9057,2.24847,2.37117,4.17448e-15,-2.38542e-14,-31.5813,-8.08996,-77.9116,36.5256,23.8489,-19.8819,6.71795,7.12502,6.45385,-23.1637,4.17448e-15,-2.38542e-14,-26.0343,1.74917,88.6627,29.31,-8.77256,-9.71102,25.1589,7.12502,16.2619,54.4969,-23.7736,-3.292,30.4401,26.1689,-13.6158,-16.7224,22.8658,-18.4818,2.26947,-15.9786,60.7091,-3.00398,-9.35298,-26.3864
-7.95315,17.9,2.51942,347.946,83.8621,342.485,6.19606,-1.31556,-1.45779,1.93925,-1.69843,3.75829,-1.31364,-0.827005,4.82931,-10.4488,1.58901,-7.18073,40.1312,6.70981,-0.392361,15.8484,2.30551,2.34859,-3.04141e-14,2.46493e-14,-31.4829,-8.32389,-77.9254,36.8642,23.7977,-20.0886,6.60704,7.12502,6.25424,-23.2806,-3.04141e-14,2.46493e-14,-25.9066,2.14972,88.3357,29.4963,-8.63992,-9.64761,24.8916,7.12502,16.323,54.2247,-23.3451,-3.34345,30.6068,26.2922,-13.4366,-16.1424,22.0327,-19.3972,2.44124,-15.828,61.2951,-3.75489,-7.87832,-26.3257
-7.86362,17.899,2.51005,347.554,83.1802,342.131,6.17941,-1.28702,-1.11794,1.96237,-1.63846,3.76924,-1.29606,-0.796466,4.64239,-10.259,1.68793,-7.23544,40.1615,6.89292,-0.462004,15.8151,2.36874,2.35037,2.92213e-14,5.56597e-15,-31.3559,-8.32538,-78.0736,37.2075,23.7308,-20.6093,6.19569,7.12502,5.75161,-23.7063,2.92213e-14,5.56597e-15,-25.8037,2.56511,88.0128,29.7322,-8.40501,-9.86997,24.9581,7.12502,16.1089,54.3086,-23.0247,-3.27804,30.848,26.4526,-13.3924,-15.6149,21.4878,-20.4266,2.6076,-15.5383,61.7444,-4.473,-6.88527,-25.2448
-7.77434,17.8983,2.50057,347.965,82.5329,342.624,6.21847,-1.20196,-0.802331,1.98936,-1.50795,3.67836,-1.31289,-0.730639,4.35976,-10.1359,1.69648,-7.22581,40.2615,6.92973,-0.505475,15.8406,2.37976,2.33524,-2.0773e-14,-1.51076e-14,-31.2759,-8.39247,-78.2802,37.6006,23.3953,-21.1566,5.52415,7.12502,5.22312,-24.3915,-2.0773e-14,-1.51076e-14,-25.6428,2.69575,87.8089,29.878,-7.60995,-10.4711,25.3561,7.12502,15.5299,54.7524,-22.6866,-3.02712,30.9228,26.6994,-13.54,-15.1576,21.0837,-21.3798,2.54037,-15.3854,62.0493,-5.14464,-6.04896,-23.7012
-7.68633,17.8925,2.48976,349.149,81.9081,343.872,6.22867,-1.12643,-0.644989,2.00922,-1.40043,3.60201,-1.31294,-0.677058,4.18322,-9.99326,1.73781,-7.28985,40.3423,7.04506,-0.578499,15.8488,2.41059,2.33068,1.75924e-14,7.15625e-15,-31.1548,-8.32711,-78.4214,38.0033,23.0303,-21.7514,4.99566,7.12502,4.6488,-24.9333,1.75924e-14,7.15625e-15,-25.4876,2.55494,87.856,30.1051,-5.82286,-11.4014,26.0632,7.12502,14.6337,55.5269,-22.4707,-2.9112,30.9019,27.072,-13.5353,-14.7156,20.1166,-22.3116,2.27495,-15.3932,62.193,-5.78364,-5.31429,-22.0638
-7.60086,17.877,2.4769,350.705,81.2935,345.408,6.17143,-1.104,-0.585829,2.00422,-1.37006,3.55804,-1.29123,-0.662577,4.10026,-9.84788,1.86698,-7.37495,40.3539,7.29804,-0.688703,15.8167,2.49254,2.33098,-2.05742e-14,2.14687e-14,-31.0289,-7.91784,-78.5655,38.473,22.5723,-22.174,4.62131,7.12502,4.24071,-25.3162,-2.05742e-14,2.14687e-14,-25.3862,2.78139,87.7558,30.3336,-4.69229,-11.8048,26.3792,7.12502,14.2451,55.8707,-22.4592,-2.98167,30.8398,27.601,-13.5003,-14.1153,18.9852,-23.3483,2.09051,-15.4683,62.1876,-6.34289,-4.88319,-21.8171
-7.51388,17.8635,2.46657,353.351,80.7729,348.097,6.12568,-1.15266,-0.82189,2.04046,-1.4531,3.52056,-1.21689,-0.706605,4.19893,-9.78785,2.03205,-7.5599,40.335,7.64249,-0.832814,15.786,2.59071,2.34872,2.8128e-14,-1.11319e-14,-30.7748,-7.48328,-78.6631,38.914,21.9088,-22.2816,4.5558,7.12502,4.13681,-25.3838,2.8128e-14,-1.11319e-14,-25.2306,3.54754,87.5089,30.4534,-4.45302,-13.3996,27.3732,7.12502,12.7079,56.9665,-22.3759,-2.91135,30.4484,28.2015,-13.7182,-13.4265,18.5234,-24.2904,1.89802,-15.7355,62.0365,-6.89069,-5.01602,-22.2582
-7.42324,17.855,2.45915,356.483,80.2965,351.275,6.03175,-1.30049,-1.38268,2.10189,-1.68359,3.63448,-1.06209,-0.826935,4.64784,-9.88051,2.24674,-8.08392,40.3484,8.21238,-1.07019,15.8004,2.71544,2.4251,2.3059e-14,-3.10104e-14,-30.4995,-7.44227,-78.4312,39.616,21.6637,-21.7048,5.01927,7.12502,4.6938,-24.9087,2.3059e-14,-3.10104e-14,-25.0818,4.53873,87.5,30.643,-3.99417,-16.8605,29.9785,7.12502,9.36996,59.7502,-22.2827,-2.61451,29.8486,28.7836,-14.263,-12.93,19.0061,-25.1884,1.53586,-16.1539,61.7701,-7.56755,-5.22161,-22.9492
-7.33935,17.8386,2.44757,356.742,79.6412,351.554,6.0461,-1.37039,-1.3461,2.14536,-1.77048,3.76372,-1.01409,-0.870973,4.7675,-9.91699,2.42577,-8.48822,40.3665,8.65212,-1.20797,15.8026,2.81828,2.50149,-1.43125e-14,5.56597e-15,-30.3841,-7.69299,-78.2876,40.4766,21.7588,-21.0051,5.37972,7.12502,5.36939,-24.5323,-1.43125e-14,5.56597e-15,-24.9273,5.11453,87.4671,30.7788,-3.36643,-17.7924,30.9339,7.12502,8.47066,60.744,-22.1628,-2.13694,29.7932,29.2806,-14.8194,-12.6351,19.472,-26.1299,1.34588,-16.0472,61.4764,-8.05586,-4.89847,-24.0566
-7.26059,17.8212,2.42868,355.064,78.8084,349.877,6.18425,-1.31529,-0.697581,2.14079,-1.6522,3.81964,-1.12457,-0.806409,4.45408,-9.82035,2.50852,-8.57463,40.4078,8.82801,-1.28757,15.7993,2.86884,2.50525,-5.36719e-15,-4.45278e-14,-30.2379,-7.08595,-78.476,40.9692,20.8705,-20.9164,5.29024,7.12502,5.45508,-24.6195,-5.36719e-15,-4.45278e-14,-24.7474,5.63523,87.205,30.7012,-3.29863,-15.246,28.9923,7.12502,10.9275,58.6879,-22.0014,-1.49821,30.1224,29.673,-14.4973,-12.4086,17.5583,-27.0733,1.42673,-15.4949,61.1494,-8.32213,-4.62844,-24.9643
-7.17507,17.8049,2.4113,354.054,77.9876,348.924,6.28795,-1.27999,-0.267821,2.1722,-1.57195,3.92276,-1.1657,-0.763213,4.31502,-9.72744,2.62197,-8.67457,40.405,9.06927,-1.42873,15.7768,2.93854,2.49297,-2.84262e-14,1.27222e-14,-29.9146,-6.04938,-78.6265,41.215,19.7865,-21.1738,5.22319,7.12502,5.20654,-24.6929,-2.84262e-14,1.27222e-14,-24.5358,6.66286,86.9427,30.5399,-3.85679,-13.3571,27.4986,7.12502,12.7489,57.0894,-21.7516,-1.03543,30.3244,29.9917,-14.5722,-11.9552,17.4137,-27.892,1.40092,-15.0464,60.7374,-8.65327,-4.59549,-25.2541
-7.08547,17.7841,2.39365,354.125,77.197,349.065,6.31286,-1.27866,-0.128285,2.20692,-1.55765,4.02459,-1.14575,-0.755368,4.34143,-9.60118,2.80404,-8.75904,40.3732,9.42402,-1.6282,15.7334,3.05355,2.46704,3.10104e-14,-1.51076e-14,-29.6562,-5.11376,-78.7111,41.5425,19.1044,-21.3269,5.22856,7.12502,5.0587,-24.6911,3.10104e-14,-1.51076e-14,-24.4117,7.77533,86.6691,30.4349,-4.863,-13.1506,27.4879,7.12502,12.9481,57.0662,-21.496,-0.8595,30.3768,30.3254,-14.4698,-11.4535,16.0603,-28.6587,1.34986,-14.8429,60.2132,-9.03617,-4.59029,-25.1398
-6.99581,17.7659,2.37873,354.911,76.3404,350.003,6.39495,-1.23453,-0.148196,2.2413,-1.49837,4.05125,-1.15913,-0.725798,4.37828,-9.36736,2.98837,-8.84506,40.3104,9.75196,-1.79825,15.6469,3.16751,2.44379,-2.0276e-14,4.13472e-14,-29.5476,-4.09568,-78.8412,41.9945,18.3903,-21.3748,5.15984,7.12502,5.01248,-24.7609,-2.0276e-14,4.13472e-14,-24.4375,8.30139,86.4259,30.5047,-5.25873,-12.3609,26.8574,7.12502,13.7092,56.3858,-21.1759,-0.36648,30.2326,30.6996,-14.5299,-11.1902,14.6313,-29.2807,1.48239,-14.8373,59.5468,-9.44143,-4.54,-25.5931
-6.90414,17.754,2.37038,355.553,75.4202,350.808,6.4507,-1.11666,-0.187751,2.30943,-1.34504,4.03615,-1.13106,-0.650116,4.37456,-9.21052,3.12759,-8.81829,40.3248,9.97282,-1.88887,15.6194,3.25655,2.42547,-8.48811e-14,7.95139e-16,-29.5365,-3.53626,-78.9471,42.5875,18.0433,-21.2133,5.35322,7.12502,5.16843,-24.5638,-8.48811e-14,7.95139e-16,-24.4483,7.95061,86.434,30.7676,-4.11423,-11.7522,26.1303,7.12502,14.2958,55.6182,-20.8599,0.625152,30.0184,31.0983,-14.9626,-11.0741,15.1629,-29.8282,1.71673,-14.7825,58.7734,-9.78891,-4.40684,-26.3282
-6.81478,17.7375,2.35553,356.019,74.6331,351.378,6.47069,-0.998217,-0.0754981,2.39944,-1.18413,3.96022,-1.06599,-0.570492,4.21925,-9.13377,3.19528,-8.62829,40.3322,10.0522,-1.99086,15.6195,3.30397,2.35798,-1.70955e-14,3.49861e-14,-29.4017,-3.33157,-79.0412,43.1022,17.9097,-21.0361,5.58227,7.12502,5.33952,-24.3305,-1.70955e-14,3.49861e-14,-24.3329,7.32829,86.5327,31.0722,-3.02764,-12.5914,26.9434,7.12502,13.487,56.4867,-20.6067,1.01871,29.8785,31.4874,-15.223,-10.6224,15.8218,-30.4531,1.91741,-14.7166,57.925,-10.0064,-4.4669,-26.2628
-6.73047,17.7167,2.33265,356.571,74.0227,351.995,6.55396,-0.934949,0.169991,2.46576,-1.08824,3.8084,-1.05918,-0.521925,3.91573,-9.05162,3.23547,-8.39594,40.277,10.0563,-2.08014,15.5881,3.32929,2.27511,2.52457e-14,-2.06736e-14,-29.2311,-3.08127,-79.2114,43.5223,17.7243,-21.236,5.75287,7.12502,5.14648,-24.1646,2.52457e-14,-2.06736e-14,-24.1272,7.22257,86.3477,31.1414,-3.31091,-12.8062,27.1236,7.12502,13.28,56.6805,-20.3982,0.901112,29.7401,31.8515,-15.5577,-10.0116,15.7847,-31.1732,2.07224,-14.7469,56.9948,-10.1176,-4.62142,-25.8749
-6.64361,17.7065,2.31251,357.001,73.3175,352.444,6.59471,-0.842495,0.388125,2.52182,-0.954918,3.69654,-1.03892,-0.454714,3.66618,-9.06757,3.28212,-8.23192,40.2931,10.0784,-2.08566,15.6054,3.35612,2.24819,4.57205e-14,-5.56597e-15,-29.0749,-2.9251,-79.3304,43.9259,17.779,-21.3059,5.83421,7.12502,5.07895,-24.0849,4.57205e-14,-5.56597e-15,-23.8997,7.57495,86.0552,31.036,-4.21492,-11.256,25.7291,7.12502,14.7738,55.1826,-20.1981,1.07499,29.6111,32.1634,-16.1556,-9.6147,15.4872,-31.8429,2.15061,-14.7365,55.9582,-10.1988,-4.28854,-26.7863
-6.55258,17.704,2.29649,357.682,72.4867,353.141,6.56658,-0.696234,0.462769,2.58251,-0.761683,3.59083,-0.975198,-0.358826,3.49879,-9.15412,3.33262,-8.096,40.4155,10.1324,-2.0573,15.6901,3.39001,2.25207,2.88238e-14,3.18055e-15,-28.9407,-2.91105,-79.3554,44.3736,18.0035,-21.2059,5.76057,7.12502,5.17556,-24.1562,2.88238e-14,3.18055e-15,-23.7628,7.54007,85.9412,31.0953,-4.38388,-10.5874,25.2687,7.12502,15.4179,54.6737,-19.9511,1.53295,29.3613,32.3394,-16.6793,-9.445,14.1877,-32.4102,2.15098,-14.7863,54.8314,-10.2357,-3.59198,-28.2577
-6.46187,17.7028,2.27797,358.479,71.6806,353.98,6.55513,-0.56957,0.544159,2.64974,-0.594752,3.44887,-0.911833,-0.275945,3.29244,-9.16246,3.39603,-7.89466,40.4839,10.2149,-2.13539,15.7416,3.43719,2.1991,-1.88845e-14,-2.54444e-14,-28.7773,-2.74281,-79.4278,44.7619,18.1226,-21.3922,5.54945,7.12502,4.99568,-24.3717,-1.88845e-14,-2.54444e-14,-23.6852,7.17468,85.9214,31.3167,-3.96833,-10.7603,25.5579,7.12502,15.2514,54.9757,-19.5818,1.929,29.0289,32.2746,-17.1047,-9.33997,13.3326,-32.9363,2.05938,-14.8457,53.6895,-10.1797,-3.00136,-28.5775
-6.36992,17.7139,2.25993,358.59,70.8367,354.135,6.58266,-0.439837,0.802569,2.70583,-0.408312,3.38184,-0.881936,-0.181347,3.06347,-8.99736,3.45153,-7.662,40.4265,10.2545,-2.26848,15.6939,3.47651,2.09934,-4.4329e-14,-2.22639e-14,-28.6796,-2.58415,-79.4847,45.0982,18.3294,-21.4381,5.57798,7.12502,4.95134,-24.3442,-4.4329e-14,-2.22639e-14,-23.7141,6.74725,85.9271,31.5961,-3.7903,-10.8858,25.8138,7.12502,15.1305,55.2408,-19.1651,2.31562,28.8887,32.243,-17.3264,-8.78564,15.7283,-33.3317,1.85322,-14.5435,52.4765,-9.90647,-2.72597,-27.1978
-6.2771,17.7506,2.2438,358.668,69.8877,354.212,6.47025,-0.317501,1.00189,2.80868,-0.238879,3.39181,-0.722522,-0.0958574,2.94782,-8.95073,3.52477,-7.68299,40.3942,10.3453,-2.27166,15.6624,3.51068,2.10986,2.38542e-15,-4.6118e-14,-28.4632,-2.42587,-79.4737,45.3887,18.5519,-21.3765,5.77721,7.12502,5.01083,-24.1435,2.38542e-15,-4.6118e-14,-23.7657,6.55253,85.9828,31.9379,-3.91654,-11.1757,26.2621,7.12502,14.8512,55.7098,-18.7391,2.85752,28.7616,32.1441,-17.2886,-8.15765,17.5072,-33.6922,1.49157,-14.0597,51.2595,-9.49458,-2.56336,-24.2906
-6.18082,17.7359,2.22026,359.556,68.9396,355.01,6.19504,-0.271178,1.00062,2.89886,-0.191603,3.32515,-0.479217,-0.0737531,2.87398,-9.07876,3.66781,-7.85802,40.4942,10.5724,-2.15149,15.7183,3.58148,2.22936,-1.96797e-14,1.74931e-14,-28.1298,-2.02135,-79.5202,45.6479,18.5521,-21.3447,5.83078,7.12502,5.0415,-24.0892,-1.96797e-14,1.74931e-14,-23.7725,6.81375,85.9799,32.2031,-3.93027,-11.382,26.6639,7.12502,14.6525,56.1262,-18.5771,3.35637,28.3358,32.1304,-17.4398,-7.78594,16.3114,-34.0883,1.29768,-14.0298,49.8454,-9.12729,-2.13377,-24.3517
-6.0884,17.7339,2.19996,360.138,68.063,355.573,6.15226,-0.222372,1.0524,2.93141,-0.128933,3.24493,-0.425095,-0.0425264,2.75732,-9.19488,3.76672,-7.89379,40.6784,10.733,-2.06865,15.8278,3.6365,2.3038,-5.22804e-14,2.14687e-14,-27.9215,-1.71181,-79.5621,45.8645,18.5963,-21.402,5.92737,7.12502,4.98617,-23.994,-5.22804e-14,2.14687e-14,-23.8672,6.71324,86.0077,32.4898,-3.58477,-11.6425,26.9225,7.12502,14.4015,56.4029,-18.3681,3.8047,27.9859,32.1806,-17.6692,-7.52072,15.2937,-34.4084,0.946125,-13.8443,48.3703,-8.52318,-2.01589,-23.4122
-6.00006,17.7353,2.18444,360.429,67.2551,355.914,6.27956,-0.144,1.09999,2.93251,-0.0201756,3.17955,-0.49923,0.0122606,2.65631,-9.07475,3.8617,-7.70007,40.6927,10.8262,-2.1234,15.8179,3.69715,2.25508,1.03368e-14,-1.59028e-15,-27.8701,-1.54708,-79.5941,46.0916,18.5356,-21.4876,6.14315,7.12502,4.90355,-23.7801,1.03368e-14,-1.59028e-15,-24.0695,5.97536,86.0932,32.9062,-2.781,-11.5523,26.836,7.12502,14.4884,56.3102,-18.1613,4.23311,27.7399,32.4173,-16.834,-6.80667,19.4724,-34.6008,0.54861,-13.5345,46.742,-7.59073,-2.23812,-22.3033
-5.9127,17.7319,2.16555,360.799,66.4637,356.285,6.3749,-0.104827,1.14572,2.92106,0.0361693,3.14085,-0.566153,0.040659,2.58707,-8.83128,4.05083,-7.63325,40.5776,11.04,-2.14568,15.6975,3.80592,2.2469,-3.77691e-15,-1.27222e-14,-27.7771,-1.24982,-79.6192,46.2626,18.4846,-21.6295,6.37562,7.12502,4.76649,-23.5508,-3.77691e-15,-1.27222e-14,-24.3147,5.34467,86.2122,33.392,-2.09435,-11.4735,26.8627,7.12502,14.5643,56.3314,-17.9782,4.67524,27.4559,32.5359,-16.9346,-6.5554,18.6642,-34.8514,-0.03463,-13.1857,45.1052,-6.76443,-2.41263,-23.8053
-5.82102,17.7313,2.14234,361.046,65.5888,356.59,6.52638,-0.0744234,1.19982,2.95254,0.0851385,3.18252,-0.619531,0.0657918,2.59682,-8.7167,4.22934,-7.86167,40.5194,11.2961,-2.07256,15.6129,3.89456,2.34149,-1.96797e-14,1.43125e-14,-27.6069,-0.865626,-79.5352,46.4426,18.5568,-21.8151,6.14675,7.12502,4.58727,-23.7836,-1.96797e-14,1.43125e-14,-24.5279,5.14575,86.4325,33.801,-1.8317,-11.7519,27.0003,7.12502,14.2961,56.4881,-17.7085,5.15194,27.1717,32.6402,-17.18,-6.36884,16.5772,-34.9325,-0.760248,-12.7262,43.413,-5.96702,-2.51228,-25.5559
-5.72743,17.7317,2.11782,361,64.6732,356.605,6.69191,0.00200902,1.4164,3.00542,0.205311,3.19921,-0.660622,0.128089,2.48398,-8.7369,4.29571,-7.9813,40.578,11.3724,-1.95328,15.626,3.91697,2.42313,1.59028e-15,4.92986e-14,-27.4653,-0.738782,-79.4404,46.5981,18.6009,-21.8811,6.16418,7.12502,4.52356,-23.7675,1.59028e-15,4.92986e-14,-24.6785,4.79971,86.6289,34.1462,-1.54569,-12.1091,26.9801,7.12502,13.9519,56.492,-17.417,5.66863,27.0022,32.7496,-17.2136,-6.02009,16.1536,-34.8862,-1.44505,-12.0606,41.6607,-4.98973,-2.71086,-26.2571
-5.63367,17.7327,2.09752,361.585,63.7635,357.351,6.81645,0.089031,1.32832,3.09482,0.313728,3.06296,-0.640998,0.181589,2.38487,-8.76532,4.35315,-7.96939,40.6488,11.4042,-1.8351,15.6546,3.93723,2.47692,-2.38542e-14,-7.15625e-15,-27.3672,-0.617047,-79.4396,46.8194,18.5754,-21.9839,6.35801,7.12502,4.42428,-23.5758,-2.38542e-14,-7.15625e-15,-24.7593,4.1164,86.7525,34.4692,-1.04546,-12.3183,26.9495,7.12502,13.7502,56.4752,-17.0265,6.25765,26.4884,32.7193,-17.2699,-5.73169,16.1496,-34.6784,-2.22189,-11.6645,39.8838,-4.05712,-3.27923,-26.6484
-5.54249,17.746,2.08213,362.617,62.9197,358.612,6.87258,0.109896,0.776956,3.23234,0.303239,2.98821,-0.532268,0.170958,2.61908,-8.80026,4.45902,-8.1044,40.6734,11.5852,-1.8332,15.6629,3.98586,2.52604,7.95139e-15,-2.38542e-14,-27.1102,-0.146805,-79.4096,47.01,18.6234,-22.2568,5.93559,7.12502,4.16078,-24.0035,7.95139e-15,-2.38542e-14,-24.8007,3.86746,86.9687,34.791,-0.664935,-12.3601,26.8207,7.12502,13.71,56.3491,-16.6849,6.75815,25.701,32.8074,-17.4415,-5.39191,16.466,-34.5283,-3.04616,-11.5666,38.1537,-3.05626,-4.29407,-26.4964
-5.45485,17.7811,2.05858,363.253,62.0582,359.301,6.88571,0.154339,0.539236,3.32403,0.345059,2.9655,-0.447752,0.188914,2.72679,-8.7632,4.52485,-8.13183,40.6242,11.7101,-1.96099,15.6382,4.01662,2.48931,6.65929e-14,-4.13472e-14,-26.7935,0.181458,-79.3772,47.0226,18.71,-22.7067,5.40161,7.12502,3.7263,-24.5456,6.65929e-14,-4.13472e-14,-24.7453,3.97002,87.1762,34.9306,-0.800099,-12.2163,26.3415,7.12502,13.8485,55.8605,-16.5081,7.10669,25.1278,32.8614,-17.4376,-4.94117,16.5235,-34.8257,-3.90685,-11.2128,36.4947,-1.72681,-4.90931,-27.4023
-5.36313,17.7564,2.00471,363.541,60.8527,359.303,6.90739,0.3189,1.04002,3.28057,0.591399,2.82051,-0.509383,0.317006,2.27659,-8.81284,4.55136,-7.96154,40.6725,11.7442,-2.05654,15.6941,4.03252,2.42941,-4.37326e-15,-3.26007e-14,-26.5534,0.0645135,-79.3805,47.0163,18.6486,-22.5227,5.49933,7.12502,3.90406,-24.4447,-4.37326e-15,-3.26007e-14,-24.8853,3.24995,87.3628,35.4859,-0.497845,-12.3487,26.0533,7.12502,13.721,55.5809,-16.8095,7.57197,24.7397,32.9864,-17.1574,-4.28265,16.3572,-34.9564,-5.16155,-10.1782,34.9361,-0.506274,-4.53357,-27.236
-5.2642,17.7492,1.97677,363.22,59.817,358.781,6.83138,0.387853,1.53828,3.35543,0.709983,2.8312,-0.38809,0.381625,1.99986,-8.93139,4.60645,-7.93986,40.6876,11.8267,-2.08669,15.7318,4.05334,2.42956,5.56597e-15,-6.36111e-15,-26.1803,0.0420229,-79.3219,47.0066,18.1317,-21.6344,5.67934,7.12502,4.76177,-24.2471,5.56597e-15,-6.36111e-15,-25.0805,2.43539,87.5684,36.1478,-0.0680156,-12.8921,26.2569,7.12502,13.1972,55.8192,-16.7347,8.31678,24.7546,33.0445,-17.2091,-3.99498,16.0777,-34.9832,-6.31274,-8.84133,33.5048,0.965382,-4.34071,-27.599
-5.16163,17.7449,1.96214,362.787,58.8852,358.284,6.73132,0.432256,1.82006,3.50052,0.781995,2.95138,-0.182429,0.421764,1.96255,-8.91438,4.65848,-8.02706,40.5767,11.8992,-2.14097,15.6686,4.06422,2.42397,5.76476e-15,2.3059e-14,-25.8344,0.197579,-79.1923,46.9786,17.698,-21.1916,5.69453,7.12502,5.18939,-24.2219,5.76476e-15,2.3059e-14,-25.125,2.03294,87.8028,36.4615,-0.0753083,-13.3202,26.3356,7.12502,12.7845,55.9241,-16.4926,8.88694,24.8451,33.2318,-17.4085,-3.65723,16.0197,-34.8481,-7.46955,-7.51174,32.1553,2.21983,-4.3461,-27.7962
-5.06141,17.7328,1.94886,362.344,57.9893,357.765,6.66268,0.443883,2.07934,3.63367,0.81008,3.1051,-0.00588092,0.440089,1.97563,-8.88869,4.7105,-8.18046,40.4563,12.002,-2.23428,15.5996,4.07432,2.41664,-4.7112e-14,-1.11319e-14,-25.5649,0.447604,-79.121,46.9773,17.5483,-21.1641,5.59242,7.12502,5.21588,-24.3234,-4.7112e-14,-1.11319e-14,-25.5765,0.864979,88.1976,37.6294,0.721109,-13.6923,27.042,7.12502,12.4258,56.6526,-16.2542,9.46278,24.987,33.3313,-17.492,-3.49693,15.5309,-34.6784,-8.65634,-6.10507,30.8296,3.19142,-4.78511,-27.4561
-4.96301,17.7198,1.92786,362.198,56.9073,357.536,6.66692,0.486489,2.21119,3.71896,0.873662,3.20554,0.07925,0.473968,2.00202,-8.81963,4.79121,-8.33372,40.3728,12.143,-2.3108,15.5368,4.10277,2.42048,-1.13108e-13,1.66979e-14,-25.2875,0.842129,-79.0919,46.9272,17.4533,-21.1817,5.45907,7.12502,5.19889,-24.4572,-1.13108e-13,1.66979e-14,-25.9373,0.386085,88.5003,38.3721,0.841732,-14.2863,27.4413,7.12502,11.853,57.0858,-16.1575,10.1476,24.9124,33.502,-17.5918,-3.14745,15.7363,-34.4647,-9.79667,-4.82941,29.5395,3.96467,-5.19764,-26.3854
-4.86609,17.7163,1.89639,362.639,55.4703,358.104,6.85853,0.661898,1.96052,3.81312,1.09487,3.13181,0.0626149,0.581046,2.05062,-8.69372,4.89364,-8.27916,40.28,12.2893,-2.46731,15.4766,4.15584,2.35469,7.05686e-14,3.49861e-14,-24.9898,1.10795,-79.0426,46.8371,17.4947,-21.1655,5.52611,7.12502,5.21453,-24.3897,7.05686e-14,3.49861e-14,-26.0854,0.440765,88.6476,38.5323,0.321046,-14.5625,26.9981,7.12502,11.5867,56.6577,-16.1617,10.8339,24.2851,33.8914,-17.6494,-2.39548,16.1481,-34.0755,-11.0627,-3.94873,28.3075,4.3532,-5.2157,-25.4022
-4.76597,17.7096,1.86525,363.131,54.0269,358.728,6.95545,0.868357,1.70409,3.94642,1.3504,2.99627,0.138107,0.705679,2.0375,-8.71953,4.90624,-8.17364,40.2609,12.3302,-2.64471,15.4991,4.1573,2.269,-2.76311e-14,-2.54444e-14,-24.6639,1.11627,-78.9769,46.7886,17.4827,-20.7865,5.60665,7.12502,5.5805,-24.2999,-2.76311e-14,-2.54444e-14,-26.3909,-0.145265,88.8391,39.2003,0.652311,-14.8282,26.5417,7.12502,11.3305,56.2156,-16.3155,11.5989,23.5794,34.5376,-17.8587,-1.71295,15.7026,-33.6024,-12.2437,-3.19528,27.1328,4.68499,-5.42811,-24.258
-4.66173,17.6771,1.83727,363.563,52.7696,359.15,6.8838,1.03432,1.54186,4.0391,1.55286,2.88253,0.267351,0.804653,2.00029,-8.75431,4.83663,-8.13817,40.2767,12.2401,-2.74445,15.5321,4.10105,2.21037,-1.44914e-13,4.77083e-14,-24.3521,1.14849,-78.9099,46.777,17.2052,-20.4139,5.55841,7.12502,5.94019,-24.3383,-1.44914e-13,4.77083e-14,-26.3412,-0.0893584,88.9844,39.2716,0.588077,-15.0567,25.831,7.12502,11.11,55.517,-16.6288,12.1495,22.982,35.2608,-18.0423,-1.0756,14.7158,-33.0233,-12.8266,-2.73208,25.9866,5.01586,-6.66769,-25.3789
-4.56018,17.6275,1.80701,363.928,51.5589,359.471,6.90932,1.15885,1.37533,4.05876,1.70598,2.81545,0.266947,0.878053,2.01412,-8.66366,4.83239,-8.09668,40.2838,12.2226,-2.82522,15.527,4.08547,2.16137,-4.87022e-14,1.90833e-14,-24.1696,1.31253,-78.8852,46.7934,17.0783,-20.5039,5.32746,7.12502,5.85336,-24.5717,-4.87022e-14,1.90833e-14,-26.2296,0.277816,89.163,39.1836,0.1351,-15.1711,25.5019,7.12502,10.9997,55.1937,-16.9943,12.5545,22.4333,35.9683,-18.186,-0.364329,14.2637,-32.3485,-12.8779,-2.47836,24.9747,4.80602,-9.02341,-30.3165
-4.46279,17.6123,1.77709,364.02,50.2716,359.496,7.01314,1.2413,1.27949,4.11225,1.8114,2.86014,0.257813,0.928537,2.10549,-8.6558,4.91479,-8.1256,40.3046,12.3717,-2.92687,15.5438,4.12243,2.14293,-3.20043e-14,1.90833e-14,-23.9228,1.80098,-78.9048,46.7378,16.7904,-21.0166,5.11096,7.12502,5.35833,-24.8013,-3.20043e-14,1.90833e-14,-26.3227,0.429463,89.4036,39.5405,0.061828,-15.3286,25.9844,7.12502,10.8478,55.6843,-17.2392,13.2015,22.0602,36.5311,-18.3407,0.312825,14.201,-32.2237,-13.586,-1.5212,24.0946,6.21732,-9.74044,-25.9156
-4.36903,17.6109,1.74749,364.116,48.8951,359.545,7.13358,1.37273,1.22059,4.19578,1.98283,2.84191,0.271465,1.0131,2.10658,-8.70415,4.97537,-8.20825,40.3304,12.4537,-2.89965,15.5583,4.13682,2.17983,-6.55989e-14,1.82882e-14,-23.6253,2.1504,-78.9471,46.6501,16.2583,-21.4102,4.99665,7.12502,4.9783,-24.9249,-6.55989e-14,1.82882e-14,-26.4874,0.254333,89.5829,40.0046,0.420944,-15.6083,26.3588,7.12502,10.578,56.0726,-17.4232,13.9829,21.6552,36.958,-18.4509,0.969435,14.1088,-32.0359,-14.0363,-0.851591,23.3871,7.27069,-10.4253,-23.5462
-4.27199,17.6068,1.72101,364.303,47.5518,359.698,7.22219,1.49951,1.16145,4.24246,2.1459,2.73577,0.267907,1.09369,2.0174,-8.71971,5.02707,-8.25732,40.4248,12.4798,-2.76437,15.5899,4.14382,2.24849,4.57205e-14,-1.90833e-14,-23.4009,2.37743,-79.0218,46.6634,15.8481,-21.3872,4.75294,7.12502,5.00052,-25.1681,4.57205e-14,-1.90833e-14,-26.9153,-0.401945,89.6786,40.7572,1.1716,-15.9022,26.5108,7.12502,10.2945,56.2388,-17.5715,14.7084,21.1642,37.251,-18.4978,1.5863,13.6922,-31.7317,-14.2515,-0.530248,22.8585,7.40689,-12.0082,-25.9789
-4.16985,17.5867,1.69218,364.477,46.2739,359.739,7.19613,1.58585,1.14193,4.29313,2.25466,2.65851,0.333975,1.14759,1.943,-8.67367,5.06314,-8.2024,40.4523,12.4744,-2.73226,15.5913,4.14436,2.24739,-5.62561e-14,5.00937e-14,-23.1029,2.66073,-79.116,46.6515,15.5786,-21.1966,4.53629,7.12502,5.18457,-25.3803,-5.62561e-14,5.00937e-14,-27.3896,-1.09946,89.7717,41.6414,2.1894,-16.3346,26.4884,7.12502,9.8773,56.2367,-17.8439,15.2063,20.7136,37.6018,-18.4864,2.30331,13.1963,-31.4676,-14.2912,-0.258529,22.551,7.15179,-13.9394,-29.7818
-4.06794,17.5592,1.65857,364.583,45.0263,359.655,7.18939,1.64715,1.21394,4.34727,2.33675,2.60821,0.396444,1.18973,1.84663,-8.56276,5.15217,-8.0889,40.43,12.5373,-2.75161,15.5593,4.1811,2.21943,-3.1408e-14,2.22639e-14,-22.7817,2.93306,-79.1928,46.6429,15.4374,-21.0526,4.43228,7.12502,5.32355,-25.4809,-3.1408e-14,2.22639e-14,-27.6537,-1.26027,89.8341,42.2122,2.50129,-16.7171,26.3683,7.12502,9.50832,56.1337,-18.2178,15.6402,20.3223,38.0259,-18.4441,3.05909,12.8287,-31.1732,-14.3335,0.105127,22.3536,7.25766,-15.0627,-31.1723
-3.96477,17.531,1.62133,364.683,43.7502,359.593,7.40405,1.66489,1.41599,4.27795,2.37547,2.43486,0.220765,1.21254,1.54378,-8.41165,5.34085,-7.94176,40.5285,12.6903,-2.59608,15.5579,4.27773,2.27158,-1.13307e-14,1.27222e-14,-22.7344,3.10065,-79.4581,46.7859,15.5926,-21.0303,4.3452,7.12502,5.34513,-25.5674,-1.13307e-14,1.27222e-14,-27.9697,-0.842398,89.6079,42.6351,1.25704,-15.7647,26.4807,7.12502,10.4272,56.2021,-18.6089,16.1692,19.8774,38.4934,-18.4261,3.91778,13.1845,-30.759,-14.4487,0.429385,22.2678,7.512,-15.5673,-30.8545
-3.85951,17.5093,1.58298,364.902,42.4537,359.71,7.75973,1.69925,1.59321,4.08541,2.43922,2.14121,-0.155421,1.24599,1.12162,-8.1902,5.47826,-7.67939,40.6786,12.7218,-2.39323,15.5707,4.34555,2.30562,-1.16289e-13,-7.15625e-15,-22.8677,3.14463,-79.8388,46.8746,15.729,-20.9016,4.30571,7.12502,5.46935,-25.6037,-1.16289e-13,-7.15625e-15,-28.5222,-1.06959,89.5379,43.0958,1.58623,-15.8685,26.2307,7.12502,10.327,55.9571,-19.0005,16.699,19.2813,38.9777,-18.4909,4.75406,13.1653,-30.324,-14.5569,0.507273,22.2779,7.76108,-15.9669,-28.8442
-3.75142,17.4894,1.54604,365.154,41.2016,359.787,7.76144,1.72865,1.55026,4.1047,2.47225,2.08425,-0.136069,1.26161,1.08485,-8.23721,5.52864,-7.62119,40.8031,12.7831,-2.40127,15.6497,4.3591,2.30569,1.47101e-14,-1.35174e-14,-22.5916,3.46602,-79.8816,46.8835,15.6167,-20.8685,4.25541,7.12502,5.50128,-25.6532,1.47101e-14,-1.35174e-14,-28.6487,-1.14379,89.7601,43.525,1.8232,-15.0849,26.1717,7.12502,11.0828,55.8591,-19.4694,16.9969,18.6988,39.48,-18.5172,5.64451,12.4518,-29.973,-14.5502,0.500389,22.4071,7.34806,-16.603,-25.9248
-3.64317,17.4653,1.50728,365.454,39.9162,359.799,7.4132,1.74935,1.29116,4.33761,2.47025,2.23092,0.279248,1.25708,1.398,-8.47934,5.554,-7.73924,40.7358,12.9405,-2.67996,15.6975,4.35407,2.24035,9.12422e-14,-2.06736e-14,-21.9212,4.00973,-79.6561,46.9276,15.5468,-20.9622,4.35621,7.12502,5.41084,-25.5547,9.12422e-14,-2.06736e-14,-28.348,-0.579853,90.0699,43.6568,1.34067,-15.4436,26.2414,7.12502,10.7369,55.947,-20.0933,17.2795,18.0922,39.9712,-18.3995,6.61389,12.0834,-29.7221,-14.4063,0.501432,22.7053,5.95471,-17.1974,-24.9251
-3.5439,17.4386,1.45984,365.824,38.9132,359.814,7.25884,1.68927,1.14894,4.43532,2.37549,2.28309,0.458914,1.20668,1.54524,-8.58719,5.56061,-7.7905,40.5426,13.0079,-2.94902,15.6515,4.33501,2.14327,2.34566e-14,-7.95139e-15,-21.3657,4.50227,-79.5571,46.9297,15.5669,-21.1886,4.42648,7.12502,5.19229,-25.4899,2.34566e-14,-7.95139e-15,-28.3062,-0.431932,90.1918,43.9997,1.00824,-16.8293,26.5319,7.12502,9.40003,56.3023,-20.8418,17.2921,17.4457,40.4395,-18.2702,7.56551,11.9538,-29.7798,-14.193,0.422142,23.1771,4.39363,-17.4341,-25.6165
-3.43995,17.4187,1.41524,366.01,37.818,359.783,7.24536,1.66972,1.10651,4.55025,2.34377,2.2901,0.583806,1.18993,1.58144,-8.56299,5.58485,-7.76271,40.426,13.0278,-3.08448,15.6026,4.32665,2.07714,2.42517e-14,-7.95139e-15,-20.9291,4.675,-79.5116,46.9974,15.8217,-21.2569,4.42826,7.12502,5.12626,-25.4897,2.42517e-14,-7.95139e-15,-28.3514,-0.583053,90.3026,44.4629,0.915927,-17.9132,26.6636,7.12502,8.35406,56.4784,-21.3661,17.2763,16.8896,40.8309,-18.1201,8.6085,11.9611,-29.6463,-13.8871,0.224007,23.7574,3.16297,-16.6885,-24.7286
-3.33427,17.3982,1.37171,366.154,36.6997,359.639,7.13136,1.62786,1.11214,4.74809,2.28209,2.35501,0.850348,1.15887,1.65743,-8.63543,5.63312,-7.80155,40.3294,13.0988,-3.18656,15.5778,4.32864,2.04868,-5.1684e-15,-2.38542e-15,-20.3187,4.69923,-79.4329,47.1006,16.0509,-21.0862,4.46707,7.12502,5.29108,-25.4469,-5.1684e-15,-2.38542e-15,-28.1083,-0.355991,90.5262,44.6843,0.487816,-18.0473,26.8041,7.12502,8.22464,56.624,-21.8917,17.405,16.4222,41.1264,-17.9082,9.51564,11.656,-29.5229,-13.493,0.0676222,24.3774,2.19183,-15.4874,-23.2289
-3.23265,17.3798,1.32449,366.33,35.6374,359.453,7.22892,1.54222,1.10731,4.80943,2.16893,2.44563,0.858849,1.10084,1.75911,-8.74938,5.69102,-7.9635,40.3562,13.191,-3.1577,15.6027,4.32982,2.10325,1.41535e-13,-7.95139e-15,-19.8559,5.10481,-79.3428,47.2642,15.8927,-20.7121,4.67245,7.12502,5.65231,-25.2322,1.41535e-13,-7.95139e-15,-28.1099,-0.0269535,90.7888,44.9893,-0.249294,-17.9296,27.7252,7.12502,8.33828,57.5407,-22.4603,17.6329,15.9681,41.3111,-17.6377,10.2859,11.6167,-29.5275,-13.0634,-0.0814936,24.9802,1.75422,-14.7508,-22.5665
-3.13342,17.3645,1.27609,366.594,34.6108,359.373,7.47694,1.48491,1.04565,4.73097,2.09509,2.44854,0.640148,1.0616,1.79255,-8.78214,5.71535,-8.03128,40.5724,13.2006,-3.02566,15.7021,4.31543,2.17572,8.38871e-14,-1.98785e-14,-19.7216,5.47193,-79.3572,47.4977,15.7974,-20.7966,4.94857,7.12502,5.57075,-24.9582,8.38871e-14,-1.98785e-14,-28.3299,-0.0234091,90.9237,45.2815,-0.886134,-18.2835,28.5091,7.12502,7.99676,58.3379,-23.0345,17.8122,15.4002,41.4141,-17.2646,11.1493,12.6101,-29.6025,-12.5532,-0.374072,25.549,1.57488,-14.7554,-20.9247
-3.03421,17.348,1.23042,366.813,33.687,359.11,7.56798,1.4285,1.16979,4.65631,2.02931,2.42563,0.519358,1.0304,1.69985,-8.61324,5.71912,-7.8401,40.6554,13.1402,-3.07654,15.7249,4.30151,2.10522,-1.25234e-13,4.13472e-14,-19.6754,5.56983,-79.4733,47.7899,15.8781,-21.0653,4.82957,7.12502,5.31132,-25.0839,-1.25234e-13,4.13472e-14,-28.4573,-0.691383,90.8642,45.4383,-0.661228,-19.0179,28.6952,7.12502,7.28792,58.5497,-23.6132,17.8596,15.0089,41.4477,-16.8588,12.0691,13.4648,-29.7679,-11.8281,-0.590786,26.1068,1.33358,-15.1727,-19.6346
-2.94059,17.334,1.18287,367.01,32.947,358.576,7.58229,1.29518,1.47348,4.63211,1.87186,2.54158,0.495998,0.955826,1.65954,-8.59031,5.73415,-7.81657,40.6355,13.1401,-3.14702,15.719,4.28611,2.06688,1.11319e-14,-3.97569e-15,-19.3705,5.7629,-79.4801,48.0348,15.8657,-21.0658,4.45577,7.12502,5.31081,-25.4577,1.11319e-14,-3.97569e-15,-28.4135,-1.41628,90.9393,45.6515,-0.0677822,-19.9119,29.1439,7.12502,6.4249,59.0265,-24.2846,17.7807,14.8773,41.4234,-16.3911,12.9372,14.4449,-30.184,-10.9859,-0.583426,26.6401,0.587359,-15.3022,-21.5924
-2.85104,17.331,1.13184,367.382,32.2029,358.38,7.72401,1.18417,1.46084,4.63287,1.72795,2.6223,0.418614,0.882261,1.7568,-8.81235,5.73007,-8.01185,40.7484,13.1367,-3.00938,15.8007,4.24663,2.16792,-7.95139e-14,4.21423e-14,-19.083,5.95032,-79.4198,48.3661,15.9822,-21.1462,4.05657,7.12502,5.23319,-25.8588,-7.95139e-14,4.21423e-14,-28.2309,-1.67353,91.1927,45.6714,-0.0469472,-20.6711,28.2824,7.12502,5.69194,58.186,-24.9538,17.7898,14.4261,41.3679,-15.9831,13.5892,15.0413,-30.5971,-10.1502,-0.973341,27.1392,-1.00862,-15.072,-27.8361
-2.76743,17.3363,1.08024,367.905,31.4153,358.684,8.05129,1.10417,0.962882,4.67564,1.59635,2.56979,0.273015,0.807237,1.98544,-9.19974,5.7199,-8.139,40.9059,13.1387,-2.87151,15.9499,4.20845,2.27015,1.59028e-14,-6.36111e-15,-18.8487,6.07799,-79.393,48.7577,16.0285,-21.3044,4.0243,7.12502,5.08042,-25.8948,1.59028e-14,-6.36111e-15,-27.8412,-1.89755,91.3642,45.3718,-0.226292,-21.3698,25.7976,7.12502,5.01731,55.7182,-25.5198,17.7946,13.5563,41.3064,-15.6901,14.079,14.6451,-30.8325,-9.30627,-1.967,27.5542,-3.13908,-14.9389,-35.4734
-2.69021,17.3438,1.02619,368.487,30.6744,359.087,8.34119,1.00715,0.273165,4.80752,1.42406,2.54631,0.23924,0.708258,2.35902,-9.68498,5.70244,-8.26758,40.9845,13.1633,-2.82223,16.0927,4.16786,2.34224,4.17448e-14,3.02153e-14,-18.3966,6.21025,-79.2798,49.0326,16.0434,-21.3884,4.51485,7.12502,4.99937,-25.4062,4.17448e-14,3.02153e-14,-27.2913,-2.33877,91.5963,45.4054,-0.0727228,-21.6076,26.0557,7.12502,4.78769,55.9816,-26.1148,17.7144,12.6079,41.2283,-15.3148,14.5807,14.2508,-31.0665,-8.64115,-3.00414,27.8436,-5.20549,-14.7402,-41.2648
-2.61499,17.3489,0.970663,369.012,29.972,359.386,8.60963,0.907014,-0.284837,4.93469,1.25292,2.47541,0.220805,0.612357,2.61138,-9.88829,5.65963,-8.22757,40.9197,13.0637,-2.83213,16.1112,4.11329,2.32278,2.26615e-14,-1.03368e-14,-17.9576,6.2389,-79.2547,49.3015,16.1258,-21.4911,4.69627,7.12502,4.90019,-25.2271,2.26615e-14,-1.03368e-14,-26.7754,-2.89252,91.6205,45.2019,-0.00949148,-22.0668,25.3741,7.12502,4.34423,55.3096,-26.7252,17.6451,11.7547,41.1204,-14.9012,15.0062,14.047,-31.259,-8.23311,-3.8313,27.9977,-6.97204,-14.0477,-45.388
-2.53685,17.3524,0.914144,369.391,29.3244,359.44,8.92419,0.799891,-0.536781,5.02738,1.09347,2.41212,0.149024,0.528496,2.6984,-9.87133,5.60174,-8.16415,40.8032,12.8742,-2.78804,16.0448,4.04534,2.29451,-1.61016e-14,-4.77083e-15,-17.6847,6.10363,-79.325,49.6121,16.2284,-21.7821,4.56111,7.12502,4.61922,-25.3685,-1.61016e-14,-4.77083e-15,-26.3308,-3.78412,91.6267,45.0609,0.089069,-22.6367,24.9849,7.12502,3.7939,54.9309,-27.2623,17.4672,11.1662,40.9493,-14.9207,15.3499,12.4475,-31.4715,-8.08406,-4.28471,28.0802,-7.86406,-13.0187,-47.4563
-2.45826,17.3621,0.85214,369.853,28.7878,359.374,9.1424,0.680432,-0.64518,5.08766,0.927789,2.42002,0.0990492,0.443456,2.78077,-9.93329,5.51921,-8.15014,40.7625,12.6885,-2.74177,16.0358,3.96488,2.28341,-1.66979e-14,1.59028e-15,-17.5149,5.97474,-79.3372,50.0125,16.2283,-21.9222,4.50532,7.12502,4.48387,-25.4272,-1.66979e-14,1.59028e-15,-25.8991,-4.66809,91.6957,45.0583,-0.0607563,-22.744,25.5632,7.12502,3.6903,55.511,-27.9004,17.1762,10.6607,40.7101,-14.9742,15.638,10.5594,-31.946,-8.37762,-4.36513,28.1559,-7.82292,-12.0848,-47.5663
-2.38406,17.3758,0.787041,370.418,28.3077,359.316,9.31838,0.554299,-0.788208,5.06938,0.750489,2.45069,-0.00845545,0.352454,2.90807,-9.89403,5.44028,-8.25918,40.7361,12.4914,-2.59771,15.9909,3.87919,2.32653,-6.57977e-14,-1.35174e-14,-17.0992,5.99516,-79.2435,50.1403,15.978,-21.8306,4.5631,7.12502,4.57235,-25.3675,-6.57977e-14,-1.35174e-14,-25.6226,-5.60645,91.7596,45.1192,-0.148017,-22.5032,26.2099,7.12502,3.9229,56.1536,-28.6456,16.9305,10.125,40.3992,-14.3213,15.8518,11.5663,-32.6211,-8.7997,-4.32224,28.3156,-7.5273,-11.3472,-46.871
-2.31047,17.3889,0.722609,370.929,27.7462,359.188,9.52873,0.446077,-0.914791,5.04873,0.597923,2.48914,-0.137454,0.274424,3.03273,-9.80031,5.38391,-8.37889,40.7448,12.3142,-2.4148,15.9464,3.80514,2.38873,-2.42517e-14,-4.77083e-15,-16.5322,5.97491,-79.1693,50.0898,15.7432,-21.884,4.54188,7.12502,4.52083,-25.3899,-2.42517e-14,-4.77083e-15,-25.3636,-6.72881,91.803,45.1842,-0.134811,-22.467,26.1527,7.12502,3.95781,56.0957,-29.3853,16.8499,9.64444,40.0335,-14.0987,15.7586,11.8081,-33.3019,-9.10983,-4.228,28.5773,-7.24538,-10.5388,-46.1429
-2.23687,17.4003,0.658766,371.456,27.0553,359.034,9.67592,0.407644,-1.01827,5.0875,0.537804,2.49336,-0.174651,0.242127,3.10115,-9.79373,5.29131,-8.37039,40.7342,12.1097,-2.35379,15.9369,3.71945,2.37979,1.07344e-14,-1.55052e-14,-16.6088,5.66874,-79.2768,50.6683,15.7318,-22.2064,4.59839,7.12502,4.20942,-25.3398,1.07344e-14,-1.55052e-14,-25.0358,-8.05231,91.7282,45.3243,-0.455168,-22.1454,26.6658,7.12502,4.2684,56.6028,-30.1418,16.7279,9.21333,39.6171,-14.2966,15.4124,9.28429,-33.9781,-9.1159,-4.20139,28.8671,-7.08695,-9.7604,-45.6495
-2.1653,17.4134,0.597472,371.852,26.4035,358.741,9.87295,0.397933,-1.0058,5.13534,0.525772,2.51873,-0.231892,0.235967,3.12135,-9.68875,5.17051,-8.31246,40.6364,11.8451,-2.34244,15.8683,3.61941,2.32559,-2.50469e-14,-6.36111e-15,-16.9927,5.29137,-79.4612,51.442,15.682,-22.8455,4.90205,7.12502,3.59233,-25.0474,-2.50469e-14,-6.36111e-15,-24.7594,-9.53998,91.6334,45.4428,-1.00487,-21.5953,27.8113,7.12502,4.79956,57.737,-30.7531,16.5225,9.03699,39.1404,-14.0508,14.9012,7.46815,-34.5721,-8.86926,-4.14071,29.1676,-7.09767,-9.23271,-45.4475
-2.09418,17.4357,0.536776,372.181,25.7525,358.443,10.1421,0.34475,-1.02025,5.21155,0.455404,2.6062,-0.295569,0.199513,3.22759,-9.60958,5.11766,-8.49173,40.5146,11.7334,-2.30717,15.7738,3.55311,2.34286,8.34896e-15,3.93594e-14,-16.8975,5.19063,-79.5092,51.7475,15.6529,-23.3986,5.1389,7.12502,3.0582,-24.8189,8.34896e-15,3.93594e-14,-24.4099,-10.878,91.6093,45.5549,-1.68114,-21.4033,28.0604,7.12502,4.98497,57.9817,-31.3041,16.4367,8.87421,38.6175,-13.5556,14.4176,9.04877,-35.0925,-8.58192,-4.11467,29.4833,-7.15734,-8.76877,-45.3514
-2.02227,17.4547,0.47459,372.587,24.9735,358.169,10.2392,0.244214,-1.12857,5.44415,0.313543,2.76156,-0.0975308,0.120572,3.46637,-9.8455,5.09342,-9.06851,40.2901,11.7767,-2.2448,15.6726,3.49227,2.47095,-4.73108e-14,1.90833e-14,-16.2752,5.44213,-79.4478,51.8122,15.7807,-23.7412,5.25235,7.12502,2.72731,-24.71,-4.73108e-14,1.90833e-14,-23.8166,-12.0408,91.5542,45.805,-2.26018,-21.6683,27.4796,7.12502,4.72906,57.4068,-31.8939,16.2555,8.73812,38.0515,-13.1223,13.7809,10.0377,-35.619,-8.16568,-4.13843,29.7554,-7.20504,-8.2664,-45.1971
-1.95097,17.4635,0.413524,372.967,24.0124,357.742,10.2564,0.409883,-1.01652,5.55261,0.539199,2.76741,-0.00899576,0.23272,3.38635,-9.59707,4.89762,-9.18788,40.0861,11.3349,-2.03952,15.4918,3.33238,2.4922,4.41302e-14,-2.26615e-14,-16.3135,4.91713,-79.5307,52.1606,16.0541,-24.0852,5.12116,7.12502,2.3951,-24.8451,4.41302e-14,-2.26615e-14,-23.496,-14.0345,91.4526,46.048,-2.7684,-21.9994,26.843,7.12502,4.4093,56.7772,-32.4377,15.8789,8.94778,37.4667,-13.1106,12.7403,6.39918,-36.072,-7.59411,-4.00872,29.9412,-7.19912,-7.70165,-45.031
-1.87998,17.4809,0.354864,373.297,22.9891,357.252,10.4457,0.593371,-0.786911,5.54393,0.799693,2.73793,-0.135964,0.368107,3.19768,-9.33627,4.78176,-9.28575,40.037,11.0048,-1.75583,15.3792,3.22278,2.56322,-2.94201e-14,4.37326e-15,-16.606,4.54549,-79.6869,52.6205,15.8878,-24.0884,4.93836,7.12502,2.39194,-25.028,-2.94201e-14,4.37326e-15,-23.3922,-15.8184,91.2938,46.3567,-3.38313,-22.366,26.0916,7.12502,4.0553,56.0327,-32.9525,15.5289,9.28302,36.8708,-13.0751,11.5205,4.7215,-36.4311,-7.01216,-3.81129,30.0944,-7.1732,-7.11629,-44.8727
-1.8115,17.5079,0.29978,373.644,22.0106,356.918,10.6257,0.76507,-0.679877,5.53659,1.03279,2.62759,-0.25281,0.487891,2.99573,-9.00291,4.67279,-9.17536,39.983,10.6741,-1.59635,15.2728,3.12775,2.54557,-1.59028e-15,5.80451e-14,-16.9044,4.20465,-79.933,52.9977,15.6825,-23.9126,4.81214,7.12502,2.56179,-25.1522,-1.59028e-15,5.80451e-14,-23.4084,-17.5512,91.0679,46.7809,-3.98513,-23.002,25.0608,7.12502,3.44115,55.0128,-33.3764,15.0793,9.53677,36.3047,-12.9859,10.1215,5.32,-36.6875,-6.51797,-3.76331,30.18,-7.14693,-6.53823,-44.7291
-1.74557,17.5319,0.246491,374.036,21.0065,356.646,10.7242,0.731962,-0.818175,5.66736,0.974749,2.69753,-0.169456,0.452781,3.15348,-9.07936,4.71455,-9.6682,39.9082,10.802,-1.53973,15.219,3.11173,2.66543,4.59193e-14,-7.95139e-15,-16.6773,4.72922,-80.0587,53.1968,15.6337,-23.9877,4.78544,7.12502,2.48928,-25.1798,4.59193e-14,-7.95139e-15,-23.2294,-18.323,90.8976,47.2911,-4.82653,-23.5126,24.8135,7.12502,2.94812,54.7729,-33.7577,14.542,9.80093,35.7879,-13.1202,8.29928,4.98374,-36.9003,-6.01566,-3.76595,30.158,-7.05129,-5.9772,-44.5139
-1.67977,17.5527,0.19064,374.484,19.9012,356.328,10.7437,0.915676,-0.794219,5.68181,1.21436,2.59806,-0.177541,0.572645,3.01008,-8.84611,4.61526,-9.49696,39.8594,10.5735,-1.60144,15.1638,3.0346,2.56655,3.57812e-15,1.70955e-14,-16.7768,4.5264,-80.2933,53.4361,15.5973,-23.9614,4.97383,7.12502,2.51465,-24.9911,3.57812e-15,1.70955e-14,-23.1778,-19.8382,90.6888,47.8052,-5.36627,-23.6784,25.0712,7.12502,2.78799,55.0327,-34.2584,14.0776,10.0501,35.3513,-13.5758,6.11375,6.16715,-37.0913,-5.49285,-3.70375,29.9946,-6.8657,-5.33298,-44.4468
-1.61258,17.5715,0.131648,375.001,18.8072,356.047,10.6064,1.04128,-0.783105,5.78645,1.37504,2.52631,-0.00155332,0.650334,2.91485,-8.97555,4.5498,-9.55166,39.9141,10.4829,-1.5774,15.2206,2.97566,2.57945,-2.50469e-14,3.97569e-16,-16.6104,4.5422,-80.4906,53.5818,15.551,-23.9176,5.02849,7.12502,2.55694,-24.9359,-2.50469e-14,3.97569e-16,-22.9457,-21.0202,90.4238,48.3597,-5.68138,-23.9309,24.7804,7.12502,2.54408,54.745,-34.829,13.4118,10.33,35.0409,-14.279,3.77631,7.19709,-37.3713,-5.01205,-3.66922,29.8032,-6.6246,-4.64898,-44.4487
-1.55556,17.6044,0.0901708,375.072,18.2891,355.939,10.8584,0.967726,-0.925636,5.97282,1.26395,2.54417,0.0595151,0.589401,3.02472,-8.90035,4.50643,-9.66197,39.9079,10.4264,-1.61997,15.2028,2.92549,2.56686,3.27001e-14,2.5842e-14,-16.4108,4.78651,-80.6805,53.6425,15.345,-23.7052,4.70614,7.12502,2.76205,-25.2557,3.27001e-14,2.5842e-14,-22.9237,-21.8595,90.2444,48.996,-6.05998,-24.2095,24.1495,7.12502,2.27501,54.1171,-34.5679,12.5066,10.8132,34.8344,-15.535,1.01233,5.59282,-37.2471,-4.86447,-3.80641,29.614,-6.5594,-4.34566,-44.1371
-1.49639,17.6298,0.0387567,375.355,17.5263,355.729,11.0061,0.992873,-0.941909,5.97966,1.29326,2.50871,-0.0148262,0.603866,2.99187,-8.58496,4.46219,-9.63359,39.878,10.3156,-1.70794,15.1301,2.87601,2.49361,-2.24627e-14,-3.77691e-15,-16.2866,5.02687,-80.9093,53.5955,15.0383,-23.454,4.54591,7.12502,3.00465,-25.4127,-2.24627e-14,-3.77691e-15,-23.0996,-22.6928,90.1229,49.6857,-6.33496,-24.2463,23.8588,7.12502,2.23952,53.8268,-34.7305,11.4859,11.3099,34.7265,-16.762,-1.62564,1.75972,-37.3947,-4.62555,-3.81262,29.5108,-6.40182,-3.81582,-43.9654
-1.43435,17.6484,-0.0113078,375.723,16.5453,355.532,10.9808,1.0619,-0.978843,6.06497,1.37595,2.42639,0.0840408,0.642638,2.9193,-8.66626,4.40132,-9.61595,39.97,10.2588,-1.798,15.2091,2.82576,2.45083,3.69243e-14,1.3418e-14,-16.0516,5.36855,-81.1356,53.3683,15.1521,-23.7971,5.13341,7.12502,2.67335,-24.8296,3.69243e-14,1.3418e-14,-23.0447,-23.4547,89.913,50.3079,-6.16418,-24.7261,23.7187,7.12502,1.77606,53.6911,-34.987,10.3748,11.8433,34.7042,-17.6166,-3.90571,-0.611286,-37.5923,-4.40501,-3.80235,29.479,-6.19543,-3.08057,-43.8034
-1.37639,17.6622,-0.0597026,376.046,15.6725,355.392,11.0476,1.00341,-1.12174,6.08666,1.28315,2.42478,0.0733795,0.591959,3.00791,-8.70274,4.45127,-9.98434,40.1436,10.3923,-1.71305,15.2775,2.81897,2.56919,-5.41688e-15,-2.15184e-14,-15.9429,6.11289,-81.3346,53.1418,15.4397,-24.3851,5.60603,7.12502,2.10541,-24.3633,-5.41688e-15,-2.15184e-14,-23.2745,-23.6578,89.8582,50.9971,-5.93945,-25.1269,23.8166,7.12502,1.38896,53.7919,-35.1023,9.14102,12.4253,34.7997,-18.0744,-5.63049,0.49309,-37.8335,-4.18099,-3.86755,29.5626,-6.06127,-2.47377,-43.4747
-1.32155,17.674,-0.111663,376.37,14.9663,355.255,11.1888,1.04652,-1.10618,5.99198,1.33849,2.33335,-0.103293,0.622731,2.89457,-8.63801,4.38146,-10.0827,40.5165,10.2128,-1.39234,15.4243,2.74131,2.70198,1.28092e-14,1.34677e-14,-16.1745,6.30284,-81.5857,53.1954,15.7058,-24.8751,5.55174,7.12502,1.63217,-24.4218,1.28092e-14,1.34677e-14,-23.6948,-24.2866,89.8435,51.6951,-5.8714,-24.9932,22.7341,7.12502,1.51813,52.7085,-35.2333,7.82136,13.0122,35.0138,-18.258,-6.74655,1.96043,-38.1722,-3.91268,-3.96205,29.7065,-6.02148,-2.02168,-43.29
-1.26714,17.6857,-0.161291,376.692,14.2727,355.121,11.1472,1.01318,-1.1875,5.99138,1.28535,2.36246,-0.0802664,0.59293,2.97744,-8.12428,4.34738,-9.76485,40.1343,10.189,-2.05573,15.1939,2.72513,2.33418,1.83752e-14,1.48343e-14,-16.2657,6.91316,-81.7104,53.3425,15.8482,-25.4818,5.59186,7.12502,1.04625,-24.3853,1.83752e-14,1.48343e-14,-23.9535,-24.398,89.8751,52.2813,-6.17265,-26.049,19.4521,7.12502,0.498427,49.4312,-35.3818,6.50136,13.6,35.3739,-18.3743,-7.57777,1.48625,-38.4972,-3.65122,-4.05117,29.8301,-5.95632,-1.58529,-43.1115
-1.21338,17.696,-0.20808,376.868,13.534,354.885,11.1515,0.975828,-1.1692,6.15179,1.23562,2.43718,0.0870158,0.56348,3.05234,-8.126,4.29784,-9.86145,39.9396,10.2307,-2.42688,15.1308,2.68677,2.1961,3.46134e-14,1.5207e-14,-16.1067,7.5443,-81.7637,53.4431,16.0548,-25.5209,5.79957,7.12502,1.00845,-24.1778,3.46134e-14,1.5207e-14,-23.9432,-24.5288,89.8981,52.7326,-6.32284,-25.3164,19.8356,7.12502,1.20597,49.8119,-35.3797,5.33082,14.2641,35.8801,-18.4415,-8.11343,0.736242,-38.6421,-3.37713,-4.0355,29.9096,-5.86741,-1.17442,-42.854
-1.16323,17.7053,-0.251983,376.965,12.6703,354.715,11.2555,0.98639,-1.26413,6.28809,1.23711,2.44362,0.171446,0.558735,3.11285,-8.41484,4.29318,-10.2036,40.159,10.2815,-2.2313,15.2744,2.65279,2.35685,1.73937e-15,2.14687e-14,-16.0877,8.06675,-81.8852,53.5736,16.5146,-24.1145,5.42193,7.12502,2.36675,-24.5447,1.73937e-15,2.14687e-14,-24.0234,-24.7883,89.9509,52.9959,-6.23615,-25.4171,19.6316,7.12502,1.10874,49.6084,-35.3239,4.35613,14.7697,36.5029,-18.1302,-8.3217,0.471256,-38.6336,-3.16039,-4.05382,29.9818,-5.80003,-0.584846,-42.7387
-1.11404,17.7132,-0.296091,377.091,11.7992,354.585,11.3239,1.01307,-1.33881,6.38277,1.26118,2.39783,0.231523,0.566988,3.10487,-8.62114,4.30531,-10.3901,40.3668,10.3177,-2.06093,15.4023,2.63482,2.47614,-4.47266e-15,-3.37934e-15,-16.0856,8.50138,-82.0295,53.5957,17.1324,-24.3066,5.8908,7.12502,2.18125,-24.0778,-4.47266e-15,-3.37934e-15,-24.1671,-25.1764,90.0067,53.1581,-6.04663,-25.9362,18.9172,7.12502,0.607326,48.8961,-35.3231,3.41999,15.1686,37.2286,-17.454,-8.37251,0.519561,-38.6447,-2.91011,-4.12796,30.0278,-5.7235,-0.0562904,-42.6737
-1.06771,17.7198,-0.341551,377.244,10.8417,354.432,11.347,1.14555,-1.42466,6.40232,1.42367,2.35505,0.228238,0.645158,3.09051,-8.43563,4.24157,-10.2959,40.3679,10.2003,-2.1825,15.382,2.5834,2.38472,-2.08724e-14,-1.02374e-14,-16.1818,8.84421,-82.1421,53.548,17.5487,-24.1908,6.18829,7.12502,2.29305,-23.7791,-2.08724e-14,-1.02374e-14,-24.4217,-25.6659,90.1851,53.3519,-5.74586,-26.2009,18.305,7.12502,0.351723,48.2844,-35.3687,2.66042,15.4959,38.0352,-16.6832,-8.38008,0.760925,-38.6089,-2.41933,-4.26105,29.9535,-5.61143,0.248259,-42.4664
-1.02481,17.7337,-0.384324,377.457,9.70831,354.337,11.2956,1.45489,-1.58535,6.32175,1.81078,2.19313,0.147106,0.837026,2.96862,-8.01054,4.06669,-9.81046,40.3964,9.8221,-2.35993,15.3498,2.47853,2.16132,1.59028e-15,-1.39149e-14,-16.6026,8.75949,-82.3872,53.6306,17.8073,-23.6294,6.11085,7.12502,2.83527,-23.85,1.59028e-15,-1.39149e-14,-24.782,-26.5174,90.3711,53.6876,-5.52781,-25.6513,18.4658,7.12502,0.882542,48.4437,-35.5903,2.13638,15.6602,38.9309,-15.5643,-8.76451,0.660598,-38.5152,-1.81498,-4.48955,29.8316,-5.48699,0.648862,-42.2893
-0.978371,17.763,-0.422202,377.665,8.81813,354.248,11.1429,1.62253,-1.58495,6.3666,2.02811,2.07302,0.266703,0.944279,2.82325,-7.90753,3.90795,-9.60787,40.3667,9.52468,-2.40843,15.3335,2.37708,2.06178,3.27995e-15,-4.34344e-14,-16.8081,8.79902,-82.5471,53.7344,18.1871,-23.4473,6.01669,7.12502,3.01113,-23.9418,3.27995e-15,-4.34344e-14,-24.7844,-27.1089,90.414,54.013,-5.78096,-24.3783,19.0521,7.12502,2.11205,49.0214,-35.9318,1.40091,15.8856,39.869,-14.0426,-9.58425,-1.62353,-38.4452,-1.40697,-4.67422,29.6734,-5.3644,1.02812,-42.1987
-0.929829,17.7752,-0.462233,377.797,8.20749,354.297,11.1417,1.67491,-1.52989,6.3712,2.09872,1.94384,0.273938,0.981978,2.65014,-7.67917,3.75806,-9.42422,40.2672,9.2341,-2.49848,15.2545,2.27893,1.94265,1.94809e-14,-9.34288e-15,-17.0682,8.76093,-82.7093,53.7729,18.6798,-23.64,6.24843,7.12502,2.825,-23.7126,1.94809e-14,-9.34288e-15,-24.8564,-27.6873,90.5151,54.2448,-6.07156,-23.0487,19.7002,7.12502,3.3961,49.6529,-35.7651,0.512298,15.9582,40.8236,-13.8157,-9.56631,-1.38991,-38.4805,-1.23895,-4.94945,29.6819,-5.28849,1.32064,-42.0163
-0.884406,17.7819,-0.50122,377.838,7.55779,354.378,11.2295,1.7351,-1.54641,6.3847,2.17217,1.81912,0.240204,1.01959,2.51958,-7.54477,3.61713,-9.15731,40.2721,8.99658,-2.66529,15.2588,2.19534,1.79055,-7.95139e-16,-1.59028e-15,-17.3097,8.74207,-82.8887,53.8072,19.0802,-23.499,6.48569,7.12502,2.96116,-23.4735,-7.95139e-16,-1.59028e-15,-24.9668,-28.3379,90.6554,54.3862,-5.85605,-22.108,19.8857,7.12502,4.3045,49.8219,-35.5072,-0.31922,15.9922,41.7597,-14.0303,-9.84727,-3.45788,-38.4424,-1.02872,-5.27946,29.7492,-5.2363,1.57095,-41.8104
-0.842966,17.7592,-0.53884,377.839,6.93322,354.374,11.2807,1.78011,-1.44976,6.43931,2.23671,1.73243,0.27249,1.05393,2.36759,-7.53015,3.49511,-9.04741,40.3613,8.77678,-2.64117,15.3094,2.11242,1.75267,4.18442e-14,4.77083e-15,-17.4816,8.79924,-83.0337,53.8427,19.3267,-23.4072,6.62254,7.12502,3.04986,-23.3354,4.18442e-14,4.77083e-15,-25.0426,-28.9706,90.8356,54.3917,-5.79619,-21.4646,19.5749,7.12502,4.92575,49.4976,-34.9349,-1.13012,16.0847,42.6752,-14.8164,-9.8995,-1.52646,-38.4937,-0.761401,-5.4977,29.9661,-5.28573,1.80838,-41.706
-0.802618,17.7565,-0.578288,377.824,6.40109,354.482,11.378,1.78674,-1.37625,6.50612,2.24819,1.61186,0.296271,1.06203,2.19838,-7.56653,3.35943,-9.01331,40.4727,8.50574,-2.46865,15.3689,2.0132,1.78493,-1.36167e-14,-2.5842e-15,-17.6405,8.85134,-83.1911,53.8497,19.5484,-23.6539,6.78742,7.12502,2.81158,-23.1738,-1.36167e-14,-2.5842e-15,-25.0521,-29.6136,91.0004,54.2221,-5.99881,-21.4029,18.9802,7.12502,4.98529,48.9015,-34.5152,-2.05722,16.0574,43.5614,-14.9272,-10.4119,2.13837,-38.5368,-0.507675,-5.86254,30.1677,-5.36305,1.9188,-41.4827
-0.763711,17.7633,-0.617592,377.827,5.96023,354.569,11.4546,1.73775,-1.29267,6.52924,2.18874,1.53575,0.287558,1.03514,2.0774,-7.41811,3.26872,-8.99071,40.4109,8.25521,-2.30342,15.295,1.9353,1.80906,1.55052e-14,-1.45113e-14,-17.8367,9.00115,-83.3384,53.863,19.7437,-23.7236,6.64021,7.12502,2.74431,-23.3219,1.55052e-14,-1.45113e-14,-25.1449,-30.0926,91.2019,54.0504,-6.17157,-21.7832,18.5405,7.12502,4.6181,48.4702,-34.151,-2.96604,16.0222,44.4056,-14.736,-11.3148,5.32951,-38.6196,-0.341106,-6.16605,30.3642,-5.40757,2.03677,-41.2865
-0.727252,17.7687,-0.653761,377.795,5.5993,354.613,11.5185,1.65471,-1.18215,6.54802,2.08836,1.52934,0.28106,0.987526,2.01857,-7.23947,3.19185,-8.97144,40.2731,8.08348,-2.31816,15.1898,1.87262,1.76708,-1.04362e-14,1.39149e-15,-18.0009,9.26275,-83.4083,53.8761,19.6816,-23.448,6.51059,7.12502,3.01049,-23.4479,-1.04362e-14,1.39149e-15,-25.2595,-30.4762,91.4807,53.826,-6.52004,-22.4788,18.2646,7.12502,3.94645,48.2078,-33.7053,-3.88108,16.0115,45.2103,-14.5276,-12.1148,5.70907,-38.6146,-0.252722,-6.38287,30.4092,-5.38501,2.16982,-41.1391
-0.691106,17.7753,-0.688753,377.819,5.16833,354.489,11.4903,1.65053,-0.720344,6.54202,2.1242,1.43888,0.306908,1.01789,1.66181,-7.10688,3.02481,-8.84394,40.1714,7.75856,-2.29748,15.1191,1.76299,1.70419,-9.83984e-15,-2.22639e-14,-18.1949,9.17577,-83.5726,53.8318,19.6169,-23.3382,6.66116,7.12502,3.11651,-23.2958,-9.83984e-15,-2.22639e-14,-25.3341,-31.1073,91.7012,53.5346,-6.93841,-23.1792,17.759,7.12502,3.27001,47.7137,-33.3354,-4.69668,16.1441,45.9407,-14.4001,-12.7053,5.18568,-38.6473,-0.061637,-6.42589,30.4085,-5.33667,2.2922,-40.9012
-0.658087,17.7794,-0.727109,377.859,4.61836,354.349,11.4837,1.73641,-0.144178,6.52436,2.28735,1.23097,0.316002,1.11656,1.10484,-6.82452,2.81139,-8.67682,39.9705,7.22726,-2.01033,14.9487,1.61466,1.71252,-1.70955e-14,-5.36719e-15,-18.4689,8.72462,-83.8687,53.8784,19.6797,-23.3842,6.59511,7.12502,3.07204,-23.3625,-1.70955e-14,-5.36719e-15,-25.4189,-31.917,91.8004,53.4259,-7.09875,-23.6661,17.3538,7.12502,2.79983,47.3152,-32.9939,-5.31306,16.2218,46.5905,-14.4393,-13.1157,6.13093,-38.6732,0.166414,-6.43949,30.4015,-5.22951,2.51377,-40.8006
-0.62987,17.7833,-0.765147,377.864,4.05061,354.34,11.5688,1.77291,0.0413619,6.45011,2.3511,1.13826,0.202175,1.15412,0.893557,-6.57445,2.72553,-8.43457,39.9577,6.99291,-1.99112,14.8958,1.55565,1.6395,1.18277e-14,1.61016e-14,-18.8209,8.64757,-84.0632,53.9537,19.6216,-23.3347,6.54932,7.12502,3.11985,-23.4076,1.18277e-14,1.61016e-14,-25.6676,-32.2657,92.0507,53.381,-7.18218,-24.0195,16.9916,7.12502,2.45857,46.9572,-32.5917,-5.88431,16.1404,47.1613,-14.284,-13.6028,7.54525,-38.6352,0.325769,-6.56656,30.4035,-5.14833,2.7799,-40.8181
-0.602598,17.7881,-0.799727,377.85,3.46222,354.404,11.6882,1.73541,-0.132951,6.33403,2.28574,1.20641,0.00807598,1.1162,1.06307,-6.51816,2.74044,-8.14934,40.164,7.08064,-2.34026,15.018,1.57524,1.45622,2.78299e-15,-1.51076e-14,-19.1644,9.04166,-84.1277,53.942,19.5201,-23.3618,6.7876,7.12502,3.09372,-23.1697,2.78299e-15,-1.51076e-14,-25.9741,-32.1684,92.4873,53.1367,-7.24727,-24.1516,16.5998,7.12502,2.33094,46.5668,-32.1665,-6.47124,15.9685,47.6663,-13.8703,-14.358,7.92038,-38.5622,0.507995,-6.78521,30.4494,-5.13405,2.99554,-40.8353
-0.574869,17.7899,-0.837296,377.784,2.95472,354.329,11.7983,1.66982,-0.0529417,6.33828,2.20785,1.32258,-0.0468417,1.07688,1.14434,-6.7377,2.6955,-8.03497,40.4041,7.10264,-2.54761,15.2105,1.55216,1.36047,3.57812e-15,1.78906e-15,-19.2947,9.47629,-84.1044,53.9467,19.4568,-23.3656,6.66223,7.12502,3.09004,-23.2951,3.57812e-15,1.78906e-15,-26.0022,-32.0017,92.8095,52.9275,-7.24123,-23.7563,16.2275,7.12502,2.71267,46.19,-31.6937,-7.07229,15.9441,48.1061,-13.4073,-15.1406,8.15955,-38.515,0.679339,-6.82983,30.5621,-5.09934,3.17138,-40.5744
-0.555868,17.7839,-0.882056,377.83,2.36227,354.089,11.8303,1.6843,0.202718,6.33576,2.25197,1.43249,-0.0623136,1.10214,1.10858,-7.01285,2.6043,-8.03221,40.6508,7.02507,-2.57959,15.4079,1.49228,1.34548,3.80673e-14,-4.96962e-15,-19.376,9.69811,-84.0876,53.957,19.4494,-23.3081,6.51838,7.12502,3.14555,-23.4382,3.80673e-14,-4.96962e-15,-25.9746,-31.9277,93.0601,52.8128,-7.2646,-23.36,15.788,7.12502,3.09548,45.7453,-31.3932,-7.4169,16.0725,48.4674,-13.2272,-15.7436,9.8933,-38.6399,1.02143,-6.68915,30.7544,-5.05874,3.38219,-40.4268
-0.543478,17.7768,-0.926573,378.122,1.40766,353.948,11.5929,1.84336,0.185054,6.26161,2.45557,1.42304,-0.0157901,1.20228,1.09089,-7.07678,2.50367,-7.94652,40.6859,6.8827,-2.65673,15.453,1.42813,1.27964,6.95746e-16,-5.36719e-15,-19.4691,9.64804,-84.2351,53.813,19.6881,-23.466,6.64747,7.12502,2.99306,-23.3113,6.95746e-16,-5.36719e-15,-26.0241,-32.0757,93.2362,52.6932,-7.25003,-23.2747,15.5811,7.12502,3.17781,45.5371,-31.441,-7.57615,16.0869,48.7522,-12.9746,-16.3026,10.762,-38.9334,1.63281,-6.7271,31.0175,-5.05778,3.70971,-40.5609
-0.527401,17.769,-0.964875,378.338,0.417906,353.973,11.3938,2.02024,0.110984,6.21332,2.67574,1.27464,0.0410142,1.31152,0.959641,-7.08004,2.35728,-7.82315,40.5834,6.55793,-2.51801,15.3995,1.32852,1.27058,-5.96354e-15,-1.13307e-14,-19.593,9.3887,-84.492,53.6875,19.9387,-23.5754,6.78964,7.12502,2.88744,-23.1706,-5.96354e-15,-1.13307e-14,-26.0461,-32.3841,93.2613,52.5518,-7.31248,-23.1283,15.4236,7.12502,3.3192,45.3776,-31.3703,-7.98166,15.9663,48.9194,-12.2572,-16.8845,8.9316,-39.101,2.05067,-6.90487,31.2931,-5.04733,4.20271,-40.553
-0.510114,17.7576,-1.00406,378.382,-0.428745,353.945,11.3916,2.14264,0.161672,6.24275,2.83748,1.18828,0.0771146,1.39341,0.824767,-7.29966,2.22275,-7.66986,40.6239,6.27728,-2.36168,15.4702,1.24188,1.27627,-1.72943e-14,-1.19271e-14,-19.5869,9.30865,-84.6371,53.5837,19.9011,-23.3822,6.86004,7.12502,3.07405,-23.0975,-1.72943e-14,-1.19271e-14,-25.9522,-32.6909,93.2574,52.5026,-7.32027,-23.1905,15.2077,7.12502,3.2591,45.1626,-31.0437,-8.44809,15.8907,48.9679,-11.9217,-17.247,7.33581,-39.1036,2.28641,-6.94103,31.5115,-5.00492,4.71006,-40.4528
-0.495666,17.7517,-1.04484,378.321,-1.28584,353.907,11.5205,2.25161,0.222781,6.31991,2.98248,1.11212,0.0933433,1.46686,0.69264,-7.62936,2.11364,-7.33918,40.6848,6.1028,-2.45667,15.5966,1.19098,1.16082,-2.06736e-14,2.78299e-15,-19.493,9.36462,-84.7981,53.4552,19.7601,-23.1171,6.81082,7.12502,3.33003,-23.1429,-2.06736e-14,2.78299e-15,-25.7372,-32.9867,93.1616,52.4333,-7.40334,-23.8328,15.0959,7.12502,2.6388,45.0593,-30.571,-8.7365,15.7726,48.8736,-12.4667,-17.2223,7.12773,-38.9588,2.4965,-6.93809,31.6821,-4.99952,5.24483,-40.4732
-0.484007,17.7518,-1.08527,378.264,-2.12967,354.011,11.6154,2.33416,0.183278,6.34853,3.08326,0.99602,0.0753284,1.51684,0.580265,-7.74422,2.02543,-7.09508,40.6629,5.92973,-2.5138,15.6238,1.14161,1.07035,-3.73715e-14,6.95746e-15,-19.5671,9.40801,-84.976,53.4239,19.7892,-22.9315,6.797,7.12502,3.50924,-23.1539,-3.73715e-14,6.95746e-15,-25.6307,-33.1896,93.0614,52.281,-7.67039,-24.7172,14.7206,7.12502,1.78468,44.6929,-30.1188,-9.13956,15.5437,48.6655,-13.0108,-16.8119,6.77069,-38.8165,2.67268,-7.09428,31.8148,-4.95247,5.73829,-40.2718
