JuanDHNZ/ProyectoFinalCD/preprocessing/sports_trials_csv/14_37.csv
root1,root2,root3,root4,root5,root6,lowerback1,lowerback2,lowerback3,upperback1,upperback2,upperback3,thorax1,thorax2,thorax3,lowerneck1,lowerneck2,lowerneck3,upperneck1,upperneck2,upperneck3,head1,head2,head3,rclavicle1,rclavicle2,rhumerus1,rhumerus2,rhumerus3,rradius1,rwrist1,rhand1,rhand2,rfingers1,rthumb1,rthumb2,lclavicle1,lclavicle2,lhumerus1,lhumerus2,lhumerus3,lradius1,lwrist1,lhand1,lhand2,lfingers1,lthumb1,lthumb2,rfemur1,rfemur2,rfemur3,rtibia1,rfoot1,rfoot2,rtoes1,lfemur1,lfemur2,lfemur3,ltibia1,lfoot1,lfoot2,ltoes1
-0.0806323,17.9917,-0.763246,2.85501,-11.0917,1.11688,-1.34694,-1.68494,-3.46792,-0.408942,-2.21202,1.976,0.544612,-1.11288,3.93502,-21.302,-2.70794,-9.85633,28.0642,-1.82509,4.5518,13.1194,-1.26666,3.13108,4.54347e-14,-9.14409e-15,-33.2925,-5.42926,-80.1098,30.7423,20.4671,-17.6781,8.55081,7.12502,8.58099,-21.2548,4.54347e-14,-9.14409e-15,-24.0001,-24.4737,93.0167,82.9061,2.29602,-29.6283,21.2888,7.12502,-2.95851,51.248,-8.5111,9.31096,15.1772,24.9347,-16.0814,-3.35995,4.04131,1.04541,-2.03542,-21.6028,10.8296,-10.3152,6.76874,-11.7784
-0.0804218,17.994,-0.765803,2.91065,-10.9629,1.13911,-1.04528,-1.69626,-3.68847,-0.749001,-2.23592,2.16369,0.0439653,-1.10787,4.2697,-21.2366,-2.50941,-9.88147,28.607,-1.46893,4.31818,13.2994,-1.16164,3.1179,3.97569e-16,-6.36111e-15,-33.7327,-5.05012,-79.8398,30.8477,20.3051,-17.587,8.49536,7.12502,8.6689,-21.3066,3.97569e-16,-6.36111e-15,-23.8005,-24.3189,93.2753,82.2579,2.74577,-29.5936,21.3043,7.12502,-2.92494,51.264,-8.57681,9.22907,15.1567,24.9596,-16.1069,-3.47137,3.65701,1.00914,-2.12178,-21.6153,10.7316,-10.22,6.73319,-11.8443
-0.0812224,17.9927,-0.767841,2.82981,-10.9553,1.17993,-1.33648,-1.67028,-3.50595,-0.549253,-2.19273,1.9764,0.394148,-1.09759,3.96033,-21.2638,-2.37628,-9.64163,28.6568,-1.32967,4.22346,13.3091,-1.08814,3.0652,-2.72956e-14,-1.27222e-14,-33.4814,-5.327,-80.0584,30.8521,20.4967,-17.4445,8.38896,7.12502,8.80644,-21.4073,-2.72956e-14,-1.27222e-14,-22.7452,-24.5955,92.6281,81.5398,3.4273,-29.5829,21.4371,7.12502,-2.91466,51.397,-8.50974,9.19799,15.1329,25.0026,-16.143,-3.42146,3.50298,1.14073,-1.95656,-21.6345,10.619,-10.1801,6.55555,-12.0173
-0.0817449,17.9904,-0.769133,2.73486,-10.9863,1.26053,-1.49084,-1.62688,-3.47919,-0.400872,-2.12928,1.87511,0.622319,-1.07297,3.83457,-21.4519,-2.27554,-9.59006,28.8485,-1.17575,4.20497,13.4144,-1.02154,3.08184,-3.29237e-15,9.14409e-15,-33.2113,-5.5383,-80.1405,30.765,20.7007,-17.4084,8.1712,7.12502,8.8413,-21.6236,-3.29237e-15,9.14409e-15,-21.7741,-24.7827,92.2089,80.7711,3.73731,-29.5795,21.8513,7.12502,-2.91137,51.8112,-8.42633,9.1811,15.0541,25.0299,-16.1218,-3.30973,4.06685,1.2878,-1.7908,-21.7072,10.5062,-10.131,6.41682,-12.1328
-0.0816782,17.9905,-0.77029,2.72926,-10.9865,1.25851,-1.5928,-1.59933,-3.40714,-0.363373,-2.09023,1.84593,0.710733,-1.05565,3.76113,-21.6312,-2.15439,-9.65821,29.124,-0.963007,4.22938,13.5505,-0.939734,3.14905,-1.10698e-14,7.95139e-16,-33.0936,-5.60086,-80.1813,30.781,20.7068,-17.3647,7.90967,7.12502,8.88341,-21.8833,-1.10698e-14,7.95139e-16,-21.0277,-24.9997,91.9843,79.9127,3.184,-29.6964,22.1606,7.12502,-3.02426,52.1189,-8.42607,9.1742,15.0563,25.0343,-16.084,-3.28621,4.19875,1.29738,-1.76241,-21.7041,10.4369,-10.0906,6.41288,-11.9881
-0.0826058,17.9915,-0.770815,2.77997,-10.982,1.23294,-1.71198,-1.60548,-3.36822,-0.393219,-2.0959,1.86027,0.746525,-1.05865,3.75086,-21.6548,-2.00607,-9.6404,29.3724,-0.701275,4.07593,13.6382,-0.852994,3.13736,-2.69229e-14,-2.78299e-15,-33.0939,-5.54648,-80.199,30.8702,20.6558,-17.3032,7.96528,7.12502,8.94278,-21.8252,-2.69229e-14,-2.78299e-15,-20.3291,-24.9143,91.7124,79.214,3.81607,-29.5777,22.2689,7.12502,-2.90959,52.2288,-8.47771,9.19889,15.084,25.0203,-16.1123,-3.33397,3.79584,1.23499,-1.76657,-21.666,10.3893,-10.064,6.41391,-11.7914
-0.0825399,17.9938,-0.772415,2.82819,-10.9601,1.2056,-1.8148,-1.60008,-3.30118,-0.412954,-2.08694,1.84554,0.780128,-1.0543,3.69544,-21.7092,-1.87522,-9.48217,29.6227,-0.492793,3.86012,13.7379,-0.782501,3.06739,-3.30355e-14,5.56597e-15,-33.0723,-5.55368,-80.2427,30.939,20.5696,-17.293,8.27994,7.12502,8.95258,-21.5101,-3.30355e-14,5.56597e-15,-19.6991,-25.0187,91.4862,78.4732,3.96231,-29.5973,22.4696,7.12502,-2.92851,52.4293,-8.51115,9.17413,15.1138,24.9757,-16.1189,-3.39234,3.37354,1.20076,-1.79002,-21.6287,10.3945,-10.0761,6.38588,-11.9093
-0.0826201,17.9962,-0.774822,2.91247,-10.9868,1.19644,-1.97204,-1.60632,-3.25691,-0.430767,-2.09174,1.83683,0.848468,-1.0576,3.65705,-21.8376,-1.70922,-9.2939,29.8826,-0.229133,3.62754,13.8543,-0.687411,2.99601,-9.19379e-16,6.75868e-15,-33.0133,-5.42274,-80.3525,31.0464,20.4031,-17.4898,8.31952,7.12502,8.7627,-21.4786,-9.19379e-16,6.75868e-15,-19.092,-24.9336,91.3079,77.5766,4.37069,-30.1113,22.0119,7.12502,-3.42494,51.9642,-8.57884,9.20443,15.1101,24.894,-16.0439,-3.42822,3.39329,1.06224,-1.70623,-21.6043,10.5202,-10.1547,6.2778,-11.9107
-0.0782785,17.9981,-0.779267,2.98211,-10.9398,1.13962,-1.99916,-1.6408,-3.14038,-0.520912,-2.14008,1.88038,0.772724,-1.07872,3.63555,-21.8372,-1.5454,-9.25207,30.128,0.0573493,3.44334,13.938,-0.593269,2.97175,-3.47625e-14,7.95139e-16,-33.0492,-5.24982,-80.377,31.14,20.3478,-17.6696,8.11342,7.12502,8.5892,-21.6919,-3.47625e-14,7.95139e-16,-18.8076,-24.4281,91.3566,76.8227,4.56998,-30.3924,21.3815,7.12502,-3.69639,51.3292,-8.60967,9.1146,15.1419,24.7967,-15.9665,-3.42757,3.29147,0.875345,-1.78064,-21.5593,10.7288,-10.2469,6.316,-11.942
-0.0706489,17.9984,-0.785935,2.93887,-10.7728,0.959327,-1.65484,-1.70731,-2.94472,-0.696961,-2.24208,2.02381,0.406167,-1.12024,3.68433,-21.7395,-1.39926,-9.30187,30.3913,0.344307,3.25518,14.0109,-0.511888,2.96097,-1.99033e-14,1.98785e-15,-33.2398,-4.93003,-80.2891,31.243,20.2358,-17.8351,7.93901,7.12502,8.42948,-21.8728,-1.99033e-14,1.98785e-15,-18.9653,-23.4014,91.6906,76.3501,4.03729,-29.8266,20.9602,7.12502,-3.14997,50.9167,-8.47459,8.97817,15.3225,24.7042,-15.9625,-3.40275,3.6487,0.815985,-2.06273,-21.4072,10.9587,-10.3318,6.45191,-12.1618
-0.0701833,17.9974,-0.791384,2.83564,-10.6926,0.848694,-1.14782,-1.74527,-3.02199,-0.937709,-2.30422,2.24181,-0.107965,-1.13758,3.97336,-21.6391,-1.2488,-9.44815,30.742,0.678544,3.06136,14.1197,-0.426425,2.97479,1.37099e-14,-7.95139e-15,-33.5231,-4.55631,-80.1029,31.387,20.1109,-17.9361,7.97777,7.12502,8.33204,-21.8379,1.37099e-14,-7.95139e-15,-19.1463,-22.5737,92.1375,75.7669,3.5964,-29.3232,20.7479,7.12502,-2.66384,50.711,-8.30096,9.01514,15.4741,24.6114,-15.9715,-3.48617,3.889,0.784228,-2.19472,-21.2923,11.2321,-10.4482,6.53434,-12.3085
-0.0742327,17.9964,-0.794893,2.73438,-10.6937,0.750605,-1.00028,-1.76579,-3.02216,-0.952881,-2.33505,2.33307,-0.19966,-1.1509,4.07275,-21.6882,-1.107,-9.46247,30.9847,0.953706,2.91054,14.2177,-0.340966,2.97177,-1.77291e-14,3.18055e-15,-33.4521,-4.42542,-80.114,31.4261,20.0542,-17.9857,8.08203,7.12502,8.28416,-21.7355,-1.77291e-14,3.18055e-15,-18.7663,-22.1723,92.1574,75.0468,3.34796,-29.0463,20.9211,7.12502,-2.39638,50.8874,-8.13962,9.13275,15.6354,24.5127,-15.928,-3.65224,3.67435,0.747156,-2.1714,-21.1622,11.5299,-10.5596,6.53697,-12.4623
-0.0773418,17.995,-0.797853,2.6354,-10.77,0.625531,-1.18141,-1.77561,-2.80451,-0.735512,-2.3464,2.27605,0.115291,-1.16687,3.87995,-21.878,-0.986971,-9.30345,31.0697,1.13934,2.7785,14.2836,-0.264559,2.92834,5.72748e-15,-1.98785e-14,-33.0689,-4.47619,-80.3613,31.3859,20.0662,-18.0295,8.09003,7.12502,8.24191,-21.7292,5.72748e-15,-1.98785e-14,-17.9366,-21.9947,91.7569,74.2745,3.14086,-28.8452,21.1869,7.12502,-2.20223,51.1553,-8.00291,9.27788,15.8111,24.4385,-15.8709,-3.73153,3.46298,0.756276,-2.16386,-21.0204,11.7668,-10.6851,6.61934,-12.374
-0.0805299,17.9955,-0.796863,2.63427,-10.8999,0.479848,-1.41357,-1.76056,-2.62407,-0.592957,-2.32444,2.26837,0.382422,-1.16309,3.76003,-22.0297,-0.869429,-9.17858,31.1971,1.33299,2.63914,14.3606,-0.191874,2.88999,-3.27995e-14,-1.59028e-15,-32.7989,-4.54721,-80.4924,31.3692,20.1911,-17.9704,8.04011,7.12502,8.29887,-21.7769,-3.27995e-14,-1.59028e-15,-17.2553,-21.9898,91.5038,73.5514,3.44959,-29.4463,21.9917,7.12502,-2.78269,51.9532,-7.96538,9.47758,15.9881,24.369,-15.8338,-3.78927,3.78061,0.689281,-2.19565,-20.8695,11.9931,-10.8395,6.80909,-12.1274
-0.084899,17.995,-0.797344,2.63398,-10.9897,0.391319,-1.51491,-1.76589,-2.59259,-0.546996,-2.33069,2.30332,0.487136,-1.16881,3.774,-22.1036,-0.659486,-8.98121,31.4228,1.63225,2.48311,14.4575,-0.0716758,2.85344,-2.40902e-14,-7.95139e-16,-32.6816,-4.48295,-80.5821,31.4244,20.199,-17.9737,7.99935,7.12502,8.2957,-21.8178,-2.40902e-14,-7.95139e-16,-16.7753,-21.7906,91.4155,72.7474,3.60603,-29.9891,22.6941,7.12502,-3.30691,52.6482,-7.96051,9.6853,16.1108,24.3288,-15.8207,-3.94355,3.78178,0.625723,-2.14612,-20.76,12.1614,-10.8725,6.82292,-12.1584
-0.0897148,17.9939,-0.799549,2.60925,-11.0315,0.300447,-1.52866,-1.77544,-2.57346,-0.534552,-2.34398,2.35537,0.510168,-1.17616,3.81599,-22.2564,-0.42461,-8.78476,31.8355,1.95036,2.416,14.6545,0.0612917,2.86388,-4.59441e-14,7.95139e-16,-32.606,-4.3617,-80.6603,31.5212,20.0915,-17.9568,7.86312,7.12502,8.31202,-21.9534,-4.59441e-14,7.95139e-16,-16.2772,-21.4458,91.3836,71.7322,3.34653,-30.095,22.3676,7.12502,-3.40925,52.3201,-7.94358,9.81727,16.2432,24.3532,-15.8732,-4.04167,3.80685,0.642226,-2.1123,-20.6398,12.1945,-10.8616,6.79892,-12.1883
-0.0925771,17.9938,-0.800759,2.56037,-11.0795,0.3631,-1.49691,-1.77284,-2.66706,-0.586373,-2.33952,2.36197,0.442765,-1.17201,3.87784,-22.29,-0.263544,-8.70797,32.1829,2.18473,2.37209,14.8038,0.149447,2.88602,4.6938e-14,5.56597e-15,-32.6101,-4.30532,-80.646,31.4985,20.1639,-18.0821,8.03524,7.12502,8.19107,-21.786,4.6938e-14,5.56597e-15,-15.8868,-21.1799,91.4404,70.7506,3.17672,-30.323,22.0112,7.12502,-3.62942,51.96,-7.9523,9.90691,16.1907,24.4497,-15.9491,-4.04427,3.83573,0.728487,-2.15055,-20.7087,12.091,-10.8035,6.8743,-12.171
-0.0926678,17.9926,-0.802319,2.53435,-11.1182,0.635702,-1.52034,-1.77591,-2.91874,-0.647286,-2.33886,2.28351,0.399948,-1.1698,3.93915,-22.2356,-0.149156,-8.64739,32.3316,2.35961,2.28264,14.8496,0.21192,2.87394,1.11568e-14,-4.77083e-15,-32.6021,-4.39391,-80.618,31.4317,20.3883,-18.2542,8.43907,7.12502,8.02498,-21.3886,1.11568e-14,-4.77083e-15,-15.5679,-20.9338,91.4718,69.9053,3.0722,-30.7115,21.9481,7.12502,-4.00452,51.8902,-8.06789,9.88961,15.8725,24.618,-15.9731,-3.91415,4.2778,0.820827,-2.13537,-21.012,11.8463,-10.6493,6.90991,-12.1612
-0.0854134,17.9933,-0.804828,2.65473,-11.0891,0.887077,-1.71419,-1.804,-3.04699,-0.692506,-2.36938,2.1856,0.465842,-1.18544,3.90383,-22.2389,-0.0342726,-8.56057,32.4378,2.55172,2.13697,14.8901,0.278159,2.83672,8.10048e-15,3.18055e-15,-32.5768,-4.33099,-80.7102,31.5898,20.3092,-18.2413,8.46678,7.12502,8.03741,-21.3604,8.10048e-15,3.18055e-15,-15.0134,-20.8235,91.3852,68.8885,3.10645,-30.705,21.8619,7.12502,-3.99824,51.8042,-8.35895,9.63334,15.5174,24.8347,-15.9591,-3.67932,4.30547,0.830609,-2.19397,-21.3175,11.4661,-10.4271,6.91658,-12.0952
-0.0726536,17.9942,-0.808113,2.81001,-11.0114,1.24665,-1.8177,-1.85186,-3.25986,-0.838771,-2.42677,2.10939,0.384118,-1.20994,3.94292,-22.2635,0.0555798,-8.59169,32.6405,2.74886,2.02112,14.979,0.331323,2.83607,-1.13432e-14,2.54444e-14,-32.6532,-4.14581,-80.7283,31.7741,20.1287,-18.2664,8.31874,7.12502,8.01322,-21.5094,-1.13432e-14,2.54444e-14,-14.4262,-20.8731,91.3632,67.725,3.26934,-30.8463,22.2446,7.12502,-4.13469,52.1843,-8.69807,9.18526,15.0039,25.0549,-15.9545,-3.35075,4.02778,0.779155,-2.26546,-21.7606,11.0719,-10.2329,6.86828,-12.2649
-0.068687,17.9941,-0.81067,2.87172,-10.9941,1.49258,-1.68942,-1.89829,-3.52825,-1.05755,-2.48892,2.14184,0.105677,-1.23089,4.13547,-22.2425,0.174697,-8.6335,32.9323,3.00304,1.87443,15.0969,0.398089,2.83655,-9.01985e-15,-7.95139e-16,-32.8795,-3.83332,-80.6744,31.938,19.9956,-18.2661,8.05408,7.12502,8.01351,-21.774,-9.01985e-15,-7.95139e-16,-14.1293,-20.6745,91.5334,66.6838,3.326,-31.0823,22.473,7.12502,-4.3626,52.4081,-8.88496,9.00361,14.6837,25.204,-15.997,-3.19085,3.81164,0.789916,-2.32041,-22.048,10.8035,-10.1099,6.88809,-12.1102
-0.0728361,17.9934,-0.81415,2.82052,-11.0541,1.53654,-1.72691,-1.92647,-3.65419,-1.02864,-2.52374,2.17171,0.16642,-1.24985,4.23462,-22.2385,0.322533,-8.49938,33.0118,3.24829,1.66526,15.1248,0.483767,2.77328,1.45734e-14,7.95139e-16,-32.8191,-3.58822,-80.7904,32.0845,19.846,-18.2377,7.66959,7.12502,8.04096,-22.1574,1.45734e-14,7.95139e-16,-13.6467,-20.257,91.5135,65.743,3.14025,-31.2276,22.6319,7.12502,-4.50288,52.5641,-8.91481,9.12639,14.6637,25.2879,-16.0248,-3.25702,3.65124,0.898708,-2.31044,-22.0812,10.658,-10.0184,6.91165,-12.1173
-0.0735239,17.9924,-0.816761,2.71498,-11.1208,1.42393,-1.89615,-1.91944,-3.47713,-0.83449,-2.51145,2.14532,0.451062,-1.25371,4.09736,-22.2384,0.416081,-8.43018,32.9862,3.3859,1.59257,15.1067,0.541228,2.75564,4.42917e-15,6.36111e-15,-32.598,-3.51127,-80.9981,32.2289,19.6279,-18.1982,7.26422,7.12502,8.07903,-22.5614,4.42917e-15,6.36111e-15,-12.9918,-19.9609,91.3418,64.8522,3.03218,-31.3342,22.9319,7.12502,-4.60588,52.8618,-8.81679,9.24843,14.8125,25.3133,-16.0744,-3.24766,3.9192,1.04485,-2.31457,-21.9645,10.6364,-10.0144,6.98622,-12.1561
-0.0726457,17.9928,-0.8174,2.67965,-11.1751,1.30144,-1.99956,-1.9174,-3.29918,-0.755076,-2.50908,2.15685,0.583417,-1.25671,4.0036,-22.2422,0.503714,-8.35871,33.1193,3.53712,1.4726,15.1653,0.589715,2.72486,1.09394e-14,3.97569e-15,-32.4455,-3.44939,-81.1226,32.264,19.5205,-18.2472,6.86989,7.12502,8.03172,-22.9575,1.09394e-14,3.97569e-15,-12.4833,-19.7655,91.2741,64.0447,3.18158,-31.5804,23.2816,7.12502,-4.84358,53.2062,-8.76007,9.30784,14.9546,25.299,-16.0718,-3.25966,3.87473,1.07919,-2.30168,-21.8396,10.7062,-10.0167,7.05354,-12.1001
-0.0716653,17.9924,-0.818744,2.6615,-11.1981,1.33027,-1.88078,-1.93526,-3.34648,-0.846001,-2.53556,2.18878,0.429369,-1.26528,4.0687,-22.1633,0.630758,-8.27822,33.2405,3.75123,1.3059,15.1981,0.660035,2.68247,4.67889e-14,-7.95139e-16,-32.4327,-3.42078,-81.1046,32.1554,19.5863,-18.167,6.96238,7.12502,8.10915,-22.862,4.67889e-14,-7.95139e-16,-12.2189,-19.5424,91.3465,63.2514,3.18436,-32.1072,23.2947,7.12502,-5.35221,53.2071,-8.75532,9.29594,14.9224,25.2779,-16.0066,-3.28679,3.68712,1.04217,-2.28246,-21.8777,10.7935,-10.0043,7.06891,-12.1402
-0.0712521,17.9927,-0.820184,2.659,-11.2307,1.30578,-1.45956,-1.94112,-3.41171,-1.15628,-2.55464,2.28798,-0.11652,-1.25762,4.23009,-21.9622,0.754445,-8.24086,33.4867,3.9716,1.1323,15.2626,0.720995,2.64645,1.81143e-14,-1.03368e-14,-32.8093,-3.27562,-80.9754,32.1314,19.5881,-17.9802,7.38573,7.12502,8.2894,-22.4316,1.81143e-14,-1.03368e-14,-12.345,-19.1901,91.6181,62.5007,2.97961,-32.6466,23.0756,7.12502,-5.87307,52.9742,-8.76097,9.31339,14.9461,25.2761,-15.9649,-3.27596,3.76653,1.02457,-2.22376,-21.8543,10.8418,-10.0408,7.04781,-12.2292
-0.0706036,17.9919,-0.82257,2.63775,-11.2932,1.31477,-1.71428,-1.94311,-3.30828,-0.987029,-2.55115,2.17552,0.190404,-1.26574,4.0421,-21.9889,0.840747,-8.08476,33.4189,4.04402,1.11513,15.2344,0.772488,2.62481,-1.40702e-14,2.14687e-14,-32.4886,-3.48294,-81.1741,32.0326,19.6753,-17.8276,7.6342,7.12502,8.43676,-22.1773,-1.40702e-14,2.14687e-14,-11.7181,-19.0405,91.3441,61.8013,2.72322,-32.9442,23.183,7.12502,-6.16036,53.0734,-8.77664,9.348,14.9316,25.3055,-15.9395,-3.22524,3.89612,1.03609,-2.2182,-21.8692,10.8544,-10.0878,7.09236,-12.2577
-0.0700414,17.9915,-0.82389,2.62418,-11.3143,1.32715,-1.58271,-1.96645,-3.3161,-1.09708,-2.58585,2.18244,0.00752586,-1.27739,4.06014,-21.9077,0.934425,-8.13401,33.5384,4.19742,1.1201,15.2616,0.826254,2.66507,-1.38311e-14,2.78299e-14,-32.5952,-3.34273,-81.2242,32.0377,19.5858,-17.778,7.70808,7.12502,8.48457,-22.1015,-1.38311e-14,2.78299e-14,-11.618,-18.8492,91.3589,61.2693,2.53252,-33.144,23.3902,7.12502,-6.35321,53.2749,-8.77931,9.36973,14.9137,25.3242,-15.9342,-3.18413,4.23859,1.01938,-2.23531,-21.8832,10.9042,-10.0852,7.10157,-12.0009
-0.0697156,17.9903,-0.825292,2.59687,-11.3229,1.36297,-1.41803,-1.98588,-3.37045,-1.20281,-2.61581,2.20124,-0.187349,-1.28619,4.11825,-21.8355,1.01582,-8.19307,33.6463,4.36105,1.06219,15.2878,0.87389,2.6822,2.3264e-15,-2.38542e-15,-32.7046,-3.12852,-81.2545,32.0428,19.3837,-17.775,7.7632,7.12502,8.48747,-22.0462,2.3264e-15,-2.38542e-15,-11.6316,-18.7159,91.4707,60.8942,2.4655,-33.5019,23.5521,7.12502,-6.69871,53.4261,-8.77336,9.37166,14.876,25.3422,-15.9061,-3.17116,4.37173,1.01724,-2.2102,-21.9219,10.9502,-10.1131,7.09493,-11.9683
-0.0692885,17.9897,-0.824919,2.60154,-11.3564,1.33262,-1.42721,-1.99362,-3.31381,-1.20022,-2.62644,2.19592,-0.181227,-1.29199,4.08015,-21.9088,1.09167,-8.17938,33.7535,4.49487,1.03015,15.3488,0.920855,2.6957,2.38402e-14,-1.43125e-14,-32.6361,-3.08115,-81.3249,32.0104,19.3666,-17.6136,7.68967,7.12502,8.64327,-22.1134,2.38402e-14,-1.43125e-14,-11.5348,-18.5878,91.5207,60.6647,2.49954,-33.8437,23.5482,7.12502,-7.02872,53.4115,-8.78586,9.38283,14.9047,25.3532,-15.9298,-3.15345,4.4014,1.01836,-2.13172,-21.8881,10.9666,-10.1742,7.04112,-12.0675
-0.0694409,17.9896,-0.825421,2.61706,-11.3803,1.30606,-1.43354,-1.99849,-3.24608,-1.20739,-2.63339,2.16743,-0.188645,-1.29557,4.01225,-21.9655,1.16767,-8.11891,33.8342,4.60099,1.01378,15.3952,0.966185,2.70177,-4.02461e-15,6.36111e-15,-32.5592,-3.10084,-81.4047,31.9239,19.4377,-17.5796,7.81007,7.12502,8.67609,-21.9916,-4.02461e-15,6.36111e-15,-11.441,-18.4868,91.5288,60.5504,2.5372,-34.0879,23.6015,7.12502,-7.26446,53.4568,-8.81829,9.42731,14.9334,25.3757,-15.9698,-3.21496,4.27177,1.00671,-2.09715,-21.8507,10.9503,-10.1869,6.97618,-12.009
-0.070077,17.9898,-0.825889,2.57903,-11.4122,1.33743,-1.38209,-2.0205,-3.25623,-1.21687,-2.66398,2.13968,-0.225189,-1.30995,3.99084,-21.9731,1.24639,-8.03503,33.876,4.7171,0.935369,15.4151,1.01168,2.67724,6.5321e-14,-6.36111e-15,-32.5112,-3.0738,-81.4761,31.8608,19.5316,-17.5587,7.95161,7.12502,8.69618,-21.8493,6.5321e-14,-6.36111e-15,-11.3999,-18.4134,91.5065,60.5174,2.44311,-34.3927,23.6976,7.12502,-7.55862,53.5425,-8.80796,9.45883,14.9069,25.3894,-15.9813,-3.25428,4.15883,1.03978,-2.1173,-21.8883,10.956,-10.1726,7.03487,-11.7972
-0.0706609,17.989,-0.824763,2.55382,-11.4453,1.40811,-1.37917,-2.06057,-3.33739,-1.22571,-2.71685,2.13966,-0.22735,-1.33581,4.03582,-21.9381,1.33396,-8.02289,33.8919,4.86941,0.856374,15.4096,1.06466,2.66947,-1.22175e-14,7.95139e-16,-32.4528,-2.97613,-81.5022,31.7896,19.6044,-17.6134,8.04761,7.12502,8.64346,-21.7554,-1.22175e-14,7.95139e-16,-11.4601,-18.2982,91.5231,60.6752,2.41395,-34.829,23.7215,7.12502,-7.97974,53.5508,-8.80219,9.4922,14.8306,25.4091,-16.0145,-3.26156,4.12624,1.07547,-2.09445,-21.9729,10.9377,-10.1601,7.09159,-11.9881
-0.0712996,17.9884,-0.825532,2.57951,-11.4852,1.37988,-1.39704,-2.10662,-3.34638,-1.23686,-2.77785,2.17987,-0.220649,-1.36626,4.0808,-21.9258,1.42462,-8.00424,33.8934,5.03106,0.762911,15.4031,1.12067,2.6563,-4.90101e-14,-2.38542e-15,-32.3704,-2.89551,-81.5268,31.7501,19.7217,-17.6307,8.07048,7.12502,8.62672,-21.7333,-4.90101e-14,-2.38542e-15,-11.5313,-18.0585,91.5342,60.9506,2.48775,-34.9745,23.6859,7.12502,-8.12017,53.5099,-8.84769,9.53934,14.861,25.444,-16.0231,-3.23636,4.35583,1.08439,-2.06094,-21.9384,10.8849,-10.1125,7.08099,-12.0556
-0.0727417,17.9888,-0.825614,2.61242,-11.5111,1.35524,-1.4267,-2.14264,-3.33024,-1.25619,-2.82537,2.19254,-0.219505,-1.38985,4.0831,-21.8635,1.47143,-8.01181,33.8531,5.11214,0.715289,15.3671,1.14923,2.64962,-2.96123e-14,2.38542e-15,-32.2949,-2.8686,-81.5703,31.6873,19.7632,-17.6359,8.01955,7.12502,8.62171,-21.7844,-2.96123e-14,2.38542e-15,-11.6154,-17.8915,91.5089,61.2713,2.47297,-34.9025,23.5289,7.12502,-8.05066,53.3555,-8.89341,9.58383,14.8908,25.4823,-16.089,-3.21156,4.38509,1.05691,-2.00832,-21.8998,10.8788,-10.1152,7.02045,-12.1
-0.0734147,17.988,-0.824742,2.59584,-11.5455,1.44177,-1.41897,-2.16907,-3.40195,-1.28671,-2.86022,2.15691,-0.250293,-1.40578,4.08699,-21.7463,1.51303,-8.01771,33.8037,5.16566,0.699313,15.3141,1.1725,2.64929,-1.57083e-14,1.27222e-14,-32.2823,-2.84791,-81.6159,31.604,19.7663,-17.6978,8.08165,7.12502,8.56194,-21.7248,-1.57083e-14,1.27222e-14,-11.735,-17.8069,91.4615,61.6335,2.20011,-34.8996,23.823,7.12502,-8.04789,53.6498,-8.89741,9.57925,14.7994,25.5055,-16.1064,-3.18095,4.00181,1.03238,-1.9641,-21.9904,10.9469,-10.1842,7.01286,-12.1261
-0.0742501,17.9859,-0.826353,2.56068,-11.6225,1.45384,-1.32937,-2.16367,-3.41422,-1.31105,-2.85545,2.13932,-0.326266,-1.40127,4.08017,-21.66,1.55314,-8.00391,33.7477,5.21561,0.675514,15.2663,1.19579,2.64227,3.90868e-14,-8.74653e-15,-32.2907,-2.87789,-81.6259,31.5488,19.7539,-17.7421,8.22276,7.12502,8.51922,-21.5854,3.90868e-14,-8.74653e-15,-11.8407,-17.8167,91.3952,62.0745,2.05061,-34.9777,24.0635,7.12502,-8.12329,53.8873,-8.88305,9.63229,14.7948,25.5097,-16.0466,-3.15842,3.91207,1.02161,-1.86862,-22.0021,11.0374,-10.2083,7.02742,-12.2049
-0.0745651,17.9855,-0.827373,2.5596,-11.7319,1.35721,-1.27545,-2.15273,-3.32392,-1.3178,-2.84305,2.15902,-0.367844,-1.39458,4.05233,-21.5981,1.57563,-8.00754,33.673,5.25463,0.633815,15.2167,1.2101,2.62873,-5.29668e-14,1.82882e-14,-32.3361,-2.89047,-81.6312,31.6082,19.7729,-17.76,8.25366,7.12502,8.50193,-21.5552,-5.29668e-14,1.82882e-14,-11.9363,-17.8374,91.3288,62.6245,2.06534,-35.0124,24.1722,7.12502,-8.15673,53.9948,-8.90975,9.74206,14.9025,25.5194,-16.011,-3.17849,3.88729,0.996249,-1.80394,-21.9039,11.137,-10.2106,7.11905,-12.2383
-0.0749417,17.9863,-0.826582,2.59402,-11.7998,1.22862,-1.27637,-2.16062,-3.21545,-1.30703,-2.85433,2.18908,-0.358782,-1.40127,4.02179,-21.5888,1.59741,-7.97079,33.5934,5.28585,0.582653,15.1788,1.22454,2.60424,1.08804e-14,-1.66979e-14,-32.4355,-2.85351,-81.6682,31.8196,19.7611,-17.7511,8.15469,7.12502,8.51053,-21.6538,1.08804e-14,-1.66979e-14,-12.0297,-17.9045,91.2237,63.3094,2.08986,-34.9974,24.6831,7.12502,-8.14231,54.5063,-8.93549,9.84332,15.0416,25.5176,-16.0267,-3.19335,4.30537,0.929846,-1.80906,-21.7643,11.2686,-10.3101,7.16832,-12.265
-0.0755748,17.9854,-0.827254,2.57093,-11.864,1.23834,-1.24534,-2.15534,-3.25178,-1.28301,-2.8478,2.17899,-0.350885,-1.39834,4.03261,-21.6145,1.60955,-7.91184,33.5615,5.30044,0.532124,15.1728,1.23195,2.57556,-1.50746e-14,-2.38542e-15,-32.5386,-2.87374,-81.6753,32.0148,19.7571,-17.7074,7.83721,7.12502,8.55272,-21.9696,-1.50746e-14,-2.38542e-15,-12.1115,-18.0514,91.1513,64.0356,2.2737,-35.0437,25.0837,7.12502,-8.18692,54.9051,-8.92103,9.91341,15.0368,25.5146,-16.0202,-3.22871,4.45667,0.903474,-1.78309,-21.7702,11.3677,-10.3614,7.19192,-12.4578
-0.0756664,17.9849,-0.828701,2.5437,-11.9127,1.25128,-1.18648,-2.13654,-3.27235,-1.26488,-2.82405,2.15429,-0.367708,-1.38629,4.02105,-21.6465,1.58946,-7.92505,33.5374,5.26432,0.569179,15.1684,1.22147,2.58683,7.39375e-14,-2.22639e-14,-32.5972,-2.96049,-81.6584,32.1076,19.7231,-17.7536,7.57281,7.12502,8.5081,-22.2358,7.39375e-14,-2.22639e-14,-12.1945,-18.2701,91.078,64.7526,2.48018,-35.1504,25.2717,7.12502,-8.28994,55.0891,-8.92154,9.94208,15.0303,25.5281,-16.0073,-3.23747,4.55869,0.910567,-1.74552,-21.7822,11.3954,-10.3417,7.21715,-12.231
-0.0755784,17.9858,-0.828141,2.59651,-11.9918,1.24918,-1.21701,-2.11325,-3.27728,-1.25546,-2.79213,2.13621,-0.34458,-1.37094,4.00419,-21.6977,1.57256,-7.91742,33.4938,5.2387,0.572011,15.161,1.21372,2.58211,-2.0047e-14,9.54166e-15,-32.6688,-2.84884,-81.7162,32.2667,19.5154,-17.9147,7.44243,7.12502,8.3527,-22.3724,-2.0047e-14,9.54166e-15,-12.3049,-18.3358,91.0136,65.5746,2.46927,-35.0316,25.5692,7.12502,-8.17525,55.391,-9.02535,9.9947,15.0178,25.5609,-15.9831,-3.21783,4.56828,0.880998,-1.77843,-21.7928,11.3688,-10.2985,7.35748,-12.1072
-0.0763916,17.9868,-0.826635,2.69148,-12.0618,1.26134,-1.32342,-2.07869,-3.29073,-1.24778,-2.74307,2.11362,-0.28215,-1.34777,3.98483,-21.6735,1.5439,-7.92459,33.3791,5.19293,0.564671,15.1045,1.19889,2.56819,-3.6022e-14,1.98785e-14,-32.76,-2.86107,-81.7113,32.4332,19.4422,-18.1294,7.48317,7.12502,8.14543,-22.3398,-3.6022e-14,1.98785e-14,-12.4605,-18.3862,91.0045,66.5303,2.47703,-34.7186,25.7135,7.12502,-7.8732,55.5469,-9.16207,10.0546,14.9809,25.5983,-15.9789,-3.19656,4.72633,0.822829,-1.76395,-21.8087,11.3019,-10.3197,7.39724,-12.1419
-0.0769679,17.9861,-0.823955,2.68137,-12.133,1.29038,-1.34209,-2.04212,-3.32233,-1.22197,-2.6934,2.0752,-0.250204,-1.32385,3.96249,-21.6811,1.51548,-7.94796,33.3586,5.12828,0.649146,15.0951,1.18244,2.59528,7.04397e-14,-2.54444e-14,-32.8128,-3.01633,-81.6657,32.4501,19.4866,-18.1566,7.57747,7.12502,8.11924,-22.2465,7.04397e-14,-2.54444e-14,-12.6393,-18.5237,90.9889,67.5312,2.63054,-34.537,25.5983,7.12502,-7.69794,55.4382,-9.16835,10.1065,14.9437,25.6221,-15.9644,-3.1456,4.73048,0.871535,-1.73185,-21.8449,11.2435,-10.3267,7.40056,-12.0571
-0.0775466,17.9852,-0.821842,2.64746,-12.1776,1.32786,-1.33177,-2.03218,-3.37851,-1.20409,-2.67986,2.05515,-0.237333,-1.31735,3.97364,-21.6445,1.50746,-8.01043,33.3361,5.10486,0.731543,15.0718,1.17861,2.63436,-1.28511e-14,-6.36111e-15,-32.913,-3.00918,-81.6437,32.533,19.5033,-18.0694,7.54964,7.12502,8.20339,-22.2711,-1.28511e-14,-6.36111e-15,-12.7619,-18.7701,90.9038,68.4842,2.76944,-34.636,25.4408,7.12502,-7.79342,55.2772,-9.1502,10.1244,14.9109,25.6421,-15.9443,-3.14419,4.46536,0.937513,-1.75811,-21.8901,11.2003,-10.3385,7.4527,-11.8319
-0.0780492,17.9845,-0.819381,2.64946,-12.2356,1.30979,-1.35659,-2.00841,-3.38942,-1.18213,-2.64729,2.05906,-0.203254,-1.30207,3.98299,-21.6482,1.48508,-8.04986,33.3396,5.06925,0.781198,15.0729,1.16574,2.65546,5.70729e-15,3.97569e-15,-33.0433,-2.86822,-81.6474,32.6721,19.3627,-17.9625,7.5111,7.12502,8.30653,-22.3056,5.70729e-15,3.97569e-15,-12.8139,-19.0236,90.8075,69.3977,2.71897,-34.6119,25.2676,7.12502,-7.7702,55.1049,-9.1598,10.1584,14.9266,25.6548,-15.9273,-3.12825,4.43664,0.9647,-1.74335,-21.883,11.1842,-10.3603,7.51441,-12.0636
-0.0777687,17.9838,-0.816807,2.66566,-12.2857,1.27343,-1.36026,-1.96735,-3.37939,-1.18154,-2.59249,2.0672,-0.205813,-1.27461,3.98671,-21.5687,1.43223,-8.01434,33.2499,4.99461,0.695113,15.023,1.13134,2.59569,-1.40298e-14,3.26007e-14,-33.1756,-2.88164,-81.5771,32.6963,19.2289,-17.8975,7.66467,7.12502,8.36923,-22.1495,-1.40298e-14,3.26007e-14,-12.908,-19.2276,90.7745,70.371,2.5442,-34.5539,25.2287,7.12502,-7.71426,55.068,-9.16971,10.1798,14.9575,25.654,-15.9202,-3.12895,4.36965,0.931473,-1.73744,-21.8555,11.2096,-10.3811,7.56512,-12.1018
-0.0782255,17.9826,-0.814085,2.63497,-12.2992,1.28004,-1.33025,-1.9138,-3.39875,-1.17484,-2.52161,2.04445,-0.222612,-1.23877,3.97645,-21.4582,1.36437,-8.04245,33.1369,4.87808,0.718153,14.9506,1.08928,2.58335,-5.92083e-14,2.3059e-14,-33.3104,-2.98248,-81.4803,32.6586,19.2044,-17.8392,7.82635,7.12502,8.4255,-21.9856,-5.92083e-14,2.3059e-14,-12.9831,-19.4343,90.7838,71.3662,2.341,-34.4773,25.3707,7.12502,-7.6403,55.2127,-9.13116,10.1597,14.96,25.6491,-15.9251,-3.16119,4.02907,0.921132,-1.70824,-21.8682,11.2758,-10.3975,7.58969,-12.0947
-0.0791805,17.9821,-0.812177,2.59576,-12.2759,1.26609,-1.28696,-1.87404,-3.393,-1.14808,-2.46967,2.01307,-0.22584,-1.21319,3.94269,-21.4057,1.30883,-8.06802,33.058,4.77081,0.786612,14.9044,1.05577,2.59351,-3.45016e-14,7.95139e-15,-33.3858,-3.06845,-81.4106,32.5744,19.3114,-17.78,7.87488,7.12502,8.4826,-21.9348,-3.45016e-14,7.95139e-15,-12.9889,-19.7135,90.722,72.371,2.21196,-34.4075,25.4268,7.12502,-7.5729,55.2712,-9.067,10.1468,14.9906,25.6329,-15.9522,-3.15169,4.12979,0.93593,-1.70575,-21.8536,11.3657,-10.4265,7.56691,-12.2529
-0.0814865,17.9795,-0.810964,2.55862,-12.236,1.21385,-1.27892,-1.84951,-3.36972,-1.07623,-2.43707,1.99511,-0.161244,-1.19955,3.9103,-21.3766,1.25739,-8.0968,32.9474,4.66048,0.886799,14.8476,1.0266,2.61649,8.54463e-15,1.98785e-15,-33.3521,-3.23862,-81.3539,32.4337,19.4862,-17.7092,7.62114,7.12502,8.55094,-22.1857,8.54463e-15,1.98785e-15,-12.7473,-20.2485,90.4638,73.2665,2.22714,-34.5545,25.467,7.12502,-7.71476,55.3063,-8.98408,10.1325,15.0654,25.6105,-15.9885,-3.12383,4.61704,0.925505,-1.70062,-21.7792,11.4861,-10.4914,7.49152,-12.1806
-0.0819144,17.9809,-0.809987,2.59842,-12.2367,1.13075,-1.29724,-1.83402,-3.30549,-1.08021,-2.41648,1.99972,-0.159347,-1.1895,3.87868,-21.2741,1.24471,-8.15238,32.8848,4.59726,1.0263,14.7913,1.01809,2.66824,3.0998e-14,-3.18055e-15,-33.4222,-3.29233,-81.3085,32.305,19.6246,-17.8408,7.73421,7.12502,8.42402,-22.0778,3.0998e-14,-3.18055e-15,-12.4813,-20.8802,90.1397,74.0867,2.25317,-34.8289,25.6343,7.12502,-7.9796,55.4637,-8.99734,10.0961,15.1507,25.5853,-15.9571,-3.10963,4.58798,0.868738,-1.73198,-21.6889,11.606,-10.5445,7.5282,-12.065
-0.0801704,17.9835,-0.809313,2.6907,-12.3006,1.12188,-1.34752,-1.79607,-3.29176,-1.1268,-2.36472,1.99113,-0.184698,-1.16236,3.86231,-21.2447,1.21221,-8.15717,32.9311,4.53225,1.07314,14.8077,0.994777,2.67753,3.11564e-14,5.56597e-15,-33.5231,-3.3462,-81.2161,32.1521,19.7401,-17.9274,8.15792,7.12502,8.3404,-21.6574,3.11564e-14,5.56597e-15,-12.4342,-21.2497,89.9967,75.0571,2.15746,-34.9356,25.6755,7.12502,-8.08264,55.5009,-9.11335,10.0692,15.1238,25.5792,-15.9011,-3.01987,4.66192,0.76403,-1.71367,-21.7008,11.6947,-10.5802,7.64338,-12.0447
-0.0804547,17.9847,-0.808461,2.72808,-12.3445,1.1615,-1.37648,-1.76217,-3.37394,-1.13687,-2.31793,1.97314,-0.180698,-1.13846,3.89018,-21.2774,1.17179,-8.14022,32.9815,4.46077,1.10285,14.8416,0.968104,2.67645,-6.64686e-15,-6.75868e-15,-33.5768,-3.45729,-81.138,31.9927,19.7738,-17.8966,8.23683,7.12502,8.37015,-21.5773,-6.64686e-15,-6.75868e-15,-12.4489,-21.4439,89.929,76.1008,1.92157,-34.7422,25.7577,7.12502,-7.89599,55.5902,-9.16329,10.0885,15.0641,25.5661,-15.8641,-2.9662,4.886,0.678973,-1.70102,-21.7515,11.7851,-10.6227,7.69535,-11.8514
-0.0811106,17.9834,-0.808784,2.7218,-12.3159,1.18095,-1.32829,-1.75483,-3.45283,-1.15183,-2.30886,1.97901,-0.220687,-1.1324,3.94286,-21.2864,1.12783,-8.19627,33.0055,4.39355,1.17356,14.8547,0.941686,2.70415,-1.83503e-14,-1.98785e-15,-33.6092,-3.57647,-81.0289,31.7798,19.8633,-17.7294,8.22089,7.12502,8.53149,-21.5868,-1.83503e-14,-1.98785e-15,-12.2558,-21.7213,89.7574,76.9253,1.71899,-34.6128,25.8273,7.12502,-7.77107,55.6645,-9.1581,10.0792,15.0462,25.5772,-15.8721,-3.00331,4.77289,0.650434,-1.78511,-21.7724,11.8384,-10.6473,7.73173,-11.8055
-0.0817253,17.9844,-0.807362,2.75254,-12.2998,1.14482,-1.35055,-1.73704,-3.43253,-1.1556,-2.28464,1.95857,-0.215939,-1.12044,3.91006,-21.3029,1.08042,-8.20566,33.0252,4.29755,1.26077,14.8692,0.911651,2.72576,1.4561e-14,-7.15625e-15,-33.632,-3.77085,-80.9505,31.5299,20.0349,-17.6153,8.26414,7.12502,8.64163,-21.539,1.4561e-14,-7.15625e-15,-11.8431,-22.1537,89.4322,77.5996,1.66102,-34.7284,25.7863,7.12502,-7.88266,55.6193,-9.18622,10.0343,15.085,25.5817,-15.8488,-3.03996,4.3049,0.598586,-1.78147,-21.7365,11.8796,-10.6648,7.70687,-12.0242
-0.0827289,17.9831,-0.805725,2.74692,-12.2862,1.19818,-1.36877,-1.71077,-3.50722,-1.16985,-2.24839,1.92883,-0.222182,-1.10155,3.92178,-21.237,1.02247,-8.26806,33.0143,4.18933,1.36551,14.8505,0.874632,2.75873,6.83633e-15,-7.95139e-16,-33.7615,-3.86937,-80.8557,31.3941,20.0652,-17.5101,8.30593,7.12502,8.74307,-21.493,6.83633e-15,-7.95139e-16,-11.5752,-22.4862,89.2285,78.4337,1.50728,-34.797,25.8626,7.12502,-7.94888,55.6932,-9.18269,10.0197,15.032,25.5701,-15.8207,-3.00562,4.25938,0.569277,-1.79168,-21.7974,11.9398,-10.6788,7.72335,-11.958
-0.0850097,17.9843,-0.804957,2.749,-12.2147,1.13651,-1.33446,-1.72035,-3.54706,-1.19885,-2.26206,2.0022,-0.265566,-1.10664,4.02167,-21.1432,0.971642,-8.4338,32.9816,4.13917,1.43894,14.812,0.845618,2.80526,5.93559e-15,1.03368e-14,-33.8278,-3.91122,-80.6749,31.1951,20.1447,-17.3853,8.36264,7.12502,8.86352,-21.4312,5.93559e-15,1.03368e-14,-11.5231,-22.6733,89.158,79.4832,1.18511,-34.7531,26.1759,7.12502,-7.90647,56.0081,-9.13485,10.0425,15.1106,25.5382,-15.8487,-3.04334,4.60597,0.540611,-1.81151,-21.7205,12.0106,-10.716,7.69138,-11.9474
-0.0859422,17.9861,-0.804825,2.77709,-12.1018,1.07818,-1.31943,-1.74091,-3.56803,-1.22641,-2.28994,2.0696,-0.296174,-1.11922,4.10387,-21.0543,0.915084,-8.59649,32.921,4.07946,1.50988,14.7629,0.813936,2.84783,1.04548e-14,7.95139e-16,-33.8514,-4.01019,-80.4761,30.9286,20.3306,-17.2291,8.36949,7.12502,9.01423,-21.4179,1.04548e-14,7.95139e-16,-11.4022,-22.9372,89.032,80.5259,0.961132,-34.7973,26.3081,7.12502,-7.94909,56.1386,-9.11791,10.0073,15.182,25.5145,-15.8595,-3.13626,4.55683,0.494586,-1.79948,-21.6461,12.0524,-10.7093,7.61862,-11.9725
-0.0857116,17.9868,-0.801699,2.8147,-12.0131,1.09757,-1.40135,-1.75524,-3.58767,-1.21928,-2.30637,2.0492,-0.241419,-1.12873,4.09063,-21.0122,0.869331,-8.62896,32.8237,4.00358,1.54232,14.7121,0.787611,2.84951,7.85821e-16,-3.57812e-15,-33.8279,-4.15166,-80.3884,30.634,20.4673,-17.1249,8.25288,7.12502,9.11477,-21.5302,7.85821e-16,-3.57812e-15,-11.1715,-23.2033,88.7791,81.5267,0.817418,-34.8884,26.3804,7.12502,-8.03708,56.2076,-9.10165,9.91838,15.1586,25.4695,-15.8768,-3.14643,4.37097,0.430782,-1.81376,-21.6675,12.0841,-10.6878,7.58425,-12.139
-0.0859769,17.9864,-0.798643,2.81989,-11.9487,1.12646,-1.47095,-1.74224,-3.62793,-1.18669,-2.28629,2.01668,-0.170653,-1.12065,4.07709,-21.009,0.831499,-8.56081,32.7618,3.92996,1.51169,14.6903,0.763571,2.81049,-1.60022e-14,-3.97569e-15,-33.7935,-4.36341,-80.3011,30.3994,20.6251,-17.0642,8.10157,7.12502,9.17336,-21.6789,-1.60022e-14,-3.97569e-15,-10.914,-23.4859,88.5243,82.4941,0.684937,-34.9378,26.4524,7.12502,-8.08477,56.2778,-9.05164,9.8457,15.1242,25.4271,-15.9048,-3.10652,4.52319,0.422585,-1.82284,-21.6996,12.0773,-10.6922,7.54303,-12.3027
-0.0869395,17.9868,-0.79496,2.82012,-11.8393,1.13486,-1.53685,-1.75006,-3.64296,-1.15364,-2.2943,2.00122,-0.0990269,-1.1268,4.06653,-20.9982,0.807451,-8.55215,32.6972,3.88564,1.51744,14.6612,0.750108,2.80152,-8.32877e-15,5.1684e-15,-33.7991,-4.54323,-80.1904,30.237,20.8101,-17.2082,8.05898,7.12502,9.03443,-21.7276,-8.32877e-15,5.1684e-15,-10.5961,-23.7551,88.2413,83.4342,0.613403,-35.0159,26.4348,7.12502,-8.16008,56.2573,-9.00448,9.75696,15.1226,25.4085,-15.9681,-3.12713,4.5197,0.46021,-1.89459,-21.7096,12.0135,-10.6731,7.52674,-12.4938
-0.0872141,17.9876,-0.791049,2.83686,-11.7288,1.11983,-1.58843,-1.7465,-3.62205,-1.12483,-2.28801,1.99232,-0.0422535,-1.12552,4.04336,-21.0444,0.739364,-8.64043,32.6323,3.78114,1.6318,14.643,0.714437,2.84439,-1.26818e-14,-6.36111e-15,-33.8015,-4.70267,-80.0765,30.0568,20.9796,-17.3773,8.1935,7.12502,8.87126,-21.6,-1.26818e-14,-6.36111e-15,-10.1621,-24.0616,87.9167,84.3469,0.619374,-35.099,26.3499,7.12502,-8.24028,56.1692,-8.96804,9.65412,15.1456,25.3892,-15.9841,-3.15979,4.36106,0.493377,-2.00973,-21.6979,11.9519,-10.6999,7.54192,-12.4978
-0.0880958,17.9875,-0.789313,2.82652,-11.6921,1.20655,-1.56967,-1.72421,-3.79452,-1.11179,-2.25674,1.99494,-0.0359045,-1.1095,4.14452,-21.1493,0.668842,-8.69114,32.593,3.68816,1.68694,14.6521,0.677876,2.86043,1.03927e-14,6.36111e-15,-33.7604,-4.83966,-79.9317,29.8311,21.0942,-17.5106,8.5544,7.12502,8.74259,-21.2445,1.03927e-14,6.36111e-15,-9.74299,-24.3421,87.6299,85.2565,0.411912,-35.1709,26.5094,7.12502,-8.30972,56.326,-8.95525,9.58406,15.05,25.3658,-15.9788,-3.13892,4.19831,0.501365,-2.04393,-21.7914,11.9279,-10.6923,7.49935,-12.551
-0.0902823,17.9873,-0.789308,2.83731,-11.6416,1.15372,-1.5063,-1.72604,-3.88388,-1.1312,-2.26063,2.09224,-0.0838302,-1.10952,4.29826,-21.1973,0.634857,-8.84301,32.5724,3.67957,1.74981,14.6499,0.665228,2.911,1.84714e-14,-8.74653e-15,-33.7989,-4.71034,-79.7888,29.7091,21.0152,-17.5817,8.78631,7.12502,8.67404,-21.0155,1.84714e-14,-8.74653e-15,-9.41783,-24.4739,87.4274,86.1463,0.11799,-35.1488,26.8454,7.12502,-8.28837,56.6628,-8.93864,9.58739,15.1217,25.3456,-15.9772,-3.19478,4.08809,0.506203,-2.07168,-21.7233,11.913,-10.6926,7.42592,-12.3593
-0.0918291,17.9869,-0.789557,2.83067,-11.567,1.07834,-1.41899,-1.73102,-3.88622,-1.16406,-2.27047,2.15525,-0.162961,-1.11186,4.36827,-21.1505,0.610833,-8.97536,32.5128,3.66268,1.81938,14.6092,0.655156,2.95638,-1.02529e-14,-1.59028e-15,-33.8808,-4.67972,-79.6747,29.598,20.9879,-17.4926,8.77681,7.12502,8.76002,-21.0214,-1.02529e-14,-1.59028e-15,-9.09126,-24.6166,87.181,86.9776,-0.113677,-35.147,26.9341,7.12502,-8.28663,56.7515,-8.89592,9.59199,15.2257,25.3418,-15.9936,-3.26493,4.07033,0.52715,-2.0616,-21.6229,11.9032,-10.7016,7.36094,-12.2737
-0.0925442,17.9875,-0.787223,2.79773,-11.4505,1.06433,-1.38041,-1.74997,-3.90227,-1.16765,-2.29693,2.17367,-0.184165,-1.12443,4.39727,-21.1104,0.5812,-9.07003,32.4352,3.61815,1.9022,14.5638,0.640842,2.99552,1.97542e-14,-7.95139e-16,-33.91,-4.72174,-79.5845,29.4493,21.0256,-17.3465,8.66135,7.12502,8.90102,-21.1309,1.97542e-14,-7.95139e-16,-8.72729,-24.7854,86.9063,87.8524,-0.293803,-35.1333,27.1899,7.12502,-8.27345,57.0079,-8.81961,9.53323,15.2621,25.3398,-16.0539,-3.29324,4.17772,0.559822,-2.08056,-21.5924,11.9059,-10.702,7.27937,-12.448
-0.0933162,17.9873,-0.785612,2.7863,-11.378,1.10683,-1.4183,-1.74414,-3.95159,-1.1328,-2.28715,2.14871,-0.127252,-1.12137,4.39748,-21.1005,0.5472,-9.10983,32.3142,3.56001,1.95337,14.5084,0.624888,3.00922,1.02188e-14,-2.38542e-15,-33.8847,-4.84481,-79.5408,29.362,21.0684,-17.1664,8.44242,7.12502,9.07474,-21.3424,1.02188e-14,-2.38542e-15,-8.2735,-25.0282,86.5591,88.7552,-0.490666,-35.0769,27.4879,7.12502,-8.21903,57.308,-8.80536,9.4814,15.2284,25.3653,-16.0842,-3.33169,4.05836,0.572566,-2.0359,-21.6206,11.8653,-10.71,7.17658,-12.4762
-0.094137,17.9872,-0.783718,2.76069,-11.2959,1.19963,-1.46049,-1.74491,-4.00683,-1.09049,-2.28572,2.07329,-0.0611723,-1.12288,4.34821,-21.1189,0.508355,-9.08127,32.206,3.48586,1.96692,14.4688,0.604042,2.99406,-3.75827e-14,-6.36111e-15,-33.8617,-4.99033,-79.5441,29.2699,21.1615,-17.1453,8.46961,7.12502,9.09516,-21.3143,-3.75827e-14,-6.36111e-15,-7.74228,-25.2532,86.0802,89.6719,-0.373659,-34.925,27.4134,7.12502,-8.07239,57.2392,-8.8125,9.44834,15.1386,25.4264,-16.1145,-3.39944,4.03729,0.634111,-1.96445,-21.7013,11.7414,-10.6669,7.03428,-12.4869
-0.0941372,17.9857,-0.779968,2.69746,-11.1104,1.32253,-1.45918,-1.78496,-4.09779,-1.07232,-2.33793,2.00775,-0.0369218,-1.14964,4.33013,-21.0489,0.484821,-9.01916,32.0693,3.42732,1.93057,14.3981,0.588512,2.95285,-4.92986e-14,1.63003e-14,-33.8939,-5.14053,-79.5135,29.1613,21.3204,-17.3488,8.51565,7.12502,8.89877,-21.2767,-4.92986e-14,1.63003e-14,-7.24619,-25.3666,85.6613,90.5179,-0.142109,-34.7235,27.1957,7.12502,-7.8779,57.0289,-8.74365,9.31855,15.0249,25.4877,-16.1887,-3.40102,4.10896,0.721085,-1.97084,-21.8186,11.6398,-10.5589,6.86421,-12.91
-0.0956128,17.9835,-0.777173,2.60683,-10.9277,1.416,-1.42293,-1.82638,-4.21169,-1.03815,-2.39297,1.97057,-0.0133477,-1.17804,4.35516,-21.0395,0.482699,-8.92335,31.9702,3.39586,1.89567,14.356,0.586741,2.91375,-4.9075e-16,0,-33.9151,-5.25113,-79.4782,29.1173,21.4418,-17.3819,8.43769,7.12502,8.86685,-21.356,-4.9075e-16,0,-6.7725,-25.594,85.234,91.2871,-0.236658,-34.8038,27.4701,7.12502,-7.95536,57.3004,-8.63061,9.22355,14.9569,25.5461,-16.3056,-3.42115,4.10153,0.840484,-1.98272,-21.8995,11.5444,-10.4811,6.70555,-12.9623
-0.0966073,17.9832,-0.775941,2.57859,-10.9057,1.38942,-1.42357,-1.82431,-4.21165,-1.01354,-2.38998,1.97216,0.0120871,-1.17767,4.35631,-21.0124,0.476103,-8.83943,31.8484,3.37318,1.8219,14.3008,0.582516,2.86135,1.30297e-14,-5.1684e-15,-33.9256,-5.30263,-79.465,29.0921,21.4501,-17.2669,8.33956,7.12502,8.97783,-21.4494,1.30297e-14,-5.1684e-15,-6.31108,-25.8101,84.8037,91.9831,-0.647134,-34.9771,27.6924,7.12502,-8.1227,57.5163,-8.59911,9.24773,14.9995,25.5818,-16.3487,-3.45635,4.12881,0.916474,-1.97474,-21.8635,11.4844,-10.4732,6.66244,-12.9015
-0.0964153,17.9839,-0.775698,2.57925,-10.9344,1.39541,-1.45449,-1.80195,-4.19096,-0.998988,-2.35894,1.93268,0.0386352,-1.16315,4.30304,-20.9096,0.458878,-8.86332,31.6602,3.30842,1.90724,14.1953,0.573951,2.8815,-1.41976e-14,-1.59028e-15,-33.9215,-5.44007,-79.466,29.0232,21.5206,-17.2526,8.43702,7.12502,8.99156,-21.3514,-1.41976e-14,-1.59028e-15,-5.857,-25.9974,84.3308,92.6558,-1.21368,-35.1519,27.5792,7.12502,-8.29133,57.3965,-8.61279,9.29981,14.9876,25.5935,-16.3541,-3.47649,4.15258,0.926614,-2.04343,-21.8753,11.4756,-10.5043,6.73333,-12.6305
-0.0968772,17.9833,-0.775421,2.58419,-10.8906,1.36152,-1.48501,-1.79079,-4.14104,-0.975211,-2.34321,1.91607,0.0759361,-1.15681,4.25646,-20.7916,0.432008,-8.88693,31.4126,3.2372,1.96174,14.0627,0.560835,2.88592,3.85332e-14,-4.77083e-15,-33.9053,-5.52068,-79.4594,28.9807,21.5954,-17.3663,8.59459,7.12502,8.88188,-21.1985,3.85332e-14,-4.77083e-15,-5.29783,-26.1296,83.8361,93.3473,-1.62317,-35.1965,27.842,7.12502,-8.33443,57.6575,-8.59099,9.26129,15.0317,25.5738,-16.3343,-3.51081,4.09686,0.888148,-2.0549,-21.8292,11.5451,-10.5311,6.67837,-12.5778
-0.0995544,17.9832,-0.774671,2.55901,-10.8643,1.34059,-1.45565,-1.78384,-4.15229,-0.966771,-2.33484,1.91882,0.0678347,-1.15255,4.26667,-20.7171,0.4313,-8.89666,31.2239,3.21429,1.99419,13.9638,0.563851,2.88989,4.18752e-14,-4.77083e-15,-33.9222,-5.50441,-79.482,28.9692,21.5841,-17.5137,8.84855,7.12502,8.73964,-20.9505,4.18752e-14,-4.77083e-15,-4.69862,-26.2051,83.323,94.1634,-1.41453,-35.2228,28.6952,7.12502,-8.35979,58.5097,-8.53271,9.27832,15.0718,25.5565,-16.3505,-3.54416,3.96242,0.882957,-1.98272,-21.7976,11.6243,-10.5463,6.61723,-12.6994
-0.100761,17.9812,-0.775209,2.51765,-10.8256,1.28064,-1.39071,-1.78866,-4.05653,-0.953709,-2.34456,1.89633,0.0412708,-1.15732,4.19098,-20.6938,0.434403,-8.94861,31.1172,3.1835,2.13551,13.9083,0.57005,2.94688,-1.24334e-14,-1.15295e-14,-33.9533,-5.48403,-79.5561,28.9834,21.5606,-17.5796,9.09436,7.12502,8.67609,-20.7073,-1.24334e-14,-1.15295e-14,-4.11752,-26.2872,82.7487,94.8579,-1.36761,-35.3154,29.1079,7.12502,-8.44917,58.9189,-8.44867,9.28613,15.1572,25.5309,-16.3673,-3.57797,4.01518,0.902302,-2.01824,-21.7289,11.7057,-10.5777,6.62073,-12.5178
-0.100744,17.98,-0.776258,2.52792,-10.7727,1.24987,-1.37969,-1.78688,-3.95254,-0.990933,-2.34383,1.85187,-0.0091265,-1.1554,4.08739,-20.5621,0.427866,-9.05908,30.9923,3.10852,2.38843,13.8204,0.567643,3.04842,4.05707e-14,-7.95139e-16,-34.1139,-5.50224,-79.5977,29.0764,21.5785,-17.5376,9.0363,7.12502,8.7166,-20.7637,4.05707e-14,-7.95139e-16,-3.64922,-26.4292,82.2325,95.4817,-1.49515,-35.5244,28.9598,7.12502,-8.65082,58.7625,-8.43443,9.27156,15.1966,25.5054,-16.3814,-3.59073,4.06411,0.845005,-2.08115,-21.6877,11.781,-10.5825,6.61436,-12.2878
-0.101136,17.9814,-0.776247,2.55272,-10.7096,1.2677,-1.41054,-1.77959,-3.96673,-1.03486,-2.33319,1.85243,-0.0375228,-1.14854,4.09608,-20.4255,0.40357,-9.19347,30.8701,3.04657,2.55351,13.7355,0.554999,3.1206,-4.36876e-14,1.15295e-14,-34.2468,-5.47414,-79.556,29.1513,21.518,-17.4596,8.81448,7.12502,8.79185,-20.9824,-4.36876e-14,1.15295e-14,-3.11498,-26.5707,81.7836,96.1269,-1.49063,-36.1051,28.4342,7.12502,-9.21122,58.213,-8.44696,9.24626,15.1743,25.4964,-16.4193,-3.61554,4.21327,0.783378,-2.13115,-21.706,11.8217,-10.6215,6.61189,-12.4497
-0.101444,17.9818,-0.775366,2.5694,-10.6331,1.26303,-1.45234,-1.77941,-3.99028,-1.0217,-2.33117,1.88089,0.00130691,-1.14859,4.13722,-20.4369,0.383485,-9.22489,30.7422,3.02834,2.55124,13.684,0.548999,3.11817,8.17657e-14,-1.35174e-14,-34.2641,-5.42377,-79.511,29.2387,21.43,-17.3538,8.56022,7.12502,8.89394,-21.2323,8.17657e-14,-1.35174e-14,-2.40815,-26.642,81.266,96.7673,-1.56307,-36.7294,27.6372,7.12502,-9.81361,57.3885,-8.44546,9.16685,15.1851,25.4989,-16.4137,-3.63309,4.18568,0.747243,-2.17959,-21.6983,11.8445,-10.6395,6.59585,-12.6516
-0.101982,17.9808,-0.77407,2.54323,-10.5705,1.32482,-1.46453,-1.78148,-4.07694,-0.998132,-2.33228,1.86682,0.0352447,-1.1501,4.17063,-20.4751,0.398131,-9.17546,30.6476,3.02803,2.56998,13.6511,0.561825,3.11509,-6.99194e-14,3.97569e-15,-34.2039,-5.40181,-79.529,29.2346,21.3896,-17.3654,8.40421,7.12502,8.88271,-21.3888,-6.99194e-14,3.97569e-15,-1.70823,-26.6543,80.6865,97.3542,-1.61612,-36.7747,27.424,7.12502,-9.85727,57.1732,-8.40754,9.15853,15.1246,25.5052,-16.4733,-3.61468,4.3146,0.768365,-2.12502,-21.7517,11.8375,-10.6806,6.46917,-12.6695
-0.102708,17.9801,-0.773736,2.54744,-10.5611,1.32205,-1.4996,-1.76246,-4.02552,-0.98755,-2.30599,1.83119,0.0596869,-1.13789,4.10393,-20.4291,0.399687,-9.22649,30.4925,2.98499,2.73244,13.5715,0.56788,3.17568,-1.46076e-14,4.77083e-15,-34.1428,-5.36727,-79.6189,29.2305,21.2949,-17.3329,8.20147,7.12502,8.91412,-21.5902,-1.46076e-14,4.77083e-15,-1.0322,-26.7392,80.0319,97.8939,-1.65626,-36.6044,27.6292,7.12502,-9.69295,57.3862,-8.41275,9.1589,15.1311,25.5212,-16.4735,-3.60359,4.41525,0.772688,-2.05295,-21.7327,11.8208,-10.7258,6.36066,-12.5363
-0.103364,17.9808,-0.773374,2.57558,-10.5463,1.31918,-1.56087,-1.76526,-3.9398,-1.01239,-2.30862,1.79121,0.0638439,-1.13913,4.01258,-20.3034,0.399851,-9.28179,30.3206,2.95775,2.81738,13.4699,0.569846,3.20631,2.82523e-14,-6.75868e-15,-34.1497,-5.23702,-79.7432,29.2512,21.22,-17.4523,8.10506,7.12502,8.7989,-21.6915,2.82523e-14,-6.75868e-15,-0.420921,-26.7823,79.3698,98.3806,-1.81144,-36.4698,27.7296,7.12502,-9.56309,57.4925,-8.44886,9.15572,15.1335,25.5363,-16.4524,-3.61326,4.51901,0.749149,-2.09239,-21.7244,11.8044,-10.6975,6.37759,-12.5371
-0.1039,17.9801,-0.773163,2.60123,-10.5198,1.3507,-1.59927,-1.78309,-4.02793,-1.01582,-2.33008,1.82977,0.0889219,-1.15012,4.1005,-20.315,0.376671,-9.28839,30.1586,2.94447,2.75696,13.4067,0.561758,3.17621,3.69243e-14,-1.23246e-14,-34.1019,-5.03275,-79.7803,29.3222,21.1349,-17.6451,8.19509,7.12502,8.61286,-21.6092,3.69243e-14,-1.23246e-14,0.278267,-26.7206,78.7897,98.8693,-2.05522,-36.1968,28.201,7.12502,-9.29969,57.9759,-8.4755,9.1295,15.1014,25.5418,-16.4653,-3.6553,4.28022,0.723378,-2.18253,-21.7617,11.7901,-10.6438,6.46724,-12.5523
-0.104167,17.98,-0.772234,2.59419,-10.5042,1.35629,-1.59261,-1.77976,-4.12625,-0.994508,-2.32463,1.88179,0.11246,-1.14805,4.20982,-20.3462,0.343467,-9.26896,29.9421,2.90802,2.69772,13.3268,0.549146,3.13724,3.61415e-14,-2.10712e-14,-34.0802,-4.85973,-79.7888,29.4885,21.008,-17.6851,8.38795,7.12502,8.57423,-21.418,3.61415e-14,-2.10712e-14,1.08229,-26.6513,78.1667,99.3196,-2.1872,-35.8893,28.5696,7.12502,-9.00296,58.3575,-8.46062,9.12957,15.0949,25.5501,-16.5245,-3.66042,4.39741,0.760564,-2.17907,-21.7674,11.7481,-10.6516,6.46622,-12.5546
-0.104706,17.9801,-0.771293,2.54416,-10.4875,1.39399,-1.54665,-1.80102,-4.19552,-1.00068,-2.35401,1.90322,0.0869705,-1.16181,4.27209,-20.2993,0.361322,-9.28362,29.731,2.92963,2.69573,13.2263,0.566129,3.13494,4.63541e-14,-6.75868e-15,-34.1097,-4.6637,-79.8391,29.6277,20.9435,-17.5687,8.57531,7.12502,8.68654,-21.226,4.63541e-14,-6.75868e-15,1.77217,-26.5085,77.5167,99.7641,-2.2446,-35.6386,28.3857,7.12502,-8.76107,58.1839,-8.4035,9.11973,15.0642,25.5584,-16.563,-3.62895,4.35878,0.823039,-2.16626,-21.8056,11.7218,-10.6294,6.42147,-12.3499
-0.105391,17.9792,-0.771478,2.50709,-10.4684,1.42387,-1.50785,-1.78427,-4.22163,-1.00164,-2.33274,1.87865,0.0620006,-1.15044,4.26321,-20.3668,0.345874,-9.19592,29.6793,2.89001,2.67402,13.2232,0.557889,3.10487,1.55922e-14,1.59028e-15,-34.1658,-4.62279,-79.8978,29.7683,20.8712,-17.4432,8.35555,7.12502,8.80768,-21.4407,1.55922e-14,1.59028e-15,2.50181,-26.5536,76.8346,100.231,-2.37543,-35.6673,28.5496,7.12502,-8.78871,58.3466,-8.36193,9.12276,15.0423,25.5546,-16.5959,-3.63513,4.32333,0.84557,-2.19761,-21.8326,11.7377,-10.6442,6.40318,-12.3819
-0.105972,17.9789,-0.772253,2.50849,-10.4353,1.37945,-1.49621,-1.67445,-4.12999,-0.985862,-2.18719,1.76493,0.0487158,-1.07783,4.0971,-20.3722,0.257809,-8.91051,29.5767,2.66386,2.65725,13.2006,0.4937,3.01038,-1.53282e-14,-6.36111e-15,-34.2308,-5.052,-79.9616,29.8793,20.8541,-17.3992,8.20428,7.12502,8.85011,-21.5901,-1.53282e-14,-6.36111e-15,3.47942,-26.9338,75.9424,100.648,-2.42445,-35.905,29.0525,7.12502,-9.01818,58.8397,-8.35356,9.12991,15.1015,25.5456,-16.5869,-3.7129,4.26988,0.833617,-2.1483,-21.7689,11.7558,-10.6539,6.32463,-12.3895
-0.106969,17.9795,-0.77313,2.5147,-10.42,1.33172,-1.4947,-1.57561,-4.03335,-0.949403,-2.05586,1.67233,0.0654084,-1.01347,3.94903,-20.45,0.184573,-8.70376,29.4814,2.48242,2.68222,13.1908,0.445344,2.95428,2.64166e-14,1.23246e-14,-34.2267,-5.42513,-80.0173,30.0054,20.8192,-17.2537,8.20089,7.12502,8.99055,-21.5875,2.64166e-14,1.23246e-14,4.65562,-27.2625,74.9487,101.04,-2.34481,-36.0751,29.4293,7.12502,-9.18231,59.2094,-8.35351,9.17,15.161,25.5424,-16.5797,-3.73676,4.42253,0.817846,-2.14152,-21.7159,11.7829,-10.6349,6.33146,-12.5709
-0.107817,17.9801,-0.772752,2.5265,-10.4174,1.33045,-1.49299,-1.58606,-4.03975,-0.920011,-2.0696,1.69782,0.0971817,-1.02162,3.97823,-20.6025,0.169544,-8.80716,29.3687,2.48185,2.77823,13.1723,0.451257,3.00877,2.09438e-14,1.94809e-14,-34.1162,-5.32693,-80.0599,30.1436,20.7101,-17.0192,8.11887,7.12502,9.21679,-21.6597,2.09438e-14,1.94809e-14,5.76415,-27.2338,73.9986,101.525,-2.35339,-35.9874,29.9258,7.12502,-9.09769,59.7096,-8.35252,9.17223,15.1641,25.5315,-16.594,-3.71728,4.47915,0.778895,-2.17523,-21.7144,11.8388,-10.6511,6.35897,-12.4699
-0.108411,17.9792,-0.773863,2.50661,-10.4196,1.34508,-1.45448,-1.60439,-4.07216,-0.904209,-2.09508,1.72871,0.0966367,-1.03456,4.02879,-20.552,0.182795,-8.92482,29.0611,2.49188,2.90267,13.0284,0.472561,3.06906,-2.18228e-14,2.78299e-15,-34.0205,-5.16207,-80.1004,30.2324,20.7024,-17.1022,7.98318,7.12502,9.13677,-21.7989,-2.18228e-14,2.78299e-15,6.6667,-27.0709,73.1819,101.946,-2.44278,-35.8179,30.4049,7.12502,-8.93405,60.1958,-8.32461,9.1933,15.1562,25.5173,-16.5702,-3.75736,4.6558,0.751637,-2.21903,-21.7294,11.91,-10.6714,6.40326,-12.474
-0.109365,17.9785,-0.775402,2.50239,-10.4122,1.30505,-1.42253,-1.61831,-4.06365,-0.886714,-2.11491,1.76628,0.0998178,-1.04492,4.06308,-20.4466,0.204845,-8.95602,28.684,2.503,2.94532,12.8486,0.495339,3.07955,-3.85611e-14,-9.14409e-15,-33.9162,-5.00425,-80.1608,30.2906,20.6357,-17.2464,7.99514,7.12502,8.99754,-21.793,-3.85611e-14,-9.14409e-15,7.39361,-26.8722,72.5085,102.217,-2.64456,-35.8773,30.6155,7.12502,-8.99138,60.4039,-8.30952,9.20054,15.2091,25.5117,-16.5625,-3.79083,4.64954,0.732607,-2.30501,-21.684,11.965,-10.7254,6.45765,-12.4606
-0.109541,17.9791,-0.7753,2.52942,-10.4338,1.24895,-1.44604,-1.60544,-4.02976,-0.872086,-2.09723,1.79263,0.126058,-1.03705,4.07066,-20.4338,0.204917,-8.93009,28.4913,2.4833,2.96434,12.768,0.499929,3.07344,-9.51371e-15,-7.95139e-15,-33.7869,-4.93995,-80.2063,30.2736,20.6166,-17.4282,8.13578,7.12502,8.82217,-21.6598,-9.51371e-15,-7.95139e-15,8.16746,-26.7482,71.7855,102.465,-2.52223,-36.0953,30.2998,7.12502,-9.20173,60.079,-8.34287,9.22751,15.2682,25.5154,-16.5638,-3.81219,4.48324,0.682475,-2.2575,-21.6202,12.0449,-10.7541,6.43573,-12.6082
-0.110051,17.9782,-0.774594,2.54503,-10.4441,1.24278,-1.47069,-1.60201,-4.03055,-0.866733,-2.09172,1.79821,0.145058,-1.03484,4.07618,-20.5253,0.198165,-8.88497,28.4495,2.47101,2.95253,12.7713,0.499376,3.05964,1.93877e-14,2.78299e-15,-33.7212,-4.84691,-80.2684,30.3277,20.5527,-17.5713,8.3359,7.12502,8.68404,-21.4655,1.93877e-14,2.78299e-15,8.89949,-26.6232,71.0417,102.808,-2.03382,-36.2274,29.6193,7.12502,-9.32923,59.3928,-8.35267,9.21669,15.275,25.4876,-16.5392,-3.81263,4.32812,0.566241,-2.2182,-21.6155,12.271,-10.859,6.45546,-12.4894
-0.111075,17.9785,-0.782152,2.5565,-10.4831,1.18047,-1.42508,-1.61282,-3.98792,-0.827298,-2.10811,1.82602,0.161257,-1.04428,4.08118,-20.6133,0.241154,-8.84391,28.2915,2.53708,2.9174,12.7213,0.534278,3.04652,3.95892e-14,-2.78299e-15,-33.5985,-4.68496,-80.378,30.4188,20.5256,-17.7202,8.44254,7.12502,8.54036,-21.3647,3.95892e-14,-2.78299e-15,9.67375,-26.308,70.3016,103.139,-2.06864,-36.4994,28.8414,7.12502,-9.5917,58.6031,-8.37115,9.32289,15.3523,25.4272,-16.5106,-3.87912,4.34708,0.362892,-2.2744,-21.5396,12.6062,-11.0029,6.55937,-12.2894
-0.113191,17.98,-0.799114,2.60173,-10.5248,0.898114,-1.21391,-1.61197,-3.78264,-0.805816,-2.11676,1.94618,0.0631521,-1.04724,4.09554,-20.734,0.261814,-8.90917,28.0508,2.58622,2.96084,12.6428,0.564355,3.07711,-2.53202e-14,7.55382e-15,-33.4054,-4.57875,-80.4168,30.4508,20.5531,-17.721,8.50862,7.12502,8.53955,-21.2987,-2.53202e-14,7.55382e-15,10.5055,-25.8644,69.6801,103.393,-2.75129,-36.4894,28.7055,7.12502,-9.58206,58.4676,-8.4133,9.57322,15.6989,25.3365,-16.467,-4.10013,4.37426,0.0805339,-2.34141,-21.199,13.019,-11.1164,6.65459,-12.3964
-0.115342,17.9817,-0.8105,2.70667,-10.4992,0.621919,-1.00351,-1.62487,-3.61595,-0.9003,-2.14277,2.10826,-0.149139,-1.05423,4.17715,-20.7625,0.241473,-9.04084,27.8771,2.58494,3.02249,12.5758,0.565,3.11809,1.74061e-14,1.23246e-14,-33.3684,-4.34323,-80.401,30.5155,20.4376,-17.5914,8.40074,7.12502,8.6647,-21.4014,1.74061e-14,1.23246e-14,11.1844,-25.5381,69.1474,103.621,-3.32611,-36.596,28.937,7.12502,-9.68486,58.6944,-8.46061,9.73451,16.0244,25.2178,-16.4221,-4.32296,4.55423,-0.277958,-2.41059,-20.8696,13.5125,-11.3156,6.71182,-12.5887
-0.11727,17.9827,-0.815291,2.81114,-10.4521,0.401579,-0.737355,-1.63113,-3.49344,-1.11028,-2.15999,2.23951,-0.511947,-1.05135,4.25631,-20.7351,0.237854,-9.07858,27.8977,2.56165,3.1137,12.5773,0.562615,3.15611,4.29064e-14,-1.47101e-14,-33.5944,-4.01405,-80.4064,30.654,20.3177,-17.546,8.09288,7.12502,8.7085,-21.7075,4.29064e-14,-1.47101e-14,11.7213,-25.4095,68.6185,103.825,-3.67989,-36.8233,28.921,7.12502,-9.90416,58.6681,-8.47129,9.7886,16.2758,25.0676,-16.3554,-4.44751,4.69294,-0.635269,-2.39029,-20.5999,14.0327,-11.5465,6.66421,-12.7088
-0.117839,17.9819,-0.818707,2.90163,-10.3903,0.193465,-0.739775,-1.63777,-3.31673,-1.11594,-2.16906,2.31131,-0.519061,-1.05666,4.23081,-20.8574,0.256037,-9.06027,27.7892,2.55527,3.23636,12.5552,0.583247,3.1983,5.2914e-14,-1.43125e-14,-33.5705,-3.85913,-80.484,30.8026,20.2586,-17.7109,7.82955,7.12502,8.54933,-21.9774,5.2914e-14,-1.43125e-14,12.6602,-25.2202,67.8363,103.995,-3.851,-36.9438,28.8049,7.12502,-10.0204,58.5463,-8.4954,9.76927,16.5107,24.9753,-16.3222,-4.50173,4.72018,-0.846413,-2.37075,-20.3488,14.2858,-11.642,6.59781,-12.5064
-0.118525,17.9819,-0.819643,3.00446,-10.3466,-0.0100002,-0.755323,-1.66223,-3.14702,-1.14122,-2.20155,2.40263,-0.535763,-1.07312,4.22923,-20.9363,0.281456,-9.03168,27.645,2.58787,3.23871,12.5107,0.606764,3.19655,2.88114e-14,-2.26615e-14,-33.5567,-3.67981,-80.5293,30.9364,20.1502,-17.8237,7.73757,7.12502,8.44049,-22.0738,2.88114e-14,-2.26615e-14,13.4939,-24.9208,67.0913,104.26,-3.87808,-36.9927,28.73,7.12502,-10.0676,58.4691,-8.57962,9.79632,16.729,24.9938,-16.3852,-4.5209,4.80944,-0.864443,-2.34306,-20.1048,14.1447,-11.5753,6.5102,-12.2612
-0.117906,17.9832,-0.809104,2.96131,-10.376,0.254712,-0.90291,-1.65671,-3.38552,-1.07554,-2.18986,2.32985,-0.380845,-1.07041,4.28262,-21.0457,0.253388,-9.02463,27.4444,2.54448,3.27121,12.4547,0.600544,3.19676,-3.11781e-14,-3.97569e-16,-33.4442,-3.63367,-80.5638,31.0134,20.0899,-17.7154,7.66617,7.12502,8.54503,-22.1409,-3.11781e-14,-3.97569e-16,14.2554,-24.5942,66.4138,104.384,-3.95567,-37.1429,28.4408,7.12502,-10.2125,58.1729,-8.59801,9.69096,16.4196,25.1031,-16.3992,-4.43721,4.30423,-0.602344,-2.32701,-20.4204,13.7208,-11.4155,6.52638,-12.2767
-0.11536,17.9807,-0.784963,2.74293,-10.4679,0.944234,-1.10939,-1.63579,-3.98875,-0.963569,-2.15166,2.1274,-0.140061,-1.05621,4.40557,-21.1358,0.222072,-9.03078,27.2256,2.49759,3.30822,12.3879,0.592633,3.19945,-1.27346e-14,-1.51076e-14,-33.3271,-3.55313,-80.5895,31.025,20.0402,-17.6999,7.75151,7.12502,8.55993,-22.055,-1.27346e-14,-1.51076e-14,15.005,-24.2931,65.7528,104.473,-4.09093,-37.2778,28.2525,7.12502,-10.3427,57.9781,-8.45608,9.43087,15.6196,25.2535,-16.473,-4.05323,4.4458,-0.0767549,-2.37056,-21.2613,13.1488,-11.2382,6.69602,-12.6699
-0.112908,17.9786,-0.770295,2.61431,-10.5249,1.34054,-1.15373,-1.62611,-4.33327,-0.957968,-2.13427,2.02497,-0.103074,-1.04722,4.49297,-21.2146,0.225969,-9.02793,27.0941,2.49731,3.34764,12.3502,0.603376,3.21143,1.46231e-14,-1.19271e-15,-33.3291,-3.40985,-80.6007,31.0212,19.9517,-17.6901,7.9256,7.12502,8.56943,-21.8805,1.46231e-14,-1.19271e-15,15.681,-23.9698,65.1416,104.582,-4.25706,-37.3168,28.029,7.12502,-10.3803,57.7528,-8.41162,9.25979,15.1522,25.4319,-16.5485,-3.76803,4.66257,0.391868,-2.35945,-21.7447,12.4481,-10.9634,6.73996,-12.454
-0.113218,17.9783,-0.769425,2.61441,-10.5406,1.36131,-1.13642,-1.6292,-4.39055,-0.964283,-2.13875,2.07087,-0.115059,-1.04877,4.57365,-21.4032,0.242377,-9.08918,27.0177,2.53677,3.43382,12.3517,0.6295,3.26206,3.02153e-14,-2.78299e-15,-33.2584,-3.29677,-80.5687,31.005,19.9784,-17.7495,8.26329,7.12502,8.51212,-21.5451,3.02153e-14,-2.78299e-15,16.4801,-23.5743,64.5622,104.783,-4.36722,-37.3659,28.2342,7.12502,-10.4277,57.9556,-8.48418,9.28839,15.1286,25.5639,-16.6204,-3.74542,4.37968,0.64355,-2.29194,-21.7696,11.8823,-10.6796,6.69785,-12.6669
-0.114194,17.9799,-0.769927,2.59897,-10.5581,1.4351,-1.13907,-1.63944,-4.49219,-0.929847,-2.15124,2.07755,-0.0728849,-1.05649,4.63716,-21.5466,0.24902,-9.2057,26.8742,2.54821,3.61158,12.3165,0.652697,3.34965,3.11843e-14,-8.74653e-15,-33.1687,-3.18308,-80.6138,31.096,20.0193,-17.7727,8.42797,7.12502,8.48969,-21.3814,3.11843e-14,-8.74653e-15,17.495,-23.1586,63.8625,105.034,-4.42691,-37.5649,28.6292,7.12502,-10.6196,58.3409,-8.52256,9.30508,15.0495,25.6252,-16.6331,-3.74473,4.14368,0.775328,-2.27753,-21.8439,11.6523,-10.5647,6.65979,-12.6228
-0.114332,17.9811,-0.769985,2.59531,-10.5467,1.43797,-1.07329,-1.65514,-4.50421,-0.965668,-2.17512,2.08235,-0.143338,-1.06575,4.65128,-21.4972,0.265696,-9.24396,26.6607,2.53393,3.75497,12.2185,0.670411,3.40082,-3.19919e-15,7.95139e-16,-33.2074,-3.03585,-80.6833,31.2074,19.9066,-17.6676,8.26261,7.12502,8.59117,-21.5426,-3.19919e-15,7.95139e-16,18.3805,-22.7764,63.2655,105.255,-4.52572,-37.6364,28.998,7.12502,-10.6886,58.7061,-8.52664,9.28057,15.048,25.6372,-16.6341,-3.75354,4.28988,0.810025,-2.29044,-21.8437,11.6392,-10.522,6.63747,-12.6355
-0.114437,17.9796,-0.770294,2.57561,-10.4974,1.44758,-0.983648,-1.72008,-4.54114,-1.00102,-2.26561,2.13373,-0.216299,-1.10818,4.72765,-21.4292,0.305947,-9.24677,26.339,2.5805,3.75744,12.074,0.70334,3.39761,3.23646e-14,-1.15295e-14,-33.2091,-2.70333,-80.7542,31.2859,19.7489,-17.6683,7.95442,7.12502,8.59042,-21.8508,3.23646e-14,-1.15295e-14,18.9126,-22.2394,62.7907,105.418,-4.64126,-37.6596,29.265,7.12502,-10.711,58.972,-8.49381,9.2423,15.0463,25.6358,-16.6291,-3.74866,4.50325,0.820317,-2.3475,-21.8488,11.6583,-10.539,6.58122,-12.6748
-0.115232,17.9792,-0.769104,2.58668,-10.4805,1.41691,-0.956691,-1.80701,-4.57928,-1.01026,-2.38274,2.2531,-0.220924,-1.16633,4.8726,-21.5702,0.354016,-9.34098,26.1251,2.70316,3.73513,12.0081,0.753699,3.41953,-7.19787e-14,2.14687e-14,-33.0831,-2.26608,-80.7744,31.2668,19.7256,-17.8088,7.83692,7.12502,8.45481,-21.9738,-7.19787e-14,2.14687e-14,19.2737,-21.599,62.2876,105.479,-4.64941,-38.3362,28.2687,7.12502,-11.3635,57.9408,-8.47921,9.22859,15.079,25.6272,-16.6492,-3.73567,4.49182,0.790958,-2.34598,-21.8137,11.7052,-10.5908,6.56063,-12.9294
-0.114688,17.9788,-0.766061,2.61224,-10.4863,1.35941,-0.995473,-1.83314,-4.52737,-0.98054,-2.41618,2.29194,-0.164995,-1.18552,4.88102,-21.8071,0.394389,-9.16444,25.9952,2.78239,3.53606,12.0052,0.784617,3.32724,1.71638e-14,6.36111e-15,-32.9517,-2.12514,-80.8252,31.241,19.7605,-17.8752,8.04558,7.12502,8.39075,-21.7678,1.71638e-14,6.36111e-15,19.9547,-21.0664,61.7099,105.45,-4.73502,-39.1909,27.2762,7.12502,-12.1878,56.9011,-8.47441,9.21222,15.1343,25.6221,-16.652,-3.73086,4.35243,0.746113,-2.27907,-21.7565,11.74,-10.5923,6.56083,-12.8535
-0.114516,17.9777,-0.76594,2.62452,-10.498,1.37899,-0.994815,-1.81008,-4.54765,-0.952555,-2.38505,2.26505,-0.140538,-1.17112,4.86449,-21.97,0.409276,-8.70327,25.8079,2.79668,3.05456,11.9811,0.778008,3.06761,-7.93896e-15,-4.77083e-15,-32.8979,-2.09553,-80.8769,31.3339,19.7007,-17.8894,8.22527,7.12502,8.37709,-21.5886,-7.93896e-15,-4.77083e-15,20.8373,-20.6416,61.0916,105.478,-4.92474,-39.8135,27.8128,7.12502,-12.788,57.4011,-8.48255,9.20229,15.1065,25.6076,-16.5949,-3.69342,4.91955,0.702942,-2.25863,-21.7822,11.7619,-10.5679,6.5775,-12.7909
-0.11464,17.979,-0.767373,2.65755,-10.5019,1.35622,-0.967204,-1.7861,-4.51732,-0.974582,-2.35447,2.25893,-0.183753,-1.15424,4.84291,-21.9969,0.393634,-8.51221,25.5217,2.75952,2.86799,11.8845,0.765337,2.95184,1.7257e-14,-9.54166e-15,-33.0071,-1.99567,-80.9228,31.5607,19.5441,-17.8681,8.2452,7.12502,8.39768,-21.5679,1.7257e-14,-9.54166e-15,21.6571,-20.257,60.4753,105.541,-5.14766,-39.9573,27.6064,7.12502,-12.9266,57.186,-8.51939,9.19222,15.1275,25.5967,-16.5614,-3.64768,5.09222,0.708898,-2.30577,-21.7558,11.7267,-10.6166,6.59218,-12.8582
-0.115155,17.9802,-0.76704,2.67281,-10.5015,1.38124,-0.961613,-1.77746,-4.55027,-0.970195,-2.34295,2.26839,-0.182067,-1.14846,4.87174,-21.9229,0.338807,-8.99977,24.9178,2.61843,3.62564,11.6213,0.779643,3.27669,-3.71417e-14,1.90833e-14,-33.0372,-1.89472,-80.9157,31.7393,19.5562,-17.7206,8.19688,7.12502,8.53999,-21.6104,-3.71417e-14,1.90833e-14,22.4454,-19.777,59.9586,105.542,-5.48812,-39.8303,26.1185,7.12502,-12.8042,55.7059,-8.53656,9.22562,15.1024,25.6048,-16.6408,-3.67862,4.92407,0.752393,-2.38194,-21.7811,11.6499,-10.6365,6.62304,-12.9259
-0.114919,17.9805,-0.762587,2.68361,-10.4763,1.44616,-0.981426,-1.78414,-4.59927,-0.958271,-2.35067,2.2531,-0.156502,-1.15311,4.88252,-21.9332,0.334894,-9.14423,24.4185,2.57799,3.91374,11.4264,0.804297,3.38691,1.65799e-14,-7.95139e-15,-32.9778,-1.86429,-80.9264,31.7411,19.66,-17.7825,8.32551,7.12502,8.48025,-21.4842,1.65799e-14,-7.95139e-15,23.2062,-19.2815,59.5014,105.496,-5.94388,-39.4593,26.2262,7.12502,-12.4465,55.8355,-8.5443,9.14285,15.0238,25.6088,-16.6437,-3.68001,4.56694,0.745559,-2.32016,-21.8529,11.6029,-10.5798,6.55471,-12.7971
-0.114485,17.9808,-0.76116,2.72407,-10.4794,1.45861,-0.956482,-1.79481,-4.63712,-0.976181,-2.36591,2.27843,-0.18462,-1.1594,4.93133,-21.9643,0.364419,-9.10809,23.9838,2.60942,3.90495,11.2654,0.836056,3.36936,-6.67792e-15,2.06736e-14,-32.8901,-1.76316,-80.9365,31.6589,19.7207,-17.9581,8.48598,7.12502,8.31077,-21.3305,-6.67792e-15,2.06736e-14,23.8993,-18.7793,59.107,105.473,-6.3531,-38.9754,27.742,7.12502,-11.9799,57.3792,-8.60499,9.14703,14.9993,25.6143,-16.6625,-3.70571,4.4742,0.69735,-2.27069,-21.87,11.5587,-10.4941,6.5584,-12.6643
-0.115209,17.9818,-0.762379,2.75907,-10.4899,1.43243,-0.911083,-1.8038,-4.6543,-0.982531,-2.37978,2.30969,-0.212989,-1.16533,4.97512,-22.0773,0.361916,-9.10595,23.6589,2.59674,3.96965,11.1637,0.850543,3.38311,-1.78658e-14,-8.74653e-15,-32.8116,-1.63031,-80.9779,31.6457,19.6514,-17.9793,8.46691,7.12502,8.29036,-21.3504,-1.78658e-14,-8.74653e-15,24.4596,-18.2929,58.7733,105.528,-6.82545,-38.7688,28.5429,7.12502,-11.7807,58.1916,-8.66614,9.19087,15.0292,25.6516,-16.7012,-3.7057,4.62784,0.728213,-2.27374,-21.8322,11.4553,-10.4256,6.55609,-12.7677
-0.1157,17.982,-0.762315,2.76943,-10.514,1.47041,-0.850391,-1.79306,-4.71918,-1.01862,-2.36797,2.32648,-0.282455,-1.15629,5.03252,-22.2036,0.363486,-9.15293,23.4428,2.59641,4.08252,11.1032,0.868762,3.42823,3.0501e-15,-4.77083e-15,-32.8347,-1.46592,-80.9889,31.6744,19.5098,-18.0128,8.38103,7.12502,8.25793,-21.4376,3.0501e-15,-4.77083e-15,24.9592,-17.8995,58.4755,105.603,-7.10072,-38.95,28.8812,7.12502,-11.9554,58.5198,-8.71252,9.25818,14.9845,25.6973,-16.7531,-3.6932,4.72176,0.771364,-2.27403,-21.8662,11.372,-10.384,6.5704,-12.6844
-0.115754,17.9814,-0.759723,2.75678,-10.5443,1.58024,-0.814938,-1.77852,-4.82175,-1.04903,-2.34994,2.29778,-0.333167,-1.14458,5.06296,-22.3123,0.380233,-9.2285,23.1818,2.59839,4.2951,11.0197,0.900116,3.51337,9.72181e-15,-1.66979e-14,-32.8737,-1.35517,-81.0133,31.7119,19.4196,-17.9512,8.31262,7.12502,8.31741,-21.5036,9.72181e-15,-1.66979e-14,25.5564,-17.5034,58.085,105.718,-7.08466,-39.2363,28.9896,7.12502,-12.2315,58.612,-8.73542,9.25991,14.8568,25.7233,-16.743,-3.67225,4.57416,0.76543,-2.26927,-21.9958,11.3471,-10.3677,6.61792,-12.6325
-0.115832,17.9806,-0.757631,2.74722,-10.5457,1.606,-0.773302,-1.78061,-4.83663,-1.0368,-2.35437,2.29912,-0.342736,-1.14672,5.07391,-22.4865,0.37072,-9.41894,22.8567,2.59194,4.58064,10.9227,0.929179,3.64198,3.66882e-14,6.36111e-15,-32.8186,-1.24608,-81.0403,31.7431,19.4027,-17.9347,8.19959,7.12502,8.33337,-21.616,3.66882e-14,6.36111e-15,26.249,-16.9958,57.6565,105.753,-7.05438,-39.6104,28.9244,7.12502,-12.5922,58.5249,-8.72422,9.26584,14.8292,25.7346,-16.7371,-3.65805,4.61817,0.765478,-2.25519,-22.0311,11.3258,-10.3589,6.60954,-12.637
-0.114309,17.9811,-0.755544,2.77352,-10.532,1.54959,-0.762827,-1.81118,-4.77718,-0.984945,-2.39537,2.35808,-0.28991,-1.17028,5.10028,-22.7223,0.343464,-9.66086,22.429,2.60072,4.81581,10.7992,0.957739,3.76012,-3.83903e-14,1.43125e-14,-32.6303,-1.06919,-81.0365,31.7106,19.3942,-17.9954,8.2061,7.12502,8.27473,-21.6118,-3.83903e-14,1.43125e-14,26.9265,-16.3367,57.2683,105.746,-7.07123,-39.8048,28.9109,7.12502,-12.7796,58.4998,-8.72526,9.25143,14.8857,25.7388,-16.7142,-3.65023,4.49565,0.781269,-2.31744,-21.9713,11.3149,-10.3529,6.62161,-12.4539
-0.113168,17.9825,-0.754393,2.80969,-10.5156,1.49368,-0.715756,-1.84324,-4.72423,-0.988312,-2.44034,2.41662,-0.313825,-1.1923,5.13238,-22.771,0.35621,-9.58002,21.8667,2.6252,4.69845,10.6025,0.979403,3.68965,-3.65888e-14,2.06736e-14,-32.6076,-0.866251,-81.036,31.7591,19.3742,-18.0411,8.15287,7.12502,8.23067,-21.6668,-3.65888e-14,2.06736e-14,27.5182,-15.7323,56.9359,105.72,-7.12547,-39.6959,28.6876,7.12502,-12.6746,58.283,-8.73784,9.25042,14.9416,25.7158,-16.7136,-3.68355,4.42147,0.748941,-2.34782,-21.9106,11.368,-10.3585,6.61371,-12.5693
-0.112132,17.9829,-0.752014,2.83452,-10.5072,1.49723,-0.671021,-1.85877,-4.7178,-1.02641,-2.46322,2.43947,-0.374644,-1.20115,5.15472,-22.6667,0.355169,-9.47359,21.2557,2.59403,4.61953,10.3654,0.983329,3.61733,1.8077e-14,-2.38542e-15,-32.7148,-0.633776,-81.0772,31.9396,19.2144,-17.943,7.89217,7.12502,8.32538,-21.9238,1.8077e-14,-2.38542e-15,28.0496,-15.255,56.6779,105.719,-7.1905,-39.6308,28.5578,7.12502,-12.6119,58.1571,-8.74291,9.21927,14.9319,25.6774,-16.6931,-3.71934,4.41095,0.684585,-2.41624,-21.9258,11.4639,-10.4091,6.65875,-12.7675
-0.112086,17.9819,-0.747058,2.86419,-10.4935,1.50308,-0.615539,-1.87674,-4.72131,-1.09061,-2.48994,2.47166,-0.467122,-1.21033,5.19346,-22.6987,0.35818,-9.51539,20.8623,2.59566,4.69672,10.2261,1.00313,3.64063,1.74806e-14,-1.59028e-14,-32.776,-0.459374,-81.0661,31.9553,19.1382,-17.9246,7.76359,7.12502,8.34309,-22.0516,1.74806e-14,-1.59028e-14,28.5411,-14.7788,56.4492,105.701,-7.19786,-39.652,28.5104,7.12502,-12.6323,58.1085,-8.74576,9.16681,14.9164,25.6531,-16.6596,-3.71005,4.47297,0.642618,-2.41801,-21.9365,11.5314,-10.4774,6.64049,-13.0865
-0.111425,17.9812,-0.744483,2.89631,-10.4958,1.4764,-0.571012,-1.8843,-4.67099,-1.1033,-2.50195,2.48459,-0.505168,-1.21525,5.18019,-22.9288,0.386754,-9.55606,20.5561,2.6428,4.81962,10.15,1.04776,3.69324,4.3509e-14,-9.54166e-15,-32.6638,-0.516493,-81.0404,31.8189,19.2405,-17.8745,7.81377,7.12502,8.39145,-21.9995,4.3509e-14,-9.54166e-15,29.1387,-14.302,56.1381,105.651,-7.28618,-39.6599,28.6906,7.12502,-12.6399,58.2882,-8.76176,9.17669,14.9402,25.6478,-16.6451,-3.71383,4.6114,0.598091,-2.38036,-21.9003,11.5672,-10.5155,6.62518,-12.7244
-0.111303,17.9819,-0.742464,2.95968,-10.4936,1.49015,-0.646458,-1.87053,-4.67049,-1.0774,-2.48034,2.47727,-0.439158,-1.20693,5.16914,-23.1268,0.40119,-9.53443,20.0903,2.65463,4.9056,10.0152,1.08113,3.71157,-8.28684e-15,1.59028e-14,-32.5253,-0.666005,-80.9869,31.7346,19.3305,-17.7422,7.96453,7.12502,8.51917,-21.8436,-8.28684e-15,1.59028e-14,29.8287,-13.9022,55.8119,105.644,-7.51176,-39.7644,28.9879,7.12502,-12.7407,58.5792,-8.8193,9.20987,14.9172,25.6542,-16.6871,-3.72039,4.87316,0.50687,-2.39398,-21.914,11.5873,-10.4902,6.65796,-12.6037
-0.110327,17.9807,-0.739773,2.94415,-10.4603,1.5005,-0.617979,-1.85741,-4.64284,-1.05259,-2.46384,2.46095,-0.433399,-1.19956,5.13711,-23.2796,0.39741,-9.55722,19.5699,2.6388,5.04752,9.85395,1.10631,3.75072,-3.18428e-14,9.54166e-15,-32.4629,-0.838229,-80.9471,31.6874,19.4189,-17.676,8.13862,7.12502,8.58306,-21.6669,-3.18428e-14,9.54166e-15,30.4194,-13.523,55.4999,105.665,-7.8694,-39.9624,29.2082,7.12502,-12.9315,58.7875,-8.79222,9.18503,14.9074,25.6707,-16.7203,-3.7126,4.73265,0.525579,-2.39594,-21.9309,11.5953,-10.4795,6.62919,-12.76
-0.110265,17.9798,-0.736451,2.92926,-10.4611,1.51122,-0.598062,-1.82807,-4.63138,-1.03867,-2.42537,2.44492,-0.4361,-1.18058,5.11479,-23.3121,0.351698,-9.68406,19.1084,2.57082,5.2677,9.695,1.10626,3.82689,-1.80397e-14,1.59028e-14,-32.4946,-1.07178,-80.8935,31.7014,19.597,-17.6573,8.18568,7.12502,8.60104,-21.6191,-1.80397e-14,1.59028e-14,31.004,-13.1407,55.1903,105.673,-8.07721,-40.0828,29.3091,7.12502,-13.0476,58.8811,-8.7758,9.19197,14.8989,25.6919,-16.7581,-3.6944,4.63108,0.565155,-2.30554,-21.9372,11.5819,-10.4846,6.53068,-12.9145
-0.110122,17.98,-0.732082,2.93055,-10.4948,1.54538,-0.525214,-1.7884,-4.64332,-1.09984,-2.37576,2.43237,-0.546205,-1.15107,5.11302,-23.1765,0.298327,-9.74116,18.6088,2.48449,5.3507,9.49937,1.08568,3.83567,1.67725e-15,-6.36111e-15,-32.6566,-1.10053,-80.8766,31.7748,19.5225,-17.7427,8.14155,7.12502,8.51863,-21.6666,1.67725e-15,-6.36111e-15,31.5312,-12.811,54.9459,105.675,-8.11728,-40.4192,28.5445,7.12502,-13.3719,58.0953,-8.78315,9.23416,14.8566,25.707,-16.7988,-3.69457,4.75297,0.570337,-2.26448,-21.9742,11.5797,-10.4974,6.50696,-12.7227
-0.109981,17.9803,-0.728962,2.91786,-10.5177,1.54952,-0.434274,-1.77226,-4.63874,-1.14241,-2.35811,2.44462,-0.642976,-1.13846,5.12756,-23.1518,0.304582,-9.68724,18.1208,2.4858,5.29957,9.32492,1.09765,3.7936,-9.49197e-15,2.14687e-14,-32.6723,-1.10043,-80.8482,31.6975,19.5537,-17.8493,8.16922,7.12502,8.4158,-21.6431,-9.49197e-15,2.14687e-14,32.0012,-12.4167,54.7464,105.654,-8.24534,-40.8204,27.0484,7.12502,-13.7585,56.5735,-8.76974,9.25331,14.852,25.7005,-16.7898,-3.68053,4.61163,0.579652,-2.25793,-21.9781,11.5901,-10.5097,6.51805,-12.6488
-0.109545,17.9811,-0.726932,2.95112,-10.4808,1.49656,-0.345524,-1.77602,-4.57546,-1.18326,-2.36668,2.48152,-0.734759,-1.13957,5.13415,-23.3554,0.308684,-9.70852,17.7578,2.50593,5.36776,9.22991,1.12508,3.81691,-2.086e-14,1.35174e-14,-32.6702,-1.12017,-80.778,31.5932,19.6538,-17.8427,8.27039,7.12502,8.42216,-21.5417,-2.086e-14,1.35174e-14,32.4594,-12.0222,54.5913,105.607,-8.47305,-40.9054,26.455,7.12502,-13.8405,55.9746,-8.77603,9.27664,14.9089,25.6788,-16.8081,-3.72382,4.58894,0.558915,-2.25025,-21.9182,11.5828,-10.4757,6.47133,-12.7203
-0.109569,17.9825,-0.722299,2.99412,-10.4403,1.42868,-0.412567,-1.79625,-4.49711,-1.1396,-2.39053,2.51675,-0.650741,-1.15545,5.12285,-23.4901,0.281129,-9.83569,17.2029,2.48126,5.57745,9.05633,1.14576,3.89419,-4.29872e-15,1.27222e-14,-32.6089,-1.15231,-80.7249,31.5694,19.7246,-17.8521,8.34001,7.12502,8.41307,-21.4724,-4.29872e-15,1.27222e-14,32.9716,-11.5682,54.3505,105.573,-8.70305,-40.904,26.4479,7.12502,-13.8391,55.9675,-8.7702,9.28368,14.9848,25.6534,-16.8212,-3.76157,4.89217,0.552196,-2.24778,-21.8403,11.5586,-10.481,6.41276,-12.8534
-0.108543,17.9822,-0.71558,3.00175,-10.4465,1.42694,-0.464557,-1.79817,-4.45829,-1.09643,-2.39084,2.51051,-0.578785,-1.15889,5.09145,-23.4864,0.251798,-9.84883,16.5427,2.43827,5.62716,8.82947,1.14812,3.8885,6.04927e-14,7.95139e-16,-32.5719,-1.0645,-80.7288,31.5961,19.635,-17.9009,8.4616,7.12502,8.36601,-21.3527,6.04927e-14,7.95139e-16,33.4928,-11.1622,54.0741,105.493,-8.82653,-41.1379,26.2598,7.12502,-14.0646,55.7639,-8.75446,9.2421,14.9735,25.6517,-16.7776,-3.72064,4.9609,0.606158,-2.204,-21.8486,11.4909,-10.4727,6.41677,-12.8581
-0.107292,17.9816,-0.709343,3.00996,-10.4996,1.46872,-0.527819,-1.78725,-4.44212,-1.0425,-2.37366,2.46503,-0.492283,-1.15405,5.03155,-23.6122,0.258794,-9.66575,16.0136,2.42877,5.50378,8.67339,1.15579,3.80175,-1.67725e-14,-2.62396e-14,-32.4612,-1.01725,-80.7976,31.5623,19.5133,-17.9417,8.33533,7.12502,8.32658,-21.4806,-1.67725e-14,-2.62396e-14,34.0702,-10.727,53.7737,105.352,-9.03267,-41.3843,26.1075,7.12502,-14.302,55.5949,-8.76946,9.21672,14.9116,25.6606,-16.7561,-3.71374,4.62908,0.653144,-2.18544,-21.9125,11.4216,-10.4718,6.47355,-12.8719
-0.10629,17.9811,-0.703215,3.04516,-10.5275,1.52672,-0.577469,-1.79095,-4.47408,-1.02085,-2.3766,2.44885,-0.441191,-1.15727,5.03054,-23.8468,0.265152,-9.51156,15.5688,2.43647,5.38611,8.56311,1.16846,3.72891,-6.1499e-15,1.59028e-15,-32.3429,-0.962058,-80.8086,31.4485,19.5325,-18.0219,8.16336,7.12502,8.24917,-21.6556,-6.1499e-15,1.59028e-15,34.6069,-10.2499,53.5841,105.231,-9.39039,-41.5232,25.9657,7.12502,-14.4358,55.4437,-8.8179,9.21585,14.8349,25.6819,-16.776,-3.7364,4.17277,0.634409,-2.18738,-21.9905,11.3649,-10.4394,6.52625,-12.8362
-0.105996,17.9796,-0.699104,3.08782,-10.513,1.5185,-0.629525,-1.79657,-4.44455,-0.979709,-2.38193,2.45105,-0.370007,-1.16299,5.01326,-23.9832,0.238507,-9.51111,15.0028,2.40643,5.43749,8.39359,1.17508,3.72999,2.86747e-14,3.18055e-15,-32.2406,-0.891227,-80.8307,31.3983,19.4675,-18.054,8.08444,7.12502,8.21819,-21.7357,2.86747e-14,3.18055e-15,35.2076,-9.78857,53.3927,105.179,-9.6954,-41.4747,25.8891,7.12502,-14.389,55.3703,-8.85928,9.19497,14.8345,25.7045,-16.7905,-3.7102,3.96373,0.594235,-2.17897,-21.989,11.329,-10.4201,6.52083,-12.935
-0.106836,17.9806,-0.696389,3.125,-10.5106,1.48448,-0.503405,-1.78807,-4.43506,-1.06186,-2.37576,2.48523,-0.525117,-1.15378,5.04988,-24.0892,0.210418,-9.58245,14.6561,2.37605,5.58173,8.29221,1.18188,3.78024,1.39025e-14,-1.03368e-14,-32.3802,-0.787288,-80.7879,31.4229,19.4175,-17.9893,8.04243,7.12502,8.2807,-21.7753,1.39025e-14,-1.03368e-14,35.6073,-9.46468,53.2486,105.212,-9.77516,-41.4711,25.8041,7.12502,-14.3855,55.2856,-8.89053,9.19586,14.8694,25.7314,-16.8275,-3.71165,3.81141,0.617597,-2.167,-21.9444,11.2682,-10.422,6.46119,-12.9338
-0.106587,17.9802,-0.689158,3.12231,-10.5443,1.52682,-0.482427,-1.75654,-4.45002,-1.07867,-2.33455,2.46883,-0.559269,-1.13171,5.0428,-24.3471,0.175781,-9.63795,14.3708,2.33957,5.76291,8.23715,1.19043,3.84437,-4.02787e-14,-1.03368e-14,-32.3938,-0.827436,-80.7264,31.3311,19.4376,-17.9011,8.13347,7.12502,8.36582,-21.6809,-4.02787e-14,-1.03368e-14,36.035,-9.15661,53.0685,105.248,-9.75621,-41.7454,25.745,7.12502,-14.6498,55.2075,-8.87361,9.16694,14.8105,25.7411,-16.8691,-3.60952,3.69226,0.690605,-2.2585,-22.0097,11.2378,-10.449,6.55109,-12.7972
-0.105577,17.9788,-0.680084,3.10487,-10.5566,1.63148,-0.480182,-1.75802,-4.52191,-1.11616,-2.33695,2.44787,-0.597026,-1.13057,5.06262,-24.5117,0.178706,-9.68758,14.0738,2.35374,5.89275,8.15931,1.21699,3.89423,-1.40392e-14,-1.98785e-14,-32.4239,-0.839385,-80.675,31.1766,19.5455,-17.8726,8.33534,7.12502,8.39332,-21.4779,-1.40392e-14,-1.98785e-14,36.3711,-8.81832,52.826,105.252,-9.75806,-41.8904,25.8172,7.12502,-14.7896,55.2695,-8.84201,9.14212,14.6834,25.7609,-16.9486,-3.53637,3.56946,0.756197,-2.34564,-22.1461,11.1817,-10.4537,6.6341,-12.3405
-0.105619,17.9785,-0.675567,3.10251,-10.5622,1.63648,-0.48694,-1.76634,-4.53022,-1.10903,-2.3477,2.4695,-0.58338,-1.13642,5.08941,-24.6529,0.173161,-9.66917,13.7087,2.35899,5.88497,8.05819,1.22913,3.88214,4.37575e-14,-1.59028e-14,-32.4122,-0.815685,-80.6369,31.1081,19.6046,-17.8214,8.36797,7.12502,8.44274,-21.4433,4.37575e-14,-1.59028e-14,36.7531,-8.47327,52.5839,105.155,-10.0389,-42.0403,25.9496,7.12502,-14.9339,55.3912,-8.83943,9.1475,14.6788,25.7841,-16.9512,-3.53897,3.72647,0.806345,-2.29661,-22.1531,11.1101,-10.4113,6.60185,-12.5049
-0.105217,17.979,-0.673326,3.132,-10.5214,1.66389,-0.589954,-1.78529,-4.53844,-1.03371,-2.36857,2.4616,-0.445406,-1.15245,5.08031,-24.7863,0.135094,-9.62142,13.2009,2.31636,5.84857,7.9124,1.21998,3.84569,7.04567e-14,-2.8625e-14,-32.3139,-0.86184,-80.6324,31.1101,19.6446,-17.717,8.35313,7.12502,8.54344,-21.454,7.04567e-14,-2.8625e-14,37.2828,-8.1055,52.3279,104.89,-10.5865,-42.3799,25.932,7.12502,-15.2612,55.349,-8.87961,9.12336,14.6467,25.8181,-16.9515,-3.54159,4.05515,0.814308,-2.24091,-22.178,11.0123,-10.3379,6.52969,-12.8533
-0.104425,17.9777,-0.668578,3.14125,-10.4515,1.69882,-0.711673,-1.79878,-4.53858,-0.937346,-2.38125,2.4519,-0.276644,-1.16574,5.06371,-24.7532,0.0996989,-9.64077,12.4704,2.276,5.86542,7.66363,1.2173,3.83052,-6.35614e-14,2.22639e-14,-32.2031,-0.923795,-80.5991,31.1241,19.6709,-17.6131,8.33433,7.12502,8.6437,-21.4687,-6.35614e-14,2.22639e-14,37.8754,-7.71004,52.1398,104.667,-10.8051,-42.5324,25.7673,7.12502,-15.408,55.1731,-8.87514,9.10351,14.6066,25.8415,-17.0251,-3.53548,4.19691,0.829809,-2.27102,-22.219,10.9678,-10.3056,6.50391,-12.9857
-0.103454,17.9768,-0.661995,3.12872,-10.4108,1.77072,-0.768182,-1.80419,-4.58619,-0.878722,-2.38572,2.44814,-0.18227,-1.17176,5.08348,-24.881,0.0860484,-9.69635,11.966,2.28115,5.93612,7.51256,1.2364,3.85416,-8.82107e-15,-1.59028e-15,-32.1055,-0.928469,-80.5507,31.0699,19.6397,-17.7822,8.32849,7.12502,8.48048,-21.4812,-8.82107e-15,-1.59028e-15,38.386,-7.32995,52.0296,104.577,-10.7246,-42.422,25.3831,7.12502,-15.3017,54.797,-8.84949,9.02757,14.5253,25.8652,-17.0631,-3.51155,3.83085,0.86031,-2.37388,-22.3054,10.9502,-10.3208,6.53188,-12.9061
-0.103041,17.9766,-0.657342,3.1682,-10.3807,1.76284,-0.809156,-1.80277,-4.57304,-0.863458,-2.38218,2.4608,-0.14397,-1.17147,5.08751,-25.1701,0.07322,-9.6913,11.7211,2.28149,6.00072,7.47529,1.25135,3.87472,-2.14439e-14,-1.11319e-14,-32.0399,-1.00866,-80.4973,30.9938,19.6226,-17.9615,8.37055,7.12502,8.30745,-21.4461,-2.14439e-14,-1.11319e-14,38.8402,-6.99917,51.9042,104.592,-10.7826,-42.3664,24.9009,7.12502,-15.2481,54.3189,-8.87144,9.00187,14.5275,25.8835,-17.0678,-3.48604,4.0423,0.834331,-2.41384,-22.2967,10.9528,-10.3346,6.54635,-12.8988
-0.10403,17.9763,-0.654117,3.1844,-10.4193,1.72242,-0.786747,-1.79252,-4.55886,-0.879818,-2.36959,2.50789,-0.173528,-1.16401,5.12994,-25.3071,0.0690243,-9.66087,11.4087,2.2892,5.96089,7.39225,1.25997,3.8521,9.81499e-15,-7.95139e-15,-32.0578,-0.909861,-80.454,30.9882,19.5498,-17.9448,8.32684,7.12502,8.32359,-21.4892,9.81499e-15,-7.95139e-15,39.2048,-6.65354,51.7981,104.588,-10.9683,-42.4052,24.7971,7.12502,-15.2855,54.2123,-8.89428,9.09811,14.5772,25.9024,-17.067,-3.52854,4.42569,0.829276,-2.39845,-22.2558,10.9599,-10.3303,6.58669,-13.1204
-0.10467,17.9757,-0.647822,3.19939,-10.4692,1.69657,-0.786431,-1.78005,-4.54711,-0.901431,-2.35316,2.54169,-0.197057,-1.15466,5.1593,-25.2514,0.0629978,-9.60864,10.8779,2.27773,5.87928,7.20864,1.25876,3.80113,-3.13086e-14,-2.38542e-15,-32.0861,-0.915798,-80.3891,30.9562,19.656,-17.8506,8.27827,7.12502,8.41455,-21.5341,-3.13086e-14,-2.38542e-15,39.4795,-6.34587,51.7329,104.503,-11.1648,-42.5004,24.4968,7.12502,-15.3772,53.9049,-8.90228,9.17977,14.6082,25.9089,-17.0903,-3.62653,4.11566,0.817682,-2.39033,-22.2348,11.0017,-10.3545,6.64613,-13.0536
-0.104192,17.9743,-0.639789,3.22811,-10.4701,1.70757,-0.835089,-1.78881,-4.52779,-0.920229,-2.36316,2.54795,-0.1884,-1.15958,5.15341,-25.1453,0.101658,-9.37257,10.2133,2.29295,5.60407,6.97557,1.26067,3.65543,4.32357e-15,-1.59028e-15,-32.0853,-0.985304,-80.3339,30.8623,19.7715,-17.9434,8.30788,7.12502,8.32493,-21.5081,4.32357e-15,-1.59028e-15,39.8143,-6.09157,51.653,104.389,-11.4124,-42.4602,24.5023,7.12502,-15.3385,53.9135,-8.90507,9.14088,14.5829,25.9136,-17.1014,-3.61669,4.04572,0.801039,-2.3009,-22.2637,11.0303,-10.3548,6.62412,-13.5863
-0.103315,17.9744,-0.63532,3.26236,-10.3981,1.69405,-0.855419,-1.82997,-4.49948,-0.921152,-2.41755,2.58369,-0.17087,-1.18746,5.17302,-25.0801,0.173763,-9.15401,9.52331,2.35927,5.33816,6.73722,1.28798,3.5234,-3.516e-14,3.73715e-14,-32.0388,-0.973864,-80.2789,30.7897,19.7733,-18.0159,8.31988,7.12502,8.25496,-21.4988,-3.516e-14,3.73715e-14,40.254,-5.74885,51.5586,104.234,-11.5833,-42.3848,24.5838,7.12502,-15.2658,54.0005,-8.90349,9.09136,14.5971,25.9056,-17.078,-3.63456,4.25167,0.778396,-2.23327,-22.2489,11.0397,-10.3625,6.52443,-13.9084
-0.103301,17.9737,-0.630329,3.27012,-10.3857,1.68877,-0.868511,-1.84927,-4.49249,-0.903823,-2.44284,2.61495,-0.141488,-1.2014,5.2004,-25.0324,0.169337,-9.22359,9.00982,2.36854,5.38187,6.55838,1.30359,3.53905,3.39673e-14,7.95139e-15,-32.0302,-0.920834,-80.2524,30.7993,19.8621,-18.0941,8.15792,7.12502,8.17947,-21.6638,3.39673e-14,7.95139e-15,40.6871,-5.32013,51.3655,104.092,-11.4477,-42.5468,24.232,7.12502,-15.4219,53.6367,-8.88233,9.13832,14.6088,25.8766,-17.0919,-3.65221,4.3806,0.746281,-2.3288,-22.2422,11.0687,-10.3845,6.58481,-13.3773
-0.10313,17.9732,-0.624561,3.26231,-10.3859,1.6259,-0.822361,-1.85331,-4.42675,-0.924567,-2.45039,2.65313,-0.188829,-1.20365,5.20489,-25.0638,0.128023,-9.22473,8.72303,2.32494,5.34099,6.47247,1.28433,3.51529,-1.43622e-14,-2.38542e-14,-32.1071,-0.856237,-80.2334,30.8285,19.9056,-18.1309,8.04878,7.12502,8.14404,-21.7743,-1.43622e-14,-2.38542e-14,40.9878,-4.94921,51.2163,104.039,-11.4878,-42.745,24.0435,7.12502,-15.6128,53.4334,-8.82211,9.21558,14.6877,25.842,-17.1633,-3.70768,4.17432,0.750098,-2.41086,-22.1767,11.0963,-10.4249,6.65056,-12.8732
-0.104162,17.9744,-0.618316,3.30942,-10.3703,1.57468,-0.825526,-1.86748,-4.37953,-0.983225,-2.46963,2.6813,-0.245845,-1.2106,5.20836,-25.2519,0.116382,-9.09925,8.56615,2.29586,5.27986,6.45355,1.27345,3.47155,-4.28629e-14,3.18055e-15,-32.1895,-0.768027,-80.2206,30.7934,19.916,-18.1874,8.05576,7.12502,8.08947,-21.7694,-4.28629e-14,3.18055e-15,41.2641,-4.63583,51.1065,104.031,-11.5181,-42.6747,24.324,7.12502,-15.5451,53.7192,-8.81981,9.2216,14.7438,25.8172,-17.1817,-3.78033,4.01314,0.740021,-2.40846,-22.1146,11.1205,-10.4422,6.60993,-12.9819
-0.104485,17.9744,-0.613855,3.34374,-10.3832,1.59546,-0.830274,-1.87153,-4.4004,-1.01187,-2.47489,2.68335,-0.271134,-1.2118,5.22276,-25.5105,0.104409,-9.1204,8.39648,2.28652,5.44542,6.43531,1.2893,3.53018,-4.15708e-14,-8.74653e-15,-32.1839,-0.723981,-80.2119,30.7041,19.867,-18.2193,8.15749,7.12502,8.05865,-21.6689,-4.15708e-14,-8.74653e-15,41.6327,-4.31926,50.976,103.963,-11.3573,-42.671,24.4041,7.12502,-15.5415,53.7996,-8.83714,9.24954,14.7139,25.796,-17.1701,-3.84065,3.99375,0.729199,-2.44055,-22.1367,11.1337,-10.4667,6.63609,-13.1037
-0.105204,17.9736,-0.611528,3.33449,-10.3805,1.62626,-0.791913,-1.87534,-4.45695,-1.03158,-2.48126,2.70123,-0.30911,-1.21319,5.27532,-25.6938,0.10944,-9.08989,8.17896,2.29706,5.47322,6.39036,1.30355,3.53467,-3.25261e-14,5.56597e-15,-32.1737,-0.795077,-80.158,30.6578,19.9365,-18.1978,8.16894,7.12502,8.07939,-21.6566,-3.25261e-14,5.56597e-15,41.9782,-4.03521,50.842,103.895,-11.2164,-43.0216,24.2082,7.12502,-15.8791,53.5771,-8.81975,9.28378,14.6855,25.7992,-17.2404,-3.84894,3.89396,0.728977,-2.37319,-22.168,11.0964,-10.4393,6.59825,-12.8914
-0.104701,17.9722,-0.605991,3.30794,-10.3621,1.63184,-0.815017,-1.87716,-4.43871,-1.01971,-2.48285,2.69468,-0.284739,-1.21504,5.25696,-25.8335,0.132092,-8.99898,7.92515,2.31301,5.46312,6.32757,1.31907,3.51622,2.30342e-14,-2.14687e-14,-32.1456,-0.964795,-80.1172,30.5772,20.0594,-18.2607,8.29675,7.12502,8.01871,-21.5311,2.30342e-14,-2.14687e-14,42.398,-3.69351,50.6704,103.872,-11.1585,-43.1037,24.1914,7.12502,-15.9582,53.5541,-8.78,9.26663,14.6811,25.835,-17.3126,-3.7705,4.0496,0.813738,-2.31596,-22.1801,10.9904,-10.4235,6.5492,-12.7259
-0.10479,17.9722,-0.600143,3.32507,-10.3907,1.72517,-0.870494,-1.86672,-4.50854,-1.05091,-2.46669,2.66445,-0.286288,-1.20585,5.26402,-25.8344,0.0782469,-9.11876,7.62683,2.2551,5.66305,6.23089,1.31124,3.58981,3.23274e-14,-3.97569e-15,-32.1402,-1.08652,-80.0754,30.4664,20.1213,-18.2912,8.53858,7.12502,7.98927,-21.2904,3.23274e-14,-3.97569e-15,42.7913,-3.35952,50.5031,103.869,-11.3056,-42.8229,24.6024,7.12502,-15.6878,53.9865,-8.81785,9.28042,14.5679,25.8788,-17.3556,-3.7174,4.41748,0.871028,-2.25419,-22.2879,10.8455,-10.3427,6.53814,-13.0668
-0.104392,17.9716,-0.594674,3.34919,-10.4056,1.82628,-0.901121,-1.86927,-4.59134,-1.11346,-2.46888,2.65497,-0.330413,-1.20383,5.30147,-25.8016,0.0344264,-9.16093,7.40865,2.20912,5.66966,6.15748,1.29166,3.58878,1.87852e-14,-4.77083e-15,-32.1674,-1.13465,-80.0161,30.3488,20.1364,-18.2109,8.62423,7.12502,8.06676,-21.2018,1.87852e-14,-4.77083e-15,43.0927,-3.09929,50.3916,103.854,-11.4345,-42.6393,24.8566,7.12502,-15.5109,54.2544,-8.86647,9.25089,14.4396,25.9172,-17.3923,-3.64774,4.46875,0.914574,-2.25368,-22.4068,10.6966,-10.2644,6.54407,-13.1013
-0.101916,17.9703,-0.585067,3.35274,-10.4235,1.89117,-0.949399,-1.87946,-4.59923,-1.15037,-2.48077,2.65742,-0.339482,-1.20864,5.30738,-25.8611,0.046958,-9.03239,7.10639,2.21782,5.4808,6.06953,1.2879,3.50179,-8.02593e-15,-1.03368e-14,-32.2084,-1.09796,-79.9629,30.2901,20.1103,-18.2645,8.77243,7.12502,8.01504,-21.0556,-8.02593e-15,-1.03368e-14,43.3356,-2.82795,50.3338,103.898,-11.5471,-42.4493,25.0185,7.12502,-15.328,54.4304,-8.86851,9.18075,14.3437,25.9498,-17.4007,-3.53788,4.35275,0.989767,-2.28994,-22.5054,10.5912,-10.246,6.58193,-13.0931
-0.100899,17.9694,-0.578216,3.34883,-10.4714,1.89286,-0.944017,-1.87395,-4.57324,-1.09345,-2.47349,2.67433,-0.285025,-1.208,5.30932,-26.293,0.0556965,-8.7291,6.68904,2.20887,5.19566,6.00231,1.27678,3.3571,-2.08724e-15,0,-32.0893,-0.942571,-79.9776,30.3153,19.9769,-18.3401,8.94779,7.12502,7.94211,-20.883,-2.08724e-15,0,43.7417,-2.42637,50.2012,103.869,-11.6739,-43.0005,25.0227,7.12502,-15.8588,54.3933,-8.8606,9.1952,14.3303,25.9675,-17.4052,-3.49964,4.22525,1.03117,-2.35418,-22.5359,10.5724,-10.2522,6.70856,-13.0146
-0.101275,17.9685,-0.573853,3.34862,-10.5126,1.84981,-0.884697,-1.83689,-4.5287,-1.02727,-2.42614,2.689,-0.257157,-1.18677,5.30079,-26.806,0.00251049,-8.59417,6.38772,2.14412,5.15509,5.98408,1.25456,3.31738,-4.4329e-14,1.59028e-15,-31.9269,-1.01954,-79.9693,30.3027,19.9812,-18.2783,8.74549,7.12502,8.00171,-21.083,-4.4329e-14,1.59028e-15,44.2876,-2.06366,50.0762,103.733,-11.6565,-44.1946,24.7774,7.12502,-17.0085,54.0528,-8.84904,9.25053,14.3796,25.9718,-17.3694,-3.54352,4.07157,1.0377,-2.24749,-22.4838,10.6032,-10.2707,6.65192,-12.9801
-0.100603,17.9664,-0.569213,3.34376,-10.5031,1.77948,-0.835976,-1.82658,-4.43963,-1.02263,-2.41451,2.70662,-0.283929,-1.1807,5.2704,-27.0896,-0.0563632,-8.83042,6.35968,2.12284,5.50367,6.01192,1.27278,3.47246,2.56184e-14,-1.03368e-14,-31.9098,-1.15181,-79.9338,30.3173,20.0658,-18.1797,8.54958,7.12502,8.09693,-21.2753,2.56184e-14,-1.03368e-14,44.7211,-1.74121,49.9482,103.635,-11.605,-44.5699,24.9896,7.12502,-17.3697,54.2335,-8.80955,9.26693,14.463,25.9705,-17.3818,-3.59575,3.92754,1.04804,-2.22728,-22.4032,10.6544,-10.3372,6.63554,-12.7892
-0.100619,17.9656,-0.5654,3.3399,-10.5016,1.77717,-0.857648,-1.82714,-4.41955,-1.02402,-2.41456,2.71263,-0.273729,-1.18108,5.26452,-27.2636,-0.0842188,-8.98479,6.24068,2.12425,5.72678,5.99434,1.29331,3.57238,2.2239e-14,-2.06736e-14,-31.9183,-1.30165,-79.8903,30.3263,20.2092,-18.19,8.43863,7.12502,8.087,-21.3866,2.2239e-14,-2.06736e-14,45.0899,-1.40842,49.8376,103.612,-11.6073,-44.3322,25.3795,7.12502,-17.141,54.6435,-8.79623,9.27466,14.4701,25.9756,-17.4322,-3.59295,4.06674,1.05212,-2.21393,-22.3979,10.6744,-10.3468,6.60516,-12.7135
-0.100565,17.9654,-0.561064,3.34569,-10.492,1.79788,-0.866599,-1.83491,-4.4347,-1.05198,-2.42464,2.71831,-0.295452,-1.18482,5.2792,-27.5444,0.000315463,-8.6687,6.25186,2.19381,5.40833,6.03856,1.30814,3.42853,2.10712e-14,7.15625e-15,-31.938,-1.41233,-79.8445,30.2877,20.3149,-18.1813,8.46684,7.12502,8.09538,-21.3581,2.10712e-14,7.15625e-15,45.4593,-1.07809,49.7553,103.465,-11.8148,-44.3563,24.9938,7.12502,-17.1642,54.2557,-8.79082,9.27536,14.4494,25.9821,-17.4477,-3.57469,4.30211,1.06549,-2.21294,-22.4231,10.6525,-10.3234,6.60809,-12.7995
-0.100814,17.9646,-0.556018,3.30986,-10.4885,1.8528,-0.784693,-1.84031,-4.50341,-1.14312,-2.43497,2.72283,-0.431175,-1.18366,5.32783,-27.9284,0.091864,-8.28606,6.68078,2.2675,4.98802,6.23724,1.31078,3.24916,-2.89232e-14,2.14687e-14,-32.0697,-1.44904,-79.8095,30.2572,20.3815,-18.1554,8.5172,7.12502,8.12033,-21.3068,-2.89232e-14,2.14687e-14,45.7846,-0.854492,49.6218,103.155,-11.8589,-44.8327,24.4355,7.12502,-17.6226,53.6568,-8.73883,9.29467,14.3963,25.9926,-17.4713,-3.54025,4.5164,1.15609,-2.22065,-22.4838,10.57,-10.3106,6.59722,-12.7877
-0.099814,17.964,-0.549476,3.30527,-10.4816,1.86826,-0.809556,-1.84704,-4.49621,-1.15108,-2.44308,2.73059,-0.424372,-1.18778,5.33101,-28.2166,0.0751119,-8.2514,6.72105,2.26195,4.9431,6.29264,1.3061,3.23289,-2.16675e-14,-1.03368e-14,-32.0503,-1.35212,-79.8293,30.247,20.2696,-18.1267,8.43972,7.12502,8.14803,-21.3832,-2.16675e-14,-1.03368e-14,46.1429,-0.704841,49.3752,102.932,-10.8428,-45.7511,22.7069,7.12502,-18.5062,51.8466,-8.70999,9.25356,14.3717,25.9907,-17.5079,-3.53118,4.42318,1.22854,-2.20328,-22.5096,10.4837,-10.3147,6.57487,-12.7514
-0.0988608,17.9639,-0.542532,3.29943,-10.4712,1.92405,-0.888559,-1.86002,-4.49938,-1.10979,-2.45733,2.70528,-0.336642,-1.19839,5.30233,-28.3605,0.0143911,-8.43814,6.38707,2.21747,5.25594,6.20075,1.31583,3.35867,-1.20762e-14,1.43125e-14,-31.9812,-1.27898,-79.8859,30.2792,20.1655,-18.0789,8.29455,7.12502,8.19416,-21.5266,-1.20762e-14,1.43125e-14,46.5556,-0.225457,49.3927,103.165,-11.305,-44.3036,23.2441,7.12502,-17.1134,52.5104,-8.67809,9.21946,14.3047,25.9791,-17.5548,-3.50055,4.44607,1.27358,-2.22546,-22.58,10.4327,-10.3064,6.5789,-12.8155
-0.0980103,17.9639,-0.535579,3.30048,-10.4276,1.94036,-0.917845,-1.87302,-4.48387,-1.13322,-2.47375,2.71495,-0.342534,-1.20601,5.30282,-28.4556,-0.0475289,-8.58912,6.21985,2.1673,5.47984,6.15907,1.31222,3.45036,-3.47625e-14,2.38542e-15,-32.0423,-1.17935,-79.8713,30.3476,20.0912,-18.0341,7.96265,7.12502,8.2374,-21.8568,-3.47625e-14,2.38542e-15,46.8458,0.0783341,49.3457,103.174,-11.5283,-44.1542,23.1333,7.12502,-16.9697,52.412,-8.63066,9.16024,14.2834,25.9639,-17.5225,-3.43016,4.63387,1.29692,-2.18372,-22.6025,10.4388,-10.3375,6.51716,-13.0264
-0.0966859,17.9644,-0.530993,3.29691,-10.3818,1.94719,-0.867082,-1.90245,-4.47483,-1.18544,-2.51515,2.75676,-0.418221,-1.22345,5.34378,-28.4474,-0.106356,-8.83367,5.94328,2.1417,5.74615,6.06384,1.32257,3.57058,-7.96381e-15,1.19271e-14,-32.1421,-0.992154,-79.8373,30.4173,20.0026,-18.0696,7.76651,7.12502,8.20311,-22.0542,-7.96381e-15,1.19271e-14,47.0757,0.366179,49.2765,102.85,-12.251,-44.8152,23.0275,7.12502,-17.6058,52.2504,-8.59637,9.12041,14.2723,25.958,-17.5145,-3.41663,4.84165,1.33251,-2.16638,-22.6116,10.4634,-10.3589,6.43974,-13.0583
-0.0946478,17.963,-0.52565,3.29448,-10.3819,1.95867,-0.868,-1.91693,-4.44891,-1.19242,-2.53455,2.77888,-0.422552,-1.23304,5.35199,-28.4269,-0.160259,-9.03024,5.48212,2.11116,5.98741,5.90763,1.33195,3.67086,6.13748e-14,0,-32.1799,-0.830577,-79.8415,30.5012,19.8598,-18.0353,7.76784,7.12502,8.23628,-22.0516,6.13748e-14,0,47.3332,0.66545,49.1673,102.449,-13.9257,-45.2398,23.6371,7.12502,-18.0144,52.8228,-8.57254,9.08294,14.2461,25.9506,-17.5285,-3.37721,4.98372,1.34643,-2.18112,-22.6328,10.5202,-10.4251,6.4273,-13.0537
-0.0935393,17.9615,-0.519054,3.28997,-10.4337,1.98458,-0.914925,-1.9076,-4.46059,-1.1938,-2.52035,2.78974,-0.398478,-1.22649,5.3685,-28.3771,-0.198115,-9.10766,4.97078,2.07315,6.12283,5.73411,1.33096,3.71468,-6.76862e-14,1.90833e-14,-32.2142,-0.753305,-79.8303,30.5524,19.82,-18.024,7.88871,7.12502,8.2472,-21.9303,-6.76862e-14,1.90833e-14,47.6397,0.999116,49.1883,102.469,-14.3964,-44.8439,23.5572,7.12502,-17.6334,52.7776,-8.56699,9.0969,14.2055,25.954,-17.5537,-3.33213,4.65023,1.33727,-2.05207,-22.6671,10.5769,-10.4635,6.36903,-13.1652
-0.0937754,17.9611,-0.512771,3.27173,-10.4988,1.96332,-0.943636,-1.88948,-4.43047,-1.19247,-2.49522,2.79819,-0.385026,-1.21448,5.35953,-28.1171,-0.247155,-9.3509,4.27537,2.03633,6.48296,5.46966,1.34691,3.85399,-1.59649e-14,2.22639e-14,-32.2453,-0.728791,-79.8361,30.5545,19.8145,-18.0489,8.13806,7.12502,8.22314,-21.6819,-1.59649e-14,2.22639e-14,47.9502,1.27861,49.1557,102.454,-14.6823,-44.8019,23.5331,7.12502,-17.593,52.7571,-8.55161,9.14396,14.2325,25.9711,-17.5756,-3.3653,4.10908,1.37002,-1.98199,-22.6456,10.6134,-10.493,6.37481,-13.1096
-0.0957643,17.9603,-0.510058,3.24419,-10.5207,1.95557,-0.935741,-1.88633,-4.4335,-1.18364,-2.49126,2.80107,-0.380599,-1.21279,5.36442,-28.0842,-0.256099,-9.46704,3.85918,2.03934,6.72871,5.32741,1.37264,3.94774,-2.16178e-15,-1.03368e-14,-32.19,-0.872165,-79.8224,30.4971,19.9127,-17.9491,8.27042,7.12502,8.31945,-21.5458,-2.16178e-15,-1.03368e-14,48.33,1.53636,49.0169,102.414,-14.4779,-45.1088,23.5105,7.12502,-17.8884,52.7078,-8.5242,9.24658,14.2607,25.9923,-17.6426,-3.42859,4.07646,1.40235,-1.91478,-22.6246,10.6214,-10.5199,6.36974,-13.1365
-0.097037,17.9599,-0.50865,3.24075,-10.5222,1.97426,-0.956892,-1.88137,-4.46048,-1.16163,-2.48369,2.80568,-0.345701,-1.21033,5.38343,-28.2988,-0.260957,-9.41158,3.72659,2.03833,6.70376,5.29825,1.37541,3.93478,-8.51047e-15,-2.46493e-14,-32.0873,-1.00859,-79.7858,30.4337,19.9347,-17.94,8.27675,7.12502,8.32828,-21.5391,-8.51047e-15,-2.46493e-14,48.7402,1.85213,48.9311,102.423,-14.5825,-44.8871,23.8433,7.12502,-17.675,53.06,-8.51259,9.32815,14.249,26.0106,-17.6915,-3.44251,4.6409,1.38968,-1.86968,-22.6316,10.6351,-10.5075,6.30093,-13.2412
-0.0953271,17.9578,-0.501272,3.20744,-10.5838,1.99584,-1.01501,-1.85634,-4.45318,-1.14121,-2.44813,2.80645,-0.296784,-1.1944,5.37814,-28.394,-0.27177,-9.31328,3.58772,2.01465,6.58336,5.2692,1.35802,3.87548,-5.73494e-14,1.98785e-14,-32.0768,-1.08502,-79.7425,30.4122,19.9754,-17.9925,8.27429,7.12502,8.27753,-21.5435,-5.73494e-14,1.98785e-14,49.078,2.15711,48.8776,102.439,-14.8803,-44.7166,24.0569,7.12502,-17.511,53.2882,-8.46248,9.33925,14.2087,26.0452,-17.7078,-3.30864,4.96228,1.46654,-1.88568,-22.6816,10.614,-10.5187,6.35822,-13.1961
-0.0937523,17.9543,-0.493113,3.20035,-10.6549,1.98424,-1.05222,-1.83255,-4.41005,-1.18287,-2.41535,2.81718,-0.324254,-1.17645,5.36502,-28.7092,-0.216854,-8.98878,3.90415,2.03997,6.20021,5.41839,1.34207,3.70844,-1.67725e-15,-6.36111e-15,-32.1453,-1.06565,-79.73,30.3914,19.9407,-17.9981,8.38807,7.12502,8.27212,-21.43,-1.67725e-15,-6.36111e-15,49.3229,2.38622,48.7845,102.353,-15.0511,-44.9731,23.9432,7.12502,-17.7578,53.1523,-8.45256,9.34218,14.2039,26.0864,-17.732,-3.23308,5.03211,1.53239,-1.89883,-22.695,10.5643,-10.5217,6.44509,-13.1738
-0.0940762,17.9529,-0.488492,3.1982,-10.6735,2.03592,-1.05339,-1.83457,-4.48258,-1.22175,-2.41774,2.82733,-0.360132,-1.17531,5.41771,-28.272,-0.337135,-9.36171,3.11391,1.92899,6.70921,5.10436,1.3305,3.90659,-3.23522e-14,-3.18055e-15,-32.1345,-1.05361,-79.7371,30.3725,19.9558,-17.9623,8.41313,7.12502,8.30668,-21.4035,-3.23522e-14,-3.18055e-15,49.5721,2.59671,48.6866,102.199,-15.2151,-45.2529,23.8919,7.12502,-18.027,53.0764,-8.46054,9.37623,14.1462,26.11,-17.7866,-3.24615,5.03931,1.55339,-1.86954,-22.752,10.5322,-10.5149,6.43316,-13.1199
-0.0941115,17.9527,-0.483981,3.20363,-10.6739,2.09511,-1.09398,-1.82667,-4.54903,-1.23705,-2.40539,2.82471,-0.352245,-1.16859,5.45192,-28.5379,-0.294752,-9.0668,3.2296,1.94045,6.37767,5.18093,1.31423,3.75613,-3.54334e-14,3.97569e-15,-32.1034,-1.1426,-79.7268,30.3779,19.9782,-17.879,8.33153,7.12502,8.3871,-21.482,-3.54334e-14,3.97569e-15,49.8925,2.78712,48.6476,102.176,-15.4528,-45.1662,24.4152,7.12502,-17.9436,53.6075,-8.47603,9.36905,14.0779,26.1241,-17.7644,-3.21808,5.14102,1.58228,-1.88156,-22.8267,10.4936,-10.4808,6.45926,-13.1702
-0.0944626,17.9528,-0.48058,3.19157,-10.6179,2.05881,-1.06823,-1.83353,-4.50176,-1.26237,-2.41581,2.84019,-0.392677,-1.17233,5.44251,-28.9866,-0.260892,-8.81051,3.6153,1.95735,6.1066,5.3698,1.30337,3.63938,3.926e-15,-1.51076e-14,-32.1311,-1.12347,-79.7405,30.4092,19.8822,-17.7334,8.15672,7.12502,8.52764,-21.6511,3.926e-15,-1.51076e-14,50.1979,3.04214,48.6864,102.216,-15.5976,-44.92,24.6488,7.12502,-17.7067,53.8626,-8.42651,9.37913,14.1306,26.129,-17.8012,-3.19602,5.4319,1.62155,-1.87976,-22.7812,10.4312,-10.4513,6.41904,-13.0248
-0.0945636,17.953,-0.477539,3.18251,-10.5666,2.04132,-1.0349,-1.83193,-4.46243,-1.2947,-2.41514,2.85327,-0.445783,-1.16994,5.43574,-29.1472,-0.297236,-8.78049,3.60445,1.91832,6.05542,5.39123,1.28219,3.61517,2.25248e-14,7.15625e-15,-32.2115,-1.05957,-79.7499,30.5024,19.7901,-17.7374,7.9857,7.12502,8.52379,-21.8223,2.25248e-14,7.15625e-15,50.4929,3.26328,48.703,102.216,-15.5419,-44.9246,24.4111,7.12502,-17.7111,53.6245,-8.3878,9.35688,14.1599,26.1293,-17.8874,-3.21634,5.48404,1.6495,-1.89297,-22.7581,10.3565,-10.4227,6.39556,-13.0949
-0.0950612,17.9545,-0.474446,3.18804,-10.5361,2.06164,-0.983409,-1.84631,-4.48241,-1.35498,-2.43627,2.86775,-0.532781,-1.17648,5.46514,-29.1543,-0.312442,-8.75486,3.39218,1.8997,5.99377,5.32428,1.27066,3.58519,-9.00743e-15,-1.19271e-14,-32.2758,-1.03312,-79.7541,30.5345,19.8946,-17.8638,8.00677,7.12502,8.40178,-21.8061,-9.00743e-15,-1.19271e-14,50.7325,3.50245,48.7051,102.198,-15.7879,-44.7388,24.6238,7.12502,-17.5323,53.8532,-8.38444,9.32654,14.1433,26.1276,-17.932,-3.30099,5.17055,1.67963,-1.89743,-22.7762,10.2855,-10.3753,6.34233,-13.1099
-0.0945563,17.9541,-0.46835,3.20143,-10.5047,2.12963,-1.03815,-1.88481,-4.55227,-1.36806,-2.48547,2.89632,-0.505263,-1.20113,5.53233,-29.4342,-0.317831,-8.81217,3.40602,1.92861,6.04576,5.36316,1.29075,3.6194,-3.63403e-14,3.10104e-14,-32.2074,-1.02351,-79.7157,30.5103,20.0663,-17.7569,8.01598,7.12502,8.50498,-21.7927,-3.63403e-14,3.10104e-14,50.9953,3.83272,48.7147,101.991,-16.1038,-44.7926,24.7638,7.12502,-17.5841,53.9886,-8.38708,9.24731,14.0583,26.142,-17.8928,-3.26952,5.02873,1.72334,-1.88516,-22.8521,10.1839,-10.3749,6.30286,-13.0834
-0.0943786,17.9521,-0.462016,3.18693,-10.5378,2.1855,-1.1122,-1.91754,-4.60953,-1.35794,-2.52617,2.9222,-0.444553,-1.22317,5.58835,-29.7694,-0.308364,-8.9587,3.60358,1.99121,6.26619,5.46572,1.33912,3.7323,9.95166e-15,2.54444e-14,-32.0354,-1.05167,-79.6923,30.3423,20.2462,-17.6724,8.1517,7.12502,8.58647,-21.6537,9.95166e-15,2.54444e-14,51.1416,4.13877,48.6274,101.78,-16.2807,-45.1844,24.8,7.12502,-17.9611,53.9906,-8.37145,9.24959,13.9905,26.1644,-17.911,-3.17943,5.14902,1.81084,-1.88689,-22.9262,10.0817,-10.3439,6.35464,-13.0266
-0.0935963,17.9511,-0.456253,3.1786,-10.6232,2.18977,-1.14415,-1.91101,-4.63605,-1.40541,-2.51626,2.9734,-0.473634,-1.21595,5.65725,-29.7908,-0.297845,-8.98972,3.6093,2.01441,6.29016,5.46819,1.35192,3.7484,-3.11968e-14,1.51076e-14,-32.0263,-1.01655,-79.6395,30.2392,20.2802,-17.735,8.44162,7.12502,8.52606,-21.3663,-3.11968e-14,1.51076e-14,51.224,4.35378,48.624,101.832,-16.519,-44.9791,25.1098,7.12502,-17.7635,54.3185,-8.37419,9.31979,13.976,26.1874,-17.9484,-3.12559,5.34606,1.89429,-1.80632,-22.95,9.98657,-10.3449,6.34205,-12.9623
-0.0940304,17.9505,-0.452431,3.17548,-10.6592,2.23552,-1.1243,-1.91256,-4.70787,-1.48185,-2.51892,3.01247,-0.558761,-1.21227,5.74169,-29.8604,-0.31409,-9.02749,3.63244,2.01098,6.29637,5.48483,1.35038,3.75742,4.46272e-14,-5.56597e-15,-32.1379,-0.877639,-79.6153,30.2862,20.1888,-17.7728,8.51666,7.12502,8.48962,-21.2927,4.46272e-14,-5.56597e-15,51.3451,4.54294,48.6379,101.799,-16.5239,-44.9668,24.8722,7.12502,-17.7517,54.0819,-8.37842,9.30843,13.9171,26.2107,-17.955,-3.05223,5.69804,1.98443,-1.77815,-23.0076,9.88924,-10.3132,6.33007,-13.082
-0.0937193,17.9496,-0.450115,3.17752,-10.6593,2.2496,-1.07613,-1.93229,-4.73767,-1.52808,-2.54709,3.0571,-0.626585,-1.22287,5.80796,-30.1326,-0.346904,-9.17707,3.76618,2.02273,6.4608,5.56194,1.36934,3.84447,-9.31803e-15,2.38542e-15,-32.1713,-0.778554,-79.6048,30.3237,20.1145,-17.7964,8.49731,7.12502,8.46679,-21.313,-9.31803e-15,2.38542e-15,51.4966,4.74649,48.6173,101.673,-16.5994,-45.0113,25.0123,7.12502,-17.7945,54.2182,-8.38375,9.2808,13.9007,26.2135,-17.9575,-3.07762,5.361,2.0371,-1.78424,-23.0221,9.82539,-10.2917,6.31602,-13.222
-0.0935429,17.9494,-0.444911,3.20309,-10.6853,2.2672,-1.1729,-1.92703,-4.7304,-1.54438,-2.53647,3.04458,-0.591412,-1.21833,5.7876,-30.186,-0.38282,-9.21164,3.72973,1.98366,6.54187,5.55959,1.35825,3.87308,5.68524e-14,-2.70347e-14,-32.1697,-0.859724,-79.6182,30.3149,20.1353,-17.8381,8.57969,7.12502,8.42662,-21.2322,5.68524e-14,-2.70347e-14,51.7318,4.90069,48.652,101.602,-17.2805,-44.6275,26.2039,7.12502,-17.4252,55.4429,-8.41429,9.27378,13.8736,26.2092,-17.9138,-3.12303,5.00969,2.03652,-1.76589,-23.0471,9.77804,-10.2709,6.30365,-13.0978
-0.0933583,17.9497,-0.439334,3.19434,-10.6974,2.24017,-1.25706,-1.92626,-4.68618,-1.54668,-2.53248,3.05113,-0.54861,-1.21795,5.76624,-29.9576,-0.416011,-9.2566,3.45323,1.93729,6.58022,5.44135,1.33926,3.87955,1.69775e-14,-4.77083e-15,-32.2247,-0.79735,-79.6699,30.3973,20.0468,-17.958,8.62811,7.12502,8.3109,-21.1884,1.69775e-14,-4.77083e-15,51.944,5.04549,48.6736,101.333,-17.7018,-44.9569,26.2522,7.12502,-17.7422,55.4627,-8.37799,9.28017,13.9031,26.2081,-17.8646,-3.13132,5.03803,2.11767,-1.75666,-23.0275,9.7101,-10.294,6.31438,-12.953
-0.0932517,17.9496,-0.434535,3.20965,-10.6738,2.23043,-1.30451,-1.93671,-4.67833,-1.59755,-2.54482,3.0764,-0.572094,-1.22222,5.78748,-29.8525,-0.412947,-9.26757,3.3989,1.93923,6.56206,5.40927,1.33777,3.87277,-2.8712e-14,3.10104e-14,-32.3702,-0.708633,-79.675,30.5173,19.9915,-17.9556,8.55375,7.12502,8.31322,-21.2627,-2.8712e-14,3.10104e-14,52.0967,5.15346,48.6694,100.978,-17.38,-45.7118,24.7938,7.12502,-18.4685,53.9371,-8.37014,9.245,13.9106,26.2218,-17.8413,-3.10229,5.09349,2.14922,-1.78549,-23.0231,9.62402,-10.2814,6.39004,-12.9337
