JuanDHNZ/ProyectoFinalCD/preprocessing/sports_trials_csv/14_35.csv
root1,root2,root3,root4,root5,root6,lowerback1,lowerback2,lowerback3,upperback1,upperback2,upperback3,thorax1,thorax2,thorax3,lowerneck1,lowerneck2,lowerneck3,upperneck1,upperneck2,upperneck3,head1,head2,head3,rclavicle1,rclavicle2,rhumerus1,rhumerus2,rhumerus3,rradius1,rwrist1,rhand1,rhand2,rfingers1,rthumb1,rthumb2,lclavicle1,lclavicle2,lhumerus1,lhumerus2,lhumerus3,lradius1,lwrist1,lhand1,lhand2,lfingers1,lthumb1,lthumb2,rfemur1,rfemur2,rfemur3,rtibia1,rfoot1,rfoot2,rtoes1,lfemur1,lfemur2,lfemur3,ltibia1,lfoot1,lfoot2,ltoes1
1.32407,17.6376,12.3966,-175.349,0.973576,178.712,-0.189289,-0.139758,-6.08613,-0.481512,-0.18333,1.07765,-0.367971,-0.0662591,4.53023,-20.1384,-2.57838,-7.66617,36.7515,1.06412,2.83917,16.669,0.768195,3.12454,-2.55935e-15,9.83984e-15,-35.5679,-8.76078,-79.9811,33.2134,21.2938,-17.7103,4.44858,7.12502,8.54991,-25.3583,-2.55935e-15,9.83984e-15,-31.0901,8.8415,84.7073,27.3296,-10.9366,-13.1606,25.1013,7.12502,12.9383,54.6802,-15.7724,4.93314,16.5448,35.0118,-22.2286,-4.61573,4.65704,-10.23,0.902382,-26.1107,24.8371,-15.9729,-1.25549,0.360081
1.32071,17.6365,12.3961,-175.317,1.05921,178.827,-0.213055,-0.120866,-5.94718,-0.483472,-0.156677,1.08895,-0.360118,-0.0536465,4.4633,-20.4281,-2.52994,-7.39232,36.9466,1.15947,2.64064,16.8375,0.814567,3.02155,-2.13072e-15,-4.77083e-15,-35.538,-8.89145,-79.9811,33.2188,21.3884,-17.4983,4.53721,7.12502,8.75449,-25.2612,-2.13072e-15,-4.77083e-15,-31.094,8.76303,84.6875,27.367,-10.8407,-13.1508,25.1643,7.12502,12.9479,54.7426,-15.8087,4.9687,16.65,34.9745,-22.1973,-4.55369,4.95603,-10.3016,0.936061,-26.0042,24.9204,-16.021,-1.1937,0.239199
1.31769,17.6379,12.3967,-175.315,1.07833,178.885,-0.146516,-0.137354,-5.92303,-0.494353,-0.183167,1.13213,-0.405436,-0.0652841,4.49475,-20.5025,-2.52563,-7.38771,37.0104,1.19772,2.59734,16.888,0.823708,3.01345,-2.19284e-15,7.15625e-15,-35.5465,-8.78836,-80.0201,33.3277,21.3843,-17.375,4.5788,7.12502,8.87344,-25.2146,-2.19284e-15,7.15625e-15,-31.0982,8.7793,84.6998,27.324,-10.9814,-13.2582,25.0613,7.12502,12.8443,54.6461,-15.8186,4.96717,16.7033,34.978,-22.1362,-4.59033,4.63291,-10.3068,0.884541,-25.9476,24.9198,-16.0319,-1.14321,0.300024
1.31439,17.6369,12.395,-175.337,1.1176,178.848,-0.0971856,-0.152725,-5.9917,-0.48632,-0.206803,1.16042,-0.421739,-0.0765669,4.56322,-20.5169,-2.53783,-7.5021,37.0258,1.23024,2.59471,16.8988,0.819359,3.03962,7.54761e-15,-9.34288e-15,-35.5487,-8.59006,-80.0702,33.4145,21.2562,-17.4194,4.53568,7.12502,8.83065,-25.2596,7.54761e-15,-9.34288e-15,-31.1009,8.72085,84.7421,27.277,-11.1384,-13.1439,24.9929,7.12502,12.9544,54.5708,-15.8129,4.91495,16.6456,34.9952,-22.1053,-4.54525,4.5199,-10.2681,0.934998,-26.0087,24.9163,-16.0162,-1.09463,0.0185325
1.31008,17.6361,12.3917,-175.344,1.21551,178.782,-0.101364,-0.126627,-6.05275,-0.490956,-0.171855,1.14363,-0.428432,-0.0584762,4.58023,-20.7029,-2.52587,-7.39831,37.1994,1.28936,2.50913,17.0348,0.846363,3.0078,-1.02498e-15,-5.86415e-15,-35.5806,-8.5128,-80.0947,33.4623,21.1351,-17.406,4.34258,7.12502,8.84359,-25.4521,-1.02498e-15,-5.86415e-15,-31.0838,8.69179,84.7296,27.1828,-11.1844,-13.0395,25.0865,7.12502,13.0552,54.6579,-15.8117,4.92296,16.5434,35.0201,-22.1717,-4.38334,4.85347,-10.2284,0.921981,-26.1128,24.8921,-15.9726,-0.982247,-0.187769
1.3066,17.6353,12.3911,-175.34,1.27019,178.748,-0.0757152,-0.114969,-6.05896,-0.512706,-0.158341,1.10991,-0.46703,-0.0498369,4.54874,-20.5399,-2.527,-7.41736,37.1408,1.26428,2.55051,16.9638,0.843913,3.01973,8.57259e-16,-1.17283e-14,-35.6567,-8.55457,-80.1235,33.5105,21.144,-17.4829,4.44667,7.12502,8.76935,-25.3511,8.57259e-16,-1.17283e-14,-31.1207,8.56157,84.6884,27.1963,-11.1412,-12.9733,25.2763,7.12502,13.1189,54.8437,-15.8411,4.87187,16.4957,35.0494,-22.1359,-4.36334,4.58063,-10.2207,0.887823,-26.1702,24.8769,-15.9515,-0.912204,-0.201143
1.30434,17.6366,12.3913,-175.32,1.31896,178.747,-0.0343281,-0.0891913,-6.05722,-0.551469,-0.127284,1.09168,-0.53416,-0.0310298,4.52884,-19.9599,-2.5941,-7.81804,36.7909,1.08565,2.905,16.645,0.773085,3.18578,4.62796e-15,-1.31198e-14,-35.7578,-8.64599,-80.1114,33.5496,21.242,-17.752,4.60204,7.12502,8.50966,-25.2065,4.62796e-15,-1.31198e-14,-31.1749,8.49517,84.6598,27.2236,-11.1899,-12.9114,25.5191,7.12502,13.1786,55.0826,-15.8806,4.91509,16.4799,35.0612,-22.131,-4.39792,4.4404,-10.2414,0.898655,-26.1792,24.8717,-15.9466,-0.901602,-0.161022
1.30261,17.6374,12.3902,-175.294,1.34282,178.787,-0.0384285,-0.0985214,-6.0405,-0.566911,-0.139634,1.11642,-0.546243,-0.036417,4.54519,-19.7841,-2.57829,-7.88372,36.6882,1.09081,2.95272,16.5474,0.775581,3.21112,3.42282e-15,2.38542e-15,-35.8011,-8.69697,-80.0813,33.5623,21.4073,-17.7738,4.50641,7.12502,8.48863,-25.303,3.42282e-15,2.38542e-15,-31.2499,8.54428,84.625,27.3228,-11.164,-12.8034,25.6542,7.12502,13.2827,55.211,-15.9171,4.88566,16.5192,35.0673,-22.0988,-4.39987,4.19457,-10.2662,0.914877,-26.1432,24.8664,-15.9233,-0.899898,0.0593604
1.30067,17.6372,12.3885,-175.268,1.37709,178.787,-0.075618,-0.13571,-6.09957,-0.551031,-0.186608,1.16539,-0.502931,-0.0614289,4.62961,-20.2356,-2.50907,-7.61028,37.0488,1.28204,2.71453,16.8363,0.855872,3.12207,1.29831e-15,6.16232e-15,-35.7211,-8.527,-80.1028,33.5497,21.402,-17.6524,4.25156,7.12502,8.60581,-25.553,1.29831e-15,6.16232e-15,-31.2292,8.76704,84.5975,27.3095,-11.1989,-12.9107,25.4917,7.12502,13.1793,55.0552,-15.9513,4.90576,16.5068,35.0598,-22.0706,-4.40121,4.08188,-10.2853,0.878649,-26.1553,24.8719,-15.8765,-0.830248,0.0668333
1.29744,17.6367,12.3863,-175.289,1.37014,178.742,-0.054201,-0.167554,-6.17032,-0.517496,-0.230144,1.17305,-0.47468,-0.0848464,4.67776,-20.4974,-2.485,-7.44965,37.2281,1.35149,2.58793,16.9932,0.885012,3.06472,-5.67779e-15,-3.77691e-15,-35.6278,-8.42198,-80.1526,33.4956,21.299,-17.797,4.18866,7.12502,8.46625,-25.6216,-5.67779e-15,-3.77691e-15,-31.1834,8.82775,84.594,27.3053,-11.1535,-13.17,25.4542,7.12502,12.9293,55.0336,-15.9206,4.8708,16.4476,35.0609,-22.0472,-4.35379,4.13541,-10.252,0.876556,-26.215,24.8689,-15.8892,-0.824637,-0.296243
1.29446,17.6354,12.3861,-175.306,1.33244,178.711,-0.0211617,-0.197622,-6.19893,-0.498173,-0.272236,1.1701,-0.467872,-0.106628,4.69108,-20.5161,-2.49207,-7.41972,37.2137,1.34298,2.53522,16.9917,0.875582,3.03285,1.77664e-15,-2.26615e-14,-35.587,-8.40013,-80.194,33.4649,21.2328,-18.0527,4.22738,7.12502,8.21951,-25.5927,1.77664e-15,-2.26615e-14,-31.1801,8.84694,84.5808,27.3758,-11.0594,-13.19,25.4289,7.12502,12.9101,55.0095,-15.8878,4.84192,16.397,35.0679,-22.1066,-4.23517,4.52633,-10.2236,0.82437,-26.2578,24.8587,-15.9232,-0.806354,-0.250681
1.29304,17.6339,12.386,-175.302,1.36418,178.645,-0.0366462,-0.203368,-6.27457,-0.494514,-0.278921,1.15126,-0.454366,-0.110194,4.71423,-20.467,-2.48989,-7.39258,37.2123,1.34912,2.50248,16.9788,0.879101,3.014,1.27968e-15,3.57812e-15,-35.6071,-8.44415,-80.1922,33.4822,21.238,-18.1784,4.22554,7.12502,8.09815,-25.5993,1.27968e-15,3.57812e-15,-31.2298,8.74662,84.5942,27.4824,-10.8854,-13.0198,25.6124,7.12502,13.0741,55.1827,-15.8924,4.85725,16.3096,35.0791,-22.1509,-4.15626,4.82404,-10.2241,0.808854,-26.3401,24.8569,-15.9254,-0.763143,-0.135148
1.29003,17.6327,12.384,-175.336,1.36871,178.646,-0.037431,-0.200479,-6.25272,-0.465482,-0.274488,1.13847,-0.424639,-0.109945,4.68844,-20.4072,-2.48706,-7.30879,37.1742,1.34076,2.42674,16.9451,0.877511,2.9605,-2.11209e-15,3.67752e-15,-35.6475,-8.50866,-80.1941,33.5579,21.1967,-18.2554,4.28428,7.12502,8.02383,-25.5434,-2.11209e-15,3.67752e-15,-31.191,8.69579,84.5915,27.48,-10.8653,-12.8284,25.9268,7.12502,13.2586,55.4851,-15.8484,4.86883,16.303,35.0679,-22.123,-4.22007,4.67509,-10.1931,0.847817,-26.3486,24.8839,-15.9524,-0.783721,-0.149942
1.28789,17.6311,12.3828,-175.369,1.32484,178.655,-0.0108499,-0.229665,-6.23464,-0.426333,-0.314521,1.14075,-0.394102,-0.132263,4.68066,-20.4282,-2.45914,-7.23491,37.1287,1.36626,2.36049,16.9247,0.885239,2.91963,2.39784e-15,4.96962e-15,-35.6146,-8.45423,-80.2138,33.5809,21.1142,-18.2524,4.35184,7.12502,8.0267,-25.4757,2.39784e-15,4.96962e-15,-31.0974,8.73273,84.5711,27.4416,-10.9716,-12.7728,25.965,7.12502,13.3122,55.5198,-15.7874,4.85909,16.3144,35.0435,-22.113,-4.27643,4.55232,-10.1743,0.802536,-26.3423,24.9295,-15.9608,-0.773399,-0.295388
1.28552,17.6313,12.3826,-175.41,1.28301,178.705,0.0645576,-0.246509,-6.19318,-0.385048,-0.341261,1.16651,-0.390485,-0.147186,4.68432,-20.5461,-2.43204,-7.21955,37.1377,1.40007,2.36335,16.956,0.896415,2.92612,-7.20594e-16,7.55382e-15,-35.5403,-8.44205,-80.1931,33.5452,21.1369,-18.1346,4.23407,7.12502,8.14041,-25.5891,-7.20594e-16,7.55382e-15,-30.9988,8.75644,84.5672,27.3287,-11.1125,-13.0588,25.4823,7.12502,13.0365,55.055,-15.7129,4.82736,16.3714,35.0078,-22.1852,-4.17836,4.59111,-10.1639,0.767515,-26.2909,24.9854,-16.016,-0.799658,-0.160229
1.28358,17.6312,12.3832,-175.403,1.23964,178.813,0.148794,-0.263167,-6.08912,-0.400475,-0.369033,1.19263,-0.450591,-0.159102,4.6532,-20.6524,-2.4243,-7.18662,37.2257,1.4149,2.37752,17.028,0.908478,2.93625,-2.36057e-16,-1.63003e-14,-35.5096,-8.39596,-80.2139,33.4845,21.0822,-17.9426,4.06349,7.12502,8.32576,-25.7524,-2.36057e-16,-1.63003e-14,-31.0139,8.6701,84.5498,27.2742,-11.1822,-13.3342,25.1591,7.12502,12.771,54.7485,-15.7047,4.80874,16.4901,34.9768,-22.2307,-4.11218,4.71886,-10.2117,0.729286,-26.1685,25.0425,-16.0407,-0.831652,0.182224
1.282,17.6313,12.383,-175.364,1.17908,178.809,0.167969,-0.299129,-6.10875,-0.429163,-0.418825,1.20469,-0.484517,-0.18201,4.6773,-20.624,-2.42744,-7.2275,37.2158,1.4122,2.40429,17.0155,0.905728,2.95396,-4.47266e-15,1.10325e-14,-35.5246,-8.26309,-80.2595,33.5058,20.8975,-17.756,3.79232,7.12502,8.50583,-26.0164,-4.47266e-15,1.10325e-14,-31.0351,8.53856,84.5945,27.2387,-11.1103,-13.4489,25.1983,7.12502,12.6604,54.7946,-15.7227,4.75885,16.4821,34.9557,-22.2208,-4.13576,4.66815,-10.2895,0.697751,-26.1683,25.0999,-16.0923,-0.906658,0.3137
1.28065,17.6318,12.3832,-175.308,1.14391,178.819,0.169588,-0.312765,-6.13641,-0.480609,-0.438034,1.23408,-0.535735,-0.188277,4.72387,-20.4757,-2.44929,-7.30086,37.1874,1.37764,2.4672,16.9651,0.895673,2.98544,2.33572e-15,5.76476e-15,-35.6377,-8.12505,-80.2579,33.5809,20.7606,-17.76,3.74517,7.12502,8.50199,-26.0637,2.33572e-15,5.76476e-15,-31.0864,8.4231,84.6661,27.247,-10.9831,-13.2232,25.3816,7.12502,12.878,54.9643,-15.7774,4.72251,16.4844,34.957,-22.2074,-4.15874,4.47959,-10.3856,0.694913,-26.1608,25.1508,-16.1433,-0.911116,-0.0128544
1.27839,17.631,12.3827,-175.275,1.1389,178.854,0.160887,-0.318572,-6.11469,-0.48762,-0.445147,1.26031,-0.537124,-0.19164,4.7389,-20.4421,-2.46296,-7.32348,37.1705,1.36443,2.45933,16.9492,0.886215,2.9818,1.04362e-15,4.57205e-15,-35.6895,-8.00787,-80.2685,33.6419,20.6925,-17.763,3.96536,7.12502,8.49901,-25.8436,1.04362e-15,4.57205e-15,-31.0814,8.26312,84.7324,27.3266,-10.8211,-13.054,25.5992,7.12502,13.0411,55.1715,-15.8198,4.71335,16.512,34.9648,-22.2306,-4.14432,4.6185,-10.4396,0.598997,-26.1293,25.2048,-16.1523,-0.828359,-0.296644
1.2756,17.6264,12.3809,-175.316,1.13327,178.894,0.227435,-0.305327,-6.06012,-0.47716,-0.431377,1.26897,-0.565733,-0.184402,4.71735,-20.4168,-2.47846,-7.37522,37.1322,1.32404,2.52228,16.9243,0.870537,3.00842,-7.52897e-15,-3.18055e-15,-35.7008,-8.05705,-80.2315,33.5943,20.8408,-17.7666,4.0287,7.12502,8.49554,-25.7804,-7.52897e-15,-3.18055e-15,-31.07,8.19797,84.7591,27.3649,-10.8817,-13.0864,25.5689,7.12502,13.0099,55.1432,-15.7672,4.75058,16.5456,34.9799,-22.2786,-4.10145,4.79983,-10.383,0.541302,-26.0929,25.2476,-16.1297,-0.808184,-0.14933
1.27322,17.6242,12.3797,-175.314,1.12114,178.931,0.265991,-0.310677,-6.03724,-0.461843,-0.440561,1.28971,-0.570409,-0.189387,4.72625,-20.4841,-2.49094,-7.43298,37.1166,1.29012,2.59355,16.9339,0.854045,3.04308,2.91965e-15,-6.16232e-15,-35.6537,-8.0954,-80.1959,33.5191,21.0313,-17.6483,4.02295,7.12502,8.60971,-25.7815,2.91965e-15,-6.16232e-15,-31.0191,8.19931,84.7531,27.3972,-10.9373,-13.1362,25.3575,7.12502,12.9619,54.9349,-15.7573,4.77143,16.5806,34.9907,-22.3135,-4.09559,4.88961,-10.3862,0.459767,-26.0637,25.282,-16.1719,-0.754893,-0.101274
1.2704,17.6251,12.3812,-175.299,1.10594,178.96,0.30298,-0.313199,-6.02789,-0.425817,-0.445595,1.30558,-0.5533,-0.193542,4.73762,-20.5572,-2.48919,-7.42914,37.0653,1.25766,2.62894,16.9258,0.839826,3.04861,3.10601e-15,-6.36111e-15,-35.6045,-8.09551,-80.1978,33.5592,21.05,-17.6242,4.0402,7.12502,8.63302,-25.7633,3.10601e-15,-6.36111e-15,-30.9125,8.24169,84.7576,27.4333,-11.0151,-13.177,25.3736,7.12502,12.9226,54.9535,-15.7899,4.81877,16.6141,35.0139,-22.3201,-4.26348,4.22449,-10.4153,0.440505,-26.0352,25.2877,-16.1755,-0.812328,0.400599
1.26814,17.6261,12.3822,-175.3,1.15856,179.008,0.28785,-0.303113,-6.00019,-0.359289,-0.42977,1.32888,-0.478126,-0.190022,4.7457,-20.6247,-2.47591,-7.49033,37.0281,1.24849,2.72832,16.9214,0.836113,3.09986,1.61513e-16,5.1684e-15,-35.4672,-8.08709,-80.1937,33.5117,21.0183,-17.6579,4.2057,7.12502,8.60049,-25.5991,1.61513e-16,5.1684e-15,-30.8007,8.30536,84.7654,27.4476,-11.1148,-13.1739,25.3234,7.12502,12.9256,54.9031,-15.8289,4.87206,16.6574,35.0506,-22.2489,-4.39186,3.52513,-10.4105,0.486126,-25.9903,25.2645,-16.175,-0.832166,0.607186
1.26514,17.6257,12.3826,-175.29,1.1823,178.945,0.237815,-0.289556,-6.06494,-0.312045,-0.408012,1.31622,-0.403702,-0.182669,4.76858,-20.6725,-2.4714,-7.5088,37.0413,1.25476,2.75853,16.9393,0.838945,3.11921,-4.24902e-15,3.37934e-15,-35.3746,-8.12983,-80.1572,33.4512,21.0524,-17.6715,4.27998,7.12502,8.58741,-25.5254,-4.24902e-15,3.37934e-15,-30.7646,8.32223,84.7793,27.51,-11.1307,-13.1165,25.138,7.12502,12.9809,54.7142,-15.8763,4.84014,16.5622,35.1024,-22.2271,-4.3311,3.40921,-10.4022,0.478597,-26.0716,25.2161,-16.2187,-0.802389,0.489305
1.2625,17.6233,12.3825,-175.296,1.19116,178.848,0.206599,-0.282171,-6.14114,-0.26941,-0.395739,1.27659,-0.343525,-0.179506,4.77006,-20.6834,-2.4581,-7.42458,37.0203,1.28613,2.63844,16.9304,0.845022,3.05521,-1.98785e-16,6.16232e-15,-35.3447,-8.1338,-80.1702,33.4796,21.0676,-17.6659,4.073,7.12502,8.59276,-25.7321,-1.98785e-16,6.16232e-15,-30.7352,8.32329,84.763,27.5614,-11.1601,-13.0848,25.1443,7.12502,13.0115,54.7185,-15.8909,4.79983,16.434,35.1521,-22.2152,-4.21874,3.73532,-10.348,0.424712,-26.1837,25.1751,-16.2752,-0.792042,0.760538
1.25885,17.6215,12.3816,-175.285,1.2202,178.817,0.176274,-0.267874,-6.13708,-0.253867,-0.374388,1.26052,-0.313301,-0.17026,4.75072,-20.6435,-2.46022,-7.43075,36.9908,1.28383,2.62633,16.9053,0.841905,3.04812,7.1314e-15,5.96354e-16,-35.3988,-8.15862,-80.1335,33.5487,21.0555,-17.5255,4.11487,7.12502,8.72827,-25.6847,7.1314e-15,5.96354e-16,-30.6554,8.30094,84.7594,27.553,-11.2035,-12.9084,25.3357,7.12502,13.1815,54.8991,-15.9317,4.80035,16.3755,35.2084,-22.2151,-4.17462,3.74729,-10.287,0.324004,-26.2127,25.1395,-16.2778,-0.855098,1.82283
1.25532,17.6209,12.3825,-175.265,1.19054,178.78,0.19681,-0.285431,-6.14206,-0.273994,-0.399588,1.25062,-0.342437,-0.18135,4.74349,-20.581,-2.46709,-7.46323,37.0208,1.28829,2.64807,16.9055,0.846472,3.06611,7.95139e-16,1.98785e-15,-35.4619,-8.11513,-80.1081,33.5771,21.0439,-17.3682,4.30441,7.12502,8.88008,-25.4887,7.95139e-16,1.98785e-15,-30.6222,8.20523,84.7856,27.6051,-11.1352,-12.7686,25.6761,7.12502,13.3162,55.2306,-15.987,4.81491,16.3185,35.2884,-22.2172,-4.26594,3.81786,-10.2749,0.229272,-26.239,25.1086,-16.2801,-0.969917,2.85422
1.2536,17.6192,12.3837,-175.237,1.11144,178.778,0.22748,-0.308187,-6.14801,-0.29812,-0.432422,1.26897,-0.380211,-0.195843,4.76638,-20.468,-2.48678,-7.60737,37.006,1.25392,2.7971,16.8704,0.837847,3.14984,6.92019e-15,5.76476e-15,-35.5134,-8.12438,-80.0451,33.5914,21.123,-17.3341,4.39548,7.12502,8.91292,-25.3963,6.92019e-15,5.76476e-15,-30.6797,8.00819,84.8661,27.799,-10.886,-12.7559,25.8819,7.12502,13.3285,55.4356,-16.0638,4.77125,16.3141,35.4109,-22.2517,-4.36698,3.77852,-10.2975,0.248447,-26.2379,25.0801,-16.2748,-1.0654,2.76839
1.2517,17.6143,12.3856,-175.241,1.04517,178.766,0.271878,-0.322559,-6.14622,-0.296408,-0.454457,1.26809,-0.400579,-0.206272,4.76484,-20.3744,-2.49577,-7.64541,36.9551,1.23025,2.82856,16.8217,0.829027,3.16174,2.54693e-15,-6.16232e-15,-35.5098,-8.12668,-80.0202,33.5503,21.162,-17.3686,4.38317,7.12502,8.87965,-25.41,2.54693e-15,-6.16232e-15,-30.6724,7.90532,84.903,27.8566,-10.7365,-12.804,26.1154,7.12502,13.2821,55.6721,-16.1411,4.65869,16.3014,35.5687,-22.2657,-4.25071,3.38771,-10.2813,0.243667,-26.2568,25.0513,-16.2731,-1.12691,2.81418
1.25143,17.6083,12.3867,-175.211,0.99795,178.664,0.251943,-0.348079,-6.25541,-0.278795,-0.487331,1.24734,-0.366335,-0.224032,4.80497,-20.3429,-2.49488,-7.62289,36.8718,1.21872,2.77826,16.7714,0.817031,3.12676,-7.16867e-15,-6.36111e-15,-35.4708,-8.07615,-80.0348,33.5291,21.1947,-17.3691,4.30123,7.12502,8.87918,-25.492,-7.16867e-15,-6.36111e-15,-30.6073,7.72294,84.9661,27.8518,-10.5734,-13.0039,26.0133,7.12502,13.0895,55.5825,-16.2764,4.59458,16.1884,35.7649,-22.3447,-4.20072,2.89328,-10.2898,0.304249,-26.3646,25.001,-16.28,-1.27635,3.0747
1.25075,17.6069,12.3877,-175.212,0.903068,178.57,0.302606,-0.367567,-6.32427,-0.267191,-0.516786,1.20715,-0.378795,-0.238486,4.80255,-20.376,-2.49618,-7.57357,36.8902,1.20986,2.7586,16.7899,0.817045,3.1091,1.72694e-15,-1.39149e-14,-35.4735,-8.13569,-80.0307,33.5295,21.257,-17.4394,4.31727,7.12502,8.81136,-25.4788,1.72694e-15,-1.39149e-14,-30.5436,7.56113,85.0054,27.8187,-10.501,-13.377,25.7814,7.12502,12.7297,55.3734,-16.352,4.60639,16.0899,35.9642,-22.4107,-4.34321,3.03158,-10.2915,0.365073,-26.4637,24.9603,-16.2563,-1.40926,2.95194
1.24906,17.6061,12.3857,-175.261,0.844433,178.519,0.373214,-0.376888,-6.36613,-0.251597,-0.533845,1.18583,-0.399979,-0.246622,4.80461,-20.3416,-2.50327,-7.52225,36.8548,1.1855,2.71636,16.7648,0.807959,3.07372,2.00027e-15,-1.78906e-15,-35.4945,-8.12445,-80.0398,33.4814,21.2665,-17.6082,4.42258,7.12502,8.64846,-25.3803,2.00027e-15,-1.78906e-15,-30.546,7.41056,85.0224,27.8545,-10.424,-13.4697,25.6204,7.12502,12.6404,55.2179,-16.3795,4.68658,16.0337,36.1527,-22.4848,-4.51998,3.0898,-10.2903,0.640385,-26.5388,24.9492,-16.2463,-1.57,1.95421
1.24577,17.6052,12.3815,-175.274,0.832497,178.531,0.342769,-0.371181,-6.32085,-0.224534,-0.523323,1.17813,-0.356725,-0.243708,4.77051,-20.288,-2.5141,-7.50741,36.8003,1.14946,2.71288,16.7254,0.794428,3.05844,-7.67806e-15,9.93923e-15,-35.4978,-8.1491,-80.018,33.4428,21.2483,-17.6271,4.56722,7.12502,8.63018,-25.2364,-7.67806e-15,9.93923e-15,-30.5481,7.41673,85.0087,27.9157,-10.5411,-13.2699,25.6291,7.12502,12.833,55.2146,-16.4402,4.79042,16.0238,36.3324,-22.5833,-4.41037,3.54487,-10.3836,0.972645,-26.582,24.982,-16.2444,-1.62374,0.294567
1.24181,17.6022,12.3781,-175.218,0.770306,178.546,0.21652,-0.358224,-6.22742,-0.183412,-0.496246,1.14337,-0.247865,-0.23512,4.68012,-20.2958,-2.54632,-7.53893,36.8175,1.06718,2.83686,16.7403,0.774842,3.10471,-8.90804e-15,-8.34896e-15,-35.4959,-8.22298,-80.0155,33.4599,21.2264,-17.6373,4.60138,7.12502,8.62038,-25.2026,-8.90804e-15,-8.34896e-15,-30.4539,7.34134,85.0016,27.938,-10.6332,-13.105,25.5676,7.12502,12.992,55.1431,-16.5842,4.79064,16.0163,36.5436,-22.6795,-4.27876,3.67466,-10.5147,1.13579,-26.5962,25.0393,-16.2855,-1.76479,-0.310712
1.23738,17.5968,12.3785,-175.21,0.701619,178.562,0.225896,-0.329886,-6.14499,-0.13719,-0.457687,1.10975,-0.211179,-0.218403,4.59825,-20.3443,-2.59036,-7.42021,36.8438,0.984448,2.77306,16.7724,0.747755,3.04134,7.67806e-15,9.14409e-15,-35.4957,-8.29995,-80.0159,33.4803,21.1802,-17.7848,4.71463,7.12502,8.47803,-25.0952,7.67806e-15,9.14409e-15,-30.3314,7.17781,85.0469,27.9816,-10.5343,-13.1985,25.5337,7.12502,12.9019,55.1149,-16.7254,4.674,16.0147,36.8268,-22.651,-4.20711,3.11485,-10.5575,1.22104,-26.5903,25.0773,-16.2964,-1.91484,-0.165917
1.23384,17.59,12.38,-175.241,0.672359,178.554,0.291211,-0.310179,-6.08964,-0.100411,-0.4345,1.06864,-0.213495,-0.207728,4.52439,-20.3172,-2.58479,-7.28945,36.7706,0.950288,2.69996,16.7293,0.739545,2.97394,2.98177e-16,1.98785e-16,-35.5387,-8.26397,-80.0595,33.5287,21.0393,-17.747,4.61501,7.12502,8.51448,-25.1933,2.98177e-16,1.98785e-16,-30.2855,6.96519,85.0731,28.064,-10.411,-13.2951,25.4549,7.12502,12.8087,55.042,-16.8658,4.6305,16.0002,37.1801,-22.6523,-4.19494,2.58606,-10.5341,1.30296,-26.6058,25.0906,-16.3297,-2.03766,-0.312795
1.23188,17.5884,12.3821,-175.3,0.632835,178.421,0.43106,-0.305083,-6.20726,-0.0773476,-0.436573,1.03417,-0.267385,-0.207291,4.55592,-20.2852,-2.57474,-7.26208,36.6824,0.942508,2.67273,16.6757,0.733469,2.94944,-2.73329e-15,-4.96962e-16,-35.5502,-8.25878,-80.0337,33.4922,21.0174,-17.5639,4.35027,7.12502,8.69124,-25.4508,-2.73329e-15,-4.96962e-16,-30.2596,6.82431,85.1205,28.0788,-10.3631,-13.3468,25.4164,7.12502,12.7589,55.0066,-17.0458,4.62499,15.8484,37.621,-22.6532,-4.24751,2.23248,-10.4848,1.34537,-26.7452,25.0797,-16.3073,-2.181,-0.17244
1.22842,17.586,12.3867,-175.289,0.575862,178.355,0.551088,-0.313287,-6.22267,-0.0999733,-0.456069,1.00218,-0.355863,-0.213441,4.53241,-20.2595,-2.57833,-7.2862,36.6642,0.907015,2.75759,16.661,0.728002,2.98326,2.78299e-15,-7.85199e-15,-35.5651,-8.28952,-80.0266,33.4536,21.042,-17.4385,4.26351,7.12502,8.81222,-25.5325,2.78299e-15,-7.85199e-15,-30.2762,6.86584,85.0946,28.1063,-10.4413,-13.4313,25.2947,7.12502,12.6774,54.8899,-17.3499,4.53293,15.7596,38.1291,-22.5154,-4.19436,1.96875,-10.5081,1.49841,-26.8165,25.0545,-16.3028,-2.42159,-0.0588493
1.2248,17.5808,12.3951,-175.274,0.569937,178.258,0.711324,-0.312243,-6.26653,-0.159515,-0.467238,0.967646,-0.505914,-0.212324,4.52282,-20.1548,-2.58906,-7.35216,36.6741,0.896117,2.82412,16.6409,0.729066,3.02255,2.54693e-15,-6.36111e-15,-35.6492,-8.18689,-80.0315,33.458,21.0205,-17.4886,4.28808,7.12502,8.76387,-25.51,2.54693e-15,-6.36111e-15,-30.3477,6.82466,85.098,28.1484,-10.3547,-13.525,25.0555,7.12502,12.5871,54.6563,-17.7066,4.45426,15.6293,38.7113,-22.3607,-4.11891,1.60704,-10.5274,1.59194,-26.9323,24.9886,-16.3043,-2.544,-0.0820777
1.22035,17.5752,12.4002,-175.298,0.644691,178.14,0.790268,-0.285865,-6.34178,-0.133394,-0.437155,0.930397,-0.526783,-0.196875,4.52678,-20.1453,-2.58751,-7.35597,36.6702,0.91928,2.77864,16.6359,0.731521,3.00708,-1.40392e-15,1.18277e-14,-35.6207,-8.13316,-80.0166,33.4237,21.0556,-17.6568,4.55529,7.12502,8.60155,-25.2495,-1.40392e-15,1.18277e-14,-30.2938,6.93038,85.0664,28.1595,-10.4444,-13.5081,24.8668,7.12502,12.6033,54.4666,-18.0308,4.48595,15.4666,39.3384,-22.2794,-3.99089,1.7869,-10.5113,1.7404,-27.0889,24.9444,-16.3128,-2.61562,-0.138744
1.21697,17.5728,12.4003,-175.279,0.735081,177.933,0.723318,-0.264659,-6.52805,-0.0729673,-0.403614,0.896283,-0.429962,-0.184158,4.59556,-20.1895,-2.57436,-7.41087,36.6403,0.972101,2.73617,16.6287,0.735725,3.00623,1.61513e-16,1.78906e-15,-35.5267,-8.05467,-79.9896,33.4267,21.0626,-17.6903,4.5488,7.12502,8.5692,-25.2573,1.61513e-16,1.78906e-15,-30.1621,6.95576,85.1229,28.1491,-10.3528,-13.5876,24.7785,7.12502,12.5268,54.383,-18.4207,4.57487,15.1961,40.0196,-22.2247,-3.86273,2.45102,-10.5332,1.89339,-27.3373,24.914,-16.3473,-2.6775,-0.566688
1.21312,17.5697,12.4,-175.294,0.837253,177.787,0.708865,-0.247742,-6.63918,-0.0115228,-0.378524,0.864236,-0.361041,-0.175103,4.62447,-20.2551,-2.54907,-7.47866,36.6747,1.02232,2.79955,16.6585,0.754551,3.05874,3.71479e-15,-8.15017e-15,-35.417,-8.06107,-79.9698,33.4034,21.232,-17.6734,4.54021,7.12502,8.58549,-25.2652,3.71479e-15,-8.15017e-15,-30.0821,6.88112,85.1852,28.1684,-10.1831,-13.576,24.7546,7.12502,12.5379,54.3584,-18.8281,4.67842,15.0048,40.7508,-22.0909,-3.86324,2.40485,-10.4825,2.03897,-27.5194,24.826,-16.3464,-2.68935,-0.963864
1.20761,17.5694,12.3986,-175.314,0.981,177.792,0.723368,-0.212591,-6.58707,0.0101116,-0.331663,0.862769,-0.353179,-0.152625,4.5931,-20.1874,-2.52277,-7.48203,36.6891,1.08451,2.77046,16.6456,0.779388,3.05903,1.90088e-15,-1.39149e-14,-35.3819,-8.07705,-79.9427,33.3355,21.4086,-17.643,4.51127,7.12502,8.61483,-25.293,1.90088e-15,-1.39149e-14,-30.1154,6.84974,85.2015,28.2063,-10.1569,-13.6079,24.84,7.12502,12.5071,54.4457,-19.2189,4.74235,14.9934,41.5054,-21.8925,-4.01426,1.37619,-10.3768,2.13463,-27.5272,24.6928,-16.3213,-2.72353,-0.681411
1.2034,17.5737,12.3996,-175.34,1.13041,177.754,0.794151,-0.174957,-6.58206,0.0349052,-0.28546,0.836772,-0.373384,-0.129326,4.56307,-20.2126,-2.48503,-7.35652,36.7051,1.15939,2.61992,16.6565,0.805875,2.98567,-1.3418e-15,-7.55382e-15,-35.3339,-8.07477,-79.9496,33.2783,21.4659,-17.7074,4.47649,7.12502,8.55274,-25.3303,-1.3418e-15,-7.55382e-15,-30.154,6.84011,85.1705,28.3129,-10.1008,-13.4793,25.12,7.12502,12.6311,54.7181,-19.6116,4.75753,14.9379,42.2784,-21.5944,-4.11067,0.421895,-10.286,2.28232,-27.5788,24.5651,-16.2747,-2.78009,-0.583388
1.19903,17.5788,12.3996,-175.371,1.24938,177.719,0.857739,-0.129594,-6.56311,0.0962894,-0.226919,0.800514,-0.35333,-0.102098,4.51416,-20.3726,-2.48323,-7.27622,36.7531,1.16963,2.54561,16.721,0.805283,2.9444,-1.90088e-15,8.34896e-15,-35.2279,-8.18472,-79.9625,33.2358,21.5536,-17.7188,4.44841,7.12502,8.54171,-25.3588,-1.90088e-15,8.34896e-15,-30.1125,6.71083,85.1787,28.4154,-9.92138,-13.4453,25.3244,7.12502,12.664,54.9204,-20.0504,4.69675,14.9033,43.0781,-21.2317,-4.33339,-1.45707,-10.2037,2.44264,-27.6338,24.4187,-16.1956,-2.86548,-0.456621
1.19244,17.5799,12.3995,-175.419,1.38565,177.752,0.967195,-0.0654598,-6.4391,0.144977,-0.146251,0.782875,-0.375083,-0.0623286,4.42512,-20.5597,-2.51581,-7.31003,36.8449,1.13951,2.58061,16.8174,0.788552,2.96714,4.75841e-15,-1.64991e-14,-35.1639,-8.19168,-79.9826,33.2388,21.4767,-17.6313,4.22884,7.12502,8.62612,-25.5749,4.75841e-15,-1.64991e-14,-30.0723,6.67885,85.1852,28.4529,-9.828,-13.5012,25.3085,7.12502,12.61,54.9079,-20.5055,4.71269,14.9102,43.9273,-20.7654,-4.41556,-2.22195,-10.0702,2.62611,-27.6271,24.2284,-16.1272,-2.92289,-0.666917
1.18677,17.5805,12.4,-175.412,1.50973,177.666,1.06469,-0.0271138,-6.45425,0.141757,-0.101854,0.745522,-0.438708,-0.0376506,4.39451,-20.6781,-2.52515,-7.25953,36.8916,1.15746,2.47641,16.8719,0.784369,2.91874,-2.95692e-15,4.77083e-15,-35.1685,-8.20052,-79.9532,33.2515,21.4879,-17.6483,4.2655,7.12502,8.60976,-25.5389,-2.95692e-15,4.77083e-15,-30.1029,6.70908,85.1671,28.4534,-9.79026,-13.6438,25.127,7.12502,12.4726,54.7348,-21.0476,4.69318,14.77,44.8099,-20.2566,-4.39132,-2.50449,-10.011,2.83073,-27.7593,24.0426,-16.0689,-2.9573,-1.07202
1.18303,17.5785,12.3987,-175.431,1.60067,177.494,1.15197,-0.023185,-6.57824,0.122466,-0.104155,0.686478,-0.507214,-0.0353204,4.40338,-20.5882,-2.48806,-7.19568,36.8379,1.20428,2.40616,16.8187,0.803814,2.88117,1.21756e-15,-4.96962e-15,-35.188,-8.17579,-79.9497,33.2273,21.5689,-17.6516,4.35313,7.12502,8.60654,-25.4514,1.21756e-15,-4.96962e-15,-30.2325,6.75461,85.1121,28.5098,-9.75649,-13.6044,25.1313,7.12502,12.5106,54.7367,-21.5693,4.66674,14.5502,45.7033,-19.9497,-4.39652,-2.41206,-9.91614,2.98445,-27.9596,23.8699,-16.0072,-3.07068,-0.94306
1.18015,17.5758,12.3947,-175.516,1.746,177.328,1.22416,0.0106639,-6.69713,0.140412,-0.0641326,0.625046,-0.534091,-0.0140135,4.4061,-20.4001,-2.44803,-7.20631,36.76,1.23494,2.453,16.728,0.826789,2.90387,1.46604e-15,1.25234e-14,-35.1534,-8.12357,-79.9722,33.1605,21.5149,-17.6782,4.19391,7.12502,8.58087,-25.6117,1.46604e-15,1.25234e-14,-30.3132,6.90991,85.0459,28.4815,-9.88444,-13.5961,25.1247,7.12502,12.5185,54.7297,-22.0298,4.6224,14.3521,46.5862,-19.7385,-4.36475,-2.18141,-9.71558,2.9983,-28.1359,23.7028,-15.9558,-3.07003,-0.0887153
1.17574,17.5761,12.3912,-175.549,1.84177,177.297,1.28521,0.0294093,-6.66638,0.14771,-0.0427902,0.606765,-0.563547,-0.00246705,4.36947,-20.2644,-2.4174,-7.19323,36.7354,1.26833,2.46892,16.6789,0.849849,2.91279,-3.60297e-16,-1.27222e-14,-35.097,-8.12589,-79.9762,33.0602,21.4951,-17.7993,4.13984,7.12502,8.46401,-25.6705,-3.60297e-16,-1.27222e-14,-30.3535,6.90426,85.0488,28.4673,-9.82545,-13.513,25.2954,7.12502,12.5987,54.8955,-22.5304,4.51515,14.313,47.42,-19.4661,-4.55624,-2.56362,-9.59471,3.23096,-28.1836,23.5568,-15.9067,-3.23397,0.16868
1.17174,17.5735,12.3893,-175.532,1.83504,177.242,1.3467,-0.00158263,-6.69705,0.139903,-0.0893638,0.623827,-0.600265,-0.0242475,4.40546,-20.186,-2.39055,-7.18496,36.6869,1.33482,2.37352,16.6318,0.865456,2.87805,1.83876e-15,6.36111e-15,-35.0938,-8.05093,-79.9451,33.0916,21.5097,-17.7652,4.24488,7.12502,8.49692,-25.5642,1.83876e-15,6.36111e-15,-30.4169,6.95662,85.0791,28.4286,-9.8479,-13.3372,25.4353,7.12502,12.7681,55.0249,-23.0508,4.32089,14.2701,48.1968,-19.2643,-4.77369,-2.30611,-9.56008,3.51072,-28.2532,23.4125,-15.8335,-3.50888,0.0443519
1.16979,17.5721,12.3858,-175.566,1.79032,177.153,1.44931,-0.042688,-6.78362,0.143,-0.152581,0.629466,-0.646482,-0.0539224,4.46162,-20.1065,-2.35529,-7.21807,36.6302,1.40283,2.34047,16.579,0.88474,2.87809,1.10574e-15,-7.55382e-15,-35.1334,-7.9532,-79.9592,33.1715,21.4687,-17.8855,4.22116,7.12502,8.38082,-25.5926,1.10574e-15,-7.55382e-15,-30.5288,6.91551,85.0849,28.4041,-9.83423,-13.2993,25.3474,7.12502,12.8047,54.9347,-23.467,4.14181,14.1995,48.9202,-19.1153,-4.96379,-1.68697,-9.44944,3.60093,-28.3368,23.2779,-15.7916,-3.71079,0.246809
1.16846,17.5797,12.382,-175.57,1.74996,177.102,1.53515,-0.0723573,-6.82698,0.16272,-0.198135,0.628663,-0.66833,-0.0761231,4.48641,-20.1267,-2.34152,-7.24825,36.6146,1.43625,2.32794,16.574,0.890169,2.88321,2.28602e-15,-5.1684e-15,-35.1179,-7.92987,-79.9658,33.2509,21.4448,-17.9293,4.09496,7.12502,8.33858,-25.7205,2.28602e-15,-5.1684e-15,-30.5482,6.91898,85.0703,28.351,-9.81948,-13.2485,25.2089,7.12502,12.8536,54.7931,-23.913,3.87715,14.1855,49.5828,-18.8933,-5.37194,-3.0171,-9.37471,3.69168,-28.3799,23.1543,-15.7845,-3.87477,0.262336
1.16842,17.5822,12.3783,-175.585,1.68083,177.009,1.61262,-0.0822279,-6.86131,0.208485,-0.214919,0.574068,-0.662352,-0.0851971,4.44951,-20.2123,-2.37242,-7.31168,36.6055,1.37124,2.41577,16.5931,0.861789,2.9204,-3.49116e-15,-6.95746e-15,-35.0744,-8.00667,-79.9967,33.3181,21.3363,-17.8964,3.99606,7.12502,8.37027,-25.8181,-3.49116e-15,-6.95746e-15,-30.5621,6.79611,85.0748,28.3912,-9.68209,-13.1381,25.3912,7.12502,12.9601,54.9687,-24.3182,3.67347,14.1395,50.1837,-18.9883,-5.68433,-3.95638,-9.27742,3.70824,-28.4592,23.0179,-15.7641,-3.99733,0.169388
1.16814,17.582,12.3724,-175.571,1.58964,176.933,1.63633,-0.120034,-6.9049,0.239832,-0.266097,0.564406,-0.636495,-0.112114,4.46513,-20.2247,-2.35121,-7.27631,36.5156,1.39782,2.33294,16.5488,0.860636,2.87675,-3.67752e-15,5.96354e-16,-35.0264,-7.98445,-79.9791,33.3158,21.3336,-17.9284,4.23752,7.12502,8.33946,-25.5779,-3.67752e-15,5.96354e-16,-30.6233,6.75414,85.0981,28.4277,-9.67234,-13.1939,25.4924,7.12502,12.9062,55.0733,-24.7521,3.48379,14.1087,50.7056,-19.1518,-5.8466,-3.22567,-9.21009,3.70226,-28.5296,22.9014,-15.7618,-4.09461,0.247487
1.16752,17.5814,12.3652,-175.516,1.61525,176.813,1.71792,-0.115657,-7.03558,0.16948,-0.271652,0.5734,-0.753783,-0.108525,4.54897,-20.1607,-2.32181,-7.17423,36.5195,1.49088,2.13382,16.5331,0.888847,2.78889,-2.06239e-15,-5.96354e-16,-35.114,-7.96132,-79.8877,33.3384,21.3123,-17.8144,4.38944,7.12502,8.44948,-25.4215,-2.06239e-15,-5.96354e-16,-30.8358,6.62956,85.2019,28.4083,-9.86229,-13.4742,25.4207,7.12502,12.6361,55.0185,-25.2737,3.26557,14.0153,51.1514,-19.1185,-5.95565,-2.90881,-9.21399,3.80514,-28.6653,22.8274,-15.7215,-4.21411,0.269755
1.16479,17.5793,12.3568,-175.51,1.709,176.802,1.87228,-0.08825,-7.02995,0.0958477,-0.2504,0.596182,-0.919497,-0.0902549,4.57,-20.1607,-2.32653,-7.14662,36.6481,1.5369,2.07253,16.5989,0.909394,2.77407,5.06901e-15,-7.35503e-15,-35.2829,-7.82307,-79.8532,33.4975,21.0834,-17.6083,4.41204,7.12502,8.64834,-25.3908,5.06901e-15,-7.35503e-15,-31.0178,6.51356,85.2865,28.3722,-10.0066,-13.3606,25.7879,7.12502,12.7456,55.3789,-25.7093,3.06494,14.0367,51.4861,-19.1352,-5.85085,-2.49458,-9.17097,3.94862,-28.704,22.7789,-15.6845,-4.25435,0.0490069
1.1614,17.5806,12.3459,-175.508,1.62052,176.875,1.94364,-0.141997,-6.89789,0.123658,-0.324011,0.630212,-0.921657,-0.128482,4.53305,-20.3037,-2.30101,-7.09771,36.707,1.59091,2.01967,16.662,0.926344,2.75686,-1.54058e-15,3.97569e-16,-35.2875,-7.64692,-79.8763,33.632,20.8978,-17.4342,4.50044,7.12502,8.81639,-25.2954,-1.54058e-15,3.97569e-16,-30.9657,6.49762,85.3201,28.2785,-10.0315,-13.0203,26.2981,7.12502,13.0736,55.8683,-26.0661,2.75953,14.1719,51.7143,-19.2356,-5.81417,-2.33071,-9.09113,3.90494,-28.635,22.6958,-15.6414,-4.24446,-0.0596773
1.16108,17.5869,12.3344,-175.464,1.36536,177.068,1.94475,-0.243418,-6.63784,0.150276,-0.453602,0.697225,-0.87942,-0.197043,4.45912,-20.3316,-2.29943,-7.06476,36.6766,1.61701,1.9063,16.6539,0.92186,2.70387,1.88845e-15,-1.21259e-14,-35.2243,-7.58712,-79.8769,33.6523,20.8655,-17.5203,4.48196,7.12502,8.73327,-25.3174,1.88845e-15,-1.21259e-14,-30.9538,6.51488,85.3276,28.1532,-10.1241,-12.9765,26.4891,7.12502,13.1158,56.0566,-26.4254,2.42834,14.4796,51.8281,-19.2792,-6.15158,-2.60552,-9.04252,3.79172,-28.3958,22.6028,-15.6321,-4.36049,-0.0462324
1.16272,17.5919,12.3215,-175.429,1.21343,177.1,1.93592,-0.313542,-6.57427,0.168802,-0.544531,0.722203,-0.844154,-0.244538,4.45124,-20.309,-2.30116,-7.08661,36.6439,1.62702,1.87397,16.6316,0.916982,2.69292,-7.45443e-17,8.15017e-15,-35.1587,-7.58057,-79.8631,33.6595,20.8493,-17.5618,4.40987,7.12502,8.69324,-25.3911,-7.45443e-17,8.15017e-15,-31.0121,6.68396,85.2645,28.0172,-10.3829,-12.9501,26.4527,7.12502,13.1413,56.0186,-26.8078,2.17467,14.5968,51.8551,-19.1844,-6.43294,-2.45982,-9.00273,3.84117,-28.3441,22.5199,-15.6561,-4.5118,-0.426785
1.1636,17.5914,12.3058,-175.445,1.21692,177.051,1.93411,-0.310851,-6.6214,0.203694,-0.540238,0.736378,-0.807011,-0.244261,4.49228,-20.2368,-2.32951,-7.14354,36.5877,1.5972,1.86113,16.5875,0.895028,2.68743,2.21148e-15,1.33186e-14,-35.178,-7.55061,-79.8107,33.7371,20.7273,-17.5688,4.4066,7.12502,8.68649,-25.3947,2.21148e-15,1.33186e-14,-31.069,6.76691,85.2534,27.903,-10.5898,-12.9185,26.1683,7.12502,13.1718,55.7323,-27.122,1.96858,14.62,51.7889,-19.2522,-6.47121,-2.48511,-8.88428,3.85935,-28.4,22.4228,-15.6533,-4.52197,-0.584118
1.16462,17.5893,12.2885,-175.458,1.2257,177.093,1.9743,-0.323601,-6.591,0.194388,-0.560067,0.783832,-0.836535,-0.253268,4.5254,-20.1553,-2.32628,-7.1638,36.5883,1.6319,1.81707,16.5672,0.90392,2.6778,6.70898e-16,-3.77691e-15,-35.3193,-7.48726,-79.7604,33.8485,20.6386,-17.6064,4.54532,7.12502,8.6502,-25.2575,6.70898e-16,-3.77691e-15,-31.1526,6.97134,85.2133,27.7476,-10.7617,-12.8728,26.0132,7.12502,13.2158,55.5743,-27.3881,1.83599,14.7589,51.6274,-19.5265,-6.54586,-2.26219,-8.74934,3.78437,-28.3567,22.3038,-15.6306,-4.40835,-0.677177
1.16481,17.5924,12.2722,-175.439,1.18268,177.13,2.01582,-0.34598,-6.56118,0.209028,-0.591693,0.836037,-0.840455,-0.269553,4.56399,-20.2292,-2.32807,-7.24314,36.5886,1.63336,1.87803,16.5843,0.898066,2.71918,5.81445e-15,5.96354e-16,-35.333,-7.45106,-79.6966,33.934,20.6151,-17.6765,4.48557,7.12502,8.58251,-25.32,5.81445e-15,5.96354e-16,-31.1613,7.18176,85.1969,27.617,-10.8997,-12.8231,25.9331,7.12502,13.2637,55.4911,-27.7122,1.67654,14.8743,51.3825,-19.561,-6.74993,-2.06207,-8.66559,3.65693,-28.3142,22.2248,-15.6327,-4.32547,-0.560604
1.16769,17.5962,12.259,-175.398,1.14567,177.135,2.05649,-0.340261,-6.57585,0.236722,-0.585955,0.83721,-0.835203,-0.267338,4.57359,-20.2183,-2.33354,-7.21444,36.454,1.55046,1.92865,16.5148,0.868723,2.71192,8.32411e-15,8.34896e-15,-35.2398,-7.65532,-79.6538,33.948,20.5983,-17.6114,4.1411,7.12502,8.64537,-25.6619,8.32411e-15,8.34896e-15,-31.0671,7.24764,85.1728,27.3655,-11.0382,-13.0999,25.6389,7.12502,12.9969,55.214,-28.0854,1.54131,14.929,51.0722,-19.3944,-6.82243,-1.27455,-8.64654,3.68078,-28.2909,22.2023,-15.671,-4.39012,-0.559889
1.17059,17.5923,12.2433,-175.293,1.23055,177.055,2.03103,-0.307631,-6.66924,0.204206,-0.54388,0.796025,-0.859447,-0.244216,4.58239,-20.14,-2.33229,-7.0927,36.3847,1.48494,1.9234,16.4628,0.858027,2.67091,-6.13748e-15,3.97569e-16,-35.2483,-7.80104,-79.6232,33.981,20.5428,-17.5594,4.04375,7.12502,8.69553,-25.7571,-6.13748e-15,3.97569e-16,-31.0955,7.37371,85.0751,27.1271,-11.2967,-13.242,25.4493,7.12502,12.8599,55.0332,-28.5035,1.43943,14.884,50.7183,-19.205,-6.71362,0.048622,-8.68561,3.74171,-28.3848,22.1495,-15.6958,-4.3885,-0.760899
1.17157,17.5868,12.2238,-175.174,1.27321,177.049,1.93115,-0.309891,-6.64475,0.186939,-0.540121,0.786614,-0.822026,-0.243449,4.55783,-20.1644,-2.36871,-7.18059,36.4638,1.39256,2.14066,16.5112,0.840139,2.76897,5.14355e-15,2.5842e-15,-35.2283,-7.8879,-79.5815,33.9689,20.5745,-17.7146,4.03562,7.12502,8.54576,-25.7714,5.14355e-15,2.5842e-15,-31.1977,7.42252,85.0333,27.0803,-11.3363,-13.1836,25.5387,7.12502,12.9162,55.1189,-28.903,1.24743,14.9403,50.3121,-19.2332,-6.52031,0.785794,-8.7027,3.62567,-28.4098,22.0893,-15.7041,-4.24413,-0.592072
1.17295,17.5892,12.2046,-175.148,1.22621,177.119,1.93146,-0.345735,-6.53879,0.221559,-0.58455,0.821232,-0.781404,-0.268405,4.53483,-20.3308,-2.44588,-7.48583,36.6246,1.25479,2.5716,16.6383,0.800114,2.99753,4.72114e-16,1.61016e-14,-35.2187,-7.80733,-79.5842,34.0546,20.4761,-17.8947,3.96151,7.12502,8.37195,-25.8526,4.72114e-16,1.61016e-14,-31.2498,7.45476,85.0191,27.0544,-11.1714,-13.0786,25.6237,7.12502,13.0174,55.1976,-29.216,1.03918,15.1005,49.8403,-19.5166,-6.49435,0.529511,-8.62975,3.50782,-28.3293,22.0615,-15.7724,-4.12731,-0.730729
1.17459,17.5965,12.1863,-175.125,1.1496,177.197,1.98442,-0.392463,-6.45255,0.279532,-0.646421,0.88621,-0.74355,-0.302353,4.55532,-20.5478,-2.4616,-7.61139,36.6671,1.21357,2.74408,16.7139,0.780788,3.09212,2.31087e-15,2.98177e-15,-35.1404,-7.6522,-79.5943,34.2158,20.2056,-17.7965,3.9605,7.12502,8.46677,-25.8498,2.31087e-15,2.98177e-15,-31.2211,7.50604,85.0475,26.9771,-11.1188,-13.1402,25.6257,7.12502,12.9581,55.2033,-29.5096,0.834016,15.2801,49.3085,-19.5423,-6.58644,-0.27497,-8.55482,3.40119,-28.2178,22.0246,-15.8062,-4.12321,-0.565534
1.18024,17.5965,12.168,-175.073,1.07522,177.223,2.06588,-0.401279,-6.42918,0.264218,-0.663816,0.894845,-0.803085,-0.308728,4.55252,-20.549,-2.48653,-7.56426,36.617,1.14066,2.7409,16.6928,0.754063,3.06466,1.2921e-15,1.5704e-14,-35.1703,-7.72556,-79.5637,34.2772,20.1717,-17.6885,4.12858,7.12502,8.57094,-25.6775,1.2921e-15,1.5704e-14,-31.2854,7.4959,85.0033,26.9165,-11.2235,-13.0758,25.587,7.12502,13.0202,55.1606,-29.7844,0.694706,15.4047,48.7244,-19.4472,-6.58272,-0.535078,-8.49223,3.44726,-28.1623,21.9199,-15.873,-4.14534,-1.12327
1.18767,17.5954,12.1509,-174.998,1.05331,177.234,2.16541,-0.403926,-6.42799,0.204427,-0.676516,0.882674,-0.919371,-0.309751,4.54104,-20.4891,-2.50988,-7.54994,36.6104,1.08339,2.77212,16.6781,0.738913,3.06396,6.48535e-15,1.39149e-15,-35.2277,-7.74162,-79.5747,34.2796,20.1603,-17.6959,4.0821,7.12502,8.56386,-25.7242,6.48535e-15,1.39149e-15,-31.3877,7.4679,84.9372,26.8703,-11.1592,-13.0795,25.6112,7.12502,13.0165,55.1851,-30.1115,0.547479,15.5146,48.1137,-19.2736,-6.51904,-0.572894,-8.4577,3.53765,-28.1192,21.7867,-15.9587,-4.17573,-1.76614
1.19218,17.6017,12.1315,-174.919,1.08502,177.254,2.26056,-0.385992,-6.4295,0.162582,-0.660764,0.906897,-1.01779,-0.297613,4.56807,-20.5351,-2.54987,-7.61656,36.6505,1.01869,2.8658,16.7142,0.715578,3.10766,8.19987e-16,8.54774e-15,-35.1933,-7.68858,-79.5268,34.2651,20.061,-17.7484,3.90485,7.12502,8.51316,-25.9035,8.19987e-16,8.54774e-15,-31.4448,7.52461,84.9359,26.8095,-11.1389,-13.152,25.7219,7.12502,12.9467,55.3002,-30.4828,0.475566,15.6111,47.471,-18.8459,-6.3553,0.285722,-8.38851,3.59328,-28.0794,21.6275,-16.0306,-4.20743,-2.12717
1.19741,17.6055,12.1113,-174.856,1.12709,177.239,2.37084,-0.363488,-6.53085,0.149823,-0.640997,0.979849,-1.09353,-0.284337,4.70217,-20.6061,-2.52615,-7.61134,36.5738,1.06584,2.78274,16.6892,0.717044,3.07411,5.64051e-15,1.09332e-14,-35.1536,-7.46839,-79.4445,34.3627,19.8619,-17.8879,3.73735,7.12502,8.37856,-26.0765,5.64051e-15,1.09332e-14,-31.4821,7.60684,85.0142,26.7951,-11.2214,-13.0466,25.8419,7.12502,13.0483,55.4138,-30.8187,0.50588,15.6487,46.7992,-18.2755,-6.08149,2.70507,-8.27409,3.49242,-28.0769,21.4208,-16.0741,-4.13093,-1.84955
1.20358,17.6063,12.0913,-174.817,1.11824,177.185,2.48906,-0.361158,-6.62794,0.146283,-0.648551,0.984247,-1.16152,-0.284955,4.76329,-20.5206,-2.42294,-7.38593,36.3007,1.16045,2.53921,16.5209,0.744493,2.92648,-1.46604e-15,5.56597e-15,-35.1756,-7.36886,-79.4589,34.5332,19.787,-18.0014,3.82457,7.12502,8.26897,-25.9936,-1.46604e-15,5.56597e-15,-31.532,7.58343,84.9995,26.8251,-11.2293,-12.9286,26.0798,7.12502,13.1621,55.6444,-31.087,0.51354,15.6402,46.107,-17.7785,-6.15583,4.3061,-8.12356,3.31792,-28.1203,21.1938,-16.0168,-3.95792,-1.72417
1.2099,17.6103,12.0691,-174.766,1.1417,177.146,2.51819,-0.379596,-6.68459,0.166471,-0.675811,0.95926,-1.15303,-0.298885,4.77033,-20.4558,-2.34798,-7.14371,36.1197,1.20774,2.34194,16.4097,0.763342,2.79413,4.96962e-15,7.35503e-15,-35.121,-7.34458,-79.5274,34.6228,19.8435,-18.0968,3.8779,7.12502,8.17694,-25.9439,4.96962e-15,7.35503e-15,-31.5448,7.62294,84.8822,26.7719,-11.2999,-12.8488,26.0946,7.12502,13.239,55.6542,-31.3708,0.472925,15.6563,45.4014,-17.3244,-6.40784,4.32328,-8.02176,3.22815,-28.1442,21.0458,-15.9769,-3.85935,-1.48281
1.21658,17.6095,12.0445,-174.691,1.2849,177.038,2.48588,-0.357722,-6.82609,0.206151,-0.646314,0.941631,-1.09632,-0.2862,4.83042,-20.544,-2.38242,-7.24456,36.1121,1.13144,2.47769,16.4302,0.731202,2.85631,5.71506e-16,-6.95746e-15,-34.9583,-7.40832,-79.5168,34.623,19.8994,-18.0959,3.73403,7.12502,8.17774,-26.0877,5.71506e-16,-6.95746e-15,-31.5912,7.66918,84.8389,26.7927,-11.253,-12.9289,26.0681,7.12502,13.1618,55.6327,-31.6768,0.536094,15.5803,44.6795,-17.2836,-6.37288,3.65306,-7.97137,3.26243,-28.2671,20.9631,-16.0718,-3.7382,-1.82573
1.22177,17.6027,12.0186,-174.588,1.36968,177.01,2.4394,-0.337785,-6.82778,0.239209,-0.61499,0.926244,-1.04031,-0.273281,4.81363,-20.7299,-2.4829,-7.53274,36.2079,0.947961,2.87508,16.533,0.666767,3.05355,5.44173e-15,2.18663e-15,-34.8306,-7.37368,-79.531,34.7004,19.7343,-17.9835,3.60017,7.12502,8.28628,-26.2173,5.44173e-15,2.18663e-15,-31.5486,7.63494,84.8107,26.7648,-11.159,-12.8712,26.1418,7.12502,13.2174,55.7028,-31.9709,0.523518,15.6169,43.9327,-18.1453,-5.97733,-0.0651364,-7.93419,3.27427,-28.303,20.8811,-16.1597,-3.64582,-2.20901
1.2271,17.5995,11.992,-174.537,1.36909,177.088,2.49307,-0.323576,-6.68421,0.263057,-0.595131,0.922036,-1.04991,-0.264168,4.72782,-20.8534,-2.57133,-7.71495,36.2283,0.759449,3.18129,16.5845,0.602058,3.18655,-5.8393e-15,1.94809e-14,-34.766,-7.48674,-79.5251,34.8461,19.7243,-17.7604,3.6884,7.12502,8.50159,-26.1205,-5.8393e-15,1.94809e-14,-31.5121,7.52341,84.8031,26.7474,-11.1605,-12.7916,26.4064,7.12502,13.294,55.9624,-32.216,0.413743,15.7836,43.1732,-17.7056,-6.17573,-1.03057,-7.84787,3.28828,-28.2066,20.7951,-16.2226,-3.62286,-2.40191
1.23634,17.6039,11.9677,-174.485,1.33351,177.106,2.61151,-0.314022,-6.66791,0.24585,-0.590876,0.947844,-1.13469,-0.258677,4.74675,-20.8084,-2.6155,-7.82527,36.153,0.684651,3.26017,16.5404,0.565106,3.22089,-6.68413e-15,-2.78299e-15,-34.7606,-7.48067,-79.4796,35.01,19.6278,-17.7177,3.72816,7.12502,8.5428,-26.079,-6.68413e-15,-2.78299e-15,-31.5958,7.41418,84.8574,26.8159,-11.1523,-12.8218,26.4746,7.12502,13.265,56.0325,-32.4476,0.405137,15.8629,42.4199,-17.3325,-6.40149,-2.35513,-7.77076,3.2518,-28.1516,20.6955,-16.259,-3.5486,-2.68427
1.24657,17.6091,11.9435,-174.404,1.26898,177.086,2.6502,-0.327223,-6.71558,0.249064,-0.612263,0.949637,-1.14975,-0.268575,4.77669,-20.6314,-2.5992,-7.78678,35.9685,0.656689,3.23983,16.404,0.554747,3.18615,-1.06847e-14,-1.70955e-14,-34.7564,-7.45752,-79.4635,35.1743,19.4928,-17.8421,3.92279,7.12502,8.42269,-25.8893,-1.06847e-14,-1.70955e-14,-31.6423,7.29641,84.8496,26.8856,-11.0856,-12.8972,26.6044,7.12502,13.1923,56.167,-32.6468,0.425178,15.9087,41.6639,-16.9227,-6.54256,-3.23693,-7.68573,3.19263,-28.1216,20.5288,-16.2509,-3.55376,-2.63271
1.25411,17.6081,11.9163,-174.314,1.26533,177.048,2.67313,-0.326405,-6.71716,0.270108,-0.611895,0.910243,-1.14127,-0.268966,4.73659,-20.6507,-2.60379,-7.72857,35.8806,0.594507,3.25454,16.3671,0.533646,3.16444,7.23079e-15,-8.74653e-15,-34.6996,-7.3211,-79.5623,35.4351,19.1844,-17.8564,3.91225,7.12502,8.40891,-25.9004,7.23079e-15,-8.74653e-15,-31.6835,7.12594,84.8088,27.0075,-10.9826,-12.8243,26.8275,7.12502,13.2625,56.3855,-32.8786,0.48196,15.8979,40.911,-16.4619,-6.47158,-2.92521,-7.57238,3.14312,-28.1412,20.31,-16.2374,-3.47488,-2.76754
1.26149,17.6081,11.8886,-174.235,1.25814,177.012,2.78122,-0.328413,-6.72293,0.264784,-0.622501,0.898464,-1.20614,-0.271617,4.72915,-20.8422,-2.61024,-7.66548,35.9294,0.587407,3.20303,16.4389,0.525633,3.13323,-9.93923e-16,9.93923e-16,-34.6015,-7.22745,-79.6236,35.654,18.956,-17.7493,3.67292,7.12502,8.51227,-26.1355,-9.93923e-16,9.93923e-16,-31.6992,7.15174,84.7544,26.9746,-11.0466,-12.7906,26.5792,7.12502,13.295,56.1351,-33.1461,0.462516,15.8983,40.1464,-15.8742,-6.46624,-2.13203,-7.47604,3.09289,-28.154,20.1506,-16.2604,-3.47717,-2.58403
1.2687,17.6089,11.8587,-174.158,1.19866,177.008,2.87882,-0.344348,-6.70186,0.248072,-0.650602,0.919941,-1.27455,-0.282926,4.74187,-20.8459,-2.60068,-7.70431,35.8797,0.616885,3.17651,16.4128,0.52599,3.13071,-7.50412e-15,-2.78299e-15,-34.5684,-7.09784,-79.616,35.8618,18.804,-17.8235,3.74769,7.12502,8.44071,-26.0636,-7.50412e-15,-2.78299e-15,-31.6977,7.35134,84.6834,26.8823,-11.1822,-13.0491,26.1984,7.12502,13.0459,55.7704,-33.4022,0.357125,15.9541,39.3578,-15.2174,-6.48152,-1.3939,-7.42232,3.05742,-28.1236,20.0976,-16.3261,-3.5377,-2.42376
1.27633,17.6087,11.8331,-173.962,1.38303,177.059,2.79542,-0.289222,-6.6503,0.267515,-0.568949,0.937387,-1.21866,-0.244981,4.72693,-20.8672,-2.63134,-7.80201,35.7846,0.560837,3.23233,16.3738,0.490889,3.15512,1.98785e-16,-3.37934e-15,-34.4418,-7.03375,-79.6346,36.1363,18.6438,-18.035,3.85311,7.12502,8.23653,-25.9663,1.98785e-16,-3.37934e-15,-31.5796,7.40244,84.6442,26.8379,-11.1665,-13.311,25.9148,7.12502,12.7933,55.5028,-33.8198,0.560178,15.9912,38.5567,-14.6915,-6.4316,-0.816361,-7.53774,3.19248,-28.0774,20.0515,-16.3331,-3.48365,-2.25525
1.28224,17.6051,11.8102,-173.665,1.74007,177.136,2.60975,-0.209744,-6.54888,0.249013,-0.448431,0.960157,-1.14997,-0.187703,4.6875,-20.9531,-2.65424,-7.88415,35.7519,0.549545,3.22689,16.3797,0.467347,3.16268,1.30204e-14,1.76918e-14,-34.3086,-6.84007,-79.6594,36.4083,18.4138,-18.0819,3.84699,7.12502,8.19127,-25.9742,1.30204e-14,1.76918e-14,-31.4715,7.48093,84.5938,26.7842,-11.0675,-13.1988,25.8818,7.12502,12.9016,55.463,-34.377,0.874362,16.0329,37.8036,-14.181,-6.35213,-0.702556,-7.74782,3.34111,-28.0427,19.9355,-16.2958,-3.31492,-2.11399
1.28882,17.6045,11.7786,-173.592,1.85378,177.085,2.64312,-0.202481,-6.57156,0.191435,-0.444187,0.965359,-1.22869,-0.181506,4.70621,-20.7233,-2.64657,-7.95774,35.6901,0.583574,3.21595,16.2915,0.475884,3.17202,-3.32964e-15,1.07344e-14,-34.309,-6.6199,-79.6542,36.5348,18.3027,-18.1277,3.96943,7.12502,8.14707,-25.8535,-3.32964e-15,1.07344e-14,-31.6191,7.61892,84.5092,26.81,-10.979,-12.9539,26.12,7.12502,13.1376,55.6861,-34.5954,1.02141,15.9642,37.0926,-13.9394,-6.3448,-0.837154,-7.64208,3.26915,-28.097,19.8189,-16.3362,-3.13627,-2.08617
1.29868,17.6074,11.7428,-173.597,1.74405,176.921,2.78746,-0.254641,-6.70303,0.132554,-0.530122,0.929315,-1.35876,-0.21751,4.74773,-20.38,-2.59746,-7.96416,35.5496,0.632092,3.21519,16.1341,0.503391,3.17136,2.93207e-15,1.19271e-15,-34.4395,-6.46706,-79.6904,36.8473,18.1713,-18.0762,3.88726,7.12502,8.19679,-25.9337,2.93207e-15,1.19271e-15,-31.8623,7.78479,84.3786,26.9047,-11.1143,-12.7572,26.3914,7.12502,13.3273,55.9452,-34.6602,1.10914,15.7666,36.4169,-13.9826,-6.35621,-0.87621,-7.40612,3.14131,-28.2191,19.6459,-16.3931,-3.13749,-2.15505
1.31074,17.6102,11.7097,-173.537,1.63325,177.013,2.88091,-0.280446,-6.59851,0.126864,-0.567795,0.975475,-1.41269,-0.235009,4.73915,-20.2525,-2.59645,-8.07142,35.4238,0.616686,3.2907,16.0415,0.492707,3.21138,6.60959e-15,-1.98785e-15,-34.4863,-6.20067,-79.7409,37.2889,17.8002,-18.0734,3.75429,7.12502,8.19954,-26.0666,6.60959e-15,-1.98785e-15,-31.9627,7.82032,84.3411,26.9775,-11.249,-12.8177,26.2676,7.12502,13.2689,55.8253,-34.7948,1.26388,15.8561,35.7556,-13.9248,-6.48546,-0.209876,-7.18472,2.98941,-28.0564,19.3399,-16.3318,-3.1248,-1.67562
1.32315,17.6162,11.6721,-173.516,1.52381,177.126,2.92511,-0.323972,-6.47657,0.205571,-0.620941,1.05319,-1.34941,-0.266231,4.75314,-20.3538,-2.59765,-8.24726,35.3953,0.639679,3.38451,16.0499,0.48558,3.28597,9.79014e-15,1.19271e-14,-34.2779,-5.78246,-79.8101,37.5567,17.3497,-18.4019,3.57048,7.12502,7.88243,-26.2626,9.79014e-15,1.19271e-14,-31.8867,8.02385,84.3029,26.9521,-11.2975,-12.9227,25.9653,7.12502,13.1677,55.5295,-34.8605,1.44932,15.9471,35.115,-13.7851,-6.74125,0.746768,-6.88176,2.78094,-27.8709,18.9898,-16.2424,-3.04733,-1.45573
1.33715,17.6224,11.6346,-173.484,1.41973,177.095,3.02747,-0.340977,-6.5207,0.268789,-0.64881,1.05923,-1.33719,-0.281374,4.7862,-20.5709,-2.61209,-8.18835,35.4698,0.631581,3.3329,16.14,0.476552,3.25746,-9.83984e-15,-6.36111e-15,-34.019,-5.55105,-79.8752,37.7596,16.8952,-18.312,3.83417,7.12502,7.96924,-25.9956,-9.83984e-15,-6.36111e-15,-31.7657,8.08078,84.2534,26.9218,-11.2997,-12.888,25.9411,7.12502,13.2012,55.5031,-34.9652,1.67751,15.8472,34.5135,-13.7,-6.96831,0.811262,-6.54575,2.47528,-27.8102,18.6383,-16.1522,-3.03779,-0.357476
1.34877,17.6251,11.5989,-173.356,1.34328,177.026,3.06085,-0.353068,-6.56654,0.288334,-0.667859,1.03309,-1.33296,-0.291039,4.78586,-20.7352,-2.61741,-8.12406,35.4656,0.60499,3.30606,16.1787,0.463134,3.22983,-3.37934e-15,7.95139e-16,-33.8195,-5.44646,-79.9306,37.9516,16.6818,-18.1001,4.3968,7.12502,8.17375,-25.4251,-3.37934e-15,7.95139e-16,-31.7029,8.10059,84.1642,26.9557,-11.29,-12.9226,25.7879,7.12502,13.1678,55.3521,-35.2006,1.79227,15.7389,33.9757,-13.4734,-7.09946,0.748654,-6.2347,2.14496,-27.777,18.2289,-16.0996,-3.16116,2.01745
1.36133,17.6283,11.5609,-173.298,1.24531,176.928,3.11282,-0.370286,-6.62922,0.314653,-0.695097,1.02098,-1.33067,-0.304728,4.81019,-20.6494,-2.64689,-8.22542,35.3171,0.54647,3.35043,16.0886,0.427931,3.24556,-5.46658e-16,-2.78299e-15,-33.6653,-5.37089,-79.9079,38.0787,16.6776,-18.244,4.90085,7.12502,8.03484,-24.9264,-5.46658e-16,-2.78299e-15,-31.6257,8.13105,84.1177,26.8918,-11.3065,-13.0094,25.4676,7.12502,13.0841,55.0372,-35.3682,1.81878,15.6397,33.5322,-13.2762,-7.09096,0.799894,-5.89926,1.88746,-27.7991,17.8267,-15.9957,-3.17892,2.99143
1.37348,17.6305,11.5173,-173.294,1.08689,176.792,3.15752,-0.405322,-6.72194,0.369911,-0.745098,1.01239,-1.29077,-0.331518,4.85576,-20.5775,-2.6643,-8.27046,35.2376,0.536813,3.31012,16.0337,0.411284,3.22843,4.96962e-15,9.54166e-15,-33.4824,-5.31443,-79.8655,38.2481,16.5129,-18.3537,4.93523,7.12502,7.92901,-24.8961,4.96962e-15,9.54166e-15,-31.5021,8.13949,84.1247,26.8674,-11.2603,-12.8957,25.6327,7.12502,13.1937,55.1952,-35.4528,1.80971,15.476,33.1217,-13.2313,-6.87665,2.01696,-5.5556,1.73488,-27.8829,17.4309,-15.8903,-3.21056,3.16239
1.38581,17.6319,11.4712,-173.28,0.950173,176.787,3.18496,-0.437942,-6.66588,0.408368,-0.786584,1.01466,-1.26148,-0.354271,4.82803,-20.4882,-2.66977,-8.17617,35.1716,0.529876,3.17478,15.9811,0.402291,3.14691,-9.93923e-16,-1.59028e-15,-33.3978,-5.22584,-79.8553,38.5567,16.3047,-18.2955,4.82473,7.12502,7.98514,-25.0044,-9.93923e-16,-1.59028e-15,-31.4429,8.19638,84.0875,26.9211,-11.1594,-12.6992,26.0667,7.12502,13.3831,55.6169,-35.5429,1.89245,15.4465,32.7568,-13.1052,-6.90205,3.23959,-5.24831,1.73569,-27.8321,17.0441,-15.848,-3.28501,2.85943
1.40213,17.6413,11.4262,-173.233,0.920408,176.845,3.25956,-0.439864,-6.61644,0.385406,-0.793387,1.05404,-1.32637,-0.355152,4.84267,-20.2905,-2.67968,-8.11295,35.006,0.506581,3.03157,15.8552,0.381069,3.0581,-1.78906e-15,-7.95139e-16,-33.3455,-5.03547,-79.8495,38.8021,16.1625,-18.3886,5.07565,7.12502,7.89531,-24.7569,-1.78906e-15,-7.95139e-16,-31.4438,8.37984,84.0113,26.8357,-11.3251,-12.7527,25.9918,7.12502,13.3316,55.5454,-35.6632,1.96866,15.5546,32.4103,-12.7494,-7.22186,2.30082,-4.9933,1.81022,-27.725,16.6829,-15.7999,-3.24457,2.00029
1.4179,17.6393,11.38,-173.155,0.821053,176.82,3.33462,-0.456903,-6.6239,0.347789,-0.82294,1.08679,-1.403,-0.366349,4.88371,-20.1456,-2.67296,-8.11469,34.882,0.526345,2.94052,15.7598,0.37703,3.01487,3.62782e-15,2.38542e-14,-33.2714,-4.76915,-79.8199,39.0063,15.9213,-18.5849,5.63325,7.12502,7.70583,-24.2063,3.62782e-15,2.38542e-14,-31.4332,8.57084,83.9583,26.6118,-11.6332,-13.0031,25.454,7.12502,13.0902,55.0232,-35.804,1.91057,15.586,32.0957,-12.3854,-7.46026,1.91864,-4.75711,1.81239,-27.6945,16.3712,-15.7994,-3.25816,1.53105
1.4336,17.6363,11.3312,-173.081,0.636865,176.699,3.40686,-0.485547,-6.72812,0.328561,-0.870614,1.08255,-1.45564,-0.387083,4.94156,-20.1166,-2.66199,-8.03511,34.8352,0.544245,2.83735,15.7292,0.380456,2.95719,6.60959e-15,-7.55382e-15,-33.258,-4.50397,-79.8139,39.4324,15.6094,-18.8407,5.81548,7.12502,7.45891,-24.033,6.60959e-15,-7.55382e-15,-31.4924,8.53419,83.9688,26.6777,-11.4675,-13.2989,25.2268,7.12502,12.8051,54.8141,-35.9409,1.88967,15.466,31.8231,-12.1571,-7.70679,2.51825,-4.46719,1.60975,-27.7537,16.0139,-15.7681,-3.21546,1.25114
1.45102,17.6365,11.2822,-173.103,0.516256,176.738,3.48572,-0.484708,-6.68687,0.431591,-0.867689,1.1155,-1.3935,-0.389889,4.95271,-20.159,-2.7166,-8.0326,34.7413,0.454121,2.79202,15.7004,0.330023,2.91477,2.18663e-15,9.93923e-15,-32.9922,-4.28698,-79.8248,39.7845,15.322,-19.3105,5.5194,7.12502,7.00542,-24.3447,2.18663e-15,9.93923e-15,-31.3751,8.55804,83.9875,26.8092,-11.2947,-13.1961,25.2868,7.12502,12.9042,54.8679,-35.9802,2.02222,15.5044,31.6232,-12.1685,-7.96185,2.43427,-4.08022,1.39376,-27.6271,15.6583,-15.7467,-3.17522,1.32144
1.46846,17.635,11.2304,-173.132,0.350047,176.782,3.55586,-0.510341,-6.64938,0.5476,-0.898343,1.17481,-1.30797,-0.410408,4.99468,-20.2496,-2.77902,-8.0685,34.6943,0.375182,2.75481,15.7056,0.280061,2.88737,3.47873e-16,-5.96354e-15,-32.5709,-4.14797,-79.7769,39.8746,15.1753,-19.4308,5.05729,7.12502,6.88933,-24.8106,3.47873e-16,-5.96354e-15,-31.219,8.48191,84.0576,26.8271,-11.2811,-13.1616,25.3228,7.12502,12.9374,54.9018,-35.9849,2.17856,15.5243,31.4824,-12.481,-8.25367,1.27133,-3.66446,1.3068,-27.4822,15.2822,-15.7336,-3.2251,1.00504
1.48555,17.6302,11.1777,-173.069,0.148278,176.633,3.61927,-0.518592,-6.77201,0.569201,-0.955475,1.18627,-1.31302,-0.454707,5.07983,-20.3667,-2.7939,-8.152,34.7428,0.389399,2.78278,15.7568,0.276756,2.91981,1.33186e-14,4.37326e-15,-32.365,-3.95442,-79.6748,40.077,14.9982,-19.332,4.7345,7.12502,6.9847,-25.1303,1.33186e-14,4.37326e-15,-31.2149,8.2528,84.1767,26.9233,-11.1156,-13.2306,25.425,7.12502,12.8709,55.0081,-36.0685,2.30906,15.3069,31.3636,-12.8837,-8.49345,0.265381,-3.35591,1.21228,-27.537,14.9386,-15.7187,-3.39688,1.27674
1.50475,17.6275,11.1245,-173.047,-0.0376135,176.541,3.69571,-0.550197,-6.82561,0.588691,-1.00572,1.18762,-1.32787,-0.480043,5.11491,-20.3658,-2.78472,-8.13919,34.7402,0.408493,2.76367,15.754,0.284325,2.91297,9.44227e-16,8.34896e-15,-32.2568,-3.66187,-79.6537,40.41,14.6875,-19.2768,4.54023,7.12502,7.038,-25.3228,9.44227e-16,8.34896e-15,-31.1704,8.27601,84.1756,26.9657,-11.0066,-13.0501,25.7256,7.12502,13.0449,55.2977,-36.0861,2.53496,15.1508,31.2571,-12.8727,-8.81233,1.13868,-3.0505,1.29982,-27.517,14.673,-15.7842,-3.64214,1.09159
1.51892,17.6296,11.073,-172.961,-0.0491322,176.706,3.68819,-0.552901,-6.60591,0.610588,-0.998567,1.24997,-1.30462,-0.478806,5.05485,-20.3258,-2.7848,-8.05195,34.6306,0.39725,2.63597,15.6922,0.26955,2.83423,-1.00386e-14,3.18055e-15,-32.0077,-3.24765,-79.6821,40.7009,14.2171,-18.9648,3.84339,7.12502,7.3391,-26.0093,-1.00386e-14,3.18055e-15,-31.1606,8.4815,84.1276,27.043,-10.9776,-12.8984,25.7835,7.12502,13.1911,55.3462,-36.1781,2.76899,15.3094,31.1682,-12.3684,-8.99654,3.31006,-2.85662,1.1224,-27.2871,14.4764,-15.8805,-3.46245,0.719487
1.52529,17.6248,11.0277,-172.654,0.111527,176.852,3.62057,-0.500351,-6.34688,0.502594,-0.911801,1.31935,-1.39316,-0.428872,4.97672,-20.2786,-2.82293,-8.1973,34.5737,0.355552,2.70794,15.6576,0.242239,2.87931,4.57205e-15,-1.47101e-14,-31.7078,-2.90191,-79.5939,40.8268,13.8463,-18.7477,4.05283,7.12502,7.54865,-25.7925,4.57205e-15,-1.47101e-14,-31.2677,8.58066,84.1839,27.1383,-11.0262,-12.9322,25.3204,7.12502,13.1585,54.8851,-36.5939,2.78246,15.5118,31.0825,-11.8541,-8.79011,4.87094,-2.95418,0.902281,-27.1617,14.34,-15.9454,-3.07499,0.857907
1.53611,17.6154,10.9798,-172.406,0.19489,176.805,3.62547,-0.454312,-6.30638,0.423826,-0.84875,1.34085,-1.48604,-0.391323,4.97432,-20.3448,-2.85599,-8.29239,34.6047,0.332654,2.75795,15.6908,0.225925,2.91497,8.34896e-15,-7.95139e-16,-31.4112,-2.70332,-79.4811,40.954,13.7465,-18.805,5.54583,7.12502,7.49335,-24.3014,8.34896e-15,-7.95139e-16,-31.299,8.70335,84.238,27.1786,-11.1015,-13.0478,25.1016,7.12502,13.0471,54.6735,-36.9316,2.70805,15.5306,30.9744,-11.5641,-8.53015,5.08463,-2.98953,0.72675,-27.2116,14.2593,-16.0113,-2.84741,0.859918
1.55151,17.6107,10.9244,-172.345,0.144462,176.807,3.68388,-0.438463,-6.22363,0.473541,-0.828138,1.35664,-1.47106,-0.383929,4.9434,-20.4467,-2.87942,-8.2668,34.5817,0.296642,2.72068,15.7062,0.203765,2.88648,-1.98785e-15,1.03368e-14,-31.0721,-2.52689,-79.4392,41.1884,13.6331,-18.9181,6.57404,7.12502,7.38421,-23.2771,-1.98785e-15,1.03368e-14,-31.2522,8.67662,84.2861,27.2963,-10.9482,-13.104,25.1036,7.12502,12.9929,54.679,-36.9927,2.62501,15.6281,30.8884,-11.2907,-8.2214,4.5208,-2.79172,0.502677,-27.1642,14.1749,-16.0686,-2.65915,1.00222
1.56967,17.6056,10.8671,-172.283,0.0697174,176.806,3.72999,-0.440022,-6.18835,0.49665,-0.831648,1.38148,-1.47271,-0.386743,4.95,-20.4021,-2.8618,-8.14578,34.4625,0.314719,2.55325,15.6366,0.200772,2.79033,2.98177e-15,-1.59028e-15,-30.7548,-2.24664,-79.4209,41.4606,13.3959,-18.8706,6.78821,7.12502,7.43009,-23.0613,2.98177e-15,-1.59028e-15,-31.2721,8.55431,84.3414,27.4509,-10.7464,-13.0359,25.0357,7.12502,13.0586,54.6069,-37.0777,2.75818,15.6567,30.8668,-11.0126,-8.04484,3.95738,-2.55987,0.294581,-27.0998,13.9944,-16.0842,-2.59039,1.30181
1.58975,17.6027,10.806,-172.129,0.00821765,176.863,3.69844,-0.422759,-6.1444,0.461916,-0.803557,1.44835,-1.49424,-0.370737,4.99352,-20.3043,-2.88318,-8.05394,34.3795,0.304697,2.36308,15.5757,0.182697,2.68662,6.36111e-15,-7.95139e-16,-30.4781,-1.85752,-79.3505,41.7737,12.9838,-18.7881,6.66547,7.12502,7.50967,-23.1812,6.36111e-15,-7.95139e-16,-31.3779,8.42385,84.4253,27.5976,-10.5449,-13.1453,24.5992,7.12502,12.9531,54.1771,-37.2088,2.94276,15.7286,30.8948,-10.7448,-7.95101,3.55349,-2.44218,0.211616,-26.9634,13.8269,-16.0704,-2.65405,1.4358
1.60579,17.5982,10.7399,-172.031,0.0203878,176.95,3.67414,-0.40454,-6.0476,0.413651,-0.772123,1.56296,-1.53436,-0.352332,5.05706,-20.1499,-2.92643,-8.05452,34.2987,0.325556,2.10666,15.5037,0.15828,2.577,7.95139e-16,-2.10712e-14,-30.2588,-1.33808,-79.2125,42.0117,12.7551,-18.9665,6.51159,7.12502,7.33746,-23.3412,7.95139e-16,-2.10712e-14,-31.6026,8.55868,84.5178,27.7671,-10.5281,-13.3362,24.5146,7.12502,12.7691,54.1041,-37.2337,3.00398,15.8865,30.9699,-10.381,-7.72261,3.00998,-2.27408,-0.0693829,-26.8528,13.7581,-16.2745,-2.31353,0.881004
1.62205,17.584,10.672,-172.009,0.0132565,176.932,3.67398,-0.391015,-6.03811,0.442416,-0.753097,1.62492,-1.50633,-0.344901,5.11537,-20.0987,-2.9547,-8.14506,34.1853,0.29295,2.10393,15.4408,0.129669,2.57979,-4.47266e-15,2.22639e-14,-30.0058,-0.891683,-79.1104,42.3017,12.598,-19.2356,6.53419,7.12502,7.07772,-23.3275,-4.47266e-15,2.22639e-14,-31.6263,8.70674,84.5848,27.8064,-10.4877,-13.4657,24.5346,7.12502,12.6443,54.1319,-37.1984,3.06043,15.957,31.1115,-9.9456,-7.33964,2.28345,-2.02919,-0.353364,-26.8431,13.7696,-16.4985,-1.99347,0.591615
1.64287,17.5706,10.6093,-172.003,-0.176086,176.831,3.75694,-0.389058,-6.10149,0.540646,-0.758876,1.63491,-1.44955,-0.353242,5.16244,-20.2361,-2.9959,-8.16665,34.0865,0.181072,2.18931,15.4314,0.0821281,2.59389,6.16232e-15,-5.1684e-15,-29.6158,-0.612374,-79.0446,42.6412,12.2211,-19.5261,6.64681,7.12502,6.79726,-23.2241,6.16232e-15,-5.1684e-15,-31.4703,8.62548,84.6711,27.8613,-10.4099,-13.5118,24.275,7.12502,12.5998,53.875,-37.1108,3.03393,15.9624,31.2944,-9.46594,-6.84136,0.594166,-1.8422,-0.568732,-26.8575,13.8558,-16.7016,-1.91784,0.393247
1.66533,17.5666,10.5455,-171.895,-0.340561,176.823,3.73121,-0.398833,-6.15329,0.598646,-0.77166,1.73866,-1.37126,-0.3644,5.30024,-20.4149,-3.02999,-8.25338,34.0745,0.144529,2.23522,15.4703,0.0545285,2.62087,1.19271e-14,1.59028e-15,-29.1503,-0.237815,-78.8887,42.9211,11.8267,-19.5667,6.56428,7.12502,6.75811,-23.3079,1.19271e-14,1.59028e-15,-31.406,8.52843,84.8456,28.0156,-10.2117,-13.327,24.5023,7.12502,12.778,54.0913,-37.0814,3.11429,16.0058,31.5339,-9.18516,-6.46464,0.0833047,-1.79823,-0.77546,-26.7714,13.9497,-16.8949,-1.80211,-0.158797
1.68954,17.5616,10.4799,-171.821,-0.504996,176.846,3.7643,-0.410206,-6.12892,0.623235,-0.787762,1.82061,-1.36137,-0.374171,5.37328,-20.5095,-3.08011,-8.29391,34.0624,0.0857521,2.22844,15.4913,0.0192867,2.61316,-1.2921e-15,1.03368e-14,-28.787,0.159481,-78.7492,43.2569,11.5596,-19.554,6.64945,7.12502,6.7704,-23.2223,-1.2921e-15,1.03368e-14,-31.4156,8.48277,84.9497,28.1181,-10.1052,-13.1921,24.7524,7.12502,12.908,54.3332,-37.0264,3.28085,16.05,31.8545,-9.04913,-6.21542,1.29713,-1.67354,-1.08359,-26.6478,13.9798,-16.9905,-1.62665,-0.554147
1.71103,17.5511,10.415,-171.816,-0.769991,176.746,3.96497,-0.456713,-6.00489,0.584927,-0.858408,1.74308,-1.50689,-0.40397,5.22831,-20.4047,-3.09984,-8.19863,34.0718,0.00111795,2.27893,15.4753,0.00798205,2.60296,5.1684e-15,1.27222e-14,-28.5517,0.35028,-78.7465,43.6454,11.7595,-19.4246,6.55884,7.12502,6.89527,-23.3089,5.1684e-15,1.27222e-14,-31.5593,8.36208,84.8675,28.2858,-10.1725,-13.1135,24.658,7.12502,12.9838,54.234,-36.9234,3.21811,16.0268,32.2487,-8.83046,-6.01685,2.11647,-1.40056,-1.45022,-26.6609,13.9035,-17.0323,-1.43455,-1.4266
1.72722,17.5402,10.3481,-171.78,-0.94816,176.7,4.07957,-0.442822,-5.81512,0.54617,-0.839394,1.69211,-1.61737,-0.390602,5.06838,-20.2748,-3.1533,-8.23466,34.1566,-0.123413,2.48729,15.4936,-0.0101994,2.67946,3.47873e-15,2.94201e-14,-28.2912,0.490776,-78.641,44.0868,12.0971,-19.1575,5.91659,7.12502,7.15314,-23.9425,3.47873e-15,2.94201e-14,-31.6463,8.06043,84.9073,28.4638,-10.083,-12.8791,24.9963,7.12502,13.2097,54.5577,-36.8932,3.02755,16.1156,32.6501,-8.60195,-5.87409,3.18703,-1.10137,-1.73455,-26.6498,13.7335,-17.0657,-1.215,-1.72583
1.7478,17.5334,10.2797,-171.722,-1.08205,176.671,4.12977,-0.450295,-5.74626,0.529348,-0.849286,1.70457,-1.66245,-0.39402,5.04379,-20.2159,-3.19353,-8.35215,34.2234,-0.189348,2.6657,15.5176,-0.0226553,2.76739,1.88845e-15,-1.51076e-14,-28.0164,0.88547,-78.5461,44.584,12.1109,-19.0996,5.46997,7.12502,7.20901,-24.3872,1.88845e-15,-1.51076e-14,-31.6568,7.97369,84.9443,28.5076,-9.77269,-13.0626,24.8616,7.12502,13.0328,54.4344,-36.9178,2.97325,16.1945,33.0366,-8.66746,-5.98773,4.89594,-0.780424,-2.15763,-26.6243,13.4891,-17.0726,-0.887023,-1.83188
1.77186,17.5333,10.2075,-171.643,-1.21455,176.797,4.14117,-0.447594,-5.53784,0.515023,-0.83663,1.76894,-1.68734,-0.387968,4.99235,-20.2077,-3.24232,-8.50814,34.2763,-0.258226,2.8489,15.5479,-0.0431873,2.86298,-1.31198e-14,-2.06736e-14,-27.6924,1.28445,-78.4375,44.9446,11.8946,-19.2274,5.65916,7.12502,7.08562,-24.2022,-1.31198e-14,-2.06736e-14,-31.6265,7.90843,84.9721,28.4886,-9.59941,-13.3895,24.4082,7.12502,12.7177,54.0009,-36.9236,3.01979,16.4245,33.3669,-8.98965,-6.35894,5.61378,-0.520586,-2.69851,-26.4212,13.3207,-17.109,-0.468872,-2.01513
1.7955,17.5367,10.1342,-171.59,-1.36168,177.053,4.19001,-0.418494,-5.20063,0.514953,-0.785311,1.8962,-1.72413,-0.364181,4.93188,-20.2364,-3.32558,-8.58998,34.2729,-0.356824,2.86632,15.5624,-0.0937584,2.86599,-2.98177e-15,1.98785e-14,-27.309,1.68419,-78.2456,45.3182,11.5286,-19.3011,5.55732,7.12502,7.01452,-24.3065,-2.98177e-15,1.98785e-14,-31.5761,7.81111,85.0807,28.4819,-9.72532,-13.4436,24.3082,7.12502,12.6655,53.9042,-36.9196,2.95977,16.8347,33.6952,-9.17584,-6.96006,4.98768,-0.298084,-3.0999,-26.0609,13.2782,-17.165,-0.213509,-2.01775
1.81722,17.5383,10.0656,-171.523,-1.53097,177.279,4.32565,-0.396725,-4.90133,0.442182,-0.748911,2.03361,-1.88197,-0.342091,4.90633,-20.1311,-3.42562,-8.70335,34.3186,-0.453386,2.87859,15.5707,-0.141086,2.87549,9.0447e-15,-2.78299e-14,-27.0034,2.12622,-78.0175,45.6927,11.1861,-19.4541,5.31994,7.12502,6.86684,-24.5487,9.0447e-15,-2.78299e-14,-31.6077,7.85933,85.1563,28.399,-9.94092,-13.3915,24.5322,7.12502,12.7158,54.125,-36.9397,2.65625,17.2735,34.0302,-9.06892,-7.22649,4.73266,-0.171075,-3.50521,-25.7429,13.373,-17.2042,0.0739268,-2.31974
1.83721,17.5319,9.99859,-171.419,-1.64948,177.384,4.38199,-0.389841,-4.6458,0.414251,-0.730621,2.08681,-1.94713,-0.332919,4.81677,-20.0065,-3.45379,-8.74881,34.26,-0.485337,2.87154,15.5171,-0.158637,2.87162,-8.94531e-16,1.59028e-15,-26.4773,2.44965,-77.8688,45.9154,10.9845,-19.6883,5.38158,7.12502,6.64073,-24.4943,-8.94531e-16,1.59028e-15,-31.5134,7.9607,85.1396,28.2581,-10.0199,-13.5077,24.4601,7.12502,12.6038,54.0599,-37.0078,2.28971,17.5911,34.4466,-8.8089,-6.89738,6.70935,-0.0921928,-3.6721,-25.5806,13.4432,-17.202,0.393598,-3.72141
1.85792,17.5273,9.92983,-171.333,-1.76596,177.424,4.38213,-0.365741,-4.40613,0.445239,-0.688361,2.07326,-1.9231,-0.315734,4.66364,-20.0289,-3.47913,-8.66744,34.2591,-0.544358,2.85188,15.525,-0.1756,2.8381,-1.37161e-14,8.74653e-15,-25.8854,2.69301,-77.774,46.1472,10.6329,-19.9909,5.57435,7.12502,6.34862,-24.3105,-1.37161e-14,8.74653e-15,-31.4281,7.93189,85.1079,28.3157,-9.99484,-13.4101,24.4422,7.12502,12.6979,54.0362,-37.0961,2.06016,17.7979,34.9945,-8.68815,-6.44293,9.00578,0.0885449,-3.90507,-25.5009,13.3207,-16.9467,0.782507,-5.35518
1.88055,17.5157,9.85817,-171.386,-1.84905,177.397,4.50568,-0.337666,-4.34942,0.483547,-0.654728,2.12349,-1.95673,-0.300434,4.68339,-20.0029,-0.887548,-9.59982,34.1515,-1.63515,3.92461,15.4652,-2.21063,2.80905,4.96962e-15,-2.14687e-14,-25.4583,3.1093,-77.5943,46.5529,10.2719,-20.2218,5.6822,7.12502,6.12566,-24.2092,4.96962e-15,-2.14687e-14,-31.3786,8.04498,85.1563,28.3542,-9.97078,-13.4417,24.614,7.12502,12.6674,54.2099,-37.1043,1.85165,17.9437,35.5626,-8.5985,-6.11699,10.0432,0.4763,-4.41769,-25.5029,13.1981,-16.6424,1.22024,-6.96894
1.90732,17.489,9.78539,-171.552,-1.87904,177.32,4.78492,-0.277719,-4.45358,0.517746,-0.593019,2.19404,-2.08329,-0.267399,4.81638,-19.9868,-0.923274,-9.71765,34.2737,-1.68341,3.93487,15.5266,-2.25804,2.82503,-7.7526e-15,-2.22639e-14,-25.1182,3.54143,-77.3717,47.0553,10.1101,-20.6052,5.51914,7.12502,5.75555,-24.3827,-7.7526e-15,-2.22639e-14,-31.3252,8.29417,85.1781,28.2311,-10.0888,-13.4024,24.5822,7.12502,12.7053,54.1757,-36.9763,1.6272,18.0838,36.0027,-8.54812,-5.93997,9.72651,0.856264,-4.75452,-25.5366,13.4128,-16.5027,1.48302,-9.4869
1.93474,17.489,9.71317,-171.611,-2.01552,177.374,4.92373,-0.222861,-4.34386,0.532463,-0.521062,2.24282,-2.15484,-0.231806,4.8022,-19.9927,-0.971337,-9.71235,34.4349,-1.76584,3.85154,15.6135,-2.31897,2.77315,5.96354e-16,0,-24.696,3.88996,-77.1866,47.4799,9.83672,-21.3869,5.26625,7.12502,5.00074,-24.6547,5.96354e-16,0,-31.2365,8.41935,85.178,28.1545,-10.2014,-13.3329,24.6318,7.12502,12.7723,54.2212,-36.7924,1.48344,18.305,36.2949,-8.74257,-5.87641,9.74017,0.963227,-4.99953,-25.4086,13.8534,-16.4166,1.76469,-12.7633
1.96083,17.5133,9.64024,-171.574,-2.23312,177.441,4.95131,-0.206633,-4.13394,0.538594,-0.49036,2.26622,-2.16904,-0.218782,4.70553,-19.9253,-1.01869,-9.70772,34.4966,-1.86281,3.83216,15.6367,-2.36923,2.74546,8.54774e-15,-1.11319e-14,-24.1834,4.25448,-77.0383,47.8325,9.50484,-22.0939,5.05615,7.12502,4.31813,-24.8798,8.54774e-15,-1.11319e-14,-31.143,8.35695,85.193,28.1832,-10.1911,-13.2606,24.6572,7.12502,12.842,54.2422,-36.5655,1.261,18.5325,36.4472,-8.98022,-5.74603,10.3255,0.753368,-5.1782,-25.2522,14.6081,-16.3538,1.9651,-15.2205
1.98766,17.5312,9.56718,-171.56,-2.47189,177.292,5.07732,-0.216065,-4.17337,0.497139,-0.509031,2.27489,-2.28004,-0.223671,4.74032,-19.672,-1.05108,-9.68034,34.4697,-1.91338,3.65954,15.5681,-2.41939,2.65433,-7.15625e-15,-2.22639e-14,-23.7595,4.71662,-76.8248,48.2416,9.27869,-22.3771,5.14913,7.12502,4.04458,-24.7922,-7.15625e-15,-2.22639e-14,-31.115,8.39868,85.1986,28.1826,-10.2791,-13.071,24.6201,7.12502,13.0248,54.1935,-36.2717,0.90387,18.5552,36.4544,-9.01104,-5.53249,10.7845,0.356113,-5.42381,-25.3064,15.7896,-16.4406,2.00511,-16.438
2.01438,17.5411,9.49829,-171.466,-2.75005,177.141,5.09353,-0.210581,-4.20235,0.462816,-0.50284,2.26621,-2.32513,-0.217785,4.74784,-19.4234,-1.08126,-9.62009,34.4851,-2.00118,3.54173,15.5238,-2.47586,2.57497,-1.55052e-14,-2.78299e-14,-23.3672,5.00894,-76.6009,48.7673,9.1687,-22.4192,5.61376,7.12502,4.00401,-24.3284,-1.55052e-14,-2.78299e-14,-31.0205,8.35513,85.2398,28.2134,-10.347,-12.9193,24.8595,7.12502,13.171,54.4235,-36.0632,0.556274,18.5632,36.4022,-9.01521,-5.31044,10.9205,-0.210419,-5.82675,-25.3351,17.1354,-16.5912,2.04296,-17.0426
2.04331,17.5543,9.42828,-171.394,-3.06444,177.065,5.07942,-0.243712,-4.18138,0.454279,-0.545087,2.29071,-2.32123,-0.239036,4.76431,-19.2797,-1.04438,-9.59431,34.6401,-2.00334,3.47632,15.5637,-2.5039,2.54074,3.97569e-16,-1.43125e-14,-22.8295,5.4071,-76.3925,49.1629,9.09471,-22.7046,5.94716,7.12502,3.72833,-24,3.97569e-16,-1.43125e-14,-30.8304,8.39655,85.2395,28.1079,-10.3718,-12.9916,24.92,7.12502,13.1013,54.4885,-35.8208,0.275563,18.6415,36.3848,-9.09461,-5.1926,11.5053,-0.666728,-6.09268,-25.2621,18.3464,-16.533,2.04341,-18.453
2.0728,17.573,9.35735,-171.375,-3.37286,177.023,5.16184,-0.260424,-4.13006,0.413801,-0.567086,2.34309,-2.40683,-0.247535,4.79304,-19.0055,-1.03292,-9.69796,34.7637,-2.04215,3.46383,15.5638,-2.5604,2.54389,-1.78906e-15,-2.22639e-14,-22.247,5.81069,-76.1497,49.4109,9.12969,-23.1659,5.97612,7.12502,3.28292,-23.9784,-1.78906e-15,-2.22639e-14,-30.6844,8.44175,85.2673,27.9901,-10.4253,-13.151,24.6248,7.12502,12.9477,54.2031,-35.5267,-0.0328613,18.7827,36.3609,-9.19765,-5.10656,11.6994,-1.0197,-6.25651,-25.1391,19.5253,-16.3972,1.88704,-19.4772
2.10283,17.5926,9.2865,-171.369,-3.60714,176.975,5.13816,-0.190935,-4.08007,0.444075,-0.471451,2.3628,-2.37333,-0.202313,4.77798,-18.7002,-1.09699,-9.72567,34.815,-2.18585,3.3807,15.5301,-2.6526,2.48453,1.15295e-14,-2.46493e-14,-21.6224,5.94358,-75.8624,49.7508,9.14282,-23.5213,5.8516,7.12502,2.93965,-24.1079,1.15295e-14,-2.46493e-14,-30.4258,8.29878,85.3889,27.9668,-10.4307,-13.2645,24.6132,7.12502,12.8382,54.1984,-35.2186,-0.250878,18.9026,36.2967,-9.31782,-5.04027,11.5871,-1.42743,-6.38779,-25.0352,20.7651,-16.2237,1.77314,-20.5338
2.13143,17.6114,9.2115,-171.356,-3.77813,176.891,4.98505,-0.125437,-4.0973,0.52277,-0.38077,2.38557,-2.21611,-0.163318,4.80287,-18.5466,-1.1302,-9.7383,34.9183,-2.2701,3.31732,15.5515,-2.71351,2.44304,9.93923e-15,7.15625e-15,-20.9208,6.20159,-75.5773,50.1644,8.92256,-23.9238,5.45552,7.12502,2.55094,-24.509,9.93923e-15,7.15625e-15,-30.1418,8.20604,85.5043,27.9925,-10.3979,-13.082,25.0165,7.12502,13.0142,54.5906,-34.8749,-0.362124,18.9491,36.2046,-9.45653,-4.9361,11.3279,-1.92338,-6.38658,-24.9633,22.0639,-15.9294,1.46119,-21.2047
2.1609,17.6284,9.14049,-171.381,-3.99753,176.754,5.05426,-0.109746,-4.17005,0.536698,-0.366648,2.41083,-2.24157,-0.155564,4.87052,-18.5897,-1.12112,-9.79913,35.1886,-2.257,3.22202,15.6927,-2.75512,2.41363,2.98177e-15,1.27222e-14,-20.3093,6.61074,-75.3103,50.674,8.53416,-24.1328,5.35128,7.12502,2.34912,-24.6155,2.98177e-15,1.27222e-14,-29.9962,8.25232,85.549,28.0932,-10.4409,-12.9389,25.1523,7.12502,13.1521,54.7175,-34.4646,-0.491008,18.932,36.0719,-9.55842,-4.77155,12.276,-2.46876,-6.50164,-24.9113,23.4862,-15.4872,1.04436,-21.7929
2.19081,17.6464,9.0689,-171.429,-4.19991,176.718,5.18458,-0.0554212,-4.05946,0.52064,-0.293189,2.39971,-2.34027,-0.117213,4.79241,-18.5466,-1.10561,-9.85504,35.4338,-2.26512,3.17266,15.8043,-2.79901,2.399,-6.36111e-15,3.33958e-14,-19.7793,6.7749,-75.0512,51.1883,8.33543,-24.1759,5.53332,7.12502,2.30752,-24.4339,-6.36111e-15,3.33958e-14,-29.9311,8.05503,85.576,28.3384,-10.3901,-12.9427,25.1899,7.12502,13.1485,54.7553,-34.0092,-0.553195,19.0054,35.8865,-9.67945,-4.65564,13.3208,-3.05295,-6.62015,-24.7562,25.0386,-14.9968,0.671185,-22.7649
2.22037,17.665,8.99804,-171.491,-4.42282,176.791,5.27667,0.00822474,-3.75972,0.523311,-0.195933,2.34704,-2.40115,-0.0706555,4.56067,-18.3706,-1.09756,-9.85924,35.5773,-2.34432,3.21861,15.84,-2.84583,2.40393,-5.96354e-15,-2.62396e-14,-19.211,6.80301,-74.8901,51.673,8.47248,-24.579,5.41238,7.12502,1.91813,-24.5587,-5.96354e-15,-2.62396e-14,-29.842,7.73005,85.5366,28.6764,-10.3054,-12.764,25.3937,7.12502,13.3207,54.948,-33.5173,-0.553868,19.1907,35.668,-9.88225,-4.66475,13.6852,-3.7186,-6.55483,-24.4638,26.7323,-14.4139,0.0207179,-23.17
2.24606,17.6856,8.92984,-171.521,-4.71529,176.854,5.39859,-0.0181556,-3.38764,0.514594,-0.215051,2.2853,-2.47783,-0.0826655,4.2872,-18.4549,-1.06412,-9.78509,35.8574,-2.34145,3.13966,15.9967,-2.87003,2.35569,2.5842e-15,7.95139e-15,-18.5357,7.03512,-74.8238,52.1916,8.47262,-25.4761,4.94806,7.12502,1.05174,-25.0291,2.5842e-15,7.95139e-15,-29.7864,7.74682,85.3977,29.0402,-10.3884,-12.5827,25.3755,7.12502,13.4955,54.9183,-33.0491,-0.633115,19.3592,35.4153,-10.0833,-4.71284,13.4189,-4.53582,-6.38751,-24.1477,28.5495,-13.7209,-0.904486,-23.45
2.25268,17.7075,8.86357,-171.551,-5.58044,176.739,5.45401,-0.252911,-2.89998,0.64796,-0.507958,2.24903,-2.34639,-0.241641,3.99349,-18.8662,-1.11374,-9.79405,36.049,-2.27592,2.93079,16.1867,-2.87307,2.27868,1.61016e-14,1.66979e-14,-17.3693,7.36565,-74.5138,52.4743,7.98725,-26.611,5.31874,7.12502,-0.0443532,-24.661,1.61016e-14,1.66979e-14,-29.4761,7.75298,85.4891,29.4396,-10.2677,-12.7189,25.2049,7.12502,13.3642,54.7563,-32.5132,-1.34116,19.3502,35.1479,-10.2527,-4.68003,13.3214,-5.44924,-6.69748,-23.987,30.4798,-12.7818,-1.71045,-25.0126
2.27471,17.7273,8.79621,-171.573,-6.00324,176.782,5.3917,-0.249315,-2.59575,0.80329,-0.491351,2.26466,-2.15519,-0.245056,3.83388,-19.0932,-1.2371,-9.89286,36.1505,-2.38576,2.92033,16.3069,-2.92922,2.27125,9.54166e-15,7.95139e-15,-16.1567,7.51825,-74.1192,52.6056,7.5149,-27.2633,5.96661,7.12502,-0.674356,-24.0121,9.54166e-15,7.95139e-15,-29.1696,7.44626,85.6641,29.9419,-10.0255,-12.9022,25.2264,7.12502,13.1875,54.7894,-32.0474,-1.59796,19.512,34.8699,-10.3602,-4.66176,13.5649,-6.37479,-6.57577,-23.6428,32.4455,-11.8031,-2.49176,-26.1138
2.30507,17.7489,8.72833,-171.584,-6.23009,176.832,5.3371,-0.165453,-2.41933,0.871767,-0.371524,2.2393,-2.06558,-0.190146,3.69798,-19.0311,-1.32151,-9.84468,36.173,-2.52842,2.87151,16.3153,-2.98846,2.21446,2.18663e-15,1.98785e-14,-15.3474,7.55721,-73.8648,53.0792,7.29935,-27.436,5.83783,7.12502,-0.841199,-24.1403,2.18663e-15,1.98785e-14,-29.0147,7.14584,85.6921,30.4517,-9.83952,-12.8434,25.1575,7.12502,13.2442,54.7167,-31.5847,-1.60502,19.6737,34.5798,-10.5109,-4.75726,13.7362,-7.39251,-6.35774,-23.2621,34.4506,-10.778,-3.475,-25.6022
2.33485,17.7719,8.66231,-171.601,-6.44598,176.801,5.357,-0.115714,-2.34143,0.857372,-0.300813,2.23575,-2.09775,-0.154542,3.64557,-18.7769,-1.35865,-9.90456,36.1912,-2.59108,2.77328,16.2693,-3.04788,2.16897,-9.93923e-16,-2.78299e-14,-14.7229,7.77373,-73.5574,53.7722,6.9192,-27.6976,5.9067,7.12502,-1.09386,-24.0702,-9.93923e-16,-2.78299e-14,-29.0958,7.06404,85.7252,31.0827,-9.67974,-12.7699,24.8803,7.12502,13.315,54.4349,-31.0994,-1.70115,19.7581,34.2268,-10.6246,-4.78272,13.8168,-8.50171,-6.09725,-22.9565,36.4975,-9.52066,-4.56859,-24.8038
2.36559,17.7905,8.5981,-171.668,-6.70665,176.892,5.40847,-0.0544036,-2.20429,0.868075,-0.21403,2.31088,-2.12276,-0.113366,3.64028,-18.5551,-1.39776,-9.9403,36.2028,-2.64117,2.64147,16.226,-3.10073,2.10752,-3.97569e-15,-2.46493e-14,-13.9902,8.10793,-73.109,54.4427,6.39384,-28.0922,6.00585,7.12502,-1.47491,-23.9688,-3.97569e-15,-2.46493e-14,-29.1458,6.80836,85.8737,31.7862,-9.36948,-12.7749,24.6165,7.12502,13.3102,54.1714,-30.5489,-1.78285,19.9789,33.8067,-10.6855,-4.83315,13.6395,-9.60603,-5.76424,-22.5251,38.5469,-8.08192,-5.61954,-24.8597
2.39583,17.8105,8.5313,-171.779,-7.00838,177.057,5.43654,0.0133111,-1.97692,0.960166,-0.117479,2.38416,-2.05158,-0.0721276,3.58052,-18.5875,-1.50109,-9.98726,36.2773,-2.81269,2.70888,16.2896,-3.1698,2.11268,1.59028e-15,-8.74653e-15,-13.1307,8.25922,-72.6246,55.0977,6.26701,-28.1965,5.8453,7.12502,-1.57574,-24.1286,1.59028e-15,-8.74653e-15,-29.0136,6.47237,86.0399,32.4342,-8.98745,-12.8919,24.5314,7.12502,13.1974,54.0937,-29.8893,-1.8488,20.2691,33.3334,-10.8371,-4.90776,14.0568,-10.7111,-5.465,-22.0197,40.5869,-6.5626,-6.56414,-24.9176
2.42477,17.8307,8.46184,-171.843,-7.21728,177.16,5.37183,0.121351,-1.75096,1.04244,0.0351874,2.3855,-1.94224,-0.00169517,3.44249,-18.5594,-1.60248,-10.1,36.287,-3.00762,2.92422,16.3113,-3.23135,2.19134,4.17448e-15,-2.38542e-15,-12.2221,8.13615,-72.1801,55.6239,6.55074,-28.371,5.69113,7.12502,-1.74422,-24.2815,4.17448e-15,-2.38542e-15,-28.9113,6.10736,86.1473,33.1123,-8.60367,-12.9259,24.683,7.12502,13.1646,54.2474,-29.2605,-1.82054,20.4501,32.8218,-10.9991,-4.89891,15.5713,-11.8875,-5.13223,-21.6242,42.6277,-5.17308,-7.40021,-24.5131
2.45378,17.8483,8.4004,-171.882,-7.43307,177.35,5.42232,0.188205,-1.46458,1.05667,0.136453,2.43754,-1.96266,0.0453674,3.32755,-18.601,-1.62651,-10.1495,36.3326,-3.00859,2.90735,16.3465,-3.2398,2.19288,-2.20651e-14,8.74653e-15,-11.2468,8.22838,-71.7315,56.0727,6.51741,-28.673,5.56933,7.12502,-2.03587,-24.4007,-2.20651e-14,8.74653e-15,-28.9456,5.75246,86.2379,33.9426,-8.12161,-12.9936,24.8559,7.12502,13.0993,54.4245,-28.7268,-1.85021,20.7628,32.3178,-11.0193,-4.87992,16.593,-13.1643,-4.84716,-21.1428,44.6604,-4.08936,-8.21892,-23.2731
2.48444,17.8678,8.34417,-171.957,-7.82414,177.487,5.57026,0.202453,-1.2581,1.08134,0.16187,2.51654,-2.02134,0.0546252,3.29138,-18.7791,-1.69933,-10.3132,36.4323,-3.04462,2.94501,16.4507,-3.27062,2.23086,3.26007e-14,4.05521e-14,-10.3091,8.4719,-71.2061,56.6607,6.01569,-29.0565,5.5143,7.12502,-2.40626,-24.4519,3.26007e-14,4.05521e-14,-28.8974,5.46711,86.3803,34.7211,-7.53267,-12.9992,24.8765,7.12502,13.094,54.4454,-28.1825,-2.19266,21.0845,31.8476,-10.9697,-4.82491,16.6572,-14.4086,-4.78362,-20.7046,46.6918,-3.5179,-8.82504,-21.2419
2.51249,17.8828,8.28552,-172.072,-8.20122,177.533,5.71203,0.24999,-1.07649,1.0966,0.232889,2.51943,-2.08883,0.0882699,3.18683,-18.781,-1.80468,-10.4472,36.4765,-3.19986,3.05311,16.4949,-3.33754,2.2726,3.02153e-14,2.22639e-14,-9.4655,8.55442,-70.6943,57.2265,5.75339,-29.5802,5.52384,7.12502,-2.91205,-24.436,3.02153e-14,2.22639e-14,-28.9194,5.09632,86.4985,35.5066,-6.97911,-12.9373,24.8767,7.12502,13.1537,54.4418,-27.6225,-2.46548,21.2776,31.4539,-10.9998,-4.85478,16.5218,-15.5484,-4.67819,-20.3982,48.7345,-3.78952,-8.89623,-20.0182
2.54112,17.893,8.22755,-172.179,-8.35231,177.652,5.8295,0.361588,-0.929764,1.10404,0.387742,2.56544,-2.15596,0.16358,3.14009,-18.6287,-1.87186,-10.4718,36.4215,-3.30249,3.03821,16.4403,-3.38215,2.25194,2.04748e-14,2.3059e-14,-8.51552,8.65311,-70.1463,57.6792,5.5799,-30.0797,5.74759,7.12502,-3.3944,-24.2051,2.04748e-14,2.3059e-14,-28.9716,4.85918,86.612,36.2894,-6.66939,-12.8724,24.6427,7.12502,13.2162,54.2038,-27.1329,-2.45408,21.5211,31.1024,-11.0476,-4.95455,16.2357,-16.6918,-4.3663,-20.0764,50.7973,-4.80957,-8.19615,-19.9024
2.5712,17.9023,8.1738,-172.211,-8.34591,177.7,5.87057,0.533134,-0.940325,1.14506,0.612691,2.61861,-2.15123,0.273922,3.18387,-18.5449,-1.96196,-10.4417,36.3162,-3.3702,2.87419,16.3704,-3.41714,2.16322,6.4605e-14,1.98785e-14,-7.34657,8.70667,-69.5033,58.0657,5.29888,-30.3,5.6764,7.12502,-3.60721,-24.2728,6.4605e-14,1.98785e-14,-28.9152,4.5381,86.8059,37.0283,-6.3339,-13.023,24.3913,7.12502,13.071,53.9617,-26.7546,-2.42025,21.7054,30.7653,-11.0164,-4.98453,15.9248,-17.9513,-3.87338,-19.8809,52.8643,-6.02794,-7.05809,-19.6775
2.59759,17.9146,8.12126,-172.224,-8.49386,177.694,5.91479,0.649386,-0.863067,1.16359,0.771076,2.60701,-2.16555,0.351961,3.11568,-18.5574,-2.05298,-10.4833,36.3169,-3.46223,2.82839,16.3842,-3.46188,2.13331,-1.88845e-14,-4.92986e-14,-6.24199,8.66496,-68.9668,58.4823,4.94496,-30.6335,5.17068,7.12502,-3.92924,-24.7728,-1.88845e-14,-4.92986e-14,-28.8392,4.27602,86.9048,37.7229,-6.13325,-12.9722,24.3399,7.12502,13.12,53.9071,-26.3627,-2.60351,21.8452,30.3772,-10.9552,-4.97756,15.7567,-19.2842,-3.42267,-19.7596,54.9268,-7.08935,-5.85709,-19.0427
2.62634,17.9321,8.06902,-172.26,-8.74149,177.656,6.02582,0.714212,-0.856366,1.15369,0.858423,2.60583,-2.24297,0.396246,3.10311,-18.5619,-2.1081,-10.5571,36.3872,-3.53743,2.85352,16.4318,-3.50262,2.14255,2.06736e-14,-2.8625e-14,-5.0586,8.74801,-68.4393,58.7231,4.35735,-31.1189,4.94514,7.12502,-4.39797,-24.9892,2.06736e-14,-2.8625e-14,-28.7675,4.21655,86.945,38.3207,-6.15144,-12.9004,24.3281,7.12502,13.1892,53.891,-25.9446,-2.72506,21.9357,29.9719,-10.9822,-5.13071,15.3234,-20.6498,-3.05095,-19.6452,56.9527,-7.82821,-4.84859,-17.8639
2.65435,17.9481,8.01728,-172.382,-8.92692,177.771,6.19659,0.794157,-0.746596,1.14514,0.970258,2.66781,-2.3532,0.450584,3.09513,-18.4657,-2.15021,-10.628,36.3613,-3.60035,2.89709,16.4045,-3.5303,2.16342,1.80894e-14,5.40694e-14,-3.77145,8.85573,-67.8363,58.8162,3.85658,-31.3648,5.0879,7.12502,-4.63538,-24.8414,1.80894e-14,5.40694e-14,-28.822,4.12639,87.0304,38.9865,-6.06874,-13.6992,23.0872,7.12502,12.4191,52.6983,-25.4398,-2.59582,22.1501,29.5677,-11.07,-5.4042,15.3276,-21.9795,-2.55835,-19.3753,58.9374,-8.17325,-4.03279,-14.9549
2.67666,17.9601,7.9623,-172.506,-9.02935,177.78,6.26892,0.916193,-0.645554,1.21561,1.13503,2.63249,-2.32805,0.529861,2.98732,-18.3476,-2.25023,-10.5381,36.1075,-3.713,2.84358,16.2543,-3.54541,2.10761,4.57205e-15,7.95139e-15,-2.44914,8.63766,-67.3012,58.8928,3.66344,-31.3921,5.3955,7.12502,-4.66172,-24.5332,4.57205e-15,7.95139e-15,-28.733,3.92403,87.0841,39.5984,-5.94303,-14.8911,21.4573,7.12502,11.2698,51.1346,-24.9028,-2.50778,22.2349,29.1612,-11.0913,-5.54939,15.5495,-23.2223,-2.03627,-19.296,60.8405,-8.64728,-3.16239,-12.5372
2.69897,17.9716,7.90753,-172.549,-9.22854,177.625,6.28286,1.01503,-0.661234,1.27638,1.26392,2.54668,-2.27893,0.593686,2.89654,-18.2908,-2.38532,-10.4764,35.9495,-3.87738,2.77713,16.1741,-3.59505,2.03962,2.20651e-14,-3.18055e-15,-1.14442,8.30311,-66.7838,59.0586,3.29151,-31.1616,4.89651,7.12502,-4.43922,-25.037,2.20651e-14,-3.18055e-15,-28.5171,3.76754,87.1166,40.0484,-5.94263,-14.7508,22.0687,7.12502,11.4051,51.7385,-24.4269,-2.53338,22.1462,28.7506,-11.1078,-5.68644,15.987,-24.5453,-1.65616,-19.3983,62.6801,-9.60965,-2.31277,-14.0966
2.72539,17.9931,7.85368,-172.457,-9.53794,177.454,6.18844,1.05891,-0.755255,1.27229,1.31896,2.50086,-2.23458,0.623169,2.89867,-18.2326,-2.50932,-10.5862,35.9045,-4.04054,2.82391,16.1584,-3.66476,2.04935,-1.86858e-14,-3.18055e-14,0.23538,8.05993,-66.2127,59.299,2.36383,-30.2464,3.00972,7.12502,-3.55541,-26.9404,-1.86858e-14,-3.18055e-14,-28.4305,3.6337,87.1906,40.6157,-5.86666,-14.215,23.3269,7.12502,11.9218,52.9674,-24.0861,-2.5038,22.0551,28.3577,-11.2576,-6.01195,16.4614,-26.0563,-1.38493,-19.4863,64.421,-10.2651,-1.72036,-15.7306
2.75275,18.0176,7.8043,-172.398,-9.80982,177.413,6.13661,1.12062,-0.747332,1.28092,1.40201,2.48862,-2.20096,0.664586,2.87547,-18.1632,-2.63335,-10.6774,35.8357,-4.21421,2.89021,16.1291,-3.73142,2.06292,-2.34566e-14,3.18055e-14,1.61823,7.80901,-65.6056,59.1797,2.01284,-30.0254,2.09035,7.12502,-3.34199,-27.8632,-2.34566e-14,3.18055e-14,-28.3397,3.50787,87.2403,41.1758,-5.76709,-14.1434,23.1957,7.12502,11.9908,52.8323,-23.7536,-2.45161,22.1161,27.9718,-11.4138,-6.31572,16.9973,-27.6183,-1.01771,-19.4647,66.1109,-10.303,-1.35972,-15.3129
2.77858,18.0371,7.76084,-172.695,-9.83726,177.277,6.61426,1.26828,-0.842811,1.33016,1.58876,2.43944,-2.42843,0.75798,2.8554,-18.0292,-2.69302,-10.7436,35.8142,-4.31594,2.92988,16.0994,-3.77697,2.0742,-2.98177e-14,1.59028e-15,2.85894,7.66458,-65.0366,59.321,1.35627,-30.36,0.796374,7.12502,-3.66508,-29.1519,-2.98177e-14,1.59028e-15,-28.3166,3.48648,87.2333,41.6677,-5.81232,-14.0074,22.7441,7.12502,12.1219,52.3729,-23.0282,-2.25966,22.031,27.5605,-11.5274,-6.57585,17.5586,-28.7817,-0.461643,-19.6153,67.7562,-10.4719,-1.15897,-14.7808
2.80702,18.0528,7.71048,-172.703,-10.0606,177.202,6.68351,1.3697,-0.875123,1.31414,1.72346,2.3977,-2.49088,0.826918,2.8169,-17.926,-2.78766,-10.8304,35.8023,-4.47895,3.02515,16.0903,-3.84155,2.10139,-1.5704e-14,-7.95139e-15,4.16581,7.30195,-64.5356,58.9858,1.34792,-30.5687,0.983027,7.12502,-3.86664,-28.9616,-1.5704e-14,-7.95139e-15,-28.3056,3.37481,87.2084,42.1665,-5.76861,-13.8017,22.9077,7.12502,12.3203,52.5247,-22.6216,-2.03197,22.0329,27.1725,-11.7567,-7.01973,17.7766,-30.3059,-0.0742431,-19.6553,69.4139,-11.2285,-1.18381,-15.6508
2.82394,18.064,7.666,-172.803,-10.6388,177.206,6.78876,1.36137,-0.597629,1.36917,1.72633,2.37472,-2.48392,0.823736,2.63499,-17.8458,-2.92324,-10.8712,35.7144,-4.64495,2.99232,16.0452,-3.9097,2.06507,-3.45885e-14,-1.59028e-14,5.58775,6.89322,-63.9382,58.6611,1.18427,-30.9095,0.798239,7.12502,-4.19579,-29.1402,-3.45885e-14,-1.59028e-14,-28.1253,3.23798,87.2811,42.5706,-5.48359,-13.5255,23.1968,7.12502,12.5866,52.7976,-22.1815,-2.20214,22.1468,26.8096,-11.8417,-7.51735,17.1549,-31.8693,-0.0206987,-19.6505,71.0836,-11.9084,-1.31291,-16.8278
2.84474,18.0703,7.61855,-172.719,-11.3321,177.095,6.65974,1.28546,-0.543684,1.38613,1.62858,2.36778,-2.38774,0.774289,2.60867,-17.8331,-3.02419,-10.8616,35.7269,-4.75694,2.87661,16.057,-3.96803,1.99198,-1.41137e-14,-2.54444e-14,6.90168,6.71434,-63.2683,58.5429,0.669093,-31.2312,0.092499,7.12502,-4.50635,-29.8396,-1.41137e-14,-2.54444e-14,-27.9799,3.23902,87.3742,42.976,-5.1071,-13.0428,23.6622,7.12502,13.052,53.2338,-21.7868,-2.52696,22.1947,26.5054,-12.164,-7.79994,17.4371,-33.6861,-0.0826079,-19.7661,72.7807,-12.3526,-1.61618,-16.7487
2.86864,18.0906,7.57256,-172.757,-11.7015,177.033,6.74772,1.35438,-0.499459,1.4227,1.72144,2.33162,-2.40129,0.819528,2.5368,-17.8278,-3.14129,-10.8467,35.7177,-4.92685,2.87196,16.0675,-4.03026,1.95595,3.04141e-14,-6.36111e-15,7.67664,6.1804,-62.7885,59.4264,0.230492,-30.7616,-0.224822,7.12502,-4.05297,-30.166,3.04141e-14,-6.36111e-15,-27.8193,3.14049,87.4406,43.3657,-4.81776,-12.8439,23.6525,7.12502,13.2436,53.2118,-21.605,-2.43841,22.1988,26.1879,-12.0216,-8.54068,15.49,-35.2983,0.19547,-19.9078,74.3771,-12.8946,-1.91421,-17.0501
2.89136,18.0903,7.53156,-172.898,-12.0305,177.133,6.92859,1.4298,-0.269462,1.47645,1.83297,2.32693,-2.44459,0.870932,2.38939,-17.8816,-3.25463,-10.8985,35.7463,-5.09795,2.96035,16.1167,-4.08996,1.97044,1.98785e-15,2.22639e-14,8.88951,5.80028,-62.1826,59.3682,-0.599182,-30.1821,-0.0113786,7.12502,-3.49328,-29.9625,1.98785e-15,2.22639e-14,-27.7264,2.98258,87.4497,43.8036,-4.48344,-12.1503,23.5922,7.12502,13.9121,53.1068,-20.9921,-2.3931,22.3928,25.8356,-12.2998,-8.66616,16.1499,-36.9377,0.499104,-19.9124,76.019,-13.4205,-2.20983,-17.9362
2.91434,18.1015,7.49222,-173.036,-12.4148,177.205,7.13141,1.48597,-0.0685574,1.5022,1.91951,2.337,-2.52851,0.910725,2.27478,-17.7294,-3.34284,-10.8699,35.6673,-5.22786,2.9048,16.0509,-4.14194,1.92019,-5.32743e-14,1.59028e-15,10.2534,5.55656,-61.4303,58.6986,-0.951801,-29.8633,0.379352,7.12502,-3.18545,-29.5766,-5.32743e-14,1.59028e-15,-27.678,2.87786,87.4855,44.2423,-4.15072,-10.7889,24.4139,7.12502,15.2239,53.8338,-20.4426,-2.48107,22.5721,25.3943,-12.3282,-8.89887,16.0721,-38.5584,0.732073,-19.9858,77.5522,-14.0195,-2.52618,-18.6311
2.93464,18.1196,7.45386,-173.146,-12.8566,177.238,7.32138,1.52601,0.130742,1.52459,1.98558,2.33889,-2.60708,0.940419,2.15446,-17.5023,-3.4267,-10.864,35.5119,-5.34634,2.86637,15.9297,-4.18631,1.88622,2.62396e-14,-3.33958e-14,11.6865,5.37781,-60.5552,57.9755,-1.15507,-30.6044,0.331021,7.12502,-3.9011,-29.613,2.62396e-14,-3.33958e-14,-27.598,2.68376,87.5923,44.7205,-3.78712,-10.8141,24.492,7.12502,15.1996,53.9137,-19.915,-2.59326,22.6954,24.862,-12.3196,-9.25463,16.0913,-40.2129,0.804056,-20.112,79.032,-14.5687,-2.8619,-18.5855
2.9515,18.1332,7.41383,-173.18,-13.4207,177.262,7.43597,1.53673,0.396727,1.51611,2.02004,2.31953,-2.67085,0.954918,1.97886,-17.4831,-3.54291,-10.9169,35.5666,-5.52258,2.89044,15.9731,-4.26308,1.87211,1.39149e-14,2.8625e-14,12.8979,5.11361,-59.7096,57.3873,-1.48814,-31.7538,0.479935,7.12502,-5.01103,-29.4408,1.39149e-14,2.8625e-14,-27.5133,2.47796,87.661,45.1013,-3.55062,-11.5402,23.6702,7.12502,14.5,53.1435,-19.4053,-2.8246,22.8165,24.2872,-12.4317,-9.49394,16.5041,-41.9577,0.700938,-20.2601,80.4474,-14.9574,-3.09716,-18.612
2.9772,18.1487,7.37398,-173.425,-13.4797,177.449,7.72761,1.72438,0.570895,1.59652,2.27835,2.36496,-2.75344,1.07756,1.89631,-17.4483,-3.6743,-10.9537,35.5648,-5.71114,2.89655,15.9848,-4.34075,1.84612,-1.92821e-14,-1.74931e-14,13.9598,4.78967,-58.9097,56.9691,-2.02259,-32.661,1.1229,7.12502,-5.88691,-28.7753,-1.92821e-14,-1.74931e-14,-27.3764,2.24399,87.7569,45.4569,-2.92249,-11.2089,24.923,7.12502,14.8192,54.3731,-18.6943,-2.6297,23.0708,23.744,-12.6094,-9.56447,17.4334,-43.4577,1.16658,-20.293,81.8138,-15.4122,-3.3122,-18.6885
2.99176,18.1707,7.33591,-173.619,-13.8471,177.439,7.98321,1.82373,0.793393,1.70744,2.42146,2.32312,-2.77393,1.14287,1.70823,-17.4057,-3.82015,-10.9042,35.4658,-5.89718,2.83442,15.9399,-4.40539,1.77861,-3.75703e-14,-1.43125e-14,14.9678,4.30157,-58.1412,56.5637,-2.49605,-33.1084,2.18726,7.12502,-6.31885,-27.6985,-3.75703e-14,-1.43125e-14,-27.1258,1.73415,87.9706,45.9794,-1.76317,-11.2116,28.4704,7.12502,14.8166,57.9207,-18.0109,-2.8145,23.1248,23.1888,-12.6027,-9.75809,16.9386,-44.9874,1.28254,-20.6005,83.0786,-15.8052,-3.63194,-18.5054
3.00324,18.1894,7.29355,-173.406,-14.4146,177.254,7.7312,1.84109,0.861629,1.75572,2.44452,2.26715,-2.57914,1.15526,1.61788,-17.4501,-3.92332,-10.9067,35.4125,-6.00118,2.80711,15.9342,-4.43869,1.74887,3.4191e-14,4.92986e-14,16.0131,3.83498,-57.3683,56.1479,-2.94526,-33.1143,2.78584,7.12502,-6.32456,-27.0997,3.4191e-14,4.92986e-14,-26.8518,1.46098,88.1335,46.5298,-0.960361,-13.9172,29.0878,7.12502,12.209,58.7115,-17.7739,-3.16762,23.0327,22.628,-12.5178,-10.0991,16.1633,-46.9526,1.12732,-21.1306,84.2848,-16.1033,-3.82115,-18.586
3.01607,18.2026,7.251,-173.558,-14.6915,177.184,7.90791,1.95788,0.942752,1.85485,2.60066,2.24682,-2.57384,1.22934,1.53216,-17.4362,-4.01752,-10.9621,35.3593,-6.12775,2.88192,15.9228,-4.47768,1.76877,-7.95139e-16,4.6118e-14,17.1776,3.46496,-56.5729,55.6446,-3.50519,-33.0159,2.19998,7.12502,-6.22952,-27.6884,-7.95139e-16,4.6118e-14,-26.6857,1.47936,88.1602,46.934,-0.620373,-10.0383,29.9981,7.12502,15.9468,59.3617,-17.1629,-3.33052,23.0238,22.0934,-12.6068,-10.1856,16.8255,-48.4935,1.20728,-21.5796,85.4384,-16.4602,-3.69208,-19.1268
3.03267,18.2151,7.2106,-173.597,-14.8614,177.12,8.08674,2.10683,1.00172,1.84673,2.80697,2.19386,-2.68036,1.33141,1.41723,-17.1936,-4.08691,-11.0387,35.3069,-6.2853,2.99934,15.8627,-4.53837,1.80839,2.70347e-14,-7.95139e-15,18.1646,3.06184,-55.8686,55.3588,-3.64653,-33.2393,0.310321,7.12502,-6.44523,-29.5716,2.70347e-14,-7.95139e-15,-26.7284,1.449,88.1036,47.4088,-0.975528,-9.8188,28.1878,7.12502,16.1581,57.5343,-16.6493,-3.28552,23.0265,21.4944,-12.6676,-10.3906,17.7268,-50.1812,1.39901,-22.047,86.5264,-16.7662,-3.62112,-19.0096
3.05224,18.2279,7.17531,-173.617,-15.0906,177.113,8.29454,2.20258,1.09188,1.80193,2.94805,2.16054,-2.83837,1.40072,1.30917,-16.9613,-4.10326,-11.0477,35.3248,-6.3689,3.0269,15.8257,-4.57863,1.81053,2.78299e-14,-6.99722e-14,19.0652,2.51735,-55.3636,55.0915,-3.20146,-33.0617,-1.19452,7.12502,-6.27381,-31.0816,2.78299e-14,-6.99722e-14,-26.7625,1.59196,87.9939,47.7972,-1.98601,-11.4875,25.7688,7.12502,14.5508,55.2385,-16.1459,-3.28813,23.1066,20.7579,-12.4851,-10.7447,17.947,-51.9858,1.53291,-22.4588,87.5545,-16.9953,-3.84121,-18.5609
3.06939,18.2463,7.1356,-173.7,-15.651,177.029,8.49807,2.19431,1.1695,1.81497,2.94539,2.14513,-2.933,1.39719,1.24292,-16.9145,-4.11616,-11.0377,35.444,-6.43173,3.05045,15.88,-4.60762,1.80675,1.86858e-14,3.33958e-14,19.9786,1.9149,-54.8564,54.596,-3.02862,-32.8831,-1.59191,7.12502,-6.10132,-31.4841,1.86858e-14,3.33958e-14,-26.768,1.65247,87.9518,48.3764,-2.10656,-11.9291,25.4308,7.12502,14.1253,54.9307,-15.4986,-3.52625,23.1236,20.0253,-12.3513,-11.1713,17.7097,-53.6522,1.27892,-22.9463,88.458,-17.3431,-4.00014,-18.7885
3.0835,18.2663,7.09195,-173.503,-15.7287,177.031,8.25949,2.35982,1.27909,1.83538,3.17021,2.08695,-2.77341,1.51043,1.10713,-16.8884,-4.16594,-10.9678,35.4559,-6.52445,3.04603,15.885,-4.63333,1.7768,-5.04913e-14,-3.18055e-15,20.9847,1.20681,-54.4678,53.9366,-3.31086,-32.7597,-1.89204,7.12502,-5.98224,-31.7876,-5.04913e-14,-3.18055e-15,-26.7122,1.44997,87.9832,49.1714,-1.16376,-11.4914,26.7893,7.12502,14.547,56.2592,-15.1839,-3.50844,23.2077,19.2956,-12.1159,-11.3223,17.9124,-55.5678,1.41983,-23.4196,89.2863,-17.7114,-4.09656,-18.9502
3.08908,18.2854,7.05125,-173.441,-16.015,177.008,8.15893,2.42506,1.50817,1.8903,3.26924,2.02355,-2.64514,1.55847,0.909115,-16.8353,-4.22834,-10.932,35.4444,-6.61798,3.01587,15.8732,-4.66745,1.74208,-9.14409e-15,-1.90833e-14,21.8885,0.546484,-54.0908,53.4366,-3.53087,-32.2988,-2.52794,7.12502,-5.53725,-32.4356,-9.14409e-15,-1.90833e-14,-26.7027,1.36363,87.9987,49.899,-0.445374,-11.1988,27.3921,7.12502,14.829,56.8415,-14.6886,-3.69215,23.2451,18.5555,-11.9908,-11.4362,17.9581,-57.268,1.29742,-23.9342,90.0025,-17.9392,-4.21638,-18.4338
3.09871,18.3018,7.01528,-173.526,-16.3781,176.878,8.40176,2.48341,1.63751,1.91361,3.35976,1.91636,-2.74225,1.60131,0.707224,-16.7855,-4.29066,-10.8683,35.528,-6.7763,3.06333,15.9165,-4.72172,1.72173,5.40694e-14,-4.77083e-15,22.5416,-0.134471,-53.7658,53.0639,-3.74473,-31.9782,-3.21285,7.12502,-5.2277,-33.1284,5.40694e-14,-4.77083e-15,-26.7541,1.41515,87.884,50.4837,-0.682226,-10.4885,27.0534,7.12502,15.5132,56.4511,-14.0266,-3.81421,23.1662,17.8103,-11.9291,-11.7338,18.1552,-58.7594,1.05545,-24.5522,90.649,-18.2521,-4.27325,-18.8255
3.1138,18.3159,6.97505,-173.633,-16.5774,176.813,8.68417,2.59859,1.65358,1.89954,3.52071,1.87597,-2.91025,1.67926,0.626293,-16.6369,-4.31942,-10.8145,35.6711,-6.89224,3.0309,15.9588,-4.78132,1.67727,-2.50469e-14,-4.77083e-15,23.1245,-0.708166,-53.4488,52.6442,-4.10156,-31.9686,-3.75455,7.12502,-5.21845,-33.6703,-2.50469e-14,-4.77083e-15,-26.835,1.54366,87.8013,51.0129,-0.665683,-9.81099,26.5135,7.12502,16.1656,55.8594,-13.3768,-3.77665,23.1651,17.0848,-11.8479,-12.0573,18.3306,-60.2106,0.987307,-25.0391,91.2793,-18.659,-4.53945,-19.3987
3.12274,18.3297,6.93057,-173.663,-16.6679,176.793,8.70251,2.72326,1.72004,1.93868,3.68947,1.85733,-2.87452,1.76221,0.551921,-16.4846,-4.33404,-10.811,35.7132,-6.92196,2.94977,15.9427,-4.81066,1.63919,-6.40087e-14,-2.06736e-14,23.8732,-1.30032,-53.2112,52.1322,-4.55819,-31.6441,-4.37777,7.12502,-4.90511,-34.301,-6.40087e-14,-2.06736e-14,-26.9399,1.65323,87.7573,51.5158,-0.177488,-9.54223,25.1491,7.12502,16.4244,54.4738,-12.8116,-3.76759,23.2012,16.353,-11.7185,-12.2668,18.3455,-61.6727,0.914037,-25.475,91.7503,-18.8407,-4.9978,-18.5744
3.12819,18.3455,6.88774,-173.691,-16.8875,176.786,8.68113,2.78275,1.86203,2.02001,3.77327,1.84149,-2.7679,1.80213,0.451036,-16.5631,-4.33562,-10.7282,35.8437,-6.91047,2.82926,16.0159,-4.81354,1.57191,-5.80451e-14,0,24.6859,-1.95583,-53.059,51.6909,-5.04454,-31.3127,-5.21391,7.12502,-4.58507,-35.1443,-5.80451e-14,0,-27.0721,1.72832,87.6988,52.1512,0.223193,-9.27644,24.4648,7.12502,16.6803,53.7681,-12.2061,-3.87265,23.2499,15.5605,-11.5447,-12.4777,18.3476,-63.1141,0.655189,-25.9665,92.0145,-18.8609,-5.22128,-18.1936
3.13856,18.3616,6.84884,-173.75,-17.1124,176.75,8.85497,2.879,1.96095,2.05011,3.91047,1.79234,-2.82226,1.86797,0.322648,-16.6371,-4.36664,-10.6536,36.0523,-7.00884,2.82276,16.1433,-4.85299,1.53227,-4.21423e-14,1.59028e-14,25.2649,-2.61038,-52.8338,51.2439,-5.52274,-31.5469,-5.9697,7.12502,-4.8112,-35.8951,-4.21423e-14,1.59028e-14,-27.2245,1.64763,87.6422,52.8059,0.687919,-9.10276,24.5507,7.12502,16.8475,53.8399,-11.526,-3.86581,23.2809,14.6482,-11.3539,-12.8098,18.1183,-64.4807,0.44085,-26.4598,92.1679,-18.886,-5.48494,-17.8983
3.15142,18.3751,6.80748,-173.852,-17.1705,176.771,9.02969,2.98787,2.02323,2.089,4.06058,1.76928,-2.87158,1.93991,0.239803,-16.5199,-4.33408,-10.5815,36.1033,-7.00592,2.80195,16.1351,-4.85083,1.51417,1.90833e-14,-2.70347e-14,25.9237,-3.08495,-52.6516,50.6683,-6.0095,-31.5529,-6.31568,7.12502,-4.81703,-36.2409,1.90833e-14,-2.70347e-14,-27.3519,1.6506,87.5531,53.3657,1.37148,-9.19373,24.8539,7.12502,16.7599,54.1505,-10.7912,-3.61322,23.3454,13.6377,-11.1236,-13.2065,17.9563,-65.7489,0.404097,-26.8487,92.288,-18.9635,-5.81233,-17.7444
3.15896,18.3861,6.76004,-173.936,-17.2427,176.792,9.0237,3.08626,2.12602,2.17892,4.19228,1.74942,-2.76489,2.00408,0.151183,-16.4979,-4.30837,-10.5631,36.2043,-7.00126,2.82011,16.18,-4.84914,1.5192,-3.33958e-14,6.36111e-15,26.5797,-3.67398,-52.6209,50.0431,-6.5345,-31.1779,-6.1855,7.12502,-4.45489,-36.1187,-3.33958e-14,6.36111e-15,-27.5684,1.61618,87.4861,54.1381,2.15479,-9.23047,25.6491,7.12502,16.7246,54.9487,-9.97346,-3.44909,23.4013,12.5091,-10.9513,-13.5143,18.9615,-66.9149,0.274137,-27.2333,92.3298,-19.1642,-6.0049,-18.0141
3.16246,18.3997,6.71499,-173.98,-17.3405,176.758,9.00886,3.18851,2.23038,2.27627,4.32823,1.69622,-2.64227,2.07112,0.0281214,-16.5293,-4.33737,-10.5245,36.2754,-7.06457,2.8323,16.2281,-4.86764,1.5045,-1.98785e-14,9.54166e-15,27.1217,-4.33446,-52.6966,49.4419,-7.20314,-30.9727,-5.49481,7.12502,-4.25679,-35.432,-1.98785e-14,9.54166e-15,-27.8551,1.57572,87.3721,55.0209,2.95113,-9.05309,25.523,7.12502,16.8953,54.8081,-9.14758,-3.55656,23.4158,11.3172,-10.5799,-13.6706,19.4726,-68.0246,0.0608998,-27.6649,92.2604,-19.6696,-6.29804,-19.4623
3.16827,18.4168,6.67242,-174.08,-17.3884,176.814,9.16665,3.27378,2.41458,2.27992,4.46014,1.62945,-2.70416,2.13422,-0.166093,-16.3695,-4.30646,-10.3744,36.3024,-7.08596,2.78693,16.1939,-4.86881,1.45906,1.12512e-13,-3.65764e-14,27.5494,-4.88988,-52.9065,48.8935,-7.69779,-30.8796,-5.09127,7.12502,-4.16687,-35.0303,1.12512e-13,-3.65764e-14,-28.1422,1.68773,87.1083,55.636,3.79346,-8.75975,24.473,7.12502,17.1777,53.7337,-8.30083,-3.65337,23.5279,10.1117,-10.106,-13.8286,19.1039,-69.0848,-0.0458516,-28.0027,92.1053,-20.3187,-6.76781,-21.6277
3.17775,18.4276,6.63013,-174.227,-17.4055,176.828,9.39534,3.38117,2.50568,2.30256,4.61363,1.56264,-2.79126,2.20744,-0.315378,-16.1707,-4.27247,-10.2421,36.3046,-7.12046,2.79985,16.1425,-4.86961,1.44108,-3.57812e-15,4.13472e-14,27.9268,-5.46336,-53.0802,48.3871,-7.937,-30.6498,-5.23427,7.12502,-3.94501,-35.1775,-3.57812e-15,4.13472e-14,-28.2795,1.84327,86.8952,56.0663,4.45764,-8.61977,24.8246,7.12502,17.3124,54.0735,-7.39635,-3.69765,23.6062,8.86525,-9.55968,-14.0378,18.6417,-69.9736,-0.0912736,-28.3274,91.85,-20.4959,-7.12826,-21.4513
3.18637,18.4366,6.58627,-174.323,-17.4245,176.72,9.53349,3.48309,2.45909,2.37627,4.74107,1.50605,-2.7873,2.26959,-0.368017,-16.1297,-4.27499,-10.2369,36.3516,-7.14228,2.80801,16.1585,-4.8789,1.44029,2.34566e-14,-1.59028e-15,28.3372,-6.04862,-53.2813,47.9599,-7.98967,-30.4712,-5.42352,7.12502,-3.77251,-35.3699,2.34566e-14,-1.59028e-15,-28.3744,1.97745,86.7671,56.5581,4.9449,-8.55829,26.1674,7.12502,17.3716,55.4111,-6.41287,-3.75763,23.5493,7.45262,-8.95955,-14.2323,18.6253,-70.7297,-0.228731,-28.6891,91.491,-20.2621,-7.34639,-19.4846
3.19339,18.4468,6.54137,-174.433,-17.4877,176.73,9.59083,3.5536,2.49907,2.4779,4.83004,1.49446,-2.70702,2.31232,-0.411613,-16.173,-4.30088,-10.2193,36.4112,-7.18213,2.79476,16.2014,-4.89389,1.42223,-3.33958e-14,3.81667e-14,28.8098,-6.67709,-53.5875,47.5641,-7.9836,-30.1296,-5.916,7.12502,-3.44261,-35.8679,-3.33958e-14,3.81667e-14,-28.4692,2.0998,86.6248,57.0686,5.25899,-8.45504,26.687,7.12502,17.471,55.9219,-5.48413,-3.85182,23.6175,6.14214,-8.52957,-14.4191,18.59,-71.4862,-0.383083,-28.9192,91.1324,-20.0805,-7.32225,-19.1963
3.19851,18.4583,6.49471,-174.54,-17.4468,176.768,9.70604,3.67399,2.52215,2.50899,4.99172,1.49282,-2.7324,2.39074,-0.450692,-16.0878,-4.30604,-10.2077,36.4665,-7.23701,2.83204,16.2149,-4.9154,1.42723,4.45278e-14,4.77083e-14,29.052,-7.18537,-53.8136,47.2687,-8.36505,-29.9201,-6.19354,7.12502,-3.24034,-36.1487,4.45278e-14,4.77083e-14,-28.5374,2.25192,86.5068,57.4575,5.51165,-8.28635,26.4359,7.12502,17.6333,55.6563,-4.45174,-3.8388,23.7043,4.59198,-7.88635,-14.7014,18.2592,-72.1901,-0.420125,-29.1909,90.5784,-19.9196,-6.999,-20.3774
