JuanDHNZ/ProyectoFinalCD/preprocessing/sports_trials_csv/14_34.csv
root1,root2,root3,root4,root5,root6,lowerback1,lowerback2,lowerback3,upperback1,upperback2,upperback3,thorax1,thorax2,thorax3,lowerneck1,lowerneck2,lowerneck3,upperneck1,upperneck2,upperneck3,head1,head2,head3,rclavicle1,rclavicle2,rhumerus1,rhumerus2,rhumerus3,rradius1,rwrist1,rhand1,rhand2,rfingers1,rthumb1,rthumb2,lclavicle1,lclavicle2,lhumerus1,lhumerus2,lhumerus3,lradius1,lwrist1,lhand1,lhand2,lfingers1,lthumb1,lthumb2,rfemur1,rfemur2,rfemur3,rtibia1,rfoot1,rfoot2,rtoes1,lfemur1,lfemur2,lfemur3,ltibia1,lfoot1,lfoot2,ltoes1
1.47385,17.7427,13.0088,-173.651,-4.65656,179.238,0.518283,-2.06274,-3.4634,-1.00391,-2.81169,2.92559,-1.01062,-1.38622,4.99552,-24.2665,-2.67317,-8.50667,35.1032,0.96091,2.38768,16.8285,0.28586,2.95817,-3.03644e-14,0,-32.5248,-6.50653,-81.1718,32.2981,20.7474,-21.0562,1.82857,7.12502,5.32007,-28.0847,-3.03644e-14,0,-30.5029,5.12411,88.3301,33.6536,-5.66798,-13.7956,26.5432,7.12502,12.3261,56.1598,-17.6499,3.59053,21.0368,32.5574,-21.0224,-6.6402,11.8172,-13.4126,0.489824,-24.3937,23.8076,-13.1689,1.34735,-8.69446
1.4671,17.7427,13.0088,-173.635,-4.65468,179.394,0.482387,-2.05978,-3.24603,-1.0183,-2.80667,2.93494,-1.01545,-1.38614,4.88092,-24.1712,-2.67296,-8.5819,35.1483,0.940682,2.54267,16.8283,0.295579,3.0388,5.96354e-15,7.95139e-16,-32.5779,-6.56115,-81.1664,32.3331,20.7918,-21.005,1.89643,7.12502,5.36952,-28.0155,5.96354e-15,7.95139e-16,-30.5154,5.04986,88.3144,33.4427,-5.95149,-13.7748,27.2559,7.12502,12.3463,56.8713,-17.6318,3.62197,21.1765,32.4686,-20.9652,-6.64355,11.9941,-13.5004,0.487126,-24.2475,23.9239,-13.2615,1.37695,-9.98404
1.46286,17.7415,13.0097,-173.634,-4.63214,179.423,0.443427,-2.06158,-3.22955,-1.00451,-2.80842,2.94121,-0.979663,-1.38839,4.87604,-24.044,-2.65133,-8.62267,35.1607,0.974668,2.59328,16.8011,0.317255,3.07593,-1.92324e-14,-9.54166e-15,-32.572,-6.55237,-81.1636,32.3682,20.7608,-20.9636,1.91354,7.12502,5.40952,-27.9974,-1.92324e-14,-9.54166e-15,-30.5407,5.04669,88.3069,33.3804,-6.33232,-13.2474,28.3341,7.12502,12.8547,57.9182,-17.6262,3.67277,21.1914,32.4597,-21.0026,-6.61238,12.262,-13.5276,0.588466,-24.2352,23.9498,-13.3303,1.32716,-11.267
1.45992,17.7417,13.0127,-173.653,-4.65439,179.409,0.465857,-2.07633,-3.26434,-0.998719,-2.8284,2.93603,-0.982754,-1.39789,4.89121,-23.8541,-2.60616,-8.50343,35.0965,1.0326,2.45334,16.7195,0.342736,3.00027,4.01545e-14,-2.70347e-14,-32.5377,-6.5302,-81.1854,32.3488,20.6901,-20.9413,1.83332,7.12502,5.43101,-28.0771,4.01545e-14,-2.70347e-14,-30.5699,5.07479,88.2422,33.2482,-6.59245,-12.8514,28.4431,7.12502,13.2364,58.0028,-17.6004,3.67729,21.1744,32.4467,-21.0247,-6.67217,12.1972,-13.5298,0.653695,-24.2607,23.9677,-13.3372,1.25779,-11.3662
1.45632,17.7428,13.013,-173.662,-4.69934,179.404,0.491702,-2.08793,-3.27409,-0.99797,-2.8443,2.93412,-0.994392,-1.4054,4.89591,-23.7762,-2.59423,-8.445,35.076,1.05406,2.37185,16.6898,0.350276,2.95684,-2.03754e-14,-4.77083e-15,-32.5347,-6.3712,-81.2296,32.3598,20.4698,-21.0483,1.70675,7.12502,5.32772,-28.2063,-2.03754e-14,-4.77083e-15,-30.5932,5.0871,88.1892,32.9504,-6.46541,-12.8706,27.7913,7.12502,13.2179,57.3523,-17.5879,3.65706,21.1603,32.4425,-20.9979,-6.7167,12.0038,-13.524,0.633023,-24.2739,23.9857,-13.2966,1.23444,-11.2421
1.45097,17.7428,13.0126,-173.67,-4.6453,179.378,0.518319,-2.06533,-3.29798,-0.990337,-2.81475,2.93589,-1.00349,-1.39019,4.91214,-23.795,-2.58539,-8.42107,35.115,1.09755,2.30266,16.7126,0.362188,2.93329,-1.15295e-14,2.78299e-14,-32.5348,-6.27265,-81.2239,32.3675,20.4345,-21.0961,1.52989,7.12502,5.28157,-28.3843,-1.15295e-14,2.78299e-14,-30.6092,5.17587,88.1681,32.6824,-6.26733,-12.9163,27.2847,7.12502,13.1739,56.8485,-17.5626,3.68119,21.0991,32.4036,-20.9799,-6.6406,12.1531,-13.5348,0.56779,-24.327,24.0695,-13.3452,1.38492,-11.2916
1.44505,17.7462,13.0199,-173.451,-4.21604,179.505,0.386088,-1.92831,-3.18858,-1.04285,-2.63058,2.9606,-1.00711,-1.29912,4.87118,-23.8507,-2.59011,-8.43066,35.1343,1.10085,2.29942,16.7359,0.359778,2.9354,3.18055e-14,-5.88403e-14,-32.5392,-6.24583,-81.2196,32.4085,20.5294,-21.1416,1.56436,7.12502,5.23765,-28.3509,3.18055e-14,-5.88403e-14,-30.5866,5.32865,88.1142,32.3916,-6.43915,-12.8635,27.2207,7.12502,13.2248,56.7812,-17.8828,3.79592,21.1514,32.3344,-20.7075,-6.42738,11.957,-13.8517,0.627049,-24.2567,24.1803,-13.3754,1.72633,-11.0057
1.43876,17.7482,13.0286,-173.058,-3.59875,179.879,0.0256261,-1.70259,-2.82243,-1.12655,-2.32739,3.02227,-0.935141,-1.15412,4.7156,-23.8345,-2.59637,-8.43703,35.1271,1.06981,2.35304,16.7295,0.354394,2.95353,-4.32357e-15,2.8625e-14,-32.5669,-6.34681,-81.2073,32.5248,20.6095,-21.1602,1.62859,7.12502,5.21969,-28.2871,-4.32357e-15,2.8625e-14,-30.5747,5.38231,88.0631,32.123,-6.90998,-12.8214,27.2633,7.12502,13.2653,56.8211,-18.4384,4.06867,21.4366,32.2564,-20.3682,-6.15,11.8275,-14.3866,0.848856,-23.9426,24.2749,-13.3514,2.16297,-11.0717
1.43342,17.7465,13.0241,-173.131,-3.57121,179.984,0.0240111,-1.68202,-2.68609,-1.07649,-2.30036,3.03569,-0.890082,-1.1439,4.65102,-23.784,-2.61597,-8.49529,35.1345,1.06029,2.37334,16.7223,0.347834,2.97095,-7.50412e-15,-1.27222e-14,-32.6031,-6.30083,-81.1903,32.6556,20.5536,-21.1379,1.56018,7.12502,5.24118,-28.355,-7.50412e-15,-1.27222e-14,-30.6123,5.37731,88.0518,31.8833,-7.16776,-12.9047,27.1962,7.12502,13.1851,56.7593,-18.3162,4.05544,21.5391,32.192,-20.318,-6.11758,12.0633,-14.3312,0.791154,-23.8445,24.3461,-13.4192,2.29722,-11.3293
1.42972,17.7439,13.0116,-173.612,-4.09487,179.844,0.370254,-1.85856,-2.79349,-0.910482,-2.53771,3.01023,-0.886304,-1.26233,4.69462,-23.8181,-2.64425,-8.54682,35.1833,1.05743,2.36304,16.7571,0.338037,2.97758,-2.06736e-14,3.57812e-14,-32.493,-6.29284,-81.1697,32.5571,20.5452,-21.1162,1.3589,7.12502,5.26211,-28.5558,-2.06736e-14,3.57812e-14,-30.6437,5.42447,88.0398,31.5992,-7.33458,-13.0044,27.1262,7.12502,13.089,56.6954,-17.6098,3.83059,21.4757,32.1517,-20.6273,-6.33824,12.2216,-13.7525,0.627389,-23.9384,24.3705,-13.5383,1.95226,-11.1243
1.42469,17.7427,13.0046,-173.848,-4.31535,179.814,0.519949,-1.93193,-2.79999,-0.817873,-2.63705,3.00367,-0.86489,-1.3133,4.69538,-23.8796,-2.67517,-8.58213,35.2462,1.04134,2.36476,16.8064,0.326017,2.98494,1.79403e-14,-1.27222e-14,-32.3974,-6.3572,-81.1258,32.4542,20.6143,-21.1118,1.38784,7.12502,5.26644,-28.5267,1.79403e-14,-1.27222e-14,-30.6612,5.64632,87.981,31.3143,-7.58598,-12.9685,27.0358,7.12502,13.1236,56.6029,-17.2777,3.71377,21.4719,32.1527,-20.7504,-6.3914,12.2309,-13.4342,0.605318,-23.9608,24.3242,-13.562,1.7314,-11.947
1.42071,17.7423,13.0039,-173.936,-4.22153,179.762,0.582133,-1.89755,-2.89972,-0.763889,-2.59264,3.01338,-0.844035,-1.29132,4.76293,-23.8491,-2.69884,-8.62966,35.2247,1.03209,2.34058,16.7899,0.312549,2.979,7.60351e-15,-6.20208e-14,-32.3099,-6.43212,-81.0388,32.3874,20.68,-21.1122,1.72551,7.12502,5.26604,-28.1891,7.60351e-15,-6.20208e-14,-30.6748,5.80633,87.977,31.0647,-7.68714,-12.9079,27.1137,7.12502,13.182,56.677,-17.1856,3.74231,21.4107,32.1551,-20.7171,-6.38501,11.9342,-13.3037,0.555933,-24.0307,24.2957,-13.5663,1.80844,-12.8347
1.41748,17.7409,13.0055,-173.986,-4.22427,179.758,0.682314,-1.8755,-2.90321,-0.762716,-2.56359,2.98306,-0.903236,-1.27484,4.73717,-23.8368,-2.71208,-8.53986,35.2993,0.998838,2.31912,16.8279,0.311216,2.95144,-6.41081e-15,-3.73715e-14,-32.3148,-6.5453,-81.0128,32.3379,20.7132,-21.0759,1.78521,7.12502,5.30102,-28.1285,-6.41081e-15,-3.73715e-14,-30.7268,5.79091,87.9386,30.7671,-7.56427,-13.098,27.0183,7.12502,12.9988,56.5934,-17.1454,3.77293,21.3974,32.1552,-20.708,-6.42043,11.7117,-13.2634,0.485768,-24.0379,24.3203,-13.5761,1.87816,-11.6238
1.4136,17.7423,13.0072,-173.957,-4.14872,179.846,0.697935,-1.83916,-2.81063,-0.782075,-2.51399,2.95532,-0.942101,-1.24942,4.65666,-23.8813,-2.7135,-8.43237,35.4047,0.951839,2.36864,16.895,0.315626,2.95167,2.77802e-14,-2.78299e-14,-32.334,-6.6745,-81.0457,32.3221,20.7719,-21.0191,1.44637,7.12502,5.35593,-28.4659,2.77802e-14,-2.78299e-14,-30.8354,5.7688,87.8456,30.5602,-7.16672,-13.2193,26.7705,7.12502,12.8818,56.3529,-17.196,3.77849,21.4728,32.1483,-20.627,-6.38986,11.5284,-13.3406,0.536687,-23.9565,24.3787,-13.6166,1.901,-10.2983
1.40818,17.7452,13.0141,-173.656,-3.70393,179.909,0.497279,-1.7056,-2.74007,-0.872592,-2.33139,2.90686,-0.945775,-1.15705,4.55982,-23.9221,-2.70358,-8.37657,35.4636,0.906013,2.48143,16.936,0.321067,2.98671,-3.8266e-15,1.27222e-14,-32.3488,-6.73355,-81.1274,32.3535,20.7686,-20.9498,1.14639,7.12502,5.42284,-28.7642,-3.8266e-15,1.27222e-14,-30.9197,5.92249,87.66,30.2884,-7.40445,-13.1092,26.753,7.12502,12.9879,56.3288,-17.6382,3.95025,21.4582,32.1541,-20.3444,-6.27616,11.1939,-13.7064,0.654223,-23.9579,24.4324,-13.6183,2.25486,-11.6679
1.40074,17.7498,13.0207,-173.186,-3.05224,180.074,0.121676,-1.51901,-2.60749,-1.03622,-2.07974,2.92171,-0.932266,-1.03205,4.48997,-23.8528,-2.67505,-8.34629,35.5154,0.91653,2.55406,16.9436,0.344791,3.01921,-3.62782e-15,-2.22639e-14,-32.3665,-6.64338,-81.1666,32.354,20.7227,-20.8476,0.991494,7.12502,5.52153,-28.9166,-3.62782e-15,-2.22639e-14,-31.074,6.17906,87.4837,30.0232,-8.21149,-12.7976,27.0098,7.12502,13.2883,56.5662,-18.3091,4.15839,21.5083,32.1644,-19.9814,-6.03132,10.902,-14.2439,0.835928,-23.879,24.4614,-13.5824,2.70191,-12.769
1.39581,17.7484,13.0178,-173.199,-3.00015,180.099,0.166079,-1.53278,-2.65023,-1.09672,-2.10139,2.98432,-1.01365,-1.04107,4.58218,-23.7375,-2.64403,-8.3789,35.5689,1.01912,2.4944,16.9378,0.380576,3.02229,2.00773e-14,-1.90833e-14,-32.2835,-6.43709,-81.0724,32.1423,20.6739,-20.8153,0.91186,7.12502,5.55271,-28.9954,2.00773e-14,-1.90833e-14,-31.3037,6.51822,87.4379,29.8101,-8.62109,-12.5343,27.2799,7.12502,13.542,56.8196,-18.2997,4.18081,21.5223,32.1839,-19.9611,-6.06452,10.7525,-14.2121,0.844224,-23.8658,24.4603,-13.5672,2.68872,-11.4128
1.3928,17.7445,13.01,-173.608,-3.50404,179.96,0.531679,-1.72506,-2.81347,-0.991295,-2.36199,2.99845,-1.07766,-1.16877,4.70107,-23.7646,-2.62295,-8.35793,35.6363,1.10847,2.38104,16.9754,0.404612,2.99043,-2.86747e-14,-1.90833e-14,-32.1024,-6.33358,-80.9926,31.897,20.7164,-20.782,0.951339,7.12502,5.58485,-28.9551,-2.86747e-14,-1.90833e-14,-31.3883,6.68778,87.4424,29.5589,-8.32145,-12.5974,27.256,7.12502,13.4813,56.7996,-17.7372,4.07873,21.4457,32.2157,-20.3243,-6.31206,11.0984,-13.7236,0.787413,-23.9603,24.4313,-13.6059,2.24597,-10.025
1.38943,17.7432,13.0074,-173.746,-3.7318,179.938,0.66474,-1.82744,-2.82742,-0.964879,-2.49979,2.98673,-1.111,-1.23678,4.70215,-23.6914,-2.6098,-8.40394,35.6082,1.11312,2.44557,16.9415,0.411239,3.02622,1.61016e-14,-2.94201e-14,-32.0785,-6.33925,-81.0087,31.8314,20.8609,-20.808,0.887171,7.12502,5.55971,-29.0199,1.61016e-14,-2.94201e-14,-31.4701,6.82862,87.3496,29.2543,-7.81277,-12.9642,26.7338,7.12502,13.1277,56.3006,-17.5366,4.08647,21.441,32.2403,-20.5224,-6.41296,11.373,-13.5474,0.798254,-23.9692,24.4002,-13.6051,1.99541,-10.9934
1.3862,17.7422,13.0077,-173.716,-3.67511,179.931,0.683756,-1.82318,-2.85271,-1.02098,-2.49443,2.97573,-1.17941,-1.23144,4.70718,-23.5124,-2.62193,-8.48517,35.5404,1.06138,2.56315,16.8649,0.400848,3.07736,7.35503e-15,2.54444e-14,-32.2023,-6.26822,-81.0198,31.9253,20.8086,-20.7663,0.858407,7.12502,5.6,-29.0476,7.35503e-15,2.54444e-14,-31.6375,6.9694,87.2633,28.9324,-7.78903,-13.1342,26.6634,7.12502,12.9638,56.2406,-17.5645,4.16631,21.4178,32.2522,-20.5377,-6.4411,11.3695,-13.5602,0.863453,-23.9852,24.3987,-13.6314,1.93376,-11.8734
1.38415,17.7417,13.008,-173.727,-3.65051,179.92,0.716531,-1.82814,-2.89659,-1.02056,-2.50218,2.98816,-1.19425,-1.23457,4.74634,-23.5282,-2.64343,-8.52907,35.5723,1.06701,2.53713,16.8863,0.393274,3.07637,1.73937e-14,9.54166e-15,-32.2205,-6.24951,-80.9633,31.9813,20.8399,-20.7349,1.16626,7.12502,5.63031,-28.7389,1.73937e-14,9.54166e-15,-31.7453,7.19396,87.1892,28.7127,-8.48504,-12.667,27.3806,7.12502,13.4142,56.9287,-17.5455,4.18151,21.4067,32.2425,-20.5353,-6.43455,11.1792,-13.5798,0.931865,-23.9994,24.45,-13.6814,1.86554,-10.6881
1.37952,17.7425,13.0062,-173.691,-3.56302,179.971,0.625589,-1.8161,-2.86089,-0.992795,-2.48581,3.02326,-1.11629,-1.22958,4.75825,-23.5243,-2.66599,-8.60528,35.5368,1.08668,2.46922,16.8679,0.379177,3.06074,-3.39922e-14,-7.95139e-16,-32.2128,-6.1002,-80.9107,32.0555,20.7606,-20.8322,1.518,7.12502,5.53639,-28.3897,-3.39922e-14,-7.95139e-16,-31.7808,7.52015,87.0931,28.5361,-9.44274,-12.0565,28.1402,7.12502,14.0026,57.6486,-17.6111,4.20379,21.4389,32.2496,-20.4783,-6.40943,10.979,-13.6495,1.01367,-23.9764,24.5008,-13.6807,1.95202,-10.0081
1.37293,17.7442,13.0056,-173.467,-3.15498,180.085,0.36254,-1.69215,-2.74082,-1.01564,-2.31737,3.03047,-1.01385,-1.14928,4.68737,-23.5102,-2.68721,-8.66754,35.4808,1.06337,2.47735,16.8375,0.360237,3.06665,1.82385e-14,8.74653e-15,-32.2315,-5.9809,-80.9138,32.1587,20.5586,-21.0395,1.75297,7.12502,5.33625,-28.1598,1.82385e-14,8.74653e-15,-31.8473,7.65616,87.0154,28.3007,-9.72405,-12.193,27.9271,7.12502,13.871,57.4445,-17.9313,4.34138,21.4754,32.2591,-20.3002,-6.2289,10.8584,-13.9059,1.15173,-23.9309,24.5369,-13.734,2.27175,-11.7214
1.36405,17.7444,13.0085,-173.027,-2.52673,180.184,-0.0785605,-1.50773,-2.61478,-1.08435,-2.06653,3.00287,-0.867653,-1.02803,4.57312,-23.568,-2.66067,-8.60104,35.4057,1.05868,2.4641,16.8116,0.359889,3.04368,-8.15017e-15,3.81667e-14,-32.2119,-5.95325,-80.9542,32.25,20.4894,-21.0783,1.76016,7.12502,5.29879,-28.1536,-8.15017e-15,3.81667e-14,-31.9212,7.72192,86.93,28.1178,-9.6674,-12.2855,27.9489,7.12502,13.7819,57.4724,-18.5395,4.53522,21.434,32.2975,-20.0187,-5.85221,10.805,-14.3505,1.11336,-23.91,24.5094,-13.7171,2.7814,-12.0998
1.35958,17.741,13.004,-173.088,-2.44036,180.123,-0.0846359,-1.489,-2.6948,-1.02123,-2.03969,2.97745,-0.800168,-1.01524,4.59052,-23.6386,-2.65629,-8.663,35.4026,1.05096,2.5626,16.8259,0.359369,3.09694,2.27111e-14,1.98785e-14,-32.1509,-6.10727,-80.9212,32.2276,20.5757,-21.0648,1.64076,7.12502,5.31182,-28.2727,2.27111e-14,1.98785e-14,-31.964,7.92082,86.8219,27.9338,-10.0432,-11.8108,28.2173,7.12502,14.2394,57.7092,-18.4891,4.54038,21.3481,32.3595,-20.0202,-5.80411,10.833,-14.1964,0.993273,-23.9797,24.4247,-13.6956,2.90214,-11.2824
1.3576,17.7365,12.9925,-173.615,-2.91985,179.893,0.370805,-1.65738,-2.92478,-0.877646,-2.26652,2.91974,-0.879066,-1.12445,4.67321,-23.6616,-2.66588,-8.79196,35.476,1.02881,2.76124,16.8687,0.363116,3.20851,1.46604e-14,-1.51076e-14,-32.1693,-6.22633,-80.894,32.1786,20.5653,-21.2267,1.66598,7.12502,5.15548,-28.2513,1.46604e-14,-1.51076e-14,-32.1002,8.18499,86.7052,27.6524,-10.176,-11.9836,27.7477,7.12502,14.0728,57.2513,-17.8049,4.32753,21.2006,32.42,-20.3124,-6.0093,10.7605,-13.5226,0.851418,-24.1717,24.331,-13.7142,2.59525,-11.4674
1.3552,17.7356,12.9868,-173.819,-3.16295,179.769,0.547867,-1.76361,-3.05078,-0.804132,-2.40889,2.86151,-0.885556,-1.19405,4.68928,-23.722,-2.6539,-8.70104,35.5244,1.0172,2.75815,16.9085,0.368844,3.19214,-1.02374e-14,2.38542e-14,-32.1759,-6.13921,-81.0136,32.2113,20.2805,-21.4698,1.66233,7.12502,4.92076,-28.2605,-1.02374e-14,2.38542e-14,-32.1724,8.25652,86.6356,27.3975,-9.49788,-12.6319,26.9891,7.12502,13.448,56.535,-17.5185,4.21624,21.1021,32.4342,-20.4578,-6.09285,10.8026,-13.2545,0.784793,-24.2866,24.2755,-13.7294,2.43543,-10.7504
1.35242,17.7359,12.9865,-173.756,-3.1084,179.881,0.533877,-1.761,-2.97463,-0.830065,-2.40575,2.88076,-0.906952,-1.19279,4.66626,-23.7636,-2.63228,-8.53654,35.5391,1.03674,2.61831,16.9257,0.37728,3.10575,5.51627e-15,4.05521e-14,-32.2096,-6.00343,-81.0895,32.2587,20.1421,-21.5907,1.50564,7.12502,4.80403,-28.4199,5.51627e-15,4.05521e-14,-32.1068,8.42633,86.5359,27.0062,-9.23944,-12.7981,26.7903,7.12502,13.2878,56.3467,-17.5865,4.24063,21.2093,32.4115,-20.4222,-6.06005,10.7818,-13.343,0.865029,-24.1777,24.2841,-13.7235,2.41859,-9.75483
1.34797,17.7371,12.9836,-173.718,-3.09621,180.023,0.451248,-1.76347,-2.84918,-0.808879,-2.40876,2.91717,-0.841979,-1.19799,4.62948,-23.8585,-2.62513,-8.4536,35.54,1.04389,2.53665,16.9493,0.37527,3.05644,1.44616e-14,-4.29375e-14,-32.1365,-5.97326,-81.0907,32.203,20.1761,-21.6448,1.54326,7.12502,4.75179,-28.3834,1.44616e-14,-4.29375e-14,-32.081,8.4868,86.4844,26.7731,-9.34185,-12.582,27.1151,7.12502,13.4961,56.6578,-17.6018,4.22434,21.35,32.361,-20.3853,-6.03021,10.733,-13.4158,0.920068,-24.037,24.3629,-13.7792,2.38933,-9.71787
1.34252,17.7403,12.9876,-173.489,-2.80722,180.075,0.246837,-1.67905,-2.7953,-0.844056,-2.29298,2.90438,-0.777741,-1.14158,4.57876,-23.9836,-2.63829,-8.45589,35.5584,1.00994,2.57894,16.9909,0.362078,3.07028,-2.35063e-14,-1.74931e-14,-32.1327,-6.0867,-81.0845,32.2882,20.215,-21.4944,1.54806,7.12502,4.89699,-28.3754,-2.35063e-14,-1.74931e-14,-32.1322,8.69823,86.3809,26.5907,-9.54627,-12.6835,26.97,7.12502,13.3983,56.5191,-17.9,4.30502,21.3339,32.3148,-20.1738,-5.9005,10.3612,-13.7181,1.03672,-24.0386,24.4419,-13.8079,2.5474,-9.77662
1.33775,17.743,12.9937,-173.245,-2.50207,180.109,0.0910507,-1.5863,-2.79217,-0.918671,-2.16725,2.89251,-0.780212,-1.07784,4.56083,-23.9613,-2.63387,-8.42749,35.5276,0.985074,2.60098,16.9703,0.358636,3.06802,3.01159e-14,-2.38542e-14,-32.1822,-6.12007,-81.0997,32.3876,20.1494,-21.4348,1.36199,7.12502,4.95455,-28.5601,3.01159e-14,-2.38542e-14,-32.2111,8.85252,86.3071,26.3879,-9.77199,-12.9211,26.7,7.12502,13.1692,56.2641,-18.241,4.35657,21.2958,32.2977,-19.9608,-5.72377,10.3467,-14.0272,1.09946,-24.0725,24.4701,-13.778,2.82457,-9.97681
1.33526,17.7407,12.9878,-173.502,-2.85402,180.011,0.334437,-1.69703,-2.8859,-0.87536,-2.31627,2.84713,-0.855563,-1.14925,4.57443,-23.8205,-2.62272,-8.33132,35.4591,0.964981,2.54159,16.902,0.358456,3.01573,1.0138e-14,2.38542e-15,-32.2429,-6.20513,-81.082,32.37,20.1677,-21.4516,1.22391,7.12502,4.93831,-28.6985,1.0138e-14,2.38542e-15,-32.3258,8.96081,86.2067,26.1768,-10.0371,-12.9878,26.6154,7.12502,13.1049,56.1836,-17.8472,4.28549,21.2346,32.29,-20.218,-5.8852,10.6447,-13.7252,1.00523,-24.1463,24.4839,-13.8352,2.58955,-9.94207
1.33341,17.7359,12.9827,-173.78,-3.18214,179.944,0.590442,-1.77966,-2.92502,-0.793959,-2.42845,2.79939,-0.904585,-1.20389,4.55487,-23.8167,-2.66497,-8.37407,35.4422,0.903163,2.57,16.8971,0.330842,3.022,1.19768e-14,-2.22639e-14,-32.2515,-6.23509,-81.0524,32.3371,20.2563,-21.4639,1.26042,7.12502,4.92644,-28.6623,1.19768e-14,-2.22639e-14,-32.3876,8.91056,86.1564,26.052,-10.0569,-12.7867,26.8991,7.12502,13.2988,56.4548,-17.4565,4.2151,21.2217,32.2994,-20.4275,-6.06307,10.6389,-13.384,0.829502,-24.1766,24.4716,-13.862,2.43449,-9.83568
1.33004,17.736,12.9817,-173.831,-3.17401,180.049,0.675606,-1.7605,-2.81459,-0.798803,-2.40463,2.82363,-0.963136,-1.1921,4.52073,-23.7995,-2.69873,-8.50973,35.4211,0.87897,2.63941,16.8842,0.312411,3.07031,-7.8023e-15,-8.74653e-15,-32.2905,-6.25142,-80.9888,32.3369,20.3029,-21.4804,1.28649,7.12502,4.9105,-28.6366,-7.8023e-15,-8.74653e-15,-32.495,9.02453,86.1132,25.9971,-10.0946,-12.6152,27.2109,7.12502,13.4641,56.7557,-17.4101,4.24637,21.3296,32.3037,-20.4542,-6.06625,10.5038,-13.3269,0.817357,-24.0702,24.4704,-13.8435,2.434,-9.47812
1.32868,17.7358,12.9813,-173.89,-3.13438,180.093,0.760823,-1.73537,-2.82555,-0.795986,-2.37313,2.84457,-1.00989,-1.1755,4.55159,-23.7279,-2.69875,-8.56642,35.3609,0.886286,2.64907,16.8354,0.310144,3.08208,6.06293e-15,3.89618e-14,-32.2964,-6.20453,-80.9646,32.2871,20.0839,-21.5758,1.35113,7.12502,4.81836,-28.5741,6.06293e-15,3.89618e-14,-32.5723,9.24187,86.0499,25.9062,-10.3644,-12.4711,27.3129,7.12502,13.6029,56.8485,-17.3513,4.30015,21.3788,32.3009,-20.4517,-6.09915,10.3095,-13.293,0.794287,-24.0177,24.528,-13.8636,2.47708,-10.3143
1.32511,17.7361,12.9848,-173.657,-2.77773,180.152,0.536405,-1.62013,-2.82804,-0.834456,-2.21654,2.85161,-0.938771,-1.0985,4.55204,-23.7793,-2.68075,-8.51818,35.3609,0.910008,2.60803,16.846,0.318449,3.06042,-2.23633e-15,-3.18055e-15,-32.3171,-6.11233,-80.9926,32.3566,19.8629,-21.7834,1.28167,7.12502,4.61794,-28.648,-2.23633e-15,-3.18055e-15,-32.5662,9.41703,85.9649,25.7557,-10.6631,-12.4236,27.1256,7.12502,13.6488,56.6581,-17.6686,4.42478,21.3657,32.2767,-20.2536,-5.91227,10.557,-13.6005,0.929787,-24.0092,24.6176,-13.8997,2.71424,-10.3321
1.31823,17.7399,12.9929,-173.162,-2.15828,180.336,0.114278,-1.39772,-2.68819,-0.975862,-1.91653,2.88636,-0.880507,-0.950737,4.49706,-23.8337,-2.72343,-8.56979,35.435,0.859879,2.6722,16.9014,0.300556,3.09258,-5.01931e-15,1.27222e-14,-32.4202,-6.10456,-80.9325,32.4814,19.8369,-21.6808,1.17467,7.12502,4.71697,-28.7528,-5.01931e-15,1.27222e-14,-32.5986,9.51083,85.9226,25.5936,-10.8755,-12.6311,26.7363,7.12502,13.4488,56.2821,-18.3702,4.57156,21.4318,32.2755,-19.8278,-5.63757,10.0864,-14.1841,1.08235,-23.908,24.641,-13.8791,3.13202,-9.36361
1.31589,17.7405,12.9934,-173.143,-2.14758,180.381,0.175387,-1.37774,-2.68383,-1.03638,-1.89139,2.89466,-0.979376,-0.935628,4.50615,-23.7466,-2.76995,-8.59444,35.4096,0.77402,2.71273,16.8738,0.270331,3.09534,0,-3.18055e-15,-32.489,-6.17915,-80.8738,32.4058,19.9146,-21.506,1.28445,7.12502,4.88579,-28.6392,0,-3.18055e-15,-32.7252,9.57324,85.8552,25.4655,-10.9764,-12.6754,26.5001,7.12502,13.4061,56.0487,-18.4044,4.61908,21.4629,32.2787,-19.8525,-5.62595,10.2795,-14.2061,1.11116,-23.8679,24.6351,-13.8718,3.11883,-10.494
1.31698,17.7374,12.9851,-173.552,-2.72806,180.214,0.537947,-1.57728,-2.87961,-0.911058,-2.16014,2.85801,-1.02201,-1.06707,4.58934,-23.6838,-2.76254,-8.56768,35.2694,0.733887,2.71771,16.7879,0.255398,3.07565,-2.96189e-14,7.95139e-16,-32.379,-6.35514,-80.8394,32.1737,20.2331,-21.2943,1.35173,7.12502,5.09022,-28.5671,-2.96189e-14,7.95139e-16,-32.7067,9.60578,85.8044,25.3691,-10.9782,-12.5582,26.5568,7.12502,13.5191,56.098,-17.823,4.53482,21.3829,32.2811,-20.2254,-5.99349,10.3043,-13.7227,0.988309,-23.9737,24.6168,-13.9043,2.68944,-10.7635
1.31573,17.7356,12.9802,-173.783,-3.05428,180.153,0.721673,-1.70606,-2.97613,-0.807659,-2.33408,2.84105,-0.998159,-1.15437,4.63174,-23.7422,-2.70921,-8.44495,35.2075,0.764616,2.66737,16.7661,0.272571,3.03451,2.68856e-14,6.36111e-15,-32.2751,-6.49061,-80.829,32.0623,20.6666,-21.1131,1.25793,7.12502,5.26512,-28.6567,2.68856e-14,6.36111e-15,-32.6723,9.51374,85.8054,25.3444,-10.8701,-12.4547,26.5978,7.12502,13.6188,56.1323,-17.4975,4.49696,21.3786,32.2939,-20.4059,-6.28641,9.97324,-13.4252,0.916802,-24.0043,24.5607,-13.937,2.44539,-9.49669
1.31177,17.734,12.9778,-173.844,-3.06641,180.199,0.74083,-1.7287,-2.95074,-0.767922,-2.36446,2.8432,-0.965825,-1.17112,4.61958,-23.8082,-2.68243,-8.46097,35.2658,0.769669,2.80249,16.8093,0.291584,3.10261,5.86415e-15,3.18055e-15,-32.2247,-6.49354,-80.8419,32.044,20.8123,-20.9233,1.17326,7.12502,5.44843,-28.7367,5.86415e-15,3.18055e-15,-32.7074,9.44989,85.8049,25.3708,-10.6938,-12.565,26.6025,7.12502,13.5125,56.1441,-17.4182,4.43681,21.4277,32.3078,-20.3863,-6.24183,9.94274,-13.3378,0.912195,-23.9636,24.5192,-13.9065,2.44896,-9.30038
1.3116,17.7332,12.9761,-173.893,-3.04391,180.194,0.765461,-1.706,-3.01426,-0.742769,-2.33455,2.83426,-0.954712,-1.15591,4.64634,-23.8742,-2.71133,-8.45394,35.3507,0.716545,2.86493,16.8726,0.280281,3.12396,1.2424e-14,-1.11319e-14,-32.2221,-6.67039,-80.7972,31.9931,20.8873,-20.8886,1.29577,7.12502,5.48193,-28.6133,1.2424e-14,-1.11319e-14,-32.7267,9.37254,85.8194,25.4062,-10.4646,-12.6536,26.5218,7.12502,13.4271,56.0691,-17.3427,4.42334,21.423,32.2885,-20.3923,-6.16449,10.1493,-13.3041,0.993214,-23.9749,24.5686,-13.9195,2.4304,-9.51971
1.30848,17.7342,12.9807,-173.671,-2.71345,180.226,0.610557,-1.59897,-3.02429,-0.806011,-2.18913,2.82583,-0.94774,-1.08234,4.63818,-23.9037,-2.7117,-8.37995,35.3505,0.717123,2.78092,16.8802,0.276937,3.07354,3.54831e-14,-3.02153e-14,-32.2398,-6.75793,-80.7955,31.9607,20.836,-21.0856,1.42443,7.12502,5.29166,-28.4895,3.54831e-14,-3.02153e-14,-32.776,9.50248,85.7544,25.4732,-10.5242,-12.6018,26.6072,7.12502,13.477,56.1512,-17.636,4.51821,21.3884,32.2529,-20.2201,-5.94314,10.5405,-13.586,1.08951,-23.9938,24.6487,-13.9503,2.63348,-10.818
1.30266,17.7395,12.9889,-173.229,-2.10619,180.452,0.240211,-1.40234,-2.82635,-0.938135,-1.92266,2.85176,-0.908559,-0.951343,4.54244,-23.7912,-2.7052,-8.36099,35.2457,0.690337,2.7832,16.8002,0.26941,3.05882,-8.79622e-15,4.21423e-14,-32.279,-6.71527,-80.8517,31.8877,20.6654,-21.5429,1.69129,7.12502,4.85016,-28.2332,-8.79622e-15,4.21423e-14,-32.8554,9.55501,85.7185,25.5748,-10.5535,-12.5969,26.8073,7.12502,13.4817,56.3509,-18.2482,4.78237,21.4948,32.2214,-19.9037,-5.66194,10.8375,-14.1151,1.18674,-23.8454,24.6766,-13.9267,3.12381,-11.8525
1.29854,17.74,12.9877,-173.22,-2.09005,180.49,0.204746,-1.37551,-2.76215,-0.951549,-1.88523,2.81406,-0.909348,-0.932676,4.46588,-23.645,-2.72337,-8.40223,35.1757,0.619317,2.88924,16.733,0.253744,3.0941,-6.5102e-15,1.94809e-14,-32.3786,-6.75529,-80.8696,31.849,20.5969,-21.8302,1.86079,7.12502,4.57275,-28.0699,-6.5102e-15,1.94809e-14,-32.9233,9.42982,85.7026,25.651,-10.4833,-12.5673,26.9093,7.12502,13.5102,56.4511,-18.2581,4.69525,21.5286,32.2054,-19.8148,-5.63629,10.5201,-14.119,1.15774,-23.8245,24.6685,-13.8908,3.19293,-11.696
1.29867,17.737,12.9763,-173.665,-2.64437,180.318,0.540282,-1.52196,-2.92361,-0.819226,-2.08256,2.75203,-0.938889,-1.02912,4.50158,-23.5692,-2.75231,-8.40648,35.1168,0.561886,2.89288,16.6891,0.231323,3.08092,2.3556e-14,0,-32.4522,-6.78169,-80.8401,31.7745,20.5402,-21.8875,1.8019,7.12502,4.51738,-28.1299,2.3556e-14,0,-32.899,9.24825,85.7517,25.6951,-10.3462,-12.4988,27.0588,7.12502,13.5763,56.5961,-17.6196,4.42374,21.4437,32.202,-20.1135,-5.77899,10.6596,-13.5723,0.993858,-23.9401,24.6312,-13.9478,2.83307,-11.7021
1.29862,17.7346,12.9716,-173.866,-2.86912,180.23,0.709578,-1.5734,-3.05388,-0.766291,-2.15359,2.7293,-0.968573,-1.0628,4.55674,-23.5384,-2.76876,-8.41341,35.1329,0.535788,2.91405,16.692,0.224913,3.08722,-7.35503e-15,1.70955e-14,-32.506,-6.77815,-80.8034,31.7288,20.5769,-21.5747,1.80044,7.12502,4.8194,-28.1248,-7.35503e-15,1.70955e-14,-32.8789,9.26533,85.7549,25.6938,-10.3461,-12.3786,27.0854,7.12502,13.6921,56.615,-17.344,4.40677,21.3857,32.2286,-20.3377,-5.89328,10.6298,-13.2842,0.956461,-24.006,24.5436,-13.9909,2.66536,-11.9878
1.29544,17.7343,12.9717,-173.878,-2.83305,180.259,0.69288,-1.53685,-3.04758,-0.733488,-2.10387,2.71365,-0.931276,-1.03904,4.53522,-23.557,-2.77459,-8.42902,35.1165,0.491163,3.00892,16.6902,0.217392,3.12232,9.49197e-15,-4.13472e-14,-32.4095,-6.84006,-80.7778,31.6081,20.7952,-21.1562,1.71523,7.12502,5.22351,-28.2004,9.49197e-15,-4.13472e-14,-32.7937,9.25529,85.7543,25.6919,-10.322,-12.3416,27.1225,7.12502,13.7278,56.6497,-17.3632,4.40239,21.4088,32.2734,-20.3341,-5.90584,10.4372,-13.2141,0.920914,-23.9875,24.4465,-13.9877,2.73483,-12.0433
1.29355,17.7342,12.9719,-173.868,-2.82583,180.225,0.655858,-1.50721,-3.11189,-0.676772,-2.06261,2.67963,-0.855331,-1.01976,4.53359,-23.769,-2.80638,-8.46253,35.1762,0.439232,3.08984,16.7753,0.197346,3.15812,2.32081e-14,-1.82882e-14,-32.2726,-6.92869,-80.795,31.5454,20.869,-20.9087,1.53473,7.12502,5.46251,-28.3749,2.32081e-14,-1.82882e-14,-32.6362,9.22668,85.7635,25.6921,-10.29,-12.504,27.2118,7.12502,13.5713,56.7495,-17.3964,4.36397,21.3701,32.3076,-20.3398,-5.9009,10.2167,-13.1968,0.786135,-24.0232,24.4225,-13.9711,2.81387,-11.6129
1.29091,17.7341,12.9715,-173.868,-2.7886,180.081,0.645852,-1.48059,-3.30374,-0.646804,-2.02689,2.65915,-0.816796,-1.00109,4.61986,-23.9099,-2.84983,-8.59757,35.2377,0.403987,3.2005,16.8445,0.177513,3.22837,-2.99171e-14,-3.18055e-14,-32.2554,-6.91972,-80.7398,31.564,20.8368,-20.7803,1.46277,7.12502,5.58649,-28.4436,-2.99171e-14,-3.18055e-14,-32.536,9.23028,85.8263,25.7073,-10.3115,-12.5273,27.3794,7.12502,13.5489,56.9186,-17.4183,4.38905,21.1872,32.3409,-20.3397,-5.83749,10.4715,-13.2081,0.743502,-24.2044,24.4545,-13.9542,2.91433,-11.7197
1.28612,17.7333,12.9741,-173.711,-2.46731,180.104,0.524159,-1.382,-3.33333,-0.693212,-1.89359,2.6754,-0.808739,-0.93391,4.64998,-23.899,-2.86359,-8.60989,35.2158,0.394895,3.17093,16.8319,0.167016,3.21378,7.8023e-15,-4.69132e-14,-32.296,-6.91003,-80.7023,31.5116,20.8193,-20.9332,1.54913,7.12502,5.4388,-28.3611,7.8023e-15,-4.69132e-14,-32.4878,9.39644,85.8122,25.7399,-10.4193,-12.4501,27.2978,7.12502,13.6232,56.832,-17.6705,4.52394,21.1427,32.3634,-20.182,-5.69731,10.303,-13.4247,0.800321,-24.2465,24.5191,-13.9175,3.21034,-12.2157
1.27989,17.733,12.9817,-173.341,-1.90428,180.184,0.273047,-1.20656,-3.3111,-0.817316,-1.65555,2.68485,-0.820907,-0.813393,4.64141,-23.8722,-2.85074,-8.57763,35.1699,0.392408,3.16046,16.8013,0.168179,3.19994,9.83984e-15,-3.93594e-14,-32.3745,-6.8845,-80.7051,31.5555,20.8709,-21.0546,1.64033,7.12502,5.32161,-28.2729,9.83984e-15,-3.93594e-14,-32.4608,9.58933,85.7558,25.8348,-10.4437,-12.6279,26.8773,7.12502,13.4519,56.4229,-18.2007,4.74481,21.1031,32.3814,-19.9189,-5.3897,10.4393,-13.8824,0.96071,-24.2575,24.5889,-13.9052,3.5847,-11.8575
1.27533,17.7309,12.9827,-173.356,-1.8682,180.254,0.357926,-1.1918,-3.26119,-0.851485,-1.63811,2.69282,-0.906646,-0.802775,4.62407,-23.7865,-2.80849,-8.57188,35.1359,0.412258,3.24305,16.7598,0.192035,3.23784,2.19657e-14,-2.42517e-14,-32.4414,-6.89361,-80.688,31.5541,21.112,-20.8467,1.64432,7.12502,5.5224,-28.2637,2.19657e-14,-2.42517e-14,-32.5062,9.60594,85.7498,25.9904,-10.269,-12.8541,26.5859,7.12502,13.2339,56.1458,-18.1932,4.71206,21.1585,32.3861,-19.8927,-5.34375,10.339,-13.9049,0.97088,-24.2059,24.6628,-13.9082,3.64675,-11.5958
1.27636,17.7286,12.9791,-173.68,-2.29783,180.249,0.680913,-1.28789,-3.27613,-0.778014,-1.77135,2.6626,-0.998885,-0.867374,4.60944,-23.7757,-2.82894,-8.5077,35.1585,0.347524,3.26761,16.7732,0.179633,3.22596,-3.926e-15,-1.90833e-14,-32.4345,-7.04695,-80.697,31.4116,21.2847,-20.8056,1.64619,7.12502,5.56208,-28.2608,-3.926e-15,-1.90833e-14,-32.4569,9.48561,85.7346,26.0472,-10.1779,-12.8177,26.552,7.12502,13.269,56.1097,-17.7591,4.56833,21.2282,32.3986,-20.1732,-5.53243,10.2435,-13.5733,0.908946,-24.1567,24.7039,-13.9257,3.34116,-11.7981
1.27427,17.7281,12.976,-173.797,-2.50167,180.244,0.77655,-1.32185,-3.25341,-0.751353,-1.81689,2.61149,-1.02263,-0.889486,4.54602,-23.8003,-2.8656,-8.3874,35.1894,0.277899,3.18519,16.8007,0.155588,3.15574,8.00108e-15,1.39149e-14,-32.4441,-7.15026,-80.7449,31.3353,21.2771,-20.7902,1.69742,7.12502,5.57689,-28.2092,8.00108e-15,1.39149e-14,-32.4162,9.36529,85.7067,26.1931,-10.0738,-12.4743,26.9885,7.12502,13.5999,56.5243,-17.5956,4.43222,21.2491,32.4016,-20.2867,-5.59207,10.0254,-13.4679,0.873947,-24.1476,24.739,-13.9836,3.21814,-11.7015
1.26969,17.7252,12.9736,-173.785,-2.54995,180.202,0.739678,-1.32498,-3.27147,-0.750618,-1.81901,2.56112,-1.00197,-0.890256,4.50281,-23.7819,-2.87406,-8.32727,35.139,0.243332,3.14182,16.7726,0.142063,3.11549,5.96354e-15,-2.98177e-14,-32.4652,-7.25919,-80.7744,31.3029,21.3772,-20.9111,1.69283,7.12502,5.46022,-28.2168,5.96354e-15,-2.98177e-14,-32.3837,9.31946,85.6913,26.3707,-9.89191,-12.2134,27.5239,7.12502,13.8513,57.0426,-17.5967,4.27161,21.185,32.4012,-20.3116,-5.40765,10.3808,-13.501,0.807787,-24.2099,24.7972,-14.079,3.24834,-11.5273
1.26639,17.7209,12.9716,-173.835,-2.58595,180.161,0.795991,-1.31437,-3.34329,-0.763607,-1.80606,2.53814,-1.04685,-0.881471,4.52135,-23.6436,-2.88175,-8.38801,35.0622,0.208492,3.22211,16.7023,0.134235,3.14985,2.33075e-14,-7.55382e-15,-32.5304,-7.31874,-80.7758,31.2505,21.3258,-20.9965,1.78777,7.12502,5.3777,-28.124,2.33075e-14,-7.55382e-15,-32.4531,9.22716,85.7339,26.6073,-9.81358,-12.0249,27.9454,7.12502,14.033,57.4517,-17.5254,4.16475,21.1306,32.415,-20.3411,-5.27855,10.562,-13.4822,0.747391,-24.272,24.8924,-14.1352,3.32294,-11.861
1.26349,17.7203,12.9747,-173.701,-2.46471,180.238,0.713387,-1.23499,-3.30168,-0.823183,-1.69877,2.5466,-1.07375,-0.826968,4.50424,-23.5064,-2.9108,-8.48066,34.9808,0.151284,3.31122,16.6327,0.113922,3.18875,5.91384e-15,-8.74653e-15,-32.6344,-7.24799,-80.7952,31.3499,21.187,-20.9458,1.8813,7.12502,5.42673,-28.0292,5.91384e-15,-8.74653e-15,-32.4692,9.19654,85.7687,26.7351,-9.99255,-12.1153,27.8887,7.12502,13.9459,57.401,-17.7307,4.13927,21.1782,32.4448,-20.2355,-5.1847,10.5768,-13.7131,0.763237,-24.2179,25.0195,-14.1851,3.38517,-11.9108
1.25849,17.7184,12.9811,-173.459,-2.17709,180.288,0.499232,-1.10353,-3.24265,-0.864425,-1.51834,2.52015,-1.01656,-0.738044,4.43679,-23.4662,-2.94272,-8.56271,34.9076,0.0866097,3.40107,16.5912,0.0884719,3.2253,1.16786e-14,-1.11319e-14,-32.7105,-7.11602,-80.8573,31.5578,21.0635,-20.8397,1.76448,7.12502,5.52916,-28.1434,1.16786e-14,-1.11319e-14,-32.3465,9.03038,85.8355,26.8418,-9.92152,-12.1775,27.6183,7.12502,13.8859,57.1347,-18.1052,4.21915,21.1518,32.5001,-20.0972,-4.99236,10.9295,-14.0642,0.783844,-24.2216,25.1555,-14.2432,3.59686,-11.9944
1.25426,17.715,12.9824,-173.349,-2.04706,180.326,0.335467,-1.02286,-3.16696,-0.844427,-1.40559,2.46655,-0.918385,-0.684452,4.3332,-23.4611,-2.98784,-8.56357,34.8286,-0.0254146,3.46218,16.5582,0.0483559,3.22486,-1.85864e-14,9.93923e-15,-32.7309,-7.0531,-80.9518,31.6836,20.9971,-20.7096,1.66508,7.12502,5.65474,-28.2395,-1.85864e-14,9.93923e-15,-32.1539,8.8626,85.8537,26.9316,-9.74598,-12.2383,27.5298,7.12502,13.8273,57.0502,-18.3014,4.20366,21.1582,32.5848,-20.0487,-4.91826,10.4617,-14.2331,0.748377,-24.2088,25.2611,-14.2896,3.73303,-11.7158
1.25134,17.7102,12.9814,-173.417,-2.11069,180.303,0.38384,-1.02456,-3.21754,-0.821975,-1.40843,2.45667,-0.921246,-0.685377,4.35238,-23.4522,-3.0095,-8.53727,34.8098,-0.064011,3.43638,16.5497,0.0318478,3.19973,-1.23743e-14,-1.31198e-14,-32.7277,-7.07353,-80.9567,31.6257,21.083,-20.6849,1.60463,7.12502,5.67856,-28.2993,-1.23743e-14,-1.31198e-14,-32.113,8.71137,85.922,27.1198,-9.52858,-12.3304,27.4154,7.12502,13.7385,56.9418,-18.2612,4.11376,21.138,32.6942,-20.1157,-4.8606,10.4821,-14.182,0.682059,-24.2311,25.3195,-14.3334,3.69625,-11.5141
1.24762,17.7068,12.9801,-173.508,-2.1543,180.204,0.49971,-1.01559,-3.35848,-0.824045,-1.39916,2.44509,-0.986439,-0.677498,4.4228,-23.4123,-3.04042,-8.59918,34.8099,-0.0955522,3.46746,16.5439,0.016833,3.21791,1.73937e-15,-1.07344e-14,-32.7267,-7.07448,-80.9092,31.5084,21.1558,-20.7302,1.62794,7.12502,5.6348,-28.2771,1.73937e-15,-1.07344e-14,-32.077,8.69455,85.9857,27.2127,-9.35423,-12.4635,27.278,7.12502,13.6103,56.8131,-18.1974,4.00864,21.0235,32.8,-20.1937,-4.77158,10.6947,-14.0913,0.627868,-24.3494,25.3535,-14.3519,3.73629,-11.4371
1.24266,17.705,12.9797,-173.586,-2.2094,180.153,0.576897,-1.00473,-3.39317,-0.800085,-1.38539,2.40642,-1.00662,-0.669599,4.40349,-23.4422,-3.06541,-8.62602,34.8497,-0.14208,3.54211,16.5752,0.00590245,3.24909,5.66536e-15,8.34896e-15,-32.6937,-7.09054,-80.9243,31.4521,21.224,-20.7622,1.60824,7.12502,5.60396,-28.2977,5.66536e-15,8.34896e-15,-32.0093,8.51161,86.0629,27.4001,-9.10734,-12.4317,27.4727,7.12502,13.6409,57.0057,-18.1593,3.9125,20.9664,32.9161,-20.22,-4.76304,10.4416,-14.0033,0.568489,-24.4185,25.3665,-14.4437,3.72374,-11.2522
1.23978,17.7022,12.9796,-173.652,-2.25087,180.127,0.624566,-0.999644,-3.45574,-0.752642,-1.37935,2.39792,-0.983981,-0.666941,4.43044,-23.5514,-3.06242,-8.54651,34.8911,-0.133008,3.47046,16.6211,0.00767813,3.20802,-1.21259e-14,1.70955e-14,-32.6408,-7.03263,-80.9531,31.4694,21.2105,-20.6362,1.62631,7.12502,5.72557,-28.2763,-1.21259e-14,1.70955e-14,-31.9507,8.34211,86.1677,27.689,-8.97877,-12.4005,27.5986,7.12502,13.6711,57.1296,-18.1389,3.90229,20.9363,33.0336,-20.299,-4.76382,10.3867,-13.9422,0.504472,-24.4461,25.3932,-14.516,3.72729,-11.1048
1.23556,17.6985,12.9789,-173.689,-2.31404,180.128,0.656985,-1.01485,-3.47139,-0.720337,-1.40046,2.41025,-0.966134,-0.678305,4.45258,-23.6604,-3.03111,-8.45872,34.9268,-0.0610352,3.33993,16.6591,0.0275772,3.15169,9.39258e-15,2.8625e-14,-32.5226,-6.94829,-80.9684,31.3692,21.2219,-20.7341,2.00095,7.12502,5.63106,-27.9042,9.39258e-15,2.8625e-14,-31.837,8.32862,86.2451,27.8654,-8.87408,-12.3195,27.6316,7.12502,13.7491,57.1573,-18.1617,3.82143,20.9314,33.1422,-20.345,-4.75799,10.1362,-13.9259,0.522452,-24.4547,25.4458,-14.5464,3.66195,-11.1286
1.23255,17.6935,12.9783,-173.677,-2.36117,180.118,0.622248,-1.02934,-3.5297,-0.700842,-1.41912,2.41429,-0.923224,-0.688424,4.48897,-23.6867,-3.0132,-8.45998,34.9418,-0.0380524,3.36312,16.6709,0.0401666,3.16809,1.59028e-15,-1.43125e-14,-32.3685,-6.97706,-81.0044,31.1975,21.2478,-20.9821,2.43304,7.12502,5.39161,-27.4784,1.59028e-15,-1.43125e-14,-31.7027,8.3734,86.2742,27.9326,-8.92287,-12.5051,27.6092,7.12502,13.5702,57.147,-18.2351,3.79645,20.9102,33.27,-20.3683,-4.76532,10.013,-13.9622,0.627423,-24.4785,25.4833,-14.5556,3.51965,-11.1606
1.22836,17.6899,12.9756,-173.697,-2.41318,180.172,0.620285,-1.02769,-3.49255,-0.721245,-1.41683,2.41234,-0.944252,-0.686838,4.4661,-23.5183,-3.00338,-8.47825,34.8884,-0.0483827,3.41764,16.6038,0.0463834,3.19004,1.05356e-14,-3.18055e-15,-32.4363,-6.96221,-81.0623,31.2031,21.2749,-21.0288,2.28127,7.12502,5.34649,-27.6313,1.05356e-14,-3.18055e-15,-31.6921,8.23137,86.3008,28.0076,-8.83961,-12.7798,27.3592,7.12502,13.3055,56.9145,-18.2763,3.75012,20.9575,33.439,-20.4364,-4.7444,9.79249,-13.9266,0.675043,-24.4303,25.4773,-14.5275,3.36176,-10.9911
1.225,17.6867,12.9711,-173.717,-2.39058,180.065,0.576894,-1.00263,-3.59474,-0.753074,-1.38122,2.32391,-0.95609,-0.666454,4.43129,-23.2975,-3.03582,-8.44695,34.867,-0.123415,3.43319,16.5462,0.029716,3.17453,6.36111e-15,-2.14687e-14,-32.6557,-7.04472,-81.1514,31.3987,21.309,-20.8288,1.73783,7.12502,5.53967,-28.1698,6.36111e-15,-2.14687e-14,-31.7414,8.00549,86.2774,28.1343,-8.56604,-12.8968,27.2783,7.12502,13.1927,56.8409,-18.3319,3.71982,20.8212,33.6391,-20.5078,-4.7019,9.66376,-13.8625,0.808435,-24.5654,25.4625,-14.498,3.22926,-11.0393
1.22127,17.6832,12.9675,-173.733,-2.38657,179.843,0.552311,-0.999282,-3.80575,-0.743606,-1.37517,2.22756,-0.930724,-0.661299,4.45003,-23.3149,-3.06347,-8.5,34.9492,-0.152226,3.5056,16.5955,0.0240938,3.21544,-1.635e-14,7.15625e-15,-32.7243,-6.9914,-81.2609,31.6133,21.2147,-20.6794,1.31778,7.12502,5.68388,-28.586,-1.635e-14,7.15625e-15,-31.7065,7.78538,86.2971,28.3281,-8.31531,-12.6792,27.3259,7.12502,13.4024,56.8748,-18.3961,3.59211,20.5599,33.8657,-20.5696,-4.5661,9.49283,-13.7997,0.911273,-24.8285,25.4333,-14.5257,3.09683,-10.8911
1.21745,17.6797,12.9665,-173.779,-2.47948,179.766,0.615557,-1.00382,-3.87706,-0.725301,-1.38256,2.18835,-0.945926,-0.663836,4.45087,-23.364,-3.09741,-8.63891,35.0147,-0.184848,3.65093,16.6449,0.0143994,3.30237,-5.51627e-15,1.70955e-14,-32.742,-6.93066,-81.3411,31.7497,21.176,-20.7192,1.24354,7.12502,5.64542,-28.6613,-5.51627e-15,1.70955e-14,-31.6425,7.65802,86.3279,28.4645,-8.36276,-12.6329,27.2726,7.12502,13.4471,56.8185,-18.4323,3.46632,20.4628,34.1054,-20.6691,-4.44872,9.81966,-13.747,1.00136,-24.9185,25.4152,-14.5279,2.91768,-10.6335
1.21425,17.6771,12.9658,-173.811,-2.6468,179.768,0.682899,-1.068,-3.89524,-0.757764,-1.47126,2.21516,-1.00668,-0.706202,4.49192,-23.1701,-3.06986,-8.72004,34.9563,-0.119003,3.65073,16.5642,0.0356345,3.32562,3.67752e-15,-3.97569e-16,-32.8084,-6.72176,-81.3702,31.7866,21.1904,-20.8131,1.3776,7.12502,5.55477,-28.5296,3.67752e-15,-3.97569e-16,-31.7235,7.65726,86.3698,28.6847,-8.36961,-12.6293,27.2373,7.12502,13.4505,56.783,-18.4924,3.38038,20.4603,34.3238,-20.7848,-4.45299,9.72468,-13.7703,1.17141,-24.9107,25.4833,-14.6109,2.54472,-10.2624
1.20873,17.6745,12.9642,-173.827,-2.79242,179.791,0.670957,-1.18073,-3.90621,-0.808847,-1.62366,2.30317,-1.03365,-0.781668,4.59169,-22.8189,-2.996,-8.85398,34.8285,0.0463374,3.59277,16.4036,0.085312,3.34716,-5.66536e-15,1.66979e-14,-32.8879,-6.22454,-81.39,31.7759,21.1349,-20.7818,1.43188,7.12502,5.58498,-28.4745,-5.66536e-15,1.66979e-14,-31.9043,7.88488,86.4198,29.006,-8.24131,-12.5223,27.3876,7.12502,13.5536,56.9264,-18.5688,3.2516,20.473,34.5297,-20.8824,-4.3664,9.87889,-13.8346,1.30249,-24.8979,25.6309,-14.735,2.27242,-10.5094
1.20439,17.6686,12.9626,-173.848,-2.90245,179.903,0.681627,-1.23668,-3.80965,-0.837641,-1.69975,2.37594,-1.06162,-0.820265,4.61415,-22.6572,-2.97049,-8.97322,34.8076,0.130529,3.59859,16.3491,0.110399,3.38545,2.03754e-15,1.15295e-14,-32.9112,-5.99873,-81.3815,31.7443,21.1435,-20.7323,1.62985,7.12502,5.63284,-28.2753,2.03754e-15,1.15295e-14,-31.9957,7.9453,86.4758,29.249,-8.16554,-12.3644,27.4306,7.12502,13.7058,56.9593,-18.6594,3.10568,20.5966,34.738,-20.9285,-4.31904,9.81594,-13.9116,1.41012,-24.7855,25.8292,-14.8348,2.09309,-10.8544
1.20131,17.6586,12.9612,-173.926,-2.91068,179.859,0.790473,-1.1979,-3.87676,-0.823596,-1.65102,2.35263,-1.11239,-0.793747,4.6301,-22.6095,-2.96545,-8.93751,34.7521,0.132701,3.54742,16.3096,0.109218,3.35354,7.10655e-15,1.39149e-14,-32.949,-6.01228,-81.3773,31.8177,21.0544,-20.769,2.04229,7.12502,5.59743,-27.8638,7.10655e-15,1.39149e-14,-31.957,7.65047,86.5896,29.3886,-8.05808,-12.4348,27.4921,7.12502,13.638,57.0253,-18.7066,3.06402,20.5416,34.9942,-20.9768,-4.25599,9.84108,-13.9072,1.46811,-24.8456,26.0115,-14.9276,2.02947,-10.6166
1.19933,17.6482,12.9612,-174.017,-3.0028,179.826,0.897475,-1.21038,-3.96859,-0.821059,-1.67176,2.35912,-1.16496,-0.801758,4.692,-22.4914,-2.92389,-8.87896,34.7134,0.208735,3.43762,16.2561,0.136666,3.30742,-1.98785e-14,3.45885e-14,-33.0123,-5.91608,-81.3926,31.9071,21.0076,-20.7898,2.36769,7.12502,5.57728,-27.5389,-1.98785e-14,3.45885e-14,-31.9714,7.47063,86.6661,29.491,-7.97303,-12.4603,27.5415,7.12502,13.6134,57.0764,-18.7506,2.92556,20.5151,35.3213,-21.0178,-4.12429,9.99143,-13.8728,1.49949,-24.876,26.1144,-15.0546,1.87774,-10.2111
1.19871,17.6414,12.9597,-174.123,-3.12464,179.639,1.01075,-1.23854,-4.19241,-0.794276,-1.7141,2.3115,-1.19149,-0.819725,4.77253,-22.3919,-2.90592,-8.90652,34.6792,0.239025,3.44437,16.2131,0.149721,3.31887,8.29926e-15,7.95139e-15,-33.0232,-5.86225,-81.4317,32.0376,20.9446,-20.7093,2.14816,7.12502,5.65501,-27.7564,8.29926e-15,7.95139e-15,-31.9275,7.43568,86.6887,29.5911,-7.93127,-12.4085,27.5125,7.12502,13.6633,57.044,-18.8018,2.82975,20.3295,35.7235,-21.1512,-4.08899,10.0763,-13.7477,1.55444,-25.0719,26.1063,-15.1588,1.67956,-9.90565
1.19677,17.64,12.9568,-174.183,-3.17368,179.329,1.13823,-1.25422,-4.49669,-0.796357,-1.74183,2.20279,-1.25676,-0.827569,4.83586,-22.3902,-2.92484,-8.95886,34.7203,0.21558,3.51063,16.2355,0.144248,3.35515,7.20594e-15,1.63003e-14,-33.0463,-5.7812,-81.5108,32.1223,20.854,-20.699,1.74769,7.12502,5.66499,-28.1566,7.20594e-15,1.63003e-14,-31.8894,7.39243,86.6906,29.7209,-7.79068,-12.4385,27.4847,7.12502,13.6344,57.0181,-18.9546,2.68298,19.9977,36.1557,-21.1749,-4.15277,9.27025,-13.6313,1.61221,-25.4182,26.0613,-15.143,1.54123,-9.89862
1.19307,17.6382,12.9534,-174.283,-3.21635,179.159,1.31191,-1.25647,-4.65315,-0.786073,-1.75301,2.13597,-1.34,-0.828715,4.85984,-22.4513,-2.93629,-8.94361,34.7734,0.213953,3.48775,16.277,0.142044,3.34572,-1.92324e-14,4.37326e-15,-33.0457,-5.68604,-81.5898,32.1503,20.7342,-20.7128,1.55823,7.12502,5.65162,-28.3464,-1.92324e-14,4.37326e-15,-31.9134,7.20057,86.7417,29.9457,-7.65724,-12.6169,27.5106,7.12502,13.4625,57.0555,-19.0865,2.4996,19.8084,36.6211,-21.1836,-4.16408,8.47072,-13.4766,1.74307,-25.6129,26.0145,-15.1052,1.34592,-9.71454
1.18797,17.6322,12.9498,-174.349,-3.25349,179.138,1.40894,-1.26615,-4.65272,-0.770632,-1.76957,2.13637,-1.37662,-0.836165,4.86278,-22.5391,-2.92909,-8.93927,34.8149,0.270715,3.39839,16.3152,0.151395,3.31973,-2.03754e-15,-9.93923e-15,-33.0356,-5.49634,-81.636,32.2313,20.6469,-20.8239,1.70287,7.12502,5.54436,-28.2046,-2.03754e-15,-9.93923e-15,-31.9098,7.06422,86.8219,30.1171,-7.52692,-12.666,27.3995,7.12502,13.4152,56.9476,-19.2317,2.31149,19.7681,37.1084,-21.2933,-3.92902,8.68895,-13.3869,1.88698,-25.6483,25.9903,-15.1805,1.15022,-9.35083
1.18311,17.6206,12.9484,-174.419,-3.21895,179.038,1.45009,-1.24319,-4.72619,-0.709282,-1.74053,2.09547,-1.33901,-0.82285,4.86132,-22.6232,-2.92789,-8.95351,34.835,0.29807,3.36764,16.3436,0.153968,3.31567,2.08724e-15,1.63003e-14,-32.9302,-5.4012,-81.683,32.2844,20.6177,-20.8648,1.85037,7.12502,5.50489,-28.0581,2.08724e-15,1.63003e-14,-31.7633,6.90977,86.8736,30.1583,-7.4238,-12.6004,27.2325,7.12502,13.4783,56.7764,-19.3828,2.2047,19.6423,37.6027,-21.2823,-3.66309,9.00947,-13.3323,2.12509,-25.7862,26.0313,-15.3015,0.990997,-9.38784
1.17889,17.6128,12.9443,-174.499,-3.10586,178.867,1.43657,-1.20179,-4.86597,-0.636135,-1.68527,2.00502,-1.2613,-0.797081,4.84363,-22.5078,-2.89422,-8.94866,34.7163,0.313395,3.38339,16.2543,0.163733,3.31701,-8.99501e-15,-6.36111e-15,-32.7823,-5.39956,-81.7781,32.2499,20.6444,-20.9044,1.74653,7.12502,5.46664,-28.163,-8.99501e-15,-6.36111e-15,-31.6361,6.75237,86.8897,30.1936,-7.361,-12.8325,27.2194,7.12502,13.2547,56.778,-19.5588,2.15649,19.4458,38.1281,-21.0549,-3.55683,8.3334,-13.2558,2.36119,-26,26.0905,-15.3572,0.848899,-9.21052
1.17574,17.606,12.942,-174.554,-3.02753,178.723,1.52113,-1.16376,-4.99009,-0.642556,-1.64025,1.92496,-1.3198,-0.771085,4.83212,-22.2602,-2.85129,-8.93401,34.54,0.333994,3.37611,16.1053,0.177013,3.30358,-4.62174e-15,-1.59028e-15,-32.7229,-5.46918,-81.8334,32.1697,20.742,-20.893,1.66219,7.12502,5.47771,-28.247,-4.62174e-15,-1.59028e-15,-31.6665,6.59008,86.8809,30.2963,-7.2487,-13.0485,27.1334,7.12502,13.0465,56.7054,-19.7978,2.11986,19.2654,38.7369,-20.9739,-3.3761,8.17423,-13.1863,2.5642,-26.1799,26.0884,-15.3843,0.685056,-8.9157
1.17398,17.5984,12.9399,-174.614,-2.98621,178.49,1.63865,-1.15006,-5.22752,-0.625487,-1.63168,1.86158,-1.3648,-0.763156,4.90336,-22.2836,-2.83867,-9.01822,34.601,0.405847,3.37738,16.1365,0.197627,3.3369,-1.14301e-15,7.55382e-15,-32.6902,-5.52615,-81.8298,32.2102,20.8831,-20.9003,1.8273,7.12502,5.47064,-28.0821,-1.14301e-15,7.55382e-15,-31.6478,6.47517,86.9122,30.4391,-7.05978,-13.0126,27.3496,7.12502,13.0811,56.9194,-20.0654,2.05849,18.9947,39.4161,-21.0476,-3.27574,8.2838,-13.0724,2.68026,-26.4525,26.0242,-15.3748,0.636584,-8.98942
1.17002,17.5905,12.9366,-174.693,-2.83075,178.18,1.69302,-1.11038,-5.5096,-0.524537,-1.58539,1.76454,-1.29227,-0.741666,4.9609,-22.5059,-2.84309,-9.07844,34.6987,0.455324,3.36618,16.2348,0.202952,3.35913,-6.06293e-15,-1.31198e-14,-32.649,-5.51392,-81.8693,32.522,20.7609,-20.6391,1.93754,7.12502,5.72281,-27.9652,-6.06293e-15,-1.31198e-14,-31.4879,6.47691,86.893,30.5014,-6.92145,-12.89,27.4485,7.12502,13.1992,57.0106,-20.3812,2.0097,18.6506,40.1475,-20.98,-3.44495,6.73497,-12.9114,2.91926,-26.8212,25.9372,-15.3848,0.573625,-9.04666
1.16355,17.5807,12.9343,-174.734,-2.68331,178.047,1.74943,-1.05552,-5.56022,-0.48686,-1.51579,1.68677,-1.29463,-0.707104,4.90783,-22.576,-2.86225,-9.11998,34.7788,0.452696,3.39536,16.2924,0.200539,3.38407,-1.3418e-14,9.93923e-15,-32.6622,-5.51545,-81.9297,32.8513,20.4431,-20.1825,1.65084,7.12502,6.16363,-28.2395,-1.3418e-14,9.93923e-15,-31.385,6.46686,86.8522,30.5106,-6.80678,-12.7998,27.3141,7.12502,13.2862,56.8706,-20.767,1.96184,18.4961,40.9089,-20.8972,-3.43783,5.88431,-12.7925,3.10135,-26.9914,25.8406,-15.3847,0.48566,-7.45002
1.16075,17.576,12.9334,-174.764,-2.69417,177.916,1.90821,-1.05877,-5.64351,-0.509587,-1.53162,1.61893,-1.40511,-0.71011,4.88893,-22.5854,-2.85174,-9.11623,34.878,0.487948,3.40574,16.3417,0.220642,3.40153,6.85807e-15,-6.36111e-15,-32.7182,-5.4823,-82.0186,33.0558,20.266,-19.905,1.26787,7.12502,6.43149,-28.6145,6.85807e-15,-6.36111e-15,-31.3941,6.46642,86.7897,30.6345,-6.62311,-12.6157,27.3583,7.12502,13.4636,56.9032,-21.1325,1.83968,18.3655,41.6802,-20.8747,-3.35353,6.30662,-12.707,3.1438,-27.1288,25.7583,-15.3594,0.369254,-4.50737
1.15921,17.5747,12.9324,-174.786,-2.74232,177.725,2.0833,-1.07851,-5.81018,-0.536398,-1.57323,1.5576,-1.5235,-0.724805,4.92534,-22.5811,-2.83111,-9.09086,34.9007,0.540223,3.34348,16.3483,0.237806,3.38146,4.44781e-15,-1.39149e-14,-32.7568,-5.41874,-82.0685,33.0908,20.4311,-20.1286,1.35223,7.12502,6.2157,-28.5366,4.44781e-15,-1.39149e-14,-31.4331,6.45455,86.774,30.7958,-6.42536,-12.5357,27.6334,7.12502,13.5407,57.1731,-21.5286,1.68747,18.1727,42.4648,-20.8275,-3.34468,6.29231,-12.6385,3.25416,-27.3407,25.6981,-15.3364,0.205363,-3.01117
1.15464,17.5718,12.9292,-174.805,-2.68736,177.561,2.1128,-1.06542,-5.9286,-0.486001,-1.56028,1.4884,-1.48855,-0.719747,4.91983,-22.5934,-2.81348,-9.0491,34.8128,0.53822,3.31657,16.3064,0.234722,3.35623,-1.26228e-14,1.03368e-14,-32.689,-5.48643,-82.1052,33.0549,20.8831,-20.5311,1.70349,7.12502,5.82703,-28.1964,-1.26228e-14,1.03368e-14,-31.3522,6.50337,86.7399,30.8426,-6.23113,-12.4933,27.9249,7.12502,13.5816,57.4619,-21.9832,1.57499,17.9891,43.3013,-20.693,-3.36186,6.01659,-12.5606,3.44274,-27.5437,25.608,-15.3594,0.0692781,-2.0933
1.14813,17.5674,12.9261,-174.831,-2.61751,177.472,2.12368,-1.02231,-5.90968,-0.431997,-1.50281,1.39865,-1.449,-0.694084,4.81341,-22.6158,-2.83716,-8.95868,34.7704,0.475137,3.25985,16.2954,0.209635,3.30026,1.32689e-14,7.95139e-16,-32.6479,-5.55931,-82.1954,33.0727,20.9486,-20.75,1.74766,7.12502,5.61574,-28.1579,1.32689e-14,7.95139e-16,-31.2496,6.55224,86.6695,30.8651,-6.01646,-12.4236,28.0498,7.12502,13.6487,57.5823,-22.4105,1.46762,17.8868,44.163,-20.5314,-3.41075,5.89889,-12.446,3.35089,-27.6366,25.5193,-15.3807,0.0776054,-0.590656
1.14326,17.5669,12.9254,-174.875,-2.53328,177.378,2.27471,-0.983848,-5.9253,-0.461416,-1.46294,1.31933,-1.57104,-0.669442,4.74256,-22.4698,-2.81651,-8.8062,34.7134,0.481732,3.12392,16.2317,0.216967,3.21121,-9.34288e-15,6.36111e-15,-32.7483,-5.48034,-82.2853,33.1773,20.7294,-20.7714,1.59276,7.12502,5.59508,-28.3134,-9.34288e-15,6.36111e-15,-31.2883,6.55922,86.5889,30.9204,-5.71497,-12.3849,28.0917,7.12502,13.686,57.6217,-22.8186,1.27817,17.8066,45.0346,-20.4249,-3.59044,4.69003,-12.3394,3.26042,-27.7217,25.4594,-15.3839,0.072735,-0.775707
1.1378,17.5769,12.9207,-174.889,-2.41954,177.374,2.36925,-0.961365,-5.85259,-0.483662,-1.43741,1.29778,-1.65259,-0.654204,4.68077,-22.4047,-2.77425,-8.84156,34.7235,0.546803,3.16819,16.2156,0.249057,3.25019,3.18055e-15,2.22639e-14,-32.7674,-5.38772,-82.3191,33.1587,20.6574,-20.7736,1.74895,7.12502,5.59296,-28.1572,3.18055e-15,2.22639e-14,-31.3123,6.60348,86.5613,30.9315,-5.47391,-12.4919,28.0313,7.12502,13.583,57.5682,-23.2741,1.17125,17.8098,45.8553,-20.2989,-3.78125,3.30855,-12.3287,3.56001,-27.7894,25.4046,-15.3421,0.0746646,-1.13782
1.13298,17.5801,12.9125,-174.92,-2.25054,177.34,2.44066,-0.935739,-5.7991,-0.496373,-1.40691,1.25445,-1.71191,-0.637425,4.60626,-22.3953,-2.71217,-8.8531,34.7841,0.645385,3.20961,16.2348,0.297545,3.29376,-2.98177e-16,5.1684e-15,-32.734,-5.26206,-82.3873,33.065,20.6253,-20.8585,1.91587,7.12502,5.51096,-27.9925,-2.98177e-16,5.1684e-15,-31.3472,6.75566,86.4786,30.8824,-5.30865,-12.5501,27.8792,7.12502,13.5269,57.4199,-23.7291,1.18325,17.7621,46.6204,-20.1299,-3.96085,2.51857,-12.291,3.89997,-27.8918,25.3556,-15.3615,0.0925483,-1.61822
1.12849,17.5767,12.9058,-174.993,-2.09702,177.254,2.61273,-0.916474,-5.84236,-0.521435,-1.39392,1.23968,-1.83561,-0.625886,4.61927,-22.3936,-2.66861,-8.91694,34.8378,0.756917,3.20106,16.2531,0.33625,3.32652,-3.18055e-15,1.35174e-14,-32.74,-5.07875,-82.424,33.038,20.5388,-20.8797,1.93863,7.12502,5.49048,-27.9702,-3.18055e-15,1.35174e-14,-31.46,6.92408,86.45,30.887,-5.21003,-12.611,28.0628,7.12502,13.4682,57.6073,-24.1549,1.18163,17.6818,47.3363,-19.9349,-4.43703,0.76506,-12.1651,3.91531,-27.9994,25.3267,-15.4242,0.212757,-1.8874
1.12249,17.5778,12.8972,-175.005,-1.96087,177.251,2.72278,-0.889099,-5.772,-0.561437,-1.36285,1.22506,-1.94455,-0.606678,4.56624,-22.4327,-2.67128,-8.95865,34.9055,0.779792,3.21841,16.2949,0.343236,3.35038,-2.31087e-15,1.19271e-15,-32.7688,-4.92946,-82.4887,33.0755,20.4445,-20.8739,1.80812,7.12502,5.49607,-28.1006,-2.31087e-15,1.19271e-15,-31.5635,6.98856,86.418,30.8536,-5.21165,-12.7738,28.1559,7.12502,13.3112,57.7107,-24.6218,1.13091,17.695,47.9991,-19.7811,-4.8761,-0.116863,-12.0839,3.99079,-28.0341,25.2539,-15.4483,0.331939,-2.28282
1.11699,17.578,12.8864,-174.973,-1.84437,177.229,2.72693,-0.857947,-5.6986,-0.572818,-1.32003,1.18433,-1.96627,-0.585388,4.48094,-22.3921,-2.69172,-9.00758,34.8404,0.753466,3.21564,16.2553,0.324074,3.34791,4.72114e-16,-9.14409e-15,-32.8115,-4.94838,-82.5279,33.1939,20.5799,-20.8034,1.6958,7.12502,5.56412,-28.2111,4.72114e-16,-9.14409e-15,-31.5798,7.00922,86.3769,30.7977,-5.15895,-12.7264,28.1495,7.12502,13.3569,57.7014,-25.1212,1.08063,17.6918,48.6196,-19.8061,-5.30778,-0.993335,-12.0073,4.07823,-28.0854,25.1241,-15.4574,0.332091,-1.99167
1.11484,17.5795,12.8762,-174.926,-1.78844,177.086,2.73535,-0.863786,-5.81806,-0.557218,-1.33305,1.14555,-1.95177,-0.591597,4.50857,-22.422,-2.65233,-8.93447,34.773,0.810627,3.10522,16.2245,0.337705,3.29368,-1.46604e-15,-3.97569e-15,-32.7773,-4.87266,-82.577,33.3097,20.6414,-20.8013,1.66255,7.12502,5.56618,-28.2443,-1.46604e-15,-3.97569e-15,-31.5077,7.13589,86.347,30.744,-4.9798,-12.4436,28.2232,7.12502,13.6295,57.757,-25.6043,1.07863,17.5505,49.1389,-19.9375,-5.57297,-1.42581,-11.9335,4.26155,-28.2497,24.9594,-15.4012,0.184368,-2.05363
1.11148,17.5793,12.8645,-174.944,-1.69126,176.982,2.77631,-0.864171,-5.86517,-0.516172,-1.33769,1.10804,-1.93166,-0.595303,4.49666,-22.487,-2.62839,-8.91316,34.7753,0.84098,3.09688,16.2381,0.348744,3.29257,-1.78906e-14,-7.95139e-16,-32.672,-4.9105,-82.5959,33.2427,20.7532,-20.8352,1.60628,7.12502,5.5335,-28.3015,-1.78906e-14,-7.95139e-16,-31.4721,7.15224,86.3496,30.7375,-4.7171,-12.4242,28.3293,7.12502,13.6482,57.8618,-26.0162,0.992876,17.4417,49.5689,-20.0063,-5.42344,-0.893289,-11.7734,4.33987,-28.3774,24.7606,-15.3068,0.176401,-2.60447
1.10561,17.5809,12.8491,-174.935,-1.587,176.923,2.74063,-0.857712,-5.80513,-0.464434,-1.32445,1.06869,-1.8618,-0.593151,4.41976,-22.5522,-2.62259,-8.9181,34.7637,0.854353,3.08249,16.2467,0.34776,3.28911,-2.48481e-16,1.94809e-14,-32.5479,-5.06061,-82.5668,33.1147,21.0136,-20.8553,1.5022,7.12502,5.51401,-28.4061,-2.48481e-16,1.94809e-14,-31.4783,7.15166,86.3711,30.7063,-4.70734,-12.6169,28.2553,7.12502,13.4625,57.8002,-26.4479,0.769823,17.3889,49.899,-19.9355,-5.20172,-0.293519,-11.6235,4.40708,-28.4713,24.5553,-15.2356,0.209343,-2.68689
1.10131,17.5863,12.8355,-174.85,-1.61342,176.867,2.66913,-0.89866,-5.79661,-0.449261,-1.37406,1.06629,-1.80023,-0.620403,4.41244,-22.5584,-2.57566,-8.8575,34.7089,0.92939,2.97851,16.2155,0.369661,3.24428,-1.04362e-15,-9.93923e-15,-32.5081,-5.06397,-82.5521,33.2124,20.9612,-20.6041,1.1735,7.12502,5.75658,-28.7283,-1.04362e-15,-9.93923e-15,-31.5004,7.25282,86.3903,30.6328,-4.85843,-12.7642,28.1647,7.12502,13.3205,57.719,-26.9655,0.485253,17.3565,50.1335,-19.8642,-5.20363,0.222469,-11.573,4.42454,-28.5464,24.3834,-15.2188,0.148119,-2.41428
1.0979,17.5902,12.8248,-174.829,-1.62809,176.886,2.74215,-0.926594,-5.70901,-0.45791,-1.41308,1.06025,-1.84766,-0.63913,4.3599,-22.5875,-2.52638,-8.78019,34.7154,0.981057,2.95748,16.2207,0.397447,3.23239,-5.01931e-15,9.14409e-15,-32.5799,-5.01354,-82.5949,33.4619,20.5019,-20.2392,0.84617,7.12502,6.10888,-29.0458,-5.01931e-15,9.14409e-15,-31.5603,7.31634,86.3499,30.5716,-4.94371,-12.869,28.0896,7.12502,13.2194,57.6504,-27.4081,0.377843,17.39,50.2712,-19.9723,-5.29523,0.609792,-11.4846,4.40626,-28.5224,24.2416,-15.2217,0.0938343,-2.4925
1.09426,17.5882,12.813,-174.851,-1.61979,176.884,2.96941,-0.908147,-5.61547,-0.45623,-1.39953,1.02851,-1.97813,-0.629561,4.2788,-22.8352,-2.54432,-8.70284,34.8073,0.944529,2.95191,16.3277,0.384494,3.21614,1.51573e-14,-2.0276e-14,-32.5667,-5.16577,-82.5472,33.4287,20.4711,-20.3236,1.19175,7.12502,6.02739,-28.7025,1.51573e-14,-2.0276e-14,-31.5395,7.22347,86.3659,30.5046,-5.05254,-12.7913,28.0868,7.12502,13.2944,57.6428,-27.8017,0.222738,17.4067,50.3074,-20.0173,-5.23273,1.2371,-11.3712,4.37742,-28.522,24.1462,-15.2128,0.108445,-2.25733
1.09329,17.585,12.8007,-174.853,-1.63224,176.832,3.14357,-0.867146,-5.58869,-0.39154,-1.3545,0.971722,-2.01626,-0.608255,4.20584,-23.1196,-2.57277,-8.64406,34.8379,0.871984,2.98079,16.4151,0.355856,3.20742,2.41523e-14,-2.3059e-14,-32.4202,-5.42789,-82.4894,33.234,20.7975,-20.74,1.77551,7.12502,5.62542,-28.1298,2.41523e-14,-2.3059e-14,-31.3525,7.09839,86.4112,30.3431,-5.2793,-12.775,28.072,7.12502,13.3101,57.6269,-28.239,0.0378754,17.3707,50.2432,-20.0326,-5.01835,2.89507,-11.2955,4.33189,-28.5738,24.1004,-15.2669,0.172044,-2.14851
1.0931,17.585,12.7869,-174.854,-1.61707,176.895,3.25585,-0.865453,-5.47343,-0.399403,-1.354,0.98987,-2.08959,-0.606761,4.16227,-23.027,-2.55663,-8.66199,34.7376,0.894351,2.9462,16.3412,0.35781,3.19304,1.37161e-14,-3.97569e-16,-32.4496,-5.57981,-82.4207,33.1702,21.0401,-20.8104,2.05351,7.12502,5.5574,-27.8536,1.37161e-14,-3.97569e-16,-31.3665,7.03848,86.4616,30.1161,-5.45508,-12.7152,27.7951,7.12502,13.3677,57.3462,-28.6568,-0.0146889,17.4565,50.1019,-20.3995,-4.98293,2.63167,-11.1962,4.30515,-28.5018,24.0111,-15.2556,0.239506,-2.11032
1.09179,17.5884,12.7674,-174.84,-1.53404,177.001,3.27561,-0.89953,-5.35375,-0.427784,-1.3944,1.06247,-2.12635,-0.626036,4.17282,-22.8056,-2.5063,-8.64729,34.5875,0.978204,2.81835,16.2088,0.37907,3.14057,7.45443e-15,-2.78299e-15,-32.5451,-5.3657,-82.4041,33.2114,20.9283,-20.7275,2.18381,7.12502,5.63741,-27.7212,7.45443e-15,-2.78299e-15,-31.4796,7.11503,86.5071,29.9798,-5.52331,-12.6139,27.7412,7.12502,13.4654,57.2859,-29.0573,0.0793707,17.5639,49.9089,-20.8235,-5.12748,0.495235,-11.0529,4.27002,-28.3935,23.8268,-15.2267,0.379817,-2.36947
1.08778,17.5928,12.747,-174.833,-1.3733,176.975,3.30963,-0.868272,-5.3201,-0.374001,-1.35269,1.05167,-2.09548,-0.607942,4.14073,-22.9245,-2.49443,-8.59929,34.5511,0.965396,2.81721,16.2186,0.373085,3.12732,-2.48481e-16,-6.75868e-15,-32.4551,-5.38667,-82.3747,33.1456,20.9719,-20.8116,2.37874,7.12502,5.55628,-27.5284,-2.48481e-16,-6.75868e-15,-31.4081,7.14679,86.5454,29.8426,-5.71338,-12.5096,27.6873,7.12502,13.5659,57.2253,-29.4746,0.161,17.517,49.6724,-20.641,-5.36116,-1.27828,-10.8618,4.23189,-28.4458,23.5668,-15.1686,0.557187,-2.79548
1.08488,17.5935,12.7262,-174.741,-1.29324,176.901,3.37351,-0.856759,-5.38758,-0.395873,-1.3439,1.06321,-2.1533,-0.600437,4.19219,-23.1355,-2.49281,-8.59942,34.6227,0.975028,2.84211,16.303,0.374209,3.14539,6.75868e-15,-1.59028e-15,-32.4009,-5.34352,-82.2937,33.0481,20.8969,-20.992,2.45437,7.12502,5.38206,-27.4573,6.75868e-15,-1.59028e-15,-31.4376,7.0535,86.6452,29.7205,-5.70596,-12.5989,27.7097,7.12502,13.4798,57.2535,-29.9639,0.0980935,17.4347,49.3845,-20.0322,-5.65928,-3.32473,-10.7547,4.13166,-28.5396,23.288,-15.1248,0.668443,-3.07935
1.08328,17.5955,12.7031,-174.658,-1.28903,176.852,3.44022,-0.856046,-5.44692,-0.432552,-1.34883,1.1092,-2.22589,-0.598778,4.27582,-23.2458,-2.51868,-8.63926,34.6472,0.973058,2.80931,16.3427,0.359323,3.13933,-1.23246e-14,1.47101e-14,-32.4936,-5.14875,-82.2239,33.1112,20.4899,-21.0964,2.1931,7.12502,5.28124,-27.7211,-1.23246e-14,1.47101e-14,-31.5127,7.0846,86.7683,29.5527,-5.9414,-12.6906,27.7704,7.12502,13.3915,57.32,-30.383,-0.0462092,17.3905,49.0214,-19.2956,-5.96728,-4.57923,-10.6354,4.02505,-28.5972,23.0333,-15.0261,0.74852,-3.2227
1.08368,17.5971,12.6798,-174.642,-1.26776,176.941,3.45008,-0.854391,-5.33528,-0.362157,-1.34037,1.15399,-2.16086,-0.599434,4.25814,-23.3618,-2.53691,-8.72327,34.6318,0.915703,2.96067,16.3645,0.340492,3.20848,8.99501e-15,-2.78299e-15,-32.497,-5.10826,-82.2063,33.1781,20.2628,-21.2179,1.82504,7.12502,5.16393,-28.092,8.99501e-15,-2.78299e-15,-31.4577,7.00087,86.8682,29.4734,-6.19538,-12.6255,27.8657,7.12502,13.4542,57.4112,-30.6754,-0.0559982,17.4633,48.582,-18.8796,-5.81577,-2.42203,-10.4757,4.04463,-28.4923,22.84,-14.9957,0.749656,-3.14262
1.08576,17.5988,12.6602,-174.558,-1.29699,177.035,3.42737,-0.889072,-5.26925,-0.32497,-1.38065,1.22306,-2.10487,-0.62263,4.29349,-23.3671,-2.50207,-8.71613,34.5258,0.924725,2.99599,16.3101,0.346086,3.21797,-5.51627e-15,-3.57812e-15,-32.4273,-5.05357,-82.1703,33.2007,20.2285,-21.1599,1.389,7.12502,5.21991,-28.5267,-5.51627e-15,-3.57812e-15,-31.4314,6.94264,86.955,29.3717,-6.45845,-12.563,27.7274,7.12502,13.5144,57.2689,-31.0416,-0.0399854,17.5327,48.0937,-18.7659,-5.64069,0.150827,-10.4331,3.99656,-28.3671,22.6977,-14.9548,0.820648,-3.61454
1.08938,17.6017,12.6402,-174.427,-1.31804,177.026,3.40067,-0.932079,-5.31643,-0.319144,-1.43786,1.25102,-2.07559,-0.651564,4.35114,-23.425,-2.478,-8.65839,34.4315,0.907483,3.00424,16.2763,0.34147,3.20238,2.98177e-15,-1.15295e-14,-32.3277,-5.16702,-82.1262,33.151,20.4216,-21.0901,0.997139,7.12502,5.2874,-28.9169,2.98177e-15,-1.15295e-14,-31.4388,6.80587,87.0099,29.2901,-6.53452,-12.4794,27.5293,7.12502,13.595,57.0654,-31.4958,-0.0295784,17.5094,47.5727,-18.5574,-5.87735,1.21447,-10.428,3.87464,-28.362,22.5452,-14.9733,0.992033,-4.36383
1.09141,17.6004,12.6178,-174.326,-1.28955,176.965,3.41882,-0.986849,-5.38302,-0.32963,-1.51465,1.26131,-2.08598,-0.688538,4.40359,-23.4775,-2.43191,-8.5888,34.3783,0.934727,2.99507,16.2587,0.355759,3.18847,4.27387e-15,-8.74653e-15,-32.2968,-5.15537,-82.1081,33.1097,20.4641,-20.9638,0.839378,7.12502,5.40933,-29.0716,4.27387e-15,-8.74653e-15,-31.4734,6.76193,87.0386,29.2037,-6.61284,-12.387,27.4467,7.12502,13.6841,56.9768,-31.9477,-0.0666976,17.4411,47.0203,-18.0546,-6.16596,1.64269,-10.3118,3.66821,-28.3909,22.376,-15.0918,1.00821,-2.94874
1.09241,17.6016,12.5952,-174.214,-1.23763,176.887,3.45311,-1.01119,-5.43758,-0.364027,-1.55218,1.24358,-2.13564,-0.704304,4.41912,-23.4744,-2.40942,-8.51587,34.3357,0.931752,2.97556,16.2362,0.359196,3.16384,-4.47266e-16,-4.77083e-15,-32.3482,-5.17967,-82.0826,33.1086,20.4529,-20.9617,1.21647,7.12502,5.41137,-28.6944,-4.47266e-16,-4.77083e-15,-31.5268,6.66894,87.0658,29.0955,-6.71309,-12.211,27.6081,7.12502,13.8537,57.1267,-32.392,-0.116538,17.3386,46.422,-17.7267,-5.94539,1.9323,-10.1798,3.42826,-28.4441,22.1559,-15.1351,0.992734,-0.818701
1.09334,17.6082,12.5696,-174.113,-1.25576,176.983,3.49314,-1.04686,-5.34443,-0.385082,-1.59724,1.3003,-2.17548,-0.725923,4.429,-23.5434,-2.39965,-8.4328,34.3044,0.919618,2.92768,16.2374,0.353541,3.12421,-1.02374e-14,-5.1684e-15,-32.4041,-5.21651,-82.0158,33.1355,20.5594,-20.9222,1.99766,7.12502,5.44942,-27.9123,-1.02374e-14,-5.1684e-15,-31.563,6.65091,87.1142,28.9607,-6.85683,-12.033,27.8042,7.12502,14.0252,57.3111,-32.7692,-0.10133,17.4091,45.785,-17.7586,-5.26089,2.20041,-10.079,3.3493,-28.3314,21.9016,-15.1504,1.00707,-0.924804
1.09593,17.6087,12.5419,-174.112,-1.2588,177.043,3.6265,-1.05458,-5.2986,-0.361259,-1.61185,1.3483,-2.22396,-0.73281,4.45697,-23.6482,-2.37733,-8.39838,34.2563,0.921107,2.94093,16.2368,0.354666,3.12192,-2.25124e-14,-1.03368e-14,-32.4451,-5.39491,-81.8954,33.1045,20.8633,-20.9247,2.6763,7.12502,5.44703,-27.2337,-2.25124e-14,-1.03368e-14,-31.6177,6.47551,87.2102,28.9289,-6.935,-12.0501,27.8246,7.12502,14.0088,57.3326,-33.0368,0.0407246,17.4248,45.1391,-17.6341,-4.974,2.03108,-9.81362,3.1376,-28.2109,21.6535,-15.2826,0.9826,0.453425
1.10211,17.607,12.5153,-174.101,-1.18336,176.917,3.8044,-1.0198,-5.50611,-0.360225,-1.58457,1.36411,-2.32045,-0.713593,4.59431,-23.6786,-2.38719,-8.39719,34.1698,0.883376,2.94452,16.2033,0.335277,3.11061,-1.54058e-15,1.19271e-15,-32.4511,-5.55991,-81.7366,32.9537,21.0381,-20.8717,2.95481,7.12502,5.49824,-26.9539,-1.54058e-15,1.19271e-15,-31.7151,6.25412,87.3544,28.9005,-7.02584,-12.4151,27.3843,7.12502,13.6569,56.9163,-33.3171,0.290629,17.2194,44.4584,-17.3286,-5.04024,1.12099,-9.5939,2.98078,-28.2908,21.4703,-15.3212,0.995669,1.80452
1.1072,17.6043,12.4862,-174.044,-1.10776,176.742,3.84074,-0.987839,-5.7199,-0.327566,-1.55392,1.34847,-2.30591,-0.697033,4.69788,-23.6799,-2.43053,-8.44483,34.051,0.803619,2.96117,16.1507,0.293579,3.10292,-9.88954e-15,1.63003e-14,-32.3923,-5.62112,-81.6166,32.7956,21.0169,-20.8896,2.99466,7.12502,5.4809,-26.9145,-9.88954e-15,1.63003e-14,-31.7277,6.03255,87.4643,28.8336,-7.18,-12.4638,27.2914,7.12502,13.6101,56.8265,-33.6115,0.509643,16.9445,43.7329,-17.1633,-4.80632,0.949592,-9.4911,2.95594,-28.4687,21.3734,-15.4015,1.0711,1.82199
1.11167,17.6018,12.4545,-173.948,-1.11307,176.805,3.71556,-1.01789,-5.64743,-0.23044,-1.5813,1.38957,-2.13224,-0.71982,4.69608,-23.7677,-2.43274,-8.50496,33.9519,0.787055,3.00333,16.1226,0.277497,3.12274,4.52235e-15,1.47101e-14,-32.2831,-5.60025,-81.5936,32.7478,20.8391,-20.8073,2.84284,7.12502,5.56044,-27.0642,4.52235e-15,1.47101e-14,-31.622,5.94706,87.5141,28.7469,-7.30113,-12.3664,27.2873,7.12502,13.7039,56.8161,-33.8688,0.589683,16.9455,42.9461,-17.0954,-4.32851,1.69654,-9.42557,2.94756,-28.379,21.3073,-15.5517,1.03474,2.10983
1.11682,17.5988,12.4236,-173.836,-1.1825,177.047,3.67968,-1.08381,-5.40067,-0.180336,-1.65429,1.49289,-2.05487,-0.762734,4.66574,-23.9201,-2.41332,-8.47668,33.8959,0.795685,2.98976,16.1291,0.274198,3.11075,-2.68359e-15,6.36111e-15,-32.2117,-5.61787,-81.5653,32.7076,20.7605,-20.6776,2.58396,7.12502,5.68561,-27.3198,-2.68359e-15,6.36111e-15,-31.4892,6.07451,87.5407,28.5384,-7.59436,-12.454,27.3027,7.12502,13.6194,56.8372,-34.09,0.632248,17.1293,42.1275,-17.0536,-3.70544,3.48556,-9.36604,2.82137,-28.0843,21.1968,-15.6263,1.08348,2.40558
1.12355,17.6015,12.3934,-173.689,-1.26235,177.092,3.64695,-1.13454,-5.37259,-0.161782,-1.7183,1.52897,-2.00929,-0.796922,4.68915,-23.9952,-2.40254,-8.38184,33.8484,0.756905,2.99063,16.1247,0.265467,3.08429,-1.49089e-15,3.97569e-16,-32.1488,-5.73106,-81.5168,32.5805,20.7633,-20.6573,2.60293,7.12502,5.70519,-27.3003,-1.49089e-15,3.97569e-16,-31.4079,5.96239,87.6042,28.4101,-7.84583,-12.49,27.5116,7.12502,13.5848,57.0484,-34.417,0.788506,17.0865,41.3109,-16.7907,-3.68637,3.7395,-9.35869,2.68518,-28.0055,21.061,-15.6132,1.15045,2.26722
1.12941,17.607,12.3619,-173.646,-1.28796,176.863,3.74081,-1.18366,-5.62424,-0.205812,-1.80109,1.48413,-2.09167,-0.831724,4.7923,-23.7209,-2.35899,-8.36468,33.7215,0.751264,3.07006,15.9969,0.282703,3.10623,-9.59136e-15,7.95139e-16,-32.2891,-5.76387,-81.4769,32.4561,20.697,-20.7756,2.84698,7.12502,5.59101,-27.0593,-9.59136e-15,7.95139e-16,-31.569,5.90083,87.5754,28.3864,-7.91287,-12.5196,27.3334,7.12502,13.5563,56.8721,-34.6995,0.756246,16.822,40.5143,-16.2485,-3.93531,1.77124,-9.189,2.6283,-28.2228,20.8649,-15.5641,1.15407,2.13891
1.13503,17.6078,12.3283,-173.578,-1.33311,176.759,3.82201,-1.26278,-5.77786,-0.295092,-1.91825,1.53946,-2.20863,-0.881838,4.94692,-23.3829,-2.32558,-8.53527,33.6289,0.815073,3.16457,15.8682,0.309972,3.18224,-3.94091e-14,9.54166e-15,-32.4674,-5.62634,-81.3872,32.2773,20.7647,-21.065,3.03206,7.12502,5.31156,-26.8814,-3.94091e-14,9.54166e-15,-31.8517,6.12011,87.54,28.3775,-8.07807,-12.5332,27.0891,7.12502,13.5431,56.6287,-34.8975,0.671966,16.6796,39.7418,-15.8286,-3.7775,1.99054,-8.96675,2.53515,-28.3058,20.5222,-15.4276,1.19564,2.05177
1.14157,17.6117,12.2926,-173.467,-1.47322,176.815,3.8123,-1.35035,-5.76057,-0.316079,-2.03223,1.64378,-2.20722,-0.938208,5.05169,-23.3024,-2.31386,-8.62041,33.5844,0.859385,3.16325,15.8252,0.318197,3.20187,7.85199e-15,-1.82882e-14,-32.5058,-5.51625,-81.2938,32.1347,20.9923,-21.3336,3.04978,7.12502,5.05228,-26.87,7.85199e-15,-1.82882e-14,-31.9372,6.28117,87.5602,28.31,-8.22248,-12.3798,27.1812,7.12502,13.691,56.7108,-35.1414,0.723765,16.6662,38.9608,-15.5289,-3.797,2.90211,-8.75891,2.43032,-28.2004,20.1214,-15.276,1.16588,2.07762
1.14915,17.6134,12.2574,-173.45,-1.59002,176.699,3.95543,-1.40671,-5.91215,-0.344838,-2.12285,1.67658,-2.29939,-0.977537,5.18192,-23.1466,-2.2934,-8.61098,33.4953,0.878649,3.12778,15.7449,0.325024,3.18259,2.45499e-14,-1.55052e-14,-32.6795,-5.29487,-81.2511,32.1929,20.8724,-21.2375,2.83359,7.12502,5.14507,-27.084,2.45499e-14,-1.55052e-14,-32.0937,6.29,87.5928,28.3495,-8.22627,-12.1668,27.2758,7.12502,13.8963,56.7915,-35.3633,0.784309,16.4852,38.1362,-15.0786,-4.06244,2.05552,-8.47582,2.38428,-28.2728,19.7949,-15.2485,1.05558,1.73207
1.15823,17.61,12.2204,-173.398,-1.57732,176.491,4.01285,-1.40229,-6.13198,-0.316223,-2.13141,1.63319,-2.29493,-0.980149,5.26296,-23.1962,-2.32965,-8.68161,33.4524,0.788726,3.26689,15.7406,0.294602,3.23485,-3.8763e-15,-3.18055e-15,-32.7521,-5.25105,-81.2451,32.2678,20.7088,-21.0272,2.62302,7.12502,5.34804,-27.2895,-3.8763e-15,-3.18055e-15,-32.0685,6.25489,87.5807,28.2697,-8.32375,-12.178,27.3062,7.12502,13.8855,56.8226,-35.5719,0.900011,16.1881,37.2751,-14.7063,-4.08487,1.21245,-8.22399,2.35417,-28.4634,19.4711,-15.2193,1.04112,1.47014
1.16574,17.6106,12.1777,-173.322,-1.49582,176.506,3.98844,-1.381,-6.13109,-0.269648,-2.10048,1.65842,-2.23617,-0.968227,5.28547,-23.2663,-2.35027,-8.75098,33.3989,0.736243,3.36694,15.7338,0.273436,3.27686,-2.57426e-14,1.86858e-14,-32.7503,-5.28474,-81.2081,32.2241,20.7073,-20.9408,2.56735,7.12502,5.43155,-27.343,-2.57426e-14,1.86858e-14,-31.9929,6.36406,87.5321,28.1057,-8.58099,-12.2727,27.2394,7.12502,13.7942,56.7621,-35.7502,1.12264,16.1195,36.4224,-14.5126,-4.00948,1.22893,-7.98459,2.38072,-28.4255,19.1481,-15.2193,1.10103,1.509
1.17151,17.616,12.1344,-173.231,-1.55567,176.587,3.96222,-1.39958,-5.99075,-0.260579,-2.1167,1.67475,-2.21401,-0.979095,5.22262,-23.1885,-2.37314,-8.81815,33.2912,0.656234,3.49289,15.6689,0.248697,3.32035,-4.67144e-15,-7.95139e-16,-32.8086,-5.42259,-81.1532,32.0515,20.9543,-21.1079,2.78007,7.12502,5.27013,-27.1344,-4.67144e-15,-7.95139e-16,-32.0304,6.28651,87.4968,28.0609,-8.64406,-12.4361,27.1998,7.12502,13.6367,56.7331,-35.9114,1.21176,16.138,35.5806,-14.2381,-3.97841,1.07747,-7.80879,2.40435,-28.302,18.8886,-15.2431,1.06239,1.63313
1.17916,17.6149,12.0918,-173.156,-1.60501,176.555,3.9346,-1.38637,-5.97533,-0.20492,-2.09645,1.65797,-2.14462,-0.973377,5.19313,-23.2785,-2.42872,-8.84378,33.2762,0.535469,3.60884,15.6908,0.207631,3.35078,-3.4191e-14,1.59028e-14,-32.8693,-5.47742,-81.1333,32.0426,21.0683,-21.2702,2.69909,7.12502,5.11344,-27.2192,-3.4191e-14,1.59028e-14,-31.986,6.06779,87.5267,28.0672,-8.52777,-12.4834,27.3729,7.12502,13.5911,56.9092,-36.0125,1.32822,16.0272,34.7306,-13.8677,-3.88527,1.12894,-7.62402,2.39274,-28.2917,18.6592,-15.2817,1.0138,1.65758
1.18649,17.614,12.0458,-173.095,-1.63449,176.57,3.89289,-1.38043,-5.95413,-0.159951,-2.08415,1.6909,-2.07572,-0.971258,5.21254,-23.3123,-2.45205,-8.8512,33.2374,0.498345,3.60368,15.6831,0.18779,3.3404,1.09332e-14,1.98785e-15,-32.9961,-5.40739,-81.089,32.1638,21.0521,-21.3829,2.53108,7.12502,5.00468,-27.3898,1.09332e-14,1.98785e-15,-31.9521,6.0977,87.5185,28.06,-8.47053,-12.2333,27.7054,7.12502,13.8322,57.2255,-36.0712,1.5416,15.9295,33.8862,-13.5177,-3.94532,1.72324,-7.42504,2.44229,-28.2339,18.4737,-15.3399,0.925642,1.75666
1.19637,17.6163,11.9982,-173.044,-1.78385,176.684,3.87867,-1.42553,-5.83733,-0.115209,-2.13722,1.75269,-2.01605,-1.00259,5.21189,-23.2559,-2.46049,-8.80784,33.0724,0.467571,3.51137,15.594,0.163446,3.27709,3.97569e-16,-1.03368e-14,-33.055,-5.36589,-81.0587,32.1992,20.9895,-21.3788,2.74854,7.12502,5.00857,-27.1723,3.97569e-16,-1.03368e-14,-31.9396,6.26633,87.4235,28.0609,-8.49771,-12.219,27.8015,7.12502,13.846,57.3207,-36.1195,1.79185,15.9101,33.0911,-13.4195,-4.21128,1.61325,-7.21774,2.39721,-28.0423,18.3166,-15.4133,0.84722,1.68211
1.20777,17.6209,11.9536,-172.981,-1.946,176.717,3.89684,-1.45359,-5.76202,-0.0459626,-2.17217,1.75809,-1.95239,-1.02534,5.1755,-23.2785,-2.46866,-8.70646,32.8973,0.395218,3.4611,15.5204,0.132276,3.21399,-1.37161e-14,-6.36111e-15,-32.9765,-5.48759,-81.074,32.1122,20.971,-21.3416,2.74672,7.12502,5.04454,-27.1732,-1.37161e-14,-6.36111e-15,-31.777,6.30145,87.3322,27.9322,-8.54604,-12.435,27.6372,7.12502,13.6378,57.1704,-36.1672,1.95617,15.8275,32.3274,-13.2227,-4.42744,1.09534,-7.0617,2.48839,-27.9674,18.1335,-15.38,0.843192,0.0239778
1.21929,17.6233,11.9072,-172.958,-2.00755,176.625,3.99185,-1.42909,-5.82539,0.00316258,-2.14818,1.74195,-1.9564,-1.01428,5.19578,-23.4182,-2.55225,-8.82275,32.8598,0.261805,3.59469,15.545,0.0746185,3.26377,-3.22031e-14,-1.59028e-14,-33.0001,-5.49433,-81.0616,32.1232,20.9285,-21.3027,2.38662,7.12502,5.08203,-27.5324,-3.22031e-14,-1.59028e-14,-31.6239,6.33615,87.2823,27.8035,-8.57669,-12.5135,27.5388,7.12502,13.5621,57.0771,-36.1461,2.14851,15.6208,31.5839,-12.859,-4.56434,1.04597,-6.87242,2.63703,-28.0345,17.9894,-15.3703,0.842818,-1.37361
1.22759,17.62,11.8531,-172.947,-2.02605,176.499,4.08649,-1.41051,-5.9119,-0.0568646,-2.13355,1.72458,-2.0713,-1.00016,5.23075,-23.3233,-2.59988,-8.89916,32.8634,0.18804,3.68373,15.5315,0.0502493,3.30069,9.44227e-15,-3.18055e-15,-33.3178,-5.40471,-81.0213,32.2546,20.7656,-21.2793,2.19611,7.12502,5.10469,-27.7224,9.44227e-15,-3.18055e-15,-31.752,6.52184,87.1611,27.7609,-8.71785,-12.3104,27.5413,7.12502,13.7579,57.0664,-36.1078,2.21296,15.4268,30.8894,-12.4159,-4.57939,1.96066,-6.6235,2.59257,-28.1326,17.8858,-15.4949,0.893601,-1.5984
1.23656,17.6185,11.7992,-172.842,-2.15864,176.572,4.03622,-1.44629,-5.80324,-0.0829631,-2.17255,1.77876,-2.06671,-1.0201,5.22646,-23.3091,-2.58241,-8.89906,32.8166,0.202208,3.69276,15.5044,0.0569785,3.30469,-1.73937e-14,-1.59028e-15,-33.5219,-5.21837,-81.0131,32.4396,20.4608,-21.1048,2.14256,7.12502,5.27317,-27.7718,-1.73937e-14,-1.59028e-15,-31.8176,6.63332,87.099,27.7152,-8.75275,-12.3952,27.3608,7.12502,13.6762,56.8915,-36.1573,2.28119,15.4498,30.277,-12.1019,-4.81087,2.25925,-6.47929,2.62187,-28.0388,17.7317,-15.5759,1.0512,-3.23485
1.24619,17.6219,11.7462,-172.712,-2.33945,176.701,3.88912,-1.47589,-5.57787,-0.0105394,-2.19276,1.81946,-1.913,-1.04007,5.13509,-23.4768,-2.58997,-8.90104,32.7024,0.18519,3.66169,15.4894,0.036295,3.28262,2.8128e-14,9.54166e-15,-33.4709,-5.01113,-81.0722,32.6011,19.7601,-20.8171,2.18175,7.12502,5.55097,-27.7255,2.8128e-14,9.54166e-15,-31.6844,6.65026,87.0635,27.6662,-8.76931,-12.5258,27.1353,7.12502,13.5503,56.6744,-36.1995,2.40983,15.5019,29.7723,-11.9456,-4.99242,2.12918,-6.32348,2.65957,-27.8671,17.5074,-15.5571,1.09675,-4.88921
1.25791,17.6249,11.6934,-172.659,-2.48896,176.697,3.84484,-1.46153,-5.5125,0.039728,-2.16831,1.81344,-1.84186,-1.03242,5.0879,-23.5115,-2.66409,-8.93037,32.5835,0.0529988,3.69228,15.452,-0.02316,3.26851,-4.17448e-15,-1.59028e-15,-33.5829,-4.8316,-81.155,32.8608,18.8339,-20.7304,2.05903,7.12502,5.63464,-27.8461,-4.17448e-15,-1.59028e-15,-31.6061,6.70147,86.98,27.5812,-8.87753,-12.5238,27.1199,7.12502,13.5522,56.6589,-36.1561,2.62061,15.3802,29.3569,-11.8213,-5.1061,1.57829,-6.06205,2.6328,-27.797,17.2416,-15.5423,1.05326,-5.75074
1.27219,17.6255,11.6382,-172.63,-2.63788,176.617,3.84102,-1.4638,-5.62127,0.062415,-2.17557,1.83644,-1.81049,-1.03684,5.17329,-23.4239,-2.71497,-9.03891,32.4231,-0.0444698,3.78662,15.3649,-0.0658999,3.29947,-1.05356e-14,2.06736e-14,-33.7815,-4.66867,-81.1559,33.1378,18.1825,-20.5865,1.9464,7.12502,5.77356,-27.9549,-1.05356e-14,2.06736e-14,-31.5844,6.95019,86.8515,27.4675,-9.05235,-12.5955,26.8586,7.12502,13.4831,56.4022,-36.1207,2.83124,15.182,29.0655,-11.6873,-5.31941,0.921115,-5.7464,2.63497,-27.7946,16.8666,-15.4627,0.913152,-7.8998
1.28327,17.6258,11.5746,-172.621,-2.77965,176.611,3.78066,-1.47132,-5.60846,0.118614,-2.18141,1.87204,-1.71678,-1.04491,5.20004,-23.3671,-2.73881,-8.98364,32.1753,-0.120438,3.70511,15.2417,-0.1083,3.22681,-8.44835e-15,-3.18055e-15,-33.8429,-4.50155,-81.1274,33.3091,17.5692,-20.402,2.04757,7.12502,5.9517,-27.8488,-8.44835e-15,-3.18055e-15,-31.5415,7.1456,86.7342,27.446,-9.12844,-12.6005,26.6968,7.12502,13.4783,56.2407,-36.0637,2.9526,15.1047,28.8683,-11.5443,-5.44834,0.411803,-5.34378,2.51846,-27.7215,16.4561,-15.4001,0.853365,-11.452
1.29379,17.6244,11.5105,-172.598,-2.8747,176.568,3.71469,-1.44132,-5.581,0.15491,-2.13653,1.8644,-1.64935,-1.02604,5.17144,-23.2109,-2.75358,-8.785,31.8107,-0.231026,3.53111,15.0444,-0.161234,3.07844,-2.10712e-14,1.82882e-14,-33.8952,-4.29221,-81.1584,33.5039,16.7613,-20.213,1.92959,7.12502,6.13417,-27.9616,-2.10712e-14,1.82882e-14,-31.5462,7.03588,86.7076,27.494,-8.85703,-12.7277,26.7732,7.12502,13.3557,56.3251,-36.0417,3.06825,15.0157,28.7546,-11.2682,-5.58522,0.140057,-4.9205,2.37483,-27.7027,16.0747,-15.4526,0.87666,-13.4883
1.30862,17.6221,11.4518,-172.576,-3.10378,176.594,3.70399,-1.44097,-5.46136,0.230342,-2.13099,1.86077,-1.57051,-1.02934,5.0975,-23.2801,-2.79717,-8.71143,31.5747,-0.357361,3.50329,14.9597,-0.218645,3.01826,2.08724e-14,6.36111e-15,-33.8588,-4.09507,-81.2436,33.8062,15.9066,-19.8875,1.73559,7.12502,6.44846,-28.1462,2.08724e-14,6.36111e-15,-31.4797,6.8361,86.6686,27.5913,-8.61871,-12.8502,26.7537,7.12502,13.2376,56.3134,-35.9789,3.03181,15.0487,28.7004,-10.9467,-5.60274,0.461586,-4.55673,2.22886,-27.5632,15.7703,-15.4731,0.79503,-13.6223
1.32601,17.621,11.3955,-172.51,-3.44811,176.579,3.75765,-1.50417,-5.45474,0.251295,-2.21795,1.9452,-1.56474,-1.07424,5.18698,-23.5256,-2.85343,-8.85992,31.5462,-0.390543,3.53957,15.0054,-0.253553,3.05143,-2.38542e-15,-1.11319e-14,-33.7947,-3.77479,-81.1969,34.1352,15.2233,-19.4589,1.80908,7.12502,6.86215,-28.0597,-2.38542e-15,-1.11319e-14,-31.4505,7.0313,86.6407,27.678,-8.7015,-12.7202,26.9238,7.12502,13.3629,56.4753,-35.9472,2.98005,15.023,28.7682,-10.7021,-5.70089,1.00794,-4.32246,2.02679,-27.4396,15.5647,-15.4876,0.64083,-13.6596
1.34232,17.6176,11.3329,-172.45,-3.74073,176.624,3.76354,-1.55277,-5.38632,0.233263,-2.28014,2.02322,-1.57813,-1.10522,5.23289,-23.733,-2.90136,-8.87178,31.5815,-0.441875,3.53027,15.0722,-0.282943,3.04153,3.27001e-14,1.90833e-14,-33.7897,-3.4188,-81.1965,34.4257,14.5564,-19.0894,1.89856,7.12502,7.21885,-27.9583,3.27001e-14,1.90833e-14,-31.5088,7.26455,86.5464,27.6406,-8.9235,-12.7653,26.7655,7.12502,13.3194,56.3198,-35.9012,2.92855,15.0988,28.9762,-10.2636,-5.76597,1.73445,-4.09122,1.76492,-27.272,15.4528,-15.5973,0.654825,-14.0316
1.35711,17.6084,11.2637,-172.449,-3.90719,176.65,3.73914,-1.54376,-5.27786,0.266497,-2.26274,1.99856,-1.53749,-1.09963,5.14318,-23.7949,-2.91726,-8.72045,31.4542,-0.547078,3.51928,15.0329,-0.31558,2.98455,1.59028e-15,-3.81667e-14,-33.7379,-3.11213,-81.3542,34.6907,14.0623,-19.0779,1.74783,7.12502,7.22997,-28.1087,1.59028e-15,-3.81667e-14,-31.5321,7.21151,86.3908,27.6682,-8.92209,-12.8489,26.4001,7.12502,13.2389,55.9597,-35.7986,2.85702,15.2043,29.338,-9.82334,-5.67745,2.9034,-3.76288,1.56791,-27.1436,15.3291,-15.7416,0.718531,-14.5778
1.36766,17.5949,11.1983,-172.575,-4.14548,176.629,3.88727,-1.58206,-5.14563,0.356366,-2.31753,1.99767,-1.52599,-1.13174,5.07297,-23.8204,-2.85329,-8.73059,31.1951,-0.497528,3.54026,14.9144,-0.299911,2.99264,1.36167e-14,-1.90833e-14,-33.5448,-2.67736,-81.4688,35.0006,13.7424,-19.076,1.52557,7.12502,7.23178,-28.3309,1.36167e-14,-1.90833e-14,-31.5165,7.23821,86.2752,27.7918,-8.63483,-12.4759,26.5257,7.12502,13.5983,56.0616,-35.5665,2.61265,15.3167,29.8025,-9.39747,-5.44891,3.82273,-3.3054,1.24359,-27.0798,15.2172,-15.8964,0.854673,-13.6696
1.37448,17.5833,11.1375,-172.673,-4.35527,176.497,4.04956,-1.61747,-5.13955,0.41519,-2.37402,2.0324,-1.54793,-1.16195,5.11308,-23.7509,-2.84871,-8.93884,30.7879,-0.523797,3.68265,14.7173,-0.324202,3.06367,-6.95746e-16,1.11319e-14,-33.272,-2.04368,-81.4857,35.2211,13.4249,-19.1668,1.6327,7.12502,7.14415,-28.2267,-6.95746e-16,1.11319e-14,-31.5887,7.46052,86.2398,28.0105,-8.2556,-11.9629,26.9921,7.12502,14.0928,56.4942,-35.4178,2.37774,15.2812,30.3469,-8.97596,-5.36598,4.97019,-2.89122,0.894967,-27.1651,15.07,-16.0061,1.012,-12.2701
1.38319,17.5761,11.074,-172.59,-4.40578,176.474,4.09088,-1.59861,-5.12082,0.339187,-2.34931,2.13733,-1.64914,-1.14461,5.21459,-23.4586,-2.92281,-9.26084,30.232,-0.682883,3.9204,14.4207,-0.402676,3.16101,2.84262e-14,6.36111e-15,-33.1567,-1.38695,-81.4142,35.5006,13.1075,-19.4348,1.72691,7.12502,6.88542,-28.1411,2.84262e-14,6.36111e-15,-31.756,7.7364,86.2608,28.081,-8.18226,-11.7834,27.4466,7.12502,14.2657,56.9366,-35.4852,2.24028,15.3568,30.88,-8.70436,-5.23003,6.05241,-2.65054,0.452355,-27.1679,14.8965,-16.053,1.40341,-12.4979
1.39712,17.5721,11.0093,-172.447,-4.52221,176.455,4.17245,-1.57122,-5.16499,0.208639,-2.31736,2.24933,-1.82765,-1.11883,5.36192,-23.293,-2.97974,-9.36897,29.8587,-0.769829,3.88173,14.229,-0.462655,3.13009,3.26007e-14,7.15625e-15,-33.1003,-0.848167,-81.3216,35.8974,13.0367,-19.5508,1.66836,7.12502,6.77345,-28.2033,3.26007e-14,7.15625e-15,-31.917,7.83941,86.3255,28.0962,-8.19834,-12.057,27.5746,7.12502,14.0021,57.083,-35.5747,2.02679,15.4721,31.3325,-8.54206,-5.08069,7.22741,-2.4859,0.0723912,-27.1265,14.747,-16.0648,1.69826,-13.0435
1.41086,17.5713,10.9467,-172.376,-4.70906,176.566,4.26704,-1.56893,-4.99297,0.161154,-2.31108,2.33543,-1.93388,-1.11312,5.35901,-23.265,-2.95798,-9.34975,29.5934,-0.757909,3.80643,14.1051,-0.470734,3.08663,2.18663e-14,1.98785e-14,-32.8543,-0.412978,-81.3473,36.3383,13.3412,-19.7671,1.41425,7.12502,6.56465,-28.464,2.18663e-14,1.98785e-14,-32.0432,7.90084,86.2898,28.1514,-8.14114,-12.3249,27.3453,7.12502,13.7439,56.8714,-35.575,1.71325,15.7751,31.6718,-8.41928,-4.98378,7.84236,-2.29331,-0.29178,-26.9245,14.649,-16.0813,1.87788,-13.3219
1.42537,17.5718,10.8817,-172.339,-4.71182,176.862,4.26487,-1.51395,-4.62156,0.178506,-2.22191,2.43586,-1.93622,-1.07378,5.24827,-23.3141,-2.94493,-9.36755,29.3927,-0.77097,3.84219,14.0287,-0.478599,3.0933,-5.56597e-15,8.74653e-15,-32.4664,0.0635551,-81.3683,36.8473,13.7736,-19.7899,1.16354,7.12502,6.54267,-28.7154,-5.56597e-15,8.74653e-15,-32.097,7.9316,86.2206,28.2446,-8.10017,-12.3484,27.4402,7.12502,13.7212,56.9678,-35.5743,1.6276,16.2615,31.9162,-8.35847,-4.98315,7.74586,-2.08646,-0.607016,-26.5475,14.5556,-16.1381,2.18127,-13.3788
1.44039,17.5703,10.8174,-172.207,-4.66522,177.053,4.253,-1.47573,-4.37804,0.112411,-2.1592,2.51234,-2.01165,-1.04143,5.18799,-23.4539,-2.91181,-9.26576,29.3191,-0.759819,3.81345,14.0233,-0.470965,3.06333,1.88845e-14,4.37326e-14,-32.0878,0.484396,-81.3307,37.3022,14.4852,-19.4493,1.19555,7.12502,6.8714,-28.6729,1.88845e-14,4.37326e-14,-32.1688,8.05278,86.1025,28.2651,-8.14859,-12.3974,27.6989,7.12502,13.674,57.2297,-35.6896,1.54383,16.6293,32.0972,-8.44182,-4.97831,5.59891,-1.97911,-1.09749,-26.3028,14.4703,-16.0811,2.65129,-13.4935
1.45528,17.5717,10.7538,-172.122,-4.69545,177.107,4.24176,-1.43388,-4.24822,0.0931344,-2.09714,2.54464,-2.0362,-1.01087,5.14493,-23.5124,-2.92309,-9.24706,29.1756,-0.817838,3.8581,13.9773,-0.49187,3.06161,7.7526e-15,5.56597e-15,-31.6506,0.979487,-81.3425,37.8216,14.8497,-19.3107,1.08484,7.12502,7.00528,-28.7792,7.7526e-15,5.56597e-15,-32.1497,8.07366,86.0197,28.1634,-8.16719,-12.4992,27.3465,7.12502,13.5759,56.8839,-35.7292,1.33698,16.8687,32.2648,-8.55706,-5.04407,2.9648,-1.8039,-1.55579,-26.1985,14.3718,-16.005,3.06695,-11.3144
1.47096,17.5727,10.6853,-172.132,-4.66308,177.17,4.19649,-1.37379,-4.0936,0.159929,-2.00996,2.55671,-1.95703,-0.973412,5.06212,-23.4976,-2.96682,-9.34687,28.9534,-0.917486,3.987,13.8873,-0.532515,3.10319,-9.34288e-15,8.74653e-15,-31.072,1.53164,-81.4347,38.3255,14.9314,-19.4417,0.995706,7.12502,6.87883,-28.8725,-9.34288e-15,8.74653e-15,-32.1451,8.05539,85.9243,28.1332,-8.13392,-12.7189,26.9349,7.12502,13.3642,56.4863,-35.6905,1.23418,17.0975,32.474,-8.41757,-5.31127,3.02673,-1.46994,-1.81197,-26.0848,14.2006,-16.018,3.37398,-14.3136
1.48813,17.5697,10.6161,-172.25,-4.72525,177.259,4.37136,-1.33143,-3.97199,0.190504,-1.95608,2.62719,-2.03151,-0.9478,5.06942,-23.5216,-3.00709,-9.50141,28.7794,-0.976274,4.10495,13.8243,-0.562617,3.15915,-2.66371e-14,4.77083e-15,-30.5642,2.1836,-81.4534,38.9103,14.9447,-19.6611,0.716499,7.12502,6.66695,-29.1585,-2.66371e-14,4.77083e-15,-32.2984,8.14243,85.8623,28.2132,-8.14014,-12.6377,26.9089,7.12502,13.4424,56.4552,-35.5278,1.04688,17.3802,32.714,-8.05884,-5.52805,4.74916,-0.991473,-2.05383,-25.9277,14.0146,-16.1043,3.63653,-14.1865
1.49652,17.5696,10.5474,-172.279,-5.06644,177.367,4.50295,-1.39158,-3.6884,0.181178,-2.02928,2.7181,-2.11292,-0.986608,5.01216,-23.5943,-2.00036,-10.0384,28.5405,-1.35101,4.54569,13.7354,-1.39101,3.18893,-2.40529e-14,7.95139e-15,-30.0069,2.92367,-81.4313,39.5695,15.0186,-19.975,0.31369,7.12502,6.36394,-29.5707,-2.40529e-14,7.95139e-15,-32.3508,8.28069,85.8454,28.2131,-8.23424,-12.5274,26.8987,7.12502,13.5487,56.4379,-35.3707,0.565381,17.6863,32.967,-7.70727,-5.42268,6.32792,-0.618376,-2.48776,-25.7318,13.8339,-16.0134,3.78857,-14.345
1.50159,17.5712,10.4802,-172.193,-5.44177,177.404,4.48123,-1.48151,-3.34089,0.18023,-2.13285,2.70026,-2.1031,-1.04264,4.80098,-23.7313,-2.01685,-9.88123,28.4299,-1.36934,4.4751,13.7169,-1.37755,3.13037,7.7526e-15,7.15625e-15,-29.3658,3.75509,-81.5241,40.3581,14.9559,-20.1023,0.16788,7.12502,6.24101,-29.7202,7.7526e-15,7.15625e-15,-32.2544,8.27519,85.7283,28.1149,-8.22853,-12.5263,26.6915,7.12502,13.5498,56.2306,-35.3547,-0.0100885,17.9267,33.2074,-7.24682,-5.14008,7.65293,-0.423626,-3.11819,-25.6244,13.6857,-15.8274,3.99357,-13.742
1.52271,17.5721,10.4111,-172.238,-5.4945,177.347,4.52958,-1.44295,-3.377,0.227558,-2.08538,2.68497,-2.08573,-1.02015,4.80357,-23.8063,-2.07504,-9.78421,28.3306,-1.4571,4.4573,13.6974,-1.3965,3.09014,-4.49253e-14,1.03368e-14,-28.7239,4.54306,-81.5766,41.2074,15.1939,-20.3145,-0.0318716,7.12502,6.03617,-29.9259,-4.49253e-14,1.03368e-14,-32.1571,8.17359,85.6217,28.0474,-8.11489,-12.4104,26.9261,7.12502,13.6615,56.4577,-35.1933,-0.217826,18.0741,33.3959,-6.64936,-4.78573,9.42416,-0.150751,-3.41836,-25.6125,13.713,-15.8036,4.22123,-13.2624
1.55163,17.5741,10.3392,-172.31,-5.46023,177.342,4.58591,-1.35526,-3.49999,0.262154,-1.97685,2.71503,-2.08815,-0.965834,4.90006,-23.8691,-2.13803,-9.80046,28.2395,-1.52865,4.49789,13.6791,-1.4138,3.09566,1.88845e-14,-7.95139e-16,-28.0713,5.19477,-81.5804,42.0942,15.8513,-20.7914,-0.677118,7.12502,5.57574,-30.5838,1.88845e-14,-7.95139e-16,-32.1426,8.13515,85.5386,28.0799,-8.20983,-12.2628,27.4476,7.12502,13.8037,56.9696,-34.952,-0.130682,18.2116,33.5239,-6.35772,-4.58547,11.1783,0.108231,-3.70554,-25.5369,13.9142,-15.8312,4.53084,-14.8767
1.56934,17.5807,10.2713,-172.203,-5.72714,177.527,4.54438,-1.35452,-3.22955,0.211852,-1.96256,2.81217,-2.12401,-0.960744,4.8469,-23.951,-2.22212,-9.85735,28.1748,-1.61356,4.53437,13.6779,-1.44332,3.10438,-5.36719e-15,1.19271e-14,-27.3036,5.81631,-81.4897,42.8997,16.3977,-20.8887,-1.01322,7.12502,5.48179,-30.9223,-5.36719e-15,1.19271e-14,-32.0866,8.03188,85.5725,28.0596,-8.32865,-12.2948,27.46,7.12502,13.7729,56.9842,-34.853,-0.279453,18.5296,33.6028,-6.34725,-4.56374,11.842,0.0663353,-4.36283,-25.2358,14.2204,-15.625,4.87355,-16.7339
1.59019,17.5864,10.2065,-172.17,-5.95896,177.69,4.60475,-1.31321,-3.04402,0.145518,-1.90031,2.9114,-2.23571,-0.928863,4.84539,-23.7834,-2.30593,-9.85181,27.9813,-1.72305,4.48081,13.5716,-1.48864,3.05769,2.08724e-14,1.66979e-14,-26.5771,6.49727,-81.3515,43.7295,16.7919,-20.6704,-0.676284,7.12502,5.69255,-30.5798,2.08724e-14,1.66979e-14,-32.0107,7.87146,85.6231,27.9413,-8.38608,-12.3881,27.1039,7.12502,13.683,56.6341,-34.671,-0.308305,18.7997,33.6315,-6.47128,-4.71539,12.2158,0.0344583,-4.93899,-24.9281,14.6458,-15.5615,5.04948,-17.8785
1.61594,17.5877,10.1385,-172.187,-6.01948,177.808,4.60754,-1.24443,-2.94689,0.133388,-1.80463,2.9575,-2.26143,-0.882054,4.83322,-23.6067,-2.35199,-9.90739,27.7909,-1.82287,4.63768,13.4657,-1.50707,3.10832,-2.48481e-14,-2.46493e-14,-25.7571,7.25467,-81.309,44.5508,17.0951,-20.7298,-0.260462,7.12502,5.6352,-30.1655,-2.48481e-14,-2.46493e-14,-31.9434,7.61128,85.6077,27.8993,-8.3603,-12.4031,26.8421,7.12502,13.6685,56.3733,-34.4485,-0.218254,19.0303,33.6381,-6.59409,-4.80533,12.4174,0.0154244,-5.40104,-24.6796,15.1829,-15.6702,5.25809,-18.8525
1.63918,17.5963,10.0673,-172.217,-6.0767,177.961,4.59983,-1.23078,-2.55365,0.143291,-1.76671,2.83993,-2.26601,-0.86709,4.4843,-23.7159,-2.3522,-9.92168,27.8669,-1.92802,5.01356,13.5316,-1.50152,3.24545,1.59028e-15,1.03368e-14,-24.8664,7.90872,-81.497,45.4139,17.5663,-20.9262,-0.0514211,7.12502,5.44562,-29.9615,1.59028e-15,1.03368e-14,-31.9025,7.23849,85.3559,27.94,-8.31937,-12.3287,27.0165,7.12502,13.7403,56.5428,-34.1928,-0.288551,19.3384,33.6516,-6.57785,-4.6726,12.7758,-0.0364724,-5.82055,-24.4043,15.7521,-15.6625,5.29886,-19.3214
1.66403,17.6061,9.99861,-172.269,-6.10017,177.972,4.6872,-1.15632,-2.62711,0.0956596,-1.67215,2.91779,-2.36901,-0.816559,4.60547,-23.6162,-2.39055,-10.0449,27.9034,-1.97212,5.0558,13.5328,-1.53385,3.27503,4.57205e-15,4.77083e-15,-24.0788,8.6372,-81.3266,46.4234,18.5485,-21.1593,-0.287812,7.12502,5.2205,-30.2035,4.57205e-15,4.77083e-15,-31.9115,7.23338,85.3787,27.9082,-8.46768,-12.3631,27.1359,7.12502,13.7071,56.6645,-33.8833,-0.37318,19.4985,33.654,-6.56966,-4.42073,13.6438,-0.105803,-6.06548,-24.2754,16.3977,-15.4867,5.16052,-19.6754
1.694,17.6144,9.9324,-172.294,-6.13828,177.976,4.65366,-1.11516,-2.57344,0.135506,-1.61411,2.85177,-2.31803,-0.789482,4.5006,-23.5599,-2.45032,-10.0725,27.7886,-2.07265,5.15305,13.4839,-1.56005,3.29842,1.45113e-14,-1.35174e-14,-22.9374,9.33064,-81.3499,47.1345,19.5701,-21.5394,-0.679258,7.12502,4.8535,-30.6037,1.45113e-14,-1.35174e-14,-31.7956,7.08389,85.1982,27.9244,-8.48909,-12.5201,27.2432,7.12502,13.5557,56.7819,-33.5873,-0.223728,19.5968,33.6318,-6.72438,-4.42666,14.1735,-0.249842,-6.19537,-24.1332,17.1285,-15.2781,5.10818,-20.7564
1.72446,17.6271,9.8643,-172.28,-6.25956,178.044,4.66187,-1.06605,-2.62387,0.141471,-1.55333,2.96894,-2.31797,-0.760156,4.64814,-23.715,-2.57228,-10.3375,27.8278,-2.1524,5.25234,13.5462,-1.6063,3.37068,-1.98785e-15,-3.81667e-14,-21.6506,10.2607,-81.0636,47.682,20.0258,-21.9926,-0.33376,7.12502,4.41591,-30.2677,-1.98785e-15,-3.81667e-14,-31.6461,7.20874,85.2228,27.907,-8.65697,-12.3706,27.4525,7.12502,13.6998,56.9816,-33.315,-0.127856,19.7771,33.6063,-6.97948,-4.51605,14.6929,-0.455562,-6.50133,-23.9211,17.9163,-15.1344,5.17327,-22.0589
1.75472,17.6428,9.79765,-172.331,-6.36138,178.027,4.70354,-1.05604,-2.54025,0.170779,-1.5359,2.87116,-2.3175,-0.752097,4.49802,-23.7849,-2.58795,-10.266,27.8288,-2.20479,5.29974,13.5653,-1.61152,3.3689,1.11319e-14,3.02153e-14,-20.3907,11.0993,-81.0961,48.2871,20.3291,-22.3953,0.152105,7.12502,4.02707,-29.7896,1.11319e-14,3.02153e-14,-31.4488,7.24713,84.945,27.8948,-8.72157,-12.3022,27.5486,7.12502,13.7658,57.0732,-32.9539,-0.175972,19.9055,33.5386,-7.13788,-4.42184,15.0616,-0.673932,-6.60326,-23.797,18.8306,-14.9475,5.08992,-23.5909
1.78575,17.6582,9.73146,-172.365,-6.43263,177.877,4.86636,-1.00928,-2.69925,0.0703933,-1.47936,2.78724,-2.51614,-0.713808,4.50374,-23.6134,-2.56795,-10.1197,27.8683,-2.25069,5.23458,13.5475,-1.63305,3.30871,-9.93923e-15,1.11319e-14,-19.3854,11.973,-81.0555,49.0127,20.762,-22.8946,0.188811,7.12502,3.54489,-29.7615,-9.93923e-15,1.11319e-14,-31.5343,7.18371,84.7356,28.0025,-8.65721,-12.3048,27.4754,7.12502,13.7632,57.0002,-32.5785,-0.234739,19.8941,33.4079,-7.21635,-4.26786,15.1147,-0.976125,-6.57838,-23.8001,19.8696,-14.7439,4.87822,-24.732
1.81767,17.6776,9.66207,-172.459,-6.36854,177.835,4.86707,-0.881868,-2.73609,0.104392,-1.31073,2.69273,-2.49913,-0.629179,4.41434,-23.4584,-2.62872,-10.0476,27.8256,-2.40011,5.26507,13.511,-1.68751,3.27973,5.96354e-15,-4.77083e-15,-18.2249,12.6001,-80.9729,49.7647,21.7616,-23.2832,-0.354589,7.12502,3.1696,-30.3108,5.96354e-15,-4.77083e-15,-31.5051,7.10153,84.5287,28.1769,-8.71477,-12.2779,27.4904,7.12502,13.7892,57.0134,-32.1214,-0.164034,19.9841,33.2366,-7.33558,-4.15614,15.1735,-1.26788,-6.55513,-23.7234,21.0342,-14.4861,4.70931,-25.079
1.84987,17.6973,9.59368,-172.603,-6.33654,177.886,4.93159,-0.764339,-2.68138,0.175679,-1.15437,2.66971,-2.47826,-0.554086,4.34934,-23.4501,-2.69144,-10.0512,27.7596,-2.47371,5.24707,13.489,-1.71722,3.25867,-1.23246e-14,3.97569e-15,-16.9807,13.2856,-80.7395,50.5248,23.0968,-23.7343,-0.848097,7.12502,2.73396,-30.8103,-1.23246e-14,3.97569e-15,-31.3335,7.15851,84.4035,28.2529,-8.73373,-12.431,27.5318,7.12502,13.6416,57.0648,-31.5901,-0.0747307,20.1759,33.0036,-7.47789,-4.13113,15.1503,-1.60619,-6.59774,-23.5531,22.3783,-14.1153,4.62587,-25.3632
1.87456,17.7155,9.52955,-172.623,-6.53113,177.836,5.07105,-0.743534,-2.63119,0.112227,-1.12474,2.65663,-2.62604,-0.53539,4.30949,-23.4986,-2.73605,-10.1262,27.7777,-2.49517,5.23107,13.5103,-1.73573,3.26168,1.98785e-15,2.46493e-14,-15.777,14.1216,-80.3525,51.2915,24.2093,-24.1715,-0.584098,7.12502,2.31175,-30.5513,1.98785e-15,2.46493e-14,-31.3287,7.3516,84.2907,28.4313,-8.73368,-12.4395,27.4226,7.12502,13.6334,56.9561,-31.1474,-0.277126,20.2615,32.7048,-7.56805,-4.07337,15.4875,-2.22144,-6.76646,-23.4653,23.869,-13.6674,4.47369,-25.6446
1.90457,17.7387,9.46618,-172.707,-6.68559,177.875,4.98584,-0.703749,-2.41371,0.231684,-1.06129,2.52652,-2.4669,-0.51164,4.04226,-23.5517,-2.83727,-10.1977,27.7385,-2.68177,5.4894,13.5275,-1.78271,3.34376,-1.07344e-14,-3.18055e-14,-14.3464,14.7534,-80.1109,52.0724,24.951,-24.8721,-0.27703,7.12502,1.63506,-30.2505,-1.07344e-14,-3.18055e-14,-31.0015,7.34093,84.0152,28.5555,-8.48598,-12.3637,27.0111,7.12502,13.7065,56.5397,-30.6295,-0.371673,20.4337,32.3899,-7.7112,-4.03279,15.5235,-2.85064,-6.75614,-23.244,25.4349,-13.2362,4.18196,-26.1072
1.94284,17.7605,9.40069,-172.972,-6.66718,177.875,5.26237,-0.573018,-2.45826,0.263413,-0.89489,2.46759,-2.60406,-0.426109,3.99983,-23.4336,-2.95109,-10.3432,27.7625,-2.87118,5.65751,13.5374,-1.8625,3.40119,-1.23246e-14,-1.03368e-14,-13.0598,15.458,-79.7973,52.8012,25.7716,-25.7335,-0.181174,7.12502,0.803129,-30.1594,-1.23246e-14,-1.03368e-14,-30.9268,7.36701,83.8384,28.7815,-8.32247,-12.4101,26.6207,7.12502,13.6617,56.1523,-29.8943,-0.221428,20.5411,32.0576,-7.94635,-3.97073,15.7475,-3.28942,-6.43644,-23.0506,27.0956,-12.7858,3.77838,-27.0168
1.97674,17.7782,9.33258,-173.123,-6.63728,177.775,5.35678,-0.440714,-2.50085,0.314499,-0.723221,2.32479,-2.6204,-0.339738,3.86381,-23.4845,-3.03514,-10.3037,27.8558,-3.02066,5.67942,13.602,-1.92333,3.37768,-5.1684e-15,2.38542e-15,-11.5385,16.1917,-79.4274,53.3789,26.3805,-26.2809,-0.149379,7.12502,0.274445,-30.1289,-5.1684e-15,2.38542e-15,-30.8458,7.13609,83.6768,29.1034,-8.04539,-12.467,26.7105,7.12502,13.607,56.2458,-29.2512,-0.158746,20.5404,31.6665,-8.05537,-3.82162,16.2191,-3.92504,-6.02668,-22.955,28.905,-12.2662,3.24846,-27.9638
2.00591,17.7975,9.26943,-173.155,-6.73005,177.817,5.29763,-0.346461,-2.30763,0.376057,-0.587249,2.20765,-2.5382,-0.276558,3.62096,-23.5498,-3.13986,-10.2034,27.7824,-3.16133,5.60118,13.5961,-1.97574,3.30222,-1.76918e-14,4.77083e-15,-9.8714,16.9878,-78.9417,53.9762,26.4533,-26.6676,-0.0252032,7.12502,-0.0990503,-30.0049,-1.76918e-14,4.77083e-15,-30.71,6.87465,83.5436,29.5403,-7.74931,-12.5856,26.9085,7.12502,13.4927,56.4514,-28.7511,-0.324095,20.724,31.2214,-7.99364,-3.62799,16.4011,-4.83512,-5.7111,-22.6802,30.8411,-11.4973,2.57036,-28.5598
2.03668,17.8171,9.21191,-173.196,-6.87553,177.955,5.42842,-0.251729,-2.06432,0.301586,-0.447397,2.17999,-2.70144,-0.205733,3.44663,-23.2685,-3.26199,-10.19,27.5684,-3.32347,5.48276,13.4626,-2.05662,3.21784,1.59028e-14,-1.27222e-14,-8.50829,17.717,-78.3752,54.6619,26.8727,-26.6605,0.115497,7.12502,-0.0921497,-29.8642,1.59028e-14,-1.27222e-14,-30.7393,6.65535,83.4963,29.973,-7.4659,-12.6454,27.1476,7.12502,13.435,56.6944,-28.2298,-0.522221,21.0362,30.7182,-7.94411,-3.46344,16.3503,-5.90124,-5.37079,-22.2649,32.9082,-10.5189,1.79049,-28.9127
2.0671,17.8396,9.15221,-173.187,-7.07024,178.058,5.52173,-0.164869,-1.85918,0.182845,-0.317372,2.15233,-2.8872,-0.138393,3.29394,-22.9084,-3.34923,-10.1115,27.3529,-3.44922,5.28716,13.3062,-2.12843,3.09924,1.68967e-15,-1.82882e-14,-7.20006,18.3364,-77.709,55.3111,27.7389,-26.4078,0.292657,7.12502,0.151914,-29.687,1.68967e-15,-1.82882e-14,-30.8376,6.36147,83.4819,30.4625,-7.13996,-12.6578,27.4612,7.12502,13.4231,57.0087,-27.717,-0.686289,21.2837,30.1753,-7.92715,-3.34015,16.6459,-7.09308,-5.08551,-21.8561,35.0781,-9.46133,0.960844,-28.4077
2.09532,17.864,9.08859,-173.254,-7.28667,178.16,5.50053,-0.091147,-1.62341,0.234624,-0.206987,2.10711,-2.83045,-0.0887216,3.10447,-22.9966,-3.44725,-10.0923,27.2941,-3.57172,5.29019,13.3118,-2.17094,3.07442,1.61016e-14,2.14687e-14,-5.52598,18.8076,-76.9143,55.8929,28.8422,-26.0718,0.233799,7.12502,0.476417,-29.7454,1.61016e-14,2.14687e-14,-30.7756,5.95069,83.5131,31.1082,-6.71597,-12.5897,27.5383,7.12502,13.4887,57.0815,-27.1333,-0.86711,21.5235,29.6602,-7.88832,-3.25306,16.3851,-8.21534,-4.79527,-21.4539,37.27,-8.37778,0.0807165,-26.7993
2.12056,17.8785,9.02723,-173.369,-7.50619,178.29,5.50257,0.0218793,-1.36646,0.343493,-0.0457526,2.10698,-2.72993,-0.015957,2.94601,-23.3151,-3.61912,-10.1952,27.395,-3.73559,5.29278,13.4388,-2.24544,3.06426,-1.19271e-14,-5.56597e-15,-3.75811,19.167,-75.9505,56.4181,29.7453,-25.8966,-0.202233,7.12502,0.645644,-30.181,-1.19271e-14,-5.56597e-15,-30.5478,5.57592,83.6706,31.6542,-6.41334,-12.7466,27.2588,7.12502,13.3375,56.812,-26.5466,-1.1962,21.8119,29.1889,-7.81797,-3.08702,16.259,-9.30839,-4.47675,-21.0513,39.4203,-7.34817,-0.737216,-25.3435
2.14537,17.8876,8.97019,-173.484,-7.71027,178.414,5.54712,0.145374,-1.14066,0.390994,0.129291,2.12263,-2.71607,0.0665321,2.82113,-23.2653,-3.76905,-10.2618,27.3065,-3.88119,5.17189,13.406,-2.32717,2.99897,1.60022e-14,-2.94201e-14,-2.15014,19.6983,-75.0042,56.9457,29.8393,-26.3611,-0.882911,7.12502,0.196977,-30.8626,1.60022e-14,-2.94201e-14,-30.3571,5.23513,83.8244,32.0632,-6.19806,-12.9428,26.9703,7.12502,13.1483,56.5358,-25.9981,-1.80901,22.1517,28.7455,-7.62501,-2.64004,16.0913,-10.4021,-4.19139,-20.6857,41.4922,-6.5254,-1.40498,-25.166
2.17187,17.9011,8.91406,-173.587,-7.85694,178.554,5.52921,0.272678,-0.936748,0.465177,0.307295,2.14374,-2.63875,0.149811,2.71382,-23.2553,-3.90869,-10.273,27.2013,-4.02646,5.05824,13.3728,-2.3996,2.92732,1.85864e-14,-3.97569e-15,-0.464653,20.182,-74.0198,57.4073,29.8374,-26.9517,-1.18938,7.12502,-0.373402,-31.1688,1.85864e-14,-3.97569e-15,-30.1662,4.9608,83.9597,32.59,-6.00001,-13.0015,26.9486,7.12502,13.0917,56.5177,-25.4851,-2.21042,22.4649,28.335,-7.55807,-2.30057,16.0977,-11.5211,-3.877,-20.3081,43.5145,-6.11503,-1.91508,-25.4959
2.20129,17.9188,8.85944,-173.874,-7.9049,178.8,5.89856,0.434969,-0.584101,0.466407,0.542571,2.12339,-2.85353,0.262722,2.47466,-23.3536,-4.03672,-10.3679,27.3488,-4.19784,5.1221,13.4756,-2.47903,2.93818,4.17448e-15,-3.10104e-14,1.09388,20.5418,-73.1427,57.7566,30.0656,-27.2781,-1.34626,7.12502,-0.688677,-31.3249,4.17448e-15,-3.10104e-14,-30.1796,4.5862,84.008,33.2639,-5.76827,-13.1227,27.1984,7.12502,12.975,56.7749,-24.8003,-2.3723,22.8601,27.9361,-7.53348,-2.12036,16.148,-12.4094,-3.48631,-19.82,45.4504,-6.33544,-2.25522,-25.4001
2.22592,17.9292,8.80448,-173.965,-8.02695,179.039,5.99995,0.578898,-0.260465,0.421317,0.755621,2.16599,-2.96329,0.364586,2.31803,-23.0584,-4.16497,-10.5973,27.1613,-4.35477,5.23177,13.362,-2.55447,2.99024,-2.79292e-14,-2.22639e-14,2.76881,20.87,-72.0509,58.0143,30.1906,-27.4076,-1.38345,7.12502,-0.813795,-31.3616,-2.79292e-14,-2.22639e-14,-30.2515,4.1858,84.1936,34.004,-5.56912,-13.3986,27.4289,7.12502,12.709,57.0222,-24.3298,-2.62124,23.2645,27.5421,-7.49503,-1.95582,15.9824,-13.5241,-3.22959,-19.3673,47.3202,-6.96274,-2.62734,-25.1023
2.2502,17.9342,8.74897,-173.988,-8.19349,179.199,5.95882,0.705812,-0.0178457,0.375055,0.941356,2.17132,-2.99199,0.454113,2.17123,-22.7092,-4.30548,-10.6807,26.9718,-4.5714,5.259,13.2369,-2.65411,2.97421,3.74709e-14,3.02153e-14,4.26136,20.9622,-71.0529,58.4087,30.636,-27.8576,-1.3111,7.12502,-1.24842,-31.2872,3.74709e-14,3.02153e-14,-30.3452,3.75429,84.3536,34.739,-5.25215,-13.8623,27.0904,7.12502,12.2618,56.7109,-23.9372,-2.85183,23.5707,27.1625,-7.46666,-1.80644,15.9745,-14.7206,-3.08558,-19.0193,49.1165,-7.71838,-3.36781,-24.8709
2.27301,17.9401,8.6989,-174.126,-8.33925,179.285,6.04728,0.872379,0.261543,0.425421,1.17898,2.05954,-2.99046,0.567699,1.87733,-22.6351,-4.45396,-10.5545,26.8728,-4.81349,5.20428,13.1995,-2.74893,2.88616,-2.68359e-14,2.46493e-14,5.61939,20.6994,-70.1756,58.8309,31.714,-28.7885,-1.3888,7.12502,-2.14745,-31.3577,-2.68359e-14,2.46493e-14,-30.1999,3.09968,84.4491,35.3962,-4.81912,-14.2302,26.6436,7.12502,11.9071,56.285,-23.456,-3.08722,23.7825,26.815,-7.47375,-1.66835,15.2756,-15.8037,-3.01901,-18.7946,50.8407,-8.60822,-4.28746,-24.9353
2.29771,17.9481,8.64852,-174.283,-8.42434,179.374,6.3004,1.04295,0.441666,0.401013,1.42124,2.02624,-3.1598,0.685441,1.71668,-22.5322,-4.58213,-10.5762,26.7743,-4.97699,5.15632,13.1538,-2.82551,2.84041,6.16232e-15,3.18055e-14,7.19563,20.5971,-69.1347,58.8134,32.8034,-29.5103,-1.61347,7.12502,-2.84456,-31.5742,6.16232e-15,3.18055e-14,-30.2044,2.70843,84.5869,36.054,-4.64276,-14.4753,26.4722,7.12502,11.6708,56.1271,-22.9314,-3.29569,23.987,26.4808,-7.46962,-1.47506,15.7481,-16.9015,-2.85159,-18.5593,52.5096,-9.5363,-5.06013,-25.3205
2.32332,17.9562,8.59373,-174.384,-8.41178,179.413,6.37593,1.22284,0.55624,0.458711,1.66631,1.96845,-3.14416,0.804708,1.56963,-22.6559,-4.73194,-10.6193,26.8017,-5.16489,5.18288,13.2113,-2.90345,2.82276,3.77691e-15,3.02153e-14,9.16466,20.5657,-68.003,58.6476,33.2091,-29.8164,-1.7591,7.12502,-3.14015,-31.7157,3.77691e-15,3.02153e-14,-30.0309,2.50602,84.6643,36.6402,-4.53136,-14.8009,26.3993,7.12502,11.3568,56.0718,-22.4462,-3.44265,24.1341,26.1717,-7.47208,-1.19725,16.572,-18.0376,-2.55253,-18.3825,54.108,-10.423,-5.54996,-25.7207
