JuanDHNZ/ProyectoFinalCD/preprocessing/sports_trials_csv/14_30.csv
root1,root2,root3,root4,root5,root6,lowerback1,lowerback2,lowerback3,upperback1,upperback2,upperback3,thorax1,thorax2,thorax3,lowerneck1,lowerneck2,lowerneck3,upperneck1,upperneck2,upperneck3,head1,head2,head3,rclavicle1,rclavicle2,rhumerus1,rhumerus2,rhumerus3,rradius1,rwrist1,rhand1,rhand2,rfingers1,rthumb1,rthumb2,lclavicle1,lclavicle2,lhumerus1,lhumerus2,lhumerus3,lradius1,lwrist1,lhand1,lhand2,lfingers1,lthumb1,lthumb2,rfemur1,rfemur2,rfemur3,rtibia1,rfoot1,rfoot2,rtoes1,lfemur1,lfemur2,lfemur3,ltibia1,lfoot1,lfoot2,ltoes1
-12.5978,17.6923,-4.81113,9.20811,48.117,4.2283,2.46258,0.377026,-6.70374,0.836275,0.352303,0.856961,-0.563829,0.174879,4.64061,-15.6075,1.86174,-8.40048,38.5597,6.78679,-0.0820858,16.2026,1.86057,2.7363,-8.94034e-14,9.93923e-15,-31.2797,-4.5207,-81.6813,35.6131,19.8199,-21.4181,3.62572,7.12502,4.97069,-26.296,-8.94034e-14,9.93923e-15,-31.7003,18.0905,76.3628,23.536,-8.67709,-10.939,25.3067,7.12502,15.0793,54.7375,-33.0786,-2.8076,16.3377,36.7757,-12.0544,-7.93137,8.07448,-13.15,3.72458,-27.7938,26.8783,-15.8804,-1.34523,-8.20103
-12.5771,17.6949,-4.79444,9.17677,48.2601,4.19323,2.54105,0.348778,-6.62813,0.86485,0.311822,0.845409,-0.572678,0.154303,4.58688,-15.5069,1.88148,-8.34123,38.5669,6.80603,-0.123622,16.1854,1.8741,2.70864,-2.5842e-15,-9.93923e-16,-31.338,-4.80059,-81.4879,35.0934,19.913,-21.4619,3.40168,7.12502,4.92837,-26.521,-2.5842e-15,-9.93923e-16,-31.7143,17.7209,76.6031,23.6648,-8.57752,-10.9025,25.3907,7.12502,15.1144,54.8188,-33.1961,-2.67312,16.3542,36.3807,-11.3043,-7.54236,8.40545,-13.0158,3.6151,-27.7381,26.8111,-15.9128,-1.42363,-7.52418
-12.5575,17.6949,-4.7756,9.087,48.3541,4.11143,2.67241,0.324648,-6.52375,0.902322,0.274259,0.831821,-0.602392,0.135729,4.51463,-15.5271,1.92041,-8.3146,38.6548,6.86892,-0.114278,16.2328,1.90116,2.72271,-1.08338e-14,-2.36554e-14,-31.3635,-5.28592,-81.2465,34.5856,20.1232,-21.4548,3.42796,7.12502,4.93524,-26.4946,-1.08338e-14,-2.36554e-14,-31.7105,17.1696,76.8703,23.8573,-8.22062,-10.9265,25.4496,7.12502,15.0913,54.8794,-33.2746,-2.28019,16.3197,36.0114,-10.6584,-7.45146,9.05784,-12.8635,3.51495,-27.656,26.7717,-15.977,-1.41583,-7.64474
-12.5366,17.6959,-4.75476,8.91126,48.4394,3.84956,2.66214,0.305645,-6.31974,0.976745,0.257683,0.881441,-0.517232,0.122862,4.45164,-15.597,1.89891,-8.38904,38.6961,6.86224,-0.0825975,16.2679,1.88808,2.75185,1.25036e-13,1.21259e-14,-31.2811,-5.85016,-80.9501,34.0281,20.3569,-21.1898,3.39808,7.12502,5.19111,-26.5183,1.25036e-13,1.21259e-14,-31.6672,16.9899,77.0951,24.0146,-8.09321,-10.9126,25.5445,7.12502,15.1047,54.9734,-33.3807,-1.95455,16.4552,35.6926,-9.89725,-7.45353,9.18219,-12.7287,3.30525,-27.451,26.6918,-16.0396,-1.26091,-8.03504
-12.5158,17.7016,-4.7314,8.91867,48.5627,3.85675,2.65336,0.271316,-6.40913,1.02189,0.212167,0.936214,-0.460287,0.096936,4.5607,-15.4752,1.89345,-8.34385,38.6207,6.87768,-0.232798,16.2109,1.88666,2.6752,-7.77248e-14,1.5704e-14,-31.368,-6.18015,-80.6404,33.6123,20.4745,-21.1306,3.06665,7.12502,5.24825,-26.8484,-7.77248e-14,1.5704e-14,-31.6229,17.1573,77.2347,23.9829,-8.32763,-10.882,25.5466,7.12502,15.1342,54.9733,-33.4561,-1.64151,16.3939,35.4356,-9.29735,-7.59326,9.07483,-12.5676,3.2298,-27.4155,26.6057,-16.1169,-1.37004,-7.4892
-12.4964,17.7017,-4.71143,9.04523,48.7877,4.00406,2.75263,0.242871,-6.47798,1.02335,0.165705,0.915195,-0.508567,0.0753127,4.57911,-15.4196,1.83561,-8.415,38.6834,6.78022,-0.138737,16.2266,1.84857,2.7124,-6.26172e-15,5.96354e-15,-31.6275,-6.79001,-80.2695,33.4293,20.6766,-21.029,3.15885,7.12502,5.34631,-26.7537,-6.26172e-15,5.96354e-15,-31.5875,16.8823,77.4749,24.0705,-8.29,-10.6833,25.4368,7.12502,15.3256,54.8489,-33.5384,-1.60729,16.2752,35.2482,-8.87156,-7.5622,10.7189,-12.4445,3.26713,-27.4828,26.5112,-16.17,-1.60275,-7.4227
-12.4747,17.701,-4.68966,9.0727,48.9771,3.97642,2.77184,0.175551,-6.50281,1.00484,0.0737177,0.967757,-0.526787,0.0302681,4.65087,-15.3761,1.81799,-8.41624,38.7551,6.77239,-0.167802,16.2566,1.83923,2.70018,3.15074e-14,-7.35503e-15,-31.9684,-7.21069,-79.9345,33.3804,20.9056,-21.0847,3.02818,7.12502,5.29258,-26.8857,3.15074e-14,-7.35503e-15,-31.708,16.77,77.6591,24.2146,-8.35659,-10.6283,25.0268,7.12502,15.3785,54.4349,-33.647,-1.49113,16.2683,35.1427,-8.82444,-7.739,13.4837,-12.3186,3.25741,-27.4314,26.3882,-16.2131,-1.75593,-7.57506
-12.4542,17.6977,-4.66735,9.07874,49.1148,3.96884,2.79409,0.110754,-6.52006,1.04187,-0.0129867,1.02069,-0.489674,-0.0153694,4.71858,-15.4369,1.83815,-8.50882,38.8586,6.8446,-0.137069,16.3178,1.854,2.74744,-2.92213e-14,-7.7526e-15,-32.1379,-7.50788,-79.6408,33.2188,21.0146,-21.0183,2.74613,7.12502,5.35669,-27.1662,-2.92213e-14,-7.7526e-15,-31.7241,16.7138,77.8387,24.2889,-8.39908,-10.7452,24.9033,7.12502,15.2659,54.3199,-33.7418,-1.35947,16.2612,35.1007,-8.52272,-8.18255,14.8433,-12.1567,2.88959,-27.3927,26.294,-16.2358,-1.56135,-7.34661
-12.4326,17.6981,-4.64735,9.20797,49.2354,4.0056,2.76232,0.0703901,-6.44564,1.03271,-0.0631632,0.982009,-0.475128,-0.0405701,4.63766,-15.4586,1.8391,-8.51653,38.9119,6.84556,-0.102922,16.3484,1.85513,2.76648,-3.69243e-14,-1.33186e-14,-32.3542,-7.77092,-79.4707,33.0222,20.9222,-21.0729,2.48625,7.12502,5.304,-27.4274,-3.69243e-14,-1.33186e-14,-31.6925,16.2175,78.0621,24.4248,-8.17331,-10.7512,25.3577,7.12502,15.2601,54.7749,-33.9663,-1.45353,16.3026,35.1273,-7.81671,-8.57911,14.5722,-12.1097,2.60719,-27.4011,26.2256,-16.2957,-1.4429,-6.91443
-12.4112,17.6979,-4.6298,9.33851,49.4601,4.00424,2.73718,0.047535,-6.33456,1.01268,-0.0898005,0.965191,-0.478772,-0.053114,4.55808,-15.4975,1.75512,-8.5242,38.9733,6.71333,-0.0519117,16.3943,1.80283,2.77144,2.25124e-14,-7.55382e-15,-32.6174,-8.07434,-79.2057,32.8603,20.7281,-21.0443,2.17148,7.12502,5.33156,-27.7415,2.25124e-14,-7.55382e-15,-31.6127,15.7009,78.3735,24.594,-7.83074,-10.8337,25.7011,7.12502,15.1807,55.1242,-34.2133,-1.57576,16.3541,35.2553,-7.4283,-9.14644,16.4146,-12.1203,2.29788,-27.3702,26.1541,-16.3213,-1.39406,-6.41864
-12.3916,17.697,-4.60853,9.44734,49.6428,4.00903,2.79419,0.042629,-6.30173,0.959127,-0.100983,0.979417,-0.564789,-0.054539,4.55494,-15.4328,1.68374,-8.47685,39.0188,6.60339,-0.083989,16.4128,1.76011,2.7308,7.58364e-14,-1.98785e-16,-32.9334,-8.57995,-78.8493,32.7364,20.6518,-21.0187,2.11935,7.12502,5.35632,-27.793,7.58364e-14,-1.98785e-16,-31.6544,15.453,78.622,24.7739,-7.62378,-10.8978,25.6334,7.12502,15.1189,55.0612,-34.4562,-1.73042,16.4536,35.4918,-7.24178,-9.87055,19.1803,-12.1065,2.08695,-27.335,26.0992,-16.3864,-1.36849,-6.42896
-12.373,17.6941,-4.58321,9.56039,49.7582,4.02726,2.80122,-0.014316,-6.33644,0.904427,-0.179961,0.996905,-0.61514,-0.0910999,4.59547,-15.2193,1.73528,-8.39457,38.9611,6.62403,-0.0885962,16.33,1.78871,2.70918,-4.98453e-14,1.98785e-16,-33.3151,-8.92564,-78.6317,32.7134,20.6017,-20.9258,1.91054,7.12502,5.446,-27.9995,-4.98453e-14,1.98785e-16,-31.738,15.3571,78.7282,24.9028,-7.43031,-10.7206,25.3712,7.12502,15.2897,54.7861,-34.7189,-1.83026,16.5479,35.8492,-7.44757,-10.6758,19.4459,-12.0978,2.09354,-27.3195,26.0787,-16.5453,-1.37819,-6.81295
-12.3574,17.6917,-4.56111,9.61321,49.9067,4.02427,2.87602,-0.0647406,-6.31692,0.907897,-0.251433,0.999922,-0.644547,-0.125893,4.59024,-15.2385,1.73958,-8.38138,38.9749,6.6101,-0.0430988,16.3394,1.7898,2.7253,-4.34841e-14,-1.39149e-14,-33.5819,-9.09229,-78.483,32.6634,20.5603,-20.8424,1.86714,7.12502,5.52649,-28.0408,-4.34841e-14,-1.39149e-14,-31.6681,15.4841,78.7465,24.9049,-7.61433,-10.6842,25.3929,7.12502,15.3247,54.805,-34.9696,-2.00239,16.6718,36.362,-8.02959,-11.3132,18.9235,-12.0234,1.85146,-27.2763,26.041,-16.6293,-1.29864,-6.94676
-12.3389,17.6856,-4.54194,9.73394,50.0875,4.08582,2.90452,-0.0984225,-6.26025,0.93947,-0.295815,0.9575,-0.622904,-0.14944,4.51551,-15.3901,1.70159,-8.26358,39.0825,6.5321,-0.0180416,16.4392,1.76894,2.71159,-4.65156e-14,5.76476e-15,-33.7651,-9.29024,-78.3538,32.5571,20.3619,-21.0161,2.01375,7.12502,5.35885,-27.8985,-4.65156e-14,5.76476e-15,-31.5036,15.4008,78.8368,24.9146,-7.67373,-10.7548,25.4279,7.12502,15.2567,54.8452,-35.2539,-2.54301,16.8987,36.9564,-8.26978,-11.6223,18.2587,-12.0032,1.702,-27.2911,26.0341,-16.7057,-1.17687,-7.50449
-12.322,17.6793,-4.52368,10.0345,50.1768,4.37107,2.99526,-0.117805,-6.38794,0.933504,-0.332018,0.887783,-0.674956,-0.165505,4.51694,-15.3943,1.70808,-8.17204,39.0587,6.48566,0.0305305,16.428,1.77057,2.70816,-7.41964e-14,1.80894e-14,-34.016,-9.41224,-78.2422,32.4962,20.2133,-21.4941,2.01978,7.12502,4.89727,-27.9036,-7.41964e-14,1.80894e-14,-31.4726,14.8568,79.0626,25.1921,-7.02055,-10.5933,25.5444,7.12502,15.4123,54.9499,-35.6146,-3.00068,16.9641,37.5956,-8.27127,-11.8677,17.9623,-12.0096,1.49855,-27.4661,26.0376,-16.7578,-0.972774,-7.77902
-12.3046,17.6788,-4.50517,9.95429,50.1655,4.118,3.07024,-0.0923667,-6.19575,0.908189,-0.297641,0.974138,-0.748264,-0.145428,4.49755,-15.3856,1.69971,-8.27593,39.0254,6.48892,0.065001,16.4031,1.7637,2.74015,-1.58233e-13,3.57812e-15,-34.2664,-9.54005,-77.9737,32.4614,20.1391,-21.3789,2.05514,7.12502,5.00848,-27.8657,-1.58233e-13,3.57812e-15,-31.4487,14.6944,79.2833,25.4104,-6.59119,-10.517,25.41,7.12502,15.4857,54.8098,-36.0155,-3.06735,17.2764,38.2481,-8.59208,-12.0967,17.9513,-12.057,1.23255,-27.2983,26.0767,-16.85,-0.532902,-8.36278
-12.2886,17.6834,-4.48239,9.67629,50.1914,3.71873,3.18177,-0.0613698,-5.96929,0.93803,-0.254261,1.11461,-0.785908,-0.12338,4.51465,-15.4253,1.67324,-8.48037,38.9707,6.48822,0.130947,16.3745,1.74465,2.80312,3.17559e-14,1.47101e-14,-34.5558,-9.70059,-77.6852,32.5971,19.9044,-21.3364,2.03974,7.12502,5.04954,-27.8801,3.17559e-14,1.47101e-14,-31.3899,14.6928,79.5173,25.5582,-6.44062,-10.5682,25.0959,7.12502,15.4364,54.4995,-36.3091,-2.85747,17.5568,38.9492,-9.29628,-12.411,16.8124,-12.0067,1.15536,-26.9894,26.1239,-16.988,-0.238325,-8.4151
-12.2714,17.6791,-4.46146,9.61203,50.2018,3.67457,3.37777,-0.0783851,-5.90053,0.956362,-0.285839,1.14225,-0.873214,-0.136737,4.50685,-15.3554,1.71982,-8.54442,38.8593,6.53616,0.178475,16.29,1.7685,2.83597,-6.14245e-14,1.98785e-15,-34.8157,-9.76418,-77.55,32.6313,19.7545,-21.6171,2.21283,7.12502,4.77853,-27.7133,-6.14245e-14,1.98785e-15,-31.3426,14.9886,79.5256,25.5312,-6.75808,-10.5477,24.8178,7.12502,15.4562,54.2199,-36.5235,-2.89571,17.6677,39.6516,-9.7797,-12.5791,19.2775,-11.9216,0.889179,-26.9584,26.2686,-17.1297,0.104549,-8.73118
-12.2502,17.6648,-4.44305,9.88193,50.1697,3.98624,3.50576,-0.100949,-5.94633,0.99896,-0.324908,1.04979,-0.896419,-0.156274,4.43876,-15.4754,1.78196,-8.43841,38.8391,6.59423,0.194834,16.3059,1.80702,2.83724,-1.21259e-14,-3.97569e-15,-35.0332,-9.90749,-77.4933,32.6984,19.8072,-22.3165,2.1197,7.12502,4.1031,-27.8205,-1.21259e-14,-3.97569e-15,-31.1474,15.1719,79.5184,25.4271,-6.98417,-10.8115,25.0504,7.12502,15.2021,54.4719,-36.8078,-3.33196,17.7726,40.3877,-9.65341,-12.6642,19.9171,-11.9046,0.530382,-27.1944,26.4485,-17.283,0.193367,-7.55447
-12.2298,17.6574,-4.42337,9.89583,50.069,3.9181,3.57322,-0.0439164,-5.78154,1.04103,-0.246273,1.01715,-0.901367,-0.117759,4.30861,-15.5297,1.7737,-8.32655,38.7735,6.57056,0.11794,16.2944,1.80345,2.77976,8.00108e-14,-2.0276e-14,-35.2377,-10.1505,-77.3625,32.7755,19.7912,-22.5677,2.04097,7.12502,3.86061,-27.9038,8.00108e-14,-2.0276e-14,-30.96,15.0957,79.5981,25.4752,-7.0018,-10.9429,25.6677,7.12502,15.0755,55.0987,-37.1933,-3.5939,18.1262,41.1109,-9.62923,-12.9117,18.009,-11.9768,0.345098,-27.1612,26.6845,-17.5081,0.312364,-6.86356
-12.2126,17.6516,-4.40188,9.68048,50.0124,3.59491,3.73184,-0.0373321,-5.53974,1.04699,-0.23684,1.1015,-0.986101,-0.110752,4.26006,-15.4623,1.79375,-8.34345,38.7018,6.60176,0.0847276,16.2403,1.81388,2.76846,7.51406e-14,-1.51076e-14,-35.444,-9.99728,-77.2846,32.7756,19.6741,-22.5468,2.32598,7.12502,3.88072,-27.6184,7.51406e-14,-1.51076e-14,-30.9643,15.0301,79.7175,25.6177,-6.72183,-10.7931,25.9671,7.12502,15.2198,55.3872,-37.5638,-3.53524,18.4697,41.8098,-10.0885,-13.2374,16.063,-12.0145,0.0962455,-26.924,26.9011,-17.7513,0.651538,-6.10943
-12.1926,17.6437,-4.38261,9.51508,49.9156,3.37225,3.90069,-0.0730274,-5.3638,1.09334,-0.284333,1.2098,-1.02781,-0.134304,4.27616,-15.4813,1.83296,-8.42254,38.5777,6.69768,0.0128573,16.1781,1.83582,2.76247,1.27222e-14,-2.78299e-15,-35.4431,-9.77076,-77.192,32.6647,19.6659,-22.4533,2.35488,7.12502,3.97103,-27.5879,1.27222e-14,-2.78299e-15,-30.8659,15.245,79.8366,25.6045,-6.47231,-10.8607,25.4709,7.12502,15.1547,54.8959,-37.8838,-3.50889,18.7521,42.4368,-10.3864,-13.4736,14.7101,-11.9757,-0.0729638,-26.7866,27.0848,-18.011,0.949129,-5.81386
-12.1684,17.6361,-4.36146,9.61451,49.7976,3.44203,3.91549,-0.0618688,-5.36202,1.19306,-0.267009,1.2442,-0.934891,-0.130368,4.30983,-15.6578,1.81472,-8.5274,38.5824,6.69677,0.0732952,16.2166,1.82291,2.81193,4.55714e-14,-1.98785e-14,-35.3862,-9.76683,-77.0575,32.564,19.6279,-22.787,2.17831,7.12502,3.64877,-27.7702,4.55714e-14,-1.98785e-14,-30.6018,15.4757,80.0033,25.5452,-6.51603,-10.9074,25.1971,7.12502,15.1097,54.6256,-38.2366,-3.53625,18.836,43.0258,-10.5462,-13.5688,13.369,-11.9484,-0.179363,-26.8701,27.2137,-18.2255,1.26752,-5.62173
-12.1418,17.6307,-4.33972,9.61909,49.6285,3.44654,3.95689,-0.0143941,-5.22857,1.29465,-0.198368,1.21449,-0.861847,-0.100062,4.20015,-15.6248,1.83021,-8.61192,38.404,6.6634,0.202489,16.1047,1.82333,2.86792,3.46879e-14,0,-35.417,-9.93278,-76.9581,32.5773,19.6054,-22.6355,2.02809,7.12502,3.79506,-27.9179,3.46879e-14,0,-30.3835,15.616,80.0681,25.4794,-6.66119,-11.1164,25.4121,7.12502,14.9084,54.8556,-38.5159,-3.5495,18.9525,43.54,-10.6596,-13.5819,12.0151,-11.8397,-0.243645,-26.9218,27.2865,-18.4673,1.52136,-4.9674
-12.1174,17.6231,-4.31483,9.52156,49.5061,3.32288,4.07156,0.0133445,-5.0389,1.31493,-0.159425,1.20379,-0.910351,-0.0794154,4.08045,-15.4052,1.89074,-8.50987,38.2741,6.68655,0.179844,15.9861,1.85597,2.8321,-8.04084e-14,-7.55382e-15,-35.6226,-9.94207,-76.9145,32.589,19.5654,-22.4304,2.25957,7.12502,3.99315,-27.6828,-8.04084e-14,-7.55382e-15,-30.344,15.4888,80.123,25.5321,-6.46675,-10.997,25.5723,7.12502,15.0234,55.0072,-38.7811,-3.66766,19.2406,43.9818,-10.6632,-13.5806,11.0223,-11.7017,-0.326782,-26.8626,27.2775,-18.5762,1.83834,-5.00585
-12.0917,17.6178,-4.28639,9.49105,49.4254,3.279,4.14989,-0.038523,-5.01221,1.3367,-0.229769,1.28119,-0.923861,-0.114616,4.14946,-15.189,1.99786,-8.37387,38.1859,6.85092,-0.0289858,15.898,1.92395,2.7361,-1.64991e-14,-3.97569e-16,-35.7641,-9.68066,-76.8523,32.6132,19.6639,-22.3677,2.55079,7.12502,4.05366,-27.3904,-1.64991e-14,-3.97569e-16,-30.4255,15.499,80.2564,25.6727,-6.20253,-10.9159,25.646,7.12502,15.1015,55.0751,-38.9965,-3.81358,19.4467,44.2724,-10.7903,-13.3727,12.2302,-11.5485,-0.374947,-26.8481,27.2337,-18.5677,2.12155,-5.55392
-12.0611,17.6138,-4.25677,9.64255,49.3877,3.47395,4.2371,-0.16646,-5.15651,1.35571,-0.408728,1.37333,-0.931394,-0.204335,4.33611,-15.0866,2.09768,-8.42082,38.1528,7.03302,-0.117616,15.8519,1.9842,2.7312,-3.52843e-14,9.93923e-15,-35.7905,-9.30266,-76.7877,32.5681,19.8642,-22.1711,2.61762,7.12502,4.24354,-27.3199,-3.52843e-14,9.93923e-15,-30.4409,15.7866,80.3735,25.6086,-6.12519,-10.8337,25.3046,7.12502,15.1807,54.7277,-39.1606,-4.07343,19.4787,44.4121,-11.1954,-13.0095,14.7981,-11.3941,-0.374064,-27.0051,27.2264,-18.7006,2.30324,-5.88654
-12.0315,17.6116,-4.22634,9.62607,49.3363,3.42727,4.34061,-0.233077,-5.06882,1.37092,-0.497746,1.42691,-0.963877,-0.248125,4.34741,-15.0271,2.16582,-8.4632,38.1815,7.1112,-0.0377569,15.84,2.02177,2.78386,4.46272e-14,9.14409e-15,-35.8447,-9.12154,-76.7642,32.5625,19.8822,-22.0986,2.4711,7.12502,4.31355,-27.465,4.46272e-14,9.14409e-15,-30.413,15.5826,80.5564,25.6681,-5.84398,-11.0554,25.5625,7.12502,14.9671,55.0016,-39.3042,-4.24906,19.699,44.377,-11.5348,-12.8572,15.3352,-11.2266,-0.494623,-26.9691,27.2104,-18.9114,2.51701,-5.63465
-12.0094,17.6049,-4.19495,9.52565,49.283,3.22139,4.44414,-0.221311,-4.90676,1.41504,-0.478179,1.47727,-0.97959,-0.238586,4.30779,-15.1621,2.18174,-8.47198,38.2906,7.11637,0.0841003,15.9181,2.03073,2.84678,-2.11706e-14,-1.03368e-14,-35.8588,-9.15485,-76.7065,32.582,19.8384,-22.0363,2.3175,7.12502,4.37369,-27.6173,-2.11706e-14,-1.03368e-14,-30.228,15.17,80.8351,25.7334,-5.72475,-11.2308,26.3684,7.12502,14.7981,55.82,-39.454,-4.45218,20.0825,44.1857,-11.7398,-12.6497,14.8117,-11.149,-0.428661,-26.7881,27.2147,-19.0781,2.47185,-5.12558
-11.9816,17.5959,-4.16046,9.55584,49.1132,3.23095,4.49678,-0.184154,-4.91829,1.45515,-0.430119,1.51811,-0.972466,-0.2155,4.35468,-15.107,2.20078,-8.39317,38.3403,7.14838,0.0128012,15.9364,2.04454,2.8083,-3.75703e-14,-1.66979e-14,-35.9022,-9.17899,-76.5694,32.616,19.8748,-21.977,2.23522,7.12502,4.43101,-27.6984,-3.75703e-14,-1.66979e-14,-30.0731,14.882,81.0854,25.6623,-5.64082,-11.5706,26.7793,7.12502,14.4707,56.2547,-39.5414,-4.60667,20.2736,43.8517,-11.9496,-12.4196,14.0171,-11.016,-0.294114,-26.802,27.2384,-19.2705,2.54559,-5.3986
-11.9453,17.5911,-4.1272,9.54236,49.0197,3.07401,4.48477,-0.245225,-4.77876,1.43907,-0.503098,1.65529,-0.974287,-0.251666,4.42206,-15.0578,2.24125,-8.32719,38.4858,7.26268,-0.137464,16.0078,2.07494,2.75569,4.47266e-14,-7.95139e-15,-35.913,-8.90577,-76.4318,32.6671,19.693,-21.8141,2.16527,7.12502,4.58831,-27.765,4.47266e-14,-7.95139e-15,-30.0232,15.0992,81.2258,25.4866,-5.86011,-11.6127,26.613,7.12502,14.4302,56.0913,-39.6577,-4.86318,20.6227,43.3954,-12.1166,-12.3055,12.2454,-10.9512,-0.343993,-26.7117,27.2557,-19.4457,2.84164,-6.27078
-11.9099,17.5865,-4.09208,9.58767,48.8947,3.01592,4.52003,-0.291253,-4.70025,1.42866,-0.560742,1.78016,-0.997807,-0.279647,4.51098,-15.0072,2.29466,-8.41892,38.5834,7.37082,-0.115092,16.0359,2.10692,2.80063,-1.81888e-14,-2.3059e-14,-35.9555,-8.87012,-76.2165,32.6739,19.7727,-21.9538,2.37713,7.12502,4.4534,-27.5561,-1.81888e-14,-2.3059e-14,-29.9166,15.2528,81.4683,25.2931,-6.15629,-11.7512,26.712,7.12502,14.2967,56.1998,-39.7424,-5.10919,20.9213,42.8659,-12.264,-12.249,10.7051,-10.8231,-0.282282,-26.674,27.1734,-19.6247,3.06231,-6.63733
-11.8729,17.5812,-4.05195,9.62373,48.7108,3.03037,4.52871,-0.309971,-4.71686,1.4623,-0.584734,1.86942,-0.963948,-0.293271,4.61453,-14.8279,2.39685,-8.46021,38.5525,7.47572,-0.0287367,15.9614,2.16349,2.8537,4.24405e-14,1.78906e-14,-36.0044,-9.096,-75.9697,32.7086,20.0265,-21.7693,2.43228,7.12502,4.63153,-27.4971,4.24405e-14,1.78906e-14,-29.887,14.9219,81.786,25.3479,-5.91139,-11.7531,27.1914,7.12502,14.295,56.6793,-39.7352,-5.34063,21.1512,42.2768,-12.652,-12.1232,10.5095,-10.5733,-0.165946,-26.6851,27.0287,-19.8036,3.17782,-6.60702
-11.8327,17.5762,-4.01322,9.84986,48.5284,3.24031,4.53762,-0.280388,-4.7465,1.45372,-0.548053,1.81809,-0.982236,-0.27426,4.57614,-14.7091,2.41047,-8.20886,38.6107,7.44804,-0.128627,15.9796,2.17421,2.76179,4.81059e-14,-6.75868e-15,-36.1117,-9.46693,-75.8243,32.7777,20.2576,-21.5205,2.17005,7.12502,4.87177,-27.7539,4.81059e-14,-6.75868e-15,-29.7933,14.3214,82.0187,25.3337,-5.75823,-11.6142,26.2616,7.12502,14.4287,55.74,-39.8079,-5.72726,21.2907,41.6542,-12.8575,-12.1309,9.93216,-10.3203,-0.150391,-26.8594,26.8113,-19.851,3.26597,-6.37039
-11.7905,17.5702,-3.97769,10.1261,48.2927,3.42734,4.4645,-0.278751,-4.79237,1.4509,-0.544624,1.83498,-0.943956,-0.273703,4.6188,-14.7123,2.44761,-8.18777,38.7621,7.49906,-0.0858272,16.0533,2.19719,2.7908,7.54388e-14,-2.38542e-15,-36.1355,-9.54629,-75.6403,32.8881,20.6,-21.4555,1.98248,7.12502,4.93449,-27.9401,7.54388e-14,-2.38542e-15,-29.7296,14.5192,82.0393,25.2284,-6.50766,-11.2692,24.3135,7.12502,14.7612,53.7678,-39.9824,-6.01726,21.4286,41.0312,-12.9822,-12.3159,8.5082,-10.13,-0.0488805,-27.0447,26.5435,-19.8672,3.37848,-6.57406
-11.7483,17.5667,-3.93685,10.2694,48.0722,3.50778,4.42424,-0.290948,-4.80795,1.46953,-0.558226,1.91786,-0.899507,-0.282241,4.71419,-14.6733,2.49494,-8.22012,38.8335,7.58133,-0.0796735,16.0751,2.2252,2.81366,-1.22253e-14,-1.74931e-14,-36.1052,-9.66205,-75.3849,33.0099,20.9165,-21.1412,1.85333,7.12502,5.23806,-28.0619,-1.22253e-14,-1.74931e-14,-29.6483,14.6044,82.1969,25.1253,-6.97356,-11.0243,23.3461,7.12502,14.997,52.783,-40.0501,-6.10951,21.5474,40.4224,-13.4842,-12.5583,7.82629,-9.87692,0.0635602,-27.1316,26.2338,-19.9216,3.43652,-6.81531
-11.703,17.559,-3.89197,10.3399,47.7428,3.56002,4.46384,-0.311169,-4.78098,1.45525,-0.585264,1.96663,-0.932975,-0.294536,4.75167,-14.6257,2.5895,-8.24052,38.9439,7.7149,-0.0255053,16.1083,2.28097,2.8644,4.85035e-14,1.51076e-14,-36.1545,-9.54932,-75.299,33.1415,20.5456,-20.9128,1.91746,7.12502,5.45858,-27.9922,4.85035e-14,1.51076e-14,-29.7599,14.3373,82.3666,25.2514,-6.85812,-10.658,23.3859,7.12502,15.35,52.7962,-39.9991,-6.1332,21.672,39.8098,-14.1062,-12.6422,8.39691,-9.55965,0.431284,-27.2148,25.9373,-19.9835,3.45734,-7.39016
-11.6532,17.5487,-3.844,10.554,47.3846,3.77582,4.35767,-0.314906,-4.83786,1.47015,-0.588411,1.93885,-0.857491,-0.298739,4.75375,-14.5288,2.65896,-8.24964,39.0195,7.73714,0.16749,16.1052,2.31425,2.95104,-9.0944e-14,3.65764e-14,-36.1815,-9.51508,-75.3107,33.1188,20.0246,-21.0996,2.17462,7.12502,5.27816,-27.7397,-9.0944e-14,3.65764e-14,-29.8193,14.1106,82.4493,25.2604,-6.92769,-10.3705,24.1714,7.12502,15.6268,53.5602,-39.9642,-6.37412,21.7669,39.1926,-14.4658,-12.6844,9.28088,-9.22882,0.624093,-27.4287,25.7044,-20.0715,3.64961,-7.62808
-11.6071,17.5428,-3.78786,10.4607,47.2367,3.66867,4.27204,-0.343288,-4.84326,1.54459,-0.619563,2.06596,-0.727363,-0.319744,4.88941,-14.462,2.70499,-8.10391,39.0936,7.7815,0.109192,16.1346,2.34323,2.90878,1.08139e-13,3.97569e-15,-36.1978,-9.66851,-75.1857,33.1905,19.7471,-21.5711,2.36069,7.12502,4.82293,-27.5644,1.08139e-13,3.97569e-15,-29.7672,13.7068,82.7802,25.2856,-6.59503,-10.5177,25.6242,7.12502,15.4851,55.024,-39.798,-6.55712,22.0849,38.6381,-14.9483,-12.9518,9.87122,-8.86047,0.892931,-27.3241,25.5384,-20.19,3.60104,-8.63158
-11.5594,17.5307,-3.74753,10.6104,47.0889,3.67622,4.19519,-0.408684,-4.67607,1.55446,-0.695528,2.13638,-0.666461,-0.359406,4.87018,-14.4476,2.80251,-8.0696,39.1522,7.93697,0.0690649,16.1577,2.40425,2.91254,-2.98177e-15,1.43125e-14,-36.1607,-9.89695,-74.9816,33.3482,19.7566,-21.9282,2.37024,7.12502,4.47811,-27.5624,-2.98177e-15,1.43125e-14,-29.7798,13.2752,83.1171,25.4519,-6.15134,-10.7923,25.7873,7.12502,15.2205,55.2075,-39.8892,-7.07297,22.4813,38.1475,-14.9621,-13.3015,9.46354,-8.70598,0.948208,-27.3599,25.414,-20.2091,3.42735,-8.13312
-11.5022,17.5075,-3.7287,11.1343,46.8502,4.05962,4.20421,-0.483048,-4.404,1.43892,-0.787162,2.03711,-0.785736,-0.399083,4.61713,-14.3123,2.90799,-8.10138,39.2021,8.07246,0.124601,16.1369,2.46501,2.95997,-2.94201e-14,-5.56597e-15,-36.1749,-9.90031,-74.8805,33.3892,19.6205,-22.2114,2.5126,7.12502,4.20464,-27.4256,-2.94201e-14,-5.56597e-15,-29.9606,12.94,83.2444,25.6432,-6.09739,-10.4727,25.5626,7.12502,15.5284,54.9591,-40.2204,-8.22954,22.854,37.7264,-14.0532,-13.425,8.23825,-8.65782,0.953732,-27.788,25.2904,-20.2063,3.31207,-7.11941
-11.4454,17.4915,-3.69104,11.4887,46.682,4.3312,4.17913,-0.541584,-4.30266,1.36732,-0.86121,2.03492,-0.838993,-0.433305,4.56091,-14.3066,2.91707,-8.11363,39.3434,8.10306,0.130607,16.2076,2.46954,2.97543,-3.20043e-14,8.74653e-15,-36.2996,-9.91007,-74.7547,33.5732,19.255,-22.6,2.58582,7.12502,3.82935,-27.3595,-3.20043e-14,8.74653e-15,-30.0826,12.7506,83.4037,25.7181,-6.34646,-10.3181,26.0268,7.12502,15.6773,55.4117,-40.3924,-9.08407,23.182,37.4156,-13.4188,-13.6306,8.59449,-8.45018,1.04258,-28.0651,25.1016,-20.3465,3.59524,-7.88337
-11.3928,17.4855,-3.63474,11.4919,46.4963,4.27993,4.13416,-0.611702,-4.27095,1.38747,-0.949121,2.19136,-0.781006,-0.479281,4.70893,-14.3019,3.00041,-8.10324,39.3887,8.25476,0.0595531,16.2287,2.52103,2.96907,-5.64548e-14,-1.43125e-14,-36.312,-9.92277,-74.5745,33.7619,19.0509,-23.4409,2.72303,7.12502,3.01728,-27.2354,-5.64548e-14,-1.43125e-14,-30.1022,12.9201,83.5768,25.6595,-6.42876,-10.3872,26.4227,7.12502,15.6108,55.8128,-40.4048,-9.37734,23.5564,37.2577,-13.0348,-14.2607,10.8191,-8.02981,1.31362,-28.0238,24.7429,-20.4569,3.79175,-8.39691
-11.3388,17.4798,-3.58466,11.5929,46.1709,4.40194,4.16128,-0.61301,-4.20526,1.42073,-0.948436,2.20868,-0.762822,-0.479894,4.68975,-14.2493,3.06892,-7.95694,39.3872,8.32866,-0.0144699,16.2225,2.56297,2.9217,-3.47873e-14,1.51076e-14,-36.3913,-10.0108,-74.4674,33.9971,18.9954,-23.8106,2.82949,7.12502,2.66029,-27.1337,-3.47873e-14,1.51076e-14,-30.1256,12.5626,83.8344,25.6972,-5.90789,-11.1802,26.5782,7.12502,14.8469,56.0263,-40.4326,-9.66281,23.8033,37.1969,-12.5261,-14.9082,14.1739,-7.55646,1.4823,-28.1787,24.282,-20.5756,4.09241,-9.00187
-11.2853,17.4809,-3.53907,11.7749,45.9217,4.57457,4.2074,-0.641585,-4.10973,1.4103,-0.984258,2.20925,-0.797139,-0.496535,4.63856,-14.169,3.14598,-7.91111,39.4462,8.39267,0.061763,16.2246,2.60574,2.95569,-2.32578e-14,3.10104e-14,-36.4343,-9.99889,-74.3858,34.0691,18.9858,-23.9953,3.05964,7.12502,2.4819,-26.9057,-2.32578e-14,3.10104e-14,-30.2149,11.8599,84.1699,25.9271,-5.04298,-11.7449,26.9442,7.12502,14.3029,56.4316,-40.5605,-10.1557,24.0613,37.2569,-11.9912,-15.6075,15.4425,-7.13316,1.61005,-28.3662,23.8444,-20.8138,4.2678,-9.79632
-11.2311,17.4824,-3.49421,11.888,45.6206,4.58721,4.18557,-0.676748,-3.96193,1.43465,-1.02254,2.30483,-0.756575,-0.516946,4.65525,-14.2211,3.2524,-7.98962,39.5136,8.55247,0.145774,16.2532,2.66674,3.03534,1.19271e-14,-3.18055e-15,-36.3342,-9.79957,-74.3257,34.2263,18.7775,-24.2236,2.88404,7.12502,2.26137,-27.0837,1.19271e-14,-3.18055e-15,-30.2528,11.7927,84.3122,26.0133,-5.21783,-11.1189,26.4681,7.12502,14.9059,55.9118,-40.7564,-10.5271,24.3716,37.4501,-11.8013,-16.3448,14.3993,-6.8043,1.65135,-28.4602,23.4775,-20.9713,4.41286,-9.74508
-11.1768,17.4678,-3.45691,12.0182,45.2656,4.51462,4.12964,-0.71795,-3.68992,1.44212,-1.0629,2.41548,-0.716408,-0.537759,4.61662,-14.2956,3.34832,-7.94082,39.5819,8.75582,-0.00597901,16.3132,2.72965,3.00064,-5.04913e-14,3.26007e-14,-36.1607,-9.70611,-74.2398,34.3633,18.6946,-24.468,2.698,7.12502,2.0254,-27.2721,-5.04913e-14,3.26007e-14,-30.3003,11.8338,84.4169,26.1257,-5.75734,-9.54848,25.6571,7.12502,16.4184,54.9823,-40.9824,-10.7192,24.6663,37.7252,-12.2185,-16.5941,12.8659,-6.63675,1.70533,-28.5464,23.2063,-20.9483,4.84793,-10.3639
-11.1274,17.4549,-3.41259,12.2172,45.033,4.51707,4.13547,-0.819069,-3.50687,1.36177,-1.18965,2.49586,-0.791117,-0.597759,4.60293,-14.2657,3.46221,-7.76432,39.6295,8.96307,-0.235416,16.3498,2.80562,2.9062,8.36883e-14,1.90833e-14,-36.2366,-9.55344,-74.2227,34.6666,18.5501,-24.2737,2.66576,7.12502,2.21306,-27.3025,8.36883e-14,1.90833e-14,-30.6087,11.4734,84.5908,26.5598,-5.58785,-8.95037,25.872,7.12502,16.9942,55.1486,-41.1156,-10.7793,24.8251,38.0075,-12.7142,-16.417,11.7358,-6.55245,1.727,-28.6064,23.0845,-21.0703,5.03912,-10.5338
-11.0787,17.4437,-3.35763,12.2524,44.8229,4.55353,4.27018,-0.89711,-3.49416,1.31319,-1.29473,2.61055,-0.902866,-0.646796,4.72358,-14.1107,3.59291,-7.75792,39.6513,9.13093,-0.217597,16.3127,2.88182,2.93338,5.94366e-14,-2.70347e-14,-36.4219,-9.51196,-74.1161,34.95,18.6131,-24.1213,2.96871,7.12502,2.3602,-26.998,5.94366e-14,-2.70347e-14,-30.8857,11.0866,84.8418,26.86,-5.15372,-9.82817,26.5133,7.12502,16.1491,55.8605,-40.9609,-10.6079,24.8008,38.303,-12.9882,-15.9027,11.9926,-6.26159,1.6426,-28.6395,23.0656,-21.3021,5.072,-9.90987
-11.0253,17.4336,-3.30406,12.1574,44.4558,4.37433,4.28233,-0.848206,-3.27503,1.36055,-1.21802,2.72744,-0.871338,-0.609546,4.71708,-14.0877,3.65416,-7.74301,39.6853,9.20648,-0.195437,16.3194,2.91711,2.95271,-8.7664e-14,-5.56597e-15,-36.3784,-9.62401,-73.9421,35.1283,18.6563,-24.085,3.02381,7.12502,2.39531,-26.9425,-8.7664e-14,-5.56597e-15,-30.9249,10.3597,85.2094,27.0409,-4.3882,-10.8267,26.8593,7.12502,15.1875,56.2819,-40.8373,-10.1173,24.8078,38.6348,-13.0841,-15.3366,12.5038,-5.98589,1.65476,-28.5911,22.9995,-21.448,5.4205,-10.3683
-10.9708,17.4248,-3.25076,11.9893,44.0893,4.10136,4.34181,-0.814661,-2.96359,1.44323,-1.15797,2.87508,-0.829186,-0.581007,4.69143,-14.2139,3.71387,-7.68509,39.7476,9.32776,-0.275307,16.3883,2.95611,2.93652,7.11649e-14,-4.69132e-14,-36.1701,-9.51221,-73.8615,35.2733,18.443,-24.2325,3.03946,7.12502,2.25286,-26.9284,7.11649e-14,-4.69132e-14,-30.8104,10.1177,85.4623,27.039,-4.06365,-11.415,26.9709,7.12502,14.6207,56.4355,-40.7175,-9.60729,24.8304,38.9988,-13.3636,-14.9904,13.3015,-5.67564,1.60066,-28.484,22.886,-21.3739,5.9336,-11.4867
-10.9125,17.4176,-3.1992,12.0895,43.7918,4.15763,4.41207,-0.891314,-2.76679,1.46383,-1.25106,2.952,-0.840329,-0.627179,4.66533,-14.2225,3.83752,-7.66794,39.7603,9.54905,-0.38275,16.398,3.03255,2.9237,-2.10712e-14,-5.08889e-14,-36.0252,-9.22853,-73.8723,35.4508,18.263,-24.2512,3.1219,7.12502,2.23472,-26.8461,-2.10712e-14,-5.08889e-14,-30.7878,10.2823,85.4856,27.0097,-4.46654,-11.4428,27.0233,7.12502,14.5939,56.4899,-40.7256,-9.33613,24.6201,39.4054,-13.4705,-14.812,14.1648,-5.39014,1.37862,-28.627,22.8247,-21.4246,6.25638,-11.5353
-10.8544,17.4086,-3.1538,12.2844,43.4872,4.29227,4.45921,-0.922476,-2.61291,1.47883,-1.28536,3.00233,-0.850157,-0.643964,4.63281,-14.306,3.90344,-7.65732,39.8076,9.67592,-0.434907,16.4438,3.0726,2.92568,-1.12512e-13,3.81667e-14,-35.9626,-9.26241,-73.7591,35.7323,18.1182,-24.1153,3.162,7.12502,2.36605,-26.8046,-1.12512e-13,3.81667e-14,-30.7235,10.2322,85.6145,27.0694,-4.74039,-11.2863,26.9544,7.12502,14.7447,56.4099,-40.8804,-9.15964,24.3865,39.823,-13.2333,-14.6942,15.283,-5.25953,1.19603,-28.8571,22.9404,-21.6418,6.59891,-11.1281
-10.7952,17.3943,-3.10441,12.1193,43.0747,4.0403,4.45857,-0.895298,-2.25602,1.60118,-1.23106,3.14076,-0.734074,-0.619655,4.57006,-14.4248,3.95041,-7.65808,39.8838,9.79066,-0.49676,16.5155,3.10173,2.9266,7.27552e-14,-3.33958e-14,-35.7469,-9.35061,-73.6519,35.9432,17.9885,-24.0702,3.24461,7.12502,2.40958,-26.7215,7.27552e-14,-3.33958e-14,-30.5396,10.174,85.8281,27.0022,-4.94218,-11.3129,26.5945,7.12502,14.719,56.0519,-40.8593,-8.89344,24.4615,40.228,-13.1692,-14.1619,16.7097,-5.09875,1.09169,-28.8256,23.185,-21.8953,7.11508,-11.3935
-10.7401,17.3748,-3.0567,11.7932,42.6644,3.62822,4.64686,-0.886199,-1.80629,1.64902,-1.19605,3.3114,-0.799365,-0.599815,4.49425,-14.3265,4.04455,-7.52758,39.9167,9.94445,-0.654863,16.5248,3.16245,2.85843,5.56597e-15,4.77083e-15,-35.7159,-9.24667,-73.5862,36.2297,17.9377,-23.9687,3.22088,7.12502,2.50763,-26.7441,5.56597e-15,4.77083e-15,-30.4581,10.3551,85.8877,26.8212,-5.27106,-11.0239,26.1331,7.12502,14.9975,55.57,-40.7147,-8.64048,24.707,40.5771,-13.2701,-13.4702,14.0523,-4.92356,0.913455,-28.6841,23.513,-21.9828,7.87329,-12.533
-10.6854,17.3641,-3.00883,11.5712,42.1883,3.27377,4.85382,-0.901394,-1.47046,1.65008,-1.19499,3.53623,-0.916137,-0.596003,4.54252,-14.2565,4.17226,-7.62333,39.9726,10.1963,-0.734198,16.5305,3.23986,2.8801,-3.06128e-14,-3.33958e-14,-35.5846,-8.9552,-73.4826,36.4114,17.8968,-24.0339,3.25418,7.12502,2.44459,-26.7116,-3.06128e-14,-3.33958e-14,-30.5093,10.5864,86.0011,26.8194,-5.41842,-10.7583,26.2043,7.12502,15.2533,55.6219,-40.6835,-8.32682,24.9118,40.8875,-13.2706,-13.0913,14.1349,-4.85249,0.71288,-28.5859,23.8872,-22.0604,8.55411,-13.2549
-10.6265,17.3671,-2.95421,11.4885,41.776,3.09708,4.90076,-0.898547,-1.23448,1.67749,-1.1767,3.67221,-0.917778,-0.586288,4.55007,-14.192,4.27458,-7.5624,40.058,10.3746,-0.834541,16.5672,3.30503,2.85631,6.95746e-14,-2.38542e-14,-35.5057,-8.8157,-73.3933,36.6893,17.5461,-23.8471,3.32883,7.12502,2.62501,-26.6348,6.95746e-14,-2.38542e-14,-30.5811,10.4162,86.1653,26.9107,-5.43129,-10.7343,26.1803,7.12502,15.2765,55.5961,-40.6728,-8.18635,25.021,41.1576,-13.1991,-12.9642,17.7765,-4.84637,0.773331,-28.5623,24.3042,-22.1328,8.85444,-13.621
-10.5658,17.3706,-2.89959,11.5534,41.4526,3.15362,4.89318,-0.903915,-1.08325,1.71739,-1.17619,3.71768,-0.874741,-0.586612,4.51084,-14.1116,4.33542,-7.41401,40.2276,10.4498,-0.877137,16.6487,3.34446,2.82897,-3.97569e-15,-4.77083e-15,-35.4346,-8.8497,-73.3184,36.8841,17.3524,-23.6154,3.47842,7.12502,2.84882,-26.4823,-3.97569e-15,-4.77083e-15,-30.6151,9.90822,86.3674,27.0659,-5.40097,-10.6131,26.2118,7.12502,15.3932,55.6187,-40.5973,-8.22958,24.9654,41.3973,-13.241,-12.595,17.7929,-4.75177,0.823972,-28.7026,24.621,-22.0847,8.93827,-13.9193
-10.5095,17.3675,-2.84361,11.5296,41.1994,3.08078,4.95484,-0.945534,-0.930034,1.74572,-1.22039,3.87039,-0.875979,-0.608275,4.58668,-14.0603,4.39024,-7.33569,40.3491,10.5687,-1.00269,16.7163,3.38145,2.78405,1.27222e-14,-1.11319e-14,-35.2692,-8.84083,-73.1676,36.5244,18.6443,-24.7315,4.24882,7.12502,1.77087,-25.7236,1.27222e-14,-1.11319e-14,-30.5741,9.30444,86.7778,27.2247,-4.9706,-10.8964,26.8232,7.12502,15.1203,56.2509,-40.4181,-8.28505,25.0532,41.5922,-13.601,-11.9944,18.5714,-4.5841,0.741986,-28.7193,24.8326,-21.8353,9.16304,-14.588
-10.4498,17.371,-2.78321,11.6527,40.9404,3.08049,4.80416,-1.02787,-0.826898,1.81978,-1.32576,4.01161,-0.705351,-0.663832,4.67655,-14.0852,4.4526,-7.26641,40.4148,10.7188,-1.17626,16.7769,3.42221,2.72599,-4.65156e-14,-4.29375e-14,-34.9472,-8.59471,-73.1557,37.1894,16.7648,-23.4127,3.47385,7.12502,3.04458,-26.4842,-4.65156e-14,-4.29375e-14,-30.4478,8.54244,87.3269,27.5312,-4.10804,-11.5583,28.3316,7.12502,14.4826,57.8062,-40.2792,-8.16979,25.0152,41.7369,-13.9625,-11.5235,18.6756,-4.52362,0.697602,-28.7899,25.0701,-21.3891,9.41615,-15.4481
-10.3879,17.3894,-2.71978,11.8263,40.7309,3.26927,4.71801,-1.13723,-0.904057,1.85257,-1.47488,4.13045,-0.604966,-0.740805,4.84953,-13.9782,4.53995,-7.18264,40.6028,10.8877,-1.29555,16.8667,3.47934,2.69082,-2.26615e-14,1.43125e-14,-34.7675,-8.46917,-73.0898,37.4947,16.143,-23.0329,3.26993,7.12502,3.41129,-26.6825,-2.26615e-14,1.43125e-14,-30.5447,7.81498,87.7914,27.9032,-3.40582,-12.2798,29.3009,7.12502,13.7874,58.8241,-40.084,-8.08474,24.7826,41.8333,-14.0236,-11.4177,18.3251,-4.46574,0.678764,-29.0112,25.4007,-20.8617,9.63187,-17.0236
-10.329,17.4067,-2.6556,11.9649,40.6471,3.45323,4.70067,-1.26101,-0.923099,1.86302,-1.63918,4.2326,-0.565744,-0.82397,4.97462,-13.9031,4.63166,-7.20382,40.8486,11.0635,-1.2968,16.9779,3.53661,2.72953,-3.89618e-14,-4.77083e-15,-34.6438,-8.54187,-72.998,37.6068,16.2742,-22.9404,3.08115,7.12502,3.50069,-26.8699,-3.89618e-14,-4.77083e-15,-30.6265,7.57953,87.8961,28.0041,-3.81826,-11.8592,28.8928,7.12502,14.1927,58.388,-39.833,-8.03472,24.5616,41.8857,-14.1217,-11.4053,18.3985,-4.46401,0.616679,-29.1729,25.8447,-20.3388,9.7158,-18.3699
-10.2719,17.4187,-2.58771,12.0141,40.5036,3.53032,4.67698,-1.32878,-0.846643,1.89125,-1.72618,4.27506,-0.516272,-0.868222,4.97848,-13.8172,4.71112,-7.08786,41.0923,11.2025,-1.35599,17.1026,3.59123,2.71379,6.08281e-14,-5.88403e-14,-34.4957,-8.65806,-72.9832,37.634,16.3275,-22.996,2.97716,7.12502,3.447,-26.9747,6.08281e-14,-5.88403e-14,-30.6292,7.59774,87.6825,27.9548,-5.11461,-10.5223,27.7372,7.12502,15.4806,57.1374,-39.5109,-7.96816,24.4516,41.9173,-14.39,-11.2622,18.1599,-4.52008,0.687751,-29.2224,26.4736,-19.9391,9.63117,-19.559
-10.2155,17.4302,-2.52497,12.1603,40.2898,3.69594,4.65635,-1.37443,-0.825153,1.87974,-1.7854,4.31755,-0.510353,-0.897833,5.0131,-13.7587,4.7298,-7.18924,41.3889,11.2702,-1.27373,17.2387,3.60004,2.78788,6.75868e-14,1.27222e-14,-34.4193,-8.7871,-72.9322,37.6696,16.3053,-23.2325,3.1364,7.12502,3.21853,-26.8191,6.75868e-14,1.27222e-14,-30.5204,7.5849,87.5771,27.8111,-6.11844,-9.60718,27.0161,7.12502,16.3619,56.3459,-39.2125,-7.80124,24.2386,41.9149,-14.6423,-11.1243,16.9802,-4.75164,0.774264,-29.36,27.3855,-19.5207,9.37168,-20.3159
-10.1589,17.4415,-2.465,12.2663,40.1122,3.84027,4.49946,-1.45593,-0.875525,2.00413,-1.89989,4.43724,-0.277728,-0.960704,5.16524,-13.7314,4.74767,-7.27431,41.4828,11.3328,-1.28399,17.2799,3.60546,2.81028,2.22639e-14,-5.725e-14,-34.1104,-8.76692,-72.8627,37.7319,16.2912,-23.3158,3.11028,7.12502,3.13812,-26.8464,2.22639e-14,-5.725e-14,-30.2821,7.46758,87.6683,27.8199,-6.57869,-9.09059,26.8248,7.12502,16.8592,56.1129,-38.8281,-7.63579,24.0112,41.8699,-14.9237,-10.8927,15.4912,-5.09171,0.914143,-29.4723,28.522,-19.0388,9.07156,-21.5117
-10.1058,17.4534,-2.40518,12.3244,39.9342,3.98111,4.23185,-1.58989,-1.08395,2.31391,-2.09592,4.65697,0.227144,-1.07351,5.50825,-13.891,4.83608,-7.40967,41.4667,11.5665,-1.40578,17.3108,3.65517,2.82524,8.34896e-15,-3.81667e-14,-33.3446,-8.59497,-72.7858,37.6901,16.2314,-23.4272,3.06881,7.12502,3.03052,-26.8894,8.34896e-15,-3.81667e-14,-29.7168,7.70278,87.7941,27.7439,-7.08323,-8.77301,26.4223,7.12502,17.1649,55.6841,-38.4145,-7.55345,23.8271,41.7656,-15.1737,-10.651,14.5551,-5.52052,1.17953,-29.5467,29.8433,-18.3824,8.70906,-22.6756
-10.0521,17.4731,-2.34613,12.275,39.7821,3.96377,4.11169,-1.7083,-0.972742,2.53624,-2.2556,4.79246,0.541942,-1.16073,5.5845,-13.9882,4.93325,-7.61928,41.5008,11.7778,-1.37701,17.331,3.70591,2.91352,4.73108e-14,-5.56597e-14,-32.7689,-8.55493,-72.799,37.6493,16.2836,-23.396,3.08126,7.12502,3.06066,-26.8765,4.73108e-14,-5.56597e-14,-29.2954,7.60898,87.9048,27.7753,-7.27014,-8.97235,26.2978,7.12502,16.9731,55.5762,-37.9814,-7.41388,23.744,41.6301,-15.4678,-10.476,14.6236,-6.02496,1.51683,-29.4611,31.2672,-17.691,8.14901,-23.6077
-9.99405,17.4972,-2.28841,12.2238,39.5517,3.92329,4.19286,-1.75835,-0.674951,2.554,-2.30953,4.83429,0.509925,-1.18341,5.4629,-14.0198,5.02189,-7.77533,41.6941,11.9855,-1.34081,17.4289,3.75843,3.00032,4.01545e-14,1.43125e-14,-32.6703,-8.79787,-72.7789,37.6135,16.5833,-23.5434,3.2912,7.12502,2.91833,-26.6686,4.01545e-14,1.43125e-14,-29.2901,7.33379,87.8905,28.0453,-7.50362,-8.96606,25.9311,7.12502,16.9791,55.209,-37.5394,-7.17723,23.6266,41.4576,-15.6589,-10.4054,14.8046,-6.62082,1.88226,-29.3679,32.7951,-16.9023,7.52453,-24.7679
-9.93419,17.5168,-2.22971,12.3612,39.289,4.14303,4.25342,-1.77885,-0.604463,2.50942,-2.33206,4.80503,0.427986,-1.19194,5.39568,-13.8735,5.05021,-7.72371,41.8669,12.0482,-1.39829,17.5009,3.7783,2.97719,-3.53837e-14,3.33958e-14,-32.7555,-8.955,-72.8176,37.721,16.2705,-23.8217,3.06106,7.12502,2.64953,-26.9022,-3.53837e-14,3.33958e-14,-29.3952,6.89168,87.8982,28.31,-7.597,-9.02196,25.7432,7.12502,16.9253,55.0257,-37.1123,-7.04784,23.3264,41.264,-15.7641,-10.2643,14.6741,-7.28342,2.35233,-29.4672,34.4449,-15.9773,6.75088,-25.9861
-9.87842,17.5367,-2.17006,12.4259,38.9822,4.28626,4.2969,-1.79901,-0.579807,2.50105,-2.35666,4.82665,0.397459,-1.20359,5.40699,-13.6486,5.10452,-7.80523,41.9464,12.1218,-1.36051,17.4761,3.80553,3.01005,3.65764e-14,-6.36111e-15,-32.8024,-8.75735,-72.9316,37.9009,15.4976,-24.2631,3.01216,7.12502,2.22322,-26.956,3.65764e-14,-6.36111e-15,-29.5494,6.44698,87.9059,28.7363,-7.51089,-9.05938,25.5526,7.12502,16.8893,54.8382,-36.6605,-6.83333,23.0813,41.0357,-15.9304,-10.0861,14.7782,-8.03148,2.92852,-29.4484,36.2228,-15.0541,5.75434,-26.5364
-9.82631,17.5564,-2.1137,12.3218,38.7467,4.17588,4.39095,-1.79748,-0.337779,2.50153,-2.34164,4.90102,0.337134,-1.19226,5.3504,-13.4357,5.15019,-7.83093,41.9466,12.1774,-1.38096,17.4202,3.83076,3.00211,4.01545e-14,-2.06736e-14,-32.8766,-8.80285,-72.9463,38.1034,15.1724,-24.2329,3.12828,7.12502,2.25246,-26.8396,4.01545e-14,-2.06736e-14,-29.5986,5.97378,87.9581,29.2226,-7.37063,-9.04941,25.6342,7.12502,16.8989,54.919,-36.1987,-6.60435,23.0732,40.7879,-16.0797,-10.0081,14.3129,-8.88237,3.42231,-29.1909,38.0832,-13.9219,4.71751,-26.6656
-9.77232,17.5757,-2.05451,12.0597,38.5101,3.9551,4.5525,-1.81219,-0.0323186,2.53472,-2.34351,4.99931,0.273052,-1.18894,5.28548,-13.3475,5.18885,-7.91486,42.0131,12.2436,-1.34704,17.4237,3.84891,3.03936,-3.61788e-14,-3.81667e-14,-32.8685,-8.68854,-72.9874,38.2471,15.0539,-24.1505,2.97379,7.12502,2.33204,-26.9932,-3.61788e-14,-3.81667e-14,-29.5674,5.54638,88.0194,29.6353,-7.38287,-8.85047,26.1354,7.12502,17.0904,55.4037,-35.5991,-6.37282,23.1483,40.4983,-16.1742,-9.90606,14.1302,-9.70142,4.03585,-28.8279,39.9995,-12.5858,3.70042,-27.0809
-9.71605,17.5948,-1.9916,11.818,38.3438,3.80394,4.64452,-1.86539,0.201486,2.60633,-2.40231,5.09798,0.29572,-1.21653,5.2607,-13.2401,5.25978,-7.91443,42.1075,12.3816,-1.41552,17.4555,3.89363,3.03011,-1.86858e-14,-6.36111e-15,-32.8066,-8.47738,-73.0451,38.348,14.8654,-24.3865,3.26627,7.12502,2.1041,-26.7031,-1.86858e-14,-6.36111e-15,-29.4934,5.3622,88.0349,30.0199,-7.54957,-8.92017,26.7324,7.12502,17.0233,56.0065,-34.9429,-6.19264,23.1756,40.1922,-16.3072,-9.87511,15.0997,-10.5254,4.69611,-28.44,41.95,-11.0664,2.38094,-27.0207
-9.6594,17.6102,-1.93296,11.8027,38.1739,3.8423,4.61145,-1.90371,0.357621,2.65456,-2.44944,5.11521,0.362231,-1.23928,5.18959,-13.1348,5.3304,-7.9015,42.1791,12.4516,-1.35368,17.459,3.93227,3.06334,-1.59028e-15,-4.92986e-14,-32.7276,-8.17786,-73.1661,38.3962,14.6618,-24.6291,3.40618,7.12502,1.86982,-26.5654,-1.59028e-15,-4.92986e-14,-29.4639,4.84498,88.0348,30.4991,-7.11032,-9.00371,27.1765,7.12502,16.9429,56.4575,-34.4176,-6.21178,23.1089,39.8693,-16.3155,-9.77623,16.7807,-11.4889,5.3148,-28.2404,43.8717,-9.28938,1.10607,-26.9517
-9.60568,17.6173,-1.87735,11.7442,37.9341,3.88319,4.66004,-1.91688,0.429449,2.72276,-2.4642,5.15287,0.405558,-1.24682,5.18954,-13.0254,5.38489,-7.8226,42.1677,12.5338,-1.45831,17.4407,3.96786,3.01082,1.98785e-14,3.33958e-14,-32.6429,-8.01954,-73.2138,38.5291,14.7509,-24.4344,3.35646,7.12502,2.05779,-26.6134,1.98785e-14,3.33958e-14,-29.4362,4.31827,88.045,31.0481,-6.51192,-9.07332,27.2867,7.12502,16.8759,56.5734,-33.8345,-6.28417,23.0728,39.5552,-16.3076,-9.50432,17.7015,-12.4887,5.95895,-28.0676,45.7412,-7.4218,0.0675482,-26.8645
-9.55123,17.6293,-1.82035,11.5449,37.6574,3.70503,4.68975,-1.91135,0.599807,2.78453,-2.44866,5.31158,0.451738,-1.23825,5.25925,-12.9445,5.46913,-7.93908,42.2775,12.6971,-1.43791,17.4676,4.01694,3.06585,-4.45278e-14,-5.88403e-14,-32.6616,-7.66924,-73.1432,38.8261,14.756,-24.3952,3.50471,7.12502,2.09568,-26.4647,-4.45278e-14,-5.88403e-14,-29.4557,4.26495,88.1383,31.5848,-6.47453,-9.12578,27.0181,7.12502,16.8254,56.3092,-33.238,-6.20822,23.1906,39.2571,-16.3729,-9.34555,17.5677,-13.457,6.61546,-27.7012,47.5105,-5.86075,-1.15324,-26.9361
-9.4969,17.6474,-1.76719,11.3847,37.4228,3.59271,4.75882,-1.9251,0.84553,2.84921,-2.45546,5.36083,0.472317,-1.23878,5.17327,-12.8742,5.54385,-8.08428,42.2934,12.7657,-1.26371,17.4204,4.04933,3.17221,9.54166e-15,-3.18055e-14,-32.518,-7.28888,-73.268,38.8845,14.6689,-24.6842,3.88447,7.12502,1.81652,-26.0875,9.54166e-15,-3.18055e-14,-29.5486,4.04263,88.145,32.2666,-6.30963,-9.15651,26.878,7.12502,16.7958,56.1716,-32.7533,-6.08293,23.1699,38.9958,-16.4308,-9.2338,17.6756,-14.3802,7.18452,-27.3498,49.2017,-4.51296,-2.58358,-26.257
-9.44427,17.6714,-1.71223,11.2295,37.1772,3.49472,4.91748,-1.94324,1.03972,2.84782,-2.46356,5.38908,0.376013,-1.23915,5.09943,-12.6785,5.60908,-8.10419,42.1828,12.7898,-1.20579,17.2939,4.07956,3.18573,7.79236e-14,-4.6118e-14,-32.5776,-6.79071,-73.4281,39.0759,14.6161,-24.6071,3.90111,7.12502,1.89099,-26.0703,7.79236e-14,-4.6118e-14,-29.6524,3.67625,88.0619,32.8297,-5.97231,-9.55577,26.5034,7.12502,16.4114,55.8292,-32.3094,-5.91203,23.0749,38.7814,-16.5525,-8.99292,18.4256,-15.2528,7.68639,-27.0255,50.7659,-3.42374,-3.80398,-25.2788
-9.39497,17.6858,-1.65873,11.0587,36.9587,3.24479,4.99706,-1.90923,1.31179,2.82541,-2.40035,5.44584,0.29449,-1.20301,5.00575,-12.6122,5.63419,-7.99882,42.2603,12.7901,-1.1894,17.3263,4.09527,3.17566,-8.34896e-14,1.27222e-14,-32.7649,-6.59809,-73.5156,39.4244,14.8151,-24.2119,3.87577,7.12502,2.27266,-26.0919,-8.34896e-14,1.27222e-14,-29.654,3.07976,87.9741,33.3934,-5.51665,-9.76598,26.1891,7.12502,16.209,55.5315,-31.9642,-5.71244,23.1704,38.6322,-16.6873,-8.8662,18.5369,-16.2182,8.10658,-26.5916,52.2534,-2.68522,-4.73406,-24.6659
-9.34389,17.6926,-1.60905,10.8838,36.6505,3.12132,5.0721,-1.89329,1.41915,2.89835,-2.37266,5.52277,0.325075,-1.18852,5.02623,-12.6911,5.65568,-7.93413,42.3928,12.8746,-1.28324,17.439,4.11269,3.14959,6.36111e-15,7.79236e-14,-32.6775,-6.24341,-73.5608,39.8046,15.0271,-24.4879,3.84569,7.12502,2.00615,-26.1246,6.36111e-15,7.79236e-14,-29.5965,2.60715,87.8833,34.0168,-5.10361,-9.74185,25.5911,7.12502,16.2322,54.9316,-31.5652,-5.63045,23.2077,38.5583,-16.7791,-8.6465,18.2283,-17.0654,8.56496,-26.2945,53.6305,-2.73804,-5.53248,-25.4498
-9.28673,17.6972,-1.56298,10.7644,36.2228,3.21037,5.2093,-1.87395,1.43449,2.98166,-2.34347,5.51598,0.331585,-1.17413,5.01285,-12.662,5.67446,-7.86783,42.4814,12.9194,-1.35505,17.4971,4.12439,3.11712,1.59028e-15,2.38542e-14,-32.5387,-5.73903,-73.6166,40.0247,15.3848,-25.8444,4.19297,7.12502,0.69604,-25.7856,1.59028e-15,2.38542e-14,-29.5599,2.35985,87.7016,34.6668,-4.95515,-9.43253,25.6044,7.12502,16.53,54.9203,-31.1128,-5.5847,23.0305,38.499,-16.7764,-8.36854,17.8768,-17.8039,8.94417,-26.2378,54.9038,-3.28097,-5.61396,-26.429
-9.23027,17.7017,-1.51702,10.7382,35.7463,3.31596,5.32775,-1.86186,1.39461,2.98385,-2.32363,5.53852,0.269049,-1.16468,5.06283,-12.4845,5.7783,-7.81205,42.5658,13.0622,-1.39192,17.5045,4.18733,3.1077,5.56597e-15,0,-32.3627,-5.00128,-73.7355,40.0256,15.3685,-25.9933,4.0633,7.12502,0.552247,-25.9157,5.56597e-15,0,-29.6654,2.03011,87.6191,35.4127,-4.45814,-9.75126,25.8321,7.12502,16.2232,55.1733,-30.7772,-5.49451,22.8307,38.4567,-16.7801,-8.09514,17.2612,-18.5939,9.22194,-26.2114,56.0554,-3.8362,-5.38163,-26.9764
-9.17528,17.7066,-1.46911,10.5158,35.2225,3.17506,5.46885,-1.80084,1.53661,3.05662,-2.23146,5.57194,0.254462,-1.11692,5.01711,-12.2942,5.88944,-7.80597,42.5537,13.1443,-1.28198,17.4279,4.24584,3.154,2.62396e-14,-3.81667e-14,-32.1789,-4.5295,-73.8438,40.1437,15.3668,-23.2161,4.3493,7.12502,3.23437,-25.6059,2.62396e-14,-3.81667e-14,-29.61,1.77498,87.4924,36.0672,-4.23449,-9.78677,25.7401,7.12502,16.189,55.0841,-30.3688,-5.2565,22.8318,38.4067,-16.8381,-7.88428,16.6296,-19.3189,9.69603,-25.9302,57.1064,-4.25239,-5.62861,-26.9014
-9.11967,17.7124,-1.42137,10.3683,34.759,3.11339,5.55449,-1.73874,1.66283,3.12073,-2.14162,5.56425,0.261151,-1.07045,4.935,-12.2225,5.94747,-7.74434,42.6526,13.169,-1.17747,17.4548,4.2753,3.1934,4.05521e-14,2.70347e-14,-32.0155,-4.38531,-73.8687,40.3011,16.0378,-23.3422,3.78792,7.12502,3.1126,-26.1691,4.05521e-14,2.70347e-14,-29.526,1.41199,87.3559,36.7027,-3.80286,-9.88755,25.6846,7.12502,16.0919,55.0365,-29.9645,-5.03461,22.7663,38.3387,-16.8987,-7.75628,14.9804,-20.082,10.1565,-25.7274,58.0581,-4.61824,-5.9169,-26.4009
-9.06269,17.7159,-1.37963,10.3289,34.3161,3.13729,5.61844,-1.66649,1.77659,3.16572,-2.03945,5.53307,0.259171,-1.01772,4.83401,-12.255,5.95636,-7.79671,42.761,13.14,-1.00785,17.4988,4.26947,3.27847,1.74931e-14,1.90833e-14,-31.888,-4.20456,-73.875,40.4955,16.4603,-23.425,4.04892,7.12502,3.0327,-25.9093,1.74931e-14,1.90833e-14,-29.4386,1.00032,87.2422,37.4143,-3.3489,-9.98274,25.681,7.12502,16.0003,55.0402,-29.6474,-4.93493,22.6569,38.2461,-16.9011,-7.56904,14.6153,-20.9265,10.4261,-25.6304,58.9142,-4.88452,-5.96771,-25.8346
-9.00863,17.7255,-1.33435,10.2294,33.7903,3.07549,5.6623,-1.60158,1.82396,3.25309,-1.95252,5.57783,0.319134,-0.974542,4.85001,-12.2412,5.99487,-7.91568,42.7946,13.1969,-0.932378,17.4928,4.28222,3.33966,1.31993e-13,-6.36111e-14,-31.679,-3.9984,-73.8513,40.6929,16.6976,-23.4515,4.28468,7.12502,3.00707,-25.6739,1.31993e-13,-6.36111e-14,-29.2818,0.893317,87.1065,38.115,-3.16263,-9.9017,26.0095,7.12502,16.0783,55.3625,-29.317,-4.6033,22.584,38.1725,-16.8793,-7.39899,14.7825,-21.7864,10.9454,-25.4575,59.6531,-5.18968,-5.98942,-26.7341
-8.95312,17.7333,-1.28834,10.1105,33.3114,3.0812,5.77875,-1.61809,1.78,3.3201,-1.97327,5.63558,0.329109,-0.986487,4.93978,-12.2693,6.09146,-8.00676,42.9134,13.3843,-0.923433,17.5544,4.33447,3.39532,-5.88403e-14,-1.59028e-14,-31.46,-3.67416,-73.8497,40.8546,16.9678,-23.3401,4.51823,7.12502,3.11462,-25.4388,-5.88403e-14,-1.59028e-14,-29.1124,1.23978,86.9372,38.6235,-3.15781,-9.92818,26.1191,7.12502,16.0528,55.4741,-28.937,-4.25144,22.4231,38.1488,-16.7162,-7.1961,14.4165,-22.543,11.3304,-25.3092,60.2804,-5.45375,-5.84608,-27.1431
-8.8937,17.7355,-1.24425,10.1464,32.8523,3.17402,5.72039,-1.62246,1.79945,3.39947,-1.98659,5.60388,0.442791,-0.99392,4.89288,-12.3878,6.15921,-7.99806,43.0443,13.5199,-0.931459,17.6588,4.37246,3.42637,2.14687e-14,7.95139e-15,-30.9846,-3.43905,-73.9332,40.7883,17.01,-23.2154,4.41425,7.12502,3.2351,-25.541,2.14687e-14,7.95139e-15,-28.7527,1.82811,86.7205,38.9358,-3.31456,-10.282,25.7125,7.12502,15.712,55.0946,-28.6788,-4.0374,22.1831,38.1444,-16.7063,-6.89395,13.8618,-23.3799,11.5689,-25.2857,60.8309,-5.40829,-5.45184,-26.6065
-8.83349,17.7341,-1.20381,10.2351,32.3941,3.32311,5.71974,-1.57933,1.84421,3.4129,-1.92998,5.50403,0.447439,-0.964596,4.75925,-12.1641,6.24232,-7.83969,43.0159,13.5789,-0.983571,17.6002,4.42422,3.37019,3.33958e-14,9.06458e-14,-30.5396,-3.42264,-74.0223,40.6208,17.0136,-23.7993,4.3742,7.12502,2.67118,-25.5888,3.33958e-14,9.06458e-14,-28.5666,2.08528,86.5224,39.5258,-3.45295,-10.6983,25.5364,7.12502,15.3112,54.9496,-28.4944,-3.8316,21.8857,38.1905,-17.1168,-6.70529,13.0961,-24.3119,11.8876,-25.3623,61.2867,-5.04115,-4.96788,-24.9125
-8.77545,17.7333,-1.16479,10.0853,31.9732,3.18195,5.8512,-1.56837,2.05431,3.44288,-1.89876,5.53198,0.397358,-0.945631,4.67189,-11.9444,6.34127,-7.92188,42.9515,13.6554,-0.877456,17.4784,4.4715,3.42149,-3.18055e-15,2.22639e-14,-30.2955,-3.3214,-74.0635,40.6375,16.8066,-24.602,4.33734,7.12502,1.896,-25.634,-3.18055e-15,2.22639e-14,-28.5256,2.15285,86.3812,40.3643,-3.24283,-10.7274,25.9495,7.12502,15.2831,55.3649,-28.2503,-3.48676,21.8512,38.2445,-17.5323,-6.67597,11.5626,-25.1419,12.0907,-25.1227,61.6827,-5.41934,-4.76522,-23.5095
-8.71457,17.7339,-1.12565,10.0714,31.5137,3.17904,5.90439,-1.53967,2.14549,3.45903,-1.85407,5.54686,0.379172,-0.922092,4.63504,-11.7638,6.44036,-8.00578,42.9647,13.7844,-0.836419,17.4212,4.52421,3.46019,5.24792e-14,-7.95139e-15,-30.207,-3.06346,-74.0558,40.8944,16.3993,-24.0632,4.10935,7.12502,2.41635,-25.8567,5.24792e-14,-7.95139e-15,-28.4663,2.40079,86.2196,41.0051,-3.24141,-10.7013,26.2525,7.12502,15.3082,55.6659,-28.1124,-3.14921,21.6656,38.3201,-17.594,-6.52151,9.45251,-25.9916,12.2534,-25.0141,61.9469,-6.2051,-4.75709,-24.2179
-8.65457,17.7336,-1.08785,10.0088,31.0798,3.22184,6.04602,-1.57135,2.14956,3.50859,-1.89031,5.56946,0.35496,-0.94055,4.66236,-11.8124,6.55095,-8.15134,43.1071,13.9717,-0.728875,17.4813,4.57942,3.56921,6.67916e-14,-1.43125e-14,-29.9898,-2.83808,-74.0551,41.0964,16.4387,-23.5622,3.89581,7.12502,2.90013,-26.0642,6.67916e-14,-1.43125e-14,-28.3235,2.86843,86.0043,41.3993,-3.30196,-10.6274,26.1914,7.12502,15.3794,55.5994,-27.8454,-2.83253,21.429,38.3583,-18.5788,-6.21304,11.2887,-26.7788,12.4201,-24.9319,62.1084,-6.7894,-4.36337,-25.37
-8.59621,17.7316,-1.04979,9.98814,30.6602,3.21815,6.00486,-1.50722,2.2582,3.63347,-1.80959,5.5188,0.496601,-0.898859,4.54022,-11.9142,6.5027,-8.06182,43.1151,13.8831,-0.745188,17.5254,4.54613,3.54125,1.11319e-14,-2.70347e-14,-29.7185,-3.07648,-74.044,41.2729,16.9189,-23.9573,3.84669,7.12502,2.51861,-26.1182,1.11319e-14,-2.70347e-14,-27.9955,3.13124,85.7851,41.7108,-3.37765,-10.7671,25.7125,7.12502,15.2449,55.1307,-27.6487,-2.45764,21.2439,38.4375,-18.0512,-6.01399,10.7021,-27.609,12.4707,-24.8003,62.1514,-6.98097,-3.75947,-24.9938
-8.53139,17.7366,-1.01081,9.96974,30.2008,3.16199,5.97568,-1.472,2.44298,3.68657,-1.75885,5.49837,0.558331,-0.870538,4.41005,-11.8379,6.54203,-7.91914,43.1566,13.9254,-0.828169,17.5522,4.57166,3.48576,7.23576e-14,-1.59028e-15,-29.6457,-3.06003,-74.0358,41.5724,17.5903,-24.3889,3.61327,7.12502,2.10174,-26.3561,7.23576e-14,-1.59028e-15,-27.9161,3.42561,85.5808,42.1981,-3.36703,-10.8834,25.7013,7.12502,15.1328,55.1281,-27.4777,-2.03005,21.0672,38.5064,-18.0331,-5.91121,11.128,-28.4537,12.4975,-24.6635,62.0839,-7.35807,-3.40984,-25.0143
-8.4687,17.7346,-0.976259,9.95146,29.8008,3.12734,6.0665,-1.51603,2.52163,3.66984,-1.80658,5.55618,0.493154,-0.893598,4.43191,-11.6384,6.63916,-7.98886,43.1266,14.0513,-0.834326,17.4727,4.62119,3.49651,6.36111e-15,-2.06736e-14,-29.5339,-2.85338,-73.9511,41.729,18.7038,-24.8964,3.65962,7.12502,1.61166,-26.314,6.36111e-15,-2.06736e-14,-28.0774,3.78995,85.4457,42.9155,-3.30912,-11.0601,26.1739,7.12502,14.9626,55.6134,-27.333,-1.76456,20.9152,38.6073,-18.1385,-5.6855,15.7853,-29.2999,12.4779,-24.5331,61.8997,-7.7934,-3.34568,-25.0767
-8.40824,17.7278,-0.944528,9.84317,29.382,3.06844,6.28319,-1.54516,2.62869,3.72017,-1.82802,5.60145,0.4247,-0.902828,4.42635,-11.6948,6.69706,-8.11404,43.1915,14.1789,-0.820924,17.5083,4.64628,3.54843,-5.80451e-14,4.77083e-15,-29.3484,-2.64729,-73.8692,42.0095,20.0554,-25.7091,3.82844,7.12502,0.826665,-26.1497,-5.80451e-14,4.77083e-15,-28.0422,4.1065,85.3075,43.4707,-3.27447,-11.1199,26.1161,7.12502,14.905,55.5599,-27.1052,-1.53923,20.8275,38.6989,-18.5459,-5.83979,8.75454,-30.0645,12.365,-24.344,61.6275,-8.20149,-3.30542,-24.8752
-8.3458,17.7243,-0.909779,9.81779,28.9689,3.07609,6.38641,-1.52437,2.69965,3.77882,-1.79357,5.59677,0.423893,-0.884536,4.38181,-11.7146,6.71364,-8.15991,43.235,14.2339,-0.851678,17.5385,4.65112,3.5542,5.40694e-14,-4.77083e-15,-29.2032,-2.6064,-73.7857,42.3088,21.7371,-26.5456,3.63441,7.12502,0.0188232,-26.3453,5.40694e-14,-4.77083e-15,-27.8428,4.36594,85.2057,43.7599,-3.32871,-11.3795,25.7279,7.12502,14.6549,55.1901,-26.9505,-1.23508,20.6397,38.8334,-18.71,-5.80389,6.47842,-30.8252,12.261,-24.2101,61.224,-8.33684,-3.14134,-23.816
-8.28146,17.7239,-0.877385,9.90665,28.5458,3.11166,6.3709,-1.52158,2.74045,3.81222,-1.79148,5.58738,0.465466,-0.883109,4.34789,-11.651,6.77694,-8.12438,43.2686,14.3238,-0.8908,17.547,4.68584,3.54201,5.1684e-14,1.59028e-14,-29.0088,-2.41982,-73.7287,42.524,23.3674,-26.4612,3.54477,7.12502,0.100288,-26.435,5.1684e-14,1.59028e-14,-27.7545,4.65301,85.0704,44.2849,-3.68528,-11.3652,25.5482,7.12502,14.6687,55.0093,-26.9081,-0.841951,20.3515,38.9776,-18.988,-5.50861,9.08956,-31.6697,12.0657,-24.1152,60.7016,-8.48653,-2.8948,-23.3643
-8.21633,17.7164,-0.846342,10.0002,28.1316,3.22709,6.44301,-1.51893,2.67269,3.79363,-1.78708,5.57157,0.407378,-0.882328,4.37171,-11.5174,6.81207,-7.99647,43.3616,14.3621,-0.967733,17.5892,4.70682,3.48986,2.46493e-14,-1.74931e-14,-28.9696,-2.10632,-73.6788,42.7983,24.8484,-26.495,3.66897,7.12502,0.0676558,-26.3108,2.46493e-14,-1.74931e-14,-27.8189,4.82056,84.9415,44.9324,-3.88272,-11.247,25.4884,7.12502,14.7825,54.9412,-26.84,-0.521005,19.9962,39.147,-19.2271,-5.12417,12.9348,-32.4976,11.8701,-24.0984,60.066,-8.82227,-2.78147,-24.0244
-8.15149,17.7055,-0.810902,10.0363,27.5729,3.34428,6.47057,-1.39497,2.60038,3.88598,-1.63267,5.4393,0.476456,-0.805889,4.26404,-11.5773,6.7666,-7.67761,43.4145,14.2216,-1.00476,17.6726,4.68223,3.40844,2.8625e-14,-2.22639e-14,-28.9309,-2.12019,-73.739,43.1377,26.2649,-26.8348,3.67023,7.12502,-0.260509,-26.3094,2.8625e-14,-2.22639e-14,-27.6768,4.71809,84.7795,45.5343,-4.06404,-11.3808,25.7545,7.12502,14.6537,55.2167,-26.7187,-0.24603,19.6848,39.3176,-19.2259,-4.7993,12.8147,-33.1614,11.8013,-24.0697,59.334,-9.2107,-2.68218,-25.2598
-8.0841,17.6955,-0.776343,10,26.8905,3.40172,6.5776,-1.41051,2.46863,4.08004,-1.66503,5.45582,0.624584,-0.825521,4.35871,-11.8511,6.87902,-7.91323,43.3855,14.4533,-0.955862,17.6888,4.73192,3.51828,2.62396e-14,1.74931e-14,-28.581,-1.4651,-73.7755,43.5082,27.4143,-27.0297,3.47996,7.12502,-0.448805,-26.4993,2.62396e-14,1.74931e-14,-27.554,5.14541,84.7304,46.3137,-4.03207,-11.6217,26.2154,7.12502,14.4215,55.6943,-26.5685,0.0792296,19.4292,39.5008,-18.9834,-4.42348,10.4782,-33.6134,11.7563,-23.9067,58.5146,-9.60504,-2.58699,-24.9783
-8.01705,17.6939,-0.746201,9.99232,26.2818,3.42596,6.72141,-1.37375,2.46303,4.18212,-1.6144,5.41703,0.646695,-0.800469,4.32108,-11.9994,6.91841,-7.8899,43.4463,14.5253,-0.959905,17.763,4.7482,3.53704,1.11319e-14,3.97569e-14,-28.3658,-1.14398,-73.804,43.7358,28.5045,-27.3926,3.53083,7.12502,-0.799246,-26.4474,1.11319e-14,3.97569e-14,-27.5263,4.97463,84.7293,47.1988,-3.70372,-12.0749,26.3517,7.12502,13.9848,55.8613,-26.4934,0.471179,19.1775,39.6878,-18.8363,-4.14998,10.6011,-34.1695,11.5918,-23.7142,57.6023,-9.87747,-2.40765,-24.4104
-7.95286,17.688,-0.719664,9.97057,25.7721,3.43783,6.91196,-1.35399,2.40521,4.2846,-1.58579,5.41646,0.647453,-0.78773,4.35569,-12.0381,6.94406,-7.82356,43.3545,14.5632,-1.06543,17.7383,4.75973,3.48255,1.19271e-14,-6.20208e-14,-28.088,-0.772587,-73.7976,43.9857,29.1485,-27.6984,3.87144,7.12502,-1.09459,-26.1055,1.19271e-14,-6.20208e-14,-27.5347,4.90467,84.6935,48.2189,-4.05474,-11.9912,26.8798,7.12502,14.0655,56.3838,-26.4069,0.983747,18.9068,39.8496,-19.2261,-4.17604,12.5962,-34.698,11.2926,-23.46,56.607,-9.98781,-2.1803,-23.9848
-7.88537,17.671,-0.694536,9.91449,25.2015,3.40845,7.12085,-1.33039,2.47129,4.38664,-1.54414,5.38785,0.632711,-0.765634,4.29036,-12.1345,7.00823,-7.78109,43.3912,14.6728,-1.10562,17.7907,4.79373,3.48347,3.10104e-14,3.33958e-14,-27.919,-0.373157,-73.8197,44.3405,29.5337,-27.7498,4.01204,7.12502,-1.14426,-25.9646,3.10104e-14,3.33958e-14,-27.6606,5.04606,84.5558,49.4715,-5.15871,-10.9423,27.6863,7.12502,15.0761,57.1173,-26.3083,1.41935,18.6886,39.9933,-19.6716,-4.09667,8.05587,-35.0782,11.0555,-23.1098,55.5583,-10.1119,-2.11131,-23.2403
-7.81382,17.6646,-0.665751,9.91374,24.5708,3.39953,7.2033,-1.25142,2.53003,4.48085,-1.43767,5.31796,0.675247,-0.711023,4.17816,-12.1248,7.03579,-7.61139,43.3654,14.6968,-1.22208,17.8047,4.81146,3.40673,2.54444e-14,1.11319e-14,-27.8065,-0.0634175,-73.8389,44.6567,29.6485,-27.6329,3.80967,7.12502,-1.03138,-26.1676,2.54444e-14,1.11319e-14,-27.7624,4.93268,84.4868,50.6079,-5.69942,-10.7863,27.8084,7.12502,15.2264,57.2281,-26.2309,1.76021,18.4515,40.0854,-19.7805,-3.79592,6.30498,-35.5473,10.8401,-22.7991,54.4382,-10.2172,-1.93197,-23.2509
-7.74359,17.6676,-0.641825,10.0689,23.9513,3.47867,7.24288,-1.11384,2.53346,4.50914,-1.25723,5.15653,0.668146,-0.619586,3.99564,-12.0371,6.9624,-7.28269,43.27,14.5103,-1.37327,17.7825,4.77124,3.24696,-7.15625e-15,-1.43125e-14,-27.827,-0.0452787,-73.9063,45.013,29.414,-27.425,3.90222,7.12502,-0.830586,-26.0759,-7.15625e-15,-1.43125e-14,-27.9019,4.2087,84.4571,51.6586,-5.33946,-11.62,27.2355,7.12502,14.4231,56.7144,-26.2829,2.04423,18.1036,40.1151,-19.7406,-3.58334,5.76724,-36.1823,10.5924,-22.6138,53.2266,-10.1652,-1.52548,-23.4536
-7.67072,17.6706,-0.620985,10.2064,23.3073,3.51344,7.36101,-1.17817,2.46405,4.6181,-1.34562,5.21702,0.724125,-0.666569,4.10617,-12.2904,7.08987,-7.6721,43.1611,14.8207,-1.38405,17.7408,4.82813,3.36234,4.13472e-14,-4.6118e-14,-27.4226,0.750828,-73.8402,45.3771,28.9188,-27.2238,4.15093,7.12502,-0.63623,-25.8279,4.13472e-14,-4.6118e-14,-27.9375,4.19313,84.4804,52.8983,-5.66253,-11.211,28.2096,7.12502,14.8173,57.6599,-26.2986,2.43055,17.7609,40.0688,-19.7265,-3.30028,6.316,-36.7289,10.0467,-22.2509,51.9242,-10.0076,-0.878749,-21.7853
-7.59795,17.6775,-0.59804,10.1344,22.6915,3.317,7.58867,-1.0999,2.65716,4.62473,-1.21745,5.20495,0.594072,-0.598573,3.98098,-12.1495,7.09496,-7.55339,43.2246,14.7779,-1.39763,17.7558,4.82527,3.32346,1.59028e-14,-1.59028e-15,-27.5324,0.947466,-73.8296,45.8599,28.3982,-27.1283,3.92232,7.12502,-0.544052,-26.0567,1.59028e-14,-1.59028e-15,-28.2322,3.9091,84.3421,54.2625,-6.86421,-9.31291,29.5893,7.12502,16.6452,58.8955,-26.1604,2.86529,17.6801,39.9861,-19.7113,-3.17437,5.96081,-37.0632,9.43608,-21.4982,50.5565,-9.83616,-0.566316,-20.4196
-7.52238,17.6766,-0.57259,10.0954,22.1174,3.19529,7.78411,-1.1017,2.7526,4.64561,-1.20336,5.22132,0.505797,-0.590199,3.94757,-12.0224,7.15942,-7.5658,43.2819,14.8365,-1.35451,17.7465,4.85102,3.34571,6.75868e-14,-2.54444e-14,-27.5435,1.38886,-73.8179,46.3072,27.4949,-26.8797,4.03488,7.12502,-0.303879,-25.9446,6.75868e-14,-2.54444e-14,-28.5018,3.94121,84.2451,55.4331,-7.5549,-8.96876,29.3673,7.12502,16.9765,58.6454,-26.0109,3.18458,17.5423,39.8852,-19.6705,-2.97609,5.66717,-37.3715,8.79343,-20.8371,49.1703,-10.0447,-0.305866,-23.1472
-7.44351,17.677,-0.5477,10.1505,21.4399,3.1303,7.84695,-1.03023,2.82201,4.72484,-1.106,5.20427,0.54709,-0.540462,3.8843,-11.9965,7.161,-7.55401,43.2717,14.8505,-1.43458,17.7475,4.84522,3.3077,-3.33958e-14,7.95139e-15,-27.4254,1.71313,-73.7522,46.7079,26.3293,-26.4817,4.40271,7.12502,0.0804663,-25.577,-3.33958e-14,7.95139e-15,-28.4698,3.80369,84.242,56.23,-7.7942,-10.0031,27.8596,7.12502,15.9806,57.2205,-25.9822,3.41483,17.3173,39.7752,-19.544,-2.66937,5.3358,-37.6907,8.08188,-20.2008,47.7567,-8.80282,0.945323,-22.7492
-7.36686,17.6797,-0.524555,10.2141,20.741,3.13445,7.97821,-0.927449,2.76787,4.79112,-0.97039,5.18197,0.537498,-0.474195,3.88374,-11.9508,7.17446,-7.51671,43.2621,14.8697,-1.50542,17.7442,4.84835,3.2693,4.6118e-14,-4.77083e-15,-27.3181,1.91678,-73.6615,47.016,25.0738,-26.5015,4.33156,7.12502,0.0613984,-25.6482,4.6118e-14,-4.77083e-15,-28.4535,3.56317,84.3024,57.0921,-7.9292,-10.733,27.2441,7.12502,15.2777,56.6599,-25.9245,3.6794,17.0308,39.6725,-19.4238,-2.46135,4.7843,-37.9208,7.29184,-19.5159,46.3066,-7.93524,1.88278,-22.7936
-7.28951,17.6818,-0.501118,10.2705,20.0518,3.17494,8.1616,-0.858083,2.68582,4.83308,-0.876975,5.12596,0.475529,-0.429284,3.86742,-11.744,7.21677,-7.36284,43.1391,14.8761,-1.63281,17.6498,4.87154,3.16784,-5.56597e-15,0,-27.1751,2.1653,-73.6489,47.222,23.5782,-26.8117,4.15629,7.12502,-0.238193,-25.8233,-5.56597e-15,0,-28.5759,3.36598,84.2938,58.0229,-8.0683,-10.9993,26.86,7.12502,15.0211,56.2951,-25.8596,4.05413,16.6735,39.5775,-19.3554,-2.25656,4.77019,-38.058,6.36868,-18.746,44.7844,-7.09086,2.42189,-22.5427
-7.20793,17.6851,-0.4804,10.2923,19.3261,3.18626,8.38175,-0.803798,2.68095,4.89573,-0.797587,5.04941,0.414208,-0.389517,3.78723,-11.747,7.27005,-7.39688,43.1816,14.9232,-1.55483,17.6578,4.8886,3.21491,-1.19271e-14,1.01778e-13,-26.9593,2.23882,-73.6728,47.5455,22.4224,-26.5851,4.12927,7.12502,-0.0193466,-25.8505,-1.19271e-14,1.01778e-13,-28.686,3.12626,84.2775,59.0517,-8.0385,-11.3137,27.1914,7.12502,14.7182,56.6489,-25.7973,4.47836,16.3048,39.4672,-19.4267,-1.99644,5.78047,-38.0722,5.3242,-17.8479,43.2287,-6.21065,2.80967,-22.2422
-7.12589,17.6908,-0.461776,10.3762,18.6352,3.16839,8.50312,-0.745114,2.7216,4.94555,-0.714624,4.98169,0.393715,-0.347124,3.68843,-11.7463,7.28961,-7.49337,43.2036,14.9333,-1.47503,17.6484,4.88335,3.2654,-2.54444e-14,2.38542e-14,-26.9607,2.27569,-73.6466,48.153,21.4955,-25.8649,4.02391,7.12502,0.676261,-25.9548,-2.54444e-14,2.38542e-14,-28.6778,2.92256,84.2197,59.8926,-8.13303,-11.2747,26.9855,7.12502,14.7559,56.4402,-25.7921,4.81378,15.9489,39.3263,-19.5118,-1.68946,9.16708,-38.1508,4.22994,-16.8532,41.6417,-5.17447,3.10521,-22.5182
-7.04399,17.6982,-0.441956,10.5046,17.9656,3.11975,8.5953,-0.694857,2.69309,4.94642,-0.646262,4.98542,0.341204,-0.314402,3.70427,-11.7938,7.29246,-7.77153,43.2894,14.8814,-1.15983,17.6367,4.85168,3.44292,9.54166e-15,4.77083e-15,-26.9083,2.51144,-73.5354,48.541,20.6329,-25.1355,3.84165,7.12502,1.38068,-26.1336,9.54166e-15,4.77083e-15,-28.7946,2.9188,84.2713,60.6988,-8.37009,-10.8409,26.3174,7.12502,15.1738,55.741,-25.8122,5.16183,15.6389,39.164,-19.5145,-1.54414,7.60317,-38.3413,3.04365,-15.7549,40.0727,-3.9462,3.34593,-23.8245
-6.95831,17.7074,-0.419011,10.5482,17.1223,3.11918,8.7454,-0.610082,2.59876,5.06345,-0.540549,4.93358,0.375739,-0.263766,3.69627,-12.0922,7.26945,-8.03052,43.3963,14.8354,-0.872821,17.7089,4.80609,3.62614,3.89618e-14,-2.06736e-14,-26.5682,2.62941,-73.4539,48.6826,20.1754,-24.7356,4.05628,7.12502,1.76696,-25.9161,3.89618e-14,-2.06736e-14,-28.7607,2.89572,84.2926,61.4377,-8.41552,-10.8947,25.8121,7.12502,15.1219,55.2396,-25.7604,5.58564,15.2728,38.9981,-19.3707,-1.28805,7.28974,-38.3973,1.91767,-14.6304,38.5178,-2.84468,3.33411,-24.6193
-6.86755,17.7116,-0.394544,10.6321,16.072,3.21876,8.82266,-0.462085,2.4193,5.22385,-0.365227,4.83446,0.492032,-0.179958,3.67985,-12.3064,7.29342,-8.22692,43.4766,14.8812,-0.703113,17.7648,4.79742,3.756,-3.02153e-14,6.52014e-14,-26.2564,2.75215,-73.3469,48.8596,19.8006,-24.692,4.02906,7.12502,1.80901,-25.943,-3.02153e-14,6.52014e-14,-28.673,2.93593,84.3256,62.2356,-8.37036,-10.9343,25.4082,7.12502,15.0838,54.8386,-25.7607,6.02654,14.7452,38.8147,-19.1826,-0.841487,6.94231,-38.3263,0.839234,-13.5619,36.9995,-1.71107,3.06058,-25.8764
-6.77363,17.7106,-0.368395,10.7479,15.0514,3.27377,8.84969,-0.33663,2.26263,5.2379,-0.213831,4.74046,0.484235,-0.1078,3.6574,-12.0305,7.35504,-8.0614,43.4622,14.9266,-0.846696,17.7204,4.82949,3.65178,8.74653e-15,1.90833e-14,-26.2255,2.82474,-73.2535,48.9987,19.6623,-24.7596,4.30098,7.12502,1.74377,-25.6716,8.74653e-15,1.90833e-14,-28.9265,2.81921,84.2939,63.1617,-8.13592,-10.7765,25.2605,7.12502,15.2358,54.6795,-25.7916,6.38434,14.2637,38.5612,-18.9329,-0.352912,7.13462,-38.2273,-0.344107,-12.3764,35.509,-0.46248,2.49815,-26.7418
-6.68097,17.7181,-0.345192,10.785,13.9765,3.29059,8.80634,-0.182462,2.19929,5.43765,-0.0302946,4.61258,0.706601,-0.0173052,3.54431,-11.9755,7.40269,-7.95768,43.3759,14.9859,-0.984132,17.683,4.85384,3.57415,-2.3059e-14,9.54166e-15,-25.9126,2.67335,-73.1625,49.1479,19.5867,-24.5316,4.59471,7.12502,1.96394,-25.376,-2.3059e-14,9.54166e-15,-28.7776,2.59407,84.2697,63.9384,-7.72694,-10.6802,25.2551,7.12502,15.3286,54.667,-25.7949,6.88295,13.799,38.3796,-18.7182,0.0762017,6.92547,-38.1093,-1.62919,-11.0848,34.0659,0.742487,2.0737,-26.2508
-6.58703,17.74,-0.322219,10.8257,12.7149,3.26073,8.70451,0.0507262,2.17259,5.72884,0.253084,4.44145,1.05274,0.124443,3.35927,-12.1067,7.41127,-8.03628,43.248,14.9588,-0.899917,17.6188,4.84135,3.61796,-2.06736e-14,-2.06736e-14,-25.3813,2.45168,-73.1542,49.1852,19.6261,-24.4885,4.56513,7.12502,2.00559,-25.4052,-2.06736e-14,-2.06736e-14,-28.3581,2.37647,84.2001,64.4663,-7.32517,-10.7596,24.93,7.12502,15.2521,54.3477,-25.8817,7.51447,13.3487,38.2171,-18.5236,0.580416,7.07016,-38.1443,-3.10539,-9.53717,32.6773,1.98332,2.12766,-22.8255
-6.48678,17.7216,-0.294346,10.8115,11.4619,3.33099,8.80506,0.237625,1.96607,5.90489,0.479353,4.3082,1.16998,0.232436,3.3203,-12.2624,7.4442,-8.19708,43.3549,14.9917,-0.708332,17.6745,4.83593,3.7463,7.95139e-16,-4.45278e-14,-25.0449,2.3351,-73.0663,49.2089,19.9905,-24.6097,4.56491,7.12502,1.88852,-25.4065,7.95139e-16,-4.45278e-14,-28.1476,2.3543,84.1596,64.9212,-7.04647,-10.8262,24.8739,7.12502,15.1879,54.2965,-25.9797,8.01439,12.7799,38.2287,-18.3386,1.24064,8.40714,-37.7545,-4.23915,-8.36365,31.4369,2.82493,1.63211,-20.4803
-6.38751,17.705,-0.268264,10.9018,10.2981,3.41149,8.92931,0.385779,1.72364,5.93321,0.659353,4.19933,1.12119,0.31614,3.32884,-12.0094,7.57371,-8.12036,43.2631,15.1639,-0.869799,17.5798,4.90922,3.6643,-7.15625e-15,-3.33958e-14,-24.9546,2.3315,-72.9517,49.3183,20.4664,-24.8633,4.67618,7.12502,1.64355,-25.2972,-7.15625e-15,-3.33958e-14,-28.3972,2.19596,84.1311,65.7791,-6.68703,-10.8264,25.252,7.12502,15.1878,54.6746,-26.2198,8.44108,12.206,38.3143,-18.1732,1.85467,9.37445,-37.5482,-5.42975,-7.12613,30.3395,3.44068,0.922999,-18.4998
-6.2912,17.6838,-0.250643,11.0691,9.10413,3.54674,9.13288,0.54727,1.3116,5.64599,0.859158,4.06397,0.696018,0.40779,3.39885,-10.9781,7.7263,-7.66258,43.1354,15.2349,-1.24297,17.3398,5.00782,3.35733,-9.54166e-15,-1.90833e-14,-25.4752,2.46501,-72.9207,49.5028,20.7511,-24.839,4.6312,7.12502,1.6671,-25.342,-9.54166e-15,-1.90833e-14,-29.4871,1.84541,83.9749,66.9942,-6.241,-10.7845,25.52,7.12502,15.228,54.9395,-26.6765,8.79286,11.5612,38.5603,-18.0317,2.5061,9.23458,-37.2273,-6.10772,-6.26262,29.3901,3.89639,-0.62802,-20.8133
-6.18937,17.6657,-0.233274,11.0923,7.86942,3.48888,9.47994,0.663784,1.0724,5.41881,1.01289,4.04235,0.257868,0.480481,3.49225,-10.1599,7.90934,-7.68006,43.0041,15.3948,-1.34088,17.0657,5.10105,3.2703,2.8625e-14,-2.8625e-14,-25.8002,2.78493,-72.7961,49.6134,20.8005,-24.715,4.42278,7.12502,1.78681,-25.5495,2.8625e-14,-2.8625e-14,-30.2218,1.92416,83.9327,67.6696,-6.05641,-10.6169,25.3647,7.12502,15.3895,54.7719,-27.0154,9.25229,11.1008,38.7801,-17.8791,3.17141,9.39696,-36.8928,-6.92964,-5.11125,28.6229,4.52584,-1.80936,-21.4233
-6.08886,17.655,-0.210658,11.0545,6.55251,3.49727,9.66902,0.886449,1.06459,6.00089,1.2861,3.8085,0.750835,0.614474,3.23286,-11.5689,7.89659,-8.23596,43.016,15.537,-0.927086,17.301,5.06071,3.65671,1.98785e-14,-4.77083e-15,-24.5003,2.10339,-72.7632,49.4255,21.1023,-24.6231,4.32403,7.12502,1.87561,-25.6475,1.98785e-14,-4.77083e-15,-28.7127,1.75935,83.8251,67.4303,-5.96571,-10.6763,24.8591,7.12502,15.3323,54.2707,-27.283,9.85169,10.573,39.0024,-17.8113,3.70141,8.35845,-36.4418,-7.71487,-4.10684,27.9653,5.08612,-2.94106,-21.6017
-5.98852,17.6306,-0.195573,11.4573,4.34078,3.32568,9.35951,1.4238,0.808522,6.03914,1.95853,3.54872,0.92654,0.944624,3.05355,-11.3923,7.97085,-8.04139,43.011,15.5191,-0.874199,17.2601,5.09157,3.6298,2.70347e-14,2.54444e-14,-24.3469,1.87939,-72.8487,49.4842,21.0419,-24.9227,4.14861,7.12502,1.58627,-25.8252,2.70347e-14,2.54444e-14,-28.3932,1.3186,83.5982,67.4286,-5.85416,-11.0777,24.6458,7.12502,14.9456,54.0866,-28.3641,10.8161,9.94551,39.1568,-17.3788,4.5513,7.43204,-36.2304,-7.88238,-2.93774,27.3571,5.50619,-3.50798,-20.419
-5.87814,17.611,-0.174353,11.5144,2.92067,3.50667,9.41484,1.66071,0.550234,6.10961,2.24699,3.25748,0.95687,1.08465,2.87102,-11.1582,8.01145,-7.80304,42.996,15.5116,-1.00589,17.2352,5.11012,3.51521,-4.77083e-15,2.8625e-14,-24.1685,1.7094,-72.8931,49.4569,20.9496,-25.0793,3.72827,7.12502,1.43494,-26.2467,-4.77083e-15,2.8625e-14,-28.6429,0.929038,83.4902,68.0254,-5.854,-11.3265,24.4347,7.12502,14.7059,53.8931,-28.7073,11.1957,9.1877,39.2607,-17.2299,5.14073,5.97665,-35.9045,-8.59406,-2.23124,26.7742,6.01352,-4.39929,-19.0046
-5.76079,17.5931,-0.148628,11.4058,2.00651,3.63303,9.63573,1.55908,0.468631,6.33471,2.10196,3.13038,1.07946,1.00928,2.79654,-11.2089,8.24837,-7.91314,42.8518,15.9973,-1.32721,17.1905,5.2497,3.46089,-1.74931e-14,1.74931e-14,-23.5826,1.89564,-72.865,49.5297,20.498,-24.2971,2.85279,7.12502,2.19044,-27.1157,-1.74931e-14,1.74931e-14,-28.9661,1.20815,83.504,68.8336,-5.91147,-11.5257,24.5244,7.12502,14.514,53.9968,-28.6703,11.1639,8.68972,39.3346,-17.3291,5.42298,1.45438,-35.5278,-9.53859,-1.58648,26.2556,6.65398,-5.47837,-18.4057
-5.64139,17.5796,-0.117586,11.3769,0.897994,3.70993,9.67913,1.62945,0.429786,6.39445,2.18761,2.91854,1.12033,1.05296,2.59093,-10.7467,8.35665,-7.62476,42.6196,16.1166,-1.71601,17.0293,5.3205,3.22018,1.27222e-14,4.77083e-15,-23.6339,1.74042,-72.8656,49.9096,19.8009,-22.8383,1.69853,7.12502,3.59926,-28.2508,1.27222e-14,4.77083e-15,-29.3674,0.813882,83.4405,69.3928,-5.69747,-11.8881,24.705,7.12502,14.1648,54.2021,-28.8101,11.3479,8.11132,39.3892,-17.2807,5.90796,-2.03576,-34.9717,-10.3822,-1.01272,25.7362,7.11807,-6.38328,-18.2704
-5.51521,17.5655,-0.0904004,11.4602,-0.273052,3.97153,9.73402,1.6605,0.250432,6.43376,2.21146,2.65005,1.13351,1.06296,2.41029,-10.7048,8.46434,-7.61822,42.5865,16.266,-1.78193,17.0063,5.3701,3.20547,-2.8625e-14,-2.70347e-14,-23.4891,1.64468,-72.8971,50.1495,19.2554,-22.1881,1.10332,7.12502,4.2271,-28.8345,-2.8625e-14,-2.70347e-14,-29.5831,0.624537,83.3507,69.7903,-5.76815,-11.7409,25.2921,7.12502,14.3067,54.7792,-29.1508,11.482,7.20677,39.4345,-17.0764,6.78836,-3.15338,-34.4875,-11.0236,-0.846585,25.3221,7.5075,-7.15263,-18.3968
-5.38605,17.5483,-0.0675747,11.6801,-1.39929,4.22935,9.65357,1.64604,0.0543129,6.48304,2.17233,2.401,1.23225,1.04027,2.26904,-10.7058,8.61291,-7.58023,42.487,16.5071,-1.95502,16.9752,5.45011,3.1546,3.33958e-14,3.81667e-14,-23.0365,1.53939,-72.9058,50.1455,18.827,-21.9443,1.20291,7.12502,4.46257,-28.7301,3.33958e-14,3.81667e-14,-29.7042,0.50457,83.2604,70.1519,-5.82817,-11.4825,25.9391,7.12502,14.5557,55.4084,-29.6672,11.5281,6.24995,39.4933,-16.9234,7.68625,-3.12509,-34.2453,-11.5832,-0.711471,25.0622,7.93623,-8.11121,-20.8211
-5.25993,17.5266,-0.0469627,11.8455,-2.74049,4.12301,9.66002,1.75492,0.0632474,6.52189,2.31204,2.26118,1.26955,1.11093,2.10784,-10.6446,8.74084,-7.61719,42.4428,16.6899,-2.01437,16.9358,5.51078,3.15211,-2.38542e-14,1.59028e-15,-22.6998,1.46235,-72.8415,50.1372,18.2146,-21.726,1.43853,7.12502,4.67332,-28.4899,-2.38542e-14,1.59028e-15,-29.7543,0.400495,83.2563,70.3973,-6.18076,-11.1604,26.5247,7.12502,14.866,55.9714,-30.2577,11.9132,5.64589,39.5656,-16.6069,8.46449,-2.2105,-33.8433,-11.8343,-0.272199,24.8692,7.71025,-9.48775,-28.4025
-5.14141,17.4971,-0.0224051,12.0049,-4.53595,3.64674,9.63674,2.06884,0.0881464,6.60464,2.7209,2.21103,1.35746,1.31379,2.00987,-10.8536,8.77747,-7.72331,42.5299,16.7109,-1.83066,16.9928,5.50363,3.2654,2.78299e-14,2.70347e-14,-22.4176,1.43104,-72.7857,50.1652,17.7725,-21.7334,1.54799,7.12502,4.66616,-28.3806,2.78299e-14,2.70347e-14,-29.7891,0.187715,83.2328,70.7314,-6.5527,-11.0101,26.9203,7.12502,15.0108,56.3562,-31.0241,12.7057,5.37226,39.6369,-16.3092,9.22385,-2.36002,-33.1081,-11.58,0.355085,24.8057,6.32677,-8.76934,-31.2452
-5.01016,17.4699,0.00700885,11.9252,-5.57852,3.53794,9.87427,2.06317,0.116172,6.71457,2.71212,2.12391,1.34862,1.30993,1.89905,-11.1811,8.79814,-7.9373,42.7401,16.7284,-1.53835,17.1213,5.47738,3.45622,-9.54166e-15,1.59028e-15,-22.2033,1.59853,-72.6901,50.352,17.3899,-21.5716,1.34143,7.12502,4.82242,-28.5837,-9.54166e-15,1.59028e-15,-29.8298,0.03993,83.2414,70.9957,-6.75446,-10.9408,26.9669,7.12502,15.0775,56.3978,-31.2515,13.0268,4.86558,39.6756,-16.11,9.95429,-1.80365,-32.5142,-12.0082,0.585391,24.8328,5.28165,-7.393,-28.7071
-4.87885,17.4403,0.0346365,12.0412,-6.91261,3.3931,9.89267,2.09925,0.124388,6.82304,2.75412,2.00861,1.45658,1.33072,1.77382,-11.4165,8.93161,-8.14785,42.8635,16.9656,-1.42913,17.2024,5.52764,3.59057,2.78299e-14,-6.36111e-15,-21.8346,1.99399,-72.6404,50.5137,17.0178,-21.522,0.87333,7.12502,4.87031,-29.0507,2.78299e-14,-6.36111e-15,-29.808,0.00880275,83.2417,71.279,-6.96854,-11.7481,26.1498,7.12502,14.2997,55.6374,-31.8313,13.3483,4.29947,39.7134,-15.8466,10.6947,-2.42996,-31.9993,-11.8936,0.624151,24.9087,4.08173,-6.41535,-23.8479
-4.7447,17.4126,0.0615449,12.3062,-8.39393,3.21037,9.80295,2.25905,0.212352,6.79212,2.96729,1.80181,1.48168,1.44242,1.49532,-11.2158,9.04036,-7.83656,42.8353,17.0888,-1.68449,17.208,5.5902,3.43514,2.54444e-14,-2.54444e-14,-21.7631,2.14133,-72.6371,50.7318,16.6517,-21.2952,0.395486,7.12502,5.08933,-29.5234,2.54444e-14,-2.54444e-14,-29.9576,-0.283644,83.1974,71.532,-7.70909,-14.0426,23.9928,7.12502,12.088,53.6237,-32.6006,13.7081,3.6898,39.7009,-15.4486,11.6015,-2.38051,-31.5028,-11.2964,0.427261,24.9833,2.45825,-6.59554,-24.6152
-4.60832,17.3823,0.087609,12.527,-9.76131,3.01556,9.74751,2.39519,0.34285,6.82048,3.15163,1.62607,1.55379,1.54025,1.2288,-11.0028,9.11024,-7.46536,42.7659,17.2137,-2.13133,17.2299,5.63926,3.18885,2.94201e-14,8.74653e-15,-21.6227,2.30599,-72.5643,51.0343,15.9875,-20.8283,0.193675,7.12502,5.54013,-29.7139,2.94201e-14,8.74653e-15,-29.921,-0.737545,83.3192,71.5954,-8.10938,-15.8599,22.916,7.12502,10.3354,52.642,-33.2678,14.0754,3.08035,39.6094,-15.0276,12.4443,-1.84405,-31.0261,-10.4988,0.0454212,25.1828,0.566502,-7.40628,-28.4321
-4.47024,17.3582,0.109266,12.6484,-11.0973,2.72679,10.0214,2.52952,0.621949,6.77246,3.34898,1.43341,1.3784,1.64987,0.843926,-10.691,9.14206,-7.08223,42.7472,17.2341,-2.48863,17.2449,5.66022,2.95693,3.18055e-15,-2.78299e-14,-21.5743,2.47379,-72.5555,51.224,15.0459,-20.3628,0.116852,7.12502,5.98951,-29.7785,3.18055e-15,-2.78299e-14,-30.0194,-1.42085,83.4345,71.6334,-8.16211,-15.2022,23.5091,7.12502,10.9697,53.2025,-33.7615,14.4977,2.61531,39.4089,-14.5279,13.1383,-1.42337,-30.5659,-9.59687,-0.327311,25.4854,-1.11464,-7.82718,-29.9554
-4.33245,17.3441,0.130122,12.8166,-12.3559,2.46766,10.2383,2.566,0.691505,6.73981,3.40116,1.32985,1.23626,1.6782,0.682566,-10.8251,9.16111,-7.16363,42.9106,17.223,-2.32031,17.3343,5.63487,3.05296,3.02153e-14,1.82882e-14,-21.3966,3.00601,-72.5394,51.4304,14.6171,-20.3598,-0.117651,7.12502,5.99248,-30.0129,3.02153e-14,1.82882e-14,-30.063,-1.91149,83.4308,71.5653,-8.16462,-13.3524,24.0509,7.12502,12.7535,53.6414,-34.2622,14.8583,2.12611,39.1776,-14.1388,13.7289,-1.67614,-30.3437,-8.84945,-0.695492,25.9095,-2.39534,-7.35947,-29.0754
-4.19895,17.3305,0.150079,13.0916,-13.4479,2.42238,10.037,2.46049,0.286947,6.9144,3.22231,1.32069,1.5076,1.57443,0.928968,-11.1083,9.28018,-7.23359,42.8224,17.432,-2.39151,17.3537,5.68098,3.07923,-1.35174e-14,-1.03368e-14,-20.5825,3.78507,-72.4553,51.5105,14.5894,-20.4585,-0.138063,7.12502,5.89713,-30.036,-1.35174e-14,-1.03368e-14,-29.7691,-2.02985,83.4893,71.4094,-7.91479,-15.4433,23.1039,7.12502,10.7372,52.8095,-34.8845,15.0845,1.39209,38.9394,-13.6648,14.2473,-1.25013,-30.4505,-7.99853,-1.37353,26.4481,-3.6534,-6.88764,-28.2877
-4.0686,17.3012,0.165063,13.4101,-14.475,2.43806,9.91132,2.36078,-0.149959,7.02575,3.0527,1.29397,1.67373,1.47353,1.16828,-11.0958,9.44985,-7.14626,42.6014,17.7916,-2.87526,17.3146,5.78128,2.90348,1.19271e-14,-1.59028e-15,-19.9248,4.4262,-72.2774,51.559,15.0278,-20.6174,0.524182,7.12502,5.74373,-29.378,1.19271e-14,-1.59028e-15,-29.373,-2.29908,83.641,71.0421,-7.60843,-15.4837,23.2807,7.12502,10.6982,52.9884,-35.6132,15.2177,0.596586,38.7068,-13.066,14.7323,-0.461957,-30.59,-6.655,-2.39917,27.0504,-5.058,-6.77249,-29.7633
-3.94121,17.2804,0.177537,13.729,-15.4535,2.554,9.95775,2.3055,-0.6201,7.02407,2.94221,1.22453,1.6296,1.40284,1.36643,-11.0792,9.55874,-7.18286,42.5024,18.0395,-3.17612,17.3032,5.83455,2.81219,-7.15625e-15,-7.95139e-16,-19.5842,4.93534,-72.0312,51.6359,15.6585,-21.0499,1.25876,7.12502,5.3262,-28.6543,-7.15625e-15,-7.95139e-16,-29.1824,-2.91852,83.8648,70.7657,-7.30242,-15.5068,23.6357,7.12502,10.676,53.3444,-36.3346,15.3918,-0.326772,38.4585,-12.6101,15.0165,0.550551,-30.8475,-5.10645,-3.62485,27.6393,-6.00048,-6.68729,-29.1138
-3.8167,17.2722,0.189239,14.0098,-16.3329,2.59341,10.0216,2.26496,-1.03981,7.04877,2.85387,1.20127,1.60496,1.34374,1.58266,-11.0753,9.60149,-7.27089,42.4066,18.1557,-3.36526,17.2722,5.8423,2.75637,-2.90226e-14,-1.03368e-14,-19.4006,5.45302,-71.7475,52.0301,16.0253,-21.2947,1.31094,7.12502,5.08978,-28.6079,-2.90226e-14,-1.03368e-14,-28.9702,-3.67169,84.0824,70.5319,-7.01043,-15.8179,23.2653,7.12502,10.3759,52.9893,-36.8946,15.5716,-1.09215,38.1695,-12.4519,15.0993,-0.180186,-31.163,-3.89168,-4.65943,28.1827,-6.66151,-6.11518,-26.5002
-3.69423,17.2656,0.199171,14.3751,-17.1054,2.51482,10.0431,2.15442,-1.35741,6.93789,2.68308,1.20511,1.46928,1.24904,1.77566,-10.6504,9.70848,-7.13789,42.2315,18.2951,-3.72281,17.146,5.89614,2.5637,-1.59028e-15,2.22639e-14,-19.4643,6.09498,-71.6047,52.5931,16.3707,-21.4824,1.07164,7.12502,4.90858,-28.8515,-1.59028e-15,2.22639e-14,-29.0049,-4.39965,84.284,70.3345,-6.43857,-16.1239,23.426,7.12502,10.0806,53.1645,-37.4637,15.7586,-1.73808,37.8298,-12.2476,15.0169,-0.69956,-31.5676,-2.85197,-5.51702,28.63,-7.33128,-5.39901,-24.8916
-3.57285,17.2631,0.207268,14.7521,-17.6521,2.49241,10.0818,2.04593,-1.51894,6.91712,2.52584,1.09971,1.4311,1.16722,1.7693,-10.7841,9.71288,-7.00222,42.3221,18.2654,-3.71335,17.2436,5.8789,2.55473,-4.25399e-14,7.95139e-16,-19.3315,6.3727,-71.5363,53.0479,16.7592,-22.4534,1.75584,7.12502,3.97091,-28.1869,-4.25399e-14,7.95139e-16,-28.7696,-5.69114,84.3477,70.0351,-5.94911,-16.5765,23.7573,7.12502,9.64398,53.5165,-37.9349,15.7257,-2.34488,37.4179,-12.1413,14.6811,-2.27038,-32.0692,-2.02758,-6.36257,29.003,-8.03989,-4.74789,-24.1568
-3.45367,17.2578,0.209146,15.0737,-17.9878,2.58972,10.2559,1.8845,-1.77683,6.97511,2.28826,1.04259,1.40044,1.04027,1.87191,-11.33,9.66143,-7.26036,42.4231,18.2061,-3.42253,17.3547,5.81167,2.75044,-1.39149e-14,-2.54444e-14,-19.0585,6.54991,-71.3672,53.6384,17.6198,-23.9175,3.14637,7.12502,2.55705,-26.8181,-1.39149e-14,-2.54444e-14,-28.3184,-6.86712,84.5284,69.5293,-5.99658,-17.1189,23.5393,7.12502,9.12059,53.3221,-38.3309,15.5482,-2.98967,36.9846,-12.1509,14.1762,-3.88375,-32.6068,-1.58511,-7.14199,29.284,-8.61329,-4.24468,-23.0254
-3.33563,17.2593,0.209574,15.4099,-18.3258,2.52368,10.4171,1.66003,-1.99826,7.07062,1.96945,1.11261,1.41907,0.870074,2.09545,-11.6346,9.68378,-7.62767,42.2766,18.2793,-3.31328,17.2828,5.79388,2.87567,-1.39149e-14,-3.18055e-15,-18.7608,7.17166,-71.1034,54.357,18.271,-22.0689,0.771342,7.12502,4.3422,-29.1641,-1.39149e-14,-3.18055e-15,-27.7732,-7.72388,84.8032,68.9899,-5.91354,-17.4957,23.3507,7.12502,8.75697,53.149,-38.711,15.4992,-3.4357,36.5681,-12.5346,13.3508,-5.88782,-33.0981,-1.53753,-7.49957,29.4807,-8.9076,-3.83905,-22.6471
-3.21756,17.2639,0.209738,15.8224,-18.6619,2.40231,10.5642,1.46161,-2.02654,7.12187,1.70084,1.10374,1.40642,0.733849,2.12463,-11.6582,9.74456,-7.75028,42.1024,18.3895,-3.42196,17.1932,5.81341,2.85627,4.6118e-14,1.90833e-14,-18.4754,7.61558,-71.0364,54.9122,18.6255,-21.6998,0.15038,7.12502,4.69864,-29.7775,4.6118e-14,1.90833e-14,-27.2125,-8.855,84.9329,68.4887,-5.7325,-17.7694,23.0776,7.12502,8.49284,52.8868,-39.1379,15.4082,-3.82854,36.1923,-12.8557,12.5139,-6.7032,-33.6624,-1.76098,-7.61704,29.6752,-9.04099,-3.52103,-24.7973
-3.09912,17.2699,0.208663,16.2768,-18.904,2.38096,10.7143,1.27415,-2.06574,7.08355,1.44706,1.04518,1.29861,0.608437,2.10651,-11.6653,9.77787,-7.66985,42.0651,18.4332,-3.54281,17.2042,5.82055,2.79762,-5.68524e-14,3.1408e-14,-18.18,7.8323,-71.1038,55.3627,19.2218,-21.6825,-0.455177,7.12502,4.71539,-30.3827,-5.68524e-14,3.1408e-14,-26.6791,-10.4354,84.9514,67.8713,-5.49512,-18.2049,22.8433,7.12502,8.07262,52.6692,-39.534,15.2179,-4.31246,35.8236,-13.1282,11.4553,-7.18278,-34.3936,-1.92295,-7.82672,29.9497,-9.30584,-3.4801,-27.7594
-2.98804,17.2721,0.200449,16.7211,-19.013,2.25997,11.0032,1.14865,-2.02874,6.94049,1.27944,1.02089,1.0019,0.531541,2.07042,-11.3854,9.707,-7.64051,41.9766,18.185,-3.44068,17.0684,5.75436,2.76797,-2.78299e-15,-2.14687e-14,-18.3707,7.84328,-71.2646,55.7881,19.1582,-22.6572,0.0419289,7.12502,3.77417,-29.9044,-2.78299e-15,-2.14687e-14,-26.2013,-12.5472,84.982,67.1013,-5.2486,-18.5826,22.5391,7.12502,7.70805,52.3786,-39.8741,15.0688,-4.5929,35.5113,-13.315,9.85845,-7.12517,-35.2196,-1.77751,-7.99591,30.2993,-9.55029,-3.85453,-28.6139
-2.88221,17.2772,0.189375,17.2004,-19.1047,2.01196,11.2063,0.976912,-1.99595,7.00748,1.05123,1.14721,0.972497,0.414933,2.2043,-11.4886,9.67688,-7.89022,41.7575,18.2115,-3.56157,16.9655,5.72287,2.75547,-5.04913e-14,1.59028e-14,-18.273,8.17367,-71.1458,56.4364,19.2257,-23.9138,1.10133,7.12502,2.56057,-28.863,-5.04913e-14,1.59028e-14,-25.3183,-14.2375,85.0099,66.3459,-5.33564,-18.8818,21.9754,7.12502,7.41925,51.8253,-40.2494,14.9582,-4.67762,35.2731,-13.4618,7.5907,-6.48421,-36.0845,-1.52334,-8.06431,30.7275,-9.57602,-4.21876,-27.5083
-2.77701,17.2854,0.182757,17.6419,-19.2486,1.80108,11.3127,0.86184,-1.90348,7.04464,0.905103,1.20006,0.962058,0.342888,2.22139,-11.2688,9.6312,-7.79036,41.5079,18.1559,-3.90391,16.8458,5.69541,2.56231,-1.94809e-14,1.47101e-14,-18.4778,8.3581,-71.1474,57.2776,19.4478,-24.9266,1.09779,7.12502,1.58248,-28.8761,-1.94809e-14,1.47101e-14,-24.5438,-16.1373,84.9828,65.6301,-5.44406,-19.1349,21.1262,7.12502,7.17498,50.9845,-40.5679,14.6158,-4.61923,35.0881,-13.5992,4.80602,-5.4493,-36.9095,-1.16359,-8.27784,31.243,-9.55486,-4.46271,-26.0643
-2.67714,17.2927,0.175903,18.114,-19.5454,1.65062,11.336,0.797479,-1.91675,7.14219,0.816515,1.18649,1.05666,0.295446,2.22444,-11.4655,9.5756,-7.93248,41.4658,18.0956,-3.85948,16.8479,5.64543,2.60447,-5.1684e-15,2.18663e-14,-18.5811,8.60249,-71.2339,58.1268,19.3729,-25.4311,0.936306,7.12502,1.09521,-29.0406,-5.1684e-15,2.18663e-14,-23.6388,-18.0607,84.8354,64.9444,-5.52253,-19.525,20.3834,7.12502,6.79841,50.2543,-40.9467,14.0109,-4.47378,34.9552,-13.8502,1.79114,-4.95208,-37.717,-0.718371,-8.61154,31.7412,-9.60616,-4.5066,-25.7546
-2.58116,17.2935,0.166588,18.5992,-19.8699,1.43381,11.3527,0.760493,-1.95276,7.21487,0.762272,1.22823,1.12618,0.26379,2.29408,-11.5411,9.53453,-8.14596,41.3921,18.013,-3.72701,16.7787,5.5991,2.67872,2.42517e-14,3.61788e-14,-18.6514,8.95779,-71.3005,58.7518,18.9632,-26.3164,1.48922,7.12502,0.240171,-28.4904,2.42517e-14,3.61788e-14,-22.7387,-19.959,84.682,64.23,-6.00956,-19.7933,19.8077,7.12502,6.53938,49.6867,-41.2868,13.2453,-4.07866,34.9152,-14.5472,-1.17196,-4.38952,-38.4629,-0.278842,-8.83555,32.1407,-9.58888,-4.56051,-25.384
-2.48786,17.2968,0.155626,19.0762,-20.2418,1.02658,11.4493,0.845592,-1.86344,7.31799,0.877026,1.29768,1.17617,0.319219,2.30404,-11.7495,9.3922,-8.31735,41.3701,17.739,-3.43148,16.7487,5.49298,2.79827,-9.54166e-15,-4.13472e-14,-18.8077,9.26737,-71.3799,59.3285,18.1905,-27.9489,2.67415,7.12502,-1.3366,-27.3014,-9.54166e-15,-4.13472e-14,-21.7638,-22.0818,84.4199,63.5245,-6.85071,-19.6668,19.207,7.12502,6.66145,49.0822,-41.6268,12.4734,-3.35755,34.9518,-15.6374,-3.99864,-2.41355,-39.0354,0.160961,-8.8368,32.4565,-9.60664,-4.49292,-25.4549
-2.39946,17.3079,0.144536,19.4875,-20.7125,0.577403,11.6014,0.924219,-1.793,7.38295,0.98072,1.37196,1.15661,0.369558,2.3298,-11.5827,9.35581,-8.44369,41.2266,17.6346,-3.40386,16.6117,5.45506,2.7919,2.38542e-14,-1.59028e-15,-19.0132,9.77122,-71.5323,59.8671,17.7067,-28.9674,3.6658,7.12502,-2.32022,-26.3013,2.38542e-14,-1.59028e-15,-20.9903,-23.9392,84.1791,62.8408,-7.79313,-19.1404,18.4015,7.12502,7.16965,48.26,-41.9175,11.6125,-2.41907,35.0634,-16.9005,-6.54557,0.343247,-39.4465,0.618948,-8.76782,32.727,-9.6158,-4.41384,-25.3001
-2.31087,17.3247,0.138917,19.8369,-21.3507,0.278435,11.6761,0.943338,-1.90518,7.51764,0.989503,1.41102,1.25581,0.364647,2.43314,-11.6119,9.42585,-8.92521,41.1298,17.7721,-3.25886,16.489,5.46939,2.93728,-4.37326e-14,-1.03368e-14,-19.0929,10.4884,-71.6876,60.4729,17.5663,-29.3424,4.03349,7.12502,-2.68235,-25.9294,-4.37326e-14,-1.03368e-14,-20.1809,-25.3521,83.8932,62.2771,-8.78159,-18.5276,17.8342,7.12502,7.76108,47.6718,-42.2211,10.4001,-1.44598,35.2968,-17.8255,-8.28873,2.84043,-39.7713,0.879649,-8.79079,32.9589,-9.56907,-4.11263,-24.8148
-2.2213,17.3394,0.130739,20.2317,-21.9764,0.0164784,11.7657,1.1317,-1.83123,7.6024,1.23724,1.24884,1.28696,0.491304,2.19621,-11.8766,9.2721,-9.04963,41.2449,17.431,-2.77069,16.5233,5.35368,3.12945,-1.27222e-14,-5.56597e-15,-19.3695,10.5106,-72.0477,60.9373,17.5013,-29.7332,4.31249,7.12502,-3.05981,-25.6453,-1.27222e-14,-5.56597e-15,-19.2999,-27.6731,83.397,61.749,-9.24804,-18.5838,17.6053,7.12502,7.70693,47.4449,-42.6335,8.9638,-0.369849,35.661,-18.1951,-9.56983,3.03115,-40.2054,1.26622,-8.93784,33.2075,-9.53877,-3.85303,-24.6707
-2.13587,17.3379,0.117392,20.6487,-22.6663,-0.171143,11.8393,1.18055,-2.05179,7.59954,1.27684,1.22961,1.23904,0.503254,2.29504,-11.8453,9.29439,-9.48947,41.1998,17.4996,-2.65136,16.4261,5.33917,3.24499,-4.51241e-14,-2.90226e-14,-19.4586,11.445,-72.3066,61.4366,17.1546,-29.8857,4.02241,7.12502,-3.20708,-25.9332,-4.51241e-14,-2.90226e-14,-18.7253,-29.3039,83.1033,61.1328,-9.40067,-18.6805,16.8986,7.12502,7.61356,46.7415,-43.2025,7.49433,0.682205,36.1752,-18.25,-10.4382,1.69432,-40.7196,1.64489,-9.14037,33.5059,-9.55698,-3.44256,-24.9194
-2.05333,17.3417,0.0989788,21.1211,-23.2525,-0.589762,11.8554,1.24895,-1.91075,7.7303,1.37399,1.15104,1.367,0.553304,2.12473,-12.018,9.31246,-9.57565,41.362,17.564,-2.59097,16.5364,5.33267,3.31123,-6.93758e-14,2.92213e-14,-19.3264,12.1986,-72.7813,61.8793,16.4136,-30.1192,3.59385,7.12502,-3.43261,-26.3583,-6.93758e-14,2.92213e-14,-17.9464,-31.024,82.5078,60.7799,-9.52569,-18.3471,16.7191,7.12502,7.93531,46.5502,-43.722,6.1449,1.98911,36.8071,-18.4195,-10.8849,0.627253,-41.229,1.87555,-8.98902,33.841,-9.50632,-3.00495,-24.6662
-1.96953,17.3481,0.0808035,21.5481,-23.91,-0.941597,11.7455,1.32634,-1.86625,7.92414,1.47552,1.05914,1.62851,0.600336,1.99783,-12.2511,9.31258,-9.57003,41.4676,17.603,-2.58975,16.6507,5.32228,3.33896,-1.64991e-14,-1.92821e-14,-19.0716,13.0038,-73.1774,62.1783,15.9398,-29.8432,2.85391,7.12502,-3.16602,-27.1023,-1.64991e-14,-1.92821e-14,-17.1236,-32.604,81.9474,60.4808,-9.614,-17.6789,16.6235,7.12502,8.58025,46.4292,-44.2677,4.73086,3.25592,37.5772,-18.3233,-10.8521,0.494195,-41.6996,2.12904,-8.94031,34.1913,-9.46471,-2.52366,-24.2731
-1.89139,17.3544,0.05957,21.9723,-24.5784,-1.29639,11.8221,1.31427,-1.98521,7.89353,1.44477,1.07162,1.55387,0.580199,2.07909,-11.9137,9.43432,-9.85269,41.2693,17.7795,-2.69447,16.445,5.37155,3.32243,2.5842e-14,-2.41523e-14,-19.1594,14.3645,-73.576,62.5813,15.7807,-29.4318,2.2687,7.12502,-2.76868,-27.6931,2.5842e-14,-2.41523e-14,-16.9385,-33.8617,81.737,60.1699,-9.59273,-17.7163,16.2203,7.12502,8.54413,46.0274,-44.8444,3.42316,4.51335,38.4295,-18.0113,-10.5452,0.137617,-42.1566,2.41734,-8.88539,34.5363,-9.40024,-2.06062,-23.8005
-1.81616,17.3574,0.0338424,22.3964,-25.1095,-1.72177,12.171,1.28218,-2.06018,7.7562,1.38739,1.15745,1.2211,0.551471,2.20908,-11.7339,9.56138,-10.3199,41.2622,17.9455,-2.49141,16.3095,5.40898,3.47586,3.97569e-14,-9.83984e-15,-19.3876,15.8551,-73.9614,63.0898,15.7658,-29.4835,2.87777,7.12502,-2.81861,-27.0834,3.97569e-14,-9.83984e-15,-17.0772,-34.9535,81.7422,59.9985,-9.70731,-18.3575,15.3339,7.12502,7.92526,45.1654,-45.4201,2.35796,5.75161,39.4216,-17.659,-10.3309,0.516228,-42.6299,2.64736,-8.73665,34.8651,-9.3389,-1.58696,-23.9337
-1.74482,17.3604,0.00959892,22.766,-25.576,-2.07898,12.394,1.20011,-2.14603,7.70122,1.26529,1.21653,1.04755,0.488103,2.32864,-11.6747,9.72504,-10.6752,41.3026,18.1936,-2.36123,16.2488,5.47441,3.60578,4.62671e-14,9.59136e-15,-19.539,17.417,-74.4124,63.4686,15.8597,-29.5079,3.42547,7.12502,-2.84227,-26.5353,4.62671e-14,9.59136e-15,-17.2334,-35.8798,81.7301,59.9181,-9.72459,-18.8745,14.6559,7.12502,7.42626,44.5056,-45.9425,1.29606,6.91267,40.529,-17.2394,-10.0413,1.05604,-43.0584,2.77334,-8.59063,35.1706,-9.29156,-1.12131,-24.0508
-1.67703,17.3558,-0.0169737,23.0145,-26.0912,-2.24098,12.641,1.14846,-2.44075,7.6814,1.16054,1.23931,0.895902,0.426701,2.52724,-11.5485,9.86351,-11.0369,41.1789,18.3968,-2.30637,16.0973,5.5318,3.68507,-4.96573e-15,-1.4707e-14,-19.6559,19.1989,-74.8058,63.8166,15.4826,-29.7264,3.50748,7.12502,-3.05322,-26.4504,-4.96573e-15,-1.4707e-14,-17.2995,-36.8626,81.7253,59.7874,-9.50397,-19.2532,14.3827,7.12502,7.0607,44.245,-46.4443,0.300281,7.8125,41.7318,-16.9416,-9.90671,1.35554,-43.4553,2.98509,-8.67976,35.4612,-9.22729,-0.7927,-23.8506
-1.61155,17.35,-0.0475348,23.3231,-26.594,-2.4281,12.9197,1.09787,-2.73832,7.6216,1.055,1.26618,0.686612,0.366934,2.73224,-11.3416,9.99838,-11.412,40.8961,18.5546,-2.2538,15.8426,5.59077,3.74228,-1.67973e-14,-1.25731e-14,-19.7463,21.2163,-75.1819,64.1678,14.8697,-30.0265,3.90286,7.12502,-3.34307,-26.0507,-1.67973e-14,-1.25731e-14,-17.3668,-37.8789,81.6844,59.6376,-9.32356,-19.7418,13.9356,7.12502,6.58904,43.8131,-47.0044,-0.518651,8.64305,42.9681,-16.5982,-10.0776,0.511886,-43.8839,3.16888,-8.72149,35.7108,-9.1489,-0.443809,-23.992
-1.55192,17.349,-0.0755542,23.7509,-27.1134,-2.68664,13.0175,1.04923,-3.01611,7.52736,0.958936,1.31842,0.538387,0.312801,2.95406,-10.8461,10.1642,-11.6297,40.4313,18.7862,-2.61208,15.5185,5.67707,3.59173,-2.23633e-14,-1.86858e-14,-19.8982,22.9474,-75.5836,64.4509,14.8777,-29.5904,4.25284,7.12502,-2.92186,-25.7069,-2.23633e-14,-1.86858e-14,-17.6035,-38.797,81.7479,59.5713,-9.16918,-20.1555,13.6016,7.12502,6.18972,43.4911,-47.6013,-1.06158,9.40441,44.1964,-16.6005,-10.4081,1.63099,-44.3628,3.38935,-8.67795,35.9321,-9.05957,-0.0718798,-24.0806
-1.49352,17.352,-0.103125,24.0552,-27.6669,-2.90056,13.1571,0.997717,-3.32629,7.45375,0.852921,1.35514,0.39167,0.253152,3.17979,-10.3697,10.3461,-11.8404,40.0595,19.0239,-2.90541,15.2416,5.76602,3.47364,-4.57205e-15,1.09332e-15,-20.0825,24.6326,-76.0479,64.6612,15.2157,-29.0064,4.0554,7.12502,-2.35792,-25.9113,-4.57205e-15,1.09332e-15,-17.91,-39.5436,81.8296,59.5118,-9.20653,-20.4233,13.1385,7.12502,5.93119,43.0354,-48.0322,-1.57413,10.0825,45.3786,-16.7995,-10.7927,3.40935,-44.7026,3.70593,-8.7318,36.1346,-8.96935,0.129,-23.8887
-1.43232,17.3538,-0.126444,24.27,-28.1697,-3.07798,13.3479,0.972774,-3.50541,7.42956,0.791972,1.35406,0.268326,0.21934,3.28659,-10.0822,10.4221,-12.4756,39.7365,18.9682,-2.45518,14.8714,5.77019,3.68034,-8.15017e-15,-1.78906e-14,-20.3469,26.1353,-76.5436,64.872,15.7978,-28.7312,3.60654,7.12502,-2.09213,-26.3629,-8.15017e-15,-1.78906e-14,-18.0679,-40.4994,81.9406,59.3067,-9.22829,-20.6464,12.7928,7.12502,5.71574,42.6957,-48.3553,-2.27148,10.7723,46.528,-16.7197,-11.2129,4.0127,-44.9897,3.93921,-8.79821,36.3357,-8.83868,0.210776,-23.1165
-1.37473,17.3543,-0.146992,24.4657,-28.7168,-3.21996,13.4749,0.958516,-3.77554,7.45137,0.735982,1.35268,0.227434,0.182849,3.44497,-9.8686,10.4963,-12.9779,39.4443,18.977,-2.20712,14.5862,5.78309,3.80547,-2.28602e-14,-3.55825e-14,-20.4896,27.8269,-76.9417,65.135,16.2414,-28.4679,3.43858,7.12502,-1.83783,-26.5333,-2.28602e-14,-3.55825e-14,-18.1786,-41.2412,82.0449,59.1221,-9.43413,-20.5361,12.3411,7.12502,5.82221,42.2411,-48.6176,-2.79324,11.2754,47.6504,-16.6419,-11.4167,5.21205,-45.1962,4.03099,-8.81499,36.5206,-8.78813,0.525207,-22.5358
-1.31844,17.3526,-0.169572,24.6934,-29.2104,-3.31664,13.5756,0.925349,-3.97179,7.42147,0.66435,1.31234,0.148477,0.143968,3.52284,-9.41571,10.6015,-12.9465,39.1641,19.124,-2.66984,14.4287,5.83111,3.58833,-1.41137e-14,-1.31198e-14,-20.6855,29.2865,-77.4819,65.3219,16.8206,-28.9992,4.94274,7.12502,-2.35091,-25.024,-1.41137e-14,-1.31198e-14,-18.373,-42.0709,82.152,59.004,-9.63633,-20.7409,11.973,7.12502,5.62448,41.8783,-48.8641,-3.15684,11.6061,48.7224,-16.835,-11.673,6.60937,-45.5431,4.23632,-8.92367,36.6958,-8.66278,0.73921,-21.8219
-1.26547,17.3503,-0.193721,24.8259,-29.6206,-3.3269,13.7649,0.867661,-4.25588,7.40943,0.546966,1.32211,0.0458615,0.0791554,3.70954,-9.25188,10.6671,-12.9446,39.1901,19.329,-3.1228,14.4818,5.85301,3.42705,-6.95746e-15,2.34566e-14,-20.8296,30.7475,-77.9458,65.5578,17.3479,-29.3756,6.09704,7.12502,-2.71449,-23.8654,-6.95746e-15,2.34566e-14,-18.4945,-42.8013,82.2777,58.8426,-9.73586,-21.1388,11.44,7.12502,5.24031,41.3552,-49.0332,-3.59562,11.8652,49.7315,-17.0797,-12.1656,7.37819,-45.8467,4.4057,-9.11367,36.8908,-8.60574,0.891457,-21.3517
-1.21452,17.3514,-0.208973,24.9784,-30.0659,-3.4959,13.9289,0.812042,-4.3613,7.42097,0.45232,1.31617,-0.0197655,0.029398,3.776,-9.06195,10.7541,-12.8846,39.203,19.5073,-3.48277,14.5122,5.88701,3.28625,6.32135e-14,-6.2816e-14,-20.9668,32.1176,-78.493,65.6779,17.9575,-28.9409,6.14469,7.12502,-2.29461,-23.8227,6.32135e-14,-6.2816e-14,-18.6582,-43.3846,82.3866,58.6324,-10.2055,-21.3529,10.899,7.12502,5.03364,40.8192,-49.1102,-3.96978,12.1956,50.6446,-16.9272,-12.6068,6.6356,-46.0276,4.71584,-9.25079,37.1041,-8.6379,1.06125,-21.8668
-1.16236,17.3401,-0.238247,25.3988,-30.3052,-3.74335,13.99,0.698125,-4.29452,7.34225,0.309097,1.37206,-0.121897,-0.0369541,3.81682,-8.8579,10.7828,-13.0389,39.1414,19.547,-3.61284,14.447,5.87662,3.24024,1.70955e-14,1.86858e-14,-21.3171,33.4542,-79.0139,65.9636,18.5812,-28.7473,6.47495,7.12502,-2.10765,-23.4944,1.70955e-14,1.86858e-14,-18.8433,-43.9385,82.5425,58.3548,-10.9861,-21.5272,10.4294,7.12502,4.86532,40.3536,-49.4151,-4.4082,12.6089,51.4744,-16.5966,-12.9562,7.29456,-46.6345,5.14767,-9.31256,37.3491,-8.50046,0.919557,-21.8888
-1.11432,17.329,-0.269596,25.7921,-30.6074,-3.93756,14.0147,0.699873,-4.29209,7.31295,0.31001,1.40625,-0.166164,-0.0358202,3.85139,-8.7364,10.7075,-13.2959,39.045,19.3902,-3.49781,14.3363,5.80576,3.28497,1.27222e-14,-1.27222e-14,-21.7361,34.3767,-79.4459,66.4022,19.3772,-28.8814,7.63704,7.12502,-2.23712,-22.331,1.27222e-14,-1.27222e-14,-18.8151,-44.6315,82.6824,58.0171,-11.8769,-22.0408,10.4126,7.12502,4.36941,40.3476,-49.6823,-4.6355,12.8192,52.1842,-16.409,-13.3701,8.93652,-47.2174,5.58278,-9.4045,37.6151,-8.43778,0.780953,-21.8306
-1.06797,17.3214,-0.294682,26.0841,-30.8676,-4.06386,14.0885,0.662312,-4.29923,7.29973,0.256417,1.44586,-0.214062,-0.0624815,3.90491,-8.69483,10.6466,-13.6081,38.9964,19.2858,-3.36798,14.2583,5.74276,3.35728,-2.98177e-14,2.54444e-14,-22.1873,35.3087,-79.8487,66.8518,20.295,-29.1353,8.16495,7.12502,-2.48239,-21.8004,-2.98177e-14,2.54444e-14,-18.8701,-44.9792,82.9319,57.6833,-12.7721,-22.649,10.0857,7.12502,3.78205,40.0318,-49.7916,-4.88841,12.9317,52.7741,-16.113,-14.2137,9.19332,-47.7107,5.7814,-9.44327,37.8553,-8.36149,0.748702,-21.3791
-1.02039,17.3167,-0.311014,26.0322,-30.9931,-4.08104,14.4647,0.564455,-4.23489,7.33886,0.118519,1.46132,-0.359136,-0.128334,3.90597,-8.63837,10.6078,-13.4985,39.0714,19.2742,-3.60117,14.3365,5.70759,3.25253,1.94809e-14,-5.28767e-14,-22.6196,36.1875,-80.3069,67.0332,21.5535,-29.4547,8.64282,7.12502,-2.79085,-21.3187,1.94809e-14,-5.28767e-14,-18.9694,-45.2826,83.1752,57.4065,-13.3207,-23.0619,9.88921,7.12502,3.38332,39.8421,-49.5188,-5.35778,12.9756,53.274,-15.4847,-15.0445,8.96124,-47.9096,5.76324,-9.52567,38.1097,-8.33552,0.745502,-21.2667
-0.970205,17.3139,-0.329322,25.4875,-30.8194,-3.73637,15.3505,0.348703,-4.23466,7.39417,-0.202187,1.46141,-0.737046,-0.281389,3.9612,-8.51366,10.5619,-13.4141,39.0425,19.2502,-3.90293,14.3598,5.66986,3.1136,2.10712e-14,4.33351e-14,-23.0288,37.1188,-80.7994,67.1925,22.2557,-29.1495,8.78037,7.12502,-2.49613,-21.1848,2.10712e-14,4.33351e-14,-19.1857,-45.6215,83.4509,57.1461,-13.7355,-23.5085,9.58364,7.12502,2.95206,39.543,-48.7739,-6.08359,12.7206,53.672,-15.0353,-15.4757,9.42158,-47.8765,5.39825,-9.84494,38.373,-8.34006,0.690965,-20.5844
-0.932406,17.285,-0.383391,26.2453,-31.1034,-3.79259,15.1285,0.346042,-4.5106,7.18696,-0.228556,1.52954,-0.832206,-0.293196,4.1932,-8.32431,10.5144,-13.4617,38.9786,19.1579,-4.00946,14.3071,5.62145,3.05105,-4.69132e-14,-1.11319e-14,-23.4758,37.8761,-81.2822,67.5506,22.7269,-29.0397,9.19728,7.12502,-2.39009,-20.7691,-4.69132e-14,-1.11319e-14,-19.4036,-45.8464,83.7211,56.9603,-14.1148,-23.9101,9.44185,7.12502,2.56417,39.4062,-49.5569,-6.29346,12.744,54.044,-14.6009,-16.1654,11.3739,-49.0656,6.00352,-10.0945,38.733,-8.22278,0.39754,-20.0825
-0.890572,17.2545,-0.417717,26.8507,-31.381,-3.95506,14.994,0.296029,-4.47148,7.06459,-0.281121,1.56394,-0.885431,-0.313981,4.2146,-8.18183,10.5153,-13.6081,38.9942,19.107,-3.92866,14.2594,5.59306,3.08292,5.52621e-14,2.54444e-14,-24.0029,38.5268,-81.7924,67.9936,23.3642,-30.1048,10.9144,7.12502,-3.41865,-19.0379,5.52621e-14,2.54444e-14,-19.5296,-45.9688,83.931,56.7522,-14.2407,-23.9866,9.39299,7.12502,2.49028,39.3582,-50.0393,-6.39127,12.7353,54.2892,-13.9796,-16.9477,12.459,-50.019,6.52982,-10.2608,39.1723,-8.19754,0.182425,-19.9728
-0.849906,17.2227,-0.452617,26.9887,-31.4971,-3.95078,15.4008,0.236897,-4.46605,7.00364,-0.374867,1.61289,-1.15472,-0.353231,4.28384,-8.19201,10.4545,-13.9102,39.0653,18.9815,-3.66162,14.229,5.52524,3.21326,-4.96962e-14,0,-24.4999,38.9973,-82.2204,68.4261,24.0225,-29.1957,9.68433,7.12502,-2.5407,-20.2803,-4.96962e-14,0,-19.7461,-46.2105,84.1514,56.6858,-14.2106,-24.045,9.05081,7.12502,2.43391,39.0167,-49.9698,-6.45199,12.5148,54.4078,-13.5663,-17.6436,12.4704,-50.6819,6.90116,-10.5312,39.7067,-8.22979,-0.125351,-19.9157
-0.808422,17.1894,-0.48781,27.2615,-31.5249,-3.98137,15.6636,0.144648,-4.28859,6.93183,-0.480708,1.64981,-1.36101,-0.395757,4.24343,-8.06204,10.3601,-13.9691,38.9738,18.7991,-3.65899,14.1593,5.45298,3.18859,1.51076e-14,-1.15295e-14,-24.9355,39.4065,-82.662,68.6616,24.5771,-29.9776,10.8544,7.12502,-3.29586,-19.0999,1.51076e-14,-1.15295e-14,-20.0749,-46.3229,84.4831,56.7277,-14.243,-24.2444,8.70431,7.12502,2.24129,38.6723,-49.9714,-6.65424,12.4193,54.3129,-13.277,-18.4235,11.8766,-51.5098,7.17826,-10.7127,40.2742,-8.2517,-0.457351,-19.4517
-0.769261,17.1632,-0.520138,27.5097,-31.6666,-3.89175,15.8062,0.0971318,-4.28595,6.87841,-0.546854,1.68966,-1.48542,-0.424602,4.29792,-7.76715,10.2824,-13.9709,38.7829,18.6639,-3.9078,14.0542,5.39371,3.05054,3.06128e-14,3.1408e-14,-25.4152,39.7415,-83.0135,68.9678,25.0842,-28.5566,9.00744,7.12502,-1.92349,-20.9636,3.06128e-14,3.1408e-14,-20.3747,-46.5557,84.8196,56.7991,-14.1586,-24.5189,8.38094,7.12502,1.97621,38.3515,-49.9915,-6.97331,12.2315,54.0595,-13.4699,-19.0744,10.3622,-52.3366,7.45103,-11.0773,40.8501,-8.31174,-0.593795,-19.9359
-0.730871,17.1338,-0.552105,27.7239,-31.8955,-3.90571,16.0839,0.0996015,-4.2459,6.82388,-0.549499,1.7099,-1.68987,-0.419451,4.30237,-7.59208,10.1727,-13.8809,38.6805,18.4808,-4.07431,14.0114,5.32041,2.93967,-1.55052e-14,1.86858e-14,-26.0331,39.9783,-83.4156,69.4235,25.4679,-28.3414,9.09688,7.12502,-1.71564,-20.876,-1.55052e-14,1.86858e-14,-20.8255,-46.8787,85.1581,56.9421,-14.0774,-24.5985,8.11189,7.12502,1.89932,38.0832,-49.8987,-7.18501,12.0964,53.6955,-14.3287,-19.6374,7.62789,-53.0488,7.82605,-11.3569,41.4683,-8.4114,-0.814863,-20.0741
-0.692678,17.0976,-0.586176,27.9909,-32.1811,-3.95057,16.3114,0.0633294,-4.23146,6.74002,-0.603887,1.71869,-1.89314,-0.439242,4.31782,-7.22757,10.1045,-13.782,38.2816,18.298,-4.34429,13.8024,5.27581,2.7629,-2.0276e-14,-1.78906e-14,-26.7061,40.3584,-83.8869,69.8905,25.9278,-29.4202,10.5081,7.12502,-2.75748,-19.4538,-2.0276e-14,-1.78906e-14,-21.4085,-46.8814,85.5458,57.1366,-13.9193,-24.9453,7.87623,7.12502,1.5644,37.8502,-49.8613,-7.37939,12.0081,53.2747,-15.2884,-19.8913,4.2304,-53.7932,8.1932,-11.5714,42.1226,-8.53817,-0.934487,-19.5771
