JuanDHNZ/ProyectoFinalCD/preprocessing/sports_trials_csv/14_33.csv
root1,root2,root3,root4,root5,root6,lowerback1,lowerback2,lowerback3,upperback1,upperback2,upperback3,thorax1,thorax2,thorax3,lowerneck1,lowerneck2,lowerneck3,upperneck1,upperneck2,upperneck3,head1,head2,head3,rclavicle1,rclavicle2,rhumerus1,rhumerus2,rhumerus3,rradius1,rwrist1,rhand1,rhand2,rfingers1,rthumb1,rthumb2,lclavicle1,lclavicle2,lhumerus1,lhumerus2,lhumerus3,lradius1,lwrist1,lhand1,lhand2,lfingers1,lthumb1,lthumb2,rfemur1,rfemur2,rfemur3,rtibia1,rfoot1,rfoot2,rtoes1,lfemur1,lfemur2,lfemur3,ltibia1,lfoot1,lfoot2,ltoes1
0.650962,17.7816,9.80564,-174.41,-2.89759,-179.439,-0.49794,0.0487317,-5.70082,-0.5965,0.0763786,1.57551,-0.345808,0.0617419,4.83032,-19.4983,0.599828,-8.50516,36.96,0.144762,2.25818,16.5791,-1.90533,2.20739,2.3264e-15,1.04859e-14,-34.2941,-8.23818,-79.59,33.2748,21.9046,-18.4719,2.26519,7.12502,7.81493,-27.5704,2.3264e-15,1.04859e-14,-28.2387,10.1768,84.6116,26.4261,-11.2146,-11.7543,25.8363,7.12502,14.2938,55.3243,-14.4681,3.26701,18.3075,30.9942,-22.3036,-6.32646,10.242,-9.93907,-1.04126,-21.2657,22.6213,-15.3494,1.44161,-9.35588
0.64815,17.7796,9.8048,-174.437,-2.97717,-179.444,-0.459977,0.029271,-5.71063,-0.617651,0.0477047,1.57309,-0.385368,0.0491424,4.83329,-19.405,0.610739,-8.46059,36.9785,0.116536,2.25681,16.5674,-1.9169,2.19192,-5.59548e-15,6.28657e-15,-34.2673,-8.27253,-79.6095,33.1608,22.0487,-18.6359,2.63806,7.12502,7.65662,-27.2033,-5.59548e-15,6.28657e-15,-28.2939,10.2031,84.5394,26.3313,-11.2187,-11.8352,26.0615,7.12502,14.2158,55.5551,-14.3971,3.36022,18.2969,30.9533,-22.3832,-6.36239,10.7344,-9.90118,-1.12705,-21.2711,22.5723,-15.2615,1.40788,-9.44636
0.644854,17.7793,9.80176,-174.503,-3.03633,-179.393,-0.424928,0.0097567,-5.65222,-0.612191,0.0196525,1.60179,-0.3958,0.0350634,4.83002,-19.3137,0.62477,-8.53512,36.9909,0.108118,2.33991,16.5506,-1.92456,2.23879,-2.04065e-15,8.69683e-16,-34.2874,-8.26226,-79.6265,33.1475,22.0751,-18.8214,2.79681,7.12502,7.47757,-27.051,-2.04065e-15,8.69683e-16,-28.3883,10.4073,84.4228,26.2715,-11.3609,-11.9453,26.0367,7.12502,14.1097,55.5377,-14.2841,3.35841,18.3595,30.9111,-22.4118,-6.44335,10.4663,-9.81633,-1.21357,-21.2228,22.5582,-15.2514,1.41244,-9.22528
0.64198,17.7822,9.79882,-174.518,-3.09349,-179.36,-0.462208,-0.00437551,-5.60843,-0.565267,0.00399117,1.62592,-0.324414,0.0237897,4.83029,-19.3055,0.61454,-8.50994,36.9417,0.127395,2.25177,16.5231,-1.92026,2.19919,1.31074e-15,7.30534e-15,-34.1869,-8.2748,-79.671,33.1593,21.9824,-18.9421,2.90605,7.12502,7.36105,-26.9459,1.31074e-15,7.30534e-15,-28.3589,10.4603,84.3561,26.2227,-11.3887,-11.823,25.8257,7.12502,14.2276,55.3184,-14.243,3.29572,18.3983,30.8926,-22.3962,-6.53783,10.0169,-9.77751,-1.20909,-21.1954,22.5241,-15.2807,1.36037,-9.4873
0.640811,17.7823,9.79773,-174.492,-3.09191,-179.392,-0.542666,-6.5025e-05,-5.64395,-0.515088,0.0158164,1.61289,-0.228958,0.025791,4.83691,-19.3334,0.574874,-8.53015,36.8701,0.096154,2.26167,16.4958,-1.92393,2.20258,6.36111e-15,1.31695e-15,-34.0629,-8.14671,-79.8051,33.2795,21.7012,-18.8879,2.77002,7.12502,7.41339,-27.0801,6.36111e-15,1.31695e-15,-28.2677,10.5198,84.2841,26.1468,-11.4341,-11.8079,25.5599,7.12502,14.2421,55.0515,-14.2553,3.38469,18.3566,30.8862,-22.4474,-6.6049,9.96711,-9.7781,-1.2694,-21.2437,22.4925,-15.2783,1.4993,-9.69268
0.638576,17.7823,9.79791,-174.479,-3.09264,-179.435,-0.523175,0.00764469,-5.69107,-0.512897,0.0253465,1.61193,-0.238913,0.0310358,4.86268,-19.3708,0.551795,-8.566,36.8818,0.0779548,2.26809,16.5128,-1.93524,2.20871,7.27738e-15,-1.69464e-14,-34.0486,-8.0283,-79.8779,33.4334,21.609,-18.8203,2.47084,7.12502,7.47857,-27.377,7.27738e-15,-1.69464e-14,-28.2725,10.6119,84.2424,26.1392,-11.4841,-11.783,25.7333,7.12502,14.2662,55.2233,-14.2749,3.40935,18.2932,30.8928,-22.4706,-6.5863,10.0768,-9.77044,-1.28351,-21.3058,22.462,-15.2381,1.58951,-9.95816
0.637609,17.7826,9.7993,-174.487,-3.14013,-179.48,-0.423122,-0.0034033,-5.76508,-0.551065,0.00414578,1.62979,-0.331942,0.0245568,4.92327,-19.3025,0.55194,-8.61041,36.8427,0.0889996,2.26709,16.4751,-1.93576,2.2174,-6.9264e-16,4.57205e-15,-34.0917,-7.95425,-79.8704,33.4687,21.7539,-18.7434,2.24397,7.12502,7.5528,-27.6012,-6.9264e-16,4.57205e-15,-28.3316,10.6841,84.1982,26.0971,-11.4527,-11.6929,26.1317,7.12502,14.3529,55.6155,-14.2601,3.45794,18.2471,30.897,-22.5333,-6.67858,10.1639,-9.76376,-1.36636,-21.3496,22.441,-15.1818,1.54258,-9.80526
0.636706,17.782,9.79902,-174.507,-3.17264,-179.476,-0.35314,0.000713099,-5.76062,-0.564308,0.00536064,1.62889,-0.385063,0.0272023,4.91981,-19.2892,0.588577,-8.68136,36.8502,0.1261,2.38477,16.4709,-1.91396,2.28925,2.29224e-15,-4.67144e-15,-34.0816,-8.00787,-79.8612,33.4128,21.9263,-18.7161,2.52667,7.12502,7.57922,-27.3175,2.29224e-15,-4.67144e-15,-28.3802,10.5704,84.1573,26.037,-11.2655,-11.8424,26.3417,7.12502,14.2089,55.8357,-14.236,3.43027,18.2567,30.8896,-22.5405,-6.70407,10.0539,-9.75017,-1.41931,-21.3477,22.4419,-15.1468,1.49042,-9.6747
0.633526,17.7825,9.79669,-174.49,-3.25412,-179.444,-0.334668,-0.0152943,-5.69803,-0.571518,-0.0173933,1.6334,-0.3999,0.016146,4.88897,-19.3611,0.607194,-8.73444,36.8974,0.154449,2.46025,16.5097,-1.90084,2.33848,-5.51627e-15,-2.68359e-15,-34.0469,-8.07752,-79.8789,33.4092,21.9706,-18.8513,2.7679,7.12502,7.4487,-27.081,-5.51627e-15,-2.68359e-15,-28.4259,10.5671,84.0921,25.9996,-11.2223,-11.9698,26.2977,7.12502,14.0861,55.8003,-14.2138,3.341,18.2871,30.8563,-22.5041,-6.66164,10.0371,-9.77967,-1.50127,-21.3177,22.4788,-15.1789,1.4157,-9.44409
0.630527,17.7821,9.79608,-174.484,-3.30699,-179.451,-0.270532,-0.0217518,-5.68116,-0.597323,-0.0302876,1.62815,-0.460903,0.0121368,4.87398,-19.3807,0.599317,-8.75706,36.9387,0.135409,2.48559,16.5372,-1.91227,2.35009,-5.77407e-15,-4.96962e-16,-34.0855,-8.08938,-79.9183,33.5358,21.8942,-18.7508,2.77733,7.12502,7.54568,-27.0681,-5.77407e-15,-4.96962e-16,-28.5209,10.6083,84.0085,25.9951,-11.2899,-11.9034,26.1573,7.12502,14.1501,55.6554,-14.1941,3.34293,18.2732,30.8193,-22.4887,-6.65828,10.1325,-9.80478,-1.54358,-21.3263,22.5272,-15.2279,1.37195,-9.0902
0.627325,17.7834,9.79606,-174.445,-3.32863,-179.359,-0.243507,-0.0222578,-5.57392,-0.644267,-0.0340845,1.65505,-0.52398,0.0125652,4.84121,-19.3203,0.606747,-8.79745,36.9249,0.123447,2.5589,16.515,-1.91293,2.38675,-4.1869e-15,1.98288e-14,-34.1431,-8.012,-79.9658,33.633,21.7183,-18.5515,2.71191,7.12502,7.73809,-27.1265,-4.1869e-15,1.98288e-14,-28.6443,10.5625,83.9436,26.0266,-11.2945,-11.8807,26.1213,7.12502,14.172,55.6179,-14.2227,3.38351,18.3649,30.7909,-22.485,-6.67069,10.1501,-9.87516,-1.61378,-21.2337,22.5613,-15.2277,1.47094,-9.01218
0.625298,17.7839,9.79559,-174.399,-3.36458,-179.345,-0.192834,-0.00482426,-5.55499,-0.703749,-0.015331,1.65373,-0.616174,0.0259205,4.82913,-19.2779,0.60537,-8.81769,36.955,0.0875463,2.62434,16.5221,-1.92563,2.41196,6.40149e-15,1.03368e-14,-34.1474,-7.94493,-80.0082,33.5657,21.5938,-18.7051,2.51958,7.12502,7.58979,-27.3242,6.40149e-15,1.03368e-14,-28.7552,10.4558,83.9101,26.0394,-11.3125,-11.9723,26.0552,7.12502,14.0837,55.558,-14.259,3.4407,18.3699,30.7871,-22.5752,-6.65865,10.6026,-9.93052,-1.61351,-21.22,22.5645,-15.2197,1.48505,-8.96947
0.624057,17.7841,9.79415,-174.414,-3.39239,-179.397,-0.124011,-0.00382627,-5.61122,-0.730842,-0.0184611,1.63899,-0.682484,0.0274092,4.84577,-19.2548,0.635607,-8.82355,37.0072,0.101727,2.66783,16.5412,-1.92134,2.43442,-8.07252e-15,1.3418e-15,-34.1685,-7.8322,-80.0676,33.5663,21.4856,-18.9741,2.683,7.12502,7.33017,-27.17,-8.07252e-15,1.3418e-15,-28.8645,10.4584,83.8391,26.0278,-11.3211,-12.0227,26.0896,7.12502,14.0351,55.5958,-14.23,3.41342,18.3135,30.7886,-22.5513,-6.73283,10.2926,-9.90328,-1.61259,-21.2831,22.5556,-15.2006,1.48418,-9.1583
0.62135,17.7836,9.7912,-174.4,-3.36325,-179.455,-0.145867,0.00281263,-5.6821,-0.722969,-0.00825676,1.6413,-0.66349,0.0322221,4.88837,-19.3012,0.648944,-8.79882,37.0483,0.128512,2.62996,16.5722,-1.91539,2.41876,5.5318e-15,2.01269e-14,-34.1954,-7.6406,-80.1288,33.6692,21.3225,-19.1516,3.09323,7.12502,7.15877,-26.7657,5.5318e-15,2.01269e-14,-28.9126,10.5016,83.7946,26.0256,-11.3808,-11.8849,26.1838,7.12502,14.1679,55.6807,-14.233,3.34874,18.2381,30.7776,-22.5324,-6.70096,10.1252,-9.88502,-1.69491,-21.3645,22.5489,-15.2119,1.61833,-9.187
0.620132,17.7836,9.78836,-174.404,-3.30498,-179.471,-0.174243,0.0314903,-5.74168,-0.684553,0.0327038,1.65899,-0.613249,0.0507363,4.94047,-19.3429,0.589658,-8.76498,37.0142,0.0697396,2.55806,16.5712,-1.93898,2.37048,-1.01256e-15,-2.46493e-14,-34.1822,-7.50012,-80.1878,33.796,21.1707,-19.1216,3.01962,7.12502,7.18774,-26.8383,-1.01256e-15,-2.46493e-14,-28.9172,10.606,83.7563,25.9933,-11.4655,-11.9429,26.1594,7.12502,14.1121,55.6602,-14.2162,3.33338,18.2093,30.751,-22.4972,-6.662,9.92464,-9.85662,-1.75932,-21.3963,22.537,-15.1939,1.76569,-9.36671
0.617797,17.7874,9.78594,-174.37,-3.30617,-179.397,-0.227875,0.0562833,-5.69419,-0.684663,0.068514,1.70159,-0.587805,0.0674746,4.95784,-19.2603,0.542292,-8.65631,36.9379,0.022479,2.37948,16.5177,-1.96299,2.26218,1.67103e-15,-1.35671e-14,-34.1918,-7.39307,-80.1962,33.9408,21.0704,-18.885,2.72865,7.12502,7.41617,-27.1214,1.67103e-15,-1.35671e-14,-28.907,10.7663,83.7165,25.8781,-11.5605,-11.9413,26.1851,7.12502,14.1135,55.6858,-14.2268,3.31425,18.2808,30.7145,-22.4955,-6.63516,9.91341,-9.86469,-1.6444,-21.3306,22.5161,-15.2468,1.61726,-8.96421
0.614831,17.791,9.78345,-174.312,-3.2883,-179.421,-0.320962,0.0691556,-5.74132,-0.676496,0.0909286,1.71905,-0.530178,0.0768492,5.00287,-19.2458,0.550647,-8.6379,36.9175,0.0398469,2.35882,16.5023,-1.95375,2.25325,9.29318e-15,2.18663e-15,-34.1664,-7.36274,-80.1843,34.0306,21.0541,-18.8005,2.54803,7.12502,7.49767,-27.2991,9.29318e-15,2.18663e-15,-28.8996,10.9469,83.6704,25.7754,-11.6786,-11.7522,26.293,7.12502,14.2958,55.7809,-14.2568,3.37156,18.2331,30.6831,-22.5073,-6.63132,10.1413,-9.87882,-1.64634,-21.3701,22.4767,-15.3039,1.60508,-8.15501
0.611775,17.789,9.78125,-174.276,-3.25959,-179.495,-0.414912,0.0912143,-5.8076,-0.627731,0.127334,1.69368,-0.431913,0.0912106,5.01416,-19.2716,0.503915,-8.53306,36.8813,-0.0340702,2.30056,16.4964,-1.97099,2.19595,6.16232e-15,9.98893e-15,-34.1056,-7.34881,-80.2058,34.1168,21.0004,-18.7209,2.25236,7.12502,7.5745,-27.592,6.16232e-15,9.98893e-15,-28.8632,11.0104,83.6195,25.7266,-11.7934,-11.5732,26.3622,7.12502,14.4683,55.8378,-14.2807,3.34827,18.1338,30.6671,-22.4735,-6.55472,10.4568,-9.88489,-1.66183,-21.4615,22.4267,-15.26,1.6401,-8.68742
0.610701,17.7888,9.78059,-174.275,-3.24322,-179.493,-0.42182,0.113896,-5.80142,-0.616475,0.158418,1.67503,-0.420345,0.106154,4.9912,-19.198,0.498229,-8.47937,36.8333,-0.0658837,2.296,16.4557,-1.97351,2.17819,3.31101e-15,-7.60351e-15,-34.1093,-7.38342,-80.2393,34.1605,21.041,-18.7425,2.21576,7.12502,7.55373,-27.6294,3.31101e-15,-7.60351e-15,-28.9237,10.9996,83.5584,25.7182,-11.8245,-11.5493,26.6707,7.12502,14.4913,56.1447,-14.2937,3.30858,18.1338,30.6738,-22.3462,-6.59987,10.0675,-9.85796,-1.6831,-21.4661,22.3493,-15.1381,1.63307,-9.32901
0.610231,17.789,9.78006,-174.277,-3.20785,-179.489,-0.396988,0.128795,-5.80917,-0.634414,0.176378,1.67397,-0.455183,0.116713,4.99441,-19.1506,0.568768,-8.6154,36.8817,-0.00223653,2.49448,16.4612,-1.94493,2.30141,3.72721e-16,1.49089e-14,-34.1122,-7.39014,-80.2438,34.0943,21.0847,-18.9384,2.61583,7.12502,7.36465,-27.236,3.72721e-16,1.49089e-14,-29.0485,11.0388,83.4727,25.7651,-11.9131,-11.4489,26.9167,7.12502,14.5881,56.3837,-14.3102,3.33886,18.1321,30.6981,-22.3376,-6.63779,9.68013,-9.81205,-1.7053,-21.4685,22.2678,-15.0977,1.71346,-9.49837
0.609531,17.7905,9.77849,-174.259,-3.19242,-179.488,-0.429967,0.112978,-5.84866,-0.628979,0.157203,1.70956,-0.428876,0.106281,5.0541,-19.1542,0.607639,-8.69769,36.9064,0.0611882,2.55206,16.469,-1.92556,2.3532,4.41053e-15,5.1684e-15,-34.038,-7.29559,-80.239,33.9965,21.0815,-19.1392,3.08079,7.12502,7.17078,-26.7777,4.41053e-15,5.1684e-15,-29.0879,11.2022,83.4088,25.6561,-12.0199,-11.4815,26.5971,7.12502,14.5566,56.0663,-14.331,3.35828,18.1271,30.6942,-22.3532,-6.72561,9.32189,-9.80308,-1.7183,-21.4723,22.2213,-15.1273,1.80789,-9.47336
0.607847,17.7906,9.77704,-174.245,-3.20285,-179.523,-0.454619,0.0629213,-5.91736,-0.652342,0.091,1.75199,-0.430848,0.073948,5.13751,-19.0313,0.664704,-8.7634,36.8942,0.139358,2.56326,16.4255,-1.90685,2.38205,5.92006e-15,8.54774e-15,-34.0391,-7.16079,-80.2298,33.978,21.134,-19.095,3.26943,7.12502,7.21348,-26.5876,5.92006e-15,8.54774e-15,-29.2183,11.4976,83.3053,25.5213,-12.1486,-11.6799,25.9732,7.12502,14.3655,55.4561,-14.3106,3.36654,18.0831,30.654,-22.3977,-6.70026,9.61686,-9.80921,-1.75897,-21.5172,22.2217,-15.1457,1.8612,-9.46931
0.60746,17.791,9.77652,-174.214,-3.20221,-179.506,-0.485689,0.0645416,-5.9066,-0.690621,0.0935585,1.75523,-0.453283,0.076642,5.13482,-18.8756,0.663503,-8.84798,36.8619,0.0915272,2.68513,16.3728,-1.92365,2.43962,-7.51033e-15,-5.46658e-15,-34.1119,-7.19041,-80.2345,34.0106,21.1951,-19.0332,3.22525,7.12502,7.27308,-26.6298,-7.51033e-15,-5.46658e-15,-29.3394,11.6776,83.1945,25.4271,-12.2428,-11.7135,25.7969,7.12502,14.3331,55.2822,-14.3133,3.3719,18.0982,30.6064,-22.383,-6.66304,9.67366,-9.84154,-1.79214,-21.4957,22.2274,-15.1514,1.84616,-9.39932
0.606777,17.7928,9.77645,-174.176,-3.2132,-179.409,-0.491313,0.072917,-5.79908,-0.725773,0.103419,1.76393,-0.487408,0.0827477,5.08277,-18.8077,0.633238,-8.84717,36.8697,0.00298995,2.73917,16.3667,-1.95589,2.44567,1.06226e-15,6.55989e-15,-34.1457,-7.2655,-80.2542,34.0184,21.2964,-18.9684,2.99094,7.12502,7.33562,-26.8619,1.06226e-15,6.55989e-15,-29.435,11.6583,83.1328,25.4133,-12.1974,-11.6824,25.9548,7.12502,14.363,55.4379,-14.3267,3.41068,18.1968,30.5589,-22.4188,-6.59147,10.0693,-9.89374,-1.80053,-21.3898,22.2363,-15.1159,1.84707,-9.35959
0.605424,17.7937,9.77711,-174.148,-3.21217,-179.443,-0.465348,0.0708184,-5.82285,-0.713161,0.0998001,1.7501,-0.48852,0.0809203,5.0818,-18.8428,0.571439,-8.83286,36.8108,-0.0687619,2.72125,16.3519,-1.97732,2.42269,1.23619e-15,-4.27387e-15,-34.0884,-7.32016,-80.2536,34.0467,21.432,-18.917,2.76843,7.12502,7.3853,-27.0827,1.23619e-15,-4.27387e-15,-29.4468,11.69,83.0989,25.4102,-12.1462,-11.6669,26.1255,7.12502,14.378,55.6075,-14.328,3.34033,18.1575,30.4853,-22.3248,-6.62001,9.953,-9.95144,-1.78527,-21.4359,22.2811,-15.1288,1.85595,-9.38545
0.603706,17.7947,9.77681,-174.158,-3.20745,-179.488,-0.468328,0.0893804,-5.86785,-0.63816,0.127481,1.73144,-0.413079,0.0910896,5.08793,-18.9859,0.496199,-8.86877,36.7879,-0.151157,2.77867,16.3824,-1.9977,2.44171,-9.93923e-17,1.88845e-15,-33.9861,-7.37388,-80.2669,34.092,21.4588,-18.9151,2.7053,7.12502,7.38708,-27.1457,-9.93923e-17,1.88845e-15,-29.3497,11.7097,83.0943,25.3155,-12.1879,-11.8088,26.0653,7.12502,14.2412,55.557,-14.2795,3.2794,18.1006,30.4079,-22.2465,-6.58142,10.2201,-9.94587,-1.77453,-21.4983,22.3393,-15.2108,1.88202,-8.94301
0.602532,17.7998,9.77529,-174.123,-3.23296,-179.421,-0.540031,0.091574,-5.81768,-0.601126,0.135139,1.76052,-0.335467,0.0912437,5.08996,-19.0758,0.440868,-8.87465,36.8013,-0.209463,2.76009,16.4172,-2.0225,2.42485,-9.15031e-15,1.19271e-15,-33.9151,-7.39371,-80.2753,34.1133,21.5678,-18.967,2.64245,7.12502,7.33699,-27.2103,-9.15031e-15,1.19271e-15,-29.337,11.7703,83.0916,25.2373,-12.2994,-11.9918,25.7029,7.12502,14.0649,55.207,-14.2965,3.29095,18.167,30.3718,-22.2579,-6.63663,9.97975,-9.95398,-1.79532,-21.4293,22.3433,-15.3281,1.89969,-8.31175
0.601991,17.8016,9.77417,-174.065,-3.2542,-179.374,-0.626629,0.103382,-5.7568,-0.586011,0.15576,1.75926,-0.273682,0.0988681,5.05429,-19.1004,0.405883,-8.85,36.7841,-0.273624,2.79268,16.4195,-2.03632,2.42369,-1.01256e-15,1.88845e-15,-33.8516,-7.53281,-80.2715,34.1307,21.7276,-18.9585,2.48315,7.12502,7.34521,-27.3693,-1.01256e-15,1.88845e-15,-29.2425,11.6502,83.123,25.1305,-12.1987,-12.0492,25.8355,7.12502,14.0096,55.3434,-14.3382,3.26858,18.2158,30.3373,-22.2492,-6.66057,9.97575,-10.0343,-1.75723,-21.3802,22.35,-15.3226,1.82032,-8.40157
0.599364,17.7986,9.77387,-174.025,-3.26283,-179.417,-0.681486,0.102087,-5.76799,-0.554986,0.158225,1.73771,-0.211113,0.0974724,5.03832,-19.1571,0.347392,-8.70544,36.7331,-0.330017,2.62865,16.4134,-2.05403,2.31604,-5.65294e-15,-1.11319e-14,-33.7368,-7.5906,-80.2874,34.1344,21.6827,-18.7954,2.19918,7.12502,7.50266,-27.6478,-5.65294e-15,-1.11319e-14,-29.176,11.5248,83.1672,25.1261,-11.9542,-11.8571,26.073,7.12502,14.1947,55.568,-14.3737,3.2279,18.1602,30.3188,-22.2428,-6.71301,9.58006,-10.0948,-1.79894,-21.4264,22.3348,-15.1594,1.87616,-8.92413
0.599336,17.7977,9.77528,-174.004,-3.25843,-179.337,-0.684532,0.0940458,-5.70308,-0.539859,0.147396,1.76937,-0.19224,0.0907993,5.03446,-19.1682,0.338499,-8.64799,36.673,-0.313109,2.53754,16.3847,-2.04485,2.26937,-7.96381e-15,-5.06901e-15,-33.6592,-7.55769,-80.3256,34.1823,21.6351,-18.646,1.8948,7.12502,7.64688,-27.947,-7.96381e-15,-5.06901e-15,-29.1803,11.607,83.133,25.0844,-12.0024,-11.7101,26.3358,7.12502,14.3363,55.8208,-14.4121,3.30546,18.2478,30.3219,-22.2429,-6.75922,9.64203,-10.1123,-1.82498,-21.331,22.2931,-15.0724,1.92084,-9.20728
0.597678,17.7986,9.77557,-173.968,-3.22862,-179.33,-0.709759,0.109235,-5.68193,-0.542677,0.168915,1.75389,-0.183627,0.101283,5.00644,-19.1758,0.358053,-8.61834,36.6382,-0.28616,2.5524,16.3661,-2.02215,2.27657,2.44754e-15,-6.16232e-15,-33.6588,-7.52619,-80.3515,34.2582,21.6006,-18.5857,1.77925,7.12502,7.70507,-28.0604,2.44754e-15,-6.16232e-15,-29.2132,11.8235,83.0147,24.9559,-12.3488,-11.5842,26.2367,7.12502,14.4576,55.713,-14.4605,3.38642,18.2452,30.3382,-22.2669,-6.75294,9.84786,-10.1243,-1.76558,-21.3296,22.2385,-15.0347,1.81203,-9.01345
0.595279,17.7989,9.77379,-173.956,-3.22657,-179.322,-0.745893,0.102678,-5.66857,-0.534364,0.162074,1.7707,-0.153887,0.0966001,5.01647,-19.2232,0.318987,-8.63908,36.6612,-0.345634,2.57921,16.3944,-2.04663,2.28112,-4.25523e-15,1.51076e-14,-33.6519,-7.477,-80.3398,34.3127,21.561,-18.5345,1.75714,7.12502,7.75443,-28.0807,-4.25523e-15,1.51076e-14,-29.2495,11.9423,82.9943,24.8651,-12.4256,-11.6891,26.2436,7.12502,14.3566,55.7271,-14.4498,3.3622,18.2496,30.3194,-22.2695,-6.78518,9.66144,-10.1276,-1.68892,-21.335,22.2338,-15.0444,1.74615,-9.14746
0.593609,17.7997,9.77347,-173.925,-3.24725,-179.335,-0.777691,0.0944604,-5.67031,-0.541163,0.152573,1.77361,-0.141849,0.0915502,5.02051,-19.2176,0.298233,-8.59655,36.6905,-0.400434,2.5673,16.4123,-2.06865,2.25755,1.24862e-15,2.98177e-15,-33.6501,-7.46376,-80.3249,34.3059,21.5118,-18.531,1.88905,7.12502,7.75784,-27.9486,1.24862e-15,2.98177e-15,-29.2921,11.9962,82.9879,24.8327,-12.4641,-11.727,26.3254,7.12502,14.32,55.8115,-14.4592,3.35714,18.2296,30.2917,-22.2322,-6.84844,9.24553,-10.1641,-1.64401,-21.3518,22.2439,-15.0235,1.78064,-9.30563
0.592825,17.8004,9.77343,-173.959,-3.27147,-179.318,-0.727876,0.0864362,-5.66166,-0.538894,0.139031,1.79348,-0.165764,0.0854613,5.03614,-19.1611,0.316638,-8.57382,36.6387,-0.370929,2.54353,16.3695,-2.05312,2.24838,6.79595e-15,4.96962e-15,-33.6272,-7.41446,-80.3092,34.2554,21.4902,-18.5843,2.0283,7.12502,7.70639,-27.8113,6.79595e-15,4.96962e-15,-29.3364,12.0938,82.9675,24.7654,-12.5926,-11.7897,26.3279,7.12502,14.2596,55.8183,-14.4051,3.36543,18.2541,30.2627,-22.2597,-6.85933,9.36266,-10.1505,-1.64096,-21.3255,22.2703,-15.0138,1.74646,-8.93804
0.59242,17.8011,9.77297,-173.938,-3.2697,-179.255,-0.737046,0.0596729,-5.63528,-0.566772,0.102279,1.838,-0.18471,0.0679593,5.06745,-19.1173,0.35094,-8.54732,36.6358,-0.320928,2.49371,16.3533,-2.0388,2.23025,-1.01939e-14,3.57812e-15,-33.6319,-7.26121,-80.3308,34.2762,21.4291,-18.5823,1.90347,7.12502,7.70834,-27.936,-1.01939e-14,3.57812e-15,-29.4052,12.2658,82.9031,24.6515,-12.7033,-11.8106,25.9942,7.12502,14.2395,55.4861,-14.4191,3.45457,18.3112,30.2366,-22.3334,-6.81933,10.0894,-10.1973,-1.61931,-21.2557,22.3019,-15.0104,1.68426,-8.91067
0.591085,17.8005,9.7735,-173.93,-3.22822,-179.208,-0.751533,0.0649002,-5.61136,-0.569323,0.109337,1.87253,-0.180163,0.0711662,5.08998,-19.1302,0.360332,-8.55676,36.647,-0.310371,2.51274,16.3611,-2.03402,2.24235,4.47887e-15,6.75868e-15,-33.5953,-7.24526,-80.3101,34.2333,21.4013,-18.5936,1.98301,7.12502,7.69745,-27.8569,4.47887e-15,6.75868e-15,-29.4351,12.3191,82.9282,24.5886,-12.6726,-11.9231,25.9433,7.12502,14.1311,55.4428,-14.4237,3.45563,18.3487,30.2182,-22.2962,-6.7639,10.2591,-10.2033,-1.61798,-21.2178,22.3189,-15.0456,1.7363,-9.23859
0.588072,17.7995,9.77514,-173.932,-3.20353,-179.215,-0.747931,0.0536135,-5.61117,-0.558058,0.0942275,1.88829,-0.168633,0.0629505,5.10625,-19.1223,0.361203,-8.5881,36.6212,-0.298109,2.52355,16.3451,-2.02975,2.25491,9.6659e-15,1.98785e-16,-33.5411,-7.1662,-80.3112,34.175,21.2988,-18.6582,1.93634,7.12502,7.63505,-27.9058,9.6659e-15,1.98785e-16,-29.4156,12.4452,82.9183,24.4829,-12.7818,-11.863,25.8901,7.12502,14.189,55.3855,-14.4282,3.36716,18.3306,30.2008,-22.1665,-6.67766,10.001,-10.1985,-1.75037,-21.2374,22.3234,-15.0427,1.83856,-8.80615
0.585412,17.8,9.77531,-173.906,-3.14857,-179.257,-0.766382,0.0575085,-5.62801,-0.567174,0.100547,1.863,-0.168486,0.066425,5.08947,-19.0692,0.404952,-8.63346,36.5998,-0.255381,2.617,16.3165,-2.00462,2.31182,-5.70264e-15,-2.18663e-15,-33.522,-7.2185,-80.3103,34.1397,21.3565,-18.7267,1.96057,7.12502,7.56893,-27.884,-5.70264e-15,-2.18663e-15,-29.427,12.5409,82.8612,24.4366,-12.7938,-11.5695,26.0487,7.12502,14.4719,55.524,-14.4664,3.39495,18.2708,30.1813,-22.1287,-6.69989,9.8197,-10.2328,-1.77706,-21.2999,22.3332,-15.0373,1.91456,-8.68211
0.584154,17.8026,9.77406,-173.866,-3.10281,-179.259,-0.816727,0.0604885,-5.63971,-0.569117,0.107069,1.87152,-0.143142,0.068869,5.10516,-19.1217,0.420303,-8.73241,36.6099,-0.226489,2.73126,16.3314,-1.98891,2.38594,-8.35517e-15,2.78299e-15,-33.5082,-7.29174,-80.2733,34.1207,21.4792,-18.7064,2.07969,7.12502,7.58851,-27.7642,-8.35517e-15,2.78299e-15,-29.4325,12.5329,82.8862,24.417,-12.6199,-11.4542,26.2272,7.12502,14.5829,55.6945,-14.4884,3.52302,18.2524,30.1374,-22.2075,-6.76791,9.99861,-10.2959,-1.72592,-21.3096,22.3645,-15.1076,1.83801,-8.81877
0.583284,17.8048,9.77292,-173.889,-3.10086,-179.254,-0.789885,0.06219,-5.62512,-0.580363,0.107494,1.87056,-0.169833,0.070138,5.0958,-19.0809,0.371455,-8.69166,36.5865,-0.305957,2.68358,16.3166,-2.0224,2.34204,4.11236e-15,3.54831e-14,-33.5691,-7.35382,-80.2387,34.1381,21.5764,-18.5996,2.108,7.12502,7.69161,-27.7321,4.11236e-15,3.54831e-14,-29.4906,12.5377,82.8827,24.3331,-12.6886,-11.5966,26.1105,7.12502,14.4457,55.5877,-14.438,3.52058,18.2574,30.0958,-22.278,-6.76764,9.95907,-10.2547,-1.69977,-21.3127,22.3859,-15.1834,1.82202,-8.55887
0.58093,17.8094,9.77317,-173.883,-3.11377,-179.249,-0.785993,0.0546314,-5.59644,-0.592334,0.096579,1.87265,-0.182883,0.0651963,5.08158,-19.0259,0.331609,-8.6518,36.5342,-0.364991,2.6318,16.2818,-2.04535,2.30047,-2.28602e-15,-3.77691e-15,-33.5927,-7.405,-80.204,34.1195,21.611,-18.5443,2.20399,7.12502,7.74496,-27.6342,-2.28602e-15,-3.77691e-15,-29.5455,12.5733,82.8587,24.2674,-12.8264,-11.6265,25.9878,7.12502,14.4169,55.4671,-14.4308,3.49126,18.2562,30.0814,-22.2496,-6.76767,9.4656,-10.231,-1.65763,-21.3185,22.3808,-15.3096,1.83667,-7.85902
0.580364,17.8093,9.7738,-173.9,-3.05972,-179.236,-0.734646,0.0721001,-5.58611,-0.601762,0.116823,1.8778,-0.224052,0.0768379,5.0811,-19.0217,0.317454,-8.66278,36.516,-0.385686,2.64798,16.2732,-2.0513,2.30568,-7.11898e-15,7.7526e-15,-33.6023,-7.43775,-80.168,34.0971,21.6111,-18.5591,2.31641,7.12502,7.73069,-27.5223,-7.11898e-15,7.7526e-15,-29.6079,12.564,82.8528,24.2421,-12.8393,-11.5843,25.8959,7.12502,14.4576,55.3723,-14.4274,3.53831,18.2643,30.0975,-22.2156,-6.77881,9.25724,-10.1948,-1.64146,-21.3067,22.3613,-15.3293,1.84971,-7.89616
0.580064,17.8044,9.77323,-173.915,-3.03961,-179.305,-0.730101,0.0592198,-5.68656,-0.583608,0.100591,1.88973,-0.206096,0.0681846,5.15064,-19.013,0.3001,-8.71821,36.4612,-0.381528,2.64955,16.2435,-2.05179,2.31699,-2.52829e-15,2.28602e-15,-33.5653,-7.38758,-80.1325,34.0453,21.5903,-18.7516,2.48332,7.12502,7.54492,-27.3621,-2.52829e-15,2.28602e-15,-29.6197,12.6312,82.8948,24.2125,-12.8965,-11.5752,25.8829,7.12502,14.4663,55.3586,-14.4331,3.49463,18.1834,30.1447,-22.1885,-6.73477,9.19834,-10.1757,-1.72132,-21.3795,22.317,-15.1631,1.85135,-8.49478
0.57797,17.801,9.77318,-173.935,-3.01326,-179.297,-0.726606,0.0705828,-5.64748,-0.577464,0.115608,1.87613,-0.203511,0.0753824,5.11426,-18.9496,0.285701,-8.70902,36.4164,-0.417446,2.66485,16.208,-2.06053,2.31489,3.75827e-15,-6.85807e-15,-33.5709,-7.38972,-80.1366,34.0378,21.4817,-18.8036,2.5552,7.12502,7.49476,-27.292,3.75827e-15,-6.85807e-15,-29.6275,12.5581,82.9287,24.1891,-12.784,-11.764,25.9326,7.12502,14.2844,55.4213,-14.4403,3.41109,18.1806,30.1964,-22.1599,-6.70551,9.03637,-10.1418,-1.74441,-21.3843,22.2688,-15.0394,1.89466,-8.65671
0.575377,17.798,9.77237,-173.951,-2.97601,-179.298,-0.737705,0.071698,-5.60864,-0.575214,0.117702,1.85268,-0.195021,0.0760098,5.0677,-18.9132,0.30501,-8.65373,36.4291,-0.418203,2.65521,16.2051,-2.05782,2.30014,-9.74666e-15,2.98177e-16,-33.5807,-7.39874,-80.1645,34.0403,21.4913,-18.8209,2.68374,7.12502,7.478,-27.1641,-9.74666e-15,2.98177e-16,-29.6691,12.58,82.8998,24.2155,-12.7704,-11.8318,25.8876,7.12502,14.2191,55.3809,-14.4554,3.3562,18.1696,30.2418,-22.1181,-6.65236,9.10151,-10.0961,-1.69035,-21.406,22.2255,-15.0226,1.9355,-8.87627
0.573258,17.797,9.77162,-173.961,-2.94525,-179.249,-0.739567,0.0751331,-5.53904,-0.565805,0.121996,1.86175,-0.184612,0.0773176,5.03762,-18.9009,0.304124,-8.62602,36.3935,-0.416221,2.63428,16.1839,-2.05267,2.28653,-2.98177e-16,-9.74045e-15,-33.5568,-7.42999,-80.1459,34.0224,21.5583,-18.7956,2.83125,7.12502,7.50244,-27.0157,-2.98177e-16,-9.74045e-15,-29.6805,12.5099,82.9374,24.2289,-12.7019,-11.8769,25.9093,7.12502,14.1756,55.4056,-14.4583,3.34857,18.213,30.2635,-22.1141,-6.58153,9.52258,-10.0619,-1.66392,-21.3637,22.1989,-15.0402,1.94564,-8.83601
0.573108,17.7981,9.77469,-173.953,-2.94546,-179.303,-0.708339,0.0730013,-5.58942,-0.55978,0.118267,1.84966,-0.195568,0.0759715,5.05357,-18.901,0.283417,-8.61924,36.3412,-0.437351,2.63484,16.1593,-2.05408,2.28212,4.91371e-15,-7.55382e-15,-33.5022,-7.49518,-80.1202,33.9509,21.5162,-18.8795,3.03606,7.12502,7.42148,-26.8138,4.91371e-15,-7.55382e-15,-29.6752,12.4449,83.0002,24.2864,-12.6279,-11.8048,25.9551,7.12502,14.2451,55.4465,-14.4805,3.43103,18.1486,30.2871,-22.1819,-6.59222,9.60913,-10.0679,-1.6598,-21.4163,22.1763,-15.041,1.87982,-8.7939
0.571615,17.8004,9.77619,-173.916,-2.93123,-179.409,-0.745189,0.0526387,-5.69557,-0.551517,0.0943023,1.83084,-0.163501,0.0632187,5.09424,-18.9161,0.283115,-8.59912,36.3162,-0.429853,2.61717,16.1498,-2.04755,2.27254,-3.47873e-15,-6.06293e-15,-33.4371,-7.41363,-80.1184,33.8899,21.3683,-18.8892,3.15998,7.12502,7.41213,-26.6902,-3.47873e-15,-6.06293e-15,-29.6564,12.5861,82.9866,24.2683,-12.703,-11.6672,25.9127,7.12502,14.3777,55.3947,-14.5224,3.50966,18.0144,30.2919,-22.2141,-6.60609,9.70994,-10.1136,-1.64017,-21.5412,22.1741,-15.0252,1.88599,-8.71202
0.570808,17.7997,9.7778,-173.882,-2.88549,-179.467,-0.764242,0.0376537,-5.76704,-0.564355,0.0755326,1.82724,-0.16379,0.0543492,5.13105,-18.8496,0.304286,-8.569,36.2291,-0.390704,2.58496,16.0866,-2.02525,2.26016,6.4605e-15,8.64713e-15,-33.4622,-7.39213,-80.1061,33.9811,21.3809,-18.7226,3.0616,7.12502,7.57295,-26.7828,6.4605e-15,8.64713e-15,-29.6718,12.7648,82.9451,24.2266,-12.8502,-11.5998,25.7679,7.12502,14.4427,55.2453,-14.5699,3.51101,17.9326,30.3033,-22.1807,-6.50595,10.0603,-10.1467,-1.64392,-21.6146,22.1746,-15.0221,1.95237,-8.75965
0.570013,17.7985,9.77949,-173.881,-2.84461,-179.414,-0.751238,0.043282,-5.72479,-0.549111,0.0821546,1.85602,-0.156179,0.0568702,5.13712,-18.884,0.304315,-8.56071,36.1769,-0.36911,2.57888,16.0671,-2.00841,2.26102,-1.0225e-14,4.96962e-16,-33.4518,-7.45846,-80.047,34.0526,21.4472,-18.546,3.00715,7.12502,7.74335,-26.8311,-1.0225e-14,4.96962e-16,-29.6352,12.6749,83.0258,24.2489,-12.7789,-11.6119,25.8129,7.12502,14.431,55.2912,-14.5888,3.47952,17.9781,30.2911,-22.1345,-6.41578,10.0601,-10.1678,-1.61772,-21.5678,22.2065,-15.067,2.00762,-8.98599
0.569944,17.7968,9.78289,-173.918,-2.82912,-179.357,-0.706137,0.0407415,-5.66391,-0.492452,0.0775024,1.86062,-0.122221,0.0520942,5.10723,-18.9999,0.281099,-8.57438,36.1683,-0.389962,2.63133,16.0923,-2.00497,2.28424,-2.36057e-16,-8.44835e-15,-33.3625,-7.58163,-80.0337,33.998,21.6057,-18.6293,3.09109,7.12502,7.66299,-26.7501,-2.36057e-16,-8.44835e-15,-29.5327,12.6988,83.0491,24.2376,-12.8295,-11.676,25.9244,7.12502,14.3693,55.4071,-14.5577,3.4972,18.0484,30.2702,-22.1184,-6.47124,9.57076,-10.1743,-1.62124,-21.5057,22.278,-15.1293,2.01598,-9.13003
0.569351,17.7976,9.78531,-173.948,-2.84167,-179.238,-0.666462,0.0364426,-5.52759,-0.453418,0.0694129,1.88378,-0.102884,0.0460986,5.0538,-19.1137,0.266169,-8.53274,36.1987,-0.396134,2.59498,16.1359,-2.00549,2.26113,3.3048e-15,1.2921e-14,-33.3106,-7.6307,-80.0349,33.9976,21.62,-18.6313,2.99119,7.12502,7.66104,-26.85,3.3048e-15,1.2921e-14,-29.4583,12.6648,83.0726,24.192,-12.9106,-11.7514,25.8564,7.12502,14.2966,55.3442,-14.528,3.57669,18.1851,30.2336,-22.1071,-6.62452,8.94218,-10.1956,-1.64548,-21.3709,22.361,-15.1702,2.01033,-8.86077
0.567775,17.7956,9.78655,-173.984,-2.84304,-179.171,-0.626645,0.0220678,-5.47565,-0.442212,0.0474082,1.93432,-0.110845,0.0347277,5.07688,-19.1486,0.279732,-8.52347,36.2434,-0.360129,2.53202,16.1646,-2.00308,2.23842,-4.4975e-15,-3.67752e-15,-33.3677,-7.5866,-80.0032,34.1066,21.5922,-18.6545,2.73518,7.12502,7.6386,-27.1069,-4.4975e-15,-3.67752e-15,-29.4585,12.5993,83.1702,24.2035,-12.9394,-11.7133,26.0013,7.12502,14.3333,55.4865,-14.4788,3.60147,18.2562,30.1949,-22.0611,-6.69216,8.52031,-10.2054,-1.59242,-21.3074,22.441,-15.2269,1.99868,-8.89008
0.566243,17.7948,9.78787,-173.984,-2.77443,-179.132,-0.630357,0.0314062,-5.4521,-0.44036,0.0594032,1.9692,-0.108424,0.0403615,5.09999,-19.1404,0.298535,-8.51303,36.2308,-0.330436,2.52164,16.1538,-1.99013,2.23754,1.2424e-17,-1.54058e-14,-33.39,-7.50763,-79.9803,34.1367,21.433,-18.6259,2.55198,7.12502,7.66628,-27.2891,1.2424e-17,-1.54058e-14,-29.4716,12.5503,83.2741,24.2812,-12.9079,-11.4085,26.1463,7.12502,14.627,55.6105,-14.4916,3.6611,18.2846,30.1676,-21.9998,-6.72868,8.34781,-10.2458,-1.57063,-21.2837,22.5033,-15.2629,2.06198,-9.01828
0.563461,17.7969,9.79021,-173.943,-2.72994,-179.013,-0.69257,0.034026,-5.29841,-0.422794,0.0645397,2.00136,-0.0558007,0.0401675,5.04623,-19.1608,0.281317,-8.52404,36.1761,-0.338188,2.53054,16.132,-1.98651,2.24262,-2.07481e-15,9.64106e-15,-33.3248,-7.49403,-79.979,34.1184,21.3901,-18.4867,2.26304,7.12502,7.80056,-27.5731,-2.07481e-15,9.64106e-15,-29.4344,12.5022,83.3499,24.3715,-12.8562,-11.3205,26.2489,7.12502,14.7117,55.7069,-14.558,3.81437,18.3922,30.1836,-22.0015,-6.8143,8.35106,-10.3291,-1.61422,-21.1681,22.5149,-15.2467,2.16153,-9.11075
0.560304,17.7964,9.79403,-173.903,-2.7716,-179.083,-0.681424,0.00572929,-5.31849,-0.432603,0.0266873,1.9708,-0.0673551,0.022007,5.02549,-19.1426,0.265565,-8.547,36.13,-0.375431,2.60466,16.1067,-1.98978,2.27232,-2.19906e-15,-7.15625e-15,-33.3473,-7.40271,-80.0101,34.1922,21.295,-18.3867,2.12577,7.12502,7.89712,-27.7067,-2.19906e-15,-7.15625e-15,-29.447,12.3044,83.4464,24.4726,-12.5892,-11.5811,26.2189,7.12502,14.4606,55.6951,-14.6262,3.83843,18.3024,30.2331,-22.0521,-6.90348,8.03708,-10.3798,-1.65579,-21.2589,22.4741,-15.1869,2.18534,-9.19387
0.555484,17.7934,9.7988,-173.862,-2.80472,-179.292,-0.597178,-0.0244747,-5.47507,-0.495186,-0.017423,1.92357,-0.173724,0.00537639,5.06501,-19.1054,0.275024,-8.58033,36.1661,-0.366358,2.59804,16.1154,-1.99853,2.27583,-6.21202e-16,-7.45443e-15,-33.4894,-7.33775,-79.9643,34.2668,21.3459,-18.417,2.28288,7.12502,7.86786,-27.5507,-6.21202e-16,-7.45443e-15,-29.5293,12.2212,83.5381,24.5506,-12.4324,-11.8484,26.1454,7.12502,14.203,55.6398,-14.7002,3.83311,18.0427,30.2981,-22.0974,-6.87191,7.9866,-10.4107,-1.65944,-21.5178,22.427,-15.1381,2.17252,-9.38399
0.550881,17.7925,9.79974,-173.851,-2.82358,-179.426,-0.584802,-0.0445365,-5.55145,-0.502601,-0.043887,1.87554,-0.184936,-0.00686027,5.05818,-19.0554,0.271795,-8.56788,36.1431,-0.385583,2.60316,16.093,-2.00381,2.27171,5.06901e-15,3.97569e-15,-33.552,-7.3062,-79.9499,34.2931,21.3385,-18.5582,2.46917,7.12502,7.73162,-27.3695,5.06901e-15,3.97569e-15,-29.5574,12.2607,83.5558,24.647,-12.4155,-11.7201,25.9657,7.12502,14.3267,55.4514,-14.7531,3.72703,17.8765,30.3872,-22.0365,-6.84248,7.62441,-10.3969,-1.75126,-21.6882,22.3854,-15.104,2.26235,-9.43568
0.547578,17.7914,9.8005,-173.878,-2.87167,-179.437,-0.573848,-0.0611149,-5.52962,-0.468104,-0.065837,1.88025,-0.152639,-0.0196725,5.05057,-19.0387,0.237415,-8.60278,36.0933,-0.428099,2.63034,16.0676,-2.01726,2.28194,8.83349e-15,-5.36719e-15,-33.5356,-7.36703,-79.8975,34.3051,21.4516,-18.6798,2.6532,7.12502,7.61426,-27.1897,8.83349e-15,-5.36719e-15,-29.5194,12.2461,83.639,24.7626,-12.3572,-11.5722,25.8922,7.12502,14.4692,55.3678,-14.7617,3.66737,17.8558,30.472,-22.051,-6.82687,7.38619,-10.3703,-1.74617,-21.716,22.3667,-15.0577,2.3135,-9.62561
0.545993,17.7882,9.80439,-173.919,-2.86612,-179.449,-0.491238,-0.0669872,-5.53515,-0.451049,-0.0774472,1.88184,-0.179916,-0.0248821,5.05539,-19.0391,0.218036,-8.63377,36.0631,-0.460064,2.6838,16.0549,-2.02372,2.30498,4.96962e-17,-8.94531e-16,-33.4688,-7.48501,-79.8512,34.2238,21.5821,-18.8082,2.8533,7.12502,7.4903,-26.9941,4.96962e-17,-8.94531e-16,-29.5126,12.1339,83.7354,24.8665,-12.2157,-11.6834,26.0585,7.12502,14.3621,55.5416,-14.7547,3.70782,17.8393,30.527,-22.0586,-6.82096,7.67142,-10.3659,-1.69617,-21.7462,22.3955,-15.0475,2.32588,-9.7081
0.544206,17.7866,9.805,-173.962,-2.81086,-179.424,-0.435939,-0.0726575,-5.52191,-0.445441,-0.0879131,1.89225,-0.203828,-0.0295295,5.05875,-19.0556,0.240536,-8.62754,36.0757,-0.444868,2.72678,16.0633,-2.01166,2.32555,-1.45982e-14,7.15625e-15,-33.4254,-7.45332,-79.8634,34.1624,21.5147,-18.8434,2.81924,7.12502,7.45635,-27.0294,-1.45982e-14,7.15625e-15,-29.5302,12.0451,83.7901,24.9364,-12.2108,-11.6704,26.3178,7.12502,14.3746,55.8001,-14.7394,3.82336,17.8518,30.5666,-22.1012,-6.80211,7.91223,-10.3613,-1.72712,-21.7334,22.4743,-15.1251,2.36987,-9.55853
0.539633,17.7848,9.80377,-173.963,-2.76283,-179.427,-0.429736,-0.0754742,-5.48329,-0.461157,-0.0924832,1.88284,-0.222974,-0.0309995,5.02696,-19.0536,0.253368,-8.61104,36.0958,-0.445048,2.74377,16.0724,-2.01,2.32974,7.01958e-15,-1.2424e-14,-33.4602,-7.41436,-79.8695,34.1422,21.4347,-18.8904,2.51034,7.12502,7.4109,-27.3399,7.01958e-15,-1.2424e-14,-29.5535,11.9698,83.8336,24.9765,-12.2045,-11.5872,26.3684,7.12502,14.4548,55.845,-14.7595,3.83235,17.8202,30.6124,-22.1335,-6.74395,8.10185,-10.3833,-1.74445,-21.7664,22.5557,-15.1959,2.46619,-9.5581
0.535696,17.782,9.80678,-173.984,-2.79179,-179.392,-0.356181,-0.103063,-5.44033,-0.46077,-0.133741,1.92641,-0.258595,-0.0508566,5.04806,-19.07,0.252805,-8.60711,36.0942,-0.426215,2.69285,16.0746,-2.00911,2.3102,-5.42931e-15,1.11319e-14,-33.4342,-7.34173,-79.8232,34.0684,21.3897,-18.9001,2.44717,7.12502,7.40162,-27.4034,-5.42931e-15,1.11319e-14,-29.5616,11.9704,83.9217,25.0354,-12.2373,-11.5226,26.2594,7.12502,14.517,55.7315,-14.7597,3.83474,17.8512,30.6524,-22.1981,-6.82938,7.67484,-10.4134,-1.72881,-21.7582,22.626,-15.1872,2.49937,-9.85139
0.529921,17.7811,9.81209,-173.929,-2.83569,-179.427,-0.298587,-0.158833,-5.44379,-0.517458,-0.21271,1.94801,-0.339284,-0.0867504,5.07274,-19.0441,0.286178,-8.57031,36.1015,-0.375667,2.62758,16.0681,-1.99618,2.28375,3.35449e-15,5.1684e-15,-33.4402,-7.22411,-79.7709,33.9517,21.391,-18.9504,2.64744,7.12502,7.35305,-27.2048,3.35449e-15,5.1684e-15,-29.621,12.0163,83.9899,25.1468,-12.1746,-11.5,26.2615,7.12502,14.5388,55.732,-14.8399,3.79614,17.794,30.6892,-22.1745,-6.80047,7.68742,-10.5273,-1.73617,-21.8194,22.6842,-15.2043,2.46343,-9.69241
0.522662,17.7798,9.81369,-173.926,-2.82274,-179.431,-0.220763,-0.157642,-5.3726,-0.54694,-0.215829,1.93916,-0.41321,-0.0856626,5.02334,-19.0727,0.27956,-8.60072,36.1326,-0.396741,2.68122,16.092,-2.004,2.3087,-2.98177e-16,1.19271e-15,-33.4758,-7.30761,-79.7043,33.9356,21.4941,-19.0171,2.69607,7.12502,7.28862,-27.1584,-2.98177e-16,1.19271e-15,-29.5967,12.0207,84.0351,25.1774,-12.1796,-11.3364,26.4534,7.12502,14.6964,55.9125,-14.8577,3.73294,17.7608,30.7318,-22.1439,-6.60138,8.03439,-10.5618,-1.71147,-21.8638,22.7384,-15.2216,2.48897,-9.74602
0.516478,17.7773,9.81167,-173.977,-2.77677,-179.468,-0.193262,-0.116797,-5.33709,-0.489459,-0.160966,1.90634,-0.376399,-0.0604954,4.9688,-19.1949,0.242109,-8.55788,36.1395,-0.425531,2.64131,16.1279,-2.01003,2.28019,-1.2921e-15,1.45113e-14,-33.4677,-7.45295,-79.6514,34.0422,21.5058,-19.0262,2.73096,7.12502,7.27984,-27.1238,-1.2921e-15,1.45113e-14,-29.4267,11.9573,84.142,25.1184,-12.2156,-11.4145,26.4558,7.12502,14.6212,55.9204,-14.8231,3.6987,17.6929,30.7846,-22.1729,-6.48512,7.91455,-10.5137,-1.65164,-21.948,22.7887,-15.2743,2.56845,-10.0585
0.51135,17.7738,9.81092,-174.036,-2.75781,-179.487,-0.179821,-0.105541,-5.30931,-0.428395,-0.145044,1.88927,-0.323001,-0.0554558,4.9351,-19.2186,0.226964,-8.49331,36.0746,-0.437166,2.60815,16.1019,-2.00139,2.25321,-1.07468e-14,7.95139e-16,-33.4419,-7.57519,-79.6184,34.0397,21.5572,-19.0309,2.84632,7.12502,7.27528,-27.0086,-1.07468e-14,7.95139e-16,-29.3175,11.8433,84.2341,25.1529,-12.215,-11.5031,26.3143,7.12502,14.5358,55.7851,-14.788,3.72108,17.6582,30.853,-22.2408,-6.59135,7.58609,-10.462,-1.59221,-21.9988,22.8374,-15.3484,2.59466,-10.1948
0.507707,17.77,9.81566,-174.076,-2.75832,-179.497,-0.119661,-0.120359,-5.29556,-0.402066,-0.167269,1.8942,-0.326853,-0.0670566,4.93255,-19.17,0.216174,-8.54271,36.032,-0.463348,2.67475,16.0706,-2.00703,2.28572,-1.06847e-15,-6.36111e-15,-33.4106,-7.6306,-79.5843,33.9377,21.6072,-19.0074,2.8934,7.12502,7.29803,-26.9607,-1.06847e-15,-6.36111e-15,-29.292,11.8215,84.3181,25.217,-12.2268,-11.6264,26.2145,7.12502,14.417,55.6937,-14.7971,3.84228,17.637,30.9595,-22.3834,-6.66276,8.07733,-10.4433,-1.49422,-22.0223,22.8444,-15.3625,2.50055,-10.1501
0.503112,17.768,9.82068,-174.054,-2.75291,-179.522,-0.0827988,-0.14615,-5.30918,-0.422061,-0.204054,1.90626,-0.363522,-0.0839094,4.95307,-19.0327,0.20918,-8.60831,35.9325,-0.483514,2.73697,15.9891,-2.01101,2.31929,-6.4605e-16,6.16232e-15,-33.4122,-7.6657,-79.5116,33.8947,21.6171,-18.7936,2.88254,7.12502,7.50436,-26.9643,-6.4605e-16,6.16232e-15,-29.3055,11.7465,84.3965,25.2893,-12.113,-11.6201,26.2254,7.12502,14.423,55.7043,-14.9107,3.9624,17.5918,31.0993,-22.4665,-6.71941,8.40356,-10.4824,-1.28234,-22.0697,22.8122,-15.348,2.32407,-10.3773
0.496453,17.7668,9.82195,-174.047,-2.70013,-179.72,-0.0933316,-0.171521,-5.48604,-0.412275,-0.236624,1.882,-0.342964,-0.100175,5.02829,-18.9532,0.206814,-8.70016,35.8932,-0.479018,2.77107,15.9504,-2.01737,2.34988,-9.69075e-16,-4.96962e-15,-33.3699,-7.65985,-79.4141,33.857,21.6026,-18.4978,2.79349,7.12502,7.78993,-27.043,-9.69075e-16,-4.96962e-15,-29.233,11.7576,84.4925,25.2972,-12.0184,-11.5233,26.3604,7.12502,14.5164,55.8326,-15.0019,3.94476,17.3495,31.2579,-22.4535,-6.69306,8.06016,-10.4546,-1.31451,-22.3151,22.7684,-15.3478,2.31353,-9.98391
0.488782,17.7666,9.82196,-174.007,-2.6689,-179.887,-0.119746,-0.220484,-5.64015,-0.433252,-0.30095,1.89142,-0.340887,-0.131386,5.12579,-18.8661,0.249202,-8.83936,35.9089,-0.420332,2.84658,15.9323,-2.00911,2.41623,-3.36692e-15,-1.07344e-14,-33.3346,-7.51759,-79.3333,33.7546,21.5572,-18.4253,2.63649,7.12502,7.85981,-27.1974,-3.36692e-15,-1.07344e-14,-29.2697,11.778,84.6111,25.3774,-11.8503,-11.5512,26.3615,7.12502,14.4895,55.8356,-15.1067,3.84433,17.1313,31.4077,-22.4669,-6.58046,7.88309,-10.4608,-1.30153,-22.5281,22.7256,-15.3136,2.31222,-9.76369
0.482463,17.7663,9.82653,-173.94,-2.64969,-179.874,-0.130666,-0.232567,-5.59215,-0.45955,-0.317287,1.89724,-0.359957,-0.138635,5.10459,-18.7836,0.2641,-8.83257,35.876,-0.424295,2.87522,15.8958,-2.0059,2.42575,-1.9133e-15,4.77083e-15,-33.3768,-7.54809,-79.3064,33.7366,21.5402,-18.5846,2.78073,7.12502,7.70606,-27.0589,-1.9133e-15,4.77083e-15,-29.232,11.6442,84.7075,25.3955,-11.6892,-11.5787,26.205,7.12502,14.4629,55.681,-15.2843,3.83844,17.1151,31.5463,-22.4641,-6.56428,8.10216,-10.524,-1.34822,-22.5284,22.6867,-15.3001,2.33469,-9.30396
0.477225,17.7665,9.82993,-173.909,-2.61215,-179.754,-0.120502,-0.229421,-5.43251,-0.469881,-0.314298,1.91345,-0.377325,-0.137188,5.03081,-18.7352,0.27786,-8.73699,35.8459,-0.430841,2.84033,15.8692,-1.99919,2.39211,-1.57785e-15,-2.18663e-15,-33.3942,-7.65968,-79.2829,33.6865,21.5726,-18.7961,3.10918,7.12502,7.50199,-26.7378,-1.57785e-15,-2.18663e-15,-29.1953,11.4455,84.7761,25.4075,-11.5475,-11.6714,25.629,7.12502,14.3736,55.1113,-15.4372,3.92415,17.2219,31.6735,-22.4388,-6.59685,8.40693,-10.5596,-1.3894,-22.4082,22.6544,-15.2338,2.36627,-9.19156
0.472599,17.7665,9.83152,-173.91,-2.51683,-179.726,-0.0964824,-0.238646,-5.38747,-0.472215,-0.328084,1.92606,-0.391606,-0.143859,5.01849,-18.7087,0.299591,-8.73519,35.8537,-0.412275,2.84427,15.8649,-1.99413,2.39613,-7.95139e-15,5.36719e-15,-33.387,-7.73049,-79.2474,33.6287,21.706,-18.899,3.27975,7.12502,7.40264,-26.5707,-7.95139e-15,5.36719e-15,-29.2103,11.4148,84.8215,25.456,-11.4993,-11.8265,25.3035,7.12502,14.2242,54.7965,-15.5523,4.02894,17.2292,31.8006,-22.3864,-6.76436,7.6497,-10.5476,-1.41289,-22.3967,22.6345,-15.2048,2.45368,-9.07152
0.467016,17.7671,9.83395,-173.859,-2.42814,-179.82,-0.115058,-0.253452,-5.47038,-0.492014,-0.347106,1.91074,-0.398877,-0.152287,5.04965,-18.6858,0.316414,-8.71776,35.8796,-0.402809,2.82601,15.8712,-1.99587,2.38598,7.57867e-16,3.18055e-15,-33.379,-7.64297,-79.2534,33.5979,21.6093,-18.8582,3.25363,7.12502,7.44201,-26.5955,7.57867e-16,3.18055e-15,-29.2461,11.4939,84.8437,25.5046,-11.6949,-11.8296,25.3734,7.12502,14.2212,54.8666,-15.7116,4.17876,17.0955,31.9465,-22.3851,-6.94937,7.26079,-10.5851,-1.30822,-22.5245,22.6007,-15.2254,2.42428,-8.99225
0.459726,17.7652,9.83732,-173.887,-2.3379,-179.92,-0.0551329,-0.254218,-5.54923,-0.449904,-0.349819,1.8841,-0.388461,-0.154331,5.06684,-18.7183,0.314325,-8.64488,35.8411,-0.403863,2.78953,15.8599,-1.986,2.35776,-3.00662e-15,8.94531e-15,-33.284,-7.65779,-79.2547,33.4755,21.5158,-18.8727,3.34917,7.12502,7.42807,-26.5004,-3.00662e-15,8.94531e-15,-29.1534,11.6009,84.8646,25.4933,-11.8803,-11.8116,25.5694,7.12502,14.2386,55.0613,-15.7854,4.17432,16.9538,32.1236,-22.3332,-6.82839,7.48987,-10.5369,-1.15199,-22.6651,22.55,-15.2403,2.35116,-8.90616
0.452428,17.7631,9.83911,-173.971,-2.2337,-179.99,0.0574876,-0.214664,-5.5701,-0.389375,-0.301058,1.83628,-0.395626,-0.130651,5.02906,-18.7966,0.285279,-8.5917,35.8548,-0.470013,2.83327,15.8902,-1.99719,2.35645,5.14355e-15,4.37326e-15,-33.2603,-7.89082,-79.2015,33.4137,21.486,-18.7701,3.50772,7.12502,7.52706,-26.3384,5.14355e-15,4.37326e-15,-29.0713,11.5072,84.9025,25.5276,-11.8807,-11.6769,25.7592,7.12502,14.3683,55.242,-15.8309,4.12858,16.8521,32.3144,-22.2721,-6.75799,7.18524,-10.4319,-1.00244,-22.7797,22.5154,-15.253,2.24251,-9.216
0.445144,17.7596,9.84015,-174.015,-2.10024,-180.038,0.147026,-0.174826,-5.56705,-0.397769,-0.252588,1.80622,-0.46092,-0.103974,4.9962,-18.7254,0.285333,-8.57278,35.8866,-0.511477,2.84957,15.8917,-2.01682,2.35121,-3.52843e-15,-3.57812e-15,-33.36,-8.04901,-79.1398,33.4245,21.5964,-18.7101,3.49784,7.12502,7.585,-26.3461,-3.52843e-15,-3.57812e-15,-29.1662,11.304,84.9759,25.6628,-11.7708,-11.6279,25.9578,7.12502,14.4155,55.4372,-15.9255,4.2068,16.7624,32.5253,-22.2797,-6.76341,6.92401,-10.3707,-0.94478,-22.8748,22.5063,-15.2349,2.28184,-9.31109
0.439128,17.7557,9.84487,-174.04,-1.98873,-180.043,0.23364,-0.176594,-5.57268,-0.388222,-0.259439,1.8196,-0.498762,-0.106382,5.01375,-18.7285,0.30555,-8.52116,35.9186,-0.496722,2.80909,15.9068,-2.01429,2.32669,2.26118e-15,7.35503e-15,-33.3327,-7.95315,-79.1618,33.4337,21.6438,-18.7954,3.36546,7.12502,7.50263,-26.4815,2.26118e-15,7.35503e-15,-29.1664,11.2601,85.0174,25.7051,-11.799,-11.7705,25.8135,7.12502,14.2781,55.3027,-16.0564,4.31681,16.728,32.7691,-22.2905,-6.77521,6.90933,-10.3637,-0.852674,-22.9073,22.5159,-15.2252,2.33207,-9.36605
0.432784,17.7525,9.84989,-173.986,-1.90481,-180.133,0.201472,-0.18142,-5.66903,-0.350211,-0.263532,1.82259,-0.440576,-0.110733,5.07142,-18.8069,0.277267,-8.47792,35.9109,-0.501827,2.7095,15.9232,-2.02123,2.27561,8.12532e-15,2.92213e-14,-33.2155,-7.89998,-79.1546,33.4337,21.658,-18.8023,3.03631,7.12502,7.49593,-26.8109,8.12532e-15,2.92213e-14,-29.116,11.073,85.1616,25.8647,-11.5953,-11.7892,25.7967,7.12502,14.2602,55.2871,-16.2986,4.28117,16.5864,33.0402,-22.2467,-6.69109,6.64701,-10.461,-0.711338,-23.0301,22.5443,-15.2349,2.31691,-9.40429
0.423372,17.7516,9.85156,-173.943,-1.79428,-180.202,0.184459,-0.183885,-5.69283,-0.340491,-0.265629,1.81029,-0.420672,-0.112517,5.07201,-18.8882,0.297909,-8.39426,35.9287,-0.447893,2.60097,15.9478,-2.00234,2.22434,-1.59028e-15,1.31198e-14,-33.2187,-7.86246,-79.1478,33.4901,21.666,-18.6941,2.84363,7.12502,7.60043,-26.9998,-1.59028e-15,1.31198e-14,-29.1389,10.8713,85.2566,26.0252,-11.3842,-11.8006,25.8809,7.12502,14.2492,55.372,-16.5388,4.12889,16.463,33.316,-22.0696,-6.65027,5.70891,-10.5254,-0.49596,-23.1513,22.5771,-15.2595,2.23398,-9.30876
0.412566,17.7504,9.85311,-173.938,-1.68243,-180.156,0.236116,-0.16317,-5.58346,-0.356666,-0.241043,1.82664,-0.46988,-0.0987741,5.02706,-18.8918,0.32979,-8.31352,35.934,-0.389279,2.49133,15.947,-1.98392,2.17311,3.15571e-15,3.37934e-15,-33.3125,-7.96901,-79.0738,33.5295,21.8143,-18.8353,3.11,7.12502,7.46413,-26.7383,3.15571e-15,3.37934e-15,-29.1096,10.6885,85.3451,25.9583,-11.2657,-11.909,25.8977,7.12502,14.1447,55.3962,-16.7239,3.98647,16.4784,33.593,-21.848,-6.6145,4.56893,-10.5454,-0.398745,-23.1534,22.5989,-15.342,2.24711,-9.49916
0.402194,17.7471,9.85509,-173.949,-1.63997,-180.209,0.294571,-0.195293,-5.58688,-0.347664,-0.287034,1.85085,-0.487388,-0.121498,5.05477,-18.8612,0.350329,-8.40591,35.8737,-0.326097,2.51235,15.9052,-1.96341,2.2099,-1.88845e-15,1.2921e-14,-33.267,-7.84298,-79.0335,33.4955,21.709,-18.9634,3.44565,7.12502,7.34049,-26.407,-1.88845e-15,1.2921e-14,-29.0529,10.7643,85.3855,25.9042,-11.3567,-11.8349,25.7879,7.12502,14.2161,55.2814,-16.8509,3.90704,16.3816,33.8569,-21.7658,-6.50803,4.54567,-10.558,-0.24084,-23.2523,22.6438,-15.3989,2.075,-9.60766
0.393625,17.7456,9.85587,-173.941,-1.56941,-180.288,0.303871,-0.206192,-5.65674,-0.304757,-0.301434,1.85888,-0.44612,-0.130742,5.10288,-18.8969,0.32433,-8.55506,35.8457,-0.356609,2.66879,15.9018,-1.96978,2.29902,1.01877e-15,-4.57205e-15,-33.1615,-7.74687,-79.0544,33.5135,21.5294,-19.0495,3.42094,7.12502,7.25734,-26.4346,1.01877e-15,-4.57205e-15,-28.9817,10.6529,85.4736,25.9904,-11.2285,-11.8166,25.7862,7.12502,14.2338,55.2784,-17.0122,3.73531,16.2512,34.1189,-21.7127,-6.34305,4.16945,-10.5878,-0.145113,-23.3841,22.6967,-15.4454,2.09264,-10.0746
0.38457,17.7414,9.85788,-173.91,-1.42064,-180.337,0.333075,-0.173546,-5.65713,-0.256188,-0.258327,1.84167,-0.418058,-0.111141,5.08486,-19.0213,0.266795,-8.63108,35.8137,-0.414069,2.75862,15.9205,-1.9818,2.34276,5.11871e-15,8.94531e-15,-33.1414,-7.70701,-79.0968,33.7192,21.3471,-18.9584,3.20686,7.12502,7.34527,-26.6456,5.11871e-15,8.94531e-15,-28.8817,10.5431,85.5424,26.0481,-11.2176,-11.6343,25.7746,7.12502,14.4094,55.2544,-17.2349,3.62883,16.1435,34.4092,-21.73,-6.05361,4.75092,-10.6204,-0.0612831,-23.4864,22.7169,-15.5172,2.12142,-10.2379
0.377576,17.7375,9.86185,-173.933,-1.28235,-180.4,0.424309,-0.166582,-5.74014,-0.232001,-0.254003,1.85904,-0.444525,-0.108408,5.15054,-19.0012,0.254535,-8.65034,35.7611,-0.413867,2.73776,15.8901,-1.98357,2.33677,-2.26118e-15,1.03368e-14,-33.2153,-7.52534,-79.1176,33.959,21.1413,-18.6793,2.81364,7.12502,7.61466,-27.0293,-2.26118e-15,1.03368e-14,-28.8563,10.602,85.5954,26.0798,-11.2538,-11.4973,25.8564,7.12502,14.5414,55.3267,-17.4093,3.66394,16.0413,34.7338,-21.7828,-5.87194,5.51121,-10.6126,0.0500853,-23.5902,22.7353,-15.5463,2.10143,-10.1396
0.371318,17.7383,9.86415,-173.908,-1.17861,-180.409,0.453511,-0.182715,-5.77918,-0.246141,-0.278017,1.91124,-0.471997,-0.119211,5.22768,-18.8652,0.292377,-8.69708,35.6872,-0.35334,2.72885,15.8161,-1.96541,2.35043,7.20594e-16,-6.55989e-15,-33.2797,-7.35207,-79.0894,34.0734,20.9794,-18.4902,2.67662,7.12502,7.79725,-27.1596,7.20594e-16,-6.55989e-15,-28.9304,10.6641,85.6659,26.1719,-11.2401,-11.4493,26.0162,7.12502,14.5877,55.4832,-17.6534,3.71217,16.0069,35.0856,-21.7512,-5.93736,5.46523,-10.6482,0.149045,-23.6208,22.7527,-15.5666,2.04557,-9.71161
0.365428,17.7382,9.86833,-173.902,-1.10383,-180.416,0.583359,-0.195745,-5.76509,-0.273339,-0.30319,1.92303,-0.56968,-0.127999,5.23297,-18.8011,0.347845,-8.64031,35.7085,-0.296912,2.68262,15.8063,-1.94746,2.32944,-2.41026e-15,5.96354e-15,-33.3237,-7.36918,-79.0681,34.0874,21.0355,-18.4632,2.81491,7.12502,7.8233,-27.0203,-2.41026e-15,5.96354e-15,-28.9971,10.7371,85.6492,26.1796,-11.3325,-11.6185,25.7648,7.12502,14.4246,55.2435,-17.897,3.63468,15.9705,35.4611,-21.664,-5.85862,5.50381,-10.6823,0.260621,-23.6504,22.762,-15.5636,1.95177,-9.40282
0.359723,17.7379,9.8742,-173.842,-1.03153,-180.435,0.646508,-0.230282,-5.78608,-0.29264,-0.353409,1.93737,-0.618208,-0.151,5.26085,-18.8302,0.372655,-8.68025,35.8364,-0.303306,2.75025,15.8761,-1.96147,2.36358,-4.17448e-15,1.92821e-14,-33.3179,-7.36049,-79.087,34.056,21.1715,-18.675,3.12876,7.12502,7.61882,-26.714,-4.17448e-15,1.92821e-14,-29.0087,10.7053,85.6539,26.1642,-11.3531,-11.7367,25.772,7.12502,14.3107,55.2589,-18.2281,3.41613,15.9427,35.8416,-21.4334,-5.78077,4.89385,-10.792,0.320039,-23.6912,22.8073,-15.5488,1.9283,-9.16351
0.353025,17.7346,9.87983,-173.842,-0.880995,-180.468,0.729486,-0.220348,-5.80942,-0.277696,-0.344737,1.94678,-0.650384,-0.145857,5.28435,-18.9021,0.305759,-8.99344,35.9653,-0.454337,3.12058,15.9684,-2.02759,2.55184,-3.75206e-15,2.44505e-14,-33.2871,-7.29481,-79.101,34.0571,21.0918,-18.7168,3.0227,7.12502,7.57849,-26.8215,-3.75206e-15,2.44505e-14,-28.9818,10.7037,85.6678,26.1665,-11.3895,-11.7274,25.85,7.12502,14.3197,55.3362,-18.5161,3.2082,15.8996,36.2554,-21.2133,-5.62787,4.21401,-10.8212,0.300381,-23.7698,22.851,-15.5692,2.10493,-9.3684
0.347356,17.7296,9.88432,-173.869,-0.654117,-180.4,0.862476,-0.18205,-5.76029,-0.235978,-0.300135,1.97505,-0.688094,-0.123698,5.28605,-19.0109,-2.98411,-7.88567,36.0729,0.906411,1.64437,16.0889,0.519863,2.56039,-1.3418e-15,9.14409e-15,-33.2128,-7.26258,-79.1309,34.1113,20.9891,-18.4557,2.70197,7.12502,7.83048,-27.133,-1.3418e-15,9.14409e-15,-28.8929,10.7274,85.6535,26.1918,-11.402,-11.7819,25.8276,7.12502,14.2671,55.3175,-18.7997,3.20282,15.9599,36.7117,-21.1706,-5.59915,3.98677,-10.8039,0.386425,-23.7407,22.8509,-15.575,2.25798,-9.56836
0.342435,17.7274,9.8884,-173.83,-0.44391,-180.494,0.927922,-0.135082,-5.85631,-0.200702,-0.241154,1.94083,-0.696137,-0.0941519,5.30435,-19.0505,-2.94712,-7.776,35.9336,0.927331,1.52292,16.027,0.51715,2.48447,-5.71506e-16,1.31198e-14,-33.1405,-7.3608,-79.1437,34.2135,20.9576,-18.2505,2.48113,7.12502,8.02861,-27.3464,-5.71506e-16,1.31198e-14,-28.8117,10.5134,85.7122,26.2895,-11.1685,-11.9066,25.9418,7.12502,14.147,55.4401,-19.2077,3.08399,15.8501,37.2136,-21.0185,-5.6132,3.91802,-10.864,0.640528,-23.878,22.8529,-15.5965,2.17616,-9.3844
0.336675,17.7286,9.89113,-173.702,-0.314387,-180.626,0.906308,-0.160948,-5.99573,-0.257856,-0.276688,1.92987,-0.737759,-0.108214,5.37288,-19.0384,-2.96173,-7.93163,36.0518,0.932628,1.67639,16.0829,0.523832,2.5853,-1.41634e-15,2.0276e-14,-33.179,-7.27603,-79.1614,34.2533,20.9552,-18.3027,2.69518,7.12502,7.97815,-27.1343,-1.41634e-15,2.0276e-14,-28.9171,10.3748,85.7277,26.3805,-11.0028,-11.7294,26.075,7.12502,14.3177,55.5613,-19.7159,2.8015,15.7118,37.751,-20.7023,-5.66431,2.98636,-11.0175,0.882739,-24.0533,22.8508,-15.5731,2.02798,-9.52581
0.330355,17.7245,9.89199,-173.587,-0.197348,-180.607,0.914857,-0.181622,-5.94834,-0.362311,-0.306472,1.94907,-0.846566,-0.117047,5.36688,-18.9633,-2.96745,-8.06327,36.2171,0.966232,1.81224,16.1462,0.549101,2.68285,1.49089e-16,-7.95139e-15,-33.3281,-7.09883,-79.2245,34.26,20.8635,-18.4557,2.83057,7.12502,7.83056,-27.0044,1.49089e-16,-7.95139e-15,-29.1038,10.209,85.7126,26.4426,-10.8543,-11.5392,26.1879,7.12502,14.5011,55.6612,-20.1851,2.62953,15.7287,38.3065,-20.5028,-5.58218,2.73502,-11.1272,1.06306,-24.0683,22.835,-15.5361,1.9822,-10.101
0.326591,17.7209,9.89147,-173.57,0.0132889,-180.632,0.967169,-0.176652,-5.99876,-0.372758,-0.303601,1.94741,-0.886973,-0.1136,5.39419,-18.976,-2.91167,-7.92429,36.2283,1.04996,1.68631,16.1498,0.584453,2.61972,-1.963e-15,7.95139e-16,-33.3882,-6.97977,-79.3265,34.3441,20.7849,-18.4214,2.66153,7.12502,7.86361,-27.1722,-1.963e-15,7.95139e-16,-29.156,10.3293,85.5951,26.4661,-11.0124,-11.2742,26.3296,7.12502,14.7563,55.7844,-20.5681,2.66333,15.6752,38.8781,-20.4788,-5.39039,3.70872,-11.1419,1.2693,-24.1203,22.8511,-15.5774,1.89457,-10.0959
0.322185,17.7201,9.89068,-173.57,0.268711,-180.635,1.00321,-0.132305,-5.97018,-0.338776,-0.237666,1.90858,-0.881048,-0.0784519,5.33619,-18.9888,-2.91915,-7.86511,36.2235,1.00212,1.69991,16.1522,0.571679,2.60544,1.2424e-16,4.37326e-15,-33.4364,-7.10353,-79.3935,34.4252,20.8663,-18.5525,2.83983,7.12502,7.73709,-26.9986,1.2424e-16,4.37326e-15,-29.1263,10.2904,85.4938,26.502,-11.0037,-11.1422,26.6211,7.12502,14.8835,56.0665,-20.9537,2.71288,15.6589,39.4715,-20.3389,-5.29245,4.06275,-11.1528,1.56295,-24.1591,22.8784,-15.624,1.80021,-9.76443
0.317118,17.7184,9.89047,-173.553,0.492668,-180.609,1.01502,-0.0854652,-5.90716,-0.271103,-0.174267,1.87983,-0.826594,-0.0508752,5.26901,-19.0612,-2.95083,-7.82268,36.2272,0.918385,1.72724,16.1755,0.540589,2.59367,-1.19271e-15,1.03368e-14,-33.3655,-7.28068,-79.437,34.4382,20.9878,-18.6754,3.13301,7.12502,7.61846,-26.7098,-1.19271e-15,1.03368e-14,-28.9823,10.1266,85.4744,26.5234,-10.8603,-11.1402,26.8834,7.12502,14.8855,56.3286,-21.4015,2.65181,15.6985,40.1167,-20.1177,-5.41005,3.06904,-11.1408,1.79397,-24.166,22.8331,-15.6801,1.79348,-9.74846
0.312309,17.7186,9.88949,-173.593,0.704247,-180.726,1.08743,-0.0841835,-6.0243,-0.200863,-0.177824,1.85963,-0.794041,-0.0553503,5.31472,-19.1088,-2.92867,-7.89872,36.2321,0.943355,1.8104,16.187,0.547791,2.64765,-4.05024e-15,1.35174e-14,-33.2654,-7.22234,-79.502,34.4582,20.9746,-18.6794,2.9977,7.12502,7.61465,-26.8452,-4.05024e-15,1.35174e-14,-28.8518,10.1273,85.4618,26.4921,-10.7377,-11.3353,26.864,7.12502,14.6974,56.3231,-21.8199,2.52174,15.5796,40.8037,-19.9726,-5.55256,2.14562,-11.0499,2.00828,-24.3303,22.7573,-15.6889,1.78685,-9.73013
0.305899,17.7169,9.88765,-173.612,0.930743,-180.973,1.12173,-0.0835598,-6.2282,-0.136131,-0.182178,1.7901,-0.745571,-0.0606529,5.35804,-19.1218,-2.85008,-7.88267,36.1548,1.0318,1.81255,16.144,0.581591,2.65763,1.56543e-15,1.94809e-14,-33.2189,-7.18525,-79.5634,34.5048,20.9571,-18.5888,2.8867,7.12502,7.70205,-26.953,1.56543e-15,1.94809e-14,-28.6867,10.2332,85.39,26.2588,-10.837,-11.6183,26.3283,7.12502,14.4248,55.8071,-22.2732,2.29665,15.3011,41.5081,-19.8037,-5.52578,1.94086,-10.9817,2.10901,-24.6448,22.7178,-15.6671,1.85588,-9.86016
0.302206,17.7128,9.88868,-173.53,1.12775,-181.115,1.11905,-0.0723559,-6.34332,-0.112621,-0.169131,1.73426,-0.721492,-0.0555017,5.36481,-19.2241,-2.80727,-7.76679,36.1538,1.09075,1.70752,16.1646,0.60122,2.60242,9.19379e-16,-3.97569e-16,-33.1289,-7.2764,-79.6172,34.4176,20.993,-18.6611,2.92174,7.12502,7.63223,-26.9205,9.19379e-16,-3.97569e-16,-28.593,10.1606,85.3315,26.1506,-10.816,-11.8613,25.9033,7.12502,14.1907,55.3986,-22.858,2.02836,15.1708,42.2226,-19.5753,-5.55258,1.80591,-11.0425,2.19922,-24.8326,22.6914,-15.6914,1.89696,-9.87156
0.300665,17.7089,9.88988,-173.465,1.26782,-181.022,1.16583,-0.0569728,-6.20781,-0.104565,-0.149325,1.72798,-0.74247,-0.0455353,5.28094,-19.2589,-2.8241,-7.71949,36.1569,1.05824,1.66734,16.1768,0.585019,2.57011,1.76421e-15,-9.93923e-16,-33.0189,-7.44583,-79.6705,34.2661,21.0624,-18.7231,2.76532,7.12502,7.57245,-27.0791,1.76421e-15,-9.93923e-16,-28.563,10.0073,85.2506,26.2044,-10.6904,-11.8415,26.1045,7.12502,14.2097,55.5984,-23.3807,1.85504,15.3246,42.9137,-19.5045,-5.83515,1.41157,-11.1158,2.2931,-24.7519,22.707,-15.7223,1.94964,-10.0775
0.30102,17.7019,9.8869,-173.447,1.46398,-181.14,1.18637,-0.0308415,-6.31598,-0.0806754,-0.117554,1.67761,-0.733645,-0.0304229,5.28923,-19.1909,-2.83766,-7.74356,36.0994,1.02529,1.67215,16.1334,0.567206,2.56631,-1.36664e-15,2.78299e-15,-32.9886,-7.55959,-79.7085,34.2298,21.0867,-18.7405,2.64321,7.12502,7.55562,-27.2018,-1.36664e-15,2.78299e-15,-28.4815,10.0291,85.1274,26.1275,-10.7006,-11.6555,26.3261,7.12502,14.389,55.8074,-23.8269,1.72713,15.2306,43.5646,-19.455,-6.05983,1.54168,-11.1503,2.42278,-24.9049,22.7687,-15.818,2.00685,-10.106
0.301335,17.696,9.88171,-173.451,1.6674,-181.278,1.26326,0.00775672,-6.47551,-0.0786476,-0.0740501,1.6314,-0.780752,-0.00661425,5.33105,-19.1416,-2.85534,-7.73409,36.0877,0.984653,1.67996,16.118,0.552834,2.55922,-4.05024e-15,-3.77691e-15,-33.1029,-7.73608,-79.7107,34.3722,21.1458,-18.7087,2.68419,7.12502,7.58631,-27.1598,-4.05024e-15,-3.77691e-15,-28.4578,10.2938,84.9516,25.9356,-11.113,-11.6431,26.1946,7.12502,14.4009,55.675,-24.2544,1.5689,15.1278,44.1646,-19.3109,-6.21996,2.12601,-11.1531,2.51952,-25.0736,22.8344,-15.9047,2.05927,-10.0054
0.301912,17.6963,9.87486,-173.502,1.78297,-181.252,1.479,-0.0123484,-6.4681,-0.107898,-0.115297,1.65402,-0.92644,-0.0211436,5.35207,-19.2369,-2.8574,-7.76073,36.2398,1.02021,1.70072,16.2162,0.56766,2.58777,-4.19933e-15,1.66979e-14,-33.2372,-7.71217,-79.7564,34.4347,21.2016,-18.6632,2.95474,7.12502,7.63021,-26.8876,-4.19933e-15,1.66979e-14,-28.566,10.6258,84.7757,25.8565,-11.4317,-11.6815,26.1114,7.12502,14.3639,55.5945,-24.5931,1.36135,15.2271,44.725,-19.2367,-6.31937,2.60719,-11.0585,2.5726,-25.0443,22.8331,-15.9522,2.12084,-9.87515
0.303509,17.6964,9.86693,-173.523,1.86553,-181.171,1.59198,-0.0290235,-6.32843,-0.0881222,-0.141608,1.64877,-0.965978,-0.0340576,5.26807,-19.4235,-2.83437,-7.6957,36.3627,1.08345,1.64191,16.3206,0.590394,2.56953,-1.24737e-14,-3.37934e-15,-33.2989,-7.73691,-79.8379,34.4557,21.2053,-18.6545,2.95613,7.12502,7.63864,-26.8859,-1.24737e-14,-3.37934e-15,-28.5699,10.6478,84.6517,25.8311,-11.3812,-11.6754,26.0642,7.12502,14.3697,55.5468,-24.942,1.23355,15.3912,45.2367,-19.3097,-6.57218,2.3256,-11.0024,2.64666,-24.9538,22.8197,-15.9953,2.14063,-9.8528
0.305925,17.6961,9.86021,-173.462,2.00889,-181.23,1.56157,-0.0176289,-6.35654,-0.0630117,-0.124902,1.61026,-0.925256,-0.0278251,5.24318,-19.4178,-2.7973,-7.63773,36.2973,1.12197,1.58267,16.2834,0.602463,2.53683,-8.19987e-16,2.38542e-14,-33.3015,-7.81056,-79.8837,34.4315,21.1585,-18.8073,3.02833,7.12502,7.49111,-26.819,-8.19987e-16,2.38542e-14,-28.5181,10.4805,84.5855,25.8171,-11.3494,-11.7406,26.073,7.12502,14.307,55.5601,-25.4141,1.13694,15.4024,45.7098,-19.3924,-6.952,1.48062,-11.0299,2.75784,-25.0286,22.7986,-16.0353,2.16283,-9.91391
0.307511,17.6949,9.85455,-173.37,2.11948,-181.279,1.52921,-0.0287944,-6.42008,-0.075879,-0.139177,1.62083,-0.918301,-0.0345796,5.29063,-19.2219,-2.81418,-7.82287,36.1953,1.07103,1.74633,16.186,0.581083,2.6244,4.96962e-17,4.77083e-15,-33.3145,-7.76367,-79.9056,34.3988,21.0006,-19.0617,3.00875,7.12502,7.24557,-26.8472,4.96962e-17,4.77083e-15,-28.5268,10.4854,84.5368,25.7781,-11.415,-11.8637,26.2466,7.12502,14.1883,55.742,-25.9098,0.978122,15.4261,46.175,-19.521,-7.03668,1.37939,-11.0786,2.80757,-25.0922,22.7211,-16.0546,2.25911,-10.2004
0.309011,17.6937,9.84512,-173.386,2.21845,-181.269,1.57806,-0.0333656,-6.42154,-0.0389693,-0.146973,1.65199,-0.90638,-0.0396938,5.32433,-19.0471,-2.85872,-7.94632,36.024,0.997455,1.75053,16.0634,0.53166,2.62324,-5.2181e-16,-7.55382e-15,-33.3305,-7.74964,-79.9257,34.402,20.8502,-19.1779,2.89377,7.12502,7.1334,-26.966,-5.2181e-16,-7.55382e-15,-28.4267,10.5423,84.4949,25.6537,-11.3923,-11.9336,26.3164,7.12502,14.121,55.8166,-26.2479,0.820855,15.5389,46.6225,-19.7058,-6.93536,1.38732,-10.9764,2.81413,-25.0823,22.6247,-16.1211,2.45687,-10.5108
0.31225,17.6951,9.83411,-173.439,2.35457,-181.411,1.66106,-0.0316518,-6.57567,0.0212164,-0.151804,1.61879,-0.889816,-0.0436985,5.37754,-19.0494,-2.86324,-7.87983,35.8876,0.992942,1.57617,15.998,0.506142,2.52701,5.1684e-15,-3.16068e-14,-33.325,-7.82245,-79.9484,34.3542,20.9274,-19.1708,2.91244,7.12502,7.14031,-26.9471,5.1684e-15,-3.16068e-14,-28.3286,10.6428,84.3947,25.5886,-11.3727,-11.8586,26.244,7.12502,14.1932,55.7391,-26.5351,0.686689,15.4823,47.0311,-19.8191,-6.73977,1.10348,-10.827,2.90379,-25.2469,22.534,-16.1383,2.4986,-10.559
0.3164,17.6949,9.82384,-173.423,2.45391,-181.439,1.75294,-0.0607467,-6.5972,0.0135335,-0.197335,1.62131,-0.942869,-0.0642202,5.39394,-18.9674,-2.83713,-7.89504,35.8009,1.05441,1.47534,15.9333,0.514097,2.49239,0,-2.98177e-15,-33.4256,-7.8454,-79.952,34.3824,21.0359,-19.1435,2.91715,7.12502,7.16661,-26.9415,0,-2.98177e-15,-28.375,10.6726,84.2966,25.6008,-11.2532,-11.6344,26.4654,7.12502,14.4093,55.9453,-26.8852,0.5926,15.5408,47.3418,-19.9234,-6.48432,2.12367,-10.7579,2.90729,-25.2746,22.4438,-16.1595,2.52779,-10.4485
0.321291,17.6955,9.81107,-173.415,2.51803,-181.401,1.84052,-0.0779579,-6.51345,-0.00841009,-0.225029,1.61226,-1.01116,-0.0754154,5.33802,-18.784,-2.82951,-7.94831,35.7422,1.04523,1.53449,15.8603,0.51576,2.52183,-5.86415e-15,-7.7526e-15,-33.552,-7.82067,-80.0029,34.4328,20.9131,-19.1638,3.01902,7.12502,7.147,-26.8403,-5.86415e-15,-7.7526e-15,-28.4358,10.7512,84.1397,25.557,-11.3592,-11.3769,26.5425,7.12502,14.6574,56.0044,-27.2059,0.510461,15.6747,47.5494,-20.0606,-6.32077,2.50789,-10.6713,2.79638,-25.2204,22.3658,-16.142,2.628,-10.2818
0.328894,17.6981,9.79805,-173.374,2.5755,-181.446,1.89596,-0.0714471,-6.53654,-0.0438042,-0.222113,1.57483,-1.07946,-0.0705997,5.3123,-18.6838,-2.82324,-7.86804,35.7114,1.02667,1.50574,15.8217,0.517584,2.49011,7.03201e-15,5.1684e-15,-33.6723,-7.86705,-80.0328,34.3843,20.8212,-19.3242,3.15706,7.12502,6.99224,-26.7074,7.03201e-15,5.1684e-15,-28.4539,10.7782,84.0255,25.4745,-11.5675,-11.3141,26.4227,7.12502,14.7178,55.8802,-27.528,0.425244,15.7247,47.6131,-20.1725,-6.3103,1.48105,-10.6588,2.81105,-25.2582,22.353,-16.1987,2.6379,-10.421
0.336051,17.7026,9.78533,-173.309,2.63845,-181.478,1.94228,-0.0842495,-6.63681,-0.0921957,-0.245297,1.62966,-1.15182,-0.0775264,5.42788,-18.6666,-2.79543,-7.85961,35.7208,1.11424,1.39822,15.8193,0.541769,2.45905,5.81445e-15,-2.04748e-14,-33.7807,-7.80139,-79.952,34.333,20.9179,-19.2683,3.01814,7.12502,7.04617,-26.8446,5.81445e-15,-2.04748e-14,-28.4877,11.0342,83.9677,25.3075,-11.882,-11.376,26.1858,7.12502,14.6583,55.6477,-27.8715,0.356667,15.7933,47.5622,-20.1141,-6.55636,-0.188478,-10.6617,2.83775,-25.2805,22.3529,-16.3015,2.66728,-10.2952
0.344519,17.7073,9.77172,-173.291,2.69486,-181.37,2.00729,-0.108966,-6.57259,-0.0918294,-0.279595,1.71453,-1.1829,-0.0934898,5.48167,-18.694,-2.77842,-7.89252,35.7549,1.19647,1.31447,15.8403,0.559619,2.44556,-3.77691e-15,0,-33.8655,-7.70858,-79.9121,34.3526,20.8688,-19.2189,3.11071,7.12502,7.0938,-26.7504,-3.77691e-15,0,-28.4705,11.2661,83.893,25.1545,-12.0313,-11.5705,25.8463,7.12502,14.4708,55.3217,-28.1402,0.327455,16.034,47.4348,-19.9951,-6.72573,-0.696045,-10.5987,2.75944,-25.1393,22.337,-16.3321,2.81539,-10.0683
0.353567,17.7094,9.75435,-173.242,2.75205,-181.246,2.04804,-0.108372,-6.46272,-0.103697,-0.277924,1.77121,-1.21847,-0.0913377,5.47882,-18.7212,-2.80926,-7.96957,35.791,1.16406,1.36717,15.8668,0.541836,2.47723,-5.11871e-15,1.47101e-14,-33.9979,-7.75759,-79.8284,34.413,20.8058,-19.0054,3.48817,7.12502,7.29997,-26.3659,-5.11871e-15,1.47101e-14,-28.4513,11.299,83.8427,25.0787,-12.0072,-11.9513,25.3057,7.12502,14.1039,54.8071,-28.4135,0.223615,16.2899,47.2738,-19.9521,-6.57389,-0.409071,-10.54,2.59133,-24.9773,22.2647,-16.3052,3.03621,-9.91983
0.360006,17.7091,9.73484,-173.185,2.77656,-181.257,2.07492,-0.115082,-6.43013,-0.0964129,-0.287676,1.7639,-1.22479,-0.0963984,5.45302,-18.8381,-2.84381,-7.97342,35.7988,1.08703,1.41792,15.902,0.509265,2.4855,-1.98785e-16,3.97569e-15,-34.0693,-7.78728,-79.7748,34.4298,20.7859,-18.807,3.48438,7.12502,7.49144,-26.363,-1.98785e-16,3.97569e-15,-28.4316,11.2337,83.8169,25.0692,-11.8949,-12.0812,25.1775,7.12502,13.9787,54.6876,-28.7008,0.0197259,16.3776,47.103,-19.8817,-6.33963,-0.589229,-10.4822,2.49855,-24.9795,22.1693,-16.3633,3.17806,-10.1002
0.371034,17.7129,9.7161,-173.129,2.77704,-181.359,2.02815,-0.106922,-6.53021,-0.0236851,-0.275078,1.71636,-1.12481,-0.0953016,5.45916,-18.9775,-2.88597,-7.88593,35.706,0.963315,1.3983,15.8951,0.454366,2.43343,6.4605e-15,5.56597e-15,-34.0568,-7.92133,-79.7681,34.4929,20.8063,-18.6938,3.07317,7.12502,7.60072,-26.7703,6.4605e-15,5.56597e-15,-28.2866,11.0679,83.8126,25.0493,-11.8432,-12.0518,25.4342,7.12502,14.0071,54.9422,-28.9923,-0.0314747,16.339,46.9365,-19.8228,-6.13777,-0.785698,-10.4283,2.53443,-25.0542,22.0658,-16.4122,3.12838,-10.3774
0.384347,17.7148,9.69813,-173.009,2.83257,-181.365,1.90618,-0.101451,-6.59199,0.0234819,-0.259654,1.73139,-1.00931,-0.0927136,5.50874,-19.0255,-2.88347,-7.81412,35.5833,0.934011,1.32113,15.8472,0.432519,2.37564,-4.12478e-15,3.97569e-16,-34.0185,-7.88448,-79.7686,34.5672,20.7305,-18.7591,2.78866,7.12502,7.53763,-27.057,-4.12478e-15,3.97569e-16,-28.1661,11.0081,83.8021,25.0409,-11.868,-12.0051,25.7432,7.12502,14.0521,55.2482,-29.3625,0.0710901,16.405,46.7711,-19.9526,-4.41317,1.81625,-10.4265,2.62092,-25.0165,21.9255,-16.3523,3.06376,-10.2372
0.397333,17.7104,9.6789,-172.944,2.90329,-181.386,1.88101,-0.157058,-6.70821,0.0213131,-0.333743,1.80816,-0.985683,-0.129805,5.65729,-18.9887,-2.7996,-7.84895,35.5039,1.07699,1.26564,15.7917,0.477878,2.38038,-5.76476e-15,0,-33.9973,-7.58938,-79.7513,34.5181,20.7637,-18.9119,2.71548,7.12502,7.39019,-27.1354,-5.76476e-15,0,-28.2099,11.2543,83.7539,25.1106,-11.9363,-11.9171,26.0421,7.12502,14.1369,55.5411,-29.6951,0.174541,16.4729,46.5548,-20.1812,-5.98283,-0.501893,-10.3477,2.69786,-25.0002,21.7731,-16.263,3.0376,-10.4216
0.408465,17.7115,9.65495,-172.96,2.98395,-181.419,1.98756,-0.179326,-6.75006,-0.0268227,-0.372502,1.83804,-1.08931,-0.143636,5.71459,-18.8525,-2.7434,-7.88105,35.4724,1.17266,1.25531,15.7387,0.517225,2.39765,2.03754e-15,2.78299e-15,-34.0714,-7.5313,-79.6463,34.3312,20.8997,-18.7629,2.95146,7.12502,7.53402,-26.8944,2.03754e-15,2.78299e-15,-28.3353,11.4601,83.6707,25.0401,-12.0925,-12.0899,25.8695,7.12502,13.9703,55.3802,-29.912,0.191848,16.5286,46.2672,-19.4863,-4.37182,3.59412,-10.1978,2.72444,-25.0081,21.712,-16.3328,3.12037,-10.5989
0.418824,17.7152,9.6295,-172.889,3.0222,-181.33,1.97654,-0.160259,-6.60814,-0.0348334,-0.34279,1.851,-1.09647,-0.128894,5.64643,-18.8571,-2.74287,-7.846,35.433,1.13612,1.28348,15.7211,0.508356,2.39481,1.93815e-15,1.43125e-14,-34.0368,-7.75741,-79.5155,34.1286,21.0837,-18.5176,3.10109,7.12502,7.77078,-26.7361,1.93815e-15,1.43125e-14,-28.3778,11.4207,83.6407,25.0051,-12.2317,-12.3334,25.4892,7.12502,13.7357,55.0159,-30.1535,0.177219,16.7081,45.9211,-19.1981,-3.91114,4.40829,-10.1351,2.69975,-24.8886,21.6539,-16.4194,3.27808,-10.6935
0.431841,17.7117,9.60437,-172.81,3.08933,-181.192,1.93982,-0.124042,-6.45409,-0.00735413,-0.286589,1.896,-1.056,-0.103391,5.60393,-18.9987,-2.75542,-7.86837,35.3973,1.09753,1.32111,15.7384,0.486006,2.40587,4.22417e-15,-4.37326e-15,-33.999,-7.89869,-79.3861,34.0374,21.3199,-18.6313,3.11209,7.12502,7.66099,-26.7292,4.22417e-15,-4.37326e-15,-28.4704,11.1514,83.7184,25.2177,-12.0825,-12.3434,25.491,7.12502,13.726,55.0183,-30.3756,0.294581,16.9304,45.5153,-18.9145,-4.06176,3.94047,-10.0545,2.55912,-24.7084,21.5513,-16.4442,3.51649,-10.8549
0.446667,17.7078,9.57824,-172.825,3.15012,-181.276,1.99825,-0.115018,-6.59135,0.0286727,-0.280148,1.9181,-1.05177,-0.100458,5.70548,-19.097,-2.77116,-7.9665,35.3599,1.04491,1.44744,15.7445,0.461131,2.46524,1.37161e-14,2.18663e-14,-34.0241,-7.73522,-79.2972,34.0485,21.4216,-18.7991,3.14103,7.12502,7.49911,-26.706,1.37161e-14,2.18663e-14,-28.5011,11.0552,83.7884,25.3206,-11.7814,-12.3047,25.4658,7.12502,13.7633,54.9905,-30.5225,0.361006,16.8935,45.0539,-18.3859,-4.12538,4.97538,-9.90378,2.46215,-24.7529,21.5025,-16.5382,3.66684,-10.9583
0.460893,17.7066,9.54941,-172.858,3.13519,-181.437,2.01718,-0.1657,-6.73942,0.0704534,-0.351581,1.91175,-1.00779,-0.138398,5.78516,-19.1305,-2.73983,-7.97079,35.3032,1.08122,1.43556,15.7221,0.469462,2.46454,4.27387e-15,-1.82882e-14,-34.0088,-7.57192,-79.2395,34.0755,21.3622,-18.6011,3.15582,7.12502,7.69021,-26.6843,4.27387e-15,-1.82882e-14,-28.5178,11.0041,83.8212,25.3573,-11.5135,-12.4598,25.4222,7.12502,13.6139,54.9571,-30.6225,0.283034,16.7935,44.5333,-18.3964,-4.48371,5.20736,-9.75015,2.28523,-24.8758,21.5046,-16.6665,3.81937,-11.1535
0.475145,17.7028,9.52506,-172.801,3.1067,-181.435,2.04991,-0.209882,-6.68081,0.0559838,-0.41139,1.92713,-1.03246,-0.167188,5.76983,-19.1307,-2.70956,-7.96304,35.2418,1.11547,1.41252,15.6898,0.478582,2.4564,3.03147e-15,-8.74653e-15,-33.9811,-7.50876,-79.1857,34.1084,21.278,-18.3075,2.95291,7.12502,7.97354,-26.8767,3.03147e-15,-8.74653e-15,-28.5748,11.0346,83.7767,25.3864,-11.5032,-12.5899,25.3782,7.12502,13.4885,54.9214,-30.8162,0.230413,16.906,43.9597,-19.1509,-5.78027,0.65473,-9.6983,2.09814,-24.8219,21.4578,-16.6811,4.02085,-11.1762
0.491791,17.6989,9.49842,-172.757,3.11349,-181.404,2.0916,-0.215056,-6.64044,0.0565833,-0.419481,1.94921,-1.05415,-0.170439,5.77057,-19.1394,-2.68374,-8.0192,35.1597,1.09551,1.55209,15.6497,0.477992,2.51795,8.10048e-15,-2.98177e-14,-33.9304,-7.36603,-79.1389,34.1047,21.18,-18.1996,2.81329,7.12502,8.07765,-27.0123,8.10048e-15,-2.98177e-14,-28.58,10.9835,83.7503,25.4289,-11.5202,-12.4095,25.5197,7.12502,13.6623,55.0513,-30.9753,0.33833,16.9825,43.3287,-19.1048,-5.58394,0.792297,-9.61996,2.17335,-24.7227,21.3983,-16.678,3.96388,-11.0146
0.511178,17.6952,9.46747,-172.715,3.11534,-181.414,2.09413,-0.225547,-6.68258,0.0559289,-0.43425,1.97469,-1.05356,-0.177512,5.82185,-19.1068,-2.66666,-8.01798,35.0612,1.07503,1.59635,15.5937,0.472745,2.52767,9.44227e-16,9.54166e-15,-33.9041,-7.28537,-79.0442,34.0928,21.1948,-18.1209,2.85938,7.12502,8.15362,-26.9633,9.44227e-16,9.54166e-15,-28.6492,10.8486,83.7723,25.5847,-11.4058,-12.1102,25.773,7.12502,13.9508,55.285,-31.1301,0.559167,16.9577,42.6766,-19.1388,-5.33601,0.519676,-9.52177,2.25713,-24.6604,21.3601,-16.7528,3.83741,-11.068
0.529782,17.6974,9.43786,-172.585,3.05934,-181.403,2.07785,-0.241796,-6.69131,0.0219107,-0.455216,2.01967,-1.0761,-0.185968,5.87479,-19.1374,-2.70461,-8.05843,34.9627,0.998863,1.60798,15.5576,0.430722,2.52042,1.09332e-15,-1.78906e-14,-33.8881,-7.23866,-78.9101,34.1621,21.0648,-18.1031,2.94294,7.12502,8.17088,-26.8791,1.09332e-15,-1.78906e-14,-28.6528,10.7831,83.8347,25.6507,-11.389,-12.027,25.6646,7.12502,14.031,55.171,-31.3771,0.718651,16.9735,42.0251,-18.958,-5.27809,0.296881,-9.52363,2.32433,-24.5724,21.3092,-16.8022,3.67976,-10.8999
0.548172,17.6957,9.40769,-172.546,2.98897,-181.437,2.1262,-0.276989,-6.75065,0.00644413,-0.505993,2.08242,-1.11058,-0.208958,5.97673,-19.0785,-2.70741,-8.13197,34.8565,1.00181,1.59106,15.4931,0.417912,2.52104,7.15625e-15,1.07344e-14,-33.8417,-7.02839,-78.7902,34.2539,20.8978,-18.0422,2.88654,7.12502,8.22963,-26.9332,7.15625e-15,1.07344e-14,-28.7472,10.8641,83.8932,25.7461,-11.3842,-12.1082,25.4434,7.12502,13.9527,54.9552,-31.5059,0.805169,16.9623,41.3801,-18.7074,-5.23821,0.593863,-9.42418,2.26277,-24.539,21.2595,-16.8966,3.72009,-11.0641
0.565907,17.6911,9.37443,-172.58,2.9309,-181.41,2.1461,-0.31927,-6.65392,0.0620806,-0.558729,2.11248,-1.0565,-0.239096,5.95436,-19.0262,-2.65945,-8.16612,34.7464,1.06652,1.57542,15.4238,0.436548,2.52663,-6.5102e-15,-2.10712e-14,-33.7025,-6.92307,-78.6869,34.3291,20.8723,-18.009,2.85427,7.12502,8.26164,-26.9642,-6.5102e-15,-2.10712e-14,-28.8045,10.8144,83.9074,25.8252,-11.3216,-12.1511,25.2553,7.12502,13.9114,54.77,-31.5445,0.863689,17.0388,40.7688,-18.4404,-5.05618,0.772889,-9.21292,2.12643,-24.4451,21.1798,-17.0009,3.86584,-11.4282
0.585668,17.6897,9.34205,-172.544,2.76101,-181.238,2.13859,-0.408031,-6.42694,0.121455,-0.667002,2.18884,-0.975725,-0.298147,5.90731,-19.2315,-2.6258,-8.04281,34.77,1.13978,1.4131,15.4803,0.452505,2.45096,6.4605e-15,-1.23246e-14,-33.4995,-6.78231,-78.6323,34.4066,20.6901,-17.9803,3.06737,7.12502,8.28935,-26.75,6.4605e-15,-1.23246e-14,-28.7937,10.7901,83.894,25.8587,-11.3392,-12.2616,25.2697,7.12502,13.8049,54.7916,-31.5993,0.814524,17.3118,40.2192,-18.2128,-4.74604,0.322276,-9.05344,1.907,-24.1588,21.0741,-17.0739,3.95417,-11.4418
0.608724,17.6937,9.31421,-172.425,2.52271,-181.251,2.21421,-0.493032,-6.46099,0.0820834,-0.785863,2.24099,-1.04,-0.353777,5.98617,-19.3711,-2.63928,-8.06172,34.7892,1.1021,1.47725,15.5231,0.436797,2.47544,-6.90777e-15,-2.26615e-14,-33.3953,-6.51543,-78.5781,34.6195,20.2775,-18.0718,3.18286,7.12502,8.201,-26.638,-6.90777e-15,-2.26615e-14,-28.8018,10.8063,83.8949,25.8524,-11.3987,-12.3622,25.1913,7.12502,13.708,54.7198,-31.756,0.683108,17.3759,39.7194,-18.1088,-4.34261,-0.533868,-9.04082,1.68847,-24.0541,20.9816,-17.0629,3.9342,-11.472
0.633462,17.6886,9.2829,-172.342,2.385,-181.402,2.23399,-0.512794,-6.60909,0.0804108,-0.817961,2.23356,-1.04611,-0.369131,6.06421,-19.3633,-2.67785,-8.18269,34.6249,1.00276,1.58531,15.4467,0.387572,2.51583,-4.57205e-15,-4.37326e-15,-33.2674,-6.53973,-78.4304,34.8398,20.0877,-18.0473,3.31727,7.12502,8.22471,-26.5026,-4.57205e-15,-4.37326e-15,-28.7196,10.774,83.9323,25.8584,-11.3963,-12.3258,25.2388,7.12502,13.743,54.7649,-31.8881,0.718548,17.2062,39.262,-17.9191,-3.84463,2.02408,-8.98487,1.74156,-24.1033,20.8809,-17.0453,3.72914,-11.6066
0.656917,17.6782,9.24631,-172.328,2.3811,-181.449,2.31325,-0.497058,-6.67038,0.0800567,-0.802268,2.28579,-1.09185,-0.358754,6.15513,-19.4812,-2.69781,-8.26802,34.5978,1.00795,1.56477,15.4622,0.369874,2.52172,3.47873e-15,-2.06736e-14,-33.1407,-6.38586,-78.251,35.008,19.8672,-18.1201,3.16766,7.12502,8.15446,-26.655,3.47873e-15,-2.06736e-14,-28.7647,10.6672,84.0376,26.0045,-11.2353,-12.2871,25.3817,7.12502,13.7804,54.9053,-31.9157,1.12174,17.0431,38.8275,-17.8668,-3.15433,5.99073,-8.80095,1.79943,-24.053,20.7175,-17.0897,3.62244,-11.6373
0.680876,17.6712,9.20964,-172.374,2.30383,-181.428,2.49719,-0.484741,-6.64779,0.067784,-0.795587,2.33019,-1.20862,-0.350047,6.19172,-19.5918,-2.73533,-8.10703,34.5878,0.96667,1.36214,15.4881,0.340357,2.39963,1.2921e-15,-2.54444e-14,-33.0691,-6.2484,-78.1321,35.2676,19.4805,-18.2956,2.87974,7.12502,7.98507,-26.9494,1.2921e-15,-2.54444e-14,-28.9221,10.4912,84.0857,26.1744,-11.1776,-12.174,25.346,7.12502,13.8893,54.8622,-31.8638,1.46891,17.0046,38.3956,-17.7028,-2.85538,7.30195,-8.53735,1.74394,-23.921,20.5279,-17.0949,3.56035,-11.6727
0.707025,17.6726,9.17209,-172.378,2.09983,-181.432,2.59464,-0.531085,-6.64377,0.0700355,-0.862153,2.36809,-1.25009,-0.381431,6.23299,-19.4859,-2.74734,-7.95893,34.3154,0.875895,1.219,15.3379,0.295251,2.28385,5.86415e-15,2.54444e-14,-33.0128,-6.1195,-78.0364,35.7282,19.0186,-18.188,2.84569,7.12502,8.08892,-26.9795,5.86415e-15,2.54444e-14,-29.0548,10.3274,84.1318,26.3146,-11.0602,-12.2316,25.4331,7.12502,13.8338,54.9531,-31.8566,1.57913,17.0188,37.9587,-17.3329,-2.81101,7.4856,-8.30556,1.60005,-23.8017,20.3459,-17.0884,3.54699,-11.8432
0.731815,17.6748,9.13215,-172.386,1.90228,-181.509,2.61054,-0.592623,-6.64123,0.121779,-0.943388,2.37695,-1.19242,-0.425641,6.24311,-19.46,-2.77121,-8.01662,34.0899,0.792001,1.24561,15.2288,0.247673,2.27937,8.74653e-15,4.29375e-14,-32.8637,-5.8712,-77.9868,36.2233,18.5379,-18.2584,2.91163,7.12502,8.02096,-26.9162,8.74653e-15,4.29375e-14,-29.0681,10.3182,84.1644,26.4398,-10.851,-12.2883,25.61,7.12502,13.7792,55.1337,-31.8702,1.62651,16.9738,37.5535,-16.7462,-2.64862,8.00922,-8.02862,1.28635,-23.7742,20.1157,-17.0902,3.71344,-12.3138
0.757353,17.6763,9.09214,-172.378,1.69791,-181.495,2.59331,-0.647469,-6.52903,0.21893,-1.00842,2.38969,-1.07332,-0.465527,6.19279,-19.6322,-2.78678,-8.04597,33.9955,0.732016,1.30154,15.2259,0.214733,2.2924,6.95746e-16,-1.31198e-14,-32.5396,-5.84063,-77.9118,36.5581,18.2836,-18.4226,3.03925,7.12502,7.86244,-26.7945,6.95746e-16,-1.31198e-14,-28.9986,10.3276,84.1593,26.6344,-10.7211,-12.0367,25.816,7.12502,14.0216,55.3231,-31.8932,1.54863,17.0647,37.2146,-15.9872,-2.60933,8.08248,-7.74735,1.03508,-23.6348,19.8128,-17.0534,3.74735,-12.4497
0.785453,17.6771,9.05038,-172.419,1.50032,-181.469,2.57451,-0.691527,-6.43895,0.340156,-1.05887,2.4013,-0.93053,-0.499224,6.15311,-19.6809,-2.77006,-7.99205,33.8097,0.681193,1.32287,15.15,0.19391,2.27443,-8.34896e-15,2.94201e-14,-32.1447,-5.81145,-77.8397,36.7983,17.9592,-18.5966,2.98566,7.12502,7.69451,-26.8544,-8.34896e-15,2.94201e-14,-28.8753,10.3598,84.1364,26.6813,-10.8071,-12.0833,25.8003,7.12502,13.9767,55.3105,-31.8489,1.40633,17.1903,36.9791,-15.2266,-2.67059,8.59381,-7.43579,0.890142,-23.4756,19.5356,-17.015,3.73544,-12.6026
0.814477,17.6807,9.00732,-172.473,1.23325,-181.522,2.61368,-0.759987,-6.46855,0.390012,-1.15003,2.46055,-0.884843,-0.547216,6.23521,-19.6473,-2.77027,-8.01711,33.6418,0.670848,1.27324,15.0646,0.175097,2.249,8.34896e-15,-2.38542e-15,-31.9021,-5.54822,-77.7156,37.1936,17.3988,-18.8729,2.6373,7.12502,7.4278,-27.2123,8.34896e-15,-2.38542e-15,-28.9131,10.1639,84.2568,26.7876,-10.549,-12.2785,25.7849,7.12502,13.7886,55.3079,-31.7863,1.22271,17.2354,36.8912,-14.4592,-2.98702,9.69793,-7.13184,0.749299,-23.3938,19.3325,-16.9644,3.64199,-12.7672
0.84237,17.6802,8.96449,-172.504,0.966902,-181.509,2.7545,-0.821157,-6.45023,0.353055,-1.23677,2.5758,-0.98642,-0.584726,6.35227,-19.6468,-2.80874,-8.10385,33.6154,0.660457,1.22654,15.0551,0.152817,2.24155,-8.34896e-15,1.98785e-15,-31.7641,-5.17885,-77.5385,37.6627,16.8745,-18.9671,2.46444,7.12502,7.33689,-27.3884,-8.34896e-15,1.98785e-15,-29.051,10.2032,84.3509,26.8638,-10.5757,-12.3114,25.3202,7.12502,13.7569,54.8454,-31.708,1.32649,17.2775,36.9529,-13.973,-3.58838,12.5511,-6.83711,0.557122,-23.2455,19.118,-16.9385,3.64076,-13.1023
0.874873,17.6728,8.92218,-172.64,0.711377,-181.508,3.01717,-0.862843,-6.47423,0.330638,-1.30574,2.66336,-1.14358,-0.611298,6.46696,-19.5533,-2.84571,-8.18704,33.5323,0.6175,1.2275,14.9988,0.125452,2.24527,-6.36111e-15,3.18055e-14,-31.5941,-4.80338,-77.4027,38.1185,16.3959,-18.9489,2.27034,7.12502,7.35448,-27.5818,-6.36111e-15,3.18055e-14,-29.2459,10.2207,84.3832,26.9644,-10.7024,-12.2889,25.0323,7.12502,13.7786,54.556,-31.478,1.53618,17.3079,37.1408,-13.8814,-4.28888,15.3899,-6.41971,0.344606,-23.0893,18.8994,-16.9723,3.61176,-13.0875
0.910528,17.671,8.87559,-172.739,0.502289,-181.562,3.11257,-0.89221,-6.55935,0.358675,-1.35093,2.70919,-1.15763,-0.63318,6.56765,-19.408,-2.83428,-8.22714,33.2463,0.563836,1.27291,14.8347,0.100172,2.24995,3.97569e-15,2.8625e-14,-31.3355,-4.49099,-77.2993,38.5956,15.9482,-18.8871,2.16482,7.12502,7.41415,-27.6853,3.97569e-15,2.8625e-14,-29.3548,10.1291,84.4257,27.0894,-10.5207,-12.3426,24.912,7.12502,13.7268,54.4392,-31.3165,1.46757,17.3977,37.3921,-13.9429,-4.98817,14.6871,-6.13178,0.214912,-22.9911,18.8642,-17.0629,3.57412,-12.9574
0.940935,17.675,8.83321,-172.755,0.340188,-181.537,3.1768,-0.903531,-6.48991,0.384002,-1.36371,2.76796,-1.16541,-0.639184,6.5916,-19.4036,-2.84675,-8.30124,33.0314,0.507108,1.31487,14.7375,0.0655216,2.26119,-4.30369e-14,9.54166e-15,-30.9553,-4.26622,-77.1651,38.9826,15.4671,-18.8215,2.10899,7.12502,7.47749,-27.7389,-4.30369e-14,9.54166e-15,-29.4101,10.1314,84.4838,27.2989,-10.3725,-12.2627,25.0454,7.12502,13.8038,54.5674,-31.3267,1.06695,17.7096,37.6417,-13.8731,-5.75535,9.68281,-6.0165,-0.127679,-22.8504,18.9594,-17.1602,3.74623,-12.9782
0.964665,17.661,8.79613,-172.752,0.274569,-181.441,3.23646,-0.880333,-6.23983,0.428446,-1.32244,2.80966,-1.16407,-0.619255,6.4914,-19.5379,-2.87758,-8.31851,32.9527,0.446005,1.32653,14.735,0.0309735,2.2545,1.21259e-14,-1.27222e-14,-30.4717,-4.12529,-77.0274,39.3565,15.0502,-18.7933,1.83837,7.12502,7.50469,-28.0085,1.21259e-14,-1.27222e-14,-29.4291,10.0594,84.5421,27.5468,-10.3549,-12.0344,25.3017,7.12502,14.0238,54.8086,-31.2177,0.986078,17.9105,37.8336,-14.2327,-5.65509,10.1943,-5.90905,-0.476079,-22.6901,19.0245,-17.2432,4.17639,-13.5673
0.993183,17.6431,8.75426,-172.726,0.205309,-181.462,3.15852,-0.861977,-6.07175,0.508519,-1.28585,2.77167,-1.04772,-0.607679,6.35045,-19.7417,-2.93425,-8.32527,32.874,0.31205,1.41094,14.751,-0.0268582,2.26248,3.8763e-15,2.3059e-14,-29.9448,-4.03791,-76.9744,39.7547,14.5727,-19.0327,1.5209,7.12502,7.27362,-28.3341,3.8763e-15,2.3059e-14,-29.3555,9.92127,84.5297,27.6709,-10.336,-12.0215,25.3523,7.12502,14.0363,54.8584,-30.9947,1.07447,17.9004,37.9535,-14.7273,-4.83824,13.129,-5.80869,-0.694639,-22.6297,19.0913,-17.364,4.43226,-13.9163
1.02636,17.6425,8.70879,-172.694,-0.00382856,-181.498,3.04383,-0.846788,-5.88707,0.575643,-1.32285,2.69451,-0.917314,-0.66257,6.16125,-19.8091,-2.98648,-8.37666,32.6789,0.145097,1.57161,14.6846,-0.092575,2.29931,5.76476e-15,-2.06736e-14,-29.4059,-4.07537,-76.975,40.1167,14.1261,-19.2125,1.37624,7.12502,7.10006,-28.4847,5.76476e-15,-2.06736e-14,-29.2652,9.78212,84.4274,27.7599,-10.2749,-12.0005,25.4001,7.12502,14.0565,54.9047,-30.874,0.879648,18.0641,37.9866,-14.6293,-4.77898,9.93184,-5.72809,-0.858279,-22.5246,19.1932,-17.5344,4.43035,-13.9362
1.06196,17.6436,8.6629,-172.693,-0.28079,-181.57,3.04701,-0.880194,-5.8521,0.557001,-1.36622,2.6852,-0.932936,-0.68305,6.13308,-19.7148,-3.00456,-8.34373,32.506,0.0778234,1.54645,14.5882,-0.122204,2.26477,2.79292e-14,-5.56597e-15,-29.0967,-3.94592,-76.8439,40.6201,13.6622,-19.3007,1.74497,7.12502,7.01487,-28.1188,2.79292e-14,-5.56597e-15,-29.37,9.64582,84.4169,27.8969,-10.2247,-12.0483,25.4236,7.12502,14.0104,54.9315,-30.7064,0.536049,18.2481,37.9524,-14.4784,-4.9638,6.97033,-5.57876,-1.09324,-22.4494,19.1807,-17.5546,4.46834,-14.1878
1.09937,17.6407,8.61402,-172.717,-0.622388,-181.602,3.1195,-0.942876,-5.89622,0.492175,-1.45653,2.80317,-1.02308,-0.723931,6.28858,-19.6619,-3.04327,-8.44002,32.4626,0.0647415,1.50837,14.56,-0.143072,2.26207,3.18055e-15,2.94201e-14,-28.8715,-3.4329,-76.686,41.2429,12.5929,-19.3035,1.51521,7.12502,7.01221,-28.3486,3.18055e-15,2.94201e-14,-29.546,9.68849,84.5091,28.0163,-10.1954,-12.1895,25.5109,7.12502,13.8744,55.0281,-30.4191,0.180069,18.4325,37.875,-14.6137,-4.98287,7.6429,-5.36474,-1.33037,-22.3164,19.0589,-17.4874,4.46788,-14.5109
1.13916,17.6417,8.56479,-172.79,-0.985163,-181.553,3.19403,-1.02649,-5.9753,0.468506,-1.57922,3.03487,-1.06218,-0.785994,6.58553,-19.6189,-3.09128,-8.73161,32.4467,0.103658,1.51272,14.5465,-0.159142,2.32072,3.37934e-15,-1.59028e-14,-28.4505,-2.70194,-76.4799,41.7623,11.4438,-19.5698,1.02148,7.12502,6.75508,-28.8508,3.37934e-15,-1.59028e-14,-29.6681,9.86285,84.6891,28.1235,-10.2733,-12.164,25.3166,7.12502,13.899,54.8321,-30.0924,-0.151097,18.7187,37.8238,-14.7181,-5.08975,7.55921,-5.10703,-1.68733,-22.0842,18.9841,-17.4271,4.52842,-14.8889
1.17706,17.6454,8.51694,-172.784,-1.29799,-181.488,3.18085,-1.05507,-5.93285,0.455591,-1.61862,3.17545,-1.05919,-0.807738,6.71132,-19.4614,-3.1432,-8.9148,32.2485,0.0413538,1.54542,14.4285,-0.20304,2.3475,1.13307e-14,-1.82882e-14,-27.9532,-2.54445,-76.1605,42.327,11.5539,-19.8637,0.488525,7.12502,6.4714,-29.3926,1.13307e-14,-1.82882e-14,-29.6845,9.79407,84.8142,28.1887,-10.2233,-12.3522,24.7857,7.12502,13.7176,54.3136,-29.8823,-0.507602,19.0088,37.7869,-14.6555,-4.9983,7.40558,-4.96724,-2.0853,-21.8506,19.062,-17.4776,4.57257,-15.6999
1.2107,17.646,8.4702,-172.778,-1.49933,-181.562,3.20642,-1.00834,-5.68907,0.435652,-1.54686,3.0347,-1.11598,-0.768234,6.42073,-19.4292,-3.22373,-8.88333,32.1527,-0.173325,1.70701,14.3894,-0.271093,2.36655,9.14409e-15,1.66979e-14,-27.5253,-2.73557,-76.0594,42.9124,11.8835,-20.3134,-1.29179,7.12502,6.03723,-31.1858,9.14409e-15,1.66979e-14,-29.6866,9.27113,84.7668,28.3309,-9.89405,-12.4271,24.6624,7.12502,13.6454,54.1952,-29.7126,-0.816602,19.0996,37.7832,-14.5014,-4.67288,8.69516,-4.84403,-2.41471,-21.814,19.2265,-17.6974,4.69144,-17.5531
1.244,17.6462,8.42293,-172.841,-1.73142,-181.455,3.27818,-0.928631,-5.3474,0.453662,-1.43408,3.01511,-1.16388,-0.712762,6.20166,-19.5788,-3.35283,-8.99403,32.2656,-0.404623,1.99513,14.4886,-0.345592,2.46651,-1.2921e-14,2.8625e-14,-27.0685,-2.71053,-75.9167,43.379,11.319,-21.1251,-1.86933,7.12502,5.25356,-31.7842,-1.2921e-14,2.8625e-14,-29.6409,8.97077,84.8097,28.472,-9.77953,-12.363,24.9718,7.12502,13.7072,54.5003,-29.4515,-0.877073,19.3323,37.8035,-14.6595,-4.48084,10.2714,-4.75885,-2.76084,-21.5793,19.5222,-17.8427,4.8905,-19.0684
1.28134,17.6468,8.37536,-172.958,-1.99483,-181.29,3.45128,-0.873407,-5.0032,0.440129,-1.35789,3.00896,-1.29445,-0.672396,5.99964,-19.6007,-3.42397,-8.89939,32.2644,-0.574562,2.07525,14.5021,-0.395524,2.4529,-5.36719e-15,-2.3059e-14,-26.6465,-2.73737,-75.8252,43.8575,10.8344,-22.0069,-1.05481,7.12502,4.40208,-30.9891,-5.36719e-15,-2.3059e-14,-29.7026,8.67088,84.7763,28.6643,-9.6938,-12.1639,25.2773,7.12502,13.8991,54.7928,-29.128,-0.893716,19.6469,37.8337,-14.9879,-4.5191,10.8343,-4.73504,-3.24222,-21.2702,19.9919,-17.8928,5.15599,-19.2217
1.32161,17.6439,8.32816,-173.106,-2.09631,-181.188,3.64463,-0.786586,-4.81537,0.452285,-1.24533,3.02788,-1.40986,-0.614853,5.91194,-19.6495,-3.46311,-8.81197,32.1414,-0.665938,2.01563,14.462,-0.436828,2.39209,8.44835e-15,-1.59028e-15,-26.0856,-2.75865,-75.6878,44.4159,10.7872,-21.8868,-1.38508,7.12502,4.51806,-31.3169,8.44835e-15,-1.59028e-15,-29.7199,8.4878,84.7484,28.8189,-9.62822,-11.9532,25.3946,7.12502,14.1021,54.896,-28.8022,-0.93933,19.926,37.8205,-15.1089,-4.52138,11.0474,-4.75447,-3.58716,-21.0429,20.6443,-17.9414,5.48606,-19.8004
1.36332,17.6399,8.28034,-173.253,-2.1322,-181.055,3.75692,-0.674247,-4.70144,0.472434,-1.09928,3.13159,-1.47242,-0.543217,5.95196,-19.4028,-3.56607,-9.0764,31.8542,-0.848486,2.19809,14.2954,-0.523186,2.46981,1.58034e-14,-1.66979e-14,-25.4787,-2.59983,-75.4507,44.9728,10.5435,-21.1254,-1.58529,7.12502,5.25324,-31.5002,1.58034e-14,-1.66979e-14,-29.7495,8.58829,84.7813,28.9357,-9.69046,-11.6723,25.529,7.12502,14.3728,55.0114,-28.4827,-0.971491,20.2387,37.7728,-15.1316,-4.43741,11.0978,-4.77992,-3.69603,-20.772,21.3395,-17.8863,5.7117,-21.2379
1.40378,17.6436,8.23345,-173.303,-2.25313,-180.901,3.76069,-0.593839,-4.50577,0.482904,-0.987831,3.21158,-1.48108,-0.490494,5.91907,-19.1097,-3.71743,-9.39912,31.5668,-1.11146,2.45604,14.1284,-0.640541,2.57408,1.00386e-14,1.59028e-14,-24.8514,-2.42462,-75.2822,45.51,10.1209,-20.7269,-0.642107,7.12502,5.63805,-30.5471,1.00386e-14,1.59028e-14,-29.7963,8.69268,84.7863,29.0864,-9.77674,-11.6075,25.8107,7.12502,14.4352,55.2887,-28.2203,-0.979117,20.5706,37.7152,-15.2166,-4.42997,10.9888,-4.92144,-3.70316,-20.4433,22.0206,-17.8271,5.76225,-22.274
1.44294,17.6499,8.18637,-173.34,-2.45887,-180.857,3.82875,-0.559016,-4.31925,0.464594,-0.937272,3.21753,-1.54795,-0.464418,5.81768,-19.0747,-3.81139,-9.51769,31.4292,-1.26724,2.54753,14.074,-0.712697,2.59901,1.78906e-15,-7.95139e-16,-24.2821,-2.34951,-75.1713,46.093,9.90917,-20.7529,0.12626,7.12502,5.61288,-29.7794,1.78906e-15,-7.95139e-16,-29.9511,8.83274,84.7058,29.3231,-10.0115,-11.7146,25.7933,7.12502,14.332,55.2786,-27.9525,-1.05356,20.7841,37.6327,-15.357,-4.4752,11.2778,-5.08955,-3.88852,-20.2332,22.6956,-17.7996,5.72442,-22.8784
1.48289,17.6537,8.13539,-173.451,-2.64116,-181.007,3.89599,-0.498962,-4.36338,0.501473,-0.860612,3.16931,-1.55776,-0.425861,5.78932,-19.0922,-1.84188,-10.3673,31.1721,-2.19006,3.56706,13.9744,-2.34506,2.67748,-3.8763e-15,0,-23.6855,-2.36031,-75.0415,46.665,9.83419,-20.9876,0.186909,7.12502,5.38634,-29.7246,-3.8763e-15,0,-30.0225,8.82669,84.6589,29.565,-10.0343,-12.0319,25.4715,7.12502,14.0263,54.9782,-27.5646,-1.15358,20.775,37.5158,-15.5391,-4.51073,11.4719,-5.1841,-4.13734,-20.2573,23.4314,-17.6655,5.69863,-23.3796
1.52583,17.6617,8.08632,-173.494,-2.87323,-181.09,3.90121,-0.447545,-4.36994,0.506827,-0.791206,3.12861,-1.56478,-0.390263,5.74687,-19.098,-1.9401,-10.493,31.0714,-2.34781,3.82512,13.9503,-2.37893,2.77733,4.67144e-15,-3.49861e-14,-23.1212,-2.25727,-74.9522,47.2686,9.72623,-21.2134,-0.174989,7.12502,5.1683,-30.092,4.67144e-15,-3.49861e-14,-30.0421,8.67338,84.6129,29.7739,-9.78308,-12.0072,25.305,7.12502,14.05,54.8101,-27.2262,-1.1826,20.8352,37.3837,-15.665,-4.56893,11.8471,-5.4012,-4.34267,-20.181,24.2404,-17.4669,5.70327,-24.4049
1.57146,17.6707,8.04334,-173.494,-3.17489,-181.012,3.89439,-0.409131,-4.23092,0.485825,-0.734049,3.12979,-1.5919,-0.36132,5.66582,-19.1751,-2.0246,-10.3914,31.0215,-2.48042,3.84782,13.9562,-2.4095,2.74689,2.78299e-15,1.03368e-14,-22.4748,-2.08538,-74.8516,47.8036,9.36829,-21.3176,-0.37678,7.12502,5.06771,-30.2962,2.78299e-15,1.03368e-14,-30.0507,8.49543,84.5705,29.9769,-9.51558,-11.8641,25.4611,7.12502,14.188,54.9566,-26.942,-1.28391,21.0944,37.2222,-15.7738,-4.53129,12.778,-5.79901,-4.464,-19.8822,25.2037,-17.2744,5.51313,-24.9818
1.61708,17.6832,8.00096,-173.554,-3.52912,-181.024,3.96108,-0.38651,-4.14685,0.498156,-0.702969,3.11056,-1.62182,-0.345869,5.59685,-19.4514,-2.03761,-10.2629,31.0543,-2.46707,3.81969,14.0272,-2.37985,2.71783,-2.48481e-15,-4.45278e-14,-21.7081,-1.91074,-74.7574,48.3329,8.82972,-22.0344,-0.194351,7.12502,4.37551,-30.1292,-2.48481e-15,-4.45278e-14,-30.0378,8.34742,84.5378,30.2046,-9.19795,-11.9589,25.5802,7.12502,14.0967,55.0821,-26.5648,-1.54301,21.2788,37.0054,-15.8654,-4.51849,13.3415,-6.26078,-4.5919,-19.6669,26.366,-17.0576,5.21862,-25.2851
1.66276,17.6965,7.95896,-173.63,-3.87241,-181.099,4.03494,-0.363265,-4.11583,0.545769,-0.673859,3.07838,-1.6185,-0.332882,5.54442,-19.4715,-2.20373,-10.3017,30.8405,-2.66534,3.87848,13.959,-2.43829,2.7136,-5.66536e-15,1.51076e-14,-20.8486,-1.76369,-74.6777,48.854,8.32628,-23.8669,0.194538,7.12502,2.60588,-29.7693,-5.66536e-15,1.51076e-14,-29.989,8.21139,84.5388,30.5374,-8.77604,-12.063,25.7402,7.12502,13.9963,55.249,-26.1418,-1.64426,21.3811,36.739,-16.0116,-4.70273,12.8455,-6.8261,-4.74543,-19.513,27.7063,-16.7782,4.93375,-25.918
1.70661,17.7084,7.91581,-173.664,-4.09841,-181.167,4.02775,-0.295056,-4.13011,0.584243,-0.584113,3.08729,-1.58586,-0.290072,5.5569,-19.3003,-2.47704,-10.2662,30.545,-3.02669,3.77284,13.8264,-2.58339,2.6002,-1.38155e-14,1.11319e-14,-19.9533,-1.69494,-74.5087,49.3362,8.11077,-25.0892,0.196573,7.12502,1.42544,-29.7784,-1.38155e-14,1.11319e-14,-29.9413,8.03289,84.6208,30.8232,-8.54034,-12.0269,25.7275,7.12502,14.031,55.2339,-25.7693,-1.50147,21.456,36.4649,-16.2031,-4.96722,12.2007,-7.48497,-4.80739,-19.3536,29.1472,-16.3787,4.53585,-26.394
1.7484,17.7242,7.87397,-173.673,-4.37815,-181.159,4.07854,-0.222355,-4.06457,0.564375,-0.486703,3.13399,-1.64741,-0.240217,5.5644,-19.5274,-2.63902,-10.1521,30.5884,-3.21583,3.64046,13.9081,-2.66106,2.49385,-4.17448e-15,5.00937e-14,-19.0832,-1.62471,-74.2732,49.8105,7.96544,-25.1282,0.0462596,7.12502,1.38775,-29.929,-4.17448e-15,5.00937e-14,-29.92,7.91832,84.7191,30.9622,-8.50354,-12.0892,25.6182,7.12502,13.9711,55.1287,-25.429,-1.54868,21.619,36.1616,-16.3156,-5.13904,12.0956,-8.25382,-4.76615,-19.0991,30.6896,-15.8601,3.99418,-26.8889
1.79291,17.7381,7.83445,-173.665,-4.76972,-181.134,4.14238,-0.195244,-3.92936,0.522246,-0.446084,3.13124,-1.7329,-0.2174,5.48316,-19.7625,-2.75919,-10.1256,30.6608,-3.35889,3.64047,14.0034,-2.7126,2.46393,9.0447e-15,2.46493e-14,-18.2744,-1.57472,-74.158,50.3607,7.75853,-25.0517,0.0205346,7.12502,1.46161,-29.9542,9.0447e-15,2.46493e-14,-29.8707,7.7835,84.6992,31.0462,-8.35349,-12.2034,25.4681,7.12502,13.861,54.9863,-25.1189,-1.76111,21.8318,35.8467,-16.394,-5.31078,12.5381,-9.11846,-4.69257,-18.7752,32.3069,-15.2336,3.30384,-27.587
1.83487,17.7487,7.79429,-173.673,-5.11488,-181.039,4.07972,-0.149187,-3.68254,0.565794,-0.374389,3.11723,-1.66332,-0.186805,5.32226,-19.8603,-2.9402,-10.2425,30.5804,-3.59881,3.81118,14.0178,-2.79124,2.51062,7.65321e-15,-3.97569e-15,-17.316,-1.42406,-74.0537,51.0984,7.70168,-25.1057,-1.26659,7.12502,1.40952,-31.2417,7.65321e-15,-3.97569e-15,-29.6234,7.67152,84.6705,31.0876,-8.37361,-12.4294,25.2287,7.12502,13.6432,54.7616,-24.7756,-1.88466,22.0987,35.517,-16.51,-5.40788,13.8741,-10.0754,-4.54208,-18.374,33.9906,-14.6291,2.56687,-28.5003
1.87755,17.7565,7.75437,-173.735,-5.42164,-181.004,4.05362,-0.0860328,-3.62687,0.649427,-0.291724,3.18933,-1.57227,-0.152074,5.36088,-19.965,-3.09522,-10.3079,30.491,-3.74322,3.76657,14.0171,-2.85223,2.47763,-5.56597e-15,6.36111e-15,-16.1988,-1.18253,-73.7275,51.4849,7.32727,-24.7662,-0.491232,7.12502,1.73733,-30.4639,-5.56597e-15,6.36111e-15,-29.4267,7.64758,84.7891,31.256,-8.43739,-12.4925,25.0884,7.12502,13.5823,54.6253,-24.3484,-2.07663,22.3058,35.1463,-16.5393,-5.34272,14.9959,-11.0491,-4.36793,-18.0277,35.7542,-14.0062,1.65754,-28.8728
1.91913,17.7696,7.71535,-173.815,-5.78105,-181.161,4.14604,-0.0504955,-3.45836,0.642636,-0.235108,2.97791,-1.63918,-0.120071,5.04063,-19.9218,-3.19538,-10.1475,30.4907,-3.99177,3.88157,14.0272,-2.92271,2.45288,-1.0635e-14,3.02153e-14,-15.2485,-1.11472,-73.7206,51.8127,6.95128,-25.037,-0.082136,7.12502,1.47587,-30.0568,-1.0635e-14,3.02153e-14,-29.4909,7.29945,84.5937,31.6287,-8.29883,-12.1245,25.144,7.12502,13.937,54.657,-23.8626,-2.33451,22.2877,34.7311,-16.5772,-5.30075,15.4853,-11.984,-4.19343,-17.9233,37.5745,-13.1262,0.82095,-29.5612
1.96002,17.7899,7.67623,-173.926,-6.12446,-181.105,4.26699,0.0487368,-3.23164,0.61038,-0.095065,2.93175,-1.75646,-0.047835,4.85636,-19.8823,-3.35602,-10.1326,30.5123,-4.29477,4.03355,14.0584,-3.03011,2.45765,1.10325e-14,-1.59028e-14,-14.3249,-1.02526,-73.5033,52.126,6.68851,-25.4078,-0.150481,7.12502,1.11773,-30.1273,1.10325e-14,-1.59028e-14,-29.5135,7.08459,84.5688,31.8902,-8.29436,-11.9073,25.2907,7.12502,14.1463,54.7891,-23.3344,-2.45266,22.4965,34.2882,-16.6752,-5.41801,15.7711,-12.9124,-3.95672,-17.5896,39.418,-12.036,0.0610835,-29.53
1.99661,17.8062,7.63736,-174.018,-6.39675,-180.911,4.28464,0.152744,-2.85069,0.644704,0.0566209,2.9376,-1.74697,0.0229593,4.63668,-19.9738,-3.53998,-10.2057,30.4831,-4.55816,4.17591,14.0963,-3.12221,2.4799,8.84592e-15,2.3059e-14,-13.299,-0.804165,-73.2402,52.5985,6.45323,-25.9052,-0.564819,7.12502,0.637302,-30.5436,8.84592e-15,2.3059e-14,-29.3754,6.85106,84.6326,32.1533,-8.18672,-11.9593,25.4549,7.12502,14.0962,54.9568,-22.8653,-2.62355,22.8711,33.8453,-16.6658,-5.55325,16.0452,-13.9536,-3.73438,-17.0912,41.2755,-10.7486,-0.803026,-28.3312
2.03419,17.8191,7.59796,-174.122,-6.61835,-180.801,4.47048,0.228663,-2.61004,0.560449,0.165825,2.98151,-1.94851,0.0805446,4.54023,-19.9682,-3.61815,-10.4884,30.5617,-4.66083,4.39931,14.1545,-3.17311,2.60059,-1.71949e-14,-1.03368e-14,-12.3849,-0.297075,-72.8958,53.0801,6.21543,-26.5521,-0.861056,7.12502,0.012463,-30.8408,-1.71949e-14,-1.03368e-14,-29.5677,6.75154,84.6992,32.518,-8.11567,-12.0558,25.3826,7.12502,14.0033,54.891,-22.403,-2.80225,23.1421,33.4175,-16.6813,-5.64613,16.3274,-15.044,-3.60272,-16.6886,43.1393,-9.3641,-1.64487,-26.8756
2.07558,17.8283,7.56508,-174.213,-6.8557,-180.698,4.43922,0.31574,-2.46941,0.627962,0.284011,3.05518,-1.87276,0.133672,4.52967,-19.934,-3.7361,-10.7662,30.4626,-4.79515,4.63056,14.133,-3.22236,2.71828,1.41137e-14,-1.11319e-14,-11.1504,0.148303,-72.4591,53.4322,5.94439,-26.6,-0.410586,7.12502,-0.0337692,-30.3903,1.41137e-14,-1.11319e-14,-29.5496,6.69497,84.8096,32.868,-8.10492,-12.231,25.1435,7.12502,13.8344,54.6634,-21.9975,-2.93982,23.424,33.0307,-16.6797,-5.79262,16.3826,-16.1554,-3.40189,-16.2839,44.9757,-8.17114,-2.58879,-26.4669
2.10334,17.8362,7.53441,-174.123,-7.5917,-180.661,4.51413,0.247038,-1.7813,0.431261,0.233993,2.74155,-2.10778,0.114457,3.81555,-19.6751,-3.87229,-10.5181,30.3814,-5.19034,4.82622,14.0761,-3.33932,2.68501,-4.58199e-14,4.29375e-14,-10.3338,0.207073,-72.4584,53.7473,5.82529,-26.4328,0.353853,7.12502,0.127774,-29.6259,-4.58199e-14,4.29375e-14,-29.6965,6.1897,84.4495,33.0916,-8.04592,-12.3762,24.6787,7.12502,13.6944,54.2082,-21.8038,-3.50735,23.6349,32.7181,-16.7453,-5.8969,16.3655,-17.5802,-3.64941,-15.9644,46.8176,-7.46086,-3.39864,-27.0878
2.15639,17.8417,7.49869,-174.449,-7.54287,-180.507,4.74567,0.4785,-1.73928,0.560088,0.536777,2.7666,-2.12882,0.261493,3.79802,-19.7424,-4.05727,-10.4688,30.3125,-5.44565,4.81955,14.0849,-3.43229,2.62657,-9.93923e-17,9.54166e-15,-9.09882,0.37427,-72.0576,54.0539,5.86674,-25.7773,0.333118,7.12502,0.760798,-29.6453,-9.93923e-17,9.54166e-15,-29.4923,6.1417,84.448,33.2472,-8.11575,-12.4084,24.3693,7.12502,13.6634,53.9009,-21.1624,-3.24331,23.9516,32.429,-16.8913,-6.04293,16.3559,-18.3717,-3.16146,-15.5504,48.6478,-7.56587,-3.88534,-26.9165
2.19255,17.8468,7.47062,-174.523,-7.73364,-180.586,4.7695,0.533069,-1.82608,0.732927,0.59612,2.87061,-1.97098,0.283767,3.95154,-20.1808,-4.21295,-10.6062,30.2717,-5.48535,4.72869,14.1708,-3.45113,2.60221,-3.78685e-14,-2.8625e-14,-7.47681,0.826525,-71.4514,54.3406,6.04059,-24.958,0.113056,7.12502,1.55215,-29.861,-3.78685e-14,-2.8625e-14,-29.2473,6.34667,84.6664,33.6662,-7.99723,-12.3033,24.5001,7.12502,13.7647,54.0248,-20.8481,-3.36562,24.0068,32.1579,-16.8677,-6.1566,16.2375,-19.5191,-2.9912,-15.444,50.4895,-7.69186,-4.55026,-27.687
2.2262,17.8524,7.43884,-174.561,-7.94878,-180.614,4.76697,0.652222,-1.76975,0.772546,0.755907,2.87968,-1.94132,0.361509,3.91862,-20.2049,-4.41783,-10.7376,30.0998,-5.74848,4.88407,14.1385,-3.54112,2.63864,4.77083e-15,-3.97569e-15,-6.24526,1.01367,-70.8874,54.654,6.18313,-24.4149,0.554128,7.12502,2.07662,-29.4155,4.77083e-15,-3.97569e-15,-29.2004,6.16588,84.8328,34.0569,-7.7777,-12.3427,24.6945,7.12502,13.7267,54.2217,-20.4866,-3.45059,24.0568,31.8353,-17.0885,-5.90094,17.6725,-20.7076,-2.76823,-15.2984,52.3104,-8.10201,-5.38405,-27.6365
2.25841,17.8599,7.40824,-174.653,-8.07528,-180.556,4.89215,0.855,-1.60053,0.741305,1.03495,2.85294,-2.06275,0.501831,3.77518,-20.0802,-4.62908,-10.7565,29.9141,-6.09351,5.04634,14.0724,-3.65862,2.64461,3.83654e-14,1.35174e-14,-5.10313,1.07832,-70.298,54.8557,6.241,-23.6961,0.729767,7.12502,2.77087,-29.232,3.83654e-14,1.35174e-14,-29.1808,5.82759,84.9523,34.3611,-7.61372,-12.4194,24.5517,7.12502,13.6528,54.0839,-20.0834,-3.5523,24.2043,31.4887,-17.1736,-5.65306,18.6964,-21.8797,-2.45347,-15.0991,54.1351,-8.72182,-5.98053,-26.7874
2.2897,17.8738,7.37889,-174.726,-8.21014,-180.523,5.04099,1.02517,-1.46924,0.703076,1.2692,2.83345,-2.20035,0.620071,3.66238,-20.127,-4.75823,-10.6634,30.0167,-6.32972,5.05303,14.1477,-3.75065,2.58674,7.25564e-15,2.8625e-14,-3.81863,1.18178,-69.7414,54.9481,6.46586,-23.3357,0.403185,7.12502,3.11895,-29.5538,7.25564e-15,2.8625e-14,-29.2258,5.5681,85.0684,34.7187,-7.45138,-12.4606,24.5619,7.12502,13.6131,54.0968,-19.7827,-3.80516,24.4178,31.0976,-16.8553,-5.95014,17.3192,-23.1123,-2.14347,-14.943,55.9315,-9.2683,-6.51277,-25.6074
2.32127,17.8864,7.34808,-174.821,-8.45239,-180.468,5.19527,1.1257,-1.35004,0.660193,1.40967,2.85953,-2.33925,0.690794,3.60948,-20.1047,-4.8476,-10.7688,30.1505,-6.52895,5.26129,14.2346,-3.82858,2.6522,-9.14409e-15,-7.15625e-15,-2.44447,1.33652,-69.2032,54.8869,6.69793,-23.2257,0.876943,7.12502,3.22511,-29.0784,-9.14409e-15,-7.15625e-15,-29.3883,5.5795,85.1611,35.1292,-7.28581,-12.3812,24.9222,7.12502,13.6896,54.4519,-19.414,-4.02737,24.6511,30.6795,-16.6496,-6.3354,16.13,-24.3679,-1.86624,-14.7437,57.7042,-9.70469,-7.11486,-25.4513
2.35534,17.8984,7.31816,-174.984,-8.65562,-180.423,5.42258,1.23964,-1.29964,0.676299,1.56134,2.91745,-2.4614,0.765504,3.62638,-20.1045,-4.98673,-10.9637,30.0852,-6.7143,5.45571,14.2429,-3.89729,2.72955,-1.82882e-14,2.38542e-15,-1.0528,1.52521,-68.586,54.9677,6.5043,-22.6905,0.864329,7.12502,3.74196,-29.0826,-1.82882e-14,2.38542e-15,-29.3993,5.61413,85.2741,35.4561,-7.07796,-12.2104,25.006,7.12502,13.8542,54.5246,-18.9089,-4.0673,24.8157,30.2848,-16.6747,-6.50104,16.277,-25.5124,-1.55138,-14.5792,59.4462,-10.2422,-7.54164,-25.7821
2.39027,17.9103,7.29361,-175.167,-8.63784,-180.416,5.68031,1.44415,-1.29253,0.754196,1.82938,2.92938,-2.54521,0.897284,3.60946,-20.1986,-5.15899,-10.9566,29.9547,-6.91878,5.45695,14.2286,-3.96726,2.68869,-1.33186e-14,-5.08889e-14,0.284112,1.68127,-67.9539,55.1879,6.49723,-22.4092,-0.236462,7.12502,4.01367,-30.1784,-1.33186e-14,-5.08889e-14,-29.3023,5.56965,85.3606,35.7815,-6.78917,-12.1132,24.8915,7.12502,13.9479,54.4036,-18.44,-4.03492,24.935,29.9109,-16.6105,-6.54758,16.3669,-26.6149,-1.06054,-14.5087,61.1649,-10.7856,-7.81991,-25.6788
