JuanDHNZ/ProyectoFinalCD/preprocessing/sports_trials_csv/14_31.csv
root1,root2,root3,root4,root5,root6,lowerback1,lowerback2,lowerback3,upperback1,upperback2,upperback3,thorax1,thorax2,thorax3,lowerneck1,lowerneck2,lowerneck3,upperneck1,upperneck2,upperneck3,head1,head2,head3,rclavicle1,rclavicle2,rhumerus1,rhumerus2,rhumerus3,rradius1,rwrist1,rhand1,rhand2,rfingers1,rthumb1,rthumb2,lclavicle1,lclavicle2,lhumerus1,lhumerus2,lhumerus3,lradius1,lwrist1,lhand1,lhand2,lfingers1,lthumb1,lthumb2,rfemur1,rfemur2,rfemur3,rtibia1,rfoot1,rfoot2,rtoes1,lfemur1,lfemur2,lfemur3,ltibia1,lfoot1,lfoot2,ltoes1
-9.42887,17.6489,-2.42382,7.93833,47.7814,2.24277,3.93144,-2.01912,-6.24465,0.973698,-2.90912,1.94068,-0.783745,-1.45395,5.64314,-12.6484,4.16124,-6.64519,41.8241,8.56689,2.81861,16.9161,3.17804,4.01969,-6.96243e-14,2.06736e-14,-32.3985,-11.5188,-77.1962,36.8493,20.3111,-25.1801,0.316448,7.12502,1.33765,-29.6591,-6.96243e-14,2.06736e-14,-26.6983,11.2887,84.1157,23.8004,-9.96763,-16.5101,26.3997,7.12502,9.70804,56.156,-29.7811,-0.207677,10.5336,43.7361,-11.833,-6.42261,0.508876,-13.8594,5.88546,-27.8704,28.3176,-17.4769,4.1209,-6.43098
-9.42353,17.6463,-2.42272,8.05187,47.8795,2.36193,3.93506,-1.92033,-6.21624,1.08271,-2.77331,1.95081,-0.693127,-1.39195,5.63066,-12.3854,4.3295,-6.65669,41.8775,8.77748,2.93991,16.8514,3.29006,4.09709,-9.54166e-15,3.97569e-16,-32.5064,-11.7352,-76.9084,36.7821,20.4479,-25.2383,0.23348,7.12502,1.28146,-29.7424,-9.54166e-15,3.97569e-16,-26.6012,11.3346,84.1745,24.0596,-9.87295,-16.636,26.435,7.12502,9.58656,56.1969,-30.2594,-0.377633,10.6093,44.4856,-12.0023,-7.48586,-0.680586,-13.9182,6.10575,-27.9665,28.3732,-17.6466,3.70747,-5.92683
-9.417,17.6389,-2.42108,8.12146,48.0853,2.3889,3.94216,-1.8977,-6.15424,1.13723,-2.73885,2.01129,-0.645485,-1.37784,5.65667,-12.1378,4.46207,-6.76507,42.0052,8.97114,3.0656,16.8282,3.37659,4.19582,-2.51463e-14,-2.18663e-14,-32.6697,-11.7392,-76.641,36.6806,20.5027,-25.2284,0.0692852,7.12502,1.291,-29.9066,-2.51463e-14,-2.18663e-14,-26.7043,10.9489,84.3319,24.5598,-9.22938,-16.6456,26.6418,7.12502,9.57733,56.4041,-30.7591,-0.820626,10.8007,45.2354,-12.1644,-8.30501,-0.768213,-13.9893,6.18174,-27.9808,28.4435,-17.7936,3.34355,-5.19357
-9.40971,17.6322,-2.42055,8.33,48.3081,2.59398,3.98164,-1.90776,-6.18472,1.18084,-2.75437,2.02303,-0.618035,-1.38771,5.68732,-11.9117,4.58376,-6.87802,42.1371,9.14209,3.20802,16.812,3.45378,4.29994,1.06499e-13,-2.22639e-14,-32.7802,-11.7379,-76.4513,36.4775,20.5891,-25.294,-0.113139,7.12502,1.22763,-30.0894,1.06499e-13,-2.22639e-14,-26.7084,11.0508,84.321,24.7664,-9.05355,-16.8549,26.5256,7.12502,9.37532,56.2971,-31.238,-1.25912,10.8562,45.9102,-12.3719,-9.03433,-0.727857,-14.0467,6.20018,-28.1252,28.4759,-17.8272,3.22159,-5.27926
-9.40123,17.6289,-2.42352,8.52814,48.526,2.7002,3.99083,-1.90884,-6.10155,1.22013,-2.7516,2.04658,-0.585757,-1.38832,5.66407,-11.6437,4.70511,-6.9333,42.1024,9.30335,3.26096,16.704,3.53213,4.33756,3.80673e-14,-4.77083e-15,-32.8593,-11.8778,-76.2269,36.2407,20.7793,-25.2802,0.142659,7.12502,1.24093,-29.8335,3.80673e-14,-4.77083e-15,-26.6309,11.2629,84.324,24.8926,-9.12308,-16.951,26.3388,7.12502,9.28258,56.1144,-31.793,-1.66157,11.0052,46.5005,-12.4947,-9.76052,-1.43546,-14.1682,6.13908,-28.2225,28.4713,-17.832,3.18731,-5.3522
-9.38911,17.6258,-2.4251,8.84199,48.7332,2.99538,4.01035,-1.9583,-6.13524,1.26617,-2.81856,2.05647,-0.537148,-1.4248,5.69519,-11.4881,4.81699,-7.1096,42.0538,9.50241,3.28359,16.6107,3.6,4.39258,-6.15239e-14,5.1684e-15,-32.8282,-11.9925,-75.976,35.9492,21.1644,-25.0339,0.295176,7.12502,1.47879,-29.6794,-6.15239e-14,5.1684e-15,-26.7366,11.2116,84.37,25.3226,-8.77513,-16.957,26.2917,7.12502,9.27681,56.0676,-32.282,-2.0408,10.993,46.9928,-12.7214,-10.0436,-0.906475,-14.2039,6.02652,-28.4582,28.4165,-17.8085,3.06121,-5.22109
-9.37707,17.623,-2.41701,9.11643,48.9249,3.32966,4.03708,-1.99059,-6.317,1.34238,-2.86796,2.08228,-0.455139,-1.45505,5.82603,-11.3785,4.87001,-7.26611,42.0977,9.6216,3.30728,16.5877,3.63194,4.44321,-4.74101e-14,8.34896e-15,-32.8012,-12.0069,-75.741,35.6544,21.4625,-25.0144,0.0229379,7.12502,1.49769,-29.9516,-4.74101e-14,8.34896e-15,-26.8829,10.9447,84.4303,25.773,-8.32629,-16.8804,25.9516,7.12502,9.35075,55.7242,-32.6278,-2.37774,10.965,47.3648,-13.1308,-9.88361,1.25374,-14.1172,5.90228,-28.6737,28.3311,-17.8405,2.93433,-4.8412
-9.36705,17.6233,-2.40385,9.26071,49.1082,3.44377,4.00043,-1.98175,-6.37429,1.408,-2.85414,2.10554,-0.364362,-1.45348,5.87916,-11.1693,4.89538,-7.31515,42.0751,9.6281,3.37802,16.5123,3.64649,4.46843,-1.43224e-13,8.74653e-15,-32.8602,-12.1288,-75.5183,35.3847,21.6287,-24.9104,-0.16729,7.12502,1.59808,-30.1411,-1.43224e-13,8.74653e-15,-26.8801,10.9903,84.3676,25.9072,-8.38382,-17.0417,25.8556,7.12502,9.19508,55.6351,-33.0146,-2.70338,11.1649,47.6405,-13.3074,-9.85874,1.70952,-14.075,6.00661,-28.7183,28.2075,-17.8163,2.64094,-4.67548
-9.35245,17.6301,-2.39615,9.20699,49.2681,3.24012,3.93163,-1.94789,-6.10023,1.45801,-2.79277,2.13652,-0.295509,-1.42549,5.74987,-10.9716,4.90668,-7.28654,42.0372,9.62967,3.35707,16.4461,3.65831,4.44014,-3.79679e-14,3.65764e-14,-32.9248,-12.3657,-75.2895,35.0415,21.597,-24.8424,0.108282,7.12502,1.66375,-29.865,-3.79679e-14,3.65764e-14,-26.7931,10.9498,84.3567,25.9848,-8.42583,-16.9381,26.1966,7.12502,9.2951,55.9717,-33.4555,-2.93466,11.5651,47.8099,-13.3258,-9.92576,1.19143,-14.0927,6.13863,-28.5724,28.1151,-17.844,2.46461,-5.06626
-9.33212,17.6344,-2.3883,9.36968,49.3598,3.32822,3.82773,-1.98249,-6.09784,1.50639,-2.83106,2.2159,-0.177581,-1.45056,5.82688,-10.7736,5.00089,-7.39166,42.0205,9.84892,3.21282,16.381,3.72205,4.41313,-3.01159e-14,-4.37326e-15,-32.8764,-12.1891,-75.0785,34.5859,21.3388,-25.0453,0.548144,7.12502,1.46783,-29.4266,-3.01159e-14,-4.37326e-15,-26.7928,11.1811,84.443,26.1384,-8.1177,-16.6038,26.291,7.12502,9.6176,56.0515,-33.8854,-3.18954,11.7298,47.8957,-13.2487,-9.82557,0.0572554,-14.1044,6.28016,-28.6412,28.0782,-17.9509,2.20354,-4.78126
-9.31595,17.6262,-2.37853,9.58104,49.5333,3.56408,3.86236,-2.0998,-6.30488,1.54657,-2.99478,2.35722,-0.111972,-1.53794,6.09751,-10.726,5.10657,-7.71511,42.1004,10.1221,3.18607,16.3774,3.7819,4.49664,5.33737e-14,1.90833e-14,-32.7685,-11.7343,-74.8739,34.1358,21.234,-25.2585,0.632199,7.12502,1.2619,-29.3438,5.33737e-14,1.90833e-14,-26.8393,11.4241,84.625,26.2937,-7.30521,-16.467,26.418,7.12502,9.74964,56.1723,-34.1471,-3.62754,11.8782,47.9009,-13.4092,-9.43492,0.246651,-14.0628,6.30407,-28.7829,28.0684,-18.0757,1.9309,-3.90089
-9.30367,17.6208,-2.36721,9.61955,49.7124,3.57282,4.00117,-2.1609,-6.33069,1.52144,-3.0847,2.46537,-0.194215,-1.57985,6.23557,-10.6538,5.13851,-7.98003,42.2413,10.2258,3.27698,16.4047,3.79418,4.60077,-2.39536e-14,1.35174e-14,-32.9139,-11.4689,-74.6506,33.8804,21.3103,-25.4634,0.460199,7.12502,1.06397,-29.5169,-2.39536e-14,1.35174e-14,-27.0412,11.4056,84.6913,26.4835,-6.77717,-16.344,26.5931,7.12502,9.8683,56.3418,-34.4091,-3.93394,12.2039,47.8315,-13.537,-9.12188,0.872899,-14.0645,6.56331,-28.7741,28.0782,-18.1689,1.62096,-4.07387
-9.28666,17.6217,-2.35622,9.57583,49.8025,3.44162,4.04001,-2.09582,-6.14102,1.52973,-2.99206,2.49595,-0.230354,-1.53128,6.15906,-10.4866,5.06687,-8.07009,42.2543,10.1074,3.33881,16.369,3.74637,4.61738,-1.26228e-13,2.78299e-15,-33.127,-11.7215,-74.3425,33.6198,21.4655,-25.5283,0.303976,7.12502,1.00133,-29.6734,-1.26228e-13,2.78299e-15,-27.0604,11.4594,84.5959,26.3855,-7.19885,-16.4553,26.4598,7.12502,9.76087,56.2136,-34.7428,-4.13587,12.6189,47.7018,-13.3298,-9.0011,-1.04891,-14.0708,6.67982,-28.6884,28.1101,-18.2751,1.50462,-4.25627
-9.26809,17.6209,-2.3464,9.69336,49.9042,3.42904,3.99307,-2.09363,-6.07441,1.55826,-2.98257,2.57069,-0.175355,-1.52928,6.19652,-10.4639,5.02437,-8.22573,42.2976,10.0886,3.3503,16.3798,3.71603,4.64837,8.54774e-14,-3.4191e-14,-33.1223,-11.8536,-74.0175,33.292,21.514,-25.1753,0.38424,7.12502,1.34222,-29.5913,8.54774e-14,-3.4191e-14,-27.0412,11.9058,84.4208,26.2073,-8.03873,-16.7692,25.7887,7.12502,9.45805,55.5565,-35.1141,-4.33656,12.9381,47.5105,-13.1136,-8.80706,-3.64916,-14.1377,6.69278,-28.6873,28.1189,-18.3638,1.36917,-4.09769
-9.24682,17.6144,-2.33696,9.92939,50.0492,3.62305,4.01978,-2.14299,-6.13545,1.54352,-3.05204,2.61086,-0.18926,-1.56374,6.27707,-10.3689,5.03608,-8.33222,42.315,10.1496,3.30658,16.3606,3.72219,4.65126,3.03147e-14,2.06736e-14,-33.2032,-12.1647,-73.6317,32.8779,21.9974,-24.8529,0.986362,7.12502,1.65368,-28.987,3.03147e-14,2.06736e-14,-27.1734,12.5043,84.2054,26.0515,-8.82575,-16.7879,26.4146,7.12502,9.44,56.1832,-35.4188,-4.66062,13.0797,47.2718,-12.8434,-8.37507,-4.93184,-14.1132,6.63761,-28.8454,28.0469,-18.3577,1.41875,-4.67661
-9.22647,17.6069,-2.32784,10.2047,50.1425,3.88066,4.09251,-2.11534,-6.2306,1.49551,-3.0236,2.63529,-0.277475,-1.54545,6.36127,-10.0627,4.97459,-8.39854,42.1828,10.0676,3.20608,16.2282,3.68241,4.57933,3.89618e-14,1.98785e-14,-33.4605,-12.5759,-73.1746,32.4858,22.667,-25.3416,1.22385,7.12502,1.18164,-28.7526,3.89618e-14,1.98785e-14,-27.2789,12.7719,84.202,25.9356,-9.17831,-16.6968,28.4603,7.12502,9.52786,58.2248,-35.7683,-4.90717,13.1585,46.9708,-12.75,-7.84974,-4.18003,-14.0722,6.64281,-29.0644,27.9094,-18.3381,1.51993,-5.6363
-9.20583,17.6098,-2.31397,10.4598,50.1664,4.06015,4.01831,-2.07323,-6.31724,1.52034,-2.96581,2.67066,-0.212497,-1.52027,6.44231,-9.92197,4.88881,-8.50731,42.101,9.96625,3.14687,16.1592,3.62508,4.5444,2.55438e-14,-9.54166e-15,-33.5211,-12.7806,-72.8741,32.1111,22.964,-25.8956,0.951346,7.12502,0.64653,-29.0274,2.55438e-14,-9.54166e-15,-27.2488,13.1492,84.2121,25.8349,-9.46979,-16.5296,29.0125,7.12502,9.68923,58.7697,-36.1827,-4.94767,13.2601,46.5934,-12.7955,-7.48312,-2.81117,-14.0329,6.78722,-29.209,27.718,-18.2957,1.38832,-6.13922
-9.18694,17.62,-2.29726,10.576,50.2409,4.0704,4.01166,-2.05433,-6.24561,1.54372,-2.9367,2.68272,-0.192297,-1.50667,6.41244,-9.91805,4.81994,-8.67085,42.1328,9.86627,3.25786,16.1638,3.57283,4.60842,6.20208e-14,7.95139e-16,-33.5767,-12.9255,-72.6799,31.8328,22.9793,-26.0301,0.786822,7.12502,0.516647,-29.1923,6.20208e-14,7.95139e-16,-27.2454,13.3313,84.1516,25.8249,-9.45672,-16.3869,28.5319,7.12502,9.82687,58.2826,-36.5426,-4.7154,13.3726,46.1335,-12.8492,-7.37001,-0.293299,-13.9523,6.85377,-29.187,27.5108,-18.275,1.14152,-5.81001
-9.16447,17.6256,-2.27875,10.6692,50.3732,4.01517,4.01818,-2.08118,-6.09391,1.49016,-2.96812,2.67505,-0.255309,-1.51776,6.32037,-9.82961,4.79182,-8.76685,42.1655,9.78298,3.40936,16.1458,3.54569,4.67519,1.05952e-13,-2.70347e-14,-33.7988,-13.2633,-72.4826,31.5906,23.18,-26.0724,0.817025,7.12502,0.475789,-29.1622,1.05952e-13,-2.70347e-14,-27.4384,13.4149,83.9618,25.8212,-9.34282,-16.4386,27.78,7.12502,9.77704,57.5331,-36.8506,-4.64905,13.6101,45.6059,-12.6218,-7.30167,0.984976,-13.8847,6.77066,-29.1216,27.3205,-18.2723,1.10137,-5.82862
-9.14047,17.622,-2.26029,10.9048,50.5533,4.15319,3.98207,-2.11636,-6.11525,1.45941,-3.01468,2.66845,-0.25903,-1.54028,6.32592,-9.67705,4.73897,-8.80068,42.1129,9.67301,3.44491,16.0843,3.50698,4.66827,7.17613e-14,-4.77083e-15,-33.9681,-13.571,-72.2245,31.3095,23.3229,-26.161,0.629818,7.12502,0.39023,-29.3496,7.17613e-14,-4.77083e-15,-27.5094,13.7606,83.7367,25.5564,-9.55725,-16.3193,26.6364,7.12502,9.89209,56.384,-37.1162,-4.8542,13.8294,45.0351,-12.3035,-7.00621,0.618255,-13.8397,6.70408,-29.1933,27.182,-18.2952,1.00574,-5.88657
-9.11931,17.6184,-2.24154,11.069,50.5665,4.21667,3.95263,-1.99358,-6.01737,1.5155,-2.84543,2.55104,-0.222004,-1.45711,6.13913,-9.73064,4.57339,-8.60984,42.0685,9.36636,3.45896,16.1077,3.40955,4.60277,-1.94809e-14,1.03368e-14,-34.0698,-14.4508,-71.9618,31.0087,23.5465,-26.2512,0.570982,7.12502,0.303091,-29.4085,-1.94809e-14,1.03368e-14,-27.4267,13.5215,83.6108,25.4245,-9.61355,-16.2712,25.8172,7.12502,9.93847,55.5625,-37.4084,-4.86958,14.0591,44.4436,-12.1191,-6.69635,-0.633263,-13.8518,6.83261,-29.2413,27.1384,-18.3484,0.827704,-5.82023
-9.09738,17.6196,-2.22258,11.1338,50.5689,4.13946,3.95121,-1.79877,-5.78533,1.62674,-2.57552,2.40506,-0.164802,-1.32443,5.84331,-10.0114,4.36276,-8.26547,42.0389,8.97601,3.47006,16.2085,3.29276,4.51291,-5.34731e-14,4.77083e-15,-34.2219,-15.5608,-71.7265,30.904,23.6989,-26.1875,0.650972,7.12502,0.364653,-29.3285,-5.34731e-14,4.77083e-15,-27.1648,12.953,83.6044,25.2964,-9.57511,-16.3942,25.2571,7.12502,9.81984,55.0081,-37.7097,-4.86045,14.4007,43.8434,-11.9643,-6.63242,-2.35825,-13.8522,6.7648,-29.1725,27.1054,-18.3887,0.771468,-5.2843
-9.07537,17.6158,-2.20105,11.2025,50.6999,4.14853,4.00356,-1.71943,-5.6487,1.70607,-2.46605,2.31794,-0.138027,-1.27094,5.67124,-10.1755,4.21205,-8.11499,42.0102,8.69785,3.52058,16.2587,3.20267,4.47933,4.79071e-14,3.18055e-15,-34.3571,-16.1647,-71.571,30.8297,23.5496,-25.903,0.701128,7.12502,0.639383,-29.2777,4.79071e-14,3.18055e-15,-26.9429,12.9593,83.5033,24.9887,-9.81322,-16.5922,24.5924,7.12502,9.62879,54.3523,-37.8737,-4.89255,14.6902,43.2254,-11.9358,-6.69866,-2.70044,-13.764,6.74027,-29.1293,27.052,-18.4657,0.639612,-5.108
-9.0498,17.612,-2.17783,11.3514,50.8401,4.26576,4.02977,-1.84086,-5.76875,1.682,-2.63319,2.43824,-0.142282,-1.35534,5.87222,-9.92637,4.25021,-8.3342,41.8468,8.80862,3.41305,16.1004,3.2153,4.45823,5.12864e-14,-7.15625e-15,-34.3598,-16.0048,-71.3447,30.6201,23.551,-25.7237,0.625097,7.12502,0.81264,-29.3531,5.12864e-14,-7.15625e-15,-27.0951,13.9768,83.3046,24.5934,-10.4255,-16.613,23.5203,7.12502,9.60874,53.2811,-38.0215,-4.90273,14.8607,42.5822,-11.9294,-6.69722,-2.47616,-13.6416,6.70817,-29.1771,26.9475,-18.5624,0.612256,-5.32861
-9.0229,17.6142,-2.15592,11.5373,50.9182,4.38132,4.0686,-2.11011,-5.99937,1.58827,-3.0032,2.65182,-0.182781,-1.53965,6.24249,-9.72285,4.43257,-8.74977,41.7662,9.19688,3.30828,15.9664,3.30896,4.51586,1.00386e-13,-2.3059e-14,-34.2282,-15.2812,-71.2394,30.3613,23.6057,-25.7012,0.503092,7.12502,0.834355,-29.475,1.00386e-13,-2.3059e-14,-27.5761,15.0131,83.0777,24.5077,-10.4671,-16.7313,22.6409,7.12502,9.49461,52.407,-38.2413,-4.88855,15.018,41.9036,-11.8989,-6.82661,-1.69074,-13.5607,6.74078,-29.2476,26.8174,-18.6419,0.552353,-5.67106
-8.99544,17.6164,-2.1319,11.7174,50.9268,4.44509,4.05265,-2.22767,-6.11749,1.52631,-3.16405,2.76696,-0.199883,-1.61944,6.43635,-9.64801,4.5114,-9.03478,41.7537,9.35366,3.36437,15.9092,3.34188,4.60187,4.53229e-14,4.77083e-15,-34.2432,-14.8038,-71.142,30.2728,23.3882,-25.8126,0.301274,7.12502,0.726766,-29.6772,4.53229e-14,4.77083e-15,-27.8461,15.3856,83.0305,24.4227,-10.1136,-16.7152,23.3986,7.12502,9.51019,53.164,-38.5228,-4.80619,15.1825,41.2076,-12.0939,-7.00735,0.0714039,-13.485,6.86246,-29.2795,26.6535,-18.7593,0.416759,-5.8517
-8.96931,17.6184,-2.10276,11.7759,51.014,4.43536,4.07677,-2.229,-6.05507,1.54823,-3.16393,2.7757,-0.193716,-1.61979,6.41051,-9.65875,4.48501,-9.01341,41.7491,9.30273,3.37844,15.9133,3.32546,4.59805,-7.27552e-14,1.90833e-14,-34.4311,-15.0919,-70.9446,30.4388,23.4243,-25.6614,0.238384,7.12502,0.872787,-29.7396,-7.27552e-14,1.90833e-14,-27.8495,15.3239,83.0805,24.224,-9.61712,-16.4003,25.5227,7.12502,9.81392,55.274,-38.6879,-4.73684,15.4101,40.501,-12.0258,-7.25804,0.360395,-13.3115,6.98127,-29.2095,26.4731,-18.8268,0.237639,-5.81349
-8.94057,17.6148,-2.07515,11.9305,51.1134,4.53367,4.10285,-2.17525,-5.97628,1.59523,-3.09021,2.68714,-0.180662,-1.58348,6.27025,-9.76845,4.34304,-8.84564,41.7822,9.04233,3.42154,15.9836,3.24159,4.56373,-8.34896e-15,-4.77083e-15,-34.5855,-15.7548,-70.7497,30.4963,23.6335,-25.6178,0.313608,7.12502,0.914837,-29.6642,-8.34896e-15,-4.77083e-15,-27.7211,15.3671,82.9235,23.8533,-9.8305,-15.3925,25.6458,7.12502,10.7861,55.3489,-38.822,-4.70526,15.5872,39.8044,-11.8077,-7.51371,-0.54027,-13.141,6.89292,-29.233,26.2521,-18.7782,0.195955,-5.08804
-8.9113,17.6128,-2.05029,12.1977,51.204,4.73297,4.11183,-2.01343,-5.81527,1.67537,-2.86912,2.4269,-0.159073,-1.47292,5.89704,-9.95111,4.08942,-8.44114,41.7732,8.51443,3.55354,16.0733,3.09369,4.49222,-9.81996e-14,-4.77083e-15,-34.7831,-16.6096,-70.7197,30.5204,23.5089,-25.8523,0.479703,7.12502,0.688446,-29.4989,-9.81996e-14,-4.77083e-15,-27.4254,15.0428,82.668,23.501,-10.5338,-13.9345,24.3769,7.12502,12.1923,54.0016,-39.0449,-4.7181,15.6779,39.1385,-11.7914,-7.60621,0.341521,-13.0008,6.68658,-29.3541,26.0083,-18.6976,0.31427,-4.77546
-8.88025,17.619,-2.02211,12.3674,51.2731,4.87231,4.11901,-2.04183,-5.85745,1.71569,-2.90818,2.40304,-0.114653,-1.49513,5.89626,-9.98392,4.04744,-8.38967,41.7509,8.4495,3.5162,16.0807,3.06807,4.45878,3.53837e-14,-9.54166e-15,-34.8084,-16.6402,-70.7075,30.557,23.2638,-25.9621,0.541642,7.12502,0.582337,-29.4373,3.53837e-14,-9.54166e-15,-27.4488,15.2751,82.5285,23.3448,-10.9765,-13.6051,24.8116,7.12502,12.5098,54.4171,-39.2562,-4.53497,15.694,38.5187,-11.8416,-7.80455,2.22502,-12.7556,6.6802,-29.4108,25.722,-18.6834,0.207807,-4.91478
-8.84754,17.6199,-1.99451,12.5686,51.3032,5.0035,4.15981,-2.28023,-6.08708,1.60718,-3.2378,2.62001,-0.175089,-1.65821,6.2689,-9.69047,4.23105,-8.73164,41.6877,8.84724,3.33409,15.9447,3.16822,4.46963,8.3092e-14,-1.27222e-14,-34.7669,-15.6807,-70.6832,30.6691,22.9373,-26.031,0.516359,7.12502,0.515843,-29.4628,8.3092e-14,-1.27222e-14,-27.8919,16.0369,82.4469,23.2235,-11.0143,-14.6071,26.6298,7.12502,11.5437,56.2919,-39.5177,-4.48928,15.79,37.9428,-11.6774,-7.89534,3.01871,-12.5378,6.7375,-29.4777,25.399,-18.6842,0.0726846,-5.08666
-8.8154,17.6207,-1.96711,12.7828,51.3745,5.10993,4.18621,-2.34589,-6.13797,1.50802,-3.3306,2.66951,-0.272325,-1.69913,6.35687,-9.43623,4.21025,-8.74504,41.6749,8.81419,3.27142,15.8853,3.15111,4.42575,1.31198e-14,1.59028e-14,-34.9429,-15.3811,-70.6206,30.8209,22.6485,-26.0076,0.592903,7.12502,0.538373,-29.3862,1.31198e-14,1.59028e-14,-28.2084,16.3615,82.2787,22.9987,-11.2575,-15.1719,26.8922,7.12502,10.999,56.584,-39.7935,-4.59271,15.981,37.3588,-11.389,-8.0381,2.04848,-12.4168,6.75704,-29.5366,25.1846,-18.7527,0.0573505,-5.70867
-8.78334,17.6199,-1.93848,12.9651,51.4023,5.24767,4.20175,-2.12555,-5.9582,1.48985,-3.03336,2.41511,-0.370593,-1.54385,5.97999,-9.16339,3.95959,-8.21089,41.6081,8.25659,3.29606,15.8501,3.01196,4.25394,9.22361e-14,-2.14687e-14,-35.7183,-16.5835,-70.3606,31.3855,22.9314,-25.6248,0.5796,7.12502,0.908107,-29.3982,9.22361e-14,-2.14687e-14,-28.1037,15.8881,82.0713,22.5305,-11.8057,-15.0286,26.2405,7.12502,11.1372,55.9249,-39.998,-4.65062,16.1368,36.7888,-11.3023,-8.18132,1.53045,-12.2927,6.80255,-29.6177,25.1043,-18.8769,0.10349,-6.60385
-8.75055,17.6061,-1.9123,13.0062,51.4273,5.12701,4.23892,-2.0307,-5.65266,1.45404,-2.8979,2.32512,-0.469511,-1.46988,5.71051,-9.05565,3.81484,-8.06188,41.5677,7.96309,3.35266,15.8274,2.9234,4.20596,-3.8763e-14,1.59028e-14,-36.452,-17.5132,-70.0372,32.2627,23.4177,-25.1111,0.519931,7.12502,1.40424,-29.4552,-3.8763e-14,1.59028e-14,-28.0793,15.5909,82.0055,22.2456,-12.025,-14.8704,26.1439,7.12502,11.2898,55.8201,-40.2546,-4.7913,16.5384,36.2078,-11.3175,-8.07431,3.08045,-12.2449,6.6026,-29.5399,25.037,-18.9321,0.382398,-6.88135
-8.71279,17.5888,-1.88242,13.1914,51.4584,5.27694,4.2311,-2.07748,-5.65979,1.51608,-2.95841,2.34531,-0.390846,-1.50442,5.7355,-9.14647,3.79918,-8.14205,41.5829,7.96595,3.35504,15.8539,2.90882,4.2267,-1.39149e-15,-1.03368e-14,-36.5658,-17.6339,-69.92,32.6984,23.5446,-25.0691,0.507411,7.12502,1.44486,-29.4674,-1.39149e-15,-1.03368e-14,-28.0796,16.0807,81.9015,22.0156,-12.4267,-14.6751,25.7485,7.12502,11.4781,55.4142,-40.3988,-5.14681,16.8295,35.6538,-11.1699,-7.82868,3.77643,-12.0718,6.47699,-29.6311,24.9259,-18.9633,0.485398,-6.87716
-8.67693,17.5925,-1.84697,13.3955,51.5505,5.44604,4.22178,-2.14134,-5.7683,1.56483,-3.04565,2.40716,-0.313219,-1.55276,5.86282,-9.30019,3.7734,-8.29431,41.6256,7.98893,3.34339,15.9075,2.8874,4.26196,-1.04958e-13,1.27222e-14,-36.5035,-17.3532,-69.9116,32.9194,23.2644,-25.1579,0.424089,7.12502,1.35903,-29.5513,-1.04958e-13,1.27222e-14,-28.0628,16.9403,81.6903,21.6549,-13.2681,-14.2209,24.9968,7.12502,11.9161,54.6377,-40.5102,-5.18203,16.9116,35.0865,-11.0366,-7.95661,3.84649,-11.9273,6.45217,-29.6874,24.8773,-19.1212,0.371099,-6.55156
-8.63933,17.5999,-1.81408,13.5186,51.6158,5.47238,4.23144,-2.19873,-5.74716,1.5758,-3.12091,2.45591,-0.29473,-1.59147,5.9043,-9.3821,3.718,-8.3371,41.6202,7.94551,3.27759,15.9327,2.85039,4.23921,-1.59028e-14,-1.11319e-14,-36.4938,-17.1287,-69.938,33.1646,22.9524,-25.0561,0.256528,7.12502,1.4574,-29.7182,-1.59028e-14,-1.11319e-14,-28.1019,17.4149,81.5438,21.4248,-13.8484,-13.8169,24.7003,7.12502,12.3057,54.3182,-40.716,-5.1849,17.0951,34.5546,-10.7447,-8.3226,3.11849,-11.8073,6.47789,-29.6786,24.79,-19.2874,0.330308,-6.48346
-8.59995,17.5859,-1.78109,13.5304,51.6404,5.42433,4.26657,-2.26108,-5.67205,1.62235,-3.20082,2.5169,-0.255238,-1.63381,5.92829,-9.41194,3.70942,-8.35744,41.6072,7.9598,3.21241,15.937,2.84257,4.21698,6.77856e-14,-2.94201e-14,-36.4724,-17.1816,-69.8735,33.4042,22.9566,-24.9837,0.404618,7.12502,1.52735,-29.5697,6.77856e-14,-2.94201e-14,-28.1612,17.358,81.5959,21.3889,-13.6716,-13.8737,25.3585,7.12502,12.2509,54.9797,-40.8237,-5.32762,17.4613,34.0358,-10.3208,-8.57261,3.47477,-11.6024,6.40358,-29.6237,24.669,-19.3909,0.454108,-6.98518
-8.55982,17.5722,-1.74699,13.6015,51.6584,5.49181,4.39428,-2.27444,-5.60028,1.61888,-3.22196,2.49021,-0.332948,-1.64092,5.86672,-9.40775,3.66809,-8.3031,41.6692,7.86588,3.26698,15.9742,2.81524,4.22253,-2.76311e-14,-1.03368e-14,-36.5771,-17.1446,-69.8622,33.6235,22.7465,-25.1337,0.732139,7.12502,1.38246,-29.2431,-2.76311e-14,-1.03368e-14,-28.2881,17.4075,81.5083,21.2935,-13.9322,-13.8984,26.029,7.12502,12.227,55.6516,-40.8707,-5.4239,17.6813,33.5429,-10.0041,-8.73291,3.66117,-11.3662,6.18697,-29.6332,24.6069,-19.5423,0.555903,-6.91995
-8.51923,17.5681,-1.71309,13.6244,51.6797,5.42456,4.48449,-2.31607,-5.50341,1.61937,-3.27671,2.54183,-0.377583,-1.66643,5.87221,-9.48154,3.63521,-8.28757,41.716,7.83267,3.23689,16.0234,2.79419,4.20941,-5.78463e-14,2.38542e-15,-36.4967,-16.9464,-69.8793,33.7765,22.5454,-25.2441,0.675459,7.12502,1.27583,-29.3005,-5.78463e-14,2.38542e-15,-28.3533,17.565,81.4758,21.2375,-14.1088,-13.7294,26.3726,7.12502,12.39,55.9854,-41.029,-5.4574,17.9449,33.1084,-9.56655,-9.00647,3.23625,-11.2172,5.90216,-29.5661,24.5433,-19.4623,0.589972,-5.22149
-8.47675,17.5638,-1.67826,13.716,51.7287,5.40585,4.46277,-2.45462,-5.52964,1.69106,-3.45729,2.76485,-0.249221,-1.76428,6.12342,-9.69642,3.67782,-8.56087,41.7149,8.06016,3.04908,16.0638,2.81544,4.21704,5.4467e-14,-1.66979e-14,-36.1475,-16.3914,-69.8203,33.9568,22.305,-25.1559,0.621792,7.12502,1.36103,-29.3536,5.4467e-14,-1.66979e-14,-28.4048,18.264,81.6153,21.2547,-14.3024,-13.5994,26.1067,7.12502,12.5154,55.7119,-41.2309,-5.61667,18.2278,32.7701,-9.07794,-9.37707,3.38676,-11.0461,5.7794,-29.5388,24.3584,-19.3447,0.636121,-4.50412
-8.4294,17.5594,-1.63774,14.101,51.7689,5.8254,4.41142,-2.56809,-5.78226,1.72255,-3.61583,2.8214,-0.144059,-1.85032,6.32709,-9.66962,3.71101,-8.69344,41.689,8.16613,2.97039,16.037,2.82998,4.21673,4.17448e-15,1.90833e-14,-36.0771,-16.0904,-69.7734,34.2105,22.091,-25.0536,0.724955,7.12502,1.45977,-29.2498,4.17448e-15,1.90833e-14,-28.5451,18.5681,81.6696,21.2757,-14.3555,-13.4323,25.9273,7.12502,12.6765,55.5226,-41.407,-5.8545,18.2084,32.5564,-8.6881,-9.81215,3.06335,-10.7022,5.61687,-29.7777,24.0696,-19.5755,0.913973,-5.48695
-8.38142,17.5564,-1.59576,14.2625,51.8037,6.08144,4.46311,-2.62001,-5.91529,1.72008,-3.69358,2.79526,-0.156497,-1.88951,6.38033,-9.42398,3.71764,-8.53463,41.6784,8.12814,2.91053,15.9862,2.8362,4.14513,-9.83984e-14,3.10104e-14,-36.2306,-15.8842,-69.8031,34.4597,21.8932,-25.0902,0.887292,7.12502,1.42447,-29.0877,-9.83984e-14,3.10104e-14,-28.7047,18.619,81.5492,21.1961,-14.4481,-13.2805,25.7993,7.12502,12.8228,55.3855,-41.4622,-6.0291,18.2687,32.416,-8.52643,-10.2394,3.18704,-10.2696,5.48386,-29.8948,23.7979,-19.8778,1.11579,-6.17319
-8.33381,17.5515,-1.55618,14.3492,51.7684,6.17942,4.49568,-2.64556,-5.9154,1.78358,-3.72716,2.84894,-0.0997491,-1.91027,6.43755,-9.55046,3.69577,-8.62155,41.6964,8.14474,2.87318,16.0257,2.8199,4.15396,-4.35338e-14,5.56597e-15,-36.1101,-15.685,-69.7559,34.6197,21.7538,-25.3064,1.03084,7.12502,1.2156,-28.9454,-4.35338e-14,5.56597e-15,-28.7616,18.5473,81.7261,21.306,-14.3135,-13.0996,25.6673,7.12502,12.9971,55.2424,-41.5349,-5.96508,18.3407,32.3386,-8.70816,-10.744,4.80786,-9.91608,5.32459,-29.9445,23.5462,-19.9496,1.27381,-5.9969
-8.28821,17.5447,-1.51556,14.3466,51.7753,6.05362,4.50381,-2.75612,-5.8177,1.82045,-3.86753,3.06005,-0.0355443,-1.98455,6.60732,-9.77468,3.71879,-9.07584,41.708,8.30923,2.89858,16.0539,2.81599,4.27672,4.63168e-14,-7.23576e-14,-35.8195,-15.1686,-69.6812,34.7458,21.5211,-25.3966,1.06415,7.12502,1.1285,-28.9126,4.63168e-14,-7.23576e-14,-28.8727,18.7365,82.0347,21.5014,-14.1347,-12.9134,25.5271,7.12502,13.1767,55.0907,-41.6983,-5.92131,18.6031,32.3284,-8.96715,-11.2639,6.20796,-9.70687,5.12027,-29.8524,23.3528,-19.9498,1.51944,-6.14347
-8.24043,17.5349,-1.47399,14.2977,51.8259,5.95432,4.56781,-2.78301,-5.67683,1.8325,-3.89883,3.13695,-0.0581505,-1.99895,6.61251,-9.78219,3.6876,-9.09784,41.7339,8.2543,2.93369,16.0702,2.79251,4.29034,-5.38706e-14,3.65764e-14,-35.7698,-14.8611,-69.6924,34.8753,21.0662,-25.3145,1.0523,7.12502,1.20779,-28.924,-5.38706e-14,3.65764e-14,-28.949,18.543,82.1827,21.6015,-13.9682,-12.8662,25.328,7.12502,13.2222,54.8886,-41.8123,-5.99921,18.8847,32.3939,-9.29815,-11.793,6.84209,-9.42802,4.84181,-29.7613,23.2206,-20.017,1.78935,-6.32178
-8.18807,17.523,-1.43271,14.5436,51.8025,6.27473,4.58009,-2.66615,-5.70395,1.8459,-3.74634,2.96715,-0.085225,-1.92084,6.44513,-9.58314,3.53514,-8.64485,41.7137,7.88479,2.91969,16.0596,2.71081,4.14594,-8.8658e-14,6.36111e-15,-36.0134,-15.1169,-69.6851,35.0545,20.6814,-25.1294,1.16,7.12502,1.38664,-28.8152,-8.8658e-14,6.36111e-15,-28.98,17.7281,82.2434,21.6876,-13.6721,-13.088,25.4301,7.12502,13.0084,55.0045,-41.9468,-6.41289,19.0173,32.5291,-9.27299,-12.1223,6.43516,-9.1154,4.74628,-29.9724,23.1242,-20.1451,1.93752,-6.37623
-8.13671,17.5102,-1.39126,14.7975,51.7678,6.57518,4.6457,-2.66094,-5.81205,1.84238,-3.747,2.98363,-0.1168,-1.92076,6.52813,-9.55922,3.48361,-8.62297,41.8077,7.82777,2.8776,16.1145,2.68125,4.12206,-5.96354e-16,1.51076e-14,-36.0543,-14.8535,-69.6186,35.3212,20.2266,-25.0368,1.14361,7.12502,1.47598,-28.831,-5.96354e-16,1.51076e-14,-29.0617,17.7941,82.3315,21.7113,-13.6758,-13.1136,25.5121,7.12502,12.9837,55.0881,-42.1131,-6.75451,19.1389,32.7263,-9.16736,-12.5328,5.67901,-8.83497,4.62884,-30.1638,23.028,-20.2505,2.06247,-6.43363
-8.08488,17.4999,-1.34618,14.8062,51.7739,6.55241,4.68926,-2.68973,-5.77476,1.88753,-3.78265,3.15254,-0.0790098,-1.94181,6.6873,-9.74536,3.45769,-8.83502,41.9005,7.90901,2.79794,16.2046,2.6634,4.15145,-2.34566e-14,-1.27222e-14,-35.903,-14.6316,-69.4302,35.4969,20.1012,-25.1047,1.42108,7.12502,1.4104,-28.554,-2.34566e-14,-1.27222e-14,-29.1209,18.2976,82.4721,21.7599,-14.0372,-12.9049,25.2504,7.12502,13.1848,54.8135,-42.2318,-6.8557,19.3788,32.9837,-9.17751,-13.1411,6.61402,-8.54853,4.44544,-30.1197,22.9187,-20.353,2.27138,-6.19394
-8.02897,17.4897,-1.30125,14.7385,51.8389,6.40451,4.61445,-2.43491,-5.35475,1.96438,-3.42132,2.9717,-0.0531408,-1.75859,6.24008,-9.77186,3.15197,-8.19569,41.8485,7.2983,2.74053,16.2592,2.50127,3.93128,-1.51076e-14,1.82882e-14,-36.2756,-15.599,-69.2829,35.7466,20.0609,-25.3147,1.73602,7.12502,1.20764,-28.2403,-1.51076e-14,1.82882e-14,-28.9323,17.0852,82.6699,21.8726,-13.94,-12.8614,24.8524,7.12502,13.2268,54.4128,-42.3398,-7.01558,19.707,33.2636,-9.08287,-13.694,9.01728,-8.28304,4.29853,-30.0024,22.8304,-20.5357,2.47108,-6.33479
-7.97074,17.4791,-1.25592,14.7594,51.8772,6.3214,4.53587,-2.56522,-5.24574,1.9843,-3.58453,3.16688,0.0417149,-1.8445,6.38319,-9.79225,3.21584,-8.50996,41.772,7.48246,2.69762,16.2013,2.52644,3.98821,-5.48646e-14,1.74931e-14,-36.0199,-15.0121,-69.2119,35.8623,19.7513,-25.3218,1.79636,7.12502,1.20076,-28.18,-5.48646e-14,1.74931e-14,-29.0715,17.3185,82.9026,22.1193,-13.6842,-13.2671,24.7678,7.12502,12.8358,54.3532,-42.5071,-7.28901,20.0395,33.6253,-8.78636,-14.0916,11.2635,-7.9964,3.98096,-29.9495,22.6768,-20.6683,2.83565,-6.65947
-7.91195,17.469,-1.20912,14.7531,51.8984,6.27733,4.55623,-2.54379,-5.0401,1.96805,-3.54738,3.20845,-0.00266422,-1.8223,6.31047,-9.65558,3.12174,-8.43549,41.7297,7.33723,2.60567,16.1672,2.47062,3.90683,1.00784e-13,-7.15625e-15,-36.163,-14.9978,-69.0551,36.0967,19.6945,-25.0864,1.78326,7.12502,1.42816,-28.1917,1.00784e-13,-7.15625e-15,-29.1681,17.0547,83.081,22.2792,-13.4539,-13.6705,25.2402,7.12502,12.4468,54.8496,-42.622,-7.42092,20.2636,34.088,-8.45327,-14.5403,13.3059,-7.631,3.82427,-29.908,22.4636,-20.8074,2.99916,-6.66214
-7.84874,17.4567,-1.16111,15.0406,51.8544,6.6535,4.57094,-2.59057,-5.1502,1.95234,-3.61547,3.19581,-0.0107407,-1.85672,6.36312,-9.56088,3.13369,-8.33826,41.7828,7.33689,2.57082,16.179,2.4804,3.87378,-7.35503e-14,-7.95139e-15,-36.2864,-14.8076,-68.9925,36.3739,19.6342,-24.8291,1.7011,7.12502,1.67659,-28.2721,-7.35503e-14,-7.95139e-15,-29.4206,16.8389,83.1574,22.6105,-13.1192,-13.6763,25.7282,7.12502,12.4412,55.3379,-42.7139,-7.58256,20.1487,34.6258,-8.20511,-14.84,15.576,-7.20084,3.62125,-30.1735,22.2536,-20.9839,3.26614,-6.85631
-7.78578,17.4385,-1.10964,15.3748,51.7843,7.07676,4.56542,-2.6094,-5.3016,1.94147,-3.64743,3.17285,-0.00563931,-1.87387,6.42612,-9.55582,3.13166,-8.37094,41.8846,7.32644,2.63738,16.2275,2.47611,3.91323,-9.78021e-14,3.57812e-14,-36.4287,-14.8428,-68.8706,36.6129,19.6454,-24.7242,2.01048,7.12502,1.7779,-27.9619,-9.78021e-14,3.57812e-14,-29.6302,16.6294,83.2438,22.8947,-12.8043,-13.6018,25.4223,7.12502,12.513,55.0277,-42.7732,-7.64221,19.9628,35.2102,-8.24235,-14.9403,17.7885,-6.78823,3.49812,-30.4714,22.0519,-21.1675,3.50965,-7.36222
-7.72407,17.4181,-1.05814,15.3507,51.6976,7.00428,4.601,-2.60449,-5.17875,1.94982,-3.6352,3.28885,-0.0188011,-1.867,6.47993,-9.75514,3.09672,-8.51386,42.0078,7.36278,2.59928,16.3407,2.45409,3.9443,-2.3059e-14,9.54166e-15,-36.3728,-14.6877,-68.7285,36.7516,19.5287,-24.6461,2.23893,7.12502,1.85332,-27.7328,-2.3059e-14,9.54166e-15,-29.725,16.7372,83.4079,23.1243,-12.7172,-13.6082,25.0803,7.12502,12.5069,54.6861,-42.8258,-7.64958,20.1682,35.8246,-8.1487,-14.7506,19.0345,-6.41353,3.47805,-30.4489,21.8108,-21.3161,3.80999,-7.74778
-7.66017,17.4003,-1.00909,15.4069,51.6374,6.99454,4.58584,-2.62671,-5.0473,1.98433,-3.65647,3.40038,0.0276654,-1.87948,6.52123,-9.91604,3.079,-8.55756,42.02,7.41039,2.48024,16.3928,2.44599,3.91522,-4.13472e-14,2.38542e-15,-36.2674,-14.4071,-68.6416,36.8969,19.3425,-24.8253,2.38793,7.12502,1.6803,-27.5852,-4.13472e-14,2.38542e-15,-29.7168,16.9751,83.6084,23.3675,-12.7033,-13.6252,24.9806,7.12502,12.4905,54.5873,-42.9232,-7.65245,20.2686,36.4297,-8.1228,-14.3497,19.1601,-6.09635,3.44485,-30.47,21.6141,-21.4128,4.06418,-8.49969
-7.59256,17.3842,-0.957118,15.5995,51.6022,7.20273,4.53209,-2.65915,-5.01166,2.01061,-3.69563,3.4213,0.0898863,-1.90165,6.52,-9.94171,3.07232,-8.51958,41.9997,7.40689,2.42702,16.3941,2.44298,3.88481,7.4743e-14,0,-36.2997,-14.2558,-68.5862,37.0879,19.2687,-24.8249,2.41825,7.12502,1.68071,-27.5549,7.4743e-14,0,-29.8187,16.7667,83.7897,23.7318,-12.2948,-13.6587,24.8318,7.12502,12.4582,54.4405,-42.9586,-7.61845,20.1018,36.9987,-8.41656,-13.921,19.0637,-5.72058,3.30103,-30.6233,21.4738,-21.513,4.28672,-8.79674
-7.52476,17.3669,-0.901411,15.7113,51.4701,7.36405,4.53826,-2.6137,-4.96434,2.02023,-3.63313,3.40946,0.0830293,-1.86968,6.4789,-9.93944,3.01029,-8.53185,42.0096,7.29199,2.48222,16.403,2.40065,3.89551,-9.22361e-14,2.38542e-15,-36.437,-14.1997,-68.5002,37.2845,19.1165,-24.8321,2.39235,7.12502,1.67369,-27.5808,-9.22361e-14,2.38542e-15,-29.9976,16.5765,83.8815,24.0866,-12.0634,-13.629,24.5444,7.12502,12.4868,54.1513,-42.9412,-7.49041,19.9396,37.5614,-8.72119,-13.7212,18.6876,-5.29474,3.01788,-30.7816,21.3046,-21.6078,4.74744,-9.15539
-7.45558,17.3515,-0.851793,15.6369,51.3481,7.17884,4.52279,-2.58335,-4.67902,2.00145,-3.5788,3.49486,0.0511517,-1.83868,6.40451,-9.97808,2.98127,-8.59223,42.0312,7.248,2.53076,16.422,2.37804,3.92426,-9.38264e-14,5.64548e-14,-36.4392,-14.0069,-68.4003,37.3761,18.9581,-24.6777,2.53432,7.12502,1.82286,-27.4376,-9.38264e-14,5.64548e-14,-30.1769,16.4612,84.0399,24.4978,-11.7525,-13.3975,24.7687,7.12502,12.71,54.3619,-43.0109,-7.32036,20.0012,38.0881,-8.94664,-13.714,18.6629,-4.99758,2.70021,-30.742,21.179,-21.7264,5.24465,-9.20747
-7.38956,17.336,-0.80315,15.6965,51.09,7.1476,4.52586,-2.52752,-4.54534,1.99194,-3.49753,3.58078,0.0248991,-1.79601,6.41713,-10.0827,2.99742,-8.76914,42.0752,7.30442,2.60629,16.4557,2.38059,4.00375,-1.51076e-14,-1.59028e-14,-36.3474,-13.7216,-68.3058,37.4545,18.7943,-24.6055,2.6143,7.12502,1.89254,-27.3571,-1.51076e-14,-1.59028e-14,-30.324,16.3188,84.2743,24.9608,-11.3154,-13.5403,24.9238,7.12502,12.5723,54.5255,-43.1177,-7.02389,19.9016,38.6074,-9.21118,-13.6287,19.7187,-4.75417,2.4938,-30.8322,21.1382,-21.924,5.64683,-8.77609
-7.32165,17.324,-0.751156,15.381,50.8647,6.76617,4.64478,-2.49199,-4.20808,1.99496,-3.43594,3.73084,-0.0586292,-1.75999,6.38762,-10.1075,3.02355,-8.80382,42.0839,7.40772,2.47649,16.4689,2.39976,3.96955,-1.37559e-13,-1.59028e-14,-36.3114,-13.4713,-68.2075,37.5805,18.7519,-24.5671,2.81018,7.12502,1.9297,-27.1608,-1.37559e-13,-1.59028e-14,-30.6269,15.9987,84.4415,25.5175,-10.609,-13.3765,24.5867,7.12502,12.7302,54.1786,-43.0628,-6.69423,20.0521,39.1141,-9.40239,-13.3472,20.0754,-4.41216,2.26133,-30.6838,21.1471,-22.0993,6.12589,-8.39349
-7.2494,17.3091,-0.697966,15.0053,50.5094,6.41902,4.83442,-2.38229,-3.85936,2.01572,-3.27624,3.79762,-0.182374,-1.67345,6.26323,-10.0626,2.98187,-8.63911,42.0105,7.37802,2.23934,16.446,2.38477,3.8268,-5.12864e-14,6.36111e-15,-36.4335,-13.3889,-68.1037,37.7879,18.7074,-24.3687,2.8968,7.12502,2.12128,-27.0724,-5.12864e-14,6.36111e-15,-30.9278,15.5708,84.5548,26.0841,-10.0175,-13.0822,24.5482,7.12502,13.014,54.1223,-42.9331,-6.40356,20.1941,39.6655,-9.6148,-12.7535,19.06,-3.97425,2.15476,-30.6084,21.1546,-22.2215,6.74921,-9.06098
-7.17678,17.2971,-0.646968,14.6867,50.198,6.01447,4.895,-2.24609,-3.40706,2.06505,-3.07238,3.88131,-0.213649,-1.56742,6.08733,-10.2387,2.9268,-8.72045,42.0253,7.33246,2.24965,16.4984,2.35015,3.84832,3.89618e-14,2.70347e-14,-36.462,-13.4335,-67.9606,37.9422,18.672,-24.2967,3.1121,7.12502,2.19084,-26.8564,3.89618e-14,2.70347e-14,-30.9001,15.6014,84.7563,26.3578,-10.0462,-13.3619,24.9837,7.12502,12.7444,54.5748,-42.9317,-6.23949,20.4315,40.2358,-9.74374,-12.2549,18.0681,-3.65956,2.0872,-30.4783,21.1779,-22.274,7.3873,-10.4433
-7.10403,17.2846,-0.598414,14.5464,49.9079,5.76571,4.90344,-2.12308,-3.05028,2.10349,-2.89005,3.95241,-0.21746,-1.47354,5.95079,-10.3519,2.89019,-8.77536,42.0136,7.29158,2.27294,16.5197,2.32632,3.86695,-4.69132e-14,2.70347e-14,-36.4519,-13.3725,-67.8493,38.0684,18.5535,-24.2572,3.25503,7.12502,2.22901,-26.7131,-4.69132e-14,2.70347e-14,-30.8787,15.6813,84.9899,26.6391,-10.0142,-13.3905,25.1373,7.12502,12.7168,54.7301,-43.0039,-6.22693,20.6056,40.8061,-9.91189,-11.7313,18.5863,-3.36464,1.88891,-30.457,21.2025,-22.4081,7.88838,-10.7922
-7.02986,17.2699,-0.547957,14.5044,49.5676,5.64734,4.93695,-2.02193,-2.79854,2.10921,-2.74261,3.99254,-0.259368,-1.3965,5.84477,-10.3353,2.86973,-8.64443,41.9976,7.27085,2.14193,16.5239,2.32142,3.78245,-9.81996e-14,-1.59028e-15,-36.4752,-13.3295,-67.753,38.2063,18.6621,-24.2106,3.06499,7.12502,2.27392,-26.9026,-9.81996e-14,-1.59028e-15,-31.1155,15.4165,85.138,27.1791,-9.60993,-12.9144,25.0414,7.12502,13.1757,54.6051,-43.0583,-6.26324,20.7053,41.3156,-10.1624,-11.182,19.2604,-3.09995,1.70472,-30.5365,21.2591,-22.5246,8.30252,-10.6882
-6.95498,17.2574,-0.496903,14.4634,49.2958,5.49075,4.92554,-1.99912,-2.47746,2.0973,-2.69599,4.02335,-0.285297,-1.3697,5.69174,-10.2857,2.91008,-8.45975,41.9795,7.32788,1.99411,16.5154,2.35469,3.69044,-7.79236e-14,0,-36.4527,-13.1758,-67.7402,38.2764,18.6773,-24.1828,3.04767,7.12502,2.30086,-26.9197,-7.79236e-14,0,-31.5342,14.7528,85.2781,27.9374,-8.78926,-13.0476,25.5751,7.12502,13.0473,55.147,-43.1138,-6.27057,20.8098,41.7705,-10.491,-10.7687,19.9821,-2.92536,1.44341,-30.61,21.3465,-22.2921,9.03304,-12.3296
-6.8789,17.2526,-0.444381,14.3476,49.0198,5.23128,4.89171,-1.98082,-2.16596,2.09691,-2.65418,4.14909,-0.280419,-1.34653,5.64305,-10.233,2.95343,-8.52626,41.9722,7.41337,1.96169,16.4926,2.37717,3.69716,-4.37326e-15,-3.18055e-15,-36.3624,-12.7889,-67.6789,38.3901,18.5251,-23.9771,3.2376,7.12502,2.49945,-26.7275,-4.37326e-15,-3.18055e-15,-31.9941,13.738,85.7094,28.8975,-7.63975,-13.5627,26.2771,7.12502,12.5507,55.8802,-43.1607,-6.36235,21.0466,42.163,-10.638,-10.3387,19.5078,-2.76424,1.17269,-30.6177,21.4785,-22.0575,9.7239,-13.4087
-6.80212,17.2452,-0.390938,14.3096,48.663,5.1954,4.88084,-1.89754,-2.05541,2.24287,-2.53719,4.27497,-0.135884,-1.29216,5.70364,-10.5145,2.9251,-8.71018,42.044,7.45447,1.96824,16.5938,2.3559,3.75508,4.25399e-14,6.20208e-14,-36.0788,-12.5026,-67.5726,38.5591,18.3698,-23.9456,3.4301,7.12502,2.52989,-26.5346,4.25399e-14,6.20208e-14,-31.9617,13.4045,86.1338,29.4064,-7.24613,-14.0888,26.6366,7.12502,12.0435,56.2701,-43.1077,-6.65978,21.2054,42.4993,-10.568,-9.72101,18.5387,-2.51563,0.967685,-30.788,21.6914,-21.8948,10.319,-14.0819
-6.72904,17.241,-0.33808,14.2252,48.3181,5.17872,4.9937,-1.83117,-2.01629,2.38717,-2.4452,4.42852,-0.0546015,-1.24952,5.84076,-10.7262,2.89969,-8.93306,42.045,7.50935,1.93776,16.6395,2.33409,3.79803,3.29983e-14,7.95139e-15,-35.7461,-12.17,-67.4497,38.6636,18.2337,-24.0143,3.52232,7.12502,2.46359,-26.4432,3.29983e-14,7.95139e-15,-31.864,13.4718,86.4526,29.7247,-7.09032,-14.2415,26.1508,7.12502,11.8962,55.7928,-42.9415,-6.87655,21.2911,42.7855,-10.6106,-9.05056,18.5622,-2.26641,0.818946,-30.9546,22.0126,-21.7253,10.867,-15.07
-6.65848,17.245,-0.28268,14.1161,48.059,5.05567,5.09136,-1.79809,-1.89115,2.43171,-2.39321,4.52462,-0.0700725,-1.22252,5.87137,-10.6078,2.91534,-8.92811,41.947,7.5488,1.81826,16.5631,2.3424,3.7391,-2.54444e-14,-1.90833e-14,-35.5482,-12.0391,-67.4049,38.6934,18.2385,-23.8098,3.45912,7.12502,2.66107,-26.504,-2.54444e-14,-1.90833e-14,-31.9837,13.256,86.6185,30.1612,-6.92484,-14.0256,25.5619,7.12502,12.1044,55.1918,-42.7797,-6.83633,21.3303,43.0328,-10.831,-8.69776,18.9841,-2.17881,0.545016,-31.0054,22.5022,-21.5325,11.3162,-15.7469
-6.58939,17.2508,-0.224861,14.0593,47.7993,4.94911,5.13636,-1.75243,-1.77272,2.44827,-2.32561,4.57181,-0.0888404,-1.18726,5.8519,-10.41,2.91599,-8.72518,41.9036,7.53686,1.63289,16.5137,2.35034,3.60982,2.3059e-14,2.38542e-14,-35.4332,-11.856,-67.4388,38.7566,18.2128,-23.6302,3.42651,7.12502,2.83447,-26.5344,2.3059e-14,2.38542e-14,-32.1093,12.8888,86.7207,30.5252,-6.78344,-13.8923,25.5092,7.12502,12.2329,55.1315,-42.6407,-6.72203,21.3081,43.2209,-11.0153,-8.37268,19.0103,-2.28453,0.38422,-31.0494,23.2466,-21.3671,11.6634,-16.3827
-6.52436,17.2578,-0.171311,14.1485,47.5214,4.92836,5.14711,-1.67655,-1.78278,2.44069,-2.22281,4.6782,-0.109365,-1.13557,5.96611,-10.3027,2.87246,-8.70697,41.9621,7.47752,1.58782,16.5288,2.32315,3.57732,-4.21423e-14,1.27222e-14,-35.2229,-11.7043,-67.3302,38.7568,18.2215,-23.5673,3.48033,7.12502,2.89523,-26.4798,-4.21423e-14,1.27222e-14,-32.164,12.2512,87.0432,30.9095,-6.3907,-13.6518,25.8212,7.12502,12.4648,55.4295,-42.5771,-6.71628,21.2898,43.3441,-11.1026,-7.96186,19.055,-2.62085,0.176076,-31.1606,24.2484,-21.2324,11.9699,-17.0026
-6.46478,17.263,-0.122743,14.3479,47.2756,4.94632,5.18234,-1.61055,-1.82392,2.41456,-2.13399,4.78568,-0.160178,-1.09026,6.10129,-10.2493,2.81769,-8.6499,42.0082,7.41926,1.48139,16.5571,2.29277,3.51302,9.14409e-14,1.59028e-14,-34.9374,-11.6758,-67.2263,38.7247,18.2558,-23.5806,3.54491,7.12502,2.88244,-26.4154,9.14409e-14,1.59028e-14,-32.191,11.8192,87.2858,31.2713,-6.30811,-13.5052,25.5408,7.12502,12.6061,55.1404,-42.5594,-6.53802,21.2259,43.403,-11.2461,-7.80594,19.3844,-3.19873,0.0327463,-31.2756,25.491,-21.045,12.1359,-17.7851
-6.39981,17.2707,-0.0723089,14.4395,47.0797,4.90724,5.15203,-1.58935,-1.75139,2.47688,-2.10161,4.88329,-0.0814435,-1.07601,6.1593,-10.2237,2.78058,-8.60923,42.0523,7.3905,1.38288,16.5878,2.2718,3.46002,-5.04913e-14,1.43125e-14,-34.5392,-11.7293,-67.1826,38.702,18.476,-23.5139,3.54226,7.12502,2.94681,-26.4171,-5.04913e-14,1.43125e-14,-32.0407,11.7098,87.4106,31.5659,-6.75375,-12.9621,26.0675,7.12502,13.1297,55.6342,-42.4151,-6.41688,21.207,43.4178,-11.4635,-7.69464,19.7174,-3.82518,0.0246796,-31.3175,26.93,-20.5778,12.2238,-19.656
-6.33426,17.2849,-0.0197819,14.3123,46.9244,4.79062,5.24852,-1.6063,-1.62039,2.60116,-2.11668,4.98743,-0.00557355,-1.08545,6.19635,-10.2473,2.76414,-8.71238,42.0685,7.38442,1.40008,16.5987,2.25286,3.48603,1.98785e-14,-5.56597e-14,-34.0742,-11.6833,-67.2014,38.8412,18.3066,-22.8872,3.1846,7.12502,3.55201,-26.7656,1.98785e-14,-5.56597e-14,-31.8415,11.5509,87.5256,31.8425,-7.14944,-12.3191,26.6521,7.12502,13.7495,56.1778,-42.0442,-6.36517,21.2633,43.415,-11.7119,-7.53377,19.6558,-4.33866,0.12424,-31.2504,28.4861,-20.1446,12.0202,-20.6775
-6.26949,17.2978,0.0333445,14.1036,46.7363,4.65032,5.41781,-1.59585,-1.42025,2.72744,-2.09174,5.02799,0.0216357,-1.07253,6.12711,-10.2646,2.74872,-8.6593,42.104,7.36108,1.3654,16.6292,2.24303,3.46053,-3.10104e-14,2.22639e-14,-33.7289,-11.7087,-67.2855,39.1063,17.8325,-22.2262,2.81272,7.12502,4.19033,-27.1258,-3.10104e-14,2.22639e-14,-31.6923,11.069,87.6369,31.9482,-7.04063,-12.4837,25.4518,7.12502,13.5909,54.9882,-41.6108,-6.26871,21.323,43.3861,-11.9675,-7.38226,18.9951,-4.88514,0.365636,-31.1666,30.1474,-19.4343,11.7839,-21.6998
-6.20329,17.3049,0.0852411,14.1221,46.5058,4.72515,5.55916,-1.59576,-1.36674,2.76324,-2.08775,5.00873,-0.0234108,-1.06925,6.08024,-10.1903,2.78544,-8.522,42.2429,7.40671,1.3142,16.6939,2.27094,3.42513,7.95139e-15,1.27222e-14,-33.626,-11.6379,-67.411,39.3644,17.6692,-22.165,2.87008,7.12502,4.24945,-27.0673,7.95139e-15,1.27222e-14,-31.6948,10.4512,87.7206,32.1626,-6.85984,-12.714,25.0028,7.12502,13.3689,54.5539,-41.2801,-6.19859,21.2238,43.33,-12.0918,-7.3176,17.9706,-5.55093,0.632023,-31.2321,31.9426,-18.5264,11.3546,-22.3941
-6.13713,17.322,0.137295,14.0256,46.3744,4.5847,5.63209,-1.61283,-1.16837,2.78584,-2.09858,5.03593,-0.0460293,-1.07206,5.99805,-10.0224,2.79863,-8.32722,42.3056,7.41083,1.18915,16.7039,2.28678,3.33296,-4.05521e-14,-1.27222e-14,-33.5604,-11.8518,-67.4574,39.4827,18.1682,-22.4579,3.08205,7.12502,3.96664,-26.8608,-4.05521e-14,-1.27222e-14,-31.7655,9.7868,87.8134,32.6354,-6.9053,-12.5763,25.5662,7.12502,13.5016,55.1086,-40.9044,-5.98212,21.2123,43.2158,-12.2955,-7.36688,17.8394,-6.3434,0.899733,-31.0625,33.8916,-17.8629,10.5658,-22.3983
-6.07201,17.3461,0.188544,13.8525,46.2676,4.37317,5.70867,-1.62614,-0.908109,2.90575,-2.10149,5.12453,0.0293345,-1.07296,5.94348,-10.0194,2.79085,-8.26753,42.2789,7.41626,1.08318,16.699,2.284,3.27496,1.11319e-14,-2.54444e-14,-33.25,-12.0415,-67.4613,39.5757,18.3338,-22.5746,3.19828,7.12502,3.85389,-26.7466,1.11319e-14,-2.54444e-14,-31.6903,9.2846,87.9661,33.0854,-7.08762,-12.4956,25.4109,7.12502,13.5793,54.9481,-40.4425,-5.65368,21.2106,43.0362,-12.6008,-7.41244,17.7496,-7.29657,1.24464,-30.8124,36.0134,-17.0948,9.79307,-23.1815
-6.00842,17.368,0.236949,13.6089,46.1138,4.15891,5.84553,-1.60914,-0.697623,3.07155,-2.06499,5.26795,0.118778,-1.05519,5.97505,-10.0467,2.78404,-8.38073,42.2135,7.44521,1.03657,16.6681,2.27401,3.27601,-5.56597e-15,-1.74931e-14,-32.9663,-12.2019,-67.3831,39.8018,18.4888,-22.5425,3.25023,7.12502,3.88486,-26.6941,-5.56597e-15,-1.74931e-14,-31.556,8.81236,88.1941,33.51,-7.28859,-12.5551,25.2432,7.12502,13.522,54.7842,-39.9243,-5.39028,21.2508,42.8052,-12.692,-7.43885,17.2035,-8.32025,1.7342,-30.5664,38.2816,-15.8834,9.10663,-24.7475
-5.94354,17.3895,0.287269,13.4459,45.991,3.9928,5.89247,-1.62051,-0.539044,3.19916,-2.0713,5.37606,0.224037,-1.0593,5.9987,-10.0625,2.78409,-8.49448,42.2296,7.45087,1.09379,16.6722,2.26443,3.32289,3.73715e-14,-1.09729e-13,-32.8306,-12.2433,-67.4225,40.142,18.6305,-22.7151,3.36872,7.12502,3.71825,-26.5786,3.73715e-14,-1.09729e-13,-31.4512,8.10077,88.4523,33.9803,-6.82152,-13.059,25.7172,7.12502,13.0364,55.2898,-39.4247,-5.12121,21.2603,42.5554,-12.8274,-7.54976,16.9397,-9.48154,2.33045,-30.327,40.6508,-14.3176,8.40644,-26.1482
-5.87946,17.4084,0.33916,13.3547,45.895,3.8721,5.85536,-1.6826,-0.484069,3.33419,-2.15361,5.49324,0.39665,-1.10443,6.09217,-10.0656,2.8168,-8.5252,42.2183,7.50187,1.08439,16.6629,2.27783,3.33036,8.26944e-14,-1.59028e-14,-32.5449,-12.0144,-67.5291,40.4299,18.5424,-23.0714,3.48299,7.12502,3.37412,-26.4701,8.26944e-14,-1.59028e-14,-31.3582,7.64892,88.5771,34.5501,-6.39176,-13.0515,26.1753,7.12502,13.0436,55.7474,-38.976,-4.86489,21.2484,42.3288,-13.0948,-7.71038,16.9091,-10.7232,2.82761,-30.0777,43.0432,-12.6945,7.45209,-26.0924
-5.81858,17.4239,0.38823,13.1211,45.8489,3.66618,5.98112,-1.71148,-0.310441,3.44837,-2.17976,5.59884,0.445764,-1.11668,6.10892,-9.94592,2.78699,-8.48341,42.1228,7.44511,1.00272,16.5917,2.25618,3.26855,-3.81667e-14,-6.36111e-15,-32.3457,-11.6938,-67.6405,40.7592,18.0363,-23.4811,3.55863,7.12502,2.97845,-26.4003,-3.81667e-14,-6.36111e-15,-31.3405,7.31066,88.5286,35.0998,-6.85631,-12.169,25.9536,7.12502,13.8941,55.4694,-38.452,-4.63256,21.3059,42.1134,-13.3487,-7.83801,16.6444,-11.8956,3.24263,-29.7153,45.4103,-11.0828,6.36219,-25.4572
-5.75742,17.4352,0.435154,12.8483,45.7937,3.39275,6.10119,-1.70219,-0.047005,3.55144,-2.1498,5.69445,0.476406,-1.0985,6.06083,-9.87274,2.74486,-8.31497,42.1462,7.39297,0.844565,16.6092,2.24005,3.16072,5.1684e-14,2.70347e-14,-32.2819,-11.3969,-67.7448,41.2712,17.4434,-23.6126,3.43672,7.12502,2.85146,-26.524,5.1684e-14,2.70347e-14,-31.3237,6.82794,88.511,35.6134,-7.32034,-11.5207,25.444,7.12502,14.5188,54.916,-37.9495,-4.38889,21.4046,41.9039,-13.6139,-7.90553,16.5678,-13.0944,3.60854,-29.3164,47.7035,-9.49542,5.28816,-24.4885
-5.69401,17.4459,0.483217,12.6205,45.7406,3.08032,6.10106,-1.7289,0.211573,3.66258,-2.17255,5.80512,0.588865,-1.10808,6.02983,-9.92098,2.75739,-8.26782,42.1789,7.43106,0.778869,16.6445,2.25039,3.13268,-1.59028e-14,3.02153e-14,-32.1998,-11.0359,-67.9071,41.9031,16.9368,-23.7489,3.29654,7.12502,2.71984,-26.6659,-1.59028e-14,3.02153e-14,-31.2127,6.37448,88.5322,36.1483,-7.37532,-11.2786,25.6716,7.12502,14.7521,55.1266,-37.5391,-4.28055,21.5771,41.7028,-13.8177,-7.8928,16.3837,-14.402,4.11625,-28.9093,49.9078,-8.1624,4.06222,-24.0342
-5.63276,17.4615,0.528303,12.3542,45.7213,2.82913,6.29518,-1.79689,0.412068,3.73104,-2.24357,5.91628,0.556513,-1.14022,6.04323,-9.85584,2.80362,-8.40996,42.1216,7.44037,0.959717,16.5744,2.25924,3.23145,-7.95139e-15,1.59028e-15,-32.1416,-10.656,-68.0318,42.4598,16.708,-23.8104,3.33868,7.12502,2.66051,-26.6245,-7.95139e-15,1.59028e-15,-31.1598,6.07774,88.5141,36.7372,-7.25135,-11.2745,26.0662,7.12502,14.756,55.5209,-37.044,-4.24125,21.7088,41.4847,-14.012,-7.87534,16.4854,-15.5987,4.6266,-28.5106,52.0181,-7.14259,2.86157,-23.9229
-5.57342,17.4735,0.571187,12.1059,45.6294,2.64173,6.57672,-1.79595,0.61084,3.7589,-2.21775,5.96576,0.420715,-1.12177,5.99104,-9.62992,2.77509,-8.39015,41.9878,7.32511,1.0005,16.4477,2.23115,3.21241,-1.145e-13,7.95139e-15,-32.2899,-10.2099,-68.1748,43.1659,16.4992,-23.8836,3.12188,7.12502,2.58982,-26.8421,-1.145e-13,7.95139e-15,-31.2029,5.69664,88.4444,37.3114,-7.25211,-11.0549,25.7639,7.12502,14.9676,55.203,-36.5358,-4.07494,21.7595,41.2839,-14.174,-7.92932,16.2628,-16.7116,5.02361,-28.1621,54.016,-6.62433,2.01089,-23.2285
-5.51558,17.4857,0.615365,11.7639,45.5032,2.26442,6.75259,-1.76729,0.859338,3.82706,-2.15668,6.05237,0.381936,-1.08656,5.94313,-9.55453,2.73449,-8.26878,41.9778,7.22312,0.982831,16.4347,2.20634,3.16498,2.06736e-14,-3.18055e-15,-32.3657,-9.75322,-68.3527,43.9301,16.1509,-23.8332,2.8721,7.12502,2.63848,-27.0913,2.06736e-14,-3.18055e-15,-31.2664,5.29319,88.32,37.9712,-7.43825,-10.649,25.4386,7.12502,15.3586,54.8482,-36.0772,-3.84368,21.9691,41.1003,-14.3468,-7.97655,15.5721,-17.8961,5.44,-27.6787,55.9069,-6.75464,1.3376,-22.8814
-5.45864,17.4961,0.658005,11.5245,45.3416,2.06235,6.92726,-1.747,0.907443,3.94751,-2.12082,6.13445,0.408682,-1.06884,6.00558,-9.61417,2.74089,-8.08951,42.0117,7.23432,0.873137,16.482,2.2192,3.09131,-5.56597e-14,3.02153e-14,-32.2741,-9.29935,-68.517,44.6471,15.7885,-23.5006,3.05606,7.12502,2.95968,-26.9031,-5.56597e-14,3.02153e-14,-31.2724,5.00742,88.197,38.7367,-7.60252,-10.1999,25.7174,7.12502,15.7912,55.0933,-35.6267,-3.70034,22.0512,40.953,-14.5439,-7.88043,15.3236,-19.0488,5.89553,-27.335,57.6483,-7.33542,0.5501,-22.7194
-5.39871,17.5019,0.696237,11.3449,45.2196,1.88533,7.07681,-1.70907,1.08206,4.05577,-2.05488,6.17318,0.427006,-1.03298,5.94677,-9.74044,2.705,-7.99365,42.0622,7.16817,0.876731,16.5479,2.20034,3.07387,7.23576e-14,-1.59028e-14,-32.2277,-8.95195,-68.6438,45.378,15.5407,-23.3194,3.31984,7.12502,3.13465,-26.6369,7.23576e-14,-1.59028e-14,-31.1209,4.69453,88.1224,39.3255,-7.51938,-10.468,25.7674,7.12502,15.5329,55.1636,-35.2476,-3.64762,22.117,40.8304,-14.6554,-7.7849,15.2097,-20.2575,6.2936,-27.0679,59.2691,-8.05409,-0.385891,-22.6865
-5.3381,17.5107,0.734859,11.1588,45.0346,1.67184,7.24188,-1.66914,1.24468,4.14399,-1.98443,6.24079,0.417591,-0.994849,5.92603,-9.88527,2.65689,-8.06727,42.1225,7.09847,0.961276,16.6128,2.16375,3.12198,-1.35174e-14,6.67916e-14,-32.1819,-8.50199,-68.7536,46.0844,15.4469,-23.4012,3.59974,7.12502,3.0556,-26.3581,-1.35174e-14,6.67916e-14,-31.0234,4.49397,88.0583,39.9644,-7.27235,-10.6798,25.617,7.12502,15.3289,55.0288,-34.8951,-3.5095,22.1977,40.7405,-14.7626,-7.72345,14.4955,-21.4837,6.75737,-26.7732,60.7471,-8.72219,-1.58763,-22.6287
-5.27976,17.5156,0.769777,10.9635,44.9136,1.48272,7.50758,-1.70644,1.33331,4.19017,-2.01225,6.35058,0.322903,-1.00659,6.00336,-9.91088,2.67217,-8.2017,42.1835,7.11812,1.06656,16.6392,2.16028,3.19802,-2.3059e-14,2.22639e-14,-32.1759,-7.84775,-68.8657,46.8136,15.5144,-23.722,3.87795,7.12502,2.74579,-26.0841,-2.3059e-14,2.22639e-14,-31.0645,4.4919,87.9593,40.6549,-7.15476,-10.8157,25.5217,7.12502,15.198,54.9435,-34.5467,-3.45646,22.2741,40.6798,-14.8917,-7.6409,13.8489,-22.6938,7.18203,-26.4728,62.0958,-9.10312,-2.44282,-22.7577
-5.2229,17.5216,0.804067,10.8221,44.7539,1.35429,7.64559,-1.71993,1.31888,4.33407,-2.02719,6.44575,0.402745,-1.01623,6.11742,-9.91941,2.6895,-8.16902,42.0734,7.12929,1.02281,16.5831,2.16607,3.16868,4.53229e-14,-5.08889e-14,-31.9798,-7.34564,-68.9916,47.4836,15.5632,-23.7184,3.92305,7.12502,2.74932,-26.039,4.53229e-14,-5.08889e-14,-30.9474,4.47569,87.8605,41.2959,-7.00061,-11.2853,25.6261,7.12502,14.7457,55.0816,-34.2817,-3.32593,22.2673,40.6602,-15.035,-7.59253,13.7831,-23.8947,7.60702,-26.2418,63.2755,-9.406,-2.91615,-22.7616
-5.16594,17.5338,0.838509,10.7374,44.5191,1.27136,7.63815,-1.72925,1.26759,4.60356,-2.05385,6.52023,0.695909,-1.03562,6.22452,-10.1461,2.71259,-8.08858,41.9234,7.22103,0.813211,16.5703,2.18492,3.07709,-1.59028e-15,6.04305e-14,-31.5207,-6.97016,-69.1543,48.077,15.778,-23.507,3.80569,7.12502,2.95345,-26.1536,-1.59028e-15,6.04305e-14,-30.5583,4.6226,87.7148,41.8095,-6.82591,-11.6098,25.3872,7.12502,14.433,54.8653,-34.0651,-3.03476,22.1485,40.6507,-15.2547,-7.5071,14.6921,-25.125,8.11855,-26.0905,64.2846,-9.71045,-3.35284,-22.5491
-5.10491,17.541,0.868531,10.8176,44.2294,1.33434,7.7185,-1.69991,1.25658,4.74615,-2.01741,6.53057,0.79761,-1.01948,6.24065,-10.334,2.71483,-8.06891,41.9022,7.29171,0.663625,16.6148,2.19085,3.02473,3.18055e-15,-3.49861e-14,-31.2871,-6.59789,-69.2516,48.72,15.8742,-23.4798,3.77482,7.12502,2.97974,-26.1841,3.18055e-15,-3.49861e-14,-30.3186,4.6602,87.588,42.3116,-6.53054,-11.8025,25.3636,7.12502,14.2473,54.8549,-33.9084,-2.89168,21.9497,40.6661,-15.3932,-7.26142,14.874,-26.4111,8.5917,-26.1149,65.1379,-9.89258,-3.46377,-23.211
-5.04199,17.5461,0.897008,10.8048,43.9656,1.22273,7.88236,-1.68578,1.50297,4.72984,-1.97302,6.48182,0.674433,-0.989584,6.05032,-10.1987,2.74101,-8.02322,41.9053,7.29337,0.679226,16.5822,2.20274,3.01804,-6.20208e-14,-7.95139e-15,-31.3312,-6.26992,-69.4114,49.3441,15.9775,-23.5292,3.77353,7.12502,2.93207,-26.1861,-6.20208e-14,-7.95139e-15,-30.3697,4.69569,87.305,42.7663,-6.29667,-11.9456,25.3807,7.12502,14.1094,54.8816,-33.7411,-2.66343,21.8906,40.6829,-15.3023,-7.0945,14.184,-27.7225,9.06567,-26.0029,65.8649,-9.94375,-3.42017,-24.0956
-4.97981,17.552,0.924729,10.8919,43.677,1.23395,8.02093,-1.64368,1.5837,4.71588,-1.904,6.44394,0.572314,-0.951909,5.96372,-10.0765,2.76807,-8.02883,41.9281,7.28291,0.772312,16.5565,2.21134,3.05389,-8.74653e-15,1.59028e-14,-31.4307,-5.96266,-69.5305,50.0558,16.0609,-23.4812,3.66361,7.12502,2.97844,-26.2953,-8.74653e-15,1.59028e-14,-30.3286,4.89462,87.0562,43.0546,-6.27477,-12.0792,25.4018,7.12502,13.9807,54.9116,-33.6088,-2.40736,21.727,40.7046,-15.07,-7.0235,13.1285,-29.0196,9.5794,-25.9978,66.4351,-10.1318,-3.60716,-24.7227
-4.91799,17.5532,0.950811,11.0891,43.3889,1.46036,8.18499,-1.58334,1.45197,4.77489,-1.82641,6.45037,0.54089,-0.915983,6.04523,-10.1555,2.76336,-8.21807,41.9562,7.31004,0.838529,16.5791,2.19881,3.12424,2.54444e-14,2.06736e-14,-31.3475,-5.64272,-69.5111,50.7072,16.0735,-23.3959,3.63439,7.12502,3.06077,-26.3234,2.54444e-14,2.06736e-14,-30.1023,5.05352,86.9957,43.3459,-6.23826,-12.3221,25.3143,7.12502,13.7466,54.8402,-33.46,-2.33261,21.4334,40.7244,-15.0008,-6.82568,12.9728,-30.228,10.0427,-26.154,66.8336,-10.4682,-3.93612,-24.7776
-4.85652,17.5541,0.977372,11.1209,43.0858,1.43088,8.38838,-1.5849,1.58511,4.8044,-1.80986,6.39206,0.451181,-0.903482,5.912,-10.1163,2.84085,-8.20221,41.9232,7.41016,0.831581,16.5452,2.2419,3.12907,-2.78299e-14,-3.18055e-14,-31.3716,-5.363,-69.7119,51.4143,16.0726,-23.4329,3.76788,7.12502,3.02505,-26.1904,-2.78299e-14,-3.18055e-14,-30.0471,5.20704,86.6935,43.8433,-6.04099,-12.7417,24.7317,7.12502,13.3422,54.2845,-33.3478,-2.24855,21.3573,40.7664,-14.9025,-6.59625,13.3332,-31.4219,10.448,-26.1093,67.091,-10.8713,-4.11836,-25.2623
-4.79273,17.557,1.00367,11.1,42.758,1.25416,8.47924,-1.61597,1.77583,4.84046,-1.83402,6.37812,0.434102,-0.911406,5.79269,-9.97585,2.92714,-8.13405,41.8328,7.52283,0.738506,16.4629,2.29117,3.0818,-3.33958e-14,1.59028e-14,-31.2744,-4.99609,-69.9031,51.9636,16.0914,-23.6368,4.05464,7.12502,2.82813,-25.9064,-3.33958e-14,1.59028e-14,-30.0785,5.33005,86.4351,44.4498,-5.53075,-13.4129,23.9676,7.12502,12.6952,53.5617,-33.307,-2.05481,21.3602,40.8501,-15.0599,-6.40738,13.5838,-32.6083,10.7994,-25.946,67.1858,-11.2129,-4.01116,-24.5223
-4.7306,17.5604,1.02473,11.2237,42.5383,1.27913,8.59671,-1.61026,1.86051,4.8668,-1.81466,6.35968,0.391677,-0.899416,5.72683,-9.94236,2.92738,-8.13213,41.831,7.5268,0.705893,16.4563,2.28816,3.06591,-1.51076e-14,-3.49861e-14,-31.1593,-4.86362,-69.966,52.4404,16.0966,-23.7811,4.20011,7.12502,2.68873,-25.7627,-1.51076e-14,-3.49861e-14,-30.0325,5.23339,86.3918,45.0496,-4.75865,-14.2176,24.207,7.12502,11.9193,53.8477,-33.2961,-1.87824,21.172,40.9181,-15.383,-6.33717,13.7912,-33.8258,11.0092,-25.9742,67.1603,-11.4151,-3.61087,-23.3136
-4.66952,17.5554,1.03894,11.5665,42.4147,1.59325,8.80386,-1.6326,1.7923,4.82804,-1.83693,6.27965,0.238168,-0.910086,5.68984,-9.91828,2.95403,-8.07915,41.9071,7.56418,0.686699,16.4935,2.30525,3.05614,-3.97569e-14,-3.49861e-14,-31.1901,-4.74182,-70.0306,53.0214,15.9058,-23.7329,4.19609,7.12502,2.73527,-25.7661,-3.97569e-14,-3.49861e-14,-30.0187,4.87451,86.4594,45.6771,-3.39305,-15.4779,25.1817,7.12502,10.7038,54.889,-33.2697,-1.90661,20.815,40.9515,-15.6131,-6.35748,12.0707,-35.1018,11.0128,-26.2589,67,-11.6492,-3.11557,-22.981
-4.60592,17.5465,1.05466,11.7316,42.1851,1.72463,9.0021,-1.61838,1.82603,4.88038,-1.80592,6.26404,0.179459,-0.893209,5.65758,-9.94337,2.97407,-8.15227,41.8662,7.62124,0.652212,16.4745,2.31323,3.06088,5.24792e-14,-6.20208e-14,-31.0663,-4.63542,-70.0127,53.5402,15.697,-23.7623,4.0649,7.12502,2.70696,-25.8977,5.24792e-14,-6.20208e-14,-29.9222,4.23465,86.7076,46.426,-1.33968,-17.5195,26.7283,7.12502,8.734,56.5276,-33.1282,-1.8433,20.6223,40.9746,-15.9451,-6.44357,9.39257,-36.2875,11.0593,-26.38,66.7061,-11.8973,-2.49902,-23.7052
-4.53966,17.5474,1.07343,11.6546,41.8101,1.59029,9.21285,-1.54308,2.00975,5.01147,-1.68365,6.28195,0.185275,-0.828252,5.56678,-9.98523,2.969,-8.22349,41.7578,7.65101,0.573098,16.4281,2.30676,3.03941,1.10524e-13,2.70347e-14,-30.8426,-4.62125,-69.9702,53.9505,15.6129,-23.8144,4.17777,7.12502,2.65657,-25.7854,1.10524e-13,2.70347e-14,-29.7286,3.91434,86.8003,47.056,-0.121883,-18.8595,28.4816,7.12502,7.44081,58.3307,-32.9239,-1.53766,20.5757,40.9866,-16.4154,-6.52137,7.7765,-37.3024,11.2596,-26.2546,66.2565,-12.2654,-1.99913,-24.6309
-4.47276,17.5477,1.09033,11.8236,41.4186,1.79068,9.44842,-1.49894,1.94042,5.0712,-1.62141,6.20926,0.112647,-0.797673,5.53024,-10.0255,2.99615,-8.23151,41.8046,7.70335,0.562267,16.4615,2.32062,3.04705,1.11319e-14,2.70347e-14,-30.743,-4.47038,-70.0104,54.3971,15.4615,-23.9324,4.22352,7.12502,2.54262,-25.7411,1.11319e-14,2.70347e-14,-29.607,4.28633,86.476,47.3177,-0.949118,-18.0653,28.4857,7.12502,8.2073,58.3062,-32.7633,-1.2977,20.2099,41.016,-17.0298,-6.31584,8.50642,-38.2204,11.3484,-26.4017,65.6265,-12.7543,-1.60812,-25.1661
-4.40259,17.5441,1.10579,12.0301,41.0787,2.01837,9.55075,-1.51614,1.8352,5.15545,-1.65395,6.11096,0.146819,-0.816073,5.49077,-10.0156,3.04707,-8.06808,41.8411,7.76394,0.476823,16.4881,2.3542,2.99068,-1.74931e-14,-1.11319e-14,-30.6146,-4.22956,-70.1546,54.8482,15.3978,-24.0078,4.09375,7.12502,2.46981,-25.8717,-1.74931e-14,-1.11319e-14,-29.434,5.25979,85.843,47.2515,-2.97454,-15.748,26.5147,7.12502,10.4432,56.2353,-32.62,-1.16872,19.8292,41.0882,-17.4901,-5.97179,9.64139,-39.0586,11.2524,-26.5031,64.8444,-13.1092,-1.09489,-24.7611
-4.33233,17.5396,1.12051,12.0969,40.7119,2.01651,9.70509,-1.50099,1.92769,5.21498,-1.62116,6.05971,0.117214,-0.797221,5.38475,-10.0395,3.06417,-8.16733,41.8944,7.78577,0.55812,16.5117,2.3533,3.04911,2.14687e-14,-5.08889e-14,-30.4566,-4.0853,-70.2295,55.2089,15.2735,-24.0843,4.05135,7.12502,2.39597,-25.9149,2.14687e-14,-5.08889e-14,-29.2846,5.79324,85.4354,47.263,-4.00776,-14.6935,25.2748,7.12502,11.4604,54.9415,-32.5533,-0.903814,19.6121,41.2108,-17.5464,-5.76535,10.3602,-39.8624,11.1241,-26.3586,63.9118,-13.2996,-0.305725,-24.2293
-4.26227,17.5384,1.13216,12.0931,40.3559,1.87831,9.92751,-1.44443,2.19315,5.27959,-1.51321,6.02713,0.0460713,-0.736648,5.19492,-10.2864,3.05448,-8.42034,42.0534,7.76395,0.851151,16.628,2.32868,3.23523,1.59028e-14,6.36111e-14,-30.2984,-4.15267,-70.2232,55.5399,15.0735,-24.0767,4.22449,7.12502,2.40328,-25.7417,1.59028e-14,6.36111e-14,-29.0785,5.95259,85.2473,47.4198,-4.48114,-14.6074,25.252,7.12502,11.5434,54.9141,-32.5526,-0.661503,19.5103,41.2964,-17.2719,-5.66606,10.4726,-40.6396,10.9656,-26.0731,62.8377,-13.1786,0.491554,-23.8687
-4.18975,17.541,1.14404,12.1989,39.987,1.86793,10.049,-1.41778,2.26659,5.35064,-1.46831,5.99904,0.0477668,-0.712548,5.12185,-10.3541,3.10932,-8.35979,42.1327,7.84393,0.842492,16.6866,2.3617,3.23894,1.90833e-14,1.43125e-14,-30.1491,-4.04396,-70.2224,55.8883,14.8909,-24.0182,4.37515,7.12502,2.45983,-25.5904,1.90833e-14,1.43125e-14,-28.9005,6.18197,84.9992,47.5747,-5.04658,-14.2383,24.8836,7.12502,11.8993,54.5254,-32.5232,-0.426648,19.2869,41.279,-17.0898,-5.56605,10.686,-41.3467,10.7438,-25.8563,61.6123,-12.9535,1.18753,-23.5743
-4.11406,17.5502,1.1567,12.308,39.6038,1.81221,10.1649,-1.39624,2.39647,5.36147,-1.4227,5.9755,-0.0115798,-0.686777,5.02182,-10.1449,3.17368,-8.35826,42.0695,7.91254,0.814839,16.5968,2.39374,3.22353,2.62396e-14,-7.31528e-14,-30.099,-3.80451,-70.2258,56.2364,14.7483,-23.9367,4.29826,7.12502,2.53846,-25.6664,2.62396e-14,-7.31528e-14,-28.9138,6.1695,84.8513,47.808,-5.1668,-14.0092,23.7711,7.12502,12.1202,53.4001,-32.4396,-0.0714725,19.061,41.1755,-17.2065,-5.49853,10.7524,-42.072,10.5073,-25.544,60.2401,-12.6669,1.44727,-23.2682
-4.03319,17.5678,1.16906,12.402,39.174,1.79048,10.2551,-1.36952,2.48632,5.43824,-1.37772,5.97662,0.0142066,-0.662702,4.96933,-10.0248,3.17987,-8.51547,41.9183,7.95184,0.744487,16.4817,2.38531,3.21218,-3.49861e-14,6.99722e-14,-29.9454,-3.62773,-70.169,56.5514,14.6857,-23.7878,4.30137,7.12502,2.68225,-25.6615,-3.49861e-14,6.99722e-14,-28.978,5.86505,84.8928,48.398,-4.69558,-14.4936,25.0515,7.12502,11.6531,54.7075,-32.2594,0.165982,18.8195,40.9842,-17.2281,-5.37609,10.5146,-42.7205,10.1707,-25.2056,58.7173,-12.3914,1.54362,-23.6995
-3.94897,17.5847,1.17889,12.6751,38.6903,2.0057,10.289,-1.35261,2.42056,5.51081,-1.36697,5.86664,0.0690294,-0.658515,4.88898,-9.8556,3.19527,-8.27698,41.7,8.0145,0.346405,16.3604,2.40619,2.98889,-3.10104e-14,6.20208e-14,-29.7857,-3.3506,-70.1983,56.8944,14.5054,-23.7766,4.1993,7.12502,2.69308,-25.7634,-3.10104e-14,6.20208e-14,-29.066,5.76963,84.7336,48.9095,-4.55091,-15.028,25.4266,7.12502,11.1377,55.111,-32.1279,0.200322,18.3862,40.7712,-17.0896,-5.09239,10.2442,-43.2015,9.72894,-24.9883,57.0571,-12.1093,1.59327,-24.8461
-3.86595,17.5951,1.18641,12.9126,38.187,2.11037,10.3391,-1.3565,2.41323,5.50199,-1.37429,5.7431,0.0291535,-0.661827,4.76424,-9.5387,3.26446,-8.02131,41.5716,8.0658,0.146412,16.2356,2.45048,2.84536,-8.26944e-14,-2.70347e-14,-29.7163,-2.9457,-70.3075,57.1612,14.389,-23.7994,4.20547,7.12502,2.67112,-25.7575,-8.26944e-14,-2.70347e-14,-29.22,5.82996,84.5476,49.3143,-4.28953,-15.3078,25.0402,7.12502,10.8679,54.739,-32.0519,0.316856,18.0292,40.5285,-16.9654,-4.78125,10.2041,-43.5992,9.18769,-24.5574,55.3329,-11.7941,1.96829,-26.5698
-3.78502,17.603,1.19178,13.0828,37.5806,2.15987,10.4436,-1.29595,2.31463,5.55141,-1.30125,5.72317,0.0206824,-0.627978,4.79411,-9.41333,3.32652,-7.96327,41.5181,8.16146,0.0223537,16.1839,2.48564,2.78715,1.20066e-13,-6.04305e-14,-29.475,-2.50075,-70.2445,57.3035,14.2177,-23.6877,4.17485,7.12502,2.77898,-25.7868,1.20066e-13,-6.04305e-14,-29.2384,5.93116,84.504,49.5525,-4.28471,-15.363,25.3135,7.12502,10.8146,55.0151,-31.9555,0.658862,17.6705,40.2147,-16.8661,-4.63274,10.1595,-43.896,8.67299,-23.9741,53.5941,-11.3635,2.55736,-27.7472
-3.70195,17.6191,1.19624,13.2104,36.9356,2.06738,10.4642,-1.16544,2.35658,5.67312,-1.13106,5.72569,0.124641,-0.542993,4.75503,-9.5388,3.32905,-7.94357,41.509,8.21469,-0.100875,16.2193,2.48894,2.74277,-5.725e-14,-2.8625e-14,-29.1385,-2.3026,-70.1284,57.4296,14.1768,-23.8099,4.02712,7.12502,2.66094,-25.936,-5.725e-14,-2.8625e-14,-29.0976,5.96956,84.4109,49.665,-4.65181,-15.1086,24.9974,7.12502,11.06,54.686,-31.8919,1.06306,17.4243,39.8834,-16.7144,-4.53267,10.2791,-44.2321,8.11328,-23.1835,51.8214,-10.5703,3.2845,-28.4925
-3.61816,17.6549,1.19885,13.3398,36.271,1.97419,10.4793,-1.07587,2.40706,5.78171,-1.01496,5.6986,0.220901,-0.484554,4.68543,-9.63135,3.34783,-8.02296,41.5147,8.25992,-0.0919468,16.239,2.49051,2.76985,-4.13472e-14,-5.08889e-14,-28.792,-1.96316,-70.0795,57.4756,14.1852,-24.0867,4.06668,7.12502,2.3936,-25.8996,-4.13472e-14,-5.08889e-14,-29.0227,6.01356,84.352,49.9897,-4.63907,-14.7135,24.6866,7.12502,11.441,54.3545,-31.7196,1.2664,17.2297,39.3569,-16.4207,-4.3476,9.74404,-44.6482,7.50343,-22.3486,50.0721,-9.46668,4.1309,-29.8346
-3.53261,17.6542,1.20175,13.3788,35.5541,1.83389,10.5985,-0.980321,2.42552,5.90043,-0.887701,5.67242,0.27124,-0.421054,4.63623,-9.66299,3.33635,-7.96576,41.4612,8.25411,-0.201002,16.2299,2.47938,2.71009,6.67916e-14,-2.8625e-14,-28.3605,-1.70241,-70.0365,57.432,14.37,-24.1914,4.29162,7.12502,2.29248,-25.6758,6.67916e-14,-2.8625e-14,-29.0319,5.91193,84.3081,50.3885,-4.36913,-15.0716,24.5682,7.12502,11.0957,54.2549,-31.5421,1.3949,17.0909,38.8093,-16.0115,-4.0636,8.69986,-44.7705,6.50288,-21.0943,48.2345,-8.52936,4.90009,-28.3427
-3.44712,17.688,1.20302,13.4079,34.7102,1.70116,10.7952,-0.841566,2.40318,5.97254,-0.702048,5.59883,0.226672,-0.328845,4.55522,-9.55218,3.35409,-7.84035,41.368,8.2397,-0.279015,16.1637,2.48498,2.64308,-6.44062e-14,-1.27222e-14,-27.977,-1.50596,-70.0646,57.3112,14.5218,-23.9992,4.45419,7.12502,2.47816,-25.5112,-6.44062e-14,-1.27222e-14,-29.0694,6.12858,83.9828,50.2704,-4.82222,-14.9392,22.5805,7.12502,11.2234,52.2602,-31.3606,1.85757,16.8421,38.3214,-15.7477,-3.83,8.74141,-44.8653,5.443,-19.6989,46.338,-7.4833,5.64464,-26.2671
-3.35821,17.7103,1.20089,13.6142,33.8356,1.60435,10.8178,-0.730598,2.34093,5.99137,-0.565588,5.55114,0.225275,-0.263098,4.52594,-9.31787,3.42386,-7.85579,41.1946,8.3014,-0.325212,16.013,2.51276,2.61661,4.69132e-14,-9.54166e-15,-27.6392,-1.07756,-70.0517,57.2986,14.4682,-23.6323,4.38016,7.12502,2.83249,-25.5808,4.69132e-14,-9.54166e-15,-29.2134,6.16314,83.8743,50.5729,-4.86554,-14.7726,22.9036,7.12502,11.3841,52.5745,-31.478,2.36426,16.5075,38.0477,-15.5613,-3.63795,8.6058,-44.9819,4.46355,-18.3974,44.371,-6.29598,6.59967,-26.7365
-3.26431,17.6859,1.19672,13.7769,32.9559,1.49518,10.8438,-0.672203,2.25062,6.06099,-0.502398,5.52501,0.280573,-0.234983,4.5432,-9.12351,3.5308,-7.82057,40.9901,8.46552,-0.527661,15.8685,2.56962,2.52988,7.87187e-14,5.08889e-14,-27.2616,-0.504001,-70.0409,57.3488,14.4374,-23.4076,4.20357,7.12502,3.04945,-25.7544,7.87187e-14,5.08889e-14,-29.3242,6.6389,83.6947,50.7124,-5.10916,-14.8418,22.5118,7.12502,11.3174,52.1864,-31.6516,2.67286,16.2178,37.8813,-15.3136,-3.32447,8.14483,-44.6294,2.5795,-16.2503,42.3844,-6.0444,7.60508,-19.3075
-3.17365,17.6755,1.19258,13.9022,32.0488,1.45984,10.9989,-0.57728,2.10026,6.12271,-0.389651,5.45258,0.253877,-0.182721,4.54212,-9.03941,3.60789,-7.68527,41.0171,8.59586,-0.70561,15.8784,2.61671,2.44556,-5.32743e-14,-1.74931e-14,-26.9286,-0.113024,-70.0346,57.3409,14.55,-23.3683,4.21357,7.12502,3.0874,-25.7438,-5.32743e-14,-1.74931e-14,-29.5451,6.89275,83.5148,51.0587,-5.18872,-14.5387,22.568,7.12502,11.6096,52.2264,-31.7952,2.80693,15.9084,37.8497,-15.1129,-2.78049,7.89456,-44.3322,1.14028,-14.526,40.4908,-4.57246,8.00495,-17.4066
-3.08232,17.6757,1.19271,13.9649,31.1394,1.29406,11.0332,-0.424997,2.09595,6.29206,-0.199144,5.38863,0.399896,-0.0885919,4.4571,-9.31845,3.59105,-7.53487,41.1641,8.62763,-0.850991,16.0427,2.61266,2.37811,-1.66979e-14,-1.27222e-14,-26.4518,-0.0059357,-69.9651,57.2404,14.6688,-23.4838,4.47641,7.12502,2.97592,-25.4826,-1.66979e-14,-1.27222e-14,-29.5049,6.81135,83.4028,51.3779,-5.32737,-13.9679,23.0512,7.12502,12.1601,52.6778,-31.9757,3.09014,15.678,37.9265,-15.0498,-2.17858,8.14698,-44.1213,-0.0390117,-12.8738,38.651,-2.86367,7.85428,-20.9959
-2.99019,17.6631,1.19401,13.9072,30.1469,1.02406,11.1546,-0.234794,2.13198,6.47964,0.0492718,5.33275,0.514873,0.0355989,4.35276,-9.48293,3.57247,-7.40887,41.1224,8.63907,-1.03313,16.0816,2.60425,2.28441,2.46493e-14,3.97569e-14,-26.0634,0.0195506,-69.9102,57.2626,14.8518,-23.3209,4.55366,7.12502,3.13318,-25.4031,2.46493e-14,3.97569e-14,-29.4846,6.54452,83.3792,51.5981,-4.92097,-14.5586,23.4568,7.12502,11.5905,53.1163,-32.1237,3.55371,15.5129,38.0065,-15.0633,-1.60004,8.37566,-43.8297,-1.08697,-11.1114,36.8929,-1.49136,7.63387,-24.296
-2.89542,17.6477,1.19298,13.9091,29.0141,0.852874,11.3911,-0.0566602,2.03887,6.53268,0.27985,5.23513,0.427572,0.148159,4.27884,-9.29456,3.65191,-7.51425,41.0455,8.72345,-0.995847,15.9833,2.63313,2.31848,-6.99722e-14,2.06736e-14,-25.8855,0.232047,-69.9096,57.3321,15.1066,-22.8989,4.4891,7.12502,3.54075,-25.4612,-6.99722e-14,2.06736e-14,-29.7049,6.6388,83.2039,51.6881,-4.65671,-14.5858,22.973,7.12502,11.5642,52.6339,-32.3354,3.87786,15.2816,38.1179,-14.9179,-0.916569,8.27875,-43.3823,-2.16125,-9.33481,35.1728,-0.375647,7.29332,-24.4624
-2.79531,17.6259,1.19485,13.9454,27.7338,0.888217,11.6035,0.136836,1.72853,6.68116,0.501646,5.05038,0.452963,0.251173,4.23657,-9.32686,3.74852,-7.76151,41.0717,8.79503,-0.688641,15.9622,2.65785,2.50157,-4.77083e-14,4.6118e-14,-25.6306,0.476287,-69.9933,57.3828,15.137,-22.8318,4.47542,7.12502,3.60555,-25.4738,-4.77083e-14,4.6118e-14,-29.8192,6.8511,82.9274,51.6526,-4.28676,-14.3858,22.6028,7.12502,11.7571,52.2529,-32.5457,4.13072,14.8623,38.3272,-14.7226,-0.159552,7.36473,-42.7542,-3.43187,-7.65174,33.4517,0.34825,6.91498,-22.8351
-2.69797,17.6132,1.19503,14.0241,26.4332,0.861992,11.6656,0.354039,1.34081,6.94343,0.736836,4.94608,0.676715,0.355964,4.32284,-9.75783,3.78235,-7.78984,41.1725,8.9034,-0.709515,16.1169,2.67049,2.53327,-9.54166e-15,1.43125e-14,-25.2138,0.621974,-69.9796,57.5629,15.2417,-22.9997,4.48476,7.12502,3.44334,-25.4672,-9.54166e-15,1.43125e-14,-29.7514,7.04233,82.7813,51.6833,-3.9538,-13.9755,23.0525,7.12502,12.1528,52.6795,-32.8549,4.57529,14.4286,38.5593,-14.6115,0.544225,6.5495,-42.1396,-4.5967,-6.01161,31.7971,1.03499,5.77551,-25.3928
-2.59813,17.5971,1.18767,14.125,25.2217,0.824996,11.7754,0.546529,1.15427,7.1409,0.962764,4.77577,0.809132,0.46305,4.22559,-10.0336,3.81219,-7.66686,41.2473,8.98073,-0.813196,16.2362,2.688,2.49198,-1.98785e-14,3.18055e-15,-24.8374,0.664073,-69.987,57.7229,15.4637,-23.0947,4.43908,7.12502,3.35163,-25.5143,-1.98785e-14,3.18055e-15,-29.7089,7.09298,82.6036,51.7347,-3.83282,-13.7345,23.5065,7.12502,12.3851,53.1196,-33.2261,4.93061,13.9893,38.7995,-14.4806,1.25975,6.40193,-41.5489,-5.72227,-4.48415,30.181,1.88571,4.18497,-30.323
-2.49139,17.5816,1.17739,14.2791,23.9934,0.906913,11.8976,0.721563,1.018,7.28712,1.17127,4.51446,0.884501,0.564828,4.00494,-10.2488,3.84422,-7.81848,41.4201,8.98751,-0.538103,16.3487,2.68256,2.65081,-9.54166e-15,-2.06736e-14,-24.5274,0.639188,-70.0568,57.8281,15.4486,-23.4097,4.22633,7.12502,3.04742,-25.7316,-9.54166e-15,-2.06736e-14,-29.6993,7.18524,82.331,51.631,-4.11694,-13.4759,23.3326,7.12502,12.6344,52.9305,-33.6054,5.18507,13.4058,39.0302,-14.3218,2.037,6.5005,-40.9342,-6.90608,-3.11468,28.6969,2.41804,3.2817,-31.7885
-2.3856,17.5642,1.17232,14.293,22.8528,0.94976,12.1474,0.76082,0.761908,7.47233,1.19568,4.39016,0.940822,0.568562,4.01678,-10.4369,3.9802,-8.25485,41.4263,9.2051,-0.285173,16.3434,2.72724,2.87163,-4.13472e-14,-2.06736e-14,-24.1762,1.03212,-70.096,58.1107,15.1165,-23.6567,4.02316,7.12502,2.80894,-25.9381,-4.13472e-14,-2.06736e-14,-29.7543,7.65977,82.1281,51.5321,-4.342,-13.2429,23.33,7.12502,12.859,52.9138,-33.8408,5.44589,12.9014,39.2596,-14.2314,2.67677,6.22884,-40.2808,-7.87665,-1.88464,27.4303,2.6001,2.52128,-30.7552
-2.28039,17.5394,1.17094,14.229,21.7417,0.922822,12.4024,0.930307,0.58054,7.57667,1.39906,4.21579,0.899748,0.665752,3.91099,-10.1236,4.00883,-8.08228,41.2692,9.1809,-0.42471,16.2026,2.7367,2.75613,1.35174e-14,-5.56597e-14,-24.2252,1.1339,-70.1642,58.3694,14.9289,-23.5726,3.74802,7.12502,2.89016,-26.2121,1.35174e-14,-5.56597e-14,-29.9319,7.57247,81.9337,51.4894,-4.36561,-13.0972,23.7421,7.12502,12.9995,53.3171,-34.0488,5.75001,12.473,39.5241,-14.1513,3.28002,6.25227,-39.6092,-8.72534,-0.71281,26.2529,2.74286,1.68151,-29.5385
-2.17196,17.5216,1.16194,14.2668,20.5417,0.939466,12.6125,1.09236,0.377794,7.69929,1.58674,4.00865,0.903816,0.754405,3.78467,-9.87957,4.06241,-7.8871,41.0645,9.24323,-0.695765,16.0646,2.76754,2.59526,2.14687e-14,2.8625e-14,-23.9725,1.21468,-70.2108,58.4099,14.929,-23.5003,3.75074,7.12502,2.95998,-26.2085,2.14687e-14,2.8625e-14,-30.0471,7.48247,81.7554,51.4621,-4.16529,-12.9602,24.1866,7.12502,13.1315,53.7532,-34.3938,6.1338,11.9256,39.793,-14.0218,3.91299,5.9671,-38.8168,-9.38513,0.192795,25.2792,2.80536,0.787164,-29.6272
-2.05653,17.4935,1.15081,14.4029,19.3755,0.928124,12.7511,1.17792,0.263274,7.76986,1.68126,3.78165,0.900428,0.799934,3.59835,-9.54497,4.15847,-7.67416,40.8136,9.36863,-1.02586,15.8857,2.82354,2.41057,-1.27222e-14,1.43125e-14,-23.6697,1.28079,-70.3035,58.464,14.9452,-23.4924,4.08708,7.12502,2.96757,-25.872,-1.27222e-14,1.43125e-14,-30.1712,7.57901,81.5042,51.2989,-4.0904,-12.9734,24.2091,7.12502,13.1189,53.7764,-34.8662,6.40966,11.3847,40.0866,-13.8355,4.71602,5.8632,-38.4683,-10.1827,1.15814,24.4892,3.34178,0.0408235,-28.8754
-1.93867,17.4636,1.14004,14.5226,18.3144,0.856618,12.8463,1.20243,0.209255,7.86178,1.70106,3.5876,0.948647,0.809263,3.42268,-9.37243,4.24104,-7.53639,40.7021,9.48438,-1.24466,15.808,2.86596,2.29728,2.78299e-14,9.54166e-15,-23.3263,1.45647,-70.3818,58.5304,14.9945,-23.1888,4.26313,7.12502,3.26074,-25.6917,2.78299e-14,9.54166e-15,-30.2532,7.79568,81.1998,51.0433,-4.15555,-12.8805,23.9063,7.12502,13.2084,53.4679,-35.3011,6.62319,10.9196,40.351,-13.7377,5.41795,5.02125,-38.0193,-10.7262,1.93586,23.9834,3.90557,-0.885774,-27.5603
-1.81789,17.4362,1.13143,14.6909,17.2149,0.837354,12.9197,1.23578,0.0729815,7.92654,1.7244,3.43803,0.976596,0.816876,3.33978,-9.22713,4.32552,-7.74666,40.6368,9.59852,-1.20703,15.7214,2.88836,2.35364,-7.15625e-15,-2.22639e-14,-23.0432,1.85814,-70.3061,58.6605,14.8507,-23.2658,4.16699,7.12502,3.18644,-25.7889,-7.15625e-15,-2.22639e-14,-30.4201,8.09315,81.0367,50.8397,-4.22379,-12.727,24.0618,7.12502,13.3563,53.6137,-35.8052,6.90212,10.3615,40.6577,-13.69,6.09414,4.78479,-37.5364,-11.1915,2.56139,23.5589,4.21504,-1.31504,-26.6427
-1.69635,17.4174,1.11793,14.8531,16.1894,0.823462,13.0561,1.28827,0.0531365,8.01062,1.78571,3.26873,0.992934,0.848011,3.1649,-9.27334,4.35181,-7.94733,40.6738,9.64933,-1.13306,15.7337,2.88001,2.42709,-4.45278e-14,-2.38542e-15,-22.6545,2.007,-70.1762,58.7487,14.6232,-23.5439,4.15321,7.12502,2.91788,-25.8066,-4.45278e-14,-2.38542e-15,-30.1621,8.35832,80.9781,50.1272,-4.48172,-12.7412,24.237,7.12502,13.3426,53.7898,-36.3183,7.23514,9.75384,40.9541,-13.5579,6.72296,4.08131,-37.1756,-11.1375,2.68549,23.3778,3.78278,-2.25426,-30.6027
-1.57048,17.3813,1.10133,15.0035,15.2817,0.757351,13.1647,1.31749,0.124583,8.15275,1.82527,3.12949,1.08901,0.870398,2.97442,-9.37373,4.36378,-8.068,40.6239,9.69504,-1.1619,15.7272,2.87111,2.44274,-1.59028e-15,8.74653e-15,-22.0717,1.99762,-70.013,58.7199,14.4524,-23.6432,4.25192,7.12502,2.82197,-25.7092,-1.59028e-15,8.74653e-15,-29.5866,8.72789,80.9811,49.0512,-4.82394,-12.9434,23.9879,7.12502,13.1477,53.5534,-36.8525,7.63796,9.10633,41.2626,-13.4469,7.33288,3.31893,-36.741,-11.1382,2.86747,23.41,2.21295,-3.08225,-28.8487
-1.44334,17.3433,1.08582,15.1955,14.4175,0.661935,13.1929,1.30275,0.205727,8.33276,1.80663,3.01308,1.27115,0.863276,2.8121,-9.61245,4.37182,-8.1409,40.6241,9.77987,-1.27773,15.79,2.86593,2.42726,-7.95139e-15,-1.66979e-14,-21.4244,1.98618,-69.8631,58.6888,14.259,-23.5512,4.43828,7.12502,2.91082,-25.5216,-7.95139e-15,-1.66979e-14,-29.3287,8.87803,80.9829,48.6306,-4.77368,-13.1914,23.5923,7.12502,12.9087,53.173,-37.3989,7.97344,8.51345,41.5371,-13.3607,7.89694,3.02278,-36.62,-10.7728,2.75038,23.6659,0.342841,-4.54203,-30.4631
-1.31537,17.3049,1.06933,15.2479,13.5739,0.496614,13.4208,1.26459,0.292409,8.50428,1.7623,2.95341,1.33782,0.843222,2.70495,-9.8035,4.40208,-8.30025,40.7131,9.89541,-1.31824,15.8761,2.86688,2.46312,2.3059e-14,-2.38542e-15,-21.0362,2.05989,-69.6859,58.9653,14.0973,-23.2771,4.52053,7.12502,3.17554,-25.4356,2.3059e-14,-2.38542e-15,-29.5041,8.76959,80.9999,48.8934,-4.44329,-13.0971,23.8394,7.12502,12.9996,53.4144,-37.8419,8.35318,8.03712,41.832,-13.2656,8.36469,3.39586,-36.4146,-10.4064,2.63117,24.0159,-1.07092,-5.97895,-30.6181
-1.18836,17.2728,1.04829,15.4619,12.6959,0.526355,13.5978,1.22547,0.116619,8.62933,1.68859,2.86184,1.37765,0.799556,2.71622,-9.84228,4.45386,-8.27583,40.5947,10.0736,-1.67596,15.8556,2.89554,2.32959,-9.54166e-15,-3.97569e-15,-20.7232,2.22734,-69.5211,59.3308,14.0667,-23.3937,4.57126,7.12502,3.06293,-25.3865,-9.54166e-15,-3.97569e-15,-29.6894,8.59498,81.0458,49.1272,-4.09916,-12.8177,24.4569,7.12502,13.2689,54.0146,-38.4589,8.66119,7.33926,42.127,-13.1592,8.71825,3.40742,-36.4352,-9.83604,2.15228,24.4826,-2.0651,-6.7964,-29.9126
-1.06405,17.2473,1.02277,15.8975,11.7977,0.791833,13.7685,1.23432,-0.326272,8.61751,1.64966,2.70424,1.26906,0.766034,2.80237,-9.8401,4.46984,-8.25393,40.4881,10.1639,-1.95082,15.8263,2.89944,2.21792,-3.73715e-14,-8.74653e-15,-20.6467,2.28035,-69.3223,59.7151,14.1692,-23.688,4.7177,7.12502,2.77868,-25.2439,-3.73715e-14,-8.74653e-15,-29.7448,8.63995,81.0988,48.7888,-4.00905,-13.104,24.5512,7.12502,12.9929,54.1266,-39.2871,8.76641,6.40291,42.4412,-13.0758,8.97781,2.35288,-36.738,-9.24289,1.36151,25.0369,-3.02731,-6.88377,-29.6909
-0.9416,17.2132,0.993355,16.2525,10.9467,1.01707,14.2369,1.28661,-0.706212,8.49118,1.67535,2.56883,0.879454,0.770214,2.8607,-9.8382,4.42994,-8.48815,40.6652,10.1118,-1.80349,15.8959,2.84657,2.31537,3.02153e-14,-7.95139e-15,-21.0599,2.21452,-69.0775,60.3995,14.1374,-23.634,4.66673,7.12502,2.83086,-25.2942,3.02153e-14,-7.95139e-15,-29.6638,8.57609,81.193,47.866,-3.87738,-13.3413,24.5525,7.12502,12.7642,54.1424,-40.0681,9.00662,5.46405,42.7571,-13.031,9.17188,1.47742,-37.0162,-8.49365,0.483696,25.6883,-3.99263,-6.96883,-28.602
-0.82355,17.1795,0.963495,16.6223,10.1847,1.14456,14.679,1.29364,-1.09825,8.35702,1.6365,2.50885,0.498094,0.741608,3.01481,-9.86369,4.40974,-8.58808,40.9093,10.1214,-1.80002,16.0283,2.81346,2.34175,-1.59028e-15,-2.38542e-15,-21.3864,2.32991,-68.837,61.0631,13.9666,-23.7317,4.36019,7.12502,2.73645,-25.602,-1.59028e-15,-2.38542e-15,-29.5749,8.66785,81.2842,46.9786,-3.80262,-13.3458,24.4473,7.12502,12.7598,54.0374,-40.8687,9.40098,4.56128,43.0296,-12.9433,9.26884,1.74829,-37.5938,-7.41585,-0.567932,26.4514,-4.84402,-7.24481,-28.5064
-0.704469,17.1555,0.935894,17.1133,9.55321,1.24094,14.7408,1.22694,-1.31566,8.25496,1.51796,2.31891,0.364293,0.680438,2.95276,-9.7108,4.43379,-8.15817,40.9652,10.1183,-2.07817,16.0702,2.83098,2.14317,-7.95139e-15,3.81667e-14,-21.6005,2.3606,-68.8507,61.5618,13.8887,-23.9137,4.16887,7.12502,2.56071,-25.7955,-7.95139e-15,3.81667e-14,-29.568,8.64541,81.129,46.3463,-3.64222,-13.4634,24.1971,7.12502,12.6464,53.7942,-41.709,9.5126,3.76254,43.2594,-12.8101,9.38658,1.79293,-38.3377,-6.32338,-1.63843,27.3236,-5.59443,-7.27292,-27.1415
-0.589236,17.1376,0.904585,17.6405,8.97274,1.30321,14.6899,1.01995,-1.56823,8.33827,1.21332,2.22649,0.496525,0.519025,3.04408,-9.88031,4.5752,-8.36425,40.6551,10.3827,-2.2091,15.9404,2.89722,2.15635,4.77083e-15,-2.62396e-14,-21.3182,2.76209,-68.7942,62.0268,13.7721,-24.2046,3.87357,7.12502,2.27972,-26.094,4.77083e-15,-2.62396e-14,-29.2756,9.19428,81.0198,45.7068,-3.43308,-13.4071,24.2302,7.12502,12.7008,53.824,-42.6008,9.57016,3.01343,43.4292,-12.6025,9.45467,2.09538,-39.1414,-5.18174,-2.70152,28.2458,-6.14207,-7.36992,-25.0517
-0.479919,17.1188,0.865244,18.1466,8.43561,1.48536,14.9042,1.0051,-1.84944,8.32445,1.15311,2.04442,0.37207,0.484576,3.01825,-9.87952,4.53547,-8.28065,40.4204,10.2557,-2.22628,15.8239,2.86251,2.1084,-3.57812e-15,1.19271e-14,-21.5657,2.5769,-68.7191,62.6975,13.1954,-23.9861,3.30705,7.12502,2.49077,-26.6582,-3.57812e-15,1.19271e-14,-29.0011,8.82981,80.9814,45.2112,-3.00081,-13.1568,24.4989,7.12502,12.942,54.0775,-43.4855,9.70292,2.13812,43.596,-12.4638,9.2499,1.88767,-39.9711,-4.36107,-3.6928,29.0891,-6.36813,-7.48077,-23.3101
-0.375545,17.1078,0.826713,18.5736,7.89822,1.69376,15.2703,1.01574,-2.24869,8.30047,1.10819,1.9163,0.154459,0.45461,3.11262,-10.0344,4.48388,-8.331,40.4979,10.1408,-2.06736,15.8856,2.81231,2.17445,1.55052e-14,9.14409e-15,-21.7787,2.53726,-68.5376,63.3447,12.2065,-23.2388,2.29369,7.12502,3.21253,-27.6619,1.55052e-14,9.14409e-15,-28.7764,8.51251,81.0378,44.6923,-2.43367,-13.0362,24.5124,7.12502,13.0583,54.0836,-44.226,9.8261,1.32463,43.7693,-12.3828,8.92394,1.30567,-40.7353,-3.88161,-4.48331,29.8237,-6.68177,-7.59989,-23.5272
-0.275989,17.1059,0.785088,18.9141,7.36327,1.91715,15.7332,1.0055,-2.68317,8.35473,1.0263,1.80035,-0.0270408,0.404254,3.2461,-10.2098,4.46066,-8.63179,40.453,10.0854,-1.82099,15.8653,2.76958,2.3254,-5.56597e-15,-2.38542e-15,-21.8251,2.60136,-68.4117,63.8691,11.4853,-23.2373,1.42704,7.12502,3.21394,-28.5285,-5.56597e-15,-2.38542e-15,-28.361,8.23332,81.1093,43.9958,-1.73806,-13.1111,24.5488,7.12502,12.9861,54.1247,-44.8993,9.98519,0.542274,44.0181,-12.4975,8.40056,-0.724305,-41.4007,-3.55674,-5.16074,30.4646,-7.10805,-7.81492,-24.3914
-0.17927,17.0972,0.738938,19.2189,6.91458,2.0503,16.3464,0.948492,-3.01495,8.43969,0.889711,1.6841,-0.246971,0.330784,3.33028,-10.3875,4.42942,-8.82589,40.2241,10.0232,-1.71944,15.7692,2.73144,2.39073,7.15625e-15,-3.57812e-15,-21.845,2.68585,-68.4189,64.3743,11.0608,-23.7023,1.05789,7.12502,2.76491,-28.9039,7.15625e-15,-3.57812e-15,-27.8815,7.90246,81.1119,43.3987,-0.999093,-13.0996,24.6913,7.12502,12.9971,54.2664,-45.6345,10.2025,-0.155472,44.3291,-12.5394,7.69033,-2.20222,-42.1074,-3.22504,-5.67087,31.1044,-7.40387,-8.33806,-25.0731
-0.0842156,17.0766,0.685502,19.5763,6.61589,2.06305,17.0788,0.891405,-3.09795,8.29279,0.778815,1.55551,-0.775035,0.286938,3.25611,-9.81017,4.42259,-8.72556,39.8553,9.83005,-1.69665,15.4476,2.70386,2.31731,8.74653e-15,1.11319e-14,-22.4248,2.64484,-68.5221,64.9766,10.6485,-24.1903,0.766366,7.12502,2.29356,-29.2011,8.74653e-15,1.11319e-14,-27.7954,7.15142,81.0656,42.9265,-0.241632,-13.2145,24.7591,7.12502,12.8864,54.3413,-46.4547,10.2456,-0.631687,44.6913,-12.402,6.92271,-2.18211,-43.0197,-2.80915,-6.07784,31.7777,-7.63522,-8.85855,-25.919
0.0133898,17.0567,0.629448,19.9505,6.3369,1.92304,17.7379,0.803563,-2.99727,8.50547,0.662384,1.52378,-0.879256,0.230993,3.18511,-10.4986,4.3728,-8.94541,39.6718,9.84296,-1.62785,15.4982,2.67253,2.40816,6.36111e-15,-7.15625e-15,-22.1321,2.55732,-68.4751,65.3624,10.1612,-24.7711,0.474591,7.12502,1.73269,-29.4981,6.36111e-15,-7.15625e-15,-26.9194,6.70863,81.1935,42.3403,0.253402,-13.3933,24.5399,7.12502,12.7141,54.1328,-47.3096,10.0676,-0.771532,45.0924,-12.2601,6.00945,-2.14062,-44.0395,-2.33539,-6.34284,32.5421,-7.76957,-9.28358,-25.2689
0.112808,17.0459,0.575275,20.3033,5.95392,1.48571,18.3499,0.643245,-2.73148,8.62264,0.482082,1.59304,-1.05545,0.147627,3.14082,-10.8075,4.46265,-9.35062,39.4508,10.0717,-1.61615,15.4293,2.7111,2.51787,1.63003e-14,-9.54166e-15,-21.9656,3.03959,-68.458,65.7846,9.47468,-25.3517,0.227348,7.12502,1.17192,-29.7492,1.63003e-14,-9.54166e-15,-26.3907,6.62616,81.2467,41.8299,0.653978,-13.4612,24.5369,7.12502,12.6486,54.1339,-48.2257,9.9188,-0.488898,45.4615,-12.2495,4.85855,-3.49435,-44.9718,-1.80223,-6.27348,33.3076,-7.88939,-9.57836,-23.8729
0.213952,17.0236,0.514361,20.9857,5.43287,0.899236,18.6785,0.679897,-2.30289,8.64442,0.587445,1.59437,-1.20815,0.211089,2.87825,-10.9558,4.37857,-9.56113,39.1612,9.89366,-1.40868,15.293,2.64537,2.60981,-1.15295e-14,-1.59028e-15,-22.0621,2.98992,-68.5135,66.1711,8.99284,-25.9491,0.0249143,7.12502,0.594922,-29.954,-1.15295e-14,-1.59028e-15,-25.7861,5.94802,81.2904,41.3174,1.13576,-13.664,24.5223,7.12502,12.453,54.1313,-49.6264,9.67074,-0.0780303,45.791,-11.9028,3.72808,-4.01336,-46.2588,-1.27468,-5.94424,34.0984,-7.90574,-9.55992,-22.7473
0.304763,17.0178,0.458637,21.1803,4.90357,0.403826,19.4744,0.82005,-2.02295,8.77702,0.795318,1.52877,-1.48397,0.322482,2.6068,-10.7894,4.24876,-9.49365,38.6727,9.55751,-1.3245,15.0171,2.55866,2.56261,3.97569e-15,-1.49089e-14,-22.2776,2.71131,-68.68,66.426,8.55748,-26.4821,0.0827507,7.12502,0.0801525,-29.897,3.97569e-15,-1.49089e-14,-25.191,5.02734,81.2652,40.8262,1.60601,-14.0042,24.3694,7.12502,12.1251,53.9981,-50.3207,9.55036,0.517435,46.0531,-11.6639,2.50431,-3.88252,-46.8871,-0.961494,-5.71199,34.8433,-8.12769,-9.32222,-22.121
0.39568,17.0112,0.405464,21.4793,4.32669,-0.0668084,20.022,0.827795,-1.87564,9.01958,0.818476,1.53313,-1.50121,0.333047,2.52197,-10.837,4.27381,-9.80817,38.0705,9.58626,-1.30337,14.7147,2.56433,2.60903,-3.37934e-15,1.0138e-14,-22.118,2.98168,-68.7709,66.7003,8.07392,-26.7056,-0.271009,7.12502,-0.135748,-30.2507,-3.37934e-15,1.0138e-14,-24.5809,4.87333,81.2446,40.4571,1.86303,-14.2795,24.3807,7.12502,11.8596,54.0248,-51.0061,9.07432,1.37259,46.3034,-11.4584,1.38396,-4.25188,-47.5435,-0.617665,-5.57573,35.558,-8.50214,-8.86436,-22.7124
0.484549,17.0071,0.354055,21.8614,3.65534,-0.430271,20.5609,0.805593,-1.95555,9.19956,0.76356,1.54483,-1.57641,0.300169,2.59071,-10.9612,4.36542,-10.2545,37.5576,9.77056,-1.29693,14.4673,2.60888,2.69737,-1.59028e-15,-3.57812e-15,-21.9134,3.59436,-68.9031,66.9716,7.50535,-26.9031,-0.484584,7.12502,-0.326513,-30.4641,-1.59028e-15,-3.57812e-15,-24.2018,5.15428,81.1758,40.2977,2.0135,-14.2077,24.3513,7.12502,11.9288,53.9914,-51.7895,8.46799,2.25798,46.5534,-11.2467,0.272931,-4.78924,-48.2164,-0.211098,-5.59746,36.221,-8.82532,-8.42485,-23.3213
0.567996,17.0072,0.301949,22.1679,3.01665,-0.705536,21.2555,0.802913,-2.05602,9.48364,0.725132,1.51313,-1.61517,0.274146,2.62203,-11.528,4.37059,-10.8498,37.1774,9.93311,-1.21577,14.3745,2.61585,2.86051,-1.21259e-14,-3.27995e-15,-21.5027,4.06498,-69.084,67.0709,6.94612,-27.3629,-0.226183,7.12502,-0.770598,-30.2045,-1.21259e-14,-3.27995e-15,-23.5709,5.25305,81.1525,40.1292,2.17353,-14.2592,24.0131,7.12502,11.8792,53.6561,-52.4994,7.84605,3.15998,46.8373,-11.276,-0.780255,-4.55977,-48.8354,0.112103,-5.65557,36.8647,-8.99787,-8.09526,-22.75
0.651127,16.9981,0.249377,22.5495,2.4937,-1.05768,21.9012,0.808157,-2.04398,9.71858,0.718196,1.49347,-1.68096,0.267162,2.59539,-11.961,4.385,-11.2256,36.8234,10.0568,-1.18333,14.2792,2.6329,2.95734,-2.18663e-15,-2.13694e-15,-21.1506,4.47419,-69.2656,67.0497,6.67924,-27.8535,-0.128656,7.12502,-1.24438,-30.1048,-2.18663e-15,-2.13694e-15,-22.9118,5.24876,81.2004,39.7475,2.23807,-14.7758,23.7433,7.12502,11.381,53.4145,-53.2775,7.02916,4.28306,47.1718,-11.4047,-1.34478,-3.87918,-49.5635,0.275183,-5.49684,37.4462,-9.03807,-7.66461,-21.8764
0.731656,16.9883,0.201878,22.9127,1.9867,-1.39428,22.513,0.837462,-2.06942,9.96109,0.734065,1.45494,-1.72014,0.270252,2.56473,-12.3622,4.39231,-11.431,36.5674,10.1253,-1.12848,14.2305,2.64603,3.02952,-1.66482e-15,-3.80176e-15,-20.781,4.71131,-69.5028,66.938,6.81686,-27.9896,-0.313276,7.12502,-1.3759,-30.2886,-1.66482e-15,-3.80176e-15,-22.2703,5.46498,81.2495,39.3423,2.14881,-15.3809,23.6139,7.12502,10.7973,53.3163,-54.0371,6.13605,5.5515,47.5654,-11.328,-1.47698,-4.98134,-50.2261,0.383075,-5.32265,37.9847,-9.18044,-7.2445,-21.5897
0.806344,16.9796,0.155748,23.2217,1.48821,-1.56021,23.2088,0.939669,-2.19749,10.0691,0.816009,1.32822,-1.94829,0.309154,2.48084,-12.3634,4.35202,-11.175,36.3834,10.0592,-1.38378,14.1838,2.62699,2.8712,1.25483e-14,1.45734e-14,-20.8387,4.80361,-69.8112,66.8998,7.09777,-27.9454,-0.885477,7.12502,-1.3332,-30.8611,1.25483e-14,1.45734e-14,-21.9011,5.02899,81.1014,39.1077,2.46817,-15.7124,23.7306,7.12502,10.4776,53.4495,-54.7529,5.16653,6.77647,48.0205,-11.4113,-1.12432,-4.18533,-50.8349,0.453567,-5.3169,38.5283,-9.39496,-6.97013,-21.6617
0.881014,16.9613,0.10348,23.6804,1.0784,-1.82476,23.8015,1.05839,-2.06295,9.96602,0.970238,1.16125,-2.35663,0.395759,2.18293,-11.6909,4.30039,-10.6421,36.1099,9.81714,-1.72397,13.9725,2.58357,2.57995,8.94531e-15,9.11925e-15,-21.4022,4.8824,-70.2048,66.8075,7.1287,-28.2082,-0.719765,7.12502,-1.58699,-30.6936,8.94531e-15,9.11925e-15,-21.8847,3.71706,80.8199,38.9127,3.12441,-16.1166,23.8044,7.12502,10.0877,53.5426,-55.6949,4.08133,8.19456,48.5349,-11.504,-0.407048,-3.47116,-51.701,0.52249,-5.14449,39.1008,-9.53654,-6.68508,-21.367
0.955249,16.9336,0.0503523,24.2395,0.671072,-2.10916,24.2766,1.08674,-2.02008,9.93742,0.996482,1.06561,-2.61884,0.412466,2.04562,-11.3223,4.31501,-10.4731,35.8445,9.7855,-1.98145,13.8011,2.58354,2.4234,4.07509e-15,-2.43511e-15,-21.5549,5.31935,-70.5985,66.5636,6.93742,-28.6232,-0.167468,7.12502,-1.98784,-30.138,4.07509e-15,-2.43511e-15,-21.6916,3.20399,80.6691,38.5426,3.54872,-16.7495,23.9074,7.12502,9.47701,53.6743,-56.7837,2.98983,9.65435,49.0992,-11.4701,0.602776,-4.55042,-52.7165,0.64475,-4.96174,39.7269,-9.62818,-6.34192,-20.9988
1.02602,16.9073,-0.00136842,24.7781,0.216853,-2.40524,24.7989,1.09749,-2.09876,10.026,0.976854,1.05328,-2.77405,0.399214,2.07984,-11.5369,4.34803,-10.6821,35.7223,9.93668,-2.10386,13.7899,2.60484,2.43417,1.49089e-15,5.96354e-16,-21.3132,5.9191,-70.8711,66.2256,6.88185,-28.9794,0.0868568,7.12502,-2.33182,-29.8801,1.49089e-15,5.96354e-16,-21.3396,3.2427,80.621,38.4102,3.79114,-17.1348,24.2529,7.12502,9.10522,54.0364,-57.8391,2.13577,11.0241,49.6951,-11.4115,1.58359,-5.6384,-53.7166,0.889514,-4.84215,40.4161,-9.75905,-6.00544,-20.7129
1.09151,16.8847,-0.0523459,25.3101,-0.20605,-2.69099,25.258,1.26111,-2.02474,10.1347,1.17717,0.913434,-2.88226,0.498701,1.82987,-11.7174,4.2116,-10.5483,35.6221,9.66613,-1.95409,13.7864,2.52589,2.43983,2.18663e-15,-1.39149e-15,-21.412,5.74911,-71.3285,65.9575,7.05596,-29.2634,0.309851,7.12502,-2.60605,-29.654,2.18663e-15,-1.39149e-15,-20.8617,2.69576,80.4576,38.3476,3.9324,-17.3717,24.7518,7.12502,8.87671,54.5451,-58.8536,1.39382,12.3759,50.2888,-11.0227,2.56403,-5.89405,-54.6494,1.15659,-4.73943,41.1039,-9.86051,-5.7031,-21.0753
1.15606,16.8633,-0.106143,25.8716,-0.570523,-2.81026,25.653,1.2466,-2.15202,10.3093,1.11544,0.871391,-2.87657,0.462441,1.8718,-11.9427,4.21372,-11.1071,35.3123,9.69301,-1.64028,13.6438,2.52155,2.65641,-3.57812e-15,4.87022e-15,-21.0025,6.24394,-71.5025,65.495,7.24908,-29.3239,0.577549,7.12502,-2.6645,-29.3856,-3.57812e-15,4.87022e-15,-20.3647,2.61822,80.4616,38.174,4.36058,-17.8312,24.6752,7.12502,8.43326,54.4869,-59.8797,0.565308,13.6028,50.8856,-9.93724,3.44957,-4.3077,-55.6448,1.36452,-4.80967,41.7676,-9.99121,-5.47739,-20.9162
1.2197,16.8399,-0.159589,26.4385,-0.921468,-2.90326,26.2157,1.33045,-2.12217,10.342,1.20125,0.713643,-3.1094,0.508009,1.65476,-11.6345,4.13292,-11.0229,34.7502,9.50894,-1.83967,13.3556,2.47488,2.51329,9.93923e-16,1.09332e-15,-21.1178,6.24058,-71.8253,65.2629,7.63829,-28.9332,0.0549297,7.12502,-2.28716,-29.9126,9.93923e-16,1.09332e-15,-19.9607,1.79515,80.3861,38.0392,5.02808,-18.3251,24.4801,7.12502,7.9566,54.3103,-60.8873,-0.181808,14.7387,51.4042,-9.9876,4.09846,-4.54283,-56.7541,1.54715,-4.88077,42.3845,-10.2047,-5.31497,-20.0063
1.27688,16.8065,-0.206291,26.9433,-1.26483,-3.22037,26.8382,1.44481,-2.02063,10.3132,1.34485,0.657046,-3.44008,0.581176,1.48704,-11.0709,4.05846,-10.8929,34.139,9.34888,-2.24954,13.0149,2.4268,2.27718,-2.98177e-15,-1.2921e-15,-21.4727,6.40641,-72.1452,65.1292,7.73428,-28.8176,-0.17678,7.12502,-2.1756,-30.1454,-2.98177e-15,-1.2921e-15,-19.7504,1.28164,80.3477,37.8986,5.36031,-18.6484,24.4527,7.12502,7.64457,54.2945,-61.83,-0.565059,15.9701,51.9863,-10.9478,4.45479,-8.11191,-57.6326,1.94088,-4.7782,42.9682,-10.4475,-5.23126,-19.9355
1.33437,16.7998,-0.25196,27.4231,-1.60041,-3.5672,27.3911,1.54089,-1.82833,10.4369,1.48637,0.555968,-3.5627,0.652078,1.21925,-11.2609,3.91393,-10.7851,33.9825,9.18733,-2.42305,13.014,2.35293,2.17694,-1.43125e-14,-3.97569e-16,-21.4768,6.55533,-72.5702,64.8689,7.64075,-29.3658,0.0591168,7.12502,-2.70502,-29.9035,-1.43125e-14,-3.97569e-16,-19.2455,0.730404,80.2734,37.7116,5.53802,-18.9228,24.6316,7.12502,7.37965,54.4829,-62.6076,-0.900914,17.2093,52.4886,-11.3938,4.52222,-9.11885,-58.6081,2.31627,-4.5994,43.4962,-10.112,-5.34607,-18.2859
1.38761,16.7671,-0.289626,27.9274,-1.97337,-3.46448,27.7342,1.63221,-1.9795,10.655,1.53874,0.35695,-3.47934,0.674017,1.07021,-11.9483,3.78699,-10.9168,34.2011,9.08054,-2.15358,13.2349,2.29117,2.31859,-1.33186e-14,1.85864e-14,-21.2812,6.61312,-73.0113,64.5122,7.41181,-29.9888,0.0635119,7.12502,-3.30664,-29.8906,-1.33186e-14,1.85864e-14,-18.5798,0.188307,80.202,37.5394,5.56206,-18.9539,24.8447,7.12502,7.34964,54.697,-63.4946,-1.42392,17.9308,53.1391,-11.4794,4.35071,-7.70454,-59.1974,2.65176,-5.10989,44.0292,-10.5005,-5.27711,-19.1121
1.43381,16.7396,-0.329144,28.5014,-2.095,-3.41765,28.1518,1.64029,-1.96676,10.8004,1.53001,0.211208,-3.50668,0.670965,0.901082,-12.5197,3.74161,-11.1307,34.3659,9.02337,-1.70313,13.3871,2.2717,2.54492,1.19271e-14,-4.96962e-15,-21.1928,6.62443,-73.504,64.1635,7.23623,-30.2284,-0.0906775,7.12502,-3.53802,-30.0411,1.19271e-14,-4.96962e-15,-17.98,-0.423265,80.1009,37.4443,5.59837,-18.7446,25.1976,7.12502,7.55172,55.0427,-64.3859,-1.9497,18.7277,53.7395,-11.5091,3.97171,-6.74943,-60.4207,2.88034,-5.37597,44.5371,-10.5186,-5.58635,-16.5202
1.4807,16.6974,-0.371487,28.9557,-2.1102,-3.43573,28.7884,1.58932,-1.82148,10.9379,1.47988,0.124284,-3.64045,0.650175,0.728996,-12.7477,3.64793,-11.0276,34.1621,8.91587,-1.82155,13.3657,2.23053,2.47137,-1.11319e-14,2.78299e-15,-21.1339,6.66349,-73.956,63.7966,7.21408,-30.2724,-0.25203,7.12502,-3.58052,-30.2017,-1.11319e-14,2.78299e-15,-17.3688,-0.91172,80.0638,37.1993,5.54596,-18.5567,25.2035,7.12502,7.73306,55.0421,-65.1929,-2.41335,19.5266,54.4192,-11.6384,3.5826,-6.75162,-61.4041,3.15627,-5.5948,45.0546,-10.6546,-5.9967,-14.7198
1.52608,16.6593,-0.413198,29.3098,-2.17801,-3.34521,29.4135,1.55516,-1.79176,11.101,1.4229,0.0397913,-3.73953,0.62339,0.628644,-13.0779,3.52931,-11.0106,34.1199,8.80905,-1.87941,13.4304,2.17329,2.44312,6.75868e-15,-2.48481e-15,-21.144,6.88039,-74.3643,63.4742,7.17003,-30.5865,-0.399968,7.12502,-3.8838,-30.3443,6.75868e-15,-2.48481e-15,-16.8718,-1.49575,80.076,37.0045,5.36129,-18.6025,25.2315,7.12502,7.68881,55.0717,-65.8422,-2.86124,20.1599,55.015,-11.7605,3.18059,-6.8121,-62.2646,3.36649,-5.97721,45.5632,-10.6962,-6.25462,-14.2848
1.57217,16.6246,-0.455122,29.7708,-2.03558,-3.29598,29.9881,1.4165,-1.54886,11.1649,1.30066,0.0172436,-3.92149,0.570439,0.494981,-13.1468,3.45337,-11.031,33.934,8.7003,-1.89518,13.3697,2.133,2.42363,3.57812e-15,4.87022e-15,-21.2606,7.22926,-74.7184,63.1465,6.94778,-30.8374,-0.544481,7.12502,-4.12613,-30.4843,3.57812e-15,4.87022e-15,-16.5867,-1.9538,80.1938,36.9576,5.0449,-18.9164,25.4008,7.12502,7.3858,55.2519,-66.5648,-3.3978,20.8528,55.5499,-11.8392,2.7221,-6.29291,-63.3976,3.58961,-6.37035,46.1444,-10.7197,-6.65566,-13.516
1.61408,16.5893,-0.49659,30.3129,-1.8903,-3.31908,30.4208,1.28639,-1.28243,11.2183,1.2043,0.0408415,-4.05139,0.528937,0.393443,-13.0638,3.37409,-11.1878,33.5412,8.56488,-1.87132,13.1802,2.08841,2.42786,8.34896e-15,-3.18055e-15,-21.316,7.6315,-75.0584,62.7045,6.50669,-30.9937,-0.295272,7.12502,-4.27709,-30.2321,8.34896e-15,-3.18055e-15,-16.2875,-2.39307,80.3562,36.9198,4.8669,-19.2607,25.4148,7.12502,7.05349,55.2772,-67.3493,-3.82167,21.4978,56.0015,-11.7892,2.34091,-4.40515,-64.6238,3.95982,-6.76935,46.7846,-10.772,-7.14865,-13.2401
1.65324,16.5404,-0.537694,30.8813,-2.01672,-3.29099,30.7334,1.27318,-1.24462,11.3223,1.18786,0.00835318,-4.07273,0.520878,0.337985,-13.0906,3.26964,-11.4966,33.1719,8.39379,-1.66279,13.0095,2.02985,2.5274,-4.77083e-15,0,-21.2161,8.06851,-75.4023,62.1485,6.06943,-31.1133,0.0412998,7.12502,-4.39257,-29.8931,-4.77083e-15,0,-15.9059,-2.88508,80.4719,36.8633,4.80905,-19.3338,25.2391,7.12502,6.98295,55.1039,-68.2338,-3.99781,21.8587,56.41,-11.403,2.07178,-0.762267,-65.8184,4.48649,-7.34244,47.4997,-10.7557,-7.57006,-14.3698
1.69333,16.486,-0.577282,31.3958,-2.15483,-3.08218,31.0055,1.21277,-1.22209,11.4575,1.10585,-0.0988316,-4.03739,0.483562,0.231012,-13.0444,3.17742,-11.8864,32.7681,8.20742,-1.333,12.8002,1.97507,2.68024,7.95139e-16,1.98785e-15,-21.0729,8.55518,-75.7724,61.4984,5.71723,-31.2309,0.158907,7.12502,-4.50614,-29.7732,7.95139e-16,1.98785e-15,-15.5939,-3.37339,80.5583,36.8715,4.66914,-19.3263,25.0745,7.12502,6.99016,54.9391,-69.0944,-4.16525,21.8844,56.777,-11.0818,1.76663,3.70573,-66.9852,4.90009,-8.07662,48.2461,-10.5316,-8.13045,-14.9142
1.73137,16.4286,-0.618499,31.8343,-2.09004,-2.74267,31.3313,1.05993,-1.14047,11.6134,0.930231,-0.194566,-4.00035,0.404055,0.133396,-12.9946,3.07852,-11.9947,32.455,8.038,-1.2776,12.6601,1.91898,2.68722,5.56597e-15,-1.20265e-14,-20.9164,9.10852,-76.1683,60.7681,5.32597,-31.3379,0.444296,7.12502,-4.60944,-29.4856,5.56597e-15,-1.20265e-14,-15.2641,-3.93143,80.6406,36.9357,4.56238,-19.0702,25.233,7.12502,7.23743,55.0892,-69.8823,-4.44606,21.7051,57.1263,-11.4546,1.48717,5.95359,-68.1887,5.11557,-8.8641,48.988,-10.3329,-8.79716,-14.5394
1.76625,16.3691,-0.657767,32.206,-2.05924,-2.47473,31.8227,0.872099,-0.955098,11.7247,0.732256,-0.365682,-4.08491,0.318577,-0.101728,-13.2655,2.99738,-11.8811,32.5845,7.94046,-1.25294,12.7791,1.87726,2.67804,3.18055e-15,-3.57812e-15,-20.8117,9.70213,-76.7023,60.0631,5.04898,-31.3267,0.347136,7.12502,-4.59862,-29.5829,3.18055e-15,-3.57812e-15,-14.974,-4.43703,80.5948,36.9623,4.19826,-18.8587,25.2963,7.12502,7.44151,55.1454,-70.6247,-4.57107,21.3718,57.4323,-12.4127,1.17715,5.84154,-69.3347,5.38309,-9.63113,49.6971,-10.4497,-9.35733,-14.0343
1.79977,16.3005,-0.695935,32.6126,-2.18627,-2.21247,32.4423,0.783942,-0.947518,11.7089,0.607367,-0.484562,-4.3734,0.26288,-0.202108,-13.4859,2.92954,-11.8882,32.8052,7.87287,-1.16706,12.9175,1.83771,2.71639,-7.95139e-16,-1.16289e-14,-20.8642,10.4337,-77.0988,59.4167,5.02539,-31.0089,0.180116,7.12502,-4.29175,-29.7564,-7.95139e-16,-1.16289e-14,-14.9636,-5.08326,80.6706,37.0531,3.58519,-19.0033,25.1994,7.12502,7.30199,55.0534,-71.5011,-4.51373,20.8512,57.7793,-13.1878,0.693051,5.0982,-70.5229,5.73756,-10.4548,50.4055,-10.6365,-9.94066,-12.9789
1.83246,16.2258,-0.737929,33.0838,-2.2482,-1.92738,32.9706,0.734747,-1.02458,11.6561,0.519113,-0.463028,-4.66526,0.220087,-0.107676,-13.2649,2.83058,-12.0868,32.52,7.69737,-1.09486,12.7503,1.77261,2.73887,7.15625e-15,-4.87022e-15,-20.9581,11.2044,-77.3283,58.7556,5.01394,-30.8791,0.6392,7.12502,-4.16636,-29.2998,7.15625e-15,-4.87022e-15,-15.0144,-5.71561,80.9501,37.0757,2.70274,-19.2869,24.9898,7.12502,7.02823,54.8531,-72.5324,-4.5499,20.3624,58.2712,-13.4972,0.354736,5.02983,-71.8479,6.04409,-11.2653,51.1962,-10.6635,-10.6288,-11.5845
1.8637,16.1551,-0.780159,33.4858,-2.28556,-1.59533,33.9219,0.629412,-1.05643,11.2359,0.362654,-0.503879,-4.91741,0.150561,-0.0870564,-13.117,2.78249,-12.1708,32.2822,7.58259,-1.03574,12.6194,1.73979,2.74912,-1.98785e-15,7.7526e-15,-20.9852,12.0162,-77.6904,58.0193,5.09533,-30.7584,0.946107,7.12502,-4.04987,-28.9951,-1.98785e-15,7.7526e-15,-15.0546,-6.39353,81.1293,37.243,2.12477,-19.1216,25.0416,7.12502,7.18776,54.8996,-73.5594,-4.65919,19.8214,58.9812,-13.5073,0.460039,5.74836,-73.1134,6.28266,-12.1194,52.04,-10.5577,-11.2433,-11.204
1.897,16.0783,-0.819784,33.8099,-2.37096,-1.38048,34.4381,0.478777,-0.920796,11.3001,0.202773,-0.643707,-5.03239,0.082039,-0.253405,-13.1493,2.7343,-12.2183,32.1838,7.45552,-0.83744,12.5767,1.70936,2.81389,3.97569e-15,-9.93923e-15,-20.9247,12.8548,-78.1793,57.2943,5.35534,-30.8135,1.31307,7.12502,-4.10307,-28.6272,3.97569e-15,-9.93923e-15,-14.9475,-7.23075,81.1239,37.3915,1.81132,-19.0355,25.2858,7.12502,7.27091,55.1408,-74.6446,-4.77873,19.4192,59.9849,-13.4739,0.915846,6.43147,-74.326,6.54908,-12.8218,53.0666,-10.4589,-11.7506,-10.1469
1.932,16.0045,-0.858466,34.1777,-2.50558,-1.27067,34.8779,0.390885,-0.779264,11.3917,0.129513,-0.694121,-5.08918,0.0511389,-0.357398,-13.3016,2.65206,-12.7642,32.1936,7.28278,-0.143953,12.5615,1.6557,3.14883,-5.76476e-15,8.94531e-16,-20.8345,13.828,-78.4977,56.6202,5.69316,-31.3961,2.20171,7.12502,-4.66565,-27.7269,-5.76476e-15,8.94531e-16,-14.7152,-8.02859,81.2735,37.3984,1.28161,-19.3163,25.5376,7.12502,6.99983,55.4019,-75.8441,-4.84468,19.1179,61.0467,-13.5121,1.1949,6.52335,-75.6163,6.82069,-13.3397,54.0487,-10.2413,-12.2959,-7.9678
1.96459,15.8893,-0.889971,34.5881,-2.60673,-1.13274,35.1605,0.297851,-0.67863,11.5252,0.0467563,-0.680053,-5.04382,0.0133188,-0.368007,-13.3772,2.55996,-13.1032,32.0367,7.17333,0.0662955,12.4982,1.60547,3.26764,1.39149e-15,5.06901e-15,-20.675,14.8767,-78.7255,55.9218,6.33326,-31.7593,2.49383,7.12502,-5.0163,-27.4268,1.39149e-15,5.06901e-15,-14.4747,-8.77934,81.4986,37.4255,0.725772,-19.7756,25.6325,7.12502,6.55649,55.511,-77.3078,-5.01263,18.8918,62.2429,-13.605,1.09254,5.03087,-76.9637,7.1412,-14.1038,55.1706,-10.7839,-12.5574,-10.3583
1.99748,15.8122,-0.935688,35.0614,-2.71082,-0.856151,35.3791,0.195386,-0.656564,11.613,-0.0722926,-0.6957,-5.02495,-0.0410742,-0.355409,-13.2134,2.44316,-13.1131,31.6944,7.03852,-0.195184,12.3517,1.5395,3.13817,-4.37326e-15,9.44227e-16,-20.49,15.9964,-78.9229,55.2285,6.90433,-31.7027,2.68322,7.12502,-4.96167,-27.2387,-4.37326e-15,9.44227e-16,-14.3227,-9.64213,81.7143,37.513,0.157107,-19.7756,25.9671,7.12502,6.55646,55.8456,-78.701,-5.2059,18.5456,63.2466,-13.6626,0.845909,3.95925,-78.4118,7.23306,-14.6926,56.1891,-10.3555,-13.1018,-7.70985
2.03313,15.7295,-0.980925,35.5631,-2.8248,-0.73447,35.4917,0.0984481,-0.528052,11.737,-0.150278,-0.707331,-4.93013,-0.0751976,-0.408479,-13.2115,2.32733,-13.2841,31.57,6.86278,-0.0511705,12.3002,1.4701,3.19481,-2.18663e-15,-9.93923e-16,-20.1865,17.1429,-79.1257,54.5119,7.34353,-31.7191,3.29059,7.12502,-4.97749,-26.6309,-2.18663e-15,-9.93923e-16,-14.057,-10.3848,81.9147,37.4708,-0.530411,-19.8842,26.0227,7.12502,6.45165,55.9044,-80.0641,-5.36239,18.395,64.2197,-13.6792,0.857293,4.11066,-79.8662,7.40371,-15.2723,57.3057,-10.4358,-13.4108,-7.34648
