JuanDHNZ/ProyectoFinalCD/preprocessing/sports_trials_csv/15_07.csv
root1,root2,root3,root4,root5,root6,lowerback1,lowerback2,lowerback3,upperback1,upperback2,upperback3,thorax1,thorax2,thorax3,lowerneck1,lowerneck2,lowerneck3,upperneck1,upperneck2,upperneck3,head1,head2,head3,rclavicle1,rclavicle2,rhumerus1,rhumerus2,rhumerus3,rradius1,rwrist1,rhand1,rhand2,rfingers1,rthumb1,rthumb2,lclavicle1,lclavicle2,lhumerus1,lhumerus2,lhumerus3,lradius1,lwrist1,lhand1,lhand2,lfingers1,lthumb1,lthumb2,rfemur1,rfemur2,rfemur3,rtibia1,rfoot1,rfoot2,rtoes1,lfemur1,lfemur2,lfemur3,ltibia1,lfoot1,lfoot2,ltoes1
0.45394,18.3522,-3.9939,1.75948,1.32944,-2.68014,4.5063,-0.777992,0.162289,-3.0642,-0.868447,3.06973,-5.66818,-0.370206,3.18663,-14.9295,-7.32849,-16.9286,22.26,-9.02217,11.9499,11.0044,-4.2872,5.87731,1.18774e-14,-3.57812e-15,-35.9631,-6.70181,-81.394,25.226,4.2631,-19.7121,10.8849,7.12502,6.61779,-18.9917,1.18774e-14,-3.57812e-15,-37.4491,5.853,89.4713,30.6145,-0.76263,-8.93251,29.7366,7.12502,17.0114,59.0117,-1.89615,1.76645,24.4653,17.9614,-12.9875,-12.6198,-13.1666,-1.78996,0.609039,-16.2064,16.9124,-12.0365,0.448782,-14.7743
0.458366,18.3519,-3.99674,1.75303,1.36884,-2.68519,4.55693,-0.768056,0.23912,-2.97521,-0.851984,3.0511,-5.60569,-0.366561,3.1214,-15.4658,-7.36575,-16.8179,22.3866,-9.00016,11.8693,11.1424,-4.25942,5.82616,1.92821e-14,1.94809e-14,-35.7334,-6.86444,-81.3836,25.158,4.31764,-19.7621,10.907,7.12502,6.56944,-18.9711,1.92821e-14,1.94809e-14,-37.2289,5.76018,89.5217,30.637,-0.723596,-9.12217,29.2053,7.12502,16.8288,58.496,-1.87254,1.63646,24.4393,17.9449,-12.95,-12.525,-13.1063,-1.83094,0.533391,-16.2228,16.9999,-12.0879,0.474076,-14.3557
0.458173,18.3518,-4.00294,1.75434,1.33225,-2.75597,4.62484,-0.763789,0.28483,-3.09544,-0.837339,3.07126,-5.77236,-0.358392,3.1197,-15.1329,-7.22206,-16.7736,22.2767,-8.85395,11.8693,11.0085,-4.19911,5.84526,8.34896e-15,1.90833e-14,-35.9469,-6.98601,-81.3072,25.0493,4.49109,-19.71,11.6022,7.12502,6.61979,-18.2744,8.34896e-15,1.90833e-14,-37.5037,5.73707,89.5011,30.8467,-0.64333,-9.02247,29.2931,7.12502,16.9248,58.5757,-1.87271,1.70254,24.5297,17.8853,-12.8965,-12.569,-13.3897,-1.90506,0.560515,-16.1382,17.1017,-12.1448,0.494362,-14.2123
0.455103,18.3518,-4.00644,1.6983,1.25342,-2.86435,4.66102,-0.748784,0.319982,-3.2858,-0.807213,3.0996,-5.99564,-0.341084,3.13201,-14.222,-7.02726,-16.7651,22.001,-8.72108,11.9068,10.7075,-4.16131,5.88628,-1.4884e-14,4.77083e-15,-36.455,-7.01476,-81.2398,25.0294,4.53058,-19.7103,12.3849,7.12502,6.61948,-17.4916,-1.4884e-14,4.77083e-15,-38.0471,5.79162,89.4079,31.053,-0.764058,-8.91399,29.4923,7.12502,17.0292,58.7659,-1.79693,1.9063,24.692,17.8056,-12.8804,-12.7042,-13.3771,-1.90829,0.635255,-15.9937,17.2103,-12.1814,0.504011,-14.4452
0.45303,18.3507,-4.0087,1.62636,1.20861,-3.00096,4.68184,-0.742605,0.423763,-3.35151,-0.787072,3.13355,-6.07911,-0.333547,3.10919,-13.8061,-6.92064,-16.8843,21.9207,-8.6489,12.0809,10.5993,-4.13354,5.98917,-1.09829e-14,-1.59028e-14,-36.7287,-6.92793,-81.2803,25.1498,4.34284,-19.8152,12.298,7.12502,6.51826,-17.5817,-1.09829e-14,-1.59028e-14,-38.292,5.88716,89.3304,31.1206,-0.935393,-8.92858,29.4956,7.12502,17.0152,58.7704,-1.69209,2.04425,24.8738,17.7342,-12.7931,-12.781,-13.2518,-1.88834,0.642666,-15.8278,17.3096,-12.2526,0.538139,-14.6408
0.455207,18.3491,-4.00941,1.58531,1.15502,-3.03772,4.7004,-0.723879,0.487655,-3.31337,-0.757762,3.13577,-6.05174,-0.322132,3.07216,-13.9714,-6.91588,-17.0049,21.9589,-8.63596,12.2716,10.6585,-4.11298,6.08365,-1.46852e-14,6.75868e-15,-36.6924,-6.87721,-81.3543,25.2806,4.1558,-19.941,11.778,7.12502,6.3968,-18.1054,-1.46852e-14,6.75868e-15,-38.1921,5.91301,89.3291,31.0512,-1.07456,-8.95534,29.4082,7.12502,16.9894,58.6852,-1.62645,2.00449,24.8925,17.6848,-12.719,-12.6907,-13.3973,-1.85704,0.623753,-15.8042,17.3605,-12.3337,0.60951,-14.7191
0.459814,18.3489,-4.01056,1.60745,1.03445,-2.99997,4.6953,-0.681276,0.496932,-3.30872,-0.701541,3.11287,-6.04696,-0.295318,3.03718,-14.1331,-6.93169,-17.0164,21.9508,-8.6381,12.315,10.6901,-4.10475,6.09911,-7.45443e-16,-1.90833e-14,-36.6388,-6.86533,-81.3918,25.2771,4.09027,-19.996,11.4918,7.12502,6.34367,-18.3932,-7.45443e-16,-1.90833e-14,-38.1015,5.89062,89.3419,30.9528,-1.16757,-8.87927,29.368,7.12502,17.0627,58.6387,-1.63973,1.93823,24.7976,17.6659,-12.7778,-12.5152,-13.2434,-1.8634,0.667562,-15.8851,17.3615,-12.2859,0.703596,-14.8805
0.463131,18.3499,-4.01025,1.61217,0.920212,-2.93252,4.64547,-0.656628,0.473189,-3.28652,-0.67432,3.07286,-5.99621,-0.282344,3.00439,-14.3268,-6.92534,-16.9925,22.0868,-8.61403,12.3179,10.7723,-4.08665,6.10193,6.75868e-15,-1.11319e-14,-36.5914,-6.76593,-81.4902,25.2342,3.99912,-19.8995,11.3195,7.12502,6.43685,-18.5627,6.75868e-15,-1.11319e-14,-38.0905,5.90027,89.2959,30.9663,-1.22498,-8.80233,29.357,7.12502,17.1367,58.6213,-1.64172,1.9583,24.6847,17.6916,-12.8205,-12.3829,-12.9691,-1.84084,0.716356,-15.9933,17.3249,-12.237,0.800392,-15.0948
0.466394,18.3494,-4.00824,1.54918,0.972737,-2.85826,4.69696,-0.690828,0.450584,-3.29048,-0.722899,3.02962,-6.0277,-0.306154,2.97767,-14.5211,-6.91692,-16.9011,22.2777,-8.58245,12.2183,10.8652,-4.07087,6.05693,-2.83268e-15,6.75868e-15,-36.6719,-6.66327,-81.586,25.2868,3.94937,-19.7437,11.3549,7.12502,6.58721,-18.5227,-2.83268e-15,6.75868e-15,-38.149,5.93324,89.2404,30.9994,-1.20155,-8.81911,29.5257,7.12502,17.1206,58.7914,-1.57061,1.81243,24.5727,17.7358,-12.862,-12.2546,-13.0235,-1.7474,0.713345,-16.0857,17.2812,-12.2599,0.748591,-15.1151
0.467155,18.3493,-4.00968,1.54484,1.02797,-2.83648,4.79146,-0.715724,0.440996,-3.40515,-0.752775,3.01011,-6.20186,-0.318912,2.97023,-14.3494,-6.88208,-16.8539,22.2596,-8.55201,12.1378,10.8133,-4.06713,6.02466,6.08778e-15,-3.18055e-15,-36.9524,-6.63065,-81.6094,25.3926,3.95953,-19.5908,11.234,7.12502,6.73487,-18.6389,6.08778e-15,-3.18055e-15,-38.3156,5.89061,89.2141,30.9459,-1.11053,-8.82145,29.7065,7.12502,17.1183,58.9723,-1.58817,1.70374,24.5459,17.7558,-12.9158,-12.2229,-12.9845,-1.73989,0.713089,-16.1046,17.2528,-12.1863,0.696577,-14.986
0.463664,18.3496,-4.01388,1.59128,0.911803,-2.89149,4.80039,-0.669856,0.447869,-3.46808,-0.688247,3.02124,-6.27669,-0.286091,2.97323,-14.1327,-6.87252,-16.89,22.1401,-8.56364,12.1652,10.7324,-4.07846,6.03859,-1.98785e-14,4.6118e-14,-37.0992,-6.67433,-81.6131,25.4787,3.98701,-19.449,10.8086,7.12502,6.87178,-19.0599,-1.98785e-14,4.6118e-14,-38.3394,5.7533,89.2281,30.8232,-1.03242,-8.7472,29.7642,7.12502,17.1898,59.0239,-1.67891,1.91826,24.6428,17.7314,-12.8669,-12.3382,-12.8479,-1.82182,0.755914,-16.0338,17.2841,-12.1318,0.787412,-15.1111
0.464711,18.3489,-4.01744,1.58414,0.75208,-2.95806,4.82862,-0.600176,0.528515,-3.42536,-0.58924,3.02163,-6.25328,-0.241071,2.91784,-14.3636,-6.91483,-16.8031,22.2158,-8.58835,12.0719,10.8006,-4.08518,5.98288,1.76421e-15,-1.03368e-14,-37.0583,-6.79177,-81.6065,25.5416,4.13861,-19.4561,10.5504,7.12502,6.86492,-19.3183,1.76421e-15,-1.03368e-14,-38.1821,5.6493,89.2538,30.6941,-1.01197,-8.73883,29.595,7.12502,17.1978,58.854,-1.66656,2.02302,24.698,17.6846,-12.7762,-12.2546,-12.8808,-1.84762,0.802478,-15.9787,17.37,-12.2135,0.889099,-15.3051
0.466491,18.3491,-4.02099,1.57217,0.732106,-3.00784,4.86315,-0.588116,0.616443,-3.41014,-0.566477,3.01214,-6.259,-0.233898,2.85637,-14.6411,-6.93526,-16.7135,22.3736,-8.58718,11.9983,10.9045,-4.07744,5.94073,-3.23025e-16,1.98785e-15,-37.0333,-6.91843,-81.5918,25.5485,4.31764,-19.4712,10.5634,7.12502,6.85029,-19.3058,-3.23025e-16,1.98785e-15,-38.1601,5.69676,89.207,30.6903,-1.09429,-8.74159,29.3128,7.12502,17.1952,58.572,-1.62321,1.97397,24.7316,17.6439,-12.7373,-12.179,-13.0905,-1.86311,0.777802,-15.9346,17.4319,-12.302,0.917138,-15.225
0.464583,18.3487,-4.02445,1.54343,0.746404,-3.03857,4.90591,-0.605206,0.615113,-3.42989,-0.586925,3.02857,-6.30351,-0.243125,2.87773,-14.567,-6.92095,-16.7333,22.3465,-8.57135,11.9958,10.8782,-4.07437,5.94585,5.93869e-15,-1.07344e-14,-37.0751,-6.98087,-81.5583,25.4706,4.53284,-19.5345,10.8766,7.12502,6.78923,-18.9945,5.93869e-15,-1.07344e-14,-38.2528,5.83315,89.1433,30.7277,-1.21835,-8.71252,29.2478,7.12502,17.2231,58.5045,-1.5859,2.03019,24.7944,17.6251,-12.743,-12.2863,-13.4223,-1.83622,0.736445,-15.8857,17.4292,-12.3111,0.928785,-14.8363
0.468446,18.3476,-4.02301,1.49706,0.683625,-2.94575,4.89843,-0.597581,0.546577,-3.41282,-0.584167,3.00323,-6.28071,-0.239651,2.88894,-14.399,-6.90893,-16.7055,22.1801,-8.55366,11.912,10.7758,-4.07607,5.90847,-4.27387e-15,9.14409e-15,-37.0865,-6.96025,-81.5559,25.3614,4.76118,-19.7603,11.1718,7.12502,6.57126,-18.7063,-4.27387e-15,9.14409e-15,-38.324,5.86044,89.1427,30.7545,-1.2564,-8.67067,29.5808,7.12502,17.2634,58.834,-1.51616,1.96082,24.6541,17.6369,-12.8348,-12.1449,-13.3577,-1.7399,0.736465,-16.0208,17.3929,-12.2499,0.997758,-14.5107
0.473028,18.3478,-4.02198,1.49679,0.628993,-2.80685,4.85388,-0.575612,0.452124,-3.36438,-0.567319,2.95169,-6.20395,-0.229325,2.88446,-14.5127,-6.9582,-16.6966,22.1035,-8.59449,11.8898,10.7754,-4.09137,5.88729,-4.19933e-15,-2.74323e-14,-36.9695,-6.94373,-81.5926,25.291,4.80847,-19.8435,11.1784,7.12502,6.49093,-18.7021,-4.19933e-15,-2.74323e-14,-38.3415,5.85018,89.1358,30.8241,-1.366,-8.66194,29.4183,7.12502,17.2718,58.6708,-1.552,1.85293,24.446,17.6904,-12.81,-11.9891,-13.4828,-1.69929,0.770328,-16.215,17.3197,-12.208,1.04627,-14.9344
0.472424,18.3476,-4.02808,1.51878,0.641506,-2.76921,4.91669,-0.567222,0.403542,-3.3649,-0.558862,2.94381,-6.24064,-0.222934,2.90395,-14.6402,-7.03282,-16.7909,22.0862,-8.6681,11.9448,10.8144,-4.12265,5.90969,1.4884e-14,-3.97569e-16,-36.8814,-6.95285,-81.6082,25.2686,4.74229,-19.7863,10.9884,7.12502,6.54611,-18.8905,1.4884e-14,-3.97569e-16,-38.3591,5.95378,89.0803,30.8251,-1.60761,-8.84594,28.391,7.12502,17.0947,57.6589,-1.66082,1.88137,24.4136,17.7497,-12.6869,-12.0754,-13.8987,-1.70893,0.78616,-16.2532,17.2243,-12.2275,1.03279,-15.5817
0.472526,18.3482,-4.03337,1.53548,0.802579,-2.67835,4.97428,-0.592749,0.345242,-3.37766,-0.599133,2.88902,-6.28515,-0.241173,2.88479,-14.691,-7.07361,-16.8084,22.0321,-8.72027,11.9894,10.8165,-4.14079,5.91863,-7.90169e-15,-1.94809e-14,-36.8837,-6.97683,-81.6566,25.3256,4.64404,-19.7472,10.7058,7.12502,6.58384,-19.1718,-7.90169e-15,-1.94809e-14,-38.3407,5.98235,89.0214,30.7864,-1.74144,-8.92295,28.0287,7.12502,17.0206,57.303,-1.69321,1.77234,24.3261,17.7913,-12.7343,-12.1112,-13.7194,-1.73714,0.710945,-16.3415,17.1788,-12.2359,0.947063,-15.8039
0.470737,18.35,-4.03416,1.50764,1.05022,-2.62205,4.97809,-0.655541,0.295358,-3.31177,-0.690967,2.84947,-6.213,-0.286294,2.87942,-14.9567,-7.10394,-16.7636,22.0518,-8.73651,12.011,10.8769,-4.13328,5.91311,-1.11816e-15,2.8625e-14,-36.7879,-6.95174,-81.7404,25.3684,4.53168,-19.7977,10.657,7.12502,6.5351,-19.2222,-1.11816e-15,2.8625e-14,-38.193,5.96151,88.9926,30.7284,-1.72805,-8.90915,28.1874,7.12502,17.0339,57.4606,-1.65671,1.67272,24.2986,17.8422,-12.815,-12.2193,-13.2148,-1.74004,0.599728,-16.3678,17.1827,-12.2176,0.776681,-15.6314
0.468217,18.3503,-4.03807,1.51954,1.18896,-2.6725,4.98582,-0.71066,0.324393,-3.26497,-0.76279,2.86324,-6.16477,-0.323364,2.88394,-15.1917,-7.14493,-16.7194,22.0677,-8.74908,11.9414,10.9251,-4.13477,5.87335,-8.64713e-15,5.1684e-15,-36.6194,-6.92619,-81.8023,25.3229,4.43082,-19.8348,10.756,7.12502,6.49929,-19.1243,-8.64713e-15,5.1684e-15,-38.0765,6.02171,88.9667,30.6564,-1.59623,-8.8283,28.5761,7.12502,17.1117,57.8425,-1.70769,1.68104,24.3806,17.9038,-12.8599,-12.3348,-12.8111,-1.77937,0.559697,-16.2804,17.1905,-12.1412,0.654294,-15.1355
0.468263,18.3505,-4.04475,1.58716,1.16398,-2.6,5.00683,-0.701474,0.265366,-3.28181,-0.756883,2.81688,-6.19462,-0.318684,2.8688,-15.2369,-7.16968,-16.6427,21.9964,-8.77275,11.8725,10.9041,-4.14392,5.82669,-2.98425e-14,3.26007e-14,-36.554,-6.99517,-81.8359,25.3392,4.34068,-19.6956,10.7002,7.12502,6.63367,-19.1759,-2.98425e-14,3.26007e-14,-38.0816,6.00867,88.9345,30.637,-1.39591,-8.54185,29.4531,7.12502,17.3874,58.6955,-1.82832,1.69368,24.2897,17.9504,-12.9019,-12.309,-12.8655,-1.8756,0.59909,-16.366,17.2088,-12.0595,0.650749,-14.8929
0.465995,18.3522,-4.04906,1.64359,1.05357,-2.52577,5.00135,-0.659229,0.150257,-3.20561,-0.711813,2.80632,-6.11183,-0.292963,2.91628,-15.5672,-7.24187,-16.6436,22.0083,-8.812,11.8436,10.9784,-4.15375,5.80405,8.49804e-15,-1.66979e-14,-36.358,-6.97982,-81.8667,25.3937,4.26582,-19.6029,10.8037,7.12502,6.72318,-19.0696,8.49804e-15,-1.66979e-14,-37.9311,6.01541,88.963,30.6221,-1.26922,-8.43816,29.8643,7.12502,17.4872,59.0977,-1.92589,1.85828,24.2299,17.984,-12.9134,-12.3749,-13.0254,-1.98021,0.651702,-16.4468,17.2396,-12.0665,0.722176,-15.3578
0.460378,18.3542,-4.05336,1.7051,1.04894,-2.56048,4.96806,-0.666766,0.1033,-3.01739,-0.727448,2.8644,-5.89227,-0.300624,3.00051,-16.3223,-7.37935,-16.6936,22.1206,-8.87037,11.8322,11.1798,-4.16133,5.78948,2.33572e-15,-1.70955e-14,-35.8865,-6.86322,-81.9392,25.3643,4.18271,-19.6488,10.965,7.12502,6.67889,-18.9096,2.33572e-15,-1.70955e-14,-37.545,6.12873,89.0252,30.606,-1.20273,-8.49693,29.9831,7.12502,17.4306,59.2216,-2.02291,2.0763,24.3262,18.027,-12.9462,-12.5705,-12.7474,-2.0937,0.65325,-16.3798,17.2142,-12.0364,0.726004,-15.7366
0.460286,18.3529,-4.05428,1.70035,1.06645,-2.59996,4.97274,-0.683918,0.155349,-2.87196,-0.749436,2.87439,-5.74116,-0.315629,2.98079,-16.8093,-7.45038,-16.7394,22.1211,-8.90029,11.93,11.288,-4.15148,5.82239,-3.60297e-16,2.90226e-14,-35.5375,-6.86098,-81.9962,25.2821,4.17415,-19.6696,11.056,7.12502,6.65882,-18.8193,-3.60297e-16,2.90226e-14,-37.2986,6.20756,89.0205,30.6205,-1.19566,-8.36427,30.3104,7.12502,17.5583,59.5375,-2.02481,2.09295,24.3687,18.0527,-13.016,-12.5637,-12.3599,-2.07737,0.633568,-16.3313,17.1796,-11.9786,0.714565,-15.3966
0.466962,18.3525,-4.04919,1.66407,0.974032,-2.52656,4.96371,-0.6577,0.16003,-2.82511,-0.717722,2.82888,-5.68871,-0.301828,2.92623,-16.8876,-7.4611,-16.8095,22.0538,-8.90766,12.0477,11.2894,-4.14437,5.87533,9.0944e-15,3.73715e-14,-35.4473,-6.89578,-81.9985,25.212,4.18778,-19.6554,11.2276,7.12502,6.67248,-18.6473,9.0944e-15,3.73715e-14,-37.2941,6.23309,88.9963,30.6283,-1.2381,-8.23492,30.5018,7.12502,17.6828,59.7177,-1.9822,1.93862,24.2218,18.0446,-12.985,-12.3319,-12.5116,-1.98466,0.602218,-16.4579,17.2043,-12.0183,0.841416,-15.0406
0.467441,18.355,-4.0522,1.69552,0.881479,-2.58444,4.9568,-0.634059,0.201883,-2.82007,-0.681925,2.85356,-5.68148,-0.285294,2.92477,-16.95,-7.48775,-16.8762,22.0225,-8.92927,12.108,11.3005,-4.15067,5.90425,-7.29291e-15,-4.77083e-15,-35.3596,-6.83671,-82.005,25.1534,4.11755,-19.6242,11.2854,7.12502,6.70262,-18.5885,-7.29291e-15,-4.77083e-15,-37.2821,6.29018,88.9879,30.5663,-1.26656,-8.35731,30.4521,7.12502,17.565,59.6786,-2.04248,2.00992,24.2914,18.0172,-12.8316,-12.3753,-13.0978,-2.04165,0.60036,-16.4044,17.2546,-12.0548,0.917731,-14.7689
0.464968,18.3543,-4.06002,1.73826,0.833303,-2.71123,4.94897,-0.624531,0.28824,-2.79421,-0.661287,2.89704,-5.65141,-0.277876,2.91891,-17.0836,-7.52182,-16.8581,21.9911,-8.94822,12.076,11.3155,-4.15615,5.88216,4.93234e-15,1.90833e-14,-35.2861,-6.75238,-82.0416,25.2122,4.06153,-19.6916,11.2939,7.12502,6.63755,-18.5821,4.93234e-15,1.90833e-14,-37.2089,6.38103,88.9583,30.5315,-1.27508,-8.42907,30.7482,7.12502,17.496,59.9809,-2.11348,2.20546,24.4615,18.006,-12.7993,-12.5263,-13.2883,-2.14345,0.621402,-16.2538,17.2941,-12.0484,0.931924,-14.7504
0.464639,18.3523,-4.0616,1.73389,0.841109,-2.70394,4.97511,-0.624491,0.271184,-2.78584,-0.662473,2.89178,-5.65737,-0.277915,2.92349,-17.2113,-7.54052,-16.8036,22.0368,-8.95209,12.0009,11.3513,-4.1577,5.84256,6.27414e-15,2.14687e-14,-35.3553,-6.68728,-82.06,25.3444,4.07518,-19.9231,11.2666,7.12502,6.41408,-18.6162,6.27414e-15,2.14687e-14,-37.2472,6.39667,88.9495,30.6419,-1.23817,-8.23664,31.4462,7.12502,17.6811,60.6623,-2.08953,2.27375,24.455,17.9998,-12.8692,-12.5366,-12.969,-2.17274,0.625068,-16.2648,17.3405,-12.0425,0.95874,-15.2735
0.46416,18.3516,-4.06258,1.71972,0.824504,-2.69089,5.04235,-0.623909,0.232179,-2.83338,-0.662068,2.89242,-5.74551,-0.275177,2.94843,-17.1243,-7.50688,-16.9042,22.0898,-8.92853,12.1251,11.3622,-4.14576,5.91558,9.55409e-15,-8.34896e-15,-35.509,-6.62037,-82.0375,25.3849,4.0222,-20.107,11.498,7.12502,6.2365,-18.3902,9.55409e-15,-8.34896e-15,-37.4656,6.36256,88.9536,30.7429,-1.2673,-8.196,31.6108,7.12502,17.7202,60.8234,-2.04628,2.32064,24.446,17.973,-12.8956,-12.5263,-12.5496,-2.18998,0.662248,-16.2776,17.3952,-12.0291,0.968488,-15.5917
0.467549,18.3517,-4.06071,1.69722,0.769768,-2.59684,5.01689,-0.618267,0.166915,-2.83091,-0.662013,2.85448,-5.72791,-0.273607,2.94493,-16.998,-7.46283,-17.0253,22.0195,-8.89426,12.3023,11.3211,-4.12469,6.01089,-2.06239e-15,4.77083e-15,-35.6259,-6.56613,-82.0244,25.4732,3.90063,-20.0519,11.9633,7.12502,6.28973,-17.9233,-2.06239e-15,4.77083e-15,-37.5933,6.44285,88.8817,30.5808,-1.57311,-8.60145,30.6598,7.12502,17.3301,59.9072,-2.00996,2.23872,24.3064,17.9647,-12.8703,-12.3725,-12.24,-2.14884,0.666261,-16.405,17.4081,-12.0914,1.01883,-15.6936
0.469182,18.3523,-4.05831,1.67309,0.695586,-2.6134,4.99801,-0.59111,0.210082,-2.79095,-0.624669,2.83744,-5.67746,-0.257813,2.89793,-17.0229,-7.47626,-17.0181,21.9059,-8.90681,12.3245,11.2864,-4.12493,6.01165,-4.47266e-15,1.31198e-14,-35.6192,-6.57049,-82.0165,25.5135,3.8634,-19.9588,12.1215,7.12502,6.37955,-17.7624,-4.47266e-15,1.31198e-14,-37.5706,6.60753,88.7635,30.3543,-2.01465,-8.71352,29.9402,7.12502,17.2222,59.1971,-1.99076,2.22598,24.3109,17.9861,-12.8192,-12.2973,-12.2484,-2.07105,0.64824,-16.3975,17.3677,-12.1704,1.07704,-15.6332
0.466264,18.3534,-4.06401,1.72362,0.693967,-2.70054,5.06073,-0.591015,0.253327,-2.82188,-0.61771,2.86779,-5.7465,-0.25463,2.90647,-17.1149,-7.47852,-17.0078,21.8838,-8.89412,12.3228,11.2932,-4.11499,6.00929,-2.04127e-14,1.82882e-14,-35.5682,-6.52955,-82.0103,25.4458,3.85084,-20.0055,12.3912,7.12502,6.33448,-17.4941,-2.04127e-14,1.82882e-14,-37.5814,6.70743,88.7171,30.2646,-2.14548,-8.48048,30.4379,7.12502,17.4465,59.675,-2.08483,2.34712,24.4442,17.9943,-12.8297,-12.4602,-12.6889,-2.12259,0.664088,-16.2752,17.3096,-12.1178,1.04287,-15.3439
0.470144,18.3536,-4.06442,1.70489,0.675775,-2.63627,5.09988,-0.53848,0.169795,-3.10408,-0.549488,2.80372,-6.0694,-0.214567,2.88593,-15.9355,-7.29822,-17.0011,21.589,-8.84571,12.419,10.9496,-4.11975,6.06116,2.50966e-14,-4.37326e-15,-36.2849,-6.5567,-81.9223,25.5848,3.81707,-19.9704,12.5815,7.12502,6.36836,-17.3028,2.50966e-14,-4.37326e-15,-38.2985,6.50976,88.6569,30.2978,-2.07367,-8.46478,30.676,7.12502,17.4616,59.9118,-2.07723,2.29547,24.3522,17.9792,-12.8236,-12.4346,-13.2559,-2.09551,0.680732,-16.365,17.2805,-12.0441,1.07287,-15.2772
0.481578,18.3524,-4.05133,1.5626,0.43783,-2.57896,5.14245,-0.45211,0.220251,-3.06081,-0.433133,2.75112,-6.05434,-0.160701,2.79037,-15.9146,-7.29658,-17.0897,21.6031,-8.85084,12.5203,10.9616,-4.11969,6.1155,2.03754e-15,-1.39149e-14,-36.382,-6.50822,-81.9072,25.6937,3.82176,-19.9658,12.3013,7.12502,6.37279,-17.5829,2.03754e-15,-1.39149e-14,-38.4587,6.47877,88.6353,30.3565,-2.01858,-8.45429,30.5277,7.12502,17.4717,59.7626,-1.88979,2.16705,24.199,17.9952,-12.8249,-12.0802,-13.5526,-1.81372,0.719744,-16.5111,17.2148,-12.0392,1.29553,-15.279
0.486539,18.3525,-4.04326,1.48171,0.244843,-2.63266,5.18301,-0.394156,0.372072,-2.72064,-0.352093,2.7411,-5.72373,-0.131129,2.68072,-17.3123,-7.4934,-17.1262,22.0002,-8.93094,12.5962,11.403,-4.10659,6.13216,-1.26974e-14,2.26615e-14,-35.6656,-6.59371,-81.9654,25.5761,3.94819,-20.0508,12.211,7.12502,6.29076,-17.6756,-1.26974e-14,2.26615e-14,-37.8668,6.54067,88.6558,30.3905,-1.91848,-8.5223,30.272,7.12502,17.4062,59.5126,-1.79108,2.16659,24.2184,18.0292,-12.8689,-11.891,-13.6615,-1.59398,0.77659,-16.4872,17.0978,-12.0761,1.41722,-15.204
0.487342,18.3527,-4.04161,1.46888,0.218446,-2.60548,5.13499,-0.374733,0.358184,-2.69184,-0.331329,2.69416,-5.66686,-0.121837,2.6362,-17.3684,-7.44708,-17.1335,22.0697,-8.89494,12.7292,11.441,-4.0754,6.19449,-4.33599e-15,7.15625e-15,-35.6606,-6.69789,-81.9583,25.5239,4.09002,-19.9494,12.1034,7.12502,6.38869,-17.7802,-4.33599e-15,7.15625e-15,-37.898,6.5054,88.5711,30.3609,-1.8701,-8.80636,29.484,7.12502,17.1328,58.7486,-1.79188,2.16661,24.1852,18.0516,-12.8653,-11.9021,-13.7293,-1.51611,0.76011,-16.5167,17.0132,-12.1456,1.43236,-15.1743
0.492299,18.3515,-4.03998,1.48784,0.207235,-2.55337,5.11295,-0.331259,0.381914,-2.61247,-0.27745,2.62346,-5.57332,-0.0984923,2.54205,-17.7278,-7.51283,-17.0662,22.1583,-8.96106,12.7549,11.5546,-4.08496,6.18038,-1.963e-15,-1.59028e-15,-35.5014,-6.7917,-81.9824,25.545,4.09391,-19.9192,11.7935,7.12502,6.41784,-18.0892,-1.963e-15,-1.59028e-15,-37.6125,6.4022,88.5432,30.111,-1.92741,-9.05341,28.8295,7.12502,16.895,58.1146,-1.84995,2.06257,24.0889,18.0983,-12.8217,-11.8026,-13.3521,-1.47972,0.702238,-16.6056,16.9467,-12.1411,1.49721,-14.9761
0.495006,18.3506,-4.04159,1.5207,0.178493,-2.62123,5.09528,-0.319892,0.431495,-2.73365,-0.2541,2.65678,-5.69175,-0.0868196,2.54826,-17.2285,-7.42415,-17.159,22.0234,-8.89971,12.8197,11.4031,-4.07423,6.23389,5.25537e-15,7.15625e-15,-35.7065,-6.59429,-81.9583,25.5623,3.98207,-19.9948,11.8092,7.12502,6.34483,-18.0757,5.25537e-15,7.15625e-15,-37.9082,6.59183,88.4446,30.0944,-2.10285,-9.1439,28.5623,7.12502,16.8079,57.8549,-1.93587,2.0258,24.1425,18.1584,-12.7767,-11.739,-13.1023,-1.47622,0.707929,-16.5466,16.8829,-12.0914,1.52344,-14.8826
0.49347,18.3519,-4.04361,1.54563,0.176195,-2.54948,5.14336,-0.311659,0.30576,-2.79593,-0.250832,2.64384,-5.78447,-0.0797322,2.60685,-17.1197,-7.39042,-17.2101,21.983,-8.8812,12.9269,11.3717,-4.06198,6.28815,-8.63471e-15,-2.78299e-15,-35.7694,-6.54309,-81.9282,25.5658,3.99059,-19.8863,11.8616,7.12502,6.44961,-18.0202,-8.63471e-15,-2.78299e-15,-38.198,6.87496,88.2876,30.2477,-2.35331,-9.14759,28.8669,7.12502,16.8044,58.1597,-1.99006,2.10839,24.0772,18.2005,-12.7953,-11.7887,-13.3236,-1.51496,0.722522,-16.6194,16.8782,-12.0914,1.51963,-15.3181
0.491604,18.3532,-4.0465,1.55574,0.205142,-2.51051,5.21946,-0.29155,0.223701,-2.93534,-0.227659,2.60444,-5.97573,-0.0638287,2.61267,-16.6871,-7.30548,-17.121,21.8284,-8.85064,12.9393,11.219,-4.05294,6.28283,1.98785e-15,2.06736e-14,-36.1067,-6.55597,-81.8977,25.7091,3.98139,-19.8612,11.7444,7.12502,6.47382,-18.1367,1.98785e-15,2.06736e-14,-38.6293,6.81504,88.1868,30.412,-2.44679,-8.89374,29.7002,7.12502,17.0487,58.9721,-2.024,2.22712,24.0594,18.2225,-12.7986,-11.8971,-12.9808,-1.57373,0.750838,-16.6517,16.9242,-12.065,1.48191,-15.8401
0.491761,18.3512,-4.05013,1.56339,0.173271,-2.65353,5.21938,-0.264326,0.355761,-2.99586,-0.178909,2.61348,-6.04202,-0.0441384,2.54362,-16.4083,-7.25209,-16.9843,21.712,-8.82429,12.8408,11.1037,-4.04861,6.22465,8.19987e-16,-3.97569e-15,-36.3021,-6.50696,-81.9136,25.8117,3.89044,-20.0243,11.7563,7.12502,6.31635,-18.1295,8.19987e-16,-3.97569e-15,-38.9306,6.5018,88.2087,30.6277,-2.23739,-8.64661,30.1037,7.12502,17.2866,59.3549,-2.06174,2.29854,24.2251,18.2388,-12.7873,-11.9573,-12.6042,-1.6074,0.817897,-16.4928,16.9631,-12.0488,1.46275,-15.9774
0.494215,18.3497,-4.04917,1.54381,0.0635779,-2.72796,5.22639,-0.240373,0.457361,-2.88959,-0.141216,2.61717,-5.93574,-0.0306842,2.48484,-16.8514,-7.34686,-16.9083,21.7997,-8.88668,12.7433,11.225,-4.06618,6.16,-6.98231e-15,-2.46493e-14,-36.0869,-6.51832,-81.9305,25.8039,3.87103,-19.9683,11.7509,7.12502,6.37047,-18.1333,-6.98231e-15,-2.46493e-14,-38.8371,6.44809,88.1925,30.7427,-2.08286,-8.68313,30.0917,7.12502,17.2514,59.346,-2.04437,2.30394,24.2875,18.2485,-12.8913,-11.887,-12.8601,-1.57868,0.809097,-16.4292,17.0115,-12.1395,1.55529,-15.6749
0.493784,18.3497,-4.0467,1.50047,-0.0211476,-2.7229,5.26565,-0.211006,0.450382,-2.81766,-0.104138,2.60497,-5.8839,-0.012964,2.47161,-17.1914,-7.44591,-16.9282,21.9535,-8.97331,12.7239,11.3647,-4.09894,6.14176,2.60905e-15,-1.90833e-14,-35.9284,-6.61951,-81.886,25.7359,3.91289,-19.8103,11.633,7.12502,6.52293,-18.2466,2.60905e-15,-1.90833e-14,-38.6367,6.68395,88.0408,30.5197,-2.2861,-8.67708,29.9926,7.12502,17.2573,59.2464,-1.98019,2.40214,24.2911,18.2366,-12.9419,-11.9046,-13.1476,-1.54107,0.807263,-16.4313,17.0661,-12.1744,1.59953,-15.1441
0.491553,18.349,-4.04739,1.49118,-0.0515946,-2.75042,5.25876,-0.193161,0.438613,-2.81276,-0.0807344,2.61771,-5.87574,-0.000716222,2.48903,-17.2306,-7.46433,-17.0127,22.0692,-8.99088,12.7668,11.4261,-4.10943,6.17392,1.49089e-16,-2.34566e-14,-35.9152,-6.63357,-81.834,25.6191,3.95296,-19.9369,11.6132,7.12502,6.40076,-18.27,1.49089e-16,-2.34566e-14,-38.4862,6.91033,87.8959,30.0691,-2.56585,-8.70536,29.5668,7.12502,17.23,58.8229,-1.94629,2.53195,24.3503,18.1933,-12.8507,-12.0041,-13.5589,-1.57179,0.877249,-16.3839,17.0986,-12.0975,1.58297,-15.0381
0.494328,18.3487,-4.04716,1.50163,-0.00365547,-2.82177,5.16711,-0.214541,0.525701,-2.74359,-0.104945,2.64295,-5.7496,-0.0165447,2.46686,-17.405,-7.50242,-17.0303,22.1126,-9.00817,12.747,11.4799,-4.11513,6.16529,3.13086e-15,2.78299e-15,-35.7679,-6.68263,-81.7816,25.5207,4.10217,-20.1625,11.5476,7.12502,6.18291,-18.3421,3.13086e-15,2.78299e-15,-38.3016,7.03858,87.827,29.722,-2.77756,-8.72373,29.1626,7.12502,17.2124,58.4203,-1.93039,2.43986,24.417,18.1384,-12.7695,-11.986,-13.8647,-1.61291,0.860304,-16.316,17.1256,-12.0747,1.59599,-15.2669
0.498855,18.3501,-4.04593,1.48559,0.0502787,-2.80672,5.08491,-0.227961,0.561546,-2.64807,-0.125659,2.61969,-5.6013,-0.02981,2.42217,-17.5696,-7.56694,-16.9811,22.0992,-9.06879,12.6874,11.5121,-4.13871,6.11972,4.41053e-15,-1.59028e-15,-35.5618,-6.8545,-81.7182,25.4527,4.28783,-20.2237,11.3836,7.12502,6.12382,-18.5079,4.41053e-15,-1.59028e-15,-38.2106,7.02603,87.794,29.723,-2.86783,-8.71113,29.2243,7.12502,17.2245,58.4809,-1.87474,2.28095,24.3669,18.0937,-12.7209,-11.882,-13.4853,-1.60152,0.771989,-16.3602,17.1481,-12.0717,1.64379,-15.1813
0.500011,18.3521,-4.04602,1.47054,0.0384292,-2.72635,5.08291,-0.206873,0.484257,-2.64059,-0.105239,2.58537,-5.59289,-0.0175864,2.42773,-17.4494,-7.59476,-17.0531,22.02,-9.11944,12.7536,11.4755,-4.16381,6.14765,4.36084e-15,1.86858e-14,-35.5682,-6.93205,-81.6613,25.4834,4.31695,-20.1286,11.2664,7.12502,6.21563,-18.6224,4.36084e-15,1.86858e-14,-38.3453,6.94638,87.7856,29.8941,-2.77117,-8.92271,29.2442,7.12502,17.0208,58.5185,-1.81368,2.26308,24.2629,18.0369,-12.6942,-11.824,-13.0636,-1.58123,0.747854,-16.4604,17.1542,-12.0777,1.66944,-14.9866
0.501535,18.3519,-4.04334,1.47229,0.0305858,-2.7206,5.00185,-0.199528,0.477177,-2.6237,-0.0984761,2.57668,-5.52902,-0.0145607,2.42092,-17.3416,-7.60198,-17.0599,21.9477,-9.13945,12.7516,11.431,-4.17664,6.14314,-3.2551e-15,2.78299e-15,-35.5622,-6.96964,-81.625,25.4848,4.34875,-20.1275,11.3007,7.12502,6.21677,-18.5881,-3.2551e-15,2.78299e-15,-38.3264,7.10911,87.6682,29.7245,-2.87112,-9.18549,28.8278,7.12502,16.7679,58.1238,-1.80033,2.25921,24.2441,18.0027,-12.7011,-11.8126,-13.1792,-1.53978,0.74838,-16.4699,17.1267,-12.1041,1.65745,-14.7047
0.50491,18.3508,-4.03864,1.45832,0.0456048,-2.75342,4.89344,-0.209669,0.552575,-2.58419,-0.110778,2.55763,-5.42518,-0.0244863,2.35812,-17.4105,-7.61107,-16.9133,21.9648,-9.14534,12.6055,11.4355,-4.18054,6.05927,-4.12478e-15,-4.77083e-15,-35.5121,-7.00483,-81.6175,25.442,4.425,-20.256,11.5011,7.12502,6.09267,-18.3913,-4.12478e-15,-4.77083e-15,-38.1419,7.32072,87.4939,29.3591,-2.98161,-9.38413,28.2358,7.12502,16.5766,57.5478,-1.80937,2.19448,24.2584,18.0394,-12.7348,-11.7847,-13.5381,-1.44914,0.698719,-16.4508,17.0565,-12.1258,1.68299,-14.6019
0.508234,18.3494,-4.03539,1.43031,0.050625,-2.68843,4.90549,-0.211725,0.523726,-2.61651,-0.116414,2.52099,-5.46566,-0.0266328,2.33721,-17.4302,-7.60577,-16.8103,22.0381,-9.13062,12.4553,11.4503,-4.18179,5.98772,-6.64686e-15,3.61788e-14,-35.6471,-6.91178,-81.6306,25.5741,4.34755,-20.2574,11.5285,7.12502,6.09128,-18.3639,-6.64686e-15,3.61788e-14,-38.1663,7.3997,87.3694,29.1739,-2.92122,-9.39049,27.7829,7.12502,16.5705,57.0954,-1.79997,2.10831,24.1634,18.0968,-12.8165,-11.7073,-13.6363,-1.37584,0.662515,-16.5492,16.9902,-12.1757,1.73082,-14.7651
0.511279,18.3488,-4.03654,1.41968,0.0624455,-2.55611,4.98477,-0.206467,0.392877,-2.66066,-0.117657,2.49437,-5.55703,-0.0222898,2.38462,-17.4434,-7.62171,-16.761,22.0884,-9.12546,12.2913,11.4592,-4.19337,5.9173,-9.79014e-15,-2.06736e-14,-35.729,-6.8322,-81.5847,25.6286,4.24677,-20.1522,11.3731,7.12502,6.19285,-18.5163,-9.79014e-15,-2.06736e-14,-38.2955,7.4712,87.2804,29.1788,-3.141,-8.98603,28.1433,7.12502,16.9599,57.4228,-1.80641,2.04853,23.9975,18.126,-12.8758,-11.6426,-13.3291,-1.3732,0.620191,-16.7189,16.9679,-12.1723,1.78544,-14.6264
0.510123,18.3513,-4.04284,1.42807,0.13029,-2.58211,5.03146,-0.220607,0.374166,-2.65342,-0.135607,2.52565,-5.57544,-0.0297618,2.42996,-17.475,-7.65585,-16.8746,22.0477,-9.1445,12.3395,11.4626,-4.20466,5.94994,3.72721e-16,-1.11319e-14,-35.6313,-6.8797,-81.4837,25.485,4.29,-20.0672,11.3212,7.12502,6.2749,-18.5659,3.72721e-16,-1.11319e-14,-38.2786,7.49637,87.2265,29.1504,-3.43912,-8.5929,28.7429,7.12502,17.3383,57.9896,-1.85666,2.09362,24.0445,18.1549,-12.8742,-11.7517,-12.9211,-1.41716,0.555444,-16.6814,16.9586,-12.1041,1.77621,-14.7683
0.508365,18.3526,-4.0455,1.39617,0.242857,-2.6763,5.02195,-0.254838,0.421444,-2.62587,-0.176587,2.56716,-5.5396,-0.0512828,2.45018,-17.4016,-7.63862,-17.1441,22.0495,-9.1345,12.6369,11.4789,-4.19313,6.11576,-9.95166e-15,6.36111e-15,-35.5788,-6.9326,-81.4142,25.4016,4.34478,-20.0055,11.3872,7.12502,6.33451,-18.4981,-9.95166e-15,6.36111e-15,-38.1775,7.5439,87.153,28.9698,-3.46782,-8.48405,28.8293,7.12502,17.443,58.0667,-1.8301,2.06095,24.1719,18.1934,-12.9214,-11.8394,-12.7976,-1.41677,0.515504,-16.5577,16.9479,-12.0605,1.67743,-15.1498
0.511045,18.3519,-4.04225,1.35717,0.325526,-2.63174,4.96328,-0.274427,0.395727,-2.63008,-0.207086,2.5406,-5.50916,-0.0661208,2.43927,-17.2379,-7.60681,-17.2659,22.0825,-9.1259,12.7847,11.4727,-4.18986,6.20015,1.68097e-14,3.97569e-16,-35.6422,-7.01694,-81.3396,25.3327,4.44537,-19.9132,11.5511,7.12502,6.42363,-18.3315,1.68097e-14,3.97569e-16,-38.1675,7.73825,86.9861,28.7228,-3.7118,-8.21127,28.9964,7.12502,17.7055,58.2103,-1.7696,1.87236,24.1016,18.2086,-12.9719,-11.7584,-13.0241,-1.39104,0.508607,-16.6153,16.9673,-12.0716,1.60499,-15.2792
0.512468,18.3512,-4.04141,1.34617,0.32459,-2.59716,4.92288,-0.256075,0.367956,-2.64187,-0.186472,2.51269,-5.49916,-0.0554527,2.42349,-17.0981,-7.61805,-17.205,22.0508,-9.16022,12.7046,11.4316,-4.21351,6.15282,-5.77718e-15,7.95139e-15,-35.7015,-7.09785,-81.2732,25.2207,4.57098,-19.9196,11.8497,7.12502,6.41746,-18.0331,-5.77718e-15,7.95139e-15,-38.175,7.89239,86.8195,28.5058,-4.12789,-7.9846,29.3221,7.12502,17.9237,58.5162,-1.7615,1.82844,24.0506,18.1942,-12.9054,-11.7245,-12.9975,-1.37977,0.52169,-16.6615,17.0102,-12.1372,1.60009,-15.3269
0.511831,18.3511,-4.04513,1.36847,0.321112,-2.63899,4.93808,-0.24004,0.376775,-2.67242,-0.162477,2.52963,-5.54093,-0.0431698,2.43449,-16.9814,-7.61448,-17.1968,22.0384,-9.16416,12.6573,11.4017,-4.22372,6.13326,-1.18153e-14,5.56597e-15,-35.8021,-6.96072,-81.286,25.2493,4.4802,-20.0269,11.9897,7.12502,6.31381,-17.8962,-1.18153e-14,5.56597e-15,-38.2042,7.83658,86.7941,28.483,-4.12104,-8.19233,29.5129,7.12502,17.7238,58.7252,-1.79876,1.89778,24.1108,18.1816,-12.7895,-11.7921,-12.9886,-1.43458,0.515262,-16.6061,17.0558,-12.1393,1.59192,-15.1279
0.510671,18.3502,-4.04584,1.38334,0.356143,-2.75383,4.90822,-0.248053,0.470459,-2.67361,-0.165039,2.56581,-5.52526,-0.047262,2.41944,-16.9091,-7.61174,-17.2874,22.0355,-9.16929,12.7406,11.3971,-4.22729,6.18155,-1.40143e-14,2.10712e-14,-35.8283,-6.78134,-81.3441,25.2859,4.30228,-20.0437,11.9371,7.12502,6.29759,-17.9493,-1.40143e-14,2.10712e-14,-38.1833,7.80826,86.7689,28.465,-3.89585,-8.47498,29.2874,7.12502,17.4518,58.524,-1.81081,1.97049,24.2655,18.177,-12.7752,-11.9166,-13.0853,-1.51543,0.526682,-16.4629,17.1189,-12.1227,1.56682,-15.1013
0.50897,18.3491,-4.04423,1.36803,0.395753,-2.8753,4.83284,-0.241115,0.570376,-2.64225,-0.149695,2.58898,-5.45009,-0.0433877,2.38464,-16.7553,-7.61155,-17.4315,21.9345,-9.20619,12.9631,11.3561,-4.23651,6.28583,1.75676e-14,1.59028e-15,-35.755,-6.77327,-81.3595,25.2165,4.19923,-20.0274,12.0964,7.12502,6.31332,-17.7895,1.75676e-14,1.59028e-15,-38.1428,7.82491,86.6926,28.4163,-3.58699,-8.57353,29.1634,7.12502,17.3569,58.4084,-1.74843,2.05607,24.4269,18.1574,-12.9269,-11.983,-12.7007,-1.56764,0.561749,-16.3139,17.2028,-12.1962,1.52749,-15.4395
0.508887,18.3494,-4.04645,1.36128,0.494988,-2.86627,4.80805,-0.240452,0.543592,-2.63106,-0.152271,2.57395,-5.424,-0.0441448,2.38385,-16.6588,-7.61047,-17.4558,21.8067,-9.23435,13.0796,11.3023,-4.24072,6.32747,-3.16813e-15,-3.97569e-16,-35.7277,-6.79481,-81.3579,25.2461,4.12302,-19.975,12.1567,7.12502,6.36395,-17.7277,-3.16813e-15,-3.97569e-16,-38.1481,7.86716,86.6062,28.4419,-3.38646,-8.49479,29.537,7.12502,17.4327,58.7753,-1.71244,2.0204,24.4193,18.1401,-13.0447,-11.9662,-12.3079,-1.61171,0.546757,-16.3137,17.2591,-12.2282,1.43006,-15.4149
0.510625,18.3494,-4.04806,1.3561,0.556497,-2.83139,4.82313,-0.237265,0.516442,-2.61756,-0.151171,2.54982,-5.4184,-0.0431665,2.37384,-16.7284,-7.62605,-17.327,21.7128,-9.24246,12.9711,11.2689,-4.24137,6.25665,-6.29899e-15,1.70955e-14,-35.6974,-6.79506,-81.3655,25.2896,4.12863,-19.8875,11.9711,7.12502,6.44846,-17.9107,-6.29899e-15,1.70955e-14,-38.0344,8.06192,86.4299,28.2257,-3.79643,-8.32136,29.3492,7.12502,17.5996,58.5726,-1.74999,1.94116,24.3653,18.1539,-12.9476,-11.9805,-12.5817,-1.58567,0.521516,-16.3483,17.2604,-12.2032,1.34943,-14.8185
0.512817,18.3498,-4.04799,1.37947,0.526742,-2.7806,4.81297,-0.213237,0.483005,-2.64123,-0.122059,2.52959,-5.43844,-0.0277288,2.36902,-16.5973,-7.62168,-17.3921,21.6069,-9.23915,13.0023,11.2087,-4.24543,6.2784,1.3331e-14,6.36111e-15,-35.6641,-6.84182,-81.3175,25.1915,4.23289,-19.8217,11.7472,7.12502,6.5119,-18.1326,1.3331e-14,6.36111e-15,-37.9539,8.33886,86.2051,27.8778,-4.49436,-8.1931,28.7637,7.12502,17.723,57.976,-1.81509,1.89119,24.2857,18.1756,-12.8572,-11.9703,-13.1389,-1.57353,0.51091,-16.422,17.2411,-12.1478,1.39605,-14.4097
0.513725,18.3504,-4.04738,1.38814,0.53371,-2.74734,4.7826,-0.201503,0.440865,-2.63811,-0.110437,2.52183,-5.41816,-0.020701,2.38321,-16.4989,-7.63823,-17.5991,21.5775,-9.27485,13.2094,11.2085,-4.2602,6.38916,-7.92654e-15,1.19271e-14,-35.5882,-6.8981,-81.2896,25.1179,4.31354,-19.8138,11.3824,7.12502,6.51962,-18.4973,-7.92654e-15,1.19271e-14,-37.9398,8.57504,86.0307,27.7756,-4.91413,-8.18739,28.428,7.12502,17.7285,57.6398,-1.81242,1.86268,24.24,18.1698,-12.894,-11.9609,-13.1247,-1.59782,0.490371,-16.4756,17.2406,-12.1154,1.45366,-14.6538
0.511587,18.3495,-4.04698,1.32813,0.542818,-2.83842,4.77273,-0.182968,0.477087,-2.57094,-0.084072,2.53841,-5.34316,-0.00928624,2.3767,-16.5543,-7.65713,-17.6311,21.569,-9.31206,13.321,11.2311,-4.26577,6.43107,-1.30452e-14,-1.66979e-14,-35.5282,-6.89453,-81.3386,25.175,4.28787,-19.8452,11.162,7.12502,6.48923,-18.7186,-1.30452e-14,-1.66979e-14,-37.8667,8.69599,85.9171,27.7989,-5.05704,-8.25893,28.5963,7.12502,17.6597,57.8144,-1.72652,1.94118,24.3639,18.1414,-12.8791,-12.0396,-12.7886,-1.55211,0.495534,-16.3604,17.2724,-12.246,1.42801,-14.9901
0.508379,18.3479,-4.04878,1.26542,0.533166,-2.91666,4.76928,-0.153155,0.500324,-2.51386,-0.0440545,2.53794,-5.2829,0.00917725,2.35867,-16.5408,-7.66729,-17.5698,21.562,-9.3469,13.3251,11.2289,-4.27645,6.41615,1.13059e-14,2.0276e-14,-35.5257,-6.89363,-81.4002,25.2398,4.25434,-19.8803,11.1475,7.12502,6.45538,-18.7341,1.13059e-14,2.0276e-14,-37.798,8.65291,85.8581,27.8212,-4.92941,-8.17964,29.61,7.12502,17.736,58.8211,-1.64824,2.06035,24.4808,18.1044,-12.8433,-12.1456,-12.557,-1.50723,0.517545,-16.2521,17.3425,-12.4098,1.39502,-15.0648
0.505756,18.3476,-4.05045,1.26389,0.550896,-2.93787,4.78967,-0.132193,0.497426,-2.51788,-0.016594,2.51959,-5.29972,0.022636,2.33885,-16.4766,-7.69821,-17.5689,21.5402,-9.40454,13.3373,11.2196,-4.30339,6.41081,3.2551e-15,2.5842e-14,-35.5443,-6.9194,-81.4294,25.2081,4.32396,-20.0264,11.3122,7.12502,6.3143,-18.5737,3.2551e-15,2.5842e-14,-37.8333,8.55834,85.7965,27.9217,-4.64639,-7.94741,30.2001,7.12502,17.9594,59.3909,-1.62293,2.13849,24.533,18.0679,-12.8818,-12.238,-12.7553,-1.56252,0.544076,-16.2113,17.4199,-12.3709,1.3512,-15.0943
0.503281,18.3483,-4.05322,1.2801,0.626573,-2.98733,4.853,-0.125359,0.514375,-2.58018,-0.00296071,2.52765,-5.40176,0.0296911,2.3377,-16.2814,-7.69922,-17.587,21.4305,-9.42728,13.3445,11.1463,-4.32048,6.41139,1.22998e-15,-1.43125e-14,-35.6554,-6.91027,-81.4154,25.1916,4.35798,-20.2074,11.5882,7.12502,6.13958,-18.3029,1.22998e-15,-1.43125e-14,-37.955,8.53793,85.725,28.0475,-4.47309,-7.81296,30.2875,7.12502,18.0888,59.4663,-1.60625,2.12866,24.6145,18.032,-12.9008,-12.3109,-12.9328,-1.65434,0.557596,-16.1345,17.469,-12.2298,1.26479,-15.1291
0.502835,18.3494,-4.05526,1.26998,0.718175,-3.00299,4.89292,-0.118191,0.505535,-2.66947,0.00867919,2.5198,-5.5187,0.0365573,2.33479,-15.9293,-7.65662,-17.5726,21.3267,-9.42176,13.3384,11.0369,-4.32949,6.40899,-3.80176e-15,6.36111e-15,-35.8618,-6.9734,-81.3692,25.1822,4.30694,-20.2703,11.8183,7.12502,6.07889,-18.0745,-3.80176e-15,6.36111e-15,-38.1151,8.531,85.6299,28.0658,-4.5195,-7.58147,30.6482,7.12502,18.3115,59.8063,-1.5785,2.07333,24.636,17.9791,-12.8872,-12.3427,-12.7126,-1.7012,0.514245,-16.1099,17.5195,-12.2394,1.23013,-15.1732
0.505071,18.3503,-4.0541,1.26498,0.771745,-3.01368,4.89881,-0.124976,0.558372,-2.57419,-0.000159878,2.49359,-5.42163,0.0288886,2.27745,-16.3955,-7.7559,-17.5261,21.4712,-9.49891,13.3052,11.1913,-4.34823,6.37286,-3.47873e-16,1.31198e-14,-35.6099,-7.10385,-81.3885,25.0622,4.35463,-20.3103,11.9782,7.12502,6.04029,-17.9157,-3.47873e-16,1.31198e-14,-37.9064,8.60883,85.5267,28.0477,-4.69136,-7.28374,30.5067,7.12502,18.5979,59.6376,-1.56287,2.01435,24.629,17.9241,-12.8586,-12.3135,-12.6863,-1.72904,0.462571,-16.1094,17.5711,-12.2833,1.23908,-15.1785
0.506871,18.3483,-4.05228,1.24283,0.779524,-3.16303,4.92106,-0.132669,0.718635,-2.54628,0.00253715,2.52595,-5.40526,0.0249009,2.22059,-16.5594,-7.80199,-17.5207,21.5675,-9.53691,13.2681,11.2639,-4.36388,6.35175,-6.8208e-15,2.94201e-14,-35.4501,-7.16113,-81.3949,24.9241,4.48803,-20.3741,11.9555,7.12502,5.97861,-17.9402,-6.8208e-15,2.94201e-14,-37.9529,8.62686,85.4542,28.2029,-4.69351,-7.29058,29.9281,7.12502,18.5913,59.0597,-1.51366,1.98768,24.7841,17.8874,-12.8414,-12.2807,-12.6815,-1.70662,0.440993,-15.9504,17.5838,-12.2446,1.24414,-14.9646
0.506869,18.3466,-4.05277,1.23195,0.823787,-3.21599,5.00299,-0.124999,0.743694,-2.60095,0.0188543,2.5428,-5.51008,0.0329755,2.22383,-16.4945,-7.7951,-17.5505,21.6283,-9.53728,13.2714,11.2758,-4.36934,6.36144,1.27968e-15,4.37326e-15,-35.4229,-7.22929,-81.3588,24.808,4.52253,-20.3125,11.7486,7.12502,6.03808,-18.1454,1.27968e-15,4.37326e-15,-38.0599,8.50775,85.4823,28.3325,-4.25719,-7.52455,29.8362,7.12502,18.3663,58.9891,-1.49334,1.95812,24.842,17.8717,-12.8326,-12.2676,-12.538,-1.67957,0.399769,-15.8869,17.5717,-12.2479,1.19717,-14.7422
0.507573,18.3477,-4.05383,1.26614,0.919632,-3.04539,5.02563,-0.124973,0.555813,-2.61336,0.00349088,2.49644,-5.53537,0.031517,2.28304,-16.6751,-7.813,-17.5451,21.765,-9.53633,13.2383,11.36,-4.36672,6.35019,-2.55935e-15,9.14409e-15,-35.3946,-7.21373,-81.3656,24.8143,4.40386,-20.2173,11.7501,7.12502,6.13004,-18.1412,-2.55935e-15,9.14409e-15,-38.0445,8.44374,85.5339,28.4816,-3.72295,-7.89342,30.1205,7.12502,18.0114,59.3065,-1.53493,1.83288,24.6425,17.876,-12.7846,-12.2375,-12.5501,-1.72264,0.345205,-16.0824,17.5698,-12.2641,1.1463,-14.7731
0.510047,18.3489,-4.05343,1.31441,0.947005,-2.90022,4.98381,-0.098135,0.385633,-2.73365,0.0265665,2.45116,-5.6386,0.0493924,2.33042,-16.2926,-7.77407,-17.5134,21.6793,-9.53416,13.1793,11.2472,-4.3827,6.32462,-9.57894e-15,-7.15625e-15,-35.7798,-7.10784,-81.361,25.0196,4.25721,-20.2248,12.4397,7.12502,6.12282,-17.4519,-9.57894e-15,-7.15625e-15,-38.4122,8.32502,85.536,28.7937,-3.50821,-8.0491,30.4606,7.12502,17.8616,59.6604,-1.59785,1.69416,24.4583,17.906,-12.7396,-12.1779,-12.6817,-1.772,0.332966,-16.2651,17.5529,-12.2633,1.17158,-14.8674
0.511692,18.3488,-4.05359,1.31831,0.961762,-2.97322,5.02322,-0.0804552,0.461329,-2.75664,0.0580799,2.4681,-5.68651,0.062804,2.30296,-16.1743,-7.81971,-17.5027,21.5194,-9.59513,13.1296,11.1723,-4.41723,6.28822,1.14301e-15,-1.59028e-15,-36.0307,-6.97538,-81.3908,25.317,4.12132,-20.2599,12.9921,7.12502,6.08891,-16.9005,1.14301e-15,-1.59028e-15,-38.5702,8.16635,85.5967,29.0806,-3.24452,-7.83518,31.1777,7.12502,18.0674,60.3585,-1.62906,1.64877,24.5244,17.9344,-12.7355,-12.159,-12.7129,-1.76475,0.370439,-16.1885,17.5262,-12.2668,1.15999,-15.0512
0.512538,18.3461,-4.05175,1.25027,0.959499,-3.10282,5.10603,-0.0737908,0.595908,-2.74948,0.0803382,2.4998,-5.72719,0.0694789,2.25864,-16.1787,-7.83772,-17.5068,21.5236,-9.61283,13.1045,11.1769,-4.42812,6.27598,-2.93207e-15,1.39149e-14,-36.1161,-6.91921,-81.4132,25.3735,4.08243,-20.3356,12.776,7.12502,6.01584,-17.1186,-2.93207e-15,1.39149e-14,-38.6589,8.05027,85.6287,29.265,-2.9517,-7.73615,31.7353,7.12502,18.1627,60.9073,-1.54408,1.68948,24.6689,17.9272,-12.7813,-12.1849,-12.7063,-1.68078,0.391869,-16.0484,17.5258,-12.2614,1.18754,-15.1133
0.514363,18.3428,-4.04938,1.20756,0.958215,-3.09462,5.15175,-0.0735523,0.588351,-2.77648,0.0813253,2.49196,-5.78179,0.0704217,2.25527,-16.2758,-7.80736,-17.5456,21.735,-9.5741,13.1505,11.2724,-4.40784,6.31404,-1.11816e-16,-6.36111e-15,-36.1617,-6.86407,-81.443,25.3263,4.04537,-20.3756,12.2897,7.12502,5.97723,-17.606,-1.11816e-16,-6.36111e-15,-38.7745,8.00471,85.6061,29.3645,-2.80082,-7.79837,31.7073,7.12502,18.1028,60.8849,-1.46266,1.64602,24.6476,17.8971,-12.793,-12.1475,-12.8717,-1.63176,0.360883,-16.0727,17.539,-12.2632,1.22764,-14.9797
0.516024,18.3432,-4.05077,1.19514,1.01953,-3.06786,5.10928,-0.0893777,0.58614,-2.73423,0.0569806,2.47264,-5.71205,0.0576027,2.23794,-16.4081,-7.79982,-17.613,21.8077,-9.5502,13.2357,11.33,-4.38953,6.3641,-8.10048e-15,3.77691e-14,-36.1614,-6.77816,-81.5193,25.5129,3.89735,-20.2716,11.9423,7.12502,6.07756,-17.9505,-8.10048e-15,3.77691e-14,-38.7589,8.00637,85.5857,29.483,-2.68325,-7.79006,31.5924,7.12502,18.1108,60.7692,-1.43564,1.53721,24.6013,17.8735,-12.7731,-12.0836,-13.1094,-1.64882,0.316255,-16.1067,17.5338,-12.2411,1.18904,-14.9814
0.517037,18.3452,-4.05174,1.18546,1.0437,-3.04024,5.07298,-0.0963266,0.574313,-2.67844,0.0441408,2.46336,-5.63213,0.0509591,2.23525,-16.4524,-7.80483,-17.7424,21.7816,-9.54346,13.3602,11.3426,-4.38214,6.4348,-1.63997e-15,6.75868e-15,-36.1334,-6.67619,-81.6008,25.6966,3.72296,-20.2566,11.8454,7.12502,6.09211,-18.047,-1.63997e-15,6.75868e-15,-38.7346,8.08411,85.548,29.601,-2.76524,-7.85635,31.4725,7.12502,18.0471,60.6552,-1.40091,1.49824,24.5641,17.8661,-12.8391,-12.0388,-13.0819,-1.64511,0.295154,-16.1413,17.5066,-12.202,1.18799,-14.978
0.516481,18.3452,-4.05301,1.18906,1.08843,-2.99133,5.14917,-0.109664,0.486686,-2.74428,0.0225697,2.45773,-5.74426,0.0442671,2.28225,-16.2864,-7.77328,-17.8191,21.798,-9.52716,13.4288,11.3216,-4.3805,6.48121,-1.26725e-15,1.35174e-14,-36.2565,-6.52567,-81.6692,25.7636,3.51952,-20.3869,11.7761,7.12502,5.96629,-18.1199,-1.26725e-15,1.35174e-14,-38.8895,8.13871,85.4732,29.6412,-3.01284,-8.16472,30.7676,7.12502,17.7503,59.9774,-1.3966,1.47483,24.5152,17.8566,-12.9206,-12.0525,-12.8838,-1.62886,0.273306,-16.1881,17.492,-12.2188,1.16133,-14.9584
0.516915,18.3444,-4.05467,1.17131,1.08261,-2.94255,5.20612,-0.102016,0.406636,-2.78003,0.0280695,2.44706,-5.81473,0.0503577,2.31653,-16.1153,-7.7355,-17.8227,21.7321,-9.49856,13.4365,11.2585,-4.37268,6.4899,-3.85145e-16,2.38542e-15,-36.3147,-6.51539,-81.6832,25.7497,3.43149,-20.3396,11.7772,7.12502,6.01193,-18.1175,-3.85145e-16,2.38542e-15,-38.9707,8.18916,85.3821,29.5171,-3.4386,-8.37324,29.7645,7.12502,17.5497,58.9924,-1.40286,1.50595,24.4542,17.8486,-12.9266,-12.0532,-12.7376,-1.58643,0.247723,-16.2443,17.4985,-12.2724,1.1689,-14.9226
0.519062,18.344,-4.05434,1.15227,1.01393,-2.94575,5.23444,-0.0743536,0.430552,-2.773,0.0669066,2.43983,-5.82495,0.0684922,2.2917,-16.1173,-7.73642,-17.8067,21.716,-9.48486,13.3724,11.2458,-4.37152,6.46349,-6.07536e-15,3.18055e-15,-36.3042,-6.63793,-81.6462,25.7041,3.56124,-20.1492,11.963,7.12502,6.19579,-17.9264,-6.07536e-15,3.18055e-15,-38.9285,8.25667,85.3058,29.3269,-3.95449,-8.28366,29.3428,7.12502,17.6359,58.5629,-1.37887,1.56871,24.4399,17.8435,-12.8922,-12.0112,-12.7231,-1.56444,0.258109,-16.2542,17.5207,-12.2904,1.19504,-14.8979
0.519068,18.3443,-4.05493,1.14461,1.08411,-2.98738,5.32253,-0.0954386,0.460434,-2.82081,0.0448441,2.45716,-5.92504,0.0574794,2.29653,-16.1401,-7.76297,-17.7229,21.844,-9.49831,13.1623,11.2838,-4.39347,6.36843,-5.86415e-15,-1.19271e-15,-36.3804,-6.72339,-81.5947,25.6668,3.69629,-19.9915,12.1141,7.12502,6.34807,-17.7707,-5.86415e-15,-1.19271e-15,-38.9491,8.3028,85.2671,29.2521,-4.18453,-8.10353,29.3942,7.12502,17.8092,58.5987,-1.35169,1.54391,24.4982,17.8504,-12.8603,-12.0469,-12.7509,-1.59827,0.27624,-16.1929,17.5367,-12.3051,1.09683,-15.0667
0.518019,18.3433,-4.05441,1.13621,1.06547,-3.0659,5.37337,-0.093135,0.484968,-2.87377,0.0542042,2.49352,-6.01055,0.0625719,2.32085,-16.1083,-7.75172,-17.6572,21.9255,-9.48298,13.0462,11.2947,-4.39552,6.3178,-3.73964e-15,8.34896e-15,-36.4957,-6.65769,-81.6122,25.6849,3.60161,-19.9252,12.0652,7.12502,6.41206,-17.8178,-3.73964e-15,8.34896e-15,-39.054,8.32234,85.2391,29.2888,-4.10805,-7.91835,29.5205,7.12502,17.9874,58.7087,-1.35327,1.62264,24.6118,17.8703,-12.8234,-12.1438,-12.7579,-1.59392,0.300349,-16.097,17.542,-12.313,1.12075,-15.0762
0.51928,18.3417,-4.05287,1.11309,0.961577,-3.09742,5.37446,-0.0612952,0.522174,-2.80387,0.0973812,2.48172,-5.93894,0.0815239,2.2822,-16.4608,-7.76649,-17.5105,21.9884,-9.4681,12.9751,11.3721,-4.37166,6.26435,-5.59082e-16,-2.22639e-14,-36.3994,-6.53342,-81.7725,25.7834,3.35776,-20.0066,11.8009,7.12502,6.33343,-18.0844,-5.59082e-16,-2.22639e-14,-38.9005,8.33657,85.2113,29.3024,-3.80095,-7.97767,29.3892,7.12502,17.9303,58.5827,-1.355,1.69242,24.6429,17.8875,-12.7848,-12.1756,-12.8246,-1.54697,0.318159,-16.0794,17.5425,-12.2795,1.22207,-14.9117
0.520707,18.3437,-4.05448,1.09958,0.994231,-3.04144,5.33997,-0.0794064,0.473441,-2.71684,0.0651666,2.45811,-5.82627,0.0661149,2.287,-16.6367,-7.75908,-17.4289,21.9178,-9.43026,12.934,11.3661,-4.34459,6.23544,2.78299e-15,7.55382e-15,-36.2778,-6.38591,-81.9349,25.9293,3.12418,-20.0095,11.5341,7.12502,6.33069,-18.3513,2.78299e-15,7.55382e-15,-38.7322,8.34995,85.2221,29.3738,-3.34344,-8.19571,29.1519,7.12502,17.7205,58.3644,-1.35506,1.59751,24.5659,17.9013,-12.7831,-12.1453,-12.9519,-1.54031,0.2934,-16.1503,17.5305,-12.2734,1.19928,-14.8758
0.519937,18.346,-4.0562,1.09202,1.0683,-3.04058,5.30765,-0.102517,0.424925,-2.66893,0.0298086,2.47891,-5.75616,0.0504001,2.33885,-16.5618,-7.73749,-17.494,21.7578,-9.39355,12.9911,11.2918,-4.328,6.27042,1.3418e-15,7.55382e-15,-36.2437,-6.25189,-82.013,26.037,3.00437,-19.8565,11.3739,7.12502,6.47831,-18.507,1.3418e-15,7.55382e-15,-38.6667,8.33295,85.2738,29.427,-3.04563,-8.38332,29.0665,7.12502,17.54,58.2953,-1.33451,1.5535,24.5752,17.9109,-12.8514,-12.1605,-12.9265,-1.52691,0.242492,-16.138,17.5151,-12.3128,1.14859,-14.9064
0.519733,18.3443,-4.05546,1.06134,1.10968,-3.05472,5.22946,-0.113231,0.371625,-2.63919,0.0104228,2.50231,-5.6795,0.0428014,2.39426,-16.3973,-7.69331,-17.4126,21.6435,-9.34608,12.8974,11.1983,-4.31417,6.22637,-8.88319e-15,3.97569e-15,-36.2973,-6.10924,-82.0885,26.1048,2.99941,-19.8958,11.3152,7.12502,6.44045,-18.5669,-8.88319e-15,3.97569e-15,-38.5908,8.39338,85.2713,29.2983,-3.02584,-8.46187,29.1687,7.12502,17.4644,58.4041,-1.28985,1.55263,24.5985,17.9121,-12.8877,-12.1725,-12.9202,-1.50316,0.228856,-16.1124,17.5124,-12.3616,1.10832,-15.0614
0.521371,18.3424,-4.05718,1.0539,1.10797,-3.02173,5.1105,-0.1359,0.332692,-2.39246,-0.0303397,2.51447,-5.35089,0.0213158,2.42889,-17.0775,-7.79737,-17.3253,21.7074,-9.37477,12.7909,11.3495,-4.30699,6.15619,-2.78299e-15,-1.15295e-14,-35.7789,-6.01371,-82.2168,26.0603,3.11264,-20.131,11.3343,7.12502,6.21332,-18.5546,-2.78299e-15,-1.15295e-14,-38.0322,8.57664,85.3226,29.1521,-3.03032,-8.41941,29.3208,7.12502,17.5053,58.5526,-1.29872,1.53398,24.5508,17.9184,-12.8653,-12.1434,-13.1546,-1.52818,0.252088,-16.157,17.5158,-12.3505,1.09996,-15.0393
0.523646,18.3431,-4.06204,1.05913,1.10147,-3.02036,5.08142,-0.116557,0.346359,-2.29244,-0.00686284,2.50501,-5.23039,0.0311609,2.40766,-17.2065,-7.85295,-17.3448,21.5815,-9.43162,12.8581,11.3428,-4.32077,6.16903,1.24924e-14,1.55052e-14,-35.5659,-6.10392,-82.2523,26.0688,3.21705,-20.377,11.3419,7.12502,5.97589,-18.5539,1.24924e-14,1.55052e-14,-37.7952,8.51656,85.3893,29.0893,-2.93499,-8.50282,29.0714,7.12502,17.425,58.3104,-1.33631,1.47454,24.531,17.9452,-12.8829,-12.0879,-13.2903,-1.53816,0.251508,-16.1712,17.5065,-12.2645,1.12146,-14.8924
0.526055,18.3444,-4.06642,1.05599,1.06961,-3.02526,5.21693,-0.110525,0.349591,-2.44171,0.0079566,2.51334,-5.46486,0.0405197,2.41597,-16.7334,-7.74404,-17.4816,21.4404,-9.34709,13.0049,11.1986,-4.29388,6.26704,-5.72748e-15,-1.07344e-14,-35.9252,-6.09766,-82.2301,26.256,3.23307,-20.4704,11.2024,7.12502,5.88566,-18.6959,-5.72748e-15,-1.07344e-14,-38.0974,8.52157,85.377,29.1123,-2.95754,-8.58977,28.9135,7.12502,17.3413,58.1599,-1.37393,1.41681,24.5144,17.9772,-12.8458,-12.0101,-13.3525,-1.53426,0.264423,-16.1825,17.4909,-12.1868,1.16074,-15.0309
0.527755,18.3442,-4.06995,1.05955,1.05339,-2.97378,5.31758,-0.0981341,0.298724,-2.41517,0.0213744,2.50326,-5.49505,0.0488332,2.43331,-16.9545,-7.76212,-17.5778,21.4768,-9.3501,13.1588,11.2701,-4.2791,6.34149,-2.41026e-15,9.54166e-15,-35.8742,-6.29214,-82.1856,26.3802,3.37128,-20.2739,10.8842,7.12502,6.07541,-19.0086,-2.41026e-15,9.54166e-15,-37.9788,8.50415,85.4825,29.1258,-2.87345,-8.47891,29.7822,7.12502,17.448,59.0191,-1.39543,1.4188,24.4421,18.0051,-12.8746,-11.9519,-13.1777,-1.54222,0.255228,-16.2504,17.4689,-12.1857,1.16685,-15.0747
0.530335,18.3435,-4.07216,1.06232,1.14015,-2.91584,5.25881,-0.142012,0.242547,-2.3917,-0.0431657,2.50312,-5.43422,0.0184182,2.47043,-16.929,-7.74756,-17.5858,21.4951,-9.32877,13.1426,11.2676,-4.27297,6.34132,-1.93815e-15,1.15295e-14,-35.7718,-6.42685,-82.1374,26.3019,3.4928,-20.104,10.9205,7.12502,6.23939,-18.9676,-1.93815e-15,1.15295e-14,-37.9338,8.50775,85.5781,29.1051,-2.68814,-8.28863,30.7819,7.12502,17.6311,60.0025,-1.39373,1.32508,24.3572,18.0399,-13.0014,-11.8984,-13.102,-1.53668,0.171087,-16.3242,17.4301,-12.1809,1.14184,-14.7592
0.534712,18.3426,-4.07063,1.0453,1.22753,-2.78391,5.23312,-0.171959,0.14469,-2.38875,-0.0931253,2.46291,-5.4142,-0.003761,2.48823,-17.0182,-7.74385,-17.5786,21.6326,-9.32398,13.147,11.3353,-4.26819,6.3468,1.19271e-15,6.36111e-15,-35.7309,-6.48377,-82.124,26.1755,3.52177,-20.1479,11.4691,7.12502,6.19699,-18.4202,1.19271e-15,6.36111e-15,-37.9926,8.50437,85.6076,29.1258,-2.78615,-8.27666,30.767,7.12502,17.6426,59.9866,-1.38749,1.18215,24.1802,18.0749,-12.9947,-11.8769,-13.2775,-1.48254,0.150244,-16.4878,17.3868,-12.1401,1.1043,-14.7376
0.539105,18.3424,-4.06907,1.02642,1.21568,-2.62153,5.19786,-0.155421,0.00813057,-2.33285,-0.0856616,2.40914,-5.33557,0.00287611,2.50733,-17.2664,-7.74705,-17.5719,21.7595,-9.31255,13.2019,11.4321,-4.24895,6.37106,-2.30466e-15,-1.74931e-14,-35.6695,-6.53322,-82.1302,26.1085,3.61822,-20.2277,11.987,7.12502,6.11997,-17.9046,-2.30466e-15,-1.74931e-14,-37.9438,8.53731,85.6204,29.1594,-3.02857,-8.28265,30.553,7.12502,17.6369,59.773,-1.40826,1.13373,23.9682,18.1291,-12.9181,-11.8536,-13.126,-1.3963,0.175788,-16.6901,17.3194,-12.1282,1.08433,-14.9711
0.541911,18.3424,-4.07088,1.02042,1.21645,-2.55641,5.16168,-0.163035,-0.0454762,-2.22762,-0.103054,2.39768,-5.20387,-0.00565474,2.52569,-17.6269,-7.78795,-17.5127,21.8669,-9.31227,13.1247,11.5355,-4.24014,6.32956,-4.57205e-15,-6.75868e-15,-35.4812,-6.50282,-82.1855,26.0947,3.67847,-20.1948,12.1936,7.12502,6.15173,-17.6971,-4.57205e-15,-6.75868e-15,-37.7932,8.64648,85.6644,29.2896,-3.09089,-8.07326,30.9593,7.12502,17.8383,60.1611,-1.45261,1.07277,23.8773,18.2114,-12.8486,-11.8081,-13.0938,-1.32836,0.151998,-16.7763,17.2168,-12.1058,1.06733,-14.9242
0.54352,18.342,-4.07208,1.01303,1.27734,-2.42372,5.19633,-0.192484,-0.167499,-2.17857,-0.153541,2.36484,-5.1698,-0.0277163,2.56481,-17.809,-7.83384,-17.5053,21.8999,-9.34362,13.0991,11.5877,-4.25012,6.31117,-6.59717e-15,-5.96354e-15,-35.3961,-6.38442,-82.2833,26.1931,3.56954,-20.0677,12.1597,7.12502,6.27442,-17.7274,-6.59717e-15,-5.96354e-15,-37.7619,8.67926,85.7219,29.4847,-2.96282,-7.85045,31.571,7.12502,18.0527,60.7532,-1.47495,0.965198,23.7197,18.2864,-12.8255,-11.7673,-13.401,-1.28026,0.143928,-16.9255,17.1315,-12.1418,0.999065,-14.8559
0.546646,18.3433,-4.07169,0.997476,1.25836,-2.3193,5.25126,-0.179465,-0.244437,-2.21537,-0.142999,2.31413,-5.23997,-0.020037,2.55528,-17.6111,-7.84672,-17.424,21.8283,-9.39007,13.0053,11.5202,-4.28084,6.2516,1.24799e-14,-2.5842e-14,-35.5418,-6.33596,-82.3538,26.3601,3.46608,-19.9164,12.0435,7.12502,6.42049,-17.8392,1.24799e-14,-2.5842e-14,-37.8844,8.60758,85.738,29.5596,-2.87522,-7.71366,31.591,7.12502,18.1843,60.761,-1.48927,0.944891,23.5809,18.3221,-12.8595,-11.7183,-13.5827,-1.25196,0.155715,-17.0582,17.116,-12.1905,1.01504,-14.9958
0.550006,18.3441,-4.07302,0.974803,1.18921,-2.38677,5.34506,-0.156218,-0.147109,-2.27844,-0.102804,2.30598,-5.36148,-0.0023013,2.48962,-17.4441,-7.84647,-17.3178,21.8199,-9.42059,12.8941,11.4772,-4.30385,6.18623,-2.3792e-15,3.37934e-14,-35.6904,-6.35166,-82.388,26.4503,3.41324,-19.7163,11.7454,7.12502,6.61366,-18.1314,-2.3792e-15,3.37934e-14,-38.0556,8.50478,85.7549,29.5787,-2.85651,-7.79718,30.8446,7.12502,18.104,60.0221,-1.48327,1.01045,23.6366,18.3286,-12.9356,-11.6801,-13.424,-1.2387,0.135446,-17.007,17.1436,-12.146,1.1091,-15.1511
0.552035,18.343,-4.07726,0.997799,1.11661,-2.51796,5.37767,-0.145395,-0.00797871,-2.2966,-0.0755316,2.33505,-5.40047,0.00726776,2.43935,-17.5331,-7.82469,-17.2965,21.9079,-9.3856,12.8852,11.5197,-4.28506,6.1875,1.10885e-14,1.98785e-15,-35.6449,-6.32291,-82.434,26.4247,3.30434,-19.5523,11.3006,7.12502,6.77203,-18.5711,1.10885e-14,1.98785e-15,-38.094,8.4426,85.8189,29.6135,-2.86086,-7.95169,30.4099,7.12502,17.9553,59.6011,-1.50852,1.09543,23.7745,18.3238,-12.9849,-11.6408,-13.0611,-1.29531,0.13256,-16.8749,17.189,-12.1107,1.18566,-15.0172
0.554176,18.3418,-4.07901,1.03427,0.97001,-2.59049,5.30889,-0.101767,0.0465289,-2.25548,-0.0130822,2.37043,-5.32088,0.0362038,2.43831,-17.6753,-7.82116,-17.4036,21.9825,-9.35572,12.9797,11.5821,-4.26603,6.24944,-1.01442e-14,-8.34896e-15,-35.5698,-6.22723,-82.4655,26.4087,3.21914,-19.5685,11.4027,7.12502,6.75637,-18.4695,-1.01442e-14,-8.34896e-15,-37.9916,8.3863,85.9698,29.6562,-2.66446,-7.81588,31.0544,7.12502,18.086,60.2335,-1.55617,1.22874,23.8525,18.292,-12.8967,-11.6394,-13.0207,-1.38494,0.209691,-16.8091,17.2839,-12.1582,1.2715,-14.8839
0.557109,18.3422,-4.07847,1.07644,0.877976,-2.58759,5.21876,-0.0769184,0.0432801,-2.22195,0.0183584,2.37955,-5.23571,0.051322,2.44552,-17.6994,-7.83112,-17.4939,21.9522,-9.35784,13.0607,11.5857,-4.26452,6.29504,-1.07282e-14,4.77083e-15,-35.5768,-6.15706,-82.4987,26.4547,3.2157,-19.6815,11.7588,7.12502,6.6473,-18.1169,-1.07282e-14,4.77083e-15,-37.9921,8.26576,86.1399,29.7942,-2.29122,-7.67406,31.6724,7.12502,18.2224,60.8388,-1.60383,1.31173,23.8457,18.2531,-12.7914,-11.6802,-13.2565,-1.4934,0.273664,-16.83,17.3921,-12.209,1.32975,-14.9551
0.559905,18.3444,-4.08052,1.13495,0.94093,-2.6779,5.14934,-0.118907,0.167683,-2.23851,-0.0282008,2.4026,-5.21152,0.0243807,2.40354,-17.5585,-7.80787,-17.4948,21.8359,-9.33588,13.0521,11.5096,-4.25933,6.29302,4.84538e-16,2.06736e-14,-35.612,-6.07704,-82.5802,26.5374,3.13369,-19.7849,11.6212,7.12502,6.54744,-18.2576,4.84538e-16,2.06736e-14,-38.1653,8.26895,86.1638,29.9487,-2.46484,-7.48936,31.6247,7.12502,18.4001,60.7745,-1.67162,1.28232,23.9403,18.2455,-12.793,-11.7186,-13.3304,-1.62101,0.272523,-16.7352,17.458,-12.1551,1.30328,-15.0683
0.562386,18.3448,-4.08444,1.1554,0.980989,-2.72505,5.10513,-0.152644,0.234965,-2.18641,-0.0698626,2.41148,-5.13014,0.000887437,2.37789,-17.6402,-7.79705,-17.5013,21.8072,-9.32375,13.1365,11.5177,-4.24188,6.32763,-4.37326e-15,1.55052e-14,-35.4709,-5.98722,-82.6981,26.5437,2.97307,-19.794,11.3099,7.12502,6.53871,-18.5691,-4.37326e-15,1.55052e-14,-38.1,8.39196,86.146,29.8783,-2.76143,-7.34657,31.3642,7.12502,18.5375,60.5009,-1.72509,1.26056,23.9833,18.2644,-12.7896,-11.7386,-13.507,-1.67347,0.272278,-16.6858,17.4837,-12.1042,1.25765,-15.3501
0.564257,18.3451,-4.0889,1.16216,0.895793,-2.78439,5.10492,-0.138411,0.281645,-2.11858,-0.0477767,2.4372,-5.06004,0.0100261,2.37555,-17.8314,-7.8128,-17.5063,21.8023,-9.32646,13.1982,11.5577,-4.22967,6.34974,6.26793e-15,-7.55382e-15,-35.3116,-5.88123,-82.7969,26.5728,2.80316,-19.746,11.0402,7.12502,6.58503,-18.8374,6.26793e-15,-7.55382e-15,-37.9255,8.45505,86.2252,29.7361,-2.74393,-7.49961,30.939,7.12502,18.3903,60.0897,-1.7809,1.33394,24.0446,18.2731,-12.7203,-11.7489,-13.7981,-1.69358,0.33999,-16.6238,17.4979,-12.1415,1.24608,-15.6371
0.565693,18.3469,-4.08954,1.13409,0.812139,-2.8813,5.17755,-0.122694,0.36415,-2.15183,-0.016305,2.48708,-5.13759,0.0243611,2.37906,-17.675,-7.80038,-17.5104,21.6984,-9.29672,13.0935,11.4767,-4.23238,6.31199,9.42985e-15,1.19271e-15,-35.3997,-5.7372,-82.8337,26.6569,2.6372,-19.7769,10.8695,7.12502,6.55523,-19.0091,9.42985e-15,1.19271e-15,-38.023,8.46082,86.3247,29.707,-2.72947,-7.70515,30.5602,7.12502,18.1925,59.7294,-1.76764,1.41403,24.1552,18.2728,-12.7103,-11.7649,-13.9372,-1.65798,0.39807,-16.5217,17.4957,-12.1499,1.263,-15.6211
0.567045,18.3468,-4.08514,1.08809,0.812242,-2.78804,5.26848,-0.133397,0.259603,-2.22382,-0.0355316,2.47631,-5.26399,0.0192008,2.43019,-17.5526,-7.76881,-17.4922,21.7519,-9.25491,12.986,11.458,-4.22884,6.27754,-2.88859e-15,-2.38542e-14,-35.5693,-5.58753,-82.8725,26.683,2.42226,-19.87,10.8309,7.12502,6.46527,-19.0505,-2.88859e-15,-2.38542e-14,-38.2541,8.38241,86.433,29.7548,-2.45539,-7.98147,30.2389,7.12502,17.9267,59.4327,-1.6884,1.43871,24.0512,18.2801,-12.755,-11.7771,-13.7808,-1.5741,0.407274,-16.6324,17.4674,-12.1179,1.262,-15.312
0.565033,18.3453,-4.08285,1.04475,0.866553,-2.71209,5.29373,-0.152397,0.135573,-2.21872,-0.0702618,2.46865,-5.27154,0.00611767,2.49565,-17.6493,-7.7606,-17.4966,21.9133,-9.25146,13.0279,11.5398,-4.22171,6.30076,9.15031e-15,9.54166e-15,-35.6838,-5.40593,-82.9448,26.7886,2.18973,-19.9733,10.9476,7.12502,6.36563,-18.9367,9.15031e-15,9.54166e-15,-38.3926,8.23655,86.5792,29.8738,-2.24366,-8.18686,30.025,7.12502,17.729,59.2368,-1.61355,1.57988,24.0041,18.2844,-12.7966,-11.949,-13.2359,-1.51337,0.426409,-16.6914,17.4353,-12.0926,1.18603,-14.867
0.563429,18.3449,-4.08123,0.998242,0.839314,-2.73147,5.27503,-0.141901,0.106588,-2.15733,-0.0591208,2.48733,-5.1971,0.0121462,2.52949,-17.7003,-7.75744,-17.5403,21.916,-9.25529,13.1388,11.5603,-4.21323,6.35113,1.0312e-14,-2.14687e-14,-35.7132,-5.31866,-82.9884,26.9001,2.19531,-20.0617,11.3116,7.12502,6.28022,-18.5753,1.0312e-14,-2.14687e-14,-38.3968,8.16798,86.6952,29.9611,-2.45751,-7.97637,30.2256,7.12502,17.9316,59.419,-1.56177,1.7644,24.0642,18.2696,-12.7984,-12.1302,-12.9509,-1.46991,0.414012,-16.6533,17.4635,-12.1403,1.20454,-14.8105
0.565665,18.3445,-4.07979,0.987987,0.726384,-2.77226,5.36894,-0.106531,0.134957,-2.2058,-0.00598367,2.51038,-5.30379,0.0388957,2.53378,-17.6439,-7.74629,-17.5654,21.9259,-9.24423,13.1429,11.5526,-4.21215,6.36023,4.95719e-15,-1.35174e-14,-35.8194,-5.33259,-82.9782,26.9391,2.34545,-20.1217,11.3923,7.12502,6.22233,-18.4964,4.95719e-15,-1.35174e-14,-38.5169,8.14008,86.7805,30.0131,-2.81275,-7.59996,30.3467,7.12502,18.2937,59.5065,-1.56332,1.7944,24.0971,18.2463,-12.7431,-12.0857,-13.2793,-1.48607,0.435725,-16.6264,17.5655,-12.2456,1.30292,-15.1949
0.566702,18.3436,-4.08246,1.01534,0.65154,-2.91357,5.43608,-0.0878717,0.250768,-2.24663,0.0330983,2.57436,-5.38673,0.056185,2.53245,-17.6582,-7.74384,-17.5611,22.0084,-9.22459,13.0607,11.5781,-4.21242,6.33335,-9.13167e-16,-7.95139e-16,-35.9028,-5.32027,-82.9564,27.0466,2.37016,-20.0335,11.0102,7.12502,6.30751,-18.8758,-9.13167e-16,-7.95139e-16,-38.66,8.01239,86.9704,30.2252,-2.73872,-7.60895,30.6379,7.12502,18.2851,59.7985,-1.61163,1.87061,24.2574,18.2482,-12.7114,-12.1088,-13.6395,-1.56571,0.519541,-16.4681,17.6689,-12.3301,1.29877,-15.4597
0.566991,18.3433,-4.08746,1.0524,0.683448,-3.01051,5.39685,-0.109076,0.327606,-2.21755,0.0115508,2.62137,-5.33307,0.0432694,2.53969,-17.7226,-7.74331,-17.5573,22.0232,-9.20684,13.0336,11.5914,-4.20482,6.32481,-6.36732e-15,-2.10712e-14,-35.8451,-5.28577,-82.9569,27.1234,2.2747,-19.909,10.8784,7.12502,6.42766,-19.0041,-6.36732e-15,-2.10712e-14,-38.6752,7.8394,87.1921,30.4011,-2.19089,-7.82141,31.2935,7.12502,18.0807,60.4732,-1.66902,1.96327,24.3838,18.2692,-12.7425,-12.2365,-13.6537,-1.68216,0.516994,-16.348,17.763,-12.3344,1.25574,-15.1267
0.567857,18.3434,-4.09106,1.07093,0.755598,-2.93899,5.42955,-0.149562,0.227887,-2.26378,-0.0483419,2.62378,-5.39766,0.0177595,2.60527,-17.6625,-7.70793,-17.5479,22.0367,-9.16483,13.0113,11.5751,-4.18992,6.32327,-2.23633e-16,-7.15625e-15,-35.8971,-5.13598,-82.989,27.0803,2.18484,-20.0219,11.1135,7.12502,6.31865,-18.7723,-2.23633e-16,-7.15625e-15,-38.813,7.77962,87.3047,30.4144,-1.94517,-8.0119,31.0883,7.12502,17.8974,60.2847,-1.70039,1.97325,24.3121,18.3062,-12.7773,-12.2923,-13.4331,-1.78594,0.477798,-16.425,17.854,-12.2679,1.23026,-14.606
0.569706,18.3426,-4.08939,1.07112,0.768521,-2.88053,5.46053,-0.172018,0.147232,-2.30589,-0.0826366,2.63165,-5.45797,0.00441017,2.66328,-17.5626,-7.67367,-17.5229,22.0165,-9.11482,12.9228,11.5322,-4.17822,6.29326,-1.1368e-14,-1.90833e-14,-35.9427,-4.98071,-83.0186,26.9376,2.17254,-20.2949,11.4878,7.12502,6.05511,-18.4057,-1.1368e-14,-1.90833e-14,-38.9741,7.84961,87.3332,30.3402,-2.39369,-8.1054,29.9446,7.12502,17.8074,59.1493,-1.72761,1.96395,24.2442,18.3888,-12.8268,-12.2841,-13.32,-1.80201,0.499258,-16.4907,17.8913,-12.3157,1.18949,-14.6848
0.571561,18.3415,-4.09073,1.10458,0.761084,-2.91098,5.45894,-0.157855,0.199768,-2.29126,-0.0604194,2.62372,-5.44272,0.0132112,2.62292,-17.4917,-7.68782,-17.5177,21.8649,-9.14276,12.9506,11.4675,-4.18783,6.29331,-1.04921e-14,2.06736e-14,-35.8387,-5.08791,-83.0128,26.7763,2.22093,-20.4298,11.7785,7.12502,5.92485,-18.1187,-1.04921e-14,2.06736e-14,-38.9195,7.84506,87.3564,30.2154,-2.95155,-7.88179,29.1413,7.12502,18.0226,58.3262,-1.8209,1.97033,24.2709,18.4696,-12.8761,-12.3085,-13.4255,-1.84484,0.519699,-16.4617,17.8986,-12.3619,1.16685,-15.0156
0.571414,18.3403,-4.09619,1.14921,0.764417,-2.86239,5.45573,-0.144774,0.140148,-2.26269,-0.0494551,2.60006,-5.41133,0.0199157,2.63032,-17.5379,-7.70043,-17.502,21.7814,-9.16685,13.0157,11.4522,-4.1875,6.30824,-1.69526e-14,2.62396e-14,-35.805,-5.12512,-83.0492,26.8383,2.19109,-20.4224,11.6851,7.12502,5.93198,-18.2119,-1.69526e-14,2.62396e-14,-38.7944,7.67448,87.5179,30.2537,-2.68572,-7.73138,29.493,7.12502,18.1673,58.6646,-1.92574,2.02641,24.2255,18.5114,-12.8606,-12.3741,-13.4315,-1.93199,0.529104,-16.5127,17.9294,-12.2979,1.15585,-15.3209
0.572482,18.3396,-4.09413,1.12329,0.75521,-2.8875,5.43575,-0.167798,0.151293,-2.2516,-0.0784813,2.62989,-5.38705,0.0054863,2.65777,-17.502,-7.67097,-17.5265,21.7753,-9.12062,13.007,11.4353,-4.17084,6.31745,-1.8692e-14,-6.36111e-15,-35.8821,-4.98507,-83.0847,26.8966,2.16465,-20.3604,11.3234,7.12502,5.99184,-18.5718,-1.8692e-14,-6.36111e-15,-38.8217,7.59975,87.6944,30.2991,-2.10021,-8.04467,29.9583,7.12502,17.8659,59.1576,-1.91941,2.07117,24.2601,18.5583,-12.8698,-12.4044,-13.3967,-1.89055,0.515497,-16.4781,17.9486,-12.298,1.13674,-15.283
0.576987,18.3401,-4.09124,1.10284,0.743539,-2.94896,5.45368,-0.194433,0.240526,-2.28683,-0.104186,2.66735,-5.43326,-0.00915432,2.64982,-17.2907,-7.62223,-17.6386,21.6812,-9.06871,13.0867,11.3598,-4.15462,6.37638,7.17488e-15,-2.90226e-14,-35.9991,-4.95867,-83.042,26.8695,2.29341,-20.1221,10.9033,7.12502,6.22196,-18.9854,7.17488e-15,-2.90226e-14,-38.9546,7.74673,87.7171,30.1941,-2.27831,-8.18197,29.567,7.12502,17.7337,58.7783,-1.91035,2.03262,24.2982,18.6299,-12.9967,-12.3255,-13.0252,-1.83907,0.51216,-16.4254,17.9299,-12.3168,1.13155,-14.9309
0.583331,18.3406,-4.09474,1.12406,0.774078,-2.79217,5.45661,-0.202847,0.137652,-2.2697,-0.126222,2.61848,-5.41574,-0.0175996,2.65878,-17.2521,-7.62638,-17.6579,21.5859,-9.08091,13.1384,11.3227,-4.15629,6.39466,1.50331e-15,2.90226e-14,-36.029,-5.08873,-82.9933,26.9583,2.43223,-19.8893,10.7347,7.12502,6.4467,-19.1472,1.50331e-15,2.90226e-14,-38.895,7.79915,87.7481,30.0203,-2.89255,-7.79182,29.4137,7.12502,18.1091,58.5907,-1.96074,1.86648,24.0639,18.6919,-13.1124,-12.1462,-12.4099,-1.86278,0.499192,-16.6405,17.8989,-12.3023,1.1617,-15.0096
0.588851,18.3397,-4.09556,1.11904,0.750676,-2.61401,5.4362,-0.188241,0.00492446,-2.22836,-0.121151,2.55934,-5.36071,-0.0122236,2.67057,-17.2834,-7.65434,-17.613,21.5816,-9.11306,13.0829,11.3276,-4.17182,6.35874,-2.29845e-15,-7.15625e-15,-36.0162,-5.22138,-82.9541,26.9502,2.51119,-19.9444,11.1627,7.12502,6.3935,-18.7208,-2.29845e-15,-7.15625e-15,-38.819,7.66221,87.8787,29.9395,-3.19897,-7.62271,29.5762,7.12502,18.2718,58.738,-1.98102,1.75221,23.8277,18.7616,-13.1101,-12.0125,-12.5481,-1.80664,0.477277,-16.8755,17.8447,-12.3492,1.23209,-15.3975
0.593183,18.339,-4.09159,1.10655,0.615553,-2.57788,5.39818,-0.147722,-0.0258472,-2.22164,-0.0699683,2.56051,-5.33435,0.0139726,2.6836,-17.206,-7.65913,-17.5991,21.5674,-9.1198,13.0198,11.3042,-4.1831,6.33069,-7.8023e-15,-1.66979e-14,-36.0462,-5.27798,-82.9132,26.8569,2.57157,-20.0639,11.8493,7.12502,6.27811,-18.0376,-7.8023e-15,-1.66979e-14,-38.9363,7.59442,88.0036,30.0783,-3.15339,-7.80896,29.3359,7.12502,18.0926,58.5144,-2.00414,1.78191,23.769,18.8654,-13.0679,-11.9383,-13.0252,-1.72488,0.514885,-16.9403,17.7882,-12.3837,1.31086,-15.4246
0.595315,18.3389,-4.08833,1.09466,0.536772,-2.62552,5.38348,-0.122037,-0.00747085,-2.23907,-0.0320144,2.60087,-5.34614,0.0330969,2.71171,-17.0767,-7.66016,-17.6228,21.5086,-9.12872,13.0054,11.2592,-4.19455,6.32694,1.52816e-15,0,-36.1421,-5.28868,-82.8863,26.9583,2.61226,-20.0735,11.9556,7.12502,6.2689,-17.9316,1.52816e-15,0,-39.0995,7.55646,88.138,30.2441,-2.89306,-7.88927,29.1713,7.12502,18.0154,58.357,-2.04674,1.82513,23.8128,18.9594,-13.0704,-11.9379,-13.3204,-1.714,0.557218,-16.8974,17.7771,-12.3405,1.33727,-15.169
0.59416,18.3379,-4.08938,1.09401,0.608837,-2.63726,5.43311,-0.148071,-0.0406813,-2.27741,-0.0661808,2.63186,-5.41313,0.0186874,2.76721,-17.0546,-7.63895,-17.6823,21.5493,-9.10637,13.0701,11.2729,-4.18383,6.36848,1.10636e-14,-1.35174e-14,-36.3304,-5.19991,-82.9093,27.2388,2.55666,-20.1187,11.7642,7.12502,6.2252,-18.1244,1.10636e-14,-1.35174e-14,-39.2224,7.42881,88.3083,30.3519,-2.59733,-7.87347,29.2629,7.12502,18.0306,58.4472,-2.0994,1.85938,23.843,19.0428,-13.1571,-12.0379,-13.4075,-1.72305,0.594283,-16.8624,17.768,-12.3472,1.22017,-14.9684
0.593416,18.3367,-4.09275,1.08786,0.667939,-2.59281,5.51351,-0.172998,-0.101701,-2.28378,-0.102965,2.6312,-5.46388,0.00306567,2.80559,-17.1484,-7.62542,-17.7229,21.6174,-9.08301,13.1393,11.3184,-4.16676,6.40831,-7.45443e-16,-6.36111e-15,-36.4875,-4.9972,-83.0138,27.6084,2.24955,-20.0618,11.6024,7.12502,6.28017,-18.2846,-7.45443e-16,-6.36111e-15,-39.1737,7.36196,88.4201,30.3359,-2.54875,-7.69851,29.495,7.12502,18.1989,58.6636,-2.16385,1.93496,23.8156,19.156,-13.2075,-12.1816,-13.3915,-1.70449,0.635906,-16.8915,17.7384,-12.4041,1.10601,-14.8063
0.595533,18.3356,-4.09308,1.06233,0.657233,-2.4053,5.61126,-0.156817,-0.285771,-2.27717,-0.096849,2.58802,-5.51288,0.0121832,2.86467,-17.2405,-7.66586,-17.742,21.6243,-9.1196,13.1403,11.347,-4.18152,6.40447,5.05037e-15,2.38542e-15,-36.6353,-4.73098,-83.1485,28.1111,1.7675,-19.8582,11.0789,7.12502,6.47675,-18.8021,5.05037e-15,2.38542e-15,-39.0843,7.25354,88.5603,30.2991,-2.48825,-7.60456,29.6582,7.12502,18.2893,58.8184,-2.22114,1.96203,23.6066,19.296,-13.2157,-12.2488,-13.602,-1.68837,0.624757,-17.1141,17.7288,-12.4104,1.14129,-15.0081
0.601731,18.3337,-4.09178,1.05154,0.674832,-2.16745,5.65875,-0.142764,-0.46421,-2.26917,-0.0960621,2.50682,-5.53142,0.0174778,2.88078,-17.2579,-7.67687,-17.7492,21.5452,-9.13358,13.1814,11.326,-4.1823,6.41606,-6.71519e-15,1.78906e-14,-36.7788,-4.47343,-83.3102,28.6141,1.19275,-19.6381,10.5413,7.12502,6.68921,-19.333,-6.71519e-15,1.78906e-14,-39.1825,7.00617,88.7412,30.551,-2.26374,-7.63006,29.4588,7.12502,18.2648,58.6213,-2.273,1.81605,23.2987,19.4344,-13.3245,-12.1268,-13.6936,-1.67806,0.537273,-17.4216,17.7342,-12.3564,1.22818,-15.4384
0.611603,18.3296,-4.09038,1.0233,0.740214,-2.1429,5.67114,-0.161181,-0.348134,-2.21135,-0.114966,2.45924,-5.47676,0.00213475,2.76682,-17.2858,-7.66969,-17.8215,21.4223,-9.13098,13.3527,11.2986,-4.1661,6.49143,-9.81499e-16,-1.94809e-14,-36.7551,-4.29574,-83.4757,28.8813,0.750221,-19.4545,10.3864,7.12502,6.86647,-19.4823,-9.81499e-16,-1.94809e-14,-39.3324,6.79322,88.8791,31.0016,-2.22779,-7.42936,29.1209,7.12502,18.4578,58.2652,-2.27743,1.52712,23.1949,19.5489,-13.4706,-11.8948,-13.5763,-1.6284,0.445694,-17.5028,17.7522,-12.311,1.27096,-15.6005
0.619094,18.3252,-4.08811,1.01097,0.758239,-2.19356,5.71582,-0.171754,-0.184733,-2.17285,-0.117101,2.44612,-5.46188,-0.00530695,2.66108,-17.4011,-7.70929,-17.8153,21.3715,-9.16509,13.3588,11.3085,-4.17541,6.4831,1.02871e-14,1.43125e-14,-36.6915,-4.13591,-83.6079,28.9328,0.782998,-19.7246,10.9649,7.12502,6.60564,-18.9121,1.02871e-14,1.43125e-14,-39.431,6.55453,89.0789,31.459,-1.96224,-7.35188,29.2297,7.12502,18.5324,58.3669,-2.26185,1.31628,23.1912,19.6198,-13.6226,-11.6833,-13.1765,-1.63754,0.41345,-17.4852,17.8362,-12.3474,1.31199,-15.6273
0.621143,18.3232,-4.08513,0.998635,0.728478,-2.24374,5.77386,-0.172745,-0.114516,-2.21773,-0.110321,2.46266,-5.54253,-0.00318042,2.63924,-17.3199,-7.68814,-17.7776,21.3266,-9.13943,13.2955,11.2655,-4.16985,6.45541,1.24862e-15,-2.22639e-14,-36.8718,-3.78021,-83.7745,29.1391,0.932033,-20.1445,11.3811,7.12502,6.20031,-18.5081,1.24862e-15,-2.22639e-14,-39.6305,6.23035,89.351,31.9874,-1.26208,-7.2842,30.303,7.12502,18.5975,59.434,-2.23675,1.3177,23.2346,19.6526,-13.7589,-11.613,-12.6152,-1.69526,0.425809,-17.4353,17.9859,-12.4399,1.33119,-15.4745
0.620938,18.3227,-4.08153,0.959238,0.72386,-2.3168,5.73825,-0.176779,-0.0594879,-2.17478,-0.111208,2.49095,-5.47717,-0.00579482,2.63694,-17.3429,-7.66471,-17.7844,21.3094,-9.11129,13.3461,11.2614,-4.15116,6.48061,-1.69588e-14,1.19271e-14,-36.9092,-3.44008,-83.9797,29.5025,0.822042,-19.9408,10.7025,7.12502,6.39701,-19.1809,-1.69588e-14,1.19271e-14,-39.7016,5.91216,89.5927,32.5221,-0.784843,-7.14682,31.3023,7.12502,18.7296,60.4206,-2.19759,1.36281,23.328,19.6728,-13.762,-11.6515,-12.5652,-1.73159,0.477929,-17.3384,18.1432,-12.5178,1.26085,-15.0948
0.619525,18.3207,-4.08058,0.932174,0.737462,-2.37133,5.71092,-0.168042,-0.0170398,-2.04324,-0.0991559,2.49483,-5.32424,-0.00316379,2.61387,-17.727,-7.72508,-17.7047,21.3907,-9.15473,13.3319,11.3695,-4.15254,6.45199,2.40405e-15,-1.03368e-14,-36.7347,-3.32242,-84.165,29.8906,0.536021,-19.4911,10.2828,7.12502,6.83109,-19.587,2.40405e-15,-1.03368e-14,-39.5627,5.53922,89.8307,32.9481,-0.596796,-7.50516,31.0668,7.12502,18.3849,60.218,-2.18834,1.42149,23.4189,19.7058,-13.6312,-11.7668,-13.1362,-1.78741,0.537221,-17.2556,18.282,-12.5766,1.18161,-14.9781
0.61777,18.3174,-4.08309,0.896746,0.731661,-2.44725,5.77295,-0.159819,0.0293976,-1.95948,-0.0841242,2.52055,-5.2726,0.00231831,2.61261,-18.0522,-7.77545,-17.6496,21.4579,-9.18114,13.2981,11.4581,-4.15234,6.42299,-2.6867e-15,8.74653e-15,-36.7962,-3.1299,-84.3285,30.4713,0.252373,-19.3754,10.7846,7.12502,6.94274,-19.0816,-2.6867e-15,8.74653e-15,-39.5237,5.09372,90.1287,33.4241,-0.494421,-7.94914,30.5784,7.12502,17.9578,59.7694,-2.20436,1.55461,23.5414,19.7748,-13.586,-11.9086,-13.471,-1.83671,0.530766,-17.1576,18.4144,-12.643,1.20144,-15.1451
0.618632,18.3142,-4.08489,0.839754,0.781169,-2.40713,5.82473,-0.173772,-0.0240675,-1.87324,-0.107809,2.52671,-5.21065,-0.00850614,2.65109,-18.2836,-7.82155,-17.5104,21.4363,-9.19479,13.1142,11.4794,-4.15801,6.31976,7.83646e-15,-5.1684e-15,-36.9342,-2.73071,-84.5617,31.1816,-0.0105284,-19.67,11.2777,7.12502,6.6584,-18.5977,7.83646e-15,-5.1684e-15,-39.5329,4.70961,90.4282,34.0304,-0.478533,-7.90424,30.8412,7.12502,18.001,60.0281,-2.19436,1.59144,23.51,19.8737,-13.7108,-11.981,-13.451,-1.82873,0.459909,-17.2067,18.5109,-12.6995,1.23685,-15.2553
0.621803,18.3093,-4.08245,0.744039,0.81918,-2.30081,5.87321,-0.183702,-0.0964342,-1.73346,-0.130893,2.49037,-5.09075,-0.02002,2.65512,-18.641,-7.85454,-17.3013,21.4162,-9.18354,12.9109,11.5159,-4.14442,6.20014,2.13072e-15,1.98785e-14,-37.044,-2.15586,-84.9214,32.0828,-0.435041,-19.974,11.1384,7.12502,6.36496,-18.746,2.13072e-15,1.98785e-14,-39.5043,4.27093,90.725,34.7145,-0.247732,-7.79294,31.3443,7.12502,18.1081,60.5214,-2.10143,1.55339,23.3815,19.973,-13.7941,-11.9764,-13.5839,-1.72276,0.410151,-17.3459,18.5488,-12.7236,1.26847,-15.1756
0.625781,18.306,-4.07617,0.666129,0.77292,-2.25398,5.86278,-0.188935,-0.105327,-1.67979,-0.141215,2.46239,-5.02818,-0.0261486,2.63123,-18.6363,-7.75354,-17.2376,21.3359,-9.05593,12.9296,11.459,-4.07866,6.21708,5.54423e-15,-1.74931e-14,-37.4592,-1.52552,-85.2804,33.161,-0.996658,-20.0379,10.9569,7.12502,6.30325,-18.9294,5.54423e-15,-1.74931e-14,-39.7457,3.68587,91.0605,35.5648,0.217344,-7.82305,31.7087,7.12502,18.0791,60.8885,-2.00041,1.5409,23.3087,20.0457,-13.8504,-11.8901,-13.4565,-1.6262,0.370223,-17.4295,18.579,-12.7259,1.36372,-15.1709
0.627289,18.3061,-4.07026,0.654899,0.82337,-2.2284,5.78802,-0.210568,-0.112016,-1.60757,-0.173605,2.45169,-4.9087,-0.0435402,2.62543,-18.8391,-7.72725,-17.2231,21.3692,-9.00312,12.9813,11.5034,-4.04099,6.24355,1.08749e-14,1.27222e-14,-37.6286,-1.11454,-85.5498,33.9713,-1.53143,-20.0403,10.6405,7.12502,6.30089,-19.2458,1.08749e-14,1.27222e-14,-39.8658,3.08935,91.4262,36.4663,0.600265,-7.77406,32.0397,7.12502,18.1262,61.2151,-1.96749,1.52956,23.2828,20.063,-13.9315,-11.9221,-13.228,-1.6413,0.328726,-17.4604,18.6316,-12.7716,1.35402,-15.1388
0.624647,18.3052,-4.06795,0.634878,0.854375,-2.35201,5.76605,-0.229037,-0.0411099,-1.58767,-0.190685,2.51249,-4.87479,-0.0535421,2.65004,-18.8335,-7.67342,-17.2556,21.3441,-8.93242,13.0488,11.4855,-4.00419,6.28785,-1.82831e-14,1.59028e-15,-37.7497,-0.752476,-85.7772,34.6014,-1.8884,-19.8746,9.98737,7.12502,6.46092,-19.8941,-1.82831e-14,1.59028e-15,-40.0742,2.64881,91.7298,37.3027,0.829918,-7.8876,31.889,7.12502,18.017,61.0745,-1.93909,1.67471,23.464,20.0296,-13.9268,-12.1472,-13.2181,-1.64874,0.351784,-17.2963,18.6761,-12.8363,1.29386,-15.0576
0.622448,18.3037,-4.06697,0.575271,0.810095,-2.50016,5.83651,-0.236828,0.0389064,-1.5937,-0.190646,2.57881,-4.92131,-0.0544844,2.67494,-18.6185,-7.55154,-17.2261,21.1666,-8.78472,13.0378,11.3481,-3.94167,6.30058,-1.51371e-14,3.57812e-14,-37.9814,-0.297212,-86.0452,35.306,-2.0677,-19.802,10.0438,7.12502,6.53094,-19.8355,-1.51371e-14,3.57812e-14,-40.3207,2.27595,91.9779,37.9996,0.993501,-8.11727,31.5748,7.12502,17.796,60.7805,-1.86168,1.88665,23.6723,19.9748,-13.8586,-12.3237,-13.0853,-1.58636,0.335049,-17.1163,18.7164,-12.8563,1.32927,-15.1859
0.62257,18.3043,-4.06763,0.540578,0.775321,-2.46271,5.8904,-0.236049,-0.0277568,-1.54047,-0.194947,2.58337,-4.89594,-0.0550588,2.71768,-18.6803,-7.54977,-17.1258,21.0553,-8.7408,12.8515,11.2951,-3.93026,6.21268,-2.47724e-15,-1.47101e-14,-38.118,0.233824,-86.3498,36.2208,-2.31347,-19.7728,9.86725,7.12502,6.55914,-20.0112,-2.47724e-15,-1.47101e-14,-40.3986,1.7338,92.3181,38.7379,1.49489,-8.21268,31.8405,7.12502,17.7042,61.0546,-1.79862,1.98475,23.6423,19.9193,-13.8258,-12.344,-12.8981,-1.58437,0.257771,-17.1667,18.7874,-12.9101,1.41091,-15.2819
0.626053,18.3058,-4.06737,0.530672,0.731723,-2.38218,5.88042,-0.21859,-0.078051,-1.47436,-0.178299,2.55803,-4.82192,-0.0467043,2.71704,-18.8119,-7.59492,-17.0386,20.9694,-8.75663,12.6878,11.2779,-3.94244,6.1257,-6.59251e-15,-5.96354e-15,-38.2889,0.710013,-86.6327,37.3436,-2.68337,-19.5477,9.0917,7.12502,6.77642,-20.7799,-6.59251e-15,-5.96354e-15,-40.5129,1.06868,92.7048,39.72,2.12669,-8.44459,31.9274,7.12502,17.481,61.1615,-1.77451,1.98891,23.5305,19.9148,-13.8884,-12.3033,-13.0115,-1.62064,0.219039,-17.2846,18.8686,-13.0012,1.47356,-15.2239
0.630368,18.3051,-4.06337,0.492051,0.715035,-2.40995,5.89672,-0.225852,-0.00202609,-1.46149,-0.182787,2.54499,-4.81772,-0.0514672,2.66101,-18.6832,-7.52383,-16.9826,20.7705,-8.68643,12.7252,11.1656,-3.90409,6.13767,-5.15209e-15,1.59028e-14,-38.5732,1.08786,-86.8957,38.2662,-2.7476,-19.694,9.27852,7.12502,6.63521,-20.5975,-5.15209e-15,1.59028e-14,-40.6972,0.559009,92.9525,40.6151,2.27066,-8.49474,31.8173,7.12502,17.4328,61.0556,-1.75171,1.96408,23.5413,19.9924,-14.0467,-12.2996,-13.0782,-1.57936,0.209027,-17.2736,18.9307,-13.0565,1.48189,-14.9138
0.633935,18.2995,-4.05987,0.44348,0.688903,-2.43417,5.96289,-0.245164,0.0365016,-1.49578,-0.2032,2.55891,-4.89022,-0.0617723,2.657,-18.5362,-7.46286,-17.0016,20.6831,-8.62379,12.7717,11.0974,-3.87627,6.16873,1.99134e-15,8.34896e-15,-38.8461,1.4955,-87.122,39.01,-2.73706,-20.2309,8.85291,7.12502,6.1169,-21.0388,1.99134e-15,8.34896e-15,-40.9314,0.264039,93.1435,41.5027,2.05285,-7.80237,32.6996,7.12502,18.099,61.8775,-1.7422,1.90247,23.5388,20.1117,-14.1467,-12.2108,-12.8134,-1.52801,0.246093,-17.2631,18.993,-13.1094,1.48976,-14.5423
0.637665,18.2944,-4.05777,0.436275,0.621789,-2.38987,5.95611,-0.235301,0.0102437,-1.47806,-0.192281,2.56529,-4.86831,-0.0557531,2.67708,-18.714,-7.51174,-16.9768,20.8045,-8.64093,12.6213,11.1704,-3.89369,6.10486,1.86904e-15,9.93923e-15,-38.999,1.9887,-87.4121,39.9495,-3.41382,-20.5701,6.71235,7.12502,5.78946,-23.1886,1.86904e-15,9.93923e-15,-41.1276,-0.00400666,93.3646,42.57,1.80056,-7.00651,33.7382,7.12502,18.8646,62.8434,-1.79864,1.84824,23.4475,20.2491,-14.1396,-12.044,-12.6723,-1.54784,0.310928,-17.3391,19.0649,-13.139,1.54443,-14.5681
0.638433,18.2929,-4.05626,0.457424,0.538298,-2.36784,5.89248,-0.204694,-0.000155594,-1.4116,-0.15508,2.55556,-4.76454,-0.038322,2.66758,-19.0239,-7.53668,-16.8685,20.9162,-8.62513,12.4716,11.2551,-3.88477,6.03108,7.67961e-15,2.8625e-14,-39.1913,2.42677,-87.7831,41.2457,-4.1561,-20.4577,4.99139,7.12502,5.89798,-24.9065,7.67961e-15,2.8625e-14,-41.1923,-0.402279,93.5821,43.4008,1.90005,-7.05756,33.4259,7.12502,18.8155,62.5359,-1.89848,1.92838,23.4241,20.4022,-14.1595,-12.0082,-12.9534,-1.5958,0.358775,-17.3744,19.1181,-13.1025,1.60882,-14.7531
0.638663,18.2911,-4.05239,0.461524,0.466546,-2.34083,5.8991,-0.187701,-0.0342893,-1.42929,-0.135027,2.54497,-4.78762,-0.0272811,2.67409,-19.0876,-7.44941,-16.8694,20.9634,-8.51026,12.5368,11.2683,-3.82404,6.0784,-1.32347e-14,1.47101e-14,-39.5555,2.74829,-88.0725,42.5907,-4.37365,-20.0737,4.17771,7.12502,6.26867,-25.7095,-1.32347e-14,1.47101e-14,-41.3441,-0.750636,93.7772,44.0306,2.25761,-7.53704,32.4465,7.12502,18.3543,61.6006,-1.9499,1.9928,23.3997,20.533,-14.2477,-12.0113,-13.1418,-1.59359,0.378757,-17.4109,19.1522,-13.0741,1.65865,-14.6847
0.639284,18.2894,-4.04768,0.454903,0.411436,-2.32661,5.95665,-0.177179,-0.0623119,-1.47308,-0.121401,2.54467,-4.8666,-0.0188491,2.68934,-19.1092,-7.36581,-16.8523,21.005,-8.40804,12.5822,11.2715,-3.77114,6.11299,-1.1962e-14,2.18663e-14,-39.8159,3.03278,-88.2581,43.4617,-4.43861,-19.6846,4.86278,7.12502,6.64425,-25.013,-1.1962e-14,2.18663e-14,-41.6139,-1.08655,94.0079,44.8913,2.38184,-7.86286,31.91,7.12502,18.0408,61.0933,-1.97964,2.0199,23.3827,20.6122,-14.2967,-12.0435,-13.2368,-1.58327,0.425872,-17.4326,19.1945,-13.0922,1.68806,-14.7159
0.639671,18.2882,-4.04638,0.444561,0.359299,-2.3292,6.00976,-0.158392,-0.061398,-1.48637,-0.0954276,2.53991,-4.91185,-0.00565154,2.68192,-19.1924,-7.34494,-16.644,21.0415,-8.36959,12.3492,11.2717,-3.76017,5.99363,2.25302e-15,3.10104e-14,-39.9695,3.30614,-88.4335,44.0897,-4.3873,-19.6485,7.20493,7.12502,6.67914,-22.6697,2.25302e-15,3.10104e-14,-41.9579,-1.56733,94.2835,46.0734,2.46343,-8.14223,31.9823,7.12502,17.772,61.1902,-2.02411,2.06848,23.3936,20.6694,-14.2504,-12.1085,-13.6057,-1.57595,0.515442,-17.429,19.2419,-13.1437,1.69357,-14.8944
0.643054,18.2882,-4.04387,0.417611,0.338865,-2.29935,6.02802,-0.159368,-0.0491622,-1.50168,-0.0958115,2.52672,-4.93819,-0.00612652,2.66165,-19.1987,-7.32451,-16.5594,21.0999,-8.33189,12.2038,11.2766,-3.75292,5.9311,-3.3246e-15,-1.39149e-14,-40.1492,3.60621,-88.6413,44.9381,-4.36628,-19.9964,8.6132,7.12502,6.34324,-21.2718,-3.3246e-15,-1.39149e-14,-42.3137,-1.9353,94.4894,47.3125,2.71008,-8.21107,32.1333,7.12502,17.7057,61.3472,-2.02436,2.02368,23.3407,20.7189,-14.2192,-12.0305,-13.6264,-1.5465,0.478772,-17.483,19.2916,-13.1794,1.72938,-14.7634
0.647847,18.287,-4.04065,0.385691,0.312813,-2.28115,6.03401,-0.157012,-0.0123396,-1.49942,-0.0898347,2.5243,-4.93954,-0.00431071,2.63778,-19.2733,-7.3061,-16.6617,21.1804,-8.29405,12.303,11.3248,-3.73165,5.99614,3.02331e-15,9.93923e-15,-40.3971,3.90109,-88.8267,46.0677,-4.52916,-20.0699,8.81716,7.12502,6.27231,-21.07,3.02331e-15,9.93923e-15,-42.527,-2.20106,94.6707,48.2978,2.95873,-8.19803,32.1137,7.12502,17.7183,61.3265,-1.97676,1.95295,23.2848,20.732,-14.1993,-11.9017,-13.4707,-1.54173,0.401006,-17.536,19.3617,-13.2321,1.80132,-14.709
0.64946,18.2835,-4.0391,0.347524,0.291733,-2.30272,6.06834,-0.150116,0.0116995,-1.48527,-0.0775923,2.54379,-4.94487,0.00130162,2.64347,-19.4573,-7.28363,-16.6899,21.2889,-8.2361,12.3254,11.3934,-3.70049,6.02219,4.20641e-15,1.27222e-14,-40.6533,4.17637,-88.9813,47.2383,-4.70108,-19.8434,8.97902,7.12502,6.49096,-20.9015,4.20641e-15,1.27222e-14,-42.6118,-2.54289,94.9076,49.0966,3.20556,-8.35862,32.3369,7.12502,17.5638,61.5635,-1.91389,1.96187,23.3047,20.7189,-14.1958,-11.8954,-13.5788,-1.53213,0.389296,-17.5187,19.4281,-13.3278,1.84625,-14.8161
0.649239,18.2827,-4.03551,0.300717,0.331902,-2.3287,6.08676,-0.17012,0.0148101,-1.46853,-0.102889,2.57044,-4.93671,-0.0110633,2.67211,-19.589,-7.24739,-16.6804,21.3522,-8.16385,12.3048,11.4285,-3.6658,6.02651,6.27006e-15,-7.95139e-15,-40.8234,4.47122,-89.1522,48.2445,-4.74554,-19.7549,9.16829,7.12502,6.57643,-20.7096,6.27006e-15,-7.95139e-15,-42.6712,-2.87807,95.1349,49.8895,3.47892,-8.52669,32.5815,7.12502,17.402,61.8225,-1.86654,1.95421,23.3457,20.7411,-14.277,-11.9325,-13.4948,-1.46815,0.350621,-17.4793,19.452,-13.3716,1.81243,-14.5005
0.64984,18.2841,-4.0324,0.289956,0.312878,-2.36433,6.10743,-0.158347,0.0530397,-1.50223,-0.0828856,2.57355,-4.98463,-0.00170113,2.65233,-19.4994,-7.21597,-16.6342,21.3358,-8.13405,12.2536,11.395,-3.65702,6.0041,-1.5631e-15,1.43125e-14,-41.0496,4.69852,-89.3612,49.15,-4.55784,-19.8013,9.56969,7.12502,6.53162,-20.3096,-1.5631e-15,1.43125e-14,-42.8036,-3.16701,95.273,50.7328,3.72641,-8.4749,32.5544,7.12502,17.4518,61.791,-1.8785,1.95355,23.383,20.7985,-14.3286,-11.926,-13.2834,-1.42425,0.354261,-17.4445,19.4304,-13.3432,1.81425,-14.3524
0.652727,18.2836,-4.03192,0.317666,0.256967,-2.28569,6.09392,-0.127919,0.0031156,-1.54715,-0.0473841,2.53319,-5.02544,0.0173096,2.63511,-19.3082,-7.1768,-16.5587,21.3258,-8.10218,12.1346,11.3393,-3.65595,5.9517,5.9946e-16,-2.18663e-14,-41.2337,4.93805,-89.5932,49.9604,-4.32258,-19.9394,10.038,7.12502,6.39829,-19.8454,5.9946e-16,-2.18663e-14,-42.9331,-3.36964,95.3435,51.6354,3.95719,-8.31737,32.414,7.12502,17.6034,61.637,-1.9114,1.94021,23.2679,20.8392,-14.3771,-11.8449,-13.2243,-1.44047,0.404347,-17.5569,19.3985,-13.2824,1.88774,-14.648
0.658421,18.2825,-4.03191,0.335034,0.321174,-2.05223,6.07087,-0.155532,-0.184933,-1.55957,-0.102263,2.47352,-5.02254,-0.00505317,2.68452,-19.3314,-7.12536,-16.4566,21.3505,-8.01124,11.9592,11.3239,-3.6256,5.88239,-1.68812e-15,0,-41.3797,5.35811,-89.8271,50.8921,-4.29176,-20.1077,10.0865,7.12502,6.23588,-19.8017,-1.68812e-15,0,-42.9898,-3.50197,95.4371,52.5039,4.20118,-8.58022,32.058,7.12502,17.3505,61.3035,-1.92683,1.73948,22.9532,20.8798,-14.4517,-11.7196,-13.5093,-1.46912,0.366183,-17.8523,19.4078,-13.248,1.9269,-14.9833
0.658945,18.282,-4.02943,0.299504,0.306006,-2.07135,6.10476,-0.171915,-0.189756,-1.54618,-0.123107,2.5003,-5.02681,-0.0148542,2.71753,-19.5776,-7.06918,-16.332,21.4593,-7.9004,11.8243,11.3808,-3.57389,5.82965,7.14382e-15,-4.77083e-15,-41.573,5.86366,-90.086,52.0588,-4.46498,-20.2636,9.73712,7.12502,6.08531,-20.1555,7.14382e-15,-4.77083e-15,-42.9778,-3.60791,95.5112,53.3791,4.42462,-8.8527,31.8716,7.12502,17.0882,61.14,-1.92036,1.76857,22.9851,20.942,-14.4634,-11.77,-13.7035,-1.43,0.342235,-17.8353,19.4259,-13.2595,1.97373,-15.2659
0.652718,18.2794,-4.02531,0.262769,0.0907635,-2.34264,6.06639,-0.126972,-0.0229688,-1.47054,-0.0467686,2.60761,-4.92994,0.0184175,2.72631,-19.8353,-7.01318,-16.3132,21.5019,-7.79723,11.8688,11.4302,-3.51294,5.86148,7.18265e-16,-1.94809e-14,-41.6184,6.32312,-90.3138,53.1559,-4.67536,-20.4313,9.72964,7.12502,5.92347,-20.1676,7.18265e-16,-1.94809e-14,-42.9001,-3.64691,95.5239,54.4094,4.61227,-8.59289,32.4113,7.12502,17.3383,61.658,-1.91291,2.16083,23.3665,20.975,-14.4234,-11.955,-13.6416,-1.37367,0.450949,-17.4995,19.4425,-13.288,2.04855,-15.2554
0.649799,18.2764,-4.02145,0.236378,-0.0297738,-2.36555,6.0123,-0.10536,-0.0591814,-1.38723,-0.0218311,2.64192,-4.81352,0.0309624,2.7786,-20.042,-6.95884,-16.3565,21.4361,-7.69154,11.9711,11.4343,-3.44951,5.92364,-1.00134e-14,2.62396e-14,-41.587,6.6552,-90.4535,54.2159,-4.71943,-20.4796,10.3775,7.12502,5.87682,-19.521,-1.00134e-14,2.62396e-14,-42.7961,-3.68926,95.5377,55.3929,4.79222,-8.45383,32.4882,7.12502,17.4721,61.723,-1.86906,2.32795,23.4234,20.9557,-14.3675,-12.0268,-13.674,-1.36119,0.527699,-17.4613,19.5161,-13.3619,2.08273,-15.2224
0.65203,18.276,-4.01878,0.18884,-0.019533,-2.25883,6.00569,-0.111138,-0.16412,-1.3211,-0.0405821,2.61415,-4.73979,0.0232227,2.80995,-20.2507,-6.94271,-16.3087,21.4428,-7.64889,11.9725,11.4675,-3.41946,5.92235,-2.0919e-15,3.97569e-15,-41.613,6.90098,-90.5888,55.4264,-4.76559,-20.5694,11.0081,7.12502,5.79005,-18.8928,-2.0919e-15,3.97569e-15,-42.6833,-3.79448,95.5487,56.3157,5.08892,-8.55242,32.1022,7.12502,17.3772,61.3454,-1.80495,2.28631,23.2911,20.9529,-14.3645,-11.991,-13.5225,-1.33854,0.531348,-17.587,19.5942,-13.4593,2.05778,-15.0416
0.654797,18.2767,-4.01908,0.198575,-0.0559215,-2.31353,5.9349,-0.11267,-0.103674,-1.27597,-0.0392843,2.62833,-4.65267,0.0213854,2.78935,-20.5412,-6.94812,-16.1446,21.528,-7.6294,11.8307,11.5379,-3.40521,5.84319,7.43113e-15,-4.37326e-15,-41.6257,7.24262,-90.7586,56.6112,-5.08572,-20.723,11.4142,7.12502,5.6418,-18.4907,7.43113e-15,-4.37326e-15,-42.6433,-3.8644,95.5547,57.4478,5.49707,-8.6202,32.6599,7.12502,17.312,61.9088,-1.84501,2.31424,23.3398,20.9928,-14.3937,-11.9549,-13.4089,-1.35764,0.53088,-17.5319,19.5969,-13.4646,2.0577,-14.5699
0.654705,18.2783,-4.01851,0.206792,-0.0817852,-2.37887,5.87686,-0.14314,-0.0481686,-1.20931,-0.0772105,2.64848,-4.5485,9.2418e-05,2.78146,-20.9874,-6.92905,-16.0018,21.664,-7.55948,11.7374,11.6526,-3.36042,5.79667,3.75206e-15,2.78299e-15,-41.5278,7.61332,-90.9164,57.9403,-5.71454,-20.48,11.4237,7.12502,5.87645,-18.4748,3.75206e-15,2.78299e-15,-42.4758,-3.92882,95.5352,58.5128,5.78298,-8.5458,33.7538,7.12502,17.3836,62.9964,-1.84539,2.33165,23.4229,21.0188,-14.4405,-11.9404,-13.266,-1.3588,0.509902,-17.4586,19.5815,-13.4355,2.09983,-14.5661
0.653549,18.2792,-4.01574,0.177595,-0.0930409,-2.32804,5.87348,-0.167306,-0.132603,-1.1417,-0.11783,2.63932,-4.47405,-0.0189855,2.82271,-21.3969,-6.91006,-15.9212,21.8669,-7.49906,11.7083,11.7937,-3.31996,5.78751,-7.75571e-15,6.75868e-15,-41.4716,7.8595,-91.0049,59.6213,-6.17291,-20.1499,10.5375,7.12502,6.1951,-19.3519,-7.75571e-15,6.75868e-15,-42.282,-4.03088,95.494,59.5539,6.06015,-8.65113,34.0876,7.12502,17.2822,63.3391,-1.7847,2.38355,23.3902,21.0348,-14.4975,-11.9779,-13.0231,-1.33156,0.49609,-17.5091,19.6134,-13.4001,2.13993,-14.5719
0.655136,18.2776,-4.01216,0.166853,-0.133985,-2.24555,5.85091,-0.155628,-0.222823,-1.12466,-0.110398,2.62259,-4.44379,-0.0135282,2.85509,-21.5997,-6.91018,-15.8438,21.9942,-7.47531,11.6124,11.8696,-3.30959,5.74426,8.7341e-15,-1.74931e-14,-41.5056,8.10521,-91.0707,61.1945,-6.15075,-20.3159,9.13503,7.12502,6.03479,-20.759,8.7341e-15,-1.74931e-14,-42.26,-4.13358,95.4697,60.8056,6.42675,-9.15491,33.5014,7.12502,16.7973,62.7948,-1.79583,2.47722,23.2981,21.0873,-14.5623,-12.0392,-12.9565,-1.33086,0.521801,-17.6072,19.6574,-13.371,2.15864,-14.202
0.654055,18.2767,-4.01441,0.209909,0.0164484,-2.25441,5.86369,-0.197696,-0.207392,-1.17214,-0.164573,2.61461,-4.49771,-0.0401485,2.84393,-21.5441,-6.90698,-15.8076,21.9025,-7.47532,11.5773,11.8204,-3.31105,5.72101,7.60662e-15,3.97569e-16,-41.6346,8.43536,-91.2296,62.6584,-6.40574,-20.893,9.45909,7.12502,5.47764,-20.4501,7.60662e-15,3.97569e-16,-42.2241,-4.32596,95.4325,62.074,6.78037,-9.94404,32.9788,7.12502,16.0375,62.335,-1.89344,2.3947,23.3165,21.156,-14.6003,-12.152,-13.199,-1.42996,0.50543,-17.5825,19.7059,-13.4297,2.0402,-14.4786
0.647737,18.2761,-4.02157,0.280838,0.307299,-2.33249,5.9394,-0.283593,-0.180516,-1.25226,-0.273753,2.63198,-4.61855,-0.0932251,2.85932,-21.3938,-6.9051,-15.7666,21.7099,-7.49186,11.5612,11.7179,-3.3188,5.69842,4.57515e-15,-1.19271e-14,-41.8737,8.76138,-91.4354,64.2652,-7.396,-21.4458,9.88424,7.12502,4.94388,-20.0381,4.57515e-15,-1.19271e-14,-42.23,-4.55533,95.3557,63.5077,7.16796,-10.319,34.2839,7.12502,15.6764,63.6688,-1.98906,2.26093,23.4558,21.2007,-14.5755,-12.3548,-13.6935,-1.60809,0.425802,-17.4424,19.7614,-13.4926,1.82099,-15.0035
0.646831,18.2724,-4.02063,0.239893,0.350343,-2.36552,5.9857,-0.284715,-0.154168,-1.2319,-0.273193,2.62866,-4.6237,-0.0938063,2.84125,-21.351,-6.88285,-15.6334,21.4686,-7.46514,11.4602,11.6027,-3.30539,5.63241,7.45132e-15,3.97569e-15,-41.9774,8.8618,-91.4248,66.0493,-7.284,-21.6508,9.81016,7.12502,4.74596,-20.1167,7.45132e-15,3.97569e-15,-42.2412,-4.82113,95.2398,65.1466,7.59448,-9.60279,36.4678,7.12502,16.3661,65.7973,-1.94439,2.26641,23.5141,21.2492,-14.5835,-12.4168,-13.9727,-1.57354,0.459154,-17.3848,19.7959,-13.531,1.72692,-14.9128
0.653665,18.2693,-4.01536,0.187476,0.233134,-2.27439,5.98152,-0.232024,-0.160173,-1.21756,-0.206114,2.57382,-4.60982,-0.0613572,2.78062,-21.3342,-6.83037,-15.5363,21.2543,-7.39204,11.3999,11.4994,-3.26903,5.59803,1.00386e-14,-1.94809e-14,-42.0398,9.16885,-91.505,67.6216,-7.7344,-20.6215,9.3748,7.12502,5.73978,-20.5275,1.00386e-14,-1.94809e-14,-42.1036,-5.19877,95.0993,66.6264,8.00522,-9.2391,36.2311,7.12502,16.7163,65.5314,-1.94824,2.29799,23.3713,21.3444,-14.6066,-12.3486,-14.0326,-1.44881,0.517667,-17.5242,19.7962,-13.5803,1.81332,-14.758
0.658725,18.2691,-4.01128,0.207535,0.189125,-2.1709,5.90532,-0.197809,-0.19341,-1.24125,-0.165622,2.52483,-4.59328,-0.0410363,2.74379,-21.3064,-6.8227,-15.5738,21.1375,-7.37053,11.4262,11.4495,-3.25862,5.61459,-3.86698e-16,0,-41.883,9.35728,-91.3773,69.1398,-7.17214,-22.4539,10.3015,7.12502,3.97045,-19.6412,-3.86698e-16,0,-41.7745,-5.58207,94.9205,67.9266,8.3572,-9.33904,35.4201,7.12502,16.6201,64.7285,-2.03522,2.28725,23.2194,21.4543,-14.6543,-12.29,-13.8765,-1.42451,0.485189,-17.6773,19.7804,-13.5683,1.92059,-14.6574
0.659026,18.27,-4.017,0.298525,0.162626,-2.07065,5.85596,-0.157767,-0.293691,-1.2878,-0.120386,2.50235,-4.61591,-0.0156529,2.77258,-21.3102,-6.83161,-15.6864,21.0993,-7.36461,11.5131,11.4439,-3.25443,5.66722,-3.01749e-15,-1.98785e-15,-41.7519,9.67665,-91.2919,70.794,-7.41247,-21.4238,10.1079,7.12502,4.96514,-19.8139,-3.01749e-15,-1.98785e-15,-41.4006,-5.94408,94.7355,69.3082,9.04348,-9.77699,34.9767,7.12502,16.1984,64.3199,-2.1912,2.26363,23.083,21.5171,-14.6921,-12.1937,-13.5452,-1.55777,0.497239,-17.8069,19.7884,-13.4233,1.96828,-14.3165
0.659012,18.2711,-4.03119,0.43906,-0.160643,-2.05862,5.88211,-0.0247753,-0.349704,-1.38431,0.0555686,2.51087,-4.74041,0.0750921,2.79707,-21.3444,-6.79514,-15.7709,21.1116,-7.30883,11.6231,11.4547,-3.22247,5.73489,3.94619e-15,-3.97569e-15,-41.6892,10.1078,-91.2326,72.5364,-7.82055,-22.1293,9.9913,7.12502,4.28392,-19.9454,3.94619e-15,-3.97569e-15,-41.0546,-6.35714,94.4984,70.8464,10.1139,-10.4304,34.6266,7.12502,15.5691,64.0199,-2.44057,2.5071,23.0434,21.5337,-14.5812,-12.1095,-13.6352,-1.76287,0.650457,-17.8499,19.8163,-13.3727,2.1396,-14.2323
0.662771,18.2699,-4.03101,0.413418,-0.725051,-2.2645,5.87519,0.178893,-0.13422,-1.38411,0.345293,2.53894,-4.74999,0.213122,2.67596,-21.2804,-6.76121,-15.7441,20.9664,-7.28008,11.6657,11.3839,-3.20229,5.74738,-1.03974e-15,-2.0276e-14,-41.4523,10.4802,-91.1406,74.1723,-8.00766,-22.5674,9.94131,7.12502,3.86086,-20.0035,-1.03974e-15,-2.0276e-14,-40.6349,-6.79987,94.1053,72.5028,10.9036,-10.0328,35.6913,7.12502,15.9521,65.0544,-2.4843,2.94855,23.2556,21.5618,-14.5039,-12.0354,-13.9194,-1.66177,0.867497,-17.6668,19.7988,-13.4695,2.44125,-14.3528
0.666802,18.2687,-4.02187,0.263367,-0.81649,-2.3739,5.84026,0.222607,0.0329729,-1.27194,0.413443,2.54076,-4.61522,0.240654,2.57596,-21.2743,-6.79558,-15.7094,20.7438,-7.32139,11.6575,11.3042,-3.21625,5.72297,-5.32215e-15,-1.03368e-14,-40.9606,10.8711,-90.9333,75.7864,-8.34501,-22.7159,10.4182,7.12502,3.71741,-19.5292,-5.32215e-15,-1.03368e-14,-39.9202,-7.22275,93.6283,74.0882,11.4168,-9.40116,37.0221,7.12502,16.5603,66.3355,-2.31729,2.99014,23.3725,21.5972,-14.5832,-12.0118,-14.0395,-1.41052,0.875911,-17.5643,19.732,-13.4391,2.51264,-14.0819
0.669499,18.2701,-4.02257,0.175829,-0.383785,-2.12776,5.76716,0.0853648,-0.171954,-1.12515,0.208394,2.4883,-4.41219,0.141367,2.65546,-21.5125,-6.86541,-15.6809,20.659,-7.34798,11.5254,11.3147,-3.23271,5.65714,2.13694e-15,6.75868e-15,-40.2853,11.4901,-90.5714,77.6618,-8.96237,-22.8091,10.4687,7.12502,3.62747,-19.4802,2.13694e-15,6.75868e-15,-38.7748,-7.73497,93.16,75.3846,12.4375,-9.61334,38.2153,7.12502,16.356,67.5456,-2.16956,2.57774,23.081,21.5856,-14.6316,-12.0369,-14.2498,-1.32093,0.64537,-17.8343,19.6569,-13.3172,2.33369,-13.7775
0.672877,18.2707,-4.03375,0.148814,0.110553,-1.82818,5.77416,-0.0659393,-0.43258,-1.08145,-0.0166461,2.41681,-4.35983,0.0346651,2.74912,-21.6136,-6.85698,-15.5596,20.5457,-7.293,11.3087,11.2675,-3.21861,5.55748,2.78299e-15,-1.23246e-14,-39.5372,12.1791,-90.1561,79.5394,-9.49888,-23.0736,9.94702,7.12502,3.37203,-20.0061,2.78299e-15,-1.23246e-14,-37.6603,-8.37307,92.6847,76.6162,13.9559,-10.2849,38.1678,7.12502,15.7093,67.5502,-2.0879,2.07096,22.7067,21.5234,-14.5769,-12.0107,-14.1576,-1.35397,0.401653,-18.1717,19.621,-13.2649,2.11073,-14.0048
0.671297,18.2718,-4.04311,0.0916346,0.553632,-1.84991,5.96907,-0.185734,-0.410113,-1.20358,-0.171081,2.41167,-4.58946,-0.0397345,2.74895,-21.3705,-6.77813,-15.4539,20.3523,-7.22158,11.2323,11.1303,-3.19148,5.51824,-1.24862e-15,5.96354e-15,-38.769,12.7586,-89.7889,80.9487,-9.77452,-23.5673,10.0793,7.12502,2.89525,-19.8808,-1.24862e-15,5.96354e-15,-36.7518,-9.05216,92.1306,77.9484,15.1109,-10.5271,37.2316,7.12502,15.476,66.6321,-1.9765,1.79704,22.7551,21.4399,-14.5718,-12.1341,-13.5952,-1.39575,0.254103,-18.1122,19.6651,-13.3395,1.83025,-14.5899
0.658027,18.2731,-4.04487,-0.0515848,0.667554,-2.26191,6.23885,-0.189022,-0.157865,-1.30015,-0.143708,2.56434,-4.84496,-0.0280847,2.76698,-21.2698,-6.76346,-15.4953,20.3047,-7.20417,11.2491,11.0936,-3.18736,5.53391,1.96843e-16,-1.82882e-14,-37.8992,13.3003,-89.2832,82.2492,-10.0564,-24.0874,10.2438,7.12502,2.39297,-19.7226,1.96843e-16,-1.82882e-14,-35.5415,-9.79206,91.4902,79.2423,15.9315,-10.4027,38.1242,7.12502,15.5958,67.5155,-1.80031,2.14084,23.3709,21.3778,-14.6352,-12.5814,-12.9686,-1.33181,0.297061,-17.5531,19.7458,-13.4112,1.64565,-14.8109
0.644073,18.2725,-4.05093,-0.164389,0.307595,-2.68506,6.40765,-0.0416796,0.0338016,-1.50063,0.0843024,2.73813,-5.16206,0.0857128,2.82028,-20.4533,-6.6136,-15.5945,20.0064,-7.08553,11.3073,10.8187,-3.15526,5.58994,-1.49399e-15,1.03368e-14,-37.1867,13.8437,-88.6954,83.5439,-10.2644,-24.4781,10.1531,7.12502,2.0156,-19.8171,-1.49399e-15,1.03368e-14,-34.4473,-10.4951,90.8129,80.4135,16.6538,-10.6233,39.685,7.12502,15.3833,69.0927,-1.71784,2.757,23.968,21.3337,-14.5911,-12.8882,-12.7203,-1.24718,0.555451,-17.0136,19.8164,-13.3484,1.72068,-14.5763
0.648665,18.2753,-4.06075,0.0413493,0.0348587,-2.4292,6.20679,0.0703141,-0.202016,-1.65313,0.210597,2.64964,-5.21413,0.155635,2.84758,-19.9261,-6.49735,-15.6976,19.6204,-6.98703,11.4718,10.575,-3.11064,5.67843,5.46658e-16,-2.78299e-14,-36.1227,14.2235,-88.0407,84.8862,-10.2403,-24.817,10.1073,7.12502,1.68831,-19.8658,5.46658e-16,-2.78299e-14,-32.8859,-11.1351,89.9346,81.2294,17.254,-10.8816,40.3833,7.12502,15.1346,69.8099,-2.00088,2.76277,23.5932,21.3251,-14.4389,-12.6357,-13.029,-1.47817,0.690814,-17.3557,19.8479,-13.2811,1.88364,-14.1808
0.663828,18.278,-4.0688,0.191347,0.000620628,-2.01359,5.9331,0.114977,-0.429847,-1.66412,0.240288,2.47108,-5.0713,0.1734,2.78509,-19.7176,-6.49465,-15.8127,19.3182,-7.00346,11.6529,10.4417,-3.10929,5.75591,1.00014e-15,-6.75868e-15,-34.9622,14.316,-87.2871,86.6729,-10.0683,-25.3451,9.46176,7.12502,1.17826,-20.5147,1.00014e-15,-6.75868e-15,-31.0296,-11.6649,88.9065,82.1622,17.7012,-10.4801,40.9899,7.12502,15.5213,70.387,-2.23592,2.39181,22.9759,21.4056,-14.3624,-12.2246,-13.4853,-1.64288,0.635178,-17.9164,19.8352,-13.2646,1.99118,-13.7824
0.669415,18.2774,-4.0819,-0.0125701,-0.100426,-2.03941,6.02332,0.169284,-0.349962,-1.52373,0.316922,2.46387,-4.97922,0.206977,2.72385,-19.6871,-6.52227,-15.8627,19.1147,-7.02585,11.6933,10.3701,-3.11711,5.76967,-1.14829e-14,1.47101e-14,-33.5874,14.4355,-86.4203,88.4083,-10.0325,-25.9705,8.84302,7.12502,0.574249,-21.1359,-1.14829e-14,1.47101e-14,-29.1855,-11.8915,87.8383,83.4551,18.0304,-10.0629,43.1489,7.12502,15.9231,72.5143,-2.11828,2.32712,22.9658,21.5186,-14.3622,-12.0987,-13.7075,-1.43232,0.705442,-17.9116,19.8113,-13.2313,2.02957,-13.8371
0.661821,18.2786,-4.10456,-0.0234192,-0.0213674,-2.13742,6.13535,0.161143,-0.384765,-1.54748,0.307976,2.52701,-5.06803,0.205557,2.81102,-19.4496,-6.52403,-15.9734,18.9219,-7.03896,11.7767,10.2671,-3.12715,5.81338,-1.3449e-15,4.37326e-15,-32.0052,14.7951,-85.5133,89.6488,-10.4075,-26.251,9.18108,7.12502,0.303315,-20.7985,-1.3449e-15,4.37326e-15,-27.2671,-12.2077,86.7782,84.4933,18.6192,-10.5331,43.3256,7.12502,15.4702,72.7266,-2.20571,2.3761,23.1194,21.5712,-14.3235,-12.2415,-13.4839,-1.49832,0.805779,-17.7494,19.7793,-13.1276,1.85454,-14.0817
0.653902,18.2808,-4.12434,0.143944,0.399633,-2.2308,6.13305,0.0498912,-0.367236,-1.69698,0.164778,2.54698,-5.21571,0.136824,2.83837,-19.1658,-6.53783,-16.0668,18.7916,-7.09282,11.8813,10.1849,-3.1548,5.85796,8.01972e-15,-1.66979e-14,-30.0596,15.4425,-84.5284,90.4131,-11.0781,-27.0002,9.97935,7.12502,-0.420287,-20,8.01972e-15,-1.66979e-14,-25.2929,-12.6549,85.6598,85.1299,19.2617,-11.3873,40.3879,7.12502,14.6473,69.8506,-2.43453,2.21191,23.2753,21.5942,-14.3324,-12.4521,-13.051,-1.79632,0.729462,-17.5756,19.7228,-12.9882,1.52065,-14.0929
0.665425,18.2798,-4.12485,0.156652,0.734701,-2.0284,6.01858,-0.0437296,-0.393186,-1.69493,0.0295274,2.40913,-5.14082,0.0676259,2.72225,-19.248,-6.57852,-16.0142,18.8348,-7.15791,11.8887,10.2241,-3.17811,5.84201,4.09993e-16,6.75868e-15,-27.4164,15.5966,-83.1524,91.2942,-9.5497,-29.1868,9.19513,7.12502,-2.53209,-20.7696,4.09993e-16,6.75868e-15,-23.126,-12.9633,84.3448,85.5751,19.4919,-11.5318,39.4862,7.12502,14.5082,68.9589,-2.42347,1.67057,22.964,21.5866,-14.3513,-12.2464,-13.2315,-1.81232,0.572378,-17.835,19.6801,-12.9641,1.38259,-13.9974
0.672874,18.2809,-4.13914,0.123016,1.27,-1.61438,6.13161,-0.221229,-0.702632,-1.70267,-0.239578,2.25153,-5.19886,-0.0578946,2.76158,-19.5029,-6.61048,-15.9899,18.9407,-7.1837,11.9175,10.3135,-3.17836,5.84594,4.01297e-15,3.57812e-15,-24.7697,16.1421,-81.9889,91.9838,-10.2519,-29.3904,10.3204,7.12502,-2.72875,-19.6419,4.01297e-15,3.57812e-15,-20.5574,-13.2004,82.8579,85.8444,19.5462,-11.1113,39.6548,7.12502,14.9133,69.098,-2.37965,1.01946,22.4259,21.5305,-14.3706,-12.1281,-13.2375,-1.83182,0.209386,-18.329,19.6552,-12.9192,1.19933,-13.9585
0.657158,18.2838,-4.1403,-0.00666316,1.12843,-1.94341,6.23032,-0.187337,-0.596495,-1.7569,-0.177967,2.37293,-5.31531,-0.0270958,2.82381,-19.3755,-6.56513,-15.9996,18.8992,-7.14693,11.9668,10.2716,-3.16046,5.87204,3.87009e-15,-1.98785e-14,-22.5522,16.6971,-80.7969,92.6238,-10.6333,-28.3596,8.43242,7.12502,-1.73326,-21.5403,3.87009e-15,-1.98785e-14,-18.1721,-13.4223,81.4937,86.151,19.8721,-11.1367,39.7393,7.12502,14.8888,69.1842,-2.2327,1.58824,22.9494,21.4745,-14.3953,-12.5362,-12.5103,-1.65935,0.315679,-17.8706,19.564,-12.9017,1.15667,-14.0799
