JuanDHNZ/ProyectoFinalCD/preprocessing/sports_trials_csv/15_01.csv
root1,root2,root3,root4,root5,root6,lowerback1,lowerback2,lowerback3,upperback1,upperback2,upperback3,thorax1,thorax2,thorax3,lowerneck1,lowerneck2,lowerneck3,upperneck1,upperneck2,upperneck3,head1,head2,head3,rclavicle1,rclavicle2,rhumerus1,rhumerus2,rhumerus3,rradius1,rwrist1,rhand1,rhand2,rfingers1,rthumb1,rthumb2,lclavicle1,lclavicle2,lhumerus1,lhumerus2,lhumerus3,lradius1,lwrist1,lhand1,lhand2,lfingers1,lthumb1,lthumb2,rfemur1,rfemur2,rfemur3,rtibia1,rfoot1,rfoot2,rtoes1,lfemur1,lfemur2,lfemur3,ltibia1,lfoot1,lfoot2,ltoes1
8.08491,17.4384,24.8626,-179.884,-0.619635,-170.897,8.30527,1.31107,4.65426,2.25506,1.90469,3.0486,-2.25965,0.799019,0.353714,5.30398,-13.371,-26.1772,8.32927,-21.0626,17.3147,6.28201,-10.9664,8.0494,1.56419e-14,3.67752e-15,-22.2978,3.07568,-81.0238,35.4866,-1.22064,-23.7328,13.5206,7.12502,2.73545,-16.4416,1.56419e-14,3.67752e-15,-40.2643,11.8723,80.7249,32.6854,1.10524,-12.288,30.998,7.12502,13.7794,60.5217,15.7505,4.64282,34.4959,8.93892,-12.9734,-5.01346,-55.0452,-33.9356,0.750088,-7.30304,25.8786,-12.4909,-0.174944,-20.9608
8.06419,17.4172,24.7636,-179.38,-0.116332,-170.954,8.47674,1.55897,4.56792,2.05806,2.26739,2.92698,-2.54879,0.981576,0.233038,5.20011,-13.4238,-26.2054,8.43783,-21.133,17.3725,6.35914,-10.9964,8.04982,-9.79014e-15,2.9122e-14,-21.9712,2.92686,-80.894,35.8906,-1.46522,-23.6982,13.5598,7.12502,2.76887,-16.402,-9.79014e-15,2.9122e-14,-40.4648,12.6284,80.0789,31.9038,0.777275,-12.1934,31.0505,7.12502,13.8706,60.5679,14.2587,5.28872,34.2736,11.5592,-13.1937,-5.97653,-55.0774,-34.3485,0.974329,-7.32357,26.3228,-12.2652,0.150196,-19.7733
8.05278,17.3995,24.6332,-179.333,-0.327118,-170.931,8.69995,1.60197,4.54207,2.05151,2.33835,2.86355,-2.676,1.01549,0.168379,5.15695,-13.5294,-26.136,8.46809,-21.2561,17.3259,6.39059,-11.0502,7.99876,-2.51711e-14,-6.16232e-15,-21.6378,2.48322,-80.7229,36.1689,-1.47766,-23.6224,13.8517,7.12502,2.84204,-16.1092,-2.51711e-14,-6.16232e-15,-40.6893,13.2531,79.5018,31.135,0.310412,-12.2782,30.9172,7.12502,13.7889,60.4402,14.0202,5.43555,34.3677,12.7414,-13.1243,-6.03342,-55.0479,-34.4481,0.96825,-7.38626,27.0658,-12.3858,-0.275343,-18.2873
8.03846,17.3779,24.4951,-179.357,-0.509789,-170.79,8.77031,1.6491,4.686,2.15829,2.40335,2.82717,-2.59396,1.04586,0.0435541,5.09683,-13.6236,-26.1178,8.38753,-21.3462,17.3734,6.40006,-11.0826,7.99088,-1.88845e-15,2.46493e-14,-21.3395,2.00799,-80.5621,36.5383,-1.44527,-23.6831,14.0376,7.12502,2.78345,-15.924,-1.88845e-15,2.46493e-14,-40.8609,13.9107,78.9257,30.3856,-0.0750427,-12.6132,31.0214,7.12502,13.466,60.5661,13.8865,5.45451,34.5575,13.9149,-13.0867,-6.23676,-55.043,-34.42,0.852096,-7.26657,27.8031,-12.2379,-0.782596,-17.194
8.02322,17.3507,24.3582,-179.375,-0.653442,-170.641,8.79351,1.71242,4.79936,2.28943,2.48095,2.80905,-2.46169,1.08321,-0.044759,5.97111,-13.4279,-26.4042,7.34195,-21.2642,18.3433,6.06059,-11.0614,8.45249,-1.16041e-14,1.15295e-14,-21.0651,1.64327,-80.4027,37.0046,-1.80564,-23.6459,13.9724,7.12502,2.81933,-15.9887,-1.16041e-14,1.15295e-14,-40.9351,14.6655,78.3265,29.597,-0.412166,-12.8994,31.3151,7.12502,13.1902,60.8778,13.9824,5.22976,34.6636,14.6806,-13.2517,-6.44258,-55.153,-34.4036,0.617433,-7.08128,28.6216,-12.1458,-1.51074,-16.3162
8.01032,17.322,24.2252,-179.351,-0.455645,-170.398,8.97797,1.92118,4.97357,2.32987,2.77719,2.7627,-2.50012,1.2264,-0.225247,5.97069,-13.6075,-26.4393,7.23714,-21.5259,18.6077,6.1256,-11.1811,8.49821,-4.67144e-15,1.98785e-15,-20.9328,1.07069,-80.2915,37.4565,-1.98045,-23.5335,13.5195,7.12502,2.92787,-16.4402,-4.67144e-15,1.98785e-15,-40.9833,15.4373,77.5293,28.5104,-1.25763,-12.9278,30.5115,7.12502,13.1628,60.076,14.175,5.30868,34.8702,15.2322,-13.4718,-6.37653,-55.1728,-34.3117,0.561632,-6.73227,29.4572,-12.1659,-2.3213,-16.1319
7.9882,17.3003,24.0698,-179.405,-0.635363,-170.389,9.07031,1.9835,5.07166,2.34021,2.87724,2.60793,-2.52354,1.27838,-0.453392,5.90442,-13.8102,-26.2684,7.33895,-21.7826,18.5118,6.19671,-11.2982,8.3894,-5.01931e-15,-2.16675e-14,-20.9987,0.454815,-80.2745,37.8387,-1.90932,-23.6387,13.1402,7.12502,2.8263,-16.8208,-5.01931e-15,-2.16675e-14,-41.2299,15.9414,76.7394,27.5976,-2.05346,-13.0371,30.0706,7.12502,13.0574,59.6419,14.5536,5.2502,34.897,15.6362,-13.4663,-6.24251,-55.0688,-34.1569,0.301671,-6.79932,30.2762,-11.9204,-3.08005,-17.5831
7.96018,17.2966,23.9124,-179.446,-0.65062,-170.655,9.12763,2.09231,4.89603,2.37686,3.01389,2.39438,-2.50969,1.35336,-0.592556,5.96122,-13.9537,-26.0125,7.28038,-21.9457,18.364,6.15945,-11.372,8.28251,8.34896e-15,-1.55052e-14,-21.1144,0.0247563,-80.2708,38.1505,-2.12567,-23.853,13.0251,7.12502,2.61932,-16.9386,8.34896e-15,-1.55052e-14,-41.4531,16.5247,76.0262,26.8715,-2.68292,-13.27,30.7024,7.12502,12.8329,60.2879,14.8708,5.23097,34.54,16.1442,-13.6261,-5.95219,-55.0272,-33.944,0.37075,-7.31982,30.987,-11.2684,-3.56801,-17.9253
7.93863,17.3157,23.7651,-179.337,-0.652332,-170.905,9.21588,2.22284,4.66677,2.35171,3.18268,2.19356,-2.57941,1.44323,-0.694927,6.06956,-14.1392,-25.6335,7.1023,-22.1504,18.2073,6.07028,-11.463,8.15637,-1.49089e-14,4.37326e-15,-21.2574,-0.343415,-80.2535,38.4397,-2.5303,-23.9901,12.8754,7.12502,2.48696,-17.0898,-1.49089e-14,4.37326e-15,-41.5662,17.5111,75.1048,25.8892,-3.56567,-13.5687,31.0116,7.12502,12.545,60.615,14.9429,5.38861,34.2469,16.7,-13.6565,-5.44811,-54.8816,-34.0992,0.452218,-7.71141,31.5802,-9.8939,-3.98317,-17.9191
7.91979,17.3302,23.6154,-179.138,-0.586254,-171.188,9.1959,2.35155,4.33522,2.32235,3.33427,1.9965,-2.6008,1.52698,-0.730568,6.06954,-14.3715,-25.2198,7.02671,-22.4039,18.0026,6.0303,-11.5735,7.99177,5.34731e-14,0,-21.3764,-0.712182,-80.2534,38.7627,-2.83681,-24.0383,13.0754,7.12502,2.44036,-16.8904,5.34731e-14,0,-41.8319,18.4778,74.1256,25.0681,-4.25333,-13.6958,30.9001,7.12502,12.4225,60.5109,14.8499,5.70212,33.9513,17.4018,-13.6532,-4.82463,-54.4808,-34.3209,0.616135,-8.14138,32.0623,-9.20945,-4.17331,-17.7648
7.90373,17.3429,23.4619,-179.061,-0.806717,-171.556,9.20146,2.34981,3.83932,2.3359,3.29346,1.85032,-2.61267,1.51443,-0.601698,5.82482,-14.5169,-25.1738,7.26842,-22.5766,17.9529,6.17211,-11.6457,7.91211,-3.15074e-14,1.19271e-15,-21.4246,-1.08834,-80.2644,38.9752,-2.98911,-24.1622,13.4413,7.12502,2.3207,-16.5258,-3.15074e-14,1.19271e-15,-42.2322,19.2875,73.3174,24.5849,-4.6458,-13.4433,30.8756,7.12502,12.6659,60.4715,14.7813,5.71698,33.6271,18.2857,-13.6099,-4.00323,-54.4093,-34.3845,0.496256,-8.65477,32.4588,-8.91753,-4.56922,-17.96
7.88839,17.355,23.3039,-179.075,-1.36874,-171.946,9.25753,2.25856,3.36734,2.33124,3.1387,1.71653,-2.67355,1.44388,-0.463174,6.30976,-14.3397,-25.6883,6.97606,-22.5619,18.7877,6.16555,-11.6709,8.30101,1.49089e-15,6.75868e-15,-21.5419,-1.4646,-80.2601,39.0532,-3.17889,-24.2505,13.337,7.12502,2.23545,-16.6311,1.49089e-15,6.75868e-15,-42.5794,20.158,72.4694,23.9357,-5.35285,-13.1151,31.1056,7.12502,12.9822,60.6817,14.6753,5.34586,33.304,19.4444,-13.373,-3.13447,-54.7993,-34.3111,0.04309,-9.1734,32.7704,-8.46788,-5.22127,-17.5455
7.87263,17.3674,23.1402,-179.106,-1.96104,-172.37,9.26797,2.22235,2.96528,2.40402,3.05166,1.51085,-2.61736,1.40722,-0.440772,7.06235,-14.141,-26.1103,6.29465,-22.5595,19.9296,6.02863,-11.7129,8.81143,2.20651e-14,1.19271e-15,-21.7437,-1.98472,-80.2582,39.1851,-3.42961,-24.2604,13.27,7.12502,2.22587,-16.6981,2.20651e-14,1.19271e-15,-42.7041,20.8792,71.6611,23.2529,-6.19047,-12.9105,31.5251,7.12502,13.1795,61.0886,14.4544,4.90202,32.9038,20.7897,-12.9902,-2.62031,-54.7868,-34.1675,-0.36443,-9.7601,33.0788,-7.81407,-5.81272,-17.1941
7.85466,17.3816,22.9722,-179.128,-2.36639,-172.695,9.28298,2.24115,2.69892,2.51253,3.04358,1.2997,-2.51631,1.40712,-0.50725,6.91472,-14.2856,-25.987,6.29179,-22.7323,20.0809,6.09929,-11.7835,8.79889,1.09332e-15,2.18663e-14,-22.0425,-2.58945,-80.3168,39.3979,-3.48483,-24.4778,13.5963,7.12502,2.01591,-16.3739,1.09332e-15,2.18663e-14,-42.7785,21.5132,70.9288,22.7263,-6.83198,-12.871,31.4058,7.12502,13.2175,60.9667,14.0705,4.592,32.5505,22.2941,-13.0361,-1.90656,-54.5898,-33.9543,-0.469149,-10.2998,33.4385,-6.96203,-6.09217,-18.4013
7.83144,17.3998,22.7989,-179.157,-2.60038,-172.863,9.38212,2.26307,2.58847,2.47285,3.06941,1.12199,-2.60783,1.4224,-0.637015,6.56995,-14.5637,-25.6193,6.64462,-22.9923,19.5694,6.2148,-11.884,8.4957,2.61402e-14,2.78299e-14,-22.4612,-3.03992,-80.4257,39.4068,-3.43056,-24.7771,13.9418,7.12502,1.72681,-16.0309,2.61402e-14,2.78299e-14,-43.1834,22.3249,69.8635,22.096,-7.69698,-12.8321,30.3947,7.12502,13.255,59.9532,13.5769,4.2993,32.2794,23.9787,-13.5673,-0.307785,-54.7278,-33.6315,-0.377523,-10.6897,33.8547,-6.04099,-6.05439,-20.5677
7.80835,17.4168,22.62,-179.243,-2.83507,-173.023,9.47422,2.26355,2.41064,2.39712,3.06357,0.992945,-2.74014,1.42212,-0.676215,6.50115,-14.8049,-25.352,6.82429,-23.2752,19.2117,6.26693,-12.0133,8.28092,-2.52457e-14,1.19271e-15,-22.8969,-3.31028,-80.5083,39.2866,-3.59068,-24.7957,14.1796,7.12502,1.70888,-15.7933,-2.52457e-14,1.19271e-15,-43.8018,22.9669,68.8354,21.6278,-8.46143,-12.7288,29.7502,7.12502,13.3547,59.3022,13.0599,3.99244,32.0375,25.8475,-13.9168,1.47028,-54.8365,-33.1918,-0.279224,-11.0514,34.3263,-5.55127,-6.01095,-21.1197
7.78633,17.4273,22.4428,-179.37,-3.17393,-173.198,9.45837,2.24409,2.20106,2.49221,3.00889,0.929675,-2.64207,1.39605,-0.615305,6.46554,-15.002,-25.3923,6.80499,-23.5521,19.3188,6.34993,-12.1423,8.26268,5.1684e-15,1.43125e-14,-23.157,-3.43293,-80.5266,39.2759,-3.93816,-24.6417,14.278,7.12502,1.85763,-15.6937,5.1684e-15,1.43125e-14,-44.1397,23.5044,68.2119,21.3249,-8.91973,-12.764,30.0675,7.12502,13.3206,59.6218,12.4587,3.54713,31.7819,27.839,-14.2178,3.44818,-54.9877,-32.7037,-0.200005,-11.426,34.8495,-5.32521,-6.13172,-20.0994
7.76167,17.4345,22.2741,-179.503,-3.55594,-173.258,9.41406,2.22219,2.17991,2.69355,2.95644,0.895344,-2.40932,1.36794,-0.626138,6.3906,-15.0898,-25.7501,6.83197,-23.7802,19.9033,6.54872,-12.2533,8.44486,-7.15625e-15,-1.43125e-14,-23.2617,-3.48641,-80.5413,39.338,-4.14267,-24.5503,13.9184,7.12502,1.94591,-16.0525,-7.15625e-15,-1.43125e-14,-44.1873,23.9811,67.8223,21.0512,-9.21582,-12.7297,30.5172,7.12502,13.3537,60.0693,11.7262,2.80723,31.5438,29.9109,-14.5738,5.6844,-55.3233,-32.2543,-0.0947452,-11.6774,35.4016,-5.26143,-6.32226,-20.1253
7.73253,17.4425,22.1029,-179.645,-3.8407,-173.21,9.3971,2.19646,2.24929,2.76524,2.92113,0.907805,-2.32348,1.34922,-0.645668,6.69552,-14.8871,-26.1616,6.79459,-23.7235,20.5511,6.61425,-12.2588,8.75401,-2.67365e-14,-7.55382e-15,-23.6381,-3.47315,-80.5586,39.4281,-4.12751,-24.5082,13.3639,7.12502,1.98658,-16.6066,-2.67365e-14,-7.55382e-15,-44.5196,24.0768,67.5699,20.988,-9.15545,-12.4824,30.6023,7.12502,13.5921,60.1386,10.9536,2.02443,31.3569,32.0479,-14.8965,8.01896,-55.603,-31.8435,0.0651126,-11.8063,35.9617,-5.70505,-6.48568,-20.4631
7.70274,17.4481,21.9271,-179.764,-4.00006,-173.236,9.37427,2.17667,2.19099,2.7513,2.89179,0.939881,-2.33087,1.33524,-0.576304,7.39238,-14.5844,-26.3806,6.31185,-23.4719,20.9595,6.37123,-12.1847,9.04211,2.87244e-14,-3.97569e-16,-24.1271,-3.3489,-80.5625,39.3532,-4.07588,-24.4707,13.4472,7.12502,2.02279,-16.523,2.87244e-14,-3.97569e-16,-45.0254,23.9586,67.4837,21.0959,-8.83009,-12.3259,30.6148,7.12502,13.7429,60.1409,10.1172,1.34611,31.0667,34.275,-15.1679,10.6608,-55.6177,-31.4735,0.318376,-12.0098,36.5018,-6.354,-6.73415,-19.3203
7.67783,17.45,21.7526,-179.905,-4.20442,-173.349,9.37399,2.12441,2.04874,2.77978,2.8073,0.918085,-2.30938,1.29358,-0.509467,7.86974,-14.54,-26.2857,5.83283,-23.4222,20.974,6.12302,-12.1809,9.09445,5.01931e-14,-3.97569e-15,-24.6167,-3.08993,-80.6709,39.3518,-4.07206,-24.4133,14.1389,7.12502,2.07822,-15.8307,5.01931e-14,-3.97569e-15,-45.328,23.8289,67.4654,21.1771,-8.49906,-12.3147,30.9523,7.12502,13.7537,60.4778,9.2364,0.592408,30.6972,36.614,-15.143,13.1745,-55.5263,-31.0809,0.57661,-12.2829,37.0097,-6.35455,-7.42481,-18.5601
7.65292,17.4523,21.5791,-180.094,-4.58064,-173.592,9.43497,2.03515,1.82736,2.78103,2.66964,0.820579,-2.35078,1.22635,-0.473537,7.81949,-14.7199,-25.9625,6.01461,-23.5948,20.4758,6.12022,-12.2542,8.84656,-1.41137e-14,2.22639e-14,-25.2247,-2.84065,-80.836,39.4948,-4.01585,-24.3365,14.5381,7.12502,2.1524,-15.4308,-1.41137e-14,2.22639e-14,-45.6074,23.5726,67.3858,21.1958,-8.27391,-12.1574,31.1816,7.12502,13.9053,60.6967,8.27557,-0.320595,30.1658,39.1088,-15.1654,15.514,-55.6034,-30.6032,0.748771,-12.7191,37.4798,-5.89092,-8.45388,-18.6219
7.6255,17.4544,21.4076,-180.284,-5.00345,-173.981,9.49647,1.96493,1.48888,2.81748,2.54226,0.704857,-2.35971,1.16386,-0.390927,7.27351,-14.9911,-25.7367,6.62146,-23.8353,19.8411,6.33876,-12.337,8.5008,3.98563e-14,-3.18055e-15,-25.6094,-2.74868,-80.9123,39.4411,-3.95374,-24.1271,14.5402,7.12502,2.35465,-15.4265,3.98563e-14,-3.18055e-15,-45.8185,23.3067,67.3816,21.2204,-8.12116,-11.788,30.7325,7.12502,14.2613,60.2229,7.18166,-1.3037,29.4056,41.767,-15.4297,17.9003,-55.6063,-30.0722,0.918272,-13.3568,37.9113,-5.71708,-9.33361,-17.1927
7.60229,17.4545,21.2421,-180.446,-5.33164,-174.361,9.66256,1.92252,1.1472,2.82643,2.45282,0.603619,-2.45402,1.11907,-0.299551,6.83516,-15.1791,-25.719,7.01695,-24.0122,19.5572,6.5337,-12.3987,8.32178,-2.46493e-14,7.95139e-16,-25.8268,-2.70332,-80.9706,39.1598,-3.89586,-23.7794,14.5273,7.12502,2.69041,-15.4355,-2.46493e-14,7.95139e-16,-46.0049,22.9075,67.5542,21.3835,-7.79553,-11.4413,30.2213,7.12502,14.5954,59.6877,5.94987,-2.15302,28.6948,44.5163,-15.471,20.2454,-55.364,-29.5638,1.19896,-13.9861,38.3173,-5.89794,-9.98114,-15.2181
7.57762,17.4544,21.0797,-180.564,-5.52282,-174.868,9.77095,1.92127,0.717544,2.80929,2.40931,0.450942,-2.54395,1.09902,-0.215526,6.96098,-15.1398,-25.9242,7.02137,-24.0499,19.7871,6.58078,-12.431,8.42696,5.2181e-14,-1.31198e-14,-26.1477,-2.66789,-81.0509,38.97,-3.58141,-23.4471,14.1896,7.12502,3.01132,-15.7689,5.2181e-14,-1.31198e-14,-46.2445,21.9702,68.0946,21.8932,-6.86507,-11.2899,30.318,7.12502,14.7412,59.7738,4.65018,-2.81736,27.8444,47.2444,-15.4176,22.4931,-55.134,-29.0544,1.45947,-14.75,38.7306,-6.40147,-10.2717,-14.7479
7.54851,17.4555,20.9116,-180.751,-5.67505,-175.488,9.69188,1.9217,0.175643,2.93958,2.3436,0.286137,-2.38164,1.06494,-0.0692271,7.42666,-14.8986,-26.2984,6.5907,-23.909,20.5492,6.49019,-12.3985,8.80479,-1.6201e-14,2.78299e-15,-26.4407,-2.5796,-81.1412,39.0488,-3.54953,-22.8373,13.9919,7.12502,3.60019,-15.9574,-1.6201e-14,2.78299e-15,-46.3089,21.2015,68.6577,22.3522,-5.98701,-11.1609,30.6057,7.12502,14.8654,60.0524,3.51013,-3.46921,26.811,49.8336,-15.5399,24.5224,-54.9644,-28.3635,1.55577,-15.597,39.1513,-7.07463,-10.268,-14.918
7.51741,17.4512,20.7381,-181.055,-6.0029,-175.953,9.83312,1.82218,-0.19669,3.03057,2.16214,0.174156,-2.37531,0.970831,0.0423551,7.88118,-14.6204,-26.6119,6.05666,-23.6968,21.3519,6.3499,-12.3325,9.20673,-7.65321e-15,2.94201e-14,-26.7856,-2.28173,-81.284,39.1059,-4.06371,-21.9365,14.4035,7.12502,4.47008,-15.5293,-7.65321e-15,2.94201e-14,-46.4079,20.9321,68.8576,22.5265,-5.647,-10.9174,30.5773,7.12502,15.1,60.0066,2.58533,-4.27982,25.9282,52.2429,-15.5282,26.3322,-54.5623,-27.5429,1.47648,-16.2589,39.5587,-7.81302,-10.2673,-15.178
7.48146,17.4421,20.5665,-181.408,-6.45439,-176.348,10.192,1.65099,-0.41934,3.03825,1.9015,0.0831804,-2.56823,0.838335,0.0946743,7.71366,-14.5907,-26.7452,6.17754,-23.6598,21.4088,6.43025,-12.3102,9.23337,-2.68359e-15,-1.19271e-15,-27.2078,-1.95564,-81.434,39.095,-4.04377,-21.2983,14.2736,7.12502,5.08629,-15.6454,-2.68359e-15,-1.19271e-15,-46.613,20.5183,69.143,22.7063,-5.20085,-10.7504,30.2533,7.12502,15.261,59.6703,1.73209,-5.25884,25.0225,54.4949,-15.2855,28.4151,-53.8534,-26.7085,1.24419,-16.8858,39.9552,-8.75678,-10.1987,-14.5507
7.44564,17.435,20.4024,-181.744,-6.68438,-176.841,10.3036,1.56917,-0.756833,3.2493,1.73336,-0.00016586,-2.41763,0.74488,0.219174,6.60184,-14.9626,-26.8077,6.85339,-23.9135,20.9002,6.82493,-12.3603,8.90057,3.0911e-14,-5.1684e-15,-27.3893,-1.85349,-81.5203,39.0637,-3.18057,-21.1811,13.8896,7.12502,5.1995,-16.0267,3.0911e-14,-5.1684e-15,-46.4174,20.1184,69.7293,22.8386,-4.71994,-10.7941,29.9071,7.12502,15.2188,59.3274,0.793365,-6.06798,23.9628,56.6798,-14.7989,30.6293,-52.8747,-25.828,1.06135,-17.6015,40.2975,-9.62977,-9.95851,-13.7104
7.41161,17.4245,20.2388,-182.057,-6.55065,-177.383,10.207,1.64741,-1.21264,3.52114,1.76561,-0.0799331,-2.09499,0.747278,0.395076,7.26222,-14.8177,-26.86,5.87703,-23.7514,21.3818,6.4475,-12.3104,9.17319,-4.77083e-15,1.47101e-14,-27.63,-1.82706,-81.5609,38.8831,-2.37014,-21.4871,14.7008,7.12502,4.90399,-15.2225,-4.77083e-15,1.47101e-14,-46.1538,19.7711,70.3278,22.995,-4.4486,-10.8931,29.2851,7.12502,15.1235,58.7125,-0.159286,-6.44917,22.9439,58.8134,-13.7072,32.054,-51.5508,-24.8755,0.966187,-18.2946,40.5733,-10.261,-9.48245,-14.6465
7.38718,17.4079,20.0885,-182.41,-6.96934,-178.129,10.6141,1.60153,-1.94791,3.54002,1.60577,-0.206825,-2.31303,0.661828,0.687392,8.04376,-14.6855,-26.7995,5.28983,-23.6869,21.5497,6.13693,-12.324,9.3173,2.23633e-14,-2.38542e-15,-28.1344,-1.80558,-81.5979,38.6704,-2.0505,-21.7272,15.4105,7.12502,4.67217,-14.518,2.23633e-14,-2.38542e-15,-46.2252,19.3528,70.6774,23.1037,-4.41368,-10.8636,28.6352,7.12502,15.1519,58.0605,-1.04775,-7.27226,21.749,60.9512,-12.2153,32.699,-50.0446,-23.9616,0.440564,-19.2355,40.8429,-11.031,-9.10288,-15.4253
7.35614,17.3971,19.9302,-182.821,-7.18796,-178.745,11.1329,1.55978,-2.5174,3.48867,1.46218,-0.295062,-2.65879,0.589329,0.923527,8.4216,-14.6223,-26.8129,5.1785,-23.6891,21.5141,6.0366,-12.3508,9.3456,1.0138e-14,-2.38542e-15,-28.5782,-1.65136,-81.6719,38.3899,-1.85035,-21.7924,15.1525,7.12502,4.60926,-14.7773,1.0138e-14,-2.38542e-15,-46.3442,19.3224,70.7489,22.971,-4.685,-10.7243,28.7114,7.12502,15.2861,58.1265,-1.86594,-7.97447,20.6433,63.0416,-10.9912,32.9583,-49.2233,-22.9529,0.0356809,-20.0538,41.1494,-12.0929,-8.64891,-15.23
7.33563,17.3841,19.7933,-183.07,-7.02261,-178.64,11.4832,1.52179,-2.49557,3.46731,1.40489,-0.123607,-2.8745,0.561051,1.09045,8.17676,-14.5759,-27.0335,5.32789,-23.6009,21.4876,6.12406,-12.2974,9.35678,3.37934e-15,-1.19271e-15,-28.7315,-1.29392,-81.7461,37.9477,-1.64461,-21.9328,15.2797,7.12502,4.47363,-14.653,3.37934e-15,-1.19271e-15,-46.26,19.1896,71.229,23.1447,-4.44965,-10.684,29.0501,7.12502,15.3249,58.4623,-3.20259,-8.26267,20.6131,65.1298,-9.74206,32.7932,-49.4383,-22.3331,-0.163841,-19.9628,41.4853,-12.8186,-8.15382,-16.6803
7.32141,17.3683,19.6686,-183.182,-6.71599,-178.515,11.5801,1.54818,-2.4959,3.55245,1.43398,0.052326,-2.84446,0.569565,1.26872,7.8376,-14.4979,-27.1765,5.31067,-23.4034,21.5526,6.15269,-12.1801,9.40385,-4.82053e-15,7.55382e-15,-28.7262,-1.19402,-81.8021,37.5914,-1.64022,-21.9091,15.2698,7.12502,4.49653,-14.6624,-4.82053e-15,7.55382e-15,-45.942,18.7066,72.074,23.642,-3.80225,-10.7373,29.0992,7.12502,15.2736,58.5153,-4.81661,-8.35257,20.7383,67.1669,-8.40869,32.1176,-49.7295,-21.9411,-0.304142,-19.7976,41.8246,-13.213,-7.57793,-19.2722
7.30057,17.3558,19.5296,-183.365,-6.71038,-178.939,11.6283,1.57027,-2.9413,3.71654,1.39159,0.0284287,-2.70836,0.536389,1.50155,7.86682,-14.3866,-27.2094,4.94009,-23.2161,21.8218,6.02965,-12.0874,9.5432,6.70898e-15,1.27222e-14,-28.8523,-1.59002,-81.8283,37.4014,-1.66712,-21.4388,14.1469,7.12502,4.95069,-15.7752,6.70898e-15,1.27222e-14,-45.4905,18.3419,72.714,23.9596,-3.54851,-10.6027,29.3117,7.12502,15.4032,58.7179,-6.03259,-8.81062,20.0472,69.0225,-7.23426,30.626,-49.6901,-21.319,-0.586869,-20.3246,42.1249,-13.7405,-7.14928,-19.6013
7.27736,17.3438,19.3835,-183.609,-6.85468,-179.335,11.7335,1.5607,-3.31859,3.78729,1.31959,-0.0145104,-2.69604,0.494299,1.67846,8.16656,-14.2679,-27.1983,4.66353,-23.1222,22.0489,5.90191,-12.0623,9.67029,3.8266e-15,-3.97569e-15,-29.1862,-1.94225,-81.8667,37.1351,-1.61731,-21.0937,13.1833,7.12502,5.28388,-16.7308,3.8266e-15,-3.97569e-15,-45.085,18.1421,73.0746,23.985,-3.67773,-10.4327,29.7493,7.12502,15.5669,59.1428,-7.01046,-9.43028,19.3304,70.6621,-6.17898,28.4295,-49.6508,-20.5207,-0.889607,-20.8473,42.2955,-14.5595,-6.91751,-17.7894
7.25799,17.3356,19.2398,-183.799,-6.7249,-179.489,11.7549,1.59182,-3.5126,3.77119,1.33885,0.0123302,-2.73043,0.504521,1.81241,8.3589,-14.2236,-27.1907,4.65881,-23.1255,22.0372,5.8661,-12.0791,9.68426,1.15792e-14,5.56597e-15,-29.5092,-1.97897,-81.967,36.6721,-1.61844,-21.3263,12.9283,7.12502,5.05933,-16.9913,1.15792e-14,5.56597e-15,-44.7383,18.3358,73.0987,23.6927,-4.16328,-10.4498,29.5219,7.12502,15.5505,58.9167,-8.18416,-9.6434,19.0255,72.0942,-5.35531,26.2407,-49.6953,-19.7407,-0.94112,-21.0589,42.3378,-15.0384,-6.50544,-19.2547
7.24251,17.3336,19.0993,-183.916,-6.51129,-179.888,11.8241,1.66516,-4.00039,3.78916,1.37073,0.0159158,-2.76238,0.517466,2.08539,8.10236,-14.3039,-27.2791,4.68299,-23.1601,21.9708,5.92645,-12.0771,9.63959,5.46658e-15,-1.70955e-14,-29.6717,-2.28036,-81.9601,36.1729,-1.46219,-21.6202,12.7907,7.12502,4.77552,-17.1354,5.46658e-15,-1.70955e-14,-44.4,18.4836,73.2948,23.6803,-4.3646,-10.5988,29.3265,7.12502,15.4069,58.7323,-9.5194,-9.68934,18.4843,73.3486,-4.90112,24.1724,-49.7701,-18.967,-0.897525,-21.5212,42.3112,-15.597,-6.13052,-19.5697
7.2243,17.3294,18.9642,-184.066,-6.36216,-180.305,12.1475,1.6809,-4.39806,3.81551,1.31364,-0.0152344,-2.91541,0.485283,2.28071,7.83139,-14.3451,-27.2696,4.93981,-23.197,21.8982,6.04726,-12.0818,9.57855,1.44119e-15,4.96962e-15,-29.7325,-2.72589,-81.9829,35.6254,-1.36898,-21.8246,13.1035,7.12502,4.57813,-16.827,1.44119e-15,4.96962e-15,-44.0786,18.638,73.5204,23.9235,-4.34894,-10.7803,29.6807,7.12502,15.2321,59.0999,-10.7101,-9.80964,17.889,74.3832,-4.76999,21.7978,-49.9254,-18.1656,-0.902078,-22.0107,42.2529,-16.0558,-5.96096,-18.6237
7.1998,17.3262,18.8288,-184.238,-5.86026,-180.423,12.0347,1.79821,-4.30166,4.06716,1.46059,-0.0751695,-2.59843,0.535521,2.14678,7.61962,-14.4081,-27.0728,4.80006,-23.1942,21.9841,6.02791,-12.0608,9.56315,-2.05245e-14,9.34288e-15,-29.478,-3.36952,-82.1362,34.936,-1.39408,-22.2173,13.9247,7.12502,4.19898,-16.0136,-2.05245e-14,9.34288e-15,-43.2111,19.2008,73.4925,23.7209,-4.90108,-10.9584,29.6018,7.12502,15.0606,59.034,-11.8772,-9.56334,17.6747,75.1962,-4.92776,19.532,-50.1101,-17.3689,-0.716873,-22.1632,42.1583,-16.4114,-5.67961,-17.6534
7.17301,17.3279,18.6899,-184.36,-5.28032,-180.653,12.0036,1.96574,-4.34808,4.04168,1.6745,-0.164628,-2.62155,0.642411,2.04898,8.43083,-14.2228,-26.8771,4.3722,-23.1114,22.1748,5.74415,-12.0734,9.70403,3.06625e-14,-6.55989e-15,-29.7035,-4.07789,-82.1988,34.3154,-1.43098,-22.4137,14.0373,7.12502,4.00928,-15.9047,3.06625e-14,-6.55989e-15,-42.7895,19.4063,73.4607,23.5631,-5.3324,-11.1885,29.5383,7.12502,14.8389,58.9869,-13.0734,-9.13731,17.3569,75.8164,-5.30824,17.3347,-50.1601,-16.5416,-0.562302,-22.4524,42.0252,-16.8385,-5.28339,-16.3998
7.15329,17.3256,18.557,-184.433,-5.0788,-181.042,11.9756,1.99449,-4.66987,4.01991,1.67214,-0.244139,-2.63521,0.640861,2.14767,8.70686,-14.1486,-26.7574,4.14304,-23.039,22.2024,5.59994,-12.0538,9.74201,-9.19379e-15,1.80894e-14,-29.8259,-4.66394,-82.2155,33.7504,-1.44988,-22.1581,13.0272,7.12502,4.25611,-16.91,-9.19379e-15,1.80894e-14,-42.3758,19.7564,73.449,23.456,-5.6691,-11.5142,29.6723,7.12502,14.5251,59.1438,-14.2622,-9.03174,16.8954,76.2507,-5.67926,15.0733,-50.0993,-15.7255,-0.625554,-22.9204,41.8361,-17.3876,-5.11613,-13.8672
7.13983,17.3225,18.428,-184.455,-4.89404,-181.252,11.9221,1.95149,-4.87675,4.02959,1.59274,-0.244922,-2.59538,0.599219,2.27584,9.0746,-14.029,-26.8596,3.85749,-22.9724,22.4662,5.48446,-12.049,9.89749,7.00716e-15,2.64384e-14,-29.8808,-5.18659,-82.2737,33.183,-1.08744,-22.168,12.4063,7.12502,4.24657,-17.5311,7.00716e-15,2.64384e-14,-41.8749,20.3565,73.3901,23.3347,-5.95831,-11.6824,30.061,7.12502,14.363,59.5441,-15.5569,-8.93787,16.7266,76.4874,-6.01303,13.2686,-50.0845,-14.9674,-0.610089,-23.1742,41.5544,-17.6191,-4.69165,-15.7029
7.12176,17.3249,18.2939,-184.509,-4.64133,-181.474,11.9154,1.92368,-5.03771,3.96581,1.54099,-0.254191,-2.65802,0.578078,2.36354,9.4502,-13.9117,-27.1018,3.84018,-22.9846,22.6705,5.47629,-12.0904,10.035,6.03808e-15,2.48481e-14,-30.1671,-5.49842,-82.3991,32.6412,-1.07797,-22.5813,12.5863,7.12502,3.84747,-17.3587,6.03808e-15,2.48481e-14,-41.6054,20.1911,73.7035,23.5935,-5.49253,-11.5762,30.59,7.12502,14.4654,60.0658,-16.7114,-8.7642,16.5199,76.4744,-6.445,11.5685,-50.2133,-14.1375,-0.567503,-23.4772,41.2239,-18.0415,-4.24546,-16.1056
7.1023,17.3302,18.1643,-184.591,-4.61114,-181.862,11.9068,1.80343,-5.38235,3.87339,1.34583,-0.289496,-2.74081,0.487846,2.54798,9.71348,-13.7204,-27.1814,4.0892,-22.8561,22.5134,5.4607,-12.0541,10.0434,-3.08862e-14,-7.15625e-15,-30.5374,-5.98765,-82.2874,33.2211,2.08139,-20.2899,6.20585,7.12502,6.05991,-23.6875,-3.08862e-14,-7.15625e-15,-41.5108,19.8381,74.0818,23.9289,-4.73628,-11.6375,30.3059,7.12502,14.4063,59.7859,-17.7411,-8.85231,16.0766,76.2544,-6.82062,9.67411,-50.3487,-13.3223,-0.709443,-24.0102,40.9099,-18.4587,-3.87226,-15.6773
7.08714,17.3377,18.0464,-184.605,-4.6237,-182.04,11.9944,1.5627,-5.59809,3.65899,1.01389,-0.228853,-2.98875,0.343438,2.77843,9.71481,-13.4913,-27.2177,4.5502,-22.5921,22.0514,5.47156,-11.9333,9.93964,-1.33931e-14,1.15295e-14,-30.9741,-5.92124,-82.4209,32.3821,1.55167,-19.867,6.32863,7.12502,6.46825,-23.5526,-1.33931e-14,1.15295e-14,-41.6552,19.9811,74.1506,24.1284,-4.18676,-11.9368,29.8552,7.12502,14.1179,59.3556,-18.8476,-8.98154,15.9592,75.8007,-6.90837,7.73214,-50.51,-12.7433,-0.903833,-24.3037,40.6568,-18.7198,-3.37494,-16.1107
7.07113,17.351,17.9248,-184.651,-4.40998,-182.039,12.2529,1.58385,-5.27915,3.9295,1.02689,-0.33294,-2.84223,0.323595,2.48742,7.7374,-14.1278,-26.4935,5.33495,-22.9254,21.4533,5.95622,-11.952,9.37678,1.86609e-14,6.75868e-15,-30.2421,-7.03789,-82.5645,30.6595,0.926105,-38.267,1.47702,7.12502,-11.2967,-28.1988,1.86609e-14,6.75868e-15,-40.2716,19.9063,74.6278,24.154,-3.87261,-12.1967,29.7093,7.12502,13.8674,59.227,-19.8105,-8.86099,16.0937,75.1002,-6.76697,5.83945,-50.6735,-12.2406,-0.980442,-24.3876,40.4112,-18.9274,-2.80322,-16.6826
7.05211,17.3823,17.793,-184.74,-4.16006,-182.107,12.185,1.47499,-5.37068,3.71368,0.9008,-0.247627,-3.02262,0.281604,2.6461,8.31109,-13.7912,-26.5301,5.34287,-22.6314,21.3339,5.77665,-11.8561,9.45617,-7.45443e-17,1.07344e-14,-30.7811,-7.07163,-82.5861,30.4699,1.69949,-22.4507,12.1749,7.12502,3.97355,-17.7678,-7.45443e-17,1.07344e-14,-40.3963,19.7146,74.8627,24.4691,-3.34681,-12.3181,29.7536,7.12502,13.7505,59.2792,-20.5948,-8.72022,16.0962,74.1058,-6.65736,4.32031,-50.5627,-11.8342,-1.04452,-24.5687,40.1686,-19.0665,-2.50097,-16.8596
7.03454,17.37,17.6669,-184.773,-3.96246,-182.223,12.1257,1.35687,-5.41536,3.67645,0.748739,-0.210449,-3.017,0.209303,2.73297,7.932,-13.7228,-26.6598,5.79228,-22.55,21.2774,5.96297,-11.8072,9.43191,-1.50331e-15,6.36111e-15,-30.9796,-7.15078,-82.6688,30.439,2.27348,-20.4866,7.97058,7.12502,5.87002,-21.9281,-1.50331e-15,6.36111e-15,-40.0691,19.5246,75.2099,24.7752,-2.75573,-12.376,30.4428,7.12502,13.6946,59.9722,-21.6536,-8.63136,16.0528,73.1687,-6.57468,3.24044,-50.365,-10.83,-1.11176,-24.7988,39.8242,-19.5426,-1.92817,-17.7895
7.01729,17.39,17.5336,-184.818,-3.66297,-182.426,12.0802,1.31453,-5.50861,3.68607,0.682247,-0.220172,-2.9771,0.174331,2.78548,7.46501,-13.7384,-26.6656,6.24436,-22.5317,21.1232,6.15402,-11.7788,9.33797,-1.39274e-14,-2.29596e-14,-31.1613,-7.2852,-82.7745,29.8539,1.86403,-20.0202,8.17921,7.12502,6.32034,-21.7065,-1.39274e-14,-2.29596e-14,-39.5553,19.2214,75.6866,25.1185,-2.21449,-12.6149,31.1217,7.12502,13.4644,60.6665,-22.5367,-8.4385,15.9385,71.9231,-6.40965,2.54455,-50.3232,-10.095,-1.05491,-25.1158,39.3932,-19.294,-1.58293,-16.5712
7.00686,17.4155,17.4067,-184.831,-3.54021,-182.637,11.9977,1.2206,-5.71428,3.70439,0.540051,-0.179577,-2.90201,0.101156,2.96507,7.47953,-13.6972,-26.4688,6.1671,-22.4076,20.8698,6.04039,-11.7125,9.25168,-6.42944e-15,-1.83876e-15,-31.213,-7.27996,-82.8699,28.9254,1.18814,-20.3563,10.5806,7.12502,5.99586,-19.3146,-6.42944e-15,-1.83876e-15,-39.0373,18.7535,76.3543,25.6401,-1.54797,-12.8526,31.6721,7.12502,13.2352,61.2319,-23.384,-8.37747,15.8349,70.5444,-6.09744,1.94297,-50.1993,-9.39756,-1.06641,-25.4138,38.8365,-19.0687,-1.36018,-15.6571
7.00286,17.4368,17.2877,-184.79,-3.69627,-182.695,12.0123,1.01959,-5.83337,3.66533,0.267535,-0.0765116,-2.92579,-0.0297825,3.17957,7.67173,-13.6172,-26.2524,5.92006,-22.2451,20.6486,5.83903,-11.6353,9.1989,-5.61877e-15,-1.05604e-14,-31.3954,-7.13053,-83.0071,28.2609,0.337262,-20.6189,12.546,7.12502,5.74229,-17.3562,-5.61877e-15,-1.05604e-14,-38.5901,18.2117,76.9818,26.2298,-0.853518,-12.8146,32.6735,7.12502,13.2719,62.2309,-24.161,-8.52728,15.9126,69.0055,-5.64747,1.09194,-49.986,-8.67293,-1.20684,-25.5148,38.2397,-19.1683,-1.16371,-16.0225
6.99218,17.4524,17.1657,-184.808,-3.5734,-182.756,12.1717,0.913018,-5.84637,3.52953,0.122138,-0.0459793,-3.14082,-0.0877509,3.24063,7.40582,-13.6156,-26.1265,6.2715,-22.2065,20.3515,5.92738,-11.6068,9.06268,5.06241e-15,-1.32005e-15,-31.8872,-7.30801,-83.0214,28.1069,0.844151,-20.2333,12.5572,7.12502,6.11457,-17.3346,5.06241e-15,-1.32005e-15,-38.2495,17.5571,77.4158,26.6688,-0.130479,-12.7794,33.3061,7.12502,13.3058,62.8613,-24.8488,-8.43207,15.955,67.3635,-5.28607,-0.205953,-50.0052,-7.83515,-1.19178,-25.6608,37.5844,-19.4409,-0.615665,-17.3681
6.97837,17.463,17.0436,-184.787,-3.24759,-182.916,12.3231,0.870444,-5.94368,3.37367,0.0500574,-0.0477804,-3.37964,-0.107604,3.30531,6.95609,-13.6224,-26.0094,6.7546,-22.1604,20.0576,6.08703,-11.5675,8.91268,-8.79001e-15,-1.93815e-14,-32.1859,-7.24631,-83.1151,27.6053,1.21415,-20.0334,13.1772,7.12502,6.30754,-16.7089,-8.79001e-15,-1.93815e-14,-37.9642,16.997,77.7794,27.0572,0.590908,-12.9188,32.8029,7.12502,13.1714,62.3668,-25.5906,-8.14751,15.8725,65.6185,-5.04527,-1.29881,-50.1425,-6.96838,-1.11852,-25.9341,36.8689,-19.9044,-0.0416507,-18.2715
6.96695,17.4765,16.9217,-184.683,-3.01208,-183.186,12.28,0.770382,-6.2402,3.28399,-0.108872,-0.0150894,-3.43266,-0.177407,3.53101,6.63242,-13.5478,-25.8776,6.94228,-21.9651,19.8122,6.10546,-11.4555,8.81886,4.46644e-15,6.41081e-15,-32.2686,-6.84949,-83.2278,27.0185,1.59043,-19.9311,14.4822,7.12502,6.40633,-15.4009,4.46644e-15,6.41081e-15,-37.6663,16.694,78.1175,27.4039,0.974438,-13.0231,31.8336,7.12502,13.071,61.404,-26.3242,-7.95099,15.6734,63.7241,-4.75115,-1.63619,-50.1333,-6.13911,-1.13578,-26.3095,36.1226,-20.3095,0.0940733,-17.6493
6.95776,17.4963,16.7991,-184.591,-2.78309,-183.493,12.3838,0.655386,-6.60361,3.10062,-0.303701,0.0289396,-3.65824,-0.253316,3.81387,6.1637,-13.5172,-25.8827,7.28993,-21.8287,19.5416,6.22468,-11.37,8.70918,1.01629e-14,1.68967e-15,-32.6611,-6.50214,-83.2597,26.784,2.16553,-19.633,15.211,7.12502,6.69412,-14.6632,1.01629e-14,1.68967e-15,-37.5351,16.0917,78.5295,27.8924,1.33396,-12.9913,31.447,7.12502,13.1016,61.0155,-26.9628,-7.7826,15.4488,61.6607,-4.42169,-1.57933,-50.0925,-5.33025,-1.09229,-26.7059,35.361,-20.222,0.148972,-17.2678
6.95579,17.5174,16.682,-184.45,-2.74514,-183.613,12.1365,0.538107,-6.71918,3.18972,-0.4543,0.0551928,-3.4104,-0.339631,3.92597,7.62659,-13.1184,-25.2819,6.00798,-21.4064,19.7072,5.44276,-11.22,8.90542,-2.11209e-15,1.86858e-14,-32.8178,-6.62375,-83.3311,26.9346,2.78186,-19.1379,13.7317,7.12502,7.17203,-16.1268,-2.11209e-15,1.86858e-14,-36.7635,15.0762,79.2129,28.4441,1.77007,-13.1083,31.2723,7.12502,12.9888,60.848,-27.5277,-7.67634,15.4457,59.4084,-4.2022,-1.40893,-50.1237,-4.63588,-1.10479,-26.8449,34.5704,-19.704,0.224112,-17.3256
6.95192,17.5368,16.5649,-184.284,-2.64754,-183.691,12.0438,0.43583,-6.79171,3.14394,-0.584222,0.0953068,-3.39085,-0.39994,4.02723,6.98053,-13.2211,-25.0969,6.29427,-21.3975,19.5243,5.59225,-11.1771,8.76051,-9.13167e-15,-4.67144e-15,-33.1061,-6.55811,-83.4414,27.0487,3.20294,-18.7823,11.7238,7.12502,7.51532,-18.1227,-9.13167e-15,-4.67144e-15,-36.1871,14.1549,79.7814,28.9324,1.98469,-13.2062,30.9611,7.12502,12.8945,60.5428,-28.0217,-7.45331,15.4647,56.9832,-4.18752,-0.929067,-50.1595,-3.96333,-1.11554,-26.9384,33.6828,-19.2865,0.297554,-16.8047
6.94343,17.5696,16.4391,-184.153,-2.29534,-183.713,11.9382,0.378414,-6.78146,3.07191,-0.640731,0.14984,-3.40092,-0.421261,4.08602,6.35816,-13.3185,-24.9414,6.65513,-21.396,19.2573,5.75567,-11.1424,8.59221,-1.83876e-15,-4.57205e-15,-33.2287,-6.47931,-83.53,26.6722,3.66383,-18.7196,11.2093,7.12502,7.57579,-18.6351,-1.83876e-15,-4.57205e-15,-35.7608,13.3413,80.2025,29.4309,2.14232,-12.8665,31.0941,7.12502,13.2219,60.6548,-28.3939,-6.95956,15.5304,54.3134,-4.1853,0.212342,-50.0635,-3.33059,-1.02469,-26.9872,32.8352,-19.1212,0.367571,-16.0431
6.93778,17.5972,16.3125,-184.018,-1.93049,-183.591,11.8378,0.296399,-6.69044,2.91118,-0.710307,0.2627,-3.50527,-0.439185,4.16318,6.13012,-14.0702,-24.8799,7.20132,-21.0869,18.8301,5.88744,-10.7836,8.44094,4.44781e-15,-1.78906e-15,-33.6411,-6.20207,-83.6259,26.5088,3.88969,-18.5433,11.1745,7.12502,7.74595,-18.6637,4.44781e-15,-1.78906e-15,-35.6365,12.3253,80.6021,30.1603,2.49691,-12.4793,31.5369,7.12502,13.5951,61.073,-28.7318,-6.31298,15.7127,51.5207,-4.28531,1.79895,-49.8186,-2.44097,-0.876889,-26.8709,31.8811,-19.1334,0.585599,-16.2327
6.94346,17.6358,16.2098,-183.743,-2.24976,-183.692,11.9963,0.0199874,-6.94597,2.64514,-1.10035,0.36788,-3.817,-0.600852,4.48136,5.9698,-14.1812,-25.0189,7.46083,-21.2313,18.8383,6.0442,-10.847,8.41997,2.21893e-14,5.96354e-16,-34.0778,-5.61313,-83.7846,26.5081,3.76083,-18.2725,10.9323,7.12502,8.00737,-18.896,2.21893e-14,5.96354e-16,-35.6014,11.2556,81.0197,31.0185,3.06787,-12.5032,31.3661,7.12502,13.5721,60.9038,-29.0375,-6.16986,15.5459,48.5493,-4.68979,3.48481,-49.5736,-2.01556,-0.996874,-26.9097,30.9216,-18.7792,0.178654,-15.8224
6.93664,17.6538,16.0858,-183.639,-2.17022,-183.912,11.8802,-0.113132,-7.15019,2.66193,-1.29091,0.405734,-3.70526,-0.698096,4.66143,5.71335,-14.3259,-25.1991,7.57188,-21.4136,18.9563,6.19773,-10.9257,8.42652,-1.30204e-14,7.95139e-16,-34.0798,-5.25768,-83.8952,26.2316,3.80472,-18.3797,11.2027,7.12502,7.90384,-18.6295,-1.30204e-14,7.95139e-16,-35.1107,10.4838,81.3902,31.5977,3.40208,-12.6657,30.4088,7.12502,13.4155,59.9569,-29.1715,-5.82388,15.2055,45.5901,-5.37,5.43074,-49.3734,-1.02869,-0.878563,-27.1666,29.9308,-18.8747,0.310912,-17.0231
6.93153,17.6753,15.9595,-183.541,-2.06363,-184.064,11.7175,-0.209974,-7.27669,2.75583,-1.42337,0.440702,-3.49518,-0.776459,4.78279,5.0893,-14.4323,-24.4586,7.77853,-21.347,18.2421,6.17857,-10.8554,8.04941,-1.38155e-14,-2.48481e-14,-34.0754,-5.02757,-84.0164,26.1726,3.79441,-18.5137,11.433,7.12502,7.77458,-18.4041,-1.38155e-14,-2.48481e-14,-34.5533,9.38801,81.8682,32.3295,3.88333,-13.0419,29.6924,7.12502,13.0528,59.264,-29.1559,-5.37796,14.9672,42.5886,-5.80518,7.22165,-49.0148,-0.191389,-0.793404,-27.3372,29.0527,-18.8574,0.400044,-18.0343
6.93251,17.6848,15.8415,-183.394,-2.10491,-184.204,11.7358,-0.362095,-7.45883,2.73181,-1.64669,0.478912,-3.49364,-0.884498,4.95813,4.47209,-14.4411,-22.8282,7.69235,-21.0234,16.7243,5.8209,-10.6592,7.35069,2.02512e-14,-1.47101e-14,-34.2375,-4.67302,-84.2073,26.3008,3.54793,-18.3901,11.0883,7.12502,7.89384,-18.7443,2.02512e-14,-1.47101e-14,-34.3726,7.90627,82.3324,33.6274,4.7044,-13.2535,30.235,7.12502,12.8488,59.8195,-29.0968,-4.95686,14.7293,39.6782,-6.12521,8.1592,-48.5138,0.574701,-0.751892,-27.4495,28.0675,-18.5855,0.275038,-18.7359
6.93414,17.6864,15.7236,-183.302,-2.02703,-184.144,11.7262,-0.511388,-7.46708,2.67644,-1.836,0.577786,-3.51622,-0.972612,5.09408,3.76237,-14.6506,-22.8659,8.02694,-21.2049,16.6487,6.07397,-10.7168,7.23535,-2.26118e-14,3.57812e-15,-34.2988,-4.65994,-84.2164,26.0344,3.81564,-18.585,11.4851,7.12502,7.7057,-18.3545,-2.26118e-14,3.57812e-15,-34.0718,6.99085,82.4793,34.5893,4.49189,-12.4248,31.4712,7.12502,13.6476,61.0038,-29.0116,-4.30455,14.6614,36.9101,-6.44849,8.51101,-48.2259,1.48952,-0.517445,-27.3025,26.981,-18.4248,0.0510864,-18.7987
6.9343,17.6784,15.5999,-183.244,-1.98792,-184.033,11.6282,-0.693233,-7.4261,2.61714,-2.0506,0.722041,-3.48976,-1.07432,5.25023,4.65265,-14.2531,-23.5978,7.54006,-20.9066,17.6484,5.91337,-10.6112,7.78626,-1.05356e-14,3.57812e-15,-34.4211,-4.66984,-84.1149,25.6882,4.16045,-19.0852,12.5579,7.12502,7.22288,-17.2988,-1.05356e-14,3.57812e-15,-33.7036,6.52175,82.4969,35.079,3.78988,-11.4165,32.0916,7.12502,14.6192,61.5564,-28.8878,-3.54424,14.552,34.2905,-6.74796,8.28593,-48.1225,2.60295,-0.282166,-27.0948,25.9265,-18.5145,-0.137431,-18.8199
6.93432,17.6507,15.4754,-183.096,-2.04151,-184.195,11.467,-0.869145,-7.61552,2.5777,-2.28583,0.778143,-3.39809,-1.18941,5.44246,6.11617,-14.0026,-24.9769,6.47876,-21.0108,19.5012,5.74113,-10.7416,8.69679,4.87022e-15,-2.26615e-14,-34.6189,-4.63684,-84.0774,25.5772,4.27752,-19.3802,13.0977,7.12502,6.9381,-16.7686,4.87022e-15,-2.26615e-14,-33.2918,5.8666,82.5851,35.5453,3.82883,-11.2853,31.8461,7.12502,14.7457,61.3016,-28.8608,-2.65945,14.04,31.8068,-6.75977,7.32972,-47.8648,3.86367,-0.226335,-27.2259,24.7965,-18.6004,0.0034787,-20.3819
6.93281,17.6464,15.3486,-182.934,-2.03576,-184.646,11.2288,-0.950915,-7.97399,2.66533,-2.42528,0.655991,-3.14405,-1.27364,5.52138,6.51932,-13.9828,-25.3322,5.80441,-21.1239,20.4267,5.64725,-10.8175,9.07583,1.59028e-15,-4.37326e-15,-34.6814,-4.92463,-84.0952,25.7038,4.58182,-19.3418,12.8612,7.12502,6.97518,-17.0039,1.59028e-15,-4.37326e-15,-32.5022,5.00563,82.6304,35.7358,3.98943,-12.4572,29.8109,7.12502,13.6164,59.3455,-28.7966,-1.65898,13.1624,29.3666,-6.57919,5.98367,-47.7627,5.21895,-0.3834,-27.6929,23.7074,-18.7593,-0.17802,-19.6911
6.93456,17.6444,15.2205,-182.85,-2.11736,-184.957,11.1725,-1.05899,-8.19934,2.67561,-2.59637,0.555582,-3.07068,-1.36227,5.56077,6.36202,-14.0113,-25.1072,5.73517,-21.1197,20.5028,5.63562,-10.8,9.05953,-2.45499e-14,3.26007e-14,-34.946,-5.05653,-84.1666,26.082,4.56823,-19.0255,12.4528,7.12502,7.28055,-17.4019,-2.45499e-14,3.26007e-14,-31.9394,4.14712,82.5964,35.9178,3.93867,-14.2517,27.0219,7.12502,11.8864,56.6645,-28.6578,-0.715918,12.4295,27.0221,-6.38465,4.82217,-48.0792,5.66754,-0.169797,-27.9756,22.6476,-18.1239,-0.30692,-21.2656
6.93496,17.6322,15.0971,-182.795,-2.19191,-185.159,11.1716,-1.17571,-8.31698,2.6933,-2.76917,0.517075,-3.02122,-1.4518,5.60686,6.03867,-14.1235,-24.8696,5.9131,-21.1949,20.3022,5.70983,-10.8147,8.91716,8.94531e-16,2.0276e-14,-35.0384,-5.24196,-84.151,26.1043,4.44657,-19.0029,13.8059,7.12502,7.30233,-16.048,8.94531e-16,2.0276e-14,-31.5329,3.31877,82.5974,36.4205,4.08568,-14.82,26.7368,7.12502,11.3384,56.4103,-28.5435,0.0461423,11.8359,24.795,-6.35863,4.03204,-48.2309,6.54217,-0.246393,-28.1449,21.7118,-17.9985,-0.682965,-20.1247
6.92465,17.6168,14.9739,-182.77,-1.92229,-185.501,11.06,-1.17428,-8.473,2.81503,-2.78635,0.435666,-2.82579,-1.47869,5.60197,5.82093,-14.1948,-24.7939,5.8887,-21.2532,20.3521,5.74982,-10.8295,8.89453,2.73329e-15,1.35174e-14,-34.8753,-5.56479,-84.0478,25.8463,4.50166,-19.1181,15.1186,7.12502,7.19117,-14.7392,2.73329e-15,1.35174e-14,-30.9571,2.62197,82.5944,37.0086,4.27283,-14.6708,27.4177,7.12502,11.4823,57.0832,-28.5234,0.417401,11.2469,22.7894,-6.87241,3.46884,-48.1365,7.44418,-0.164855,-28.5761,20.7924,-17.9003,-0.791008,-19.2079
6.92945,17.6081,14.8383,-182.684,-2.27626,-185.63,11.0088,-1.40538,-8.58854,2.78522,-3.09702,0.471666,-2.77134,-1.63245,5.73944,5.87865,-14.1819,-24.8115,5.84942,-21.242,20.3376,5.72572,-10.8285,8.89923,8.94531e-15,2.38542e-15,-35.1056,-5.60122,-83.9775,25.9519,4.38048,-18.9997,14.696,7.12502,7.30548,-15.1578,8.94531e-15,2.38542e-15,-30.59,2.06698,82.5278,37.6751,4.46905,-15.0514,26.739,7.12502,11.1152,56.4246,-28.355,0.863057,10.7438,21.081,-6.36874,2.75685,-47.9419,8.39548,-0.40393,-28.5816,20.0429,-18.0332,-1.4344,-17.7623
6.9384,17.6012,14.7102,-182.567,-2.51816,-185.666,10.9378,-1.58891,-8.6551,2.80332,-3.33891,0.514544,-2.6676,-1.75817,5.845,5.56726,-14.32,-24.537,5.9723,-21.3383,19.9689,5.75996,-10.858,8.69343,3.598e-14,-3.18055e-15,-35.2069,-5.70794,-83.9884,26.0856,4.28037,-19.1383,14.4047,7.12502,7.17165,-15.4538,3.598e-14,-3.18055e-15,-30.0513,1.48,82.3907,38.2294,4.66142,-14.9581,26.6031,7.12502,11.2051,56.2838,-28.3259,1.49689,10.372,19.7751,-5.51087,1.8756,-47.7743,8.79301,-0.146066,-28.437,19.4579,-17.8539,-1.79362,-19.4645
6.94191,17.586,14.58,-182.524,-2.47083,-185.557,10.8193,-1.70156,-8.53435,2.89962,-3.46282,0.59443,-2.48319,-1.83506,5.86474,4.86241,-14.4788,-24.1617,6.42566,-21.3911,19.3942,5.91408,-10.8449,8.37824,-1.32689e-14,-1.43125e-14,-35.1176,-5.87991,-83.9604,25.9722,4.36823,-19.2998,13.0198,7.12502,7.01579,-16.844,-1.32689e-14,-1.43125e-14,-29.4597,0.906696,82.2954,38.4642,5.10523,-14.626,27.4287,7.12502,11.5255,57.0918,-28.3781,1.93707,10.3195,18.9481,-4.99037,0.723837,-47.7136,9.34379,-0.00716063,-28.2201,19.0583,-17.8641,-2.05065,-19.9351
6.94194,17.5658,14.4502,-182.387,-2.25418,-185.545,10.7682,-1.78379,-8.52376,2.77069,-3.55246,0.707022,-2.56869,-1.86507,5.98907,4.6482,-14.4735,-24.0773,6.80482,-21.3215,18.9632,5.98834,-10.8038,8.21499,2.52457e-14,5.1684e-15,-35.3912,-5.92142,-83.7717,25.9431,4.44544,-19.1544,11.361,7.12502,7.15612,-18.498,2.52457e-14,5.1684e-15,-29.1713,0.369281,82.3079,38.4723,5.93725,-14.9494,27.6986,7.12502,11.2136,57.3789,-28.5444,1.91967,10.3479,18.3807,-4.9703,-0.236368,-47.4946,9.6865,0.116818,-28.1682,19.0224,-18.1796,-2.13431,-20.3274
6.94433,17.5396,14.3266,-182.14,-2.15067,-185.714,10.7271,-1.85047,-8.65375,2.58709,-3.63895,0.753614,-2.71278,-1.88652,6.12518,4.70154,-14.5086,-24.0641,6.8291,-21.3618,18.7935,5.97335,-10.8292,8.15398,1.27719e-14,1.59028e-14,-35.6727,-6.16003,-83.4878,25.891,4.55003,-19.0588,11.0611,7.12502,7.24844,-18.7948,1.27719e-14,1.59028e-14,-28.7711,-0.107734,82.2447,38.5557,6.31818,-15.1075,27.5943,7.12502,11.0611,57.2829,-28.8631,1.37893,10.343,18.1569,-5.37068,-0.64122,-47.3677,9.81853,0.220052,-28.2941,19.1385,-18.5237,-2.26629,-20.5852
6.95081,17.5144,14.2071,-181.971,-2.04707,-185.753,10.7335,-1.90105,-8.67169,2.51381,-3.70236,0.816703,-2.77704,-1.90927,6.2121,4.5284,-14.5554,-24.0788,6.87722,-21.4005,18.8119,6.02947,-10.8389,8.13952,2.16675e-14,-8.34896e-15,-35.7506,-6.62068,-83.1208,25.5881,5.00402,-19.1454,11.7226,7.12502,7.16479,-18.1361,2.16675e-14,-8.34896e-15,-28.3529,-0.372056,82.0778,38.9895,6.2144,-14.7542,28.1358,7.12502,11.4018,57.8058,-29.2758,0.7381,10.5966,18.3843,-6.01034,-0.503761,-47.4225,10.0445,0.282783,-28.2484,19.2064,-18.7529,-2.49288,-20.5608
6.95749,17.4913,14.0834,-181.951,-1.70341,-185.799,10.8517,-1.87925,-8.76798,2.449,-3.69141,0.903295,-2.89996,-1.89344,6.36718,4.63204,-14.4695,-24.2789,6.8387,-21.3237,19.0157,6.03132,-10.8079,8.25615,-1.80894e-14,-7.95139e-15,-35.872,-7.19158,-82.631,25.1149,5.7254,-19.2968,13.0516,7.12502,7.01862,-16.8121,-1.80894e-14,-7.95139e-15,-28.0126,-0.470007,81.9365,39.337,6.16307,-14.5461,28.8413,7.12502,11.6025,58.5001,-29.6551,0.383337,10.8724,18.9442,-6.73711,0.0991895,-47.3622,10.4385,0.356733,-28.271,19.2153,-18.9159,-2.51916,-20.5679
6.96405,17.466,13.952,-181.978,-1.23521,-185.916,10.963,-1.79466,-8.90418,2.4089,-3.60433,0.956554,-3.00634,-1.84226,6.49985,4.92759,-14.3817,-24.4269,6.61423,-21.2651,19.2172,5.94128,-10.7962,8.38029,-5.83433e-14,-3.97569e-15,-35.8938,-7.73733,-82.2098,24.6736,6.08056,-19.3855,13.7196,7.12502,6.933,-16.1469,-5.83433e-14,-3.97569e-15,-27.5582,-0.505629,81.7934,39.528,6.16758,-14.5936,29.0749,7.12502,11.5567,58.7363,-29.9711,0.204339,11.0599,19.7216,-7.44659,0.914326,-47.389,10.9476,0.448705,-28.4211,19.1575,-19.0558,-2.36351,-20.5271
6.96748,17.4436,13.8157,-181.987,-0.931833,-186.176,10.9595,-1.74488,-9.06262,2.51926,-3.56666,0.901444,-2.88868,-1.8384,6.52243,4.70886,-14.4185,-24.3264,6.5201,-21.2776,19.3293,5.95392,-10.7871,8.38433,-2.64384e-14,-1.55052e-14,-35.6931,-8.1067,-82.0684,24.6565,6.39307,-19.2409,12.9338,7.12502,7.07266,-16.9281,-2.64384e-14,-1.55052e-14,-26.9939,-0.530515,81.5616,39.8707,6.10865,-14.7389,29.0121,7.12502,11.4166,58.6813,-30.2698,-0.17181,11.083,20.7156,-8.08207,1.50752,-47.4504,11.5549,0.417105,-28.746,18.9534,-19.0975,-2.25319,-20.4149
6.96949,17.4225,13.6764,-182.009,-0.79907,-186.514,11.0154,-1.77621,-9.26098,2.60883,-3.65063,0.793515,-2.80528,-1.89263,6.52909,4.12977,-14.5026,-24.1607,6.74782,-21.2973,19.3043,6.10361,-10.7606,8.29963,-3.13086e-14,-2.26615e-14,-35.5716,-8.56466,-81.937,24.3503,6.5769,-19.5003,13.2957,7.12502,6.82218,-16.5743,-3.13086e-14,-2.26615e-14,-26.5456,-0.480899,81.2644,40.1587,6.14028,-15.0567,28.8858,7.12502,11.1101,58.5717,-30.4843,-0.615342,10.9662,21.808,-8.70788,1.74146,-47.1162,12.2301,0.299571,-29.1502,18.7075,-19.0146,-2.24651,-20.9832
6.97707,17.3982,13.5376,-181.954,-0.641188,-186.582,11.0335,-1.84425,-9.28691,2.56363,-3.74383,0.812111,-2.84324,-1.93373,6.57655,4.06341,-14.4663,-24.1594,6.75814,-21.2396,19.3541,6.1111,-10.7276,8.32109,-1.60022e-14,3.26007e-14,-35.6738,-8.96127,-81.7177,24.0439,6.73525,-19.8436,13.2497,7.12502,6.49078,-16.6309,-1.60022e-14,3.26007e-14,-26.2261,-0.212953,80.9848,40.2478,6.10591,-15.1325,29.0405,7.12502,11.0369,58.7303,-30.7443,-0.769603,11.0623,22.8822,-9.52104,1.80737,-46.6055,12.8478,0.287544,-29.2008,18.5314,-18.8449,-2.31304,-23.0838
6.98938,17.3767,13.3964,-181.892,-0.303885,-186.453,10.9458,-1.88103,-9.21554,2.50656,-3.76416,0.949411,-2.84598,-1.93844,6.68115,4.35414,-14.3384,-24.2899,6.56251,-21.1076,19.3846,5.99062,-10.6841,8.39862,-1.02374e-14,4.77083e-15,-35.8319,-9.08585,-81.4697,23.9584,6.83447,-19.9902,13.0721,7.12502,6.34928,-16.8127,-1.02374e-14,4.77083e-15,-26.0451,0.2526,80.7815,40.3499,5.83309,-15.2841,28.7737,7.12502,10.8908,58.4713,-31.017,-0.483532,11.3179,23.9319,-10.4425,1.79877,-46.4862,13.3869,0.414036,-29.0347,18.3428,-18.5059,-2.30114,-23.2451
7.00177,17.3621,13.2505,-181.911,-0.112595,-186.448,10.9392,-1.92635,-9.23462,2.55299,-3.82559,1.03035,-2.77514,-1.9766,6.78255,4.0795,-14.3557,-24.183,6.67855,-21.0622,19.1469,6.02063,-10.6503,8.28937,-1.21259e-14,1.59028e-14,-35.6821,-9.4831,-81.151,23.5918,7.3403,-20.0566,13.7387,7.12502,6.28514,-16.1481,-1.21259e-14,1.59028e-14,-25.966,0.696278,80.6145,40.7768,5.77279,-15.3847,28.7429,7.12502,10.7937,58.4455,-31.0627,-0.242394,11.4065,24.9102,-11.4073,1.67765,-46.7706,13.9545,0.487282,-29.0069,18.127,-18.0974,-2.29498,-23.6167
7.01213,17.3571,13.1019,-181.877,-0.306094,-186.712,10.9878,-2.02705,-9.42862,2.61289,-3.99454,0.986828,-2.69771,-2.07009,6.86455,3.63991,-14.4773,-23.9143,6.77537,-21.138,19.0287,6.09622,-10.659,8.16325,-7.72278e-14,-2.22639e-14,-35.4861,-10.0867,-80.8558,23.3026,7.92404,-19.8524,13.6696,7.12502,6.48228,-16.2112,-7.72278e-14,-2.22639e-14,-25.7052,1.09045,80.4274,41.1157,5.83797,-15.1806,29.3125,7.12502,10.9906,59.0048,-31.0199,-0.397896,11.1647,25.7843,-12.5807,1.84273,-47.2859,14.5055,0.295058,-29.2777,17.9293,-17.7279,-2.32148,-24.2539
7.02482,17.3683,12.9449,-181.772,-0.479747,-186.777,10.9151,-2.18506,-9.48567,2.56931,-4.19728,1.048,-2.65665,-2.16905,6.97963,3.81721,-14.4305,-23.9234,6.54316,-21.1006,19.1578,6.00345,-10.6492,8.23096,8.74653e-15,1.59028e-15,-35.4474,-10.5887,-80.4557,22.9237,8.35665,-19.7348,13.2558,7.12502,6.59586,-16.6215,8.74653e-15,1.59028e-15,-25.5529,1.69396,80.2574,41.1316,5.76443,-15.4321,28.8517,7.12502,10.748,58.5568,-31.074,-0.333662,11.0755,26.6034,-13.537,2.75446,-47.5615,15.0077,0.0171206,-29.3427,17.683,-17.2488,-2.30444,-25.1157
7.03476,17.3826,12.7839,-181.709,-0.396227,-186.462,10.8459,-2.30578,-9.18554,2.49255,-4.30176,1.24365,-2.68644,-2.21338,7.02756,4.12227,-14.3031,-24.0451,6.33421,-20.9729,19.2285,5.88189,-10.6067,8.32098,-6.37105e-14,3.97569e-15,-35.4533,-11.1825,-79.8767,22.2984,8.9127,-20.0652,13.588,7.12502,6.27691,-16.299,-6.37105e-14,3.97569e-15,-25.6941,2.33346,80.1675,41.2635,5.82865,-15.6231,28.4995,7.12502,10.5638,58.214,-31.1697,-0.163619,11.4444,27.2985,-14.394,4.2136,-47.3208,15.5714,-0.213136,-29.0534,17.552,-16.7737,-2.13745,-26.4336
7.04188,17.3901,12.6306,-181.65,-0.340846,-186.193,10.9875,-2.40365,-8.92136,2.38169,-4.40367,1.44541,-2.86627,-2.24799,7.11942,4.03795,-14.2768,-24.084,6.43091,-20.9106,19.0601,5.89548,-10.5763,8.2733,-9.24349e-14,1.82882e-14,-35.567,-11.5403,-79.3856,21.9861,9.25565,-20.2969,13.0943,7.12502,6.05318,-16.7992,-9.24349e-14,1.82882e-14,-25.8908,2.91028,80.1766,41.4247,5.91558,-15.5085,29.2621,7.12502,10.6743,58.9709,-31.2553,-0.296732,11.8339,27.875,-15.3961,5.60823,-47.1172,16.2221,-0.551323,-28.8667,17.6178,-16.3238,-1.77129,-28.7357
7.05151,17.4155,12.4789,-181.538,-0.365721,-185.929,11.0374,-2.54605,-8.66422,2.31738,-4.55872,1.63274,-2.93733,-2.31873,7.19682,3.78336,-14.2869,-24.0417,6.59027,-20.8649,18.8432,5.94579,-10.5442,8.18115,6.38099e-14,0,-35.4217,-12.1284,-78.8758,21.3925,9.85032,-20.3962,12.8932,7.12502,5.95734,-17.0031,6.38099e-14,0,-26.0877,3.60032,80.1495,41.6041,5.90886,-15.5552,29.8808,7.12502,10.6292,59.592,-31.2022,-0.436765,12.1955,28.2993,-16.1204,6.44364,-47.1266,16.3129,-0.837764,-28.6205,17.8982,-15.4508,-1.7872,-30.5011
7.0599,17.4356,12.3191,-181.455,-0.128251,-185.635,10.9773,-2.58489,-8.28222,2.28536,-4.55452,1.74535,-2.9596,-2.31533,7.09704,3.62597,-14.2847,-23.8761,6.68902,-20.8142,18.6493,5.94974,-10.5109,8.09032,1.14699e-13,-5.56597e-15,-35.3146,-13.0671,-78.299,20.7432,10.6295,-20.5139,13.4444,7.12502,5.84365,-16.455,1.14699e-13,-5.56597e-15,-26.3422,4.17666,80.0416,41.8808,6.04894,-15.5637,30.2243,7.12502,10.6211,59.9359,-31.1033,-0.323163,12.5564,28.6457,-16.9751,6.9418,-47.1715,16.4341,-0.979476,-28.3597,18.3566,-14.6112,-1.91844,-30.8371
7.06883,17.4562,12.1533,-181.4,0.221286,-185.324,11.0178,-2.82716,-7.97388,2.24071,-4.37508,1.88657,-3.04649,-2.03002,7.04412,3.48609,-14.3225,-23.6765,6.72521,-20.8081,18.3652,5.92658,-10.5022,7.95949,7.89175e-14,-3.81667e-14,-35.4684,-13.7594,-77.7497,20.5918,11.0085,-20.5142,13.2361,7.12502,5.84342,-16.6633,7.89175e-14,-3.81667e-14,-26.4966,4.65798,80.0597,41.9577,6.24352,-15.7818,30.014,7.12502,10.4107,59.7362,-30.9492,0.069903,12.8719,28.9289,-17.9619,7.51492,-47.2655,16.4966,-1.03321,-28.0879,19.1009,-13.5905,-1.99627,-30.7204
7.08219,17.4792,11.9888,-181.292,0.676103,-184.915,10.9227,-2.76943,-7.62836,2.24387,-4.24309,2.11461,-3.02267,-1.96871,7.07028,3.30618,-14.3224,-23.5337,6.64934,-20.7466,18.1686,5.88031,-10.4657,7.87293,2.8625e-14,7.95139e-15,-35.5339,-14.4382,-77.1605,20.4658,11.5041,-20.3878,12.6034,7.12502,5.96547,-17.2926,2.8625e-14,7.95139e-15,-26.5218,5.20744,80.1544,41.8465,6.47107,-16.1079,29.2245,7.12502,10.0961,58.9623,-30.8275,0.588173,13.3626,29.2725,-18.5051,7.9413,-47.7777,16.4239,-0.975922,-27.6797,19.9278,-12.5702,-1.95617,-31.8296
7.10323,17.5022,11.8293,-181.133,1.38541,-184.46,10.8488,-2.66345,-7.32414,2.12789,-4.06631,2.34317,-3.14102,-1.8777,7.12259,3.25426,-14.2006,-23.5303,6.68359,-20.5609,18.0901,5.85024,-10.3744,7.8747,7.65321e-15,-5.56597e-15,-35.7963,-14.7497,-76.7328,20.4481,11.8655,-20.2312,11.8637,7.12502,6.11657,-18.028,7.65321e-15,-5.56597e-15,-26.9485,5.72903,80.1438,41.9448,6.89709,-16.0976,29.0484,7.12502,10.106,58.7857,-30.7972,1.10731,14.0936,29.6924,-18.592,8.22259,-48.2988,16.1916,-0.797143,-27.22,20.8329,-11.6426,-1.87293,-33.3964
7.12521,17.5292,11.6558,-181.038,1.42527,-184.067,10.8284,-2.75719,-6.97166,2.02218,-4.1501,2.51395,-3.24024,-1.91635,7.11693,3.29325,-14.1131,-23.5576,6.73824,-20.4517,18.121,5.84416,-10.3222,7.91016,4.00551e-14,-2.38542e-14,-36.0978,-14.8221,-76.4838,20.4951,11.8582,-20.2094,11.6391,7.12502,6.13766,-18.2519,4.00551e-14,-2.38542e-14,-27.5625,5.99172,80.1285,42.3435,7.52104,-16.2183,29.2088,7.12502,9.98959,58.9517,-30.5085,0.939842,14.7793,30.1821,-18.4152,8.10121,-48.8613,16.0122,-0.992698,-26.6935,21.8642,-10.5915,-2.27816,-34.0154
7.1373,17.5479,11.4785,-180.98,1.59356,-183.866,10.5612,-2.81144,-6.72776,2.10074,-4.168,2.61362,-3.01726,-1.93849,7.06326,3.28287,-14.0295,-23.5383,6.69987,-20.3338,18.1572,5.81111,-10.2634,7.9396,4.41302e-14,-3.18055e-14,-36.0587,-15.0364,-76.1976,20.2619,11.8957,-20.2523,12.1425,7.12502,6.09625,-17.7498,4.41302e-14,-3.18055e-14,-28.0106,6.18238,80.211,42.7319,8.02985,-16.5855,28.9984,7.12502,9.63525,58.7581,-30.2314,0.545323,15.2377,30.7254,-18.7542,7.65872,-49.7144,15.8119,-1.04397,-26.4479,22.9852,-9.38745,-2.70414,-34.4624
7.15556,17.5709,11.3024,-180.985,1.82256,-183.742,10.4067,-2.81859,-6.65726,2.14593,-4.15152,2.73217,-2.88299,-1.93714,7.13469,3.05714,-13.9661,-23.4847,6.88085,-20.1931,17.9472,5.84439,-10.1869,7.86754,5.06901e-15,7.95139e-15,-36.0349,-15.1278,-75.8949,20.0964,11.7531,-20.0791,12.4215,7.12502,6.26342,-17.4659,5.06901e-15,7.95139e-15,-28.4409,6.31748,80.3779,42.8636,8.33863,-16.5955,29.2589,7.12502,9.62562,59.0189,-29.8845,0.536802,15.5069,31.2747,-18.995,7.09449,-50.0522,15.5762,-1.03613,-26.2727,24.1779,-8.01717,-3.14132,-35.0978
7.18079,17.5959,11.124,-181.066,1.94794,-183.831,10.5044,-2.79082,-6.84544,2.0845,-4.1437,2.77929,-2.98514,-1.9268,7.3017,2.68063,-13.9864,-23.3938,7.3525,-20.145,17.6308,5.99714,-10.1476,7.72481,-2.04748e-14,1.51076e-14,-36.361,-14.9733,-75.7524,20.3738,11.2104,-19.9952,12.3078,7.12502,6.34448,-17.5771,-2.04748e-14,1.51076e-14,-28.8153,6.1826,80.5387,42.8512,8.78952,-16.247,30.3026,7.12502,9.96186,60.0468,-29.3815,0.622462,15.5105,31.7591,-19.0888,6.52065,-50.5731,15.2637,-1.02055,-26.278,25.5401,-6.40826,-3.64179,-35.5098
7.20138,17.6147,10.9487,-181.12,2.18928,-183.835,10.5517,-2.78532,-6.9206,2.01553,-4.15051,2.84274,-3.0723,-1.92507,7.4201,2.42287,-13.8987,-23.3289,7.78007,-19.9699,17.363,6.09919,-10.0526,7.63375,3.24019e-14,-5.725e-14,-36.6589,-14.5365,-75.7587,20.6136,10.5804,-20.1331,12.1962,7.12502,6.21128,-17.6927,3.24019e-14,-5.725e-14,-29.2434,6.1476,80.6555,42.8994,9.37346,-16.1263,30.6715,7.12502,10.0783,60.4102,-28.9167,0.649766,15.6399,32.1525,-19.3352,6.16458,-51.4543,14.7661,-0.899812,-26.2284,27.1026,-4.52695,-4.04487,-35.8948
7.22275,17.6356,10.7749,-181.162,2.46835,-183.53,10.4462,-2.76303,-6.62837,2.09264,-4.06946,2.93632,-2.96119,-1.89119,7.33341,1.96924,-13.8303,-23.1236,8.11375,-19.7876,17.1491,6.19558,-9.94085,7.52896,2.10712e-14,-4.77083e-15,-36.4461,-14.8715,-75.5881,20.308,10.7197,-20.1253,12.0164,7.12502,6.21888,-17.8723,2.10712e-14,-4.77083e-15,-29.4397,5.96225,80.7935,42.9528,9.87856,-16.0421,30.4324,7.12502,10.1595,60.1671,-28.4441,0.832339,16.0913,32.4832,-19.569,5.91393,-52.0729,14.1421,-0.578127,-25.7423,28.8389,-2.75393,-4.46143,-36.8695
7.24443,17.6594,10.6009,-181.22,2.52659,-183.322,10.3615,-2.73482,-6.38455,2.17069,-3.99098,2.97029,-2.86085,-1.85753,7.21248,1.63981,-13.7941,-22.875,8.3307,-19.6733,16.9976,6.25226,-9.86524,7.43826,-3.20043e-14,4.05521e-14,-36.2847,-15.5903,-75.3023,20.0247,11.2141,-20.2029,12.0551,7.12502,6.14397,-17.8358,-3.20043e-14,4.05521e-14,-29.5583,5.57866,80.998,42.897,9.96829,-15.7725,30.4788,7.12502,10.4196,60.2006,-27.8859,0.786941,16.4271,32.767,-19.8698,5.53261,-52.5899,13.3866,-0.264437,-25.2879,30.7117,-0.887921,-4.85261,-37.452
7.26319,17.678,10.4286,-181.235,2.6023,-183.158,10.4523,-2.78488,-6.32006,2.02073,-4.05718,3.12256,-3.05096,-1.88021,7.35896,1.5815,-13.5853,-22.7516,8.64474,-19.3351,16.5471,6.22905,-9.70678,7.32282,-5.34731e-14,1.82882e-14,-36.598,-14.6457,-75.4399,20.4223,10.4568,-20.3278,12.1897,7.12502,6.02338,-17.7046,-5.34731e-14,1.82882e-14,-30.2249,5.55491,81.2513,42.8257,9.74463,-15.8951,29.6566,7.12502,10.3013,59.3843,-27.3886,0.595712,16.7477,33.0129,-20.1563,5.20214,-53.0447,12.4723,0.0670371,-24.9096,32.675,1.51708,-5.10519,-36.643
7.28536,17.69,10.2543,-181.299,2.84468,-182.795,10.5243,-2.84196,-6.14436,1.92917,-4.10672,3.34919,-3.1742,-1.89672,7.5162,1.30302,-13.3207,-22.6999,9.17898,-18.8929,16.1238,6.30393,-9.48888,7.2241,-1.59028e-15,2.54444e-14,-36.8585,-13.4107,-75.7112,20.942,9.5163,-20.2664,12.3701,7.12502,6.08267,-17.5225,-1.59028e-15,2.54444e-14,-30.8825,5.59158,81.4802,42.8185,9.63654,-16.1298,28.8575,7.12502,10.0749,58.5963,-26.8937,0.710028,17.3091,33.2884,-20.2032,5.0296,-53.4297,11.5872,0.632617,-24.2399,34.667,3.99716,-5.3569,-35.4788
7.30844,17.6992,10.0822,-181.449,3.11197,-182.449,10.4346,-2.77563,-5.84353,2.07415,-3.96151,3.42951,-3.0122,-1.83178,7.40081,0.846384,-13.2122,-22.5543,9.65743,-18.6726,16.0139,6.46158,-9.35748,7.16807,3.27995e-14,-3.02153e-14,-36.7485,-13.4667,-75.718,21.0153,9.49281,-20.1777,12.8125,7.12502,6.16824,-17.0777,3.27995e-14,-3.02153e-14,-30.9957,5.195,81.7189,42.8074,9.49044,-15.8363,29.1755,7.12502,10.3581,58.9004,-26.3495,0.966738,17.8567,33.6414,-20.1098,4.88878,-53.7822,10.7158,1.26784,-23.5461,36.7067,6.41291,-5.54934,-34.2091
7.32504,17.7045,9.91191,-181.613,3.2357,-182.304,10.4592,-2.70233,-5.61966,2.17115,-3.83038,3.4218,-2.96188,-1.76847,7.24729,0.190983,-13.1897,-22.2274,10.3168,-18.5115,15.5995,6.67405,-9.25059,6.96159,7.55382e-14,-7.31528e-14,-36.6651,-13.4855,-75.7602,21.1018,9.36073,-19.9899,12.9184,7.12502,6.34959,-16.9664,7.55382e-14,-7.31528e-14,-31.1885,4.58884,81.9978,42.863,9.30348,-15.415,29.2289,7.12502,10.7645,58.9331,-25.7634,1.02203,18.1332,34.0817,-20.0931,4.56439,-54.0861,9.81343,1.71103,-23.1299,38.8044,8.97204,-5.66607,-32.5519
7.34306,17.7034,9.74058,-181.786,3.2707,-182.134,10.6434,-2.66785,-5.41656,2.14182,-3.76343,3.46716,-3.11619,-1.72684,7.18597,-0.380647,-13.0989,-21.9106,10.9816,-18.2508,15.0498,6.84503,-9.10636,6.73427,4.72114e-14,-3.26007e-14,-36.779,-12.976,-75.9335,21.396,8.79862,-19.7782,12.6436,7.12502,6.55396,-17.235,4.72114e-14,-3.26007e-14,-31.6531,3.95697,82.3443,42.9516,9.05659,-15.1968,29.0998,7.12502,10.9749,58.793,-25.1334,1.11272,18.4081,34.5603,-20.0232,4.11246,-54.4476,8.93617,2.06149,-22.6699,40.9548,11.5331,-5.91456,-31.0216
7.36632,17.6993,9.57123,-181.943,3.40459,-181.92,10.7232,-2.56856,-5.29187,2.12737,-3.61175,3.56063,-3.20174,-1.64584,7.20349,-0.542132,-12.8764,-21.7347,11.2645,-17.9049,14.8768,6.86221,-8.92963,6.69642,4.25399e-14,-1.27222e-14,-36.953,-12.3235,-76.1401,21.8389,8.04981,-19.7469,12.4747,7.12502,6.58412,-17.403,4.25399e-14,-1.27222e-14,-32.257,3.27468,82.8033,43.2664,8.7771,-14.9977,29.427,7.12502,11.167,59.1098,-24.5882,1.44144,18.7656,35.0303,-19.8718,3.84807,-54.9905,8.0382,2.48288,-22.1129,43.1811,13.91,-6.07372,-29.0725
7.38707,17.7036,9.40247,-182.098,3.57363,-181.656,10.7288,-2.49794,-5.10893,2.13682,-3.48622,3.66431,-3.21986,-1.58104,7.19509,-0.433964,-12.5024,-21.9057,11.3932,-17.4482,15.2502,6.84941,-8.69944,6.92698,-2.14687e-14,-3.10104e-14,-37.1193,-11.9516,-76.1689,22.1683,7.73742,-19.72,12.75,7.12502,6.61014,-17.1268,-2.14687e-14,-3.10104e-14,-32.8732,2.64841,83.2218,43.7484,8.82577,-14.4519,30.2765,7.12502,11.6934,59.9301,-24.0763,1.71995,19.1867,35.4827,-19.8782,3.61875,-55.5372,7.07901,2.91965,-21.5195,45.4572,15.8765,-5.92045,-26.6118
7.40865,17.7103,9.24005,-182.227,3.56744,-181.247,10.76,-2.53196,-4.7346,2.15766,-3.47377,3.77717,-3.23346,-1.57242,7.10045,-0.411403,-12.0417,-22.0378,11.4789,-16.8696,15.7173,6.81488,-8.40119,7.19879,1.39149e-15,4.77083e-15,-37.0902,-11.7409,-76.2069,22.2637,7.749,-19.6131,12.5805,7.12502,6.7133,-17.2931,1.39149e-15,4.77083e-15,-33.132,2.22906,83.4606,43.9358,8.48967,-14.0817,30.3829,7.12502,12.0504,60.016,-23.5825,1.91972,19.7684,35.9087,-19.7219,3.29928,-55.8806,5.94217,3.24241,-20.747,47.752,17.5223,-5.61118,-24.2186
7.43588,17.7064,9.08601,-182.352,3.54606,-180.958,10.8081,-2.53568,-4.55209,2.24184,-3.444,3.83848,-3.18344,-1.55727,7.05717,1.06668,-11.0511,-21.5064,10.1706,-15.721,15.9218,5.89242,-7.88001,7.4491,1.78906e-14,1.90833e-14,-36.8348,-11.1668,-76.631,22.5225,7.31979,-19.6924,11.6493,7.12502,6.63676,-18.2267,1.78906e-14,1.90833e-14,-33.2251,1.92187,83.6035,44.0279,7.44865,-14.6991,28.4825,7.12502,11.455,58.1495,-23.1347,2.28331,20.2442,36.3174,-19.3325,3.05577,-56.0824,4.72141,3.56232,-20.0647,50.0276,19.2568,-5.38295,-21.6417
7.46151,17.6973,8.93006,-182.607,3.73749,-180.783,11.0285,-2.44779,-4.51659,2.34908,-3.31457,3.85758,-3.21275,-1.48834,7.05134,0.386971,-10.7216,-21.1566,10.7711,-15.1448,15.5857,6.02529,-7.56614,7.32265,9.24349e-15,-4.6118e-14,-36.4799,-10.9161,-76.8908,22.5185,7.30875,-19.8778,11.5442,7.12502,6.45781,-18.3374,9.24349e-15,-4.6118e-14,-33.5391,1.387,83.8966,44.2701,7.18188,-15.156,27.4836,7.12502,11.0143,57.1746,-22.5155,2.75429,20.6089,36.7314,-19.0793,2.68175,-56.3295,3.72302,4.03646,-19.5416,52.2472,20.8504,-5.38218,-19.9339
7.48356,17.6855,8.77013,-183.002,3.90158,-180.529,11.385,-2.35801,-4.34463,2.43053,-3.16529,3.89653,-3.35374,-1.40386,6.9944,-0.527105,-10.6921,-21.3939,11.8387,-14.9829,15.5658,6.50406,-7.45251,7.32775,4.96962e-16,-3.97569e-15,-36.3639,-10.668,-76.9811,22.5769,7.2756,-19.8104,12.1764,7.12502,6.52285,-17.7031,4.96962e-16,-3.97569e-15,-34.042,0.800027,84.2991,44.5937,7.3319,-13.19,30.1111,7.12502,12.9101,59.6918,-21.6579,3.13306,21.0604,37.1723,-18.7621,1.94308,-56.5548,2.94653,4.43236,-18.9819,54.4021,21.8989,-5.33028,-19.0853
7.50613,17.6702,8.61442,-183.358,3.97059,-180.226,11.5634,-2.29561,-4.09538,2.5916,-3.03287,3.9338,-3.31406,-1.33475,6.87811,-1.15106,-10.6367,-21.7258,12.476,-14.8508,15.8614,6.83918,-7.35814,7.47177,-3.8763e-15,-2.38542e-15,-36.2763,-10.0073,-77.3278,23.0586,6.63236,-19.7182,12.3963,7.12502,6.61186,-17.4805,-3.8763e-15,-2.38542e-15,-34.2644,0.546143,84.5123,44.7849,6.48981,-14.7623,28.0622,7.12502,11.394,57.7326,-20.8238,3.52258,21.5584,37.5825,-18.2383,0.995439,-56.6185,2.07681,4.73795,-18.3653,56.4997,22.6541,-5.06907,-16.9122
7.52953,17.654,8.46332,-183.616,4.03411,-179.902,11.5254,-2.19808,-3.77773,2.89451,-2.83732,3.91374,-3.0214,-1.24296,6.63496,-1.72574,-10.6128,-21.6501,12.6739,-14.7728,16.1198,7.00086,-7.2788,7.53469,4.6615e-14,-2.62396e-14,-35.8253,-9.88962,-77.6498,23.3115,6.43069,-19.7863,12.4914,7.12502,6.54612,-17.3875,4.6615e-14,-2.62396e-14,-34.047,0.22274,84.6599,44.7406,5.64056,-14.7531,27.146,7.12502,11.4029,56.816,-20.0938,3.98092,22.0877,37.9473,-17.655,0.133199,-56.6732,1.05779,5.06128,-17.7088,58.537,22.4734,-4.88605,-14.7105
7.55466,17.6411,8.30715,-183.928,3.98614,-179.491,11.614,-2.06061,-3.31189,3.2,-2.57035,3.86748,-2.81219,-1.10873,6.2775,-2.1877,-10.6603,-21.5092,12.6181,-14.8305,16.5342,7.09736,-7.25861,7.62689,6.55989e-14,-2.62396e-14,-35.2271,-10.5447,-77.7027,23.0615,6.87161,-19.985,13.0471,7.12502,6.35425,-16.8376,6.55989e-14,-2.62396e-14,-33.8842,-0.378934,84.9059,44.7601,5.34351,-14.8607,26.3198,7.12502,11.2991,55.9954,-19.2459,4.39937,22.7305,38.2706,-17.0453,-0.586343,-56.7426,0.169594,5.29044,-16.9465,60.4917,20.4177,-4.96688,-15.2335
7.5754,17.6283,8.14882,-184.343,3.85015,-179.293,11.972,-2.08328,-3.24973,3.12276,-2.58658,3.94966,-3.08599,-1.10393,6.35245,0.00434956,-9.8897,-22.3358,11.4287,-14.1435,17.5175,6.33745,-7.01398,8.30154,-5.66536e-14,6.67916e-14,-35.1532,-10.2187,-77.6372,22.7854,7.17066,-20.2037,13.1329,7.12502,6.14312,-16.758,-5.66536e-14,6.67916e-14,-34.626,-0.212668,85.1853,44.917,4.5968,-13.5706,26.84,7.12502,12.5431,56.4435,-18.2593,4.66,23.1059,38.5266,-16.5765,-1.40332,-56.7159,-0.587291,5.47011,-16.4742,62.3275,17.7631,-5.11104,-17.0601
7.59118,17.6156,7.99725,-184.658,3.76324,-179.184,12.2052,-2.04815,-3.17427,3.21762,-2.51834,3.94176,-3.12679,-1.06364,6.29995,-5.32184,-10.8785,-20.2586,15.978,-14.4479,13.9335,8.36701,-7.0115,6.45862,-3.98563e-14,4.85035e-14,-34.8633,-9.72106,-77.8931,23.0144,6.9802,-20.2542,12.5406,7.12502,6.09443,-17.3517,-3.98563e-14,4.85035e-14,-34.7916,-0.19599,85.4069,44.8517,3.91172,-10.0202,28.7213,7.12502,15.9642,58.0834,-17.3823,4.81113,23.3482,38.6879,-16.2942,-2.24382,-56.6598,-1.52408,5.68824,-16.1631,64.0426,15.7832,-5.11593,-18.6515
7.60964,17.6051,7.85089,-184.749,3.74517,-178.684,12.054,-2.01633,-2.67277,3.43403,-2.38601,3.98356,-2.85583,-0.99835,6.02387,-6.63937,-11.1296,-19.4035,17.052,-14.4972,12.6554,8.8038,-7.02335,5.81501,1.40143e-14,-2.38542e-15,-34.3275,-9.6204,-78.1576,23.087,6.94551,-20.3745,12.544,7.12502,5.97827,-17.3517,1.40143e-14,-2.38542e-15,-34.7088,-0.311566,85.6151,44.7241,4.17243,-13.6601,26.0663,7.12502,12.4568,55.6751,-16.6997,4.99028,24.0409,38.7298,-16.0009,-2.86547,-56.6238,-2.70287,5.93599,-15.3802,65.6421,13.8029,-5.11165,-20.7902
7.62998,17.596,7.70489,-184.827,3.6913,-178.123,11.9829,-1.98558,-2.20271,3.46158,-2.2666,4.12212,-2.81782,-0.933548,5.88145,-6.66935,-10.9552,-19.5676,17.2284,-14.2863,12.9759,8.87095,-6.90229,5.99026,-2.46493e-14,5.96354e-14,-34.0261,-9.8251,-78.0313,22.8291,7.41617,-20.5063,12.7001,7.12502,5.851,-17.1991,-2.46493e-14,5.96354e-14,-34.8888,-0.167277,85.9099,44.4421,4.36205,-13.8627,25.9447,7.12502,12.2615,55.5653,-15.9986,5.14572,24.8196,38.6507,-15.6986,-3.28998,-56.6215,-3.89131,6.11627,-14.5228,67.0721,11.6354,-5.07911,-22.9932
7.64757,17.5984,7.55432,-185.016,3.52789,-177.685,12.1306,-1.98297,-1.95516,3.39666,-2.20754,4.32984,-2.97529,-0.892899,5.96152,-3.8199,-9.90944,-20.795,15.0506,-13.416,15.049,7.71861,-6.52896,7.15498,-2.00773e-14,-3.57812e-14,-33.7882,-9.89312,-77.7319,22.5758,7.90576,-20.4775,12.4215,7.12502,5.87878,-17.4769,-2.00773e-14,-3.57812e-14,-35.1622,0.488606,86.2319,44.0424,4.01625,-10.0178,29.8378,7.12502,15.9666,59.1998,-15.1235,5.19458,25.4366,38.4722,-15.453,-3.53405,-56.6164,-4.98651,6.1381,-13.8666,68.2734,10.2878,-5.1882,-22.7118
7.65904,17.6054,7.40088,-185.214,3.31319,-177.259,12.1656,-2.00548,-1.60748,3.44415,-2.16762,4.46235,-2.95858,-0.864936,5.89785,-5.30695,-10.0199,-20.071,16.3664,-13.2335,13.8007,8.24151,-6.41989,6.57814,2.40529e-14,-1.98785e-14,-33.3959,-9.76512,-77.6912,22.5476,8.04483,-20.5492,11.9684,7.12502,5.80959,-17.932,2.40529e-14,-1.98785e-14,-35.3054,1.1342,86.4578,43.7422,3.84143,-13.8202,26.7366,7.12502,12.3025,56.3547,-14.1412,5.0878,25.9735,38.2595,-15.2951,-3.94411,-56.5798,-6.05477,6.07756,-13.3008,69.2583,9.32372,-5.30693,-20.9942
7.66655,17.6088,7.25236,-185.328,3.09637,-177.11,11.9181,-1.99422,-1.37169,3.60964,-2.12046,4.40523,-2.66774,-0.844674,5.67929,-5.84661,-9.80093,-19.6089,16.8238,-12.8492,13.4938,8.36398,-6.20583,6.43888,3.19049e-14,-4.53229e-14,-32.8888,-9.62564,-77.8869,22.6675,7.96212,-20.8253,11.7319,7.12502,5.54299,-18.1757,3.19049e-14,-4.53229e-14,-35.2315,1.4494,86.5802,43.3258,3.79691,-15.6068,24.5735,7.12502,10.5795,54.2872,-13.2845,4.83368,26.156,38.0491,-15.3107,-4.55543,-56.6137,-7.15993,5.97986,-13.1423,70.0398,7.30015,-5.33282,-21.4791
7.67814,17.6109,7.11265,-185.333,2.94944,-177.09,11.6634,-1.89924,-1.3628,3.6865,-1.99956,4.36982,-2.46307,-0.789649,5.60759,-6.40701,-9.49263,-19.4179,17.412,-12.3759,13.5817,8.5681,-5.93151,6.5015,6.4605e-15,2.14687e-14,-32.1958,-10.088,-77.7494,22.1227,8.28508,-21.0905,12.1075,7.12502,5.28695,-17.8065,6.4605e-15,2.14687e-14,-35.2285,1.74767,86.7706,42.806,3.62385,-15.7903,23.7128,7.12502,10.4025,53.4355,-12.6337,4.72805,26.2308,37.8327,-15.2912,-4.91065,-56.6885,-8.3278,5.91569,-13.1321,70.6443,5.42534,-5.42144,-21.16
7.69167,17.6098,6.97584,-185.358,2.86267,-176.82,11.6623,-1.77581,-1.24564,3.58816,-1.81319,4.50548,-2.58478,-0.69232,5.66269,-6.98472,-9.29268,-19.4185,18.2982,-11.9937,13.4975,8.89967,-5.7209,6.52855,5.1684e-15,6.36111e-15,-31.8111,-10.6538,-77.3164,21.5642,8.79609,-21.0379,12.4978,7.12502,5.33772,-17.415,5.1684e-15,6.36111e-15,-35.4838,2.33906,87.0636,42.3279,3.25369,-15.3134,24.5071,7.12502,10.8625,54.2062,-11.9638,4.7387,26.6187,37.5613,-15.1981,-5.04178,-56.6667,-9.46506,5.91463,-12.8003,71.1126,4.19049,-5.67633,-20.0241
7.7021,17.6098,6.83236,-185.516,2.64112,-176.412,11.68,-1.75085,-0.949792,3.51924,-1.72573,4.66181,-2.68108,-0.640739,5.65011,-7.18165,-9.13469,-19.3363,18.9137,-11.6744,13.1315,9.06051,-5.5751,6.43837,-1.2921e-14,2.78299e-14,-31.7346,-10.8457,-77.0148,21.5607,9.17437,-20.8459,13.1295,7.12502,5.52309,-16.7785,-1.2921e-14,2.78299e-14,-35.7784,3.04047,87.2837,41.7976,2.9434,-14.7975,25.7713,7.12502,11.3601,55.4436,-11.0963,4.48354,27.1318,37.261,-15.1863,-5.27735,-56.6197,-10.4402,5.82938,-12.3486,71.4237,1.61307,-5.82032,-25.0613
7.71191,17.625,6.68623,-185.641,2.39903,-176.12,11.5796,-1.73005,-0.70291,3.55024,-1.65996,4.70926,-2.60759,-0.604936,5.54564,-7.46629,-9.00774,-19.0109,19.3826,-11.4072,12.6923,9.17758,-5.44507,6.26721,1.86858e-14,-5.64548e-14,-31.4811,-11.0467,-76.9122,21.4822,9.21175,-20.8396,14.0383,7.12502,5.52918,-15.8696,1.86858e-14,-5.64548e-14,-35.9683,3.50241,87.3971,41.3644,3.04467,-14.7897,25.9854,7.12502,11.3676,55.6573,-10.1542,4.19817,27.4985,36.8817,-15.1355,-5.61986,-56.6191,-11.5659,5.65459,-12.0584,71.5422,0.385605,-6.01506,-24.5465
7.71763,17.629,6.54777,-185.617,2.32631,-175.99,11.4741,-1.57956,-0.564514,3.56238,-1.44877,4.68501,-2.56361,-0.500718,5.40847,-7.75975,-8.8999,-18.5851,19.7458,-11.1934,12.3131,9.26835,-5.32959,6.09105,-2.18663e-15,-4.21423e-14,-31.1972,-11.2578,-76.8267,21.2134,8.61414,-20.8539,14.5474,7.12502,5.5154,-15.3609,-2.18663e-15,-4.21423e-14,-36.0272,3.79573,87.5244,40.8989,3.20798,-15.0334,25.4896,7.12502,11.1326,55.1742,-9.38474,4.18902,27.6902,36.4451,-15.0438,-5.88608,-56.6415,-12.6363,5.69584,-11.9802,71.4715,-0.899103,-6.07542,-22.6221
7.72153,17.6334,6.40764,-185.541,2.26942,-175.771,11.3417,-1.42159,-0.330182,3.45374,-1.21907,4.71632,-2.63271,-0.387216,5.27501,-7.7774,-8.62454,-18.0574,20.0392,-10.7624,11.8029,9.23463,-5.1207,5.89001,1.82882e-14,-7.15625e-14,-31.109,-11.2522,-76.7183,21.5057,8.81726,-21.0813,14.6103,7.12502,5.29583,-15.3035,1.82882e-14,-7.15625e-14,-36.2549,4.12176,87.7176,40.2705,3.19245,-15.0642,25.5566,7.12502,11.1029,55.2429,-8.65245,4.21113,27.9767,35.9491,-14.9861,-6.01855,-56.6554,-13.6779,5.75436,-11.8215,71.2257,-2.6796,-5.85721,-22.8071
7.72731,17.6487,6.2661,-185.495,2.27854,-175.366,11.1626,-1.29141,0.0423717,3.3974,-0.997642,4.82408,-2.62048,-0.273963,5.14278,-7.88053,-8.70198,-18.4579,20.3501,-10.835,12.039,9.4158,-5.15387,6.03664,2.127e-14,2.54444e-14,-30.8046,-11.5161,-76.4711,21.4116,9.13864,-21.47,15.9524,7.12502,4.92056,-13.9705,2.127e-14,2.54444e-14,-36.5455,4.55398,87.9132,39.8473,3.21865,-15.0129,26.212,7.12502,11.1523,55.8957,-7.84302,4.20297,28.4715,35.436,-14.9707,-6.11854,-56.628,-14.6883,5.82909,-11.4448,70.8222,-4.34616,-5.51399,-23.1184
7.73449,17.661,6.13207,-185.508,2.48652,-174.985,11.1416,-1.05467,0.359243,3.40245,-0.632274,4.9197,-2.64006,-0.0861464,5.01418,-8.12349,-8.65377,-18.4609,20.6696,-10.7228,12.0407,9.55467,-5.08697,6.05657,6.65929e-15,-2.94201e-14,-30.45,-11.7881,-76.3006,21.3845,9.12576,-21.9457,18.4524,7.12502,4.46122,-11.4806,6.65929e-15,-2.94201e-14,-36.7834,4.923,88.0657,39.6269,3.23773,-14.7617,26.7896,7.12502,11.3946,56.46,-6.96446,4.38979,28.9778,34.8445,-14.9362,-6.19012,-56.5974,-15.5805,6.0753,-11.075,70.3295,-5.84021,-5.14393,-22.7381
7.74129,17.6612,6.00617,-185.529,2.67074,-174.624,11.2554,-0.812422,0.682587,3.32261,-0.26252,4.96091,-2.8201,0.101641,4.82657,-8.13535,-8.53778,-18.201,20.8673,-10.5484,11.8651,9.56931,-4.99178,5.98145,2.88238e-15,4.77083e-14,-30.3596,-11.6947,-76.3672,21.6739,8.60195,-22.1161,18.6373,7.12502,4.2967,-11.2991,2.88238e-15,4.77083e-14,-37.1048,5.13787,88.1239,39.2725,3.19399,-14.418,27.2016,7.12502,11.7261,56.8534,-6.07556,4.6368,29.4892,34.1825,-14.7763,-6.3843,-56.555,-16.4558,6.36269,-10.7212,69.7679,-7.13841,-4.84369,-22.3084
7.74589,17.6547,5.87932,-185.523,2.72967,-174.175,11.2305,-0.647098,1.15661,3.33705,0.0212718,4.98101,-2.81611,0.247222,4.53795,-8.46871,-8.48449,-17.9337,21.1006,-10.4256,11.6717,9.6652,-4.91812,5.88132,-9.44227e-15,-1.11319e-14,-30.0527,-11.4604,-76.6071,21.9557,7.8996,-22.195,17.2424,7.12502,4.22046,-12.6956,-9.44227e-15,-1.11319e-14,-37.1751,5.2144,88.1775,38.7152,3.09026,-14.2955,27.5685,7.12502,11.8442,57.2136,-5.15493,4.78369,30.0904,33.5088,-14.5128,-6.898,-56.4796,-17.3873,6.57725,-10.2979,69.1227,-8.17622,-4.54612,-21.6839
7.74297,17.66,5.74034,-185.511,2.68391,-173.959,11.0193,-0.492814,1.45965,3.40311,0.25356,4.96681,-2.64789,0.364173,4.31622,-9.03331,-8.48282,-17.762,21.4827,-10.3187,11.4281,9.86562,-4.85898,5.77303,-1.17283e-14,-7.79236e-14,-29.7368,-11.3035,-76.6876,22.2837,7.58816,-22.2278,16.5016,7.12502,4.18878,-13.437,-1.17283e-14,-7.79236e-14,-37.2185,5.15521,88.3537,38.1405,3.12131,-13.8642,28.3257,7.12502,12.2601,57.9463,-4.22497,4.72204,30.3517,32.8554,-14.4202,-7.30626,-56.4535,-18.2373,6.63973,-10.2472,68.2961,-9.14448,-4.03574,-21.1072
7.73641,17.6712,5.60384,-185.43,2.49173,-173.908,10.793,-0.387766,1.6109,3.34354,0.388436,4.92292,-2.59389,0.426386,4.16468,-9.18515,-8.43499,-17.7957,21.7614,-10.1982,11.3675,9.97343,-4.80004,5.7787,-4.17448e-15,-5.64548e-14,-29.6127,-11.0202,-76.6943,22.6036,7.37714,-22.237,16.1421,7.12502,4.17989,-13.7966,-4.17448e-15,-5.64548e-14,-37.5075,5.11256,88.5049,37.7347,3.28835,-12.4157,30.0649,7.12502,13.6564,59.5969,-3.44159,4.53807,30.3828,32.2585,-14.3694,-7.45634,-56.4828,-19.1996,6.5472,-10.4602,67.2995,-10.0596,-3.47172,-20.7896
7.73596,17.6822,5.48223,-185.248,2.23553,-173.743,10.7717,-0.306456,1.83401,3.18965,0.509411,4.86888,-2.74849,0.480874,3.96542,-9.31068,-8.39561,-17.8577,21.9783,-10.1369,11.513,10.0767,-4.75212,5.85699,8.94531e-16,-1.59028e-15,-29.402,-10.6971,-76.8206,22.6298,6.70832,-22.3965,16.1694,7.12502,4.02585,-13.7724,8.94531e-16,-1.59028e-15,-37.869,5.06608,88.537,37.5608,3.23338,-10.7886,31.9042,7.12502,15.2241,61.324,-2.92152,4.51163,30.6039,31.7389,-14.1392,-7.39463,-56.4818,-20.3278,6.40521,-10.5294,66.1596,-10.7511,-3.10772,-20.6335
7.73642,17.7001,5.36288,-185.078,2.16598,-173.608,10.9379,-0.145986,2.0018,2.95601,0.738018,4.81779,-3.09433,0.586379,3.7869,-9.37654,-8.36447,-17.8724,22.1832,-10.0752,11.5389,10.1554,-4.71281,5.88437,-1.20265e-14,3.18055e-15,-29.4335,-10.1371,-77.0047,22.9206,5.80275,-22.5373,16.0025,7.12502,3.88994,-13.9417,-1.20265e-14,3.18055e-15,-38.3864,5.00427,88.5388,37.4402,2.75577,-10.6874,31.541,7.12502,15.3216,60.9534,-2.46924,4.67939,30.825,31.2254,-13.9309,-7.05732,-56.4323,-21.2426,6.36802,-10.5937,64.8362,-11.2625,-2.80037,-20.0955
7.73298,17.7149,5.23446,-184.968,2.36275,-173.397,10.9157,0.0695561,2.25948,2.80277,1.04874,4.82089,-3.25458,0.735125,3.60182,-9.19304,-8.31586,-17.9686,22.2409,-9.9886,11.4852,10.1304,-4.68452,5.90069,4.22417e-15,5.64548e-14,-29.6272,-9.29835,-77.2236,23.7639,5.30114,-22.5736,14.8013,7.12502,3.85485,-15.1435,4.22417e-15,5.64548e-14,-38.8544,5.05263,88.5428,37.1387,2.07594,-10.9218,30.3503,7.12502,15.0958,59.7798,-1.81327,4.89613,31.1006,30.6179,-13.8579,-6.84904,-56.3442,-21.916,6.54568,-10.5387,63.3764,-11.5968,-2.33999,-18.6612
7.72247,17.7264,5.09289,-184.888,2.51949,-172.996,10.5886,0.205777,2.84571,2.89477,1.28437,4.82839,-2.979,0.855795,3.24795,-9.13669,-8.25201,-17.8461,22.0092,-9.88659,11.2752,9.99992,-4.65478,5.81007,1.3418e-15,1.59028e-15,-29.4096,-8.50024,-77.5392,24.6134,5.01503,-22.5833,13.0262,7.12502,3.84547,-16.9188,1.3418e-15,1.59028e-15,-38.9003,5.0658,88.5563,36.5997,1.6485,-9.4752,31.6759,7.12502,16.489,60.9953,-1.00325,4.8666,31.5,29.9145,-13.9818,-6.84245,-56.2454,-22.4719,6.68231,-10.2956,61.7901,-11.8346,-1.68996,-17.7841
7.70205,17.7478,4.93841,-184.788,2.46361,-172.914,10.1538,0.308901,3.25662,3.0225,1.42477,4.70475,-2.59943,0.926166,2.87322,-9.12638,-8.20298,-17.4535,21.6076,-9.79506,10.7823,9.78896,-4.64011,5.56228,-4.96962e-16,-3.97569e-15,-29.0403,-7.82926,-77.8479,25.3348,4.23583,-22.4347,11.25,7.12502,3.98901,-18.6924,-4.96962e-16,-3.97569e-15,-38.9024,4.87652,88.6383,36.213,1.37364,-7.8721,33.6493,7.12502,18.0319,62.8334,-0.13399,4.48214,31.4137,29.0689,-14.3398,-6.74072,-56.1838,-22.8947,6.53331,-10.5229,60.0364,-12.0544,-0.903123,-17.594
7.69204,17.7717,4.80082,-184.551,1.89165,-173.143,9.89844,0.350957,3.20671,2.9564,1.4309,4.53538,-2.52374,0.918433,2.72594,-9.49789,-6.99995,-17.408,21.3922,-10.2924,10.701,9.779,-5.5883,5.33808,4.72114e-15,-1.35174e-14,-28.734,-7.37369,-78.0019,25.8478,3.37084,-22.1795,10.1232,7.12502,4.23544,-19.8144,4.72114e-15,-1.35174e-14,-39.1302,4.3224,88.9577,35.6574,2.93759,-10.1799,31.2859,7.12502,15.8104,60.6603,0.55565,3.7965,31.0052,28.1514,-14.492,-6.52186,-56.1786,-23.6045,5.97709,-11.134,58.1803,-11.1534,-0.281801,-15.2752
7.68593,17.7914,4.66595,-184.4,1.78667,-173.036,9.85272,0.475167,3.41604,2.89211,1.6063,4.4686,-2.56254,1.00107,2.51752,-10.0768,-7.10108,-17.4736,21.7691,-10.3282,10.6419,10.0309,-5.59944,5.3105,7.30534e-15,-8.74653e-15,-28.4805,-6.79915,-78.1221,26.2949,3.31121,-22.0113,9.54627,7.12502,4.39787,-20.3881,7.30534e-15,-8.74653e-15,-39.3754,4.00293,89.0871,35.2507,3.38273,-10.9442,30.313,7.12502,15.0742,59.7441,1.39974,3.57674,31.0757,27.1881,-14.5391,-6.31716,-56.1448,-24.1376,5.80048,-11.2342,56.2437,-9.03038,0.309112,-8.38091
7.68055,17.8031,4.54334,-184.173,1.90559,-172.912,9.89707,0.619799,3.54287,2.68856,1.80637,4.44393,-2.79816,1.08963,2.3939,-9.87536,-6.93513,-17.8131,21.7071,-10.1375,10.9683,9.97614,-5.51702,5.52068,-5.11871e-15,-1.39149e-14,-28.5599,-5.8605,-78.279,26.7939,3.12711,-22.2441,9.8494,7.12502,4.17301,-20.0895,-5.11871e-15,-1.39149e-14,-39.7823,4.01768,89.0421,34.7193,3.08079,-11.0504,30.0379,7.12502,14.9719,59.4767,2.14331,3.62643,31.1959,26.1771,-14.5547,-6.17003,-56.0619,-24.7348,5.83294,-11.266,54.2683,-12.85,-0.103237,-19.2471
7.6701,17.8149,4.41406,-183.942,1.80734,-173.009,9.74456,0.743674,3.52843,2.52893,1.9376,4.33844,-2.87838,1.14192,2.27735,-9.42471,-6.77538,-18.1303,21.3877,-9.96539,11.286,9.78299,-5.4398,5.72358,9.49197e-15,5.76476e-14,-28.6356,-5.17056,-78.3909,26.3525,1.51374,-23.5434,14.3329,7.12502,2.91833,-15.6269,9.49197e-15,5.76476e-14,-40.2131,3.93605,89.0189,34.3891,2.75256,-11.0397,29.7988,7.12502,14.9823,59.2368,2.95063,3.36684,30.9977,25.0672,-14.6525,-6.14497,-56.0801,-25.2793,5.61402,-11.59,52.2378,-12.5484,0.157839,-17.3967
7.66431,17.8224,4.27583,-183.844,1.54305,-172.793,9.56331,0.798118,3.83872,2.54802,2.02724,4.29339,-2.74797,1.18704,2.04954,-9.61985,-6.83588,-18.217,21.3716,-9.97015,11.3106,9.82307,-5.42886,5.74155,-1.71949e-14,-5.20816e-14,-28.3539,-4.83916,-78.4487,26.3571,1.98836,-23.957,15.1773,7.12502,2.51884,-14.7875,-1.71949e-14,-5.20816e-14,-40.4168,3.79837,88.9738,34.2803,2.39154,-10.5589,30.0977,7.12502,15.4454,59.5006,3.94879,3.07503,31.2293,23.925,-14.5061,-6.12032,-56.1252,-25.6648,5.23917,-11.5082,50.1803,-12.4521,0.310293,-18.9273
7.6622,17.8256,4.14946,-183.66,1.35464,-172.404,9.49242,0.854381,4.24335,2.50555,2.14576,4.31188,-2.741,1.2467,1.82945,-9.99282,-6.90782,-18.2028,21.5473,-9.96754,11.1811,9.95,-5.42198,5.68527,-4.32357e-15,3.49861e-14,-28.0983,-4.32825,-78.5395,26.5821,2.4527,-24.1078,15.8841,7.12502,2.37329,-14.0825,-4.32357e-15,3.49861e-14,-40.6037,3.82643,88.8539,34.1683,1.73868,-9.84789,30.8072,7.12502,16.1301,60.156,4.799,3.05319,31.7158,22.7788,-14.2178,-5.97515,-56.0649,-26.1927,4.96431,-11.1977,48.1035,-12.0752,0.429343,-19.0706
7.65532,17.8234,4.03012,-183.371,1.26319,-172.173,9.49435,0.993171,4.53804,2.33498,2.3553,4.26281,-2.90654,1.34032,1.58697,-10.0593,-6.926,-18.1953,21.5791,-9.95805,11.1262,9.96983,-5.41632,5.66431,1.02871e-14,2.18663e-14,-28.0542,-3.66032,-78.6792,26.8466,2.28373,-23.8869,16.2611,7.12502,2.58658,-13.703,1.02871e-14,2.18663e-14,-40.8704,3.73576,88.7313,33.7537,1.20689,-9.50095,30.815,7.12502,16.4642,60.1364,5.5066,3.14596,31.9966,21.6974,-13.9898,-6.00509,-56.0157,-26.7746,4.73326,-11.0682,46.0206,-11.8362,0.634287,-14.6935
7.65119,17.8153,3.91315,-183.088,1.44428,-171.787,9.67166,1.19808,4.88531,2.1164,2.68544,4.28757,-3.2175,1.49253,1.37147,-10.1623,-6.94313,-18.2134,21.6244,-9.93593,11.0741,10.0011,-5.40558,5.64969,7.45443e-16,-2.42517e-14,-28.0552,-2.81747,-78.8643,27.4555,1.52819,-23.3858,15.2721,7.12502,3.07048,-14.6855,7.45443e-16,-2.42517e-14,-41.2063,3.71317,88.5934,33.2679,1.15177,-9.41609,30.6777,7.12502,16.5459,59.9923,6.15661,3.53901,32.527,20.7516,-13.6457,-5.99141,-55.9987,-27.2412,4.67629,-10.684,43.9193,-11.5309,0.831151,-15.3593
7.65251,17.8038,3.80533,-182.753,1.73724,-171.139,9.83548,1.37887,5.38001,1.90208,3.02154,4.43227,-3.51349,1.65205,1.19657,-10.2479,-6.92815,-18.3365,21.6841,-9.85632,11.0268,10.031,-5.37844,5.66344,4.90004e-14,2.8625e-14,-28.071,-2.04474,-78.9797,29.1022,0.890163,-21.9081,11.2207,7.12502,4.49754,-18.7116,4.90004e-14,2.8625e-14,-41.587,3.99405,88.3779,33.0321,1.10217,-9.18866,31.2939,7.12502,16.7648,60.5901,6.65839,4.14503,33.422,19.8999,-13.1584,-5.81297,-55.9837,-27.7566,4.64894,-9.90874,41.7472,-11.2413,0.89892,-17.304
7.64973,17.7924,3.68658,-182.426,1.92663,-170.797,9.61364,1.55813,5.70104,1.90779,3.27753,4.4421,-3.36389,1.78069,1.00573,-10.584,-6.87211,-18.5022,21.7637,-9.70966,11.2405,10.1197,-5.2874,5.78679,-3.07619e-14,-5.36719e-14,-27.8217,-1.52345,-79.029,29.9333,0.604283,-21.6508,10.7454,7.12502,4.74593,-19.1815,-3.07619e-14,-5.36719e-14,-41.614,4.23417,88.1286,32.6958,0.845255,-8.97829,31.6968,7.12502,16.9673,60.9757,7.18994,4.60643,33.9125,19.1074,-12.8,-5.8207,-55.952,-28.1553,4.38448,-9.44952,39.4602,-11.4893,1.05525,-16.2931
7.64298,17.7913,3.55704,-182.15,1.9624,-170.829,9.24064,1.69889,5.66607,2.05284,3.40839,4.35379,-2.99848,1.85298,0.936718,-11.2918,-6.78525,-18.5051,21.8764,-9.44844,11.43,10.2615,-5.11321,5.88583,2.83765e-14,1.07344e-14,-27.309,-0.71296,-79.205,30.1705,-0.85208,-22.5481,12.5279,7.12502,3.87946,-17.4165,2.83765e-14,1.07344e-14,-41.4367,4.4534,87.9136,32.2452,0.39959,-9.18224,30.9737,7.12502,16.771,60.2693,7.75298,4.695,33.8766,18.3207,-12.7718,-5.7437,-55.8985,-28.3936,3.87508,-9.43336,37.0699,-11.8139,1.35661,-16.4293
7.63782,17.795,3.43728,-181.845,1.79334,-170.962,9.09926,1.78945,5.44437,2.03675,3.48048,4.29331,-2.94339,1.8856,0.994513,-11.8315,-6.78886,-18.4776,21.9334,-9.28847,11.3481,10.3546,-5.01332,5.86559,-2.0773e-14,-4.25399e-14,-26.8232,-0.298908,-79.1472,30.5775,-0.562582,-22.8854,12.3472,7.12502,3.55375,-17.6029,-2.0773e-14,-4.25399e-14,-41.4925,4.75976,87.7263,31.9186,-0.0406426,-9.48899,29.7151,7.12502,16.4757,59.0355,8.23234,4.49308,33.6893,17.4628,-12.8689,-5.53702,-55.8683,-28.7656,3.14761,-9.49841,34.668,-12.0867,1.54346,-17.0087
7.63032,17.7891,3.31577,-181.564,1.68056,-170.995,9.06244,1.89908,5.38211,1.94458,3.60576,4.22302,-3.01504,1.93921,0.941759,-12.1659,-6.82679,-18.5477,21.9703,-9.23852,11.369,10.43,-4.97397,5.88742,-2.26615e-14,-6.04305e-14,-26.5827,0.210951,-79.1504,30.9866,-0.926383,-22.8568,12.3652,7.12502,3.58143,-17.5844,-2.26615e-14,-6.04305e-14,-41.6129,5.11811,87.427,31.5974,-0.156749,-9.43401,29.1147,7.12502,16.5286,58.4307,8.8276,4.33425,33.6011,16.5301,-12.9565,-5.48985,-55.8127,-29.1053,2.38452,-9.37756,32.3712,-12.3254,1.57158,-16.7302
7.61873,17.7715,3.18346,-181.371,1.66033,-170.768,9.0443,1.98287,5.64262,1.82739,3.73994,4.18196,-3.10541,1.99724,0.738156,-12.2089,-6.738,-18.5385,21.942,-9.10304,11.4284,10.4067,-4.90024,5.9286,4.46023e-14,-1.86858e-14,-26.7274,0.945963,-79.2601,31.8334,-1.76714,-22.5514,11.9473,7.12502,3.87631,-17.9972,4.46023e-14,-1.86858e-14,-41.8777,5.43951,87.0407,31.2968,-0.124898,-9.33408,29.4736,7.12502,16.6248,58.7816,9.59346,4.2333,33.788,15.5777,-13.108,-5.51553,-55.7749,-29.1989,1.65251,-8.9338,30.2855,-12.6918,1.50382,-16.5348
7.60859,17.752,3.05235,-181.147,1.71957,-170.53,8.96132,2.0981,5.87489,1.73221,3.90846,4.15871,-3.13754,2.07456,0.568845,-12.2388,-6.72338,-18.5392,21.9059,-9.04736,11.3863,10.3884,-4.87259,5.92035,8.10048e-15,-1.35174e-14,-26.8328,1.45704,-79.2912,32.7439,-2.23054,-22.5698,11.8539,7.12502,3.85851,-18.0909,8.10048e-15,-1.35174e-14,-42.0709,5.99425,86.5612,30.8206,-0.414497,-9.31695,29.9133,7.12502,16.6413,59.2199,10.3267,4.21038,33.999,14.6192,-13.2659,-5.52875,-55.7862,-29.3889,1.02146,-8.45656,28.5058,-13.298,1.5025,-15.744
7.59813,17.7359,2.92417,-180.88,1.94111,-170.452,8.85021,2.28298,5.90777,1.66451,4.1385,4.10549,-3.13274,2.1826,0.474779,-12.468,-6.77883,-18.5569,21.9804,-9.04738,11.3056,10.4578,-4.87059,5.89015,2.84759e-14,3.63776e-14,-26.6835,1.74146,-79.2609,33.1901,-2.29585,-22.7536,12.2756,7.12502,3.68101,-17.6724,2.84759e-14,3.63776e-14,-42.1085,7.13228,85.7782,29.9375,-1.31205,-9.53449,29.2067,7.12502,16.4319,58.5308,11.013,4.33421,34.0291,13.6672,-13.3831,-5.49373,-55.7641,-29.7597,0.595215,-8.15404,27.0597,-14.0273,1.65172,-14.4488
7.58609,17.7185,2.79374,-180.671,2.1847,-170.347,8.94618,2.43699,5.95711,1.50425,4.34983,4.03875,-3.33736,2.27282,0.345821,-12.4664,-6.70983,-18.3956,21.9686,-8.93773,11.1543,10.4183,-4.81997,5.82309,2.06985e-14,1.63003e-14,-26.5934,1.91536,-79.2933,33.4732,-2.25234,-22.9324,12.4371,7.12502,3.50836,-17.5137,2.06985e-14,1.63003e-14,-42.375,8.12639,84.9345,29.1298,-1.99393,-10.0535,28.0526,7.12502,15.9321,57.4173,11.7492,4.48778,34.095,12.7285,-13.4427,-5.35915,-55.6719,-30.1349,0.398523,-7.87637,25.9323,-14.5506,1.8288,-14.0745
7.57067,17.6998,2.65657,-180.546,2.23896,-170.173,9.01269,2.49531,6.11954,1.42831,4.44866,4.00023,-3.43524,2.31426,0.199681,-12.5079,-6.62483,-18.2439,21.8883,-8.79195,11.0586,10.3599,-4.74173,5.78214,-6.10766e-14,-3.77691e-14,-26.5807,2.01322,-79.2868,34.1429,-2.17421,-22.948,11.972,7.12502,3.49333,-17.9792,-6.10766e-14,-3.77691e-14,-42.4783,8.99556,84.1903,28.3215,-2.41502,-10.4331,27.4081,7.12502,15.5666,56.8016,12.5021,4.39086,34.2002,11.8984,-13.5842,-5.19793,-55.5596,-30.4682,0.292217,-7.62945,25.1019,-14.8432,1.76692,-14.0347
7.55019,17.6816,2.50849,-180.494,2.12391,-170.02,8.91282,2.52177,6.35236,1.47177,4.49496,3.95957,-3.31195,2.3394,0.0319012,-12.8053,-6.63202,-18.1978,21.902,-8.71886,11.0203,10.4065,-4.69048,5.76665,-4.0403e-14,-2.34566e-14,-26.4441,2.12349,-79.2161,34.7122,-2.11286,-23.3263,12.3022,7.12502,3.12796,-17.6546,-4.0403e-14,-2.34566e-14,-42.3563,10.161,83.3237,27.3128,-3.30355,-10.5626,26.9053,7.12502,15.4418,56.3085,13.2987,3.91975,34.1677,11.2346,-13.9393,-5.15216,-55.4389,-30.6877,0.178964,-7.50064,24.5783,-15.1919,1.34334,-13.7551
7.53212,17.6575,2.36652,-180.38,2.0117,-169.995,8.86015,2.58652,6.40641,1.4691,4.57402,3.9002,-3.27275,2.37666,-0.0643663,-12.9328,-6.66453,-18.1306,21.7328,-8.67363,10.8991,10.3547,-4.65564,5.71119,9.57894e-14,4.92986e-14,-26.0665,2.25604,-79.1073,34.7914,-2.1035,-23.9707,13.7373,7.12502,2.50567,-16.2277,9.57894e-14,4.92986e-14,-42.3735,11.0786,82.6011,26.6586,-3.87058,-10.5765,26.6886,7.12502,15.4285,56.0928,13.9809,3.52918,34.0066,10.6822,-14.2599,-5.18273,-55.33,-30.9726,0.146861,-7.51333,24.3809,-15.5637,0.942389,-13.2723
7.51658,17.628,2.2411,-180.213,1.94881,-169.968,8.93861,2.65596,6.36758,1.48032,4.66928,3.88773,-3.30246,2.42369,-0.0704001,-12.8946,-6.73734,-18.1007,21.2914,-8.67442,10.7942,10.1846,-4.63568,5.65871,9.88954e-15,1.47101e-14,-25.5361,2.26911,-78.9074,34.8655,-1.99274,-24.0016,14.5663,7.12502,2.47585,-15.3991,9.88954e-15,1.47101e-14,-42.3342,11.7972,82.1246,26.1932,-4.0629,-10.7573,26.6959,7.12502,15.2543,56.1135,14.4132,3.66177,34.0276,10.3859,-14.2387,-5.23252,-55.2557,-31.3195,0.11795,-7.47724,24.4656,-15.5767,0.855679,-13.0144
7.50256,17.5996,2.11547,-180.128,1.86329,-169.877,9.0917,2.69672,6.37347,1.53394,4.73959,3.87597,-3.32731,2.46053,-0.100958,-12.6557,-6.90511,-18.2014,20.6219,-8.84814,10.9004,9.9419,-4.6838,5.68023,2.32081e-14,-1.59028e-14,-25.2149,2.0771,-78.7502,35.2989,-1.74316,-23.7021,14.3976,7.12502,2.76502,-15.5642,2.32081e-14,-1.59028e-14,-42.2372,12.3968,81.698,25.8398,-4.18013,-10.7445,27.3226,7.12502,15.2666,56.7392,14.7189,4.03678,34.2295,10.5256,-13.974,-5.4472,-55.1268,-31.5589,0.183809,-7.42121,24.77,-14.9164,0.695338,-13.0625
7.49259,17.57,1.98408,-180.043,1.49928,-169.915,9.22345,2.65981,6.23224,1.51587,4.68137,3.81523,-3.42748,2.42715,-0.0886189,-13.5615,-6.72553,-18.113,21.0963,-8.47274,10.9562,10.2181,-4.4786,5.73791,1.97542e-14,6.81831e-14,-25.1131,1.83124,-78.6674,35.8174,-1.47071,-23.5684,13.951,7.12502,2.89418,-16.0091,1.97542e-14,6.81831e-14,-42.3067,12.8157,81.274,25.7203,-4.01806,-10.6582,28.4111,7.12502,15.3497,57.8214,14.8891,4.25275,34.3344,10.9461,-13.5925,-5.739,-55.0192,-31.8935,0.320583,-7.63254,25.2994,-13.952,0.291309,-12.8075
7.4786,17.5408,1.84741,-179.947,1.04565,-170.037,9.36647,2.60705,6.0353,1.40318,4.59768,3.76198,-3.63849,2.37517,-0.0384905,-14.1122,-6.69632,-18.2761,21.5422,-8.37154,11.1276,10.4828,-4.4254,5.84693,-1.92821e-14,9.74045e-15,-25.0322,1.7025,-78.5311,36.0699,-1.37226,-23.629,13.833,7.12502,2.83565,-16.1279,-1.92821e-14,9.74045e-15,-42.6316,13.5528,80.6355,25.4355,-4.23927,-11.4309,27.914,7.12502,14.6054,57.3798,15.0483,4.28494,34.2935,11.3304,-13.3361,-5.9002,-54.9841,-32.2458,0.405065,-7.9927,26.0757,-13.176,0.0683412,-13.0063
7.45718,17.5179,1.70604,-179.839,0.761132,-170.059,9.44423,2.59463,5.99305,1.3176,4.58075,3.72571,-3.77191,2.35919,-0.0582296,-14.4056,-6.73323,-18.4773,21.7867,-8.39285,11.3265,10.6511,-4.43033,5.9546,2.08724e-15,5.96354e-16,-25.0459,1.50769,-78.3779,36.4773,-1.5234,-23.45,13.751,7.12502,3.00854,-16.2075,2.08724e-15,5.96354e-16,-42.977,14.4632,79.8923,25.0443,-4.73593,-12.3316,26.8895,7.12502,13.7374,56.416,15.233,4.27645,34.2557,11.6594,-13.2619,-5.91759,-54.7138,-32.5427,0.672685,-8.32061,26.9963,-12.1612,0.0407557,-13.7695
7.43705,17.5061,1.56104,-179.785,0.561366,-169.926,9.4559,2.57407,6.11621,1.34839,4.56566,3.69019,-3.73462,2.35211,-0.16068,-14.6947,-6.72944,-18.3554,21.7866,-8.33243,11.3027,10.6896,-4.37904,5.93098,-4.07509e-15,2.98177e-16,-25.0459,1.24648,-78.3417,36.9814,-1.80764,-23.209,13.6388,7.12502,3.24128,-16.3164,-4.07509e-15,2.98177e-16,-42.9976,15.2848,79.2008,24.524,-5.12901,-12.5422,27.2666,7.12502,13.5345,56.8067,15.5021,4.39212,34.4263,11.9785,-13.1217,-5.80983,-54.422,-32.8537,1.07326,-8.51176,28.0046,-10.6307,0.151184,-13.9574
7.42336,17.5073,1.41784,-179.865,0.446228,-169.873,9.75517,2.59428,6.07931,1.33064,4.6123,3.63724,-3.91614,2.3688,-0.219117,-14.6802,-6.71626,-18.1448,21.5492,-8.29101,11.181,10.5776,-4.34101,5.85061,1.52691e-14,3.42904e-14,-25.1667,1.04151,-78.3351,37.2948,-2.06052,-23.4196,14.1826,7.12502,3.03786,-15.7755,1.52691e-14,3.42904e-14,-43.0319,15.9934,78.5108,24.0088,-5.48179,-12.5347,27.7328,7.12502,13.5417,57.2725,15.9521,4.73015,34.6385,12.1646,-12.8203,-5.38219,-54.5614,-33.0836,1.29862,-8.65944,29.0866,-9.43516,0.456979,-13.7781
7.40606,17.5079,1.27357,-179.899,0.144025,-169.975,10.043,2.60599,5.95872,1.30589,4.62679,3.51931,-4.10046,2.36704,-0.294607,-14.7681,-6.79228,-18.0306,21.4191,-8.3855,11.2021,10.559,-4.35989,5.82028,-3.77753e-14,-4.41799e-14,-25.2586,0.465354,-78.258,37.5657,-1.99454,-23.6123,14.674,7.12502,2.85179,-15.2867,-3.77753e-14,-4.41799e-14,-42.9791,16.518,77.8975,23.5181,-5.79711,-12.7649,27.1825,7.12502,13.3198,56.7368,16.3685,4.94167,34.7045,12.3126,-12.4543,-4.69514,-54.7682,-33.3308,1.26798,-8.94837,30.119,-8.61658,0.50204,-12.5868
7.38368,17.5104,1.11914,-179.85,-0.272935,-170.25,9.94336,3.04064,5.81617,1.43483,4.4964,3.35954,-3.88367,2.0233,-0.331505,-15.0314,-6.97269,-18.061,21.2604,-8.59825,11.4323,10.6015,-4.41293,5.87113,-2.49475e-14,-2.83268e-15,-25.0638,-0.375115,-78.1408,37.7544,-1.77228,-23.7055,14.3621,7.12502,2.76175,-15.5997,-2.49475e-14,-2.83268e-15,-42.5302,17.2564,77.2792,22.6607,-6.51467,-13.2011,26.1211,7.12502,12.8994,55.7024,16.6058,4.96819,34.5228,12.7804,-12.139,-4.23026,-54.8259,-33.6004,1.02951,-9.42133,30.9882,-8.00615,0.160846,-12.0528
7.36669,17.5268,0.962108,-179.854,-0.608017,-170.797,9.88724,3.07684,5.20261,1.55006,4.48069,3.16529,-3.76556,2.0374,-0.187222,-15.0981,-7.09163,-18.0598,21.0456,-8.72931,11.508,10.5633,-4.4487,5.87232,-3.29858e-14,2.48481e-15,-25.0378,-1.02282,-78.06,37.9331,-1.80167,-23.9135,13.9102,7.12502,2.56089,-16.0541,-3.29858e-14,2.48481e-15,-42.2791,17.9675,76.6888,21.9927,-7.19195,-13.4939,25.9746,7.12502,12.6171,55.5736,16.6337,5.08732,34.0719,13.7268,-11.7479,-3.97108,-54.771,-33.72,0.672784,-10.1147,31.6719,-7.57108,-0.268182,-12.6406
7.35353,17.5449,0.803323,-179.901,-1.09877,-171.36,9.99257,3.03869,4.52601,1.49873,4.38987,2.96494,-3.91817,2.00989,-0.0186678,-15.0712,-7.08932,-17.9239,21.0524,-8.74839,11.4362,10.5532,-4.45501,5.81999,1.51589e-14,3.26162e-14,-25.4069,-1.61082,-78.0387,38.2047,-2.0597,-24.058,14.0014,7.12502,2.42133,-15.9646,1.51589e-14,3.26162e-14,-42.3833,18.3549,76.1391,21.7542,-7.38047,-13.2881,27.185,7.12502,12.8155,56.7716,16.5028,5.04119,33.6147,15.0071,-11.4168,-3.52152,-54.7684,-33.5979,0.371713,-10.8791,32.1931,-7.16306,-1.02038,-12.4455
7.33861,17.5573,0.642995,-179.906,-1.59189,-171.787,10.0035,3.00376,4.01221,1.50269,4.30193,2.78401,-3.94774,1.98156,0.0878693,-15.0712,-7.12454,-17.8638,20.9899,-8.84534,11.5967,10.5514,-4.47595,5.85389,-2.64943e-15,-7.00716e-15,-25.7073,-2.33871,-78.0199,38.3837,-2.32764,-24.2347,14.5237,7.12502,2.25072,-15.4442,-2.64943e-15,-7.00716e-15,-42.3097,19.0093,75.4342,21.3243,-7.94502,-12.837,28.2843,7.12502,13.2503,57.8431,16.1858,4.64744,33.1678,16.5784,-11.38,-3.14058,-54.8448,-33.3131,0.226418,-11.5451,32.5589,-6.64726,-1.64544,-12.162
7.31784,17.5704,0.479246,-179.899,-1.89235,-172.054,9.94106,3.0376,3.72559,1.61148,4.30858,2.62816,-3.80876,1.99524,0.0906959,-15.1827,-7.22457,-17.8911,20.8509,-9.00185,11.8752,10.565,-4.50973,5.93383,1.41883e-14,2.85256e-14,-25.7383,-3.00454,-78.0175,38.4059,-2.57565,-24.5228,14.4525,7.12502,1.97247,-15.5181,1.41883e-14,2.85256e-14,-42.0491,19.992,74.6257,20.6907,-9.09974,-12.7368,28.1089,7.12502,13.3469,57.6614,15.6763,4.23878,32.8051,18.4002,-11.5088,-2.67655,-54.8371,-32.9746,0.219833,-12.0361,32.8381,-6.24146,-1.82135,-12.7562
7.29402,17.591,0.310689,-179.935,-2.09802,-172.157,9.88847,3.091,3.60962,1.69774,4.35844,2.56544,-3.69235,2.02434,0.0893387,-15.1614,-7.27363,-17.9765,20.7027,-9.07203,12.0498,10.5333,-4.52478,5.99986,9.93302e-15,-2.91716e-14,-25.9012,-3.44779,-77.9603,38.4709,-2.82858,-24.7048,13.7366,7.12502,1.7967,-16.2355,9.93302e-15,-2.91716e-14,-41.8882,20.9027,73.9543,20.1597,-10.1395,-13.0574,27.3081,7.12502,13.0379,56.8806,15.0971,4.01413,32.6406,20.283,-11.6949,-1.21944,-54.7449,-32.5877,0.333941,-12.3644,33.1204,-6.02139,-2.05592,-12.3278
7.268,17.6129,0.140585,-180.024,-2.3819,-172.301,9.87548,3.09494,3.43902,1.74749,4.34329,2.53619,-3.64429,2.02076,0.157631,-14.9942,-7.29332,-18.0978,20.5382,-9.10206,12.1443,10.4588,-4.53864,6.04981,-1.65053e-14,-1.69464e-14,-26.324,-3.90345,-77.862,38.6687,-3.02538,-24.68,13.3224,7.12502,1.82066,-16.6495,-1.65053e-14,-1.69464e-14,-41.8355,21.1988,73.7312,20.0209,-10.3731,-13.1779,27.5321,7.12502,12.9217,57.112,14.5584,3.55253,32.3413,22.2267,-11.9502,0.469973,-54.6154,-32.0926,0.327546,-12.7328,33.4156,-5.69547,-2.28054,-13.3092
7.23997,17.6299,-0.0387451,-180.239,-2.8354,-172.407,10.0042,3.02466,3.39462,1.71607,4.25618,2.45017,-3.74684,1.9786,0.0958345,-14.7156,-7.32392,-18.1333,20.5016,-9.22643,12.2464,10.4209,-4.60183,6.07793,2.33945e-14,1.08338e-14,-26.9654,-4.44676,-77.8752,38.8619,-3.32841,-24.6478,13.1507,7.12502,1.85168,-16.821,2.33945e-14,1.08338e-14,-41.9869,20.7095,73.7786,20.2538,-9.97729,-13.0022,28.1421,7.12502,13.0911,57.7112,14.1865,2.84136,32.0543,24.1782,-12.2207,1.81831,-54.574,-31.4349,0.134398,-13.0351,33.6982,-5.25923,-2.19008,-12.8007
7.21277,17.653,-0.219456,-180.281,-2.74083,-172.355,9.93554,3.10941,3.41341,1.65339,4.37565,2.40199,-3.76668,2.03989,0.0222956,-14.4512,-7.29054,-18.0805,20.4822,-9.28363,12.3508,10.3751,-4.62872,6.10355,-2.13818e-14,6.16232e-15,-27.4902,-4.75465,-77.9758,38.8384,-3.68718,-24.8639,12.8751,7.12502,1.64306,-17.0983,-2.13818e-14,6.16232e-15,-42.1946,20.3358,73.7365,20.513,-9.68041,-13.0198,27.9947,7.12502,13.0741,57.5649,13.4601,2.58717,31.8666,26.2123,-12.7957,3.83804,-54.4791,-30.8522,0.364799,-13.0912,33.931,-4.88478,-1.7942,-12.4011
7.17572,17.681,-0.408242,-180.39,-2.92304,-172.52,9.62506,3.07679,3.2552,1.74741,4.29754,2.35722,-3.50655,2.00984,0.0934953,-14.3661,-7.19194,-17.9694,20.5378,-9.18414,12.2833,10.351,-4.58869,6.07847,1.40392e-15,-1.68967e-14,-27.7227,-4.90117,-78.039,38.62,-3.80439,-25.1872,12.4096,7.12502,1.33079,-17.566,1.40392e-15,-1.68967e-14,-42.2356,20.1074,73.873,20.7987,-9.30074,-12.9128,28.303,7.12502,13.1773,57.8666,12.6882,1.82478,31.2809,28.3598,-13.6387,6.23804,-54.4856,-30.1761,0.490123,-13.4864,34.1344,-4.6261,-1.75709,-12.0244
7.13538,17.7059,-0.587928,-180.552,-3.20753,-172.798,9.59051,3.01813,3.08279,1.72856,4.20698,2.25209,-3.51356,1.97075,0.0923402,-14.3812,-7.11577,-17.9044,20.9202,-9.12597,12.1543,10.4702,-4.58746,6.03737,-7.29291e-15,6.55989e-15,-28.1081,-4.99179,-78.1048,38.3833,-3.95727,-25.2936,12.4094,7.12502,1.22797,-17.5668,-7.29291e-15,6.55989e-15,-42.3748,19.8966,73.9011,20.9616,-9.08219,-12.2764,29.3354,7.12502,13.7906,58.8583,11.8564,0.827545,30.5015,30.6853,-14.5266,8.60688,-54.7482,-29.4917,0.607534,-14.0362,34.3064,-4.43912,-1.97103,-11.498
7.1066,17.7208,-0.745807,-180.64,-3.28137,-172.684,9.93984,3.02044,3.21172,1.52578,4.25545,2.24676,-3.90808,1.98805,-0.01628,-14.4402,-7.10034,-17.8315,21.3364,-9.15316,12.022,10.6253,-4.62505,5.9797,6.54374e-14,3.03147e-14,-28.6962,-4.99651,-78.1938,38.3224,-4.18059,-25.0008,12.5843,7.12502,1.51081,-17.3901,6.54374e-14,3.03147e-14,-42.6725,19.9267,73.6208,21.0008,-9.27073,-11.5915,30.3167,7.12502,14.4506,59.7936,10.6475,0.187195,30.3124,33.1699,-15.1895,11.4609,-54.9452,-28.9686,0.916832,-14.042,34.435,-4.2667,-2.33554,-11.9617
7.07817,17.7372,-0.906349,-180.654,-3.30023,-172.579,10.0407,3.03545,3.27325,1.42455,4.29556,2.26403,-4.06584,2.0051,-0.0464364,-14.3725,-7.07414,-17.6891,21.405,-9.15174,11.9079,10.6229,-4.63162,5.9153,8.13775e-15,1.0635e-14,-29.1567,-5.04411,-78.2839,38.3244,-4.15774,-24.6094,12.2953,7.12502,1.88881,-17.6761,8.13775e-15,1.0635e-14,-42.8065,19.4895,73.7856,21.3293,-8.79978,-11.296,30.563,7.12502,14.7353,60.0192,9.1785,-0.400099,30.1004,35.8105,-15.7618,14.8764,-54.8658,-28.4769,1.25959,-14.0343,34.553,-4.33319,-2.8935,-13.1923
7.04243,17.7591,-1.08005,-180.685,-3.43177,-172.94,9.82216,3.01027,2.90288,1.52665,4.20992,2.178,-3.86031,1.97437,0.0958134,-14.3488,-7.00985,-17.6478,21.3146,-9.06856,11.9466,10.5706,-4.58377,5.93498,2.11209e-15,-1.54058e-14,-29.3282,-4.92248,-78.4082,38.1278,-4.03146,-24.418,12.6654,7.12502,2.07365,-17.3043,2.11209e-15,-1.54058e-14,-42.7017,18.5126,74.5548,22.0358,-7.4949,-10.9914,30.5957,7.12502,15.0288,60.0303,7.75944,-1.2571,29.2145,38.55,-16.3621,17.9379,-54.6348,-27.8818,1.44785,-14.5906,34.6997,-4.59086,-3.49661,-13.2432
7.00963,17.7716,-1.24887,-180.801,-3.57921,-173.376,9.69722,2.98878,2.40818,1.70804,4.11413,2.12177,-3.6348,1.93661,0.336514,-14.6503,-6.96982,-17.6311,21.3939,-8.93655,11.8836,10.6312,-4.5153,5.92689,-1.04933e-13,-9.54166e-15,-29.2892,-4.71589,-78.4739,37.9044,-3.89976,-24.2149,13.3097,7.12502,2.26978,-16.658,-1.04933e-13,-9.54166e-15,-42.4704,17.7241,75.3502,22.689,-6.43223,-10.5363,30.6771,7.12502,15.4671,60.0783,6.48949,-2.22906,28.2096,41.2911,-16.9696,20.3621,-54.5886,-27.2355,1.63926,-15.2316,34.8555,-4.6501,-4.02912,-12.008
6.98344,17.7778,-1.40952,-180.941,-3.70508,-173.59,9.74889,2.96717,2.10973,1.76715,4.05345,2.12201,-3.62359,1.90985,0.509189,-14.9312,-6.934,-17.6754,21.6667,-8.85082,11.8668,10.7716,-4.48037,5.94462,4.99074e-14,3.37934e-15,-29.4827,-4.56503,-78.5539,37.8509,-3.855,-23.7977,12.7714,7.12502,2.67274,-17.1916,4.99074e-14,3.37934e-15,-42.3997,17.1717,75.8438,23.1741,-5.82731,-10.2502,30.4626,7.12502,15.7427,59.8423,5.23236,-3.02492,27.56,44.0128,-17.3342,22.5309,-54.6622,-26.6106,1.93988,-15.599,34.9758,-4.61163,-4.49084,-10.7116
6.95688,17.7886,-1.57523,-181.089,-3.79863,-173.845,9.91664,2.93778,1.82697,1.66689,4.00135,2.05716,-3.83633,1.88902,0.594056,-14.7739,-6.84917,-17.7086,21.8032,-8.80425,11.9276,10.7866,-4.47296,5.98707,-5.13113e-15,2.5842e-14,-30.0435,-4.40071,-78.7247,37.8386,-3.84693,-23.0362,11.8488,7.12502,3.40817,-18.1037,-5.13113e-15,2.5842e-14,-42.6546,16.3674,76.2475,23.7901,-5.03103,-10.125,30.4591,7.12502,15.8632,59.8293,3.92703,-3.60599,26.9355,46.7103,-17.4049,24.6728,-54.3819,-25.8912,2.19614,-15.9877,35.0865,-4.99352,-4.84374,-9.88789
6.92909,17.7989,-1.74027,-181.235,-3.99797,-174.509,10.026,2.90166,1.12591,1.64098,3.88888,1.89207,-3.95991,1.84653,0.821608,-14.492,-6.7352,-17.5662,21.6945,-8.70301,11.8401,10.6621,-4.43411,5.94736,-1.35422e-15,1.799e-14,-30.4191,-4.29524,-78.8567,37.7012,-3.60138,-22.3591,11.8856,7.12502,4.06205,-18.0554,-1.35422e-15,1.799e-14,-42.7546,15.399,76.8137,24.4131,-4.04788,-9.96233,30.4797,7.12502,16.0199,59.8373,2.57542,-4.24226,25.8435,49.383,-17.4644,26.7644,-53.6327,-25.0869,2.30732,-16.8306,35.1815,-5.66582,-5.13327,-9.48257
6.89743,17.8016,-1.89737,-181.389,-4.22918,-175.325,10.0129,2.83511,0.289514,1.77831,3.70371,1.71506,-3.84985,1.76677,1.13386,-14.5112,-6.62646,-17.4643,21.6522,-8.54569,11.787,10.6153,-4.35652,5.93396,-2.80286e-14,6.55989e-15,-30.5109,-4.08607,-79.005,37.5582,-3.16581,-22.0577,12.3536,7.12502,4.35308,-17.5816,-2.80286e-14,6.55989e-15,-42.502,14.7641,77.3745,24.8703,-3.37511,-9.73082,30.3136,7.12502,16.2428,59.6532,1.25026,-4.91004,24.5175,52.0035,-17.6026,28.7976,-52.8297,-24.296,2.45102,-17.8759,35.2586,-6.28325,-5.46755,-9.42429
