JuanDHNZ/ProyectoFinalCD/preprocessing/sports_trials_csv/15_08.csv
root1,root2,root3,root4,root5,root6,lowerback1,lowerback2,lowerback3,upperback1,upperback2,upperback3,thorax1,thorax2,thorax3,lowerneck1,lowerneck2,lowerneck3,upperneck1,upperneck2,upperneck3,head1,head2,head3,rclavicle1,rclavicle2,rhumerus1,rhumerus2,rhumerus3,rradius1,rwrist1,rhand1,rhand2,rfingers1,rthumb1,rthumb2,lclavicle1,lclavicle2,lhumerus1,lhumerus2,lhumerus3,lradius1,lwrist1,lhand1,lhand2,lfingers1,lthumb1,lthumb2,rfemur1,rfemur2,rfemur3,rtibia1,rfoot1,rfoot2,rtoes1,lfemur1,lfemur2,lfemur3,ltibia1,lfoot1,lfoot2,ltoes1
0.874274,18.3046,-4.89312,-2.60384,3.61532,-4.42192,5.97733,-1.07063,1.1314,-2.5153,-1.13733,3.51964,-5.93021,-0.530871,3.16435,-11.9741,-10.6838,-17.7175,17.5734,-14.7876,16.3655,10.1825,-6.68216,6.61903,-4.96962e-15,-1.78906e-14,40.6029,29.234,-46.396,48.113,8.02092,-17.5392,14.0628,7.12502,8.71503,-15.7373,-4.96962e-15,-1.78906e-14,43.2194,-27.8234,55.3321,42.107,-8.62405,-14.9463,28.1958,7.12502,11.2166,57.876,-1.23351,1.42265,23.9724,18.857,-10.847,-3.14861,-9.43451,-2.43816,-0.777088,-14.7291,20.599,-14.0762,-1.55257,-11.7167
0.887374,18.3022,-4.89842,-2.55835,3.52557,-4.47555,5.63681,-1.13907,1.02246,-2.31812,-1.2507,3.6245,-5.51833,-0.584903,3.33186,-12.0191,-10.7466,-17.5774,17.4063,-14.8687,16.3385,10.1336,-6.71127,6.56458,2.01269e-14,-1.82882e-14,40.837,28.8479,-46.5717,47.8509,8.82551,-17.1167,14.4483,7.12502,9.12269,-15.3344,2.01269e-14,-1.82882e-14,43.1812,-27.5814,55.2012,42.0106,-8.78338,-14.7393,28.2094,7.12502,11.4162,57.8786,-1.4431,1.64572,24.0339,19.1426,-10.9449,-3.36301,-9.97251,-2.53087,-0.731227,-14.6909,20.489,-13.8255,-1.79077,-12.1264
0.905873,18.3007,-4.89957,-2.4929,3.574,-4.14892,5.43838,-1.2016,0.619127,-2.30866,-1.37582,3.56104,-5.38058,-0.635304,3.49867,-11.5065,-10.7509,-17.4307,16.9677,-14.9417,16.4024,9.89056,-6.7609,6.56022,3.18552e-14,-3.29983e-14,40.9293,28.7396,-46.6102,47.7546,9.03958,-16.9836,14.6424,7.12502,9.25113,-15.1347,3.18552e-14,-3.29983e-14,42.9216,-27.5754,55.3147,41.9465,-8.99706,-14.6165,28.286,7.12502,11.5346,57.9486,-1.6052,1.66839,23.6162,19.4042,-11.1262,-3.4487,-9.89816,-2.57576,-0.735869,-15.113,20.3631,-13.5398,-1.93528,-12.1867
0.92644,18.3005,-4.90069,-2.51209,3.4159,-3.88943,5.43207,-1.19156,0.324383,-2.37136,-1.38766,3.48112,-5.43686,-0.631437,3.58394,-10.5553,-10.695,-17.4947,16.3453,-15.0059,16.7934,9.55062,-6.81967,6.72768,-2.49972e-14,2.82274e-14,40.9514,28.6916,-46.8708,47.4367,9.09361,-16.8952,14.7844,7.12502,9.33645,-14.9889,-2.49972e-14,2.82274e-14,42.5456,-27.6697,55.4723,41.9329,-9.14462,-14.2307,28.3931,7.12502,11.9066,58.0345,-1.68578,1.78926,23.2468,19.6457,-11.2548,-3.35331,-9.37578,-2.45006,-0.615009,-15.4727,20.2747,-13.2799,-1.9221,-11.8147
0.942542,18.3022,-4.90334,-2.52991,3.22958,-3.89099,5.59047,-1.2198,0.299228,-2.23423,-1.42671,3.50587,-5.37987,-0.651026,3.62923,-11.0327,-10.9646,-17.4182,16.2632,-15.3241,16.8152,9.6696,-6.93551,6.64313,-7.05686e-15,1.98785e-14,42.0464,28.8439,-45.9191,47.4316,8.02583,-16.6718,14.1498,7.12502,9.55204,-15.6137,-7.05686e-15,1.98785e-14,42.5638,-27.3917,55.2826,41.92,-9.1175,-13.696,28.4286,7.12502,12.4222,58.0395,-1.82787,1.94671,23.206,19.8825,-11.2662,-3.32564,-9.44851,-2.38724,-0.414477,-15.5064,20.2195,-13.0432,-1.85004,-11.6556
0.965349,18.3044,-4.90444,-2.50704,3.08937,-3.84321,5.63034,-1.29257,0.25409,-2.29486,-1.52402,3.52589,-5.45886,-0.696016,3.68863,-10.4949,-11.1256,-17.459,15.8307,-15.5677,16.797,9.46904,-7.08612,6.61134,1.06847e-14,2.98177e-14,42.5035,29.2507,-45.2558,47.608,7.12532,-16.4568,13.5863,7.12502,9.75941,-16.1676,1.06847e-14,2.98177e-14,42.0551,-27.2445,55.4498,41.8251,-9.2301,-13.3917,28.2028,7.12502,12.7156,57.7956,-2.00692,1.8681,23.0748,20.0993,-11.2154,-3.22891,-10.5107,-2.43103,-0.187807,-15.6236,20.2549,-12.8018,-1.78792,-11.5761
0.991547,18.3067,-4.90952,-2.44858,2.76793,-3.89389,5.58878,-1.26203,0.40477,-2.21172,-1.47562,3.51087,-5.35487,-0.679341,3.57902,-10.3552,-11.3607,-17.472,15.4774,-15.9181,16.9942,9.4106,-7.24569,6.61985,-1.53064e-14,2.42517e-14,42.2067,28.6611,-46.153,46.9898,7.96439,-16.3068,14.3789,7.12502,9.90417,-15.3681,-1.53064e-14,2.42517e-14,41.9829,-27.1158,55.3549,41.6928,-9.35533,-13.3295,27.942,7.12502,12.7755,57.5312,-2.2544,1.94623,23.0567,20.3416,-11.2,-3.13365,-10.9621,-2.52918,0.19057,-15.6349,20.3333,-12.4316,-1.75694,-11.262
1.01077,18.3061,-4.91874,-2.36146,2.30494,-3.97832,5.51583,-1.15118,0.489144,-2.01684,-1.32828,3.52285,-5.11915,-0.612652,3.52156,-10.7796,-11.636,-17.5967,15.4022,-16.3246,17.4897,9.6058,-7.38006,6.72388,2.3556e-14,8.34896e-15,43.2731,28.5763,-45.1331,47.0265,7.15539,-15.9999,14.0823,7.12502,10.2003,-15.6504,2.3556e-14,8.34896e-15,42.2635,-26.9711,54.9771,41.6568,-9.32533,-13.2905,28.021,7.12502,12.8132,57.6078,-2.60378,2.35034,23.1297,20.6251,-11.2115,-3.14999,-10.9671,-2.63933,0.704517,-15.5676,20.3904,-12.1302,-1.77067,-10.9568
1.03434,18.3019,-4.92409,-2.36152,1.99973,-3.76952,5.5283,-1.09682,0.311409,-1.8994,-1.27618,3.44781,-5.00382,-0.584388,3.53546,-10.8008,-11.8839,-17.8389,15.2241,-16.7218,17.9892,9.70387,-7.54043,6.86484,-1.16786e-15,-1.03368e-14,43.6529,28.9166,-43.5815,47.492,5.77101,-16.3345,13.9287,7.12502,9.87741,-15.8196,-1.16786e-15,-1.03368e-14,42.2524,-26.785,54.9184,41.59,-9.46403,-13.1491,28.0314,7.12502,12.9495,57.6096,-2.77101,2.49245,22.8031,20.898,-11.2336,-2.96325,-11.7714,-2.64434,1.11403,-15.8697,20.4757,-11.94,-1.82054,-10.9545
1.06608,18.2985,-4.92706,-2.4059,1.97186,-3.41412,5.75416,-1.14704,0.0987611,-2.0187,-1.35993,3.27603,-5.25115,-0.61845,3.49383,-9.98754,-12.0817,-17.9846,14.8195,-17.1133,18.2601,9.53581,-7.76342,6.94151,-1.46107e-14,1.98785e-14,43.6073,28.8814,-44.0605,47.5099,6.07845,-16.1969,13.8651,7.12502,10.0102,-15.8768,-1.46107e-14,1.98785e-14,41.8048,-26.7848,55.1057,41.5471,-9.54627,-12.8727,27.7959,7.12502,13.2159,57.357,-2.77611,2.15023,22.2168,21.1508,-11.335,-2.52661,-12.1116,-2.60513,1.37434,-16.3824,20.5567,-11.6906,-1.98899,-10.8282
1.07681,18.2996,-4.92636,-2.35972,1.67399,-3.41299,5.98125,-1.12656,-0.0361198,-2.24489,-1.33328,3.27524,-5.61684,-0.594609,3.57993,-8.9377,-12.2281,-18.1489,14.4564,-17.473,18.5239,9.3351,-7.98885,7.04001,3.0265e-14,-3.06128e-14,43.6667,29.2106,-43.9054,47.4415,5.9137,-16.2111,13.7767,7.12502,9.99651,-15.9659,3.0265e-14,-3.06128e-14,41.2564,-26.9398,55.1195,41.6805,-9.26892,-12.6767,27.8497,7.12502,13.4048,57.3985,-2.94273,2.57149,22.2507,21.3868,-11.4347,-2.7222,-11.848,-2.66391,1.82987,-16.3632,20.6047,-11.5439,-2.12811,-10.7955
1.09428,18.3043,-4.93806,-2.26778,1.33662,-3.60692,6.16848,-1.12759,0.12458,-2.33647,-1.31108,3.34925,-5.82374,-0.584848,3.57317,-8.45346,-12.4268,-18.3687,14.2579,-17.8388,18.8107,9.30745,-8.18317,7.1297,2.09718e-14,1.51076e-14,44.173,29.5318,-43.2044,47.3259,5.53612,-16.6119,13.9352,7.12502,9.60985,-15.8256,2.09718e-14,1.51076e-14,40.9181,-26.8336,55.0636,41.8026,-9.11694,-12.7163,28.1342,7.12502,13.3666,57.6855,-3.28897,2.67925,22.4361,21.6459,-11.3695,-2.65515,-11.924,-2.71193,2.19577,-16.1717,20.4428,-11.4362,-2.13471,-11.1791
1.10975,18.3097,-4.95651,-2.15284,0.996821,-3.84579,6.2213,-1.13037,0.321629,-2.32809,-1.29297,3.42287,-5.84912,-0.581562,3.53879,-7.91237,-12.6641,-18.6031,13.7641,-18.2458,19.2273,9.19739,-8.39824,7.25769,-4.82053e-15,2.26615e-14,44.8191,29.3586,-43.5003,46.8692,6.02164,-16.4076,14.0279,7.12502,9.80691,-15.7237,-4.82053e-15,2.26615e-14,40.6097,-26.4975,55.2085,41.7964,-9.27294,-12.9558,28.1444,7.12502,13.1358,57.7106,-3.71664,2.65982,22.6562,21.9006,-11.2255,-2.4234,-11.0711,-2.75184,2.45146,-15.9241,20.2234,-11.2797,-2.11987,-10.9753
1.13849,18.3116,-4.93721,-2.33184,0.850155,-3.10847,6.07493,-1.13341,-0.348581,-2.21485,-1.3741,3.16449,-5.63146,-0.605915,3.64663,-6.7674,-12.8867,-18.7477,12.8991,-18.6884,19.6872,8.85941,-8.66998,7.40901,1.5704e-14,-1.39149e-14,45.1351,29.2396,-43.8508,46.5373,6.36511,-15.6869,13.6983,7.12502,10.5022,-16.0193,1.5704e-14,-1.39149e-14,40.3425,-26.2787,55.4728,41.7277,-9.36098,-12.9921,27.9565,7.12502,13.1008,57.525,-3.61781,2.15474,21.643,22.1762,-11.6322,-1.81686,-8.27091,-2.23363,2.61851,-16.855,19.9361,-11.2636,-2.11064,-10.7183
1.15747,18.3149,-4.93525,-2.3357,0.682467,-2.90163,6.03782,-1.16649,-0.56222,-1.96657,-1.4446,3.12067,-5.3408,-0.640558,3.72066,-6.91967,-13.3319,-18.8711,12.5592,-19.304,20.0367,8.96156,-8.9376,7.41552,4.09993e-15,-9.93923e-15,45.8024,28.9094,-43.796,46.4275,6.56838,-15.5251,13.7015,7.12502,10.6583,-16.0082,4.09993e-15,-9.93923e-15,40.563,-25.6919,55.6174,41.693,-9.39778,-12.6403,27.9731,7.12502,13.4399,57.5195,-3.80531,2.14475,21.3413,22.457,-11.3256,-1.84597,-10.8425,-2.0745,2.95431,-17.1235,19.6945,-11.1562,-2.16904,-11.0481
1.17303,18.3166,-4.94451,-2.25933,0.580184,-2.91153,5.90942,-1.17042,-0.650204,-2.03071,-1.45927,3.07795,-5.33281,-0.64523,3.72463,-5.65687,-13.4806,-19.2151,11.8319,-19.7243,20.8166,8.71587,-9.20296,7.73034,-3.23025e-16,1.63003e-14,45.8693,28.949,-43.8047,46.4052,6.3879,-16.2414,14.1251,7.12502,9.96723,-15.6189,-3.23025e-16,1.63003e-14,40.1052,-25.705,55.8582,41.8825,-9.38384,-12.7778,28.1506,7.12502,13.3074,57.7057,-4.13211,2.14661,21.3139,22.7462,-11.1992,-2.03354,-10.3824,-2.06321,3.31802,-17.118,19.4562,-10.9953,-2.33207,-11.0989
1.18577,18.3164,-4.95381,-2.20013,0.348548,-2.97795,5.86122,-1.13997,-0.637447,-2.05623,-1.41906,3.04742,-5.3358,-0.626042,3.68044,-4.59059,-13.6609,-19.5381,11.0046,-20.1234,21.5207,8.46496,-9.45665,8.00682,5.19325e-15,-1.07344e-14,46.1245,28.9984,-43.629,46.3085,5.99758,-15.5354,13.5067,7.12502,10.6483,-16.2035,5.19325e-15,-1.07344e-14,39.7003,-25.6866,55.8571,42.0716,-9.22535,-13.3467,28.1973,7.12502,12.759,57.7875,-4.38301,2.24222,21.3603,23.0085,-11.5142,-2.21574,-7.12025,-2.09997,3.68921,-17.0396,19.3817,-10.9295,-2.45735,-10.9798
1.19884,18.3178,-4.95956,-2.15533,0.0339806,-3.02415,6.1784,-1.11231,-0.673452,-2.35779,-1.37322,3.09567,-5.83538,-0.59081,3.76526,-3.50162,-13.7934,-19.8465,10.6248,-20.4371,21.6759,8.26825,-9.69149,8.11396,1.11319e-14,1.35174e-14,46.0554,29.457,-43.5219,46.2314,5.81994,-15.3929,13.2997,7.12502,10.7858,-16.4033,1.11319e-14,1.35174e-14,38.9512,-25.7538,56.1043,42.1714,-9.07607,-13.4117,28.1183,7.12502,12.6963,57.7123,-4.58122,2.31301,21.367,23.2721,-11.2274,-2.30327,-10.4783,-2.13293,3.97113,-17.0204,19.3808,-10.9721,-2.35972,-11.2302
1.21645,18.3199,-4.95861,-2.10094,-0.161134,-2.91503,6.60723,-1.16845,-0.869774,-2.79893,-1.45185,3.12604,-6.53734,-0.605278,3.94485,-2.53888,-13.88,-20.091,10.7123,-20.7145,21.5748,8.19863,-9.90064,8.12935,-5.71506e-15,3.57812e-15,45.8538,30.1285,-43.6231,46.2231,5.66059,-15.8529,13.5093,7.12502,10.3421,-16.2164,-5.71506e-15,3.57812e-15,37.9427,-25.8167,56.5009,42.1873,-9.00316,-13.3578,28.1335,7.12502,12.7483,57.7243,-4.78567,2.14429,21.1557,23.5543,-11.1779,-2.22375,-12.5641,-2.14675,4.07278,-17.2311,19.3904,-11.0052,-2.13014,-11.5274
1.23195,18.3204,-4.95721,-2.03635,-0.335164,-2.9085,6.69473,-1.23141,-0.918644,-2.8955,-1.53877,3.12147,-6.6828,-0.642612,3.98421,-2.02685,-14.1031,-20.2028,10.4785,-21.1154,21.7634,8.15962,-10.1254,8.16618,3.23025e-14,-1.23246e-14,46.001,30.2901,-43.7436,46.2289,5.44935,-15.572,13.4773,7.12502,10.6131,-16.2347,3.23025e-14,-1.23246e-14,37.5459,-25.6095,56.5883,42.0658,-9.005,-13.6381,28.1364,7.12502,12.478,57.7439,-4.99902,2.07595,21.078,23.874,-11.1845,-2.18973,-12.3696,-2.12992,4.16971,-17.3019,19.326,-10.9856,-1.99302,-11.6209
1.24495,18.3182,-4.95931,-2.02923,-0.459877,-2.88268,6.33422,-1.23433,-0.850396,-2.49765,-1.55244,3.02026,-6.05708,-0.669389,3.81497,-1.90341,-14.4804,-20.3287,9.75963,-21.6571,22.3981,8.13231,-10.3821,8.29581,-8.94531e-15,-9.54166e-15,46.6422,29.7452,-43.5404,46.1559,5.23945,-15.5356,13.5196,7.12502,10.6482,-16.1906,-8.94531e-15,-9.54166e-15,38.0961,-25.1679,56.3016,41.9652,-8.99678,-13.7294,28.1276,7.12502,12.39,57.7404,-5.16775,2.02888,20.9968,24.2189,-11.3219,-2.20385,-11.8496,-2.05953,4.24687,-17.3726,19.2254,-10.9944,-1.9169,-11.8508
1.25705,18.3176,-4.96571,-2.04642,-0.459145,-2.66756,5.68501,-1.21796,-0.847064,-1.84479,-1.55926,2.76747,-5.00601,-0.700449,3.50803,-1.91205,-14.9403,-20.3649,8.93681,-22.289,23.1182,8.12421,-10.6707,8.40755,-1.02374e-14,-1.15295e-14,47.463,28.8174,-43.344,45.9696,5.35337,-16.1942,13.8113,7.12502,10.0128,-15.9305,-1.02374e-14,-1.15295e-14,39.2293,-24.731,55.6371,41.9568,-8.89443,-13.6649,28.2818,7.12502,12.4522,57.8909,-5.34188,1.82771,20.7023,24.5757,-11.6085,-2.17723,-12.1707,-2.00979,4.278,-17.6626,19.1317,-10.9664,-1.89147,-12.1702
1.26535,18.3191,-4.97089,-2.0356,-0.60205,-2.53989,6.02917,-1.23881,-1.02115,-2.08877,-1.59816,2.71455,-5.45201,-0.705635,3.57279,-1.05881,-15.1067,-20.4748,8.64947,-22.6117,23.0875,7.96291,-10.8964,8.4087,-6.5102e-15,-8.34896e-15,47.4183,29.2593,-43.3089,45.7846,5.97112,-18.2096,14.7322,7.12502,8.06803,-15.0938,-6.5102e-15,-8.34896e-15,38.7296,-24.8147,55.665,41.9711,-8.77622,-13.9968,28.3548,7.12502,12.1322,57.983,-5.56727,1.82607,20.544,24.9548,-11.8938,-2.22909,-12.423,-1.96122,4.36397,-17.8341,19.0003,-10.8364,-1.80314,-12.1948
1.27232,18.3204,-4.9689,-2.02263,-0.838617,-2.52736,6.19988,-1.22778,-1.10389,-2.24039,-1.5878,2.71187,-5.70756,-0.691927,3.62565,-0.297885,-15.2541,-20.4237,8.23533,-22.8639,23.0218,7.73739,-11.0809,8.38417,8.22472e-15,-7.95139e-15,47.6963,29.5391,-42.996,45.8616,4.95467,-16.6847,13.9482,7.12502,9.53953,-15.8158,8.22472e-15,-7.95139e-15,38.3635,-24.8869,55.581,41.9788,-8.49989,-14.3448,28.3651,7.12502,11.7966,58.0129,-5.79199,1.88312,20.5295,25.3368,-12.2096,-2.30616,-11.8104,-1.88635,4.42774,-17.8698,18.8545,-10.691,-1.63625,-11.8429
1.28029,18.3201,-4.96789,-1.98,-0.915134,-2.43885,6.24439,-1.2341,-1.24344,-2.30693,-1.60881,2.68408,-5.79875,-0.695504,3.68098,0.246074,-15.4632,-20.4707,7.94204,-23.2277,23.171,7.6601,-11.2957,8.40879,2.85753e-15,-2.22639e-14,48.2856,29.7581,-42.3004,45.9909,4.08072,-15.9118,13.0633,7.12502,10.2853,-16.6652,2.85753e-15,-2.22639e-14,38.2292,-24.9062,55.4941,41.9938,-8.25805,-14.518,28.4757,7.12502,11.6296,58.133,-5.98615,1.72796,20.4004,25.6528,-12.5815,-2.23585,-10.2493,-1.87485,4.44744,-18.0027,18.7489,-10.6359,-1.60061,-11.6028
1.28805,18.3182,-4.96963,-1.94345,-0.959528,-2.268,6.26338,-1.23916,-1.44863,-2.36575,-1.63544,2.63404,-5.86569,-0.700173,3.74959,0.68261,-15.7109,-20.586,7.77841,-23.6545,23.3218,7.66765,-11.5314,8.4216,1.07095e-14,-2.26615e-14,48.4616,29.863,-42.1373,46.0841,3.62847,-15.8401,12.8987,7.12502,10.3544,-16.8264,1.07095e-14,-2.26615e-14,38.0622,-24.8674,55.5823,41.9323,-8.19946,-14.8458,28.5474,7.12502,11.3134,58.2223,-6.11772,1.57803,20.1576,25.8683,-12.8421,-2.04949,-9.71729,-1.86338,4.48369,-18.235,18.6712,-10.6455,-1.57408,-11.7628
1.29308,18.3186,-4.96683,-1.99015,-1.03069,-2.20142,6.31586,-1.23313,-1.54533,-2.44804,-1.6363,2.61219,-5.98058,-0.694274,3.78556,1.22079,-15.8911,-20.611,7.67756,-23.9656,23.2002,7.59758,-11.724,8.36419,1.25483e-14,-1.39149e-14,48.1383,29.939,-42.4892,46.0096,3.77584,-15.9027,13.1401,7.12502,10.294,-16.5879,1.25483e-14,-1.39149e-14,37.7785,-24.8808,55.8017,41.8238,-8.32997,-15.2342,28.5241,7.12502,10.9388,58.2191,-6.1167,1.54525,20.0529,26.0047,-13.019,-1.97758,-10.8748,-1.75702,4.49318,-18.3312,18.6356,-10.6815,-1.49859,-11.7132
1.29445,18.3196,-4.96253,-2.06529,-1.10698,-2.24913,6.32905,-1.23332,-1.55666,-2.47629,-1.63763,2.60658,-6.01772,-0.693588,3.78749,1.73216,-15.9751,-20.601,7.56474,-24.1346,23.1014,7.49473,-11.8467,8.33975,3.21286e-14,-2.90226e-14,48.0026,29.9665,-42.5647,46.0287,4.23891,-15.5468,13.1107,7.12502,10.6373,-16.6001,3.21286e-14,-2.90226e-14,37.607,-24.9108,55.8175,41.7706,-8.39098,-15.1552,28.5224,7.12502,11.015,58.2134,-6.04898,1.57837,20.1205,26.0827,-13.3275,-2.04982,-11.0375,-1.65051,4.43353,-18.2733,18.6463,-10.7079,-1.4219,-11.1765
1.29405,18.3167,-4.96368,-2.08981,-1.2382,-2.23833,6.26115,-1.22218,-1.61711,-2.39672,-1.63102,2.56371,-5.89493,-0.692156,3.77124,2.00413,-16.0538,-20.6141,7.31341,-24.2777,23.2919,7.43197,-11.9362,8.39921,1.18028e-14,-2.14687e-14,48.426,29.9026,-42.2482,46.1001,4.20818,-15.0493,12.8485,7.12502,11.1172,-16.8371,1.18028e-14,-2.14687e-14,37.7491,-24.8513,55.5832,41.6919,-8.25527,-14.6293,28.5634,7.12502,11.5222,58.2267,-6.02072,1.66009,20.132,26.1005,-13.8267,-2.0636,-8.76724,-1.64774,4.43264,-18.283,18.6818,-10.7154,-1.29999,-10.9536
1.2918,18.3128,-4.96837,-2.04903,-1.38616,-2.21338,6.18935,-1.1956,-1.68022,-2.33099,-1.60363,2.51989,-5.78618,-0.679984,3.75364,2.24849,-16.1701,-20.6768,7.00532,-24.4771,23.589,7.39308,-12.0508,8.48598,-1.74682e-14,0,49.1609,29.8365,-42.0112,45.8768,3.94078,-15.0323,12.6069,7.12502,11.1336,-17.0778,-1.74682e-14,0,37.9587,-24.7405,55.4441,41.5146,-8.09032,-14.7926,28.7303,7.12502,11.3648,58.4023,-6.059,1.79242,20.1313,26.0668,-13.4789,-2.17696,-11.0755,-1.72636,4.5365,-18.3088,18.7461,-10.7609,-1.19351,-11.4594
1.28706,18.313,-4.97031,-2.0227,-1.53983,-2.34922,6.2021,-1.1842,-1.61481,-2.31901,-1.58237,2.53094,-5.7838,-0.671871,3.72609,2.42767,-16.2952,-20.6518,6.86281,-24.6758,23.6816,7.37454,-12.159,8.48702,3.45388e-15,1.78906e-14,48.5044,29.4165,-43.3591,45.3606,5.02869,-14.9481,13.2901,7.12502,11.2148,-16.3901,3.45388e-15,1.78906e-14,37.9677,-24.5611,55.5024,41.3168,-7.9804,-15.5254,28.9297,7.12502,10.658,58.6394,-6.08023,1.9855,20.3345,25.9921,-13.185,-2.32503,-11.8481,-1.74961,4.61185,-18.1345,18.8061,-10.8219,-1.08541,-11.9599
1.28393,18.3138,-4.9652,-2.04465,-1.61841,-2.45645,6.25145,-1.19279,-1.5479,-2.35097,-1.5882,2.52678,-5.84701,-0.675785,3.68704,2.57795,-16.4102,-20.4645,6.80056,-24.8259,23.5242,7.31373,-12.2417,8.392,-2.2413e-14,4.77083e-15,48.805,29.6875,-42.5688,45.8513,4.31028,-14.4652,12.5969,7.12502,11.6805,-17.0575,-2.2413e-14,4.77083e-15,37.8529,-24.4302,55.641,41.1118,-8.06229,-15.7745,28.8932,7.12502,10.4177,58.6151,-5.96719,2.0824,20.4769,25.8467,-12.8762,-2.35527,-11.3283,-1.70583,4.60801,-18.0012,18.8634,-10.8749,-0.985738,-12.0665
1.28424,18.313,-4.95673,-2.07942,-1.57558,-2.37668,6.24148,-1.2036,-1.60316,-2.37471,-1.61056,2.46519,-5.86485,-0.68539,3.65628,2.65321,-16.5349,-20.3241,6.82899,-24.9898,23.3333,7.29825,-12.3248,8.28252,-1.76173e-14,3.18055e-15,48.7674,29.6778,-42.5472,45.9708,4.26936,-14.3962,12.6003,7.12502,11.747,-17.0503,-1.76173e-14,3.18055e-15,37.8439,-24.485,55.584,41.0075,-8.2306,-15.5735,28.8016,7.12502,10.6116,58.5136,-5.7769,1.95941,20.3642,25.587,-12.5021,-2.25882,-9.79868,-1.67295,4.59887,-18.0961,18.9192,-10.9188,-0.997895,-11.8205
1.27927,18.3109,-4.95143,-2.12643,-1.5285,-2.35804,6.18798,-1.22163,-1.67011,-2.35493,-1.64094,2.4551,-5.8097,-0.699385,3.68443,2.70023,-16.6145,-20.3501,6.94158,-25.1212,23.2481,7.34558,-12.3901,8.23367,1.46852e-14,-4.77083e-15,48.8359,29.666,-42.5831,45.9489,4.27524,-15.0591,13.0071,7.12502,11.1078,-16.679,1.46852e-14,-4.77083e-15,37.8949,-24.523,55.4766,41.063,-8.15696,-15.3452,28.7703,7.12502,10.8318,58.471,-5.5442,1.93373,20.3633,25.2153,-12.1733,-2.19231,-7.28748,-1.64304,4.627,-18.0832,18.9496,-10.9825,-1.09805,-11.5793
1.269,18.309,-4.94763,-2.18232,-1.48276,-2.45602,6.14652,-1.24113,-1.66658,-2.32056,-1.66575,2.47499,-5.74748,-0.712992,3.7036,2.84499,-16.6577,-20.4199,6.91421,-25.222,23.3522,7.36102,-12.4487,8.26913,2.48481e-17,0,48.9817,29.6958,-42.4463,45.9548,4.27002,-15.5566,13.2303,7.12502,10.6279,-16.4809,2.48481e-17,0,37.9439,-24.4891,55.4919,41.0833,-8.04892,-15.2307,28.742,7.12502,10.9423,58.4368,-5.25977,2.02684,20.5353,24.77,-11.9227,-2.0938,-5.71128,-1.56688,4.60879,-17.9146,18.9578,-11.0214,-1.15935,-11.5927
1.26089,18.3083,-4.94263,-2.22988,-1.42868,-2.55986,6.1994,-1.23656,-1.58069,-2.37191,-1.65354,2.44697,-5.83568,-0.708441,3.62755,3.06102,-16.6855,-20.5323,6.88492,-25.3409,23.5991,7.39683,-12.5195,8.36062,-4.19933e-15,1.66979e-14,48.7076,29.6408,-42.7172,45.9018,4.62356,-15.651,13.5957,7.12502,10.5368,-16.1202,-4.19933e-15,1.66979e-14,37.8918,-24.6087,55.5044,41.0332,-8.12389,-14.8622,28.7162,7.12502,11.2976,58.3919,-4.99645,2.02847,20.7035,24.2748,-11.8009,-1.9169,-6.31503,-1.48064,4.52163,-17.7659,18.9859,-11.0209,-1.11496,-11.7722
1.25577,18.3061,-4.93464,-2.26435,-1.4182,-2.61358,6.23311,-1.22812,-1.49705,-2.51691,-1.63612,2.4039,-6.01243,-0.699081,3.53828,3.44809,-16.6505,-20.7807,6.96903,-25.4229,23.8226,7.4457,-12.5873,8.48751,1.09083e-14,-9.93923e-16,48.1235,29.6215,-43.4362,45.8703,5.08496,-15.5125,13.9277,7.12502,10.6704,-15.7813,1.09083e-14,-9.93923e-16,37.6367,-24.789,55.591,41.0419,-8.07208,-14.3663,28.6715,7.12502,11.7759,58.3204,-4.72731,1.99805,20.788,23.7672,-11.7806,-1.74242,-7.32227,-1.44323,4.46026,-17.6972,19.0658,-11.0864,-1.04733,-12.0155
1.25027,18.3053,-4.9257,-2.29108,-1.3904,-2.6784,6.14185,-1.24751,-1.41539,-2.5848,-1.6549,2.38746,-6.033,-0.710862,3.47568,3.83339,-16.5993,-20.9863,6.94748,-25.4453,23.9757,7.43054,-12.6303,8.5987,3.60794e-14,-3.37934e-14,47.8649,29.6648,-43.8276,45.9021,5.28293,-15.307,13.7991,7.12502,10.8687,-15.8996,3.60794e-14,-3.37934e-14,37.4232,-24.8017,55.72,41.091,-8.00707,-14.2208,28.7378,7.12502,11.9162,58.3787,-4.41443,1.9837,20.8738,23.2981,-11.6602,-1.72644,-8.14591,-1.446,4.39623,-17.6124,19.1664,-11.145,-1.03497,-11.9674
1.24021,18.3034,-4.91878,-2.29856,-1.30277,-2.71875,5.98728,-1.26856,-1.39072,-2.51805,-1.68287,2.35588,-5.8736,-0.729822,3.42446,3.90988,-16.625,-20.9654,6.8815,-25.4988,24.0755,7.42264,-12.6609,8.62521,1.74434e-14,-7.35503e-15,47.9721,29.601,-43.8368,45.9117,5.28865,-15.0814,13.3746,7.12502,11.0862,-16.3126,1.74434e-14,-7.35503e-15,37.5982,-24.6931,55.6905,41.0289,-7.93895,-14.1303,28.8575,7.12502,12.0034,58.4933,-4.1029,2.02301,20.9671,22.8922,-11.4932,-1.89276,-9.82684,-1.48522,4.2409,-17.5395,19.2471,-11.1705,-1.00225,-11.5441
1.22794,18.3,-4.91221,-2.31512,-1.25264,-2.66908,5.91198,-1.24868,-1.46085,-2.46305,-1.66653,2.2793,-5.77386,-0.722929,3.37795,3.81299,-16.7183,-20.8069,6.9437,-25.6246,24.063,7.46512,-12.7079,8.56349,1.74682e-14,3.77691e-15,47.9988,29.4482,-43.9956,45.8844,5.35832,-14.9375,13.0406,7.12502,11.225,-16.6391,1.74682e-14,3.77691e-15,37.9796,-24.6786,55.5385,40.8616,-7.66038,-14.0976,28.8041,7.12502,12.035,58.4381,-3.83479,2.05707,20.9736,22.54,-11.4884,-1.95604,-10.2368,-1.49784,4.1215,-17.561,19.3235,-11.2346,-0.945761,-11.1247
1.21504,18.2996,-4.9016,-2.36661,-1.33548,-2.6681,5.76905,-1.17523,-1.49184,-2.38507,-1.57372,2.22455,-5.61699,-0.680459,3.3218,3.82031,-16.82,-20.679,6.93336,-25.7616,24.0324,7.47027,-12.7709,8.50733,6.06293e-15,-2.48481e-14,47.9271,29.2622,-44.2159,45.8354,5.49195,-14.8765,12.8425,7.12502,11.2839,-16.834,6.06293e-15,-2.48481e-14,38.2613,-24.6627,55.5152,40.726,-7.63574,-14.494,28.7281,7.12502,11.6527,58.3841,-3.584,2.16264,21.0377,22.1915,-11.7949,-1.88093,-7.63279,-1.4468,4.11588,-17.5206,19.429,-11.3391,-0.855589,-11.2152
1.20254,18.298,-4.88584,-2.41316,-1.44006,-2.67616,5.46455,-1.08591,-1.50734,-2.26336,-1.45658,2.19179,-5.32364,-0.628761,3.27234,3.81201,-16.955,-20.5669,6.97143,-25.9332,23.8898,7.48495,-12.85,8.40659,1.30577e-14,-3.33958e-14,47.8611,29.0841,-44.2799,45.7821,5.65422,-14.8955,12.7564,7.12502,11.2655,-16.9211,1.30577e-14,-3.33958e-14,38.3537,-24.5678,55.7065,40.7204,-7.94144,-14.5113,28.6537,7.12502,11.6361,58.3106,-3.26946,2.34082,21.0954,21.8178,-11.5475,-1.78541,-10.0748,-1.35362,4.05474,-17.4784,19.5271,-11.4918,-0.689665,-11.5522
1.19129,18.2977,-4.87582,-2.40059,-1.4347,-2.74113,5.30476,-1.03222,-1.45284,-2.26659,-1.38021,2.18328,-5.24234,-0.594267,3.22083,3.81452,-17.051,-20.4948,7.10501,-26.074,23.7516,7.52681,-12.9138,8.32093,-2.2736e-15,2.78299e-15,47.6777,29.0197,-44.3401,45.7804,5.78259,-15.0492,12.8143,7.12502,11.1173,-16.8713,-2.2736e-15,2.78299e-15,38.2357,-24.5775,55.9491,40.8428,-8.09759,-13.9269,28.5156,7.12502,12.1996,58.1398,-3.02243,2.42264,21.1891,21.4348,-11.4405,-1.69328,-10.7892,-1.34289,3.92882,-17.3857,19.6315,-11.59,-0.545719,-11.9803
1.17925,18.3001,-4.87284,-2.40941,-1.41281,-2.91687,5.41406,-1.00482,-1.29294,-2.38796,-1.32981,2.20061,-5.43825,-0.570272,3.14967,4.02105,-17.0552,-20.5731,7.11005,-26.1394,23.8549,7.53624,-12.9603,8.3716,-7.98866e-15,1.59028e-14,47.3777,29.0733,-44.5704,45.8335,5.78676,-15.0369,12.8545,7.12502,11.1291,-16.8304,-7.98866e-15,1.59028e-14,38.1004,-24.6995,56.0997,40.8856,-7.96662,-13.7414,28.4611,7.12502,12.3784,58.0747,-2.80504,2.43166,21.4175,21.0618,-11.2578,-1.62804,-11.6836,-1.35519,3.81673,-17.1579,19.7625,-11.639,-0.432078,-12.2822
1.16699,18.3003,-4.86786,-2.48627,-1.39563,-3.08898,5.67553,-0.976442,-1.11612,-2.61678,-1.27548,2.20854,-5.83513,-0.54165,3.06516,4.35019,-17.0513,-20.6768,7.21178,-26.2135,23.825,7.53874,-13.0211,8.39258,2.54693e-15,2.22639e-14,46.8782,29.3158,-44.8184,45.9719,5.66624,-14.8924,12.7388,7.12502,11.2685,-16.9385,2.54693e-15,2.22639e-14,37.8143,-24.9264,56.3508,40.908,-7.71377,-13.8281,28.4284,7.12502,12.2949,58.047,-2.50325,2.35524,21.647,20.6996,-11.0624,-1.52535,-12.6605,-1.26827,3.70552,-16.9222,19.8576,-11.7257,-0.353015,-12.2344
1.15478,18.3034,-4.8575,-2.51751,-1.31511,-3.206,5.66277,-0.984874,-0.968584,-2.71794,-1.27409,2.19901,-5.9376,-0.544561,2.97378,4.47267,-17.09,-20.6941,7.27237,-26.2964,23.7678,7.54921,-13.0696,8.37016,-2.80411e-14,2.72335e-14,46.5573,29.4891,-44.9451,46.1432,5.49603,-14.7801,12.4159,7.12502,11.3768,-17.2555,-2.80411e-14,2.72335e-14,37.5606,-25.0007,56.5472,41.0494,-7.45076,-13.7991,28.506,7.12502,12.3228,58.1228,-2.27527,2.2842,21.822,20.3696,-10.9884,-1.49758,-12.4155,-1.21637,3.51402,-16.7641,19.896,-11.8057,-0.245388,-12.3809
1.14185,18.3088,-4.84479,-2.52141,-1.19701,-3.27075,5.30056,-1.02627,-0.863162,-2.51695,-1.32631,2.15507,-5.51891,-0.582644,2.85916,4.26336,-17.2071,-20.4919,7.02346,-26.3787,23.8208,7.50552,-13.0927,8.32199,1.52567e-14,-7.35503e-15,46.7164,29.3384,-44.9515,46.2016,5.31456,-14.7961,12.162,7.12502,11.3614,-17.5103,1.52567e-14,-7.35503e-15,37.7729,-24.8344,56.362,41.1279,-7.25002,-14.1474,28.6325,7.12502,11.987,58.2692,-2.07741,2.33677,21.9419,20.0839,-11.0793,-1.56886,-10.599,-1.1682,3.21272,-16.6824,19.8862,-11.8593,-0.0429504,-12.6026
1.12628,18.31,-4.83942,-2.53362,-1.14764,-3.38646,5.08163,-1.01995,-0.743992,-2.31664,-1.31321,2.12886,-5.18766,-0.586572,2.7531,3.83592,-17.3535,-20.2081,6.92139,-26.4793,23.773,7.52161,-13.1041,8.20416,3.10601e-15,-7.35503e-15,46.8684,29.1296,-44.8876,46.2507,5.08512,-15.0736,12.1528,7.12502,11.0937,-17.5339,3.10601e-15,-7.35503e-15,38.1735,-24.7104,56.117,41.1005,-7.18768,-14.7533,28.7292,7.12502,11.4027,58.3992,-1.89105,2.4464,22.1147,19.8253,-11.1108,-1.58232,-9.01565,-1.11502,2.98267,-16.5327,19.8327,-11.8839,0.169565,-12.5407
1.10855,18.3119,-4.84061,-2.51546,-1.17026,-3.54861,5.10452,-1.00072,-0.648693,-2.28153,-1.27893,2.17013,-5.16688,-0.572569,2.73912,3.44296,-17.4103,-20.204,7.06642,-26.5381,23.8158,7.65578,-13.0962,8.16286,-1.32937e-14,2.15681e-14,46.8753,29.1028,-44.9417,46.3421,5.02876,-15.2637,12.1364,7.12502,10.9104,-17.5601,-1.32937e-14,2.15681e-14,38.313,-24.6081,56.0688,41.1268,-7.14202,-14.5491,28.8633,7.12502,11.5997,58.5222,-1.79025,2.53721,22.3556,19.5953,-10.9705,-1.56768,-8.59336,-1.14506,2.83258,-16.3135,19.7776,-11.8119,0.341168,-12.2216
1.09232,18.3179,-4.83997,-2.43169,-1.20652,-3.68303,5.03932,-0.990918,-0.592935,-2.28537,-1.2585,2.24496,-5.13445,-0.563368,2.7822,3.2345,-17.4145,-20.3372,7.07102,-26.5454,23.9789,7.74172,-13.0826,8.20854,-3.07868e-14,1.15295e-14,46.9078,29.1292,-45.0354,46.3894,5.18085,-15.3444,12.0783,7.12502,10.8326,-17.6224,-3.07868e-14,1.15295e-14,38.3626,-24.5824,55.9073,41.2843,-6.73377,-14.1046,28.9392,7.12502,12.0283,58.5735,-1.79011,2.56838,22.5628,19.3921,-10.792,-1.57128,-8.55959,-1.2355,2.72276,-16.1258,19.7186,-11.6947,0.476049,-12.0984
1.07644,18.3216,-4.83716,-2.3548,-1.23757,-3.79591,5.00485,-0.936217,-0.521253,-2.26181,-1.17762,2.31086,-5.09452,-0.52513,2.80172,2.7467,-17.5359,-20.3859,7.18711,-26.6731,24.0082,7.90508,-13.1005,8.14299,-1.73191e-14,1.68967e-15,46.9619,29.0584,-44.8928,46.4631,5.18449,-15.4475,12.0492,7.12502,10.7331,-17.6566,-1.73191e-14,1.68967e-15,38.5883,-24.605,55.7764,41.3864,-6.35644,-14.34,29.0335,7.12502,11.8013,58.681,-1.78869,2.58268,22.7386,19.215,-10.7365,-1.55542,-8.45217,-1.24405,2.64869,-15.9646,19.5873,-11.6821,0.630453,-12.348
1.0638,18.3199,-4.82498,-2.44945,-1.18778,-3.80652,5.05051,-0.908806,-0.585351,-2.56419,-1.13882,2.34889,-5.43761,-0.496851,2.88147,3.7567,-17.3344,-20.6561,7.04014,-26.5308,24.0353,7.69318,-13.1229,8.32377,2.33448e-14,-3.44891e-14,46.3492,29.5977,-44.9018,46.6003,4.96973,-15.5482,12.0459,7.12502,10.636,-17.665,2.33448e-14,-3.44891e-14,37.9262,-24.8401,56.4066,41.3296,-6.7306,-14.5527,29.0113,7.12502,11.5961,58.6705,-1.53477,2.41779,22.7658,19.0569,-10.8106,-1.3968,-8.40539,-0.993825,2.56178,-15.9303,19.3984,-11.7094,0.746785,-12.7206
1.05696,18.3162,-4.80167,-2.58868,-1.12242,-3.60399,4.94276,-0.880434,-0.727882,-2.56594,-1.11534,2.27886,-5.37779,-0.482129,2.88383,3.91079,-17.3836,-20.4843,6.87978,-26.5573,23.8685,7.56859,-13.1504,8.25837,-1.16786e-15,-8.54774e-15,46.108,29.8132,-44.8612,46.6483,4.47724,-16.0815,12.2099,7.12502,10.1215,-17.5266,-1.16786e-15,-8.54774e-15,37.7946,-24.8116,56.7343,41.2107,-7.17086,-14.0093,28.5285,7.12502,12.1201,58.1574,-1.21544,2.07392,22.494,18.9213,-10.8929,-0.996895,-8.42156,-0.659062,2.46484,-16.1673,19.2252,-11.7515,0.83909,-12.7404
1.04581,18.315,-4.78996,-2.63023,-0.994098,-3.39346,4.83897,-0.881681,-0.872496,-2.44307,-1.1348,2.16574,-5.18808,-0.492106,2.84405,3.36479,-17.5795,-20.1173,6.86966,-26.6979,23.6448,7.60116,-13.1703,8.05185,9.44227e-16,-1.00386e-14,46.1351,29.7023,-44.9685,46.6505,4.20227,-16.4001,12.3101,7.12502,9.81419,-17.4412,9.44227e-16,-1.00386e-14,38.0875,-24.7009,56.5874,41.1847,-7.29637,-13.3541,28.0457,7.12502,12.7518,57.6363,-1.06139,1.85263,22.2528,18.7949,-10.8762,-0.719871,-8.9928,-0.525852,2.27605,-16.3973,19.1021,-11.7578,0.936382,-12.5079
1.02961,18.3157,-4.79473,-2.61036,-0.836549,-3.36914,4.85657,-0.904536,-0.916753,-2.43797,-1.17095,2.11507,-5.19088,-0.509423,2.81976,3.14623,-17.697,-19.8498,6.88389,-26.784,23.396,7.58209,-13.1929,7.8973,1.32068e-14,-1.73937e-14,46.0703,29.5428,-45.1863,46.6989,4.69782,-15.9568,12.1494,7.12502,10.2418,-17.5813,1.32068e-14,-1.73937e-14,38.2237,-24.6333,56.4646,41.182,-7.45028,-13.6257,28.0778,7.12502,12.49,57.6846,-1.0062,1.83779,22.2929,18.6573,-10.8137,-0.78532,-9.75228,-0.572218,2.12294,-16.3857,19.0436,-11.6917,0.986032,-12.819
1.01508,18.3186,-4.79873,-2.54969,-0.804821,-3.39701,4.83467,-0.881803,-0.93482,-2.47801,-1.14158,2.11123,-5.22169,-0.493597,2.82354,3.16449,-17.7769,-19.7537,6.81773,-26.8716,23.3165,7.55019,-13.2369,7.8428,8.00108e-15,-2.68359e-15,45.9555,29.4863,-45.2938,46.7535,5.16249,-15.7398,12.1397,7.12502,10.4511,-17.5805,8.00108e-15,-2.68359e-15,38.4105,-24.6085,56.4061,41.0873,-7.63027,-13.988,28.2994,7.12502,12.1407,57.9271,-1.01048,1.96424,22.3948,18.5321,-10.9947,-0.881788,-7.36305,-0.645056,2.03784,-16.3216,19.0268,-11.7026,1.06477,-13.0591
0.998804,18.3213,-4.79516,-2.54873,-0.745033,-3.43171,4.87082,-0.871283,-0.97342,-2.56351,-1.12886,2.11966,-5.33181,-0.483656,2.85551,3.20255,-17.798,-19.7726,6.80732,-26.9212,23.3841,7.56563,-13.262,7.8596,1.21134e-14,2.38542e-15,45.7504,29.6386,-45.3523,46.8284,5.18069,-15.8103,12.2519,7.12502,10.3832,-17.4717,1.21134e-14,2.38542e-15,38.508,-24.7074,56.3156,41.0524,-7.8036,-13.4942,28.2967,7.12502,12.6168,57.8957,-0.920384,2.06493,22.5064,18.397,-10.7017,-0.964742,-9.91004,-0.635799,1.96591,-16.2282,19.0304,-11.7399,1.07273,-12.8752
0.979697,18.3215,-4.78768,-2.61233,-0.523318,-3.46005,4.97029,-0.909074,-0.997119,-2.70632,-1.18007,2.10877,-5.53542,-0.504492,2.86764,3.42718,-17.7769,-19.7596,6.81754,-26.9196,23.3209,7.5174,-13.2793,7.8625,2.43635e-14,-5.1684e-15,45.4132,29.869,-45.4692,46.9699,5.15084,-15.6264,12.1778,7.12502,10.5605,-17.5369,2.43635e-14,-5.1684e-15,38.2924,-24.9573,56.2102,41.132,-7.8971,-13.0868,28.2122,7.12502,13.0095,57.7866,-0.723265,1.96434,22.6182,18.2136,-10.6454,-1.11667,-10.1289,-0.571891,1.94918,-16.1098,19.0304,-11.7161,0.906873,-12.7171
0.96147,18.3233,-4.78455,-2.61946,-0.293267,-3.52077,5.00857,-0.949693,-0.912475,-2.73174,-1.22822,2.10051,-5.58307,-0.530812,2.8174,3.16267,-17.8865,-19.6158,6.92929,-27.0171,23.101,7.56176,-13.3031,7.72493,2.11209e-16,1.83876e-14,45.3023,29.8497,-45.5063,47.1265,5.11669,-15.4238,12.1045,7.12502,10.7559,-17.6002,2.11209e-16,1.83876e-14,38.3975,-25.0024,56.138,41.0863,-7.85535,-13.3618,28.4052,7.12502,12.7444,57.9963,-0.617313,1.8575,22.7677,18.039,-10.7575,-1.28742,-8.04909,-0.583942,1.93958,-15.9584,18.9847,-11.6366,0.740994,-12.7697
0.948944,18.3242,-4.78184,-2.56117,-0.193957,-3.5775,4.88666,-0.986096,-0.783299,-2.62706,-1.26874,2.10278,-5.40378,-0.558693,2.7454,2.56663,-17.9849,-19.5362,6.93758,-27.0662,23.1036,7.66613,-13.278,7.64151,6.70898e-15,1.02374e-14,45.5304,29.767,-45.2485,47.338,4.90608,-15.2884,11.9383,7.12502,10.8866,-17.7595,6.70898e-15,1.02374e-14,38.8471,-24.7453,56.0508,40.94,-7.8091,-13.8639,28.7394,7.12502,12.2603,58.36,-0.642691,1.79023,22.8745,17.9617,-10.637,-1.31975,-9.86664,-0.624794,1.92519,-15.8558,18.9026,-11.5882,0.722975,-12.9304
0.940769,18.3231,-4.77496,-2.54061,-0.0658606,-3.44118,4.65701,-1.04758,-0.925444,-2.61071,-1.36234,2.08941,-5.24779,-0.6024,2.81352,2.75967,-17.8393,-19.7921,6.65945,-26.8995,23.4758,7.60767,-13.2196,7.84927,-1.60705e-14,2.28602e-14,45.57,29.9524,-45.062,47.563,4.71671,-15.0821,11.6054,7.12502,11.0855,-18.0818,-1.60705e-14,2.28602e-14,38.8676,-24.5714,56.082,40.9573,-7.70845,-14.145,29.0095,7.12502,11.9893,58.6461,-0.625943,1.58212,22.7088,17.9677,-10.9803,-1.18406,-7.99012,-0.587451,1.89109,-15.9978,18.8527,-11.6096,0.700369,-12.8624
0.929759,18.3222,-4.77185,-2.56459,0.133017,-3.23097,4.56615,-1.09642,-1.16662,-2.54505,-1.44611,2.06365,-5.11768,-0.638309,2.92585,2.60286,-17.8249,-19.8806,6.59757,-26.8629,23.5965,7.63999,-13.1909,7.88998,-8.69683e-16,-7.45443e-15,45.5408,29.9055,-45.1876,47.6389,4.76164,-15.0582,11.5615,7.12502,11.1086,-18.1245,-8.69683e-16,-7.45443e-15,38.8199,-24.4304,56.0361,41.1253,-7.58928,-13.9597,28.9674,7.12502,12.168,58.5935,-0.563624,1.43722,22.4832,18.0172,-10.7472,-1.14515,-10.3764,-0.563273,1.81789,-16.2025,18.8512,-11.6224,0.601921,-12.5968
0.916909,18.3213,-4.77323,-2.54871,0.227185,-3.1434,4.66245,-1.06477,-1.26084,-2.6262,-1.4106,2.04679,-5.25801,-0.614935,2.96277,2.74553,-17.8543,-19.8773,6.34863,-26.8825,23.6427,7.54793,-13.2168,7.91555,-7.01958e-15,-3.67752e-15,45.2126,29.8324,-45.5243,47.6613,5.00092,-15.0765,11.7076,7.12502,11.0909,-17.9794,-7.01958e-15,-3.67752e-15,38.5796,-24.5455,55.9993,41.3006,-7.52477,-13.6408,28.6059,7.12502,12.4755,58.2136,-0.621548,1.42888,22.428,18.1152,-10.6994,-1.22933,-11.3171,-0.59992,1.65061,-16.2813,18.8442,-11.6361,0.681316,-12.0779
0.90387,18.3216,-4.77601,-2.49456,0.302084,-3.18727,4.86003,-1.02742,-1.25045,-2.91151,-1.35602,2.08656,-5.67324,-0.578718,3.00534,3.4527,-17.7457,-20.2194,5.93976,-26.8223,23.9808,7.39024,-13.2545,8.15416,5.03174e-15,-1.27222e-14,44.5824,30.0043,-45.8657,47.733,5.29255,-14.9294,11.8875,7.12502,11.2328,-17.7917,5.03174e-15,-1.27222e-14,38.1033,-24.8247,56.22,41.4059,-7.41755,-13.5373,28.4347,7.12502,12.5752,58.0362,-0.744771,1.47058,22.534,18.2233,-10.7458,-1.37921,-11.5528,-0.682826,1.47794,-16.216,18.8451,-11.6237,0.820419,-11.7019
0.892902,18.3234,-4.78038,-2.43297,0.510189,-3.21743,5.02174,-1.00762,-1.18623,-2.97398,-1.3246,2.08487,-5.83491,-0.562699,2.97026,3.13238,-17.892,-20.2286,5.96099,-26.9843,23.9694,7.48792,-13.3046,8.07944,2.41523e-14,-1.66979e-14,44.3332,29.8812,-45.8276,47.8231,5.17348,-14.9291,11.9146,7.12502,11.2332,-17.7647,2.41523e-14,-1.66979e-14,38.2308,-24.8558,56.3351,41.3917,-7.51571,-13.3111,28.3996,7.12502,12.7933,57.9876,-0.843388,1.45287,22.6195,18.2904,-10.817,-1.54806,-11.6643,-0.842803,1.35871,-16.152,18.8953,-11.5826,0.80753,-11.4639
0.884267,18.3247,-4.78363,-2.448,0.723528,-3.21997,4.93186,-1.01878,-1.19525,-3.08002,-1.34076,2.0523,-5.89463,-0.569235,2.94275,3.91772,-17.7694,-20.0883,5.59175,-26.8352,23.8843,7.16877,-13.3049,8.15639,2.06363e-14,-2.00773e-14,43.9566,30.0238,-45.8702,48.0076,4.92952,-15.1325,11.6315,7.12502,11.037,-18.0583,2.06363e-14,-2.00773e-14,38.0711,-25.0136,56.4617,41.4174,-7.65497,-13.1168,28.4455,7.12502,12.9806,58.0217,-0.854331,1.34768,22.6578,18.3169,-10.997,-1.66909,-11.0641,-0.935301,1.21898,-16.1293,18.9961,-11.6001,0.793815,-11.0771
0.872786,18.3234,-4.78473,-2.54887,0.877649,-3.25773,4.84851,-1.0516,-1.16592,-2.8234,-1.38478,2.04808,-5.57488,-0.599149,2.91788,3.43696,-17.8407,-19.6912,5.46467,-26.7999,23.7763,7.128,-13.2496,8.0331,2.41026e-15,7.05686e-15,44.1661,29.7236,-45.8612,48.2167,4.9569,-15.3654,11.5672,7.12502,10.8123,-18.1345,2.41026e-15,7.05686e-15,38.4637,-24.7182,56.3133,41.4441,-7.59827,-13.3607,28.556,7.12502,12.7455,58.147,-0.769525,1.34661,22.7609,18.3512,-11.3304,-1.84338,-9.19105,-0.939751,1.15127,-16.058,19.1117,-11.5788,0.808296,-11.263
0.862398,18.321,-4.78771,-2.60642,0.976229,-3.22768,4.96337,-1.04228,-1.12298,-2.56081,-1.37337,2.01615,-5.36709,-0.600845,2.85667,2.21788,-18.0799,-19.3695,5.67842,-26.9757,23.6831,7.38047,-13.2276,7.79498,-7.33018e-15,-7.55382e-15,44.3573,29.2649,-45.8492,48.4529,4.96554,-15.3505,11.5756,7.12502,10.8267,-18.1253,-7.33018e-15,-7.55382e-15,39.0255,-24.3693,56.1885,41.4232,-7.50074,-13.5612,28.5713,7.12502,12.5522,58.1742,-0.718918,1.37299,22.776,18.3605,-11.0461,-1.96012,-10.911,-1.03494,1.15221,-16.0677,19.2957,-11.5289,0.818146,-11.7558
0.857566,18.319,-4.7911,-2.60426,1.08972,-3.18129,5.06513,-1.01824,-1.00888,-2.43877,-1.33584,1.9804,-5.3025,-0.5888,2.75176,1.48244,-18.2894,-19.2609,5.72888,-27.1657,23.6445,7.54143,-13.2563,7.64781,2.05183e-14,-7.45443e-15,44.5114,28.9908,-45.664,48.6903,4.76316,-15.2094,11.2961,7.12502,10.9628,-18.3977,2.05183e-14,-7.45443e-15,39.4049,-24.2091,56.1896,41.4006,-7.40459,-13.5077,28.5628,7.12502,12.6038,58.1626,-0.762737,1.22003,22.7178,18.4118,-10.9572,-1.92445,-11.9695,-1.1563,1.04061,-16.1296,19.4971,-11.5404,0.845183,-11.6924
0.843705,18.3148,-4.78877,-2.67952,1.06882,-3.5299,5.1162,-0.998107,-0.668335,-2.41862,-1.27684,2.12373,-5.31777,-0.568767,2.70482,1.55793,-18.2902,-19.4561,5.57401,-27.1568,23.7155,7.51756,-13.2643,7.70284,-1.80521e-14,-3.47873e-15,44.6108,29.0236,-45.5116,48.834,4.54184,-15.2302,11.1085,7.12502,10.9428,-18.5863,-1.80521e-14,-3.47873e-15,39.3823,-24.1952,56.2872,41.3717,-7.19744,-14.0279,28.4918,7.12502,12.1022,58.1218,-0.729397,1.48944,23.2119,18.503,-10.9885,-2.1844,-11.6913,-1.18934,1.02993,-15.6739,19.7204,-11.6283,0.851415,-11.5179
0.83589,18.3088,-4.7892,-2.70987,1.16039,-3.47614,5.33009,-1.03036,-0.730928,-2.67922,-1.31916,2.15177,-5.70958,-0.580195,2.78495,2.26317,-18.0502,-19.8601,5.49163,-26.9434,23.9009,7.41368,-13.2244,7.93272,-8.43592e-15,-2.0773e-14,44.2211,29.3989,-45.6955,48.9119,4.54396,-15.2309,11.1203,7.12502,10.9421,-18.5746,-8.43592e-15,-2.0773e-14,38.8529,-24.3784,56.5074,41.3848,-7.04835,-14.562,28.4489,7.12502,11.5872,58.1086,-0.752154,1.49904,23.1791,18.6358,-11.0477,-2.2363,-11.3482,-1.29946,1.01515,-15.711,19.9392,-11.7155,0.822134,-11.6605
0.831935,18.3043,-4.79154,-2.71354,1.22261,-3.43257,5.6002,-1.05968,-0.747649,-2.99891,-1.3549,2.15142,-6.19929,-0.588502,2.81272,2.96514,-17.8224,-20.0589,5.43952,-26.7305,23.9395,7.26444,-13.1831,8.09243,-1.35422e-15,-2.19657e-14,43.5451,29.7594,-46.1554,49.0228,4.76195,-15.2086,11.2765,7.12502,10.9635,-18.4172,-1.35422e-15,-2.19657e-14,38.2863,-24.5518,56.7353,41.4746,-7.30084,-14.0011,28.5979,7.12502,12.128,58.2264,-0.858092,1.37946,23.1285,18.7988,-11.0972,-2.22225,-11.8981,-1.42164,1.03145,-15.7534,20.171,-11.826,0.755346,-11.5494
0.82988,18.3009,-4.79241,-2.72222,1.15493,-3.47791,5.62668,-1.05253,-0.657993,-3.07583,-1.3352,2.17866,-6.29825,-0.580073,2.79126,3.22599,-17.7746,-19.9676,5.29468,-26.6349,23.7325,7.10475,-13.1643,8.06622,1.59897e-14,6.06293e-15,43.1604,29.8199,-46.4885,49.2162,4.9873,-15.1624,11.3957,7.12502,11.0081,-18.2956,1.59897e-14,6.06293e-15,38.1085,-24.5005,56.8466,41.5228,-7.52888,-13.4034,28.7935,7.12502,12.7043,58.3871,-0.996272,1.29316,23.174,19.0232,-11.2527,-2.13321,-11.7483,-1.50432,1.10316,-15.6976,20.3866,-11.9757,0.735896,-11.2427
0.825858,18.2965,-4.79555,-2.75215,1.16088,-3.45382,5.52223,-1.04485,-0.688481,-3.02385,-1.32683,2.20886,-6.18243,-0.57586,2.83496,3.4116,-17.7364,-19.9039,5.03207,-26.5429,23.6878,6.95393,-13.1418,8.08664,-3.08986e-14,2.08724e-14,43.0931,29.7969,-46.4138,49.4691,4.95392,-15.0073,11.118,7.12502,11.1577,-18.5653,-3.08986e-14,2.08724e-14,38.0915,-24.3759,56.9565,41.5241,-7.62092,-13.51,28.8323,7.12502,12.6016,58.4322,-1.07346,1.29301,23.167,19.2204,-11.6806,-2.13486,-9.51597,-1.63164,1.0986,-15.7148,20.633,-12.0702,0.774941,-11.3736
0.817892,18.2898,-4.80051,-2.81059,1.30423,-3.40444,5.50382,-1.05995,-0.778671,-2.9236,-1.35384,2.24288,-6.0619,-0.587063,2.92132,3.39198,-17.6839,-19.9988,4.821,-26.4626,23.9434,6.9297,-13.1052,8.19578,1.11444e-14,1.61016e-14,43.2482,29.8,-46.0528,49.6036,4.95256,-15.1487,10.6539,7.12502,11.0214,-19.0367,1.11444e-14,1.61016e-14,38.162,-24.2608,56.9974,41.5362,-7.70831,-13.6381,28.6842,7.12502,12.478,58.2916,-1.08619,1.27673,23.1505,19.3846,-11.4908,-2.25524,-11.9303,-1.77012,1.02809,-15.7459,20.9032,-12.1341,0.772941,-11.6224
0.811927,18.2819,-4.79943,-2.86206,1.37559,-3.41719,5.52831,-1.07072,-0.706758,-2.7659,-1.362,2.28569,-5.90982,-0.59624,2.92338,2.94987,-17.7199,-20.1479,4.80554,-26.4773,24.1627,7.06134,-13.0771,8.23247,7.97623e-15,-3.24019e-14,43.5275,29.7287,-45.7433,49.5383,5.45701,-15.6958,10.7471,7.12502,10.4936,-18.971,7.97623e-15,-3.24019e-14,38.3821,-24.1018,56.9044,41.5111,-7.71485,-13.3544,28.446,7.12502,12.7516,58.0366,-1.08413,1.17747,23.1759,19.5476,-11.5141,-2.24506,-12.8147,-1.85276,1.02241,-15.708,21.1488,-12.2386,0.739198,-11.5924
0.810553,18.2779,-4.79658,-2.8743,1.39227,-3.48029,5.41228,-1.0042,-0.564222,-2.81571,-1.26156,2.28264,-5.90424,-0.551967,2.82746,3.71052,-17.6258,-20.2464,4.4214,-26.4103,24.3133,6.83632,-13.1137,8.39017,-9.41742e-15,1.27222e-14,43.1255,29.6464,-45.9766,49.4989,6.07173,-16.0432,11.1811,7.12502,10.1585,-18.5536,-9.41742e-15,1.27222e-14,38.3827,-24.4387,56.8929,41.4659,-7.48624,-13.4018,28.2495,7.12502,12.7059,57.843,-1.15002,1.05159,23.2326,19.7217,-11.6358,-2.16271,-12.7869,-1.90911,1.00813,-15.6359,21.3107,-12.2993,0.734049,-11.6182
0.811004,18.2763,-4.79385,-2.90179,1.3894,-3.42226,5.32671,-0.960362,-0.496276,-2.53318,-1.20247,2.28011,-5.56243,-0.531362,2.77195,2.89756,-17.8612,-19.9539,4.53221,-26.5709,23.9736,6.94658,-13.1247,8.12409,-5.98839e-15,-1.98785e-14,43.5463,29.1764,-45.8103,49.5494,6.27376,-15.991,11.091,7.12502,10.2089,-18.6412,-5.98839e-15,-1.98785e-14,38.9416,-24.2787,56.6767,41.374,-7.15208,-13.8885,28.0528,7.12502,12.2366,57.6749,-1.21611,0.882205,23.1342,19.9019,-11.7216,-2.0046,-12.8044,-1.88744,0.977483,-15.72,21.3716,-12.3639,0.761408,-11.8184
0.810655,18.2729,-4.78813,-2.99297,1.31885,-3.22532,5.31087,-0.864008,-0.705512,-2.55142,-1.09246,2.2232,-5.57545,-0.470047,2.81954,3.21475,-17.8659,-19.6411,4.47133,-26.5418,23.5777,6.7572,-13.1384,8.00478,-4.22417e-15,-1.39149e-15,43.2592,29.1015,-45.9631,49.6336,6.3517,-15.8029,10.9038,7.12502,10.3903,-18.8195,-4.22417e-15,-1.39149e-15,38.8448,-24.5047,56.7555,41.3794,-7.13626,-14.4051,27.9442,7.12502,11.7385,57.5953,-1.18182,0.757795,22.8865,20.0667,-11.7885,-1.81127,-12.8942,-1.77216,1.0289,-15.9518,21.3966,-12.4586,0.795279,-11.9501
0.807903,18.2693,-4.7841,-3.08431,1.24929,-3.10116,5.39965,-0.904893,-0.795117,-2.39221,-1.15467,2.24681,-5.45363,-0.499865,2.89972,2.46552,-17.9868,-19.4237,4.74536,-26.5819,23.1758,6.88018,-13.0972,7.76338,-5.61567e-15,-4.77083e-15,43.5373,29.0088,-46.0063,49.6046,6.36822,-15.6212,11.0996,7.12502,10.5656,-18.6148,-5.61567e-15,-4.77083e-15,38.8008,-24.1267,56.7444,41.4245,-7.28049,-14.6565,27.9964,7.12502,11.4961,57.6612,-1.15319,0.755329,22.753,20.2405,-11.9703,-1.71709,-12.0973,-1.64772,1.09156,-16.0864,21.3708,-12.474,0.858186,-12.2226
0.802924,18.2651,-4.78301,-3.12967,1.17488,-3.12442,5.50597,-0.905647,-0.765626,-2.40183,-1.15098,2.28345,-5.52456,-0.4974,2.92391,2.39492,-17.9594,-19.5087,4.76038,-26.5496,23.2553,6.91493,-13.0758,7.79732,1.9133e-14,-1.03368e-14,43.4488,29.0093,-46.2269,49.5832,6.43592,-15.6207,11.393,7.12502,10.566,-18.3214,1.9133e-14,-1.03368e-14,38.5948,-24.1059,56.7146,41.5473,-7.27988,-13.9998,27.9426,7.12502,12.1293,57.571,-1.1856,0.824016,22.8065,20.4029,-12.2962,-1.71304,-10.0584,-1.53729,1.15295,-16.0414,21.2934,-12.4616,0.900575,-12.5843
0.799618,18.261,-4.77779,-3.17129,1.12049,-3.07632,5.66307,-0.848953,-0.771676,-2.43575,-1.07505,2.27326,-5.65428,-0.457852,2.91361,2.15008,-17.9572,-19.5914,4.97263,-26.5683,23.3423,7.05303,-13.0593,7.80216,1.63997e-14,-6.95746e-15,43.2749,28.9415,-46.3374,49.6361,6.50663,-15.7703,11.5648,7.12502,10.4217,-18.1569,1.63997e-14,-6.95746e-15,38.5717,-24.2925,56.6262,41.6269,-7.1194,-13.3801,27.8978,7.12502,12.7267,57.49,-1.14771,0.880698,22.7658,20.509,-12.0405,-1.73121,-11.6361,-1.44395,1.19592,-16.0866,21.2532,-12.4441,0.895855,-12.6959
0.798253,18.2602,-4.76928,-3.21449,1.10053,-2.93959,5.62358,-0.827171,-0.966439,-2.77593,-1.0571,2.27801,-5.98767,-0.434219,3.03283,3.62217,-17.5755,-20.0155,4.76223,-26.2545,23.5202,6.75766,-13.0309,8.1344,-5.04416e-15,-8.15017e-15,42.4642,29.4463,-46.6672,49.7005,6.47043,-16.1546,11.8396,7.12502,10.051,-17.9003,-5.04416e-15,-8.15017e-15,37.859,-24.8139,56.8775,41.5588,-6.83637,-13.5831,27.9814,7.12502,12.531,57.5856,-1.06565,0.880908,22.6075,20.5685,-12.0136,-1.69957,-12.0227,-1.36009,1.1891,-16.2465,21.2527,-12.3914,0.924118,-12.4834
0.793466,18.2612,-4.76816,-3.21395,1.05076,-2.95929,5.46458,-0.822217,-1.01513,-2.84033,-1.04974,2.35201,-5.96296,-0.426857,3.13459,4.28498,-17.4261,-20.2255,4.60808,-26.1286,23.5543,6.60437,-13.0272,8.26885,-1.20762e-14,-8.74653e-15,42.1979,29.6115,-46.7479,49.7065,6.46614,-16.8358,12.2395,7.12502,9.39376,-17.5312,-1.20762e-14,-8.74653e-15,37.6032,-24.9318,56.9839,41.3289,-6.50365,-14.6348,27.6791,7.12502,11.517,57.3427,-1.11004,0.981615,22.6667,20.5984,-12.1142,-1.7775,-10.8199,-1.35855,1.19511,-16.2044,21.269,-12.3805,0.967383,-12.2596
0.787908,18.2616,-4.76972,-3.20247,1.05375,-3.01117,5.36601,-0.835993,-1.02947,-2.83444,-1.06502,2.4346,-5.89782,-0.433069,3.22826,4.40179,-17.4304,-20.2051,4.66887,-26.1293,23.3352,6.56506,-13.037,8.20888,-7.10655e-15,-2.38542e-15,42.1311,29.641,-46.8031,49.6781,6.66284,-17.6845,12.5001,7.12502,8.57481,-17.3058,-7.10655e-15,-2.38542e-15,37.453,-24.8744,57.1171,41.0415,-6.17519,-16.0449,26.8626,7.12502,10.1569,56.5975,-1.16077,1.09194,22.7748,20.5837,-12.3539,-1.86049,-8.05715,-1.41789,1.14665,-16.1263,21.332,-12.452,1.00584,-12.279
0.782734,18.2603,-4.76621,-3.20736,1.07252,-3.12644,5.34057,-0.836029,-0.93536,-2.86284,-1.05432,2.4881,-5.91455,-0.429856,3.23013,4.18848,-17.5285,-19.9522,5.05925,-26.2224,22.8227,6.62454,-13.0591,7.97214,2.1419e-14,-3.00165e-14,41.9498,29.5423,-47.0859,49.8323,5.896,-16.2068,11.6902,7.12502,10.0006,-18.0522,2.1419e-14,-3.00165e-14,37.2894,-24.8824,57.3039,41.3439,-7.15838,-13.8832,27.1738,7.12502,12.2418,56.7956,-1.13463,1.20124,22.9605,20.5327,-12.124,-2.03435,-9.68879,-1.44438,1.1106,-15.9737,21.43,-12.5245,1.01224,-12.337
0.776655,18.2593,-4.76282,-3.22315,1.00172,-3.39584,5.34776,-0.836132,-0.688331,-2.86575,-1.02931,2.58799,-5.92573,-0.424964,3.19312,3.87615,-17.577,-19.8048,5.50174,-26.2721,22.4944,6.75219,-13.052,7.80433,-6.53505e-15,-1.41137e-14,41.9203,29.6072,-47.1211,49.6888,6.18275,-16.0297,11.5105,7.12502,10.1715,-18.2236,-6.53505e-15,-1.41137e-14,37.1525,-24.8385,57.463,41.3847,-7.47082,-13.5646,27.2291,7.12502,12.5489,56.8322,-1.07022,1.43235,23.3451,20.4568,-12.3229,-2.26722,-7.65174,-1.45269,1.16324,-15.6272,21.5249,-12.5398,1.01408,-12.328
0.774934,18.2603,-4.75814,-3.27829,0.985964,-3.46649,5.35787,-0.860603,-0.620071,-2.87738,-1.05356,2.63941,-5.94269,-0.438238,3.21152,3.91054,-17.4718,-19.9283,5.71209,-26.1779,22.5234,6.81338,-13.0066,7.84948,-6.65929e-15,1.51076e-14,41.8987,29.7391,-47.1216,49.6429,6.49681,-15.9082,11.3539,7.12502,10.2887,-18.3744,-6.65929e-15,1.51076e-14,36.9629,-24.8418,57.5733,41.3072,-7.36541,-13.8937,27.3356,7.12502,12.2316,56.9579,-0.915054,1.48246,23.4518,20.3419,-11.9822,-2.40407,-9.71593,-1.41361,1.11971,-15.5414,21.615,-12.6087,1.07934,-12.3291
0.774379,18.2611,-4.75253,-3.31775,1.02618,-3.5436,5.35293,-0.889211,-0.532871,-2.93784,-1.08163,2.67932,-6.00283,-0.453478,3.20834,4.14051,-17.3043,-20.1067,5.82616,-26.0253,22.6469,6.8213,-12.9496,7.9653,-2.73329e-15,-7.95139e-16,41.7575,29.85,-47.2156,49.7485,6.43287,-15.6369,11.1473,7.12502,10.5504,-18.5679,-2.73329e-15,-7.95139e-16,36.745,-24.9153,57.7197,41.18,-7.26054,-13.8754,27.5082,7.12502,12.2492,57.1295,-0.801824,1.45008,23.5476,20.2226,-12.0055,-2.47342,-8.37559,-1.38573,1.0667,-15.4579,21.6497,-12.6445,1.10871,-12.5682
0.772372,18.2606,-4.74786,-3.33516,1.0069,-3.75212,5.34258,-0.89226,-0.30978,-2.97366,-1.06393,2.73955,-6.03859,-0.451718,3.1444,4.24018,-17.2089,-20.221,5.86853,-25.9441,22.8041,6.84072,-12.917,8.05637,2.98177e-16,-3.22031e-14,41.6287,29.8673,-47.3543,49.8587,6.07905,-15.404,11.0837,7.12502,10.7751,-18.6199,2.98177e-16,-3.22031e-14,36.6734,-25.0064,57.7703,41.004,-6.92356,-14.1824,27.5295,7.12502,11.9532,57.1682,-0.739202,1.54691,23.816,20.1239,-11.8302,-2.6246,-9.84802,-1.37865,1.12587,-15.1977,21.6311,-12.5695,1.07119,-12.6025
0.77407,18.2601,-4.74123,-3.35209,1.02174,-3.70899,5.34563,-0.897483,-0.313119,-3.01805,-1.07099,2.7262,-6.08695,-0.454467,3.13415,4.26212,-17.1887,-20.1362,5.94602,-25.9034,22.6291,6.81255,-12.8988,8.00124,-1.19271e-15,-1.35174e-14,41.4901,29.8852,-47.4974,49.9567,5.46009,-15.1917,11.0448,7.12502,10.9799,-18.6481,-1.19271e-15,-1.35174e-14,36.5997,-25.1196,57.7633,40.7748,-6.36411,-15.0687,27.1661,7.12502,11.0985,56.8527,-0.655209,1.53492,23.7627,20.0304,-11.9819,-2.65056,-8.35344,-1.35061,1.14314,-15.2385,21.6494,-12.6112,1.00791,-12.4442
0.778852,18.2591,-4.73201,-3.38096,1.07795,-3.58434,5.30874,-0.914029,-0.378769,-3.03004,-1.1006,2.69001,-6.07617,-0.467266,3.13558,4.28591,-17.1502,-19.9312,5.98598,-25.8149,22.3964,6.73673,-12.8575,7.92439,-1.25234e-14,-1.39149e-14,41.4297,29.9672,-47.4848,49.9317,5.38193,-15.1949,11.0614,7.12502,10.9768,-18.6316,-1.25234e-14,-1.39149e-14,36.5,-25.127,57.8623,40.581,-6.23469,-15.8362,26.6563,7.12502,10.3581,56.3812,-0.533416,1.43842,23.5895,19.9665,-11.7258,-2.59956,-10.7301,-1.29261,1.13881,-15.3881,21.7081,-12.7638,0.886778,-12.4387
0.782482,18.2568,-4.72654,-3.43134,1.09967,-3.65037,5.24045,-0.922634,-0.248214,-2.93011,-1.10406,2.69868,-5.93348,-0.476497,3.06715,4.20127,-17.1295,-19.8081,5.87115,-25.7611,22.5047,6.70404,-12.8241,7.94778,4.91992e-15,1.90833e-14,41.569,29.9478,-47.3705,49.8136,5.93788,-15.4077,11.2452,7.12502,10.7715,-18.4586,4.91992e-15,1.90833e-14,36.5542,-25.0021,57.9474,40.4808,-6.3983,-15.8947,26.4276,7.12502,10.3018,56.1553,-0.440748,1.41852,23.6518,19.9525,-11.6297,-2.63368,-11.4561,-1.24451,1.1612,-15.31,21.7657,-12.815,0.771296,-12.2388
0.786874,18.2552,-4.72584,-3.43297,1.13345,-3.6883,5.19516,-0.944618,-0.150827,-2.88559,-1.12663,2.71239,-5.8609,-0.49236,3.0266,3.87309,-17.1471,-19.6605,6.11222,-25.7455,22.3153,6.78145,-12.7877,7.83764,-1.05853e-14,4.25399e-14,41.7113,29.9451,-47.2827,49.7417,6.30571,-15.6976,11.49,7.12502,10.4919,-18.2282,-1.05853e-14,4.25399e-14,36.5385,-24.8993,58.0186,40.4462,-6.40741,-15.5052,26.5066,7.12502,10.6775,56.2152,-0.465763,1.35359,23.6772,19.9495,-11.5776,-2.69547,-11.7002,-1.27539,1.1736,-15.2639,21.8325,-12.8173,0.687709,-11.8201
0.790541,18.2544,-4.7218,-3.40691,1.17011,-3.63713,5.11532,-0.973518,-0.156347,-2.90416,-1.16677,2.70616,-5.83258,-0.512347,3.02548,3.52589,-17.1263,-19.5197,6.57994,-25.678,21.8859,6.88545,-12.7256,7.65966,4.37326e-15,5.1684e-15,41.7513,30.0344,-47.18,49.6977,6.37385,-15.8888,11.7069,7.12502,10.3074,-18.0205,4.37326e-15,5.1684e-15,36.4205,-24.8541,58.1195,40.393,-6.40025,-15.7797,26.6512,7.12502,10.4126,56.3733,-0.48536,1.26342,23.5999,19.9612,-11.596,-2.66762,-11.9159,-1.31201,1.22602,-15.3191,21.8964,-12.8523,0.614441,-11.7441
0.790489,18.2549,-4.71724,-3.40705,1.1837,-3.59123,5.05412,-0.995176,-0.193036,-2.88046,-1.19993,2.70531,-5.77008,-0.528211,3.04628,3.36877,-17.0933,-19.4381,6.73228,-25.602,21.6975,6.90322,-12.6772,7.58894,7.65321e-15,-5.56597e-15,41.8178,30.0822,-47.0743,49.6605,6.4405,-15.9472,11.8876,7.12502,10.2511,-17.8426,7.65321e-15,-5.56597e-15,36.4135,-24.7777,58.18,40.2686,-6.43903,-16.4266,26.7228,7.12502,9.78857,56.4753,-0.490338,1.29939,23.5581,20.0292,-11.7632,-2.6736,-10.7842,-1.29946,1.29606,-15.3549,21.9019,-12.8948,0.555858,-11.9766
0.792131,18.2532,-4.71512,-3.43422,1.22217,-3.50597,5.0855,-1.02958,-0.283536,-2.9034,-1.25154,2.71463,-5.80745,-0.549421,3.11357,3.35566,-17.002,-19.4639,6.84097,-25.4832,21.6493,6.91031,-12.6191,7.59912,4.42296e-15,-9.14409e-15,41.7653,30.1566,-47.1053,49.7505,6.50568,-15.7722,11.8811,7.12502,10.4199,-17.8407,4.42296e-15,-9.14409e-15,36.3164,-24.6687,58.3681,40.175,-6.46496,-16.6825,26.7968,7.12502,9.54173,56.5608,-0.509033,1.30165,23.4616,20.1499,-12.1468,-2.6973,-8.27294,-1.25161,1.32687,-15.4418,21.8598,-12.9213,0.488553,-12.0948
0.797548,18.25,-4.71119,-3.4558,1.29793,-3.38012,5.08341,-1.0809,-0.38617,-2.96644,-1.32661,2.72006,-5.86621,-0.58122,3.18606,3.30007,-16.8344,-19.5934,7.17311,-25.2865,21.5535,6.98469,-12.5197,7.61653,5.1684e-15,5.56597e-15,41.6316,30.296,-47.1492,49.9261,6.5418,-15.8631,11.786,7.12502,10.3322,-17.9402,5.1684e-15,5.56597e-15,36.0814,-24.5337,58.6948,40.1573,-6.53079,-16.8935,26.8118,7.12502,9.3381,56.585,-0.547531,1.13044,23.284,20.3197,-11.9368,-2.74117,-10.8617,-1.22711,1.33451,-15.6012,21.8436,-12.8842,0.413261,-11.9385
0.80418,18.248,-4.70625,-3.47525,1.35959,-3.35609,5.06035,-1.10727,-0.334189,-2.98485,-1.35721,2.7307,-5.87157,-0.597992,3.1707,2.9853,-16.7311,-19.6524,7.54204,-25.1362,21.4111,7.10844,-12.423,7.57513,2.00276e-14,-7.95139e-16,41.594,30.3568,-47.0747,50.0291,6.56514,-16.2048,11.7108,7.12502,10.0026,-18.0315,2.00276e-14,-7.95139e-16,35.9763,-24.4136,58.9671,40.145,-6.66629,-16.9689,26.7383,7.12502,9.26538,56.5147,-0.613548,0.910653,23.2082,20.5641,-12.0768,-2.70035,-12.5418,-1.18879,1.33785,-15.652,21.8477,-12.8789,0.324118,-11.5305
0.807327,18.243,-4.7073,-3.49609,1.42784,-3.40871,5.15715,-1.13246,-0.240719,-3.03308,-1.37961,2.76578,-5.97809,-0.610361,3.16123,2.55498,-16.547,-19.7444,7.92846,-24.8658,21.3358,7.24702,-12.2609,7.57342,1.18774e-14,8.74653e-15,41.5351,30.389,-47.0064,50.1556,6.62502,-16.2655,11.7702,7.12502,9.94405,-17.9749,1.18774e-14,8.74653e-15,35.8514,-24.3414,59.1984,40.1352,-6.76576,-16.8403,26.765,7.12502,9.38943,56.5359,-0.717014,0.812736,23.2572,20.8491,-12.2805,-2.69864,-13.0624,-1.16469,1.31713,-15.5956,21.8534,-12.9172,0.257965,-11.3671
0.80983,18.2369,-4.70988,-3.54964,1.51303,-3.25238,5.26116,-1.156,-0.389236,-3.03532,-1.42248,2.74912,-6.0347,-0.625114,3.23512,2.0727,-16.2969,-19.7477,8.39117,-24.4814,21.1372,7.36483,-12.0416,7.54034,-1.75924e-14,1.31198e-14,41.4783,30.341,-46.9698,50.3502,6.73821,-16.5232,12.0685,7.12502,9.69538,-17.6883,-1.75924e-14,1.31198e-14,35.7418,-24.2575,59.3653,40.2198,-7.00732,-16.7524,26.896,7.12502,9.47429,56.663,-0.816487,0.774949,23.0798,21.1463,-12.3766,-2.75492,-13.5089,-1.13794,1.28702,-15.7806,21.9123,-12.9335,0.247079,-11.2298
0.814999,18.2315,-4.70826,-3.62091,1.56985,-3.03109,5.3101,-1.12875,-0.563765,-2.98309,-1.4035,2.69223,-6.00601,-0.61065,3.27206,1.65544,-16.1874,-19.5833,8.7038,-24.2622,20.8467,7.42502,-11.9066,7.42957,1.13307e-14,-2.90226e-14,41.3976,30.1818,-46.8858,50.5299,6.74843,-16.7961,12.2504,7.12502,9.43208,-17.5186,1.13307e-14,-2.90226e-14,35.7967,-24.2573,59.4781,40.3425,-7.23798,-16.7977,26.9945,7.12502,9.43054,56.7635,-0.889576,0.667134,22.8015,21.4593,-12.639,-2.74522,-13.3032,-1.09485,1.30492,-16.0486,22.0055,-12.9705,0.17805,-10.9534
0.817155,18.2247,-4.70787,-3.62738,1.64076,-2.94727,5.37677,-1.12702,-0.62648,-3.03887,-1.40548,2.67774,-6.10197,-0.607569,3.29602,1.41219,-16.0652,-19.5476,8.94373,-24.0692,20.7133,7.47838,-11.7969,7.39754,-2.5345e-15,-1.59028e-15,41.2678,30.1663,-46.824,50.6872,6.73932,-16.9295,12.3218,7.12502,9.30333,-17.4529,-2.5345e-15,-1.59028e-15,35.7776,-24.5396,59.2481,40.3882,-6.74576,-16.7998,26.9988,7.12502,9.42853,56.7679,-1.00756,0.605701,22.7045,21.7502,-13.1816,-2.77873,-10.9332,-1.14066,1.34603,-16.1383,22.066,-13.0134,0.0445061,-11.0221
0.81944,18.2188,-4.70466,-3.63243,1.68146,-2.8682,5.45972,-1.16847,-0.683044,-3.13954,-1.46322,2.67861,-6.25123,-0.630716,3.34024,1.0565,-15.8693,-19.5497,9.34707,-23.7611,20.4617,7.56732,-11.6278,7.34419,1.49089e-15,-7.55382e-15,41.1883,30.2554,-46.8888,50.8905,6.88187,-16.9713,12.3982,7.12502,9.26306,-17.3783,1.49089e-15,-7.55382e-15,35.4133,-24.5652,59.285,40.068,-6.55889,-16.5686,26.5109,7.12502,9.65154,56.2698,-1.1098,0.620949,22.6142,22.0126,-12.9982,-2.87935,-13.5083,-1.15755,1.37362,-16.2238,22.1262,-13.0993,-0.0369772,-11.1113
0.825573,18.2143,-4.6966,-3.70844,1.67592,-2.81714,5.54459,-1.17749,-0.650292,-3.18476,-1.47179,2.66818,-6.34839,-0.634755,3.31572,0.551125,-15.6561,-19.3572,9.81767,-23.3806,20.011,7.6374,-11.415,7.20131,-2.55935e-14,3.45885e-14,41.044,30.2125,-47.048,51.1682,7.08291,-16.521,12.2018,7.12502,9.69752,-17.555,-2.55935e-14,3.45885e-14,34.8703,-24.8444,58.9428,40.4223,-6.16117,-16.4553,26.3508,7.12502,9.76092,56.1046,-1.13741,0.62212,22.5334,22.267,-13.0518,-2.87953,-14.2934,-1.07747,1.40159,-16.2913,22.2342,-13.2246,-0.0968877,-10.9234
0.832456,18.2096,-4.69353,-3.75887,1.65377,-2.73201,5.56625,-1.14418,-0.639213,-3.18784,-1.42789,2.63609,-6.36774,-0.613987,3.27183,0.11334,-15.4074,-19.1364,10.1971,-22.9722,19.7159,7.68232,-11.19,7.11733,7.25564e-15,-2.26615e-14,40.8638,30.0746,-47.1246,51.4228,7.12522,-16.2251,12.0057,7.12502,9.98298,-17.7375,7.25564e-15,-2.26615e-14,34.5476,-26.7339,55.9441,43.1144,-3.11971,-17.2179,27.7945,7.12502,9.02506,57.5814,-1.19029,0.642772,22.4207,22.4757,-13.1386,-2.88406,-14.4629,-1.07136,1.44935,-16.4043,22.3857,-13.3087,-0.103966,-10.9393
0.839393,18.2045,-4.6957,-3.72585,1.57167,-2.63391,5.53769,-1.0879,-0.651051,-3.16151,-1.35564,2.61036,-6.32804,-0.579199,3.24215,-0.39308,-15.2144,-18.9654,10.4542,-22.6251,19.5091,7.73309,-10.9904,7.05059,3.47873e-16,1.51076e-14,40.7897,29.9333,-47.0176,51.5998,7.0388,-16.6688,12.2301,7.12502,9.55488,-17.5332,3.47873e-16,1.51076e-14,35.5317,-24.8045,59.1901,40.704,-6.27901,-17.2499,27.0428,7.12502,8.99423,56.831,-1.30279,0.665339,22.2831,22.6441,-13.1759,-2.83617,-14.5844,-1.21655,1.58812,-16.5328,22.6035,-13.3937,-0.109153,-11.1457
0.841694,18.199,-4.69641,-3.77311,1.45626,-2.87736,5.65161,-1.04218,-0.388297,-3.12376,-1.26656,2.70295,-6.36257,-0.54407,3.18406,-1.04039,-15.0258,-18.8036,10.753,-22.2637,19.2702,7.81765,-10.7764,6.96548,-2.25124e-14,-1.47101e-14,40.8029,29.8339,-46.8186,51.8071,6.95996,-17.201,12.589,7.12502,9.04139,-17.1972,-2.25124e-14,-1.47101e-14,35.278,-24.2756,60.0711,40.5745,-6.96169,-17.028,26.8206,7.12502,9.20834,56.5996,-1.34496,0.766162,22.5693,22.8605,-13.2801,-2.90038,-14.5528,-1.29957,1.82066,-16.2234,22.8612,-13.5052,-0.267579,-11.0732
0.839376,18.1915,-4.69618,-3.90354,1.34756,-3.192,5.77169,-1.0118,-0.124731,-3.03296,-1.19589,2.83782,-6.34235,-0.518103,3.17057,-1.62225,-14.8031,-18.6409,11.076,-21.8684,19.0306,7.89362,-10.5513,6.89263,1.90833e-14,-1.43125e-14,40.9136,29.6973,-46.6603,52.1275,6.84063,-16.9817,12.4916,7.12502,9.25302,-17.2854,1.90833e-14,-1.43125e-14,35.3567,-24.1998,60.1099,40.7019,-7.08747,-16.1407,26.987,7.12502,10.0644,56.7263,-1.33915,0.995569,22.9942,23.1075,-13.4911,-3.11896,-13.8083,-1.29566,2.01109,-15.8062,23.1102,-13.5841,-0.422312,-11.0039
0.840336,18.1834,-4.69524,-3.94785,1.31722,-3.04262,5.69067,-0.985755,-0.299598,-2.91264,-1.17937,2.84019,-6.16604,-0.505632,3.26447,-2.17933,-14.6286,-18.457,11.3468,-21.5228,18.7104,7.94738,-10.3559,6.78245,6.4605e-15,-8.74653e-15,41.0025,29.4535,-46.6411,52.5065,6.84207,-16.4748,12.1821,7.12502,9.74206,-17.5725,6.4605e-15,-8.74653e-15,35.658,-24.5141,59.4093,41.4423,-7.04396,-14.2087,27.6454,7.12502,11.9279,57.2856,-1.41435,1.15935,22.8679,23.3509,-13.946,-3.24666,-11.7437,-1.36182,2.05823,-15.9614,23.3225,-13.6289,-0.46356,-10.9574
0.843677,18.1772,-4.69316,-3.95814,1.38429,-2.77448,5.67667,-0.986516,-0.575939,-2.90416,-1.20589,2.80407,-6.14281,-0.508581,3.38476,-2.60033,-14.3319,-18.5751,11.6081,-21.0789,18.7734,8.04008,-10.1177,6.87259,-2.09718e-14,4.96962e-14,40.8726,29.3187,-46.6644,52.8615,7.03462,-16.7277,12.4662,7.12502,9.49806,-17.2997,-2.09718e-14,4.96962e-14,35.6268,-24.645,59.2565,41.5531,-6.48014,-15.2996,27.5682,7.12502,10.8758,57.2666,-1.54171,1.17952,22.5724,23.6426,-13.7372,-3.41674,-14.1993,-1.41345,2.0265,-16.2661,23.4667,-13.6736,-0.543569,-10.434
0.848785,18.1711,-4.6863,-4.0007,1.48317,-2.58512,5.70323,-0.993963,-0.749722,-2.93985,-1.23107,2.77713,-6.19137,-0.51345,3.45901,-2.95422,-13.9703,-18.8056,11.946,-20.5869,18.989,8.16709,-9.85741,7.04774,1.00386e-14,-1.43125e-14,40.6622,29.2884,-46.5626,53.1407,7.11856,-17.3917,13.0527,7.12502,8.85737,-16.7415,1.00386e-14,-1.43125e-14,35.2716,-24.2746,60.129,41.2295,-7.1638,-15.7861,27.1918,7.12502,10.4065,56.9143,-1.62786,1.08551,22.3385,23.9447,-13.8341,-3.49534,-15.0623,-1.4027,2.04916,-16.4827,23.5853,-13.7584,-0.663458,-10.1823
0.855478,18.1638,-4.67518,-4.04055,1.60712,-2.38744,5.67061,-0.987033,-0.904609,-2.95865,-1.23772,2.72298,-6.19007,-0.511392,3.48982,-3.51552,-13.7981,-18.6324,12.412,-20.2632,18.6007,8.28679,-9.67503,6.91365,2.13694e-15,4.77083e-15,40.4363,29.1934,-46.5064,53.3775,7.17957,-17.7069,13.2382,7.12502,8.55321,-16.5686,2.13694e-15,4.77083e-15,35.0552,-24.1304,60.7119,41.0983,-7.61306,-15.6156,26.9209,7.12502,10.571,56.635,-1.65902,0.952116,22.0789,24.1773,-14.0241,-3.54162,-15.445,-1.40967,2.12839,-16.7178,23.7349,-13.8819,-0.794866,-10.5595
0.859297,18.157,-4.66878,-4.09789,1.66955,-2.48578,5.71252,-0.976763,-0.783968,-2.97621,-1.21217,2.74159,-6.23636,-0.50247,3.44016,-4.04,-13.6471,-18.2709,12.8147,-19.9422,18.0214,8.3389,-9.50117,6.68858,1.05853e-14,-3.57812e-15,40.1823,28.9863,-46.7214,53.6775,7.59707,-17.4704,12.9239,7.12502,8.78144,-16.8734,1.05853e-14,-3.57812e-15,35.1142,-24.5541,60.3206,41.4973,-7.46238,-14.7685,27.187,7.12502,11.388,56.8578,-1.66419,0.872683,22.1746,24.3821,-14.1672,-3.57542,-15.7291,-1.43983,2.22962,-16.5965,23.9212,-13.9699,-0.942106,-10.788
0.860274,18.1503,-4.66306,-4.20683,1.63834,-2.65944,5.6892,-0.957772,-0.602096,-2.8758,-1.17098,2.78467,-6.12206,-0.491158,3.37505,-4.48111,-13.4059,-18.0331,13.0787,-19.5251,17.7056,8.36039,-9.28202,6.59453,-9.64106e-15,-5.56597e-15,40.1111,28.6646,-46.9705,54.0676,7.98414,-17.0309,12.3757,7.12502,9.20554,-17.4034,-9.64106e-15,-5.56597e-15,35.4473,-24.9891,59.6219,41.8391,-6.81461,-14.4776,27.6209,7.12502,11.6686,57.2759,-1.60591,0.906606,22.3849,24.5897,-14.342,-3.58874,-15.5473,-1.41402,2.30672,-16.3733,24.1306,-14.054,-1.02597,-10.6381
0.859877,18.1424,-4.65793,-4.31739,1.6428,-2.59874,5.65752,-0.951367,-0.681819,-2.76781,-1.17131,2.78468,-5.98838,-0.490919,3.41651,-4.89412,-13.1961,-17.9143,13.2715,-19.1493,17.4594,8.38452,-9.08733,6.53497,6.36111e-15,-2.34566e-14,40.1157,28.454,-47.0307,54.4703,7.92548,-16.5924,11.8847,7.12502,9.62866,-17.8752,6.36111e-15,-2.34566e-14,35.5988,-25.0756,59.4231,41.8069,-6.10642,-15.314,27.5949,7.12502,10.8619,57.294,-1.53261,1.03421,22.3574,24.7606,-14.4922,-3.72287,-15.2059,-1.38246,2.34298,-16.417,24.3349,-14.1683,-1.10817,-10.533
0.861499,18.1373,-4.65483,-4.36325,1.63593,-2.49834,5.80545,-0.939459,-0.812489,-2.88196,-1.16207,2.80414,-6.19179,-0.476594,3.51693,-4.99265,-12.993,-17.8894,13.4895,-18.8118,17.1252,8.36877,-8.93915,6.47229,-1.19271e-15,1.59028e-15,39.8819,28.5386,-47.0362,54.833,7.77876,-16.2375,11.5916,7.12502,9.97108,-18.1522,-1.19271e-15,1.59028e-15,35.0599,-24.8142,60.1397,41.7167,-6.68156,-15.1098,27.2841,7.12502,11.0589,56.9728,-1.5344,1.12167,22.267,24.9156,-14.6401,-3.83336,-15.1558,-1.41344,2.41686,-16.518,24.4784,-14.2766,-1.21402,-10.7772
0.863317,18.1344,-4.64612,-4.40369,1.61897,-2.48986,5.86573,-0.916133,-0.851002,-2.97437,-1.13039,2.83307,-6.32523,-0.45576,3.56981,-4.9844,-12.7627,-17.9409,13.6915,-18.4776,16.9678,8.35791,-8.79244,6.48743,1.21259e-14,-2.46493e-14,39.673,28.6684,-46.9597,55.172,7.45903,-16.9131,11.6411,7.12502,9.3192,-18.1329,1.21259e-14,-2.46493e-14,34.567,-24.6769,60.6604,41.9007,-7.49222,-14.1303,27.3259,7.12502,12.0034,56.9617,-1.54937,1.15368,22.278,25.0806,-14.8741,-3.95002,-14.8344,-1.40085,2.43222,-16.5148,24.5418,-14.3545,-1.27705,-10.7621
0.86517,18.1283,-4.63216,-4.50649,1.72563,-2.4699,5.67951,-0.926089,-0.908232,-2.8491,-1.15157,2.83794,-6.08322,-0.468721,3.6011,-5.08984,-12.5611,-17.9262,13.6354,-18.1514,16.9105,8.28873,-8.63681,6.51595,1.80397e-14,-1.39149e-14,39.7265,28.5342,-46.864,55.4532,7.03924,-17.4258,11.8801,7.12502,8.82445,-17.9154,1.80397e-14,-1.39149e-14,34.5274,-24.7706,60.5459,42.2514,-7.40868,-13.956,27.4863,7.12502,12.1716,57.1122,-1.47337,1.02971,22.2598,25.2113,-15.186,-4.04065,-13.8309,-1.28202,2.34767,-16.5297,24.5577,-14.3788,-1.37544,-10.4381
0.872226,18.1223,-4.61637,-4.62137,1.90164,-2.37769,5.55242,-0.948736,-0.983939,-2.7563,-1.1915,2.8167,-5.90859,-0.489559,3.61978,-5.25569,-12.3727,-17.8742,13.6138,-17.8315,16.7884,8.23283,-8.48226,6.51135,-2.78299e-15,-1.63003e-14,39.6912,28.2893,-46.9082,55.763,6.92,-16.7683,11.8251,7.12502,9.45895,-17.9426,-2.78299e-15,-1.63003e-14,34.3954,-25.0299,60.2994,42.6983,-7.06381,-13.8747,27.5298,7.12502,12.2499,57.1511,-1.32532,0.693081,22.0876,25.2995,-15.3792,-3.91795,-13.0582,-1.11739,2.30094,-16.6491,24.5663,-14.3817,-1.55872,-10.3494
0.881841,18.1179,-4.60264,-4.71354,2.09511,-2.24877,5.57113,-0.992662,-1.04147,-2.73824,-1.25755,2.77326,-5.89536,-0.521273,3.61353,-5.70562,-12.1614,-17.9435,14.0219,-17.5083,16.782,8.39327,-8.30469,6.55269,-2.44505e-14,2.0276e-14,39.5517,28.1886,-46.9483,56.2095,6.83536,-17.0667,11.741,7.12502,9.17101,-18.0396,-2.44505e-14,2.0276e-14,34.0975,-25.5328,59.7148,43.0438,-6.26477,-14.6871,27.4303,7.12502,11.4665,57.0967,-1.20187,0.196084,21.8213,25.3897,-15.3438,-3.63156,-13.8511,-0.974646,2.20484,-16.8282,24.6322,-14.4501,-1.6924,-10.1757
0.888338,18.1136,-4.59435,-4.77329,2.25487,-2.12653,5.57515,-1.04081,-1.10823,-2.69921,-1.32999,2.73724,-5.8508,-0.556373,3.61997,-6.25955,-11.9934,-17.8993,14.4182,-17.199,16.5786,8.54113,-8.13548,6.50082,-9.49197e-15,3.97569e-14,39.429,28.053,-47.0235,56.6337,7.07807,-17.6624,11.6131,7.12502,8.59612,-18.1919,-9.49197e-15,3.97569e-14,34.0025,-25.0764,60.5514,43.5944,-6.76006,-14.8169,27.8603,7.12502,11.3413,57.5336,-1.1431,-0.322915,21.5702,25.4723,-15.2923,-3.37846,-15.6561,-0.913216,2.01247,-17.0002,24.7804,-14.6055,-1.74912,-9.94399
0.890211,18.1078,-4.58974,-4.75458,2.33255,-2.17884,5.5042,-1.05083,-1.04368,-2.66179,-1.33778,2.75929,-5.77108,-0.563931,3.6043,-6.78822,-11.877,-17.7563,14.621,-16.9325,16.2913,8.61203,-7.99108,6.39699,-2.08724e-15,2.38542e-15,39.2991,27.7726,-47.1555,57.0254,7.4661,-17.3886,11.0689,7.12502,8.86034,-18.7251,-2.08724e-15,2.38542e-15,33.5189,-25.5048,59.973,44.3519,-6.14557,-14.4739,27.9493,7.12502,11.6722,57.6042,-1.15471,-0.600312,21.5861,25.5071,-15.2779,-3.37279,-16.2055,-1.0544,1.92367,-16.9481,25.0197,-14.758,-1.86355,-10.3383
0.88992,18.1014,-4.58445,-4.73993,2.3843,-2.44186,5.53302,-1.05502,-0.819944,-2.68764,-1.31946,2.85753,-5.81877,-0.560389,3.58071,-7.37334,-11.733,-17.8139,15.0075,-16.6724,16.2634,8.80172,-7.83902,6.41432,-9.29318e-15,6.75868e-15,39.1711,27.5684,-47.2981,57.3837,7.50105,-17.7563,11.1272,7.12502,8.50553,-18.6815,-9.29318e-15,6.75868e-15,33.1743,-25.6113,60.0748,45.181,-6.32367,-13.9079,28.3448,7.12502,12.2179,57.9679,-1.17038,-0.691849,21.8884,25.5116,-15.2313,-3.46637,-15.9114,-1.28536,1.89962,-16.6351,25.3364,-14.8362,-2.03423,-10.8492
0.889919,18.0973,-4.57828,-4.77756,2.47445,-2.80312,5.69742,-1.079,-0.534731,-2.81261,-1.31639,2.99927,-6.04828,-0.562437,3.57664,-7.71197,-11.5707,-17.9024,15.455,-16.4106,16.1443,8.96115,-7.70802,6.42009,-9.93923e-16,7.95139e-15,38.9025,27.3701,-47.5662,57.5853,8.23211,-17.9972,11.8184,7.12502,8.27303,-17.9996,-9.93923e-16,7.95139e-15,32.5231,-25.8408,60.2933,45.958,-6.19768,-14.461,28.4164,7.12502,11.6846,58.0705,-1.16427,-0.805138,22.299,25.5378,-15.2131,-3.53164,-16.2615,-1.44343,1.75904,-16.2065,25.6428,-14.8534,-2.22601,-10.7373
0.891768,18.0912,-4.57072,-4.85123,2.6463,-2.98647,5.72017,-1.11643,-0.417107,-2.8264,-1.35121,3.08505,-6.0745,-0.581959,3.60521,-7.93456,-11.4639,-17.7906,15.6158,-16.1875,15.8165,8.97228,-7.60797,6.31572,3.08116e-15,4.77083e-15,38.7249,27.0288,-47.7723,57.8386,8.99772,-17.5018,11.9651,7.12502,8.75113,-17.8335,3.08116e-15,4.77083e-15,31.902,-25.956,60.5633,46.7668,-5.93227,-15.3953,28.4664,7.12502,10.7835,58.1696,-1.07587,-1.03681,22.4691,25.5849,-15.2932,-3.56268,-16.497,-1.50596,1.55783,-15.9948,25.8902,-14.9172,-2.43429,-10.5503
0.892536,18.0828,-4.56295,-4.9488,2.8836,-2.9614,5.68442,-1.14355,-0.514277,-2.69238,-1.39792,3.10372,-5.90694,-0.60437,3.67971,-8.29742,-11.4326,-17.5918,15.6044,-16.0384,15.4935,8.95874,-7.53143,6.17716,-5.66536e-15,-7.95139e-16,38.767,26.5591,-47.8326,58.2526,8.82547,-17.0043,11.8602,7.12502,9.23117,-17.9177,-5.66536e-15,-7.95139e-16,31.5004,-25.9113,60.8705,47.7601,-5.9168,-15.8969,28.6055,7.12502,10.2996,58.3333,-0.935052,-1.36007,22.3867,25.6414,-15.4082,-3.52962,-16.2375,-1.50237,1.39643,-16.0195,26.0823,-15.0119,-2.6799,-10.5151
0.889642,18.0812,-4.55801,-4.93553,3.06847,-3.0529,5.70551,-1.11459,-0.507381,-2.62949,-1.35714,3.14929,-5.85469,-0.584786,3.71839,-8.737,-11.4739,-17.5054,15.6967,-16.0032,15.2835,9.03659,-7.50188,6.07415,3.8763e-15,1.35174e-14,38.755,25.9869,-47.8386,58.6309,8.6692,-16.1718,11.7797,7.12502,10.0344,-17.9611,3.8763e-15,1.35174e-14,31.1661,-26.0284,61.162,49.05,-5.96286,-15.7923,28.7639,7.12502,10.4005,58.4866,-0.989309,-1.56408,22.4771,25.719,-15.4685,-3.51368,-16.1327,-1.61759,1.33542,-15.8957,26.2198,-15.0664,-2.92846,-10.7458
0.890315,18.0837,-4.55334,-4.82331,3.30209,-3.15474,5.63576,-1.07948,-0.423131,-2.61557,-1.30371,3.16026,-5.80521,-0.562149,3.67417,-9.23144,-11.5316,-17.3956,15.8323,-16.0007,15.1107,9.14671,-7.48081,5.973,-9.34288e-15,2.78299e-15,38.7574,25.4436,-47.7842,58.9293,8.64937,-15.7934,11.5456,7.12502,10.3995,-18.1772,-9.34288e-15,2.78299e-15,30.8998,-26.4624,61.0913,50.4583,-5.60782,-16.0555,28.9571,7.12502,10.1466,58.6925,-1.153,-1.83233,22.5525,25.7855,-15.5569,-3.51704,-16.337,-1.8418,1.21742,-15.7963,26.3227,-15.0937,-3.09268,-11.0372
0.901479,18.078,-4.55105,-4.76391,3.69833,-3.0646,5.58243,-1.11356,-0.408013,-2.54159,-1.35489,3.07622,-5.69539,-0.591916,3.5788,-9.82762,-11.5159,-17.177,15.9577,-15.9005,14.9642,9.24767,-7.40132,5.87711,2.73329e-14,1.98785e-14,39.09,24.9334,-47.554,59.2112,8.37668,-15.7091,11.5309,7.12502,10.4808,-18.1878,2.73329e-14,1.98785e-14,30.832,-26.9277,60.8023,51.714,-5.13265,-16.828,29.2585,7.12502,9.40128,59.0289,-1.13546,-2.39589,22.2729,25.8224,-15.7691,-3.16671,-15.6669,-1.9636,0.921742,-15.9766,26.4021,-15.0912,-3.27166,-10.6127
0.898634,18.0729,-4.54493,-4.7564,3.75921,-3.15617,5.65215,-1.06306,-0.390117,-2.50928,-1.28374,3.11185,-5.70554,-0.556731,3.60014,-10.4239,-11.46,-16.9895,16.2188,-15.7478,14.7715,9.38483,-7.3024,5.78123,3.07619e-14,-1.66979e-14,39.3319,24.4612,-47.3896,59.5921,7.9632,-14.9577,11.6795,7.12502,11.2055,-18.0013,3.07619e-14,-1.66979e-14,30.7155,-27.3891,60.5555,52.8305,-4.90688,-17.1667,29.4862,7.12502,9.07448,59.271,-1.06936,-2.31875,22.3837,25.8115,-15.8813,-3.11057,-14.2828,-1.99426,0.903166,-15.8329,26.4582,-15.111,-3.5109,-10.1647
0.896431,18.0776,-4.54067,-4.7037,3.90158,-3.26805,5.71678,-1.03374,-0.34036,-2.58081,-1.23519,3.15965,-5.82115,-0.531357,3.62115,-10.6103,-11.3773,-17.0686,16.359,-15.6044,14.7782,9.44966,-7.22961,5.8146,-1.67476e-14,-2.3059e-14,39.1073,23.9962,-47.6365,59.9771,8.19951,-14.3612,11.6812,7.12502,11.7808,-17.9674,-1.67476e-14,-2.3059e-14,30.2056,-27.878,60.4865,54.0333,-4.9711,-16.794,29.5052,7.12502,9.43412,59.2741,-1.1327,-2.4553,22.5401,25.7358,-15.9004,-3.3563,-14.5616,-2.08077,0.839122,-15.6921,26.4576,-15.1476,-3.68137,-10.2634
0.890877,18.0866,-4.53672,-4.59702,4.21403,-3.40009,5.58502,-1.05583,-0.335189,-2.59829,-1.26183,3.23037,-5.76124,-0.543916,3.69181,-10.4633,-11.2791,-17.3815,16.1511,-15.4766,15.1129,9.38712,-7.1709,6.01018,6.21202e-15,-4.13472e-14,39.1612,23.5929,-47.5542,60.2322,8.61852,-14.266,11.3653,7.12502,11.8726,-18.2781,6.21202e-15,-4.13472e-14,29.6456,-28.3096,60.5051,55.5325,-5.09978,-16.2052,29.7598,7.12502,10.0022,59.5022,-1.22278,-2.63226,22.7476,25.5878,-16.0442,-3.66539,-13.6393,-2.23729,0.64206,-15.531,26.4056,-15.0907,-3.8159,-10.1633
0.886052,18.0936,-4.53091,-4.47607,4.59104,-3.39823,5.50285,-1.09602,-0.495592,-2.63911,-1.32574,3.28309,-5.74858,-0.568165,3.84308,-10.4315,-11.2318,-17.5204,15.9608,-15.3786,15.1891,9.31757,-7.13028,6.07524,-3.18055e-15,7.55382e-15,39.5373,23.3566,-47.0033,60.441,8.48277,-14.0893,10.8609,7.12502,12.043,-18.7726,-3.18055e-15,7.55382e-15,28.8707,-28.6618,60.7352,57.531,-5.31795,-15.8546,30.1304,7.12502,10.3405,59.8562,-1.17104,-2.70955,22.753,25.4134,-15.745,-3.77773,-14.0353,-2.35034,0.425061,-15.525,26.2718,-14.9461,-3.97745,-9.78911
0.884651,18.1,-4.52553,-4.35485,4.96607,-3.31085,5.55693,-1.12312,-0.666163,-2.73656,-1.37335,3.27245,-5.87546,-0.582461,3.9378,-10.6093,-11.2051,-17.5454,16.0117,-15.3064,15.1635,9.35442,-7.09085,6.0755,-1.35671e-14,-4.37326e-15,39.7393,23.065,-46.7062,60.5136,8.72469,-14.2893,10.8048,7.12502,11.8501,-18.8399,-1.35671e-14,-4.37326e-15,27.6542,-28.8986,61.288,59.8604,-5.62677,-15.7624,30.1965,7.12502,10.4293,59.9179,-1.09029,-2.87706,22.6246,25.1939,-15.6567,-3.76108,-13.7131,-2.42997,0.223001,-15.6293,26.1099,-14.791,-4.1409,-9.5585
0.886142,18.1106,-4.52783,-4.18419,5.22044,-3.19494,5.63653,-1.09063,-0.75606,-2.80515,-1.33845,3.20671,-5.9954,-0.560405,3.9204,-10.7391,-11.1434,-17.7868,16.0019,-15.2357,15.5482,9.4187,-7.03505,6.2593,2.10215e-14,-3.26007e-14,39.9035,22.6144,-46.5924,60.4065,9.37755,-15.1227,11.1714,7.12502,11.0464,-18.518,2.10215e-14,-3.26007e-14,26.706,-29.2679,61.5471,62.0079,-5.68768,-15.752,30.3333,7.12502,10.4394,60.0541,-1.20244,-3.168,22.4794,24.9142,-15.3964,-3.91703,-15.0048,-2.57458,0.0851562,-15.785,25.9607,-14.6495,-4.19161,-9.49254
0.888087,18.1222,-4.53744,-3.98066,5.41108,-3.20768,5.74847,-1.05315,-0.713479,-2.89529,-1.28167,3.20404,-6.15995,-0.530484,3.89366,-10.7306,-11.0594,-18.1345,15.7945,-15.119,15.9797,9.39419,-6.96893,6.48888,-1.37161e-14,2.78299e-14,40.181,22.1654,-46.4166,60.2357,9.84031,-15.3875,11.2232,7.12502,10.791,-18.4796,-1.37161e-14,2.78299e-14,26.054,-29.7601,61.5611,63.9551,-5.57756,-15.9602,30.7573,7.12502,10.2386,60.4881,-1.354,-3.36666,22.4902,24.5981,-15.0852,-4.06998,-15.8429,-2.78817,0.0174124,-15.7966,25.8233,-14.5545,-4.21491,-9.62085
0.888884,18.1332,-4.54657,-3.79705,5.61631,-3.40011,5.88858,-1.04961,-0.514233,-3.1173,-1.24926,3.26665,-6.48087,-0.514103,3.85438,-10.5106,-10.9478,-18.4207,15.6616,-14.977,16.2091,9.32631,-6.9141,6.6507,8.94531e-15,3.02153e-14,40.3207,21.8892,-46.3914,60.1161,10.2897,-15.0763,10.9265,7.12502,11.0911,-18.7604,8.94531e-15,3.02153e-14,25.0455,-30.2849,61.8256,65.9424,-5.69483,-15.8257,31.1497,7.12502,10.3683,60.8741,-1.41947,-3.41866,22.7156,24.2594,-14.845,-4.21712,-15.9532,-3.0182,-0.0272722,-15.5948,25.6778,-14.4095,-4.29387,-9.80821
0.890858,18.1467,-4.54809,-3.68153,5.77663,-3.61071,5.90632,-1.05973,-0.272593,-3.35132,-1.23185,3.32216,-6.74475,-0.508707,3.78198,-9.83591,-10.7461,-18.7267,15.3714,-14.7785,16.5058,9.11672,-6.85367,6.86645,1.77912e-14,1.78906e-14,40.3377,21.7002,-46.6584,60.1401,10.5397,-14.2322,10.3857,7.12502,11.9052,-19.2558,1.77912e-14,1.78906e-14,23.7345,-30.7575,62.2468,67.9642,-6.09821,-14.9654,31.4209,7.12502,11.1982,61.1021,-1.38382,-3.48138,22.9438,23.8937,-14.6692,-4.30337,-15.9409,-3.12218,-0.0815247,-15.3824,25.5128,-14.2589,-4.32037,-9.97791
0.890618,18.1611,-4.54547,-3.60568,5.94264,-3.76288,5.76734,-1.08645,-0.164265,-3.42452,-1.25304,3.4059,-6.74172,-0.521338,3.80941,-9.10552,-10.5177,-19.0216,14.7742,-14.5179,16.8242,8.78217,-6.76585,7.09378,1.44119e-14,-1.43125e-14,40.6584,21.4454,-46.773,60.0395,10.5072,-13.1982,9.71224,7.12502,12.9021,-19.8689,1.44119e-14,-1.43125e-14,22.6513,-31.0925,62.538,69.9716,-6.3033,-14.4069,31.819,7.12502,11.7368,61.4702,-1.27489,-3.3991,23.1338,23.4986,-14.5387,-4.51165,-15.5987,-3.13309,-0.143582,-15.2259,25.3181,-14.1579,-4.30721,-10.3119
0.892072,18.1727,-4.54474,-3.48093,6.23104,-3.77275,5.62852,-1.14523,-0.214541,-3.4789,-1.33285,3.47264,-6.71181,-0.556632,3.91442,-8.66676,-10.3643,-19.1676,14.3516,-14.3003,16.8448,8.53127,-6.69433,7.17109,1.04362e-14,-8.34896e-15,41.2006,21.259,-46.6346,59.5992,10.5993,-13.0595,9.48981,7.12502,13.0358,-20.0829,1.04362e-14,-8.34896e-15,21.7025,-31.4274,62.7737,71.9523,-6.20436,-14.3237,32.3813,7.12502,11.817,62.0279,-1.18579,-3.30402,23.1699,23.079,-14.5145,-4.80608,-14.9466,-3.20205,-0.215073,-15.2332,25.081,-14.0144,-4.38756,-10.5874
0.89757,18.1828,-4.5468,-3.3421,6.55836,-3.8003,5.62782,-1.18395,-0.141977,-3.59772,-1.37418,3.48568,-6.83643,-0.57706,3.89563,-8.30574,-10.2948,-19.2038,14.0679,-14.1997,16.7301,8.34476,-6.67584,7.16138,3.67752e-15,-5.64548e-14,41.6409,21.026,-46.5003,59.0115,10.742,-13.2613,9.62198,7.12502,12.8413,-19.963,3.67752e-15,-5.64548e-14,20.8154,-31.843,63.0017,73.7942,-6.01207,-14.1839,32.7453,7.12502,11.9518,62.3842,-1.10179,-3.41982,23.1753,22.6493,-14.7657,-4.8554,-12.0926,-3.30486,-0.322626,-15.2446,24.8156,-13.8551,-4.45375,-10.735
0.899917,18.1966,-4.55098,-3.20523,6.79348,-4.01859,5.8001,-1.133,0.189544,-3.73166,-1.2694,3.47648,-7.09318,-0.536646,3.6969,-8.13912,-10.3226,-19.2752,13.8451,-14.249,16.8321,8.26536,-6.70486,7.20434,-4.47266e-15,3.4191e-14,41.938,20.6464,-46.2952,58.2019,10.7602,-14.1468,10.1127,7.12502,11.9876,-19.5241,-4.47266e-15,3.4191e-14,20.1292,-32.3948,63.144,75.5172,-5.92418,-14.1158,32.8847,7.12502,12.0174,62.5197,-1.06934,-3.47085,23.4126,22.2266,-14.0153,-5.00407,-14.2094,-3.43766,-0.410794,-15.0251,24.558,-13.7054,-4.45226,-10.6056
0.900988,18.2127,-4.55531,-3.02713,7.001,-4.19951,5.93221,-0.687511,0.770276,-3.14305,-0.658639,3.1028,-6.58891,-0.281046,2.89102,-10.7857,-11.2585,-18.4548,14.2215,-15.3018,16.8757,9.01856,-7.00941,6.79963,2.28602e-14,-2.5842e-14,42.5295,18.4156,-46.0236,57.1357,10.7616,-15.5584,10.7528,7.12502,10.6261,-18.9585,2.28602e-14,-2.5842e-14,22.068,-33.289,61.9755,77.1653,-5.77365,-13.9393,33.1237,7.12502,12.1876,62.7486,-1.0905,-3.44955,23.6198,21.8182,-13.656,-5.10067,-14.4976,-3.60044,-0.458472,-14.8378,24.329,-13.5259,-4.50559,-10.077
0.899804,18.2264,-4.56502,-2.82029,7.2497,-4.19822,5.87179,-0.476391,0.91522,-2.72107,-0.388114,2.93465,-6.12063,-0.162285,2.59198,-12.2928,-11.7234,-18.162,14.2311,-15.7988,17.061,9.38829,-7.12778,6.66253,2.76062e-14,1.94809e-14,43.3967,17.0126,-45.7797,56.2264,10.7472,-16.1148,10.9259,7.12502,10.0894,-18.8123,2.76062e-14,1.94809e-14,23.1099,-33.6162,61.3387,78.8729,-5.6209,-13.5448,33.437,7.12502,12.568,63.0389,-1.14381,-3.37939,23.6517,21.4494,-13.492,-5.31406,-14.2959,-3.79312,-0.4645,-14.8554,24.0746,-13.2414,-4.55436,-9.73193
0.897126,18.2356,-4.57883,-2.62426,7.49608,-4.11041,5.82393,-0.336175,0.895833,-2.58913,-0.214532,2.80953,-5.96042,-0.0797764,2.44967,-12.4915,-11.8651,-18.0148,13.8711,-15.9648,17.1674,9.33252,-7.18121,6.63077,-3.75206e-15,5.1684e-15,43.9392,16.1284,-45.6587,55.4066,10.7908,-16.2548,10.9817,7.12502,9.9543,-18.763,-3.75206e-15,5.1684e-15,23.432,-34.0138,61.082,80.4994,-5.58021,-13.0673,33.7433,7.12502,13.0283,63.3165,-1.20894,-3.21214,23.6039,21.1213,-13.2725,-5.60145,-13.9565,-3.9661,-0.459709,-14.9784,23.7731,-12.9698,-4.50475,-9.74601
0.901453,18.2438,-4.58762,-2.48621,7.72936,-3.98292,5.97925,-0.225058,0.933741,-2.67996,-0.0647731,2.65429,-6.15034,-0.00972205,2.25246,-12.2989,-11.9083,-17.9587,13.665,-16.0518,17.2253,9.24535,-7.22703,6.63113,-1.34428e-14,-3.57812e-14,44.1345,15.6359,-45.6594,54.4896,10.8958,-16.6763,11.2743,7.12502,9.54768,-18.4893,-1.34428e-14,-3.57812e-14,23.2157,-34.4909,61.1372,82.1038,-5.75336,-12.3244,34.2291,7.12502,13.7444,63.7552,-1.20471,-3.16413,23.4424,20.8212,-13.0648,-5.7299,-13.6461,-4.02129,-0.483759,-15.1812,23.4523,-12.7987,-4.43813,-9.74779
0.907277,18.2549,-4.59643,-2.36973,7.91471,-4.00021,6.27852,-0.16952,1.0885,-2.86412,0.034342,2.61352,-6.52023,0.0334464,2.11695,-11.9929,-11.8539,-18.3019,13.5911,-16.0269,17.5921,9.22825,-7.22319,6.83528,3.64273e-14,7.55382e-15,44.3929,15.4635,-45.7539,53.3461,11.3326,-17.2625,11.8162,7.12502,8.98203,-17.9726,3.64273e-14,7.55382e-15,22.7208,-34.7541,61.4435,83.5839,-5.85376,-11.6101,34.577,7.12502,14.4327,64.0552,-1.21222,-3.12774,23.4399,20.5389,-13.0163,-5.86687,-13.5889,-4.04578,-0.430865,-15.2193,23.1162,-12.6084,-4.43555,-9.94955
0.909358,18.2686,-4.6082,-2.18783,8.06747,-4.02516,6.30135,-0.158511,0.909061,-3.86542,0.0688606,2.69634,-7.60294,0.0680975,2.31686,-7.68203,-10.9352,-19.08,12.3878,-15.2963,18.2599,8.03102,-7.12807,7.50674,-1.78906e-15,3.57812e-15,43.3977,16.6208,-46.0988,52.2763,11.8399,-17.5236,12.2255,7.12502,8.73012,-17.574,-1.78906e-15,3.57812e-15,20.081,-35.6423,63.0253,84.9657,-6.03533,-11.231,34.349,7.12502,14.7979,63.8007,-1.29889,-3.04406,23.4774,20.2344,-13.1218,-6.00794,-12.6068,-4.12298,-0.379686,-15.2303,22.7746,-12.3958,-4.40025,-10.1647
0.914175,18.2823,-4.6184,-2.00615,8.22684,-3.89286,6.3668,0.0310693,1.04146,-3.63869,0.313998,2.45802,-7.40304,0.173214,1.95683,-8.64393,-11.2512,-18.8248,12.4174,-15.6319,18.3346,8.26955,-7.2147,7.39038,-1.10077e-14,-3.71727e-14,44.0506,15.5563,-46.136,51.1195,12.2668,-17.4613,12.3359,7.12502,8.79022,-17.4611,-1.10077e-14,-3.71727e-14,20.9084,-35.7643,62.5118,86.1924,-6.08947,-10.8097,34.2512,7.12502,15.2038,63.6726,-1.3348,-3.0644,23.2999,19.9027,-13.0442,-5.98707,-11.4118,-4.23239,-0.39218,-15.4293,22.5376,-12.2485,-4.34576,-10.0499
0.916184,18.2943,-4.62881,-1.9193,8.33494,-3.90686,6.49751,0.226373,1.30306,-3.24525,0.581202,2.29104,-7.06083,0.285998,1.59654,-10.0968,-11.7013,-18.4966,12.6009,-16.0728,18.1932,8.64043,-7.32994,7.14312,-3.88624e-14,-4.57205e-15,44.9395,14.3706,-46.1105,49.9581,12.4692,-17.7271,12.4495,7.12502,8.53373,-17.358,-3.88624e-14,-4.57205e-15,22.1791,-35.6316,61.8176,87.4997,-5.85993,-10.2246,34.5767,7.12502,15.7673,63.9545,-1.28297,-2.93787,23.3159,19.5613,-12.6164,-6.0308,-11.946,-4.34944,-0.333712,-15.4353,22.4521,-12.2022,-4.39052,-10.0376
0.906802,18.3028,-4.64717,-1.82187,8.34792,-4.24402,6.69092,0.435846,1.69075,-3.10777,0.900082,2.28272,-7.02658,0.42437,1.32845,-10.5781,-11.9958,-18.3114,12.543,-16.4117,18.0935,8.74944,-7.45901,6.99117,-4.1869e-15,1.31198e-14,45.4091,13.6279,-45.9673,48.8437,12.5154,-18.0551,12.5185,7.12502,8.21712,-17.3017,-4.1869e-15,1.31198e-14,23.1203,-35.5976,61.4587,88.591,-5.70939,-9.82086,34.59,7.12502,16.1562,63.9366,-1.32721,-2.45615,23.8015,19.1872,-12.0879,-6.36369,-13.3591,-4.57397,-0.166715,-15.0133,22.4002,-12.1091,-4.45775,-10.274
0.899455,18.3099,-4.66447,-1.70293,8.35374,-4.62638,6.72802,0.640452,2.07181,-3.19676,1.21677,2.30185,-7.14,0.562143,1.0944,-9.92064,-12.0407,-18.3607,12.154,-16.5582,18.2933,8.55644,-7.55904,7.0685,-1.3741e-14,-1.80894e-14,45.4461,13.1641,-45.989,47.7039,12.8712,-17.7328,12.6436,7.12502,8.5282,-17.1641,-1.3741e-14,-1.80894e-14,23.5665,-35.7687,61.4172,89.4707,-5.90351,-9.44869,34.3793,7.12502,16.5145,63.6965,-1.38489,-2.02773,24.3145,18.76,-11.6922,-6.71887,-13.8152,-4.82631,-0.0244446,-14.5631,22.3355,-11.9967,-4.43799,-10.5438
0.904084,18.3195,-4.66872,-1.58642,8.55545,-4.58331,6.50261,0.81786,2.08626,-3.27184,1.44195,2.1839,-7.08701,0.669256,0.936508,-8.96068,-12.0196,-18.2822,11.7928,-16.6537,18.3391,8.28128,-7.65748,7.09761,-3.73964e-15,-4.17448e-15,45.2807,12.699,-46.1873,46.5563,13.2152,-17.2405,12.8587,7.12502,9.00331,-16.9292,-3.73964e-15,-4.17448e-15,23.9429,-36.0063,61.4398,90.2584,-6.1072,-9.30703,34.4493,7.12502,16.6509,63.7551,-1.31491,-2.02156,24.2394,18.3302,-11.5434,-6.77191,-13.5075,-4.94157,-0.0887756,-14.6585,22.2496,-11.9494,-4.38245,-10.5193
0.910337,18.3286,-4.67505,-1.43192,8.87827,-4.41,6.47989,0.976971,2.02405,-3.48968,1.64187,1.9802,-7.30184,0.762946,0.732494,-7.98064,-11.9777,-18.0867,11.5496,-16.7376,18.2968,8.0201,-7.75071,7.08489,-1.84249e-14,3.13086e-14,44.8614,12.5145,-46.2139,45.4521,12.8513,-17.1911,12.8814,7.12502,9.05095,-16.9044,-1.84249e-14,3.13086e-14,24.1568,-36.3216,61.5175,91.0056,-6.34397,-9.76097,34.3643,7.12502,16.2138,63.7062,-1.25632,-2.20257,23.9949,17.9369,-11.4943,-6.65156,-13.197,-5.05407,-0.235872,-14.899,22.1026,-11.8136,-4.42599,-10.1995
0.911644,18.3366,-4.68831,-1.29748,9.11524,-4.44119,6.81698,0.798629,2.2279,-2.86773,1.4219,2.09923,-6.83247,0.653082,0.766957,-11.549,-12.4431,-18.249,12.7121,-16.9204,18.1061,9.07867,-7.6322,6.84451,3.60918e-15,1.40143e-14,46.8085,11.9991,-45.8749,44.1682,12.72,-17.1217,12.866,7.12502,9.11786,-16.9169,3.60918e-15,1.40143e-14,25.7994,-34.6356,60.7324,91.7444,-6.38962,-9.72953,34.4982,7.12502,16.2441,63.8377,-1.24656,-2.30456,24.0146,17.5716,-11.3377,-6.63605,-13.068,-5.19277,-0.25534,-14.8878,21.9034,-11.6366,-4.51763,-10.2778
0.912078,18.3442,-4.698,-1.18672,9.22063,-4.49468,6.70256,1.01711,2.23473,-3.50341,1.72832,2.02594,-7.44165,0.795007,0.647593,-8.39783,-11.9647,-18.5016,11.8313,-16.6489,18.3856,8.21605,-7.69343,7.17853,7.65942e-15,-3.8763e-15,45.5958,12.3612,-46.3236,43.1007,13.2458,-16.5426,12.9214,7.12502,9.6767,-16.8363,7.65942e-15,-3.8763e-15,25.0449,-35.3519,61.3799,92.6881,-6.21144,-9.08728,34.9663,7.12502,16.8624,64.2542,-1.25599,-2.31482,24.0691,17.2316,-11.1943,-6.66815,-12.0431,-5.31963,-0.193249,-14.8563,21.7431,-11.5221,-4.50419,-10.7788
0.915709,18.3521,-4.70531,-1.12101,9.2877,-4.52091,6.54284,0.928469,2.1298,-4.13506,1.63236,2.24368,-8.03817,0.754842,0.949948,-5.28617,-11.2106,-19.4154,11.0941,-15.9405,18.6649,7.38403,-7.56866,7.69477,-2.3966e-14,-1.0138e-14,45.0538,13.765,-46.4779,42.1679,12.8204,-16.2787,13.0087,7.12502,9.93132,-16.737,-2.3966e-14,-1.0138e-14,23.3761,-35.1326,62.5055,93.4094,-6.54514,-9.03033,35.0885,7.12502,16.9172,64.3717,-1.17365,-2.35992,24.0626,16.8726,-11.2221,-6.58434,-9.91133,-5.38897,-0.269463,-14.8782,21.6686,-11.4587,-4.34969,-10.8909
0.918088,18.3598,-4.71716,-1.07263,9.41698,-4.60159,6.62756,1.05901,2.35652,-4.0056,1.82582,2.20388,-7.94066,0.83676,0.75386,-5.58454,-11.3949,-19.4839,11.0634,-16.1476,18.7319,7.4831,-7.6493,7.67851,-4.47266e-15,-6.95746e-15,45.2551,13.654,-46.2646,40.9904,12.2591,-17.1608,13.2134,7.12502,9.08018,-16.5711,-4.47266e-15,-6.95746e-15,24.5183,-34.7051,62.1784,93.8748,-6.92843,-9.29003,35.2459,7.12502,16.6672,64.5503,-1.04603,-2.40504,24.115,16.4866,-11.112,-6.49147,-9.45805,-5.45325,-0.485712,-14.8416,21.6295,-11.4149,-4.13509,-10.8305
0.916035,18.3645,-4.73075,-1.00047,9.477,-4.83954,6.93357,1.2896,2.91782,-2.88134,2.14959,2.07111,-6.88844,0.978599,0.257256,-10.7243,-12.6526,-18.7304,12.2822,-17.2473,18.3228,8.91936,-7.84491,6.96616,5.05037e-14,6.95746e-16,46.9165,11.7395,-46.0242,39.5633,12.9384,-18.2809,13.1212,7.12502,7.99923,-16.7074,5.05037e-14,6.95746e-16,28.6121,-33.3372,60.276,94.1713,-6.80178,-9.12403,35.5321,7.12502,16.827,64.823,-1.02022,-2.26707,24.379,16.1251,-10.7924,-6.51313,-11.1267,-5.59289,-0.612566,-14.5986,21.5632,-11.322,-3.93486,-10.9461
0.914473,18.3678,-4.73913,-0.902016,9.44226,-4.92457,7.0121,1.38122,2.99559,-2.85687,2.28696,2.13627,-6.90585,1.04411,0.262884,-10.9264,-12.7396,-18.9127,12.4075,-17.3147,18.286,9.02434,-7.8734,6.95929,-1.18215e-14,-1.10325e-14,46.9825,11.7835,-46.2292,38.4566,13.7992,-19.0002,13.0978,7.12502,7.30495,-16.7561,-1.18215e-14,-1.10325e-14,29.5148,-32.6507,60.0895,94.5264,-6.62838,-9.12246,35.6555,7.12502,16.8286,64.9463,-1.03411,-2.09918,24.477,15.8141,-10.5906,-6.53072,-12.5188,-5.70109,-0.644944,-14.5215,21.4724,-11.3004,-3.69229,-11.3914
0.914999,18.3736,-4.74378,-0.812393,9.36284,-4.79738,6.99858,1.49963,2.86925,-2.5836,2.42314,2.16685,-6.61171,1.12239,0.35131,-11.9197,-12.9652,-18.9893,12.7386,-17.4628,18.1278,9.33469,-7.89355,6.83952,8.69683e-16,-1.82882e-14,47.3414,11.5527,-46.3584,37.4405,14.2248,-19.4886,13.6642,7.12502,6.83354,-16.2055,8.69683e-16,-1.82882e-14,30.9106,-31.5813,59.7885,96.365,-2.46072,-5.66561,38.2113,7.12502,20.1538,67.1858,-1.02863,-1.98359,24.3272,15.5893,-10.428,-6.45724,-12.681,-5.73596,-0.655278,-14.6915,21.3915,-11.3559,-3.44671,-12.0067
0.916406,18.3787,-4.74912,-0.784923,9.16827,-4.83587,6.98281,1.60282,2.90758,-2.24139,2.55624,2.26759,-6.24177,1.19493,0.422979,-13.0484,-13.1545,-19.0657,13.052,-17.5245,17.9591,9.64603,-7.86742,6.72667,-1.73129e-14,1.35174e-14,47.8687,11.415,-46.5043,36.4365,14.4541,-19.2972,13.9333,7.12502,7.01826,-15.9304,-1.73129e-14,1.35174e-14,32.3013,-30.471,59.3645,96.3816,-2.86119,-5.71167,38.0388,7.12502,20.1095,67.0181,-1.04719,-1.81187,24.3521,15.491,-10.2321,-6.31987,-12.3388,-5.72416,-0.618079,-14.6808,21.2857,-11.2925,-3.20291,-12.4707
0.921132,18.3823,-4.75635,-0.707929,8.91414,-4.8498,6.97033,1.79369,2.92479,-2.31708,2.81607,2.27594,-6.31156,1.32114,0.39012,-12.4146,-13.0546,-19.0767,12.8439,-17.4443,17.8835,9.43617,-7.8765,6.74509,-5.44484e-14,-4.17448e-15,47.457,11.6023,-47.0259,35.5894,14.8544,-18.6687,13.516,7.12502,7.62492,-16.3265,-5.44484e-14,-4.17448e-15,33.0894,-30.0178,59.2214,95.2392,-5.8537,-8.60731,35.8524,7.12502,17.3244,65.1003,-1.15866,-1.68085,24.3179,15.4763,-10.1208,-6.0808,-11.9826,-5.69967,-0.513383,-14.7181,21.138,-11.2175,-2.97478,-12.8902
0.927839,18.3879,-4.76137,-0.607208,8.74039,-4.76568,7.00824,1.96309,2.89953,-2.34681,3.04015,2.22935,-6.36079,1.43052,0.326656,-12.1604,-13.0245,-19.0568,12.7289,-17.4274,17.8603,9.34315,-7.88565,6.7479,-2.80224e-14,-3.79679e-14,46.9655,11.7391,-47.5343,34.8258,15.3456,-18.8959,13.3876,7.12502,7.40561,-16.4628,-2.80224e-14,-3.79679e-14,34.1706,-29.4287,59.0094,95.1486,-5.85418,-9.7992,35.8164,7.12502,16.177,65.1614,-1.26581,-1.69148,24.1544,15.47,-10.09,-5.808,-11.9159,-5.65202,-0.480679,-14.8659,20.9763,-11.1894,-2.81666,-12.883
0.932769,18.3929,-4.76293,-0.586535,8.72367,-4.72525,7.03027,2.03579,2.8997,-2.23031,3.13364,2.23304,-6.24917,1.47865,0.320177,-12.3303,-13.0233,-19.1249,12.6511,-17.3851,17.9392,9.35459,-7.85454,6.7857,-3.3607e-14,-1.8487e-14,46.6264,11.8595,-48.0086,34.0237,15.9949,-20.2298,13.9066,7.12502,6.11793,-15.9851,-3.3607e-14,-1.8487e-14,35.3916,-28.5877,58.6834,94.8706,-6.15567,-11.0318,35.352,7.12502,14.9899,64.7895,-1.27109,-1.83845,24.0558,15.466,-10.0449,-5.62523,-12.2017,-5.55052,-0.562699,-14.946,20.8021,-11.1324,-2.72579,-12.912
0.936205,18.3978,-4.7673,-0.563609,8.76759,-4.62418,7.05698,2.07126,2.77413,-2.10992,3.16721,2.26234,-6.14502,1.50262,0.417689,-12.5961,-12.9994,-19.3448,12.6925,-17.3069,18.1387,9.445,-7.79796,6.89548,-4.47545e-14,-6.75868e-15,46.3207,11.7036,-48.9093,33.4149,15.9918,-18.6499,13.9861,7.12502,7.64304,-15.8558,-4.47545e-14,-6.75868e-15,36.5738,-27.6777,58.387,94.5084,-6.58221,-11.3122,34.6737,7.12502,14.7197,64.1311,-1.26326,-1.98849,23.9137,15.4526,-10.0555,-5.50059,-11.8447,-5.47594,-0.581475,-15.086,20.6156,-11.0574,-2.70644,-13.545
0.937811,18.4014,-4.77536,-0.480532,8.68069,-4.55683,7.05192,2.14313,2.68282,-2.0633,3.25344,2.27763,-6.09791,1.54973,0.475187,-12.7393,-12.9691,-19.6769,12.8061,-17.2536,18.4446,9.56599,-7.75676,7.06487,5.54765e-14,1.11319e-14,45.9128,11.764,-49.6817,33.1398,15.4264,-15.7415,12.5324,7.12502,10.4495,-17.1879,5.54765e-14,1.11319e-14,37.7482,-26.8633,58.0837,94.2286,-6.54576,-10.1935,34.2667,7.12502,15.7973,63.6421,-1.33153,-1.94722,23.8333,15.3958,-10.2722,-5.4358,-10.3275,-5.49734,-0.542368,-15.1754,20.464,-10.9359,-2.63002,-13.8588
0.93945,18.4031,-4.78307,-0.4,8.48335,-4.54525,6.95193,2.2461,2.57042,-2.11143,3.38194,2.33866,-6.10088,1.61864,0.589209,-12.1851,-12.8298,-19.9275,12.6579,-17.1312,18.6597,9.43804,-7.7312,7.23149,-2.91903e-14,-2.68359e-14,45.2904,12.2897,-50.1673,32.7572,14.9503,-14.7248,11.6098,7.12502,11.4301,-18.0587,-2.91903e-14,-2.68359e-14,38.6728,-26.1423,57.9286,93.879,-6.42361,-9.64586,33.9649,7.12502,16.3247,63.2977,-1.41781,-1.80579,23.8097,15.337,-9.91564,-5.34269,-12.5942,-5.53847,-0.490619,-15.2027,20.3636,-10.813,-2.47793,-13.6337
0.942946,18.4072,-4.79004,-0.341097,8.29585,-4.5626,6.90384,2.30187,2.50068,-2.11338,3.4534,2.42543,-6.08488,1.65872,0.711915,-11.9963,-12.732,-20.198,12.7384,-17.0327,18.874,9.46048,-7.69368,7.38387,-1.00138e-14,1.51076e-14,44.7656,13.0531,-50.4594,32.2587,14.5748,-15.687,11.5809,7.12502,10.5021,-18.1367,-1.00138e-14,1.51076e-14,39.5642,-25.245,57.7288,93.3935,-6.38633,-11.2687,33.5767,7.12502,14.7616,63.031,-1.49387,-1.72202,23.8025,15.3325,-9.86941,-5.19641,-13.7214,-5.55951,-0.372334,-15.2031,20.2612,-10.7367,-2.34911,-13.6803
0.948396,18.4118,-4.79858,-0.247112,8.09837,-4.47438,6.91601,2.37555,2.36787,-2.13885,3.5426,2.4481,-6.12801,1.7077,0.797857,-11.903,-12.6733,-20.1383,12.7797,-16.9621,18.7733,9.42528,-7.67045,7.35717,3.02898e-14,5.76476e-15,44.0742,13.5118,-51.0077,31.8749,15.0402,-15.7222,11.324,7.12502,10.4681,-18.3954,3.02898e-14,5.76476e-15,40.5651,-24.4572,57.4595,92.7685,-6.40454,-13.8513,33.4217,7.12502,12.2725,63.0416,-1.60864,-1.70228,23.6673,15.3684,-9.92191,-5.01327,-14.1025,-5.56287,-0.186603,-15.3318,20.1345,-10.7019,-2.24778,-14.1434
0.955286,18.4144,-4.80716,-0.157148,7.94962,-4.17725,7.00887,2.45538,2.06111,-2.1936,3.62227,2.37762,-6.25285,1.75571,0.880456,-11.7711,-12.6047,-19.6618,12.7398,-16.8618,18.2524,9.26325,-7.64653,7.11721,-2.06363e-14,-6.75868e-15,43.2983,13.7836,-51.7188,31.8509,16.2662,-15.7079,12.3223,7.12502,10.482,-17.3964,-2.06363e-14,-6.75868e-15,41.6912,-23.7961,57.1496,92.0228,-6.52936,-14.9586,33.4835,7.12502,11.2046,63.1643,-1.69371,-1.76971,23.2877,15.4005,-9.88907,-4.78737,-14.1792,-5.52535,-0.0820062,-15.7072,20.0093,-10.663,-2.14834,-14.2996
0.961024,18.4167,-4.81335,-0.10844,7.77881,-4.04487,7.07281,2.48914,1.87648,-2.18022,3.65249,2.38771,-6.28755,1.77766,0.987543,-11.7797,-12.5046,-19.3766,12.7157,-16.6984,17.9283,9.16099,-7.58031,6.98674,4.7932e-14,-7.95139e-16,42.6742,14.569,-51.9143,31.7992,16.6376,-16.9352,12.917,7.12502,9.29782,-16.858,4.7932e-14,-7.95139e-16,42.8693,-22.9717,56.8347,91.171,-6.47972,-15.2581,33.4548,7.12502,10.9158,63.151,-1.75821,-1.69727,23.1111,15.4112,-9.81553,-4.66987,-13.8319,-5.4828,-0.0704085,-15.8885,19.8953,-10.595,-1.95845,-14.1091
0.962792,18.4213,-4.82169,-0.0684776,7.60378,-4.18585,6.94636,2.58892,1.88658,-2.2003,3.78783,2.46243,-6.24234,1.84632,1.04857,-11.1409,-12.3651,-19.1962,12.3272,-16.5672,17.8147,8.86021,-7.55933,6.96741,5.46037e-14,2.66371e-14,41.726,15.1857,-52.2264,31.76,16.1595,-16.5089,13.0911,7.12502,9.70914,-16.6651,5.46037e-14,2.66371e-14,44.1311,-22.4431,56.6161,90.1631,-6.31525,-15.6095,33.4965,7.12502,10.5769,63.2104,-1.84763,-1.44882,23.2791,15.3798,-9.8387,-4.75001,-12.6265,-5.50084,-0.0399787,-15.7371,19.7991,-10.5331,-1.81085,-14.1486
0.961655,18.4257,-4.82931,-0.0332777,7.51081,-4.29596,6.43781,2.66244,1.89965,-1.87936,3.86125,2.55442,-5.6201,1.89071,1.1598,-11.0966,-12.3877,-19.1693,12.043,-16.5688,17.8177,8.75586,-7.56411,6.96168,-6.54685e-14,-4.01545e-14,41.2075,15.4214,-52.579,31.7664,16.2036,-17.2569,13.7813,7.12502,8.98743,-16.0073,-6.54685e-14,-4.01545e-14,45.8769,-21.6414,56.3612,88.9485,-6.47683,-16.0818,33.3972,7.12502,10.1212,63.1338,-1.90178,-1.21781,23.437,15.2928,-9.97237,-4.92168,-11.1128,-5.55695,0.019696,-15.5989,19.7488,-10.4926,-1.79882,-14.2006
0.965704,18.4276,-4.82902,-0.0129331,7.30302,-4.34957,5.31531,2.73934,1.9804,-1.088,3.89959,2.6164,-4.15574,1.92277,1.25023,-11.4619,-12.5114,-19.1226,11.6097,-16.6365,17.9016,8.69577,-7.57206,6.94731,-6.38596e-15,-1.03368e-14,41.2794,15.0926,-53.1398,31.8705,16.3216,-16.9306,13.927,7.12502,9.30227,-15.8478,-6.38596e-15,-1.03368e-14,48.1189,-20.4304,55.9319,87.5929,-6.68499,-16.9476,33.0296,7.12502,9.28586,62.8051,-1.91025,-1.00751,23.4996,15.2136,-9.91246,-4.93758,-11.3125,-5.55255,0.124321,-15.548,19.7239,-10.4922,-1.68766,-14.1583
0.978674,18.4287,-4.82593,-0.00235508,7.09054,-4.33801,5.37391,2.71674,1.98996,-1.0772,3.87348,2.65424,-4.17944,1.90983,1.28361,-11.7032,-12.4792,-19.0093,11.9267,-16.5504,17.5824,8.78249,-7.53219,6.82536,4.98825e-15,1.19271e-14,40.4725,15.8289,-53.7587,32.3244,16.082,-16.0159,13.2657,7.12502,10.1848,-16.4678,4.98825e-15,1.19271e-14,49.1611,-19.6824,55.7637,86.2296,-6.79033,-17.4977,32.7899,7.12502,8.75505,62.5883,-1.87312,-1.01654,23.4216,15.1756,-9.67941,-4.6675,-12.8424,-5.47981,0.190547,-15.6129,19.701,-10.5128,-1.52274,-14.07
0.991376,18.428,-4.82703,0.0332552,6.95199,-4.25891,5.18041,2.68619,1.91056,-0.916525,3.81596,2.70633,-3.91145,1.88625,1.40024,-11.924,-12.4437,-19.0994,11.9688,-16.4438,17.5587,8.82049,-7.47558,6.84145,-1.53313e-14,-2.82274e-14,39.9146,16.6427,-53.9163,32.732,15.8126,-15.0137,12.6147,7.12502,11.1515,-17.069,-1.53313e-14,-2.82274e-14,50.3567,-18.7972,55.7395,84.8831,-6.80184,-17.4599,32.4872,7.12502,8.7916,62.2841,-1.8704,-1.07869,23.2717,15.1621,-9.57075,-4.44463,-13.3398,-5.41943,0.236645,-15.7434,19.6627,-10.5172,-1.44381,-13.7672
0.999257,18.4262,-4.83123,0.0520098,6.67279,-4.30479,5.11681,2.69497,1.87524,-0.884674,3.82601,2.80913,-3.85228,1.89395,1.52904,-11.7497,-12.3003,-19.2905,11.8275,-16.2378,17.6709,8.73042,-7.39149,6.95697,-2.97556e-14,-1.66979e-14,39.1094,17.5331,-54.1938,33.276,15.4667,-14.2716,12.5407,7.12502,11.8672,-17.103,-2.97556e-14,-1.66979e-14,51.2855,-18.0607,55.7826,83.4756,-6.65342,-17.6839,31.7956,7.12502,8.57541,61.6015,-1.93193,-0.876845,23.3028,15.1888,-9.56381,-4.40857,-13.1887,-5.36508,0.452721,-15.7047,19.5943,-10.5171,-1.40389,-13.7209
1.00804,18.4265,-4.83317,0.00912286,6.36226,-4.25893,5.30049,2.69842,1.78506,-0.96702,3.83699,2.86012,-4.05115,1.90072,1.61978,-11.5264,-12.0781,-19.3984,11.8644,-15.9506,17.6794,8.65592,-7.2739,7.04247,-3.5744e-14,-2.42517e-14,37.8928,18.3765,-54.8774,34.0711,15.2217,-13.9191,12.7999,7.12502,12.2071,-16.8239,-3.5744e-14,-2.42517e-14,52.0466,-17.5277,55.6617,81.6506,-6.849,-18.7,30.9517,7.12502,7.59472,60.7953,-1.91494,-0.646615,23.2254,15.2209,-9.51177,-4.3287,-13.1599,-5.26657,0.732349,-15.7723,19.5544,-10.5029,-1.40944,-13.8209
1.0211,18.4284,-4.83523,-0.00640019,6.11448,-4.05041,5.5074,2.67294,1.58215,-1.00943,3.79917,2.88093,-4.22598,1.88597,1.74653,-11.6523,-11.899,-19.4738,12.0511,-15.6646,17.5735,8.67884,-7.14283,7.06753,-1.36167e-14,-1.47101e-14,36.7949,19.3368,-55.4104,34.8892,15.3657,-14.2798,12.1608,7.12502,11.8593,-17.4834,-1.36167e-14,-1.47101e-14,52.8761,-16.9546,55.6735,79.6255,-7.39941,-19.3422,30.4608,7.12502,6.97483,60.3259,-1.8831,-0.592853,22.9342,15.2187,-9.37486,-4.09904,-12.892,-5.19524,0.900803,-16.0457,19.5765,-10.5112,-1.35853,-13.6417
1.03553,18.4295,-4.84208,0.0639068,5.69504,-4.05369,5.5154,2.69045,1.55965,-0.936469,3.82377,3.00399,-4.16548,1.90072,1.88548,-12.0969,-11.8117,-19.6362,12.275,-15.4489,17.5312,8.79918,-7.02694,7.10285,-4.1869e-15,-2.78299e-15,36.163,20.3331,-55.7204,35.6344,15.5376,-14.5341,11.2159,7.12502,11.6141,-18.4422,-4.1869e-15,-2.78299e-15,53.9207,-16.2506,55.8145,77.6562,-7.69624,-19.3341,30.2575,7.12502,6.98266,60.1223,-2.00837,-0.471327,22.8675,15.2243,-9.25731,-3.78229,-12.7215,-5.20418,1.14583,-16.0975,19.5587,-10.5168,-1.17637,-13.6248
1.04526,18.4287,-4.84993,0.125697,5.22985,-4.2196,5.45065,2.70957,1.66732,-0.854925,3.85663,3.13646,-4.0475,1.91684,1.96467,-12.4219,-11.7019,-19.7341,12.576,-15.2531,17.5276,8.92649,-6.92122,7.14604,-3.75579e-14,6.75868e-15,35.4236,21.1253,-56.3732,36.4351,15.7682,-14.32,11.6252,7.12502,11.8205,-18.0212,-3.75579e-14,6.75868e-15,55.0284,-15.6162,55.7306,75.6438,-7.51697,-19.6784,30.077,7.12502,6.65024,59.9525,-2.19503,-0.178328,23.0207,15.2837,-9.27255,-3.61598,-11.8544,-5.19895,1.50096,-15.9411,19.4714,-10.4839,-1.05417,-13.9175
1.05632,18.4296,-4.85082,0.115332,4.92452,-4.11464,5.5112,2.67388,1.50448,-0.851454,3.80102,3.16206,-4.08903,1.89316,2.08414,-12.4464,-11.5236,-19.5707,12.741,-15.0032,17.2961,8.89945,-6.81178,7.0851,1.23743e-14,-1.47101e-14,34.2504,21.9565,-57.0311,37.5366,15.9619,-14.0548,11.9289,7.12502,12.0762,-17.7027,1.23743e-14,-1.47101e-14,55.8853,-15.1381,55.5999,73.5224,-7.47259,-20.412,29.8042,7.12502,5.9421,59.7009,-2.26191,-0.0650488,22.8658,15.3625,-9.42553,-3.48463,-9.98125,-5.08852,1.73853,-16.0888,19.4109,-10.5043,-0.954647,-14.1415
