JuanDHNZ/ProyectoFinalCD/preprocessing/sports_trials_csv/15_10.csv
root1,root2,root3,root4,root5,root6,lowerback1,lowerback2,lowerback3,upperback1,upperback2,upperback3,thorax1,thorax2,thorax3,lowerneck1,lowerneck2,lowerneck3,upperneck1,upperneck2,upperneck3,head1,head2,head3,rclavicle1,rclavicle2,rhumerus1,rhumerus2,rhumerus3,rradius1,rwrist1,rhand1,rhand2,rfingers1,rthumb1,rthumb2,lclavicle1,lclavicle2,lhumerus1,lhumerus2,lhumerus3,lradius1,lwrist1,lhand1,lhand2,lfingers1,lthumb1,lthumb2,rfemur1,rfemur2,rfemur3,rtibia1,rfoot1,rfoot2,rtoes1,lfemur1,lfemur2,lfemur3,ltibia1,lfoot1,lfoot2,ltoes1
0.0184149,18.0286,-24.1448,-0.788375,3.03075,-2.29443,8.95125,-0.584579,-1.60989,-3.11928,-0.767598,2.70477,-8.28417,-0.207864,3.9041,-0.360605,-14.1576,-24.6514,13.9827,-20.8334,16.9735,8.8533,-10.4795,7.30156,5.29264e-15,-1.03368e-14,-32.7574,-2.49895,-83.3902,29.5914,1.71005,-23.443,6.26719,7.12502,3.01528,-23.6912,5.29264e-15,-1.03368e-14,-38.4219,12.3631,84.0755,30.0855,-2.79113,-8.94209,28.0105,7.12502,17.0022,57.2864,-5.59102,2.25144,24.1265,29.4076,-19.0481,-6.45017,-4.23958,-6.02637,-1.33724,-17.5142,28.5745,-17.8634,-0.254327,-15.9523
0.00937676,18.0264,-24.134,-0.899544,3.61853,-2.38132,8.92082,-0.801517,-1.58525,-3.05023,-1.05124,2.76875,-8.16857,-0.348862,4.00008,-0.541507,-14.206,-24.6791,13.9138,-20.8638,17.0471,8.8813,-10.4801,7.31057,-3.75206e-15,-1.59028e-14,-32.7397,-2.40428,-83.4416,29.4187,1.62553,-23.5442,4.33532,7.12502,2.91752,-25.6245,-3.75206e-15,-1.59028e-14,-38.3386,12.6445,83.8846,29.9134,-3.43715,-9.29402,27.158,7.12502,16.6634,56.4627,-5.33637,2.08517,24.3396,29.3029,-19.1362,-6.88138,-4.03963,-5.97247,-1.51075,-17.3298,28.5839,-17.8805,-0.656947,-16.2722
0.0123588,18.0246,-24.1265,-0.98099,3.21373,-2.3922,8.95274,-0.644212,-1.54613,-3.03087,-0.835206,2.77667,-8.18403,-0.245064,3.95308,-0.800773,-14.248,-24.7155,14.2086,-20.9022,17.044,9.04007,-10.4868,7.28885,2.90723e-15,1.51076e-14,-32.8276,-2.59732,-83.3598,29.1877,1.85869,-22.5816,0.77414,7.12502,3.84714,-29.1709,2.90723e-15,1.51076e-14,-38.3675,12.6188,83.8201,29.6791,-3.49644,-9.24511,27.4795,7.12502,16.7105,56.7802,-5.23462,2.1761,24.2992,29.2885,-19.0763,-6.57567,-3.72924,-5.79446,-1.36544,-17.3741,28.5769,-18.0044,-0.305738,-16.7521
0.0122063,18.0215,-24.1188,-1.07069,3.3985,-2.37135,9.2156,-0.70149,-1.52119,-3.19734,-0.907045,2.77857,-8.51194,-0.272685,3.96453,-0.7702,-14.1634,-24.8374,14.4767,-20.8259,17.0609,9.12497,-10.461,7.33232,-3.23025e-15,-4.37326e-15,-33.2412,-2.72368,-83.2661,28.9412,1.89485,-22.4754,0.973818,7.12502,3.94975,-28.9693,-3.23025e-15,-4.37326e-15,-38.829,12.5863,83.6798,29.6877,-3.49689,-9.02151,27.6859,7.12502,16.9257,56.9684,-5.07294,2.08727,24.2925,29.2713,-19.1743,-6.59909,-3.43636,-5.66226,-1.51751,-17.3953,28.5799,-18.0859,-0.346626,-16.5905
0.0149543,18.0223,-24.1233,-0.978812,3.15389,-2.37185,8.90007,-0.598718,-1.48635,-3.03392,-0.764654,2.80307,-8.16269,-0.213312,3.935,-0.678165,-14.1818,-24.8678,14.1279,-20.8607,17.2574,9.02591,-10.4711,7.40329,-7.97623e-15,-3.10104e-14,-33.0995,-2.73054,-83.2822,28.7508,1.06207,-22.4995,7.89702,7.12502,3.92639,-22.0465,-7.97623e-15,-3.10104e-14,-38.5744,12.6459,83.6766,29.5907,-3.56707,-8.50509,28.2901,7.12502,17.4228,57.5293,-5.22519,2.10553,24.2348,29.2919,-19.1254,-6.32198,-3.50648,-5.72754,-1.52747,-17.4383,28.5833,-18.0129,-0.115513,-16.1328
0.0159453,18.0245,-24.1264,-0.911438,2.94563,-2.36332,8.69662,-0.504264,-1.45585,-2.9292,-0.636516,2.79106,-7.94194,-0.158114,3.87719,-0.522595,-14.2279,-24.7064,13.7739,-20.9252,17.2825,8.87721,-10.4984,7.38598,6.13748e-15,2.38542e-14,-33.081,-3.10406,-83.1478,28.9864,1.97115,-19.5769,15.2577,7.12502,6.74824,-14.6147,6.13748e-15,2.38542e-14,-38.3679,12.7417,83.5136,29.4387,-4.15669,-7.78603,28.995,7.12502,18.1147,58.1715,-5.33478,2.16301,24.1979,29.2865,-19.0762,-6.19796,-3.84177,-5.80083,-1.50962,-17.478,28.5962,-17.9467,0.112014,-16.1231
0.0157185,18.026,-24.1291,-0.840636,2.72294,-2.3681,8.38653,-0.402231,-1.37409,-2.76095,-0.49632,2.73935,-7.59282,-0.103296,3.74357,-0.643783,-14.2964,-24.572,13.6181,-21.0041,17.4112,8.86457,-10.5142,7.38691,6.60959e-15,-1.98785e-15,-32.8694,-3.67234,-83.0582,28.7884,2.49585,-17.8804,11.923,7.12502,8.38574,-17.8905,6.60959e-15,-1.98785e-15,-38.0661,12.7409,83.3696,29.2854,-4.66843,-8.00227,28.6676,7.12502,17.9067,57.8633,-5.44595,2.24472,24.18,29.2834,-18.9901,-6.11514,-4.09465,-5.88346,-1.47144,-17.4985,28.6208,-17.9626,0.35105,-16.564
0.00639127,18.0257,-24.122,-0.836793,3.04327,-2.47535,8.57563,-0.492886,-1.34601,-2.94424,-0.607262,2.80004,-7.89092,-0.149846,3.8174,-0.787141,-14.2763,-24.6306,13.9468,-20.9801,17.3688,8.99734,-10.5017,7.37664,-6.85807e-15,-2.78299e-15,-33.212,-3.71474,-83.0861,28.9987,2.31119,-18.6461,12.4088,7.12502,7.64678,-17.433,-6.85807e-15,-2.78299e-15,-38.4721,12.6129,83.2842,29.2941,-4.71207,-7.72183,29.5317,7.12502,18.1765,58.7025,-5.38305,2.26907,24.3969,29.2631,-19.0615,-6.49227,-3.94238,-5.91348,-1.59664,-17.3086,28.6328,-17.9904,0.144364,-16.826
0.0120255,18.0269,-24.1282,-0.849867,2.80217,-2.5533,8.56608,-0.416293,-1.12611,-2.80839,-0.48077,2.80296,-7.75003,-0.102697,3.6732,-1.1843,-14.3337,-24.6979,13.9776,-21.0072,17.5591,9.11714,-10.4842,7.41791,-4.79568e-15,-7.15625e-15,-32.8858,-3.99767,-83.0496,28.5852,2.88023,-19.343,12.9058,7.12502,6.97409,-16.9593,-4.79568e-15,-7.15625e-15,-38.2195,12.6707,83.2727,29.0906,-4.74569,-6.97838,30.1427,7.12502,18.8916,59.2453,-5.41878,2.23133,24.4149,29.2468,-18.9709,-6.18452,-3.59074,-5.89735,-1.61585,-17.2803,28.6405,-17.9536,0.354671,-16.7163
0.0119548,18.0282,-24.1293,-0.811895,2.42721,-2.5521,8.42769,-0.31243,-1.09649,-2.59164,-0.340187,2.83397,-7.44763,-0.0416331,3.66097,-1.69058,-14.4391,-24.7081,13.9437,-21.0605,17.7037,9.22846,-10.4706,7.42059,7.03201e-15,-1.19271e-15,-32.396,-4.18172,-82.9991,28.1149,3.15569,-19.5723,13.0804,7.12502,6.75271,-16.7919,7.03201e-15,-1.19271e-15,-37.7166,12.9544,83.2756,28.4548,-4.25004,-8.29245,26.2482,7.12502,17.6274,55.4691,-5.48282,2.35205,24.3754,29.2358,-18.8809,-5.89599,-3.37563,-5.88119,-1.4701,-17.31,28.6286,-17.9615,0.558967,-16.5866
0.00996877,18.0294,-24.1283,-0.774225,2.23839,-2.55181,8.36772,-0.262514,-1.11014,-2.53862,-0.273821,2.8655,-7.36101,-0.00957666,3.69036,-1.87069,-14.4866,-24.6127,13.8772,-21.0652,17.6246,9.21753,-10.4605,7.36358,5.26779e-15,-1.78906e-14,-32.3139,-4.26709,-82.9567,27.7759,3.22578,-19.5049,13.5994,7.12502,6.81778,-16.2709,5.26779e-15,-1.78906e-14,-37.5991,13.0339,83.2625,27.9465,-3.47317,-9.08737,27.2057,7.12502,16.8623,56.4936,-5.54327,2.4458,24.373,29.2533,-18.8036,-5.85847,-3.54965,-5.87498,-1.37466,-17.3091,28.5955,-17.9632,0.657121,-16.6457
0.00462074,18.0305,-24.1274,-0.753395,2.2489,-2.47485,8.31373,-0.274759,-1.24553,-2.64062,-0.304297,2.85957,-7.4365,-0.0160565,3.76646,-1.48698,-14.389,-24.5544,13.6793,-20.9782,17.5597,9.04633,-10.4432,7.37846,1.83379e-14,-3.93594e-14,-32.6731,-4.36273,-82.9024,27.5495,3.35367,-19.349,14.6406,7.12502,6.96826,-15.2247,1.83379e-14,-3.93594e-14,-37.9494,12.9831,83.1406,27.8459,-3.16567,-9.57968,27.5208,7.12502,16.3884,56.8484,-5.57647,2.41012,24.3044,29.2814,-18.7939,-5.87673,-3.65947,-5.87486,-1.28689,-17.3561,28.5509,-17.9513,0.546345,-16.6598
0.00130431,18.0303,-24.127,-0.755674,2.29565,-2.40333,8.41427,-0.341016,-1.41009,-3.01927,-0.403356,2.89007,-7.89333,-0.0433969,3.91746,-0.0212007,-13.9976,-24.7304,13.1443,-20.7095,17.6985,8.58184,-10.4055,7.6159,2.31087e-15,1.78906e-14,-33.649,-4.25163,-82.8016,27.5342,3.46274,-19.3559,15.0314,7.12502,6.96157,-14.8341,2.31087e-15,1.78906e-14,-38.9705,13.0451,82.8545,27.9385,-3.27249,-9.69385,27.8676,7.12502,16.2784,57.2043,-5.57637,2.32243,24.2249,29.3083,-18.783,-5.75709,-3.29393,-5.85923,-1.27083,-17.4153,28.5166,-17.9291,0.497366,-16.7796
0.000526255,18.0297,-24.1295,-0.737869,2.18225,-2.38169,8.6506,-0.303955,-1.3497,-2.77608,-0.351434,2.87715,-7.77297,-0.0263546,3.86094,-1.38271,-14.3704,-24.358,13.3894,-20.9354,17.4968,8.88876,-10.422,7.34407,1.11071e-14,1.51076e-14,-33.0663,-4.52235,-82.7963,27.397,3.59261,-19.1488,14.5572,7.12502,7.16156,-15.3016,1.11071e-14,1.51076e-14,-38.3369,13.2288,82.8745,27.696,-3.52427,-9.68022,28.0082,7.12502,16.2916,57.3438,-5.61118,2.34509,24.1789,29.3249,-18.7725,-5.58747,-2.93049,-5.85912,-1.24683,-17.4535,28.4991,-17.9117,0.620664,-16.9961
-0.00122694,18.0302,-24.1326,-0.719049,2.04697,-2.34697,8.837,-0.254756,-1.34832,-2.75746,-0.287281,2.85333,-7.86595,0.0057121,3.82826,-1.88593,-14.5122,-24.2265,13.5989,-21.0408,17.4002,9.04531,-10.4402,7.2329,1.6201e-14,9.54166e-15,-33.0845,-4.75523,-82.7617,27.2796,3.74968,-19.0333,14.1384,7.12502,7.27302,-15.7166,1.6201e-14,9.54166e-15,-38.2151,13.3347,82.7516,27.4038,-3.80202,-9.79703,27.5948,7.12502,16.1791,56.9396,-5.649,2.41074,24.13,29.3211,-18.8447,-5.49384,-3.00177,-5.87724,-1.2148,-17.5022,28.5071,-17.902,0.720414,-17.0332
-0.00526453,18.0313,-24.1339,-0.69426,2.09175,-2.389,8.85938,-0.256016,-1.2936,-2.73728,-0.283013,2.84931,-7.85763,0.00461431,3.79221,-2.08417,-14.6242,-24.1407,13.6543,-21.1624,17.3657,9.11227,-10.4824,7.16848,-3.23025e-16,-8.34896e-15,-33.1133,-5.10338,-82.678,26.986,4.01371,-19.2028,14.1506,7.12502,7.10942,-15.71,-3.23025e-16,-8.34896e-15,-38.1776,13.4044,82.634,27.2082,-3.93775,-10.0631,27.0953,7.12502,15.9229,56.4607,-5.66831,2.47142,24.2135,29.2952,-18.8961,-5.59874,-3.19958,-5.94008,-1.2245,-17.4285,28.5327,-17.872,0.666656,-17.0651
-0.0117724,18.0313,-24.133,-0.671709,2.32334,-2.47103,8.72732,-0.470321,-1.39345,-3.1939,-0.561816,3.0204,-8.25097,-0.108984,4.08315,-0.0287687,-13.9903,-24.7794,13.1775,-20.6972,17.673,8.59385,-10.4028,7.61565,3.00662e-15,1.98785e-15,-34.2187,-4.71388,-82.5292,26.8762,4.07186,-19.0092,14.2807,7.12502,7.29625,-15.5735,3.00662e-15,1.98785e-15,-39.5455,13.6994,82.266,27.409,-4.14347,-9.56618,27.9199,7.12502,16.4014,57.2465,-5.64975,2.49165,24.3823,29.2533,-18.8943,-5.88813,-3.25832,-6.01521,-1.27523,-17.2785,28.5604,-17.857,0.478494,-17.1029
-0.0170616,18.0308,-24.1294,-0.732639,2.50619,-2.51224,8.6872,-0.60913,-1.37653,-3.03389,-0.741839,3.11095,-8.03949,-0.201195,4.19279,-0.600543,-14.028,-24.897,13.3643,-20.6359,17.6822,8.75847,-10.3459,7.60514,3.2551e-15,-2.3059e-14,-34.0648,-4.54001,-82.5387,26.7192,3.96352,-18.808,14.5742,7.12502,7.49052,-15.2732,3.2551e-15,-2.3059e-14,-39.464,14.1356,82.1159,27.4427,-5.02135,-8.52794,28.9973,7.12502,17.4008,58.2384,-5.52578,2.52903,24.5046,29.1927,-18.8741,-6.16374,-3.34977,-5.98008,-1.31273,-17.1847,28.5991,-17.8651,0.339011,-16.9074
-0.020954,18.0314,-24.1298,-0.79019,2.41505,-2.59714,8.7797,-0.625777,-1.28175,-2.98192,-0.749805,3.15937,-8.03706,-0.209164,4.19305,-0.979113,-14.0382,-24.9302,13.5005,-20.574,17.6661,8.85921,-10.2975,7.58928,1.72943e-14,-1.47101e-14,-34.0607,-4.49301,-82.5293,26.3502,3.86924,-18.9968,15.2202,7.12502,7.30828,-14.6336,1.72943e-14,-1.47101e-14,-39.5422,14.4759,81.8791,27.2635,-5.76363,-8.55605,27.8605,7.12502,17.3737,57.104,-5.47006,2.70816,24.6483,29.1767,-18.8616,-6.2931,-3.81282,-5.92092,-1.21362,-17.0601,28.5942,-17.9149,0.309749,-16.6021
-0.0286444,18.0338,-24.1354,-0.754349,2.3159,-2.7864,8.80789,-0.602257,-1.12982,-2.97559,-0.694526,3.22987,-8.05206,-0.187597,4.17424,-1.04297,-14.0456,-24.8566,13.4812,-20.5566,17.5988,8.84323,-10.285,7.55365,1.77912e-14,2.38542e-14,-34.0736,-4.6412,-82.4605,26.0821,3.94511,-19.0961,15.4832,7.12502,7.2124,-14.3739,1.77912e-14,2.38542e-14,-39.6129,14.6059,81.7645,27.137,-5.88714,-8.84166,27.0449,7.12502,17.0989,56.3125,-5.54884,3.00296,24.932,29.1625,-18.8513,-6.49628,-4.01959,-6.00542,-1.12412,-16.7999,28.5963,-17.9815,0.268758,-16.812
-0.0286414,18.0362,-24.1416,-0.628965,2.6484,-2.47274,8.73711,-0.689675,-1.36676,-2.96856,-0.847416,3.14156,-7.98905,-0.254211,4.23564,-1.206,-14.101,-24.7663,13.3681,-20.579,17.5687,8.82517,-10.2818,7.51238,-4.57205e-15,2.38542e-14,-34.0788,-4.86572,-82.3568,25.9648,4.21572,-18.8143,15.7431,7.12502,7.48441,-14.1044,-4.57205e-15,2.38542e-14,-39.515,14.5161,81.8222,27.0083,-5.50149,-9.08836,27.1793,7.12502,16.8614,56.4673,-5.68985,2.60583,24.5343,29.1684,-18.8529,-6.41073,-3.83234,-6.18143,-1.29096,-17.1546,28.5901,-17.9569,0.138281,-17.2451
-0.0346384,18.0341,-24.1392,-0.679377,2.6639,-2.5475,8.76003,-0.679275,-1.31039,-2.9373,-0.825887,3.15862,-7.9709,-0.246762,4.21831,-1.27574,-14.1002,-24.7132,13.2549,-20.5693,17.6711,8.80389,-10.2651,7.53761,2.7482e-14,-7.95139e-15,-34.1072,-5.18787,-82.2079,25.6667,4.5468,-18.6582,15.9162,7.12502,7.63506,-13.926,2.7482e-14,-7.95139e-15,-39.4253,14.3085,81.8761,26.6853,-4.90195,-9.8101,26.8307,7.12502,16.1665,56.1765,-5.62449,2.74122,24.68,29.178,-18.8947,-6.58933,-3.61469,-6.13299,-1.30901,-17.0333,28.5978,-17.9473,0.0973021,-16.9598
-0.0359432,18.0341,-24.1385,-0.679161,2.53067,-2.56208,8.7018,-0.616875,-1.29961,-2.91957,-0.740835,3.16626,-7.92509,-0.206609,4.20526,-1.19476,-14.0959,-24.5925,13.1187,-20.5622,17.6327,8.72355,-10.2619,7.51381,-1.1281e-14,7.95139e-16,-34.0816,-5.54884,-82.021,25.2493,4.95437,-19.3446,15.0318,7.12502,6.97255,-14.8333,-1.1281e-14,7.95139e-16,-39.4178,14.2,81.8954,26.5456,-4.63497,-10.1871,26.8279,7.12502,15.8035,56.2028,-5.64832,2.81024,24.6982,29.2256,-18.9084,-6.54812,-3.65509,-6.10001,-1.26995,-17.0169,28.5593,-17.8926,0.149963,-16.4961
-0.0383795,18.0358,-24.1449,-0.61055,2.57304,-2.50909,8.67883,-0.618627,-1.36616,-2.94155,-0.750026,3.17618,-7.93398,-0.207028,4.25512,-1.16452,-14.1478,-24.476,13.0076,-20.6012,17.4693,8.6562,-10.2833,7.43294,3.97569e-15,1.51076e-14,-34.0933,-5.73112,-81.8977,24.941,5.28773,-19.9452,14.6013,7.12502,6.39267,-15.2823,3.97569e-15,1.51076e-14,-39.4827,14.2134,81.8614,26.5569,-4.66331,-10.2422,26.3699,7.12502,15.7504,55.749,-5.77304,2.75413,24.6414,29.2619,-18.8958,-6.54644,-3.85298,-6.2037,-1.24908,-17.0668,28.5315,-17.7727,0.105385,-16.7195
-0.0372915,18.0348,-24.1435,-0.580326,2.63114,-2.38564,8.69656,-0.632893,-1.44343,-3.02599,-0.778641,3.1527,-8.03237,-0.214748,4.28122,-0.911907,-14.1302,-24.4917,12.8291,-20.6038,17.439,8.55046,-10.3004,7.44155,1.2424e-15,-2.34566e-14,-34.4633,-5.67065,-81.8258,25.0063,5.34535,-19.9607,14.1888,7.12502,6.37773,-15.6952,1.2424e-15,-2.34566e-14,-39.7488,14.2523,81.7347,26.7519,-5.29471,-9.17903,26.9919,7.12502,16.7741,56.2873,-5.82188,2.57349,24.4628,29.3211,-18.8779,-6.38234,-3.77191,-6.19704,-1.21785,-17.2157,28.4787,-17.7226,0.057087,-16.9633
-0.0372907,18.0338,-24.1409,-0.61734,2.5145,-2.248,8.70486,-0.576939,-1.57378,-3.05821,-0.720361,3.13086,-8.07598,-0.178885,4.32429,-0.778511,-14.0954,-24.5408,12.7135,-20.5697,17.4525,8.48792,-10.293,7.46919,-5.76476e-15,-1.59028e-14,-34.8301,-5.98469,-81.5122,25.0292,6.10618,-19.752,13.5329,7.12502,6.5792,-16.3449,-5.76476e-15,-1.59028e-14,-39.9811,14.2708,81.6366,27.0795,-6.36856,-7.1308,29.4267,7.12502,18.745,58.5435,-5.80818,2.59547,24.2902,29.3958,-18.8365,-6.26513,-3.49866,-6.08034,-1.19349,-17.388,28.4164,-17.7423,0.163444,-16.8697
-0.0377089,18.033,-24.1409,-0.684607,2.4063,-2.1536,8.71175,-0.516139,-1.65022,-3.02179,-0.651114,3.09775,-8.04632,-0.143171,4.32091,-0.74315,-14.0567,-24.5957,12.6897,-20.5382,17.564,8.48662,-10.2777,7.52514,2.73329e-15,-6.75868e-15,-34.9815,-6.0035,-81.5303,24.8503,5.51381,-19.7845,14.2623,7.12502,6.54784,-15.6165,2.73329e-15,-6.75868e-15,-40.0119,14.2161,81.6161,27.0643,-6.5106,-6.85584,30.0007,7.12502,19.0095,59.0917,-5.76649,2.62632,24.1767,29.4569,-18.8513,-6.17619,-3.40596,-5.95228,-1.21056,-17.5132,28.351,-17.7233,0.277608,-16.7388
-0.0378907,18.0331,-24.1445,-0.678458,2.43262,-2.10108,8.71547,-0.511713,-1.6334,-3.0215,-0.647294,3.04363,-8.0489,-0.143725,4.25285,-0.341195,-13.9605,-24.6107,12.4366,-20.5033,17.7928,8.35362,-10.2743,7.64436,2.34814e-14,-2.06736e-14,-35.1092,-6.17851,-81.5072,24.7184,5.28173,-19.6338,14.9414,7.12502,6.69335,-14.9328,2.34814e-14,-2.06736e-14,-40.0237,14.0969,81.6052,26.9425,-5.83055,-7.73307,29.0468,7.12502,18.1657,58.2186,-5.79609,2.55385,24.1054,29.4911,-18.9095,-6.10488,-3.25847,-5.95138,-1.21538,-17.5733,28.3092,-17.6941,0.227215,-16.3013
-0.0396077,18.0333,-24.1402,-0.678125,2.62419,-2.04046,8.59889,-0.575477,-1.62838,-2.93597,-0.736374,3.00316,-7.88157,-0.19332,4.21475,-0.171147,-13.941,-24.544,12.2652,-20.5127,17.896,8.27432,-10.2804,7.68182,3.40419e-15,2.46493e-14,-35.2302,-6.17375,-81.5837,24.8232,4.78113,-19.1386,15.469,7.12502,7.17141,-14.3895,3.40419e-15,2.46493e-14,-39.9423,13.9722,81.6432,26.9316,-5.37709,-8.06324,28.5192,7.12502,17.848,57.7202,-5.76151,2.41759,24.0512,29.5084,-19.0457,-6.1781,-3.25539,-5.95814,-1.18987,-17.617,28.2885,-17.7004,0.0650562,-16.1986
-0.0446578,18.0324,-24.1359,-0.752525,2.74672,-2.04284,8.67821,-0.620175,-1.61097,-2.85743,-0.795871,2.99888,-7.83811,-0.225299,4.20924,-0.283949,-13.9909,-24.3936,12.3276,-20.5604,17.831,8.30064,-10.2927,7.62072,7.05686e-15,1.82882e-14,-35.4007,-6.24849,-81.5612,24.9556,5.01206,-19.0482,15.6033,7.12502,7.25862,-14.2522,7.05686e-15,1.82882e-14,-39.8818,13.8714,81.6898,26.8766,-5.2959,-8.38565,28.2593,7.12502,17.5377,57.4883,-5.6519,2.46642,24.1143,29.5191,-19.1068,-6.40924,-3.56403,-5.88883,-1.19531,-17.5819,28.2746,-17.6771,0.048344,-16.6615
-0.0458796,18.0328,-24.1398,-0.78704,2.58632,-2.03353,8.93557,-0.583193,-1.56955,-2.91046,-0.742794,2.97368,-8.04973,-0.197077,4.15917,-0.260306,-13.9634,-24.2352,12.4056,-20.5389,17.792,8.29465,-10.2796,7.59245,-7.8023e-15,3.97569e-15,-35.5732,-6.72806,-81.2776,24.8025,6.30337,-19.3539,15.102,7.12502,6.96358,-14.7635,-7.8023e-15,3.97569e-15,-40.0108,13.9378,81.5435,26.8136,-5.57419,-8.30103,28.2636,7.12502,17.6192,57.4852,-5.62866,2.55146,24.1019,29.472,-19.0167,-6.36746,-3.83885,-5.86196,-1.19573,-17.6012,28.3248,-17.6824,0.299323,-16.6127
-0.0472174,18.0348,-24.1436,-0.72762,2.43742,-1.97623,8.96024,-0.550733,-1.59884,-2.91023,-0.704043,2.95895,-8.06693,-0.176737,4.15471,-0.754421,-14.0006,-24.1752,12.7447,-20.5148,17.7115,8.47208,-10.2416,7.52565,-8.32411e-15,3.53837e-14,-35.5467,-6.53927,-81.4745,24.7067,5.36309,-19.3148,14.8179,7.12502,7.00126,-15.0464,-8.32411e-15,3.53837e-14,-40.0146,14.1042,81.4005,26.8536,-6.07153,-7.38205,29.2344,7.12502,18.5033,58.3744,-5.72875,2.60269,24.0232,29.4684,-18.9682,-6.26687,-3.93724,-5.9279,-1.13295,-17.669,28.3379,-17.625,0.516167,-16.3838
-0.0625133,18.0324,-24.1443,-0.825808,2.28127,-2.54062,9.01811,-0.507376,-1.18103,-2.84497,-0.581145,3.14958,-8.04238,-0.133547,4.10175,-1.21295,-14.0839,-24.14,13.0247,-20.5488,17.6023,8.63684,-10.2349,7.44273,-5.98839e-15,9.54166e-15,-35.5457,-7.52865,-80.8373,23.5538,6.91454,-19.2082,18.2988,7.12502,7.10414,-11.562,-5.98839e-15,9.54166e-15,-39.9899,13.9642,81.5168,27.0073,-6.05564,-7.01243,30.3679,7.12502,18.8589,59.4737,-5.65328,3.25223,24.839,29.4635,-18.9743,-6.77909,-3.68474,-5.8852,-0.99799,-16.948,28.3554,-17.5499,0.572047,-16.3993
-0.0601399,18.0331,-24.1485,-0.727865,2.41042,-2.19089,9.00196,-0.526246,-1.48066,-2.96724,-0.64842,3.05471,-8.15781,-0.15021,4.18404,-0.532219,-13.9791,-24.1149,12.6717,-20.5138,17.6381,8.39253,-10.2546,7.50804,0,-3.93594e-14,-35.8247,-7.93095,-80.508,23.1728,7.59518,-19.2891,19.1199,7.12502,7.02609,-10.7435,0,-3.93594e-14,-40.2393,13.6956,81.6637,27.1307,-5.71585,-7.23216,30.7449,7.12502,18.6475,59.8711,-5.76822,3.01544,24.3933,29.505,-18.9969,-6.60929,-3.58085,-5.99106,-1.09595,-17.3718,28.324,-17.4915,0.512156,-16.28
-0.0549552,18.033,-24.152,-0.733679,2.50328,-2.0059,9.02644,-0.584453,-1.64639,-3.1178,-0.744224,3.05992,-8.32537,-0.182763,4.30394,0.0411788,-13.8106,-24.2626,12.4961,-20.3673,17.5979,8.21225,-10.2269,7.58553,-5.44173e-15,1.15295e-14,-36.183,-7.68008,-80.4237,23.1383,7.43007,-19.272,18.9864,7.12502,7.04258,-10.8764,-5.44173e-15,1.15295e-14,-40.6522,13.6929,81.6902,27.2412,-5.74102,-6.77945,31.6281,7.12502,19.0829,60.712,-5.76879,2.75979,24.1195,29.5522,-19.0388,-6.43706,-3.60632,-5.96598,-1.14798,-17.6122,28.2864,-17.4817,0.40954,-16.3498
-0.0601743,18.033,-24.1551,-0.739661,2.34198,-1.93144,9.02229,-0.575771,-1.72682,-2.64868,-0.744132,3.1333,-7.81514,-0.193618,4.41509,-2.6716,-14.3289,-24.2086,13.5428,-20.5453,17.2081,9.02884,-10.1704,7.20672,-1.55797e-14,-2.38542e-15,-35.0728,-7.63249,-80.4815,22.9254,7.39734,-19.1285,18.7744,7.12502,7.18115,-11.0837,-1.55797e-14,-2.38542e-15,-39.591,14.2986,81.857,27.0174,-5.82781,-6.88566,31.2448,7.12502,18.9808,60.3387,-5.82253,3.00371,24.0772,29.6319,-19.0661,-6.52684,-3.58167,-5.9248,-1.03514,-17.6734,28.2194,-17.4137,0.562693,-16.5672
-0.0520291,18.0354,-24.1628,-0.69004,2.20979,-1.76338,9.0333,-0.504504,-1.76157,-2.63439,-0.659107,3.05267,-7.81397,-0.15279,4.33537,-3.05503,-14.3922,-24.1892,13.833,-20.5727,17.1292,9.19007,-10.165,7.14435,1.70955e-14,-1.27222e-14,-35.1298,-7.81876,-80.3886,22.9819,7.31441,-18.8811,18.7833,7.12502,7.41996,-11.0666,1.70955e-14,-1.27222e-14,-39.5038,14.3179,81.8595,26.8139,-5.58126,-7.78543,29.4005,7.12502,18.1153,58.5769,-5.92928,2.68345,23.7686,29.6608,-19.0472,-6.07927,-3.76823,-5.95564,-1.00852,-17.921,28.206,-17.3725,0.764601,-16.5334
-0.0583136,18.0378,-24.1649,-0.694246,2.00125,-1.97554,9.02138,-0.421098,-1.61698,-2.61429,-0.524374,3.12897,-7.79788,-0.0923646,4.31311,-3.07224,-14.4088,-24.1016,13.8316,-20.5719,17.0006,9.16625,-10.1662,7.08534,2.80783e-15,-5.56597e-15,-35.2744,-7.86586,-80.3293,23.0958,7.00744,-18.6206,18.935,7.12502,7.67137,-10.9058,2.80783e-15,-5.56597e-15,-39.4433,14.2598,81.9264,26.6692,-5.54422,-8.26345,28.5902,7.12502,17.6553,57.8086,-5.95299,3.01592,24.0734,29.6618,-19.072,-6.22154,-3.68472,-5.94888,-0.95977,-17.6588,28.2184,-17.3489,0.869938,-16.82
-0.0596517,18.0379,-24.1661,-0.692155,1.97111,-2.03641,8.96026,-0.423789,-1.55091,-2.551,-0.518026,3.17007,-7.6952,-0.0942164,4.31536,-3.19808,-14.4372,-24.0234,13.7776,-20.5525,16.8658,9.14014,-10.1528,7.02089,4.02539e-15,2.38542e-15,-35.3095,-7.61751,-80.4048,23.268,6.58635,-18.4516,18.7014,7.12502,7.83447,-11.1334,4.02539e-15,2.38542e-15,-39.3058,14.4159,81.9191,26.4001,-5.46678,-8.81381,27.7051,7.12502,17.1257,56.9704,-5.96511,3.08804,24.151,29.6627,-19.0391,-6.25383,-3.59703,-5.94811,-0.914487,-17.579,28.2187,-17.3309,0.86118,-16.9433
-0.0577351,18.0368,-24.1635,-0.711584,1.96372,-1.95734,8.85334,-0.454486,-1.58112,-2.44029,-0.564815,3.16849,-7.51027,-0.120943,4.33249,-3.364,-14.4627,-23.9968,13.6497,-20.5288,16.846,9.11545,-10.131,7.00188,8.79622e-15,7.95139e-15,-35.2539,-7.32954,-80.5276,23.4538,6.17158,-18.3112,18.0595,7.12502,7.96999,-11.7703,8.79622e-15,7.95139e-15,-39.2294,14.5635,81.9391,26.3542,-5.20561,-9.08617,27.298,7.12502,16.8635,56.5858,-5.93095,3.0383,24.034,29.6612,-19.0199,-6.16102,-3.47603,-5.90632,-0.849565,-17.674,28.2156,-17.3664,0.809445,-16.4085
-0.0564228,18.0365,-24.1628,-0.692525,1.95926,-1.84986,8.81043,-0.466437,-1.65411,-2.47251,-0.590117,3.1513,-7.51744,-0.129844,4.35924,-3.1533,-14.3921,-24.0689,13.4803,-20.4659,16.936,9.02596,-10.1118,7.07113,-2.45996e-15,-1.11319e-14,-35.3678,-7.31436,-80.4876,23.4792,6.01599,-18.2656,17.1127,7.12502,8.01404,-12.7154,-2.45996e-15,-1.11319e-14,-39.3881,14.5068,81.9986,26.7534,-5.54621,-7.97957,29.1025,7.12502,17.9285,58.2961,-5.97243,2.92656,23.8806,29.7051,-19.0358,-6.03121,-3.58716,-5.88585,-0.797598,-17.7996,28.1618,-17.3343,0.765898,-16.2507
-0.0557701,18.0372,-24.1653,-0.641234,1.98002,-1.76206,9.1395,-0.502338,-1.66522,-2.78161,-0.638454,3.1049,-8.03646,-0.139306,4.34,-2.87714,-14.257,-24.1335,13.7219,-20.36,16.8884,9.03666,-10.0865,7.10758,2.03754e-15,-1.11319e-14,-35.887,-7.30121,-80.4126,23.4415,6.09917,-18.3652,16.2547,7.12502,7.91786,-13.5771,2.03754e-15,-1.11319e-14,-40.0562,14.4369,81.8246,27.2429,-6.12977,-6.80974,30.5191,7.12502,19.0538,59.6058,-6.06415,2.72635,23.7495,29.7415,-19.0204,-5.93044,-4.06312,-5.92377,-0.837537,-17.9056,28.1246,-17.282,0.778662,-16.263
-0.0516104,18.0382,-24.1702,-0.596052,2.07046,-1.61994,9.23514,-0.566421,-1.72905,-2.8805,-0.731583,3.09713,-8.19013,-0.17715,4.38812,-2.93011,-14.2231,-24.1497,13.8912,-20.2911,16.7396,9.07186,-10.0611,7.06853,-1.36913e-14,2.78299e-14,-36.1054,-7.18383,-80.322,23.4381,6.10047,-18.3265,16.0628,7.12502,7.95525,-13.7675,-1.36913e-14,2.78299e-14,-40.3707,14.5036,81.8265,27.4847,-6.26103,-6.68569,30.6509,7.12502,19.1731,59.7258,-6.14596,2.4646,23.5403,29.784,-19.0227,-5.78587,-4.15081,-5.97383,-0.951048,-18.0917,28.1025,-17.2696,0.792427,-16.0114
-0.0582851,18.0373,-24.1726,-0.65405,2.09155,-1.80681,9.26022,-0.588241,-1.61421,-2.80417,-0.738853,3.21086,-8.12178,-0.185688,4.44447,-3.15679,-14.2625,-24.0712,13.8913,-20.2634,16.5662,9.07611,-10.0404,6.98513,1.6847e-14,-1.27222e-14,-36.0962,-7.20271,-80.1927,23.4469,6.10643,-18.1316,16.1343,7.12502,8.14331,-13.6887,1.6847e-14,-1.27222e-14,-40.2488,14.5227,81.9982,27.5088,-6.29079,-6.8164,30.9704,7.12502,19.0474,60.0577,-6.10814,2.67265,23.8162,29.8153,-19.0498,-5.94313,-3.72476,-5.9452,-0.931995,-17.8452,28.1013,-17.2818,0.765051,-16.1463
-0.0615128,18.0353,-24.1791,-0.661555,2.10915,-1.82048,9.223,-0.583978,-1.59804,-2.66214,-0.732742,3.22101,-7.94748,-0.188835,4.44002,-3.49606,-14.3369,-23.9046,13.8573,-20.2783,16.4704,9.09777,-10.0245,6.90044,-7.95139e-15,-1.74931e-14,-35.9214,-7.29901,-80.1734,23.5579,6.09008,-18.1042,15.8649,7.12502,8.16981,-13.9572,-7.95139e-15,-1.74931e-14,-39.9178,14.5403,82.1152,27.4917,-6.44357,-6.65728,31.7527,7.12502,19.2004,60.8249,-6.12959,2.71433,23.8444,29.8386,-19.0326,-5.89871,-3.15378,-5.9895,-0.890001,-17.8159,28.1073,-17.2615,0.799869,-16.717
-0.0615124,18.0351,-24.1864,-0.636717,2.06413,-1.76413,9.06394,-0.576529,-1.61137,-2.56463,-0.728147,3.19279,-7.75083,-0.19223,4.4094,-3.39257,-14.2852,-23.8321,13.7346,-20.224,16.5044,9.02187,-9.9992,6.92087,5.889e-15,-2.22639e-14,-35.8745,-7.29525,-80.2164,23.7096,6.02651,-18.2567,15.5028,7.12502,8.0226,-14.325,5.889e-15,-2.22639e-14,-39.8077,14.5813,82.1275,27.5457,-6.61421,-6.31282,32.5777,7.12502,19.5316,61.6166,-6.19051,2.63634,23.7526,29.8359,-18.9745,-5.76039,-2.82683,-6.06022,-0.867271,-17.8886,28.145,-17.2287,0.842857,-16.9548
-0.061357,18.0379,-24.1904,-0.63291,2.03869,-1.73627,8.92348,-0.578996,-1.58735,-2.53813,-0.730844,3.16733,-7.64126,-0.198076,4.36423,-3.097,-14.1804,-23.8628,13.7366,-20.1517,16.5599,8.96446,-9.98121,6.98135,-1.61513e-15,-4.77083e-15,-35.8536,-7.56279,-80.0834,23.5013,6.29668,-18.3081,15.3042,7.12502,7.97299,-14.5254,-1.61513e-15,-4.77083e-15,-39.8145,14.5094,82.1632,27.6006,-6.62346,-6.18344,32.9378,7.12502,19.656,61.9641,-6.23498,2.53336,23.698,29.8508,-18.9527,-5.72784,-3.22335,-6.05586,-0.894412,-17.9216,28.1678,-17.2159,0.818748,-16.5701
-0.0641323,18.0407,-24.1973,-0.615873,2.0918,-1.70047,8.90326,-0.592454,-1.62916,-2.53763,-0.754018,3.16526,-7.62662,-0.207814,4.38877,-3.07246,-14.1372,-23.9053,13.9052,-20.1186,16.5767,9.01693,-9.96946,7.00305,-4.79568e-15,8.74653e-15,-35.7116,-8.00481,-79.8272,23.1086,6.70003,-18.1309,15.0189,7.12502,8.14404,-14.8041,-4.79568e-15,8.74653e-15,-39.7331,14.3672,82.2863,27.6289,-6.49924,-6.08495,32.8413,7.12502,19.7507,61.8578,-6.28229,2.47694,23.6656,29.8643,-18.9412,-5.80526,-3.8968,-6.0955,-0.895487,-17.9393,28.1861,-17.223,0.713548,-16.2552
-0.0678616,18.04,-24.2054,-0.628763,2.14506,-1.70732,8.88865,-0.587169,-1.62107,-2.43408,-0.747305,3.17011,-7.50764,-0.208621,4.38508,-3.30272,-14.1556,-23.889,13.9809,-20.1209,16.6667,9.09346,-9.95183,7.01653,1.1455e-14,1.74931e-14,-35.4464,-8.35433,-79.6632,22.8246,6.9372,-18.0509,14.996,7.12502,8.2212,-14.8241,1.1455e-14,1.74931e-14,-39.4372,14.2217,82.4774,27.5002,-6.11583,-6.48638,31.6125,7.12502,19.3647,60.6683,-6.29013,2.49045,23.7034,29.8613,-18.9002,-5.90411,-4.18676,-6.15964,-0.820764,-17.9068,28.2116,-17.221,0.629637,-16.5824
-0.0705603,18.0383,-24.2114,-0.663371,2.19173,-1.77005,8.8656,-0.561255,-1.47759,-2.1755,-0.702371,3.1377,-7.22286,-0.202977,4.25458,-4.07967,-14.3409,-23.5581,14.0334,-20.2238,16.5777,9.22477,-9.94346,6.86279,-2.2003e-14,3.73715e-14,-34.9777,-8.65583,-79.6926,22.7718,6.97947,-18.1408,15.2578,7.12502,8.13448,-14.5657,-2.2003e-14,3.73715e-14,-38.7923,14.1536,82.6292,27.2213,-5.82069,-7.08387,30.31,7.12502,18.7902,59.4224,-6.28267,2.54439,23.8049,29.8735,-18.9085,-5.978,-3.78861,-6.18838,-0.793631,-17.8222,28.2167,-17.2083,0.666772,-17.1631
-0.0726902,18.0387,-24.2147,-0.684309,2.25712,-1.73253,9.01412,-0.691382,-1.65614,-2.52794,-0.883122,3.25988,-7.66761,-0.266421,4.52795,-3.00689,-13.9179,-23.7652,13.7926,-19.7869,16.4322,8.86205,-9.81932,7.00437,-8.72168e-15,5.56597e-15,-35.824,-7.8596,-79.6844,23.1952,6.52189,-17.9839,15.0994,7.12502,8.28587,-14.7181,-8.72168e-15,5.56597e-15,-39.7038,14.4723,82.4388,27.2657,-5.84883,-7.29152,30.0329,7.12502,18.5904,59.1645,-6.2773,2.59273,23.7805,29.9132,-18.9703,-5.99719,-3.0912,-6.15835,-0.88187,-17.8525,28.199,-17.2145,0.632634,-16.9274
-0.0725611,18.038,-24.2123,-0.743274,2.30135,-1.60248,9.14069,-0.676798,-1.74595,-2.60258,-0.876961,3.21208,-7.82115,-0.255948,4.53303,-3.03647,-13.8941,-23.6,13.9457,-19.7242,16.1501,8.85409,-9.79696,6.89343,-1.50579e-14,1.59028e-15,-36.2148,-7.6467,-79.7338,23.66,6.07581,-17.7699,14.7897,7.12502,8.49245,-15.0196,-1.50579e-14,1.59028e-15,-39.8759,14.247,82.5362,27.0835,-5.19223,-8.52585,28.1716,7.12502,17.4028,57.4126,-6.21288,2.50987,23.6278,29.952,-18.9805,-5.98234,-3.24705,-6.03606,-1.01025,-18.0055,28.1876,-17.2475,0.532695,-16.1999
-0.0736785,18.0355,-24.2133,-0.792515,2.33713,-1.61845,9.10644,-0.765827,-1.85316,-2.92594,-0.994756,3.33854,-8.13653,-0.29276,4.75725,-1.76288,-13.4331,-23.9486,13.8371,-19.3091,16.0741,8.53136,-9.69415,7.0859,1.85118e-14,-3.02153e-14,-37.1104,-6.98564,-79.6551,23.9945,5.71886,-17.6336,14.5384,7.12502,8.62392,-15.2655,1.85118e-14,-3.02153e-14,-40.7978,14.2151,82.5488,27.0711,-4.41697,-9.55693,25.93,7.12502,16.4103,55.2558,-6.17745,2.39287,23.6481,29.9794,-18.9117,-5.98349,-3.66651,-5.99467,-1.07651,-17.9858,28.1954,-17.248,0.498967,-16.0094
-0.0761094,18.0333,-24.2168,-0.825096,2.3294,-1.75235,9.06668,-0.631009,-1.51197,-2.34382,-0.789548,3.23814,-7.51038,-0.233623,4.40456,-4.09212,-14.0295,-23.2224,14.6147,-19.6946,15.6596,9.16463,-9.73778,6.60358,9.83984e-15,7.95139e-15,-35.8783,-7.91091,-79.6411,23.7574,5.89847,-17.6485,14.278,7.12502,8.6096,-15.5264,9.83984e-15,7.95139e-15,-39.364,13.8085,82.9804,27.1056,-4.70597,-8.94452,26.4296,7.12502,16.9998,55.7057,-6.17061,2.41661,23.8175,30.013,-18.8919,-5.98262,-3.70866,-6.00125,-1.05663,-17.8177,28.2088,-17.2247,0.518081,-16.0293
-0.0761218,18.0322,-24.2178,-0.870528,2.24683,-1.82727,9.05996,-0.674167,-1.48232,-2.7125,-0.833257,3.29167,-7.89894,-0.242119,4.46219,-2.61358,-13.4674,-23.4912,14.4437,-19.2167,15.7962,8.78619,-9.60233,6.88709,-1.55052e-14,4.05521e-14,-36.7744,-7.54972,-79.546,23.8733,5.83695,-17.97,14.0172,7.12502,8.29932,-15.7998,-1.55052e-14,4.05521e-14,-40.3824,13.7119,82.8288,27.4423,-5.08959,-8.33621,27.3225,7.12502,17.5853,56.5472,-6.1567,2.43065,23.8993,30.0515,-18.9177,-5.92688,-3.93364,-5.95812,-1.01913,-17.7351,28.2365,-17.275,0.580623,-15.8452
-0.0737561,18.0314,-24.221,-0.882113,2.15898,-1.76699,9.16679,-0.681082,-1.4953,-2.90456,-0.842632,3.26442,-8.16752,-0.238619,4.45087,-2.2031,-13.1326,-23.4734,14.6063,-18.8601,15.801,8.69024,-9.45923,6.98517,-6.93262e-15,2.46493e-14,-37.202,-7.38697,-79.5215,23.8759,5.93817,-18.4203,14.2664,7.12502,7.86469,-15.5673,-6.93262e-15,2.46493e-14,-40.8379,13.5464,82.8,27.4641,-4.78511,-8.82891,26.8161,7.12502,17.1111,56.0826,-6.16976,2.31044,23.7893,30.0707,-18.8859,-5.75488,-3.64272,-5.96013,-1.00669,-17.8268,28.2961,-17.3711,0.653204,-15.6251
-0.0720146,18.0305,-24.2257,-0.843842,2.09303,-1.69884,9.18103,-0.661347,-1.51823,-2.9321,-0.819975,3.24592,-8.2075,-0.225708,4.44175,-2.37865,-12.9556,-23.2956,14.9442,-18.5996,15.6745,8.74745,-9.32928,6.95588,-1.12562e-14,1.90833e-14,-37.0671,-7.64203,-79.3511,23.4958,6.38094,-18.7616,14.9218,7.12502,7.53528,-14.924,-1.12562e-14,1.90833e-14,-40.8209,13.3778,82.921,27.3655,-4.41918,-9.42397,25.7491,7.12502,16.5383,55.0643,-6.22553,2.22747,23.6653,30.0775,-18.8937,-5.48523,-2.82778,-6.03376,-1.02422,-17.9291,28.3785,-17.4159,0.734097,-15.3909
-0.075903,18.0282,-24.23,-0.891384,2.02764,-1.88122,9.2068,-0.644661,-1.36709,-2.90271,-0.773442,3.31914,-8.19576,-0.209212,4.42679,-2.63309,-12.8668,-23.0249,15.2814,-18.4121,15.3438,8.80386,-9.2357,6.82104,1.44119e-15,-2.38542e-15,-36.7818,-8.20854,-79.0147,23.0792,7.29929,-19.108,15.0599,7.12502,7.20091,-14.7976,1.44119e-15,-2.38542e-15,-40.7544,13.3447,82.9842,27.3853,-4.7481,-9.24209,24.8535,7.12502,16.7134,54.154,-6.20746,2.34117,23.8964,30.0916,-18.9693,-5.34122,-2.41609,-6.03953,-1.07563,-17.7177,28.4749,-17.4403,0.798514,-15.131
-0.0842355,18.0249,-24.232,-1.01744,1.96908,-2.1214,9.35307,-0.62566,-1.16732,-2.91248,-0.717583,3.37399,-8.29772,-0.188405,4.36761,-3.10486,-12.7956,-22.6959,15.9201,-18.221,14.8975,8.98472,-9.13663,6.62553,1.10822e-14,-3.65764e-14,-36.6993,-8.74102,-78.7239,22.7716,8.07072,-19.3496,15.0482,7.12502,6.96771,-14.8171,1.10822e-14,-3.65764e-14,-40.7922,13.253,82.9704,27.414,-5.08092,-8.86203,24.7095,7.12502,17.0792,53.9788,-6.10984,2.52807,24.2498,30.1187,-19.0305,-5.4302,-2.73431,-5.9768,-1.12091,-17.4126,28.5817,-17.4882,0.848776,-15.1622
-0.0894526,18.023,-24.235,-1.07814,1.93082,-2.1504,9.42215,-0.605371,-1.13444,-2.83317,-0.687536,3.37277,-8.25489,-0.177257,4.34232,-3.91803,-12.7065,-22.4145,16.5677,-17.9649,14.6376,9.24491,-8.98201,6.49417,-3.77691e-15,1.66979e-14,-36.4988,-8.8484,-78.7045,22.5409,7.93637,-19.1317,15.5001,7.12502,7.17806,-14.3582,-3.77691e-15,1.66979e-14,-40.5456,13.2511,82.9901,27.3258,-5.61013,-8.28343,25.2866,7.12502,17.6361,54.5067,-6.08901,2.54694,24.3158,30.1587,-19.0504,-5.45902,-3.1149,-5.98269,-1.15139,-17.3637,28.6913,-17.5429,0.918362,-15.2922
-0.0885113,18.021,-24.2406,-1.09789,1.82171,-2.05844,9.64454,-0.599036,-1.1731,-2.78389,-0.684131,3.36775,-8.33079,-0.172774,4.36337,-4.80869,-12.587,-22.1453,17.1623,-17.638,14.357,9.48993,-8.79327,6.36652,5.39203e-15,-4.77083e-15,-36.3565,-8.47654,-78.8683,22.6399,7.46528,-18.8558,15.7308,7.12502,7.4443,-14.1182,5.39203e-15,-4.77083e-15,-40.3463,13.4056,83.0108,27.2775,-6.17013,-7.96401,25.3949,7.12502,17.9435,54.5871,-6.13955,2.42711,24.1676,30.2314,-18.9938,-5.27544,-2.92902,-6.00273,-1.18904,-17.4985,28.771,-17.5261,1.06862,-15.1033
-0.0889577,18.0187,-24.2494,-1.10953,1.67434,-2.02906,9.4881,-0.55794,-1.19159,-2.52024,-0.635461,3.39901,-7.95893,-0.15776,4.38733,-5.52228,-12.5066,-21.8614,17.532,-17.3826,14.0899,9.64244,-8.64338,6.23788,7.8023e-15,-4.21423e-14,-35.9642,-8.13129,-79.0669,22.9915,7.04264,-18.7649,15.3029,7.12502,7.53212,-14.543,7.8023e-15,-4.21423e-14,-39.7518,13.4342,83.2845,27.1218,-5.88659,-8.6851,24.7599,7.12502,17.2495,54.0144,-6.23446,2.42842,24.1057,30.3482,-18.9632,-5.12768,-2.75194,-6.0264,-1.23137,-17.5596,28.8086,-17.443,1.24149,-15.032
-0.0908943,18.0153,-24.2586,-1.11663,1.61939,-2.01983,9.70439,-0.556497,-1.2213,-2.61469,-0.631191,3.43631,-8.18624,-0.147384,4.45256,-5.88348,-12.293,-21.5489,18.1398,-17.0091,13.6427,9.77215,-8.47185,6.08618,7.57867e-15,-8.74653e-15,-36.1585,-7.68814,-79.1815,23.3108,6.6643,-18.7054,15.0001,7.12502,7.58952,-14.8437,7.57867e-15,-8.74653e-15,-39.7995,13.4321,83.378,27.1164,-5.82296,-8.95001,24.4927,7.12502,16.9946,53.7692,-6.336,2.45222,24.0943,30.4864,-19.0328,-5.04671,-2.87665,-6.0741,-1.29483,-17.5812,28.8331,-17.442,1.35507,-15.1337
-0.0919411,18.0114,-24.2663,-1.13633,1.61828,-1.92036,9.51066,-0.574138,-1.24626,-2.46349,-0.667031,3.37447,-7.90779,-0.172923,4.39619,-6.35222,-12.0543,-21.3,18.6443,-16.6385,13.557,9.93101,-8.27366,6.06789,1.83876e-15,-3.4191e-14,-35.8858,-7.63955,-79.3265,23.3281,6.68235,-18.7966,15.2714,7.12502,7.5015,-14.5756,1.83876e-15,-3.4191e-14,-39.5677,13.5614,83.293,27.1841,-6.58444,-8.27343,24.6344,7.12502,17.6457,53.8536,-6.41874,2.39238,23.98,30.6352,-19.1071,-5.01737,-3.19189,-6.08502,-1.34461,-17.7044,28.8554,-17.536,1.42738,-15.2978
-0.0970907,18.009,-24.2775,-1.14988,1.66591,-1.79232,9.85796,-0.611764,-1.38587,-2.65118,-0.732367,3.34736,-8.30511,-0.188055,4.47298,-6.87102,-11.7742,-21.2614,19.6231,-16.2199,13.4433,10.28,-8.07344,6.0851,7.1314e-15,-3.73715e-14,-36.089,-7.55927,-79.3141,23.3431,6.79449,-18.8176,15.4318,7.12502,7.48119,-14.4159,7.1314e-15,-3.73715e-14,-39.8997,13.643,83.1557,27.2406,-7.13839,-7.83597,24.733,7.12502,18.0667,53.9139,-6.51691,2.38891,23.8578,30.792,-19.1748,-5.04164,-3.17999,-6.10627,-1.37328,-17.8357,28.8645,-17.5437,1.43029,-15.706
-0.102481,18.0059,-24.2853,-1.20252,1.67461,-1.64378,9.62789,-0.594603,-1.56738,-2.44197,-0.737001,3.35113,-7.94354,-0.191657,4.56825,-7.34644,-11.5991,-21.1451,19.9945,-15.903,13.3582,10.4217,-7.90808,6.07693,-4.32357e-15,1.11319e-14,-35.7645,-7.55593,-79.3111,23.4851,6.62397,-18.7381,15.1632,7.12502,7.55794,-14.6817,-4.32357e-15,1.11319e-14,-39.492,13.6866,83.3299,27.106,-7.4261,-7.94488,24.4164,7.12502,17.9619,53.607,-6.55985,2.42348,23.7181,30.9402,-19.2208,-5.02649,-2.93587,-6.0763,-1.46571,-17.9996,28.8681,-17.4723,1.50356,-15.8758
-0.109287,18.001,-24.2843,-1.32176,1.73,-1.52499,9.46974,-0.61295,-1.77699,-2.32489,-0.785617,3.41108,-7.719,-0.210395,4.75187,-7.53392,-11.2862,-20.8752,20.2273,-15.404,13.0536,10.39,-7.67895,6.01004,1.47101e-14,-3.18055e-15,-35.6862,-7.18905,-79.3384,23.7239,6.28708,-18.7036,14.5811,7.12502,7.59126,-15.2626,1.47101e-14,-3.18055e-15,-39.387,13.824,83.4548,26.9831,-7.73275,-8.19948,23.7771,7.12502,17.7169,52.9899,-6.48534,2.40753,23.6364,31.0677,-19.2231,-5.13304,-3.11137,-5.94485,-1.56933,-18.1213,28.8668,-17.4488,1.56159,-15.9695
-0.121144,17.9966,-24.2831,-1.4171,2.02621,-1.52959,9.38683,-0.710879,-1.86069,-2.16455,-0.925468,3.47071,-7.48378,-0.281249,4.87799,-8.33956,-11.0305,-20.4998,20.784,-14.91,12.7416,10.5876,-7.42168,5.89802,-3.35449e-15,9.54166e-15,-35.3886,-7.06716,-79.3808,23.8557,6.1485,-18.6003,14.1684,7.12502,7.69098,-15.6718,-3.35449e-15,9.54166e-15,-39.1279,13.947,83.5502,26.8761,-8.02495,-8.07109,23.5953,7.12502,17.8404,52.7969,-6.38704,2.31497,23.7305,31.167,-19.2987,-5.36534,-2.91272,-5.86395,-1.65386,-18.0489,28.8487,-17.4553,1.35539,-15.9555
-0.126472,17.9929,-24.28,-1.5361,2.18188,-1.51158,9.20257,-0.721249,-1.81808,-1.79023,-0.942808,3.43679,-6.97643,-0.309694,4.8028,-9.53925,-10.9467,-20.17,21.3498,-14.6429,12.6793,10.9391,-7.23306,5.82929,-1.10822e-14,1.03368e-14,-34.6727,-7.43415,-79.4017,23.8632,6.21565,-18.4687,14.391,7.12502,7.81798,-15.4444,-1.10822e-14,1.03368e-14,-38.3618,13.9652,83.7145,26.716,-8.28411,-7.41545,23.6439,7.12502,18.4712,52.7869,-6.25964,2.20506,23.7503,31.2397,-19.3877,-5.42989,-2.60697,-5.7253,-1.68941,-18.033,28.8358,-17.5153,1.20076,-15.7526
-0.12576,17.9879,-24.2683,-1.75418,2.02318,-1.39287,9.02287,-0.646701,-1.8671,-1.40176,-0.857734,3.39867,-6.46802,-0.283859,4.76148,-10.4288,-10.8131,-19.9069,21.7979,-14.3381,12.5786,11.1874,-7.04879,5.77824,9.44848e-15,-2.94201e-14,-34.0651,-7.70131,-79.3933,23.8548,6.35259,-18.3591,14.5435,7.12502,7.92375,-15.288,9.44848e-15,-2.94201e-14,-37.6848,13.9556,83.9085,26.5784,-8.41592,-7.81912,23.3538,7.12502,18.0829,52.5333,-6.01537,2.22992,23.6276,31.3114,-19.471,-5.38056,-3.00814,-5.40786,-1.62086,-18.1772,28.839,-17.6389,1.26774,-15.9447
-0.126068,17.9835,-24.2636,-1.92099,1.75443,-1.3881,9.058,-0.574029,-1.83229,-1.23783,-0.758897,3.40946,-6.32383,-0.241787,4.73585,-11.0627,-10.5877,-19.6335,22.394,-13.9338,12.3243,11.4128,-6.8475,5.70186,9.8212e-15,-3.18055e-14,-33.9075,-7.77574,-79.391,23.946,6.48779,-18.4086,14.3603,7.12502,7.87595,-15.473,9.8212e-15,-3.18055e-14,-37.4114,13.7833,84.1413,26.7864,-8.00002,-7.23324,23.7921,7.12502,18.6465,52.9184,-5.86893,2.35498,23.6314,31.4215,-19.5819,-5.24712,-3.45825,-5.15453,-1.52525,-18.1942,28.8251,-17.7,1.38556,-15.9674
-0.123694,17.9813,-24.273,-1.94002,1.38111,-1.387,9.21627,-0.439151,-1.7238,-1.2528,-0.568633,3.36956,-6.44914,-0.149938,4.60871,-11.604,-10.3817,-19.315,23.069,-13.5908,12.0489,11.661,-6.67866,5.60541,-1.52319e-14,3.10104e-14,-33.9904,-7.96448,-79.3817,24.0783,6.64655,-18.6209,14.4522,7.12502,7.67111,-15.3887,-1.52319e-14,3.10104e-14,-37.3358,13.6947,84.1683,27.2308,-8.08368,-5.85242,25.7235,7.12502,19.9742,54.7169,-5.97255,2.38749,23.5669,31.539,-19.5461,-4.87786,-3.53636,-5.10868,-1.44156,-18.2444,28.8223,-17.6608,1.64409,-15.6503
-0.122133,17.9794,-24.2825,-1.92668,1.19744,-1.10052,9.33973,-0.33728,-1.93086,-1.30103,-0.46302,3.25902,-6.57994,-0.0890782,4.59774,-11.9483,-10.0868,-19.0236,23.5656,-13.1554,11.8541,11.7978,-6.46974,5.56614,-7.79609e-15,-2.94201e-14,-34.1017,-8.09916,-79.3729,24.2674,6.62791,-18.7099,14.7864,7.12502,7.58517,-15.0575,-7.79609e-15,-2.94201e-14,-37.3791,14.2522,83.6122,27.322,-10.2645,-3.20867,28.2163,7.12502,22.5137,56.9238,-6.09242,2.21404,23.1572,31.6431,-19.4841,-4.50868,-3.22612,-5.13292,-1.38258,-18.6156,28.8375,-17.5939,1.82052,-15.6781
-0.133407,17.9767,-24.2839,-2.02679,1.17086,-1.09941,9.47102,-0.341178,-2.09232,-1.46857,-0.480789,3.326,-6.83052,-0.0821333,4.77117,-11.5042,-9.56295,-18.9268,23.8368,-12.5045,11.767,11.6773,-6.19969,5.66254,1.44119e-14,-4.45278e-14,-34.5041,-7.9009,-79.3302,24.4562,6.49797,-18.79,15.1843,7.12502,7.50784,-14.6624,1.44119e-14,-4.45278e-14,-37.7784,13.0635,84.3957,27.7262,-7.3247,-6.25502,27.9564,7.12502,19.5872,56.9897,-6.02209,2.37227,23.2376,31.7287,-19.5218,-4.6453,-2.85963,-5.05865,-1.2645,-18.5546,28.8599,-17.5636,1.72352,-15.9117
-0.145339,17.9731,-24.2818,-2.15027,1.3811,-1.19736,9.46991,-0.489717,-2.20358,-1.82448,-0.677945,3.46247,-7.18869,-0.157243,5.01998,-10.1758,-8.86197,-18.9781,23.9624,-11.7384,11.7299,11.3187,-5.91642,5.84276,1.73937e-16,1.98785e-14,-35.3686,-7.20419,-79.3576,24.7407,6.15217,-18.8685,15.2966,7.12502,7.43205,-14.5528,1.73937e-16,1.98785e-14,-38.8074,12.7487,84.5327,28.1193,-6.23658,-7.21217,27.0676,7.12502,18.6668,56.192,-5.88526,2.39943,23.4445,31.8099,-19.6512,-4.90129,-2.78658,-4.9597,-1.21932,-18.3584,28.8724,-17.576,1.45731,-16.1158
-0.157429,17.9685,-24.2798,-2.23439,1.80925,-1.13444,9.43643,-0.535855,-2.12467,-1.39682,-0.745506,3.33103,-6.70777,-0.214795,4.83179,-12.0945,-8.94995,-18.4204,24.7649,-11.6434,11.5628,11.94,-5.77905,5.66678,-3.39176e-15,-1.51076e-14,-34.5878,-7.42464,-79.662,24.992,5.88657,-18.8013,15.1108,7.12502,7.49694,-14.7364,-3.39176e-15,-1.51076e-14,-37.7914,12.3548,84.7943,28.1899,-6.0559,-7.03514,27.574,7.12502,18.837,56.6819,-5.76443,2.25001,23.4635,31.8746,-19.8533,-5.18998,-2.70971,-4.92872,-1.27252,-18.3376,28.9078,-17.6088,1.0926,-16.1009
-0.164861,17.9645,-24.2815,-2.28323,2.02075,-0.988508,9.50469,-0.625033,-2.24782,-1.44217,-0.882065,3.28804,-6.78047,-0.275629,4.87966,-12.2957,-8.63285,-18.1869,25.1953,-11.1839,11.3779,12.0342,-5.5701,5.64638,-2.45996e-15,-7.95139e-16,-34.7359,-7.12083,-79.808,25.2168,5.77347,-18.8343,15.1778,7.12502,7.46513,-14.6705,-2.45996e-15,-7.95139e-16,-37.8335,12.2335,84.8506,28.2635,-5.9132,-6.91584,28.5293,7.12502,18.9518,57.6261,-5.74324,2.13108,23.3415,31.9665,-19.966,-5.25214,-2.64402,-4.90718,-1.33685,-18.4485,28.9382,-17.6288,0.900403,-15.6963
-0.167942,17.9625,-24.282,-2.28665,1.92944,-0.907338,9.48776,-0.525437,-2.12814,-1.16705,-0.747585,3.14675,-6.49407,-0.227861,4.63295,-13.5495,-8.65604,-17.775,25.8079,-11.0668,11.1361,12.4654,-5.46798,5.4883,1.39274e-14,-7.15625e-15,-34.1599,-7.39985,-80.0118,25.2563,5.76617,-18.9848,15.2013,7.12502,7.31984,-14.6521,1.39274e-14,-7.15625e-15,-37.0765,11.756,85.0979,28.1611,-5.46636,-7.35304,28.3739,7.12502,18.5312,57.5112,-5.81433,2.14385,23.2548,32.0806,-20.0234,-5.18823,-3.0254,-4.89165,-1.3088,-18.5225,28.96,-17.7018,0.898363,-15.5509
-0.171169,17.9592,-24.2865,-2.24683,1.769,-0.788976,9.49808,-0.513763,-2.25341,-1.50751,-0.743348,3.1341,-6.86164,-0.20766,4.69909,-12.3842,-8.14122,-17.8023,25.8414,-10.5027,11.0545,12.134,-5.27016,5.59522,2.64135e-14,-1.59028e-14,-34.9094,-6.86346,-80.1024,25.4951,5.53614,-19.1285,15.4208,7.12502,7.18107,-14.4374,2.64135e-14,-1.59028e-14,-37.9484,11.5197,85.1021,28.319,-4.67078,-8.36745,26.6942,7.12502,17.5553,55.9216,-5.95798,2.13087,23.1,32.1941,-19.9882,-5.031,-3.09765,-4.92956,-1.20441,-18.6474,28.9868,-17.7569,0.968136,-15.7224
-0.174818,17.9561,-24.2935,-2.26776,1.60225,-0.760198,9.63683,-0.535363,-2.27667,-1.57834,-0.772764,3.17172,-7.01318,-0.215635,4.76272,-12.3034,-7.82423,-17.7197,26.023,-10.0157,10.8062,12.0818,-5.07694,5.5758,-2.22639e-14,8.74653e-15,-34.9349,-6.33843,-80.269,25.5298,5.31274,-19.3087,15.9262,7.12502,7.00721,-13.9379,-2.22639e-14,8.74653e-15,-38.1858,11.7454,85.0015,28.3985,-4.72832,-8.50603,25.667,7.12502,17.4219,54.9063,-6.04683,2.09867,23.0399,32.2988,-19.8597,-4.81407,-2.51026,-4.9275,-1.07731,-18.6717,29.0236,-17.7147,1.03848,-15.6717
-0.179119,17.9533,-24.2929,-2.34097,1.47878,-0.817247,9.69996,-0.533873,-2.17209,-1.46184,-0.757697,3.20597,-6.92716,-0.215517,4.73604,-12.8946,-7.69065,-17.6549,26.3934,-9.70819,10.6504,12.2826,-4.93739,5.55509,-6.06293e-15,3.81667e-14,-34.638,-6.0067,-80.4412,25.5871,5.0332,-19.4315,16.2171,7.12502,6.88862,-13.6508,-6.06293e-15,3.81667e-14,-37.9985,11.8135,85.0306,28.5386,-4.92769,-7.84769,27.3507,7.12502,18.0554,56.5327,-6.03442,2.14841,23.1139,32.403,-19.8972,-4.72658,-2.54398,-4.87797,-0.941928,-18.5865,29.0783,-17.7133,1.03162,-15.6702
-0.186127,17.9485,-24.2895,-2.37944,1.41311,-0.768705,9.74791,-0.482344,-2.19384,-1.43762,-0.693977,3.17869,-6.93502,-0.184138,4.71024,-13.3531,-7.53222,-17.5446,26.7727,-9.4408,10.6267,12.4726,-4.80235,5.57807,-1.80894e-14,7.15625e-15,-34.6744,-5.85785,-80.5479,25.7692,4.85036,-19.527,16.6623,7.12502,6.7964,-13.2086,-1.80894e-14,7.15625e-15,-37.9258,11.5547,85.1776,28.686,-4.71947,-7.54826,30.824,7.12502,18.3435,59.9791,-6.02881,2.21039,23.0931,32.4821,-20.0035,-4.72421,-2.92158,-4.8644,-0.85749,-18.6092,29.1606,-17.7834,1.02043,-15.889
-0.197806,17.9468,-24.2896,-2.33441,1.60501,-0.730834,9.85452,-0.520008,-2.18842,-1.52735,-0.74821,3.10642,-7.08722,-0.207669,4.64339,-13.6008,-7.36525,-17.2664,27.0617,-9.20869,10.5043,12.5743,-4.68254,5.52871,-6.32384e-15,1.90833e-14,-34.824,-5.95636,-80.641,25.8483,5.01047,-19.6213,16.8912,7.12502,6.70538,-12.9827,-6.32384e-15,1.90833e-14,-37.8756,11.4556,85.1018,28.6365,-4.85623,-4.49305,32.4138,7.12502,21.2804,61.2655,-6.10917,2.17576,23.1225,32.5787,-20.0827,-4.92722,-2.90834,-4.9691,-0.938168,-18.5821,29.2557,-17.8479,0.84763,-15.7789
-0.209881,17.9463,-24.2848,-2.32146,2.12921,-0.841219,9.39448,-0.665626,-2.1602,-1.21601,-0.932393,3.22533,-6.47373,-0.315817,4.76063,-13.8377,-7.32024,-17.1892,26.8552,-9.04008,10.3118,12.4965,-4.60867,5.45481,-1.22066e-14,-2.54444e-14,-34.2711,-6.20854,-80.5033,25.7981,5.35877,-19.6264,17.0866,7.12502,6.70049,-12.7874,-1.22066e-14,-2.54444e-14,-37.2209,11.5948,85.3463,28.5226,-4.67453,-7.06658,31.7231,7.12502,18.8068,60.834,-6.11295,1.97242,23.3421,32.701,-20.2518,-5.25337,-2.66784,-5.04673,-1.14712,-18.3651,29.2979,-17.894,0.481715,-15.6763
-0.20903,17.9425,-24.29,-2.26179,1.79009,-0.800298,9.48605,-0.550084,-2.12556,-1.20731,-0.77295,3.25096,-6.53247,-0.236866,4.74733,-14.1361,-7.1999,-17.1139,26.9523,-8.75151,10.041,12.5302,-4.49609,5.38087,-4.78326e-15,-3.18055e-15,-34.2109,-6.22633,-80.4244,25.835,5.50297,-19.6972,17.635,7.12502,6.63212,-12.2412,-4.78326e-15,-3.18055e-15,-37.1272,11.6274,85.4781,28.5807,-4.21954,-9.08932,26.073,7.12502,16.8605,55.361,-6.2822,1.96703,23.2297,32.8149,-20.173,-4.90435,-2.6083,-5.11997,-0.974647,-18.4476,29.3331,-17.8943,0.723944,-15.8483
-0.218125,17.9394,-24.2798,-2.11744,2.38537,-0.39549,9.36544,-0.705405,-2.49194,-1.27415,-1.02995,3.12354,-6.50592,-0.35194,4.8563,-14.4799,-7.10229,-17.0435,27.2954,-8.53919,9.88212,12.6927,-4.4102,5.34827,-1.07406e-14,3.49861e-14,-34.2553,-6.16285,-80.484,25.8601,5.42601,-19.8554,17.9636,7.12502,6.47938,-11.9173,-1.07406e-14,3.49861e-14,-37.1414,11.4893,85.5002,28.7056,-4.07855,-8.5538,28.0074,7.12502,17.3759,57.2507,-6.38064,1.51404,22.7928,32.9192,-20.3805,-5.00536,-2.57395,-5.29096,-1.17435,-18.8459,29.334,-17.8352,0.388613,-15.7917
-0.229354,17.9318,-24.2741,-2.39051,2.36247,-0.443303,9.62239,-0.637995,-2.44147,-1.3491,-0.939231,3.0709,-6.74294,-0.303168,4.76773,-14.1814,-6.9508,-16.9235,27.6188,-8.40046,9.79314,12.7266,-4.36233,5.33392,-1.3977e-14,2.3059e-14,-34.6767,-6.08741,-80.5999,26.0336,5.25534,-19.9438,17.9734,7.12502,6.39409,-11.91,-1.3977e-14,2.3059e-14,-37.4514,11.1353,85.4398,28.9423,-4.31398,-7.92432,29.6442,7.12502,17.9817,58.833,-6.13231,1.60919,22.9193,33.0257,-20.5224,-5.06975,-2.4017,-4.99634,-1.14964,-18.7472,29.3395,-17.8521,0.360832,-15.8607
-0.236034,17.9261,-24.2749,-2.51324,2.36644,-0.375926,9.8197,-0.573301,-2.32564,-0.830313,-0.852744,2.97341,-6.31493,-0.284994,4.5773,-16.4279,-7.17053,-16.6096,28.3788,-8.40381,9.63057,13.4921,-4.3029,5.20495,-1.31446e-14,1.98785e-14,-33.6672,-6.26114,-80.8667,26.1332,5.16092,-19.9768,17.788,7.12502,6.36222,-12.0965,-1.31446e-14,1.98785e-14,-36.1697,11.2254,85.5344,28.9191,-5.09586,-13.9818,14.8781,7.12502,12.1466,44.5055,-6.05211,1.53131,22.8515,33.0993,-20.5136,-4.98431,-2.38911,-4.85227,-1.09792,-18.7969,29.3211,-17.9025,0.326751,-16.0811
-0.245781,17.9231,-24.2804,-2.53458,2.48013,-0.329121,9.91226,-0.61009,-2.49006,-1.27138,-0.916076,3.00772,-6.8281,-0.290299,4.731,-14.5189,-6.68494,-16.5369,27.9995,-8.00505,9.55291,12.8523,-4.17296,5.24909,-3.52843e-15,-2.38542e-15,-34.7742,-5.76004,-80.8711,26.4221,4.91143,-19.9814,17.5304,7.12502,6.35777,-12.3542,-3.52843e-15,-2.38542e-15,-37.3133,11.2559,85.3438,29.3263,-5.37506,-6.71859,28.0109,7.12502,19.1415,57.0889,-6.09339,1.43972,22.8352,33.1875,-20.575,-5.01658,-2.41558,-4.86227,-1.14794,-18.8056,29.355,-17.9335,0.246583,-16.0063
-0.268179,17.917,-24.266,-2.73456,3.03088,-0.245403,9.96739,-0.680542,-2.68698,-1.04321,-1.04,2.96498,-6.60173,-0.353978,4.81234,-14.7585,-6.78165,-16.1548,27.8551,-8.11049,9.26313,12.8257,-4.20285,5.039,-3.42531e-14,3.57812e-14,-34.493,-5.87501,-80.9569,26.4235,4.77714,-20.0324,17.5462,7.12502,6.30854,-12.3398,-3.42531e-14,3.57812e-14,-37.0815,10.8267,85.5266,29.6379,-5.10431,-6.79709,27.2305,7.12502,19.066,56.316,-5.80521,1.3277,22.9052,33.3182,-20.9382,-5.42528,-2.18772,-4.65987,-1.30037,-18.7622,29.3974,-18.0112,-0.178856,-15.9327
-0.27032,17.9111,-24.2645,-2.68486,2.56531,-0.0270068,9.97156,-0.479551,-2.77919,-0.963965,-0.792571,2.82758,-6.54567,-0.234442,4.67904,-15.1452,-6.78545,-16.0228,27.9712,-8.09688,9.27481,12.9451,-4.17326,5.02169,-5.16219e-15,-6.36111e-15,-34.3084,-5.99873,-81.0757,26.3863,4.80131,-20.1626,17.7757,7.12502,6.18282,-12.1141,-5.16219e-15,-6.36111e-15,-36.8165,10.4012,85.6476,29.5578,-4.3754,-7.50228,26.6813,7.12502,18.3877,55.8322,-5.96868,1.42778,22.6033,33.4596,-20.9556,-5.01562,-2.0443,-4.69005,-1.09532,-19.0378,29.4688,-18.0982,0.174462,-16.2235
-0.273346,17.9048,-24.272,-2.64997,2.12614,0.00586756,10.2359,-0.321998,-2.68735,-1.01616,-0.579252,2.75741,-6.77452,-0.127966,4.52657,-15.8375,-6.68283,-16.0444,28.5534,-7.89764,9.40136,13.3082,-4.06677,5.12424,8.99811e-15,7.95139e-15,-34.3264,-6.12199,-81.1194,26.4305,4.93809,-20.1244,18.1482,7.12502,6.21973,-11.7405,8.99811e-15,7.95139e-15,-36.8286,10.1896,85.6607,29.5893,-3.45359,-12.3607,61.3722,7.12502,13.7094,-90.9006,-6.18105,1.51105,22.5136,33.6312,-20.9234,-4.63311,-1.86075,-4.77862,-0.905896,-19.1001,29.5866,-18.1697,0.498897,-16.5368
-0.298062,17.901,-24.2641,-2.59998,3.02291,-0.170732,10.3644,-0.574588,-2.59511,-1.15424,-0.903169,2.79361,-6.96378,-0.282793,4.57025,-16.2077,-6.5995,-15.8205,29.0157,-7.72843,9.15446,13.5315,-3.99878,5.02757,2.29224e-15,-2.06736e-14,-34.576,-6.32994,-81.0452,26.5185,5.11096,-19.8736,18.6406,7.12502,6.46189,-11.2408,2.29224e-15,-2.06736e-14,-36.9523,10.1023,85.6008,29.5282,-3.16488,-8.90282,24.9924,7.12502,17.04,54.2651,-6.18328,1.2084,22.8886,33.7642,-21.1705,-5.23168,-2.06364,-4.99458,-1.1867,-18.726,29.7222,-18.1613,-0.136998,-16.5699
-0.305785,17.8952,-24.2874,-2.63429,2.58821,-0.205527,11.0195,-0.353932,-2.46812,-1.42215,-0.60417,2.71362,-7.65637,-0.122577,4.38665,-15.9643,-6.49803,-15.5353,29.1044,-7.64606,8.94715,13.4778,-3.96477,4.91512,2.98177e-15,-2.06736e-14,-35.0626,-6.57968,-81.0067,26.5483,5.27901,-19.7793,18.9959,7.12502,6.55289,-10.8827,2.98177e-15,-2.06736e-14,-37.3573,9.93302,85.4534,29.6824,-3.33888,-9.21614,23.994,7.12502,16.7384,53.2924,-6.38933,1.29658,22.9012,33.925,-20.9836,-4.95147,-2.66938,-5.08597,-1.01177,-18.6854,29.8653,-18.1104,0.0925135,-16.4022
-0.335995,17.8921,-24.2768,-2.7054,3.54408,-0.173656,10.4925,-0.585008,-2.71215,-0.992388,-0.938305,2.74561,-6.85966,-0.301624,4.59098,-16.0282,-6.49617,-15.6232,28.6506,-7.65624,9.20775,13.317,-3.93412,5.01799,-1.02444e-14,-5.56597e-15,-34.4901,-6.67216,-81.1012,26.5412,5.09604,-19.8283,19.0357,7.12502,6.5056,-10.8443,-1.02444e-14,-5.56597e-15,-36.6705,9.87509,85.6092,29.7648,-3.44544,-9.14618,24.3108,7.12502,16.8057,53.6035,-6.24183,0.790045,23.0251,34.0289,-21.2028,-5.41691,-2.6131,-5.13476,-1.26396,-18.5173,29.9863,-18.1745,-0.730892,-15.7489
-0.335764,17.8893,-24.2837,-2.62417,3.21214,0.114919,10.2923,-0.455193,-2.88724,-0.842029,-0.790523,2.65948,-6.59923,-0.233387,4.56669,-16.035,-6.39747,-15.7941,28.4947,-7.51987,9.44141,13.2499,-3.8602,5.16199,-8.10358e-15,6.36111e-15,-34.2619,-6.31576,-81.3,26.6021,4.72541,-19.8669,18.8607,7.12502,6.46827,-11.0206,-8.10358e-15,6.36111e-15,-36.3752,9.89108,85.7083,29.8917,-3.35579,-12.6109,60.6044,7.12502,13.4683,-90.1489,-6.47648,0.637675,22.5889,34.1779,-21.1174,-4.95938,-2.73677,-5.25116,-1.15977,-18.8886,30.0823,-18.2106,-0.454065,-15.4133
-0.34008,17.8828,-24.2767,-2.68246,2.83736,0.195493,10.2093,-0.348839,-2.99561,-0.963608,-0.657324,2.7002,-6.69364,-0.15881,4.65194,-15.2513,-6.14265,-15.9845,28.4032,-7.23082,9.48708,13.0096,-3.76598,5.27022,9.75287e-16,6.36111e-15,-34.6698,-5.88963,-81.3116,26.5876,4.62538,-19.9227,18.8982,7.12502,6.41446,-10.9847,9.75287e-16,6.36111e-15,-36.8272,9.87436,85.8002,30.1396,-3.11695,-8.70383,26.3087,7.12502,17.2315,55.5648,-6.47519,0.69212,22.4632,34.2738,-21.0842,-4.69264,-3.22063,-5.13653,-0.964537,-18.9818,30.1255,-18.314,-0.247032,-15.558
-0.348036,17.8755,-24.2584,-2.8217,2.72825,0.221493,10.2208,-0.302637,-2.96565,-0.798622,-0.59354,2.6911,-6.53135,-0.135648,4.61201,-15.7039,-6.204,-16.0425,28.6401,-7.21424,9.41029,13.2026,-3.7682,5.25577,-7.32397e-15,0,-34.4651,-5.93492,-81.3146,26.476,4.79715,-19.8832,18.9603,7.12502,6.45261,-10.9214,-7.32397e-15,0,-36.6523,9.7641,85.9,30.2444,-2.83614,-12.6822,59.1862,7.12502,13.3995,88.7353,-6.30291,0.644807,22.4395,34.3743,-21.1172,-4.55029,-3.81065,-4.91922,-0.887086,-18.9703,30.191,-18.4373,-0.310235,-15.2676
-0.360341,17.8696,-24.25,-2.86625,2.94478,0.391054,10.2093,-0.383258,-3.11174,-0.721817,-0.721706,2.65467,-6.42902,-0.198133,4.67441,-15.7,-6.21933,-16.2123,28.6797,-7.18337,9.3964,13.2225,-3.77591,5.28599,2.89946e-15,-3.18055e-15,-34.3843,-5.90033,-81.3125,26.4086,5.0049,-19.7967,18.9702,7.12502,6.53606,-10.9089,2.89946e-15,-3.18055e-15,-36.692,9.78802,85.8841,30.411,-2.69008,-8.75921,26.4239,7.12502,17.1782,55.6846,-6.23224,0.478038,22.2671,34.4308,-21.1651,-4.50482,-3.96361,-4.88306,-1.02077,-19.1164,30.2711,-18.4722,-0.413762,-15.1459
-0.374877,17.8651,-24.2533,-2.78783,3.14052,0.397971,10.1252,-0.411865,-3.14762,-0.702152,-0.760158,2.69219,-6.35567,-0.217358,4.73823,-15.5116,-6.18061,-16.3891,28.5885,-7.12381,9.47297,13.1469,-3.76164,5.35665,1.96921e-15,7.95139e-16,-34.325,-5.85621,-81.2524,26.2419,5.07116,-19.9916,19.1373,7.12502,6.34791,-10.7476,1.96921e-15,7.95139e-16,-36.6198,9.83192,85.9439,30.4823,-2.76375,-8.83755,25.764,7.12502,17.1028,55.0312,-6.35155,0.445518,22.2935,34.4622,-21.1762,-4.46728,-3.34909,-5.04126,-1.22553,-19.0911,30.3448,-18.443,-0.386734,-15.5312
-0.388116,17.861,-24.2548,-2.75743,3.26094,0.378539,10.0952,-0.369114,-3.14661,-0.656622,-0.700417,2.72441,-6.29624,-0.189749,4.76125,-15.4488,-6.16152,-16.4497,28.5597,-7.09135,9.49371,13.1202,-3.75151,5.38085,7.45443e-15,-1.51076e-14,-34.2596,-5.81628,-81.2104,26.073,4.9417,-20.2905,19.2224,7.12502,6.0594,-10.671,7.45443e-15,-1.51076e-14,-36.3641,9.94282,85.9979,30.37,-2.88746,-8.70204,25.3849,7.12502,17.2332,54.6408,-6.38569,0.397007,22.3351,34.4635,-21.1959,-4.36147,-2.86788,-5.15001,-1.47452,-19.0573,30.4189,-18.4303,-0.248,-15.882
-0.405525,17.8566,-24.2466,-2.83951,3.6746,0.41907,10.1159,-0.419601,-3.23595,-0.603608,-0.77985,2.71484,-6.24247,-0.228346,4.81343,-15.3606,-6.13664,-16.3595,28.5528,-7.05841,9.37908,13.0841,-3.74238,5.32473,1.67787e-14,-2.54444e-14,-34.2691,-5.94766,-81.1492,25.8829,5.01613,-20.338,19.3476,7.12502,6.0135,-10.547,1.67787e-14,-2.54444e-14,-36.3048,9.93682,86.0118,30.3218,-2.51767,-9.55657,23.5304,7.12502,16.4106,52.8562,-6.21852,0.0959956,22.3327,34.4514,-21.3592,-4.37153,-2.75907,-5.15093,-1.84345,-19.0598,30.5482,-18.449,-0.286161,-16.1471
-0.429664,17.8523,-24.2231,-3.03221,4.41414,0.300238,10.2212,-0.608211,-3.19388,-0.598851,-1.02865,2.71346,-6.27099,-0.351476,4.82815,-15.1975,-6.07857,-16.2282,28.5254,-7.01826,9.31609,13.0218,-3.72101,5.28424,-3.85145e-15,1.35174e-14,-34.3512,-6.35143,-81.0475,25.507,5.51502,-20.3364,19.5643,7.12502,6.015,-10.3303,-3.85145e-15,1.35174e-14,-36.53,9.60483,86.0251,30.3971,-1.54363,-10.4996,22.6824,7.12502,15.5025,52.0809,-5.83383,-0.289067,22.5777,34.4095,-21.6564,-4.62616,-2.2868,-5.02759,-2.26581,-18.8233,30.7425,-18.565,-0.634984,-16.3718
-0.443095,17.8479,-24.2169,-3.10664,4.46866,0.0722433,10.4239,-0.573998,-2.86374,-0.654793,-0.947276,2.68734,-6.45897,-0.317187,4.60653,-15.0701,-6.05308,-16.1101,28.4689,-7.0302,9.30557,12.9663,-3.71616,5.25703,5.00068e-15,5.08889e-14,-34.5472,-6.72227,-80.9967,25.3841,5.89504,-20.3648,19.931,7.12502,5.98761,-9.96442,5.00068e-15,5.08889e-14,-36.6708,9.20766,86.0133,30.4541,-0.942727,-10.8271,22.58,7.12502,15.187,52.0027,-5.7084,-0.371957,22.8591,34.3597,-21.7668,-4.5036,-2.14411,-5.09265,-2.45371,-18.5526,31.0314,-18.7243,-0.555846,-16.3885
-0.463259,17.8412,-24.2138,-3.10637,4.82989,-0.164864,10.5922,-0.575834,-2.60194,-0.771084,-0.918917,2.67973,-6.68468,-0.305127,4.45209,-14.8737,-6.09461,-16.0103,28.5049,-7.14346,9.26782,12.9515,-3.76512,5.20901,4.94943e-15,-2.70347e-14,-34.9423,-6.90752,-80.9726,25.5434,5.7726,-20.2335,20.2605,7.12502,6.11437,-9.63129,4.94943e-15,-2.70347e-14,-36.7822,9.01044,85.903,30.576,-1.56209,-9.74145,24.3236,7.12502,16.2326,53.6641,-5.64518,-0.59691,23.2011,34.3013,-21.8816,-4.54923,-1.99974,-5.35192,-2.87677,-18.2355,31.4314,-18.8861,-0.568985,-16.2795
-0.484339,17.833,-24.2034,-3.14624,5.32222,-0.281193,10.7869,-0.618914,-2.50227,-0.842669,-0.966709,2.66407,-6.86871,-0.326936,4.39347,-14.8373,-6.1639,-15.9774,28.6552,-7.26342,9.25006,13.0234,-3.82061,5.18202,4.60039e-15,2.94201e-14,-35.1803,-6.96364,-80.9963,25.6131,5.4444,-20.0126,20.1334,7.12502,6.32767,-9.75206,4.60039e-15,2.94201e-14,-36.9323,9.04773,85.7349,31.0201,-2.74798,-9.78252,23.827,7.12502,16.1931,53.1706,-5.54295,-0.904601,23.4076,34.2747,-21.9871,-4.69154,-1.88175,-5.58674,-3.45258,-18.0722,31.952,-19.1365,-0.523762,-16.469
-0.500458,17.8231,-24.1932,-3.25052,5.52831,-0.456519,10.9584,-0.647474,-2.2895,-0.62651,-0.977376,2.70728,-6.73713,-0.345209,4.31961,-15.6009,-6.31512,-16.0301,28.8343,-7.33181,9.2048,13.2741,-3.8467,5.15779,2.63452e-14,-1.35174e-14,-34.8128,-6.66523,-81.2509,26.1602,4.80016,-19.5387,18.1698,7.12502,6.78515,-11.7015,2.63452e-14,-1.35174e-14,-36.5881,9.23527,85.7146,31.396,-3.36316,-7.33175,28.5297,7.12502,18.5517,57.665,-5.40011,-0.993922,23.665,34.2498,-22.0719,-4.84837,-2.36307,-5.79932,-3.88358,-17.8852,32.558,-19.317,-0.334059,-16.9612
-0.513168,17.8112,-24.1957,-3.32423,5.41647,-0.789132,11.1405,-0.602905,-1.95306,-0.66336,-0.866109,2.82552,-6.89279,-0.29649,4.24178,-15.282,-6.26839,-16.145,28.7271,-7.26376,9.16477,13.155,-3.83917,5.17253,1.74931e-14,-1.59028e-14,-35.0289,-5.65983,-81.7766,27.7059,2.93438,-18.1492,11.8536,7.12502,8.12635,-17.9701,1.74931e-14,-1.59028e-14,-36.6608,9.24393,85.7424,31.304,-2.97102,-9.07408,25.5728,7.12502,16.8751,54.8596,-5.37995,-0.904035,24.0697,34.2233,-22.0275,-4.84854,-2.51954,-6.15687,-4.1478,-17.5407,33.2298,-19.3117,-0.0136682,-17.4154
-0.525508,17.8016,-24.2005,-3.39161,5.22404,-1.06031,11.1639,-0.508011,-1.66015,-0.402644,-0.69652,2.93057,-6.64506,-0.230144,4.15314,-15.7904,-6.35395,-16.2488,28.7064,-7.26541,9.1684,13.2614,-3.83705,5.18413,1.37907e-15,6.36111e-15,-34.5903,-5.51816,-81.8025,27.4349,2.73028,-17.589,11.0154,7.12502,8.66695,-18.7866,1.37907e-15,6.36111e-15,-36.1482,9.13951,85.944,31.0584,-1.86431,-10.1228,24.1574,7.12502,15.8654,53.5274,-5.37273,-0.860632,24.3623,34.1912,-21.9474,-4.59541,-2.1176,-6.49659,-4.34714,-17.2714,33.9872,-19.3969,0.300518,-17.4782
-0.537878,17.7934,-24.1947,-3.45574,5.14686,-1.25407,11.0141,-0.419731,-1.46907,-0.175381,-0.552007,3.00579,-6.33197,-0.172914,4.09204,-15.9638,-6.41964,-16.3279,28.588,-7.30938,9.20596,13.2621,-3.85243,5.19838,6.95746e-15,1.90833e-14,-34.3218,-5.41574,-81.828,27.3233,2.31596,-17.3623,10.9562,7.12502,8.88575,-18.8367,6.95746e-15,1.90833e-14,-35.9361,9.02076,86.0886,31.1579,-1.22585,-10.3317,24.2619,7.12502,15.6642,53.6478,-5.29295,-0.901779,24.5762,34.1511,-21.9887,-4.30385,-1.99,-6.82257,-4.53941,-17.0733,34.8613,-19.5822,0.619494,-17.2135
-0.556487,17.782,-24.195,-3.49522,5.32765,-1.59459,11.1984,-0.423471,-1.21853,-0.30754,-0.512348,3.13916,-6.58092,-0.153222,4.09201,-15.4592,-6.34803,-16.3808,28.4556,-7.26904,9.20514,13.0957,-3.84918,5.21535,-8.88319e-15,2.8625e-14,-34.554,-5.44342,-81.7137,27.1224,2.26748,-17.5528,11.9566,7.12502,8.70193,-17.8441,-8.88319e-15,2.8625e-14,-36.3101,9.0796,86.0638,31.4751,-1.378,-10.2398,24.4227,7.12502,15.7528,53.8017,-5.27473,-0.963937,25.0386,34.1042,-22.1222,-4.315,-2.32429,-7.3799,-4.84953,-16.6529,35.8355,-19.5984,0.984146,-17.0155
-0.580085,17.7688,-24.2012,-3.55519,5.56366,-2.03182,11.5702,-0.468064,-0.885502,-0.408341,-0.510856,3.3003,-6.90065,-0.154294,4.08521,-15.192,-6.30767,-16.3449,28.3295,-7.22167,9.08621,12.9727,-3.84171,5.16727,-2.65005e-14,4.21423e-14,-34.621,-5.22827,-81.7218,26.8002,2.02527,-17.9741,12.78,7.12502,8.2953,-17.0371,-2.65005e-14,4.21423e-14,-36.5561,9.12023,86.0842,32.0599,-1.48613,-10.1908,25.1793,7.12502,15.7999,54.5545,-5.27097,-1.02222,25.6499,34.058,-22.2301,-4.56983,-3.01517,-8.00812,-5.17027,-16.0895,36.8543,-19.5023,1.1615,-16.8507
-0.599017,17.7575,-24.1972,-3.64996,5.64289,-2.35986,11.8372,-0.479772,-0.569809,-0.333283,-0.473976,3.401,-6.97651,-0.145,4.01126,-15.4171,-6.34891,-16.1545,28.3068,-7.19857,8.78034,12.9859,-3.84152,5.01012,-6.55989e-15,2.22639e-14,-34.5499,-4.8357,-81.8526,26.7392,1.81953,-18.1248,11.9501,7.12502,8.14988,-17.8727,-6.55989e-15,2.22639e-14,-36.4549,9.08529,86.1431,32.448,-1.33967,-10.2342,26.3958,7.12502,15.7581,55.7743,-5.15938,-1.03937,26.1064,33.9876,-22.2395,-4.7418,-3.408,-8.51519,-5.34686,-15.6734,37.9069,-19.4223,1.2298,-16.84
-0.609806,17.7527,-24.1878,-3.78033,5.50016,-2.46898,11.8973,-0.389868,-0.419197,-0.0381921,-0.336597,3.44557,-6.70648,-0.0888378,3.94349,-16.0345,-6.4572,-16.0729,28.3203,-7.22078,8.62276,13.1157,-3.84676,4.91993,5.71506e-15,-6.36111e-15,-34.1831,-4.91717,-81.7693,26.7591,2.47127,-21.9349,21.093,7.12502,4.47163,-8.83982,5.71506e-15,-6.36111e-15,-36.0027,9.09048,86.244,32.5085,-1.17378,-10.2245,26.8395,7.12502,15.7675,56.2173,-4.94214,-1.02937,26.256,33.864,-22.1564,-4.6369,-3.37059,-8.93578,-5.40646,-15.5603,38.9938,-19.2963,1.52143,-17.5506
-0.618689,17.7525,-24.1722,-3.96002,5.28434,-2.60053,11.6444,-0.255275,-0.304396,0.598374,-0.156169,3.55272,-5.90149,-0.0186298,3.94313,-17.0949,-6.6527,-16.1917,28.2166,-7.29991,8.71017,13.3198,-3.85493,4.9432,2.73329e-15,-1.27222e-14,-33.0942,-5.37445,-81.4443,26.6557,4.26194,-22.0623,21.972,7.12502,4.34863,-7.96331,2.73329e-15,-1.27222e-14,-35.2337,9.19917,86.5063,32.8294,-0.837576,-9.92211,27.2912,7.12502,16.0587,56.6458,-4.63746,-1.09343,26.4033,33.7367,-22.1671,-4.40524,-3.17894,-9.3026,-5.46403,-15.4341,40.14,-19.0354,1.76704,-18.4469
-0.635376,17.7472,-24.1457,-4.21595,5.49919,-2.92974,11.3536,-0.318639,-0.254438,0.513371,-0.222159,3.7858,-5.82347,-0.0492457,4.16952,-15.1153,-6.2915,-16.4114,27.4742,-7.05054,8.81472,12.5739,-3.7831,5.06712,-4.5472e-15,-1.11319e-14,-33.7207,-4.45152,-81.5639,26.444,2.65354,-22.48,23.1181,7.12502,3.94527,-6.82512,-4.5472e-15,-1.11319e-14,-35.9296,9.40108,86.5176,32.6799,-0.459767,-9.70954,27.702,7.12502,16.2633,57.0399,-4.1909,-1.32687,26.8415,33.5835,-22.3216,-4.49175,-3.03142,-9.66622,-5.75173,-15.021,41.3686,-18.7319,1.5039,-18.3693
-0.636177,17.7422,-24.1443,-4.30044,4.88841,-3.09508,11.4156,-0.0203883,0.0646729,0.697763,0.211482,3.78613,-5.69426,0.152657,3.91546,-15.1162,-6.33225,-16.4022,27.3181,-7.12412,8.88888,12.5248,-3.80126,5.07754,2.31087e-15,-2.38542e-15,-33.5568,-4.75509,-81.4207,26.3972,3.08028,-21.8838,22.236,7.12502,4.52098,-7.69573,2.31087e-15,-2.38542e-15,-35.6662,9.37359,86.5427,32.4466,-0.430218,-9.7382,27.5624,7.12502,16.2357,56.9026,-4.06809,-1.26573,26.9642,33.4603,-22.1316,-4.09102,-3.56457,-10.2545,-5.47469,-14.8265,42.7095,-17.2871,2.19226,-14.1557
-0.652502,17.743,-24.1468,-4.2562,4.83446,-3.20864,11.489,0.0725524,0.158818,0.704947,0.349934,3.80295,-5.73682,0.219037,3.85805,-14.9431,-6.33069,-16.3804,27.249,-7.15317,8.88765,12.4644,-3.81395,5.06854,1.33683e-14,1.90833e-14,-33.5456,-5.60173,-80.8934,26.2512,5.1888,-20.3788,21.0904,7.12502,5.97407,-8.8054,1.33683e-14,1.90833e-14,-35.696,9.5837,86.383,32.3755,-0.647692,-9.93406,26.6466,7.12502,16.0471,56.0021,-4.07424,-1.35611,27.1365,33.336,-22.0295,-4.02933,-3.89864,-11.1994,-5.41096,-14.5875,44.1006,-16.624,2.17295,-14.3621
-0.677694,17.7416,-24.1507,-4.24821,5.09062,-3.35568,11.8419,0.044197,0.14729,0.449808,0.330971,3.84861,-6.20428,0.217594,3.92501,-14.119,-6.22858,-16.1406,27.1291,-7.1229,8.59946,12.2189,-3.82601,4.92637,5.56597e-15,1.51076e-14,-34.1161,-4.51715,-81.5122,26.2311,2.03381,-20.406,20.0341,7.12502,5.94785,-9.86238,5.56597e-15,1.51076e-14,-36.2553,9.6511,86.1645,32.4692,-0.836089,-10.032,25.6696,7.12502,15.9529,55.0327,-4.08337,-1.5231,27.4064,33.2686,-22.0912,-4.13886,-3.54103,-12.2036,-5.43373,-14.2736,45.502,-16.3071,1.77776,-18.1825
-0.703573,17.7389,-24.1423,-4.39203,5.30118,-3.47978,12.3519,0.0586766,0.121339,0.234294,0.369284,3.88803,-6.72369,0.245249,3.98613,-13.4379,-6.17566,-16.0333,27.0642,-7.14311,8.44463,12.0455,-3.85616,4.85243,-6.73383e-15,-4.77083e-15,-34.6608,-5.43185,-80.8115,26.3806,5.22881,-18.5095,17.6146,7.12502,7.77856,-12.2223,-6.73383e-15,-4.77083e-15,-36.8879,9.43026,86.0744,32.7164,-0.797489,-10.092,25.0808,7.12502,15.8951,54.4485,-3.84805,-1.62389,27.6752,33.1321,-22.1403,-4.35929,-3.42583,-12.9336,-5.39447,-13.9723,46.8556,-15.9059,0.903252,-20.1832
-0.708267,17.7424,-24.1455,-4.40343,4.59412,-3.43855,12.5562,0.338671,0.191535,0.472292,0.749008,3.89772,-6.61037,0.425817,3.88612,-13.8723,-6.2483,-16.1185,26.937,-7.14798,8.46633,12.0905,-3.85076,4.86357,3.57812e-15,-2.3059e-14,-34.3068,-5.52567,-80.7263,26.2389,5.32039,-17.9744,16.371,7.12502,8.29502,-13.4462,3.57812e-15,-2.3059e-14,-36.6939,9.60461,86.1592,32.958,-0.482222,-10.0094,25.4503,7.12502,15.9746,54.8116,-3.76879,-1.39147,27.6048,32.9908,-21.9474,-3.97813,-4.1601,-13.6631,-4.86076,-13.9394,48.1894,-15.2534,0.0348641,-19.7782
-0.721866,17.7446,-24.1279,-4.4907,4.52485,-3.44318,12.0902,0.369403,0.155912,1.13016,0.755197,3.97922,-5.65333,0.416582,3.98004,-14.654,-6.31939,-16.0136,26.5316,-7.07351,8.31154,12.0685,-3.79643,4.7725,-1.54058e-15,1.59028e-14,-33.3336,-4.81736,-81.2204,25.8686,2.25721,-18.9434,16.8332,7.12502,7.35979,-13.0188,-1.54058e-15,1.59028e-14,-35.8863,10.0915,86.304,33.0779,-0.305509,-9.85941,26.7162,7.12502,16.119,56.0659,-3.49368,-1.30888,27.6814,32.8245,-22.038,-4.02657,-4.6406,-14.3287,-4.77139,-13.8157,49.4842,-14.6319,-0.675244,-19.7393
-0.73382,17.7397,-24.104,-4.64617,4.53533,-3.46093,12.8792,0.29664,0.386091,0.789558,0.70798,3.7535,-6.4461,0.393268,3.62665,-14.5686,-6.13639,-15.6598,26.922,-6.92185,8.24298,12.1612,-3.71262,4.72481,6.26172e-15,3.02153e-14,-33.9036,-6.03139,-80.7475,25.919,5.95355,-17.3196,14.9448,7.12502,8.92699,-14.8463,6.26172e-15,3.02153e-14,-36.9151,9.95817,85.748,33.4696,-0.0939963,-9.90611,27.4067,7.12502,16.0741,56.76,-3.12306,-1.29516,27.766,32.6396,-22.1228,-4.0797,-4.21858,-14.9156,-4.71885,-13.68,50.7492,-14.0268,-0.945539,-20.1962
-0.740851,17.738,-24.0858,-4.73959,4.29698,-3.45457,12.7959,0.432971,0.408558,1.02005,0.880609,3.73387,-6.16434,0.47313,3.5581,-14.574,-6.21205,-15.8806,26.9643,-7.04869,8.50612,12.2184,-3.76112,4.84626,3.77691e-15,-2.70347e-14,-33.3787,-6.52063,-80.5518,25.3596,6.6617,-18.2006,15.2272,7.12502,8.07673,-14.5985,3.77691e-15,-2.70347e-14,-37.0173,9.81643,85.7776,33.7944,0.107665,-9.93372,27.4009,7.12502,16.0475,56.7564,-2.81789,-1.29151,27.759,32.4048,-22.051,-3.88938,-4.01013,-15.5365,-4.51159,-13.5937,51.9699,-13.2996,-1.05964,-20.2767
-0.746771,17.7429,-24.07,-4.83582,3.8843,-3.55147,12.9016,0.597712,0.587009,1.21203,1.12135,3.74497,-6.03084,0.584385,3.42335,-14.8249,-6.31108,-15.987,27.0769,-7.13767,8.55229,12.336,-3.80258,4.86743,-1.83876e-14,-6.04305e-14,-32.9762,-6.93772,-80.3847,25.0295,7.17084,-19.8892,16.0975,7.12502,6.44679,-13.7844,-1.83876e-14,-6.04305e-14,-37.0258,9.789,85.797,33.9247,0.239916,-9.86356,27.5443,7.12502,16.115,56.8942,-2.54203,-1.21283,27.8568,32.1943,-22.0113,-3.64825,-4.39323,-16.1317,-4.15091,-13.3913,53.1591,-12.6489,-1.19737,-19.8551
-0.757921,17.743,-24.0529,-4.92539,3.84821,-3.75827,13.0292,0.58628,0.847772,1.38929,1.14331,3.78771,-5.91105,0.587431,3.31523,-15.3491,-6.28024,-15.9663,27.2282,-7.01138,8.54366,12.4842,-3.73633,4.87932,-2.06239e-14,-4.45278e-14,-32.7462,-6.70925,-80.6152,25.1533,6.42716,-19.2302,14.7185,7.12502,7.08291,-15.143,-2.06239e-14,-4.45278e-14,-36.9347,10.0484,85.6797,33.782,0.15115,-9.85524,27.5102,7.12502,16.123,56.8595,-2.27189,-1.3026,28.1232,31.9944,-22.0492,-3.6382,-4.34058,-16.8152,-4.0732,-13.056,54.311,-12.3699,-1.24205,-20.0941
-0.768507,17.7355,-24.0491,-5.04171,3.45002,-4.08816,13.0934,0.699921,1.12835,1.71304,1.33249,3.93829,-5.61133,0.672745,3.27969,-15.7734,-6.24846,-15.9783,27.13,-6.87759,8.5344,12.5121,-3.66661,4.89141,6.01324e-15,2.38542e-15,-32.018,-7.16598,-80.3857,24.7946,7.73047,-16.3167,10.6003,7.12502,9.89467,-19.1472,6.01324e-15,2.38542e-15,-36.7061,10.4382,85.6681,33.7184,0.129785,-9.76627,27.2518,7.12502,16.2087,56.5942,-2.02715,-1.16739,28.5313,31.7881,-21.9357,-3.50055,-3.99199,-17.4753,-3.72559,-12.5639,55.4241,-12.5532,-1.19943,-21.2183
-0.774535,17.7317,-24.0392,-5.07092,3.0491,-4.40637,13.0781,0.831148,1.44262,1.98408,1.54623,4.07014,-5.32265,0.770859,3.20217,-15.9378,-6.31316,-16.0248,26.9288,-6.90596,8.49792,12.471,-3.67927,4.87077,-1.6201e-14,8.74653e-15,-31.1934,-7.47403,-80.2527,23.8868,8.08177,-19.1821,14.507,7.12502,7.12937,-15.353,-1.6201e-14,8.74653e-15,-36.5037,10.5489,85.7821,33.7613,0.335539,-9.66843,27.3267,7.12502,16.3029,56.6614,-1.8461,-1.02014,28.9074,31.5561,-21.7829,-3.31642,-3.71676,-18.2017,-3.35494,-12.1063,56.4476,-12.6637,-1.5322,-21.3339
-0.774844,17.7336,-24.0144,-5.09501,2.68042,-4.51401,13.127,0.967768,1.70866,2.06475,1.7601,4.02979,-5.26513,0.870131,2.97022,-15.7846,-6.35951,-16.165,26.8938,-7.01577,8.69403,12.4563,-3.72134,4.95492,-5.91384e-15,-8.74653e-15,-30.9806,-7.54928,-80.2956,23.3544,7.57694,-19.9782,15.6671,7.12502,6.36087,-14.2174,-5.91384e-15,-8.74653e-15,-36.6479,10.2384,85.8085,33.7228,0.552592,-9.87821,27.4456,7.12502,16.1009,56.7968,-1.58197,-0.98758,28.9911,31.2946,-21.6633,-3.05304,-3.87502,-18.8075,-3.04891,-11.9401,57.3132,-12.6028,-2.06554,-20.4733
-0.77638,17.7404,-23.9801,-5.09864,2.35676,-4.65059,13.0824,1.10471,2.02544,1.97721,1.98309,3.94982,-5.32848,0.972978,2.66725,-15.0752,-6.27252,-16.1766,26.7915,-7.0702,8.91122,12.2853,-3.735,5.04097,-1.08338e-14,3.4191e-14,-31.4592,-7.73446,-80.3063,23.5336,7.33072,-19.7305,15.1088,7.12502,6.59998,-14.7684,-1.08338e-14,3.4191e-14,-37.145,9.83908,85.679,33.4798,0.651781,-10.0696,27.4475,7.12502,15.9166,56.8134,-1.28805,-1.0038,29.1114,30.9995,-21.6872,-2.84016,-4.49482,-19.3448,-2.75775,-11.7241,58.0193,-12.7646,-2.69991,-20.3688
-0.780201,17.7485,-23.9482,-5.09037,2.11017,-4.72766,13.1114,1.20584,2.24394,1.78276,2.15212,3.84612,-5.54369,1.04978,2.40321,-14.1278,-6.07026,-15.9369,26.6097,-6.99748,8.91365,11.9947,-3.69621,5.02097,-9.24349e-15,-2.70347e-14,-32.1526,-8.09201,-80.2256,23.765,7.90337,-19.7758,15.0714,7.12502,6.55629,-14.8071,-9.24349e-15,-2.70347e-14,-37.6817,9.71677,85.3706,32.9703,0.554807,-10.0081,27.3632,7.12502,15.9758,56.7244,-0.951757,-1.07376,29.167,30.5645,-21.7181,-2.6539,-4.94158,-19.8519,-2.49262,-11.5838,58.5327,-13.016,-3.20697,-20.2271
-0.78124,17.7514,-23.9245,-5.08189,1.63516,-4.73326,13.3773,1.10995,2.32382,2.04443,2.03915,3.91086,-5.41038,0.993117,2.4437,-15.4998,-5.99455,-16.0972,27.0123,-6.56987,8.72362,12.3724,-3.52197,5.03896,-1.83876e-15,1.90833e-14,-31.43,-7.4036,-80.4129,23.549,8.28573,-19.8408,15.5783,7.12502,6.49353,-14.3021,-1.83876e-15,1.90833e-14,-37.3306,10.8714,85.1117,32.51,-0.0552709,-9.75527,27.3518,7.12502,16.2193,56.6933,-0.651649,-1.00678,29.1269,30.1579,-21.6545,-2.39666,-5.2563,-20.3194,-2.10654,-11.5578,58.9053,-13.1491,-3.451,-21.2623
-0.814889,17.7556,-23.8625,-5.245,2.81699,-4.93582,13.2044,0.740172,2.2653,2.01869,1.5397,3.98477,-5.33153,0.750489,2.64562,-15.0998,-5.9184,-15.9985,26.9294,-6.53892,8.6764,12.2456,-3.51054,5.01055,-1.41137e-14,-4.69132e-14,-32.1318,-6.91963,-80.6064,24.3262,7.51158,-19.5764,15.4132,7.12502,6.74878,-14.4593,-1.41137e-14,-4.69132e-14,-37.8329,10.8296,84.967,32.489,-0.574497,-9.24868,28.1458,7.12502,16.707,57.4469,-0.0251906,-1.36378,29.6296,29.7491,-22.0047,-3.42487,-5.57821,-20.7651,-2.95894,-11.2358,59.0993,-13.202,-4.24114,-21.6778
-0.807879,17.7644,-23.8409,-5.24632,1.85722,-4.89349,13.32,1.03287,2.34924,2.17683,1.93671,3.99658,-5.23814,0.943979,2.5393,-15.2646,-5.91889,-16.1607,26.901,-6.48223,8.74302,12.2696,-3.4893,5.07085,8.39865e-15,2.62396e-14,-31.6228,-6.4979,-80.7171,23.7035,6.90221,-19.891,15.6163,7.12502,6.44509,-14.2656,8.39865e-15,2.62396e-14,-37.9344,11.1758,84.8738,32.1852,-0.861025,-9.13221,27.646,7.12502,16.8192,56.9376,0.246721,-0.980714,29.5057,29.4263,-21.7804,-2.94366,-5.99736,-21.0782,-2.11485,-11.2741,59.1898,-13.155,-4.38719,-21.8642
-0.807725,17.7714,-23.8134,-5.16754,1.38934,-4.77727,13.0994,1.18827,2.26352,2.39581,2.10919,4.01261,-4.89405,1.03178,2.57806,-15.2129,-5.91516,-16.2451,26.7566,-6.44088,8.70142,12.1984,-3.48146,5.07083,1.68967e-15,1.59028e-14,-31.761,-6.3443,-80.694,24.7377,6.99433,-19.805,15.5344,7.12502,6.52806,-14.345,1.68967e-15,1.59028e-14,-37.8702,11.7855,84.6276,31.4182,-1.26588,-9.46888,25.3253,7.12502,16.4951,54.6441,0.480675,-0.802816,29.3422,29.0351,-21.5881,-2.66016,-5.88069,-21.5358,-1.60642,-11.3989,59.1604,-13.0897,-4.56203,-22.0666
-0.807838,17.7779,-23.7791,-5.02374,0.985473,-4.69272,12.8508,1.33002,2.21729,2.41943,2.27608,3.99248,-4.73824,1.11531,2.55864,-14.5383,-5.84733,-16.2007,26.4663,-6.42892,8.59842,11.9391,-3.49102,5.02259,-1.03865e-14,2.54444e-14,-31.8958,-6.73497,-80.4362,25.1639,8.68962,-19.0963,14.405,7.12502,7.21219,-15.4521,-1.03865e-14,2.54444e-14,-38.1446,11.7491,84.7153,31.7974,-0.654162,-8.6948,28.3418,7.12502,17.2402,57.597,0.666996,-0.601742,29.225,28.6754,-21.614,-2.37658,-5.50212,-22.0327,-1.2176,-11.5008,59.0443,-13.0093,-4.7245,-21.772
-0.80682,17.7831,-23.7311,-4.96763,0.501877,-4.81281,12.8005,1.42407,2.36261,2.28443,2.42607,4.02777,-4.85294,1.18664,2.48869,-13.8216,-5.69328,-16.0374,26.2511,-6.29248,8.34501,11.6743,-3.45308,4.9194,2.79789e-14,2.8625e-14,-32.3487,-6.46893,-80.4479,25.1629,8.54158,-19.169,14.2401,7.12502,7.14203,-15.6194,2.79789e-14,2.8625e-14,-38.8334,12.1311,84.4093,31.3242,-1.35791,-8.80434,27.5695,7.12502,17.1348,56.8339,1.04501,-0.320494,29.3573,28.2501,-21.6939,-2.20884,-5.80717,-22.346,-0.722514,-11.3634,58.8407,-12.9489,-4.88356,-21.5796
-0.810645,17.7916,-23.6807,-4.94155,0.445887,-4.99221,12.9472,1.45531,2.7822,2.82066,2.4973,3.93013,-4.34841,1.21836,2.13884,-16.5507,-6.12579,-15.6562,27.0329,-6.51349,8.09251,12.5481,-3.50416,4.71008,2.48481e-15,-1.98785e-14,-31.1376,-6.57054,-80.8605,24.7974,7.16267,-19.9054,15.4365,7.12502,6.43116,-14.4458,2.48481e-15,-1.98785e-14,-37.7411,12.3396,84.3295,30.4877,-2.03603,-9.14447,26.7059,7.12502,16.8074,55.9985,1.448,-0.284977,29.5881,27.7938,-21.6753,-2.31263,-6.54282,-22.6813,-0.517055,-11.1741,58.5391,-12.7834,-5.08965,-21.1823
-0.816049,17.8022,-23.6368,-4.77505,0.672587,-4.89094,12.8802,1.35909,2.64851,2.21756,2.37884,3.89905,-4.94859,1.15689,2.19763,-14.6058,-5.76782,-15.8135,26.8669,-6.31196,8.20693,12.063,-3.45408,4.83451,-2.20154e-14,-4.45278e-14,-32.4366,-6.13214,-80.8285,24.9822,6.91181,-19.892,15.7483,7.12502,6.44407,-14.1337,-2.20154e-14,-4.45278e-14,-39.3856,12.3015,83.929,30.4089,-2.04655,-9.09738,27.5079,7.12502,16.8527,56.7966,1.65093,-0.505276,29.4646,27.3201,-21.6061,-2.35845,-6.74277,-23.2095,-0.59538,-11.3574,58.1381,-12.4824,-5.21834,-20.0928
-0.822148,17.806,-23.5854,-4.56339,0.790948,-4.73962,12.6645,1.29667,2.49266,2.14568,2.26589,3.86299,-4.90732,1.10406,2.27005,-14.5438,-5.71195,-16.0167,26.9818,-6.22683,8.32866,12.0961,-3.42669,4.93498,9.49197e-15,1.35174e-14,-32.7402,-5.70377,-80.9697,25.3187,6.19752,-19.9693,16.3927,7.12502,6.36941,-13.4915,9.49197e-15,1.35174e-14,-39.8152,12.7191,83.6331,30.0578,-2.45177,-8.82686,27.6691,7.12502,17.1131,56.9355,1.84913,-0.643375,29.2944,26.8534,-21.7105,-2.37191,-6.77824,-23.7195,-0.593793,-11.5908,57.6611,-12.3968,-5.26687,-20.2097
-0.818126,17.8102,-23.5314,-4.41866,0.279107,-4.85796,12.5411,1.40287,2.72468,2.16198,2.42945,3.85896,-4.816,1.18124,2.11042,-14.7366,-5.69462,-16.0231,27.1389,-6.15254,8.2599,12.1854,-3.40239,4.92389,2.19657e-14,1.90833e-14,-32.9977,-5.55884,-81.0406,25.842,6.075,-19.7108,16.2038,7.12502,6.619,-13.6728,2.19657e-14,1.90833e-14,-40.1478,13.1689,83.2748,29.6543,-2.92248,-8.56895,27.6978,7.12502,17.3613,56.9424,2.11233,-0.456547,29.3772,26.4563,-21.8257,-2.10057,-7.2863,-24.0235,-0.124776,-11.5024,57.1153,-12.6121,-5.06257,-22.6667
-0.816111,17.8182,-23.4831,-4.31425,-0.297072,-4.98295,12.5389,1.52995,2.92118,2.33193,2.61395,3.86348,-4.6308,1.27055,1.97594,-15.5467,-5.74899,-15.7966,27.3925,-6.07407,7.95807,12.4233,-3.37019,4.77795,9.79014e-15,-7.95139e-15,-32.6859,-5.59618,-81.0844,26.104,6.51432,-19.0344,14.4914,7.12502,7.27198,-15.3637,9.79014e-15,-7.95139e-15,-40.0737,13.6675,83.017,29.215,-3.34414,-8.65202,27.3513,7.12502,17.2814,56.603,2.39859,-0.116026,29.4983,26.0667,-21.7759,-1.83182,-7.71397,-24.2921,0.371077,-11.4024,56.4941,-12.6225,-4.83162,-22.683
-0.818166,17.8217,-23.4395,-4.10895,-0.630412,-5.06179,12.487,1.53106,3.01856,2.5922,2.61219,3.89822,-4.32568,1.2715,1.96204,-16.7606,-5.81941,-15.6893,27.6051,-5.92414,7.69527,12.727,-3.30659,4.67368,8.64713e-15,7.95139e-15,-31.897,-5.2848,-81.2452,25.9473,6.32927,-19.0613,13.8649,7.12502,7.24597,-15.9911,8.64713e-15,7.95139e-15,-39.6934,14.4349,82.8465,28.6633,-3.90218,-9.26578,25.4353,7.12502,16.6906,54.7377,2.56764,0.154926,29.6064,25.6062,-21.5879,-1.75394,-8.31457,-24.7503,0.745575,-11.3603,55.7879,-12.4093,-4.75002,-22.083
-0.828235,17.8238,-23.3934,-3.91607,-0.468554,-5.30597,12.445,1.42216,3.17049,2.32758,2.50431,3.97952,-4.57653,1.21388,1.97785,-15.9574,-5.64037,-15.7512,27.4094,-5.78802,7.72536,12.4648,-3.25921,4.72119,3.47873e-15,3.18055e-15,-32.3498,-4.84474,-81.369,25.8273,5.49573,-19.802,14.5145,7.12502,6.53096,-15.3648,3.47873e-15,3.18055e-15,-40.4265,14.8206,82.4544,28.1452,-4.36898,-9.50968,25.0193,7.12502,16.4558,54.3414,2.70024,0.264362,30.0106,25.2207,-21.4909,-2.14725,-8.87674,-25.2577,0.776655,-11.1167,55.0224,-12.1798,-4.82917,-21.1336
-0.834433,17.8307,-23.3292,-3.95084,0.275595,-5.15393,12.3657,1.17169,3.01442,2.30692,2.14845,3.95598,-4.55422,1.04103,2.09961,-15.9122,-5.57743,-15.903,27.4859,-5.69326,7.82716,12.4817,-3.2235,4.80614,-1.2921e-15,1.90833e-14,-32.458,-4.64467,-81.4287,25.7753,4.75499,-19.9555,14.7132,7.12502,6.38276,-15.1706,-1.2921e-15,1.90833e-14,-40.7857,15.3071,82.1135,27.5834,-4.82595,-8.46126,28.9981,7.12502,17.465,58.2335,3.15811,-0.174425,29.8926,24.8664,-21.5882,-2.4407,-8.50339,-25.4347,0.15937,-11.4313,54.1476,-12.2391,-4.70966,-20.8743
-0.823456,17.8359,-23.295,-3.65306,-0.61095,-5.08476,12.3674,1.47185,3.0764,2.13787,2.5583,3.87783,-4.73336,1.2393,1.91503,-15.6054,-5.47109,-15.9101,27.4805,-5.60643,7.87917,12.4044,-3.18492,4.8453,-5.91384e-15,2.78299e-14,-32.7664,-4.79072,-81.3942,25.9359,4.32129,-19.862,15.5062,7.12502,6.47303,-14.3749,-5.91384e-15,2.78299e-14,-41.2562,15.5624,81.7512,27.0679,-5.18398,-7.93032,27.5785,7.12502,17.9759,56.7678,3.18069,0.157573,29.6554,24.499,-21.2186,-1.70065,-7.82445,-25.8323,0.798402,-11.6259,53.2502,-12.2171,-4.08335,-21.2793
-0.822176,17.8394,-23.2464,-3.48555,-1.08711,-5.12063,12.5059,1.60917,3.15896,1.88187,2.76958,3.82313,-5.07589,1.33705,1.77055,-15.1572,-5.34411,-15.8208,27.4916,-5.52472,7.86847,12.2996,-3.14955,4.84392,7.20594e-15,-1.59028e-15,-33.3994,-5.46352,-81.0575,26.6038,6.23133,-19.0946,15.0016,7.12502,7.21388,-14.8555,7.20594e-15,-1.59028e-15,-41.8752,15.694,81.3305,26.5273,-5.56592,-7.6457,27.4801,7.12502,18.2497,56.644,3.41099,0.442411,29.6638,24.0885,-20.9023,-1.32719,-7.04404,-26.1272,1.25601,-11.6685,52.2743,-12.0853,-3.69325,-21.3885
-0.831828,17.8391,-23.1833,-3.41572,-0.991836,-5.2289,12.9882,1.48587,3.20883,1.5938,2.65648,3.81878,-5.64425,1.27297,1.74296,-15.3708,-5.26468,-15.5577,27.7315,-5.36828,7.57023,12.3989,-3.09189,4.71243,-1.04362e-14,-3.4191e-14,-33.9092,-5.66801,-80.9699,26.6935,6.47621,-19.0537,15.1662,7.12502,7.25329,-14.6894,-1.04362e-14,-3.4191e-14,-42.602,16.0157,80.8061,26.187,-6.01083,-7.25833,28.1325,7.12502,18.6224,57.2611,3.72684,0.659567,29.9279,23.8131,-20.8616,-1.60166,-6.52604,-26.35,1.33077,-11.5967,51.2601,-12.0082,-3.5739,-21.0788
-0.845834,17.8347,-23.1146,-3.3083,-0.346076,-5.32547,12.4685,1.23116,3.19885,1.96076,2.27272,3.90823,-4.96845,1.09396,1.92156,-16.0425,-5.30098,-15.4576,27.4449,-5.28053,7.42974,12.4026,-3.03899,4.63874,-7.25564e-15,-3.97569e-15,-33.2214,-5.74821,-80.961,26.3525,5.89302,-19.4281,15.2798,7.12502,6.8919,-14.588,-7.25564e-15,-3.97569e-15,-42.2268,16.7134,80.6025,25.6834,-6.56329,-7.11329,27.7841,7.12502,18.7619,56.8993,4.02981,0.704917,30.2663,23.4837,-20.9834,-2.32396,-6.5448,-26.7197,0.953984,-11.5758,50.1892,-11.8227,-3.52126,-20.363
-0.842986,17.8329,-23.078,-3.12514,-0.914559,-5.28429,12.6016,1.402,3.14968,1.99649,2.49809,3.91859,-5.0098,1.20513,1.92031,-16.3087,-5.26619,-15.5792,27.3697,-5.17545,7.53134,12.4194,-2.98544,4.71223,-3.08116e-15,5.56597e-15,-33.1417,-5.67347,-80.9351,26.4241,5.6792,-19.5538,15.081,7.12502,6.77055,-14.7907,-3.08116e-15,5.56597e-15,-42.2659,17.1237,80.4012,25.1364,-6.90002,-7.37154,27.2981,7.12502,18.5135,56.4371,4.1494,1.07538,30.1817,23.1446,-20.7618,-2.04026,-6.40585,-27.0246,1.34999,-11.7078,49.0508,-11.5625,-3.05003,-19.2139
-0.846618,17.8296,-23.0318,-3.00331,-0.970678,-5.34266,12.711,1.38817,3.13996,1.95609,2.49038,3.97911,-5.11618,1.20075,1.9883,-16.2688,-5.23006,-15.7736,27.3539,-5.08498,7.57845,12.4011,-2.95987,4.77827,2.27608e-14,-1.03368e-14,-33.1323,-5.76492,-80.8029,26.4163,5.84278,-19.3753,14.8756,7.12502,6.94292,-14.9905,2.27608e-14,-1.03368e-14,-42.6723,17.1423,80.4115,25.121,-6.87081,-7.3827,28.2372,7.12502,18.5027,57.3772,4.40282,1.27965,30.3167,22.7065,-20.6067,-2.10732,-5.68874,-27.3175,1.38828,-11.7084,47.8975,-11.3223,-2.71365,-18.4512
-0.853005,17.8314,-22.9692,-2.80749,-0.376057,-5.20423,12.3916,1.14408,2.9661,1.98907,2.12418,3.97804,-4.90543,1.02602,2.15208,-16.0433,-5.1681,-15.6993,26.9691,-4.96727,7.32263,12.1767,-2.92328,4.6725,1.2921e-15,1.66979e-14,-32.8818,-5.54454,-80.8874,26.2624,5.29519,-19.4582,14.5154,7.12502,6.86287,-15.3534,1.2921e-15,1.66979e-14,-42.763,18.0172,79.8767,24.3213,-7.71538,-7.13013,28.8418,7.12502,18.7457,57.9585,4.60352,1.02209,30.2411,22.2875,-20.6714,-2.36395,-4.87975,-27.7141,0.989227,-11.9974,46.704,-10.7304,-2.58323,-18.925
-0.87086,17.8281,-22.8926,-2.84709,0.145417,-5.46164,12.3448,0.90526,3.03605,2.05022,1.81833,4.10556,-4.8117,0.876175,2.29808,-15.9787,-5.07009,-15.4246,26.5559,-4.79687,6.95605,11.9592,-2.85232,4.49779,4.37326e-15,-2.06736e-14,-32.7616,-5.10436,-81.083,26.1668,4.56255,-19.8449,14.5216,7.12502,6.48958,-15.3589,4.37326e-15,-2.06736e-14,-43.0083,18.4388,79.549,23.9295,-8.03972,-6.85091,29.0261,7.12502,19.0142,58.1167,5.17335,1.0349,30.7602,21.7442,-20.7029,-2.97321,-4.56254,-27.7887,0.762072,-11.7769,45.5136,-10.4943,-2.83001,-19.7444
-0.865189,17.829,-22.8333,-2.74286,-0.381322,-5.55579,12.7388,1.04531,3.17821,1.87798,2.0529,4.06859,-5.20971,0.984744,2.13463,-16.0339,-5.02463,-15.3793,26.6399,-4.75353,7.00793,11.9962,-2.8239,4.51952,-7.95139e-15,1.11319e-14,-33.0237,-5.07979,-81.1581,26.0982,4.1229,-20.1662,14.757,7.12502,6.17937,-15.1329,-7.95139e-15,1.11319e-14,-43.4009,18.61,79.1606,23.592,-8.36299,-6.58386,28.9959,7.12502,19.271,58.0611,5.553,1.23575,30.7859,21.2151,-20.4808,-2.60431,-4.42671,-27.8193,1.08859,-11.7363,44.266,-10.1852,-2.57102,-19.1892
-0.862764,17.8312,-22.7674,-2.60089,-0.690426,-5.64598,12.8879,1.16919,3.35926,1.80252,2.24994,3.987,-5.36484,1.07526,1.91017,-16.2831,-5.12717,-15.3828,26.8706,-4.91893,7.19081,12.164,-2.87878,4.57042,4.96962e-16,0,-33.1518,-5.48793,-81.1394,26.1987,4.13707,-19.5141,13.6612,7.12502,6.80885,-16.2093,4.96962e-16,0,-43.5812,18.8084,78.7251,23.1986,-9.01842,-6.37851,28.7825,7.12502,19.4685,57.8278,5.89048,1.43693,30.8692,20.7394,-20.3559,-2.45958,-4.44583,-27.94,1.24127,-11.6879,42.9857,-9.68394,-2.36034,-18.1331
-0.860616,17.8349,-22.7002,-2.38661,-1.13368,-5.58933,12.7694,1.36654,3.36855,1.91331,2.49324,3.89687,-5.18007,1.19594,1.77106,-16.8658,-5.23941,-15.3691,27.0285,-5.01853,7.28867,12.3612,-2.9043,4.59094,-1.2921e-15,1.98785e-14,-32.9213,-6.081,-80.9722,26.38,5.10004,-18.0405,11.9079,7.12502,8.23127,-17.9117,-1.2921e-15,1.98785e-14,-43.4936,18.82,78.6356,22.9296,-9.40263,-6.48514,28.7851,7.12502,19.3659,57.8407,6.12636,1.74638,30.7841,20.3457,-20.2898,-2.31718,-4.61769,-28.0842,1.51999,-11.8077,41.6444,-9.25352,-2.16225,-18.1592
-0.860531,17.836,-22.6464,-2.16337,-1.4558,-5.55075,12.7029,1.4779,3.30672,1.94307,2.62407,3.85897,-5.11387,1.26181,1.74547,-16.9324,-5.16611,-15.3916,26.8779,-4.92492,7.4081,12.3043,-2.84449,4.65229,8.34896e-15,0,-32.8682,-6.4276,-80.8283,26.452,5.82954,-17.6107,12.0613,7.12502,8.64606,-17.7416,8.34896e-15,0,-43.6201,18.8732,78.5226,22.7589,-9.59849,-6.51368,28.9969,7.12502,19.3385,58.0554,6.31041,2.08322,30.7607,19.9398,-20.189,-2.27812,-3.86678,-28.2983,1.76512,-11.9077,40.2834,-8.94487,-2.01362,-18.612
-0.849305,17.8392,-22.5658,-2.00515,-1.45232,-5.32056,12.3023,1.42964,3.16771,2.00603,2.51007,3.77295,-4.82657,1.21109,1.76161,-16.5911,-5.04099,-15.363,26.507,-4.79554,7.39369,12.0678,-2.78063,4.65337,1.30204e-14,2.22639e-14,-32.9261,-6.28998,-80.9078,26.2669,5.00773,-18.7987,14.3377,7.12502,7.49941,-15.5093,1.30204e-14,2.22639e-14,-43.8956,19.2328,78.206,22.5969,-9.97417,-6.25683,29.1357,7.12502,19.5855,58.1692,6.67196,1.71868,30.3114,19.4904,-20.1875,-1.74383,-2.73792,-28.3342,1.73211,-12.3173,38.9093,-8.90835,-1.90129,-18.716
-0.846009,17.8384,-22.4895,-1.83617,-1.49987,-5.33027,12.3312,1.39096,3.16222,1.94153,2.46346,3.77928,-4.91056,1.18715,1.77775,-16.6713,-5.02281,-15.3358,26.4722,-4.7175,7.24068,12.056,-2.75947,4.5996,-3.62782e-14,-1.51076e-14,-33.053,-5.94253,-81.1023,25.9541,3.23716,-19.3276,15.3133,7.12502,6.98894,-14.5513,-3.62782e-14,-1.51076e-14,-44.2057,19.701,77.8334,22.3743,-10.4875,-6.24135,28.8243,7.12502,19.6003,57.8563,7.00821,1.70584,30.2914,18.9891,-20.0584,-1.63373,-2.52367,-28.4256,1.76395,-12.3939,37.5662,-8.81826,-1.85448,-18.8097
-0.844175,17.8387,-22.4056,-1.73656,-1.54798,-5.28568,12.8357,1.38311,3.12633,1.5717,2.49362,3.72108,-5.58002,1.19384,1.71793,-16.6811,-4.96602,-15.2232,26.7656,-4.63689,7.10351,12.1561,-2.73779,4.54898,1.07344e-14,5.56597e-15,-33.704,-5.92999,-81.1195,25.8365,2.98456,-20.1168,15.3599,7.12502,6.22709,-14.5286,1.07344e-14,5.56597e-15,-45.0257,19.7098,77.4058,22.3476,-10.7413,-6.38875,28.3661,7.12502,19.4586,57.4125,7.52688,1.82259,30.2668,18.3336,-19.8675,-1.71211,-2.82656,-28.4619,1.80199,-12.5174,36.3045,-8.76775,-1.85726,-18.5444
-0.837832,17.8416,-22.3232,-1.56379,-1.61803,-5.0983,12.2893,1.43574,2.94161,1.83748,2.49283,3.7037,-5.00313,1.20384,1.81748,-16.7696,-4.96102,-15.2701,26.4499,-4.59181,7.10989,12.0452,-2.71032,4.55626,9.93923e-15,7.95139e-15,-33.3835,-6.12585,-80.9453,26.0419,4.39272,-20.0153,13.913,7.12502,6.32507,-15.9726,9.93923e-15,7.95139e-15,-44.7096,19.9238,77.4819,22.1394,-10.9718,-6.3989,28.0762,7.12502,19.4489,57.1235,7.97286,1.84251,30.0069,17.6866,-19.7306,-1.6041,-2.67459,-28.5813,1.81501,-12.8142,35.1128,-8.87235,-1.76266,-18.4627
-0.839231,17.8406,-22.2486,-1.45847,-1.72439,-5.41264,12.131,1.42556,3.14445,2.04033,2.49476,3.87185,-4.70116,1.20594,1.88532,-17.108,-4.98868,-15.4194,26.3309,-4.51452,7.07954,12.0617,-2.68524,4.57585,1.15295e-14,-5.56597e-15,-33.122,-5.75835,-80.9778,26.161,4.45372,-19.5976,13.2811,7.12502,6.72825,-16.592,1.15295e-14,-5.56597e-15,-44.4221,20.3055,77.4983,21.8302,-11.2312,-6.24262,27.7726,7.12502,19.5991,56.8046,8.46196,2.02543,30.4089,17.0509,-19.5816,-1.71289,-2.38915,-28.6801,1.92149,-12.4939,33.9933,-8.95813,-1.78917,-19.1208
-0.83819,17.8398,-22.1816,-1.30478,-1.80533,-5.45329,12.2077,1.45526,3.12317,2.11281,2.53337,3.90683,-4.67038,1.22584,1.92681,-17.6351,-5.03679,-15.4013,26.4038,-4.4852,7.03254,12.192,-2.66993,4.55817,-9.34288e-15,-3.97569e-15,-32.9457,-5.29052,-81.2053,25.8734,2.83345,-19.8302,14.5862,7.12502,6.50376,-15.294,-9.34288e-15,-3.97569e-15,-44.3015,20.4217,77.5762,21.8529,-11.3012,-5.89308,28.0265,7.12502,19.9351,57.024,8.87433,1.98074,30.4086,16.3918,-19.374,-1.62591,-2.2999,-28.8826,2.02344,-12.5116,32.936,-8.87528,-1.8259,-19.9097
-0.841394,17.8362,-22.1203,-1.1136,-1.82992,-5.43028,12.3689,1.51801,3.0134,2.12631,2.60843,3.86804,-4.74933,1.26337,1.93198,-18.0033,-5.05707,-15.2362,26.3267,-4.50433,7.04619,12.2323,-2.65178,4.52836,-7.7526e-15,4.13472e-14,-32.9991,-5.13843,-81.3885,25.9645,1.88286,-19.9031,14.9883,7.12502,6.43333,-14.894,-7.7526e-15,4.13472e-14,-44.2347,20.1158,77.8109,22.2139,-11.093,-5.64829,28.6346,7.12502,20.1704,57.6075,9.27333,2.03726,30.4111,15.642,-19.1205,-1.73,-2.61228,-29.1852,2.06599,-12.5695,31.9557,-8.48289,-1.79147,-20.4958
-0.844204,17.8337,-22.049,-0.973387,-1.65572,-5.51393,12.4112,1.51665,3.02982,2.21765,2.60635,3.87079,-4.67593,1.26294,1.92586,-18.2597,-5.14529,-15.1751,26.1306,-4.60713,7.06871,12.2185,-2.67844,4.50231,4.57205e-15,6.36111e-15,-32.8402,-5.38462,-81.3219,26.1587,2.79481,-19.5126,13.9565,7.12502,6.81032,-15.9139,4.57205e-15,6.36111e-15,-44.0917,19.7739,78.1093,22.5924,-10.8399,-5.76242,28.3768,7.12502,20.0607,57.3612,9.75846,2.03992,30.5939,14.9175,-18.9164,-2.05836,-3.24393,-29.3836,1.85797,-12.4736,30.983,-8.0589,-1.76419,-20.1205
-0.83866,17.8369,-21.9595,-0.859864,-1.59523,-5.44631,12.2783,1.51217,2.97785,2.37797,2.57646,3.85019,-4.43477,1.25145,1.94298,-18.7565,-5.22089,-15.1558,26.0708,-4.61735,7.01169,12.295,-2.67833,4.46988,1.58034e-14,-1.35174e-14,-32.3785,-5.92234,-81.0383,26.0021,4.70499,-19.2076,14.5449,7.12502,7.10478,-15.3159,1.58034e-14,-1.35174e-14,-43.851,19.5379,78.4488,22.7999,-10.5155,-6.04257,28.209,7.12502,19.7914,57.2213,10.3769,1.90288,30.485,14.1472,-18.7176,-2.16423,-3.87096,-29.4528,1.5845,-12.5487,30.0714,-7.96207,-1.57968,-19.0599
-0.829361,17.8415,-21.8677,-0.684863,-1.55655,-5.20101,12.3285,1.46353,2.8377,2.32601,2.49279,3.72147,-4.51585,1.21045,1.89813,-19.226,-5.17101,-15.0617,26.152,-4.4865,6.97122,12.3999,-2.61102,4.46019,-2.00773e-14,-2.8625e-14,-32.4657,-6.02586,-81.0565,25.8657,4.70274,-19.7153,14.6594,7.12502,6.61466,-15.2173,-2.00773e-14,-2.8625e-14,-43.8688,19.1289,78.7256,22.9996,-10.0535,-6.36529,29.1855,7.12502,19.4812,58.2296,10.9866,1.70454,30.106,13.266,-18.5246,-2.01358,-4.06021,-29.6546,1.34378,-12.8604,29.2739,-7.81995,-1.37093,-18.1886
-0.818715,17.8441,-21.7781,-0.466155,-1.85497,-5.11063,11.913,1.59044,2.73165,2.59151,2.61174,3.72061,-4.01463,1.27532,1.9513,-19.67,-5.23753,-15.1479,25.943,-4.47664,6.99358,12.4085,-2.59892,4.47611,4.85035e-14,-3.97569e-15,-32.2436,-5.41257,-81.3789,25.6491,2.3381,-20.8137,16.5881,7.12502,5.55426,-13.3191,4.85035e-14,-3.97569e-15,-43.5229,19.4306,78.7619,22.9547,-10.1704,-6.42311,27.8901,7.12502,19.4256,56.9397,11.5422,1.76194,29.8745,12.3612,-18.2479,-1.6735,-3.18335,-29.8828,1.27914,-12.9373,28.5654,-7.48369,-1.01983,-17.0958
-0.804682,17.8457,-21.6861,-0.246873,-2.60458,-5.15417,11.8203,1.85466,2.74855,2.68321,2.95252,3.70584,-3.87142,1.44459,1.87897,-19.9747,-5.28481,-15.1952,25.8529,-4.48234,7.02538,12.437,-2.59451,4.49113,-7.85199e-15,-1.98785e-14,-32.1942,-6.00504,-80.9427,26.4945,6.27044,-18.2787,11.8683,7.12502,8.00132,-17.9602,-7.85199e-15,-1.98785e-14,-43.4301,19.3243,78.9263,23.2516,-9.89917,-6.42467,27.5205,7.12502,19.4241,56.5703,12.0582,2.02764,29.7178,11.5624,-17.9092,-1.16958,-4.22377,-29.9781,1.31266,-12.7678,27.9639,-6.90636,-0.309639,-16.6815
-0.792976,17.8512,-21.5981,-0.0452539,-3.1316,-5.06864,11.895,2.0402,2.5747,2.66385,3.18037,3.68743,-3.94476,1.55796,1.92022,-20.0826,-5.25577,-15.2897,25.7214,-4.42054,7.14132,12.4031,-2.55591,4.55891,-6.95746e-16,2.3059e-14,-32.1229,-5.75953,-81.0074,26.0231,5.56369,-19.3201,14.1467,7.12502,6.99613,-15.7177,-6.95746e-16,2.3059e-14,-43.4078,19.1902,79.1054,23.4578,-9.59465,-6.53364,27.5858,7.12502,19.3193,56.6461,12.5594,2.15584,29.4413,10.8058,-17.5359,-0.772854,-4.82555,-30.0713,1.22449,-12.7703,27.4927,-6.80841,0.460653,-16.1042
-0.785936,17.8491,-21.5188,0.223127,-3.2913,-5.09764,11.9888,2.10591,2.50227,2.52075,3.2707,3.6979,-4.15272,1.60147,1.95224,-20.0272,-5.22906,-15.3332,25.6612,-4.40118,7.2275,12.3682,-2.53967,4.60206,-3.97569e-14,-8.74653e-15,-32.1331,-5.67077,-80.9993,25.6071,5.40293,-19.5604,15.1422,7.12502,6.76424,-14.7297,-3.97569e-14,-8.74653e-15,-43.5608,19.2418,79.027,23.5829,-9.58817,-6.52828,27.7116,7.12502,19.3245,56.7715,12.9324,2.21817,29.4036,10.0316,-17.0776,-0.672254,-5.4763,-30.3942,1.23063,-12.7567,27.1425,-7.09842,0.924581,-15.5696
-0.778968,17.8374,-21.4366,0.468676,-3.27824,-5.28155,12.2882,2.08616,2.64237,2.25112,3.29145,3.71337,-4.59435,1.60546,1.8716,-19.9703,-5.19826,-15.1923,25.6752,-4.37947,7.10639,12.3522,-2.53298,4.5351,-2.5345e-14,-1.35174e-14,-32.4897,-5.33634,-81.1174,25.636,5.25236,-19.5008,14.6534,7.12502,6.82172,-15.2167,-2.5345e-14,-1.35174e-14,-43.9009,19.1051,78.9481,23.9272,-9.37823,-6.44476,27.9618,7.12502,19.4048,57.0136,13.3716,2.10261,29.5725,9.21718,-16.6757,-0.602077,-5.99315,-30.7691,1.33705,-12.6428,26.9039,-7.44103,1.05187,-15.8258
-0.769601,17.8235,-21.3371,0.546704,-3.18835,-5.30572,12.0919,2.04913,2.74669,2.44971,3.23264,3.6632,-4.26765,1.57811,1.77996,-20.2088,-5.19781,-15.0072,25.3439,-4.35217,6.97538,12.2559,-2.50549,4.44597,-2.38542e-15,2.3059e-14,-32.2262,-5.06324,-81.3339,25.6658,5.12138,-19.6131,14.4395,7.12502,6.71331,-15.4341,-2.38542e-15,2.3059e-14,-43.5128,18.8883,79.2093,24.2876,-8.82436,-6.47483,27.6615,7.12502,19.3759,56.7161,14.1065,1.89201,29.5551,8.4273,-16.4981,-0.483911,-5.65847,-30.9206,1.50811,-12.7622,26.7968,-7.94631,0.827751,-16.2637
-0.757422,17.8178,-21.2334,0.678178,-3.42718,-5.34369,12.054,2.14526,2.7721,2.50851,3.35753,3.65956,-4.18513,1.6402,1.74501,-20.517,-5.22319,-14.9384,25.2631,-4.32618,6.8721,12.2777,-2.49316,4.39434,-2.5345e-14,7.15625e-15,-32.1099,-5.02774,-81.3381,25.5728,5.35472,-19.5549,14.5103,7.12502,6.76947,-15.3615,-2.5345e-14,7.15625e-15,-43.4464,18.4753,79.5592,24.8438,-8.07966,-6.39472,27.5006,7.12502,19.4529,56.5475,14.7545,2.02372,29.5085,7.66929,-16.2677,-0.349705,-5.29365,-30.9917,1.73956,-12.7975,26.7708,-8.52901,0.681715,-16.318
-0.741501,17.817,-21.1358,0.930969,-3.96762,-5.49957,12.0625,2.32683,2.89796,2.43943,3.61654,3.65109,-4.25737,1.76527,1.62407,-20.4888,-5.27332,-14.9819,25.143,-4.39592,6.91083,12.2361,-2.52033,4.4013,-4.53229e-14,-1.74931e-14,-32.184,-5.07217,-81.3497,25.5709,5.6114,-19.359,14.3191,7.12502,6.95859,-15.5465,-4.53229e-14,-1.74931e-14,-43.5365,17.9054,79.8957,25.4338,-7.37203,-6.55862,27.6623,7.12502,19.2953,56.7251,15.174,2.47847,29.5542,6.96354,-15.7817,-0.271897,-6.20765,-31.0995,1.83903,-12.5744,26.8205,-8.86532,0.77217,-16.3024
-0.722951,17.8131,-21.0377,1.209,-4.39469,-5.61599,12.0142,2.4602,3.00435,2.29436,3.80968,3.6199,-4.37592,1.85718,1.50101,-20.0608,-5.2318,-15.0197,24.8574,-4.41439,6.99743,12.0441,-2.5195,4.43237,-3.54831e-14,-2.54444e-14,-32.6504,-4.97445,-81.3961,25.999,5.8765,-19.0978,13.8929,7.12502,7.21076,-15.9643,-3.54831e-14,-2.54444e-14,-43.8015,17.4464,80.0712,25.9797,-6.78334,-6.89172,27.959,7.12502,18.975,57.0534,15.519,2.82937,29.5444,6.47472,-15.2081,-0.157069,-7.46053,-31.2475,1.72208,-12.3759,26.9319,-8.79526,1.21472,-15.8219
-0.706233,17.8052,-20.9367,1.40077,-4.68975,-5.69818,11.9309,2.57611,3.08659,2.28568,3.96716,3.58273,-4.33197,1.93399,1.39554,-20.0371,-5.1746,-14.9848,24.6754,-4.37247,7.09774,11.963,-2.47981,4.46787,-3.65764e-14,1.59028e-15,-32.8317,-5.21646,-81.3247,26.2919,6.74422,-18.818,13.3917,7.12502,7.48082,-16.456,-3.65764e-14,1.59028e-15,-43.9177,17.0842,80.246,26.6731,-6.16906,-6.90853,28.3293,7.12502,18.9588,57.4254,15.8179,3.03028,29.5274,6.33724,-14.8655,-0.0250361,-7.98074,-31.2784,1.67035,-12.2831,27.0737,-8.58157,1.37857,-14.9953
-0.692839,17.7921,-20.8351,1.50942,-4.73206,-5.72138,11.9163,2.60779,3.1352,2.32982,4.00856,3.52019,-4.26984,1.95425,1.29859,-20.2486,-5.14884,-14.9425,24.6459,-4.35021,7.2247,11.9906,-2.44555,4.51251,3.81667e-14,-1.23246e-14,-32.7031,-5.50515,-81.3133,26.1762,7.33007,-18.8288,13.5218,7.12502,7.47039,-16.3263,3.81667e-14,-1.23246e-14,-43.8275,16.7822,80.3659,27.1998,-5.74092,-6.70017,28.2668,7.12502,19.1592,57.3431,16.0418,2.96214,29.4812,6.37303,-14.7443,-0.0348288,-8.92817,-31.2375,1.7435,-12.3737,27.25,-8.52594,1.31586,-15.5002
-0.677071,17.7796,-20.7309,1.68283,-4.70136,-5.63284,11.9137,2.5985,3.03768,2.19652,3.98863,3.46483,-4.41086,1.94329,1.29497,-20.0214,-5.09052,-14.9432,24.5406,-4.31856,7.28174,11.9014,-2.42501,4.53817,9.83984e-15,-3.89618e-14,-32.9281,-5.42894,-81.3597,26.2017,7.22887,-18.8663,13.8009,7.12502,7.43416,-16.0485,9.83984e-15,-3.89618e-14,-43.9097,16.6152,80.3737,27.4618,-5.51816,-6.64406,28.1754,7.12502,19.2131,57.2463,15.9827,2.84216,29.274,6.8034,-14.7815,-0.123039,-9.51041,-31.2096,1.75643,-12.6211,27.4112,-8.31992,1.11306,-15.4362
-0.657546,17.7694,-20.6199,1.77475,-4.67078,-5.55689,11.9785,2.56855,2.96077,2.06407,3.94864,3.44001,-4.589,1.92189,1.3119,-19.6654,-5.05437,-14.978,24.3016,-4.30492,7.2698,11.7381,-2.42272,4.53598,-4.35338e-14,9.93923e-15,-33.1772,-5.3142,-81.3412,26.1887,7.29338,-18.8125,14.0919,7.12502,7.48609,-15.7556,-4.35338e-14,9.93923e-15,-44.0215,16.5142,80.4229,27.6635,-5.21553,-7.02575,27.8902,7.12502,18.8461,56.9972,15.7783,2.71474,29.0551,7.77462,-15.1994,-0.0439968,-9.00806,-30.9589,1.67914,-12.848,27.4959,-8.14296,0.851054,-15.0428
-0.641512,17.7631,-20.5129,1.83223,-4.65494,-5.57982,12.1834,2.55153,2.96317,2.01258,3.93895,3.42896,-4.7554,1.91435,1.29006,-19.6721,-5.09291,-15.0608,24.2199,-4.34798,7.33641,11.7177,-2.43913,4.5659,3.53837e-14,5.80451e-14,-33.1957,-5.28054,-81.348,26.0274,7.18844,-18.8893,14.6823,7.12502,7.41202,-15.1679,3.53837e-14,5.80451e-14,-43.9808,16.4034,80.5027,27.9207,-4.9467,-7.23341,27.4225,7.12502,18.6463,56.5488,15.477,2.5776,29.0164,8.82798,-15.481,-0.0669909,-9.96684,-30.6617,1.56841,-12.9263,27.5587,-7.93617,0.577718,-14.9673
-0.62245,17.7636,-20.39,1.9196,-4.73304,-5.36941,12.1229,2.59749,2.76039,2.18308,3.95694,3.33835,-4.54989,1.92874,1.31248,-20.4896,-5.24458,-15.0939,24.467,-4.43831,7.39425,11.9884,-2.46901,4.58241,-7.15625e-15,-1.59028e-14,-32.7533,-5.36859,-81.4226,25.6734,6.41412,-19.1574,15.4255,7.12502,7.15326,-14.4336,-7.15625e-15,-1.59028e-14,-43.5172,16.3374,80.6735,28.1855,-4.65058,-7.10735,27.6301,7.12502,18.7676,56.7447,15.3619,2.54446,28.6969,9.45062,-15.3122,-0.354523,-13.2944,-30.3752,1.47679,-13.2971,27.7151,-7.7676,0.349334,-15.1003
-0.604601,17.7672,-20.2693,2.0259,-4.72175,-5.30125,11.8906,2.59201,2.55433,1.88836,3.93151,3.39669,-4.74924,1.91801,1.49593,-18.9352,-5.02237,-15.1446,24.0066,-4.32924,7.303,11.4917,-2.4486,4.56721,-3.48867e-14,-3.06128e-14,-33.403,-5.43485,-81.1203,25.6434,7.0801,-18.8011,14.8213,7.12502,7.49715,-15.0259,-3.48867e-14,-3.06128e-14,-44.1617,16.225,80.6043,28.4035,-4.35265,-7.34826,27.2455,7.12502,18.5359,56.3824,15.4293,2.42956,28.5199,9.79924,-15.0175,-0.365456,-15.8725,-30.1971,1.41778,-13.5348,27.9636,-7.47003,-0.0222127,-15.379
