JuanDHNZ/ProyectoFinalCD/preprocessing/sports_trials_csv/17_09.csv
root1,root2,root3,root4,root5,root6,lowerback1,lowerback2,lowerback3,upperback1,upperback2,upperback3,thorax1,thorax2,thorax3,lowerneck1,lowerneck2,lowerneck3,upperneck1,upperneck2,upperneck3,head1,head2,head3,rclavicle1,rclavicle2,rhumerus1,rhumerus2,rhumerus3,rradius1,rwrist1,rhand1,rhand2,rfingers1,rthumb1,rthumb2,lclavicle1,lclavicle2,lhumerus1,lhumerus2,lhumerus3,lradius1,lwrist1,lhand1,lhand2,lfingers1,lthumb1,lthumb2,rfemur1,rfemur2,rfemur3,rtibia1,rfoot1,rfoot2,rtoes1,lfemur1,lfemur2,lfemur3,ltibia1,lfoot1,lfoot2,ltoes1
-12.7006,17.135,-11.4694,-2.8232,-8.63563,-1.81315,5.43594,2.56792,3.05009,-0.117476,3.68846,2.30667,-3.12725,1.80325,0.37513,-21.5197,0.538181,-5.39968,29.3595,2.43209,1.19665,13.4309,0.615673,1.82128,-4.66026e-14,-2.38542e-14,-24.6999,15.4921,-76.2301,43.5675,-17.9594,24.402,9.71718,7.12502,48.6116,-12.2052,-4.66026e-14,-2.38542e-14,-31.497,-22.5665,78.4561,52.7507,41.4862,5.18614,30.0574,7.12502,30.5475,57.5441,6.24657,1.15196,24.4009,30.8935,-23.0904,-15.9002,0.294657,-23.7998,1.11811,-9.92819,21.057,-2.14158,10.8407,-11.3683
-12.6733,17.1262,-11.4043,-2.74949,-8.59718,-1.8094,5.3285,2.50724,2.99651,0.0481064,3.59401,2.36037,-2.90377,1.76137,0.476929,-21.7926,0.56033,-5.42487,29.1623,2.50782,1.13539,13.4033,0.640771,1.81419,-2.93953e-14,-3.49861e-14,-24.4152,15.1788,-76.1037,43.5931,-18.1128,24.012,10.4869,7.12502,48.2526,-11.6072,-2.93953e-14,-3.49861e-14,-30.8229,-22.6067,78.3159,52.6209,41.404,5.79544,31.9406,7.12502,31.1284,59.3175,6.4143,1.3489,24.3632,30.8347,-22.7264,-16.3386,-1.32863,-24.4094,1.55458,-10.1177,22.1816,-2.11647,10.0008,-11.2914
-12.6461,17.1178,-11.3374,-2.75839,-8.4921,-1.68387,5.36823,2.45238,2.84408,0.168532,3.50854,2.35329,-2.8112,1.72269,0.561923,-22.1787,0.497741,-5.46309,29.0666,2.45404,1.13963,13.446,0.613934,1.81604,-2.64073e-14,2.06736e-14,-24.1394,14.6622,-76.0191,43.3791,-18.127,22.9679,12.4507,7.12502,47.2892,-10.087,-2.64073e-14,2.06736e-14,-30.1749,-22.7601,78.1989,52.3323,41.1146,6.16517,33.3347,7.12502,31.4807,60.6434,6.703,1.38083,24.1428,30.7584,-22.5164,-16.6211,-2.59528,-24.9125,1.96158,-10.4628,23.2508,-2.17206,9.19498,-10.6715
-12.6227,17.1089,-11.2698,-2.80283,-8.41479,-1.65242,5.44303,2.42367,2.79962,0.315678,3.46385,2.30634,-2.70121,1.70268,0.542051,-22.5194,0.450866,-5.29913,28.9772,2.35727,1.09821,13.486,0.584797,1.75751,8.96395e-15,-2.38542e-15,-23.9593,13.9534,-76.0193,43.349,-18.282,20.9103,16.4801,7.12502,45.3821,-6.86733,8.96395e-15,-2.38542e-15,-29.427,-23.0341,77.994,51.9899,40.8107,5.67481,33.0225,7.12502,31.0134,60.4215,7.07323,1.51366,24.0828,30.6111,-22.6531,-16.7877,-2.25027,-25.3581,2.40466,-10.6887,24.3049,-2.22142,8.35168,-10.2692
-12.5952,17.1044,-11.2026,-2.78911,-8.50795,-1.82575,5.58286,2.41048,2.96872,0.333436,3.46339,2.34726,-2.75385,1.69979,0.484176,-22.3861,0.537989,-5.11738,28.7722,2.43851,0.979938,13.3729,0.629642,1.68907,4.30338e-14,1.19271e-14,-24.2248,13.4936,-76.0545,43.6914,-18.5007,24.1388,10.8178,7.12502,48.3694,-11.2208,4.30338e-14,1.19271e-14,-29.1238,-23.206,77.9305,51.8076,40.5739,5.15265,32.3213,7.12502,30.5156,59.814,7.35432,1.82321,24.2516,30.4423,-22.4212,-17.1351,-2.84632,-25.8242,2.74323,-10.5967,25.3066,-2.33723,7.59234,-9.95689
-12.5593,17.1026,-11.1334,-2.72692,-8.64268,-1.94319,5.80276,2.37613,3.09726,0.16661,3.44643,2.4529,-3.04889,1.68534,0.508337,-21.9133,0.635485,-5.17391,28.5074,2.58218,0.92052,13.1593,0.687123,1.68962,2.64011e-14,2.46493e-14,-24.8909,13.4598,-76.0817,44.01,-18.3887,24.7055,8.95624,7.12502,48.8906,-12.8301,2.64011e-14,2.46493e-14,-29.2595,-23.3121,78.1272,51.6058,40.3118,5.7835,31.7102,7.12502,31.117,59.0893,7.65421,1.99032,24.2353,30.2392,-22.095,-17.2843,-4.1801,-26.2265,2.94865,-10.5575,26.2276,-2.4499,6.81421,-9.91129
-12.522,17.0952,-11.0638,-2.68356,-8.66027,-2.01676,5.99632,2.33358,3.2219,0.0889787,3.41234,2.49298,-3.23354,1.66361,0.47247,-21.7357,0.661452,-5.16268,28.3436,2.59967,0.917617,13.0541,0.700867,1.6844,7.50412e-15,-4.77083e-15,-25.2839,13.2943,-76.1142,44.0645,-18.2244,24.281,9.56981,7.12502,48.5002,-12.4062,7.50412e-15,-4.77083e-15,-28.9687,-23.6283,78.1947,51.2364,40.256,6.43848,30.8344,7.12502,31.741,58.092,8.00734,2.07861,24.1666,29.9897,-22.006,-17.2419,-4.47217,-26.5692,3.23484,-10.6635,27.0573,-2.2727,5.90233,-10.6024
-12.4821,17.0907,-10.9903,-2.59092,-8.65084,-2.19564,6.08101,2.2883,3.46812,0.0280557,3.37753,2.539,-3.33349,1.64063,0.380827,-21.5354,0.666363,-5.10465,28.2517,2.56967,0.914747,12.9766,0.697046,1.66421,9.41742e-15,1.35174e-14,-25.3241,13.1423,-76.1381,43.7529,-18.3175,24.2741,9.99661,7.12502,48.4938,-11.9825,9.41742e-15,1.35174e-14,-28.6471,-23.9483,78.2134,51.0338,40.2708,6.51856,30.4526,7.12502,31.8173,57.695,8.28145,2.13753,24.2016,29.7837,-21.9885,-17.1742,-4.45255,-27.02,3.50722,-10.6791,27.8108,-1.86076,5.12845,-10.8809
-12.4355,17.0906,-10.9037,-2.52716,-8.73958,-2.19797,6.06809,2.29281,3.59283,0.00962293,3.39279,2.55701,-3.3391,1.64597,0.328982,-21.6392,0.629606,-5.12578,28.4047,2.53645,0.909693,13.0624,0.674707,1.66411,-8.4235e-15,-1.27222e-14,-25.4197,13.0848,-76.0734,43.6024,-18.4358,24.5463,9.9389,7.12502,48.7443,-11.919,-8.4235e-15,-1.27222e-14,-28.3643,-24.1784,78.27,50.992,40.0176,6.80195,31.1028,7.12502,32.0872,58.2912,8.61248,2.06712,23.9069,29.6412,-22.0229,-16.9409,-5.00322,-27.311,3.6927,-10.8875,28.5315,-1.70768,4.5988,-10.8103
-12.3871,17.085,-10.8118,-2.49151,-9.07635,-2.06372,5.96086,2.35974,3.63313,0.0832557,3.47427,2.53386,-3.19729,1.68833,0.282646,-21.9162,0.645865,-5.18633,28.526,2.58159,0.978287,13.166,0.692774,1.71445,-4.65342e-14,-1.82882e-14,-25.5072,13.1226,-76.0155,43.6294,-18.5186,24.6803,9.72378,7.12502,48.8675,-12.0739,-4.65342e-14,-1.82882e-14,-27.922,-24.3205,78.2438,50.8677,39.7156,7.13948,31.5468,7.12502,32.4085,58.6699,8.94928,2.15254,23.4175,29.5171,-22.0865,-16.5249,-5.35322,-27.4056,4.02822,-11.2285,29.2652,-1.74558,4.17291,-10.936
-12.3412,17.0815,-10.7226,-2.34825,-9.59934,-2.17089,5.83617,2.44848,3.87773,0.114167,3.60121,2.58079,-3.08112,1.74993,0.191746,-21.8794,0.721371,-5.19846,28.3614,2.68233,0.995717,13.0855,0.742563,1.73704,-2.34504e-15,-7.95139e-16,-25.4413,13.282,-76.0396,43.3101,-18.5555,24.3062,9.94472,7.12502,48.5234,-12.0201,-2.34504e-15,-7.95139e-16,-27.6715,-24.4457,78.2325,50.8702,39.4438,7.33219,31.4732,7.12502,32.5918,58.5586,9.08054,2.47101,23.2474,29.4392,-21.9308,-16.1988,-6.02799,-27.5464,4.51179,-11.2621,30.0243,-1.62717,3.81031,-10.9267
-12.2954,17.0818,-10.6373,-2.18761,-10.0101,-2.36178,5.83909,2.50113,4.14024,0.0566804,3.694,2.66541,-3.12964,1.79102,0.124445,-21.7901,0.77205,-5.02455,28.3436,2.7513,0.787266,13.0643,0.763024,1.6368,2.16147e-14,1.98785e-14,-25.575,13.4247,-76.0577,43.0546,-18.3974,23.9541,10.2745,7.12502,48.1992,-11.8448,2.16147e-14,1.98785e-14,-27.7075,-24.6341,78.3142,51.0885,39.1827,7.42179,31.2589,7.12502,32.6771,58.3267,9.16218,2.66053,23.1598,29.4201,-21.6771,-15.9392,-7.18417,-27.7079,4.93607,-11.2275,30.7691,-1.43701,3.51836,-11.3545
-12.2487,17.0769,-10.5527,-2.18928,-10.3936,-2.44606,5.99975,2.5226,4.25921,0.0353017,3.74383,2.73418,-3.23796,1.81188,0.116899,-21.9199,0.834021,-4.86202,28.6151,2.83871,0.654488,13.206,0.791941,1.57893,-2.21521e-14,-8.74653e-15,-25.8259,13.5234,-76.0663,43.0759,-18.0336,24.1762,10.0243,7.12502,48.4038,-11.9979,-2.21521e-14,-8.74653e-15,-27.6604,-24.7401,78.3488,51.2367,39.1349,7.42978,31.5722,7.12502,32.6847,58.6384,9.44218,2.80448,22.9362,29.4123,-21.5236,-15.5552,-8.02084,-27.7242,5.38937,-11.3215,31.477,-1.32803,3.29399,-11.9478
-12.2007,17.0734,-10.4601,-2.24852,-10.6751,-2.41173,6.06982,2.48528,4.2674,0.118637,3.69613,2.77968,-3.19469,1.78973,0.161886,-22.0086,0.942127,-4.86789,28.63,2.99703,0.671964,13.2243,0.861803,1.61546,-1.62413e-14,1.90833e-14,-25.7657,13.6201,-76.0607,42.9407,-17.6751,24.5455,9.40708,7.12502,48.7436,-12.4512,-1.62413e-14,1.90833e-14,-27.4071,-24.7391,78.2907,51.293,39.1688,7.34569,31.6027,7.12502,32.6047,58.6855,9.77754,2.86282,22.5567,29.4293,-21.5055,-15.0613,-8.32438,-27.7046,5.77932,-11.5684,32.1556,-1.36175,3.07672,-11.8304
-12.1527,17.0707,-10.3607,-2.29139,-10.7935,-2.28069,6.01534,2.38657,4.17724,0.185659,3.55315,2.83164,-3.10708,1.72259,0.281276,-21.723,1.04384,-4.96344,28.3243,3.16076,0.642586,13.0322,0.928914,1.63856,3.23429e-14,-2.46493e-14,-25.6792,13.83,-76.0157,42.7289,-17.345,24.514,9.34222,7.12502,48.7146,-12.5302,3.23429e-14,-2.46493e-14,-27.3535,-24.6558,78.3398,51.4156,39.0317,7.38515,30.9173,7.12502,32.6422,57.9923,10.059,2.75806,22.053,29.5008,-21.4945,-14.6842,-8.90442,-27.7044,6.01147,-11.9313,32.8346,-1.57553,2.89976,-10.7163
-12.1072,17.0637,-10.2708,-2.31574,-11.0079,-2.22486,6.11475,2.32546,4.09522,0.161102,3.47682,2.92768,-3.20102,1.68463,0.426788,-21.5467,1.10693,-5.07678,28.3274,3.27789,0.65281,12.991,0.970119,1.67881,-1.37286e-14,-1.03368e-14,-25.8804,14.0635,-75.9455,42.762,-17.0519,24.2675,9.82873,7.12502,48.4878,-12.1533,-1.37286e-14,-1.03368e-14,-27.3868,-24.5744,78.4754,51.5246,38.8765,7.56422,31.0631,7.12502,32.8126,58.1027,10.2626,2.86923,21.7181,29.6168,-21.2495,-14.5541,-10.1045,-27.7373,6.3877,-12.1815,33.5563,-1.83819,2.85238,-9.73491
-12.0607,17.0591,-10.1837,-2.2184,-11.2577,-2.22454,6.15643,2.27173,4.05224,0.0810167,3.41242,3.02911,-3.31762,1.65139,0.556904,-21.5696,1.18799,-5.20218,28.5808,3.4216,0.740471,13.0906,1.02386,1.76334,-4.62174e-15,-1.19271e-14,-25.9922,14.2357,-75.8719,42.6009,-16.8806,24.2269,10.066,7.12502,48.4504,-11.9339,-4.62174e-15,-1.19271e-14,-27.414,-24.5811,78.6068,51.5785,38.7167,7.38885,30.7792,7.12502,32.6457,57.8535,10.3046,3.10112,21.4626,29.8104,-21.0602,-14.3437,-10.7994,-27.9921,6.89731,-12.3961,34.3409,-2.02052,2.87619,-10.0124
-12.0117,17.0525,-10.0845,-2.13653,-11.4798,-2.1902,6.00327,2.2584,4.06945,0.0905499,3.38527,3.02566,-3.221,1.63931,0.552981,-21.4716,1.26507,-5.052,28.5189,3.4856,0.685605,13.046,1.06305,1.72476,-2.82895e-14,-3.02153e-14,-25.836,14.0202,-75.8444,42.1036,-16.6422,24.3963,9.81822,7.12502,48.6063,-12.1067,-2.82895e-14,-3.02153e-14,-27.3534,-24.9129,78.633,51.5978,38.5208,7.0006,29.6303,7.12502,32.2763,56.7805,10.3303,3.24212,21.1035,30.1088,-21.003,-13.9893,-11.311,-28.2228,7.38983,-12.6689,35.1577,-2.25211,2.8541,-9.83853
-11.961,17.039,-9.9844,-2.11251,-11.6124,-2.18155,5.84434,2.26184,4.14894,0.18277,3.37896,2.99858,-3.03011,1.63867,0.490566,-21.3433,1.29638,-4.77657,28.2392,3.45726,0.543131,12.9137,1.06958,1.61117,1.34801e-14,1.19271e-14,-25.788,13.7725,-75.8701,41.8834,-16.931,23.6822,9.45439,7.12502,47.9486,-12.7824,1.34801e-14,1.19271e-14,-27.0583,-25.3993,78.5795,51.5822,38.3859,7.08232,29.8927,7.12502,32.3541,57.027,10.355,3.31202,20.7698,30.4816,-20.793,-13.7039,-12.1298,-28.3715,7.78409,-12.9217,35.9547,-2.65354,2.56386,-9.58563
-11.909,17.0265,-9.88771,-2.13594,-11.6973,-2.21682,5.95631,2.17119,4.18985,0.139827,3.2735,3.09646,-3.14317,1.58387,0.571504,-21.2776,1.35584,-4.80504,28.3024,3.55085,0.541614,12.9225,1.10579,1.63111,8.25578e-15,8.74653e-15,-26.1303,13.9226,-75.8844,42.0493,-17.6175,22.597,9.22022,7.12502,46.9463,-13.4696,8.25578e-15,8.74653e-15,-27.0928,-25.5747,78.7119,51.6636,38.31,7.28195,30.2585,7.12502,32.544,57.3539,10.4266,3.3509,20.4906,30.9264,-20.6292,-13.374,-12.6009,-28.4876,8.09912,-13.1037,36.7066,-3.14712,1.97324,-10.6044
-11.8571,17.0167,-9.78499,-2.22459,-11.8624,-2.15582,6.14431,2.0942,4.08717,0.10002,3.18134,3.18766,-3.30256,1.53728,0.721754,-21.3954,1.4267,-4.78977,28.5579,3.6753,0.502788,13.0494,1.14785,1.64105,-2.07078e-14,-3.4191e-14,-26.357,13.7167,-75.7194,42.0925,-17.2537,22.9148,9.10548,7.12502,47.2401,-13.4542,-2.07078e-14,-3.4191e-14,-27.2582,-25.574,78.8687,51.8677,38.2288,7.15628,29.7046,7.12502,32.4244,56.8245,10.5761,3.40323,20.0674,31.4378,-20.615,-12.8915,-12.8885,-28.4608,8.40723,-13.3443,37.4039,-3.49805,1.41268,-11.3027
-11.8037,17.0067,-9.67809,-2.32399,-11.9622,-1.96492,6.08458,2.02476,3.93341,0.186722,3.06998,3.19609,-3.18917,1.48688,0.829373,-21.4136,1.46022,-4.64544,28.5797,3.72663,0.332754,13.0685,1.16087,1.56008,-1.13618e-14,-1.66979e-14,-26.248,13.3268,-75.4658,41.875,-16.5263,23.6778,9.08072,7.12502,47.9445,-13.158,-1.13618e-14,-1.66979e-14,-27.2094,-25.5876,78.9273,51.9909,38.0938,6.89203,29.4148,7.12502,32.1729,56.586,10.6639,3.33579,19.4466,32.0185,-20.4954,-12.3684,-13.8732,-28.3827,8.58845,-13.7313,38.0703,-3.80579,1.08841,-10.3186
-11.7506,16.9987,-9.57501,-2.39806,-12.0169,-1.92199,6.16448,1.89852,3.92275,0.137363,2.91101,3.26479,-3.29137,1.40659,0.915927,-21.0678,1.57106,-4.6298,28.5123,3.87691,0.267333,12.9667,1.22387,1.55038,5.33178e-14,5.96354e-14,-26.4803,13.2747,-75.3444,41.8865,-16.4498,23.5453,9.28504,7.12502,47.8224,-13.0102,5.33178e-14,5.96354e-14,-27.4192,-25.6126,79.0862,52.0608,37.9704,6.79584,29.1251,7.12502,32.0813,56.3147,10.6721,3.2138,18.9899,32.6746,-20.2106,-11.8835,-15.4017,-28.3315,8.77726,-13.9669,38.7351,-4.27968,0.859973,-8.77679
-11.7,16.9885,-9.47574,-2.40154,-12.2193,-2.09944,6.35666,1.8117,4.01459,0.0508808,2.82464,3.43609,-3.4947,1.3596,1.0415,-20.8299,1.70984,-4.65951,28.5013,4.07277,0.264008,12.9063,1.30844,1.58236,7.57245e-15,-1.43125e-14,-26.7947,13.0739,-75.2143,42.0251,-16.2555,23.2652,9.84938,7.12502,47.5638,-12.5644,7.57245e-15,-1.43125e-14,-27.6151,-25.6024,79.2464,52.1521,37.7317,6.91951,29.0643,7.12502,32.1991,56.2302,10.5663,3.25414,18.8129,33.42,-19.8158,-11.2816,-15.9196,-28.3012,9.15989,-13.9507,39.3847,-4.84887,0.621213,-8.38029
-11.6484,16.9738,-9.37088,-2.48252,-12.434,-2.19957,6.33324,1.76198,4.07552,0.187308,2.75747,3.56478,-3.34429,1.32905,1.14972,-21.0352,1.73488,-4.65054,28.5816,4.12544,0.248741,12.9808,1.32568,1.5888,-1.03368e-14,3.33958e-14,-26.6322,12.6529,-74.979,41.9082,-15.8521,23.0766,10.631,7.12502,47.3896,-11.8616,-1.03368e-14,3.33958e-14,-27.4101,-25.7595,79.2451,52.1993,37.6541,6.80702,29.3254,7.12502,32.092,56.5128,10.4534,3.28473,18.5377,34.303,-18.6485,-11.1615,-18.4538,-28.153,9.56743,-14.0208,40.0093,-5.50947,0.382727,-8.30129
-11.5973,16.9629,-9.25666,-2.69263,-12.5933,-2.01351,6.23053,1.74942,3.90933,0.380698,2.71138,3.57253,-3.09434,1.31345,1.26057,-21.3155,1.73137,-4.61799,28.718,4.10668,0.320757,13.0939,1.32427,1.61564,2.24099e-14,-2.38542e-14,-26.5844,12.2783,-74.7302,41.9757,-15.833,22.7138,11.1907,7.12502,47.0543,-11.4515,2.24099e-14,-2.38542e-14,-27.1566,-26.1902,79.1911,52.304,37.8798,6.72493,29.2833,7.12502,32.0138,56.4865,10.3926,3.17814,17.88,35.3131,-16.7033,-11.7991,-25.673,-27.8661,9.90703,-14.406,40.5991,-6.20249,0.132424,-7.92114
-11.5464,16.955,-9.14862,-2.88017,-12.7261,-1.75729,6.24064,1.70823,3.61964,0.43964,2.63432,3.58256,-3.05267,1.28022,1.43953,-21.0168,1.80479,-4.47806,28.5425,4.18449,0.169806,12.9651,1.36029,1.53804,1.07406e-14,1.74931e-14,-26.8963,11.9873,-74.49,42.2881,-16.0825,22.7722,11.3472,7.12502,47.1083,-11.2712,1.07406e-14,1.74931e-14,-27.0829,-26.4936,79.2237,52.4007,37.9286,6.82252,29.1937,7.12502,32.1067,56.3782,10.1992,2.99646,17.1033,36.4261,-17.1927,-10.5717,-22.8324,-27.6181,10.2242,-14.8764,41.1352,-6.77187,-0.0995324,-7.52865
-11.4912,16.9477,-9.04202,-3.04368,-12.7529,-1.77476,6.31191,1.56455,3.64549,0.454628,2.45123,3.68155,-3.08047,1.18899,1.54159,-20.4156,1.91736,-4.26767,28.1429,4.33958,-0.207653,12.6913,1.41607,1.36557,1.48343e-14,-2.70347e-14,-27.268,11.7937,-74.2729,42.5643,-16.2226,23.073,11.0396,7.12502,47.3863,-11.4546,1.48343e-14,-2.70347e-14,-27.0141,-26.6388,79.3384,52.2668,37.777,6.47821,28.9437,7.12502,31.7789,56.1937,9.92436,2.68955,16.6162,37.6386,-17.3201,-8.80347,-20.0197,-27.3241,10.4998,-15.0676,41.5885,-7.34214,-0.316852,-7.18557
-11.4342,16.9449,-8.92391,-3.23867,-12.8261,-1.83975,6.31868,1.45783,3.76986,0.503817,2.31837,3.78982,-3.03284,1.12242,1.59639,-20.2171,1.9899,-4.28643,28.0671,4.45647,-0.276079,12.619,1.46022,1.35678,-2.68484e-14,5.725e-14,-27.5013,11.6088,-74.0841,42.6436,-16.1771,23.0016,10.6059,7.12502,47.3203,-11.9179,-2.68484e-14,5.725e-14,-26.9293,-26.7768,79.5127,52.0762,37.6426,6.15669,28.7768,7.12502,31.4726,56.0871,9.63414,2.40146,16.1311,38.9601,-16.66,-7.43795,-18.3321,-26.8582,10.7863,-15.1989,41.9275,-8.02404,-0.49468,-7.11794
-11.3799,16.9489,-8.81078,-3.4613,-12.9251,-1.66129,6.31047,1.39592,3.63613,0.640968,2.21872,3.80654,-2.89167,1.07683,1.69876,-20.3643,2.01703,-4.34964,28.1568,4.5065,-0.204151,12.6803,1.48091,1.40709,-1.94747e-15,6.20208e-14,-27.3862,11.1622,-73.8787,42.3543,-16.0152,22.6503,11.8149,7.12502,46.9956,-10.8533,-1.94747e-15,6.20208e-14,-26.697,-26.9262,79.5169,52.0521,37.5965,6.14985,28.8551,7.12502,31.4661,56.1667,9.21102,2.14246,15.3523,40.3845,-15.5622,-6.03644,-15.1564,-26.356,11.0799,-15.582,42.1604,-8.58276,-0.677835,-6.91037
-11.3286,16.9538,-8.70442,-3.74629,-12.8815,-1.36094,6.38996,1.28149,3.32387,0.804582,2.04044,3.79479,-2.77638,0.993497,1.87628,-20.3549,2.06647,-4.28439,28.0277,4.56653,-0.263356,12.628,1.51007,1.38091,-4.77788e-14,-3.02153e-14,-27.3942,10.6037,-73.6156,42.1291,-15.8339,22.0158,14.5054,7.12502,46.4081,-8.41724,-4.77788e-14,-3.02153e-14,-26.4781,-27.0556,79.4238,52.1279,37.5687,5.98166,28.4412,7.12502,31.3058,55.7839,8.74387,1.71172,14.4273,41.9212,-14.0166,-4.73236,-11.769,-25.8092,11.2466,-16.0884,42.2874,-9.03859,-0.877227,-6.46225
-11.2776,16.9534,-8.59382,-4.03117,-12.7771,-1.1473,6.57259,1.16155,3.05173,0.838431,1.87193,3.8379,-2.85213,0.912331,2.08464,-20.235,2.16957,-4.27769,27.9516,4.69017,-0.227316,12.5681,1.57418,1.40998,4.08767e-14,2.38542e-14,-27.8348,10.2244,-73.3227,42.2627,-15.7617,21.2926,16.4291,7.12502,45.7373,-6.774,4.08767e-14,2.38542e-14,-26.4586,-27.2164,79.5139,52.1024,37.5712,5.90891,28.0157,7.12502,31.2365,55.3719,8.25,1.24422,13.5963,43.6201,-12.542,-3.93153,-11.7517,-25.236,11.2977,-16.4937,42.3526,-9.53228,-1.02138,-6.36713
-11.2234,16.9506,-8.48404,-4.22395,-12.6357,-0.808087,6.64179,1.03212,2.70269,0.840641,1.67844,3.82946,-2.89535,0.819836,2.28773,-20.3384,2.27408,-4.24474,28.1112,4.83657,-0.21147,12.6501,1.63841,1.43909,3.49271e-14,-6.36111e-15,-28.1152,9.95812,-73.0931,42.3888,-15.6934,20.6961,17.5535,7.12502,45.183,-5.87357,3.49271e-14,-6.36111e-15,-26.2203,-27.4259,79.5723,51.8803,37.5404,6.03994,28.2474,7.12502,31.3614,55.5793,7.52259,0.785617,12.6094,45.4926,-11.2649,-3.09981,-11.6184,-24.7854,11.2752,-17.0883,42.4084,-10.0174,-1.07381,-6.95736
-11.1715,16.9481,-8.39078,-4.38777,-12.4647,-0.349444,6.70181,0.866365,2.19071,0.891029,1.42079,3.79885,-2.88289,0.697467,2.56637,-20.376,2.363,-4.13286,28.1808,4.98126,-0.373965,12.6918,1.68858,1.38391,1.23177e-14,-1.59028e-14,-28.1975,9.71425,-72.9538,42.5276,-15.3756,20.3471,17.5107,7.12502,44.8582,-6.04448,1.23177e-14,-1.59028e-14,-25.8203,-27.4466,79.5033,51.6486,37.3289,6.06984,28.6244,7.12502,31.3899,55.9508,6.53166,0.345221,11.5478,47.5278,-9.78072,-2.26894,-9.75345,-24.4307,11.2498,-17.8223,42.441,-10.3956,-1.11266,-7.42516
-11.1275,16.9458,-8.31117,-4.60037,-12.3817,-0.13042,7.00499,0.741532,1.8329,0.913941,1.24188,3.83985,-3.03202,0.612326,2.82415,-20.2282,2.43993,-4.00017,28.1132,5.08295,-0.532075,12.6414,1.72928,1.3138,-2.111e-14,-9.54166e-15,-28.4929,9.21755,-72.7951,42.8723,-15.1425,20.5854,15.895,7.12502,45.08,-7.57296,-2.111e-14,-9.54166e-15,-25.6564,-27.3936,79.494,51.5481,37.0526,5.8961,28.6301,7.12502,31.2243,55.9886,5.42337,0.0868082,10.8992,49.6985,-8.0495,-1.64789,-7.55261,-24.0238,11.3152,-18.2125,42.4478,-10.6277,-1.19281,-7.37795
-11.0842,16.9442,-8.22261,-4.88541,-12.3597,0.156743,7.25646,0.64793,1.43416,0.970832,1.09507,3.86748,-3.11638,0.543919,3.09039,-20.2333,2.53259,-3.89623,28.1132,5.21043,-0.628834,12.6463,1.78307,1.28041,1.73471e-15,3.81667e-14,-28.7207,8.60165,-72.5446,43.1268,-15.2936,20.5689,15.3096,7.12502,45.0647,-8.1644,1.73471e-15,3.81667e-14,-25.5505,-27.3116,79.5416,51.4633,36.8137,5.60432,28.4734,7.12502,30.9462,55.8851,4.36881,-0.0994322,10.1579,51.9272,-6.17942,-1.06874,-4.58172,-23.4674,11.382,-18.6502,42.4278,-10.8722,-1.22417,-7.10441
-11.0407,16.9439,-8.13147,-5.0659,-12.3406,0.48737,7.4159,0.526631,0.926268,1.00838,0.900138,3.95366,-3.16728,0.453379,3.48647,-20.4715,2.66522,-3.96389,28.306,5.46491,-0.681315,12.7692,1.87108,1.3216,-9.57894e-15,1.74931e-14,-28.7337,8.10833,-72.2203,43.2787,-15.5764,21.7503,11.8935,7.12502,46.162,-11.1333,-9.57894e-15,1.74931e-14,-25.3284,-27.1195,79.6249,51.2663,36.5608,5.27763,28.4379,7.12502,30.6347,55.9083,3.1834,-0.306466,9.37201,54.1611,-4.13666,-0.620085,-1.23351,-22.9899,11.4006,-19.1601,42.3845,-11.1815,-1.22788,-6.37985
-10.9997,16.9461,-8.04111,-5.09556,-12.2926,0.717653,7.55577,0.388101,0.45497,0.939636,0.689286,4.09972,-3.31276,0.35649,3.92864,-20.5925,2.75847,-4.18481,28.5222,5.68712,-0.656375,12.8709,1.93885,1.41102,4.66523e-15,-6.36111e-15,-28.9367,7.73091,-71.9011,43.6504,-15.7883,22.0027,13.207,7.12502,46.3959,-9.72083,4.66523e-15,-6.36111e-15,-25.1922,-27.0438,79.754,51.0304,36.269,5.19901,28.6926,7.12502,30.5598,56.177,1.80312,-0.570052,8.75435,56.3784,-2.21367,-0.227873,0.356487,-22.645,11.368,-19.5915,42.31,-11.5223,-1.19156,-5.62512
-10.9603,16.9506,-7.94496,-5.20964,-12.2201,1.06457,7.64883,0.322825,-0.00833839,0.883251,0.568222,4.08378,-3.41969,0.303967,4.18853,-20.3837,2.7505,-4.14647,28.5133,5.66463,-0.710963,12.8282,1.92807,1.37507,-1.62289e-15,3.18055e-15,-29.5969,7.27591,-71.7106,44.2485,-15.7916,21.846,13.4427,7.12502,46.2507,-9.54673,-1.62289e-15,3.18055e-15,-25.0128,-27.3732,79.7605,50.8388,36.0405,5.26139,29.0135,7.12502,30.6193,56.4868,0.585603,-0.806061,7.99642,58.5497,-0.404449,0.233464,2.00011,-22.1595,11.3404,-20.1506,42.15,-11.8049,-1.1377,-5.38241
-10.9233,16.9557,-7.85545,-5.33853,-12.1481,1.37557,7.80327,0.311742,-0.381496,0.830225,0.523739,3.98281,-3.56017,0.288769,4.30051,-20.1847,2.71738,-3.93881,28.4888,5.54664,-0.765911,12.7874,1.89422,1.29519,1.94677e-14,-9.54166e-15,-30.3743,6.53365,-71.5826,44.757,-15.7898,21.586,12.9483,7.12502,46.0096,-10.1423,1.94677e-14,-9.54166e-15,-24.7436,-27.7943,79.6912,50.6333,35.6692,4.94677,28.5563,7.12502,30.3192,56.0853,-0.628752,-0.951859,7.34313,60.6728,1.62232,0.585217,4.62445,-21.6444,11.3167,-20.6504,41.9065,-12.0064,-1.09784,-5.42203
-10.8888,16.9681,-7.76905,-5.44947,-11.9796,1.64548,7.96279,0.218358,-0.788955,0.773777,0.367833,3.96591,-3.69841,0.21979,4.53353,-20.1109,2.78631,-3.9394,28.5182,5.61725,-0.686895,12.779,1.93626,1.33585,-1.48498e-14,-2.22639e-14,-30.9844,5.93456,-71.4238,45.1798,-16.0354,22.1091,11.1371,7.12502,46.4946,-11.7486,-1.48498e-14,-2.22639e-14,-24.5065,-27.8503,79.7078,50.3128,35.0621,4.84315,28.144,7.12502,30.2204,55.6911,-1.95375,-1.26876,6.79552,62.6963,3.64318,0.87335,6.96856,-21.1151,11.1972,-21.1058,41.6271,-12.249,-1.05504,-5.4213
-10.8573,16.9843,-7.68259,-5.54603,-11.6737,1.87288,8.02438,0.0592862,-1.22165,0.801512,0.119714,4.02734,-3.68402,0.102867,4.87343,-20.1535,2.8659,-3.9634,28.5045,5.75896,-0.739393,12.7811,1.98855,1.34364,-1.83077e-14,-1.90833e-14,-31.2327,5.35261,-71.1883,45.3544,-16.2031,22.4193,9.84023,7.12502,46.7818,-12.9215,-1.83077e-14,-1.90833e-14,-24.0692,-27.9141,79.6889,49.9373,34.7506,5.07684,28.4425,7.12502,30.4433,55.9486,-3.26757,-1.72908,6.35129,64.6061,5.38716,0.970376,9.43179,-20.6142,11.0247,-21.5296,41.3642,-12.5273,-1.07374,-5.4647
-10.8295,16.9913,-7.60492,-5.48085,-11.4382,1.87583,8.00274,-0.0483749,-1.44204,0.863527,-0.0418391,4.1233,-3.59206,0.0237941,5.11788,-20.3884,2.87645,-3.86951,28.5025,5.80111,-0.883005,12.8376,1.99387,1.28535,3.69615e-15,-2.8625e-14,-31.0853,4.3824,-70.9408,45.0511,-16.055,22.3323,10.3984,7.12502,46.7013,-12.3983,3.69615e-15,-2.8625e-14,-23.4664,-28.1755,79.5751,49.6574,34.6818,4.68691,28.4923,7.12502,30.0713,56.0666,-4.69536,-1.99704,6.29213,66.4406,6.88775,0.709565,11.4545,-20.3409,10.9032,-21.7055,41.1614,-12.7451,-1.10388,-5.32585
-10.8047,17.0022,-7.52944,-5.4399,-11.4684,1.69434,8.05788,-0.0980332,-1.4222,0.911976,-0.104198,4.21785,-3.56623,-0.00836482,5.21368,-20.4067,2.92483,-3.84049,28.4278,5.85113,-0.863813,12.8096,2.02408,1.29514,1.2101e-14,-2.70347e-14,-31.2219,3.60465,-70.8474,44.9814,-15.9519,22.0155,11.1457,7.12502,46.4078,-11.7771,1.2101e-14,-2.70347e-14,-23.0646,-28.2619,79.433,49.4641,34.3801,4.32966,28.4523,7.12502,29.7304,56.088,-6.10859,-2.03453,6.53186,68.1187,8.48148,0.312266,14.3701,-19.9715,10.9431,-21.6119,40.9736,-12.929,-1.08836,-5.01378
-10.7791,17.0192,-7.44895,-5.43967,-11.4449,1.65161,7.99868,-0.161138,-1.43771,1.04002,-0.19435,4.21305,-3.39071,-0.0585017,5.22456,-20.4165,2.97914,-3.87382,28.2148,5.8794,-0.705031,12.7153,2.06274,1.36218,3.4837e-14,2.54444e-14,-31.5921,2.93215,-70.803,45.2896,-16.0614,21.6712,11.162,7.12502,46.0887,-11.8955,3.4837e-14,2.54444e-14,-22.4773,-28.3944,79.1214,49.193,34.246,4.40431,28.5502,7.12502,29.8016,56.1732,-7.45882,-2.20309,6.59817,69.6361,9.90353,-0.0953502,18.5353,-19.5362,10.9163,-21.6751,40.7803,-13.1828,-1.07248,-5.07524
-10.7525,17.029,-7.36844,-5.46976,-11.2122,1.92441,7.9368,-0.254288,-1.77358,1.1138,-0.352069,4.14931,-3.2616,-0.136896,5.36422,-20.5334,3.02971,-3.97903,28.111,5.91526,-0.468544,12.6818,2.1028,1.47623,3.06874e-14,-7.95139e-15,-31.917,2.16249,-70.6284,45.3506,-16.1855,21.7948,10.7278,7.12502,46.2033,-12.2816,3.06874e-14,-7.95139e-15,-21.9327,-28.5864,78.9117,48.9024,34.3692,4.41379,28.4837,7.12502,29.8107,56.1051,-8.68476,-2.5593,6.25881,71.0103,10.5165,-0.526083,22.0533,-19.101,10.6648,-22.1292,40.5273,-13.507,-0.97427,-5.36542
-10.7308,17.0402,-7.29596,-5.47509,-11.0475,1.93819,8.05375,-0.413664,-1.97491,1.021,-0.576257,4.24496,-3.39669,-0.241314,5.60892,-20.3756,3.14149,-4.19935,28.2072,6.07447,-0.238637,12.6668,2.18017,1.624,-6.03808e-15,4.77083e-15,-32.2799,1.81908,-70.4755,45.1951,-16.164,21.9735,10.543,7.12502,46.3689,-12.3963,-6.03808e-15,4.77083e-15,-21.9633,-28.4304,78.9423,48.7901,34.4657,4.45801,28.2993,7.12502,29.8529,55.9131,-9.83273,-2.84196,6.28145,72.2519,10.2901,-1.25292,24.8158,-18.6562,10.4813,-22.2624,40.22,-13.7477,-0.908919,-5.47415
-10.713,17.062,-7.21691,-5.36161,-10.9018,1.81281,8.02928,-0.554196,-2.01735,0.948845,-0.763002,4.32324,-3.43568,-0.331376,5.73715,-20.2921,3.23638,-4.10287,28.269,6.20429,-0.33163,12.679,2.23345,1.59283,-1.28713e-14,-6.36111e-15,-32.6159,1.47088,-70.4522,45.0966,-16.0388,21.9112,11.4519,7.12502,46.3111,-11.5119,-1.28713e-14,-6.36111e-15,-21.9262,-28.4186,78.8815,48.7027,34.6429,4.10058,27.8412,7.12502,29.5117,55.5158,-11.2545,-3.29402,6.59176,73.2363,9.87105,-1.54151,23.7403,-18.2647,10.3664,-22.2373,39.8754,-13.8768,-0.949637,-5.62628
-10.6974,17.078,-7.13171,-5.3736,-10.7561,2.03608,8.11633,-0.583041,-2.35459,0.900979,-0.832869,4.24243,-3.52251,-0.358924,5.85578,-20.4524,3.29271,-3.81626,28.3228,6.26537,-0.543291,12.752,2.25754,1.48014,-1.59028e-15,1.59028e-14,-33.0417,0.820573,-70.4337,45.0418,-15.9351,21.9112,12.3351,7.12502,46.3112,-10.6288,-1.59028e-15,1.59028e-14,-21.699,-28.7611,78.784,48.5242,34.8088,3.82641,27.6973,7.12502,29.25,55.4178,-12.4172,-3.64689,6.46646,74.1233,9.10685,-1.94265,23.8593,-17.7252,10.2499,-22.5816,39.4799,-13.9746,-0.888309,-5.99593
-10.6851,17.0999,-7.05747,-5.37845,-10.6727,2.06092,8.34023,-0.650932,-2.57887,0.814071,-0.941862,4.26738,-3.72147,-0.403088,6.03142,-20.4968,3.3771,-3.80416,28.4174,6.37774,-0.505073,12.7957,2.30971,1.51418,-9.93923e-15,-3.18055e-15,-33.4708,0.396673,-70.416,44.9695,-15.8298,21.9265,12.4465,7.12502,46.3254,-10.5113,-9.93923e-15,-3.18055e-15,-21.6564,-28.7274,78.7206,48.4376,34.7979,3.98046,28.0331,7.12502,29.397,55.7279,-13.611,-3.94792,6.68673,74.816,8.42091,-2.6219,23.6431,-17.1852,10.1524,-22.6746,39.011,-14.0006,-0.796594,-6.21249
-10.6707,17.1292,-6.98407,-5.25198,-10.4223,1.97659,8.28753,-0.821295,-2.6845,0.805587,-1.17593,4.34003,-3.66837,-0.51906,6.19407,-20.4212,3.40103,-3.88329,28.3821,6.42566,-0.483194,12.761,2.32722,1.54056,6.28657e-15,-1.59028e-15,-33.6995,0.110769,-70.397,44.8357,-15.7268,21.9513,12.5243,7.12502,46.3483,-10.4237,6.28657e-15,-1.59028e-15,-21.4146,-28.4329,78.5816,48.2712,34.7487,3.97285,28.2633,7.12502,29.3898,55.9593,-14.836,-4.4484,7.01758,75.3299,7.31295,-2.98765,21.4413,-16.7813,9.87527,-22.6933,38.5005,-13.9505,-0.757416,-6.48511
-10.6539,17.1536,-6.90596,-5.15444,-10.1039,2.01969,8.07856,-0.996328,-2.8253,0.912505,-1.42273,4.35857,-3.4047,-0.64969,6.31136,-20.4616,3.39169,-3.91125,28.2251,6.44015,-0.560276,12.7082,2.32451,1.51585,2.69602e-14,-4.77083e-14,-33.7303,-0.25212,-70.3799,44.6061,-15.6812,22.0996,12.5607,7.12502,46.4857,-10.3288,2.69602e-14,-4.77083e-14,-20.8076,-28.3378,78.3737,47.9241,34.7871,4.07218,28.6124,7.12502,29.4846,56.2918,-15.8951,-4.9775,7.13312,75.6769,5.98574,-3.19643,19.4906,-16.3044,9.56788,-22.8707,37.9749,-13.9885,-0.727116,-6.88188
-10.6427,17.169,-6.82924,-5.12339,-9.92914,2.03425,7.97826,-1.13647,-2.93781,0.959873,-1.6196,4.37397,-3.2701,-0.751412,6.40772,-20.5154,3.47952,-3.9141,28.2264,6.56609,-0.546467,12.7162,2.38079,1.54348,-4.88513e-14,5.08889e-14,-33.8967,-0.54765,-70.4472,44.419,-15.5768,22.1009,12.3951,7.12502,46.4869,-10.4939,-4.88513e-14,5.08889e-14,-20.5097,-28.2216,78.2468,47.7268,34.7203,4.0022,28.4828,7.12502,29.4178,56.1739,-16.8856,-5.32446,7.37772,75.8515,4.77471,-3.58792,19.0367,-15.7219,9.44598,-22.9586,37.4652,-14.249,-0.699083,-7.26123
-10.635,17.186,-6.75017,-5.1472,-9.79475,2.14335,7.98339,-1.23743,-3.13672,0.96472,-1.7737,4.32302,-3.24305,-0.827044,6.48341,-20.6696,3.54383,-3.88295,28.3653,6.6518,-0.509301,12.8016,2.41959,1.57367,1.35174e-14,-1.74931e-14,-34.1907,-0.895217,-70.5412,44.2622,-15.3496,21.6485,11.1011,7.12502,46.0676,-11.9653,1.35174e-14,-1.74931e-14,-20.437,-28.0927,78.1167,47.6328,34.5721,3.75527,27.9125,7.12502,29.182,55.6448,-17.8275,-5.64427,7.55941,75.8799,3.43215,-3.56169,17.9958,-15.0963,9.35403,-23.1167,36.9725,-14.5348,-0.69326,-7.68626
-10.6263,17.2056,-6.67131,-5.10283,-9.69283,2.20457,7.96341,-1.30673,-3.2676,0.982642,-1.87976,4.26226,-3.19667,-0.88046,6.50307,-20.8374,3.57443,-3.79225,28.402,6.69538,-0.571684,12.8567,2.43572,1.54748,7.87684e-15,-3.81667e-14,-34.4426,-1.23431,-70.5781,44.02,-15.344,20.9674,8.91094,7.12502,45.4352,-14.4151,7.87684e-15,-3.81667e-14,-20.3677,-28.0066,77.9447,47.6391,34.3829,3.79842,27.7798,7.12502,29.2232,55.505,-18.8723,-5.97095,7.82251,75.7817,2.34294,-3.26783,16.3636,-14.5812,9.23969,-23.2322,36.5138,-14.6253,-0.69925,-7.53189
-10.6169,17.2205,-6.59535,-5.06372,-9.61923,2.28328,8.06996,-1.36512,-3.46818,0.887347,-1.97568,4.25004,-3.33617,-0.919364,6.62253,-20.643,3.66127,-3.7374,28.4326,6.80496,-0.614554,12.831,2.48541,1.53538,-4.78077e-14,7.95139e-15,-35.0046,-1.1678,-70.6023,44.0815,-15.6795,21.0839,8.99457,7.12502,45.5434,-14.2877,-4.78077e-14,7.95139e-15,-20.5482,-27.8875,77.9821,47.7115,34.189,3.68692,27.6517,7.12502,29.1168,55.3953,-19.9259,-6.23876,8.08441,75.5711,1.48069,-2.95191,15.4629,-14.084,9.11384,-23.3724,36.0618,-14.6784,-0.667843,-7.0209
-10.6061,17.234,-6.52124,-5.07778,-9.50677,2.41705,8.20461,-1.42315,-3.74316,0.837254,-2.07875,4.27179,-3.43873,-0.962555,6.82243,-20.4984,3.71197,-3.77048,28.4477,6.90366,-0.681816,12.808,2.51714,1.52766,-4.74101e-14,-9.54166e-15,-35.4855,-1.07551,-70.5879,44.191,-15.7419,21.4592,10.237,7.12502,45.8919,-12.9024,-4.74101e-14,-9.54166e-15,-20.4921,-27.8536,78.0567,47.5868,34.2286,3.48443,27.4022,7.12502,28.9234,55.1791,-20.8323,-6.49298,8.26557,75.2275,0.608396,-2.68099,15.8927,-13.5606,8.91273,-23.5808,35.6244,-14.7328,-0.610576,-6.93776
-10.5957,17.2532,-6.44573,-4.93255,-9.34149,2.44608,8.02386,-1.51647,-3.82114,0.894754,-2.20801,4.26677,-3.25612,-1.03374,6.86462,-20.5423,3.71118,-3.75609,28.308,6.92939,-0.797748,12.7664,2.51808,1.48357,4.27387e-15,4.77083e-15,-35.5262,-1.32534,-70.5769,43.8705,-15.4237,21.4198,10.5834,7.12502,45.8554,-12.5711,4.27387e-15,4.77083e-15,-20.0469,-27.8958,77.8861,47.3427,34.4311,3.74093,27.5169,7.12502,29.1683,55.2516,-21.8388,-6.8383,8.60738,74.7221,-0.0466879,-2.5524,17.2134,-13.2318,8.64291,-23.7096,35.2253,-14.7836,-0.525325,-6.973
-10.5886,17.2714,-6.37046,-4.72474,-9.18207,2.42654,7.83401,-1.61529,-3.81609,0.868169,-2.3366,4.22914,-3.16078,-1.10074,6.82544,-20.4779,3.71816,-3.70513,28.2176,6.92223,-0.829464,12.7199,2.52014,1.45817,-1.83379e-14,0,-35.7034,-1.52317,-70.6474,43.662,-15.2447,21.93,11.5641,7.12502,46.3286,-11.3924,-1.83379e-14,0,-19.7449,-27.9076,77.7204,47.1035,34.5302,3.94008,27.4687,7.12502,29.3585,55.1703,-22.8661,-7.20527,9.06118,74.0745,-0.719891,-2.53382,18.329,-12.9252,8.44398,-23.7754,34.8284,-14.9756,-0.429326,-6.9846
-10.5847,17.2766,-6.2936,-4.57,-9.09974,2.4648,7.79316,-1.68461,-3.99594,0.735426,-2.44087,4.26842,-3.25209,-1.14402,6.9835,-20.4122,3.75386,-3.79431,28.3354,7.00673,-0.827109,12.7496,2.54431,1.48817,-2.03257e-14,2.22639e-14,-36.1236,-1.40434,-70.643,43.6067,-15.1174,22.2638,12.1832,7.12502,46.6378,-10.6409,-2.03257e-14,2.22639e-14,-19.8073,-27.6225,77.8233,46.949,34.3265,3.95279,27.3666,7.12502,29.3706,55.066,-23.8018,-7.46909,9.48393,73.3341,-1.69646,-2.67518,17.9929,-12.56,8.33864,-23.8661,34.4244,-15.135,-0.355274,-7.28429
-10.5799,17.2834,-6.20914,-4.48095,-9.00521,2.63046,7.71052,-1.7529,-4.29089,0.659745,-2.55471,4.27423,-3.25473,-1.19498,7.16902,-20.4036,3.76647,-3.97388,28.4728,7.07959,-0.779446,12.7936,2.55808,1.55042,5.91384e-15,1.43125e-14,-36.4518,-1.35236,-70.5854,43.3775,-14.7332,21.6993,11.4062,7.12502,46.1147,-11.6404,5.91384e-15,1.43125e-14,-19.8715,-27.3167,77.9071,46.8626,34.0691,4.01964,27.6682,7.12502,29.4345,55.3564,-24.643,-7.79782,9.74143,72.4569,-2.93824,-2.80098,16.368,-12.1462,8.18597,-24.0898,34.0011,-15.1983,-0.375346,-7.10997
-10.5756,17.2966,-6.12651,-4.47007,-8.9002,2.6852,7.57934,-1.80257,-4.32942,0.7627,-2.62497,4.18575,-3.06537,-1.23958,7.09214,-20.4757,3.72614,-3.95594,28.4825,7.02527,-0.797846,12.8153,2.53156,1.5338,-1.00883e-14,-2.22639e-14,-36.5195,-1.79145,-70.5944,42.9754,-14.0791,20.8969,10.5477,7.12502,45.3697,-12.8047,-1.00883e-14,-2.22639e-14,-19.5511,-27.3987,77.676,46.7615,34.0529,3.8441,27.5671,7.12502,29.2669,55.2847,-25.3622,-8.13806,10.1303,71.4139,-4.06414,-3.01655,15.5373,-11.599,8.03696,-24.1807,33.5718,-15.3144,-0.3944,-6.68858
-10.5736,17.3045,-6.04496,-4.49388,-8.78543,2.71062,7.48178,-1.83879,-4.34694,0.869783,-2.67603,4.09724,-2.89469,-1.27416,7.00299,-20.598,3.69507,-3.79221,28.5527,6.96683,-0.901334,12.8821,2.50393,1.46272,6.11263e-14,-4.29375e-14,-36.5206,-2.30472,-70.6011,42.5647,-13.4931,20.405,10.6041,7.12502,44.9122,-12.93,6.11263e-14,-4.29375e-14,-19.3269,-27.4232,77.4698,46.7222,34.0087,3.79487,26.8533,7.12502,29.2198,54.5791,-26.003,-8.46427,10.5599,70.2413,-4.8997,-3.47852,15.6915,-10.9779,7.85869,-24.242,33.1389,-15.5166,-0.263456,-6.93792
-10.5717,17.3086,-5.9622,-4.47517,-8.52349,2.90076,7.50241,-1.9589,-4.66713,0.783917,-2.86341,4.08011,-2.95238,-1.36,7.18945,-20.576,3.70622,-3.84773,28.7384,7.01142,-0.902086,12.9513,2.50991,1.48219,1.01877e-14,-3.02153e-14,-36.842,-2.17415,-70.5932,42.6796,-13.1861,20.4292,10.9215,7.12502,44.9347,-12.6037,1.01877e-14,-3.02153e-14,-19.5396,-27.0292,77.5685,46.7236,33.829,4.01766,26.5424,7.12502,29.4326,54.2309,-26.6143,-8.98612,10.7752,68.9582,-5.62913,-3.99829,15.2863,-10.4513,7.55294,-24.5088,32.7195,-15.7105,-0.163775,-7.28028
-10.5702,17.317,-5.88369,-4.29384,-8.13979,3.09848,7.46686,-2.1257,-5.03187,0.613674,-3.11412,4.09389,-3.05059,-1.47247,7.44019,-20.5,3.7035,-4.02632,28.8633,7.05948,-0.861447,12.9775,2.51289,1.53557,8.54774e-15,-1.11319e-14,-37.4333,-1.74921,-70.5895,43.2053,-12.9985,20.4439,10.6533,7.12502,44.9484,-12.8666,8.54774e-15,-1.11319e-14,-19.5123,-26.7539,77.651,46.531,33.665,4.12503,27.0039,7.12502,29.5351,54.6744,-27.3247,-9.67587,10.9995,67.5641,-6.17224,-4.53221,14.0104,-10.1427,7.26387,-24.7958,32.321,-15.8709,-0.2476,-7.62899
-10.5708,17.3258,-5.80337,-4.13737,-7.78048,3.27703,7.33956,-2.20219,-5.25318,0.547982,-3.23291,3.99192,-3.02224,-1.52859,7.46309,-20.5466,3.6465,-3.97573,28.9629,6.97526,-0.884915,13.0334,2.47315,1.50776,-4.10987e-14,-6.36111e-15,-37.8725,-1.93908,-70.5448,43.3867,-12.6167,20.0734,10.6214,7.12502,44.6035,-13.0326,-4.10987e-14,-6.36111e-15,-19.0916,-26.9457,77.5498,46.1867,33.4723,4.18336,27.5403,7.12502,29.5907,55.2009,-27.9652,-10.3365,11.2561,66.0808,-6.90008,-5.10655,12.1719,-9.79148,7.07496,-25.0351,31.9136,-16.0494,-0.393366,-7.83591
-10.5722,17.3278,-5.71957,-4.07925,-7.56511,3.47493,7.26506,-2.23798,-5.46799,0.483721,-3.29844,3.89091,-3.03078,-1.55661,7.48185,-20.4606,3.62018,-3.92353,29.0613,6.94559,-0.966399,13.0634,2.45144,1.46262,5.65045e-14,-5.24792e-14,-38.1353,-2.36689,-70.3959,43.2577,-11.9837,19.5878,11.106,7.12502,44.1509,-12.7203,5.65045e-14,-5.24792e-14,-18.9322,-26.9706,77.5583,45.9252,33.1785,4.42816,27.6714,7.12502,29.8244,55.2904,-28.4923,-10.8375,11.4937,64.5193,-7.80917,-5.72668,10.4218,-9.33184,6.93498,-25.2749,31.5094,-16.1615,-0.454049,-7.58661
-10.5742,17.3292,-5.6335,-4.00262,-7.46629,3.67447,7.17256,-2.25482,-5.7577,0.409266,-3.34199,3.85314,-3.03536,-1.5723,7.60911,-20.2883,3.62458,-4.00079,29.0835,6.97889,-0.993901,13.035,2.45526,1.46601,1.98039e-14,-2.54444e-14,-38.4432,-2.65973,-70.1751,43.2558,-11.3686,19.0672,11.2902,7.12502,43.6651,-12.7165,1.98039e-14,-2.54444e-14,-18.9125,-26.7386,77.6352,45.7624,32.8461,4.62652,27.4684,7.12502,30.0137,55.0532,-29.0005,-11.2818,11.7297,62.8381,-8.41357,-6.38136,9.94522,-8.85929,6.88171,-25.5066,31.0659,-16.2608,-0.510638,-7.39929
-10.5808,17.3362,-5.54608,-4.00706,-7.50144,3.61385,7.16869,-2.22918,-5.89741,0.473566,-3.31729,3.90927,-2.95886,-1.56345,7.74533,-20.501,3.64195,-4.10516,29.1737,7.03512,-0.916296,13.1076,2.47239,1.53023,-7.95139e-16,9.54166e-15,-38.5846,-2.87583,-70.0058,43.3494,-10.7949,18.6036,11.0236,7.12502,43.2321,-13.1398,-7.95139e-16,9.54166e-15,-18.692,-26.3458,77.6327,45.5592,32.372,4.52092,27.0296,7.12502,29.9129,54.6326,-29.384,-11.5523,12.2864,60.9958,-8.82117,-7.23163,10.2441,-8.21048,7.02973,-25.3956,30.5403,-16.4386,-0.606124,-7.67837
-10.5876,17.3501,-5.46403,-4.02844,-7.55673,3.54143,7.22256,-2.21312,-5.98728,0.535122,-3.30423,3.95734,-2.91891,-1.5595,7.84885,-20.635,3.64151,-4.26352,29.1749,7.05713,-0.78617,13.1225,2.48086,1.61385,1.49585e-14,-1.11319e-14,-38.5333,-3.03315,-69.9309,43.3603,-10.2828,18.4356,11.0529,7.12502,43.0751,-13.1664,1.49585e-14,-1.11319e-14,-18.4395,-26.0282,77.6205,45.2654,31.698,4.33728,26.3283,7.12502,29.7377,53.9627,-29.7586,-11.8247,12.8778,59.0347,-8.92933,-8.12407,9.39322,-7.53116,7.15553,-25.2737,29.9205,-16.5218,-0.638367,-8.00797
-10.5898,17.3642,-5.38055,-3.99659,-7.28641,3.82104,7.11184,-2.28476,-6.26664,0.503306,-3.42065,3.84414,-2.86018,-1.6163,7.89154,-20.2659,3.59764,-4.37878,28.9554,6.96787,-0.699566,12.9476,2.4561,1.63581,1.72943e-14,-2.06736e-14,-38.5963,-3.23476,-69.84,43.2845,-9.90782,18.3158,11.7191,7.12502,42.9631,-12.5399,1.72943e-14,-2.06736e-14,-18.2382,-26.0418,77.5786,44.9747,31.1881,4.35458,26.4343,7.12502,29.7542,54.0658,-30.0901,-12.4492,12.9951,57.0074,-8.72868,-8.96212,7.33043,-6.9241,6.98784,-25.6008,29.2357,-16.5133,-0.727126,-8.08255
-10.5926,17.3721,-5.28633,-3.98906,-6.87765,4.23303,6.98347,-2.40202,-6.66427,0.444941,-3.60727,3.68521,-2.80164,-1.70611,7.95763,-20.0972,3.58388,-4.38857,28.9585,6.94549,-0.716608,12.915,2.44504,1.6225,7.1314e-15,3.18055e-15,-38.8765,-3.2878,-69.704,43.3269,-9.7346,18.0883,11.8981,7.12502,42.7502,-12.4356,7.1314e-15,3.18055e-15,-18.2399,-26.0256,77.5299,44.8471,30.9277,4.44811,27.2469,7.12502,29.8434,54.8624,-30.3177,-13.1258,12.9102,54.894,-8.36766,-10.0695,5.51017,-6.20227,6.76419,-26.0721,28.477,-16.4795,-0.902276,-7.91539
-10.5978,17.3767,-5.194,-3.97459,-6.70959,4.51674,6.96284,-2.43082,-6.9306,0.372535,-3.67068,3.53661,-2.8476,-1.73015,7.9575,-20.1331,3.55705,-4.26917,29.1264,6.89731,-0.779878,13.0007,2.42033,1.57541,-6.04305e-14,1.59028e-14,-39.3059,-3.27887,-69.6294,43.5448,-9.65052,18.0071,11.7111,7.12502,42.6742,-12.6489,-6.04305e-14,1.59028e-14,-18.4447,-25.9183,77.5225,44.8315,30.3905,4.21964,27.0853,7.12502,29.6254,54.7397,-30.5729,-13.4295,12.9882,52.699,-8.1607,-11.2058,3.36328,-5.446,6.71423,-26.3728,27.6517,-16.3897,-1.00559,-7.73461
-10.6057,17.3908,-5.1099,-3.90037,-6.6625,4.59628,6.8384,-2.38919,-7.00258,0.367307,-3.61637,3.42633,-2.7963,-1.70456,7.86871,-20.0643,3.45761,-4.12155,29.1587,6.7214,-0.850566,13.0125,2.34892,1.49381,1.36416e-14,-2.8625e-14,-39.4994,-3.42671,-69.5752,43.6278,-9.50315,18.0881,11.8505,7.12502,42.75,-12.4832,1.36416e-14,-2.8625e-14,-18.3039,-25.8454,77.5261,44.5291,29.581,3.94697,26.4246,7.12502,29.3651,54.125,-30.7245,-13.399,13.257,50.4634,-8.52698,-11.9115,1.54247,-4.77586,6.74396,-26.4329,26.8366,-16.3135,-1.08982,-7.68566
-10.617,17.4132,-5.03039,-3.74982,-6.44717,4.62695,6.57988,-2.39909,-7.06145,0.439691,-3.61974,3.33078,-2.57755,-1.7188,7.78047,-20.1051,3.34038,-4.13351,29.1274,6.54229,-0.80713,13.0091,2.2756,1.48348,-3.81667e-14,3.18055e-15,-39.2734,-3.79681,-69.507,43.4201,-9.28126,18.0788,12.262,7.12502,42.7413,-12.0748,-3.81667e-14,3.18055e-15,-17.7913,-25.907,77.3646,44.1057,29.1537,3.96803,26.3626,7.12502,29.3852,54.0594,-30.7724,-13.4139,13.5131,48.2745,-9.18139,-11.9172,4.52893,-4.18282,6.70226,-26.437,26.0144,-16.2268,-1.2454,-7.70686
-10.6275,17.4227,-4.94966,-3.68884,-6.15282,4.79917,6.44202,-2.43074,-7.21286,0.540057,-3.66661,3.1863,-2.38669,-1.75351,7.70254,-20.2972,3.21875,-4.29458,29.1596,6.37147,-0.606804,13.0506,2.20702,1.56473,1.88348e-14,1.74931e-14,-39.1003,-4.06589,-69.4833,43.3455,-9.10575,17.7998,13.0436,7.12502,42.4802,-11.3835,1.88348e-14,1.74931e-14,-17.4143,-25.9172,77.13,43.9334,29.0861,3.76321,26.3784,7.12502,29.1896,54.1094,-30.8171,-13.3444,13.5114,46.1629,-9.42412,-11.4223,4.44449,-3.47079,6.65307,-26.5954,25.1476,-16.1349,-1.36829,-8.14108
-10.6357,17.4242,-4.85864,-3.68197,-5.96702,5.12782,6.39286,-2.40013,-7.51624,0.529826,-3.64807,3.04126,-2.36403,-1.74211,7.71763,-20.5945,3.13288,-4.35193,29.4489,6.26876,-0.502824,13.2288,2.15493,1.61125,-1.19768e-14,-1.43125e-14,-39.3887,-4.02981,-69.3797,43.6412,-9.08142,17.6959,13.51,7.12502,42.383,-10.9504,-1.19768e-14,-1.43125e-14,-17.3124,-25.7791,77.1676,43.7841,28.9762,3.52202,26.304,7.12502,28.9593,54.0748,-30.9205,-13.0659,13.2654,44.1123,-9.41527,-12.5577,8.43849,-2.68326,6.66474,-26.9304,24.2877,-16.0868,-1.41934,-8.63122
-10.6458,17.4291,-4.76495,-3.6926,-5.79413,5.36262,6.41468,-2.40988,-7.77371,0.387199,-3.68618,2.95953,-2.50803,-1.74631,7.78741,-20.554,3.15616,-4.29694,29.6669,6.32525,-0.600702,13.3175,2.16381,1.57724,1.43622e-14,4.29375e-14,-39.7662,-3.86192,-69.222,43.8051,-8.90425,17.9564,13.1917,7.12502,42.6268,-11.1848,1.43622e-14,4.29375e-14,-17.5336,-25.5849,77.3815,43.5984,28.7667,3.57766,26.3173,7.12502,29.0124,54.0789,-30.9352,-12.6671,13.0571,42.0949,-9.32433,-13.329,8.98504,-1.88992,6.65497,-27.1467,23.4926,-16.0301,-1.48901,-8.639
-10.6579,17.4258,-4.67661,-3.80097,-5.66773,5.59802,6.41384,-2.46174,-8.01632,0.319722,-3.77699,2.87121,-2.55169,-1.78453,7.84013,-20.1091,3.23155,-4.37602,29.5507,6.44364,-0.650195,13.1724,2.21059,1.5768,-1.71452e-15,-3.18055e-14,-39.8659,-3.57087,-69.1595,43.761,-8.66778,17.891,12.7139,7.12502,42.5656,-11.6837,-1.71452e-15,-3.18055e-14,-17.8363,-25.291,77.4915,43.4923,28.5654,3.81667,26.2375,7.12502,29.2407,53.9596,-30.8282,-12.0715,12.7579,40.0821,-9.33309,-13.9677,7.55314,-1.05164,6.67717,-27.3399,22.7373,-15.9522,-1.57945,-8.64721
-10.6702,17.423,-4.58768,-3.7625,-5.63954,5.8522,6.19393,-2.46187,-8.22632,0.275053,-3.77957,2.74778,-2.46985,-1.78628,7.81586,-19.8849,3.25879,-4.49741,29.6287,6.47267,-0.522485,13.1463,2.22798,1.64669,-5.64051e-15,-1.74931e-14,-40.0142,-3.27457,-69.1597,43.8951,-8.70328,17.4799,12.7754,7.12502,42.1806,-11.7538,-5.64051e-15,-1.74931e-14,-17.9752,-25.1218,77.5024,43.4092,28.4624,4.14858,26.2545,7.12502,29.5575,53.921,-30.8276,-11.2456,12.4109,38.0584,-9.01845,-14.7196,3.27435,-0.445775,6.76661,-27.5607,22.0895,-15.9687,-1.67104,-8.87555
-10.6828,17.4245,-4.49273,-3.67022,-5.64878,5.97749,5.94289,-2.40237,-8.20888,0.279165,-3.68306,2.57827,-2.35582,-1.74438,7.60285,-20.1379,3.19772,-4.46235,29.9761,6.35736,-0.371241,13.3415,2.18565,1.69492,4.03533e-14,-2.8625e-14,-40.1161,-3.25944,-69.2197,44.0219,-8.79584,17.5719,12.8302,7.12502,42.2668,-11.6699,4.03533e-14,-2.8625e-14,-17.8623,-25.2061,77.3869,43.2757,28.3978,4.39537,26.4508,7.12502,29.7931,54.0754,-30.8654,-10.1383,12.1,36.2002,-7.88122,-13.5019,5.74647,0.174347,6.92631,-27.6269,21.3982,-16.0032,-1.82995,-8.68936
-10.6982,17.4132,-4.39864,-3.67515,-5.58442,6.11337,5.7651,-2.37913,-8.21221,0.350407,-3.63982,2.42098,-2.19982,-1.7334,7.42059,-20.2781,3.16364,-4.41902,30.0544,6.30257,-0.359219,13.4065,2.16342,1.6888,-1.89094e-14,-2.06736e-14,-39.9744,-3.30007,-69.255,43.9469,-8.86301,18.0837,12.8697,7.12502,42.746,-11.4654,-1.89094e-14,-2.06736e-14,-17.7293,-25.2011,77.2644,43.1409,28.2862,4.65992,26.7331,7.12502,30.0455,54.3121,-30.9151,-8.83417,11.6333,34.4709,-7.42654,-14.5898,2.90203,0.876187,7.08613,-27.6784,20.693,-15.9864,-2.06231,-8.49189
-10.7142,17.4277,-4.31356,-3.47674,-5.37968,6.31276,5.42472,-2.42456,-8.40516,0.316765,-3.68727,2.34613,-2.0282,-1.76299,7.43358,-20.0646,3.15013,-4.57353,29.8861,6.31175,-0.347978,13.2846,2.16123,1.71097,-7.96133e-14,3.02153e-14,-39.7686,-3.18607,-69.208,43.8456,-8.8976,18.1695,13.1063,7.12502,42.8262,-11.2008,-7.96133e-14,3.02153e-14,-17.8516,-25.0492,77.2996,43.1587,28.1809,4.55526,26.6709,7.12502,29.9457,54.268,-30.9668,-7.53766,11.0161,32.9838,-8.49137,-15.3825,7.18688,1.33829,7.09062,-27.8382,19.943,-15.8808,-2.24475,-8.84333
-10.7284,17.4301,-4.22234,-3.17655,-5.12851,6.56087,5.00219,-2.43848,-8.57956,0.271016,-3.68409,2.22284,-1.837,-1.76807,7.37739,-20.0866,3.0647,-4.6888,29.9115,6.2039,-0.262853,13.2951,2.11205,1.74659,3.59303e-14,-4.77083e-14,-39.5693,-3.25391,-69.0857,43.7788,-8.71081,17.7879,12.891,7.12502,42.4691,-11.5399,3.59303e-14,-4.77083e-14,-17.9037,-24.9959,77.3511,43.2045,28.0354,4.02082,26.4013,7.12502,29.4356,54.0893,-31.1946,-6.34754,10.2868,31.6016,-8.84541,-16.4705,8.14172,1.71485,7.01885,-28.0872,19.2619,-15.8186,-2.34824,-9.23607
-10.742,17.4234,-4.12814,-3.1751,-4.84534,6.77436,4.96803,-2.45921,-8.66354,0.226451,-3.71744,2.10086,-1.8612,-1.78115,7.29632,-20.1538,3.05009,-4.59946,30.1294,6.20248,-0.365241,13.4097,2.09749,1.69839,-3.598e-14,1.59028e-15,-39.5947,-3.15195,-68.8653,43.7815,-8.48419,17.3579,12.5422,7.12502,42.0663,-12.0256,-3.598e-14,1.59028e-15,-17.9746,-24.8482,77.4838,43.0691,27.7463,3.96061,26.557,7.12502,29.3781,54.2551,-31.1605,-5.1817,9.51206,30.4229,-8.94711,-17.7852,5.82786,2.42792,6.92159,-28.2742,18.5832,-15.7629,-2.46822,-9.48765
-10.7595,17.4232,-4.0416,-3.18899,-4.50763,6.76521,5.07072,-2.5243,-8.60321,0.148681,-3.81262,2.09168,-1.9869,-1.81993,7.26539,-20.2556,3.07123,-4.56011,30.3654,6.29949,-0.53883,13.54,2.10838,1.64822,4.95471e-14,-3.49861e-14,-39.5973,-2.93224,-68.6558,43.7607,-8.22411,17.2286,12.4048,7.12502,41.9451,-12.2037,4.95471e-14,-3.49861e-14,-18.0994,-24.6565,77.6339,42.8879,27.5142,4.5812,26.9262,7.12502,29.9704,54.5188,-31.018,-3.79618,8.90731,29.2918,-8.97889,-19.3357,3.61872,3.02963,6.74871,-28.2,18.0872,-15.6921,-2.62565,-9.48382
-10.7763,17.43,-3.95584,-3.00066,-4.15678,6.58509,4.9039,-2.58748,-8.36516,0.11913,-3.86933,2.11234,-1.92755,-1.85239,7.14476,-20.5063,3.00813,-4.68568,30.4757,6.27372,-0.524195,13.6371,2.07674,1.6796,4.89507e-15,-1.27222e-14,-39.4091,-2.98946,-68.48,43.7123,-8.10041,17.6184,12.8625,7.12502,42.3103,-11.6227,4.89507e-15,-1.27222e-14,-18.2161,-24.5161,77.7034,42.8716,27.349,4.81292,26.6414,7.12502,30.1915,54.1938,-31.0354,-2.41087,8.47399,28.3127,-8.78294,-20.8792,2.31555,3.35823,6.45129,-27.9772,17.6888,-15.5814,-2.69156,-9.03032
-10.7915,17.4263,-3.8591,-2.93618,-3.87845,6.57226,4.76648,-2.62679,-8.25508,0.0587047,-3.90648,2.08612,-1.91587,-1.87041,7.04939,-20.3828,2.93781,-4.92097,30.447,6.20572,-0.40299,13.5868,2.04059,1.75114,-3.3048e-15,1.59028e-15,-39.4307,-2.7885,-68.3514,44.0679,-8.21598,18.3836,14.4531,7.12502,43.0265,-9.78343,-3.3048e-15,1.59028e-15,-18.5592,-24.341,77.8783,42.9038,27.2317,4.38103,25.9418,7.12502,29.7794,53.5688,-30.9814,-1.34721,7.94952,27.524,-8.82775,-22.1766,2.183,3.80954,6.13609,-27.9634,17.3946,-15.6535,-2.55786,-8.78326
-10.8106,17.4133,-3.76146,-2.94937,-3.6943,6.64631,4.70282,-2.63351,-8.24826,0.0152132,-3.91212,2.03791,-1.92846,-1.87115,6.99226,-20.2124,2.89336,-4.99918,30.4576,6.17605,-0.456446,13.5566,2.01295,1.73411,-1.01877e-14,2.54444e-14,-39.4815,-2.38664,-68.299,44.5596,-8.17834,18.5273,17.8538,7.12502,43.1608,-6.33506,-1.01877e-14,2.54444e-14,-18.7738,-24.2054,78.0206,42.8409,27.182,3.97681,25.4973,7.12502,29.3936,53.1927,-30.9578,-0.600032,7.4761,26.9435,-10.0441,-23.2322,4.70701,4.29354,6.01909,-28.0127,17.163,-15.7617,-2.45787,-9.01617
-10.8315,17.4022,-3.6722,-2.92097,-3.33804,6.64471,4.6366,-2.61571,-8.12903,0.10568,-3.87582,1.92389,-1.81899,-1.86259,6.79472,-20.4521,2.83611,-4.8021,30.501,6.09755,-0.614375,13.6431,1.9742,1.63315,4.34841e-15,-1.03368e-14,-39.3637,-2.47429,-68.1876,44.6779,-8.09636,18.3347,20.1374,7.12502,42.9807,-4.1153,4.34841e-15,-1.03368e-14,-18.6348,-24.296,77.9259,42.8829,27.2005,3.94045,25.322,7.12502,29.3588,53.0235,-30.9814,-0.238859,7.1618,26.5765,-12.531,-23.905,11.2369,4.67938,5.85254,-27.9638,16.9543,-15.7599,-2.49362,-8.76278
-10.8519,17.3942,-3.58462,-2.9096,-2.78096,6.60916,4.76323,-2.63059,-7.98081,0.0965994,-3.90013,1.83583,-1.91122,-1.87129,6.62686,-20.6671,2.75216,-4.75272,30.6103,5.99673,-0.659059,13.743,1.92281,1.59782,1.88845e-14,2.62396e-14,-39.2928,-2.71039,-67.9117,44.6696,-8.00368,18.6007,19.9318,7.12502,43.2294,-4.2326,1.88845e-14,2.62396e-14,-18.7804,-24.4181,77.9738,43.0787,27.3409,4.10686,25.441,7.12502,29.5177,53.1145,-30.9462,-0.371113,6.98624,26.4083,-10.8569,-24.4681,8.1285,5.07805,5.5022,-27.8982,16.8001,-15.868,-2.43588,-8.41589
-10.8744,17.3861,-3.49321,-2.90713,-2.31895,6.57805,4.91522,-2.71082,-7.95054,-0.0525113,-4.02144,1.88701,-2.1298,-1.91671,6.68439,-20.5864,2.64582,-5.03609,30.7366,5.94816,-0.659936,13.7742,1.86424,1.6372,1.80521e-14,1.03368e-14,-39.1555,-2.50515,-67.5632,44.5368,-7.92585,19.0946,18.0239,7.12502,43.6907,-5.97334,1.80521e-14,1.03368e-14,-19.3409,-24.1077,78.3145,43.2515,27.3825,4.25782,25.5488,7.12502,29.6618,53.1968,-30.9656,-0.733455,6.93329,26.4464,-9.4687,-24.5529,5.09936,5.50492,5.21281,-27.8338,16.6602,-16.0535,-2.27362,-8.92534
-10.8979,17.3747,-3.40352,-2.88926,-1.90312,6.61289,4.83772,-2.76802,-7.93587,-0.0505809,-4.09107,1.86386,-2.07496,-1.95443,6.64927,-20.4312,2.58557,-5.15148,30.5812,5.89636,-0.699248,13.6744,1.83166,1.62547,-1.75179e-15,1.19271e-14,-38.8592,-2.42499,-67.3521,44.4768,-7.8741,19.5374,15.1532,7.12502,44.1038,-8.69082,-1.75179e-15,1.19271e-14,-19.5313,-23.9642,78.4321,43.3401,27.5639,4.66623,25.8152,7.12502,30.0516,53.3932,-31.0522,-1.15385,6.82688,26.691,-8.42064,-24.2307,3.13947,5.94851,4.93447,-27.8229,16.4387,-16.1873,-2.19082,-9.66981
-10.9201,17.3646,-3.31826,-2.89991,-1.4677,6.65149,4.83059,-2.75246,-7.87624,0.0094018,-4.06644,1.77409,-2.02316,-1.94725,6.51686,-20.2749,2.58487,-4.95391,30.2991,5.86251,-0.887759,13.5361,1.82779,1.50385,3.78809e-14,-2.38542e-15,-38.8723,-2.34882,-67.2512,44.9455,-8.0439,19.8617,12.1855,7.12502,44.4062,-11.5442,3.78809e-14,-2.38542e-15,-19.5091,-24.1897,78.4642,43.3594,27.7723,5.13348,26.3049,7.12502,30.4973,53.801,-31.1075,-1.75646,6.76483,27.1075,-7.87053,-23.8545,2.43376,6.4436,4.55503,-27.8199,16.1598,-16.2765,-2.14469,-9.84997
-10.9448,17.3581,-3.22927,-2.92008,-1.09101,6.66882,4.9589,-2.72512,-7.87592,-0.0146406,-4.04176,1.74568,-2.12659,-1.92922,6.49509,-20.3917,2.50906,-4.86911,30.3844,5.79893,-1.06858,13.6111,1.7792,1.41221,-2.64818e-14,-6.36111e-15,-39.0403,-1.98691,-67.1384,45.4149,-8.49793,19.8291,11.3249,7.12502,44.3759,-12.4163,-2.64818e-14,-6.36111e-15,-19.6846,-24.235,78.6444,43.3861,27.6703,5.21485,26.4668,7.12502,30.5749,53.9484,-31.1652,-2.26512,6.73485,27.6475,-7.5712,-22.6769,3.93593,6.99125,4.07856,-27.8014,15.8749,-16.3464,-2.05713,-9.31342
-10.9746,17.3511,-3.13843,-2.88171,-0.668686,6.62114,4.95799,-2.7538,-7.85309,-0.00658248,-4.0781,1.75598,-2.11232,-1.94855,6.49418,-20.6697,2.38434,-4.94873,30.5769,5.69609,-1.1157,13.7569,1.70654,1.39874,-1.24613e-14,2.38542e-14,-38.7997,-1.89052,-66.9389,45.3745,-8.77952,19.7686,12.1148,7.12502,44.3195,-11.6479,-1.24613e-14,2.38542e-14,-19.8426,-24.1295,78.7577,43.4687,27.629,5.05009,26.1588,7.12502,30.4177,53.6696,-31.2454,-2.59633,6.70343,28.2596,-7.60524,-21.4135,6.98798,7.49416,3.6053,-27.6802,15.5813,-16.412,-2.04933,-8.97087
-11.006,17.3385,-3.04416,-2.92454,-0.0854293,6.61631,4.94899,-2.8254,-7.85292,0.0563711,-4.1714,1.73031,-2.02773,-2.00131,6.46764,-20.7459,2.30841,-5.01741,30.5498,5.61369,-1.10756,13.7616,1.66448,1.40059,-4.42358e-14,2.38542e-15,-38.5083,-1.99589,-66.6962,45.2763,-8.84386,19.8061,12.5339,7.12502,44.3544,-11.2155,-4.42358e-14,2.38542e-15,-20.0245,-24.132,78.864,43.5657,27.6485,5.08899,26.0897,7.12502,30.4548,53.5936,-31.1488,-3.17964,6.63054,28.8882,-7.82131,-20.4418,9.41306,8.05351,3.19088,-27.5635,15.3543,-16.4985,-2.19084,-9.36737
-11.039,17.3215,-2.94309,-3.031,0.472228,6.69182,4.93489,-2.86765,-7.88909,0.12458,-4.22852,1.63508,-1.94371,-2.03579,6.3862,-20.6966,2.23936,-5.12988,30.4958,5.50273,-0.972528,13.721,1.62647,1.45196,-5.7896e-15,3.18055e-15,-38.3804,-2.08687,-66.5382,45.3227,-8.76762,19.8078,12.9293,7.12502,44.356,-10.8195,-5.7896e-15,3.18055e-15,-20.1916,-24.3176,78.9784,43.5299,27.5939,5.21218,26.4193,7.12502,30.5723,53.9014,-30.9742,-3.77573,6.48536,29.5261,-7.1928,-19.034,10.9777,8.6127,2.8648,-27.5104,15.2427,-16.6455,-2.30744,-10.2245
-11.0783,17.3067,-2.84334,-3.08719,0.916616,6.63378,4.84889,-2.86416,-7.87283,0.209066,-4.21403,1.59052,-1.81424,-2.03752,6.32022,-20.6351,2.13196,-5.30825,30.4153,5.32639,-0.747148,13.6626,1.56665,1.53813,4.69132e-14,5.56597e-15,-38.1986,-2.15995,-66.41,45.3081,-8.81477,19.8508,13.0274,7.12502,44.3961,-10.7062,4.69132e-14,5.56597e-15,-20.2075,-24.4765,79.0164,43.4464,27.5593,5.20281,26.4945,7.12502,30.5634,53.9782,-30.8896,-4.04547,6.47545,30.2087,-6.73922,-17.8422,9.57188,9.07287,2.60405,-27.2893,15.1554,-16.8595,-2.26262,-11.2722
-11.121,17.292,-2.74688,-3.09077,1.40739,6.54428,4.78563,-2.85704,-7.90201,0.29165,-4.19833,1.58118,-1.69383,-2.03776,6.31861,-20.714,1.99642,-5.37758,30.3643,5.12443,-0.645441,13.6572,1.48726,1.55623,-3.9291e-14,-1.27222e-14,-37.8842,-2.26603,-66.2797,45.1226,-8.96327,19.6649,12.9324,7.12502,44.2228,-10.8669,-3.9291e-14,-1.27222e-14,-20.2434,-24.4912,79.0401,43.4965,27.4886,5.37952,26.6431,7.12502,30.7319,54.0953,-30.8149,-4.30975,6.50505,30.9323,-6.69682,-16.679,6.83304,9.49802,2.24546,-27.0268,15.0651,-17.1297,-2.2575,-11.7509
-11.1627,17.2747,-2.64449,-3.05048,1.9015,6.44828,4.73291,-2.88926,-7.91402,0.272761,-4.23784,1.60075,-1.67504,-2.05771,6.34462,-20.72,1.91428,-5.35015,30.3923,5.01325,-0.689706,13.6767,1.43516,1.51584,-2.72708e-15,1.59028e-15,-37.717,-2.16879,-66.1337,45.0503,-9.06137,19.3648,13.1026,7.12502,43.9429,-10.8015,-2.72708e-15,1.59028e-15,-20.5403,-24.4088,79.1824,43.4991,27.3693,5.58384,26.6766,7.12502,30.9267,54.092,-30.7348,-4.72318,6.58045,31.684,-6.4989,-15.2296,4.67297,9.87187,1.93469,-26.7432,15.0307,-17.4411,-2.41463,-11.6971
-11.2044,17.2566,-2.53606,-3.02671,2.51045,6.30925,4.6619,-2.9882,-7.87706,0.239526,-4.36223,1.6474,-1.64822,-2.1204,6.37365,-20.7288,1.85414,-5.41892,30.4761,4.94506,-0.653056,13.7137,1.39993,1.53191,-5.20257e-15,0,-37.792,-1.89288,-66.0044,45.3739,-9.20971,19.2498,13.1846,7.12502,43.8356,-10.7593,-5.20257e-15,0,-20.744,-24.3665,79.3479,43.297,27.3546,5.41098,25.9993,7.12502,30.7619,53.4459,-30.558,-5.20398,6.6883,32.4294,-6.77582,-14.0538,4.60147,10.2337,1.64617,-26.3878,15.0448,-17.7028,-2.66971,-11.4509
-11.2478,17.2368,-2.42893,-3.04655,3.2103,6.25929,4.61232,-3.10581,-7.91816,0.258123,-4.51644,1.65439,-1.57157,-2.20149,6.40483,-20.8327,1.77697,-5.5132,30.5882,4.85912,-0.58305,13.7821,1.35649,1.56476,-3.20758e-14,-3.97569e-15,-37.7464,-1.78776,-65.9085,45.6115,-9.33228,19.1185,13.0868,7.12502,43.7131,-10.9023,-3.20758e-14,-3.97569e-15,-20.7138,-24.3064,79.4507,43.007,27.3812,5.23014,25.3381,7.12502,30.5895,52.817,-30.2334,-5.71205,6.69028,33.1128,-7.3577,-13.0067,6.42714,10.6841,1.2222,-26.146,14.9924,-17.9155,-2.81028,-11.3408
-11.2955,17.2184,-2.32458,-3.09468,3.67337,6.19541,4.62672,-3.11387,-7.97073,0.213814,-4.53281,1.64362,-1.61999,-2.20557,6.42661,-20.6352,1.6881,-5.49672,30.6194,4.7194,-0.609488,13.7591,1.29591,1.52438,1.16056e-14,-4.77083e-15,-37.8325,-1.66979,-65.8132,45.6776,-9.74812,18.6931,13.2745,7.12502,43.3157,-10.8589,1.16056e-14,-4.77083e-15,-20.9337,-24.1936,79.5918,42.8728,27.2789,5.39312,25.2629,7.12502,30.7449,52.7126,-29.9313,-6.05337,6.8028,33.7063,-7.4247,-12.1595,7.30946,11.2413,0.817108,-25.9133,14.787,-18.0768,-2.74698,-11.6507
-11.3454,17.2114,-2.22191,-3.1656,4.09849,5.99291,4.75205,-3.06444,-7.89715,0.123792,-4.47595,1.65865,-1.79814,-2.16631,6.41205,-20.3605,1.55563,-5.54721,30.661,4.51251,-0.570009,13.722,1.20849,1.50896,-3.61353e-14,-2.22639e-14,-38.0279,-1.59366,-65.6783,45.771,-10.1126,18.6031,13.4753,7.12502,43.2317,-10.6883,-3.61353e-14,-2.22639e-14,-21.3721,-24.0769,79.7924,42.9275,27.0703,5.65106,25.7264,7.12502,30.9908,53.1296,-29.7451,-6.24763,7.05557,34.2255,-7.0551,-11.9108,7.24256,11.8272,0.385649,-25.5322,14.4658,-18.0814,-2.68821,-12.2458
-11.3935,17.2164,-2.11833,-3.16405,4.62836,5.68661,4.82633,-3.04421,-7.65048,0.0344315,-4.44354,1.68922,-1.95446,-2.14206,6.31327,-20.2548,1.41329,-5.6146,30.7909,4.30354,-0.495321,13.7579,1.11785,1.51466,1.94933e-14,-7.95139e-15,-38.1992,-1.54702,-65.5636,46.1518,-9.92045,19.2614,12.9585,7.12502,43.8464,-10.9814,1.94933e-14,-7.95139e-15,-21.6394,-24.0265,79.9719,42.8843,26.8764,5.89259,26.4556,7.12502,31.221,53.8148,-29.698,-6.44501,7.34053,34.7283,-6.50261,-12.024,7.81278,12.3403,-0.174495,-25.0588,14.0593,-18.0067,-2.59674,-12.71
-11.4423,17.218,-2.01129,-3.09597,5.04515,5.40399,4.76177,-3.01039,-7.39176,-0.0329061,-4.38079,1.70269,-2.01669,-2.10819,6.17768,-20.3058,1.26973,-5.61181,30.994,4.10245,-0.477291,13.8631,1.02623,1.49099,-2.8538e-14,2.70347e-14,-38.4812,-1.17987,-65.5947,46.8394,-9.93012,19.7136,12.1764,7.12502,44.2682,-11.6058,-2.8538e-14,2.70347e-14,-21.6829,-24.1629,80.0823,42.6558,26.8179,6.13789,27.093,7.12502,31.4547,54.4068,-29.7181,-6.73142,7.67024,35.2336,-5.75448,-12.3158,7.04123,12.8386,-0.743383,-24.639,13.6579,-18.0456,-2.29045,-13.1437
-11.4931,17.2117,-1.89865,-3.06138,5.48654,5.24487,4.65947,-2.98697,-7.28849,-0.0260008,-4.33619,1.69238,-1.96751,-2.08931,6.09957,-20.4914,1.13992,-5.63277,31.1814,3.93412,-0.441833,13.9893,0.947846,1.48549,-1.59276e-14,-6.36111e-15,-38.5312,-0.906744,-65.6098,47.1911,-10.1522,19.772,11.8654,7.12502,44.3226,-11.8961,-1.59276e-14,-6.36111e-15,-21.7074,-24.2653,80.1653,42.5095,26.6889,6.23692,27.5002,7.12502,31.549,54.7955,-29.6459,-7.23091,7.9231,35.7714,-4.98775,-12.6154,4.92202,13.3149,-1.30694,-24.344,13.4615,-18.1739,-2.03216,-13.504
-11.5433,17.2163,-1.78558,-3.06751,5.96197,5.18862,4.60881,-2.94065,-7.29603,-0.0158564,-4.27173,1.64422,-1.94185,-2.05849,6.04693,-20.4863,1.04993,-5.65255,31.2489,3.79369,-0.380191,14.0199,0.892506,1.49029,2.94947e-14,-1.11319e-14,-38.5457,-1.04463,-65.527,47.315,-9.93522,19.9711,12.1616,7.12502,44.5081,-11.5291,2.94947e-14,-1.11319e-14,-21.7546,-24.2658,80.2642,42.3964,26.3852,6.0734,27.5745,7.12502,31.3933,54.9003,-29.4852,-7.91903,8.06246,36.4073,-4.58314,-12.349,5.64711,13.6139,-1.79031,-24.1418,13.4636,-17.9138,-2.22771,-12.0567
-11.593,17.2152,-1.67989,-3.12945,6.27856,5.01432,4.69164,-2.86634,-7.1807,-0.0674342,-4.17417,1.63792,-2.06588,-2.00383,5.97929,-20.2373,1.01452,-5.65274,31.2062,3.72405,-0.384232,13.9495,0.867136,1.47257,2.00027e-14,-1.82882e-14,-38.6235,-1.11178,-65.4871,47.4021,-9.63749,20.1979,12.4903,7.12502,44.7194,-11.119,2.00027e-14,-1.82882e-14,-21.9099,-24.2253,80.3873,42.2447,26.1076,5.9866,27.5047,7.12502,31.3106,54.8465,-29.4037,-8.65686,8.39049,37.1543,-4.33308,-11.4718,4.73318,13.9172,-2.1689,-23.8296,13.5443,-17.6982,-2.27088,-10.6961
-11.6447,17.1866,-1.57684,-3.13464,6.51995,4.69607,4.64659,-2.82828,-6.91209,-0.0837348,-4.10497,1.67923,-2.08363,-1.9707,5.86614,-20.2321,0.964955,-5.71166,31.278,3.65387,-0.314504,13.979,0.838058,1.49952,1.72446e-14,-2.94201e-14,-38.397,-1.06605,-65.54,47.2711,-9.56848,20.4793,12.1407,7.12502,44.9813,-11.3662,1.72446e-14,-2.94201e-14,-22.1174,-24.0334,80.4586,42.1555,25.8386,6.11637,27.1511,7.12502,31.4342,54.4689,-29.5586,-9.41324,8.94314,37.9709,-4.0504,-10.7113,4.0781,14.295,-2.623,-23.3522,13.8614,-18.3925,-1.8557,-12.1743
-11.6988,17.1601,-1.47198,-3.09633,6.71758,4.52064,4.6057,-2.77702,-6.79679,-0.136854,-4.02898,1.67593,-2.13542,-1.93023,5.79405,-20.3421,0.909984,-5.79027,31.4571,3.57454,-0.180182,14.0785,0.806981,1.55754,-3.76448e-14,-1.66979e-14,-38.2419,-0.877335,-65.644,47.1942,-9.73839,20.4988,12.0784,7.12502,44.9994,-11.4213,-3.76448e-14,-1.66979e-14,-22.3756,-23.7153,80.5434,42.0582,25.7097,6.28881,26.5793,7.12502,31.5985,53.865,-29.8253,-10.1339,9.36988,38.885,-3.88295,-10.2143,3.92453,14.8135,-3.16848,-23.007,14.1308,-19.2027,-1.83747,-12.1778
-11.755,17.16,-1.3612,-3.08181,6.86061,4.51222,4.66821,-2.67151,-6.87177,-0.224241,-3.90023,1.62803,-2.27915,-1.8566,5.78801,-20.3057,0.875073,-5.81507,31.4691,3.52054,-0.145095,14.0763,0.786619,1.56635,-1.4387e-14,3.26007e-14,-38.1995,-0.616023,-65.7376,47.1139,-10.026,20.1553,12.9055,7.12502,44.6797,-10.7191,-1.4387e-14,3.26007e-14,-22.6282,-23.5271,80.6544,41.9792,25.9261,6.35244,26.5281,7.12502,31.6591,53.8019,-29.9682,-10.8186,9.64409,39.7769,-3.85143,-9.42033,5.5059,14.7174,-2.94984,-22.762,14.2168,-19.1495,-1.4319,-17.0936
-11.8085,17.1482,-1.24828,-3.02714,7.02195,4.5743,4.55328,-2.57056,-6.96497,-0.151466,-3.76238,1.54454,-2.15921,-1.79399,5.73718,-20.5692,0.800424,-5.83605,31.4142,3.42504,-0.101108,14.1114,0.749356,1.57398,2.8948e-14,-1.59028e-15,-37.6709,-0.596353,-65.8668,46.7674,-10.0224,20.0875,13.1295,7.12502,44.6165,-10.5195,2.8948e-14,-1.59028e-15,-22.4983,-23.5144,80.5861,41.8995,26.2785,6.20661,26.6777,7.12502,31.5202,53.9787,-30.2628,-11.7532,9.90381,40.7126,-3.76968,-8.0639,5.86018,14.9187,-2.99893,-22.618,14.2857,-19.0806,-1.12757,-20.3355
-11.8618,17.1385,-1.13315,-3.07133,7.2677,4.67863,4.48566,-2.52411,-7.12153,-0.00344397,-3.70104,1.46857,-1.97171,-1.77407,5.73375,-20.9259,0.780209,-5.81457,31.4135,3.4255,-0.119174,14.1901,0.746679,1.56823,1.30452e-15,1.90833e-14,-36.94,-0.544537,-66.0321,46.3498,-9.81924,20.3185,12.7959,7.12502,44.8317,-10.7696,1.30452e-15,1.90833e-14,-22.4647,-23.4182,80.4981,41.9818,26.5542,6.04735,26.7654,7.12502,31.3684,54.096,-30.591,-12.8896,10.1769,41.5871,-3.48204,-6.76545,1.39544,15.2095,-3.23172,-22.537,14.5289,-18.6025,-1.0352,-22.0243
-11.9199,17.1271,-1.0211,-3.19182,7.59666,4.89516,4.5483,-2.46812,-7.40744,0.137683,-3.64434,1.33329,-1.8599,-1.75224,5.7494,-21.205,0.772279,-5.73116,31.4464,3.43426,-0.189351,14.2691,0.747151,1.53176,2.72583e-14,-2.3059e-14,-36.6024,-0.395335,-66.2513,46.2961,-9.76551,20.0809,12.9094,7.12502,44.6104,-10.742,2.72583e-14,-2.3059e-14,-22.7895,-23.3005,80.4676,42.3882,26.7011,6.24524,27.2398,7.12502,31.557,54.5336,-30.5695,-13.6623,10.0922,42.5715,-4.09204,-5.86364,1.99085,15.6284,-3.54365,-22.5574,14.5533,-17.8723,-1.40177,-21.3936
-11.9795,17.1058,-0.914743,-3.24915,7.84993,5.13221,4.67951,-2.35378,-7.67757,0.210126,-3.51738,1.17002,-1.87188,-1.68828,5.7302,-21.3847,0.679846,-5.73024,31.4084,3.32174,-0.212533,14.2966,0.695768,1.50402,3.09359e-14,1.98785e-14,-36.5309,-0.15926,-66.5084,46.6079,-9.8824,19.5582,12.7032,7.12502,44.1233,-11.1336,3.09359e-14,1.98785e-14,-23.1032,-23.248,80.4387,42.789,26.7889,6.66513,27.7756,7.12502,31.9569,54.9902,-30.6757,-14.3135,10.0155,43.5214,-4.51675,-5.48282,1.87179,16.0385,-3.90925,-22.6014,14.5281,-17.5566,-1.7573,-18.0776
-12.0449,17.0802,-0.809604,-3.30365,8.0865,5.08099,4.74163,-2.2757,-7.7687,0.225136,-3.42315,1.14934,-1.90169,-1.63956,5.75879,-21.2903,0.608995,-5.90473,31.2742,3.23899,-0.115594,14.2144,0.659533,1.55507,-4.47266e-16,1.82882e-14,-36.2629,0.0996048,-66.6837,46.6094,-9.96738,19.4598,12.6643,7.12502,44.0315,-11.2068,-4.47266e-16,1.82882e-14,-23.2501,-23.2366,80.4629,42.8577,26.9462,6.7999,27.7461,7.12502,32.0852,54.9349,-30.7689,-14.7418,10.2396,44.4562,-5.00563,-5.56881,2.70245,16.4473,-4.32902,-22.28,14.6704,-17.6887,-1.89952,-17.2135
-12.1144,17.0672,-0.69315,-3.39609,8.43991,4.77764,4.73791,-2.25711,-7.64487,0.240069,-3.39013,1.18481,-1.89406,-1.62488,5.72403,-21.2178,0.62114,-5.89198,31.2091,3.23657,-0.0891178,14.169,0.667765,1.56149,-6.98231e-15,-2.3059e-14,-36.001,0.319927,-66.8725,46.469,-10.0352,19.8155,12.8025,7.12502,44.3631,-10.9436,-6.98231e-15,-2.3059e-14,-23.3508,-23.3972,80.4738,42.7585,27.0358,6.69651,27.3093,7.12502,31.9868,54.5179,-30.6318,-15.1383,10.7081,45.2784,-5.60035,-5.75767,3.40093,16.696,-4.77123,-21.6124,15.0198,-17.8779,-2.16634,-24.6241
-12.1799,17.0619,-0.57123,-3.52916,8.7738,4.48129,4.89995,-2.20668,-7.42287,0.155827,-3.32695,1.17469,-2.09553,-1.58404,5.59686,-21.1014,0.630843,-5.76077,31.2902,3.23714,-0.198999,14.1846,0.667205,1.49487,-3.52594e-14,-7.95139e-16,-36.2174,0.710832,-67.1047,46.7433,-10.151,20.1996,12.4553,7.12502,44.721,-11.1533,-3.52594e-14,-7.95139e-16,-23.7307,-23.6732,80.5853,42.7388,26.949,6.54447,27.2349,7.12502,31.842,54.4724,-30.3918,-15.5683,11.1565,46.0113,-6.22598,-5.83021,3.24283,16.8634,-5.16378,-20.9591,15.4586,-18.0547,-2.58485,-25.7812
-12.2448,17.0507,-0.45888,-3.71667,8.9796,4.19677,5.07673,-2.11485,-7.16909,0.145432,-3.20447,1.16058,-2.23839,-1.5191,5.44249,-21.093,0.608597,-5.84763,31.4508,3.23109,-0.15183,14.2519,0.656537,1.53017,1.22004e-14,-3.97569e-15,-36.2654,1.01725,-67.3171,46.927,-10.1743,20.2743,12.6121,7.12502,44.7906,-10.9695,1.22004e-14,-3.97569e-15,-24.0041,-23.8164,80.6369,42.7767,26.7275,6.68949,27.3145,7.12502,31.9801,54.5245,-30.1755,-15.902,11.598,46.6785,-6.90879,-5.79129,2.99842,17.0367,-5.47835,-20.3332,16.0443,-18.1886,-3.05213,-25.3754
-12.3104,17.034,-0.346453,-3.9501,9.13182,4.0356,5.20465,-1.98222,-7.04893,0.277144,-3.02694,1.11734,-2.20733,-1.43678,5.32234,-21.1484,0.579675,-5.9286,31.3911,3.20659,-0.100488,14.2359,0.646159,1.56042,-2.32578e-14,-3.57812e-15,-35.8562,1.0994,-67.4664,46.6982,-10.2793,20.1747,13.4,7.12502,44.6977,-10.2176,-2.32578e-14,-3.57812e-15,-24.0291,-23.9532,80.552,42.88,26.5798,7.12645,27.1082,7.12502,32.396,54.2339,-29.9107,-16.2669,11.9129,47.3286,-7.6377,-5.62905,2.06852,17.1132,-5.72939,-19.8447,16.9554,-18.2462,-3.30604,-25.7669
-12.3741,17.0233,-0.227106,-4.0529,9.07759,3.9653,5.24424,-1.76701,-7.04027,0.297294,-2.74248,1.093,-2.25079,-1.29369,5.27748,-21.0078,0.523499,-5.94137,31.231,3.15983,-0.231786,14.1408,0.613197,1.49729,1.21756e-15,-1.94809e-14,-35.6096,1.28334,-67.5483,46.4936,-10.4531,20.2729,13.876,7.12502,44.7892,-9.70609,1.21756e-15,-1.94809e-14,-24.3342,-24.0909,80.6211,43.1158,26.5874,7.24099,27.5834,7.12502,32.5051,54.6867,-29.804,-16.5462,12.2232,47.9355,-8.30723,-5.42857,0.0654143,17.0466,-5.79813,-19.4665,17.9319,-18.1944,-3.19792,-28.1927
-12.4359,17.0071,-0.112796,-4.06599,8.87151,3.73919,5.17451,-1.57751,-6.84061,0.267526,-2.47304,1.13133,-2.28748,-1.15883,5.18722,-20.9497,0.478982,-6.02498,31.2233,3.1591,-0.331555,14.1278,0.589813,1.47045,1.73191e-14,-7.95139e-16,-35.5477,1.60827,-67.6737,46.6459,-10.436,20.538,14.2664,7.12502,45.036,-9.219,1.73191e-14,-7.95139e-16,-24.6541,-24.074,80.6935,43.2585,26.6165,6.92979,28.2685,7.12502,32.2089,55.4323,-29.5727,-16.5398,12.6182,48.5166,-9.41721,-4.98465,3.13972,16.8646,-5.80951,-18.9372,18.9069,-17.9658,-3.26894,-29.9654
-12.4964,17.0008,0.0015449,-4.19992,8.88099,3.52204,5.17868,-1.44389,-6.56375,0.320244,-2.27886,1.07199,-2.27501,-1.06678,4.95618,-20.8105,0.481979,-6.00447,31.1253,3.13767,-0.318347,14.0548,0.590655,1.46576,-2.83889e-14,-3.97569e-15,-35.4722,1.78139,-67.9264,46.8474,-10.4507,20.4514,14.8564,7.12502,44.9554,-8.66067,-2.83889e-14,-3.97569e-15,-24.7583,-24.1807,80.5921,43.272,26.6235,6.90292,28.2837,7.12502,32.1833,55.4527,-29.3885,-16.9389,13.0762,49.0296,-10.004,-5.02472,2.06774,16.8097,-6.00704,-18.4249,19.9154,-17.628,-3.80309,-29.8306
-12.5587,16.9918,0.121699,-4.39328,8.91507,3.49963,5.22486,-1.23036,-6.48081,0.380366,-1.99451,0.919811,-2.28457,-0.927343,4.73343,-20.3632,0.54595,-5.63401,30.7173,3.11368,-0.525091,13.7906,0.614268,1.30586,-2.28602e-15,1.74931e-14,-35.3872,1.74852,-68.1638,46.7823,-10.4662,20.6367,14.2867,7.12502,45.1277,-9.16242,-2.28602e-15,1.74931e-14,-24.9984,-24.3376,80.5327,43.4387,26.4256,7.4893,28.5737,7.12502,32.7413,55.6282,-29.1102,-17.227,13.2686,49.5266,-10.5702,-5.18381,0.753241,16.7968,-6.25294,-18.1499,21.0896,-17.3739,-4.31505,-29.8888
-12.6219,16.9785,0.248183,-4.52576,8.88003,3.42616,5.16805,-1.04285,-6.43487,0.433557,-1.73722,0.885162,-2.23304,-0.802723,4.65262,-19.9674,0.65586,-5.28894,30.1722,3.19497,-0.81505,13.4817,0.671564,1.13624,-3.16813e-15,-1.07344e-14,-35.2183,1.8008,-68.2605,46.7739,-10.3782,22.2067,11.5883,7.12502,46.585,-11.2586,-3.16813e-15,-1.07344e-14,-25.2341,-24.251,80.568,43.5836,26.0602,7.60186,27.5356,7.12502,32.8484,54.5677,-28.7996,-17.3859,13.5128,50.0049,-11.1944,-5.20268,0.0948137,16.6741,-6.37128,-17.7699,22.2669,-17.0092,-4.85732,-27.7109
-12.6912,16.9715,0.368455,-4.58666,8.87935,3.13643,5.14242,-0.911117,-6.22602,0.422104,-1.54734,0.923868,-2.25908,-0.708624,4.56266,-19.8327,0.717748,-5.22251,30.0096,3.2604,-0.85572,13.3841,0.709638,1.11719,-2.63762e-14,1.55052e-14,-34.9845,1.93555,-68.412,46.8244,-10.3424,23.4598,9.44179,7.12502,47.7434,-12.8898,-2.63762e-14,1.55052e-14,-25.5437,-24.135,80.5892,43.7083,25.8779,6.05802,23.0283,7.12502,31.3786,50.3569,-28.5411,-17.4301,14.0571,50.4528,-11.7587,-5.2893,0.211806,16.2896,-6.41832,-17.0252,23.499,-16.4234,-5.61393,-26.5803
-12.7643,16.9672,0.484494,-4.78033,8.77925,2.93645,5.3224,-0.708517,-6.0923,0.389329,-1.28335,0.884915,-2.43067,-0.571708,4.43414,-19.7058,0.702135,-5.17486,30.1308,3.23065,-0.885278,13.4107,0.696545,1.09256,-1.34428e-14,1.59028e-15,-34.8415,2.02682,-68.6803,46.7382,-10.1667,22.5956,10.7058,7.12502,46.9449,-11.9847,-1.34428e-14,1.59028e-15,-26.049,-24.2146,80.6158,43.9652,26.1797,8.09247,31.9414,7.12502,33.3149,58.8747,-28.1153,-17.167,14.454,50.8504,-12.3326,-5.37052,1.89711,15.9824,-6.44376,-16.406,24.8509,-15.7595,-6.31212,-27.8092
-12.838,16.964,0.601712,-5.12885,8.55371,2.67116,5.52706,-0.477323,-5.95228,0.464443,-0.977217,0.910052,-2.50643,-0.419672,4.36312,-19.6037,0.692049,-5.1985,30.2135,3.24284,-0.939935,13.4255,0.690835,1.07708,1.25234e-14,1.59028e-15,-34.7565,2.28202,-68.9347,46.7674,-10.0429,21.5665,12.6627,7.12502,45.9915,-10.4354,1.25234e-14,1.59028e-15,-26.2332,-24.1232,80.5432,44.127,26.5759,5.52391,25.7493,7.12502,30.8696,53.1756,-27.5431,-16.757,14.922,51.1792,-12.8076,-5.5366,3.27857,15.8499,-6.4178,-15.7439,26.2537,-15.054,-6.95556,-29.0472
-12.9124,16.9622,0.712578,-5.31512,8.34673,2.41765,5.63189,-0.269014,-5.81661,0.524946,-0.695403,0.938435,-2.53718,-0.280877,4.29652,-19.6703,0.681235,-5.27846,30.3925,3.25848,-0.897944,13.5135,0.688799,1.11255,-1.49089e-16,7.55382e-15,-34.6098,2.72026,-69.2063,46.7936,-10.0071,21.4301,13.1959,7.12502,45.8649,-9.95462,-1.49089e-16,7.55382e-15,-26.2851,-23.7794,80.3662,44.2801,26.7733,5.81364,25.7909,7.12502,31.1457,53.1645,-27.2267,-16.4252,15.4771,51.4475,-13.0701,-5.8207,3.74349,15.4693,-6.38831,-15.0519,27.6461,-14.1772,-7.6344,-29.1487
-12.9772,16.9586,0.827866,-5.30239,8.33334,2.59617,5.70051,-0.09255,-5.91431,0.489502,-0.476688,0.758157,-2.63888,-0.167525,4.14827,-19.779,0.631158,-5.32956,30.5588,3.17274,-0.750859,13.605,0.660827,1.1679,-2.37299e-15,5.96354e-16,-34.4577,2.86399,-69.482,46.7451,-9.68734,21.7472,12.9759,7.12502,46.1591,-10.0521,-2.37299e-15,5.96354e-16,-26.5306,-23.6672,80.2324,44.4801,26.9345,6.43094,27.4061,7.12502,31.7339,54.665,-27.0383,-16.4291,15.5003,51.6778,-13.29,-5.90402,4.07389,14.8443,-6.38945,-14.8536,29.082,-13.1503,-8.31846,-29.5101
-13.0365,16.9564,0.950505,-5.38877,8.36604,2.68993,5.72387,0.0817671,-5.86691,0.543076,-0.246376,0.578064,-2.62389,-0.0558223,3.91586,-19.7537,0.563083,-5.39595,30.4585,3.02951,-0.565832,13.5541,0.621235,1.22682,-2.98177e-15,2.78299e-15,-34.079,2.67892,-69.6857,46.6071,-9.42649,22.1558,12.8684,7.12502,46.5379,-9.99879,-2.98177e-15,2.78299e-15,-26.6921,-23.7139,80.0892,44.6768,26.9631,6.37876,26.9396,7.12502,31.6842,54.2084,-26.6356,-16.5098,15.5546,51.8609,-13.4976,-5.96836,3.96512,14.2906,-6.3588,-14.5669,30.5947,-11.9689,-9.0739,-30.3972
-13.101,16.9571,1.06541,-5.59561,8.19142,2.36447,5.73919,0.278838,-5.53442,0.706298,0.041278,0.593884,-2.49478,0.0767318,3.72182,-20.0587,0.424899,-5.65212,30.5642,2.86712,-0.324187,13.6606,0.549141,1.34299,2.03257e-14,3.57812e-15,-33.4566,2.60747,-69.8651,46.358,-9.25659,22.0622,13.0193,7.12502,46.4511,-9.88496,2.03257e-14,3.57812e-15,-26.6779,-23.5715,79.9079,44.8727,26.9752,6.75626,27.3656,7.12502,32.0437,54.5627,-26.1504,-16.2836,16.1518,51.9877,-13.6147,-6.2382,3.82344,13.76,-6.21554,-13.7694,32.1611,-10.593,-9.87074,-31.3884
-13.1649,16.956,1.17653,-5.78662,7.94835,2.07793,5.90538,0.470419,-5.26245,0.732685,0.305787,0.636803,-2.5872,0.208097,3.59195,-20.7161,0.219312,-6.14592,31.33,2.71215,0.0388049,14.1283,0.445494,1.56294,4.41675e-15,-2.98177e-15,-33.3582,2.60446,-70.0481,46.3833,-8.66015,21.7224,13.4191,7.12502,46.1362,-9.61857,4.41675e-15,-2.98177e-15,-26.8508,-23.3256,79.8249,44.9328,27.0032,7.24545,29.5758,7.12502,32.5093,56.6783,-25.6689,-15.9648,16.7159,52.0667,-13.7513,-6.42371,3.97543,13.1801,-6.00559,-12.9897,33.8126,-8.83585,-10.6491,-31.6996
-13.2268,16.9535,1.29134,-6.01846,7.82997,1.86924,6.22556,0.63539,-4.97435,0.62664,0.523115,0.600016,-2.89556,0.32324,3.37164,-20.707,0.13937,-6.33665,31.7344,2.65596,0.128692,14.3045,0.398952,1.62812,2.62272e-14,0,-33.4648,2.91373,-70.3387,46.2438,-8.1079,20.9441,14.2859,7.12502,45.4136,-9.04888,2.62272e-14,0,-27.4468,-23.1048,79.8153,45.0771,26.9332,7.12889,30.7696,7.12502,32.3984,57.8948,-25.0451,-15.7309,17.1148,52.1058,-13.9432,-6.58036,4.35031,12.5953,-5.92005,-12.3359,35.5958,-6.69464,-11.2861,-31.5311
-13.2905,16.9543,1.40376,-6.25177,7.80823,1.49883,6.45288,0.756386,-4.53527,0.638773,0.703621,0.60091,-3.02213,0.410572,3.10749,-20.064,0.223664,-6.35266,31.0165,2.72031,0.0740893,13.8465,0.447023,1.60236,1.78689e-14,6.85807e-15,-32.9935,3.75389,-70.7323,45.7923,-8.38656,19.9927,14.7671,7.12502,44.5282,-8.91596,1.78689e-14,6.85807e-15,-27.8761,-22.7563,79.684,45.3488,26.6988,7.32963,30.2685,7.12502,32.5894,57.3545,-24.3719,-15.501,17.6896,52.1172,-14.2179,-6.86189,5.54331,11.8228,-5.9679,-11.5246,37.4636,-4.86655,-11.8666,-32.0046
-13.3514,16.9557,1.5103,-6.38935,7.84323,1.02014,6.55015,0.837583,-4.01457,0.733393,0.848469,0.661346,-2.98444,0.47424,2.86307,-19.8699,0.214504,-6.51069,30.5556,2.70079,0.154513,13.603,0.448599,1.64885,-7.8054e-15,2.68359e-15,-32.4566,4.36938,-71.0147,45.5809,-8.76342,19.8376,14.5608,7.12502,44.3838,-9.17742,-7.8054e-15,2.68359e-15,-27.9495,-22.3776,79.4854,45.5311,26.5911,7.64606,30.3085,7.12502,32.8904,57.3318,-23.819,-15.3103,18.4116,52.108,-14.5739,-7.06712,6.32041,10.7762,-6.04194,-10.5821,39.3687,-3.50921,-12.6056,-32.0859
-13.4049,16.9596,1.62037,-6.42497,7.94136,0.766049,6.57544,0.908027,-3.60539,0.748652,0.969455,0.610045,-2.98467,0.529069,2.56802,-20.3964,-0.0160348,-6.60495,31.3187,2.44049,0.265845,14.0564,0.311485,1.68203,-1.07157e-16,1.46604e-14,-32.2478,4.38315,-71.2299,45.5931,-8.63665,20.1627,14.3623,7.12502,44.6866,-9.25965,-1.07157e-16,1.46604e-14,-28.1106,-22.1861,79.3417,45.6472,26.8586,7.16081,30.5257,7.12502,32.4288,57.6447,-23.3142,-15.2846,18.8377,52.0634,-14.9928,-7.13882,5.7014,9.61049,-6.14224,-9.95228,41.3424,-2.12948,-13.3382,-30.928
-13.452,16.9663,1.7341,-6.3863,8.13293,0.904836,6.47866,0.957093,-3.53105,0.722871,1.03783,0.4306,-2.9574,0.561108,2.33506,-20.6317,-0.251721,-6.72406,31.9437,2.13679,0.408258,14.3956,0.165205,1.71855,1.18044e-14,-1.14239e-14,-32.1714,4.39174,-71.4587,45.764,-8.60452,20.5542,14.1202,7.12502,45.051,-9.35926,1.18044e-14,-1.14239e-14,-28.3689,-21.9236,79.2401,45.6813,27.0447,6.71675,30.1573,7.12502,32.006,57.362,-22.8153,-15.4315,18.7692,51.9833,-15.3913,-7.22019,4.71924,8.42464,-6.34666,-9.87977,43.3684,-0.580136,-13.9427,-28.6621
-13.5022,16.9711,1.8313,-6.3683,8.27702,0.68853,6.51644,1.01948,-3.19037,0.720162,1.14321,0.408965,-2.98124,0.609807,2.11088,-20.7033,-0.408826,-6.81868,31.9945,1.9531,0.402171,14.4433,0.0720971,1.70075,1.23747e-14,1.43373e-14,-31.9102,4.53144,-71.6007,45.8336,-8.61384,20.7419,13.9878,7.12502,45.2256,-9.42233,1.23747e-14,1.43373e-14,-28.4255,-21.5324,79.1858,45.6283,27.0276,6.74081,30.0904,7.12502,32.0289,57.2906,-22.4113,-15.3616,19.1918,51.8455,-15.6688,-7.53066,4.67379,7.0555,-6.53163,-9.37551,45.4698,0.861978,-14.6664,-26.5642
-13.5562,16.978,1.92014,-6.39047,8.25739,0.10552,6.65257,1.13233,-2.5444,0.767803,1.34057,0.531041,-3.00816,0.700829,1.85389,-20.5876,-0.480155,-6.87732,31.4291,1.88786,0.26109,14.1725,0.0356022,1.63254,-2.65082e-14,4.62174e-15,-31.3905,4.62308,-71.6927,45.7237,-8.51008,20.7086,13.9533,7.12502,45.1946,-9.46921,-2.65082e-14,4.62174e-15,-28.3198,-21.1821,79.1637,45.5529,27.028,6.79221,30.4944,7.12502,32.0779,57.6847,-22.0425,-15.0427,20.1064,51.6556,-15.8666,-7.97917,5.1732,5.57914,-6.55635,-8.4122,47.6202,2.09735,-15.5036,-24.7393
-13.6046,16.9835,2.01518,-6.4557,8.26761,-0.226907,6.79626,1.22203,-2.1548,0.781518,1.48738,0.590742,-3.07358,0.770113,1.68025,-20.2629,-0.525654,-6.96137,30.9593,1.83093,0.185295,13.9001,0.00773797,1.59764,-6.52961e-14,-9.88954e-15,-31.0784,4.75084,-71.8176,45.8174,-8.50023,21.1857,13.5261,7.12502,45.638,-9.71765,-6.52961e-14,-9.88954e-15,-28.611,-20.8213,79.1793,45.6974,27.0789,6.54002,30.5254,7.12502,31.8377,57.7637,-21.522,-14.8715,20.6631,51.4427,-16.072,-8.32518,5.34655,4.2324,-6.64118,-7.81245,49.7262,3.31521,-16.0439,-21.6795
-13.6481,16.9893,2.11118,-6.56274,8.46677,-0.300942,7.0153,1.28125,-1.96722,0.741064,1.5739,0.538882,-3.23534,0.812327,1.508,-20.5794,-0.698966,-6.94834,31.6345,1.62896,0.191242,14.2762,-0.0997326,1.57306,-1.11677e-14,-5.2181e-15,-31.1344,4.7158,-71.9239,46.0533,-8.37487,21.3597,13.702,7.12502,45.7996,-9.47549,-1.11677e-14,-5.2181e-15,-29.13,-20.5527,79.1956,45.962,27.138,6.42545,29.9276,7.12502,31.7286,57.1876,-20.8796,-14.9269,20.8515,51.239,-16.3521,-8.56912,5.39003,2.94671,-6.88442,-7.58076,51.7162,4.559,-16.2838,-18.3121
-13.6865,17.0081,2.21056,-6.50742,8.80753,-0.0167462,6.97113,1.33628,-2.07728,0.800322,1.63476,0.379868,-3.15029,0.84183,1.40128,-21.0326,-0.892797,-6.88104,32.1218,1.42885,0.0590376,14.6081,-0.214074,1.47954,4.60202e-14,1.37161e-14,-30.8847,4.68905,-71.971,46.0881,-8.23609,21.3004,13.7504,7.12502,45.7445,-9.44978,4.60202e-14,1.37161e-14,-29.1782,-20.3281,79.195,45.8979,27.0936,6.47232,29.4843,7.12502,31.7733,56.7354,-20.361,-15.1278,20.6116,51.0678,-16.6303,-8.76077,5.12154,1.58727,-7.13156,-7.82565,53.5235,5.69213,-16.4423,-15.9357
-13.7199,17.0291,2.30811,-6.30134,9.04703,0.36974,6.86837,1.39447,-2.30663,0.825632,1.69322,0.247981,-3.07171,0.872044,1.39083,-21.336,-1.06222,-6.97317,32.1624,1.2984,-0.0872817,14.7044,-0.305854,1.41245,2.6881e-14,6.80837e-15,-30.4122,5.10466,-72.0117,46.01,-8.38157,21.7023,13.0839,7.12502,46.1175,-9.96153,2.6881e-14,6.80837e-15,-29.2117,-19.9339,79.2773,45.7607,26.8727,6.50538,29.523,7.12502,31.8048,56.7679,-20.0256,-15.2286,20.2877,50.8986,-16.8579,-8.9091,4.75339,0.16727,-7.23052,-8.20899,55.2003,6.31531,-16.4076,-14.7253
-13.7508,17.0439,2.3975,-6.17514,9.17228,0.441156,6.93746,1.46343,-2.19545,0.756847,1.78876,0.181448,-3.17995,0.919365,1.24781,-21.0084,-1.12513,-7.22479,31.7509,1.20579,0.0519462,14.4479,-0.340706,1.49044,1.30111e-14,1.09332e-15,-30.1669,5.43365,-72.0757,45.8615,-8.35882,21.431,13.4564,7.12502,45.8658,-9.6938,1.30111e-14,1.09332e-15,-29.4227,-19.5426,79.3639,45.6522,26.6785,6.59258,29.723,7.12502,31.8878,56.9514,-19.726,-15.212,20.3216,50.6877,-17.0985,-9.01937,4.11802,-1.19627,-7.1855,-8.20155,56.7716,6.49705,-16.0469,-14.484
-13.7804,17.0605,2.48198,-6.06444,9.26321,0.34521,6.96196,1.55358,-1.88189,0.731804,1.93022,0.128779,-3.21282,0.98579,1.00272,-20.376,-1.14845,-7.29225,31.0747,1.09883,0.0837433,14.0137,-0.364595,1.48676,-1.60037e-14,1.19271e-15,-29.9498,5.22281,-72.1008,45.7878,-7.92756,21.2906,13.7401,7.12502,45.7354,-9.46378,-1.60037e-14,1.19271e-15,-29.376,-19.3347,79.4007,45.4278,26.7467,6.50194,30.144,7.12502,31.8015,57.3895,-19.4291,-15.1237,20.5601,50.405,-17.3722,-9.19802,3.20165,-2.55649,-7.06361,-7.98497,58.2605,6.21099,-15.3539,-15.2237
-13.8139,17.0905,2.57097,-5.88369,9.21773,0.259657,6.89021,1.67539,-1.66455,0.730163,2.11013,0.119548,-3.17203,1.07215,0.855828,-20.2663,-1.26735,-7.17466,30.7326,0.94259,-0.161796,13.852,-0.441996,1.33704,-1.63873e-14,-1.10325e-14,-29.7596,5.06137,-72.0829,45.9705,-7.49654,21.6543,13.411,7.12502,46.073,-9.65307,-1.63873e-14,-1.10325e-14,-29.3336,-19.0855,79.4478,45.2823,26.7787,6.67835,30.0935,7.12502,31.9695,57.3055,-19.1383,-14.811,20.8715,50.0055,-17.5653,-9.44559,3.4373,-3.91134,-6.83057,-7.76911,59.6125,5.71452,-14.3677,-16.7556
-13.8494,17.1112,2.66179,-5.82027,9.20525,0.00865578,6.83132,1.77374,-1.37753,0.761833,2.2661,0.182019,-3.10221,1.14597,0.746839,-19.9875,-1.37879,-6.86849,29.9854,0.85851,-0.885124,13.486,-0.52131,0.977898,7.96847e-15,1.11319e-14,-29.5258,5.07598,-72.0649,46.0906,-7.36058,21.5433,13.5591,7.12502,45.9699,-9.54798,7.96847e-15,1.11319e-14,-29.4115,-18.7542,79.5259,45.1087,26.5672,7.077,29.2301,7.12502,32.349,56.3654,-18.7062,-14.4873,21.3497,49.5547,-17.6397,-9.76489,4.24041,-5.24655,-6.54725,-7.33499,60.8811,5.21201,-13.4725,-17.7122
-13.8804,17.1277,2.74776,-5.8548,9.23062,-0.270813,6.92803,1.88456,-1.01312,0.751624,2.44154,0.230329,-3.15798,1.22914,0.572282,-20.3641,-1.63154,-7.2028,30.7009,0.503671,-0.377386,13.8829,-0.66513,1.17763,3.02324e-14,7.25564e-15,-29.2594,5.04804,-72.0638,45.9639,-7.53279,21.5574,13.4223,7.12502,45.983,-9.67931,3.02324e-14,7.25564e-15,-29.5531,-18.5158,79.6907,44.9465,26.4123,7.43204,29.6906,7.12502,32.6868,56.7564,-18.0841,-14.2438,21.8087,49.0529,-17.6954,-10.0862,4.73348,-6.4582,-6.21863,-6.89784,62.0305,3.41832,-12.7174,-19.2577
-13.9048,17.1476,2.83077,-5.76975,9.23156,-0.258858,6.95669,2.00625,-0.910863,0.692921,2.6103,0.212304,-3.23247,1.31196,0.47775,-19.8817,-1.72687,-7.09,30.1701,0.406045,-0.811128,13.5603,-0.737119,0.967226,6.53349e-15,1.60022e-14,-29.036,5.05953,-72.0552,45.742,-7.57985,21.8419,12.8999,7.12502,46.2469,-10.0911,6.53349e-15,1.60022e-14,-29.6843,-18.2668,79.8824,44.8058,26.4514,7.86364,31.578,7.12502,33.0974,58.5576,-17.5884,-14.0762,21.9248,48.568,-17.8586,-10.2713,5.06875,-7.61915,-5.90412,-6.88612,63.0424,1.64544,-11.9185,-20.1084
-13.9238,17.1671,2.91384,-5.6394,9.28994,-0.160948,6.90488,2.07289,-0.882604,0.629904,2.70014,0.171886,-3.2669,1.35626,0.412052,-19.8189,-1.79028,-7.20384,30.4431,0.251564,-0.491715,13.6665,-0.779102,1.08789,4.42016e-14,-5.1684e-15,-28.93,5.04705,-72.0757,45.6564,-7.42949,22.14,12.6964,7.12502,46.5232,-10.1771,4.42016e-14,-5.1684e-15,-29.8716,-18.0585,80.0341,44.6454,26.5236,7.82849,33.1339,7.12502,33.0639,60.1206,-17.1561,-14.0673,21.8955,48.1226,-18.0592,-10.4375,4.73715,-8.84774,-5.61594,-7.01564,63.9393,1.52104,-11.4538,-16.6871
-13.9407,17.184,2.99491,-5.53222,9.3435,-0.137905,6.9426,2.12452,-0.769453,0.577367,2.77641,0.151612,-3.3371,1.39265,0.317724,-19.2311,-1.76502,-7.20469,29.6859,0.221676,-0.544436,13.2212,-0.774942,1.06112,1.61792e-14,8.94531e-16,-28.7992,5.04135,-72.0975,45.5895,-7.44759,22.1819,13.1007,7.12502,46.562,-9.7561,1.61792e-14,8.94531e-16,-30.1412,-17.8205,80.2058,44.5437,26.3779,7.61074,33.5227,7.12502,32.8568,60.553,-16.682,-14.0427,21.9711,47.6693,-18.0537,-10.8209,3.65377,-10.1191,-5.24047,-7.0393,64.7027,0.702783,-11.0762,-15.4953
-13.9601,17.1871,3.07211,-5.37011,9.49408,-0.0246726,6.90281,2.18033,-0.818504,0.614596,2.84589,0.108291,-3.27744,1.42748,0.296253,-19.5579,-1.91307,-7.38428,29.8112,0.0467868,-0.368311,13.3505,-0.852519,1.13049,-2.26118e-15,-2.98177e-16,-28.4799,4.899,-72.0812,45.5093,-7.4461,22.0796,13.4374,7.12502,46.4672,-9.46,-2.26118e-15,-2.98177e-16,-30.1573,-17.5864,80.3392,44.3524,26.236,7.59934,32.8472,7.12502,32.846,59.8798,-16.3011,-13.9335,22.0001,47.2222,-17.8814,-11.3893,2.45924,-11.5012,-4.94403,-7.16377,65.3871,-1.15414,-10.5335,-19.3046
-13.9856,17.2088,3.15448,-5.26533,9.70502,0.0648867,6.89435,2.23231,-0.870227,0.639896,2.90862,0.0294283,-3.24584,1.4588,0.238861,-20.2997,-2.17851,-7.57997,30.6928,-0.305131,0.0374853,13.9015,-0.997992,1.26523,1.49399e-14,-2.88238e-15,-28.3146,4.59682,-72.1332,45.5693,-7.3241,22.6227,12.9491,7.12502,46.97,-9.73025,1.49399e-14,-2.88238e-15,-30.1681,-17.5432,80.3807,44.1718,26.2605,7.4345,32.4145,7.12502,32.6892,59.4798,-15.7987,-13.6984,22.0408,46.7124,-17.9071,-11.7891,3.07386,-12.7253,-4.73764,-7.28565,65.8561,-2.24713,-10.2805,-21.1847
-14.0088,17.2395,3.23661,-5.15808,9.80335,-0.00281441,6.9461,2.29663,-0.743006,0.563434,3.00223,-0.000795039,-3.34683,1.50353,0.123344,-19.767,-2.1467,-7.56027,30.2076,-0.386872,0.196383,13.5792,-0.993373,1.31062,6.96989e-15,-4.27387e-15,-28.3183,4.39517,-72.2112,45.5733,-7.25508,22.6784,12.6389,7.12502,47.0215,-10.0179,6.96989e-15,-4.27387e-15,-30.4804,-17.5571,80.491,44.152,26.2891,7.19416,31.7424,7.12502,32.4605,58.8549,-15.321,-13.3283,22.2756,46.1618,-18.0084,-12.1676,4.33556,-13.9085,-4.40095,-7.23736,66.1421,-2.62305,-10.3617,-20.8908
-14.0232,17.2647,3.3146,-4.91813,9.74844,0.00536013,6.74832,2.4101,-0.642676,0.567345,3.16162,-0.0330439,-3.22646,1.58132,0.0277628,-19.6147,-2.17979,-7.37203,29.888,-0.468437,0.0250521,13.413,-1.0221,1.19579,2.9313e-14,9.93923e-16,-28.1248,4.19861,-72.2337,45.4827,-7.23285,21.925,12.9054,7.12502,46.3239,-10.0531,2.9313e-14,9.93923e-16,-30.7058,-17.5874,80.6166,44.1289,26.4368,7.081,30.133,7.12502,32.3528,57.2675,-14.9726,-12.8516,22.4627,45.5575,-17.9151,-12.6465,4.84271,-15.1762,-3.89279,-7.31681,66.2701,-2.8116,-10.488,-20.8671
-14.0393,17.2916,3.39764,-4.75524,9.60685,0.0622673,6.5466,2.52632,-0.632555,0.621438,3.31778,-0.0691864,-3.05624,1.65884,-0.0184939,-19.9793,-2.36377,-7.26518,30.1302,-0.682875,-0.125597,13.603,-1.13151,1.07961,3.30371e-14,2.98177e-16,-27.9854,3.96437,-72.2822,45.533,-7.12361,21.4318,13.2953,7.12502,45.8665,-9.85459,3.30371e-14,2.98177e-16,-30.845,-17.4922,80.6324,44.1124,26.4171,7.44484,29.3742,7.12502,32.699,56.4374,-14.5137,-12.2135,22.6134,44.9496,-17.6941,-13.2744,4.9781,-16.2065,-3.31918,-7.4647,66.234,-3.15343,-10.6553,-21.1306
-14.0618,17.311,3.48133,-4.75565,9.43564,-0.187887,6.74099,2.62074,-0.399073,0.508445,3.4612,-0.00782843,-3.27257,1.72702,-0.111968,-19.3602,-2.36608,-7.29674,29.4243,-0.734252,-0.186154,13.1762,-1.14685,1.0542,1.35531e-14,-2.68359e-15,-28.0977,3.88892,-72.3679,45.6244,-7.05638,21.1092,13.8096,7.12502,45.5669,-9.46313,1.35531e-14,-2.68359e-15,-31.235,-17.4539,80.7071,44.2729,26.2996,7.81797,30.1805,7.12502,33.0539,57.1693,-13.949,-11.4192,23.1615,44.3716,-17.2184,-14.151,5.61051,-17.0804,-2.66353,-7.18607,66.1241,-3.67312,-10.9118,-21.3054
-14.0816,17.3269,3.56041,-4.68541,9.27999,-0.474506,7.0121,2.72281,-0.0471728,0.335147,3.62387,0.00206144,-3.58288,1.80128,-0.33309,-18.9278,-2.36213,-7.35413,28.8927,-0.810122,-0.0481125,12.8683,-1.15341,1.10636,3.53588e-14,-1.88845e-15,-28.045,3.83775,-72.5194,45.5165,-7.27639,21.2447,13.7592,7.12502,45.6928,-9.46216,3.53588e-14,-1.88845e-15,-31.6477,-17.7239,80.7723,44.3441,26.314,8.08515,31.7585,7.12502,33.308,58.6933,-13.5776,-10.5702,23.7336,43.859,-16.9718,-14.7093,7.36878,-18.0738,-2.02103,-6.89443,65.9231,-4.26243,-11.1139,-21.0366
-14.0934,17.3486,3.63685,-4.48851,9.29659,-0.376337,7.08059,2.7905,0.0317569,0.216934,3.71488,-0.143779,-3.72867,1.84309,-0.543794,-19.2126,-2.52688,-7.41639,29.4149,-1.09713,0.288204,13.1569,-1.25295,1.1997,5.48785e-14,4.96962e-15,-28.1778,3.59504,-72.7296,45.6355,-7.45939,21.3836,13.3874,7.12502,45.8218,-9.78097,5.48785e-14,4.96962e-15,-31.9079,-18.0622,80.7511,44.2288,26.2695,8.64208,32.0983,7.12502,33.8373,58.9181,-13.275,-9.99059,23.7747,43.3892,-17.7286,-14.8685,6.83417,-19.1007,-1.60766,-7.17853,65.5333,-4.72522,-11.1833,-20.4681
-14.1019,17.3711,3.70949,-4.27735,9.36221,-0.23691,6.98369,2.82233,0.0233737,0.18597,3.75322,-0.236089,-3.70052,1.86174,-0.633652,-19.2324,-2.63302,-7.45262,29.5462,-1.27618,0.416064,13.2248,-1.32061,1.22592,6.52977e-14,1.19271e-15,-28.4425,3.36884,-72.8421,46.0735,-7.41869,21.2979,13.4303,7.12502,45.7422,-9.77079,6.52977e-14,1.19271e-15,-32.0001,-18.186,80.7747,44.1865,26.2982,8.73352,31.6085,7.12502,33.9242,58.409,-12.9858,-9.5344,23.7608,42.956,-17.2595,-15.4084,9.94585,-20.1297,-1.22287,-7.54318,65.0253,-5.02307,-11.2777,-20.3073
-14.1165,17.407,3.79232,-4.12727,9.41875,-0.237648,6.85005,2.82409,0.0792718,0.245726,3.75912,-0.264373,-3.55821,1.86455,-0.684871,-18.963,-2.56004,-7.33,28.8107,-1.20427,0.260145,12.8575,-1.28035,1.15584,1.05775e-14,-1.39149e-15,-28.3899,3.34737,-72.9523,46.3306,-7.41197,21.3344,13.5888,7.12502,45.776,-9.59843,1.05775e-14,-1.39149e-15,-31.9892,-18.1431,80.7137,44.3002,26.2893,8.70315,31.9297,7.12502,33.8953,58.7366,-12.7818,-8.85699,23.9165,42.5329,-17.5049,-15.8745,10.5827,-20.9983,-0.786284,-7.73103,64.337,-5.45822,-11.4193,-20.469
-14.1345,17.4302,3.87955,-4.11072,9.52574,-0.395979,6.91481,2.8694,0.280486,0.373473,3.83586,-0.243055,-3.44974,1.90053,-0.781403,-19.2875,-2.6626,-7.39848,28.5942,-1.29478,0.229712,12.8417,-1.32775,1.13738,-3.54679e-14,3.77691e-15,-28.3548,3.1742,-72.9637,46.59,-7.47729,21.2801,13.7409,7.12502,45.7257,-9.46702,-3.54679e-14,3.77691e-15,-31.7832,-18.3609,80.6667,44.4104,26.2356,8.81278,31.2839,7.12502,33.9995,58.0677,-12.3712,-8.24638,24.2783,42.1213,-17.555,-16.4805,10.9279,-21.7393,-0.354078,-7.70663,63.5899,-5.97809,-11.5899,-20.8143
-14.1467,17.4424,3.95693,-4.05023,9.6734,-0.460683,6.95485,2.95336,0.417337,0.516652,3.95844,-0.235114,-3.31372,1.96083,-0.858182,-19.8188,-2.92419,-7.61331,28.7706,-1.58457,0.35303,13.0431,-1.46635,1.16834,-9.89109e-14,4.37326e-15,-28.1322,2.87096,-72.8439,46.754,-7.52574,21.1546,13.8287,7.12502,45.6092,-9.42678,-9.89109e-14,4.37326e-15,-31.4363,-18.7316,80.7199,44.433,26.2683,8.73847,31.0321,7.12502,33.9289,57.8316,-11.8983,-7.98732,24.5461,41.7486,-16.9611,-17.2363,11.213,-22.5608,0.00973411,-7.82816,62.8197,-6.45278,-11.6864,-20.9828
-14.1527,17.4611,4.02743,-3.91445,9.90358,-0.264079,6.97785,2.93093,0.358549,0.493155,3.91953,-0.365326,-3.34623,1.94121,-0.957792,-19.4517,-2.98126,-7.51424,28.4613,-1.74891,0.36998,12.8449,-1.51851,1.13303,5.07103e-14,8.15017e-15,-27.9884,2.94528,-73.0006,46.6795,-7.56025,20.8931,13.8393,7.12502,45.3662,-9.51452,5.07103e-14,8.15017e-15,-31.535,-18.8723,80.6545,44.5423,26.2834,8.66153,32.0539,7.12502,33.8558,58.8696,-11.5242,-7.90837,24.4321,41.4173,-16.5191,-17.7386,11.2967,-23.4152,0.223218,-8.33714,61.9725,-6.88426,-11.6263,-20.1224
-14.1635,17.4718,4.09616,-3.79261,10.1401,-0.166339,7.13915,2.88167,0.339463,0.41699,3.84996,-0.438743,-3.51257,1.90478,-1.02805,-18.9689,-2.94977,-7.48578,28.0804,-1.77055,0.385922,12.5903,-1.51453,1.13465,-3.83499e-14,-1.78906e-15,-28.2399,3.07911,-73.1903,46.9431,-7.67482,20.8157,13.7435,7.12502,45.2942,-9.63924,-3.83499e-14,-1.78906e-15,-31.6586,-19.0078,80.5875,44.622,26.413,8.81902,32.8775,7.12502,34.0054,59.6601,-11.2072,-7.70726,24.4452,41.093,-16.4328,-18.1856,11.4187,-24.3019,0.490934,-8.69153,61.1141,-7.28523,-11.5473,-19.3533
-14.1765,17.4794,4.17161,-3.6955,10.3556,-0.142615,7.33349,2.8865,0.311094,0.394355,3.85539,-0.405031,-3.64884,1.90683,-0.990195,-18.9375,-3.02218,-7.69227,27.9206,-1.83301,0.455859,12.5271,-1.55139,1.18572,4.13317e-14,3.97569e-16,-28.4521,3.04534,-73.1346,47.4488,-7.77414,20.8252,13.5298,7.12502,45.303,-9.84944,4.13317e-14,3.97569e-16,-31.6546,-19.3061,80.6422,44.7612,26.6002,9.59381,34.3351,7.12502,34.741,60.9513,-10.849,-7.46446,24.5682,40.7464,-16.4852,-18.6434,11.6353,-25.0632,0.791844,-8.93441,60.1921,-7.60885,-11.4438,-18.4679
-14.1848,17.488,4.24896,-3.72803,10.5008,-0.321617,7.6162,2.91071,0.546055,0.385669,3.91024,-0.348785,-3.80334,1.92894,-1.08537,-19.7574,-3.31924,-7.99213,28.7327,-2.14216,0.698076,13.0524,-1.70405,1.27131,-3.07588e-14,-9.93923e-16,-28.5393,3.01922,-73.0797,47.7096,-7.67508,20.4602,13.6348,7.12502,44.9636,-9.8791,-3.07588e-14,-9.93923e-16,-31.811,-19.6642,80.6543,45.0154,26.6934,10.0342,33.7296,7.12502,35.1588,60.2484,-10.3223,-7.25426,24.8795,40.3409,-16.5526,-18.988,11.8772,-25.6884,1.13083,-8.98877,59.1875,-7.76015,-11.2862,-17.3129
-14.19,17.4937,4.32486,-3.71003,10.6212,-0.469306,7.73589,2.93957,0.800328,0.501219,3.97184,-0.325184,-3.73361,1.95649,-1.21171,-21.4492,-3.83073,-8.06379,30.1978,-2.60525,0.513029,14.0596,-1.96779,1.10872,5.89024e-14,3.97569e-16,-28.4525,2.89884,-73.0195,47.8469,-7.47167,20.0999,14.1298,7.12502,44.6281,-9.51477,5.89024e-14,3.97569e-16,-31.4998,-19.8014,80.5581,44.977,26.5883,9.76692,31.3567,7.12502,34.9052,57.9348,-9.86018,-7.01996,25.1571,39.873,-16.4173,-19.4453,11.447,-26.3949,1.55652,-9.11435,58.1531,-8.21103,-11.0591,-18.1969
-14.1905,17.4983,4.40703,-3.57236,10.7809,-0.422398,7.60171,2.91627,0.833527,0.608666,3.94199,-0.335727,-3.54494,1.94367,-1.22601,-20.1784,-3.50812,-8.07569,28.5549,-2.37167,0.770734,13.081,-1.79989,1.26893,6.22848e-14,-2.18663e-15,-28.4202,2.84854,-73.0082,48.1244,-7.25009,20.1963,14.3953,7.12502,44.7179,-9.21458,6.22848e-14,-2.18663e-15,-31.0587,-19.7851,80.4327,44.8566,26.512,9.88384,31.7585,7.12502,35.0162,58.3108,-9.52686,-6.84361,25.2128,39.3889,-15.9339,-20.1513,9.34165,-27.0453,1.91933,-9.489,57.0101,-8.39268,-10.7503,-18.7834
-14.185,17.472,4.48536,-3.55873,10.7935,-0.535609,7.63069,2.89199,1.01167,0.57188,3.92593,-0.316709,-3.58904,1.93242,-1.30689,-19.1784,-3.32032,-7.8964,27.5728,-2.24078,0.657873,12.4621,-1.71931,1.22662,6.75557e-15,2.88238e-15,-28.6075,3.09106,-73.1267,48.482,-7.29841,20.6176,13.9515,7.12502,45.1099,-9.5046,6.75557e-15,2.88238e-15,-31.1679,-19.952,80.3398,45.0684,26.6769,9.96642,32.8677,7.12502,35.0945,59.4016,-8.6269,-6.80483,25.4271,38.9504,-16.3767,-20.3808,8.68759,-27.6386,2.31758,-9.66363,55.8915,-8.17169,-10.2697,-17.9141
-14.189,17.4789,4.55742,-3.49314,10.6613,-0.558976,7.80319,2.94879,1.05666,0.529177,4.00799,-0.295535,-3.72595,1.9706,-1.33045,-19.0485,-3.30183,-7.77248,27.3774,-2.21562,0.478358,12.3523,-1.71517,1.1427,-4.09093e-14,1.98785e-16,-28.6223,3.37075,-73.1668,48.645,-7.51827,20.8759,13.5226,7.12502,45.3502,-9.83767,-4.09093e-14,1.98785e-16,-31.2807,-20.0971,80.263,45.4202,26.6525,10.1107,34.1113,7.12502,35.2313,60.613,-8.17638,-6.43588,25.5469,38.5601,-16.7509,-20.3786,9.7426,-28.1198,2.81973,-9.92002,54.5362,-8.64795,-9.56658,-18.9794
-14.1993,17.4907,4.62715,-3.33564,10.6032,-0.647195,7.84316,3.00335,1.07335,0.625789,4.08522,-0.207198,-3.65126,2.01057,-1.25565,-19.3511,-3.35242,-7.69509,27.0498,-2.21074,0.215454,12.28,-1.73355,1.0269,-2.45499e-14,2.28602e-15,-28.1535,3.4955,-73.0765,48.425,-7.44856,20.8382,13.905,7.12502,45.3151,-9.46939,-2.45499e-14,2.28602e-15,-30.8425,-20.2072,80.1384,45.392,26.7126,11.135,37.1607,7.12502,36.202,63.4273,-8.00935,-5.97936,25.7709,38.205,-17.0876,-20.414,11.7565,-28.667,3.32895,-10.1034,53.0489,-9.10207,-8.993,-19.8005
-14.2022,17.4886,4.70753,-3.29924,10.6385,-0.981563,7.8294,2.96529,1.38474,0.667511,4.06538,-0.0997101,-3.58708,1.99767,-1.31354,-19.3849,-3.35497,-7.66852,26.8656,-2.22066,0.203549,12.2133,-1.7332,1.01601,1.63314e-14,-4.96962e-15,-27.9102,3.62189,-73.1227,48.2909,-7.29682,20.9889,14.2439,7.12502,45.4551,-9.07411,1.63314e-14,-4.96962e-15,-30.5145,-20.373,79.9848,45.1946,26.9856,9.87122,31.5289,7.12502,35.0042,58.084,-7.62348,-5.87546,26.2141,37.8557,-17.3782,-20.5464,12.6569,-29.0608,3.74146,-10.0351,51.4316,-9.02681,-8.51365,-19.6305
-14.1983,17.4918,4.79068,-3.26197,10.6427,-1.12682,7.8019,2.91599,1.60251,0.61838,4.01913,-0.0903219,-3.60979,1.97085,-1.42029,-18.9476,-3.31004,-7.55694,26.7079,-2.23546,0.195624,12.0608,-1.72612,0.997446,-2.44319e-14,-7.65321e-15,-28.1471,3.6573,-73.2497,48.6049,-7.30093,21.318,13.9288,7.12502,45.7609,-9.26464,-2.44319e-14,-7.65321e-15,-30.602,-20.4288,79.8118,45.4772,26.99,9.32865,31.2529,7.12502,34.4893,57.9267,-7.18013,-5.88225,26.3925,37.4757,-17.5253,-20.6268,12.6786,-29.2735,3.97539,-10.1959,49.6795,-8.97297,-7.77346,-20.1764
-14.1929,17.4853,4.86896,-3.16417,10.605,-1.00882,7.7401,2.94376,1.51253,0.752407,4.04664,-0.0707083,-3.44307,1.98915,-1.34424,-18.9667,-3.39897,-7.69825,26.5475,-2.32733,0.227609,12.0095,-1.77418,1.01794,-3.7387e-14,-9.93923e-17,-27.9515,3.5321,-73.1273,48.8294,-7.2902,21.4785,13.5502,7.12502,45.9098,-9.58182,-3.7387e-14,-9.93923e-17,-30.3096,-20.4751,79.6684,45.7788,27.0556,9.87173,33.3794,7.12502,35.0047,59.9343,-6.6548,-5.89459,26.31,37.0384,-17.2937,-20.8242,10.9385,-29.4419,4.04225,-10.6081,47.8381,-8.8872,-6.88055,-19.6689
-14.1858,17.4771,4.95744,-3.09096,10.518,-0.95425,7.65759,2.99899,1.42078,0.867856,4.11374,0.0355708,-3.28967,2.02704,-1.18142,-19.3035,-3.53856,-7.94894,26.6759,-2.42299,0.273828,12.139,-1.83887,1.05695,1.50222e-14,-1.68967e-15,-27.5457,3.53805,-72.9251,48.6609,-7.29033,21.5878,13.3947,7.12502,46.0112,-9.69518,1.50222e-14,-1.68967e-15,-29.9458,-20.4275,79.7093,45.7271,27.1169,10.2937,33.9548,7.12502,35.4048,60.4153,-6.02236,-5.93114,26.2728,36.5907,-17.2792,-20.8959,9.72303,-29.4933,4.07505,-10.9041,45.8634,-8.78198,-6.14884,-19.3224
-14.1781,17.481,5.05335,-3.01223,10.3014,-1.01947,7.57156,3.02563,1.43794,0.696501,4.15379,0.111261,-3.4225,2.04449,-1.1183,-19.458,-3.66712,-7.81775,27.4007,-2.55826,0.0641671,12.4607,-1.92802,0.929844,6.76334e-15,-6.58474e-15,-27.6708,3.83693,-72.9876,48.4981,-7.41712,21.4202,13.43,7.12502,45.8557,-9.72438,6.76334e-15,-6.58474e-15,-30.2709,-20.2793,79.7736,45.7809,26.999,10.3611,30.7644,7.12502,35.4688,57.2097,-5.50026,-5.85292,26.3335,36.1467,-17.4449,-20.8098,9.59483,-29.4157,4.2211,-11.0431,43.7567,-8.7477,-5.58265,-19.9657
-14.1697,17.4846,5.14193,-2.90652,10.0444,-1.11351,7.52419,3.06019,1.57242,0.519566,4.21155,0.0908552,-3.56664,2.06813,-1.22345,-19.7406,-3.81201,-7.52323,28.3488,-2.76324,-0.127641,12.9032,-2.03116,0.765057,5.49919e-14,-7.95139e-16,-27.9922,3.98687,-73.1638,48.5604,-7.43667,20.9255,13.5976,7.12502,45.3963,-9.74409,5.49919e-14,-7.95139e-16,-30.566,-20.3961,79.6449,45.9392,27.0975,10.4501,25.4693,7.12502,35.5531,51.8943,-5.11258,-5.65967,26.4454,35.6988,-17.4841,-20.8196,9.43064,-29.3098,4.30307,-11.1218,41.544,-8.73363,-4.94844,-20.4004
-14.1623,17.4811,5.23177,-2.85821,9.88763,-1.30154,7.47282,3.09252,1.78883,0.524232,4.27272,0.11822,-3.51764,2.09609,-1.31805,-19.8358,-3.82703,-7.35283,28.5024,-2.82709,-0.147579,12.9836,-2.04609,0.715862,-9.28076e-14,1.2424e-15,-28.019,3.99399,-73.2453,48.5017,-7.37756,20.5805,13.8967,7.12502,45.0754,-9.57306,-9.28076e-14,1.2424e-15,-30.3895,-20.552,79.4795,45.9272,27.2227,10.6879,31.676,7.12502,35.7785,58.0466,-4.65697,-5.41049,26.6886,35.2727,-17.7655,-20.8686,9.99132,-29.1308,4.08018,-11.0279,39.1973,-8.82111,-4.1038,-21.8628
-14.1571,17.4758,5.32854,-2.8684,9.70237,-1.41922,7.44943,3.10098,1.8013,0.499422,4.28782,0.195813,-3.53489,2.1035,-1.24616,-19.7661,-3.78046,-7.20344,28.5173,-2.77997,-0.267507,12.9678,-2.02593,0.653546,8.31727e-14,-5.46658e-15,-27.8781,4.11156,-73.3124,48.2091,-7.2398,20.5609,14.2979,7.12502,45.0573,-9.17908,8.31727e-14,-5.46658e-15,-30.2754,-20.5404,79.3538,45.8765,27.2009,10.7036,33.6037,7.12502,35.7934,59.9707,-4.06702,-5.13166,26.8702,34.8651,-18.0933,-20.9359,10.3441,-28.772,3.72098,-10.9188,36.7438,-8.79339,-3.238,-23.5513
-14.1447,17.4752,5.42192,-2.83694,9.45254,-1.3886,7.42818,3.11792,1.74059,0.444201,4.30615,0.209825,-3.58523,2.11257,-1.20069,-19.6022,-3.77165,-7.07928,28.6524,-2.79851,-0.345001,12.9859,-2.03357,0.601409,-2.60439e-15,3.2054e-15,-27.7417,4.11643,-73.3677,47.9738,-7.05266,20.6446,14.3927,7.12502,45.1351,-9.05341,-2.60439e-15,3.2054e-15,-30.3471,-20.6045,79.2322,46.1025,27.3853,10.1348,31.756,7.12502,35.2542,58.2523,-3.51784,-5.02229,26.8232,34.4716,-18.2123,-20.9239,9.86917,-28.3241,3.32203,-10.97,34.1845,-8.48793,-2.4027,-23.5837
