JuanDHNZ/ProyectoFinalCD/preprocessing/sports_trials_csv/17_03.csv
root1,root2,root3,root4,root5,root6,lowerback1,lowerback2,lowerback3,upperback1,upperback2,upperback3,thorax1,thorax2,thorax3,lowerneck1,lowerneck2,lowerneck3,upperneck1,upperneck2,upperneck3,head1,head2,head3,rclavicle1,rclavicle2,rhumerus1,rhumerus2,rhumerus3,rradius1,rwrist1,rhand1,rhand2,rfingers1,rthumb1,rthumb2,lclavicle1,lclavicle2,lhumerus1,lhumerus2,lhumerus3,lradius1,lwrist1,lhand1,lhand2,lfingers1,lthumb1,lthumb2,rfemur1,rfemur2,rfemur3,rtibia1,rfoot1,rfoot2,rtoes1,lfemur1,lfemur2,lfemur3,ltibia1,lfoot1,lfoot2,ltoes1
-9.69618,14.4436,-8.71209,16.712,37.9505,8.93735,30.4742,1.16604,-2.12556,7.48067,1.33615,1.91912,-8.3702,0.786016,2.89007,-17.0542,-11.1936,-8.35103,0.0951828,-13.8301,9.9896,3.98416,-6.42222,3.12793,1.1609e-13,-1.59028e-15,-9.4375,-30.0155,-50.4078,65.0482,26.5157,-31.1209,-11.9677,7.12502,-4.39986,-41.902,1.1609e-13,-1.59028e-15,-43.3252,33.8224,52.6172,58.8685,4.90463,-31.144,36.97,7.12502,-4.42224,66.9038,-63.6172,-28.7555,19.0481,93.5061,-27.4194,-9.71651,-6.07817,-57.045,0.14545,-12.4967,74.2623,-27.8991,-12.2944,-24.8123
-9.73187,14.467,-8.6845,16.7471,37.9178,8.93633,30.3724,1.1144,-2.1877,7.49808,1.26179,1.99296,-8.29921,0.751148,3.03723,-17.1824,-11.0367,-8.48739,0.260787,-13.5876,9.90907,4.03622,-6.29993,3.14254,5.00937e-14,1.59028e-15,-9.18297,-29.7548,-50.3876,64.9217,26.5391,-31.0093,-11.8185,7.12502,-4.29208,-41.755,5.00937e-14,1.59028e-15,-43.3681,33.7027,52.9125,59.0724,5.70262,-30.743,36.263,7.12502,-4.03492,66.2045,-63.5441,-28.6462,19.2662,93.3259,-27.4461,-9.73572,-6.02425,-56.8064,-0.0407008,-12.2307,73.8936,-27.8048,-12.2175,-24.5305
-9.768,14.4816,-8.65069,16.7324,37.9199,8.82994,30.2405,1.07912,-2.08443,7.52402,1.25308,2.02634,-8.20549,0.744177,3.01822,-17.5732,-10.9448,-8.39544,0.642399,-13.4581,9.64516,4.17389,-6.2307,3.03946,1.18476e-13,-2.38542e-14,-9.28021,-29.7405,-50.3668,65.1087,26.6594,-30.8424,-11.7276,7.12502,-4.13095,-41.6673,1.18476e-13,-2.38542e-14,-43.5019,33.921,52.6333,58.813,4.29536,-30.5296,37.1575,7.12502,-3.82885,67.1029,-63.494,-28.557,19.624,93.2077,-27.4315,-9.92621,-6.36736,-56.6443,-0.120805,-11.9094,73.5417,-27.7868,-11.8321,-25.4994
-9.80667,14.4989,-8.60825,16.7241,37.8595,9.01738,30.2786,1.11331,-2.28965,7.54498,1.23441,2.01272,-8.20076,0.738279,3.12892,-17.5328,-10.8707,-8.39451,0.552312,-13.3456,9.52459,4.12049,-6.18399,3.02064,2.70347e-14,2.38542e-14,-9.52416,-29.6458,-50.2946,65.4083,26.6294,-30.6561,-12.0435,7.12502,-3.95104,-41.9867,2.70347e-14,2.38542e-14,-43.6153,34.2394,52.4678,58.5258,3.60584,-29.487,34.9994,7.12502,-2.82199,64.9605,-63.2411,-28.5333,19.5661,93.0877,-27.6181,-9.67771,-5.67037,-56.1858,-0.174413,-11.8693,73.1411,-27.7921,-11.5016,-26.5639
-9.84029,14.5175,-8.56935,16.7431,37.9022,9.16432,30.1532,1.06965,-2.34053,7.61646,1.16979,2.0234,-8.05556,0.706809,3.19386,-17.5654,-10.8389,-8.27102,0.49428,-13.3018,9.26879,4.07464,-6.17519,2.93147,4.29375e-14,-6.83819e-14,-9.4625,-29.5315,-50.2427,65.3802,26.6563,-30.8795,-12.2451,7.12502,-4.16679,-42.1841,4.29375e-14,-6.83819e-14,-43.5788,34.6887,52.3867,58.1772,3.30681,-29.6042,35.058,7.12502,-2.9352,65.0176,-62.9694,-28.5591,19.5659,92.9024,-27.6813,-9.5826,-4.97414,-55.8321,-0.371876,-11.7852,72.7539,-27.8612,-11.0362,-27.7405
-9.87793,14.5391,-8.53251,16.6698,37.8049,9.01299,30.0678,1.05774,-2.18529,7.62415,1.1965,1.989,-8.00555,0.716011,3.05517,-17.9168,-10.7793,-8.17049,0.851508,-13.2319,9.17987,4.21898,-6.12882,2.87482,-6.83819e-14,-1.59028e-14,-9.3059,-29.5654,-50.2864,65.0195,27.0788,-31.2057,-12.0854,7.12502,-4.4818,-42.018,-6.83819e-14,-1.59028e-14,-43.5387,34.7737,52.3021,58.0045,3.23256,-30.2864,36.0453,7.12502,-3.59403,65.9948,-62.8209,-28.3065,19.8974,92.6775,-27.729,-9.75929,-5.20561,-55.6083,-0.319008,-11.488,72.4035,-27.8676,-10.5211,-28.7969
-9.92068,14.5594,-8.49674,16.4564,37.5961,8.66467,30.1259,1.11365,-2.10158,7.56438,1.29255,2.04312,-8.10819,0.760415,3.03312,-18.091,-10.6202,-8.10308,1.1158,-13.0263,9.04751,4.29641,-6.02479,2.83597,7.55382e-14,-5.88403e-14,-9.23429,-29.4632,-50.301,64.8386,27.218,-31.1291,-11.691,7.12502,-4.40779,-41.6251,7.55382e-14,-5.88403e-14,-43.6674,34.7108,52.258,57.9696,3.30664,-31.0058,37.0688,7.12502,-4.28878,67.0054,-62.7226,-27.8023,20.3591,92.3968,-27.6341,-9.81748,-5.02433,-55.3223,-0.0216944,-11.0227,72.063,-27.4614,-10.7873,-27.9188
-9.95714,14.5696,-8.46218,16.3816,37.4294,8.58604,30.13,1.08183,-2.16888,7.51781,1.23182,2.06274,-8.16022,0.732785,3.11657,-17.9651,-10.4376,-8.02148,1.06455,-12.7896,8.85425,4.22314,-5.92267,2.80009,7.95139e-15,1.11319e-14,-9.19193,-29.1956,-50.4636,64.9331,27.2185,-31.1343,-11.5302,7.12502,-4.41277,-41.4642,7.95139e-15,1.11319e-14,-43.9898,34.7351,52.0964,58.0028,3.62582,-31.1721,37.5284,7.12502,-4.44936,67.4617,-62.6233,-27.5635,20.5484,92.2101,-27.6724,-9.61444,-4.68003,-55.0031,0.0670551,-10.7583,71.8379,-26.8855,-11.2604,-25.556
-9.99606,14.5819,-8.42732,16.2991,37.2262,8.47667,30.1291,1.09214,-2.15624,7.45086,1.24206,2.03935,-8.23616,0.737396,3.07936,-17.8536,-10.3473,-8.1643,1.09866,-12.6572,8.95202,4.22333,-5.85542,2.8695,5.80451e-14,-5.56597e-14,-9.04294,-28.9233,-50.3826,64.6581,27.1716,-31.3629,-11.7938,7.12502,-4.63354,-41.7231,5.80451e-14,-5.56597e-14,-44.2451,34.9165,51.8434,57.8275,3.34844,-31.2138,37.3128,7.12502,-4.48956,67.2452,-62.4517,-27.2597,20.8017,91.9999,-27.8322,-9.62534,-4.73084,-54.773,-0.0668556,-10.2132,71.7375,-26.2716,-12.4383,-21.0043
-10.039,14.6083,-8.38727,16.1217,37.0971,8.29448,30.0642,1.15935,-2.18723,7.50641,1.32794,2.12676,-8.15044,0.776637,3.1651,-18.0418,-10.2783,-8.29335,1.24204,-12.5351,9.00391,4.29815,-5.78547,2.90787,4.13472e-14,-2.54444e-14,-8.20056,-28.717,-50.0043,63.7171,26.9294,-31.3455,-11.9821,7.12502,-4.61679,-41.9118,4.13472e-14,-2.54444e-14,-44.2035,35.4485,51.8146,57.464,2.6033,-30.8318,36.7348,7.12502,-4.12073,66.6747,-62.068,-27.0044,21.132,91.6821,-27.9691,-9.64656,-4.51463,-54.5012,-0.324044,-9.38198,71.692,-25.4927,-14.4815,-14.2388
-10.0845,14.6367,-8.343,16.0196,37.1018,8.24277,29.964,1.13213,-2.25362,7.58578,1.2855,2.2029,-8.01168,0.755772,3.30498,-18.3765,-10.1574,-8.19537,1.39212,-12.3524,8.72413,4.35293,-5.69865,2.8142,-5.1684e-14,2.38542e-14,-7.94312,-28.6989,-49.9878,63.657,27.1102,-30.6739,-11.8925,7.12502,-3.96823,-41.8353,-5.1684e-14,2.38542e-14,-44.2499,35.5092,51.8306,57.3541,2.56967,-30.0778,36.0294,7.12502,-3.39263,65.9821,-61.6771,-26.8926,21.3846,91.3241,-28.1907,-9.64014,-4.35873,-54.1452,-0.636774,-8.75168,71.5484,-25.0171,-15.6259,-10.4444
-10.1295,14.6564,-8.29815,15.7058,36.8937,7.86334,29.9307,1.16985,-2.19435,7.58706,1.35359,2.25304,-7.99985,0.785863,3.3028,-18.5422,-10.085,-8.18546,1.66839,-12.2541,8.63226,4.44879,-5.64711,2.7839,-6.91771e-14,7.95139e-15,-8.6114,-28.7413,-50.3972,64.55,27.3631,-30.5031,-11.8859,7.12502,-3.80326,-41.8317,-6.91771e-14,7.95139e-15,-44.3915,35.2831,51.6963,57.3566,2.89316,-30.2259,36.4219,7.12502,-3.53562,66.3723,-61.3172,-26.4127,21.8663,90.9493,-28.365,-9.82498,-4.34031,-53.7354,-0.512409,-8.14465,71.33,-24.9757,-15.7609,-10.0553
-10.1698,14.6665,-8.25452,15.2258,36.6502,7.3026,29.9198,1.24365,-2.0769,7.61575,1.49375,2.39257,-7.97425,0.849061,3.34179,-18.5981,-10.0512,-8.48678,1.91602,-12.1716,8.83966,4.56131,-5.5922,2.89377,-7.4743e-14,9.54166e-15,-8.76197,-28.6176,-50.5354,64.7607,27.4809,-30.5721,-12.1848,7.12502,-3.8699,-42.1294,-7.4743e-14,9.54166e-15,-44.5695,35.472,51.596,57.1946,2.83381,-31.0186,37.6072,7.12502,-4.30111,67.5435,-60.898,-25.9483,22.4654,90.6057,-28.408,-9.89069,-3.77485,-53.2958,-0.345461,-7.4588,71.0717,-24.9961,-15.4939,-10.383
-10.1985,14.6775,-8.21697,15.1546,36.5716,7.35115,29.9153,1.21943,-1.98033,7.59489,1.48237,2.31735,-7.99139,0.842394,3.20482,-18.4276,-9.94679,-8.47527,1.83924,-12.0467,8.87723,4.50432,-5.53405,2.92647,8.5875e-14,-4.45278e-14,-8.53108,-28.5731,-50.3855,64.2764,27.5143,-30.5706,-12.3873,7.12502,-3.86848,-42.3319,8.5875e-14,-4.45278e-14,-44.5317,35.3857,51.5013,56.8936,2.84941,-31.2067,37.9027,7.12502,-4.48276,67.8353,-60.5498,-26.0869,22.5586,90.3682,-28.628,-9.72362,-3.28553,-52.8418,-0.578568,-7.27356,70.7779,-24.7957,-15.5129,-9.22795
-10.2275,14.6924,-8.18229,15.0567,36.4561,7.40357,29.9294,1.24817,-1.9291,7.58762,1.52773,2.27171,-8.00757,0.862961,3.1072,-18.3333,-9.84534,-8.20545,1.90994,-11.9643,8.66205,4.47477,-5.50535,2.83245,1.51076e-14,-4.45278e-14,-8.18268,-28.5291,-50.048,63.6443,27.4334,-30.4599,-12.4793,7.12502,-3.76161,-42.4258,1.51076e-14,-4.45278e-14,-44.4228,35.1486,51.536,56.6731,2.93286,-30.8835,37.3397,7.12502,-4.17065,67.2786,-60.2198,-26.2116,22.6342,90.1494,-28.802,-9.49164,-2.47771,-52.3489,-0.667592,-7.12194,70.4892,-24.4538,-15.6016,-7.71041
-10.2606,14.7068,-8.14476,14.8485,36.1747,7.36385,29.906,1.36579,-2.04785,7.64937,1.64421,2.30172,-7.93763,0.917605,3.16848,-18.3185,-9.79097,-7.86299,2.03817,-11.9473,8.32386,4.46711,-5.51266,2.6783,-9.22361e-14,7.4743e-14,-7.96015,-28.4368,-49.7764,63.3984,27.3283,-30.4008,-12.4866,7.12502,-3.7045,-42.4341,-9.22361e-14,7.4743e-14,-44.3571,34.9804,51.7232,56.5752,3.19015,-31.2786,38.1769,7.12502,-4.55219,68.108,-59.8871,-26.0356,22.7713,89.9489,-28.8015,-9.49349,-2.23095,-51.8344,-0.485076,-7.1281,70.2105,-25.0718,-14.1367,-12.8542
-10.2949,14.7137,-8.11246,14.7894,35.9055,7.35801,29.9349,1.38708,-2.1165,7.58969,1.64048,2.23897,-8.0186,0.916579,3.13887,-18.3184,-9.58126,-7.28483,2.17005,-11.747,7.69577,4.41626,-5.4438,2.42184,-7.39479e-14,0,-7.92288,-28.2733,-49.8462,63.3874,27.2155,-30.1998,-12.4978,7.12502,-3.51044,-42.4487,-7.39479e-14,0,-44.5948,35.2043,51.4456,56.3543,3.03029,-31.1971,38.3042,7.12502,-4.47342,68.2369,-59.8115,-25.9058,22.9801,89.8095,-28.7812,-9.54403,-2.52663,-51.543,-0.410905,-7.15258,69.904,-25.5627,-12.3882,-18.2761
-10.3292,14.728,-8.08544,14.6953,35.6275,7.07542,29.9483,1.35979,-1.8906,7.43476,1.6604,2.19375,-8.19679,0.923432,2.94928,-18.3074,-9.3563,-7.20865,2.43723,-11.4656,7.54287,4.46438,-5.31023,2.39039,2.62396e-14,5.08889e-14,-8.08376,-28.0329,-49.9542,63.4415,27.2049,-30.3505,-12.453,7.12502,-3.65594,-42.4014,2.62396e-14,5.08889e-14,-44.9196,35.6881,50.9879,55.9228,2.69187,-30.0007,36.1828,7.12502,-3.31815,66.1367,-59.8326,-25.6752,23.5008,89.5994,-28.7839,-9.54873,-2.32884,-51.3726,-0.819129,-6.20098,69.8821,-23.9086,-14.8874,-8.1958
-10.358,14.7257,-8.05279,14.4953,35.4659,6.78125,30.0146,1.26298,-1.56906,7.35007,1.62665,2.17336,-8.31549,0.903308,2.75128,-18.548,-9.20743,-7.32696,2.86963,-11.2518,7.59105,4.63138,-5.192,2.42942,3.65764e-14,-2.62396e-14,-8.07668,-27.805,-50.0473,63.3811,27.3422,-30.4376,-12.4766,7.12502,-3.74,-42.4235,3.65764e-14,-2.62396e-14,-45.1037,35.8836,50.7283,55.5832,2.64428,-31.1218,37.7548,7.12502,-4.4007,67.6891,-59.6923,-25.5658,23.9553,89.4739,-28.9559,-9.44893,-1.64066,-51.5394,0.126849,-6.92347,69.5883,-26.2605,-7.77963,-32.0308
-10.3634,14.7489,-8.06198,14.743,35.4574,7.09093,30.2834,0.882632,-0.971796,7.1675,1.28702,1.86404,-8.6143,0.735955,2.17759,-18.6068,-8.99586,-7.21996,3.03351,-10.9966,7.57442,4.6678,-5.06237,2.43237,-3.57812e-14,5.00937e-14,-7.75591,-27.5607,-50.2164,63.0884,27.4259,-30.9489,-12.0602,7.12502,-4.23382,-41.9979,-3.57812e-14,5.00937e-14,-45.3218,36.4201,50.2847,55.1774,2.42932,-31.1021,37.8778,7.12502,-4.38175,67.8125,-59.6579,-26.1586,23.784,89.2605,-28.9904,-9.05277,-1.96842,-51.3264,-1.00431,-6.49482,69.657,-24.7122,-11.3197,-20.9047
-10.3989,14.7689,-8.0376,14.6456,35.2105,6.98653,30.3081,0.859922,-0.888056,7.12191,1.27297,1.79637,-8.67452,0.726883,2.05774,-18.5616,-8.825,-7.1775,3.04749,-10.7776,7.53651,4.64589,-4.95726,2.4407,2.46493e-14,-9.54166e-15,-7.22402,-27.5188,-50.3975,62.5997,27.6634,-31.3542,-11.9517,7.12502,-4.62518,-41.8813,2.46493e-14,-9.54166e-15,-45.4206,37.0583,49.9127,54.6665,2.1017,-30.1055,35.9775,7.12502,-3.41936,65.9298,-59.4443,-25.9429,24.0535,88.9807,-28.9889,-9.05664,-2.08632,-51.0458,-1.45225,-5.7841,69.6125,-23.3366,-12.8779,-13.6318
-10.4449,14.785,-7.98011,14.1456,34.8473,6.48839,29.9455,1.15843,-1.21932,7.36262,1.58642,2.11323,-8.25663,0.876577,2.4956,-18.6556,-8.74252,-7.20481,3.07129,-10.6346,7.32211,4.6449,-4.89831,2.39171,-5.96354e-14,8.5875e-14,-7.57489,-27.6154,-50.2657,63.2148,27.7907,-31.3712,-11.5299,7.12502,-4.64161,-41.4591,-5.96354e-14,8.5875e-14,-45.2635,36.6579,50.4531,54.7231,2.6935,-31.3387,38.3509,7.12502,-4.61017,68.2807,-58.9433,-25.412,24.6323,88.6717,-29.0887,-9.09626,-1.55146,-50.6156,-1.25505,-5.0406,69.5782,-22.917,-13.1787,-15.2099
-10.4822,14.8029,-7.90972,13.7186,34.4887,6.23604,29.7022,1.42759,-1.67763,7.49825,1.82211,2.39359,-8.01931,0.991099,2.9949,-18.7744,-8.65538,-7.22698,3.24139,-10.4772,6.95245,4.68265,-4.84024,2.292,-1.66979e-14,-1.59028e-15,-7.53733,-27.4549,-50.0825,63.3463,27.6477,-32.5032,-9.96672,7.12502,-5.73454,-39.8691,-1.66979e-14,-1.59028e-15,-45.3882,36.4588,50.6199,54.445,2.84824,-31.1954,38.4631,7.12502,-4.47182,68.3959,-58.2955,-25.1327,24.9043,88.3652,-29.2682,-8.87656,-0.54075,-50.201,-1.00814,-4.77346,69.5308,-23.197,-11.266,-23.1172
-10.5118,14.8172,-7.86264,13.6053,34.195,6.19175,29.486,1.54066,-1.87439,7.5088,1.90723,2.40011,-7.9145,1.03124,3.08789,-18.8683,-8.42499,-6.79057,3.33901,-10.2198,6.45885,4.65895,-4.73565,2.09851,-2.22639e-14,-4.92986e-14,-9.37041,-27.6198,-50.4128,65.1493,27.8365,-31.1891,-10.9583,7.12502,-4.46571,-40.8913,-2.22639e-14,-4.92986e-14,-45.3219,36.9542,50.3618,53.6819,2.43125,-30.1539,36.1377,7.12502,-3.46604,66.0892,-58.0235,-25.0316,25.0731,88.1148,-29.3056,-8.7586,-0.433894,-50.1648,-0.955217,-4.66344,69.6674,-23.2014,-9.73608,-28.5652
-10.5477,14.8287,-7.84094,13.3832,33.912,5.62611,29.4513,1.56214,-1.55698,7.36963,2.02432,2.44081,-8.05683,1.08214,2.90775,-18.576,-8.14617,-6.5225,3.30331,-9.90267,6.20606,4.55697,-4.59827,2.0251,4.53229e-14,-2.62396e-14,-9.8531,-27.578,-50.6111,65.4232,28.0702,-31.5639,-9.7954,7.12502,-4.82761,-39.7204,4.53229e-14,-2.62396e-14,-45.403,36.9792,50.1769,53.3875,2.647,-31.2454,37.9112,7.12502,-4.52011,67.843,-58.0583,-24.6794,25.8488,87.8265,-29.2324,-8.76465,-0.193141,-50.4863,-0.748345,-3.92904,70.0114,-22.8424,-9.6799,-31.1594
-10.5575,14.8525,-7.87156,13.5152,33.7416,5.51491,29.7809,1.33819,-0.840017,7.17873,1.9336,2.32166,-8.40289,1.03023,2.3865,-18.6136,-7.91818,-6.37512,3.3171,-9.59513,5.84873,4.5215,-4.46631,1.92472,-5.88403e-14,8.42847e-14,-9.48488,-27.5091,-50.6278,65.1,28.2287,-32.2057,-9.00271,7.12502,-5.44732,-38.9127,-5.88403e-14,8.42847e-14,-45.508,36.9482,50.3116,53.38,2.90162,-31.1031,37.9004,7.12502,-4.38273,67.835,-58.2523,-24.8858,26.1019,87.5197,-29.0452,-8.49757,-0.454338,-51.1565,-1.05885,-3.71093,70.4954,-22.0703,-9.2109,-33.3862
-10.5814,14.8766,-7.85809,13.4573,33.3777,5.57007,29.9478,1.36466,-0.805734,7.17405,1.97217,2.28836,-8.48838,1.0472,2.31362,-18.906,-7.7686,-6.48067,3.4836,-9.34623,5.72947,4.60164,-4.34584,1.91907,6.44062e-14,-4.6118e-14,-8.81447,-27.3534,-50.4941,64.63,28.1262,-32.0328,-9.1035,7.12502,-5.28043,-39.0177,6.44062e-14,-4.6118e-14,-45.5819,36.9165,50.4994,53.4458,3.13617,-30.5247,37.5235,7.12502,-3.82412,67.469,-57.982,-24.8882,26.1404,87.1843,-29.0061,-8.22086,0.0378915,-51.39,-1.1659,-3.59616,70.9574,-20.7665,-8.57221,-34.6558
-10.619,14.9092,-7.80162,13.1657,33.2143,5.58467,29.9465,1.44106,-1.06033,7.25182,1.99697,2.31742,-8.40882,1.06256,2.48544,-19.1222,-7.70509,-6.58435,3.85938,-9.2474,5.81465,4.75635,-4.28659,1.95898,3.26007e-14,-6.20208e-14,-8.0236,-27.2426,-50.437,63.8681,27.9803,-31.9641,-8.84508,7.12502,-5.21405,-38.7609,3.26007e-14,-6.20208e-14,-45.648,36.7404,50.5071,53.4321,3.47465,-30.7277,37.8286,7.12502,-4.02016,67.7704,-57.303,-24.9721,26.2419,86.8006,-29.1719,-7.98119,1.08983,-51.3341,-1.2826,-3.31549,71.3609,-19.4141,-8.66749,-35.459
-10.6753,14.9226,-7.7311,12.6615,32.8401,4.90132,29.6937,1.7964,-1.28796,7.30301,2.40718,2.61053,-8.27245,1.25714,2.80292,-19.0951,-7.65019,-6.47051,4.03116,-9.17937,5.50959,4.78065,-4.27108,1.85225,-5.40694e-14,-4.77083e-15,-8.2834,-27.3206,-50.2981,64.0253,28.0037,-31.5975,-9.38718,7.12502,-4.8601,-39.3114,-5.40694e-14,-4.77083e-15,-45.5933,36.1714,50.8393,53.5739,4.04537,-32.2085,38.9167,7.12502,-5.45005,68.8266,-56.8714,-24.3357,27.1474,86.4016,-29.2254,-8.23127,1.54742,-51.3957,-0.821239,-2.22769,71.8383,-18.0315,-9.68523,-35.6657
-10.687,14.9459,-7.71482,12.4877,32.8909,4.72359,29.7737,1.63678,-0.797251,7.25553,2.35324,2.64802,-8.34643,1.22523,2.57867,-19.1293,-7.40718,-6.23962,4.09186,-8.8515,4.94715,4.74724,-4.1425,1.67639,6.91771e-14,-2.54444e-14,-9.25706,-27.4374,-50.3648,65.0897,28.3988,-31.0024,-10.1052,7.12502,-4.28545,-40.0418,6.91771e-14,-2.54444e-14,-45.5758,35.7039,51.1761,53.6121,4.39941,-33.0564,39.3418,7.12502,-6.26865,69.229,-56.509,-24.7957,27.428,86.0515,-29.4079,-8.05074,0.915055,-51.8326,-1.17292,-1.81123,72.447,-16.5421,-10.0784,-36.3074
-10.7104,14.9698,-7.68655,12.3777,32.6291,4.67603,29.7297,1.65276,-0.744452,7.29323,2.38601,2.63955,-8.28194,1.23884,2.52755,-19.3056,-7.15325,-6.29266,4.16177,-8.46816,4.74233,4.76791,-3.96524,1.65626,4.37326e-14,-5.24792e-14,-9.50352,-27.4092,-50.4655,65.3704,28.514,-31.4746,-9.57156,7.12502,-4.74145,-39.4985,4.37326e-14,-5.24792e-14,-45.5978,36.1739,51.0762,53.2885,4.00801,-31.1822,38.1973,7.12502,-4.45906,68.1303,-56.1524,-24.8028,27.5613,85.6837,-29.6374,-7.85748,0.632788,-52.2736,-1.09687,-1.58638,73.1215,-15.009,-10.7202,-37.3985
-10.7384,14.9904,-7.66316,12.4288,32.1225,4.52562,29.518,1.80063,-0.767399,7.23506,2.55785,2.62097,-8.2553,1.31753,2.46104,-19.3327,-6.86447,-6.2454,4.27087,-8.07841,4.57877,4.77707,-3.78297,1.6376,-3.18055e-15,9.54166e-15,-9.41295,-27.3061,-50.4169,65.2595,28.5123,-32.061,-8.99941,7.12502,-5.30762,-38.9129,-3.18055e-15,9.54166e-15,-45.5351,36.0215,51.2183,53.217,4.19031,-29.8737,37.8276,7.12502,-3.19548,67.7834,-56.2007,-24.4254,27.8838,85.3457,-29.594,-7.71895,0.726261,-52.9498,-0.69746,-1.27006,73.8972,-12.8069,-11.3777,-36.5446
-10.7608,15.0089,-7.64851,12.2745,31.7716,4.23522,29.6281,1.83229,-0.609349,7.1084,2.64422,2.64955,-8.45208,1.35462,2.36798,-19.3036,-6.49138,-5.82944,4.43791,-7.62998,4.01974,4.76282,-3.59292,1.44526,6.20208e-14,5.88403e-14,-8.98962,-27.0165,-50.3055,64.8892,28.5056,-31.9547,-9.09596,7.12502,-5.20499,-39.012,6.20208e-14,5.88403e-14,-45.623,35.4907,51.4795,53.4502,5.02904,-30.4063,38.6424,7.12502,-3.70981,68.5898,-56.0257,-24.2331,28.2483,84.9685,-29.4024,-7.5768,0.886594,-53.5996,-0.50553,-0.814578,74.7344,-10.1444,-11.7417,-33.7421
-10.7827,15.0405,-7.62352,11.9471,31.5265,3.9739,29.8019,1.82232,-0.401087,7.1447,2.70011,2.71564,-8.49232,1.37731,2.29908,-19.5905,-6.2415,-5.80484,4.67765,-7.25368,3.67496,4.84927,-3.42708,1.36295,1.03368e-14,4.92986e-14,-8.14442,-26.8281,-50.1156,64.2293,28.3574,-31.5184,-9.68634,7.12502,-4.78374,-39.6123,1.03368e-14,4.92986e-14,-45.5637,36.6361,51.3632,53.0789,5.35002,-31.223,38.9699,7.12502,-4.49843,68.9021,-55.4522,-24.1636,28.4827,84.5246,-29.3702,-7.33385,1.51117,-54.0178,-0.3856,-0.400328,75.5404,-7.33987,-12.2917,-30.4194
-10.8044,15.0692,-7.59555,11.717,31.3101,3.75595,29.8625,1.84459,-0.194294,7.19413,2.79828,2.80541,-8.46589,1.42003,2.24431,-19.8961,-5.91601,-5.92466,4.88106,-6.7311,3.28648,4.92544,-3.19636,1.3052,2.62396e-14,5.40694e-14,-7.90333,-26.7346,-49.8656,64.0366,28.2834,-31.0253,-11.0019,7.12502,-4.30755,-40.9381,2.62396e-14,5.40694e-14,-45.5078,35.1009,52.1365,53.9009,6.43844,-30.6672,39.3876,7.12502,-3.96176,69.3305,-54.9851,-24.0785,28.7031,84.0653,-29.3355,-7.04634,2.25009,-54.6009,-0.269115,-0.0370687,76.3602,-4.72595,-12.889,-29.1724
-10.8239,15.0877,-7.57094,11.7933,30.9472,3.85739,29.6422,1.94623,-0.336646,7.26966,2.87918,2.80149,-8.28377,1.45935,2.29793,-19.9617,-5.43422,-5.50741,4.81055,-6.10269,2.5142,4.84689,-2.93245,1.06372,1.51076e-14,-1.59028e-14,-7.92709,-26.8052,-49.8648,64.2585,28.4625,-31.0831,-10.9801,7.12502,-4.36334,-40.9152,1.51076e-14,-1.59028e-14,-45.3311,35.7987,52.2936,53.8275,6.4178,-31.4512,39.9956,7.12502,-4.71883,69.9231,-54.8672,-23.9209,28.6527,83.7304,-29.2491,-6.59015,3.4322,-55.3959,-0.0875137,-0.0494193,77.1756,-2.61176,-13.2929,-29.6186
-10.8436,15.1131,-7.54544,11.6285,30.5068,3.80441,29.6821,2.03964,-0.332571,7.33801,2.9914,2.76126,-8.22827,1.51072,2.21007,-20.1585,-4.99615,-5.05784,5.0541,-5.55,1.84219,4.90057,-2.69881,0.83284,-6.04305e-14,1.74931e-14,-7.97717,-26.91,-49.9923,64.5003,28.5891,-31.8328,-9.68428,7.12502,-5.08725,-39.6032,-6.04305e-14,1.74931e-14,-45.1368,36.4739,52.3273,53.7169,6.33236,-32.4363,41.0458,7.12502,-5.67,70.95,-54.4758,-23.6829,28.6837,83.3759,-29.3449,-6.38288,3.29286,-55.9413,0.240691,0.00613268,77.8859,-0.791612,-13.6544,-30.7074
-10.8639,15.1438,-7.52271,11.5016,30.2921,3.7599,29.9206,1.99665,-0.182421,7.22303,2.97475,2.69086,-8.46197,1.49899,2.04389,-20.116,-4.52649,-4.94403,5.37112,-4.9207,1.50266,4.96333,-2.41436,0.770117,-1.11319e-14,3.18055e-15,-8.1265,-26.7863,-50.0717,64.5548,28.7604,-32.2028,-8.94315,7.12502,-5.44456,-38.8532,-1.11319e-14,3.18055e-15,-45.1589,36.2233,52.3722,53.9399,6.58347,-32.523,41.7428,7.12502,-5.75373,71.6447,-54.1048,-23.6868,28.7647,83.0314,-29.5157,-6.10899,3.14611,-56.5544,0.405904,0.0823056,78.532,1.33225,-13.9133,-30.9778
-10.8791,15.1763,-7.49924,11.4248,30.0441,3.91111,30.0914,2.03951,-0.199762,7.19032,3.0209,2.65784,-8.58225,1.51987,1.99594,-20.1872,-4.15747,-5.03639,5.71147,-4.36859,1.20527,5.06107,-2.16995,0.74272,-8.34896e-14,-1.11319e-14,-8.36579,-26.7536,-50.0061,64.7535,29.0775,-32.2314,-9.29632,7.12502,-5.47218,-39.2057,-8.34896e-14,-1.11319e-14,-45.0404,36.1108,52.7001,54.3025,6.68127,-31.508,41.0964,7.12502,-4.77369,71.0226,-53.632,-23.6743,28.5642,82.6519,-29.4783,-5.69091,3.84922,-57.0085,0.399148,-0.042344,79.1126,3.27716,-13.8043,-30.7529
-10.8893,15.2095,-7.47304,11.313,29.7033,3.98226,29.9565,2.10439,-0.210944,7.33686,3.09558,2.6568,-8.35423,1.55521,1.97894,-20.4182,-3.67572,-4.89845,5.95588,-3.68847,0.700082,5.1422,-1.87211,0.625664,3.10104e-14,1.90833e-14,-8.39836,-26.7953,-50.0319,64.9787,29.1886,-32.303,-9.44066,7.12502,-5.54127,-39.3482,3.10104e-14,1.90833e-14,-44.7334,36.0628,53.1886,54.7597,7.12689,-30.7205,40.523,7.12502,-4.01326,70.4649,-53.1221,-23.5158,28.3965,82.2264,-29.4132,-5.33448,4.63448,-57.4115,0.469457,-0.150301,79.622,5.44254,-14.0469,-29.8761
-10.8986,15.24,-7.44627,11.2882,29.4892,4.01745,29.7127,2.12996,-0.0960792,7.42665,3.15634,2.65187,-8.13173,1.58246,1.89213,-20.4304,-3.17903,-4.62912,6.0584,-3.02021,0.0705184,5.14599,-1.58625,0.451508,1.03368e-14,-3.18055e-14,-8.38021,-26.847,-49.8331,64.9717,29.0542,-32.2964,-9.35223,7.12502,-5.53487,-39.26,1.03368e-14,-3.18055e-14,-44.3488,35.814,53.7138,55.2031,7.59767,-30.7317,41.1737,7.12502,-4.02409,71.1155,-52.7853,-23.4801,28.3325,81.813,-29.3952,-4.89957,5.74523,-58.0358,0.536777,-0.317498,80.101,7.53415,-14.6056,-29.2005
-10.9073,15.268,-7.42561,11.3602,29.2927,4.17805,29.5899,2.18834,0.0027569,7.41425,3.25083,2.60465,-8.08253,1.62506,1.75127,-20.2978,-2.78898,-4.40779,6.20742,-2.4941,-0.517212,5.15246,-1.36929,0.284356,6.75868e-14,-5.24792e-14,-8.60459,-26.9353,-49.5023,65.01,28.7582,-32.3087,-9.23343,7.12502,-5.54679,-39.1408,6.75868e-14,-5.24792e-14,-43.8254,35.5193,54.2805,55.4955,7.39556,-31.1441,42.2561,7.12502,-4.42224,72.1899,-52.5505,-23.5026,28.1763,81.4282,-29.3087,-4.63895,6.28287,-58.7259,0.551919,-0.664808,80.5923,8.69481,-14.9207,-30.1037
-10.9232,15.2983,-7.39583,11.2366,28.9667,4.16134,29.5925,2.36541,-0.0365147,7.45233,3.46961,2.68597,-8.05614,1.72815,1.78755,-20.2704,-2.43379,-4.25698,6.35278,-1.99208,-1.07184,5.17978,-1.16349,0.134783,-2.62396e-14,1.43125e-14,-8.87201,-27.0821,-49.235,65.2034,28.3521,-32.181,-9.22982,7.12502,-5.4235,-39.1404,-2.62396e-14,1.43125e-14,-43.2408,35.385,54.9818,55.7634,6.59181,-31.6271,42.9261,7.12502,-4.88862,72.8497,-52.0342,-23.2808,28.1743,81.0039,-29.3129,-4.75887,5.8985,-59.1283,0.720626,-0.797847,81.0815,9.80777,-14.6782,-29.6529
-10.9374,15.3313,-7.36932,11.141,28.6734,4.24586,29.6628,2.42699,-0.150826,7.45114,3.51648,2.71477,-8.10137,1.75092,1.86703,-20.16,-1.97583,-4.06836,6.57055,-1.36528,-1.62345,5.21988,-0.89704,-0.00693111,9.85972e-14,3.18055e-15,-9.27579,-27.0883,-49.2632,65.6532,28.5406,-32.1906,-9.20919,7.12502,-5.43274,-39.1196,9.85972e-14,3.18055e-15,-42.9442,35.5157,55.3307,55.9889,5.55564,-31.2408,42.2857,7.12502,-4.51562,72.2175,-51.5083,-23.0841,28.0406,80.5882,-29.3777,-4.84646,5.35565,-59.4903,0.826969,-1.07452,81.5522,10.8969,-14.3378,-27.1005
-10.9479,15.3664,-7.34813,10.9902,28.5376,4.15938,29.832,2.35957,0.16302,7.3561,3.51818,2.65692,-8.26912,1.74545,1.61422,-20.1957,-1.63752,-4.0438,7.14718,-0.88649,-1.77789,5.40448,-0.686185,-0.0141961,-8.74653e-15,3.49861e-14,-9.73565,-27.0954,-49.285,65.8142,28.9385,-32.5406,-9.24171,7.12502,-5.77071,-39.1431,-8.74653e-15,3.49861e-14,-42.6853,35.3371,55.5273,56.2941,4.71194,-30.3155,40.9726,7.12502,-3.62211,70.9216,-51.0405,-22.9568,28.0758,80.1292,-29.2988,-4.76666,5.41943,-59.9836,0.877683,-1.25955,82.005,10.6057,-14.2814,-26.2361
-10.9565,15.3933,-7.32136,10.9318,28.4648,4.10242,29.8394,2.32971,0.487011,7.22713,3.56787,2.58591,-8.39742,1.7617,1.32752,-20.2002,-1.26171,-3.83408,7.85772,-0.389581,-2.03145,5.62788,-0.472649,-0.0796121,-3.73715e-14,-4.77083e-15,-10.0718,-27.2465,-49.1849,65.6945,29.1831,-32.49,-9.20775,7.12502,-5.72187,-39.1105,-3.73715e-14,-4.77083e-15,-42.3079,34.6534,55.9075,56.8369,4.30607,-30.4394,41.3784,7.12502,-3.74181,71.3253,-50.6923,-22.804,28.1145,79.7236,-29.237,-4.69575,5.80988,-60.5572,0.90023,-1.47907,82.4705,9.6164,-13.8575,-26.5662
-10.9656,15.4122,-7.29853,10.8294,28.4047,4.07336,29.7589,2.33128,0.598325,7.2611,3.60608,2.63742,-8.31817,1.779,1.31055,-19.9729,-0.747551,-3.61546,8.03585,0.276271,-2.35062,5.64625,-0.169104,-0.146211,-3.18055e-15,-5.725e-14,-10.2457,-27.3585,-49.044,65.823,29.0834,-32.3095,-9.09437,7.12502,-5.54759,-39.0018,-3.18055e-15,-5.725e-14,-41.6914,34.4185,56.614,57.304,3.99793,-31.3252,41.8632,7.12502,-4.59715,71.7933,-50.3055,-22.5859,28.1006,79.3976,-29.2573,-4.87433,5.4665,-61.09,0.894375,-1.72435,82.9307,8.5156,-13.0892,-25.9949
-10.9695,15.4322,-7.27746,10.6629,28.2505,3.95402,29.5809,2.30618,0.621663,7.47589,3.59342,2.80952,-7.99911,1.77708,1.50377,-20.1548,-0.180106,-3.59096,8.15833,1.10835,-2.82185,5.71504,0.195493,-0.214411,-1.27222e-14,3.18055e-14,-9.98417,-27.471,-49.1008,65.9972,28.9901,-32.3365,-9.05165,7.12502,-5.57366,-38.9584,-1.27222e-14,3.18055e-14,-41.0117,34.7387,57.3467,57.7317,3.87214,-31.3101,40.7181,7.12502,-4.58258,70.6485,-49.8656,-22.2713,28.1073,79.0956,-29.2384,-4.96292,5.28412,-61.4882,0.967724,-1.93693,83.3604,7.15044,-12.3861,-25.394
-10.9715,15.4456,-7.25442,10.792,28.0884,4.05297,29.3552,2.27765,0.640822,7.56113,3.56361,2.88,-7.79697,1.76473,1.59032,-20.5291,0.221339,-3.74878,8.52346,1.78198,-3.23775,5.89491,0.471211,-0.251178,4.13472e-14,-1.11319e-14,-9.74391,-27.5671,-49.1315,66.0294,28.9792,-32.5852,-9.33054,7.12502,-5.81372,-39.2308,4.13472e-14,-1.11319e-14,-40.3611,34.696,58.0631,58.2075,4.17848,-31.3878,39.715,7.12502,-4.65764,69.6438,-49.7353,-22.0551,28.0124,78.8819,-29.1949,-4.91515,5.20656,-62.0711,0.973948,-2.38808,83.739,5.91985,-11.3781,-24.7762
-10.9756,15.4615,-7.22994,10.772,27.953,4.0376,29.5031,2.22646,0.847002,7.42683,3.56165,2.87732,-8.00795,1.75833,1.46279,-20.4129,0.667551,-3.72728,8.84484,2.42931,-3.57192,5.98602,0.750643,-0.291758,3.81667e-14,1.59028e-15,-10.104,-27.5767,-49.0885,66.1601,28.9733,-32.7699,-9.20284,7.12502,-5.99208,-39.0981,3.81667e-14,1.59028e-15,-39.9715,34.1386,58.5177,58.7801,4.75513,-32.2265,39.9278,7.12502,-5.46741,69.8373,-49.4504,-21.7424,27.9726,78.6391,-29.0889,-4.89637,5.67238,-62.5388,0.995402,-2.75748,83.9879,2.9198,-10.5577,-29.8615
-10.9816,15.4846,-7.20444,10.6315,27.8121,3.99678,29.8232,2.23177,0.996871,7.22878,3.62152,2.87816,-8.37961,1.77911,1.34332,-20.1884,0.996772,-3.64116,9.1927,2.88357,-3.79809,6.06885,0.947077,-0.328701,5.00937e-14,-4.77083e-14,-10.8291,-27.4792,-48.9201,66.4316,28.9419,-32.8042,-9.14211,7.12502,-6.02523,-39.0364,5.00937e-14,-4.77083e-14,-39.6811,33.569,58.9119,59.2798,4.13571,-32.0463,39.8549,7.12502,-5.29348,69.7688,-48.9787,-21.381,27.903,78.3676,-28.9866,-5.00869,5.57157,-62.8333,1.06838,-3.21414,84.0747,2.3857,-9.92439,-28.4748
-10.9865,15.5024,-7.18195,10.5979,27.7055,3.99267,29.8392,2.27891,1.12734,7.19169,3.7274,2.94796,-8.42907,1.82606,1.30729,-20.1966,1.14179,-3.80502,9.57377,3.16007,-3.91975,6.1949,1.05243,-0.310471,1.03368e-14,4.45278e-14,-11.4541,-27.7533,-48.6818,66.832,29.1055,-32.5509,-9.25599,7.12502,-5.78063,-39.1571,1.03368e-14,4.45278e-14,-38.9894,33.23,59.6169,59.5713,2.37831,-30.85,38.6708,7.12502,-4.13834,68.6104,-48.6359,-21.0138,27.8377,78.1197,-28.9136,-5.20101,5.56675,-63.3009,1.14745,-3.73183,84.0996,3.70713,-9.42956,-23.0464
-10.993,15.5176,-7.16327,10.5924,27.6742,4.1282,29.9246,2.27457,1.1597,7.20382,3.73749,2.98176,-8.4571,1.83034,1.32056,-20.1363,1.40584,-3.88031,9.70911,3.56911,-4.11637,6.23382,1.22756,-0.31669,-5.08889e-14,3.65764e-14,-11.8981,-28.0812,-48.5712,67.2004,29.2475,-32.4608,-9.17169,7.12502,-5.69364,-39.0752,-5.08889e-14,3.65764e-14,-38.2676,32.8586,60.1109,59.8436,1.04253,-29.7134,37.6698,7.12502,-3.04065,67.6279,-48.3551,-20.8132,27.6613,77.9023,-28.9446,-5.17655,5.93037,-63.6529,1.0644,-4.30646,84.0213,3.77929,-8.96842,-21.593
-11.0016,15.5408,-7.13325,10.5933,27.8055,4.3526,30.074,2.19573,1.13123,7.13479,3.6319,2.94395,-8.60424,1.77974,1.32709,-19.914,1.80612,-3.6908,9.8735,4.07666,-4.28152,6.26033,1.4641,-0.344815,1.01778e-13,-1.27222e-14,-12.0735,-28.1887,-48.5257,67.1229,29.2571,-32.6779,-9.31537,7.12502,-5.90325,-39.2131,1.01778e-13,-1.27222e-14,-37.6633,31.7447,60.469,60.3059,0.917192,-29.8107,37.5326,7.12502,-3.13468,67.4893,-47.9294,-20.7663,27.3887,77.6609,-28.9782,-5.15198,6.04942,-63.9108,0.890891,-5.01814,83.7993,2.46289,-8.76151,-24.3294
-11.0077,15.5671,-7.10791,10.6127,27.9445,4.40469,30.1162,2.09358,1.22234,7.07291,3.53706,2.97746,-8.6899,1.73323,1.34467,-19.6193,2.17428,-3.5255,9.91763,4.55741,-4.56759,6.24109,1.68212,-0.412423,3.26007e-14,-1.43125e-14,-12.1714,-28.199,-48.4632,67.0069,29.188,-32.8555,-9.65209,7.12502,-6.07471,-39.545,3.26007e-14,-1.43125e-14,-37.0192,30.8754,61.0313,60.9117,0.849378,-30.5869,38.2181,7.12502,-3.88418,68.1625,-47.6051,-20.6543,27.3144,77.3802,-29.0151,-5.23194,6.00043,-64.3157,0.788399,-5.63949,83.4657,1.95294,-8.74947,-24.9921
-11.0095,15.5833,-7.08992,10.7328,28.0361,4.5703,29.9499,2.0206,1.18542,7.184,3.43937,3.07479,-8.48963,1.69215,1.51697,-19.565,2.43721,-3.65129,9.77717,4.96474,-4.76794,6.19349,1.86447,-0.413813,-4.37326e-14,-1.11319e-14,-12.2294,-28.3396,-48.4458,67.2791,28.6741,-32.6729,-9.67418,7.12502,-5.8984,-39.5721,-4.37326e-14,-1.11319e-14,-35.9818,30.4749,61.9298,61.4104,0.578742,-31.1953,38.9265,7.12502,-4.4717,68.8593,-47.4566,-20.6098,27.1334,77.175,-28.9107,-5.34887,5.61036,-64.7874,0.654604,-6.44231,83.0734,2.06996,-8.79424,-24.6946
-11.0174,15.5969,-7.06831,10.859,28.1294,4.54124,29.6582,2.10189,1.42302,7.09469,3.60325,3.0617,-8.43952,1.76506,1.3129,-18.8279,2.56653,-3.24124,9.59288,5.00873,-4.96357,6.03055,1.90417,-0.545462,1.11319e-14,3.18055e-15,-13.2594,-28.8353,-48.1227,67.6417,28.2309,-32.5739,-9.62371,7.12502,-5.8028,-39.5243,1.11319e-14,3.18055e-15,-34.7295,29.5668,62.7243,61.5532,-0.240332,-31.1814,39.7434,7.12502,-4.45834,69.6764,-47.3872,-20.3862,27.2071,76.9363,-28.8482,-5.53434,5.10291,-65.3601,0.632093,-7.00651,82.6264,2.30097,-8.94001,-24.5871
-11.0233,15.6136,-7.03904,10.8466,28.1662,4.58459,29.738,2.08619,1.45335,7.04842,3.60254,3.11891,-8.53294,1.76338,1.35689,-18.8436,2.70838,-3.43458,9.84705,5.24694,-4.84367,6.10859,2.01267,-0.4496,-6.36111e-15,-3.02153e-14,-13.9197,-29.0315,-48.0591,68.0083,28.2087,-32.6686,-9.5214,7.12502,-5.89425,-39.4194,-6.36111e-15,-3.02153e-14,-33.6556,29.1678,63.4324,61.6433,-1.00801,-31.0128,40.0687,7.12502,-4.29554,70.0051,-47.065,-20.1192,27.1203,76.6889,-28.8572,-5.57413,5.44646,-65.6062,0.645395,-7.65743,82.1063,3.49459,-8.84212,-20.8163
-11.0236,15.6323,-7.00714,10.7354,28.1639,4.65654,29.9366,2.05185,1.42308,7.07465,3.56751,3.21445,-8.60674,1.74775,1.4893,-19.0383,2.85869,-3.58676,10.1541,5.53558,-4.94945,6.2419,2.123,-0.423569,-3.33958e-14,-6.36111e-15,-14.4179,-29.0045,-47.9528,68.3339,28.1311,-33.0398,-9.37273,7.12502,-6.25267,-39.2604,-3.33958e-14,-6.36111e-15,-32.5608,28.5435,64.4216,62.0778,-0.789031,-31.5282,40.5042,7.12502,-4.79314,70.43,-46.5534,-19.9073,26.9339,76.4235,-28.8879,-5.76663,5.08013,-65.645,0.607576,-8.38768,81.4971,3.31627,-8.78123,-20.401
-11.0239,15.6479,-6.97992,10.7685,28.1646,4.66635,29.9224,1.99633,1.48738,7.0588,3.51934,3.24188,-8.6149,1.72413,1.50077,-18.9033,3.06923,-3.4368,10.183,5.80555,-5.14815,6.24271,2.2444,-0.482986,4.77083e-14,-3.97569e-14,-14.7413,-28.9958,-47.944,68.4204,28.0003,-33.1195,-9.28963,7.12502,-6.32961,-39.1751,4.77083e-14,-3.97569e-14,-31.5744,28.2601,64.8242,62.0629,-2.01024,-30.9888,38.5466,7.12502,-4.27229,68.4835,-46.2871,-19.6306,26.8913,76.1935,-28.9311,-6.00834,4.75415,-65.8648,0.671867,-9.08868,80.7818,3.01309,-8.79179,-21.9104
-11.0273,15.6592,-6.9568,10.8647,28.2055,4.58761,29.9113,1.96829,1.6782,6.92456,3.54192,3.23595,-8.75134,1.72856,1.37448,-18.4528,3.26048,-3.02577,10.0667,5.97184,-5.44419,6.15555,2.32936,-0.631389,-3.65764e-14,3.18055e-15,-15.3163,-29.1104,-47.8501,68.5574,27.7702,-32.8881,-9.55264,7.12502,-6.10618,-39.4446,-3.65764e-14,3.18055e-15,-30.5347,26.9948,65.4894,62.5204,-1.77662,-31.6315,40.2453,7.12502,-4.89291,70.1688,-46.228,-19.3323,27.0114,75.9864,-28.905,-6.2649,4.75544,-66.2334,0.731594,-9.70567,80.0314,2.92087,-8.90764,-24.2058
-11.0275,15.6702,-6.93396,10.9505,28.1975,4.78771,30.0494,1.95411,1.66367,6.88239,3.52109,3.19624,-8.86395,1.71719,1.34153,-18.3958,3.33021,-3.0096,10.1,6.06011,-5.43928,6.15829,2.37302,-0.623557,-5.725e-14,2.22639e-14,-15.9537,-29.155,-47.7506,68.888,27.4933,-33.1757,-10.0374,7.12502,-6.38386,-39.9212,-5.725e-14,2.22639e-14,-29.3209,26.138,66.1562,62.6764,-1.55359,-32.0775,41.6612,7.12502,-5.32359,71.5744,-46.0449,-19.1817,26.7886,75.8182,-28.8309,-6.38598,4.68429,-66.3562,0.685915,-10.6115,79.1978,2.57984,-9.09958,-25.9514
-11.0319,15.6835,-6.9077,10.8735,28.2876,4.56776,30.0336,1.78314,1.7954,6.99799,3.36139,3.36469,-8.725,1.64433,1.51558,-18.809,3.47757,-3.30262,10.2124,6.35664,-5.39527,6.25584,2.49696,-0.524445,0,-1.59028e-14,-15.5768,-29.1084,-48.0246,68.6329,27.5078,-33.5271,-9.852,7.12502,-6.72309,-39.7253,0,-1.59028e-14,-28.035,27.4757,66.2674,61.7294,-4.11129,-30.5799,38.2913,7.12502,-3.8775,68.2357,-45.8485,-19.0177,27.0387,75.6,-28.8457,-6.55981,4.89648,-66.5709,0.779598,-11.0961,78.3426,2.08553,-9.70345,-27.0585
-11.0355,15.6962,-6.88157,10.7366,28.5009,4.2611,30.1702,1.66249,2.26106,6.91732,3.36058,3.39872,-8.85885,1.6335,1.28194,-18.597,3.5011,-3.17339,10.0803,6.33403,-5.39279,6.18176,2.50062,-0.551003,-8.42847e-14,1.59028e-14,-16.2135,-29.3646,-47.9921,68.6067,27.4822,-33.5496,-9.36728,7.12502,-6.74475,-39.2399,-8.42847e-14,1.59028e-14,-26.6211,27.5093,66.7015,61.2313,-5.34699,-30.5243,37.264,7.12502,-3.8238,67.2095,-45.5873,-18.9676,27.39,75.3699,-28.9371,-6.75111,5.06198,-66.7679,0.841756,-11.487,77.4167,1.27011,-10.4551,-28.6571
-11.0345,15.7028,-6.86534,11.0776,28.5565,4.47078,30.0755,1.66105,2.33008,6.84888,3.37295,3.36309,-8.88506,1.63673,1.19895,-18.996,3.37529,-3.88035,10.5067,6.30212,-4.79042,6.33996,2.48325,-0.24144,2.8625e-14,-1.59028e-15,-16.9742,-29.6602,-47.7843,69.0406,27.4767,-32.9442,-9.49877,7.12502,-6.16032,-39.3892,2.8625e-14,-1.59028e-15,-25.1631,26.7316,67.5185,61.2133,-5.55819,-31.174,37.1077,7.12502,-4.45111,67.041,-45.7599,-18.9074,27.2714,75.2331,-28.9662,-6.59448,6.04541,-67.1905,0.811133,-12.4413,76.3811,0.840227,-10.9927,-30.0943
-11.0395,15.707,-6.83487,11.2545,28.6658,4.59395,29.9318,1.66426,2.21799,6.84642,3.34329,3.40765,-8.82728,1.62666,1.32775,-20.3109,3.19793,-5.445,12.2043,6.39829,-3.12794,6.99678,2.51842,0.590652,1.11319e-14,6.36111e-15,-17.4301,-29.8274,-47.7518,69.3148,27.3964,-32.5528,-10.2402,7.12502,-5.78245,-40.1413,1.11319e-14,6.36111e-15,-23.9375,26.019,68.1519,61.3025,-5.84649,-31.3457,36.7244,7.12502,-4.617,66.6541,-45.6924,-18.8272,27.2629,75.0899,-29.1081,-6.8983,5.92738,-67.4588,0.825015,-13.3037,75.2888,0.769649,-11.4543,-30.6376
-11.0433,15.7167,-6.79753,11.1328,28.7651,4.4866,29.9623,1.61817,2.18781,6.89161,3.29035,3.5207,-8.79874,1.60468,1.49154,-18.0602,3.88217,-2.72533,9.96505,6.76468,-5.81427,6.09375,2.70782,-0.719097,2.54444e-14,2.38542e-14,-17.7786,-29.8456,-47.8563,69.5412,27.3459,-32.5765,-10.697,7.12502,-5.80539,-40.5974,2.54444e-14,2.38542e-14,-22.8721,25.383,68.5792,61.4154,-6.15361,-31.0903,35.9948,7.12502,-4.37034,65.9297,-45.2824,-18.6988,27.3901,74.8787,-29.3022,-7.17123,6.25263,-67.424,0.904656,-13.9202,74.1501,0.729193,-11.8078,-30.8929
-11.037,15.7253,-6.7734,11.0776,28.7413,4.38247,30.0945,1.51903,2.32814,6.87404,3.22028,3.58104,-8.87767,1.56858,1.50148,-18.448,3.88883,-3.12939,10.3692,6.86711,-5.45866,6.26096,2.74666,-0.521342,3.49861e-14,-7.63333e-14,-18.0107,-29.7461,-47.9185,69.4839,27.7143,-33.0202,-10.7367,7.12502,-6.23367,-40.625,3.49861e-14,-7.63333e-14,-22.1398,24.1601,68.8329,61.9913,-5.76689,-31.1664,36.7295,7.12502,-4.44384,66.6629,-45.0183,-18.536,27.4697,74.6346,-29.315,-7.35928,6.48126,-67.4441,0.996709,-14.5587,72.9986,0.678605,-11.9377,-31.1151
-11.0348,15.7362,-6.7489,11.1447,28.6837,4.48499,30.2109,1.52644,2.2987,6.82124,3.22576,3.56835,-8.99523,1.56949,1.49937,-18.3787,3.86424,-3.18205,10.3503,6.84011,-5.4455,6.24104,2.73475,-0.51325,1.59028e-14,-1.11319e-14,-18.5687,-29.8151,-47.8686,69.5197,28.0967,-32.9285,-11.2522,7.12502,-6.14517,-41.1431,1.59028e-14,-1.11319e-14,-21.3714,22.2317,69.1399,62.7825,-4.77368,-31.9803,39.6882,7.12502,-5.22972,69.6037,-44.8056,-18.3128,27.3534,74.3769,-29.3705,-7.55057,6.69135,-67.4207,1.11164,-15.418,71.7443,0.764564,-12.1219,-31.4173
-11.0371,15.7474,-6.71409,11.2891,28.6553,4.56543,30.0274,1.56404,2.11847,6.84618,3.21357,3.59735,-8.88936,1.56914,1.64433,-17.9636,3.9184,-2.96286,9.93306,6.83768,-5.6409,6.05399,2.75154,-0.621508,-9.54166e-14,0,-18.9902,-29.9946,-47.996,69.6739,28.1454,-32.4331,-11.8692,7.12502,-5.66687,-41.7734,-9.54166e-14,0,-20.2637,21.2782,69.3928,62.8305,-5.13788,-32.3105,40.6444,7.12502,-5.5485,70.5518,-44.6578,-18.0667,27.3456,74.1556,-29.4137,-7.91688,6.44305,-67.4643,1.25027,-16.1952,70.4401,0.880613,-12.334,-32.3248
-11.037,15.7592,-6.67627,11.3854,28.6631,4.581,29.5675,1.55817,1.79936,7.06208,3.10278,3.73224,-8.4431,1.5306,2.03071,-17.9988,4.02983,-2.8193,9.7951,6.9689,-5.79858,6.02873,2.81306,-0.680837,1.59028e-15,9.54166e-15,-18.8754,-30.0596,-48.3004,69.6423,28.3157,-32.2522,-12.2731,7.12502,-5.49219,-42.1819,1.59028e-15,9.54166e-15,-18.8319,21.1893,69.8261,62.5585,-5.86185,-32.275,41.0265,7.12502,-5.51429,70.9348,-44.4682,-17.9096,27.389,73.9659,-29.4808,-8.16818,6.29926,-67.4996,1.36127,-16.871,69.1554,0.853241,-12.2488,-33.9893
-11.0301,15.7656,-6.64599,11.5451,28.5812,4.76871,29.2132,1.53581,1.4313,7.26837,2.95586,3.79292,-8.05447,1.47171,2.37089,-18.0205,4.1955,-2.76057,9.50182,7.19277,-6.02637,5.95399,2.91799,-0.74112,4.6118e-14,7.63333e-14,-18.7277,-30.0338,-48.6711,69.4755,28.08,-32.5702,-12.2731,7.12502,-5.79922,-42.1738,4.6118e-14,7.63333e-14,-17.4644,21.176,70.2345,62.3788,-6.41959,-32.1334,40.6525,7.12502,-5.3775,70.5642,-44.3292,-17.8269,27.2217,73.8836,-29.5709,-8.26865,6.35534,-67.5075,1.48422,-17.7574,67.8916,1.07964,-12.4797,-33.9814
-11.0218,15.7582,-6.61833,11.5079,28.5198,4.65644,29.2704,1.47962,1.46435,7.24525,2.89857,3.81301,-8.10574,1.44369,2.39371,-17.459,4.40775,-2.23409,8.8451,7.37452,-6.69191,5.70457,3.01356,-1.03111,1.43125e-14,-1.90833e-14,-19.1506,-29.8897,-48.9015,69.5758,27.0732,-32.6131,-11.7987,7.12502,-5.8407,-41.6982,1.43125e-14,-1.90833e-14,-16.4702,20.6166,70.3623,62.3388,-6.66913,-32.2363,40.6136,7.12502,-5.47691,70.5228,-44.22,-17.6788,27.3491,73.8636,-29.6264,-8.48714,6.24692,-67.5717,1.47118,-18.2193,66.7068,1.69501,-13.1165,-32.1589
-11.016,15.7501,-6.58831,11.5577,28.4624,4.45785,29.3038,1.43033,1.65515,7.13381,2.89296,3.80337,-8.23842,1.4362,2.27369,-18.8408,4.30843,-3.49768,10.7222,7.50159,-5.02473,6.41355,3.05338,-0.24608,4.77083e-15,-2.38542e-14,-19.6476,-29.8418,-49.0805,69.6658,26.454,-32.6846,-11.7747,7.12502,-5.90972,-41.6723,4.77083e-15,-2.38542e-14,-15.4951,19.8476,70.4129,62.2614,-6.92387,-32.2197,40.3978,7.12502,-5.46088,70.3074,-44.298,-17.4197,27.6015,73.8858,-29.6492,-8.68455,6.57346,-67.7728,1.52717,-18.5802,65.5061,2.21533,-13.7814,-31.2626
-11.0082,15.7433,-6.56058,11.6002,28.3811,4.16753,29.1533,1.3549,1.83026,7.17483,2.85434,3.93659,-8.1166,1.41685,2.33842,-21.0842,4.03723,-5.71297,13.2567,7.63997,-2.65253,7.42421,3.08987,0.964301,-2.38542e-14,3.49861e-14,-19.5503,-29.8571,-49.3665,69.3807,26.4534,-33.0143,-11.6212,7.12502,-6.22805,-41.5097,-2.38542e-14,3.49861e-14,-14.4806,19.422,70.692,62.3408,-7.21149,-31.9163,37.9257,7.12502,-5.1679,67.8426,-44.3868,-17.1859,27.9529,73.8955,-29.637,-8.92643,5.95012,-67.9823,1.64869,-18.8283,64.2764,2.59458,-14.3011,-31.5026
-10.9997,15.7449,-6.53268,11.5545,28.3867,4.01827,29.1641,1.29049,1.8873,7.21651,2.80115,4.04981,-8.07624,1.39221,2.45158,-18.2554,4.56559,-3.06565,9.86808,7.76582,-5.77519,6.09625,3.18475,-0.545378,1.43125e-14,0,-19.5263,-29.8611,-49.5272,68.9601,26.542,-33.2347,-11.3032,7.12502,-6.44075,-41.1853,1.43125e-14,0,-13.4114,19.045,70.9426,62.2895,-7.31801,-32.4392,40.9438,7.12502,-5.67278,70.8478,-44.2166,-17.0815,28.1123,73.8347,-29.6065,-9.17915,5.69497,-67.9479,1.54356,-19.1442,62.9429,2.82591,-14.6751,-32.1711
-10.9908,15.7468,-6.505,11.5761,28.262,3.8826,29.1753,1.24213,1.90757,7.18304,2.74813,4.06925,-8.11778,1.36605,2.48032,-18.223,4.59599,-2.80653,9.92017,7.76211,-5.89173,6.12241,3.18127,-0.622753,7.95139e-15,3.81667e-14,-19.6687,-29.7912,-49.8121,68.8705,26.4596,-33.462,-11.884,7.12502,-6.66019,-41.7593,7.95139e-15,3.81667e-14,-12.4158,18.6474,70.9975,62.1506,-7.30444,-32.6368,41.0954,7.12502,-5.86359,70.9942,-44.1247,-16.8569,28.2452,73.7608,-29.6508,-9.39082,5.60953,-67.9579,1.57743,-19.4911,61.5287,3.34061,-14.8589,-31.9816
-10.9829,15.7571,-6.47021,11.659,28.1043,3.82665,29.1392,1.18321,1.85762,7.15499,2.65547,4.05573,-8.13017,1.32224,2.52711,-17.9403,4.73674,-2.61986,9.61855,7.89892,-6.08646,5.99783,3.25794,-0.708431,-2.8625e-14,4.13472e-14,-20.1182,-29.6322,-50.1302,69.0959,26.3197,-33.5221,-12.2206,7.12502,-6.71829,-42.0941,-2.8625e-14,4.13472e-14,-11.4381,18.2865,70.9798,62.0425,-7.4289,-32.4269,40.5255,7.12502,-5.66092,70.4299,-44.0083,-16.6551,28.3162,73.6628,-29.7084,-9.66223,4.62977,-67.8693,1.6609,-19.9008,60.0569,3.78089,-15.0915,-31.9463
-10.9724,15.7604,-6.43644,11.6964,28.0422,3.89376,29.2303,1.09418,1.78293,7.18027,2.52564,4.06578,-8.14447,1.26233,2.62673,-17.7741,4.88906,-2.66568,9.27997,8.09928,-6.20324,5.87006,3.36314,-0.725115,4.77083e-15,-2.06736e-14,-20.3885,-29.545,-50.355,69.1143,26.5084,-33.5415,-11.4973,7.12502,-6.73699,-41.3701,4.77083e-15,-2.06736e-14,-10.4461,18.1481,71.0473,61.9808,-7.93129,-32.0469,41.6593,7.12502,-5.294,71.5732,-43.8382,-16.6343,28.2373,73.6273,-29.8035,-9.68712,4.61236,-67.6697,1.54208,-20.3159,58.6069,4.50346,-15.206,-31.0888
-10.9613,15.7553,-6.40702,11.7872,27.9282,3.96298,29.147,1.07442,1.61297,7.28974,2.45137,4.1248,-7.98676,1.23106,2.81839,-18.0989,4.94381,-2.93201,9.31756,8.23815,-6.0743,5.92074,3.42301,-0.621273,-2.54444e-14,-1.11319e-14,-20.578,-29.6921,-50.6369,69.2802,26.705,-33.5828,-11.3223,7.12502,-6.77684,-41.1938,-2.54444e-14,-1.11319e-14,-9.46841,17.9689,71.1346,62.0153,-8.35103,-31.718,42.0294,7.12502,-4.97645,71.951,-43.8521,-16.5871,28.1641,73.8498,-29.8594,-9.69267,4.54511,-67.6589,1.35093,-20.609,57.3901,5.16038,-15.0873,-30.1592
-10.9554,15.7593,-6.36202,11.6865,27.9713,3.998,29.1882,1.03669,1.38764,7.38526,2.35052,4.22615,-7.90722,1.188,3.09826,-18.2476,4.99916,-2.9392,9.36525,8.33149,-6.11098,5.9633,3.45987,-0.61776,-3.18055e-14,-4.13472e-14,-21.1554,-29.6582,-50.9068,69.8481,26.3127,-33.7804,-11.9733,7.12502,-6.96758,-41.8387,-3.18055e-14,-4.13472e-14,-8.39924,17.6381,71.2403,61.7873,-8.56852,-31.3153,39.5646,7.12502,-4.5876,69.4949,-43.4951,-16.6689,28.1224,73.8339,-30.0842,-9.69088,4.80024,-67.3117,1.1581,-20.8441,56.0114,5.81669,-15.1504,-29.6911
-10.8911,15.6541,-6.39578,13.3792,26.01,3.45349,27.5462,1.57469,1.61538,6.93742,2.99946,4.01167,-7.61848,1.48159,2.51996,-17.2059,5.21544,-2.12404,8.48198,8.44155,-7.0228,5.59349,3.53454,-1.05277,-3.02153e-14,6.67916e-14,-21.8847,-29.4498,-50.9987,70.2897,25.782,-33.7995,-12.3367,7.12502,-6.98605,-42.2014,-3.02153e-14,6.67916e-14,-7.38477,17.1423,71.4225,61.5805,-8.76482,-31.1803,39.0981,7.12502,-4.4572,69.0312,-46.5838,-14.8513,28.6324,74.5018,-29.3429,-9.27317,4.10717,-69.9167,1.97182,-20.7611,54.9772,6.88493,-14.0785,-29.5793
-10.9233,15.7651,-6.28938,11.5208,27.5783,3.89309,29.31,1.02283,1.30422,7.41492,2.31286,4.249,-7.93465,1.17027,3.18534,-16.127,5.35634,-1.06938,7.51437,8.41597,-8.07617,5.20789,3.54886,-1.58201,3.97569e-14,4.13472e-14,-22.2538,-29.4434,-51.2096,70.2309,25.9308,-33.8729,-12.5106,7.12502,-7.05684,-42.373,3.97569e-14,4.13472e-14,-6.38342,16.5107,71.4542,61.4641,-8.70994,-31.4822,41.6297,7.12502,-4.74872,71.5564,-42.9975,-16.3867,28.0547,73.9024,-30.2366,-9.64898,4.71398,-66.7571,1.02664,-21.2136,53.3138,7.31513,-15.0416,-28.0691
-10.8912,15.7422,-6.27023,12.1095,27.0501,3.82353,28.7826,1.02192,1.40337,7.2338,2.30198,4.10396,-7.87358,1.16009,2.97118,-17.7468,5.35395,-2.63226,9.35704,8.74507,-6.36884,5.91194,3.66255,-0.714571,-1.27222e-14,3.18055e-15,-22.4442,-29.4742,-51.5325,69.9061,26.5249,-33.8829,-12.0326,7.12502,-7.06649,-41.8947,-1.27222e-14,3.18055e-15,-5.52,16.0591,71.2648,61.2039,-8.54891,-31.7765,39.7606,7.12502,-5.03293,69.6808,-43.8348,-15.9789,28.1299,74.1044,-29.9308,-9.38658,4.57969,-67.366,0.916396,-21.2578,52.0293,8.21578,-14.6439,-26.7917
-10.87,15.7523,-6.23399,11.98,26.6504,3.93804,29.2153,1.0438,1.29757,7.1811,2.30317,3.99425,-8.14244,1.15984,2.90668,-19.5183,5.29233,-4.29339,11.4948,9.04361,-4.51403,6.7253,3.76211,0.236703,3.81667e-14,-4.92986e-14,-22.747,-29.4686,-51.7166,69.738,26.7158,-33.9171,-11.9952,7.12502,-7.09958,-41.8561,3.81667e-14,-4.92986e-14,-4.66839,15.6548,71.1269,60.9384,-8.64528,-31.6102,38.8863,7.12502,-4.87239,68.8102,-43.4053,-15.8263,27.8212,73.9488,-29.8468,-9.13224,4.60611,-66.7898,0.895521,-21.4835,50.4891,9.03938,-14.6397,-26.559
-10.8471,15.7523,-6.19669,11.8294,26.3618,3.87326,29.3449,1.08835,1.30151,7.31565,2.36556,4.03983,-8.05742,1.18921,2.93289,-20.1113,5.45018,-4.50468,12.0793,9.3913,-4.48657,7.00424,3.88313,0.344946,-3.97569e-14,3.81667e-14,-22.9631,-29.5615,-51.8035,69.7094,26.5248,-34.164,-12.4489,7.12502,-7.33784,-42.3017,-3.97569e-14,3.81667e-14,-3.4533,15.4165,71.2766,60.4962,-8.77601,-31.6528,39.6958,7.12502,-4.91349,69.6188,-43.1804,-15.7569,27.7511,74.0905,-29.9723,-8.87577,4.89296,-66.4797,0.754931,-21.4547,49.2833,9.59194,-14.6843,-26.9757
-10.8217,15.75,-6.16214,11.9087,26.1228,3.88476,29.173,1.09902,1.23052,7.46376,2.35315,4.0969,-7.81122,1.18463,3.04356,-17.6607,6.0237,-2.14666,9.28928,9.66766,-7.32869,5.9725,4.05914,-0.993666,2.38542e-14,3.18055e-14,-23.1327,-29.7407,-52.0439,69.7224,26.5023,-34.2563,-12.2501,7.12502,-7.42694,-42.0998,2.38542e-14,3.18055e-14,-1.98195,15.5679,71.5404,59.6426,-9.19215,-31.8478,40.5074,7.12502,-5.10175,70.426,-43.26,-15.7759,27.6782,74.3254,-30.2068,-8.51595,5.51981,-66.354,0.402602,-21.2726,48.1575,10.6537,-14.2121,-23.8434
-10.787,15.7348,-6.13682,12.1023,25.4769,3.63258,28.9673,1.20589,1.38424,7.40978,2.51606,4.06512,-7.77308,1.25684,2.86339,-16.8338,6.21163,-1.6226,8.47102,9.79343,-8.02475,5.64574,4.14675,-1.31143,7.63333e-14,2.06736e-14,-23.6675,-29.8453,-52.186,69.7644,26.3476,-34.4773,-11.9822,7.12502,-7.64027,-41.8242,7.63333e-14,2.06736e-14,-0.744234,15.2208,71.7199,59.1782,-9.18976,-32.1026,42.451,7.12502,-5.34776,72.3635,-43.5982,-15.3744,27.8198,74.6006,-30.1103,-8.38227,5.82695,-66.5888,0.284396,-20.7577,47.1768,12.1827,-13.4625,-18.0674
-10.7516,15.6937,-6.11543,12.6186,24.525,3.24263,28.3729,1.43703,1.43257,7.27447,2.7927,4.05316,-7.64679,1.38305,2.73249,-16.5673,6.28096,-1.52736,8.27664,9.86707,-8.24001,5.56047,4.18669,-1.39513,-2.70347e-14,-1.90833e-14,-24.0549,-29.8299,-52.3543,69.7673,26.0905,-34.5126,-12.3152,7.12502,-7.6743,-42.156,-2.70347e-14,-1.90833e-14,0.200444,14.9242,71.7224,58.9188,-9.04959,-31.9556,40.5436,7.12502,-5.20585,70.4596,-44.4774,-14.6359,28.1863,74.9655,-29.8679,-8.58391,5.16618,-67.5969,0.517755,-20.3812,46.2686,13.4289,-13.2147,-19.4887
-10.7119,15.6759,-6.09082,12.9116,23.8541,3.07597,28.0074,1.53408,1.54686,7.26698,2.92123,3.99295,-7.47359,1.44074,2.5607,-16.8578,6.32426,-1.66368,8.37627,9.97942,-8.2501,5.63769,4.22372,-1.35606,-2.38542e-14,3.18055e-15,-24.209,-29.9529,-52.5904,69.659,25.7193,-34.6191,-12.4003,7.12502,-7.77717,-42.2373,-2.38542e-14,3.18055e-15,1.27899,14.6309,71.7629,58.5488,-9.10052,-31.6758,38.896,7.12502,-4.93568,68.8185,-44.888,-14.2638,28.2122,75.2422,-29.7592,-8.32698,5.11255,-68.0955,0.449117,-20.1584,45.3552,14.5982,-12.9081,-19.9314
-10.6735,15.6688,-6.06107,12.843,23.4501,3.02975,28.2029,1.52107,1.76924,7.23885,2.95612,3.84652,-7.58278,1.45198,2.25427,-16.8869,6.47021,-1.45565,8.49596,10.1626,-8.39909,5.70563,4.30179,-1.41204,-5.725e-14,1.74931e-14,-24.9247,-30.1271,-52.7535,69.7708,25.5595,-35.0642,-12.9025,7.12502,-8.20674,-42.7231,-5.725e-14,1.74931e-14,2.27045,14.2155,71.6669,58.153,-9.18006,-31.7443,38.0582,7.12502,-5.00184,67.9792,-44.7669,-14.1845,28.064,75.4938,-29.7626,-8.1918,4.48667,-67.8061,0.121331,-19.8109,44.4065,15.7083,-12.4639,-19.7236
-10.6424,15.6483,-6.018,12.8072,22.9856,2.86683,28.3435,1.54115,1.78092,7.11418,2.98564,3.79969,-7.78948,1.46187,2.18221,-16.5808,6.68533,-1.43113,8.59565,10.4305,-8.32002,5.69252,4.44235,-1.37095,-9.22361e-14,-3.18055e-15,-25.7706,-29.9324,-52.9018,70.0344,25.2825,-35.2487,-12.8557,7.12502,-8.38482,-42.6693,-9.22361e-14,-3.18055e-15,2.91734,14.0704,71.4703,57.7672,-9.36888,-31.4413,36.3656,7.12502,-4.70923,66.2932,-44.7367,-14.0157,28.1192,75.7616,-29.8328,-8.23535,3.59966,-67.6479,-0.062328,-19.3106,43.4674,16.7252,-11.8529,-19.9596
-10.6093,15.6411,-5.96847,12.8314,22.5579,2.86166,28.3186,1.57489,1.63173,7.06127,2.98299,3.78515,-7.84345,1.46071,2.253,-16.4744,6.89033,-1.44736,8.87554,10.7266,-8.2894,5.77137,4.57723,-1.32682,-9.54166e-15,-3.49861e-14,-26.3318,-29.8291,-52.9725,70.0183,24.8856,-35.0288,-12.8176,7.12502,-8.17257,-42.6396,-9.54166e-15,-3.49861e-14,3.6114,14.1506,71.3702,57.2699,-9.80043,-31.4471,40.1851,7.12502,-4.71491,70.1126,-44.6375,-13.9638,27.9909,75.9481,-29.9646,-8.09628,3.07324,-67.4525,-0.275949,-18.9724,42.576,17.6502,-11.1322,-19.4622
-10.5664,15.6328,-5.92958,12.8962,22.11,2.89137,28.2394,1.57169,1.64567,7.11961,2.97021,3.74088,-7.7353,1.45396,2.20177,-16.8104,6.98974,-1.70963,9.26329,10.9445,-8.1174,5.93281,4.65828,-1.19375,-2.70347e-14,8.90555e-14,-26.5078,-29.9572,-53.1739,69.9165,24.5052,-34.9518,-13.5623,7.12502,-8.09825,-43.3871,-2.70347e-14,8.90555e-14,4.4453,13.7934,71.2975,57.1606,-9.69445,-30.9131,37.9777,7.12502,-4.19921,67.916,-44.5746,-13.9964,27.7534,76.0938,-30.0666,-7.56221,3.53773,-67.2927,-0.552972,-18.6468,41.7361,18.3264,-10.4023,-19.8938
-10.5301,15.6232,-5.88147,12.6091,21.8983,2.78817,28.4967,1.46809,1.77494,7.19756,2.88197,3.74721,-7.76411,1.41008,2.16108,-17.0908,7.07158,-2.07681,9.61004,11.142,-7.84356,6.05853,4.73679,-1.01749,6.20208e-14,-7.95139e-15,-26.8421,-29.9402,-53.4291,69.9882,24.1526,-35.0585,-14.5943,7.12502,-8.20119,-44.4152,6.20208e-14,-7.95139e-15,5.23376,13.7839,71.2139,56.8166,-9.91001,-32.0698,46.8782,7.12502,-5.31611,76.7915,-44.0793,-14.2091,27.6699,76.1399,-30.157,-7.41066,2.91605,-66.8206,-0.870964,-18.2313,40.9615,18.8159,-10.0737,-20.8599
-10.5084,15.6466,-5.81598,12.0031,21.9263,2.87365,29.063,1.33373,1.59995,7.30575,2.68729,3.78707,-7.92069,1.32052,2.36695,-17.1842,7.24678,-2.30196,9.87836,11.4344,-7.68283,6.14518,4.86664,-0.894448,1.59028e-15,-2.54444e-14,-27.2083,-29.9272,-53.6691,70.0441,24.5722,-34.5936,-15.6924,7.12502,-7.75253,-45.5303,1.59028e-15,-2.54444e-14,5.86741,13.6985,71.1423,56.6697,-10.0523,-32.2726,51.7995,7.12502,-5.51195,81.7078,-42.8888,-14.6167,27.3612,76.0147,-30.3633,-7.21605,1.58421,-65.8146,-1.2518,-18.088,40.2582,19.1917,-10.1692,-21.8344
-10.4833,15.6548,-5.75261,11.5992,21.5269,2.65346,29.3228,1.42612,1.4967,7.3741,2.78743,3.85875,-7.98112,1.36788,2.46919,-16.9875,7.42161,-2.19984,9.88854,11.6674,-7.87147,6.14124,4.97351,-0.949202,3.18055e-15,-2.06736e-14,-27.5597,-30.1619,-53.7888,69.8912,24.9137,-34.2431,-16.3516,7.12502,-7.41421,-46.2017,3.18055e-15,-2.06736e-14,6.57647,13.5128,71.1471,56.5555,-10.294,-32.3313,51.4256,7.12502,-5.56863,81.3324,-42.1488,-14.4802,27.3893,75.9482,-30.4081,-7.17587,-1.52005,-65.2163,-1.2822,-17.5415,39.6791,19.5431,-9.89679,-22.1013
-10.4481,15.6381,-5.69909,11.5557,20.8315,2.50546,29.1899,1.54861,1.25028,7.47245,2.86439,3.91079,-7.82301,1.40615,2.64545,-16.85,7.58018,-2.23033,9.65398,11.907,-8.1779,6.07081,5.08157,-1.02228,-3.89618e-14,-9.54166e-15,-27.6888,-29.9695,-54.1049,69.7323,23.7024,-34.7893,-16.3261,7.12502,-7.94141,-46.1569,-3.89618e-14,-9.54166e-15,7.22635,13.7294,71.1196,56.3902,-10.3802,-32.1461,45.2201,7.12502,-5.38979,75.1316,-42.0246,-14.0888,27.3454,76.0922,-30.4322,-6.95951,-3.09206,-65.0383,-1.21513,-16.9868,39.1396,19.8708,-9.57307,-22.7491
-10.4054,15.6157,-5.64898,11.5483,20.3155,2.44428,29.1615,1.53442,1.16062,7.53512,2.81251,3.89482,-7.73936,1.38136,2.69847,-16.8784,7.72319,-2.29049,9.415,12.1313,-8.43245,6.02113,5.18113,-1.0708,-1.19271e-14,6.36111e-15,-27.8187,-29.9121,-54.4966,69.5553,22.2736,-34.5826,-17.2477,7.12502,-7.7419,-47.086,-1.19271e-14,6.36111e-15,7.71948,13.6446,70.8617,56.4979,-10.3196,-30.7429,37.7909,7.12502,-4.03489,67.7324,-41.9655,-13.9396,27.2062,76.3612,-30.5545,-6.68264,-2.60412,-64.9674,-1.41407,-16.428,38.7412,20.3083,-9.44077,-22.6839
-10.3606,15.5944,-5.60623,11.6009,19.9112,2.49013,29.3177,1.4561,1.07887,7.46712,2.68969,3.85231,-7.88747,1.32239,2.73928,-16.6904,7.91564,-2.2867,9.20882,12.3884,-8.62475,5.94678,5.30883,-1.11365,4.85035e-14,-3.49861e-14,-28.0639,-29.7582,-54.7519,69.3216,21.4247,-35.0053,-17.1189,7.12502,-8.14993,-46.9418,4.85035e-14,-3.49861e-14,7.96409,13.6017,70.527,56.704,-10.4552,-31.7273,42.4629,7.12502,-4.98547,72.3842,-41.9866,-13.9335,26.9635,76.7414,-30.753,-6.43221,-2.08853,-65.014,-1.7845,-15.8948,38.4988,20.9195,-9.03643,-20.7796
-10.3116,15.5742,-5.56194,11.6042,19.458,2.40411,29.4421,1.39966,1.1565,7.43701,2.63867,3.82194,-7.97427,1.29536,2.67706,-16.7958,8.01187,-2.50274,9.27699,12.5546,-8.46856,5.96658,5.38714,-1.01107,5.08889e-14,1.74931e-14,-28.3295,-29.7771,-54.9873,69.1534,20.9621,-37.3438,-12.4123,7.12502,-10.4063,-42.1348,5.08889e-14,1.74931e-14,8.35046,13.7074,70.3716,56.789,-10.7321,-31.5375,43.1404,7.12502,-4.80218,73.066,-41.9589,-13.8806,26.8009,77.1283,-30.9422,-6.16399,-1.97884,-65.0848,-1.88628,-15.442,38.4331,21.338,-9.17583,-18.5279
-10.2593,15.5487,-5.50877,11.5981,18.9265,2.12038,29.2628,1.3323,1.31415,7.50024,2.5862,3.82238,-7.80721,1.26736,2.60714,-17.4207,8.12921,-3.09029,9.95532,12.8535,-7.84713,6.21234,5.50233,-0.663987,2.78299e-14,2.06736e-14,-28.2631,-29.8444,-55.3907,68.8528,20.7667,-36.5229,-14.4142,7.12502,-9.61436,-44.1748,2.78299e-14,2.06736e-14,8.94795,13.9495,70.2221,56.7671,-11.0078,-31.2325,42.7286,7.12502,-4.50763,72.6606,-41.9281,-13.7197,26.8321,77.5137,-30.9935,-5.77814,-1.14465,-65.1972,-1.7573,-14.9028,38.5105,21.5404,-9.97997,-19.2293
-10.2064,15.5155,-5.45659,11.7176,18.4286,1.79334,29.1011,1.23936,1.51647,7.40963,2.52004,3.83591,-7.82103,1.23165,2.53017,-18.3888,8.27815,-3.97986,11.4061,13.297,-6.79067,6.71259,5.65721,-0.0874055,4.21423e-14,3.49861e-14,-28.5555,-29.7606,-55.5988,68.8388,20.821,-36.0993,-15.1921,7.12502,-9.20562,-44.9712,4.21423e-14,3.49861e-14,9.08214,14.0734,69.8759,56.9837,-11.07,-31.1428,41.4931,7.12502,-4.42101,71.4269,-42.1667,-13.5177,26.9518,77.9242,-31.034,-5.36367,-0.624587,-65.5777,-1.58657,-14.3714,38.7494,21.7278,-11.2413,-22.6021
-10.162,15.4873,-5.4085,11.7569,17.826,1.66436,29.3391,1.25204,1.45729,7.21191,2.5242,3.78786,-8.16037,1.23029,2.50667,-19.6987,8.3879,-4.9158,13.4448,13.7506,-5.54139,7.44355,5.78821,0.598817,-2.54444e-14,-3.18055e-15,-29.265,-29.5749,-55.7787,68.9174,20.1958,-35.8008,-16.0318,7.12502,-8.91761,-45.8234,-2.54444e-14,-3.18055e-15,8.91272,13.8672,69.4338,57.3778,-10.6016,-31.4296,40.9435,7.12502,-4.69797,70.8714,-42.3679,-13.1395,26.8415,78.3426,-31.0091,-4.97454,-0.298985,-65.9028,-1.44943,-13.992,39.0466,22.2027,-12.533,-23.902
-10.1202,15.4589,-5.36378,11.6449,17.0496,1.38125,29.6966,1.36082,1.35772,7.16544,2.64388,3.81479,-8.39636,1.28417,2.54878,-22.2994,8.45529,-6.25065,16.685,14.3409,-3.57426,8.71665,5.92987,1.71009,2.78299e-14,-3.33958e-14,-29.4538,-29.4837,-56.0312,68.5546,19.5172,-36.0415,-16.3955,7.12502,-9.14987,-46.177,2.78299e-14,-3.33958e-14,9.44975,14.0812,69.4441,57.2814,-10.6786,-32.8059,50.7272,7.12502,-6.02682,80.6214,-42.4663,-12.4986,26.8663,78.7676,-30.9108,-4.57132,0.708627,-66.0727,-1.26547,-13.2679,39.3994,22.7667,-13.2772,-23.1458
-10.0682,15.4384,-5.31034,11.6217,16.4512,1.53654,29.8326,1.36658,1.04381,7.23978,2.55163,3.76247,-8.38416,1.24385,2.70396,-19.7229,8.75043,-4.90471,13.2124,14.3008,-5.97583,7.41043,6.02331,0.521328,-4.77083e-15,6.36111e-15,-29.2561,-29.5967,-56.3203,68.0212,19.6741,-36.9438,-15.2816,7.12502,-10.0204,-45.0231,-4.77083e-15,6.36111e-15,10.1412,15.0733,69.565,56.7622,-11.6958,-31.3814,38.576,7.12502,-4.65143,68.505,-42.3241,-12.3751,26.3926,79.2622,-31.0111,-4.27731,0.866494,-66.051,-1.25445,-13.148,39.8243,22.6256,-14.0111,-25.0873
-10.0028,15.4203,-5.24278,11.6288,16.0878,1.82226,29.7788,1.23347,0.907419,7.3128,2.32723,3.66679,-8.26573,1.13958,2.75653,-18.9889,8.97795,-4.47968,12.2087,14.4844,-6.75532,7.05443,6.14285,0.17871,7.95139e-15,-3.65764e-14,-29.4759,-29.5946,-56.4919,68.0096,19.8915,-37.8903,-14.6046,7.12502,-10.9335,-44.2999,7.95139e-15,-3.65764e-14,10.6916,15.9489,69.6593,56.3108,-12.6004,-31.2559,41.3661,7.12502,-4.53023,71.2977,-41.9971,-12.7331,25.6986,79.7324,-31.4221,-3.80548,0.692877,-66.0654,-1.40889,-13.4178,40.4009,21.9862,-15.4662,-29.4416
-9.94182,15.3871,-5.1776,11.6558,15.6807,1.79668,29.6521,1.14963,0.933927,7.38621,2.21883,3.65483,-8.11473,1.08705,2.76744,-18.9956,9.13968,-4.43643,12.1294,14.7119,-6.90934,7.04854,6.24476,0.149737,4.37326e-14,3.02153e-14,-29.7663,-29.6269,-56.6891,68.0583,19.7975,-38.2242,-14.5394,7.12502,-11.2555,-44.2174,4.37326e-14,3.02153e-14,10.9456,15.6452,69.4469,56.7205,-11.8347,-31.8868,46.347,7.12502,-5.13943,76.2647,-41.9928,-12.7945,25.3717,80.2224,-31.5536,-3.29615,1.19078,-66.3338,-1.33185,-13.4436,41.1361,21.8264,-16.6729,-31.4867
-9.88392,15.3617,-5.11845,11.59,15.1639,1.60495,29.6179,1.09646,1.02611,7.47796,2.17159,3.66505,-7.98906,1.06182,2.74275,-19.2365,9.26748,-4.6345,12.2597,14.9479,-6.80508,7.11085,6.3434,0.251999,-2.78299e-14,-8.74653e-15,-29.8562,-29.6847,-56.9492,68.0128,19.336,-38.1106,-14.3168,7.12502,-11.1459,-44.0008,-2.78299e-14,-8.74653e-15,11.0878,15.9393,69.1277,57.0051,-12.4268,-31.0258,41.9263,7.12502,-4.30804,71.8624,-41.9622,-12.5704,25.1996,80.5599,-31.6247,-2.5849,2.49343,-66.5717,-1.11318,-13.2742,42.0516,22.0175,-17.3762,-29.0792
-9.82238,15.3354,-5.05817,11.6692,14.5866,1.63088,29.4973,1.09345,0.950225,7.5009,2.13035,3.60049,-7.90318,1.04146,2.72942,-19.2898,9.37015,-4.7187,12.3367,15.1223,-6.81552,7.14195,6.4155,0.28578,7.4743e-14,-1.59028e-15,-30.0826,-29.6881,-57.0989,67.9935,18.6922,-38.1997,-14.5651,7.12502,-11.2318,-44.2444,7.4743e-14,-1.59028e-15,11.0603,15.5462,68.6942,57.7274,-11.9449,-30.9832,40.7763,7.12502,-4.26693,70.7133,-42.0593,-12.4068,24.7955,80.9482,-31.632,-1.90054,3.4702,-66.8894,-0.975892,-13.2469,43.1747,21.7332,-17.64,-24.5269
-9.76478,15.3208,-4.99378,11.6922,14.0057,1.4825,29.5986,1.10952,1.01807,7.3921,2.16832,3.56874,-8.0733,1.05625,2.6407,-18.295,9.51888,-4.02092,11.3334,15.1278,-7.72358,6.77981,6.46236,-0.165252,1.27222e-14,-3.89618e-14,-30.5237,-29.7529,-57.0601,67.8381,18.4002,-38.2504,-14.9149,7.12502,-11.2807,-44.5916,1.27222e-14,-3.89618e-14,10.8787,15.1757,68.3482,58.3756,-11.6094,-32.6707,52.2201,7.12502,-5.8963,82.1181,-41.8924,-12.1121,24.6121,81.1882,-31.686,-1.75692,3.50454,-67.2241,-0.820078,-13.0091,44.4852,20.6,-17.5756,-22.0426
-9.70255,15.3017,-4.92667,11.5596,13.3672,1.25802,29.9107,1.0721,1.0898,7.29177,2.14863,3.56186,-8.33381,1.04325,2.59734,-15.8122,9.78032,-2.56681,8.61976,15.0052,-9.70954,5.77284,6.55475,-1.17261,6.59965e-14,5.08889e-14,-30.9565,-29.5229,-57.0883,67.7805,18.3198,-38.0635,-15.4503,7.12502,-11.1005,-45.1367,6.59965e-14,5.08889e-14,10.8353,15.521,68.1777,58.4628,-11.7982,-31.7041,47.2829,7.12502,-4.96304,77.2048,-41.4751,-11.7771,24.4707,81.4883,-31.8987,-2.12379,0.496037,-67.4387,-0.615937,-12.6923,45.9284,19.2401,-17.5128,-23.1573
-9.63202,15.2665,-4.85922,11.5119,12.7289,1.17199,30.0098,1.03586,1.15116,7.3044,2.11266,3.50671,-8.36115,1.02296,2.51231,-18.26,9.57193,-4.19704,11.0571,15.1876,-7.61008,6.6616,6.51295,-0.110028,2.78299e-14,-1.66979e-14,-31.1065,-29.5363,-57.254,67.5557,18.038,-38.184,-15.9862,7.12502,-11.2168,-45.6664,2.78299e-14,-1.66979e-14,11.2027,16.0176,68.1282,58.1418,-11.8941,-32.0404,46.9118,7.12502,-5.28773,76.8258,-41.2111,-11.5869,24.1381,81.9324,-32.1183,-2.48379,-4.03383,-67.7959,-0.436684,-12.6075,47.4203,17.913,-17.5849,-24.4196
-9.5612,15.2295,-4.79088,11.4922,12.1356,1.10838,30.0129,1.01713,1.1608,7.33406,2.08455,3.48893,-8.32661,1.00767,2.49705,-16.1302,9.8934,-2.91884,8.64709,15.2363,-9.59812,5.80675,6.65126,-1.04963,-2.22639e-14,1.27222e-14,-31.3009,-29.6263,-57.2431,67.2083,17.9005,-38.0006,-16.6895,7.12502,-11.0399,-46.3791,-2.22639e-14,1.27222e-14,11.2564,15.9931,67.9003,58.7123,-12.0577,-32.3143,50.4537,7.12502,-5.55218,80.3609,-41.1076,-11.4193,23.7517,82.4358,-32.3112,-2.27557,-6.89636,-68.2091,-0.247202,-12.6061,48.9254,16.7759,-17.9574,-25.5542
-9.49927,15.1942,-4.72513,11.3904,11.5699,0.943317,30.1547,1.03004,1.11009,7.35455,2.09143,3.54647,-8.37562,1.00974,2.58869,-15.4485,10.1211,-2.44319,7.98038,15.4406,-10.3866,5.59631,6.77634,-1.37895,8.74653e-15,-2.14687e-14,-31.6029,-29.4898,-57.1182,67.15,18.0915,-37.4824,-23.0356,7.12502,-10.54,-52.7514,8.74653e-15,-2.14687e-14,11.2013,16.0033,67.6947,59.2475,-11.8154,-32.2854,49.3101,7.12502,-5.52429,79.2181,-41.0364,-11.1028,23.5129,82.9534,-32.4072,-1.7869,-7.31164,-68.6006,0.0121284,-12.4832,50.3971,15.9139,-18.2234,-24.8449
-9.43665,15.1495,-4.65834,11.3979,11.033,0.797508,30.2363,1.0437,1.07643,7.33596,2.10142,3.58259,-8.43896,1.0131,2.64548,-15.3883,10.2503,-2.35972,7.89107,15.6105,-10.575,5.58833,6.85625,-1.43353,9.54166e-15,-1.19271e-14,-31.8544,-29.4979,-57.1047,67.071,18.1176,-37.2286,-33.0722,7.12502,-10.2951,-62.8002,9.54166e-15,-1.19271e-14,11.3128,16.029,67.5407,59.4556,-11.7924,-31.7191,46.4808,7.12502,-4.9775,76.4024,-41.1278,-10.786,23.2619,83.5511,-32.523,-1.32686,-7.96035,-69.1964,0.23368,-12.3453,51.8292,15.335,-18.3564,-23.317
-9.36689,15.1113,-4.58879,11.5193,10.526,0.887297,30.1846,1.01584,0.974972,7.35868,2.02562,3.54068,-8.38663,0.977482,2.6849,-15.3477,10.3576,-2.338,7.65778,15.7544,-10.8164,5.53781,6.92744,-1.50062,-4.6118e-14,-4.85035e-14,-32.2571,-29.4791,-57.2039,67.211,17.4823,-37.9769,-38.1351,7.12502,-11.017,-67.826,-4.6118e-14,-4.85035e-14,11.6852,16.4356,67.5634,59.3641,-12.3534,-31.1173,45.63,7.12502,-4.39642,75.5644,-41.2259,-10.6573,22.7165,84.1576,-32.6246,-0.961521,-8.48501,-69.8462,0.280944,-12.4771,53.2205,14.7453,-18.2732,-22.3017
-9.29586,15.0774,-4.51592,11.5453,10.1195,0.936293,30.1199,0.93997,0.94154,7.4425,1.91183,3.5345,-8.25583,0.923215,2.73875,-15.3962,10.4148,-2.3716,7.59263,15.843,-10.8895,5.53321,6.96713,-1.50733,5.56597e-15,-6.36111e-15,-32.6371,-29.423,-57.2448,67.4039,17.0096,-39.2133,-32.4702,7.12502,-12.2093,-62.0939,5.56597e-15,-6.36111e-15,11.9829,16.9713,67.6111,59.2644,-12.6218,-31.4044,46.7679,7.12502,-4.67365,76.6964,-41.1785,-10.6323,22.204,84.7469,-32.5309,-0.447308,-8.43573,-70.3532,0.31518,-12.6487,54.5646,14.021,-18.2145,-21.8674
-9.22373,15.0373,-4.43904,11.4608,9.62291,0.732547,30.1347,0.855332,1.05833,7.50726,1.83973,3.59091,-8.18429,0.885895,2.7609,-15.4942,10.4379,-2.56424,7.67526,15.9062,-10.7409,5.54965,6.99328,-1.42319,2.06736e-14,1.43125e-14,-32.4347,-29.4688,-57.3554,66.9998,17.1953,-39.5518,-14.9148,7.12502,-12.5357,-44.5188,2.06736e-14,1.43125e-14,12.1104,17.3468,67.5716,59.3895,-12.7123,-31.2824,46.8543,7.12502,-4.55584,76.7853,-41.0976,-10.4206,21.9344,85.3403,-32.4855,0.250329,-8.22109,-70.7796,0.448588,-12.4943,55.9136,13.396,-18.0663,-21.3032
-9.15051,14.994,-4.36442,11.4353,9.00828,0.574623,30.2535,0.853498,1.17428,7.50153,1.86663,3.55586,-8.24402,0.894483,2.64447,-15.6195,10.5123,-2.56555,7.72036,16.0183,-10.7332,5.58808,7.04032,-1.40124,3.18055e-15,-2.3059e-14,-32.1768,-29.8297,-57.5538,66.3885,17.5971,-39.9253,-14.5426,7.12502,-12.8958,-44.1241,3.18055e-15,-2.3059e-14,12.1908,17.3801,67.3767,59.6137,-12.7764,-30.9173,43.1618,7.12502,-4.20332,73.1001,-41.1246,-10.1554,21.5844,85.9264,-32.4983,0.961413,-8.43224,-71.2509,0.674958,-12.3978,57.2882,12.5661,-18.0411,-21.4667
-9.07339,14.9688,-4.29639,11.3345,8.43413,0.542041,30.5259,0.783472,1.33638,7.51489,1.81765,3.43989,-8.34781,0.866483,2.43705,-15.5365,10.6256,-2.48953,7.4499,16.1413,-10.9065,5.51586,7.11194,-1.46136,-2.70347e-14,1.35174e-14,-32.191,-30.0973,-57.6926,66.067,17.9098,-39.9661,-14.4742,7.12502,-12.9351,-44.0533,-2.70347e-14,1.35174e-14,12.137,17.5568,67.0843,59.89,-13.0423,-30.4272,46.5279,7.12502,-3.72996,76.475,-41.0522,-9.97933,21.0341,86.432,-32.399,2.08219,-7.40537,-71.5668,0.721246,-12.3741,58.7422,11.5562,-17.8849,-21.5811
-9.00262,14.9341,-4.22114,11.1755,7.78213,0.528074,30.7827,0.828555,1.24697,7.522,1.84858,3.42193,-8.46523,0.879644,2.45721,-15.1164,10.7788,-2.29865,7.16487,16.2954,-11.2427,5.41037,7.2049,-1.59938,7.15625e-15,-2.46493e-14,-32.4471,-30.1595,-57.5371,65.9948,18.1609,-39.6138,-15.0977,7.12502,-12.5955,-44.698,7.15625e-15,-2.46493e-14,12.004,17.6624,66.9247,60.2485,-13.1853,-30.5285,46.7651,7.12502,-3.82779,76.7105,-40.8738,-9.71354,20.5025,87.0086,-32.4564,2.6095,-7.55016,-71.8086,0.939995,-12.4467,60.2534,10.3802,-17.7731,-22.2674
-8.9279,14.8435,-4.16699,12.0759,5.7351,-0.017064,29.7999,1.4945,0.853108,7.36547,2.53518,3.4442,-8.21655,1.20244,2.46684,-14.8599,10.9043,-2.44272,7.07349,16.4617,-11.2278,5.33413,7.29995,-1.57421,3.97569e-15,-1.27222e-14,-32.6867,-30.1016,-57.3581,65.8841,17.965,-39.2223,-16.1992,7.12502,-12.218,-45.8223,3.97569e-15,-1.27222e-14,11.8244,17.8429,66.8588,60.5266,-13.2477,-30.6339,45.5682,7.12502,-3.92962,75.5117,-42.6444,-7.98898,20.4562,88.0131,-32.0536,3.11891,-7.94124,-73.4033,2.53421,-12.0322,61.9287,9.41445,-17.418,-22.7901
-8.85512,14.7834,-4.09569,12.3567,4.66882,0.0519127,29.5378,1.7481,0.391754,7.31752,2.70786,3.42143,-8.17128,1.2879,2.64957,-14.9323,10.9551,-2.80847,7.17486,16.5912,-11.0443,5.33719,7.35629,-1.45092,-2.70347e-14,-1.03368e-14,-32.9912,-29.94,-57.1457,65.7047,17.5508,-38.9677,-17.3307,7.12502,-11.9725,-46.9683,-2.70347e-14,-1.03368e-14,11.6946,18.1946,66.8138,60.4764,-13.3693,-30.9255,43.3291,7.12502,-4.21124,73.2672,-43.3242,-7.4653,19.8067,88.8964,-31.8668,3.81817,-8.52626,-74.0996,3.13767,-12.2415,63.397,8.3175,-17.2443,-22.8196
-8.7804,14.7394,-4.02128,12.264,4.33516,0.138155,29.6667,1.63505,0.405964,7.36734,2.56473,3.39511,-8.1679,1.21886,2.66186,-14.8348,11.0433,-2.73024,7.0976,16.7164,-11.3214,5.33552,7.40978,-1.53631,-1.03368e-14,-1.51076e-14,-33.0563,-29.9761,-57.1067,65.4124,17.5049,-38.9784,-17.3194,7.12502,-11.9828,-46.9564,-1.03368e-14,-1.51076e-14,11.8251,18.4694,66.7332,60.3946,-13.5305,-31.3322,42.5019,7.12502,-4.60393,72.4319,-43.426,-7.66579,19.2127,89.6755,-31.6926,4.92119,-7.5699,-74.3747,3.16264,-12.4805,64.7218,7.1351,-17.3184,-23.296
-8.71168,14.6913,-3.95301,12.2814,4.21043,0.0905151,29.6991,1.44941,0.575649,7.37815,2.38019,3.41036,-8.15624,1.12917,2.64672,-14.5968,11.2335,-2.32173,6.97214,16.9345,-11.8329,5.34986,7.51064,-1.73346,-2.38542e-15,-2.06736e-14,-33.2084,-30.0662,-57.154,65.4361,17.5112,-39.0996,-16.4141,7.12502,-12.0997,-46.0443,-2.38542e-15,-2.06736e-14,11.8814,18.4397,66.5691,60.6795,-13.2018,-31.7398,46.0402,7.12502,-4.99749,75.9613,-43.3916,-7.98154,18.8673,90.3258,-31.7088,5.27152,-8.41398,-74.7727,3.17291,-12.5942,65.8612,6.19217,-17.4636,-23.8844
-8.63928,14.6436,-3.88524,12.287,3.86234,0.127389,29.9209,1.34921,0.591592,7.289,2.26178,3.39176,-8.35725,1.07243,2.65762,-14.3197,11.3458,-2.17687,6.83558,17.0568,-12.0807,5.30367,7.57839,-1.83118,1.03368e-14,2.62396e-14,-33.565,-29.9367,-57.0856,65.4443,17.3958,-39.2504,-16.0635,7.12502,-12.2451,-45.685,1.03368e-14,2.62396e-14,11.5893,18.3111,66.2479,61.0645,-12.7305,-32.4448,51.7171,7.12502,-5.67818,81.6211,-43.533,-8.1447,18.3788,90.9604,-31.5387,5.72356,-8.42216,-75.1044,3.29733,-12.8105,66.9465,5.20981,-17.5437,-24.3424
-8.5587,14.6098,-3.80914,12.1996,3.48394,0.154257,30.226,1.2274,0.756567,7.20975,2.15785,3.33773,-8.58122,1.01964,2.5371,-14.2207,11.3842,-2.26167,6.75671,17.1011,-12.0426,5.25397,7.60984,-1.8121,-2.78299e-14,-5.24792e-14,-33.7437,-29.9602,-56.9563,65.0695,17.6235,-39.515,-15.6584,7.12502,-12.5002,-45.2645,-2.78299e-14,-5.24792e-14,11.4064,18.4419,66.1238,61.0801,-12.7041,-31.0977,42.3839,7.12502,-4.3775,72.3186,-43.489,-8.30576,17.7981,91.4338,-31.3283,6.54516,-8.06295,-75.2162,3.40383,-13.0598,67.9905,4.16847,-17.4423,-24.0846
-8.4765,14.5844,-3.71992,11.9521,3.06419,0.0634774,30.2896,1.12274,1.00872,7.39501,2.09185,3.33624,-8.38873,0.982375,2.41304,-14.4536,11.4263,-2.35873,6.79746,17.2088,-12.1374,5.31216,7.64138,-1.80057,1.11319e-14,1.98785e-14,-33.6769,-30.0704,-56.9156,64.8401,17.6017,-39.6517,-15.3669,7.12502,-12.632,-44.9649,1.11319e-14,1.98785e-14,11.4955,18.8768,66.1989,61.0126,-13.0267,-31.6435,45.4698,7.12502,-4.90448,75.393,-43.0055,-8.36946,17.2704,91.7022,-31.1553,7.55771,-6.96826,-75.0522,3.57506,-13.2691,68.9518,3.15739,-17.2122,-23.9318
-8.40278,14.5543,-3.6319,11.4755,2.49492,-0.0882961,30.6383,1.10293,1.04336,7.65234,2.07858,3.39858,-8.26223,0.972086,2.46689,-14.6787,11.4628,-2.50047,6.79653,17.3143,-12.2535,5.35444,7.6724,-1.79104,-1.59028e-15,-9.54166e-15,-33.5839,-30.0277,-56.9756,64.8825,17.3704,-39.6624,-14.9149,7.12502,-12.6423,-44.5123,-1.59028e-15,-9.54166e-15,11.837,20.1888,66.4983,60.44,-14.7356,-28.9242,38.3145,7.12502,-2.27853,68.282,-42.3692,-8.16244,16.8074,91.9389,-30.9875,8.33499,-7.05568,-74.6486,3.96251,-13.4349,69.9145,2.28566,-16.9068,-23.35
-8.35253,14.5501,-3.52799,10.6482,3.49321,0.291521,31.513,0.493752,1.18214,7.71056,1.39415,3.46844,-8.57927,0.652391,2.72032,-14.4495,11.5362,-2.37433,6.83789,17.3913,-12.3437,5.35316,7.71284,-1.8375,3.97569e-15,-1.90833e-14,-33.7329,-29.9447,-56.9091,64.7929,17.0574,-39.4826,-14.2099,7.12502,-12.469,-43.8179,3.97569e-15,-1.90833e-14,11.5317,19.6695,66.1843,60.9047,-13.7869,-30.5168,41.4983,7.12502,-3.81655,71.4439,-40.754,-9.43245,16.0629,92.0612,-31.0511,9.28711,-5.97932,-73.7881,3.08637,-14.0463,70.6645,1.37325,-16.9754,-22.3916
-8.28757,14.5226,-3.44188,10.4177,3.61486,0.39631,32.2114,0.198701,1.38693,7.13107,1.11694,3.55437,-8.80852,0.495795,2.60615,-14.0895,11.6054,-2.24944,6.91464,17.4752,-12.5453,5.35355,7.75213,-1.92157,4.77083e-15,-2.70347e-14,-33.9259,-30.0273,-56.7308,64.412,17.0974,-39.5307,-13.5451,7.12502,-12.5154,-43.1503,4.77083e-15,-2.70347e-14,11.1351,19.5394,65.933,60.9912,-13.5462,-31.6649,42.1392,7.12502,-4.92516,72.062,-40.2113,-9.87182,15.5107,92.2658,-30.9508,9.90158,-5.55759,-73.6906,2.95485,-14.4704,71.5463,0.622869,-16.7451,-21.4587
-8.21726,14.4804,-3.36758,10.4413,2.9929,0.291555,32.3695,0.245953,1.40381,7.02271,1.18655,3.56015,-8.99273,0.525427,2.57859,-14.1533,11.5864,-2.46035,7.04513,17.4866,-12.3881,5.37227,7.74973,-1.83933,9.54166e-15,-7.95139e-16,-33.948,-30.216,-56.655,64.1425,17.1669,-39.4803,-12.8376,7.12502,-12.4667,-42.4458,9.54166e-15,-7.95139e-16,11.1799,19.7586,65.9637,60.6013,-13.5559,-32.0273,43.3266,7.12502,-5.27513,73.2409,-39.9832,-9.6298,15.1772,92.2744,-31.1296,9.22799,-9.37857,-73.9515,3.45047,-14.7484,72.5409,-0.119845,-16.3448,-21.19
-8.14723,14.4442,-3.29107,10.4265,2.52614,0.050215,32.4466,0.215914,1.62766,7.04455,1.22396,3.60649,-8.99589,0.536736,2.49418,-14.2636,11.5214,-2.62203,7.03394,17.4153,-12.2588,5.35688,7.71521,-1.78211,-6.36111e-15,-3.97569e-14,-33.9976,-30.3073,-56.6154,64.0241,16.8949,-39.6253,-11.9364,7.12502,-12.6066,-41.536,-6.36111e-15,-3.97569e-14,11.1162,19.8923,65.9619,60.5888,-13.458,-31.9509,43.0188,7.12502,-5.20129,72.9349,-39.5945,-9.4323,14.9886,92.2612,-31.3479,8.56172,-12.6378,-74.2297,3.87174,-14.9035,73.5747,-0.846816,-16.0164,-21.2117
-8.08226,14.4177,-3.21238,10.3445,2.10396,-0.0435596,32.3331,0.208227,1.62513,7.18973,1.2065,3.66786,-8.79298,0.527169,2.56682,-14.1059,11.5421,-2.60832,6.86059,17.4233,-12.3896,5.29123,7.73047,-1.83501,9.54166e-15,3.18055e-14,-34.0047,-30.2071,-56.5923,64.0283,16.592,-39.7578,-11.8968,7.12502,-12.7343,-41.4885,9.54166e-15,3.18055e-14,10.7792,19.9863,65.798,61.0498,-13.2435,-31.3478,40.8819,7.12502,-4.61894,70.8115,-39.2913,-9.21682,14.6049,92.3896,-31.3409,8.84719,-12.9842,-74.354,4.19973,-15.1763,74.5452,-1.3796,-15.7007,-20.9592
-8.0176,14.3943,-3.13733,10.3614,1.707,0.0178965,31.8417,0.237753,1.50466,7.75124,1.18197,3.60774,-8.67437,0.541932,2.77508,-14.0847,11.5724,-2.54354,6.74657,17.4661,-12.613,5.28239,7.74798,-1.90796,-1.59028e-15,1.35174e-14,-33.7733,-30.3326,-56.5922,63.8513,16.52,-39.8917,-12.4669,7.12502,-12.8634,-42.0505,-1.59028e-15,1.35174e-14,10.8916,20.1388,65.8975,61.1269,-13.2643,-31.2017,39.8919,7.12502,-4.47787,69.8246,-39.2277,-9.05443,14.069,92.6331,-31.348,9.15757,-13.4384,-74.5509,4.40432,-15.5604,75.458,-1.6501,-15.3142,-20.5498
-7.95469,14.3639,-3.06702,10.4799,1.56163,0.0166737,31.7422,0.108434,1.64173,7.773,1.05472,3.59295,-8.59446,0.479916,2.72559,-14.4204,11.5749,-2.6815,6.89615,17.5119,-12.4244,5.35611,7.7535,-1.80673,1.59028e-15,-1.82882e-14,-33.63,-30.6675,-56.6872,63.6921,16.4988,-39.5752,-13.1188,7.12502,-12.5583,-42.7214,1.59028e-15,-1.82882e-14,11.1733,20.1734,65.8621,60.963,-13.1694,-31.1503,41.3665,7.12502,-4.42823,71.3002,-39.3943,-9.079,13.6143,92.9985,-31.1331,10.2477,-11.7602,-74.9885,4.47097,-15.8637,76.3983,-1.97244,-15.192,-21.1778
-7.89309,14.3328,-2.99704,10.532,1.52745,0.0414359,32.183,-0.0911503,1.80594,7.24272,0.873948,3.64919,-8.658,0.368001,2.5699,-14.5057,11.6391,-2.61374,7.01451,17.6114,-12.4529,5.42089,7.78851,-1.80492,7.95139e-15,4.77083e-15,-33.7056,-30.6048,-56.7707,63.7296,16.1559,-39.248,-13.9974,7.12502,-12.2428,-43.619,7.95139e-15,4.77083e-15,11.3045,20.2241,65.7784,60.7371,-12.9792,-31.0465,42.2065,7.12502,-4.328,72.1423,-39.3994,-9.12903,13.0827,93.3689,-30.742,11.8155,-8.81779,-75.3756,4.35569,-16.1,77.3035,-2.26069,-15.1714,-21.9812
-7.83954,14.2997,-2.92893,10.5189,1.45123,0.0112296,32.4331,-0.180785,1.827,7.13206,0.790165,3.72487,-8.87734,0.327241,2.6707,-14.2522,11.6662,-2.49703,6.74781,17.609,-12.7229,5.33272,7.80309,-1.92104,-4.77083e-15,-7.95139e-16,-33.8041,-30.5011,-56.738,63.8459,15.7921,-39.3415,-14.2545,7.12502,-12.3329,-43.8707,-4.77083e-15,-7.95139e-16,11.3651,20.4596,65.9691,60.5845,-12.9744,-30.9764,41.8885,7.12502,-4.26031,71.8256,-39.1287,-9.14249,12.766,93.6033,-30.668,12.0901,-8.19663,-75.7085,4.3372,-16.1964,78.1591,-2.41667,-15.2133,-22.2209
-7.77004,14.2708,-2.868,10.5483,1.39669,0.407746,32.5316,-0.315413,1.75932,7.15605,0.591061,3.62388,-8.881,0.236032,2.67242,-14.1837,11.6482,-2.49961,6.51036,17.5516,-12.7556,5.24678,7.79406,-1.94735,-9.54166e-15,2.38542e-14,-33.6117,-30.8047,-56.7776,63.7144,15.7712,-39.3101,-14.637,7.12502,-12.3027,-44.2551,-9.54166e-15,2.38542e-14,11.7104,20.6562,66.2486,60.4485,-13.0087,-30.8837,42.7156,7.12502,-4.17079,72.6546,-38.8007,-9.44302,11.8894,93.754,-30.8594,11.9647,-8.97797,-75.978,4.06015,-16.7884,78.91,-2.4509,-15.1975,-22.4447
-7.67901,14.2604,-2.81251,10.6907,1.27811,1.22191,32.5029,-0.530383,1.58955,7.22148,0.228639,3.31022,-8.78048,0.0719167,2.5614,-14.4795,11.6383,-2.81961,6.46196,17.5701,-12.4631,5.22395,7.80612,-1.80351,8.74653e-15,9.54166e-15,-33.2197,-31.1576,-57.0095,63.3883,15.876,-39.1827,-14.8331,7.12502,-12.1798,-44.4585,8.74653e-15,9.54166e-15,12.2004,20.8011,66.3486,60.131,-12.96,-30.9498,43.6093,7.12502,-4.23469,73.5469,-38.7847,-9.80358,10.2052,93.9906,-30.5838,13.6615,-6.90749,-76.1796,3.49037,-17.9067,79.587,-2.53397,-14.894,-22.7158
-7.62545,14.2476,-2.74777,10.6976,0.9538,1.25408,32.5841,-0.515612,1.48723,7.31294,0.208924,3.29413,-8.71206,0.062625,2.60616,-15.0315,11.6186,-3.03255,6.64092,17.6107,-12.1951,5.32706,7.80169,-1.65695,-7.15625e-15,2.22639e-14,-33.0352,-31.1989,-57.1589,63.2483,15.7941,-39.4034,-15.02,7.12502,-12.3926,-44.6326,-7.15625e-15,2.22639e-14,12.6808,20.9633,66.4402,59.6231,-13.0561,-31.2882,42.3902,7.12502,-4.56141,72.321,-38.8726,-9.43654,9.70693,94.2538,-30.2677,14.5023,-6.44099,-76.3183,3.59614,-18.0529,80.2633,-2.74155,-14.9926,-23.0292
-7.62666,14.2111,-2.66542,10.3632,0.2984,-0.0510272,32.8699,-0.175422,1.59714,7.45712,0.722677,3.80636,-8.69544,0.291831,2.90487,-15.0248,11.6539,-2.87959,6.53286,17.641,-12.3928,5.32652,7.81502,-1.73446,-7.95139e-16,-1.59028e-14,-33.149,-30.8368,-57.2208,63.5064,15.3573,-39.3883,-15.5898,7.12502,-12.3781,-45.2033,-7.95139e-16,-1.59028e-14,12.9322,21.17,66.5739,59.2087,-13.0759,-31.6843,42.1447,7.12502,-4.94386,72.067,-38.4218,-7.98147,11.2946,94.265,-30.1829,13.1246,-8.70074,-76.4091,4.81444,-16.6014,81.1833,-2.93126,-15.6022,-23.6578
-7.54191,14.2029,-2.60556,10.531,0.197365,0.738998,32.9505,-0.332085,1.36526,7.33059,0.431412,3.55129,-8.85152,0.162345,2.86638,-14.9054,11.6342,-2.70051,6.60984,17.6043,-12.5547,5.36155,7.78899,-1.81303,1.43125e-14,-1.82882e-14,-33.1954,-30.832,-57.1641,63.3055,15.1415,-39.2159,-14.7502,7.12502,-12.2119,-44.3737,1.43125e-14,-1.82882e-14,13.291,21.2895,66.7826,58.8408,-13.0885,-32.0589,44.4736,7.12502,-5.30558,74.3872,-38.368,-8.52533,9.9551,94.12,-30.1723,13.0531,-10.4529,-76.5449,4.2119,-17.6868,81.7836,-3.3136,-15.0683,-24.0521
-7.52145,14.1748,-2.53648,10.2977,-0.342388,-0.43315,33.0439,-0.131146,1.7667,7.50778,0.848451,3.96379,-8.71334,0.34341,2.93598,-15.4096,11.4645,-3.07282,7.1082,17.4811,-12.0586,5.51404,7.69338,-1.59014,0,-3.89618e-14,-33.1285,-31.0021,-57.0599,62.7989,14.9999,-39.3072,-12.8191,7.12502,-12.2999,-42.4373,0,-3.89618e-14,13.5946,21.4159,67.0956,58.7073,-13.304,-31.8967,44.6076,7.12502,-5.14896,74.5251,-38.2684,-7.23547,11.1867,94.2361,-29.5245,13.245,-8.84688,-76.6087,5.17859,-16.5237,82.5657,-3.64907,-15.3165,-24.3516
-7.47588,14.159,-2.47449,10.4468,-0.70187,-0.146508,32.9524,0.010752,1.32788,7.51368,0.87554,3.95359,-8.68295,0.361445,3.15015,-15.908,11.2995,-3.39056,7.5449,17.3497,-11.5871,5.6543,7.59975,-1.38461,8.74653e-15,2.8625e-14,-33.0955,-30.9632,-56.9905,62.536,14.8474,-39.3699,-11.991,7.12502,-12.3603,-41.6056,8.74653e-15,2.8625e-14,13.5077,21.3828,67.1832,58.9152,-13.4778,-31.2134,43.2761,7.12502,-4.4892,73.2085,-38.4157,-6.8536,10.4278,94.4995,-29.0414,14.5,-5.67067,-76.7122,5.31569,-17.0316,83.0404,-3.98567,-15.1247,-23.633
-7.40204,14.1531,-2.41352,10.6777,-0.693613,0.644836,32.8784,-0.137281,1.11238,7.41805,0.591937,3.66706,-8.74174,0.236195,3.06543,-15.9289,11.2264,-3.31173,7.5709,17.2283,-11.5083,5.65925,7.54522,-1.38363,5.56597e-15,-3.73715e-14,-33.0334,-31.3271,-57.056,62.1431,15.0754,-39.5261,-12.221,7.12502,-12.5109,-41.8264,5.56597e-15,-3.73715e-14,13.336,21.1264,67.0607,59.1462,-13.5079,-31.0447,43.4738,7.12502,-4.32628,73.4096,-38.1516,-7.34727,8.97363,94.4595,-29.0261,15.471,-2.8188,-76.7619,4.69259,-18.1833,83.4505,-4.67277,-14.5229,-23.8337
-7.36627,14.1371,-2.3473,10.6982,-0.838785,0.148498,32.8668,-0.193688,1.44721,7.44662,0.639793,3.78873,-8.70485,0.251569,2.99741,-15.6604,11.2609,-3.07109,7.35649,17.2071,-11.7132,5.58647,7.55354,-1.4989,-7.15625e-15,4.29375e-14,-32.9462,-31.4074,-57.2048,61.8905,15.1245,-39.4071,-12.4435,7.12502,-12.3961,-42.0559,-7.15625e-15,4.29375e-14,12.932,20.8739,66.7437,59.4562,-12.9735,-31.6472,42.1391,7.12502,-4.90807,72.0623,-38.0508,-7.05317,9.40639,94.4423,-28.6853,15.5944,-1.2318,-76.8022,4.90545,-17.7856,83.9273,-5.09849,-14.3754,-23.8546
-7.32925,14.1216,-2.27916,10.7849,-1.10937,-0.241206,32.7727,-0.156618,1.59506,7.44898,0.741604,3.91544,-8.67068,0.294898,3.01528,-15.4721,11.2797,-2.94281,7.23305,17.196,-11.8493,5.54019,7.55871,-1.57083,2.38542e-15,-4.77083e-15,-33.101,-31.1346,-57.2872,62.0895,14.714,-39.2144,-12.7526,7.12502,-12.2104,-42.3762,2.38542e-15,-4.77083e-15,12.996,20.7212,66.7234,59.3979,-12.9335,-31.4126,42.3725,7.12502,-4.68157,72.3007,-38.085,-6.63946,9.70121,94.3707,-28.629,15.3843,-1.96554,-76.8696,5.21422,-17.5292,84.3974,-5.37247,-14.2285,-22.6782
-7.28208,14.1108,-2.21495,10.767,-1.59341,-0.283632,32.8888,-0.0414234,1.47429,7.41068,0.845808,3.89365,-8.76469,0.343411,3.01998,-15.1483,11.3044,-2.70013,7.01212,17.1614,-12.0775,5.45836,7.56176,-1.69775,1.90833e-14,-1.43125e-14,-33.0333,-31.0724,-57.3918,61.8461,14.7335,-39.142,-12.4696,7.12502,-12.1406,-42.0973,1.90833e-14,-1.43125e-14,13.2146,20.6845,66.7503,58.9944,-13.1154,-31.1272,42.6108,7.12502,-4.40597,72.545,-37.7857,-6.22083,9.47638,94.0859,-28.9664,14.8513,-4.20288,-76.7273,5.53561,-17.7491,84.8382,-5.94476,-13.9468,-22.7485
-7.23582,14.1162,-2.15349,10.7305,-1.90594,-0.40191,32.9357,-0.00652204,1.53148,7.48865,0.904898,3.91057,-8.69879,0.368025,2.98548,-15.0708,11.2784,-2.57662,6.82699,17.0948,-12.2417,5.41066,7.53808,-1.7788,-1.19271e-14,2.06736e-14,-32.7155,-31.4068,-57.5037,61.3354,15.0127,-38.9659,-11.9759,7.12502,-11.9708,-41.6136,-1.19271e-14,2.06736e-14,13.304,20.675,66.8004,58.9221,-13.2057,-31.2039,43.5504,7.12502,-4.48004,73.4831,-37.3365,-5.87994,9.318,93.7355,-29.0939,14.8163,-5.21421,-76.5065,5.63997,-17.8016,85.1665,-6.37002,-13.6225,-22.8587
-7.19407,14.1181,-2.09492,10.9012,-2.00292,-0.42439,32.7585,-0.0492434,1.44842,7.49853,0.827916,4.01193,-8.62096,0.332659,3.16503,-15.0872,11.2886,-2.63593,6.7698,17.1249,-12.3302,5.40107,7.5487,-1.79388,-3.10104e-14,1.59028e-14,-32.5307,-31.1614,-57.6311,61.4471,14.612,-39.0443,-13.1543,7.12502,-12.0464,-42.7876,-3.10104e-14,1.59028e-14,12.9684,20.8566,66.7827,59.0495,-13.0352,-31.5108,42.5036,7.12502,-4.77638,72.4298,-37.172,-5.76862,9.07463,93.511,-29.1495,15.1037,-5.69629,-76.5801,5.55567,-17.9172,85.4901,-6.76695,-13.4309,-23.4367
-7.15987,14.1022,-2.04568,11.0588,-2.04806,-0.634044,32.7442,-0.121175,1.51885,7.47806,0.774686,4.14574,-8.63819,0.305648,3.28891,-14.9688,11.3157,-2.77592,6.55391,17.1564,-12.3802,5.30877,7.57871,-1.79906,7.95139e-16,7.95139e-15,-32.2797,-30.8116,-57.9254,61.753,13.9761,-39.1848,-14.7391,7.12502,-12.1818,-44.3644,7.95139e-16,7.95139e-15,13.0214,20.9252,66.8507,59.2546,-13.2751,-30.7804,43.7044,7.12502,-4.07105,73.6452,-37.1392,-5.64315,9.13545,93.3792,-29.0896,15.1729,-6.14083,-76.8196,5.61602,-17.7939,85.8503,-7.07071,-13.5173,-24.4475
-7.12225,14.0952,-1.98925,11.1055,-2.31309,-0.864278,32.8833,-0.108799,1.67167,7.43482,0.84405,4.14413,-8.73949,0.334428,3.18117,-15.0853,11.2691,-2.73849,6.6709,17.1006,-12.3116,5.35819,7.54256,-1.78041,6.36111e-15,-2.14687e-14,-32.2279,-30.8517,-58.067,61.573,13.6902,-38.5663,-15.2792,7.12502,-11.5854,-44.939,6.36111e-15,-2.14687e-14,13.2996,20.8887,66.8838,59.1351,-13.4543,-30.791,43.7844,7.12502,-4.08134,73.7251,-36.9059,-5.20264,9.16874,93.138,-29.1675,15.0748,-6.28464,-76.8662,5.83986,-17.6547,86.2047,-7.26289,-13.5847,-24.0998
-7.07787,14.1016,-1.92477,11.112,-2.59689,-1.01205,32.9482,-0.114716,1.77895,7.45429,0.869846,4.14139,-8.74157,0.34327,3.11165,-15.3113,11.2369,-2.81792,6.79037,17.0861,-12.1827,5.41277,7.52342,-1.71813,-1.11319e-14,6.2816e-14,-32.2226,-30.9361,-58.1638,61.4258,13.6493,-39.8081,-21.0255,7.12502,-12.7828,-50.6142,-1.11319e-14,6.2816e-14,13.1337,20.9117,66.7313,59.1244,-13.1939,-31.6347,42.8611,7.12502,-4.89603,72.7845,-36.4899,-4.841,9.04489,92.7755,-29.3274,15.0017,-6.97781,-76.7078,5.98427,-17.6485,86.4925,-7.63893,-13.5317,-24.2436
-7.03396,14.1091,-1.85733,11.2825,-2.84721,-1.08982,32.6472,-0.13098,1.81317,7.51697,0.843584,4.14451,-8.55341,0.330232,3.10447,-15.21,11.2762,-2.69477,6.5848,17.1132,-12.4257,5.36718,7.54272,-1.81365,-7.95139e-16,-3.33958e-14,-32.1884,-30.9247,-58.299,61.4111,13.5907,-37.7284,-14.7991,7.12502,-10.7773,-44.5026,-7.95139e-16,-3.33958e-14,12.9117,21.2091,66.6269,59.19,-13.5907,-30.7721,39.7805,7.12502,-4.06303,69.7215,-36.2324,-4.56606,8.84182,92.4195,-29.4625,15.1881,-7.67141,-76.6447,6.0382,-17.6861,86.7157,-8.05514,-13.4811,-24.5567
-6.99432,14.1163,-1.79705,11.4193,-3.07392,-1.28068,32.517,-0.16684,1.94058,7.54784,0.828954,4.13193,-8.46427,0.320997,3.02744,-15.2566,11.3192,-2.39706,6.53946,17.1457,-12.6827,5.41242,7.54908,-1.92338,3.18055e-15,-2.14687e-14,-32.05,-30.942,-58.5103,61.2456,13.5261,-37.6535,-28.8921,7.12502,-10.7051,-58.5994,3.18055e-15,-2.14687e-14,12.8334,20.8756,66.4153,59.4292,-12.9481,-32.0166,44.2302,7.12502,-5.26472,74.1448,-36.121,-4.24886,8.76416,92.2122,-29.1793,15.9127,-6.29889,-76.5571,6.11238,-17.5989,86.8741,-8.40109,-13.3495,-24.6363
-6.95267,14.1268,-1.73718,11.6124,-3.24633,-1.33263,32.4664,-0.174388,1.99812,7.46992,0.8402,4.14761,-8.52956,0.325307,3.00966,-15.2338,11.3107,-2.33284,6.5138,17.1263,-12.7537,5.4121,7.53899,-1.95669,1.98785e-14,-2.38542e-15,-32.003,-30.9181,-58.5799,61.2871,13.1928,-40.0838,-17.4206,7.12502,-13.0486,-46.9924,1.98785e-14,-2.38542e-15,12.8872,20.9544,66.5516,59.3766,-13.3519,-31.869,45.4475,7.12502,-5.12224,75.3656,-36.1357,-4.09487,8.5106,92.1121,-28.9159,16.5659,-4.99759,-76.4832,6.07771,-17.7067,86.9952,-8.91366,-13.1526,-24.6937
-6.91166,14.1284,-1.67696,11.7196,-3.3351,-1.38681,32.4111,-0.256264,2.05812,7.40467,0.760817,4.1822,-8.57591,0.287321,3.04313,-14.978,11.3994,-2.30886,6.34357,17.2116,-12.8367,5.33114,7.5996,-1.99358,-6.36111e-15,3.89618e-14,-31.8995,-30.7656,-58.7063,61.2102,13.1893,-37.4122,-15.744,7.12502,-10.4723,-45.4632,-6.36111e-15,3.89618e-14,12.6281,21.0074,66.4481,59.4923,-13.3915,-31.4533,44.0943,7.12502,-4.72083,74.0218,-35.8144,-4.00809,8.2596,91.8866,-28.951,17.0374,-3.81506,-76.2961,6.01592,-17.8441,87.1249,-9.61002,-12.8558,-25.4442
-6.87707,14.1289,-1.61683,11.8082,-3.60654,-1.42579,32.3195,-0.236572,1.94958,7.35506,0.747213,4.18226,-8.59642,0.282073,3.10641,-14.8083,11.4779,-2.34462,6.25839,17.2956,-12.802,5.27412,7.65575,-1.98162,1.66979e-14,5.08889e-14,-31.9628,-30.6854,-58.7468,61.0498,13.4908,-37.7128,-15.4786,7.12502,-10.7622,-45.1829,1.66979e-14,5.08889e-14,12.2614,21.0093,66.2624,59.6209,-13.2617,-31.0517,42.1306,7.12502,-4.3331,72.0663,-35.4358,-3.82647,8.0698,91.5084,-29.1594,16.9209,-4.20924,-76.0643,6.18303,-18.0525,87.2229,-10.3337,-12.4576,-25.2469
-6.84291,14.1328,-1.55421,12.0351,-3.81878,-1.35661,32.0967,-0.183144,1.82496,7.29849,0.765609,4.16783,-8.57386,0.293125,3.15079,-14.9437,11.4165,-2.39618,6.40826,17.2445,-12.7497,5.33153,7.61528,-1.95321,2.38542e-15,-1.98785e-14,-32.0806,-30.7368,-58.7256,61.0425,13.7054,-37.6487,-16.2481,7.12502,-10.7004,-45.9556,2.38542e-15,-1.98785e-14,12.1024,21.0313,66.2973,59.6761,-13.2106,-30.66,41.5634,7.12502,-3.95478,71.5064,-35.1504,-3.82836,7.81252,90.9997,-29.4867,16.5474,-6.15241,-75.9491,6.22307,-18.3966,87.2674,-11.1369,-11.893,-24.7322
-6.8081,14.1393,-1.48948,12.3142,-3.93429,-1.55032,31.5478,-0.21669,1.92792,7.64785,0.738275,4.09703,-8.63622,0.308053,3.25752,-14.9172,11.3801,-2.32288,6.44812,17.1866,-12.7656,5.34443,7.58509,-1.97432,-2.06736e-14,1.03368e-14,-31.8798,-30.9211,-58.8715,60.8133,13.9367,-37.8715,-13.7452,7.12502,-10.9153,-43.4414,-2.06736e-14,1.03368e-14,11.9954,21.1673,66.2531,59.5499,-13.0877,-30.8965,42.0754,7.12502,-4.18318,72.0141,-34.9145,-3.73261,7.873,90.474,-29.4955,16.3561,-7.22823,-75.8962,6.24884,-18.4666,87.3212,-11.7324,-11.2999,-23.6138
-6.76989,14.1513,-1.42565,12.4723,-4.13707,-1.85544,31.3766,-0.231091,2.12791,7.62536,0.780788,4.16949,-8.5813,0.324071,3.2054,-14.6069,11.4121,-2.12912,6.25021,17.1782,-13.0101,5.27149,7.59744,-2.09483,-3.97569e-14,-3.73715e-14,-31.7014,-31.1739,-58.9117,60.5445,14.2938,-37.6661,-15.241,7.12502,-10.7172,-44.9476,-3.97569e-14,-3.73715e-14,11.8827,21.2859,66.2198,59.4587,-12.9763,-31.2211,42.1341,7.12502,-4.49664,72.0664,-34.4231,-3.4549,7.97729,89.9365,-29.9141,15.688,-10.0507,-75.73,6.34459,-18.4284,87.4083,-12.1883,-10.7067,-22.496
-6.73113,14.1796,-1.36197,12.4602,-4.19105,-1.99673,31.4378,-0.319479,2.27561,7.64089,0.717804,4.18566,-8.58768,0.291738,3.1626,-14.5744,11.4691,-2.00215,6.03499,17.2194,-13.1599,5.22623,7.6282,-2.15881,-1.59028e-15,1.51076e-14,-31.7343,-31.1375,-58.9274,60.681,14.323,-36.9926,-17.7941,7.12502,-10.0675,-47.5333,-1.59028e-15,1.51076e-14,11.6917,21.4816,66.2365,59.5556,-13.034,-30.4889,38.8567,7.12502,-3.78959,68.8028,-34.2702,-3.34008,8.06466,89.3167,-28.9913,16.4633,-8.32067,-75.2814,6.2763,-18.5405,87.4292,-12.7192,-10.1112,-22.6575
-6.70177,14.1932,-1.30218,12.5113,-4.20454,-2.15844,31.4912,-0.357422,2.34171,7.60219,0.70194,4.25217,-8.6566,0.283334,3.20813,-14.6716,11.4754,-1.89253,6.03351,17.2214,-13.2194,5.25684,7.62316,-2.18531,-1.11319e-14,-5.56597e-15,-31.8175,-30.8821,-59.0124,60.9888,14.0697,-36.9907,-19.357,7.12502,-10.0657,-49.0963,-1.11319e-14,-5.56597e-15,11.4702,21.6193,66.2832,59.6845,-13.1539,-31.254,44.9814,7.12502,-4.52839,74.913,-33.5382,-3.15529,8.07496,88.811,-29.3865,16.1658,-8.47692,-75.0462,6.22672,-18.5782,87.5367,-13.1791,-9.54184,-23.634
-6.67544,14.2086,-1.24242,12.6927,-4.29567,-2.61267,31.4047,-0.377773,2.54844,7.53494,0.755851,4.41776,-8.69449,0.30506,3.25696,-14.5631,11.4498,-1.92329,5.93964,17.1677,-13.1898,5.20095,7.60949,-2.1872,-1.35174e-14,4.13472e-14,-31.8524,-30.5656,-59.1414,61.2808,13.9396,-37.8862,-14.5737,7.12502,-10.9295,-44.2693,-1.35174e-14,4.13472e-14,11.0838,21.5668,66.1598,59.9659,-12.812,-31.0061,43.2186,7.12502,-4.28901,73.1552,-33.4102,-2.83762,8.50198,88.378,-28.9565,16.4881,-7.39242,-75.007,6.38157,-18.2947,87.7036,-13.4425,-9.2297,-24.2395
-6.64864,14.2077,-1.17951,12.8326,-4.37759,-2.89229,31.2086,-0.415865,2.65821,7.56215,0.738069,4.50922,-8.5692,0.294525,3.30006,-14.6766,11.4584,-1.98539,5.89,17.18,-13.1108,5.19131,7.6178,-2.14991,-1.90833e-14,-2.38542e-14,-31.7305,-30.6208,-59.2147,61.2847,14.1274,-37.7598,-15.5753,7.12502,-10.8075,-45.2773,-1.90833e-14,-2.38542e-14,10.8531,21.5699,66.0871,60.2599,-12.5492,-31.7845,48.8797,7.12502,-5.04068,78.7998,-32.8327,-2.85256,8.79645,88.0882,-30.8082,13.0774,-18.1684,-75.0706,6.47581,-18.1798,88.0248,-13.624,-8.96198,-24.4555
-6.62055,14.2242,-1.1224,12.9087,-4.33794,-3.19605,31.1679,-0.487302,2.84879,7.55288,0.714101,4.60143,-8.5579,0.28021,3.30322,-14.9998,11.4567,-2.02808,6.12055,17.2111,-12.9092,5.29417,7.61343,-2.05823,-2.06736e-14,-1.74931e-14,-31.6345,-30.8206,-59.1935,61.1187,14.2518,-37.5342,-18.9655,7.12502,-10.59,-48.6787,-2.06736e-14,-1.74931e-14,10.729,21.8001,66.0745,60.2636,-12.8573,-30.7038,42.6353,7.12502,-3.99713,72.5776,-32.3886,-2.70406,9.05552,87.5538,-30.9169,12.4538,-20.2384,-75.0061,6.44138,-17.9663,88.2439,-13.6481,-8.86106,-24.3801
-6.59215,14.2575,-1.06377,12.9637,-4.45961,-3.32784,31.2133,-0.443307,2.80304,7.53929,0.762636,4.64864,-8.59836,0.303035,3.36703,-14.8992,11.4389,-1.81633,5.97765,17.1376,-13.0315,5.2584,7.58889,-2.13993,7.95139e-16,3.65764e-14,-31.3849,-31.0337,-59.2281,60.9571,14.3176,-37.1476,-21.393,7.12502,-10.2171,-51.1249,7.95139e-16,3.65764e-14,10.79,22.0764,66.2323,60.1836,-13.1245,-30.2372,40.8939,7.12502,-3.54656,70.8441,-32.1712,-2.3336,8.97732,86.8148,-29.0822,15.3794,-12.7137,-74.7362,6.39673,-17.8913,88.3031,-13.7354,-8.6993,-24.6524
-6.56537,14.2887,-0.994934,13.0302,-4.45314,-3.42445,31.15,-0.431851,2.78047,7.50738,0.775146,4.7093,-8.60672,0.309581,3.44432,-15.2908,11.3991,-1.98294,6.30657,17.1448,-12.7328,5.38233,7.56671,-1.99946,2.46493e-14,1.98785e-14,-31.2297,-31.1717,-59.1776,60.7896,14.5282,-37.0494,-20.13,7.12502,-10.1223,-49.8666,2.46493e-14,1.98785e-14,10.8733,22.2109,66.3766,59.9777,-13.2335,-30.5373,41.357,7.12502,-3.83629,71.3022,-31.79,-2.40714,9.13098,86.1111,-28.7379,14.9798,-13.7802,-74.4539,6.17018,-17.7828,88.3168,-13.749,-8.62334,-24.9224
-6.53966,14.3116,-0.920362,13.166,-4.36504,-3.46599,30.752,-0.465605,2.77318,7.52332,0.708349,4.71391,-8.39654,0.279271,3.46959,-15.1917,11.3612,-1.80092,6.23039,17.0416,-12.7291,5.35079,7.53026,-2.04216,1.11319e-14,-2.38542e-14,-31.278,-31.0801,-59.1583,60.869,14.4415,-37.1199,-19.4253,7.12502,-10.1903,-49.1585,1.11319e-14,-2.38542e-14,10.8977,22.2943,66.4215,59.9233,-13.2794,-30.7138,42.2613,7.12502,-4.00673,72.2034,-31.1946,-2.22655,9.03103,85.6061,-28.5973,15.2567,-12.804,-74.3173,5.94055,-17.7615,88.3589,-13.8369,-8.58658,-25.0223
-6.52078,14.3406,-0.862649,13.3193,-4.38123,-3.7581,30.4404,-0.400372,2.86196,7.57722,0.801983,4.78024,-8.19011,0.321618,3.45149,-15.1406,11.3099,-1.49674,6.27338,16.9354,-12.8646,5.3885,7.47499,-2.1362,1.82882e-14,-3.18055e-14,-31.3136,-31.1033,-59.2503,61.104,14.3401,-36.9826,-20.5171,7.12502,-10.0579,-50.2568,1.82882e-14,-3.18055e-14,11.1132,22.4429,66.6839,59.9476,-13.5376,-30.6981,44.5885,7.12502,-3.99158,74.5309,-31.1468,-1.86487,9.31693,85.2473,-28.446,15.1207,-13.8278,-74.2388,5.98494,-17.4938,88.3547,-13.7724,-8.67674,-24.7657
-6.5055,14.3669,-0.81182,13.3996,-4.3645,-4.06073,30.4314,-0.364341,2.9201,7.50636,0.879536,4.88753,-8.27082,0.357319,3.51316,-15.26,11.2737,-1.59618,6.62729,16.9232,-12.5945,5.4837,7.45364,-2.02932,-1.66979e-14,-2.14687e-14,-31.2866,-31.0399,-59.2259,61.0037,14.4398,-36.7654,-21.9144,7.12502,-9.84835,-51.6641,-1.66979e-14,-2.14687e-14,10.9456,22.4891,66.7124,59.9906,-13.36,-30.7602,44.5982,7.12502,-4.05158,74.5394,-30.9789,-1.59406,9.6714,84.7874,-29.1733,13.6895,-20.5622,-74.1145,6.03355,-17.1888,88.3544,-13.6634,-8.80245,-25.1512
-6.48671,14.3809,-0.748657,13.2848,-4.32001,-4.25435,30.6439,-0.388939,2.96972,7.42687,0.889188,4.96342,-8.464,0.361115,3.5738,-15.1879,11.2535,-1.83359,6.64476,16.8993,-12.3032,5.42749,7.45767,-1.9185,-2.38542e-14,-4.45278e-14,-31.3758,-30.8802,-59.0375,60.8095,14.5204,-36.843,-20.1302,7.12502,-9.92317,-49.8763,-2.38542e-14,-4.45278e-14,10.4506,22.6337,66.7295,60.1846,-13.2018,-30.4915,42.1628,7.12502,-3.79209,72.1088,-29.7835,-1.24049,9.75125,84.0652,-30.3368,-9.16501,-46.9471,-73.7783,5.99079,-17.0072,88.4283,-13.7414,-8.79418,-25.9165
-6.46753,14.4069,-0.678453,13.2143,-4.15721,-4.42178,30.6563,-0.457595,3.14491,7.39642,0.856635,4.94157,-8.49994,0.343452,3.46002,-15.1343,11.2026,-1.74228,6.57901,16.7843,-12.1807,5.38678,7.41861,-1.91294,-2.94201e-14,-3.26007e-14,-31.5491,-30.9382,-58.9099,60.6293,14.6699,-36.8047,-17.2379,7.12502,-9.88627,-46.9858,-2.94201e-14,-3.26007e-14,10.1702,22.6937,66.7035,60.3811,-13.0749,-30.0461,41.1939,7.12502,-3.36197,71.1471,-29.5145,-1.3604,10.1601,83.4139,-27.4072,14.39,-15.8333,-73.3482,5.8787,-16.8948,88.3977,-13.9782,-8.7148,-26.734
-6.44715,14.4349,-0.609746,13.2012,-4.02211,-4.52459,30.4239,-0.469511,3.25877,7.46242,0.853183,4.90073,-8.31061,0.340658,3.3421,-15.259,11.1204,-1.53078,6.65706,16.6575,-12.2361,5.44757,7.34676,-1.96311,-3.06128e-14,-2.3059e-14,-31.4184,-31.1662,-59.0403,60.5146,14.8381,-36.827,-18.6662,7.12502,-9.90772,-48.4131,-3.06128e-14,-2.3059e-14,10.4559,22.8419,66.8985,60.2091,-13.0431,-29.9708,41.9085,7.12502,-3.28929,71.8628,-29.0915,-1.19544,10.3041,82.7851,-26.8922,14.5732,-14.7736,-72.9578,5.74903,-16.8503,88.2676,-14.166,-8.68055,-26.4361
-6.42871,14.4699,-0.532261,13.2102,-4.03591,-4.59467,30.1698,-0.425134,3.21436,7.44214,0.879187,4.8777,-8.21367,0.354243,3.32733,-15.5588,11.0583,-1.80615,7.17547,16.6421,-11.7343,5.5882,7.3178,-1.75057,-2.38542e-15,-2.54444e-14,-31.3992,-31.0886,-59.0906,60.4555,14.8216,-36.7143,-20.4146,7.12502,-9.79899,-50.1666,-2.38542e-15,-2.54444e-14,10.4882,23.0117,67.0231,60.0631,-13.1739,-29.8589,41.8962,7.12502,-3.18122,71.8522,-28.5898,-0.804913,10.3198,82.1587,-26.3513,14.86,-14.7053,-72.4435,5.76392,-16.912,88.0218,-14.6184,-8.46368,-26.2959
-6.41131,14.5105,-0.455714,13.1968,-3.9263,-4.64932,30.0743,-0.414013,3.12484,7.32641,0.876899,4.94335,-8.30261,0.355729,3.45539,-15.2005,11.0719,-1.71612,7.08479,16.6332,-11.9002,5.524,7.32468,-1.83376,1.35174e-14,3.18055e-14,-31.7108,-30.7513,-58.8346,60.5681,14.6935,-36.6269,-18.8126,7.12502,-9.71467,-48.5685,1.35174e-14,3.18055e-14,9.99538,23.1638,67.1358,60.2913,-13.1162,-29.7828,40.1695,7.12502,-3.10767,70.1266,-27.9788,-0.561292,10.3721,81.4715,-25.7535,15.02,-15.0549,-71.8213,5.68935,-16.9487,87.6894,-15.0018,-8.28604,-25.5996
-6.39578,14.5599,-0.383483,13.1758,-3.83334,-4.67998,29.933,-0.38001,3.0258,7.33892,0.882181,4.94393,-8.22247,0.360302,3.50833,-15.1222,11.0878,-1.52676,6.99136,16.6286,-12.0967,5.51581,7.32321,-1.92427,2.82274e-14,-1.03368e-14,-31.8427,-30.5539,-58.7767,60.7975,14.553,-36.5862,-16.5483,7.12502,-9.6754,-46.3061,2.82274e-14,-1.03368e-14,9.64836,23.161,67.1271,60.6652,-12.8589,-30.1489,42.5776,7.12502,-3.46126,72.5292,-27.3832,-0.286632,10.4115,80.7798,-25.1873,15.2756,-14.9905,-71.1156,5.72006,-17.0536,87.277,-15.3514,-8.17817,-25.7481
-6.37984,14.5997,-0.312912,13.198,-3.63393,-4.72745,29.7478,-0.392028,3.06337,7.32557,0.86672,4.91887,-8.14691,0.353579,3.45995,-15.229,11.0221,-1.49861,7.04129,16.5446,-12.0815,5.54551,7.27563,-1.92607,7.15625e-15,6.44062e-14,-31.8593,-30.5608,-58.7786,60.8149,14.5527,-36.8138,-14.7818,7.12502,-9.89498,-44.5293,7.15625e-15,6.44062e-14,9.6963,23.2569,67.2586,60.6589,-12.9928,-30.2413,44.4224,7.12502,-3.55053,74.3726,-26.9275,-0.129421,10.493,80.1604,-24.4619,15.5398,-15.3617,-70.5434,5.63191,-17.0781,86.9483,-15.5982,-8.24263,-25.2427
-6.36637,14.6266,-0.244832,13.257,-3.38571,-4.87319,29.7122,-0.465511,3.1831,7.11257,0.821367,4.90356,-8.36833,0.332064,3.39333,-15.531,11.005,-1.52865,7.66438,16.5723,-11.7134,5.75519,7.25753,-1.77831,-1.47101e-14,9.14409e-15,-31.942,-30.5466,-58.7475,60.6043,14.6073,-36.9436,-13.6946,7.12502,-10.0202,-43.436,-1.47101e-14,9.14409e-15,9.40693,23.3934,67.1839,60.5237,-13.1417,-30.1508,45.0997,7.12502,-3.46311,75.0514,-26.5305,0.0696803,10.6711,79.6295,-23.4385,16.0215,-14.6012,-70.1323,5.53801,-16.9595,86.7777,-15.8785,-8.31271,-24.3402
-6.35699,14.6539,-0.176392,13.4088,-3.17715,-5.12293,29.5357,-0.507957,3.41977,6.9087,0.837917,4.87489,-8.5115,0.33706,3.21856,-16.0192,10.9087,-1.84556,8.4974,16.5315,-10.9828,6.00185,7.20452,-1.47626,-1.66979e-14,-4.37326e-14,-32.1486,-30.4976,-58.7211,60.6026,14.4415,-36.9069,-14.1267,7.12502,-9.98486,-43.8698,-1.66979e-14,-4.37326e-14,9.0183,23.3617,66.9359,60.5083,-13.1257,-29.9802,44.3523,7.12502,-3.29833,74.3065,-26.1772,0.398986,10.9859,79.1503,-22.5025,16.3591,-14.3563,-69.8973,5.54953,-16.7438,86.6929,-16.1794,-8.38006,-24.2914
-6.35206,14.6724,-0.112454,13.5593,-2.82987,-5.3326,29.236,-0.570167,3.60392,6.83603,0.804763,4.9188,-8.44498,0.320201,3.16913,-16.3165,10.7938,-2.22516,8.82307,16.4454,-10.537,6.07796,7.15079,-1.27793,-7.95139e-15,-3.18055e-15,-32.1558,-30.4797,-58.7167,60.6477,14.3325,-36.9803,-15.5232,7.12502,-10.0556,-45.263,-7.95139e-15,-3.18055e-15,8.84973,23.461,66.8619,60.5203,-13.1864,-29.8325,44.0622,7.12502,-3.15567,74.0186,-25.764,0.526353,11.3203,78.7149,-22.2102,16.2013,-15.9191,-69.734,5.44557,-16.5287,86.5979,-16.3195,-8.47461,-24.1793
-6.34315,14.7041,-0.0463602,13.5781,-2.51177,-5.18122,29.026,-0.608548,3.45837,6.84297,0.696184,4.85741,-8.33253,0.273387,3.21731,-16.5369,10.7596,-2.25827,8.87296,16.4104,-10.4392,6.11659,7.1283,-1.23568,4.77083e-15,-2.74323e-14,-32.0536,-30.5776,-58.7933,60.6848,14.4103,-36.9241,-16.6321,7.12502,-10.0014,-46.3745,4.77083e-15,-2.74323e-14,8.91471,23.8406,66.9216,60.2744,-13.5066,-29.872,43.6028,7.12502,-3.19386,73.5587,-25.4744,0.583299,11.1729,78.399,-21.4109,16.8256,-16.2198,-69.304,5.23316,-16.7352,86.3494,-16.4859,-8.56114,-23.9527
-6.33398,14.7451,0.018275,13.6675,-2.30688,-4.93268,28.8318,-0.547363,3.12501,6.77391,0.665239,4.78157,-8.31891,0.265966,3.33224,-16.5527,10.6927,-2.13822,8.80461,16.2902,-10.4617,6.10376,7.07586,-1.27377,7.15625e-15,-7.51406e-14,-32.1608,-30.5868,-58.7038,60.7909,14.4471,-37.1597,-17.6603,7.12502,-10.2287,-47.3916,7.15625e-15,-7.51406e-14,8.88555,23.9891,66.909,60.0987,-13.5625,-30.0861,44.5943,7.12502,-3.40063,74.5469,-25.5471,0.806953,10.9004,78.264,-19.9276,17.63,-16.3119,-68.8806,5.15428,-17.1024,86.0433,-16.5366,-8.60852,-23.6122
