JuanDHNZ/ProyectoFinalCD/preprocessing/sports_trials_csv/17_01.csv
root1,root2,root3,root4,root5,root6,lowerback1,lowerback2,lowerback3,upperback1,upperback2,upperback3,thorax1,thorax2,thorax3,lowerneck1,lowerneck2,lowerneck3,upperneck1,upperneck2,upperneck3,head1,head2,head3,rclavicle1,rclavicle2,rhumerus1,rhumerus2,rhumerus3,rradius1,rwrist1,rhand1,rhand2,rfingers1,rthumb1,rthumb2,lclavicle1,lclavicle2,lhumerus1,lhumerus2,lhumerus3,lradius1,lwrist1,lhand1,lhand2,lfingers1,lthumb1,lthumb2,rfemur1,rfemur2,rfemur3,rtibia1,rfoot1,rfoot2,rtoes1,lfemur1,lfemur2,lfemur3,ltibia1,lfoot1,lfoot2,ltoes1
-7.86747,17.6263,-13.7137,2.75663,-12.7513,-3.59834,8.15102,0.125426,3.40185,2.80872,0.506033,4.19666,-1.66978,0.237918,2.37975,-13.5913,3.32043,-3.78818,25.357,7.15674,-5.75672,10.4986,2.22212,-0.483805,1.53064e-14,-3.97569e-15,-26.6296,-5.21951,-81.7865,31.7545,19.0391,-11.6769,0.0010062,7.12502,14.3683,-29.4817,1.53064e-14,-3.97569e-15,-24.4277,-4.33139,95.3899,32.152,-0.419153,-17.3066,28.5766,7.12502,8.9395,58.3672,-6.4483,1.24123,31.4126,28.5232,-16.1092,-11.3599,12.6017,-32.0217,5.52157,-8.89527,45.2974,-0.625111,-1.47307,-26.5251
-7.86595,17.6376,-13.691,2.70904,-12.9333,-3.40864,8.31252,0.263507,3.24174,2.76236,0.686672,4.05549,-1.81081,0.327304,2.30519,-13.4896,3.44063,-3.75648,25.4397,7.31059,-5.72029,10.5105,2.29902,-0.458165,-2.76311e-14,-3.4191e-14,-27.3183,-4.75456,-81.9615,32.6507,19.0586,-11.3004,0.10934,7.12502,14.7311,-29.3472,-2.76311e-14,-3.4191e-14,-24.8277,-4.17893,95.2059,33.0058,-0.421924,-17.6136,27.9501,7.12502,8.64319,57.7532,-6.2807,1.24358,31.1721,28.3711,-16.1013,-11.3092,12.6214,-32.358,5.76748,-8.92385,45.9742,-0.714592,-1.50158,-25.6851
-7.86602,17.6492,-13.6655,2.55489,-12.9853,-3.29477,8.49938,0.313376,3.11198,2.77324,0.751691,4.00254,-1.90525,0.359133,2.31607,-13.2763,3.5527,-4.02435,25.4083,7.46188,-5.52,10.4404,2.37362,-0.328125,1.05356e-14,2.8625e-14,-27.9627,-3.98227,-82.123,33.46,18.934,-11.0897,0.418794,7.12502,14.9341,-29.0228,1.05356e-14,2.8625e-14,-25.1759,-3.59087,95.0154,34.2661,0.791982,-16.5319,28.8969,7.12502,9.687,58.6542,-5.94903,1.29182,31.0363,28.1699,-15.9981,-11.3154,12.3556,-32.6033,5.79943,-8.8252,46.5423,-0.667436,-1.35067,-24.5855
-7.86633,17.6596,-13.6417,2.39959,-12.8168,-3.10105,8.67013,0.315283,2.96788,2.82834,0.746562,3.8803,-1.943,0.356785,2.26991,-13.297,3.61927,-4.07468,25.4027,7.56063,-5.48278,10.4401,2.41868,-0.293555,-8.54774e-15,4.92986e-14,-28.4011,-3.42441,-82.3834,34.1891,18.7703,-10.9381,0.61474,7.12502,15.0801,-28.816,-8.54774e-15,4.92986e-14,-25.2918,-3.41982,94.7769,35.3399,2.04267,-15.3164,29.2907,7.12502,10.8596,58.9899,-5.66146,1.23831,30.8456,27.9886,-15.9146,-11.4603,12.1552,-32.9523,5.75142,-8.84786,47.0511,-0.509958,-1.36378,-24.451
-7.86751,17.6701,-13.6201,2.38811,-12.7381,-3.20272,8.77945,0.406081,3.20396,2.89575,0.886142,3.73287,-1.92996,0.427116,1.96939,-13.4751,3.62953,-3.96267,25.4455,7.53962,-5.37967,10.488,2.4265,-0.274167,-3.97569e-16,1.03368e-14,-28.8786,-3.09646,-82.7636,35.2702,18.3334,-10.7048,0.768157,7.12502,15.3049,-28.6455,-3.97569e-16,1.03368e-14,-25.3802,-3.63857,94.5264,36.3346,2.8116,-14.7734,29.4184,7.12502,11.3833,59.0895,-5.45092,1.24459,30.9658,27.8135,-15.8536,-11.5563,12.2384,-33.3387,5.90259,-8.55471,47.4808,-0.301776,-1.44892,-24.6875
-7.86771,17.6868,-13.5952,2.35118,-12.9238,-3.00133,8.81257,0.603736,3.07854,2.99396,1.12978,3.52637,-1.84781,0.549888,1.80041,-13.6308,3.63028,-3.87127,25.4057,7.51757,-5.33845,10.5038,2.42907,-0.274051,-7.55382e-15,1.74931e-14,-29.3343,-2.52101,-83.1868,36.5165,17.8285,-10.4907,0.321595,7.12502,15.5111,-29.0762,-7.55382e-15,1.74931e-14,-25.439,-3.846,94.3339,37.386,3.57816,-17.0408,27.4577,7.12502,9.19597,57.2372,-5.28078,1.43691,30.7231,27.6975,-15.7397,-11.5408,12.0438,-33.5314,6.08734,-8.58571,47.78,-0.355918,-1.26324,-24.9702
-7.86657,17.7056,-13.5638,2.2692,-12.9795,-2.70962,8.82314,0.758301,2.90225,3.04062,1.31319,3.28854,-1.80582,0.642431,1.63396,-13.6928,3.59923,-3.79886,25.5097,7.43844,-5.21863,10.549,2.40848,-0.25217,-2.8625e-14,-3.4191e-14,-29.8286,-2.0426,-83.5575,37.5073,17.4055,-10.3729,0.220503,7.12502,15.6246,-29.1685,-2.8625e-14,-3.4191e-14,-25.5606,-3.9715,94.1249,38.2075,3.68095,-19.2959,24.7243,7.12502,7.01952,54.5879,-5.07545,1.57276,30.3755,27.6194,-15.7409,-11.4513,12.8145,-33.6588,6.13847,-8.71661,47.9911,-0.356667,-0.940826,-24.8832
-7.86247,17.7154,-13.5323,2.20033,-12.952,-2.40178,8.81844,0.781966,2.66213,2.99548,1.32349,3.14582,-1.85253,0.647499,1.61932,-13.4338,3.68241,-4.07782,25.5712,7.53725,-4.9483,10.4987,2.4627,-0.103529,1.78906e-15,4.21423e-14,-30.3849,-1.3256,-83.861,38.3178,17.0593,-10.6155,0.877734,7.12502,15.3909,-28.5294,1.78906e-15,4.21423e-14,-25.8798,-3.6264,93.9758,39.0329,3.7758,-18.283,25.1754,7.12502,7.99718,55.0041,-4.91275,1.63462,30.0193,27.5366,-15.7115,-11.5339,12.577,-33.8627,6.1519,-8.89955,48.1292,-0.374641,-0.724194,-24.8317
-7.86169,17.7232,-13.5045,2.23371,-13.0497,-2.32834,8.81679,0.792078,2.52011,2.95322,1.32617,3.11681,-1.89813,0.64844,1.66836,-13.1317,3.83438,-4.30998,25.5363,7.75112,-4.83569,10.4147,2.56047,-0.00587859,-2.60408e-14,1.51076e-14,-30.7981,-0.258103,-84.2663,39.1678,16.4134,-10.8664,1.31096,7.12502,15.1492,-28.1146,-2.60408e-14,1.51076e-14,-26.1588,-3.21504,93.7947,39.8993,4.02662,-17.2618,26.4373,7.12502,8.98268,56.2261,-4.85968,1.7464,29.938,27.422,-15.5405,-11.7094,11.9363,-34.1078,6.26252,-8.77344,48.2082,-0.362832,-0.664917,-24.1257
-7.85856,17.7309,-13.4761,2.36711,-13.042,-2.52547,8.7364,0.838842,2.77891,3.01675,1.40176,3.05869,-1.78083,0.687576,1.45692,-13.1753,3.85151,-4.32888,25.4778,7.75171,-4.73493,10.3953,2.57306,0.0334399,2.38542e-15,2.54444e-14,-30.9542,0.365909,-84.7023,40.0939,15.7651,-10.9083,1.57048,7.12502,15.1088,-27.8581,2.38542e-15,2.54444e-14,-26.2761,-3.31932,93.616,40.7863,4.15884,-15.6625,27.7199,7.12502,10.5258,57.4363,-4.80817,1.85106,30.1339,27.2793,-15.3745,-11.7942,11.9599,-34.4087,6.28447,-8.36013,48.2222,-0.27508,-0.68138,-21.2111
-7.85614,17.7436,-13.4466,2.40664,-13.021,-2.6347,8.87279,0.910295,2.94503,3.0426,1.5138,2.96728,-1.82301,0.743644,1.25596,-13.2627,3.87455,-4.1467,25.3603,7.77394,-4.86404,10.3822,2.58933,-0.0374601,-2.36554e-14,-4.77083e-15,-31.3215,0.978364,-85.1334,41.3419,14.9337,-10.9007,1.67857,7.12502,15.1162,-27.7494,-2.36554e-14,-4.77083e-15,-26.4183,-3.46764,93.4554,41.6065,4.10554,-16.0124,26.3707,7.12502,10.1882,56.104,-4.63036,1.89566,30.2402,27.1155,-15.116,-11.8827,11.6887,-34.5373,6.24571,-8.0368,48.0855,-0.260652,-0.628333,-14.3923
-7.84781,17.7465,-13.4162,2.49233,-12.9625,-2.63049,9.00377,0.945528,3.00715,3.01004,1.57128,2.85338,-1.92414,0.771729,1.0948,-13.2961,3.92503,-4.10322,25.3088,7.83086,-4.85211,10.3708,2.62299,-0.0326467,-1.88845e-14,2.3059e-14,-31.837,1.63786,-85.5681,42.7352,14.1226,-10.9482,1.83482,7.12502,15.0704,-27.5966,-1.88845e-14,2.3059e-14,-26.5647,-3.5829,93.2889,42.3611,4.26485,-21.3039,19.7679,7.12502,5.08094,49.687,-4.54444,1.86177,30.2058,26.9622,-14.87,-12.0111,10.6955,-34.7188,6.16487,-7.87662,47.7899,-0.157989,-0.653008,-13.0125
-7.83893,17.7539,-13.3838,2.44429,-12.7938,-2.49652,9.14405,0.891241,2.93671,2.98134,1.49949,2.76791,-2.03107,0.735156,1.05069,-13.3196,3.9409,-4.49899,25.4673,7.87383,-4.51817,10.4022,2.63671,0.156475,1.0138e-14,2.14687e-14,-32.4465,2.40491,-85.9516,44.0532,13.8373,-11.138,1.97401,7.12502,14.8876,-27.471,1.0138e-14,2.14687e-14,-26.8412,-3.38159,93.2054,43.0356,4.66966,-12.8863,29.318,7.12502,13.2028,58.88,-4.38571,1.76622,30.031,26.8919,-14.9272,-12.1415,10.2131,-34.7045,5.86589,-7.85645,47.2784,-0.0712054,-0.65831,-15.5687
-7.83144,17.7625,-13.3477,2.37184,-12.6127,-2.31035,9.16736,0.825856,2.8487,2.96525,1.40422,2.64951,-2.0601,0.6879,0.987071,-13.5063,3.94221,-4.86902,25.9644,7.90123,-4.07487,10.5851,2.6384,0.385539,3.26007e-14,1.19271e-14,-33.0174,3.18495,-86.3528,45.3348,13.2162,-11.304,2.12903,7.12502,14.7276,-27.3278,3.26007e-14,1.19271e-14,-27.2653,-3.15719,93.1017,43.7842,5.14797,-13.3906,26.9393,7.12502,12.7167,56.5321,-4.20065,1.89433,29.8259,26.8624,-15.046,-12.3528,10.8573,-34.6077,5.55274,-7.89847,46.639,-0.140769,-0.684125,-19.3944
-7.82555,17.7743,-13.306,2.43616,-12.6206,-2.06158,8.95608,0.858609,2.66566,3.00315,1.41661,2.47831,-1.90463,0.696195,0.914806,-13.6011,3.92269,-4.91678,26.1818,7.86473,-3.908,10.6733,2.62452,0.452229,2.36554e-14,-2.22639e-14,-33.2928,3.78224,-86.7941,46.3837,12.8662,-11.6914,2.63752,7.12502,14.3544,-26.8462,2.36554e-14,-2.22639e-14,-27.5683,-3.10346,92.9471,44.5177,5.39584,-13.0017,27.0219,7.12502,13.0916,56.591,-4.20561,1.98256,29.4982,26.8899,-15.0635,-12.3564,10.88,-34.534,5.38524,-8.01449,45.8929,-0.173049,-0.686732,-22.29
-7.8167,17.7814,-13.2637,2.52339,-12.6707,-2.04758,8.89764,0.968178,2.63986,2.98522,1.55692,2.43309,-1.89002,0.76632,0.868844,-13.0498,3.99605,-4.71703,25.6132,7.90881,-4.199,10.3778,2.6694,0.302646,2.42517e-14,1.74931e-14,-33.7422,4.17616,-87.0263,47.5722,12.5232,-11.8702,3.27211,7.12502,14.182,-26.2238,2.42517e-14,1.74931e-14,-27.8652,-3.13367,93.0177,45.1503,5.81461,-16.1562,65.7696,7.12502,10.0495,-95.5097,-4.18292,1.97506,29.3767,26.9682,-15.0576,-12.2239,10.6015,-34.3912,5.12646,-7.84107,45.1147,-0.356956,-0.537583,-22.4745
-7.80675,17.7767,-13.227,2.66533,-12.5059,-2.09764,8.92815,0.958586,2.71463,2.91618,1.55403,2.39536,-1.9752,0.764199,0.786956,-12.705,4.07722,-4.51988,25.1793,8.00133,-4.52402,10.1769,2.72129,0.155439,3.97569e-16,7.15625e-15,-34.2766,4.62648,-87.3184,49.0166,11.8563,-11.1182,2.78508,7.12502,14.9066,-26.6586,3.97569e-16,7.15625e-15,-28.0842,-3.13053,93.0019,45.5779,6.09279,-12.0131,27.6742,7.12502,14.0444,57.1797,-4.24909,1.93884,29.3797,27.0949,-15.025,-12.3117,9.84831,-34.3923,4.69415,-7.59104,44.2875,-0.718436,-0.331422,-21.0671
-7.79789,17.7694,-13.1917,2.77538,-12.2778,-2.1715,8.99135,0.851699,2.75464,2.83977,1.42233,2.41409,-2.08934,0.697378,0.79582,-12.8734,4.03375,-4.86671,25.5786,7.988,-4.22628,10.3275,2.69374,0.322357,-2.57426e-14,1.43125e-14,-34.8279,5.32797,-87.6309,50.4474,11.1731,-9.95513,2.09725,7.12502,16.0269,-27.2599,-2.57426e-14,1.43125e-14,-28.4181,-2.93576,92.9572,46.138,6.33473,-11.1081,28.4264,7.12502,14.9164,57.8693,-4.30098,2.11164,29.4589,27.2301,-15.0313,-12.6548,9.3554,-34.3716,4.27853,-7.33093,43.3919,-0.945027,-0.270237,-20.9318
-7.78572,17.764,-13.1529,2.7543,-12.1152,-2.22139,9.05469,0.725699,2.80951,2.85423,1.26285,2.43438,-2.10937,0.617803,0.802116,-13.2561,3.99211,-5.42266,26.2764,8.00749,-3.69797,10.6115,2.66853,0.618856,-3.47873e-14,-1.59028e-15,-35.1564,6.15927,-87.9396,51.5912,10.6878,-9.69666,1.91922,7.12502,16.2757,-27.4177,-3.47873e-14,-1.59028e-15,-28.7515,-2.67075,92.9314,46.6838,6.59814,-17.0178,20.2277,7.12502,9.21816,50.0062,-4.26001,2.1037,29.4499,27.4207,-15.0835,-12.7881,8.83982,-34.1516,3.88088,-7.12,42.4068,-1.12035,-0.253778,-20.8123
-7.77206,17.764,-13.1195,2.85058,-11.832,-2.1789,9.00227,0.704849,2.89286,2.99352,1.23188,2.32688,-1.93209,0.605067,0.64931,-13.6638,3.96418,-5.45145,26.2996,7.99531,-3.62751,10.6951,2.65921,0.658592,1.43125e-14,-1.51076e-14,-35.015,6.46306,-88.1833,52.5481,10.373,-9.62517,2.04325,7.12502,16.3446,-27.288,1.43125e-14,-1.51076e-14,-28.5719,-2.99052,92.9463,47.0731,6.95282,-14.8293,24.9197,7.12502,11.3294,54.5937,-4.40153,1.91001,29.3286,27.6349,-15.1567,-12.7934,8.05549,-34.0566,3.42988,-7.04769,41.3302,-1.2865,-0.132859,-21.0241
-7.76144,17.7602,-13.0878,3.02672,-11.5611,-2.05945,8.93218,0.701862,2.88716,3.07279,1.21768,2.16936,-1.80818,0.600306,0.492787,-13.3602,4.09339,-5.00425,25.4246,8.11324,-4.14684,10.3561,2.74478,0.399873,-4.47266e-14,-1.11319e-14,-34.9877,6.73915,-88.457,53.5826,10.1307,-9.97313,2.91627,7.12502,16.0095,-26.4422,-4.47266e-14,-1.11319e-14,-28.4317,-3.11331,92.8393,47.4865,7.08694,-12.8788,26.7839,7.12502,13.2101,56.3453,-4.61153,1.91601,29.1735,27.8069,-15.1916,-12.9627,7.84304,-34.0578,3.02681,-7.07197,40.1978,-1.29396,0.00666163,-21.4475
-7.74993,17.7545,-13.0529,3.17486,-11.3789,-1.98153,8.85858,0.622396,2.8097,3.07396,1.10131,2.10813,-1.76813,0.542983,0.485721,-13.2164,4.19298,-4.80172,25.2642,8.25058,-4.41273,10.2919,2.80627,0.285504,-6.55989e-15,4.77083e-15,-35.2281,7.32655,-88.7402,54.7499,10.0043,-10.2689,4.00754,7.12502,15.7247,-25.3736,-6.55989e-15,4.77083e-15,-28.7366,-2.91317,92.7616,48.1568,7.40428,-11.2743,26.7644,7.12502,14.7563,56.2191,-4.7418,2.08015,29.0613,27.9642,-15.3446,-13.122,8.39713,-33.964,2.70603,-7.06385,39.0004,-1.35669,0.163061,-21.2889
-7.73853,17.7469,-13.0096,3.33464,-11.1903,-2.02613,8.77472,0.491525,2.75963,2.97784,0.925771,2.19099,-1.82556,0.454382,0.617405,-13.1236,4.2643,-5.06668,25.5385,8.39173,-4.27484,10.3573,2.85011,0.394373,2.57426e-14,-7.15625e-15,-35.5596,8.15551,-88.9442,55.7163,9.56907,-10.4482,4.33189,7.12502,15.552,-25.0628,2.57426e-14,-7.15625e-15,-29.1726,-2.46902,92.8306,48.6834,7.58524,-11.0598,27.3146,7.12502,14.9629,56.754,-4.82611,2.08871,29.053,28.1019,-15.5515,-13.2112,8.59659,-33.8161,2.33138,-6.90538,37.7509,-1.52914,0.370313,-21.3162
-7.72014,17.7412,-12.9625,3.46871,-10.8295,-1.94252,8.68518,0.349225,2.76534,2.93125,0.735166,2.15961,-1.8255,0.359661,0.601476,-12.948,4.33548,-5.16741,25.421,8.48267,-4.24761,10.2745,2.89556,0.425064,7.85199e-15,-9.54166e-15,-35.801,8.75531,-89.1482,56.6019,9.05331,-10.5018,4.40649,7.12502,15.5004,-24.9922,7.85199e-15,-9.54166e-15,-29.2168,-2.30157,92.9028,48.9132,7.89677,-12.2912,31.4156,7.12502,13.7764,60.9395,-4.87305,1.60454,28.8434,28.1954,-15.8023,-13.1096,8.13288,-33.6498,1.90332,-6.98255,36.4451,-1.63677,0.467007,-22.3571
-7.70079,17.7414,-12.9137,3.55841,-10.7427,-1.81845,8.58498,0.368126,2.73539,3.01433,0.748185,2.05839,-1.6832,0.368187,0.513496,-13.4215,4.21763,-5.1898,25.8214,8.3599,-4.10643,10.5055,2.82252,0.480978,-3.01159e-14,-3.97569e-14,-35.8261,8.99414,-89.2781,57.461,8.77155,-10.597,4.28977,7.12502,15.4087,-25.116,-3.01159e-14,-3.97569e-14,-29.1254,-2.39121,93.0081,49.1451,8.15571,-13.7337,27.1256,7.12502,12.3858,56.7386,-4.8266,1.35975,28.5521,28.2133,-16.0478,-12.8684,8.51267,-33.3041,1.5746,-7.09444,35.1208,-1.69137,0.890499,-22.3691
-7.68108,17.7372,-12.8594,3.59407,-10.8744,-1.82289,8.5353,0.467831,2.79095,3.08977,0.878535,1.99646,-1.57446,0.434845,0.40657,-13.3148,4.19883,-4.90986,25.6842,8.32729,-4.40713,10.462,2.80793,0.321438,-1.89839e-14,-6.75868e-15,-35.7581,9.19966,-89.4065,58.2367,8.60127,-10.5873,4.18644,7.12502,15.4181,-25.2186,-1.89839e-14,-6.75868e-15,-29.151,-2.48906,93.1476,49.3519,8.59185,-12.5134,28.187,7.12502,13.5622,57.7253,-4.66298,1.42931,28.4238,28.2101,-16.2091,-12.8086,8.46794,-32.8043,1.29934,-7.03387,33.8147,-1.86049,1.56503,-21.93
-7.66209,17.7269,-12.7979,3.57295,-10.8355,-1.82505,8.48951,0.452093,2.78833,3.12656,0.854469,2.01156,-1.51171,0.423567,0.426573,-12.1375,4.50079,-4.19882,24.214,8.67407,-5.59426,9.79719,2.99913,-0.208456,-1.21259e-14,9.54166e-15,-35.7569,9.75362,-89.5006,58.8919,8.41344,-10.7182,4.73588,7.12502,15.292,-24.6788,-1.21259e-14,9.54166e-15,-29.4003,-2.40689,93.3003,49.7034,9.11263,-11.4565,29.5691,7.12502,14.5807,59.0366,-4.40244,1.44128,28.3374,28.1775,-16.4095,-12.9677,7.97467,-32.3403,0.950907,-7.0042,32.5656,-2.038,2.16244,-21.582
-7.64495,17.7117,-12.747,3.60917,-10.7956,-1.93735,8.55062,0.458045,2.83609,3.10232,0.870826,2.06478,-1.57033,0.430937,0.452467,-12.9556,4.25806,-4.98607,25.4989,8.39623,-4.45946,10.3243,2.84405,0.312265,-3.53837e-14,-3.18055e-15,-35.8831,10.107,-89.5646,59.6252,8.27583,-10.3867,4.68274,7.12502,15.6112,-24.7073,-3.53837e-14,-3.18055e-15,-29.6867,-2.26787,93.4672,50.1436,8.98812,-12.5986,27.2498,7.12502,13.4801,56.7936,-4.22045,1.46457,28.3928,28.1351,-16.5071,-13.148,7.50863,-31.9902,0.846265,-6.91584,31.3823,-1.9888,2.64936,-21.3339
-7.6336,17.6972,-12.7022,3.74355,-10.7269,-2.08294,8.51298,0.466164,2.76141,3.08805,0.876842,2.17729,-1.56724,0.433152,0.610158,-13.167,4.18912,-5.12049,25.9419,8.33176,-4.25449,10.5122,2.79841,0.408349,-2.48481e-15,7.95139e-15,-35.9603,10.4419,-89.5532,60.345,7.80983,-9.20411,2.54868,7.12502,16.75,-26.7488,-2.48481e-15,7.95139e-15,-29.6626,-2.14243,93.6574,50.3319,8.75843,-14.7032,21.9615,7.12502,11.451,51.6288,-4.17933,1.42381,28.52,28.1097,-16.5542,-13.386,6.78608,-31.7788,0.774061,-6.78678,30.2578,-2.07135,3.23438,-21.2347
-7.61928,17.6813,-12.6541,3.97447,-10.5698,-2.16315,8.40354,0.434562,2.70288,3.00176,0.830539,2.24898,-1.59844,0.409134,0.721897,-13.077,4.21996,-5.0432,26.0234,8.39084,-4.38077,10.5353,2.81559,0.357085,-1.88845e-15,5.56597e-14,-36.009,10.7157,-89.5769,60.9382,7.43538,-12.2358,8.96601,7.12502,13.8298,-20.5542,-1.88845e-15,5.56597e-14,-29.7787,-1.9846,93.8663,50.4978,8.64899,-15.9959,18.8041,7.12502,10.2041,48.5367,-4.25198,1.54729,28.5862,28.0943,-16.6841,-13.7838,6.53219,-31.732,0.550156,-6.71104,29.2288,-2.34416,4.05669,-20.7319
-7.60108,17.6617,-12.6056,4.12266,-10.415,-2.33645,8.36832,0.370671,2.86048,2.97011,0.75865,2.27405,-1.61019,0.373514,0.666456,-12.9198,4.23404,-4.95635,25.9484,8.39522,-4.47596,10.4855,2.82187,0.304824,-2.33572e-14,-7.95139e-16,-35.8695,11.03,-89.671,61.4441,7.09188,-9.58535,5.0918,7.12502,16.3829,-24.2363,-2.33572e-14,-7.95139e-16,-30.0849,-1.84185,93.9328,50.9479,8.59223,-16.1384,18.0399,7.12502,10.0666,47.7792,-4.17972,1.67031,28.7564,28.0551,-16.9018,-14.0708,6.67026,-31.6052,0.311506,-6.55789,28.3011,-2.71688,4.77508,-20.5393
-7.58126,17.6429,-12.5581,4.19045,-10.3145,-2.44648,8.45714,0.376652,2.95708,2.99833,0.776724,2.24827,-1.62811,0.382816,0.583439,-12.7458,4.18289,-4.88117,25.7162,8.24951,-4.40332,10.3635,2.78699,0.292833,-4.77083e-15,1.94809e-14,-35.5317,11.0443,-89.6941,61.8367,7.12023,-9.41009,5.57605,7.12502,16.5517,-23.738,-4.77083e-15,1.94809e-14,-30.1532,-1.93945,93.9918,51.2507,8.48963,-16.1098,17.476,7.12502,10.0943,47.2139,-4.01545,1.6224,28.8257,28.025,-17.0989,-14.343,6.03721,-31.415,0.264436,-6.55232,27.4583,-3.16926,5.37785,-20.701
-7.56161,17.6259,-12.5079,4.38206,-10.1442,-2.52799,8.47019,0.419954,3.01964,2.98033,0.840572,2.24362,-1.65215,0.414545,0.537241,-12.7749,4.06404,-4.79441,25.6748,8.05931,-4.39708,10.3563,2.71066,0.257884,2.5842e-14,2.3059e-14,-35.2857,10.9432,-89.6119,62.1924,7.2329,-10.9628,8.74933,7.12502,15.0564,-20.6832,2.5842e-14,2.3059e-14,-29.9874,-2.37295,94.2564,51.3002,8.63392,-16.2257,17.0297,7.12502,9.98237,46.773,-3.99433,1.50115,28.8301,27.956,-17.4594,-14.4582,6.31642,-31.4158,0.252095,-6.62971,26.7176,-3.48964,6.0111,-21.8503
-7.53596,17.6092,-12.4525,4.68831,-9.94243,-2.53993,8.12361,0.328687,3.02298,3.00822,0.703448,2.28497,-1.43392,0.348634,0.593715,-12.9259,4.04585,-5.02074,25.6802,8.05801,-4.24465,10.3714,2.70261,0.352156,-1.02374e-14,1.03368e-14,-34.9435,11.2999,-89.57,62.5532,7.20172,-11.5529,9.13064,7.12502,14.4878,-20.3436,-1.02374e-14,1.03368e-14,-29.7812,-2.33373,94.4711,51.3997,9.01488,-14.5423,20.6757,7.12502,11.6061,50.3343,-4.13031,1.17499,28.6987,27.9022,-17.6938,-14.4674,6.3197,-31.5304,0.183064,-6.79436,26.0105,-3.82859,6.67842,-22.9135
-7.51476,17.5918,-12.4016,4.92867,-9.8,-2.63411,7.92135,0.260791,2.99509,3.03094,0.602306,2.36067,-1.30088,0.299258,0.697851,-12.8805,4.06899,-5.10779,25.544,8.07702,-4.18004,10.3055,2.71833,0.388638,-6.36111e-15,-3.18055e-15,-34.6588,11.6248,-89.5548,62.8593,7.03583,-11.716,8.50453,7.12502,14.3306,-20.9809,-6.36111e-15,-3.18055e-15,-29.7434,-2.1595,94.6678,51.6264,9.23162,-8.56234,31.7534,7.12502,17.3677,60.9975,-4.1997,1.14244,28.7378,27.8706,-17.8755,-14.7811,5.86035,-31.5695,0.103534,-6.83447,25.3208,-4.05899,7.45585,-22.5656
-7.50082,17.5694,-12.3556,4.93398,-9.7295,-2.66865,8.1893,0.30259,2.81872,2.97287,0.659894,2.39445,-1.51122,0.324871,0.824642,-12.6977,4.05494,-4.95941,25.5296,8.02615,-4.25596,10.2741,2.70509,0.326589,-1.19271e-15,2.94201e-14,-34.4527,11.6341,-89.5211,62.9613,6.92704,-12.4748,9.41902,7.12502,13.5994,-20.1168,-1.19271e-15,2.94201e-14,-29.9209,-2.20605,94.9076,51.9016,9.17452,-11.6332,25.8458,7.12502,14.4105,55.3255,-4.08803,1.47242,28.7972,27.9092,-17.9826,-15.367,4.93045,-31.4086,0.0637729,-6.92034,24.6382,-4.24055,8.22804,-20.9404
-7.47897,17.5447,-12.2999,5.08951,-9.41587,-2.69745,8.19589,0.209063,2.74027,2.90877,0.534444,2.4696,-1.58338,0.261127,0.957733,-12.8184,4.14049,-4.72033,25.6935,8.18417,-4.51036,10.381,2.75934,0.222867,-1.82882e-14,8.34896e-15,-34.2576,11.7539,-89.4628,63.2975,6.27699,-12.3409,9.32833,7.12502,13.7285,-20.1988,-1.82882e-14,8.34896e-15,-30.0486,-2.13346,95.1413,52.1136,9.13875,-13.1314,22.1744,7.12502,12.9665,51.7515,-4.05333,1.45255,28.7912,27.9263,-18.2001,-15.7072,4.85426,-31.4749,0.00889441,-7.11388,24.0691,-4.25689,8.73075,-20.3434
-7.45581,17.5325,-12.2466,5.37406,-9.14085,-2.72204,8.06251,0.100967,2.63713,2.88987,0.380078,2.56775,-1.53105,0.184003,1.13161,-12.9154,4.31451,-4.56439,25.5918,8.44999,-4.7238,10.3815,2.87354,0.15756,0,-1.31198e-14,-34.0023,11.9071,-89.3684,63.85,5.39526,-11.4594,8.13506,7.12502,14.5779,-21.3327,0,-1.31198e-14,-29.9927,-1.90734,95.3444,52.3597,9.30771,-14.2145,19.0507,7.12502,11.9223,48.6912,-4.14654,1.29229,28.7365,27.9645,-18.5403,-15.7693,5.5049,-31.6425,-0.148189,-7.2888,23.624,-4.24387,9.40022,-20.9261
-7.43089,17.5199,-12.1928,5.58519,-9.1959,-2.85561,8.10014,0.172649,2.63466,2.86761,0.478893,2.63887,-1.57554,0.232505,1.19727,-12.805,4.29051,-4.59447,25.4647,8.40551,-4.73345,10.3125,2.85845,0.14945,1.45113e-14,5.56597e-15,-33.7361,11.8227,-89.2271,64.0803,5.10929,-11.1752,7.39679,7.12502,14.8518,-22.0509,1.45113e-14,5.56597e-15,-29.8495,-1.94233,95.6059,52.396,9.25068,-14.9817,17.4967,7.12502,11.1824,47.1787,-4.13693,1.43102,28.7704,27.9786,-18.7289,-15.9233,5.02069,-31.6852,-0.199816,-7.30007,23.3034,-4.45994,10.3686,-20.88
-7.40297,17.5006,-12.1351,5.59559,-9.29494,-3.09221,8.39181,0.247982,2.7088,2.87515,0.599826,2.75637,-1.72961,0.291135,1.26485,-12.7107,4.20402,-4.81254,25.3633,8.26824,-4.55051,10.2381,2.80396,0.228438,1.17283e-14,-1.51076e-14,-33.363,11.7354,-89.0577,63.842,5.18763,-11.2454,7.27985,7.12502,14.7841,-22.1728,1.17283e-14,-1.51076e-14,-29.816,-2.0334,95.9217,52.4578,9.42078,-14.3012,18.4708,7.12502,11.8386,48.1162,-3.86497,1.49547,28.8873,27.9663,-18.9298,-15.9819,4.49887,-31.5397,-0.150425,-7.26836,23.0964,-4.64868,11.2133,-20.6711
-7.37386,17.4829,-12.0738,5.69257,-9.08936,-3.24807,8.53883,0.20814,2.7021,2.85669,0.557863,2.92171,-1.83151,0.268848,1.44341,-12.6888,4.20273,-4.92674,25.3418,8.2853,-4.53564,10.2213,2.80461,0.253573,-1.61016e-14,-4.05521e-14,-32.9753,11.644,-88.8261,63.6262,5.05004,-11.1787,6.91173,7.12502,14.8484,-22.5362,-1.61016e-14,-4.05521e-14,-29.7102,-2.05939,96.3285,52.4322,9.71489,-12.9975,21.6091,7.12502,13.0956,51.1779,-3.72526,1.30375,28.9295,27.9226,-19.0212,-15.988,4.0668,-31.621,-0.127117,-7.39982,22.9867,-4.84794,11.6695,-20.3247
-7.33962,17.4692,-12.012,5.94994,-8.80582,-3.45348,8.44045,0.16483,2.8902,2.85118,0.513347,3.00711,-1.7814,0.247112,1.43093,-12.6393,4.19024,-4.82222,25.2312,8.25235,-4.62029,10.1797,2.79638,0.200744,-1.78906e-14,1.59028e-15,-32.4638,11.3387,-88.6691,63.2547,4.93021,-10.7609,6.67786,7.12502,15.2508,-22.74,-1.78906e-14,1.59028e-15,-29.4334,-2.37336,96.63,52.2633,10.2034,-11.6758,24.8559,7.12502,14.3694,54.3386,-3.7622,1.10117,29.0221,27.8618,-19.1324,-16.1036,3.51077,-31.8948,-0.27101,-7.44186,22.9397,-5.0359,12.1457,-19.5721
-7.30302,17.459,-11.9536,6.21715,-8.51979,-3.58924,8.37889,0.137974,3.19105,2.84502,0.497739,2.93182,-1.74999,0.24048,1.18592,-12.8364,4.13903,-4.5782,25.2001,8.12759,-4.58359,10.212,2.76348,0.163527,-2.08724e-14,-1.35174e-14,-31.9257,10.7844,-88.6564,62.8316,4.89475,-10.1535,6.28296,7.12502,15.8358,-23.0894,-2.08724e-14,-1.35174e-14,-29.1374,-2.76244,96.7827,51.9992,10.344,-11.0935,26.1627,7.12502,14.9304,55.6046,-3.8324,0.98989,29.0479,27.8227,-19.1773,-16.3474,2.72851,-32.139,-0.359873,-7.61042,22.8738,-5.15437,12.4256,-18.7672
-7.26996,17.4505,-11.8906,6.47011,-8.32348,-3.78767,8.4251,0.159843,3.37676,2.77877,0.548143,2.95836,-1.8422,0.264636,1.10423,-13.0652,4.09076,-4.59424,25.3133,8.03356,-4.36472,10.2842,2.7343,0.238032,-2.82274e-14,-2.38542e-14,-31.5435,10.2324,-88.5475,62.4155,4.80229,-9.79727,5.89891,7.12502,16.1789,-23.4459,-2.82274e-14,-2.38542e-14,-28.9701,-3.10126,97.0081,51.8951,10.1394,-11.6364,25.083,7.12502,14.4074,54.563,-3.85354,0.976266,29.1425,27.783,-19.2053,-16.5907,2.25818,-32.3292,-0.420211,-7.70025,22.8865,-5.11045,12.684,-18.7259
-7.23919,17.4423,-11.8222,6.47431,-8.30608,-3.7872,8.60267,0.266649,3.20242,2.8097,0.684875,3.0113,-1.91066,0.331768,1.2426,-13.1398,4.03956,-4.39957,25.3941,7.97166,-4.52304,10.3439,2.70053,0.145952,1.68967e-14,7.15625e-15,-31.2469,9.81865,-88.2982,62.0656,4.33918,-9.76052,5.68407,7.12502,16.2142,-23.6579,1.68967e-14,7.15625e-15,-28.8103,-3.43948,97.3623,51.7639,10.0176,-12.5639,22.8808,7.12502,13.5136,52.4223,-3.62009,1.02016,29.0082,27.7951,-19.3985,-16.6361,2.0163,-32.1707,-0.482417,-7.97435,22.8775,-5.07988,13.0663,-17.6736
-7.207,17.4345,-11.7543,6.51665,-8.19678,-3.93895,8.69479,0.316971,3.24932,2.85756,0.759486,3.06496,-1.91196,0.368891,1.26404,-13.1656,3.99132,-4.11201,25.428,7.88799,-4.69981,10.3805,2.66662,0.0273823,8.54774e-15,3.26007e-14,-30.6819,9.30773,-88.1434,61.2764,4.29222,-9.77764,5.79987,7.12502,16.1978,-23.5434,8.54774e-15,3.26007e-14,-28.7345,-3.80174,97.6567,51.7536,10.2483,-13.0693,21.9305,7.12502,13.0263,51.5038,-3.39844,0.999394,29.0336,27.7877,-19.6581,-16.5652,2.48175,-32.0883,-0.476318,-8.12768,22.9233,-4.81147,13.2187,-17.4536
-7.17248,17.4336,-11.6872,6.7321,-8.00608,-3.8963,8.62828,0.229837,3.02636,2.79177,0.627658,3.1701,-1.94736,0.302432,1.51153,-12.9498,4.07181,-4.17627,25.2601,7.99403,-4.73318,10.2773,2.71801,0.0327597,-4.77083e-15,2.62396e-14,-30.0907,9.28018,-87.9824,60.4366,4.31306,-9.85028,5.63701,7.12502,16.1278,-23.7119,-4.77083e-15,2.62396e-14,-28.7109,-3.61126,97.9201,51.7974,10.2712,-12.6247,22.5431,7.12502,13.4549,52.0885,-3.43398,0.980948,28.8556,27.7771,-19.5415,-16.7002,1.73305,-32.2211,-0.702724,-8.47087,23.0049,-4.37718,13.2901,-18.8282
-7.13724,17.4383,-11.6132,6.97763,-7.91337,-3.93181,8.4167,0.216288,3.01261,2.79655,0.597963,3.19661,-1.82569,0.288636,1.55027,-12.0624,3.67477,-5.36229,24.68,7.35097,-3.84684,9.80963,2.46106,0.429311,1.64991e-14,3.18055e-14,-29.7455,9.06688,-87.8754,59.9111,4.39893,-10.5376,6.3414,7.12502,15.4659,-23.0599,1.64991e-14,3.18055e-14,-28.4871,-3.65892,98.1084,51.7185,10.4272,-12.1488,23.3455,7.12502,13.9136,52.86,-3.45142,1.00796,28.7284,27.7207,-19.5518,-16.6847,1.92936,-32.3316,-0.93164,-8.67306,23.1883,-4.01711,13.2991,-18.1633
-7.10396,17.4417,-11.5369,7.10911,-7.76879,-4.06239,8.37658,0.239259,3.09404,2.79321,0.633105,3.19213,-1.8061,0.306464,1.49662,-12.6803,4.19068,-4.08017,24.9373,8.07447,-4.6708,10.1069,2.79327,0.0391483,-4.77083e-15,-1.03368e-14,-29.5141,8.60731,-87.8668,59.3032,4.42162,-11.1481,6.90776,7.12502,14.8779,-22.538,-4.77083e-15,-1.03368e-14,-28.4122,-4.11534,98.2851,51.7228,10.803,-11.8933,23.4448,7.12502,14.1598,52.9422,-3.2758,1.0146,28.7387,27.6327,-19.4396,-16.8103,0.806442,-32.3432,-1.16245,-8.73355,23.4546,-3.19099,12.9982,-16.6874
-7.06756,17.4505,-11.4651,7.15651,-7.67831,-4.03613,8.62012,0.329128,3.00115,2.83414,0.754619,3.14725,-1.89963,0.366307,1.48926,-12.7816,3.88618,-4.35759,24.8446,7.60881,-4.28552,10.0602,2.60037,0.163463,-1.78906e-14,1.51076e-14,-28.8754,7.96603,-87.7729,58.4088,4.58344,-11.1569,6.3358,7.12502,14.8693,-23.1106,-1.78906e-14,1.51076e-14,-28.1121,-4.73504,98.5129,51.5258,11.1389,-12.0976,22.682,7.12502,13.963,52.1932,-3.0007,1.10073,28.5591,27.5057,-19.1869,-16.8437,0.12096,-32.3964,-1.57908,-8.85135,23.8189,-2.26061,12.8867,-14.4839
-7.03352,17.4611,-11.3913,7.21568,-7.58437,-4.04908,8.77526,0.414678,2.87356,2.9581,0.859955,3.16633,-1.85982,0.419042,1.56945,-13.4183,3.75136,-4.32075,25.044,7.45172,-4.19473,10.252,2.51985,0.187177,-1.59028e-15,-1.11319e-14,-28.0312,7.39378,-87.5875,57.4668,4.79435,-10.9654,5.84203,7.12502,15.0539,-23.5906,-1.59028e-15,-1.11319e-14,-27.6494,-5.30345,98.7954,51.2485,11.2908,-12.546,21.7327,7.12502,13.5308,51.273,-2.7446,1.29976,28.4676,27.4325,-18.7973,-17.0472,-1.06069,-32.5061,-1.96443,-8.90395,24.2121,-1.55673,13.3173,-13.39
-6.99913,17.4728,-11.3113,7.31081,-7.32672,-3.98643,8.72889,0.405102,2.73873,3.00826,0.831401,3.154,-1.78401,0.405415,1.63569,-13.6108,3.69612,-4.13638,25.1497,7.37476,-4.27856,10.338,2.48321,0.123346,5.56597e-15,1.59028e-15,-27.5426,7.02944,-87.5252,56.7403,4.53193,-10.5133,4.73407,7.12502,15.4893,-24.6654,5.56597e-15,1.59028e-15,-27.4111,-5.70372,98.9692,51.1974,11.4853,-13.2195,20.0113,7.12502,12.8816,49.5938,-2.62455,1.45231,28.3131,27.4977,-18.4874,-17.2721,-1.70817,-32.676,-2.31515,-9.08565,24.5472,-1.02482,13.8609,-13.1134
-6.9613,17.4823,-11.2352,7.47439,-7.06275,-3.92683,8.80532,0.440159,2.64753,2.92265,0.876927,3.09899,-1.91593,0.4273,1.62441,-13.5594,3.67111,-3.85867,25.1558,7.27878,-4.3137,10.3399,2.46253,0.0520445,-7.35503e-15,-2.90226e-14,-27.306,6.52056,-87.493,56.0941,3.98203,-10.0103,2.89339,7.12502,15.9737,-26.468,-7.35503e-15,-2.90226e-14,-27.3702,-6.26706,99.1413,51.1826,11.7306,-13.7147,18.7379,7.12502,12.4041,48.3498,-2.67543,1.62342,28.1541,27.6427,-18.5313,-17.4185,-0.861865,-32.965,-2.39773,-9.3728,24.8933,-0.763094,14.0911,-12.7459
-6.92382,17.4923,-11.1614,7.66216,-6.89283,-3.68886,8.93483,0.431565,2.28112,2.78579,0.845469,3.06623,-2.13413,0.410431,1.79831,-13.2448,3.74181,-3.8866,24.9035,7.31148,-4.19503,10.1795,2.50676,0.0930391,-1.86858e-14,-3.18055e-14,-26.9464,6.16606,-87.4709,55.1556,3.55593,-10.0952,2.66561,7.12502,15.892,-26.7023,-1.86858e-14,-3.18055e-14,-27.494,-6.62719,99.3443,51.3026,12.2995,-12.7212,19.9937,7.12502,13.3619,49.5453,-2.85569,1.69957,27.7724,27.8936,-18.3846,-17.5045,-1.54915,-33.2816,-2.24776,-9.90409,25.1704,-0.880476,13.9432,-10.9868
-6.88625,17.5086,-11.0771,7.80886,-6.5866,-3.51508,8.92004,0.358273,1.98634,2.69191,0.727385,3.10586,-2.22576,0.351755,2.01769,-12.6555,3.75116,-4.05577,24.4682,7.28124,-4.16684,9.90149,2.51187,0.109465,6.75868e-15,-7.55382e-15,-26.6507,5.96085,-87.3936,54.167,3.18859,-10.3383,3.20214,7.12502,15.6578,-26.1843,6.75868e-15,-7.55382e-15,-27.646,-6.75769,99.6336,51.4555,12.7932,-11.8583,21.6896,7.12502,14.1936,51.1847,-2.9676,1.49774,27.4522,28.2816,-17.941,-17.5985,-3.64822,-33.5387,-2.14022,-10.3658,25.4048,-0.943754,13.3939,-9.0003
-6.8469,17.5185,-10.9886,7.90628,-6.19483,-3.47835,8.86503,0.304068,1.96309,2.69457,0.650664,3.06946,-2.19084,0.313989,2.0013,-12.498,3.79046,-3.8003,24.2968,7.28674,-4.29229,9.82361,2.5343,0.0197595,-4.96962e-15,4.77083e-15,-26.3514,5.53551,-87.4092,53.3231,2.84959,-10.9181,4.04828,7.12502,15.0994,-25.381,-4.96962e-15,4.77083e-15,-27.5983,-7.30888,99.7558,51.5049,13.0959,-11.8508,21.7724,7.12502,14.2007,51.267,-3.02336,1.23239,27.2756,28.7104,-17.4366,-17.7064,-5.66161,-33.6123,-1.92981,-10.7671,25.6186,-0.695282,12.6923,-8.70784
-6.809,17.5187,-10.9107,8.22281,-5.64494,-3.45013,8.75229,0.203222,1.89509,2.6515,0.509529,3.09089,-2.17094,0.244189,2.07688,-12.8451,3.77578,-3.79985,24.4179,7.27858,-4.20998,9.9295,2.52788,0.0564023,-2.18663e-15,1.19271e-15,-25.9495,5.15189,-87.3804,52.7598,2.15388,-11.3172,4.61302,7.12502,14.7149,-24.8447,-2.18663e-15,1.19271e-15,-27.2488,-7.85769,99.881,51.3451,13.391,-11.8317,21.2419,7.12502,14.2192,50.7352,-3.33509,1.00428,27.1756,29.0893,-16.8897,-17.8315,-7.51586,-33.9602,-1.6671,-11.1714,25.85,-0.178945,11.6798,-10.1195
-6.76599,17.5204,-10.8194,8.38459,-5.27178,-3.5408,8.68316,0.19119,2.02181,2.6619,0.501768,3.09702,-2.12066,0.240501,2.01276,-13.1535,3.67574,-3.88109,24.5603,7.12838,-3.97362,10.0251,2.46666,0.141858,8.15017e-15,-1.86858e-14,-25.7509,4.62585,-87.3251,52.2956,1.61243,-11.4532,4.86327,7.12502,14.5838,-24.604,8.15017e-15,-1.86858e-14,-27.008,-8.47974,100.044,51.3657,13.7225,-11.6848,21.4528,7.12502,14.3607,50.9361,-3.43948,0.934133,27.1268,29.4542,-16.6695,-17.7738,-8.13848,-34.0837,-1.54196,-11.3542,26.066,0.250534,10.8705,-10.8791
-6.72192,17.5324,-10.7093,8.40519,-5.21299,-3.58261,8.42363,0.325297,2.11217,2.80841,0.668777,3.0185,-1.82698,0.324892,1.86423,-13.208,3.54045,-3.81556,24.4852,6.87893,-3.80842,10.0013,2.3796,0.158543,2.18663e-15,-1.43125e-14,-25.5716,4.04249,-87.2744,51.5971,1.45763,-11.9341,5.61192,7.12502,14.1205,-23.8883,2.18663e-15,-1.43125e-14,-26.7607,-9.25852,100.139,51.3947,13.8079,-11.1445,22.1455,7.12502,14.8813,51.591,-3.33539,0.914615,26.9109,29.8318,-16.7429,-17.3748,-7.65586,-33.8927,-1.29955,-11.5907,26.2945,0.431326,9.9615,-11.8106
-6.67468,17.5396,-10.6064,8.33203,-5.27976,-3.68537,8.41393,0.479743,2.17244,2.89922,0.873624,2.9877,-1.72985,0.42746,1.77868,-12.977,3.41214,-3.64748,24.2813,6.62717,-3.79623,9.88685,2.29336,0.0977119,5.96354e-16,1.19271e-15,-25.3597,3.66755,-87.2356,50.8679,1.37531,-12.6291,6.66563,7.12502,13.4507,-22.8801,5.96354e-16,1.19271e-15,-26.6495,-9.99536,100.269,51.5093,14.0178,-10.986,22.4782,7.12502,15.034,51.9124,-3.06911,0.907757,26.7149,30.1521,-16.4862,-16.8772,-8.05066,-33.6322,-1.15904,-11.7042,26.5818,0.505079,9.19793,-11.5434
-6.63022,17.5443,-10.507,8.22302,-5.31915,-3.89981,8.68834,0.629256,2.31322,2.73771,1.10122,2.96717,-2.049,0.539254,1.65243,-12.4419,3.2887,-3.40472,24.3615,6.34717,-3.7043,9.81417,2.20396,0.044921,1.76918e-14,-2.50469e-14,-25.5566,3.08566,-87.2505,50.7262,2.046,-12.1342,5.93006,7.12502,13.9277,-23.5835,1.76918e-14,-2.50469e-14,-27.0161,-10.7287,100.429,51.669,14.3653,-11.0954,21.562,7.12502,14.9286,51.004,-2.79063,0.967189,26.6968,30.5252,-15.8212,-16.6183,-9.59834,-33.3455,-0.958673,-11.696,26.827,0.503315,8.79068,-10.4919
-6.58317,17.5523,-10.399,8.13689,-5.27205,-4.03391,8.65328,0.687657,2.46897,2.71447,1.19031,2.92751,-2.05065,0.583641,1.51499,-12.0578,3.32357,-3.19851,24.4169,6.31155,-3.62906,9.76215,2.21994,0.0248428,-2.18663e-15,0,-25.5512,2.87309,-87.3163,50.43,2.2113,-12.0889,5.61349,7.12502,13.9714,-23.8971,-2.18663e-15,0,-27.2126,-11.2316,100.54,51.8289,14.5425,-11.0306,21.8463,7.12502,14.991,51.2837,-2.59131,0.930283,26.5596,30.9995,-15.3408,-16.2339,-11.1591,-33.0676,-0.604819,-11.8684,27.0998,0.571609,8.58804,-9.85887
-6.53285,17.5627,-10.2847,8.0758,-5.24316,-3.91611,8.5272,0.778216,2.35483,2.8017,1.29071,2.87932,-1.89311,0.634876,1.52112,-11.9844,3.20748,-3.36217,24.3432,6.10296,-3.34037,9.70427,2.14548,0.125116,-1.37161e-14,1.98785e-15,-25.3563,2.84522,-87.2621,50.0312,2.26619,-12.4171,5.867,7.12502,13.655,-23.6651,-1.37161e-14,1.98785e-15,-27.2172,-11.8664,100.747,51.988,14.8594,-11.0657,21.9554,7.12502,14.9572,51.3953,-2.54654,0.869457,26.113,31.6048,-14.4224,-15.8526,-12.9117,-32.8494,-0.443183,-12.2598,27.3725,0.782122,8.53195,-9.98532
-6.48804,17.5698,-10.1673,7.95592,-5.19169,-3.78079,8.56773,0.875686,2.07376,2.74899,1.40156,2.90955,-1.97889,0.689494,1.69806,-11.8348,2.93147,-3.626,24.515,5.71795,-3.10829,9.72091,1.96634,0.202564,1.43125e-14,-1.11319e-14,-25.6015,2.95052,-87.1168,49.6167,2.44727,-12.9886,6.73359,7.12502,13.1042,-22.8347,1.43125e-14,-1.11319e-14,-27.3625,-12.3253,101.008,52.1505,14.8168,-11.1794,20.9071,7.12502,14.8477,50.3551,-2.43321,0.950063,25.7188,32.317,-13.0349,-15.6285,-16.2593,-32.5484,-0.221645,-12.6599,27.6294,0.720827,8.31252,-8.75396
-6.44212,17.5794,-10.0473,7.91728,-5.22138,-3.63926,8.50855,0.935119,1.80813,2.68951,1.45905,2.9256,-2.01578,0.71811,1.85841,-11.9087,2.9252,-3.68238,24.8528,5.71643,-2.98812,9.84992,1.96132,0.257346,1.96797e-14,1.07344e-14,-25.9692,3.34745,-87.0598,49.2794,2.8987,-13.761,7.5923,7.12502,12.3595,-22.0224,1.96797e-14,1.07344e-14,-27.3999,-12.665,101.151,52.3415,14.8467,-11.119,20.4685,7.12502,14.9058,49.9123,-2.47886,0.999081,25.2596,33.1573,-12.4592,-15.2158,-18.6508,-32.2233,0.14995,-13.1385,27.8704,0.270795,7.8077,-9.0339
-6.3949,17.5887,-9.92662,7.84829,-5.20245,-3.47744,8.42959,0.998005,1.63675,2.74228,1.52175,2.84393,-1.92115,0.74981,1.86552,-12.0171,2.98154,-3.58112,24.8661,5.74318,-2.84273,9.87164,1.99774,0.296301,9.93923e-16,9.54166e-15,-26.1006,3.45947,-87.1615,49.04,2.92866,-13.992,8.30652,7.12502,12.1368,-21.3214,9.93923e-16,9.54166e-15,-27.1314,-13.232,101.146,52.3891,15.006,-10.7511,21.2144,7.12502,15.2602,50.6315,-2.6448,0.882961,24.7493,34.114,-12.3522,-14.5629,-18.3193,-31.8651,0.744028,-13.7726,28.1557,-0.211709,7.07993,-10.5394
-6.34906,17.5944,-9.80936,7.62413,-5.02393,-3.34847,8.48391,1.05556,1.56783,2.88223,1.58679,2.73343,-1.8067,0.782581,1.78387,-12.0794,2.83316,-3.47174,24.7941,5.47777,-2.71619,9.8557,1.90161,0.291383,2.76311e-14,3.57812e-15,-25.9551,3.49383,-87.2635,48.8062,2.35372,-14.1667,8.55974,7.12502,11.9683,-21.0781,2.76311e-14,3.57812e-15,-26.8189,-13.9368,101.052,52.531,15.1995,-10.4878,21.6071,7.12502,15.5138,51.0047,-2.67207,0.75227,24.3532,35.1589,-11.7465,-13.5051,-11.7694,-31.4063,1.30699,-14.3597,28.4532,-0.597383,6.23766,-11.8596
-6.29962,17.6003,-9.69531,7.51634,-4.87896,-3.27526,8.42901,1.02901,1.45636,2.8591,1.54252,2.76089,-1.80309,0.760485,1.88,-11.699,2.78585,-3.57936,24.7183,5.37838,-2.59736,9.74885,1.8674,0.331073,-1.19271e-15,-3.1408e-14,-25.9497,4.12092,-87.2836,48.6815,1.51929,-14.3211,8.55257,7.12502,11.8195,-21.0939,-1.19271e-15,-3.1408e-14,-26.9607,-13.9869,101.134,52.8962,15.2402,-10.3902,21.527,7.12502,15.6079,50.9173,-2.91517,0.574984,23.9617,36.2974,-10.0704,-12.1703,-2.59707,-31.1055,1.69845,-14.8114,28.7393,-1.17387,5.75954,-11.7118
-6.25205,17.6059,-9.57868,7.38961,-4.71653,-3.2704,8.37994,1.02411,1.38729,2.85398,1.5309,2.82628,-1.78458,0.754605,1.98843,-11.3482,2.71327,-3.72329,24.6218,5.2479,-2.46256,9.63972,1.81733,0.379333,8.74653e-15,-3.18055e-15,-26.1405,4.59981,-87.2773,48.6977,0.677087,-14.084,7.93972,7.12502,12.0481,-21.6935,8.74653e-15,-3.18055e-15,-26.8655,-14.2836,101.244,52.9044,15.4515,-10.5121,20.7,7.12502,15.4905,50.0994,-3.17674,0.369319,23.649,37.532,-11.8183,-10.6159,18.7173,-30.772,1.91625,-15.1192,29.0416,-1.84646,5.37529,-11.0278
-6.20279,17.6141,-9.45894,7.27857,-4.61024,-3.15185,8.25498,1.05104,1.29257,2.95043,1.55177,2.80843,-1.61843,0.764979,2.02426,-11.5958,2.66888,-3.77792,24.8122,5.19763,-2.36126,9.75041,1.79117,0.423969,1.09332e-14,2.26615e-14,-26.2102,4.95208,-87.2749,48.7152,0.188293,-13.6827,7.40488,7.12502,12.435,-22.2052,1.09332e-14,2.26615e-14,-26.5397,-14.7788,101.254,52.9088,15.7165,-10.6405,20.1959,7.12502,15.3668,49.6048,-3.48341,0.17794,23.1628,38.8944,-9.94163,-11.4033,-6.14803,-30.4015,2.05249,-15.5269,29.2972,-2.47251,5.13442,-10.4431
-6.154,17.6208,-9.34911,7.15002,-4.42695,-3.10096,8.4185,1.00325,1.23914,2.87854,1.49231,2.83819,-1.78367,0.735226,2.0875,-11.7972,2.796,-3.59629,25.1209,5.39604,-2.47928,9.90723,1.87379,0.382276,-5.1684e-15,3.97569e-16,-26.3711,5.53827,-87.2923,48.9001,-0.296487,-13.2042,6.95988,7.12502,12.8963,-22.6217,-5.1684e-15,3.97569e-16,-26.5616,-14.8045,101.269,53.0922,15.8638,-10.5097,20.1306,7.12502,15.4928,49.5298,-3.97075,-0.143925,22.7678,40.3476,-8.82513,-10.8039,-11.2387,-30.0447,2.12301,-15.8571,29.492,-2.78951,4.87726,-10.7048
-6.10821,17.6258,-9.24275,6.93253,-4.14199,-2.99862,8.62983,0.943249,1.1329,2.86449,1.41104,2.84427,-1.91542,0.69463,2.15844,-11.8668,2.81788,-3.40298,25.2308,5.41813,-2.57083,9.96804,1.88735,0.32304,-9.14409e-15,-2.3059e-14,-26.5919,5.66848,-87.3292,49.374,-0.431711,-12.7557,6.85055,7.12502,13.3287,-22.7032,-9.14409e-15,-2.3059e-14,-26.5499,-14.9,101.256,53.3937,15.9553,-10.3382,20.3707,7.12502,15.6579,49.757,-4.47591,-0.408833,22.3718,41.8941,-7.40616,-10.1283,-10.4951,-29.585,2.14314,-16.2088,29.6238,-3.18435,4.50252,-10.8773
-6.06437,17.634,-9.12696,6.80541,-3.94699,-2.82677,8.35711,0.967528,0.997673,3.04075,1.41778,2.77469,-1.58433,0.697526,2.16733,-12.0162,2.69956,-3.43879,25.2222,5.20891,-2.34463,9.98497,1.81189,0.385806,1.98785e-16,7.95139e-15,-26.469,5.5797,-87.3676,49.6125,-0.176051,-12.5766,7.24158,7.12502,13.5013,-22.3008,1.98785e-16,7.95139e-15,-26.2337,-15.2208,101.133,53.5663,15.951,-10.471,20.3514,7.12502,15.5301,49.7478,-5.1175,-0.520971,21.9088,43.5118,-5.85135,-9.51039,-9.40779,-29.1113,2.25318,-16.6527,29.7132,-3.65229,4.21719,-10.5617
-6.01895,17.6393,-9.01257,6.70021,-3.80569,-2.76323,8.15309,0.964999,0.973182,3.15103,1.4032,2.7384,-1.35697,0.689972,2.14906,-11.9784,2.67993,-3.42037,25.1325,5.14161,-2.23386,9.9418,1.79872,0.411877,-2.14687e-14,-4.92986e-14,-26.3105,5.72686,-87.4148,49.8196,-0.0803062,-12.3738,7.30254,7.12502,13.6968,-22.2267,-2.14687e-14,-4.92986e-14,-25.9384,-15.3928,100.908,53.7937,15.8626,-10.2332,20.7526,7.12502,15.759,50.131,-5.79897,-0.497113,21.544,45.1749,-4.39676,-8.86649,-6.94126,-28.6362,2.20437,-16.9362,29.7757,-4.10125,4.19721,-10.6308
-5.97404,17.6464,-8.90618,6.58489,-3.76678,-2.60394,8.29948,0.976375,0.795426,3.0992,1.4094,2.71274,-1.49521,0.692738,2.21921,-12.0475,2.68301,-3.4234,25.3187,5.1374,-2.14618,10.019,1.8001,0.445375,-1.86858e-14,-1.78906e-14,-26.5665,6.02009,-87.4108,50.4856,0.0653088,-12.3798,7.11248,7.12502,13.691,-22.4172,-1.86858e-14,-1.78906e-14,-25.7449,-15.5716,100.814,53.8421,16.2167,-10.5525,20.8066,7.12502,15.4515,50.209,-6.61192,-0.489805,21.06,46.9038,-2.72039,-8.24458,-4.08802,-28.2039,2.22372,-17.3323,29.8542,-4.41008,4.17126,-10.9393
-5.93312,17.6515,-8.79657,6.45152,-3.75468,-2.37029,8.40392,0.9959,0.443458,3.00996,1.41299,2.7309,-1.65408,0.694122,2.43352,-11.9735,2.71011,-3.48101,25.4448,5.17782,-2.09393,10.047,1.81668,0.477855,-4.37326e-15,-7.55382e-15,-26.8542,6.31125,-87.3907,51.0775,0.0832633,-12.4027,6.88164,7.12502,13.669,-22.6495,-4.37326e-15,-7.55382e-15,-25.8467,-15.6362,100.872,54.1575,16.6148,-11.7081,20.3389,7.12502,14.3383,49.8238,-7.49146,-0.430248,20.5285,48.6851,-1.05765,-7.64732,-2.28372,-27.7156,2.28778,-17.8059,29.9445,-4.79463,4.11744,-11.3903
-5.89866,17.6501,-8.69463,6.28485,-3.7089,-2.19168,8.50537,1.00264,0.144156,2.98566,1.39999,2.70853,-1.74118,0.687478,2.57866,-11.7658,2.77586,-3.43104,25.3511,5.23146,-2.05026,9.97195,1.85685,0.486192,-1.2921e-14,1.35174e-14,-26.9443,6.52711,-87.4927,51.5715,-0.271866,-12.2139,7.60177,7.12502,13.8508,-21.917,-1.2921e-14,1.35174e-14,-25.8149,-15.4987,100.644,54.4964,16.4672,-11.5598,20.2978,7.12502,14.4812,49.7725,-8.40294,-0.222393,20.1715,50.4891,0.396299,-7.05397,-1.27035,-27.2445,2.40341,-18.1871,30.0157,-5.18582,4.0405,-10.7756
-5.86037,17.6469,-8.59694,6.15649,-3.7419,-1.89991,8.64061,1.02977,-0.247313,2.94602,1.40527,2.64433,-1.86463,0.690491,2.73011,-11.6404,2.84847,-3.45108,25.2996,5.29213,-1.91116,9.92293,1.90207,0.542027,-3.57812e-15,1.39149e-14,-27.1427,6.86731,-87.5508,52.3864,-0.841557,-12.6639,9.15286,7.12502,13.4172,-20.3951,-3.57812e-15,1.39149e-14,-25.6089,-15.2827,100.307,54.773,16.135,-10.523,21.4153,7.12502,15.48,50.8156,-9.3981,-0.0118842,19.6627,52.2742,1.96188,-6.26247,1.02498,-26.8074,2.47505,-18.6856,30.0411,-5.53907,4.03053,-10.5058
-5.81959,17.6507,-8.48663,5.98942,-3.70436,-1.60728,8.59759,1.01979,-0.495126,2.95318,1.36843,2.53272,-1.83456,0.671844,2.75857,-11.299,2.96131,-3.39601,25.0648,5.3939,-1.85484,9.77113,1.97215,0.554661,-3.77691e-15,1.59028e-14,-27.278,7.11211,-87.6384,53.2652,-1.50342,-12.8935,9.90562,7.12502,13.1959,-19.6567,-3.77691e-15,1.59028e-14,-25.5372,-15.2067,100.035,55.1694,16.3098,-10.1865,21.7133,7.12502,15.804,51.0882,-10.2612,0.00700963,19.1129,53.9601,2.98768,-5.78121,3.33094,-26.2865,2.48074,-19.2116,30.0846,-5.88208,4.04829,-10.7129
-5.78304,17.654,-8.37663,5.7635,-3.70637,-1.33049,8.64094,1.03635,-0.803338,2.94771,1.36415,2.48112,-1.86953,0.669715,2.87886,-10.8578,3.01493,-3.37629,24.7377,5.43935,-1.90897,9.57224,2.00465,0.525194,-3.97569e-16,-2.38542e-15,-27.472,7.24111,-87.6961,54.205,-2.17655,-12.6984,9.51865,7.12502,13.3839,-20.0314,-3.97569e-16,-2.38542e-15,-25.5825,-15.2098,99.9188,55.6214,16.8187,-10.5559,21.0228,7.12502,15.4483,50.4255,-11.0307,0.0939688,18.6276,55.585,3.17853,-5.77058,3.41959,-25.6607,2.52905,-19.7083,30.0975,-6.25215,4.10016,-10.2769
-5.74744,17.6457,-8.2766,5.5454,-3.59456,-1.11536,8.81625,0.980283,-1.02329,2.91198,1.27173,2.45177,-2.00189,0.625029,2.97984,-10.7558,3.07027,-3.3247,24.7099,5.49723,-1.90139,9.5434,2.03917,0.52316,-6.95746e-15,-1.31198e-14,-27.8113,7.56234,-87.8137,55.4689,-3.02962,-12.5716,9.35241,7.12502,13.5062,-20.1896,-6.95746e-15,-1.31198e-14,-25.5278,-14.9847,99.6481,56.107,16.9056,-10.6641,20.523,7.12502,15.344,49.9337,-11.8005,0.107393,18.2539,57.1737,2.90348,-5.98712,3.95428,-25.0455,2.48739,-20.1067,30.1063,-6.67732,4.07495,-9.8443
-5.70639,17.6376,-8.17501,5.31335,-3.35536,-0.805791,8.96216,0.867041,-1.19409,2.92808,1.10386,2.3427,-2.05659,0.541917,2.97949,-10.7932,3.15094,-3.14649,24.8091,5.58786,-1.93414,9.5907,2.09035,0.494105,1.66979e-14,1.31198e-14,-28.3632,7.86723,-87.9549,57.2908,-3.96318,-12.4624,9.17177,7.12502,13.6114,-20.3632,1.66979e-14,1.31198e-14,-25.5335,-14.7245,99.2703,56.8834,16.847,-10.474,20.9284,7.12502,15.5272,50.325,-12.5354,-0.0901711,17.7345,58.7655,2.09627,-6.14749,4.1542,-24.4409,2.38582,-20.6444,30.1158,-7.18493,3.94653,-9.32535
-5.67029,17.633,-8.07425,5.10428,-3.21041,-0.398328,9.07652,0.791164,-1.59215,2.94053,0.965537,2.25259,-2.10275,0.473408,3.12507,-10.6258,3.2633,-3.14978,24.7375,5.70621,-1.82703,9.52833,2.1609,0.539998,-2.5842e-15,3.97569e-15,-28.931,8.18771,-88.0393,59.0739,-4.35296,-12.5055,8.81359,7.12502,13.5699,-20.7242,-2.5842e-15,3.97569e-15,-25.5054,-14.6074,98.979,57.5208,17.2132,-10.4664,21.0739,7.12502,15.5345,50.4699,-13.4251,-0.103133,17.1261,60.3307,1.48434,-6.33153,5.53225,-23.8662,2.25624,-21.2576,30.1521,-7.68587,4.02937,-9.15913
-5.63961,17.6309,-7.97797,4.9059,-3.1328,-0.207842,9.24709,0.748812,-1.81705,2.93976,0.88807,2.25211,-2.19546,0.435961,3.25933,-10.5762,3.28816,-3.24651,24.7641,5.7451,-1.76968,9.52335,2.17623,0.579244,4.77083e-15,3.97569e-16,-29.2197,8.48927,-88.038,60.516,-4.29055,-12.3676,9.26786,7.12502,13.7028,-20.261,4.77083e-15,3.97569e-16,-25.2361,-14.5889,98.7318,57.8658,17.8047,-10.8824,19.8728,7.12502,15.1338,49.2995,-14.4392,-0.00376881,16.815,61.7975,0.929747,-6.61004,7.60789,-23.2928,2.24424,-21.5995,30.1422,-7.93202,4.03908,-9.64768
-5.61091,17.6355,-7.87792,4.74582,-2.96687,-0.316364,9.3591,0.667317,-1.75801,2.90274,0.786911,2.32196,-2.2887,0.387191,3.30939,-10.3046,3.24197,-3.25914,24.6792,5.65787,-1.7451,9.44097,2.14304,0.57312,9.74045e-15,2.50469e-14,-29.5547,8.65858,-88.137,62.084,-4.04447,-12.4618,9.77196,7.12502,13.612,-19.763,9.74045e-15,2.50469e-14,-25.2595,-14.2912,98.4263,58.6439,17.4317,-10.8586,19.3832,7.12502,15.1567,48.8082,-15.409,0.09067,16.9071,63.0701,0.384751,-7.22232,8.52549,-22.7565,2.10584,-21.5778,30.1381,-8.2313,4.08742,-9.57787
-5.57996,17.6367,-7.77278,4.55642,-2.82246,-0.245364,9.34135,0.597296,-1.75836,2.93149,0.691827,2.24776,-2.24152,0.339023,3.24309,-10.0864,3.21615,-3.11217,24.6358,5.56661,-1.6991,9.38657,2.1227,0.549094,1.98785e-16,-1.98785e-15,-29.9699,8.7453,-88.313,63.9886,-3.7356,-12.6704,9.94195,7.12502,13.4109,-19.6064,1.98785e-16,-1.98785e-15,-25.4173,-14.0979,98.0037,59.7828,17.1774,-10.797,21.533,7.12502,15.2161,50.9535,-16.3052,0.13138,16.7682,64.231,-0.153627,-7.81965,10.2211,-22.1336,1.85154,-21.7529,30.1162,-8.71814,4.21139,-8.53734
-5.54844,17.6317,-7.67302,4.44876,-2.75576,-0.106457,9.27098,0.517322,-1.85871,2.94285,0.576285,2.21533,-2.18335,0.280649,3.27926,-10.071,3.27146,-3.06934,24.6961,5.61991,-1.63245,9.40303,2.15679,0.570754,3.57812e-15,2.90226e-14,-30.5576,9.06938,-88.4073,66.1928,-3.25138,-12.7208,9.74717,7.12502,13.3623,-19.8043,3.57812e-15,2.90226e-14,-25.3455,-13.8658,97.6348,60.6839,17.1319,-11.2429,22.5282,7.12502,14.7865,51.9807,-17.3803,0.147498,16.5247,65.2962,-0.296344,-8.16323,10.4577,-21.6221,1.72477,-22.0422,30.0835,-9.06853,4.34348,-8.33755
-5.51666,17.6307,-7.57957,4.40889,-2.57253,0.129569,9.27134,0.444198,-2.00691,2.98378,0.464715,2.18008,-2.13379,0.223929,3.3389,-10.4874,3.2345,-3.25762,24.9682,5.57489,-1.37753,9.56439,2.13378,0.697295,-2.98177e-15,-1.98785e-15,-31.0337,9.32451,-88.4112,68.5808,-3.10224,-12.9639,9.84747,7.12502,13.1279,-19.7193,-2.98177e-15,-1.98785e-15,-25.0611,-13.708,97.3564,61.4897,17.2644,-11.6844,21.78,7.12502,14.3612,51.2633,-18.5255,0.0235517,16.1895,66.304,-0.277294,-8.43275,8.48318,-21.2268,1.5454,-22.4341,30.089,-9.37044,4.38713,-8.04846
-5.48735,17.6292,-7.48321,4.32427,-2.32301,0.318882,9.17518,0.286536,-2.20271,3.11925,0.238946,2.20122,-1.92416,0.106143,3.49625,-10.4557,3.27507,-3.35145,24.8252,5.62864,-1.32749,9.50273,2.15955,0.733245,1.09332e-14,-3.18055e-15,-31.3068,9.7689,-88.4592,71.0769,-3.19675,-13.2024,10.3041,7.12502,12.8981,-19.2774,1.09332e-14,-3.18055e-15,-24.8656,-13.4175,97.077,62.6093,18.0644,-11.7314,22.3123,7.12502,14.3158,51.7988,-19.5366,-0.152835,15.9262,67.2124,-0.330233,-8.70042,7.78032,-20.7883,1.34808,-22.7665,30.1492,-9.80393,4.42249,-7.81812
-5.46099,17.6204,-7.38827,4.1796,-2.13266,0.325972,9.167,0.131468,-2.22503,3.1591,0.0321581,2.23905,-1.86226,0.00134581,3.57029,-9.88357,3.39873,-3.29083,24.456,5.7597,-1.39947,9.26703,2.23497,0.694297,-1.25234e-14,1.27222e-14,-31.9391,10.1754,-88.5918,73.9138,-3.53648,-13.2678,10.305,7.12502,12.835,-19.2804,-1.25234e-14,1.27222e-14,-24.9917,-13.0109,96.7952,64.0742,19.0955,-12.2876,23.0687,7.12502,13.7799,52.5923,-20.4732,-0.174739,15.9168,68.0694,-0.633831,-9.12054,9.62737,-20.3216,1.11245,-22.8886,30.2429,-10.1457,4.5608,-8.30888
-5.43869,17.6081,-7.2949,4.10394,-1.94626,0.497494,9.33391,0.0344654,-2.42242,3.05335,-0.116314,2.21412,-2.0514,-0.0681856,3.67398,-9.49557,3.42854,-3.15019,24.2413,5.76163,-1.47135,9.12505,2.25121,0.634732,4.37326e-15,-4.77083e-15,-32.7456,10.4965,-88.7876,76.9377,-4.33536,-13.3379,10.3346,7.12502,12.7674,-19.255,4.37326e-15,-4.77083e-15,-25.4377,-12.6408,96.5253,65.8951,19.5239,-12.6092,23.3785,7.12502,13.4699,52.923,-21.5346,-0.243811,15.733,68.8435,-1.12395,-9.47421,10.9396,-19.9682,1.00806,-23.1877,30.3291,-10.4567,4.59564,-8.89484
-5.41366,17.5934,-7.20242,3.93139,-1.89919,0.805044,9.64154,-0.000601065,-2.72149,3.03739,-0.198329,2.11959,-2.22947,-0.105563,3.7571,-9.49772,3.43958,-2.99455,24.232,5.75647,-1.51309,9.12783,2.25819,0.594055,1.92821e-14,6.75868e-15,-33.1875,10.7503,-88.9598,79.8208,-5.25786,-12.5948,9.94959,7.12502,13.4838,-19.5939,1.92821e-14,6.75868e-15,-25.7383,-12.2594,96.2177,67.7338,19.8849,-12.5425,23.1033,7.12502,13.5342,52.6435,-22.5694,-0.252694,15.3539,69.5214,-1.58215,-9.59931,11.4546,-19.4773,0.842859,-23.6378,30.4221,-10.8771,4.81321,-8.45595
-5.38854,17.5809,-7.11272,3.68882,-1.45924,1.07353,9.93841,-0.164128,-2.8806,3.13222,-0.438171,2.05393,-2.27288,-0.225444,3.8091,-9.49494,3.39704,-3.0734,24.172,5.66756,-1.34669,9.09849,2.22866,0.653402,3.57812e-15,-3.57812e-15,-33.398,10.95,-89.0293,82.8216,-5.9875,-11.9546,9.71475,7.12502,14.1008,-19.7868,3.57812e-15,-3.57812e-15,-25.8266,-12.0659,95.9595,69.6977,20.5887,-13.0575,23.1084,7.12502,13.0378,52.6809,-23.4379,-0.580548,15.0905,70.0507,-2.05515,-9.69244,10.2768,-18.9068,0.479274,-24.0421,30.4794,-11.2326,4.91611,-9.25051
-5.36213,17.5724,-7.0194,3.65785,-0.885987,1.28625,9.89952,-0.381902,-2.97302,3.17921,-0.734447,2.05488,-2.17524,-0.375622,3.89551,-9.21533,3.28968,-3.4183,23.9503,5.47981,-1.02272,8.94991,2.15327,0.791574,-2.78299e-15,5.56597e-15,-34.1487,11.2078,-89.1289,86.6273,-6.33833,-12.1165,9.29944,7.12502,13.9447,-20.2129,-2.78299e-15,5.56597e-15,-25.9827,-11.7608,95.768,71.9867,21.1901,-13.3675,24.4972,7.12502,12.7389,54.0886,-24.5026,-1.00403,14.8949,70.4057,-2.53279,-9.7386,9.81109,-18.5969,0.179792,-24.392,30.5788,-11.6034,4.78476,-9.157
-5.33646,17.5662,-6.91837,3.87038,-1.11232,1.33644,9.54266,-0.331312,-3.02442,3.2093,-0.664561,2.04904,-1.95314,-0.346043,3.90435,-9.18175,2.98973,-3.91745,24.0039,5.02682,-0.497246,8.93837,1.95065,1.00665,-9.74045e-15,-3.18055e-15,-34.9799,11.3995,-89.2366,90.4174,-6.08965,-12.1597,9.4714,7.12502,13.9031,-20.0438,-9.74045e-15,-3.18055e-15,-26.2339,-11.3544,95.5593,74.4131,21.4855,-12.9983,24.4222,7.12502,13.0948,53.9911,-26.0278,-0.62089,14.8646,70.6194,-2.78331,-9.81889,9.70681,-18.5155,0.202655,-24.5837,30.6813,-11.9072,5.12288,-9.55361
-5.32836,17.5473,-6.85857,3.65601,-0.569877,1.48249,10.4597,-0.456477,-3.30424,3.06905,-0.877121,2.13079,-2.57786,-0.436049,4.1924,-9.90239,3.25106,-3.21352,24.5649,5.41268,-0.893205,9.2947,2.13036,0.818819,-5.56597e-15,-5.56597e-15,-35.6215,11.5987,-89.251,94.0608,-6.14744,-11.977,9.72941,7.12502,14.0791,-19.7737,-5.56597e-15,-5.56597e-15,-26.6933,-10.9082,95.4593,76.9,22.1292,-12.718,23.0788,7.12502,13.365,52.6301,-27.1043,-0.907111,14.8848,70.7603,-2.87978,-9.98138,8.64763,-18.1988,-0.0635225,-24.7783,30.8697,-12.1606,4.96792,-9.24814
-5.2904,17.5381,-6.73928,3.60374,-1.17515,1.59186,10.3586,-0.318853,-3.31333,3.09689,-0.69578,2.06405,-2.51157,-0.347897,4.10318,-9.498,3.21053,-3.20716,24.2369,5.3183,-0.8816,9.10438,2.10039,0.798046,-2.24627e-14,3.97569e-15,-36.1411,11.8398,-89.4389,97.6615,-6.35231,-11.7554,10.2005,7.12502,14.2927,-19.2876,-2.24627e-14,3.97569e-15,-27.0824,-10.385,95.2815,79.4969,22.8058,-13.5632,23.0645,7.12502,12.5503,52.6675,-28.1987,-0.34321,14.695,70.706,-3.4313,-9.7503,8.22683,-17.7843,0.293774,-25.0808,31.1194,-12.7996,5.34534,-9.61242
-5.26787,17.5222,-6.66386,3.57515,-0.618795,1.75383,10.6868,-0.546572,-3.33584,3.16918,-1.00882,2.03011,-2.58694,-0.502872,4.12447,-9.16863,3.15354,-3.1969,23.7912,5.22993,-0.995494,8.89307,2.06224,0.73546,-5.36719e-15,-1.59028e-15,-36.4329,11.8671,-89.6844,101.334,-6.21562,-11.2633,10.6826,7.12502,14.7668,-18.7713,-5.36719e-15,-1.59028e-15,-27.1638,-9.90578,94.9605,82.1521,22.8271,-12.5052,24.0545,7.12502,13.5701,53.5923,-29.1478,-0.75982,14.5869,70.6033,-4.56007,-9.71577,9.20754,-17.6192,-0.0887585,-25.358,31.3964,-13.1183,5.29415,-9.94799
-5.2523,17.501,-6.58177,3.53055,-0.296087,1.72428,10.9048,-0.690103,-3.32717,3.23415,-1.20073,2.10452,-2.61894,-0.59879,4.22592,-9.61357,3.36518,-2.64126,23.9027,5.54911,-1.4294,9.04164,2.20725,0.540282,5.36719e-15,7.95139e-16,-36.8234,12.009,-89.8396,105.041,-6.27395,-11.0285,11.0295,7.12502,14.993,-18.4077,5.36719e-15,7.95139e-16,-27.2849,-9.33332,94.7441,84.9371,22.74,-10.6503,23.443,7.12502,15.3573,52.8527,-30.0638,-0.874468,14.7443,70.3452,-5.75276,-9.65087,9.39729,-17.3772,-0.278416,-25.3933,31.6053,-13.3937,5.28023,-9.83498
-5.23412,17.489,-6.4939,3.60771,-0.238308,1.78125,10.9661,-0.75494,-3.46692,3.1754,-1.30048,2.19096,-2.69832,-0.645491,4.41154,-8.93368,3.12939,-3.19502,23.5332,5.19184,-1.07813,8.76356,2.04428,0.695008,-5.1684e-15,-1.03368e-14,-36.9906,12.5043,-89.8911,108.348,-6.69646,-10.8282,11.5187,7.12502,15.186,-17.904,-5.1684e-15,-1.03368e-14,-27.7103,-8.65353,94.733,87.9946,22.8227,-9.85526,22.4834,7.12502,16.123,51.8328,-31.2678,-0.747052,14.7843,69.9254,-6.20588,-9.48829,8.27181,-17.26,-0.261167,-25.5405,31.8555,-13.7678,5.2816,-9.50973
-5.21287,17.4757,-6.40685,3.67496,-0.00798202,2.23526,11.0139,-0.862414,-3.86289,3.32885,-1.48819,2.1372,-2.53527,-0.745456,4.60248,-9.0479,3.10059,-3.4359,23.3322,5.125,-0.792901,8.70091,2.02507,0.823829,-3.06128e-14,3.18055e-14,-36.5091,12.9568,-89.779,111.505,-6.95383,-10.4066,11.9769,7.12502,15.592,-17.4147,-3.06128e-14,3.18055e-14,-27.69,-8.05908,94.6198,91.1379,23.0987,-9.76181,22.7932,7.12502,16.213,52.1352,-32.3932,-0.874666,14.3318,69.3511,-6.59915,-9.31912,7.68346,-17.1085,-0.418468,-26.1476,32.0943,-14.159,5.31518,-9.76931
-5.18995,17.4597,-6.32029,3.76265,0.219011,2.32864,11.0901,-0.97698,-3.78756,3.65521,-1.63194,2.14251,-2.22297,-0.831445,4.5789,-10.4286,3.05874,-3.42985,23.7344,5.13383,-0.730271,9.09563,2.01291,0.880205,-3.18055e-15,-1.19271e-14,-36.5378,12.7732,-89.8029,115.516,-6.75173,-9.74027,13.1568,7.12502,16.2338,-16.1835,-3.18055e-15,-1.19271e-14,-27.0827,-7.60376,94.4302,94.1032,23.305,-9.93776,23.2167,7.12502,16.0436,52.5725,-33.3237,-1.02436,14.3087,68.5832,-7.25509,-9.34588,7.26719,-16.9947,-0.766937,-26.3548,32.3493,-14.5362,5.46883,-9.54004
-5.17432,17.4458,-6.23958,3.73927,0.455914,2.2006,11.4594,-1.08303,-3.64458,3.82652,-1.76277,2.25675,-2.23287,-0.899608,4.64277,-11.7273,3.05619,-3.45572,24.3794,5.2072,-0.660897,9.56347,2.02287,0.953777,6.95746e-15,0,-35.3123,13.6055,-89.6102,118.352,-7.02155,-9.91988,13.7501,7.12502,16.0608,-15.6043,6.95746e-15,0,-26.8155,-7.16277,94.3641,97.1082,23.4234,-10.0321,22.6859,7.12502,15.9528,52.0489,-34.1654,-1.05175,14.6154,67.6869,-7.73501,-9.51716,7.25088,-16.8345,-0.960746,-26.2778,32.6407,-14.8794,5.53556,-10.1933
-5.15516,17.4279,-6.16441,3.59844,0.790058,2.18862,12.0221,-1.20521,-3.57424,3.88068,-1.92809,2.33782,-2.46503,-0.976726,4.7286,-11.9431,3.04118,-3.48658,24.4244,5.20659,-0.667519,9.62005,2.0156,0.961938,-1.43125e-14,-1.35174e-14,-35.094,13.7402,-89.6001,121.496,-6.97406,-9.61481,14.2878,7.12502,16.3545,-15.0426,-1.43125e-14,-1.35174e-14,-26.8112,-6.79263,94.4001,99.9321,23.1377,-10.2053,20.8922,7.12502,15.7859,50.2685,-34.9003,-1.22544,14.7864,66.696,-8.15067,-9.74107,6.30184,-16.5973,-1.31463,-26.3307,33.0425,-15.2394,5.65195,-9.97368
-5.13343,17.4097,-6.09019,3.64609,0.900711,2.07283,12.4362,-1.2485,-3.38221,3.82449,-1.96962,2.41487,-2.74929,-0.988636,4.72344,-11.6527,2.94302,-3.40771,24.1296,5.0504,-0.766904,9.46824,1.94967,0.886553,1.98785e-15,-1.59028e-15,-35.0034,13.8427,-89.6769,124.554,-6.53856,-9.60026,14.6471,7.12502,16.3686,-14.6821,1.98785e-15,-1.59028e-15,-26.8982,-6.53002,94.4698,102.64,23.0531,-10.1789,18.2291,7.12502,15.8113,47.6035,-35.8311,-1.19044,15.0586,65.6572,-8.67626,-10.0447,5.85789,-16.5657,-1.5685,-26.3037,33.347,-15.4392,5.99271,-10.6123
-5.11569,17.3958,-6.01407,3.80204,0.951606,1.88341,12.5926,-1.23487,-3.18781,3.87974,-1.92789,2.49785,-2.78499,-0.96803,4.6992,-11.7335,2.81243,-3.36724,23.9352,4.82662,-0.651595,9.41506,1.86629,0.893197,1.47101e-14,-7.15625e-15,-34.379,13.9968,-89.6047,127.388,-5.70994,-9.57493,14.5315,7.12502,16.3929,-14.7958,1.47101e-14,-7.15625e-15,-26.4999,-6.34402,94.3825,105.287,23.4107,-9.53358,17.0698,7.12502,16.4328,46.3937,-36.8546,-1.10206,15.4467,64.5057,-9.07428,-10.381,5.34165,-16.6014,-1.72242,-26.1835,33.5228,-15.5609,6.21561,-10.6485
-5.09097,17.3831,-5.92011,3.77559,1.07356,2.40294,12.6359,-1.22378,-3.55586,4.0936,-1.9642,2.35459,-2.57203,-0.995398,4.75908,-11.8975,2.65798,-3.45019,23.7032,4.57134,-0.419738,9.35897,1.77018,0.957813,1.35174e-14,-5.56597e-15,-33.767,14.225,-89.4725,130.336,-4.72409,-9.61064,14.5925,7.12502,16.3586,-14.7376,1.35174e-14,-5.56597e-15,-25.9077,-6.22076,94.2406,107.996,23.2094,-8.82277,17.4115,7.12502,17.117,46.6774,-37.4893,-1.3853,14.9967,63.2438,-9.36005,-10.5848,3.55966,-16.2378,-1.85734,-26.901,33.7301,-15.995,6.32816,-10.1642
-5.06962,17.376,-5.82654,3.66661,1.26874,2.79942,12.9042,-1.28987,-3.86707,4.23743,-2.09878,2.28652,-2.54218,-1.06629,4.89034,-11.9145,2.61629,-3.4118,23.4551,4.48683,-0.379335,9.27605,1.74429,0.952625,1.19271e-15,1.59028e-14,-32.9899,14.7534,-89.2312,132.956,-3.69864,-10.6839,16.1434,7.12502,15.325,-13.2688,1.19271e-15,1.59028e-14,-25.5877,-5.98491,94.1582,110.826,23.0491,-8.45041,17.9014,7.12502,17.4754,47.136,-37.9323,-1.66897,14.7067,61.8057,-9.49424,-10.8901,3.11518,-15.8065,-1.96529,-27.4638,34.0085,-16.4661,6.44111,-10.2148
-5.05978,17.3609,-5.77065,4.05377,1.46659,2.25419,13.2242,-1.38582,-3.37087,4.12074,-2.1616,2.5218,-2.84197,-1.08669,4.8819,-12.2104,2.62594,-3.22921,23.5249,4.50171,-0.486991,9.36318,1.75117,0.893615,-1.39149e-14,7.95139e-15,-32.1262,15.0585,-89.0091,135.209,-1.74928,-11.52,18.1934,7.12502,14.5195,-11.2785,-1.39149e-14,7.95139e-15,-25.1195,-5.76737,94.1034,113.468,23.1329,-8.06951,18.0169,7.12502,17.842,47.2184,-39.0743,-1.5529,15.5776,60.2285,-9.29938,-11.3682,2.97471,-16.1899,-2.18606,-26.8673,34.1894,-16.6106,6.51241,-10.2333
-5.05172,17.3484,-5.70839,4.41461,1.60329,1.61759,13.3926,-1.40009,-2.82064,4.06161,-2.10066,2.78969,-3.01305,-1.05139,4.85164,-12.6806,2.53367,-3.27704,23.7376,4.38346,-0.372105,9.52423,1.69618,0.939157,1.63003e-14,-7.15625e-15,-31.4424,15.2549,-88.7846,137.37,1.01491,-12.1667,19.0622,7.12502,13.8964,-10.4535,1.63003e-14,-7.15625e-15,-24.4765,-5.78484,94.0688,115.728,22.9954,-8.16768,17.1086,7.12502,17.7475,46.3187,-40.0538,-1.36186,16.556,58.5146,-9.12519,-11.8571,1.19937,-16.5079,-2.24832,-26.1722,34.2881,-16.6568,6.55995,-10.5445
-5.0317,17.3463,-5.60698,4.53839,1.78482,2.26875,13.3054,-1.40956,-3.46827,4.13204,-2.19845,2.73069,-2.8568,-1.10567,5.16759,-12.6464,2.39335,-3.34823,23.3625,4.20278,-0.420116,9.38881,1.60984,0.908214,9.93923e-16,1.74931e-14,-30.7592,15.6705,-88.456,139.634,2.54493,-12.4033,18.2002,7.12502,13.6683,-11.331,9.93923e-16,1.74931e-14,-23.9921,-5.73502,94.0709,117.954,22.6304,-8.43233,16.2742,7.12502,17.4928,45.5071,-40.558,-1.69448,15.9681,56.7182,-9.02299,-12.0371,0.481609,-16.1508,-2.38089,-26.9921,34.2405,-16.9136,6.6291,-10.5718
-5.00856,17.3475,-5.50965,4.6413,1.96894,2.81517,13.2705,-1.46137,-3.93624,4.27461,-2.32924,2.64311,-2.65586,-1.17985,5.35535,-12.6209,2.28768,-3.38424,22.7312,4.04081,-0.409018,9.16506,1.54728,0.891147,4.31363e-14,-8.74653e-15,-29.5607,16.0164,-88.0034,142.073,2.52139,-11.3231,16.3344,7.12502,14.7092,-13.1237,4.31363e-14,-8.74653e-15,-23.2712,-5.65193,93.8814,120.172,22.5837,-8.28466,15.9826,7.12502,17.6349,45.2028,-41.0408,-2.02006,15.4679,54.7934,-8.38891,-12.0607,2.45591,-15.7339,-2.47546,-27.711,34.1184,-17.1736,6.69418,-9.74705
-4.99319,17.3551,-5.42995,4.82162,2.13007,2.98148,13.4175,-1.44738,-4.0284,4.31744,-2.32808,2.58963,-2.68873,-1.17881,5.35646,-12.8601,2.12444,-3.40409,22.5084,3.74973,-0.102676,9.12853,1.44661,0.967024,7.15625e-15,-1.43125e-14,-28.4181,15.9663,-87.5095,144.083,2.63112,-10.2303,15.987,7.12502,15.7619,-13.3913,7.15625e-15,-1.43125e-14,-22.5851,-5.8236,93.6145,122.116,22.3168,-8.19521,15.3073,7.12502,17.721,44.5198,-41.6498,-1.95037,15.3647,52.7474,-7.86648,-11.7494,5.26733,-15.4786,-2.57937,-27.9634,33.8595,-17.2161,6.75106,-9.48814
-4.98133,17.3375,-5.3508,4.99603,2.25043,2.96202,13.4584,-1.41833,-3.86231,4.4444,-2.2707,2.52225,-2.59473,-1.15443,5.17995,-13.6225,1.94574,-3.37538,22.7535,3.44842,0.254007,9.35375,1.33878,1.06456,2.38542e-15,-6.36111e-15,-27.2247,15.6263,-87.1048,145.421,2.80854,-9.8366,16.7661,7.12502,16.141,-12.5818,2.38542e-15,-6.36111e-15,-21.493,-6.02299,93.2362,123.484,22.1604,-8.2183,13.5456,7.12502,17.6988,42.7601,-41.9038,-1.91258,15.5398,50.6591,-8.52125,-11.2646,8.99807,-15.3157,-2.63371,-27.9871,33.76,-17.3331,6.72069,-9.51925
-4.97103,17.3317,-5.27176,5.19635,2.3936,3.08096,13.5269,-1.39975,-3.91649,4.49324,-2.25605,2.47641,-2.58167,-1.14817,5.16174,-14.2688,1.74519,-3.50031,22.9912,3.14147,0.624935,9.55483,1.21976,1.18953,2.38542e-15,-3.57812e-14,-25.9073,14.9976,-86.4268,145.944,2.83156,-9.95274,17.9561,7.12502,16.0292,-11.4008,2.38542e-15,-3.57812e-14,-20.4051,-6.07959,92.8287,124.465,22.317,-7.83727,11.8489,7.12502,18.0654,41.0299,-42.2915,-1.9813,15.6133,48.4674,-7.83543,-10.9054,8.05543,-15.1272,-2.78309,-28.1415,33.6954,-17.5962,6.6011,-9.10301
-4.9579,17.3291,-5.19025,5.30776,2.51686,3.1764,13.7294,-1.43252,-4.01479,4.41171,-2.31706,2.5019,-2.76406,-1.17164,5.26526,-13.5699,1.61072,-3.50627,21.9519,2.91183,0.6044,9.06675,1.13181,1.13289,1.39149e-14,-3.73715e-14,-24.5701,14.3046,-85.716,145.636,2.71956,-10.3378,18.7226,7.12502,15.6583,-10.6638,1.39149e-14,-3.73715e-14,-19.7755,-5.75939,92.4485,124.964,22.8878,-6.83337,10.9104,7.12502,19.0311,39.9994,-42.5882,-2.05713,15.7068,46.1735,-6.86695,-10.5231,6.202,-14.8368,-2.82301,-28.306,33.601,-17.8861,6.56328,-8.79164
-4.94517,17.3294,-5.10979,5.47196,2.42522,3.22613,13.7687,-1.37635,-4.09777,4.38073,-2.25399,2.53975,-2.82002,-1.13842,5.3461,-12.4255,1.41227,-3.7193,20.3681,2.58612,0.70838,8.31861,1.00414,1.13369,1.51076e-14,1.27222e-14,-23.1698,13.194,-84.8654,144.684,2.407,-10.5837,19.1231,7.12502,15.4215,-10.2817,1.51076e-14,1.27222e-14,-18.8248,-5.28998,92.0651,124.633,24.2872,-5.10523,10.8607,7.12502,20.6923,39.7776,-43.023,-1.90955,15.8349,43.8355,-5.31775,-9.9254,2.40534,-14.6096,-2.64775,-28.4464,33.3896,-17.9909,6.65133,-8.24602
-4.93084,17.33,-5.02828,5.67084,2.40995,3.31912,13.7138,-1.29915,-4.11793,4.40655,-2.15376,2.51793,-2.7754,-1.0904,5.31623,-12.4428,1.19173,-3.79441,20.0527,2.24221,0.953108,8.21926,0.866242,1.18835,1.15295e-14,4.77083e-15,-21.8866,11.65,-84.0786,143.065,2.07888,-11.3173,20.2259,7.12502,14.7148,-9.23183,1.15295e-14,4.77083e-15,-17.3309,-4.96072,91.5761,123.291,26.221,-4.18264,10.8186,7.12502,21.5786,39.6364,-43.5647,-1.77685,15.8465,41.4479,-3.41031,-9.04999,-1.08295,-14.3717,-2.46721,-28.6367,33.1243,-18.1121,6.73071,-8.25577
-4.9164,17.315,-4.93877,5.79103,2.54696,3.58757,13.6796,-1.32738,-4.28745,4.30805,-2.21515,2.45536,-2.84858,-1.11641,5.35699,-12.7101,1.10159,-3.754,20.4221,2.08702,1.12635,8.39388,0.807664,1.23026,2.42517e-14,-2.38542e-15,-20.9434,10.0433,-83.4724,140.782,1.7865,-11.9007,20.4318,7.12502,14.1527,-9.06615,2.42517e-14,-2.38542e-15,-16.2044,-4.26942,90.9889,121.196,28.0028,-3.55677,10.8652,7.12502,22.1795,39.6128,-43.4927,-1.98838,15.7736,39.1684,-2.18935,-7.99006,-3.35391,-14.0061,-2.39646,-28.9895,32.8866,-18.3948,6.55093,-6.51556
-4.90532,17.3046,-4.84724,5.79998,2.56652,3.75011,13.594,-1.26667,-4.38173,4.20391,-2.14742,2.40795,-2.91838,-1.07823,5.34947,-12.1588,0.860821,-3.83483,20.3105,1.72041,1.24813,8.26341,0.64309,1.23914,4.77083e-15,-7.15625e-15,-19.9862,8.20258,-82.8284,137.633,1.5311,-12.4583,20.6641,7.12502,13.6153,-8.87069,4.77083e-15,-7.15625e-15,-14.9634,-3.58921,90.5019,118.167,28.7603,-4.05625,11.1563,7.12502,21.6999,39.9602,-43.4134,-1.93712,15.7845,36.9495,-0.740804,-7.25013,-5.3489,-13.4983,-2.18303,-29.2226,32.6119,-18.7438,6.46611,-4.67467
-4.89635,17.2943,-4.75927,5.88912,2.64535,3.93723,13.5079,-1.19765,-4.46614,4.10058,-2.06722,2.35853,-2.98909,-1.03367,5.33228,-11.6744,0.519715,-4.19214,20.1818,1.22649,1.59828,8.14062,0.4195,1.35925,-3.81667e-14,-2.38542e-15,-18.7395,6.22173,-82.2403,133.779,1.44613,-13.0393,20.5018,7.12502,13.0554,-9.06966,-3.81667e-14,-2.38542e-15,-13.4312,-2.89902,90.1021,114.272,28.3868,-5.29361,11.5175,7.12502,20.5113,40.454,-43.4411,-1.85448,15.7641,34.8741,0.443681,-6.75589,-6.18408,-13.1102,-2.18503,-29.442,32.3404,-19.0015,6.41132,-5.36638
-4.88511,17.2843,-4.66518,6.01792,2.82155,4.22141,13.2853,-1.18299,-4.6334,4.04667,-2.0628,2.33533,-2.91981,-1.03248,5.39474,-11.7424,0.165362,-4.58999,20.4596,0.763914,1.87753,8.25815,0.195361,1.47488,-2.8625e-14,3.97569e-15,-17.8262,4.26831,-81.5483,129.583,1.18061,-13.3841,20.2979,7.12502,12.7229,-9.29448,-2.8625e-14,3.97569e-15,-11.851,-1.97383,89.8258,109.642,26.7223,-6.4349,11.6155,7.12502,19.4142,40.6663,-43.3695,-1.90896,15.6345,32.7979,1.45106,-6.37622,-5.08208,-12.6957,-2.25114,-29.7612,32.0486,-19.1752,6.32086,-6.47655
-4.87528,17.2721,-4.56448,6.10569,2.66066,4.45567,12.9474,-1.05692,-4.85903,4.02219,-1.91358,2.31465,-2.77299,-0.96306,5.46721,-11.9356,-0.122139,-4.7651,20.7961,0.399915,1.94231,8.41981,0.013258,1.49234,-1.70955e-14,7.95139e-15,-17.1445,2.44338,-80.8993,124.762,0.698814,-13.3765,20.1387,7.12502,12.7303,-9.45319,-1.70955e-14,7.95139e-15,-10.1402,-0.928692,89.6101,104.191,24.0669,-6.45421,11.1922,7.12502,19.3957,40.2449,-43.3675,-1.60085,15.4796,30.8662,2.42184,-6.38849,-4.35837,-12.2015,-2.02522,-30.0533,31.6774,-19.1896,6.27627,-6.72237
-4.86266,17.2587,-4.46465,6.16903,2.4889,4.51031,12.6226,-0.993662,-4.8606,3.97806,-1.81824,2.30526,-2.65551,-0.918748,5.43341,-11.9309,-0.270403,-4.6804,20.9348,0.203647,1.8214,8.47387,-0.0863655,1.418,-2.46493e-14,8.74653e-15,-15.3532,1.04725,-80.234,119.237,0.157011,-12.4975,18.0288,7.12502,13.5776,-11.5085,-2.46493e-14,8.74653e-15,-8.3456,0.152755,89.3541,98.4064,21.5316,-6.17303,11.2317,7.12502,19.666,40.257,-43.377,-1.3723,15.6228,29.147,3.76218,-6.46194,-4.7103,-11.6691,-1.82329,-30.1631,31.2542,-19.2671,6.28035,-7.15312
-4.84915,17.2514,-4.35994,6.13957,2.64117,4.82317,12.3286,-1.07188,-5.08905,3.9605,-1.93837,2.26603,-2.49094,-0.983946,5.52797,-11.8122,-0.344428,-4.54569,20.8844,0.135043,1.51284,8.43902,-0.138973,1.2836,1.59028e-14,-7.95139e-16,-12.6362,-0.140101,-79.7802,112.329,0.292353,-12.7106,18.229,7.12502,13.3721,-11.3219,1.59028e-14,-7.95139e-16,-6.70182,1.13828,89.1793,93.259,19.8999,-6.30714,11.8396,7.12502,19.5371,40.878,-43.1702,-1.72457,15.7079,27.6376,4.93864,-6.38254,-8.04547,-10.9382,-1.7129,-30.5259,30.8408,-19.3529,6.15382,-7.96803
-4.84117,17.2441,-4.2568,6.03881,2.89776,5.02367,12.2267,-1.19306,-5.30351,3.84702,-2.11914,2.31778,-2.51939,-1.07088,5.72834,-11.5218,-0.424757,-4.61823,20.7702,0.0635229,1.33017,8.35093,-0.195792,1.22541,-1.11319e-14,3.18055e-15,-10.9172,-1.16563,-79.5577,106.45,-1.21705,-11.7066,17.9085,7.12502,14.3398,-11.5763,-1.11319e-14,3.18055e-15,-5.59938,1.81603,89.0296,89.3655,18.2324,-6.60367,12.8829,7.12502,19.252,41.9499,-42.891,-1.98926,15.8925,26.3154,5.65197,-7.00906,-9.037,-10.2063,-1.72462,-30.742,30.5316,-19.5251,6.04944,-3.09482
-4.83761,17.2339,-4.15892,5.90292,3.09829,5.18385,12.2518,-1.28646,-5.56316,3.83174,-2.27309,2.36968,-2.51382,-1.14809,5.95382,-11.6288,-0.442061,-4.53753,20.6646,0.0769538,1.106,8.33549,-0.204223,1.13764,9.54166e-15,9.54166e-15,-9.76487,-2.01801,-79.335,102.047,-2.71385,-10.5966,18.0013,7.12502,15.409,-11.4044,9.54166e-15,9.54166e-15,-4.98556,2.13192,88.8629,87.3052,16.2193,-6.45593,13.6257,7.12502,19.394,42.6786,-42.6602,-2.39118,16.2951,25.2856,6.33893,-7.67671,-10.2668,-9.63937,-1.55225,-30.9372,30.3176,-19.5804,6.133,-9.11967
-4.83085,17.2328,-4.06247,5.75655,3.27513,5.3321,12.3787,-1.44086,-5.65362,3.99038,-2.49292,2.32523,-2.38225,-1.26642,5.98817,-12.7412,-0.38359,-4.39092,20.8323,0.194013,1.06293,8.59243,-0.143683,1.11419,3.77691e-14,-1.43125e-14,-8.72895,-2.37243,-79.4036,99.1565,-3.03131,-10.6297,19.5776,7.12502,15.3772,-9.83057,3.77691e-14,-1.43125e-14,-4.79284,2.15929,88.5459,87.0528,14.3403,-5.79381,12.7116,7.12502,20.0306,41.6992,-42.4238,-2.85246,16.7764,24.605,6.3779,-8.89429,-10.8753,-9.1689,-1.3233,-31.1614,30.1705,-19.498,6.48934,-11.2738
-4.82492,17.2141,-3.96027,5.69028,3.22415,5.37285,12.6928,-1.50391,-5.6222,4.049,-2.58964,2.24099,-2.48335,-1.31144,5.90656,-14.0051,-0.454386,-4.18955,20.9079,0.0973375,1.13195,8.85276,-0.165972,1.09578,1.82882e-14,0,-8.40565,-2.54151,-79.631,98.6774,-0.206677,-10.4321,19.3353,7.12502,15.5675,-10.0582,1.82882e-14,0,-5.20248,1.7608,88.1808,88.2174,14.0399,-5.25349,11.8412,7.12502,20.5498,40.7735,-42.3595,-3.34711,17.5515,24.3154,5.82928,-10.5923,-9.51938,-8.64592,-0.977288,-31.2654,30.0706,-19.5867,6.61177,-12.2253
-4.81933,17.18,-3.848,5.66596,2.99716,5.56367,12.905,-1.43389,-5.69156,4.21623,-2.51836,2.10359,-2.43595,-1.28134,5.79554,-15.116,-0.729771,-4.26422,20.3364,-0.257187,1.32857,8.87141,-0.307997,1.13099,-3.53837e-14,-7.95139e-16,-8.45617,-2.69104,-79.6706,99.663,2.82274,-10.765,19.7953,7.12502,15.2468,-9.62284,-3.53837e-14,-7.95139e-16,-5.8072,0.8235,87.7747,90.3751,16.0142,-4.82746,11.7925,7.12502,20.9592,40.6801,-42.4778,-4.06928,18.4301,24.4368,6.18348,-11.7545,-9.43098,-8.04286,-0.517977,-31.5401,29.9683,-19.795,6.85994,-14.0067
-4.81123,17.1469,-3.73293,5.83573,2.88638,5.85806,12.9199,-1.37481,-5.75586,4.37253,-2.45083,1.96196,-2.29255,-1.25629,5.66868,-15.879,-0.992809,-4.36722,19.0939,-0.596834,1.51197,8.59724,-0.439655,1.16256,-1.78906e-14,-2.06736e-14,-9.05383,-2.62385,-79.4369,101.93,3.74701,-10.9439,19.8083,7.12502,15.0745,-9.62283,-1.78906e-14,-2.06736e-14,-6.29364,-0.381426,87.3501,92.731,18.9705,-4.63605,11.6293,7.12502,21.1431,40.4964,-42.9306,-5.21641,19.4456,24.9759,7.06217,-12.7767,-8.62978,-7.70567,-0.224305,-31.9335,29.8581,-19.9587,7.20028,-16.0953
-4.80529,17.1274,-3.61925,6.09815,2.77683,6.04713,12.9608,-1.24579,-5.77058,4.36878,-2.28531,1.93896,-2.34209,-1.1718,5.63211,-16.2825,-1.24956,-4.62913,17.6751,-0.920298,1.8009,8.20328,-0.56431,1.25698,4.37326e-15,-7.95139e-15,-10.2597,-2.19573,-78.9329,105.055,1.25871,-10.8584,19.942,7.12502,15.1569,-9.48296,4.37326e-15,-7.95139e-15,-6.7614,-1.63536,87.1391,94.822,21.2729,-4.11493,11.4946,7.12502,21.6436,40.3049,-43.5796,-6.60928,20.8321,25.8439,7.76574,-13.3547,-1.84619,-7.49327,-0.115385,-32.1686,29.6738,-20.0961,7.17036,-16.7672
-4.80216,17.1183,-3.49796,6.52696,2.85679,6.3161,12.7616,-1.09991,-5.99144,4.28518,-2.10695,2.05018,-2.33228,-1.083,5.84618,-16.5986,-1.60728,-4.91438,16.4273,-1.3512,1.97992,7.86065,-0.755338,1.307,-4.65156e-14,2.38542e-15,-11.5154,-1.73049,-78.3548,108.393,-3.06291,-10.3817,20.3064,7.12502,15.6161,-9.08328,-4.65156e-14,2.38542e-15,-7.28993,-2.89092,87.3757,96.5869,22.141,-3.82194,11.0043,7.12502,21.9249,39.7819,-44.3148,-7.8699,21.9867,26.7721,8.23689,-13.4182,3.78035,-7.41526,-0.172909,-32.4136,29.5025,-20.3922,6.77169,-15.3833
-4.79841,17.096,-3.37475,6.96718,3.11103,6.71851,12.6723,-0.991116,-6.28415,4.05369,-1.99491,2.1526,-2.52745,-1.01478,6.10995,-16.8565,-2.00049,-5.25656,15.7037,-1.84689,2.31279,7.6903,-0.971107,1.41245,-7.55382e-15,7.95139e-15,-12.8597,-1.46537,-77.7978,111.472,-6.47988,-9.34134,20.3213,7.12502,16.6178,-8.98723,-7.55382e-15,7.95139e-15,-7.94554,-4.00025,87.8663,97.994,21.5187,-3.45224,10.9548,7.12502,22.2799,39.6904,-45.0017,-8.79959,22.595,27.6215,8.3376,-12.8187,6.37484,-7.27378,-0.185711,-32.7861,29.3477,-20.4962,6.61056,-16.0446
-4.78956,17.0822,-3.24187,7.42666,3.27434,7.15877,12.5706,-0.917387,-6.60185,3.64761,-1.93561,2.25338,-2.89273,-0.959374,6.39797,-16.3972,-2.17046,-5.60667,14.7736,-2.04724,2.51118,7.31879,-1.06291,1.51185,1.59028e-15,3.97569e-15,-14.1035,-1.24463,-77.2703,114.101,-7.52479,-8.13228,19.9225,7.12502,17.7816,-9.28448,1.59028e-15,3.97569e-15,-8.56275,-4.78391,88.4877,98.6683,20.2871,-3.44195,10.9682,7.12502,22.2898,39.7026,-45.6116,-9.66457,23.071,28.3284,7.91601,-11.2699,6.22282,-7.15097,-0.0710463,-33.2165,29.1487,-20.4508,6.42257,-16.604
-4.77846,17.0838,-3.0952,7.77781,3.25098,7.24439,12.4347,-0.868985,-6.5515,3.1539,-1.86286,2.3792,-3.34877,-0.889997,6.50101,-15.5593,-2.26233,-5.78363,13.9363,-2.16773,2.47505,6.90946,-1.13156,1.51863,2.5842e-14,0,-15.2722,-0.852582,-76.9593,115.951,-5.8422,-8.4186,20.2292,7.12502,17.506,-9.00255,2.5842e-14,0,-9.35726,-5.20833,89.0923,98.9459,19.1423,-3.63537,10.8667,7.12502,22.1041,39.6233,-45.8635,-9.94772,23.5817,28.841,6.98738,-10.3746,13.5434,-6.8892,0.0683397,-33.2763,28.8881,-20.3424,6.1697,-16.1794
-4.76714,17.0893,-2.94637,7.97376,3.29711,7.0886,11.7614,-0.973693,-6.23603,3.19224,-1.9185,2.49299,-2.93828,-0.937462,6.4212,-15.6182,-2.29553,-5.54624,13.5514,-2.21316,2.19637,6.79085,-1.16159,1.38373,-3.57812e-14,6.36111e-15,-15.8102,-0.609163,-77.1215,116.812,-2.81787,-9.49209,21.4079,7.12502,16.4727,-7.91278,-3.57812e-14,6.36111e-15,-9.27937,-5.2042,89.4285,98.8237,17.9022,-4.31494,10.9494,7.12502,21.4515,39.7818,-45.7748,-9.62867,23.8376,29.1656,6.4252,-10.7299,20.6509,-6.4385,0.122075,-33.0321,28.6092,-20.2909,5.75003,-14.3071
-4.75476,17.0961,-2.79222,7.89465,3.57166,7.04275,11.533,-1.17652,-5.86829,3.13122,-2.13127,2.52599,-2.85814,-1.04573,6.26489,-15.5382,-2.27274,-5.41977,13.4779,-2.19935,2.10014,6.75032,-1.15663,1.33396,2.74323e-14,-4.92986e-14,-16.8602,-0.347563,-77.4349,117.347,-0.843028,-10.3049,22.0713,7.12502,15.69,-7.31254,2.74323e-14,-4.92986e-14,-9.3879,-4.98956,89.682,98.5085,16.994,-5.0981,10.9829,7.12502,20.6992,39.8991,-45.2688,-9.00143,23.4514,29.4451,6.09332,-12.0944,22.5652,-5.62515,0.00884499,-32.8789,28.3032,-20.2477,5.39706,-13.5555
-4.7458,17.1074,-2.6336,7.6035,3.97728,6.95335,11.7649,-1.45287,-5.42101,2.83987,-2.45851,2.55319,-3.26236,-1.1866,6.09895,-15.1972,-2.23024,-5.28787,13.8331,-2.17953,2.01352,6.80384,-1.15298,1.28916,1.19271e-14,-7.95139e-15,-18.4061,-0.171001,-77.8821,117.869,-0.28909,-10.4979,21.8094,7.12502,15.5042,-7.58898,1.19271e-14,-7.95139e-15,-10.3918,-4.44597,90.0018,98.3208,16.2267,-5.43229,10.952,7.12502,20.378,39.9028,-44.5366,-8.40726,22.9897,29.8267,5.80505,-13.8184,23.6489,-4.50349,-0.138753,-32.6195,27.9383,-20.1611,5.3478,-17.2331
-4.73641,17.122,-2.4805,7.44693,4.2816,6.91272,11.4979,-1.71032,-5.04748,2.8165,-2.74302,2.56578,-3.11773,-1.33471,5.92289,-15.188,-2.25412,-5.20304,14.1099,-2.23186,2.00288,6.8926,-1.17705,1.26667,-4.92986e-14,4.77083e-15,-19.324,-0.478929,-78.4145,117.823,0.252874,-10.5868,21.2701,7.12502,15.4185,-8.13488,-4.92986e-14,4.77083e-15,-11.0175,-3.72159,90.3392,97.8998,15.7715,-6.03218,10.4688,7.12502,19.8014,39.4801,-44.0014,-7.71738,22.4931,30.3581,5.98324,-14.9763,25.6221,-3.59204,-0.316452,-32.4193,27.588,-19.858,4.98352,-20.1704
-4.72156,17.1277,-2.33088,7.26797,4.35804,6.8337,11.4302,-1.88674,-4.62245,2.68095,-2.92503,2.58124,-3.2198,-1.42059,5.72087,-15.1348,-2.31574,-5.10767,14.5656,-2.3194,1.86375,7.03198,-1.23056,1.19715,0,-7.95139e-15,-20.1299,-0.836717,-78.9066,117.151,0.979869,-11.1955,21.0163,7.12502,14.8321,-8.43288,0,-7.95139e-15,-11.7482,-2.85342,90.6966,97.2462,15.6877,-6.73964,10.0235,7.12502,19.1212,39.1036,-43.6245,-7.43952,22.3385,30.9987,5.94946,-14.9823,26.5831,-2.70321,-0.379619,-32.2635,27.3806,-19.3071,3.98429,-19.8335
-4.7042,17.1416,-2.18036,7.14651,4.23498,6.7469,11.2865,-2.06642,-4.2521,2.4571,-3.11631,2.59727,-3.37052,-1.50816,5.55123,-15.008,-2.31347,-5.10479,15.1544,-2.3251,1.84455,7.20191,-1.24081,1.19084,-2.38542e-14,2.8625e-14,-20.6864,-1.08337,-79.3556,115.938,1.7474,-11.9523,20.8265,7.12502,14.103,-8.6749,-2.38542e-14,2.8625e-14,-12.5195,-1.73414,90.9732,96.34,16.0036,-8.03865,9.82978,7.12502,17.8716,39.0286,-43.419,-7.35849,22.3639,31.8035,5.20676,-14.6197,27.5982,-2.03098,-0.410255,-32.1501,27.2797,-18.6495,3.4728,-20.456
-4.68777,17.1664,-2.02917,7.01569,3.90054,6.49701,11.1387,-2.17945,-3.89637,2.18892,-3.21601,2.74791,-3.56924,-1.54872,5.5226,-14.7745,-2.27208,-5.17442,15.5327,-2.26707,1.83204,7.28375,-1.22315,1.20623,-2.98177e-14,-1.90833e-14,-21.102,-1.33505,-79.5403,114.308,2.38949,-12.412,20.4225,7.12502,13.6599,-9.10926,-2.98177e-14,-1.90833e-14,-13.4157,-0.535747,91.275,95.3338,16.2836,-9.22534,9.77239,7.12502,16.7295,39.0716,-43.2054,-7.25277,22.6391,32.6419,4.56161,-14.1776,27.5922,-1.51844,-0.331932,-31.8761,27.3029,-18.0833,3.33461,-22.0501
-4.67471,17.178,-1.88342,6.86174,3.5672,6.34691,11.086,-2.26955,-3.72859,1.95635,-3.30833,2.91816,-3.77221,-1.58496,5.62542,-14.5794,-2.20818,-5.27091,15.845,-2.1664,1.80111,7.34937,-1.18794,1.22428,-4.33351e-14,9.54166e-15,-21.3604,-1.68668,-79.7081,112.321,2.92841,-12.7904,20.0106,7.12502,13.2953,-9.54531,-4.33351e-14,9.54166e-15,-14.3059,0.751415,91.6822,94.2174,16.3534,-10.773,10.053,7.12502,15.2392,39.4717,-42.9834,-7.01555,22.7178,33.4748,4.01659,-14.1854,27.546,-0.907463,-0.412944,-31.701,27.4513,-17.6423,3.14522,-23.5941
-4.66132,17.1892,-1.74327,6.70765,2.95287,6.10993,11.062,-2.30067,-3.57531,1.78912,-3.32309,3.1136,-3.92962,-1.58545,5.75288,-14.6211,-2.14226,-5.29884,16.2667,-2.04208,1.64897,7.48954,-1.14902,1.19231,8.74653e-15,2.06736e-14,-21.58,-1.92686,-79.8557,110.349,3.34765,-12.8019,19.2087,7.12502,13.2841,-10.3479,8.74653e-15,2.06736e-14,-15.1817,2.18342,92.0157,92.9573,16.2593,-12.3449,10.2045,7.12502,13.7246,39.7319,-42.7559,-6.57736,22.8523,34.2466,3.11925,-14.1751,28.3278,-0.405647,-0.305264,-31.5204,27.7162,-17.0523,3.30422,-24.9553
-4.64698,17.2105,-1.60108,6.70299,2.19677,5.98906,10.7633,-2.26458,-3.35941,1.81002,-3.24403,3.13018,-3.76355,-1.55488,5.6182,-15.1535,-2.16459,-5.09016,16.5324,-2.07725,1.57522,7.66817,-1.16023,1.12641,-3.1408e-14,2.8625e-14,-21.4447,-2.57671,-80.1176,108.172,3.82869,-13.0283,18.6609,7.12502,13.0659,-10.9099,-3.1408e-14,2.8625e-14,-15.7483,3.29856,92.1143,91.5798,15.9459,-13.9118,10.3299,7.12502,12.2141,39.9533,-42.6491,-6.40135,23.0138,34.927,2.18821,-13.4881,28.8474,-0.198711,-0.0494017,-31.4926,28.0485,-16.2096,3.14036,-26.5996
-4.63532,17.2356,-1.45179,6.6579,1.51447,5.93501,10.424,-2.20937,-3.21853,2.01112,-3.14915,3.15613,-3.38298,-1.52493,5.52566,-16.109,-2.28527,-5.01984,16.6207,-2.22106,1.65511,7.86991,-1.21264,1.11798,1.90833e-14,-1.11319e-14,-21.0811,-3.25802,-80.2574,105.94,4.51036,-13.6405,18.5292,7.12502,12.4757,-11.0784,1.90833e-14,-1.11319e-14,-15.8448,4.18087,92.2486,90.0732,15.2702,-15.2343,10.8319,7.12502,10.9387,40.5269,-42.3455,-6.42895,23.1675,35.4518,1.68398,-12.4767,27.763,0.00926438,0.183855,-31.4914,28.46,-15.3231,2.77721,-27.8288
-4.62116,17.2571,-1.29372,6.60776,0.848917,5.79204,10.0269,-2.19,-2.94082,2.11757,-3.08771,3.1869,-3.07297,-1.50783,5.36602,-16.9154,-2.34959,-4.98776,16.8739,-2.27944,1.68428,8.09787,-1.23364,1.10951,4.29375e-14,-4.45278e-14,-20.9646,-3.79893,-80.3438,103.979,5.25223,-14.0805,18.1088,7.12502,12.0515,-11.5242,4.29375e-14,-4.45278e-14,-16.0752,5.04499,92.3978,88.6518,13.9713,-16.5477,11.8868,7.12502,9.67175,41.6448,-41.9498,-6.46963,23.4093,35.8581,1.42674,-11.3671,25.8525,0.204005,0.414314,-31.3771,28.9486,-14.4343,2.42556,-28.7996
-4.6124,17.2805,-1.13954,6.46626,0.253181,5.692,9.76333,-2.20228,-2.8659,2.09327,-3.09007,3.28297,-2.95093,-1.51288,5.41101,-17.1109,-2.31297,-5.01286,16.9761,-2.23388,1.78714,8.16622,-1.20329,1.15216,2.34566e-14,-1.59028e-14,-21.1506,-3.96022,-80.2437,102.033,6.36211,-14.865,17.7866,7.12502,11.2949,-11.8893,2.34566e-14,-1.59028e-14,-16.7575,6.00817,92.5458,87.3845,12.2694,-17.6204,12.2991,7.12502,8.63665,42.1024,-41.4557,-6.22759,23.4355,36.2332,0.889418,-10.7238,25.6348,0.499538,0.703031,-31.2426,29.4046,-13.4762,1.90996,-30.1224
-4.6066,17.3083,-0.98574,6.36725,-0.216604,5.59864,9.46509,-2.29999,-2.91532,2.05019,-3.21514,3.47488,-2.8024,-1.57882,5.63973,-17.1307,-2.24895,-5.16882,16.8517,-2.13299,1.92993,8.12774,-1.15012,1.2374,-1.78906e-14,-1.90833e-14,-21.4823,-3.81966,-80.0831,100.242,8.15926,-15.9562,17.8102,7.12502,10.2424,-11.9205,-1.78906e-14,-1.90833e-14,-17.6266,7.03962,92.7531,86.4139,10.6651,-17.9823,12.4193,7.12502,8.28743,42.2367,-40.9564,-5.9857,23.4106,36.606,-0.0423199,-10.3812,26.3601,0.769674,0.96176,-31.0641,29.8171,-12.3061,1.33034,-31.032
-4.60058,17.3393,-0.819113,6.15155,-0.390294,5.50075,9.23846,-2.49543,-2.85072,2.04875,-3.4614,3.63774,-2.64301,-1.70695,5.7868,-17.0342,-2.15272,-5.24364,16.6017,-2.01099,2.05513,8.02443,-1.08286,1.30632,-2.3059e-14,1.90833e-14,-22.1462,-3.72993,-79.93,99.2868,10.3174,-16.6285,17.718,7.12502,9.59379,-12.0436,-2.3059e-14,1.90833e-14,-18.4926,7.76241,92.8471,85.5839,9.33944,-18.0739,12.4416,7.12502,8.19903,42.2625,-40.2681,-6.08824,23.4224,37.0353,-0.970962,-10.1635,27.2079,1.26962,1.01606,-30.8323,30.1157,-11.0047,0.739571,-32.5414
-4.59469,17.362,-0.643795,5.89641,-0.586364,5.65161,9.04385,-2.64823,-2.96135,2.02116,-3.67217,3.67388,-2.52916,-1.81476,5.89745,-18.4359,-2.4126,-4.84137,17.7467,-2.32445,1.66144,8.66032,-1.24795,1.0609,-2.22639e-14,6.36111e-15,-23.1412,-3.68683,-79.7981,99.0936,12.5086,-17.1078,17.595,7.12502,9.13128,-12.1873,-2.22639e-14,6.36111e-15,-19.5215,8.03942,92.8285,84.9915,8.52246,-18.23,12.5467,7.12502,8.0484,42.3735,-39.5662,-6.41489,23.2489,37.4813,-1.79915,-9.61736,27.7065,1.83518,1.20463,-30.8405,30.3781,-9.61557,0.0548067,-33.9316
-4.58929,17.3844,-0.465569,5.58662,-0.755199,6.0937,8.87485,-2.75762,-3.34814,1.97078,-3.85264,3.63959,-2.44206,-1.90514,6.08922,-18.8428,-2.5439,-4.78645,17.9531,-2.48296,1.58132,8.80679,-1.32693,1.00066,-4.57205e-14,2.8625e-14,-24.0403,-3.69172,-79.6251,99.0871,14.2625,-17.4566,17.6942,7.12502,8.79474,-12.1025,-4.57205e-14,2.8625e-14,-20.5664,7.89274,92.8072,84.564,7.78648,-18.3802,12.4733,7.12502,7.90343,42.3055,-38.7698,-6.85689,22.7854,37.8051,-2.37415,-9.08973,27.2306,2.36526,1.40745,-31.1151,30.7974,-8.17383,-0.905281,-33.7452
-4.58687,17.4133,-0.290294,5.36563,-0.819773,6.19979,8.65604,-2.89382,-3.40817,1.88486,-4.03317,3.72362,-2.37658,-1.99582,6.21729,-18.8267,-2.57502,-4.81135,17.7659,-2.52153,1.59608,8.74169,-1.34383,1.00485,-2.54444e-14,2.8625e-14,-24.9007,-3.5943,-79.464,99.3885,15.0237,-17.7923,17.6792,7.12502,8.4708,-12.1309,-2.54444e-14,2.8625e-14,-21.6675,7.44894,92.8053,84.3421,7.24868,-18.1421,12.417,7.12502,8.13316,42.2405,-37.9402,-7.27688,22.717,37.8735,-2.65086,-8.7278,26.2383,2.53501,1.61818,-30.9537,31.6519,-6.61156,-1.94915,-33.6985
-4.5919,17.4443,-0.14327,5.48005,-1.13935,5.70246,8.57747,-2.93141,-3.01823,1.63328,-4.03604,4.00484,-2.60138,-1.98765,6.29932,-18.9919,-2.53947,-4.67829,17.6767,-2.46861,1.44567,8.7347,-1.32483,0.937457,-9.50191e-14,3.49861e-14,-25.6685,-3.55678,-79.3635,99.9175,14.9385,-17.6635,17.9296,7.12502,8.59509,-11.8755,-9.50191e-14,3.49861e-14,-22.715,6.78451,92.8786,84.229,7.11455,-17.8605,12.1724,7.12502,8.40497,41.9852,-37.5007,-7.00096,23.3137,37.7314,-2.73411,-8.86268,25.2816,1.8515,2.06989,-30.0676,32.9344,-4.89485,-3.15072,-33.168
-4.60359,17.4651,-0.0279149,5.83068,-1.87424,4.69535,8.73426,-2.82923,-2.31712,1.26654,-3.81493,4.45819,-3.11438,-1.86047,6.38849,-19.1566,-2.51198,-4.6292,17.4972,-2.42526,1.40099,8.69965,-1.30383,0.918654,-4.05521e-14,7.95139e-15,-26.3551,-3.55896,-79.3304,100.643,14.0284,-17.3206,18.19,7.12502,8.92602,-11.6011,-4.05521e-14,7.95139e-15,-23.6424,5.93944,92.9166,84.1908,7.43266,-17.9606,12.1262,7.12502,8.30837,41.9428,-37.3612,-5.79011,24.4024,37.4816,-2.73612,-9.37229,25.0503,0.536634,2.76206,-28.66,34.4976,-2.64844,-4.10743,-31.369
-4.61044,17.4751,0.0928788,5.92988,-2.50638,4.22339,8.95051,-2.75361,-2.0346,1.04221,-3.67278,4.70379,-3.48841,-1.77745,6.50034,-19.0521,-2.56411,-4.74533,17.0118,-2.50907,1.6061,8.52262,-1.32541,0.9975,-5.56597e-15,-4.29375e-14,-27.1321,-3.41146,-79.3048,101.443,12.6997,-17.4089,18.1224,7.12502,8.8408,-11.6724,-5.56597e-15,-4.29375e-14,-24.5422,4.93157,92.9538,84.3857,7.68705,-18.1946,12.5734,7.12502,8.0825,42.3988,-36.9084,-5.00891,24.8806,37.2642,-3.13877,-9.6185,26.2661,-0.431916,3.39486,-27.8339,36.1777,-0.772178,-5.25614,-31.6193
-4.61241,17.4848,0.235442,5.82124,-2.89467,4.13481,8.94175,-2.76207,-1.96141,0.955285,-3.67181,4.79255,-3.57327,-1.77385,6.55676,-18.7683,-2.58021,-4.97219,16.2958,-2.56474,2.03706,8.24122,-1.31678,1.17526,-7.31528e-14,6.67916e-14,-28.0838,-3.1234,-79.2418,102.405,10.8666,-17.5799,17.8759,7.12502,8.67575,-11.9259,-7.31528e-14,6.67916e-14,-25.5581,3.82804,93.1129,84.7516,7.83381,-18.3611,13.3441,7.12502,7.92184,43.1757,-36.2164,-4.82617,24.9338,37.175,-3.73754,-9.53681,27.6562,-1.01414,3.80928,-27.4243,37.7732,0.275747,-6.6916,-33.6915
-4.61999,17.4965,0.373822,5.6866,-3.41739,3.77602,8.99187,-2.73026,-1.74785,0.874868,-3.59928,4.97332,-3.69599,-1.73536,6.62762,-17.8732,-2.4356,-5.33177,15.0692,-2.43926,2.7244,7.68498,-1.20685,1.48401,4.25399e-14,-4.29375e-14,-29.0452,-2.7753,-79.193,103.4,8.84888,-17.7845,17.5705,7.12502,8.47832,-12.2393,4.25399e-14,-4.29375e-14,-26.425,2.55146,93.2744,85.009,8.19763,-18.7751,13.7206,7.12502,7.52222,43.5668,-35.5559,-4.3875,25.2544,37.2341,-4.15598,-9.41163,28.2172,-1.60478,4.26649,-26.6685,39.1829,1.84242,-7.98506,-33.1011
-4.61968,17.5072,0.506906,5.59791,-3.94165,3.32348,9.07793,-2.7444,-1.33712,0.781532,-3.56595,5.15664,-3.85946,-1.71819,6.59594,-17.2154,-2.35333,-5.54456,14.0513,-2.37429,3.16032,7.24213,-1.14452,1.67178,-3.33958e-14,3.18055e-15,-29.6494,-2.37829,-79.2244,104.108,6.8909,-17.9536,17.0441,7.12502,8.31511,-12.7723,-3.33958e-14,3.18055e-15,-27.1716,1.36523,93.4184,85.1863,8.49465,-18.8541,13.9669,7.12502,7.44598,43.8158,-34.9978,-4.25649,25.7552,37.3165,-4.39051,-8.94042,26.3911,-2.22181,4.64196,-25.8458,40.519,3.62485,-9.19135,-30.9683
-4.61205,17.5197,0.643965,5.42504,-4.46216,3.28435,9.16883,-2.81125,-1.31438,0.76737,-3.64845,5.23633,-3.9112,-1.75796,6.68477,-17.192,-2.44092,-5.23901,13.2918,-2.51472,2.9152,6.98912,-1.21365,1.52453,1.51076e-14,3.49861e-14,-29.9546,-1.89807,-79.3686,104.581,5.02454,-18.0524,16.8236,7.12502,8.21979,-12.9965,1.51076e-14,3.49861e-14,-27.7772,0.467367,93.5509,85.3792,8.86711,-19.0019,14.2005,7.12502,7.30336,44.0545,-34.3536,-4.37489,25.778,37.3375,-4.64117,-8.25991,24.3325,-2.80809,4.93205,-25.5799,41.9046,4.97645,-10.4605,-29.2641
-4.60639,17.5328,0.780725,5.12536,-5.27582,3.16752,9.32462,-2.70868,-1.21891,0.852303,-3.50114,5.28393,-3.93008,-1.6871,6.67154,-18.032,-2.24644,-5.15551,13.9464,-2.2693,3.09976,7.33585,-1.07104,1.59616,-5.1684e-15,2.22639e-14,-30.1976,-1.66983,-79.4715,104.925,3.56312,-18.5233,16.812,7.12502,7.76523,-13.0254,-5.1684e-15,2.22639e-14,-28.3303,-0.609516,93.7538,85.6388,9.11242,-19.3337,13.8501,7.12502,6.98302,43.715,-33.5443,-4.21242,25.8419,37.3999,-5.07438,-7.62986,23.4125,-3.28449,5.49923,-25.2272,43.2799,6.00807,-11.906,-28.3567
-4.60894,17.5438,0.908158,4.90098,-6.02337,2.83283,9.37947,-2.63785,-0.9089,0.947601,-3.37555,5.33718,-3.89111,-1.63199,6.53596,-18.4493,-2.25743,-4.94064,14.054,-2.32787,3.14011,7.44225,-1.08018,1.56599,-3.97569e-15,-3.02153e-14,-30.2952,-1.55231,-79.6949,105.12,2.4547,-19.0796,16.5493,7.12502,7.22829,-13.3072,-3.97569e-15,-3.02153e-14,-28.9258,-1.7015,93.8791,85.9903,8.8041,-19.9931,13.4331,7.12502,6.34649,43.318,-32.8407,-4.00895,26.1854,37.5441,-5.57429,-7.21457,23.7409,-3.78041,5.96535,-24.5746,44.5976,6.92184,-13.2684,-26.4035
-4.61114,17.5397,1.0341,4.61194,-6.66148,2.60489,9.14582,-2.68173,-0.524348,1.16084,-3.41359,5.22024,-3.56342,-1.66803,6.16921,-18.4351,-2.23371,-4.64461,13.8602,-2.39532,3.27512,7.37668,-1.08252,1.55422,-2.3059e-14,3.18055e-14,-30.4013,-1.44883,-80.1432,105.238,1.89431,-19.6775,16.147,7.12502,6.6511,-13.7285,-2.3059e-14,3.18055e-14,-29.235,-2.72932,93.7464,86.1565,8.2355,-20.3928,14.0556,7.12502,5.96056,43.9517,-32.1383,-3.87516,26.4082,37.7612,-6.17522,-6.86979,23.7869,-4.01463,6.26341,-24.0585,45.8195,7.51035,-14.4477,-24.6768
-4.61051,17.5342,1.17345,4.38953,-7.50102,2.54634,8.34224,-2.6967,-0.18926,1.6048,-3.451,4.94251,-2.68748,-1.7145,5.61396,-18.6641,-2.13691,-4.27449,13.7596,-2.40037,3.55657,7.38146,-1.03531,1.58524,-4.41302e-14,4.77083e-14,-30.2112,-1.40088,-80.7847,105.258,1.56057,-20.0681,16.0006,7.12502,6.27408,-13.8865,-4.41302e-14,4.77083e-14,-29.0887,-3.7786,93.3614,85.9477,8.06837,-20.3935,14.1429,7.12502,5.95989,44.0391,-31.5474,-3.5616,26.4277,38.0484,-6.81608,-6.50083,23.6238,-4.27708,6.63351,-23.7593,46.9461,8.07989,-15.267,-22.2475
-4.60958,17.5418,1.30368,4.17225,-8.05724,2.44486,8.02193,-2.71981,0.0260616,1.79956,-3.48328,4.86684,-2.32208,-1.74077,5.3861,-18.6872,-2.19291,-3.86276,13.4719,-2.55635,3.43626,7.29,-1.09909,1.45947,-1.98785e-15,4.45278e-14,-30.0368,-1.35649,-81.1034,105.068,1.47559,-20.131,15.8631,7.12502,6.21335,-14.0258,-1.98785e-15,4.45278e-14,-29.3131,-4.85738,93.409,85.7727,8.29488,-20.5254,13.8537,7.12502,5.83262,43.7534,-30.9561,-3.35297,26.4599,38.3351,-7.31039,-6.31387,23.3585,-4.65017,6.6887,-23.3992,47.9814,8.27867,-15.6631,-20.8484
-4.60692,17.545,1.4265,4.01135,-8.49274,2.32935,8.0352,-2.7547,0.0569535,1.71313,-3.52079,5.00055,-2.40893,-1.75788,5.51776,-18.4234,-2.2534,-3.80275,13.3765,-2.64013,3.314,7.21488,-1.15035,1.40094,2.42517e-14,-1.59028e-14,-30.1509,-1.19693,-81.0347,104.706,1.60873,-20.0119,15.7478,7.12502,6.32832,-14.1377,2.42517e-14,-1.59028e-14,-29.7952,-5.67668,93.8941,85.4597,8.23916,-20.4296,14.4624,7.12502,5.9251,44.3595,-30.4,-3.19001,26.4872,38.5235,-7.81386,-6.15021,23.9692,-5.04812,6.62089,-23.0267,48.9514,7.91935,-15.7614,-22.1916
-4.60557,17.5455,1.56374,3.93469,-9.50895,2.14409,7.81102,-2.6342,0.059366,1.62038,-3.36073,5.17394,-2.38509,-1.67831,5.6749,-18.3434,-2.19741,-4.16156,13.8322,-2.529,3.56162,7.35506,-1.0935,1.55508,1.39149e-14,-7.95139e-15,-30.4346,-0.844383,-80.9097,104.304,1.78757,-20.638,15.4972,7.12502,5.72383,-14.4055,1.39149e-14,-7.95139e-15,-30.3811,-6.28383,94.42,85.12,7.97511,-20.2031,15.3029,7.12502,6.14379,45.1938,-29.8193,-2.51624,26.6123,38.5902,-8.26431,-5.97825,23.7907,-5.48754,7.05215,-22.6253,49.9386,6.99165,-15.5713,-25.3513
-4.6018,17.5507,1.71519,3.88534,-10.625,1.83307,7.68623,-2.50071,0.202349,1.47115,-3.16533,5.38334,-2.4852,-1.57901,5.79647,-18.4763,-2.15576,-4.34417,14.3825,-2.44988,3.65305,7.55934,-1.05589,1.62548,5.36719e-14,1.74931e-14,-30.8092,-0.402085,-80.7087,103.814,2.10085,-21.5719,15.0377,7.12502,4.82213,-14.8875,5.36719e-14,1.74931e-14,-30.9454,-6.93089,94.95,84.6343,7.81543,-20.0165,15.4887,7.12502,6.32384,45.3743,-29.1764,-1.89949,26.8861,38.6177,-8.70403,-5.76703,22.9124,-5.85993,7.50448,-22.0984,50.8891,6.24923,-14.9782,-26.935
-4.60363,17.5547,1.80994,3.48705,-10.6093,1.65111,8.89272,-2.68101,0.044689,0.988212,-3.34593,5.71707,-3.6132,-1.64013,6.35934,-18.0858,-2.16411,-4.5232,14.6144,-2.42497,3.58537,7.56968,-1.06527,1.63768,-2.06736e-14,4.29375e-14,-31.2631,0.0678269,-80.356,103.119,2.60166,-22.1593,14.4569,7.12502,4.25491,-15.4804,-2.06736e-14,4.29375e-14,-31.5688,-7.53728,95.6649,83.9045,7.95059,-19.9054,15.983,7.12502,6.43117,45.8653,-28.3798,-1.97744,27.0312,38.6618,-9.02336,-5.86554,22.4789,-6.2602,7.04697,-21.5444,51.846,5.8152,-14.3572,-27.5674
-4.60238,17.5551,1.91453,3.11452,-11.0314,1.66346,9.45574,-2.79853,-0.218785,0.75696,-3.49384,5.91286,-4.12536,-1.69481,6.78886,-17.7464,-2.07968,-4.71458,14.8035,-2.28695,3.61733,7.57071,-1.01147,1.69796,2.46493e-14,-1.59028e-15,-31.2652,0.489813,-80.2404,102.131,3.18868,-21.8654,14.2818,7.12502,4.53876,-15.6495,2.46493e-14,-1.59028e-15,-31.9622,-7.74763,96.1476,83.2524,7.87543,-19.394,16.7656,7.12502,6.92482,46.6324,-27.5876,-1.76057,26.9361,38.709,-9.57351,-5.89689,23.1849,-6.60956,6.87022,-21.3111,52.6734,5.25377,-13.3813,-27.5345
-4.5944,17.5587,2.045,2.8705,-12.0433,1.82677,9.11841,-2.68917,-0.368844,0.894347,-3.38484,5.8504,-3.80071,-1.649,6.76371,-18.0425,-2.06572,-4.6611,15.2076,-2.28456,3.64914,7.75499,-1.00214,1.70072,-1.0138e-13,6.04305e-14,-30.9284,0.618753,-80.2697,101.049,3.97621,-21.5724,13.8878,7.12502,4.8217,-16.0373,-1.0138e-13,6.04305e-14,-31.8641,-8.29782,96.3512,82.4684,7.53175,-19.2044,17.3938,7.12502,7.10782,47.2545,-26.8102,-1.3632,26.6624,38.5693,-10.0743,-5.45713,24.2566,-7.01017,7.14096,-21.3341,53.8068,4.13987,-12.1108,-28.218
-4.58932,17.5696,2.17636,2.64044,-12.971,2.01777,8.87807,-2.58573,-0.516934,0.973824,-3.27772,5.73592,-3.59436,-1.60046,6.69323,-18.4561,-2.11387,-4.40203,15.7518,-2.39007,3.51799,8.00747,-1.04676,1.60245,-2.50469e-14,-3.18055e-15,-30.6825,0.638302,-80.3742,99.951,4.73855,-20.9219,13.1185,7.12502,5.44975,-16.7914,-2.50469e-14,-3.18055e-15,-31.8705,-9.11099,96.5872,81.6233,6.72605,-19.3926,16.9616,7.12502,6.92615,46.8283,-26.0531,-1.00748,26.3421,38.498,-10.4788,-5.00414,24.4231,-7.31446,7.28905,-21.3936,54.4742,2.92813,-10.5155,-30.0852
-4.58854,17.5506,2.17363,3.6967,-14.1202,-0.30615,9.73253,-2.41243,1.19064,0.417602,-2.77679,6.49425,-4.76021,-1.3464,6.55762,-18.4904,-2.15664,-4.07532,16.3399,-2.45137,3.01564,8.20239,-1.10814,1.37459,4.25399e-14,-8.42847e-14,-30.7247,0.878177,-80.4454,98.9641,5.13224,-19.6527,12.1584,7.12502,6.67508,-17.7164,4.25399e-14,-8.42847e-14,-32.2003,-9.59704,96.9934,80.869,5.8452,-19.6666,16.625,7.12502,6.66167,46.5002,-26.6007,1.07875,28.848,38.2552,-9.82623,-5.855,23.7627,-9.64594,7.89561,-18.5594,55.6744,2.64132,-9.21804,-31.1049
-4.57972,17.5884,2.38809,3.30844,-15.0581,1.00012,8.27144,-2.39534,0.344754,0.578652,-2.93412,6.07445,-3.73496,-1.43331,6.50529,-18.5108,-2.09166,-3.82223,16.8059,-2.36719,2.64737,8.35188,-1.09182,1.22073,-1.74931e-14,3.02153e-14,-30.3559,1.08567,-80.5853,97.8197,5.24142,-19.1144,11.1398,7.12502,7.19468,-18.7179,-1.74931e-14,3.02153e-14,-32.2477,-9.87754,97.2701,80.1031,5.2437,-19.3545,17.1202,7.12502,6.963,46.9857,-25.6507,0.603937,27.27,38.1301,-10.6287,-4.73859,23.3422,-9.27784,7.82028,-19.9971,55.6983,1.5875,-7.1751,-30.0972
-4.57424,17.6089,2.53546,2.65701,-15.8241,1.43833,8.11259,-2.41354,0.0826249,0.787745,-3.00648,5.88995,-3.41609,-1.47583,6.44536,-18.7461,-2.0088,-3.73333,17.1671,-2.29666,2.73835,8.51298,-1.04208,1.24553,3.06128e-14,9.54166e-15,-29.822,1.2007,-80.7756,96.7287,5.70156,-18.8363,10.0807,7.12502,7.46317,-19.7676,3.06128e-14,9.54166e-15,-32.301,-9.89059,97.4032,79.6201,4.85328,-19.1476,17.4124,7.12502,7.16265,47.2712,-24.4558,0.383008,26.6894,37.9839,-11.1681,-3.98046,24.1248,-8.98085,7.75177,-20.2553,56.0159,0.781885,-5.4196,-29.2255
-4.56957,17.6219,2.63712,2.74504,-16.2802,1.21835,8.08647,-2.55018,0.255186,0.616447,-3.16286,6.00767,-3.566,-1.55115,6.49499,-18.8087,-1.84157,-3.73788,17.5412,-2.09501,2.84298,8.64528,-0.936932,1.3087,-1.59028e-14,7.31528e-14,-29.6531,1.66293,-80.9431,95.8692,6.53917,-18.5134,9.0081,7.12502,7.77487,-20.829,-1.59028e-14,7.31528e-14,-32.6057,-9.87041,97.7696,78.9288,2.80001,-20.0711,16.7573,7.12502,6.27117,46.6445,-24.1362,0.519712,26.8101,38.0469,-11.5076,-3.69073,24.7734,-9.66917,7.39995,-19.8457,56.1564,0.359893,-3.7441,-28.0867
-4.56374,17.6261,2.73851,2.7451,-16.979,1.23213,8.08938,-2.56429,0.0863399,0.535106,-3.1907,6.12429,-3.63365,-1.5603,6.72387,-19.1091,-1.7633,-3.62965,18.0125,-1.96821,2.61438,8.85159,-0.893986,1.2301,-4.41302e-14,-1.90833e-14,-29.4491,2.13369,-80.9876,95.2017,7.57463,-18.1705,8.41143,7.12502,8.10582,-21.4131,-4.41302e-14,-1.90833e-14,-32.4993,-9.85608,98.0492,78.6208,2.72583,-19.2412,17.4272,7.12502,7.07229,47.289,-23.7651,0.783905,26.6997,38.0536,-11.7667,-3.33683,23.3045,-10.3443,7.33802,-19.6593,56.5126,-0.432178,-2.14829,-26.9662
-4.55822,17.6284,2.83861,2.60401,-17.44,1.3921,8.0727,-2.66543,-0.121946,0.51285,-3.34506,6.13599,-3.61725,-1.63464,6.87146,-19.4743,-1.74956,-3.34831,18.3478,-1.96108,2.32465,9.02565,-0.901361,1.08514,3.06128e-14,-6.67916e-14,-29.3689,2.58315,-81.1203,94.924,8.71439,-18.1285,7.92777,7.12502,8.14636,-21.8952,3.06128e-14,-6.67916e-14,-32.4916,-9.85677,98.2451,78.5625,2.56884,-19.0298,17.5237,7.12502,7.27635,47.3786,-23.3057,0.74899,26.4459,38.0969,-12.1616,-3.10464,21.8701,-11.0225,7.00991,-19.5943,56.9343,-1.10702,-0.602085,-26.0186
-4.55157,17.6305,2.94347,2.54351,-18.1098,1.40086,7.9184,-2.69976,-0.0877762,0.532891,-3.39579,6.12431,-3.50668,-1.66384,6.83266,-19.52,-1.83866,-3.36397,18.1915,-2.1001,2.43868,8.98563,-0.954016,1.10757,-4.37326e-15,-2.70347e-14,-29.3468,2.93146,-81.3083,94.9982,9.73588,-17.983,7.72897,7.12502,8.28678,-22.0885,-4.37326e-15,-2.70347e-14,-32.5674,-9.98815,98.4474,78.4878,2.04076,-19.6996,17.6746,7.12502,6.6298,47.5508,-22.9299,0.784658,26.3396,38.2459,-12.639,-2.75515,21.2542,-11.6675,6.77923,-19.4061,57.2351,-1.76123,1.0841,-25.3224
-4.53475,17.6207,3.04289,2.57207,-18.7359,1.55362,7.79854,-2.71139,-0.11124,0.521368,-3.41967,6.0565,-3.45158,-1.67689,6.76779,-17.0432,-1.90773,-4.31237,16.226,-2.17719,3.34346,7.90758,-0.974886,1.5627,6.55989e-14,1.59028e-15,-29.1493,3.16361,-81.6517,95.1691,10.7094,-18.0612,7.74424,7.12502,8.21126,-22.0762,6.55989e-14,1.59028e-15,-32.474,-10.2944,98.594,78.3315,0.931834,-19.5298,17.5454,7.12502,6.7937,47.4164,-22.7971,0.653935,26.0614,38.4792,-13.1102,-2.22454,20.3059,-12.4373,6.45399,-19.413,57.4478,-2.41327,2.71592,-22.5909
-4.51275,17.6235,3.12216,2.38809,-18.9818,2.12281,8.18545,-2.80718,-0.539248,0.395178,-3.57307,5.89189,-3.76633,-1.73764,6.88506,-19.2411,-1.98203,-3.88648,16.7004,-2.41823,3.84096,8.46226,-0.986918,1.62489,2.78299e-15,-2.38542e-14,-29.0965,3.4383,-82.0055,95.6043,11.4274,-18.3777,7.7545,7.12502,7.90582,-22.0777,2.78299e-15,-2.38542e-14,-32.4907,-10.4402,98.7456,78.3386,-0.264365,-19.1985,17.2376,7.12502,7.11357,47.0981,-22.6024,0.206248,25.3047,38.6467,-13.6393,-1.51903,20.2905,-13.2295,5.72701,-19.8332,57.5467,-2.33336,3.6936,-24.2536
-4.50578,17.6316,3.19066,2.09257,-19.2967,2.81515,8.66817,-2.811,-1.31298,0.253059,-3.64063,5.74444,-4.13854,-1.74538,7.22036,-17.2848,-1.93645,-4.08883,16.2615,-2.26524,3.34319,7.96251,-1.00047,1.51461,5.52621e-14,-1.59028e-14,-29.2687,3.67563,-82.2373,96.4287,11.6135,-18.4121,7.63048,7.12502,7.87259,-22.2029,5.52621e-14,-1.59028e-14,-32.7066,-10.7177,99.0809,78.5204,-0.533565,-19.5556,17.1917,7.12502,6.76881,47.0635,-22.1761,0.0882185,24.4322,38.5736,-14.1284,-0.959634,21.2198,-14.0141,4.99018,-20.2813,57.61,-2.33247,4.55841,-24.476
-4.50935,17.6386,3.29213,2.14328,-20.2844,2.5483,8.65378,-2.67777,-1.24254,0.216995,-3.4515,5.86871,-4.18989,-1.65036,7.29462,-16.9929,-1.96685,-4.23295,16.0193,-2.31122,3.52249,7.83675,-1.01606,1.59278,-4.57205e-14,4.92986e-14,-29.6126,4.13121,-82.4055,97.5124,11.2546,-17.9271,7.35558,7.12502,8.34073,-22.4597,-4.57205e-14,4.92986e-14,-33.0206,-10.8486,99.468,78.7937,-0.125596,-19.896,17.1394,7.12502,6.44021,47.0215,-21.6426,0.876881,24.5681,38.4105,-14.5435,-0.680151,22.4607,-14.7012,4.86829,-19.6784,57.637,-2.65792,5.29702,-22.9284
-4.50573,17.6472,3.4559,2.84076,-21.9312,0.491689,7.77258,-2.50186,0.856851,0.513609,-3.0527,6.36339,-3.52209,-1.50844,6.50637,-16.7812,-1.95209,-4.2342,15.6889,-2.27733,3.45362,7.68819,-1.00842,1.57358,-9.22361e-14,2.06736e-14,-29.8473,4.85071,-82.6774,98.6065,10.8778,-17.527,6.94276,7.12502,8.72676,-22.8568,-9.22361e-14,2.06736e-14,-33.2842,-10.9762,99.8517,79.1334,-0.646342,-20.3909,17.0424,7.12502,5.96243,46.9385,-20.9155,2.33408,26.5005,38.0648,-14.718,-0.445562,23.3635,-15.1347,5.32517,-17.2828,57.6808,-3.1393,5.96259,-22.0424
