JuanDHNZ/ProyectoFinalCD/preprocessing/sports_trials_csv/17_05.csv
root1,root2,root3,root4,root5,root6,lowerback1,lowerback2,lowerback3,upperback1,upperback2,upperback3,thorax1,thorax2,thorax3,lowerneck1,lowerneck2,lowerneck3,upperneck1,upperneck2,upperneck3,head1,head2,head3,rclavicle1,rclavicle2,rhumerus1,rhumerus2,rhumerus3,rradius1,rwrist1,rhand1,rhand2,rfingers1,rthumb1,rthumb2,lclavicle1,lclavicle2,lhumerus1,lhumerus2,lhumerus3,lradius1,lwrist1,lhand1,lhand2,lfingers1,lthumb1,lthumb2,rfemur1,rfemur2,rfemur3,rtibia1,rfoot1,rfoot2,rtoes1,lfemur1,lfemur2,lfemur3,ltibia1,lfoot1,lfoot2,ltoes1
-10.8794,17.5284,-5.91037,4.38237,-9.32538,-1.81565,8.46873,1.29619,-0.842678,2.54274,1.70319,2.26654,-2.20709,0.843907,2.64194,-15.4172,0.321067,-4.00562,21.899,1.05929,1.70325,9.42317,0.346071,1.39105,-1.17283e-14,0,-36.1119,-28.2035,-70.2812,32.8269,14.0233,10.2738,9.99667,7.12502,35.386,-16.4684,-1.17283e-14,0,-36.3419,25.8081,75.3024,20.3192,-10.3695,-15.8135,33.6062,7.12502,10.38,63.33,-1.12261,0.0708922,23.3387,36.5379,-15.8311,1.4415,-6.43519,-28.4661,-1.45638,-17.0824,19.2879,5.70878,2.41194,-14.7633
-10.8657,17.5506,-5.80553,4.43384,-9.18121,-1.95869,8.35255,1.28894,-0.779659,2.44174,1.69884,2.19856,-2.24317,0.843031,2.53741,-15.0319,0.388636,-3.95327,21.6881,1.10995,1.75554,9.27559,0.382111,1.40123,-3.66758e-14,-3.37934e-14,-36.4964,-28.2004,-70.3201,32.8755,14.0761,10.2947,9.94885,7.12502,35.4058,-16.5115,-3.66758e-14,-3.37934e-14,-36.5779,25.5559,75.1741,20.4989,-10.198,-15.8455,34.4711,7.12502,10.3492,64.1964,-0.591467,0.181763,23.4005,36.026,-15.0248,1.61695,-7.03902,-28.205,-1.65521,-17.0255,19.4533,5.43186,2.45359,-14.278
-10.8515,17.5785,-5.69515,4.64857,-9.18808,-1.96439,7.96215,1.33873,-0.857968,2.32555,1.75756,2.08893,-2.14883,0.87319,2.46827,-14.8346,0.399886,-3.8009,21.623,1.10638,1.64008,9.21813,0.380781,1.33339,-1.88845e-14,9.54166e-15,-36.7787,-28.0411,-70.4624,32.9288,13.735,10.2032,9.73221,7.12502,35.3191,-16.7487,-1.88845e-14,9.54166e-15,-36.8124,25.0412,75.2228,20.9416,-9.55003,-16.0562,33.9453,7.12502,10.1459,63.6806,-0.228248,0.446789,23.2908,35.6227,-14.5614,1.6816,-8.10336,-28.0361,-1.82267,-17.094,19.466,5.17796,2.55642,-13.4666
-10.837,17.6095,-5.58458,4.82204,-9.3282,-2.04668,7.64959,1.44234,-0.848628,2.49911,1.89066,1.99526,-1.79968,0.93561,2.36222,-15.6281,0.306708,-3.74672,21.6724,1.0167,1.56237,9.38691,0.33543,1.29284,3.67752e-15,-6.36111e-15,-36.5175,-27.7859,-70.9072,33.1193,13.3267,10.3076,9.78468,7.12502,35.418,-16.6727,3.67752e-15,-6.36111e-15,-36.2354,25.0538,75.3591,21.0455,-9.25343,-16.0624,33.1894,7.12502,10.1399,62.925,0.13135,0.868025,23.2477,35.2227,-13.8935,1.88553,-7.90317,-27.7981,-1.86836,-17.0982,19.4404,5.017,2.59265,-12.1538
-10.8212,17.6343,-5.47525,4.90519,-9.40399,-2.1983,7.51585,1.53301,-0.818846,2.59521,2.01067,1.94756,-1.62955,0.993573,2.28973,-16.0598,0.200249,-3.76442,21.6646,0.888804,1.57691,9.46839,0.276999,1.28761,-6.11263e-15,-2.22639e-14,-36.4804,-27.5343,-71.1985,33.3571,13.5678,10.7658,9.71682,7.12502,35.8523,-16.6358,-6.11263e-15,-2.22639e-14,-35.6792,25.5792,75.1929,20.6963,-9.53599,-16.0264,32.7304,7.12502,10.1747,62.4644,0.534082,1.20503,23.2759,34.8599,-12.8809,2.23213,-6.85627,-27.394,-1.89539,-17.0517,19.2807,4.88989,2.54615,-11.1316
-10.8077,17.6647,-5.36477,4.98306,-9.37879,-2.34013,7.46294,1.6222,-0.839547,2.47002,2.12889,1.90482,-1.734,1.05449,2.24585,-15.9463,0.0841113,-3.82909,21.7271,0.70516,1.7195,9.47352,0.201721,1.32462,-1.05853e-14,9.54166e-15,-36.9056,-27.355,-71.1901,33.5532,14.4462,11.261,9.69144,7.12502,36.3214,-16.5455,-1.05853e-14,9.54166e-15,-35.6256,25.2111,75.2263,20.7157,-9.25579,-16.0763,32.3597,7.12502,10.1265,62.096,0.880562,1.39973,23.3108,34.5637,-11.8818,2.50533,-7.15556,-26.9057,-2.07713,-16.9748,19.0099,4.61907,2.73388,-10.265
-10.7972,17.7052,-5.24995,5.171,-9.45817,-2.4413,7.23459,1.72971,-0.899269,2.32762,2.26856,1.8361,-1.76018,1.12583,2.19978,-15.8601,0.0418755,-3.91817,21.7793,0.632471,1.86003,9.47687,0.17586,1.37914,-2.87244e-14,-6.36111e-15,-37.1676,-27.2193,-71.2413,33.5405,15.0254,11.2787,9.26066,7.12502,36.3381,-16.9721,-2.87244e-14,-6.36111e-15,-35.6634,24.3452,75.4594,21.0941,-8.48858,-16.0985,31.6178,7.12502,10.1051,61.3552,0.977575,1.67249,23.2942,34.3585,-10.982,2.78474,-7.86802,-26.4821,-2.03637,-16.974,18.7407,4.3108,2.71741,-9.67715
-10.7827,17.7455,-5.13681,5.5479,-9.66945,-2.48857,6.82224,1.81823,-1.00894,2.10015,2.38112,1.74646,-1.7715,1.18449,2.16723,-15.7591,0.0620446,-3.93774,21.8701,0.642495,1.93752,9.48883,0.186392,1.41094,1.50579e-14,3.00165e-14,-37.2406,-26.8328,-71.4533,33.3513,14.9109,11.2394,8.39994,7.12502,36.3009,-17.8421,1.50579e-14,3.00165e-14,-35.852,23.9382,75.4417,21.5244,-7.87036,-16.0568,31.8689,7.12502,10.1454,61.6043,0.761732,1.99491,23.124,34.2379,-9.79081,3.30887,-7.02862,-26.2736,-1.80905,-17.0797,18.5273,3.95964,2.49667,-9.59121
-10.7671,17.7731,-5.03104,5.89086,-9.7466,-2.77737,6.49528,1.88532,-0.847948,1.94591,2.48331,1.72152,-1.74556,1.23661,2.05003,-15.9531,0.0244945,-3.95406,22.0889,0.570975,2.0672,9.60351,0.164722,1.45333,1.90833e-14,1.17283e-14,-37.3206,-26.3514,-71.7092,33.3302,14.5782,11.0434,8.37152,7.12502,36.1152,-17.9166,1.90833e-14,1.17283e-14,-35.8401,23.5875,75.4372,21.8207,-7.37472,-15.942,32.0462,7.12502,10.2561,61.7761,0.628348,2.16423,23.2127,34.2182,-8.49196,3.9128,-5.48903,-26.0869,-1.50465,-16.9428,18.3423,3.51887,2.25075,-9.05046
-10.7547,17.7972,-4.92496,6.17057,-9.66045,-3.16291,6.24314,1.86041,-0.665111,1.74796,2.46622,1.78769,-1.80367,1.22982,2.02135,-15.7581,0.0809289,-3.99604,22.0962,0.641964,2.10973,9.56663,0.198318,1.48302,1.07344e-14,-1.98785e-14,-37.594,-25.766,-71.8851,33.4215,14.4755,10.8249,8.51093,7.12502,35.9083,-17.8281,1.07344e-14,-1.98785e-14,-35.9575,23.5483,75.2833,22.1023,-6.81647,-15.6518,32.2386,7.12502,10.536,61.9546,0.54083,2.22122,23.4623,34.2874,-7.02562,4.40372,-2.98949,-25.8627,-1.39683,-16.6332,18.2175,3.08298,2.20122,-8.46867
-10.7437,17.8246,-4.81693,6.35726,-9.74262,-3.30166,6.02061,1.88405,-0.77348,1.55839,2.49403,1.79141,-1.88078,1.24617,2.08732,-15.4877,0.137856,-4.03132,22.0382,0.726106,2.08038,9.4928,0.230958,1.48683,-3.20789e-14,1.54058e-14,-37.9315,-25.1326,-72.1248,33.651,14.4684,10.4829,8.82898,7.12502,35.5842,-17.5886,-3.20789e-14,1.54058e-14,-36.0435,23.8555,74.9793,22.2418,-6.45386,-15.1599,32.5304,7.12502,11.0105,62.2217,0.430009,2.36085,23.4142,34.4182,-5.63286,4.90411,-0.99946,-25.5593,-1.36613,-16.5412,18.1738,2.62267,2.26615,-8.18354
-10.7315,17.8508,-4.71063,6.37507,-9.86532,-3.53298,5.98557,1.95261,-0.70066,1.60918,2.58852,1.77616,-1.80916,1.29221,2.02559,-15.9891,0.141136,-4.05776,22.1945,0.764073,2.06571,9.64056,0.244242,1.49624,-3.85145e-15,-2.5842e-15,-37.9777,-24.7616,-72.4217,33.9234,14.5665,10.113,9.47684,7.12502,35.2335,-17.0244,-3.85145e-15,-2.5842e-15,-35.7009,24.0768,74.8694,22.2782,-6.36272,-15.0086,32.2854,7.12502,11.1565,61.9688,0.447715,2.58904,23.4696,34.6254,-4.41526,5.33549,0.57992,-25.0512,-1.3508,-16.3479,18.1066,2.07476,2.297,-9.20188
-10.7179,17.8758,-4.60409,6.48004,-9.81007,-3.74222,5.90402,1.90743,-0.650605,1.58301,2.53197,1.78711,-1.78665,1.264,2.01539,-16.3105,0.190627,-4.11789,22.2927,0.865537,2.06018,9.73193,0.285041,1.52088,-3.06128e-14,-7.8023e-15,-37.9487,-24.5905,-72.5452,33.9659,14.8718,10.0449,9.66553,7.12502,35.1689,-16.8509,-3.06128e-14,-7.8023e-15,-35.5993,23.7896,74.9792,22.7138,-5.86027,-14.8534,32.5741,7.12502,11.3061,62.2493,0.29969,2.5435,23.4808,34.9783,-3.26768,5.8803,2.15956,-24.6387,-1.15851,-16.2537,17.9372,1.53016,2.01155,-10.1063
-10.7051,17.9003,-4.49973,6.79178,-9.83397,-3.93622,5.54381,1.88724,-0.621752,1.37414,2.50876,1.74545,-1.7967,1.25414,1.96594,-15.9257,0.243226,-4.08005,22.1982,0.895495,2.12325,9.62463,0.309499,1.53628,-1.29614e-14,8.94531e-16,-38.0389,-24.6729,-72.5641,33.7752,15.2361,10.0705,9.77901,7.12502,35.1932,-16.7317,-1.29614e-14,8.94531e-16,-35.799,23.18,75.0145,23.3297,-5.08734,-14.9922,33.4721,7.12502,11.1723,63.1547,-0.168476,2.52232,23.4516,35.5127,-2.03728,6.39626,2.95107,-24.4556,-1.00833,-16.1491,17.7751,1.05722,1.91809,-10.1092
-10.6918,17.9188,-4.40013,6.97584,-9.99722,-4.17082,5.36613,1.94241,-0.542845,1.07201,2.58985,1.69304,-2.00564,1.2974,1.86186,-15.1712,0.33879,-3.92076,22.0377,0.960077,2.09801,9.42519,0.349958,1.50107,-3.19174e-14,-2.60159e-14,-38.5303,-24.4006,-72.6353,33.949,15.2683,10.0542,9.55941,7.12502,35.1777,-16.955,-3.19174e-14,-2.60159e-14,-36.2372,22.659,74.7833,23.7569,-4.66537,-15.0393,33.2176,7.12502,11.1268,62.9026,-0.598017,2.51738,23.4358,36.24,-1.00397,6.95722,3.9897,-24.1088,-0.993841,-15.9394,17.6212,0.92016,1.98722,-10.9043
-10.6818,17.9335,-4.30955,7.02625,-9.93306,-4.32846,5.52922,1.90881,-0.587533,0.883775,2.54605,1.70473,-2.29128,1.27847,1.8929,-15.2225,0.398077,-3.9848,22.2068,1.05301,2.13248,9.49021,0.389731,1.53777,-2.65378e-14,3.13086e-15,-38.7825,-23.9148,-72.811,34.3196,14.9344,9.90971,9.05025,7.12502,35.0407,-17.4963,-2.65378e-14,3.13086e-15,-36.3155,22.3007,74.7328,24.1102,-4.28882,-14.8849,32.5768,7.12502,11.2758,62.2538,-0.978689,2.32656,23.4312,37.1589,-0.420494,7.37469,5.25788,-23.7168,-1.01684,-15.8223,17.4804,0.880416,1.79249,-12.1455
-10.673,17.9484,-4.22299,7.0935,-9.699,-4.38307,5.6195,1.82988,-0.709713,1.13665,2.42973,1.68811,-2.08125,1.21833,1.95507,-16.6273,0.306057,-4.21779,22.4119,0.997548,2.34634,9.82573,0.370005,1.65895,1.41758e-14,7.7526e-15,-37.9198,-24.0826,-73.1877,34.3212,14.8296,9.72172,8.98767,7.12502,34.8624,-17.6004,1.41758e-14,7.7526e-15,-35.3842,22.4262,75.0113,24.4798,-4.17063,-14.6664,33.3925,7.12502,11.4865,63.0578,-1.45438,1.95832,23.3548,38.2682,-0.317507,7.47869,5.26616,-23.4207,-0.843282,-15.8914,17.3433,0.458919,1.31896,-11.7509
-10.6614,17.9631,-4.1265,7.12698,-9.71401,-4.41473,5.44848,1.74714,-0.942304,0.991312,2.30835,1.68699,-2.1395,1.16103,2.09623,-15.8075,0.451193,-4.16851,21.9095,1.16329,2.29068,9.48894,0.448473,1.63808,2.64881e-14,7.85199e-15,-38.0173,-23.573,-73.3133,34.4837,14.5079,9.81191,8.88518,7.12502,34.9479,-17.683,2.64881e-14,7.85199e-15,-35.7155,22.3462,74.8005,24.9837,-3.96289,-14.5355,34.029,7.12502,11.6127,63.6872,-1.97646,1.71712,23.1793,39.5501,-0.420097,7.46466,5.33936,-22.9954,-0.662139,-15.9844,17.1899,-0.136425,1.15193,-11.3119
-10.6535,17.9743,-4.03987,7.14814,-9.89176,-4.4287,5.33211,1.73861,-1.17277,1.05949,2.28224,1.62456,-2.00957,1.14789,2.1679,-16.1332,0.593989,-4.09991,21.9091,1.36489,2.26666,9.54279,0.54577,1.64663,-4.76089e-14,-8.05078e-15,-37.6663,-23.3717,-73.6572,34.6517,14.3193,9.79117,9.31602,7.12502,34.9282,-17.2568,-4.76089e-14,-8.05078e-15,-35.4391,22.2693,74.7274,25.2541,-3.67207,-14.5804,33.1205,7.12502,11.5694,62.7811,-2.63372,1.61539,22.9986,40.9517,-0.194892,7.46453,7.10504,-22.5813,-0.529974,-16.0344,17.0688,-0.572776,1.22408,-11.2564
-10.6499,17.9873,-3.97091,7.3116,-9.8186,-4.46904,5.35768,1.67236,-1.41431,0.8608,2.18226,1.62328,-2.23255,1.10351,2.3055,-15.9041,0.724806,-4.01972,21.8628,1.54893,2.13002,9.47928,0.622372,1.60589,7.52897e-15,-2.62396e-14,-37.6632,-23.1174,-73.7547,34.6874,14.2272,9.51697,9.73192,7.12502,34.6681,-16.901,7.52897e-15,-2.62396e-14,-35.5669,21.8729,74.7022,25.7879,-3.15147,-14.6993,32.5544,7.12502,11.4548,62.2214,-3.45634,1.40887,22.9464,42.4117,-0.112342,7.26743,8.78101,-22.4408,-0.349586,-16.0467,16.9814,-0.899722,0.927046,-10.9312
-10.6456,17.9969,-3.89734,7.35854,-9.6712,-4.49097,5.40809,1.56489,-1.62821,0.681098,2.02723,1.59836,-2.44433,1.03186,2.40772,-15.3705,0.868853,-3.89836,21.5802,1.71242,2.05302,9.27721,0.702531,1.56935,-6.06293e-15,2.78299e-15,-37.7604,-22.8111,-73.8933,34.7987,14.0162,9.07999,10.2461,7.12502,34.2532,-16.4811,-6.06293e-15,2.78299e-15,-35.7676,21.2934,74.6986,26.5471,-2.64833,-14.685,33.2855,7.12502,11.4685,62.9518,-4.09853,1.06217,22.8817,43.869,-0.672535,7.19838,8.41162,-22.1116,-0.327881,-16.0815,16.8499,-1.2081,0.686413,-11.0391
-10.6371,18.002,-3.8178,7.18055,-9.6004,-4.45455,5.58788,1.50613,-1.79873,0.726099,1.93417,1.51563,-2.49616,0.986691,2.42165,-15.3051,0.939058,-3.87323,21.296,1.79751,2.06545,9.16346,0.749294,1.57486,7.95139e-15,1.55052e-14,-37.5622,-22.8179,-74.0641,34.8476,13.8774,8.64324,10.968,7.12502,33.8384,-15.8515,7.95139e-15,1.55052e-14,-35.4919,20.8316,74.7792,26.936,-2.54306,-14.9644,33.4696,7.12502,11.1991,63.1507,-4.57814,0.771096,22.7221,45.3088,-1.49988,7.31083,8.35878,-21.4865,-0.393762,-16.1976,16.622,-1.52675,0.590851,-11.2467
-10.6265,18.0093,-3.73319,6.99413,-9.55463,-4.38713,5.71226,1.45177,-1.94325,0.744487,1.84877,1.43124,-2.54371,0.9454,2.41997,-15.2777,0.964199,-3.91633,21.3065,1.84391,2.05835,9.16016,0.76638,1.58501,-2.70347e-14,-4.96962e-15,-37.4229,-22.7901,-74.1546,34.91,13.9615,8.44817,10.7202,7.12502,33.653,-16.1399,-2.70347e-14,-4.96962e-15,-35.3256,20.3835,74.7853,27.1363,-2.68073,-15.2751,32.74,7.12502,10.8994,62.4372,-5.08339,0.494206,22.5197,46.7308,-2.36988,7.45267,7.65194,-20.8558,-0.608698,-16.3097,16.385,-1.83332,0.683179,-10.8744
-10.6183,18.023,-3.64665,7.03343,-9.59599,-4.17435,5.45841,1.41153,-2.27468,0.792323,1.77628,1.30702,-2.3543,0.909107,2.49035,-15.4021,0.98632,-3.92852,21.3735,1.87026,2.11275,9.20462,0.782859,1.6113,-2.18166e-14,1.63003e-14,-37.0811,-22.7614,-74.3161,34.8833,13.9981,7.85908,11.242,7.12502,33.093,-15.7385,-2.18166e-14,1.63003e-14,-34.978,19.9241,74.8721,27.4467,-2.57294,-15.7097,31.8005,7.12502,10.4802,61.5192,-5.90591,0.257111,22.1329,48.1743,-3.05835,7.68574,7.10294,-20.4544,-0.539386,-16.6229,16.1167,-2.09148,0.597674,-10.0677
-10.6124,18.035,-3.56949,7.06426,-9.6198,-4.078,5.42437,1.36658,-2.50933,0.873826,1.70122,1.21911,-2.2508,0.870896,2.53916,-15.7418,1.08306,-3.87678,21.3217,2.01997,2.05466,9.24579,0.851504,1.60415,-2.23633e-15,1.07344e-14,-36.5073,-22.7703,-74.5818,34.8263,13.9113,7.51732,11.0879,7.12502,32.768,-15.961,-2.23633e-15,1.07344e-14,-34.4716,19.7053,74.9174,27.7971,-2.63602,-15.7701,30.732,7.12502,10.422,60.4537,-6.72124,0.123304,21.9312,49.6259,-3.58249,7.96829,7.66076,-20.1105,-0.457191,-16.8016,15.9152,-2.19804,0.50993,-9.71066
-10.6041,18.0406,-3.49754,6.94996,-9.45259,-4.15949,5.67215,1.24899,-2.52144,1.03309,1.53839,1.22188,-2.21519,0.78712,2.55828,-16.462,1.17637,-3.96836,21.4281,2.21103,2.03467,9.40937,0.929882,1.64688,-1.5207e-14,-7.55382e-15,-35.7284,-22.5937,-74.9373,34.787,13.7735,7.69788,9.42172,7.12502,32.9397,-17.5912,-1.5207e-14,-7.55382e-15,-33.7815,19.6436,75.003,28.0406,-2.7628,-15.6218,30.3612,7.12502,10.565,60.0757,-7.35244,-0.148972,21.9528,51.0488,-4.18674,8.20761,7.76733,-19.6792,-0.712965,-16.7339,15.8262,-2.35521,0.576852,-9.46556
-10.5975,18.0424,-3.42472,6.83224,-9.34169,-4.32838,5.81005,1.15671,-2.49187,1.17545,1.41571,1.28133,-2.13845,0.722924,2.61167,-16.9012,1.18188,-4.15644,21.5231,2.29392,2.021,9.51967,0.950117,1.6912,-3.56818e-14,1.63003e-14,-35.0988,-22.394,-75.1683,34.671,13.7839,7.25866,8.88813,7.12502,32.5219,-18.2118,-3.56818e-14,1.63003e-14,-33.1644,19.4474,75.2158,28.3932,-2.57484,-15.6043,31.2023,7.12502,10.5819,60.9159,-8.05838,-0.338559,22.0822,52.3953,-4.65241,8.36494,6.49091,-19.2658,-0.880186,-16.5885,15.8352,-2.67982,0.656081,-9.52992
-10.5909,18.0447,-3.34875,6.75111,-9.16073,-4.45838,5.83926,1.06363,-2.43286,1.20516,1.29463,1.27487,-2.11491,0.66146,2.58107,-16.9204,1.20656,-4.14977,21.6908,2.33302,2.00083,9.58123,0.963624,1.69108,-1.69961e-14,0,-34.8255,-22.5837,-75.1771,34.4923,14.1099,6.44204,9.57365,7.12502,31.7444,-17.6832,-1.69961e-14,0,-32.7944,18.9571,75.3469,28.8293,-2.30156,-15.5359,31.942,7.12502,10.6478,61.6522,-8.78725,-0.644811,22.1688,53.679,-4.98432,8.44527,5.76824,-18.9365,-0.94391,-16.5288,15.9202,-3.02628,0.53466,-9.91414
-10.5832,18.0513,-3.2714,6.61673,-8.88423,-4.34093,5.93881,0.97004,-2.58724,1.19034,1.15648,1.19739,-2.17836,0.594416,2.59732,-17.0209,1.21754,-4.04898,21.9865,2.33778,1.95554,9.70608,0.964093,1.66541,-2.05742e-14,8.74653e-15,-34.7123,-23.1208,-75.0248,34.2953,14.6195,5.96885,10.0974,7.12502,31.2936,-17.2477,-2.05742e-14,8.74653e-15,-32.4641,18.4112,75.4375,29.2399,-2.15493,-15.5499,31.9251,7.12502,10.6343,61.636,-9.38858,-1.14912,21.9564,54.9021,-5.39086,8.58271,6.32314,-18.5977,-0.959055,-16.7758,16.0348,-3.34298,0.279673,-10.2415
-10.5786,18.0518,-3.19692,6.45726,-8.83101,-4.22758,6.02263,0.993282,-2.81967,1.25645,1.16921,1.12562,-2.16083,0.600825,2.65243,-17.3896,1.17899,-3.9779,22.2842,2.28154,1.96012,9.88351,0.939956,1.65776,-3.29983e-14,2.5842e-14,-34.4913,-23.5432,-74.9068,34.2126,14.8794,5.67231,9.78756,7.12502,31.011,-17.6118,-3.29983e-14,2.5842e-14,-31.8781,17.8707,75.5855,29.474,-1.96663,-16.0374,30.8682,7.12502,10.164,60.6027,-9.99932,-1.40285,21.7488,56.1087,-5.78336,8.61899,6.60814,-18.1415,-0.859664,-17.0127,16.0022,-3.60984,0.191607,-10.3884
-10.5758,18.0515,-3.12245,6.34493,-8.84161,-4.13157,6.05612,0.982439,-3.08312,1.23064,1.13644,1.09848,-2.20834,0.587181,2.7748,-17.2116,1.24771,-4.02496,22.2552,2.36445,2.03229,9.83498,0.983166,1.69882,4.35338e-14,7.95139e-15,-34.4732,-23.0982,-74.9513,34.4055,14.6901,5.19179,9.07897,7.12502,30.5529,-18.4068,4.35338e-14,7.95139e-15,-31.6299,17.5536,75.6162,29.8724,-2.011,-16.4501,30.0255,7.12502,9.7659,59.779,-10.7629,-1.49214,21.6284,57.2591,-6.25059,8.30825,5.08175,-17.6765,-0.943424,-17.1673,15.8453,-3.77338,0.335574,-10.2453
-10.5708,18.0577,-3.0471,6.21401,-8.74341,-4.05786,6.21402,0.920868,-3.29049,1.109,1.03525,1.09308,-2.41831,0.543653,2.89167,-16.6817,1.34332,-4.19377,22.2306,2.46686,2.24537,9.71702,1.04125,1.80655,-1.33186e-14,-7.95139e-16,-34.8157,-22.7173,-74.8038,34.6562,14.5564,4.78184,9.18825,7.12502,30.1619,-18.3696,-1.33186e-14,-7.95139e-16,-31.5369,17.4555,75.5549,30.2278,-2.23171,-16.7276,29.8437,7.12502,9.49815,59.6097,-11.5392,-1.70268,21.5453,58.3163,-6.74319,7.89528,3.45002,-17.2185,-1.04305,-17.3168,15.7109,-3.98093,0.413404,-10.3895
-10.5644,18.0658,-2.97327,6.00451,-8.40092,-4.10675,6.40358,0.812834,-3.3649,1.10542,0.882112,1.15963,-2.51852,0.470044,3.01379,-16.5018,1.37136,-4.40101,22.4449,2.51325,2.41349,9.75159,1.06094,1.90693,-2.0773e-14,5.96354e-15,-34.9586,-22.6015,-74.61,34.8304,14.4538,4.52412,9.2933,7.12502,29.916,-18.3092,-2.0773e-14,5.96354e-15,-31.2505,17.4409,75.5858,30.4925,-2.30114,-16.9166,29.4552,7.12502,9.31578,59.2293,-12.1348,-2.16705,21.6172,59.2494,-7.12147,7.4841,2.57314,-16.7055,-1.1072,-17.3466,15.5936,-4.20566,0.158315,-10.5662
-10.556,18.0681,-2.89636,5.86586,-8.02956,-4.07899,6.41393,0.707971,-3.44378,1.10952,0.737512,1.17956,-2.51004,0.398549,3.09149,-16.4691,1.34386,-4.45697,22.6747,2.50455,2.3543,9.82795,1.04117,1.89834,-8.64713e-15,1.82882e-14,-35.0322,-22.2943,-74.5499,35.0825,14.143,4.08032,8.992,7.12502,29.4924,-18.686,-8.64713e-15,1.82882e-14,-31.059,17.1877,75.6418,30.9635,-2.16776,-16.8302,29.3754,7.12502,9.39917,59.1458,-12.777,-2.68506,21.5751,60.1206,-7.50909,7.05694,2.10753,-16.3128,-1.14534,-17.4839,15.5319,-4.47145,-0.142826,-10.831
-10.5507,18.0684,-2.82279,5.71294,-7.76968,-3.99677,6.46448,0.685956,-3.49778,1.15993,0.700458,1.07863,-2.48258,0.378833,3.02035,-16.5,1.27251,-4.39975,22.7539,2.38526,2.37775,9.86693,0.992493,1.88369,3.57812e-15,1.86858e-14,-35.0871,-22.1879,-74.5758,35.2438,14.0032,3.16237,9.45532,7.12502,28.6157,-18.3739,3.57812e-15,1.86858e-14,-30.656,16.7224,75.676,31.4406,-2.08822,-16.8136,29.5444,7.12502,9.41523,59.3141,-13.4369,-3.02853,21.4806,60.9462,-7.74429,6.5918,1.62981,-15.9107,-1.17335,-17.6669,15.5237,-4.72254,-0.349744,-11.259
-10.5497,18.0711,-2.75536,5.60585,-7.36644,-4.06487,6.49107,0.598067,-3.49658,1.24392,0.584036,1.09888,-2.40164,0.317993,3.05084,-16.4528,1.25341,-4.35947,22.6854,2.34321,2.38486,9.8356,0.978541,1.8721,-7.7526e-15,-1.07344e-14,-34.9571,-22.2313,-74.5802,35.4049,13.9326,2.2324,9.79373,7.12502,27.7268,-18.1819,-7.7526e-15,-1.07344e-14,-30.1296,16.428,75.8154,31.8927,-1.96815,-16.809,29.3614,7.12502,9.41966,59.1309,-14.1167,-3.37736,21.6302,61.698,-7.81757,6.1802,1.40781,-15.5349,-1.20045,-17.6554,15.4401,-4.95086,-0.629037,-11.5007
-10.5477,18.0751,-2.68296,5.59733,-7.06555,-4.04975,6.34215,0.494578,-3.67421,1.26124,0.442198,1.18568,-2.29126,0.246363,3.25378,-16.1894,1.26087,-4.40399,22.5192,2.38047,2.27174,9.72723,0.981222,1.83787,-8.05078e-15,-2.18663e-14,-34.816,-22.285,-74.4598,35.5203,13.941,1.75161,9.24936,7.12502,27.267,-18.7994,-8.05078e-15,-2.18663e-14,-29.8556,16.4446,75.9687,32.4138,-1.86062,-16.786,29.6181,7.12502,9.44184,59.3866,-14.8822,-3.6036,21.6791,62.3854,-7.98839,5.87675,-0.0365438,-15.4397,-1.24509,-17.726,15.6679,-5.28283,-0.850862,-11.1215
-10.5443,18.0809,-2.61056,5.52204,-6.90191,-3.9439,6.40135,0.474134,-3.91172,1.18518,0.396935,1.21568,-2.40078,0.229231,3.42274,-15.8296,1.23118,-4.54231,22.4018,2.35507,2.28149,9.61745,0.960518,1.85389,2.99171e-14,1.78906e-14,-35.1131,-21.958,-74.2531,35.7897,13.7118,1.11875,8.95676,7.12502,26.6615,-19.1856,2.99171e-14,1.78906e-14,-29.7175,16.3329,76.0478,32.9895,-1.91373,-16.0199,30.8721,7.12502,10.1809,60.6058,-15.5764,-3.76776,21.6058,62.9204,-8.17603,5.51667,-1.82711,-15.2994,-1.25311,-17.9109,15.9566,-5.68064,-0.963013,-10.9695
-10.5412,18.0514,-2.54613,5.45261,-6.58667,-3.97316,6.54002,0.420479,-3.97071,1.00453,0.315208,1.25109,-2.65843,0.198124,3.49984,-15.2522,1.27514,-4.5851,22.3994,2.37392,2.37939,9.50505,0.976385,1.88898,-1.19271e-15,5.56597e-15,-35.7923,-21.4879,-74.0741,36.3118,13.3709,0.163974,9.1788,7.12502,25.7474,-19.0993,-1.19271e-15,5.56597e-15,-29.6243,15.8717,76.1043,33.6389,-1.8054,-14.7512,32.5226,7.12502,11.4047,62.1924,-16.3581,-4.08199,21.7226,63.4626,-8.80398,5.12313,-1.33676,-15.1746,-1.29221,-17.9501,16.1782,-5.96418,-1.14393,-11.5502
-10.5383,18.0437,-2.46926,5.39766,-6.35044,-3.96689,6.44854,0.388621,-4.0291,0.797025,0.269625,1.23356,-2.81819,0.183393,3.5188,-14.3044,1.33945,-4.45316,22.3072,2.3808,2.38377,9.29607,0.991632,1.85379,7.35503e-15,1.59028e-15,-36.3619,-21.4595,-73.8392,36.5272,13.4701,-0.523974,9.26229,7.12502,25.0884,-19.1096,7.35503e-15,1.59028e-15,-29.7099,15.3178,76.1043,34.3121,-1.06514,-14.3884,33.1554,7.12502,11.7546,62.8056,-17.1062,-4.30185,21.7958,63.832,-9.1935,4.86957,-3.59755,-15.0024,-1.36589,-18.024,16.4012,-6.28255,-1.20758,-11.8421
-10.536,18.0473,-2.39141,5.19289,-6.24202,-3.87047,6.48458,0.392382,-4.16269,0.743972,0.261141,1.17,-2.89286,0.183046,3.52903,-13.8018,1.37605,-4.28286,22.2928,2.37078,2.36328,9.1996,0.998561,1.80953,1.02374e-14,-3.57812e-15,-36.6654,-21.6171,-73.6629,36.6289,13.549,-1.11688,9.20729,7.12502,24.5202,-19.2428,1.02374e-14,-3.57812e-15,-29.5987,14.919,76.078,34.7512,-0.25752,-15.339,32.5854,7.12502,10.8378,62.2857,-17.6874,-4.38689,21.7221,64.1695,-9.78258,4.61763,-5.34914,-14.7993,-1.32699,-18.2212,16.925,-6.84843,-1.22085,-12.3089
-10.53,18.0477,-2.31883,5.05279,-5.94432,-3.78373,6.53041,0.327188,-4.28961,0.785932,0.165166,1.21011,-2.86667,0.135513,3.65116,-13.708,1.37534,-4.36537,22.2681,2.39103,2.33878,9.17232,0.998753,1.81549,6.85807e-15,1.98785e-14,-36.9114,-21.429,-73.4895,37.0602,13.2274,-1.78599,9.14598,7.12502,23.8786,-19.3896,6.85807e-15,1.98785e-14,-29.3041,14.8344,76.2184,35.1288,-0.0722811,-16.9258,32.612,7.12502,9.30691,62.3865,-18.3294,-4.63799,21.656,64.4378,-10.0942,4.52732,-6.1172,-14.647,-1.42558,-18.4072,17.3398,-7.23783,-1.25739,-12.943
-10.5258,18.0306,-2.25257,4.99561,-5.59752,-3.67191,6.59057,0.264991,-4.43491,0.843921,0.0712469,1.24601,-2.83149,0.0885485,3.77921,-13.9283,1.32764,-4.46344,22.2873,2.36597,2.31196,9.22066,0.97603,1.82336,-3.47873e-15,1.74931e-14,-37.0091,-21.3173,-73.357,37.4976,12.9265,-2.32587,9.11791,7.12502,23.3608,-19.4845,-3.47873e-15,1.74931e-14,-28.8648,14.7676,76.4198,35.6043,-0.0689626,-17.534,33.3337,7.12502,8.72009,63.1336,-19.1965,-4.88489,21.6264,64.6933,-10.2071,4.42711,-5.90016,-14.604,-1.6091,-18.585,17.7157,-7.54144,-1.30612,-13.0374
-10.527,18.013,-2.18514,4.94768,-5.49102,-3.58711,6.61594,0.306488,-4.57329,0.908858,0.115802,1.22851,-2.78297,0.109593,3.83522,-14.2835,1.30589,-4.45791,22.4303,2.35509,2.30504,9.33764,0.968992,1.82644,5.56597e-15,-2.34566e-14,-37.0375,-21.4555,-73.264,37.8162,12.7591,-2.74318,9.21104,7.12502,22.9604,-19.4416,5.56597e-15,-2.34566e-14,-28.3088,14.4469,76.6186,36.0877,0.212779,-17.0464,32.6938,7.12502,9.19056,62.4735,-20.0499,-4.83899,21.636,64.9435,-10.3634,4.22322,-5.54946,-14.5736,-1.77498,-18.7064,18.1923,-7.87419,-1.14988,-12.8142
-10.5249,18.0068,-2.11459,4.91002,-5.24843,-3.36956,6.66302,0.270538,-4.76072,0.767529,0.0473008,1.14219,-2.94913,0.0843698,3.85806,-14.0214,1.42044,-4.35786,22.5544,2.4586,2.38675,9.3272,1.03268,1.84839,1.66979e-14,-1.11319e-14,-37.3912,-21.4032,-73.1726,38.2334,12.8814,-2.98005,8.4179,7.12502,22.7331,-20.2628,1.66979e-14,-1.11319e-14,-28.3285,14.0441,76.6237,36.7243,0.551956,-16.6138,31.9565,7.12502,9.60793,61.7174,-20.8164,-4.95023,21.4498,65.1577,-10.417,4.21508,-5.23611,-14.6264,-1.81407,-19.0022,18.7674,-8.27696,-1.27195,-12.1807
-10.5213,17.9935,-2.05039,4.95912,-4.98644,-3.16034,6.69524,0.19423,-4.98723,0.592409,-0.0767178,1.10925,-3.13619,0.0340666,3.96409,-13.7271,1.50564,-4.314,22.6988,2.54039,2.43977,9.31854,1.07779,1.86698,8.15017e-15,1.59028e-15,-37.621,-21.3268,-73.1035,38.6571,13.4308,-3.00835,6.88394,7.12502,22.706,-21.8001,8.15017e-15,1.59028e-15,-28.5031,13.8148,76.643,37.469,0.920989,-16.7842,31.6437,7.12502,9.44354,61.4121,-21.8245,-5.09781,21.307,65.317,-10.481,4.26984,-4.80146,-14.8002,-1.86504,-19.2931,19.2806,-8.6117,-1.43036,-12.4169
-10.5193,17.9766,-1.99162,4.97389,-4.80589,-3.19548,6.6636,0.158916,-4.94943,0.619535,-0.118571,1.11513,-3.08589,0.0108295,3.95237,-13.5215,1.49052,-4.21502,22.6077,2.5079,2.3472,9.25247,1.06201,1.81001,1.2921e-14,-1.03368e-14,-37.6086,-21.4419,-73.1058,38.9516,13.7942,-3.39681,6.60874,7.12502,22.3331,-22.1205,1.2921e-14,-1.03368e-14,-28.1974,13.6498,76.7397,38.058,1.15175,-17.042,31.1451,7.12502,9.19485,60.9246,-22.877,-5.06012,21.4812,65.3527,-10.4594,4.16601,-4.34587,-14.9101,-1.86594,-19.3008,19.7736,-8.97403,-1.59274,-12.5833
-10.5173,17.965,-1.93003,4.84357,-4.56995,-3.22111,6.89111,0.0989772,-4.94405,0.590928,-0.208136,1.17316,-3.2335,-0.0287587,4.02011,-13.0994,1.56878,-4.13479,22.3474,2.63281,2.1161,9.08415,1.10558,1.72061,-1.09332e-14,-3.57812e-15,-37.8004,-21.2646,-73.0173,39.2569,13.6982,-4.06539,6.5181,7.12502,21.6912,-22.2867,-1.09332e-14,-3.57812e-15,-28.0954,13.6039,76.8064,38.718,1.07152,-16.8216,31.2928,7.12502,9.40752,61.0629,-23.624,-5.07128,21.636,65.2617,-10.4932,3.86675,-4.42435,-14.8538,-1.94931,-19.3177,20.3158,-9.34567,-1.69266,-12.4216
-10.5149,17.9437,-1.8572,4.58978,-4.35939,-3.09018,7.16807,0.0494588,-5.05789,0.652473,-0.295791,1.18194,-3.31481,-0.0697679,4.10433,-13.2706,1.70881,-4.1699,22.4157,2.83594,2.15482,9.13116,1.20095,1.76646,2.48481e-15,9.54166e-15,-37.8878,-21.1195,-73.0164,39.5529,13.6095,-4.87053,6.0748,7.12502,20.9178,-22.8174,2.48481e-15,9.54166e-15,-27.9256,13.6144,76.8784,39.305,0.957757,-15.9822,31.2792,7.12502,10.2173,61.0111,-24.1057,-5.14966,21.5448,65.1124,-10.7097,3.71905,-5.56579,-14.5856,-1.953,-19.5334,20.8229,-9.65351,-1.81306,-11.2209
-10.5127,17.9257,-1.7861,4.52355,-4.13247,-2.95982,7.13742,-0.000526759,-5.0973,0.836621,-0.362703,1.11152,-3.09903,-0.113108,4.05793,-13.7771,1.76568,-4.14391,22.4989,2.89509,2.31567,9.24943,1.24752,1.83385,7.65321e-15,5.1684e-15,-37.707,-21.2189,-73.2385,39.835,13.5627,-5.78022,6.11109,7.12502,20.0436,-22.8751,7.65321e-15,5.1684e-15,-27.3764,13.3819,76.995,39.8442,1.11107,-14.8023,31.4862,7.12502,11.3554,61.1587,-24.8655,-5.21279,21.4758,64.8873,-10.8177,3.58036,-6.16256,-14.4741,-1.90256,-19.739,21.1819,-9.91594,-2.03753,-10.2457
-10.5118,17.9166,-1.72569,4.56611,-3.86647,-2.75622,7.11037,-0.0504802,-5.18693,0.862529,-0.437807,1.00042,-3.04905,-0.151938,3.99927,-13.6401,1.78952,-4.06182,22.314,2.87754,2.41645,9.15904,1.26036,1.84683,-2.38542e-15,1.19271e-15,-37.7809,-21.4062,-73.3192,40.0918,13.6409,-6.42759,6.38289,7.12502,19.4213,-22.6672,-2.38542e-15,1.19271e-15,-26.9826,13.0098,77.0576,40.4093,1.4227,-14.5571,31.8274,7.12502,11.5919,61.4868,-25.8387,-5.22825,21.3739,64.6116,-10.8608,3.38643,-5.64333,-14.4802,-1.8241,-20.0005,21.4264,-10.1403,-2.40318,-9.83078
-10.5096,17.9084,-1.65707,4.4689,-3.6332,-2.5063,7.16022,-0.0936896,-5.37976,0.824738,-0.51563,0.949186,-3.10668,-0.18604,4.06312,-13.449,1.81037,-3.9631,22.4294,2.90283,2.30196,9.16633,1.266,1.79301,-1.28216e-14,3.97569e-15,-38.0156,-21.4662,-73.174,40.2647,13.5775,-6.91127,6.41074,7.12502,18.9562,-22.6855,-1.28216e-14,3.97569e-15,-26.9487,12.7871,77.117,40.9932,1.70438,-15.0142,31.2981,7.12502,11.1511,60.9818,-26.5787,-5.2789,21.1779,64.2822,-11.0261,3.36678,-5.58591,-14.2748,-1.79626,-20.3252,21.6476,-10.4573,-2.65785,-9.73256
-10.5057,17.8955,-1.58499,4.34568,-3.37544,-2.15543,7.25824,-0.147462,-5.69059,0.838517,-0.618322,0.914378,-3.13306,-0.232951,4.21362,-13.3892,1.83071,-4.03235,22.4554,2.95502,2.26106,9.16223,1.27971,1.79601,-2.61402e-14,2.38542e-14,-38.0373,-21.3255,-73.1188,40.3897,13.3667,-7.60849,5.90002,7.12502,18.2855,-23.2605,-2.61402e-14,2.38542e-14,-26.9779,12.5146,77.2775,41.5647,2.4168,-15.044,31.7819,7.12502,11.1223,61.4671,-27.2398,-5.33222,20.8498,63.9217,-11.2493,3.42156,-6.11625,-14.0422,-1.66905,-20.7784,21.8747,-10.7951,-3.00483,-9.27518
-10.5039,17.8733,-1.52178,4.24448,-3.25666,-1.99205,7.5036,-0.138061,-5.80244,0.870436,-0.630291,0.88146,-3.23494,-0.235189,4.24681,-13.5172,1.8652,-4.13243,22.4208,3.00655,2.37084,9.16835,1.30825,1.8577,-2.72335e-14,9.54166e-15,-37.9969,-21.3663,-73.171,40.5879,13.41,-8.18119,5.56712,7.12502,17.7345,-23.6442,-2.72335e-14,9.54166e-15,-26.6531,12.2474,77.4061,41.7769,3.11824,-15.4354,32.7679,7.12502,10.7448,62.4731,-27.992,-5.13555,20.7543,63.5333,-11.4394,3.37529,-5.92404,-13.904,-1.7266,-20.991,22.1908,-11.0673,-2.98568,-8.78531
-10.5021,17.8531,-1.45218,4.09291,-3.16793,-1.84726,7.72001,-0.140796,-5.92272,0.922598,-0.656034,0.886705,-3.29725,-0.245648,4.32564,-13.7593,1.94279,-4.0299,22.5716,3.12901,2.26129,9.26565,1.35969,1.82422,1.07344e-14,-1.35174e-14,-38.035,-21.2776,-73.2237,40.9259,13.501,-8.66415,5.61843,7.12502,17.2697,-23.6342,1.07344e-14,-1.35174e-14,-26.3416,12.2261,77.5017,42.0088,3.33268,-16.1851,33.0253,7.12502,10.0216,62.7667,-28.6459,-4.91399,20.666,63.0419,-11.6199,3.22304,-5.80717,-13.7771,-1.75474,-21.1949,22.7164,-11.6121,-2.98403,-8.81643
-10.5024,17.8325,-1.38176,3.99463,-3.02936,-1.63335,7.76292,-0.164801,-6.15193,0.948522,-0.708945,0.899802,-3.28499,-0.269971,4.47496,-13.4972,2.06284,-3.85099,22.4771,3.29538,2.03816,9.18597,1.42946,1.73044,1.83876e-15,2.8625e-14,-38.1434,-21.2505,-73.1686,41.1282,13.5971,-9.0896,5.65125,7.12502,16.8602,-23.6368,1.83876e-15,2.8625e-14,-26.2608,12.1704,77.6301,42.4478,3.40417,-15.998,32.5133,7.12502,10.2021,62.2459,-29.3249,-4.75437,20.5234,62.4372,-11.548,3.0848,-5.98555,-13.7051,-1.84193,-21.4744,23.2717,-12.2042,-2.9245,-9.19711
-10.5039,17.8037,-1.31438,4.0382,-2.91889,-1.56892,7.65053,-0.195358,-6.17811,0.955385,-0.743274,0.923191,-3.21009,-0.28929,4.51591,-13.4514,2.15618,-3.83403,22.6318,3.42782,2.01031,9.22766,1.48711,1.73527,-1.6201e-14,1.94809e-14,-38.2596,-21.1147,-73.1567,41.3551,13.5448,-9.3081,5.46961,7.12502,16.6498,-23.8363,-1.6201e-14,1.94809e-14,-26.0199,11.956,77.8232,42.6176,3.90394,-15.9076,31.6215,7.12502,10.2893,61.3498,-30.1247,-4.44823,20.5496,61.7371,-11.344,2.96893,-5.9498,-13.7096,-1.88503,-21.5765,23.6401,-12.563,-2.82446,-9.53474
-10.5029,17.7859,-1.24258,3.98786,-2.79059,-1.23285,7.62095,-0.224539,-6.39639,1.01844,-0.799528,0.83126,-3.11912,-0.319818,4.54754,-13.716,2.20434,-3.87142,22.8985,3.50255,2.07548,9.36553,1.52128,1.78268,-3.27995e-15,-5.96354e-15,-38.2604,-21.12,-73.1883,41.4792,13.5937,-9.49754,5.79159,7.12502,16.4675,-23.5295,-3.27995e-15,-5.96354e-15,-25.8019,11.7916,77.9642,42.9154,4.44638,-15.5158,32.0509,7.12502,10.6672,61.7601,-30.7762,-4.25619,20.2001,60.9706,-11.1176,3.115,-4.59232,-13.5736,-1.88986,-22.0032,23.9125,-12.8488,-2.90385,-9.68891
-10.5017,17.7876,-1.1753,3.84292,-2.52057,-1.02911,7.89524,-0.267325,-6.50811,1.06723,-0.884702,0.796796,-3.20967,-0.359025,4.5874,-13.8424,2.26796,-3.77187,22.9073,3.59349,1.99355,9.39316,1.5629,1.75108,-1.09829e-14,2.3059e-14,-38.1751,-21.178,-73.2079,41.4878,13.5813,-9.79443,6.13865,7.12502,16.1816,-23.2059,-1.09829e-14,2.3059e-14,-25.6781,11.8609,78.0349,43.2189,4.30484,-14.6918,32.9871,7.12502,11.462,62.6538,-31.2875,-4.20508,20.0167,60.1245,-10.887,3.17071,-4.4669,-13.3736,-1.8606,-22.28,24.2027,-13.1517,-3.09684,-9.22494
-10.5024,17.7837,-1.10818,3.83332,-2.29195,-1.05786,8.11503,-0.281499,-6.42246,0.98462,-0.911704,0.859454,-3.41578,-0.363681,4.6125,-13.7138,2.36021,-3.627,22.8862,3.72075,1.83679,9.36423,1.61786,1.68493,-7.05686e-15,-1.90833e-14,-38.2494,-21.3091,-73.0672,41.3872,13.5771,-10.2883,5.88008,7.12502,15.706,-23.5025,-7.05686e-15,-1.90833e-14,-25.5312,11.9271,78.1125,43.0374,4.16768,-14.7851,33.2171,7.12502,11.372,62.8887,-31.9265,-4.01166,20.1251,59.2367,-10.7435,3.12614,-4.99822,-13.2341,-1.72035,-22.2934,24.3529,-13.3481,-3.16257,-10.6484
-10.5007,17.7643,-1.03707,3.80596,-2.20028,-1.00372,8.18394,-0.297571,-6.39374,0.921456,-0.934792,0.921786,-3.51684,-0.369942,4.66626,-13.2711,2.42234,-3.70003,22.6911,3.82307,1.75733,9.21069,1.65485,1.66901,6.90777e-15,-8.34896e-15,-38.464,-21.2081,-72.9689,41.5726,13.6235,-11.0032,6.15116,7.12502,15.0174,-23.2843,6.90777e-15,-8.34896e-15,-25.3107,11.8558,78.2701,42.7446,4.34606,-14.8422,33.633,7.12502,11.3169,63.3077,-32.5067,-3.75221,20.1207,58.3567,-10.6732,3.15536,-5.09075,-13.0115,-1.42921,-22.4382,24.4365,-13.558,-3.07127,-11.4116
-10.4976,17.7492,-0.960475,3.65187,-1.97023,-0.773626,8.18983,-0.356694,-6.42708,1.11849,-1.01242,0.878863,-3.30439,-0.420944,4.64586,-13.3161,2.43617,-3.79959,22.52,3.85409,1.80466,9.15545,1.66923,1.70278,-7.85199e-15,1.31198e-14,-38.268,-21.1198,-73.1747,41.8345,13.6773,-11.9103,6.87531,7.12502,14.1434,-22.6233,-7.85199e-15,1.31198e-14,-24.7687,11.5854,78.4468,42.7103,4.56639,-14.0864,33.8297,7.12502,12.0458,63.463,-32.8348,-3.64945,19.8802,57.4769,-10.4874,3.26596,-4.40263,-12.6579,-1.43015,-22.7691,24.582,-13.7354,-3.0158,-10.6745
-10.4978,17.7429,-0.880192,3.55467,-1.64392,-0.530224,8.13268,-0.452697,-6.4852,1.33893,-1.13575,0.83695,-3.02614,-0.497407,4.64328,-13.716,2.50904,-3.84146,22.6471,3.9691,1.87138,9.26804,1.72378,1.75632,5.31749e-15,-7.55382e-15,-37.9472,-20.9411,-73.4454,41.9882,13.5963,-12.6715,6.28763,7.12502,13.4099,-23.2608,5.31749e-15,-7.55382e-15,-24.2959,11.4179,78.6057,42.7734,4.5996,-13.8057,33.0465,7.12502,12.3165,62.6638,-33.1882,-3.63684,19.6517,56.5636,-10.3151,3.21754,-4.12963,-12.3066,-1.54981,-23.0841,24.668,-13.831,-3.07015,-9.80792
-10.4959,17.7343,-0.804232,3.46996,-1.51689,-0.536987,8.22243,-0.48221,-6.33579,1.28833,-1.16918,0.849787,-3.12765,-0.510583,4.57824,-13.4625,2.59574,-3.76899,22.7665,4.05624,1.90019,9.25987,1.77215,1.7612,-1.16289e-14,7.55382e-15,-38.23,-20.812,-73.4455,42.133,13.5532,-12.8326,5.84522,7.12502,13.2546,-23.7133,-1.16289e-14,7.55382e-15,-24.3829,11.2159,78.6894,42.8618,4.5463,-14.3634,32.503,7.12502,11.7786,62.1518,-33.5801,-3.40863,19.6915,55.5573,-10.1715,3.03763,-3.77293,-11.8797,-1.69297,-23.1453,24.5895,-13.7252,-2.96176,-9.03022
-10.4895,17.7223,-0.728643,3.29234,-1.47678,-0.458898,8.43201,-0.47795,-6.24868,1.23981,-1.17107,0.858869,-3.29669,-0.505264,4.54407,-12.9589,2.66605,-3.67591,22.5595,4.13582,1.78523,9.09635,1.80946,1.70046,9.74045e-15,-1.74931e-14,-38.5434,-21.0136,-73.246,42.1673,13.9317,-12.721,6.39499,7.12502,13.3621,-23.1565,9.74045e-15,-1.74931e-14,-24.4388,11.1531,78.828,42.8012,4.45987,-15.0975,32.1998,7.12502,11.0707,61.8878,-33.9398,-3.19502,19.6128,54.4722,-9.88056,2.84487,-4.12949,-11.3366,-1.91579,-23.358,24.4626,-13.6026,-2.59487,-9.00117
-10.4861,17.7209,-0.649034,3.15361,-1.48714,-0.354079,8.5495,-0.47036,-6.24646,1.29078,-1.1657,0.899741,-3.3088,-0.503308,4.58711,-12.7466,2.75143,-3.67083,22.3564,4.27216,1.65701,8.98624,1.86407,1.66241,-2.5842e-14,6.55989e-15,-38.518,-21.0486,-73.1073,42.0937,14.267,-12.7284,6.52384,7.12502,13.355,-23.0282,-2.5842e-14,6.55989e-15,-24.2842,11.245,79.0027,42.5129,4.32922,-15.4974,31.0171,7.12502,10.685,60.7254,-34.3758,-2.8448,19.4785,53.3242,-9.42461,2.56839,-3.7744,-10.8091,-2.08121,-23.5675,24.3253,-13.549,-2.26498,-8.20802
-10.4854,17.7182,-0.570043,3.12025,-1.45857,-0.240313,8.59277,-0.46916,-6.31172,1.25791,-1.17159,0.964656,-3.36381,-0.502398,4.69441,-12.602,2.7932,-3.81071,22.4581,4.33425,1.75284,8.9866,1.89035,1.72379,8.94531e-16,-9.93923e-16,-38.7096,-20.6694,-73.0685,42.3782,14.1286,-12.6769,6.25058,7.12502,13.4046,-23.2982,8.94531e-16,-9.93923e-16,-24.2807,11.0997,79.2082,42.3148,4.43989,-15.4784,31.2592,7.12502,10.7033,60.9665,-34.8246,-2.4962,19.3345,52.1988,-9.19595,2.35925,-2.26736,-10.4076,-2.10841,-23.7603,24.1761,-13.6432,-2.11998,-7.94472
-10.484,17.7121,-0.492661,3.0892,-1.32532,0.00741049,8.58186,-0.493959,-6.48754,1.31864,-1.21722,0.991322,-3.284,-0.527353,4.82589,-12.7367,2.80191,-3.84288,22.6133,4.34739,1.81365,9.0624,1.8972,1.75746,-1.59525e-14,1.27222e-14,-38.6959,-20.5919,-73.0655,42.6007,14.074,-12.2566,6.43913,7.12502,13.8097,-23.0825,-1.59525e-14,1.27222e-14,-23.9982,11.1399,79.4296,42.0095,4.03133,-14.8093,32.2172,7.12502,11.3487,61.8901,-35.194,-2.33522,19.0677,51.1137,-9.12233,2.17174,-1.69029,-10.0068,-2.07105,-24.1066,24.0124,-13.9087,-2.17124,-8.18258
-10.4812,17.7072,-0.412507,2.95582,-1.22323,0.104404,8.59633,-0.522953,-6.40706,1.51615,-1.24349,0.991273,-3.08388,-0.553712,4.78035,-12.9321,2.95892,-3.64197,22.5322,4.57261,1.62698,9.074,2.00024,1.68821,-6.80837e-15,1.76918e-14,-38.3297,-20.7797,-73.1202,42.3301,14.026,-12.0917,6.56338,7.12502,13.9686,-22.9474,-6.80837e-15,1.76918e-14,-23.4034,11.1537,79.5918,41.5092,3.62688,-15.109,31.6236,7.12502,11.0596,61.3122,-35.4621,-2.11493,18.9704,50.058,-8.81468,1.89572,-2.16278,-9.51413,-2.02211,-24.2892,23.8606,-14.151,-2.2107,-7.72114
-10.4793,17.7017,-0.330001,2.89175,-1.26561,0.212486,8.58342,-0.537926,-6.37109,1.57086,-1.25689,1.01399,-3.01807,-0.564462,4.7841,-12.7505,3.19648,-3.43135,22.3737,4.91285,1.34301,8.98987,2.14998,1.58689,2.55935e-15,-8.94531e-16,-38.3165,-20.6417,-73.0979,42.1356,13.799,-12.0688,6.06352,7.12502,13.9907,-23.4457,2.55935e-15,-8.94531e-16,-23.2845,11.0011,79.7359,41.0911,4.03226,-17.0509,28.7711,7.12502,9.18626,58.551,-35.8325,-1.83822,18.865,49.0562,-8.32723,1.78155,-3.04569,-9.08705,-2.07736,-24.4842,23.6861,-14.2325,-2.01659,-7.22254
-10.4764,17.6917,-0.248864,3.01148,-1.45214,0.47368,8.44366,-0.497324,-6.50359,1.51709,-1.20706,1.01027,-2.99999,-0.537767,4.8476,-12.6188,3.3026,-3.33523,22.3359,5.06691,1.19881,8.95555,2.21591,1.53511,-2.49475e-14,9.93923e-17,-38.4711,-20.3502,-73.1338,42.3543,13.7197,-12.1969,6.24637,7.12502,13.8673,-23.2713,-2.49475e-14,9.93923e-17,-23.3083,10.7767,79.9401,41.3102,3.68508,-16.5594,28.8475,7.12502,9.66045,58.606,-36.44,-1.54598,18.59,48.0928,-7.77865,1.84812,-4.20039,-8.85829,-2.06426,-24.8677,23.5273,-14.1867,-1.73852,-6.76107
-10.4752,17.68,-0.170579,3.07971,-1.57912,0.781018,8.36634,-0.431599,-6.72856,1.51263,-1.1347,1.00314,-2.9665,-0.500893,4.95855,-12.6208,3.35693,-3.28057,22.3968,5.13874,1.1692,8.97753,2.24981,1.52525,3.72721e-17,2.64384e-14,-38.363,-20.2452,-73.1981,42.4927,13.8164,-12.2006,6.61228,7.12502,13.8637,-22.9057,3.72721e-17,2.64384e-14,-23.1685,10.4405,80.2246,41.1693,3.73004,-16.4668,28.5559,7.12502,9.74984,58.3102,-37.0453,-1.31595,18.2872,47.1642,-7.34593,1.95927,-5.32389,-8.55554,-2.07196,-25.284,23.3761,-14.2124,-1.48627,-6.56642
-10.4752,17.6704,-0.0899505,2.90233,-1.46278,0.879965,8.52941,-0.466333,-6.76125,1.58187,-1.19028,1.09392,-2.97469,-0.529585,5.08118,-12.5793,3.49657,-3.23269,22.4926,5.33954,1.09865,9.0016,2.33848,1.51636,-3.32343e-15,1.06847e-14,-38.2175,-20.2807,-73.1523,42.3652,13.914,-12.0515,6.59825,7.12502,14.0074,-22.9098,-3.32343e-15,1.06847e-14,-23.1672,10.189,80.494,41.0803,4.02427,-16.2542,30.1788,7.12502,9.95492,59.9234,-37.2643,-1.26687,18.2336,46.2532,-6.99619,2.1554,-4.94058,-7.9661,-2.11618,-25.4437,23.2258,-14.3267,-1.38566,-6.62895
-10.4763,17.6601,-0.00594893,2.76644,-1.42692,0.896279,8.68301,-0.524876,-6.66994,1.58851,-1.26727,1.18738,-3.04263,-0.566045,5.1395,-12.3701,3.67227,-3.11893,22.4774,5.59969,0.888957,8.9621,2.44849,1.44937,1.08441e-14,1.0225e-14,-38.1647,-20.3824,-72.9919,42.0232,14.1858,-12.1249,6.72821,7.12502,13.9366,-22.7847,1.08441e-14,1.0225e-14,-23.4085,10.1477,80.6556,41.2252,4.15459,-14.8605,32.1945,7.12502,11.2993,61.8701,-37.4724,-1.17764,18.2923,45.3502,-6.57156,2.41005,-4.62115,-7.40318,-2.19364,-25.5236,23.0342,-14.4674,-1.14428,-6.73559
-10.4719,17.6493,0.0773174,2.78554,-1.47641,1.00902,8.69288,-0.552497,-6.58584,1.56084,-1.2965,1.2229,-3.07419,-0.579314,5.13294,-12.2471,3.8331,-3.00834,22.4869,5.83489,0.718822,8.94704,2.55009,1.39621,2.78174e-14,-8.89561e-15,-38.0988,-20.3675,-72.8876,41.727,14.3943,-12.0335,5.47836,7.12502,14.0247,-24.0285,2.78174e-14,-8.89561e-15,-23.5729,9.95786,80.8219,41.3071,4.52855,-13.8808,32.7177,7.12502,12.2441,62.3393,-37.8692,-1.04292,18.2295,44.4397,-6.08728,2.57053,-4.76004,-7.02387,-2.26691,-25.7426,22.8491,-14.6566,-0.866267,-6.9372
-10.4657,17.6386,0.165449,2.78378,-1.44959,1.26525,8.57517,-0.590835,-6.67731,1.59127,-1.34567,1.25392,-2.96702,-0.607794,5.21916,-12.001,4.00848,-2.92063,22.3245,6.08563,0.549932,8.84963,2.66219,1.34176,4.29872e-15,-2.38542e-14,-38.081,-20.1868,-72.8449,41.6899,14.3484,-12.2884,4.80523,7.12502,13.7791,-24.7185,4.29872e-15,-2.38542e-14,-23.735,9.46104,81.0713,41.4577,5.32956,-14.5696,29.8219,7.12502,11.5799,59.482,-38.222,-1.03793,18.0036,43.5946,-5.73782,2.6405,-4.76251,-6.59979,-2.38161,-26.1211,22.6891,-14.8702,-0.659507,-7.3248
-10.4652,17.6331,0.252159,2.74337,-1.52691,1.32191,8.48316,-0.582321,-6.61174,1.6691,-1.31805,1.311,-2.8384,-0.601577,5.23554,-11.9061,4.18568,-2.76368,22.2636,6.31763,0.444745,8.81592,2.77496,1.30148,1.76173e-14,-1.67973e-14,-38.0964,-20.1012,-72.8495,41.7649,14.2056,-12.5291,5.26513,7.12502,13.5471,-24.2742,1.76173e-14,-1.67973e-14,-23.7799,8.82466,81.4385,42.3476,5.56705,-15.0358,32.3428,7.12502,11.1303,62.0276,-38.5081,-0.903573,18.0458,42.8339,-5.48547,2.58679,-4.97032,-6.07745,-2.39804,-26.2496,22.4459,-14.972,-0.396189,-7.41201
-10.4662,17.6197,0.335926,2.68003,-1.65147,1.43437,8.61933,-0.531052,-6.61112,1.67858,-1.25764,1.35237,-2.91171,-0.568923,5.27598,-11.9997,4.31627,-2.69205,22.3711,6.48269,0.47887,8.8681,2.85904,1.32378,1.23495e-14,-7.35503e-15,-38.1469,-20.1304,-72.7655,41.7133,14.0297,-12.2238,4.46139,7.12502,13.8414,-25.0581,1.23495e-14,-7.35503e-15,-23.7367,8.65198,81.6368,42.2044,5.52261,-14.2478,33.8986,7.12502,11.8901,63.541,-38.8103,-0.804281,18.0497,42.1937,-5.26629,2.65498,-5.19497,-5.49405,-2.27864,-26.4373,22.1286,-15.0019,-0.184486,-8.11542
-10.4629,17.6089,0.425449,2.51031,-1.67464,1.74556,8.75499,-0.521726,-6.7565,1.73939,-1.26562,1.37156,-2.91856,-0.573133,5.38226,-11.8178,4.46414,-2.70837,22.2058,6.69689,0.407724,8.77638,2.95609,1.31627,-7.0817e-15,3.77691e-15,-38.1094,-20.3651,-72.586,41.5397,14.2525,-11.8526,4.00753,7.12502,14.199,-25.4872,-7.0817e-15,3.77691e-15,-23.7952,8.43696,81.8857,41.9967,5.98977,-12.7435,34.6886,7.12502,13.3404,64.2416,-39.0381,-0.974524,17.8731,41.6846,-5.07383,2.7794,-5.25304,-4.81001,-2.16069,-26.8572,21.8428,-15.145,0.0139688,-8.95352
-10.4588,17.599,0.517037,2.38071,-1.84486,1.95363,8.73025,-0.493574,-6.78498,1.84677,-1.2253,1.39877,-2.79687,-0.560664,5.42063,-11.7071,4.5954,-2.79485,22.184,6.88045,0.459163,8.73997,3.04217,1.3628,1.95803e-14,2.84262e-14,-37.9401,-20.6771,-72.4088,41.1901,14.6908,-11.859,4.85785,7.12502,14.1929,-24.6373,1.95803e-14,2.84262e-14,-23.9422,8.02412,82.1585,42.3353,6.5249,-12.1068,34.7186,7.12502,13.9541,64.2303,-39.3053,-1.05793,17.8499,41.2773,-4.96453,2.8389,-5.4398,-4.17137,-2.00134,-27.1533,21.5638,-15.3552,0.219411,-9.10485
-10.4557,17.5784,0.608103,2.21377,-2.0678,2.15568,8.81867,-0.455149,-6.80544,1.95393,-1.17913,1.41072,-2.73977,-0.542893,5.44062,-12.0457,4.69058,-2.90139,22.6709,7.01273,0.674037,8.95411,3.10394,1.48803,-9.34288e-15,1.19271e-15,-37.8146,-20.8371,-72.2781,40.8348,15.1172,-12.2334,5.65332,7.12502,13.8321,-23.8668,-9.34288e-15,1.19271e-15,-24.0349,7.63476,82.3741,42.6173,7.07238,-11.6497,35.421,7.12502,14.3946,64.9019,-39.4804,-1.05894,17.8653,40.9697,-4.98093,2.70682,-6.47584,-3.47635,-1.85173,-27.4346,21.2199,-15.5007,0.42745,-9.36267
-10.4494,17.5534,0.700871,2.02094,-2.15145,2.45154,8.90912,-0.503692,-6.88978,2.08275,-1.25377,1.42547,-2.64204,-0.587179,5.51223,-12.1871,4.9484,-2.68735,22.7837,7.38576,0.456845,9.03043,3.26891,1.4279,1.5704e-14,-7.95139e-16,-37.7534,-20.7585,-72.2292,40.7835,15.281,-12.5246,6.04698,7.12502,13.5514,-23.492,1.5704e-14,-7.95139e-16,-24.084,7.4422,82.5777,42.7788,7.5098,-11.2812,35.8577,7.12502,14.7496,65.3129,-39.6355,-1.21756,17.739,40.7333,-4.71285,2.52909,-7.09783,-2.775,-1.77085,-27.8213,20.9386,-15.6344,0.451381,-9.07434
-10.4395,17.5318,0.793514,2.10117,-2.2095,2.90414,8.81235,-0.564948,-7.03167,2.05451,-1.34429,1.34833,-2.60296,-0.632258,5.51874,-11.7632,5.18864,-2.14787,22.3048,7.71515,-0.146581,8.83197,3.41908,1.14879,-3.23025e-15,-1.15295e-14,-37.8338,-20.7882,-72.1543,40.8303,15.4073,-12.5181,5.93074,7.12502,13.5576,-23.6079,-3.23025e-15,-1.15295e-14,-24.304,7.16038,82.7367,43.0857,7.58014,-11.3089,35.4089,7.12502,14.7229,64.866,-40.1782,-1.5378,17.4438,40.6031,-4.27657,2.52878,-7.33487,-2.40717,-1.72982,-28.3959,20.7104,-15.819,0.49006,-8.88788
-10.4306,17.5085,0.886238,2.28893,-2.30641,3.33838,8.68223,-0.594762,-7.10212,1.92285,-1.38819,1.23317,-2.66322,-0.647455,5.44038,-11.6966,5.25587,-2.33087,22.3876,7.81344,0.000910278,8.83239,3.46462,1.23743,1.60022e-14,3.97569e-15,-38.078,-20.873,-72.0855,40.9079,15.4748,-12.4778,5.92792,7.12502,13.5965,-23.6081,1.60022e-14,3.97569e-15,-24.6181,6.75119,82.8801,43.3652,7.38916,-11.7982,34.2923,7.12502,14.2515,63.7833,-40.8181,-1.87371,17.2158,40.5811,-4.06208,2.51608,-6.36798,-2.16831,-1.71251,-28.9509,20.4957,-16.0601,0.603943,-8.95545
-10.4256,17.4865,0.982801,2.32136,-2.46824,3.62559,8.56388,-0.581657,-7.10614,1.92807,-1.36304,1.20585,-2.59623,-0.637804,5.40804,-11.5184,5.38122,-2.13799,22.5821,7.9674,-0.0818531,8.87644,3.54081,1.1935,-1.40143e-14,1.23246e-14,-38.2508,-20.9172,-72.0017,40.9264,15.0717,-12.7742,6.49506,7.12502,13.3108,-23.0598,-1.40143e-14,1.23246e-14,-24.8359,6.4324,83.0525,43.8093,7.00989,-12.2828,33.5049,7.12502,13.7845,63.0282,-41.2666,-2.02419,17.159,40.6622,-3.95196,2.4062,-5.42343,-1.74105,-1.66983,-29.3367,20.304,-16.396,0.797143,-9.44183
-10.4248,17.4616,1.08001,2.20151,-2.69304,3.80963,8.46946,-0.538677,-7.01836,2.25917,-1.28137,1.20251,-2.21173,-0.622535,5.33891,-12.1326,5.45562,-2.13253,22.4104,8.15496,-0.382014,8.94468,3.59465,1.13053,-2.25621e-14,-1.59028e-15,-37.6877,-21.2518,-72.1025,40.6819,14.8041,-13.2088,6.66564,7.12502,12.8919,-22.9162,-2.25621e-14,-1.59028e-15,-24.2661,6.32481,83.2169,43.9273,6.7289,-12.274,33.2726,7.12502,13.793,62.7954,-41.5614,-2.03825,17.2213,40.8385,-3.79632,2.32554,-6.13653,-1.18828,-1.51662,-29.5962,20.1638,-16.6564,0.961778,-9.76017
-10.4203,17.4319,1.1745,2.11555,-2.8856,4.07721,8.42784,-0.459487,-6.88929,2.75833,-1.14905,1.14368,-1.69078,-0.591133,5.18294,-13.6083,5.65174,-2.1009,22.8744,8.46966,-0.297027,9.3744,3.72342,1.25396,2.5842e-15,-1.15295e-14,-36.6786,-21.9175,-72.3925,40.7152,15.2555,-13.2669,5.53944,7.12502,12.836,-24.0459,2.5842e-15,-1.15295e-14,-23.2093,6.16769,83.487,43.9022,6.73121,-11.9646,34.0243,7.12502,14.0911,63.5265,-41.9292,-2.23499,17.2365,41.0627,-3.50682,2.3818,-7.42773,-0.707952,-1.4704,-29.9709,20.0905,-16.8479,1.16518,-9.31735
-10.4133,17.4021,1.27032,2.07316,-2.98194,4.36418,8.56846,-0.548576,-7.0174,2.24191,-1.3011,1.2507,-2.28069,-0.629272,5.39385,-11.5211,5.92931,-2.05227,22.2832,8.81546,-0.572815,8.79575,3.90195,1.0995,-3.77691e-15,3.57812e-15,-37.8753,-21.2226,-71.891,41.0241,15.3728,-13.3745,5.6679,7.12502,12.7322,-23.9239,-3.77691e-15,3.57812e-15,-24.6736,6.2423,83.6474,44.4784,6.76521,-12.0159,34.1987,7.12502,14.0417,63.7044,-42.3177,-2.50979,17.1738,41.3085,-3.30358,2.41939,-6.98996,-0.344275,-1.33776,-30.355,20.1576,-17.1017,1.23729,-8.74139
-10.4107,17.3753,1.36722,1.98368,-3.0189,4.48624,8.7772,-0.619904,-6.98289,2.01339,-1.4111,1.37428,-2.61731,-0.664153,5.52494,-11.1452,6.20377,-2.21644,22.9919,9.15408,-0.17407,8.93713,4.07476,1.29661,-3.21037e-14,5.56597e-15,-38.4777,-20.8669,-71.5834,41.1088,15.2433,-13.599,6.20786,7.12502,12.5157,-23.3973,-3.21037e-14,5.56597e-15,-25.3844,6.12234,83.8219,44.8355,6.72865,-12.2488,33.3373,7.12502,13.8173,62.8584,-42.556,-2.615,17.2186,41.5894,-3.39169,2.29431,-5.35979,0.0320022,-1.30967,-30.5471,20.3203,-17.442,1.3696,-8.67735
-10.4106,17.3432,1.46627,1.88133,-3.05339,4.52387,9.01508,-0.65586,-6.83145,1.92471,-1.46021,1.50334,-2.83574,-0.678111,5.58857,-11.5724,5.82102,-3.30096,23.5558,8.67967,0.681985,9.12115,3.83254,1.73771,1.15295e-14,-2.14687e-14,-38.5908,-20.9854,-71.3104,41.0646,15.5453,-13.4225,5.39312,7.12502,12.6859,-24.2016,1.15295e-14,-2.14687e-14,-25.7175,5.97083,84.0119,45.0516,6.68355,-12.0418,33.1313,7.12502,14.0167,62.6388,-42.751,-2.68632,17.3769,41.9074,-3.27136,2.21372,-4.97776,0.36176,-1.35182,-30.6575,20.5782,-17.8197,1.57148,-8.70488
-10.4037,17.3118,1.56712,1.82637,-3.06392,4.53111,9.07854,-0.725306,-6.45707,2.10868,-1.51489,1.56852,-2.67935,-0.718945,5.44839,-11.8896,5.90021,-3.25454,23.3979,8.84948,0.431674,9.13818,3.88967,1.67276,-1.41137e-14,-3.18055e-15,-38.2502,-21.263,-71.2841,40.9528,15.687,-13.2974,5.48903,7.12502,12.8065,-24.0982,-1.41137e-14,-3.18055e-15,-25.4606,5.90034,84.1679,45.2454,6.80814,-11.8616,33.4058,7.12502,14.1904,62.9011,-42.9664,-2.91457,17.5943,42.2929,-2.92776,2.29337,-5.68894,0.590102,-1.52687,-30.7791,20.9632,-18.2456,1.75409,-8.13461
-10.3962,17.2821,1.66464,1.80089,-3.02336,4.51788,9.05047,-0.69156,-5.86594,2.77118,-1.40165,1.492,-2.0065,-0.706036,5.00726,-13.4584,6.16464,-2.42557,23.1545,9.30339,-0.4365,9.42868,4.06282,1.35701,-4.17448e-15,-1.03368e-14,-37.1991,-22.1068,-71.6667,40.8713,15.439,-13.5281,6.61257,7.12502,12.5841,-22.9884,-4.17448e-15,-1.03368e-14,-23.9516,5.40425,84.3603,45.2636,7.09894,-11.8073,33.6192,7.12502,14.2427,63.1108,-43.2114,-3.10797,17.772,42.787,-2.76813,2.34022,-5.28234,0.754037,-1.62754,-30.8579,21.403,-18.6591,1.9563,-7.84055
-10.3934,17.2447,1.75866,1.93062,-3.03672,4.55974,9.08766,-0.82991,-5.74772,2.32487,-1.58086,1.66179,-2.46793,-0.768436,5.14597,-11.6314,6.62311,-1.96213,22.803,9.88025,-0.952226,9.01534,4.35172,1.09137,-5.96354e-15,6.36111e-15,-38.0672,-21.3803,-71.2331,40.8464,15.2042,-13.8502,7.25542,7.12502,12.2736,-22.3644,-5.96354e-15,6.36111e-15,-25.0245,5.48515,84.4779,45.6638,7.32659,-11.9543,34.3364,7.12502,14.101,63.838,-43.7097,-3.16848,17.8832,43.3922,-2.70981,2.3616,-4.61844,0.803973,-1.73487,-30.977,21.7495,-19.0895,2.28539,-8.41228
-10.3883,17.2015,1.85717,2.03351,-3.07887,4.75805,9.07378,-0.881079,-5.71301,2.17534,-1.64468,1.75734,-2.60605,-0.791763,5.236,-11.0405,6.79959,-2.01338,22.736,10.104,-0.922184,8.87717,4.46705,1.10603,3.73715e-14,-1.35174e-14,-38.3597,-21.2502,-70.9366,40.8836,15.3451,-14.0251,7.11055,7.12502,12.1049,-22.5193,3.73715e-14,-1.35174e-14,-25.3466,5.47705,84.7176,45.7769,7.35797,-12.0258,34.558,7.12502,14.0322,64.0643,-44.1837,-3.37109,17.8643,44.0493,-2.52266,2.47633,-4.30861,0.923104,-1.85816,-31.3051,22.0763,-19.5349,2.63627,-8.67318
-10.3834,17.1597,1.96718,1.99582,-3.07865,5.15698,8.96276,-0.89864,-5.75899,2.42326,-1.66233,1.72757,-2.28296,-0.818091,5.22413,-11.5964,6.84298,-2.19761,22.7449,10.2213,-0.912787,8.97218,4.49939,1.17505,1.31198e-14,0,-38.0973,-21.4426,-70.9925,41.1549,15.3832,-13.9579,6.50581,7.12502,12.1697,-23.1202,1.31198e-14,0,-24.9876,5.37478,84.9346,45.8686,7.31235,-12.2171,34.3122,7.12502,13.8478,63.8312,-44.4871,-3.65552,17.6105,44.7554,-2.39704,2.67435,-3.86891,1.18888,-1.98419,-31.8547,22.4447,-19.9741,2.85166,-8.13835
-10.3871,17.1296,2.06974,2.00057,-2.97379,5.12899,9.03649,-0.948861,-5.50814,2.68916,-1.70112,1.89825,-2.044,-0.853171,5.26196,-12.9602,6.74261,-2.69509,23.3174,10.2115,-0.643993,9.38211,4.44253,1.41749,-1.07344e-14,-6.36111e-15,-37.7508,-21.4106,-71.0164,41.5143,15.2103,-13.7976,5.91408,7.12502,12.3243,-23.7027,-1.07344e-14,-6.36111e-15,-24.5082,5.34598,85.2336,45.9713,7.18014,-12.5181,33.7548,7.12502,13.5577,63.2934,-44.6935,-3.75045,17.7746,45.4862,-2.1583,2.71667,-4.62384,1.4094,-2.12476,-31.8599,22.7971,-20.3728,2.94403,-7.83641
-10.3946,17.0916,2.15797,2.10488,-2.80307,5.16919,9.43812,-1.02637,-5.51652,2.48828,-1.82063,2.16266,-2.45039,-0.89406,5.57578,-13.5952,6.54813,-3.35043,24.1215,10.0421,-0.155649,9.72223,4.32509,1.71736,-6.95746e-15,1.59028e-14,-38.0506,-20.9725,-70.6603,41.6838,14.8317,-13.6212,5.85752,7.12502,12.4943,-23.749,-6.95746e-15,1.59028e-14,-24.8281,5.42941,85.5672,45.8471,6.50057,-13.1949,31.6759,7.12502,12.9053,61.2568,-44.9941,-3.81327,17.8655,46.2331,-1.93492,2.75977,-6.57721,1.46114,-2.18687,-31.8691,23.131,-20.7432,2.8124,-7.75941
-10.3941,17.0393,2.26452,2.09997,-2.75412,5.38364,9.69406,-1.06397,-5.50157,2.28473,-1.88227,2.23603,-2.79419,-0.907296,5.66551,-13.3826,6.48125,-3.61892,24.2983,9.95398,0.0626251,9.71861,4.28309,1.81937,4.57205e-15,-5.56597e-15,-38.439,-20.7516,-70.3838,41.6639,14.6284,-13.5455,5.49785,7.12502,12.5673,-24.1042,4.57205e-15,-5.56597e-15,-25.4504,5.14505,85.7315,45.669,5.69097,-14.3838,28.5459,7.12502,11.7591,58.1958,-45.1334,-3.94707,17.7619,46.9628,-2.03183,3.10132,-7.45434,1.66911,-2.23284,-32.1644,23.5012,-21.1024,2.94369,-7.68658
-10.3878,16.9867,2.39013,1.9012,-2.94287,5.45135,9.63322,-0.972075,-5.0949,2.66952,-1.71404,2.20194,-2.39621,-0.84835,5.36812,-12.1442,7.3115,-2.20837,22.4971,11.0452,-1.57566,9.02765,4.81399,1.0661,-1.78906e-14,-7.95139e-15,-38.0731,-21.2325,-70.3735,41.5895,14.7846,-13.4331,5.48823,7.12502,12.6757,-24.1071,-1.78906e-14,-7.95139e-15,-24.8707,4.53766,85.9132,45.7241,5.95048,-14.4806,28.1526,7.12502,11.6656,57.8079,-44.992,-3.88847,17.7553,47.6528,-2.16601,3.54782,-5.50019,2.12892,-2.14619,-32.3847,23.9341,-21.6557,3.3144,-7.84498
-10.3906,16.9393,2.50246,1.86107,-2.98989,5.59263,9.58272,-1.02185,-5.06511,2.80282,-1.76996,2.33065,-2.21853,-0.885864,5.48838,-12.1005,7.50134,-2.24153,22.3445,11.3595,-1.80187,8.98009,4.94077,1.02524,-1.13307e-14,-1.74931e-14,-37.9336,-21.2648,-70.1361,41.4554,15.0903,-13.2889,5.9209,7.12502,12.8147,-23.6658,-1.13307e-14,-1.74931e-14,-24.733,4.56234,86.0946,46.6966,7.54755,-13.0862,32.4467,7.12502,13.0101,62.021,-45.0348,-3.89207,17.6675,48.2744,-2.22233,4.12743,-1.90551,2.36778,-1.96941,-32.573,24.4133,-22.391,3.49535,-9.22863
-10.4043,16.8914,2.60079,2.04553,-2.67536,5.78054,9.67579,-1.23158,-5.28416,2.56924,-2.07013,2.51936,-2.458,-1.02154,5.85399,-11.4768,7.67415,-2.05549,22.1742,11.6292,-2.24489,8.8491,5.05336,0.847021,-7.95139e-15,1.59028e-14,-38.2452,-20.7485,-69.9052,41.4961,14.9923,-13.3318,5.80224,7.12502,12.7734,-23.787,-7.95139e-15,1.59028e-14,-25.2577,4.7565,86.1579,46.8205,7.28407,-13.2603,31.598,7.12502,12.8423,61.183,-45.2472,-4.0243,17.528,48.8251,-2.24901,4.69608,1.58687,2.28576,-1.99578,-32.6877,24.9591,-23.0852,3.41813,-10.405
-10.4164,16.8419,2.7052,2.28425,-2.49093,5.69941,9.68561,-1.32038,-5.04964,2.63873,-2.1609,2.64588,-2.38249,-1.07194,5.86215,-11.8872,7.78537,-1.98634,22.146,11.7997,-2.30898,8.92402,5.12505,0.852991,4.53229e-14,-1.74931e-14,-38.1709,-20.8304,-69.9182,41.7143,15.0448,-13.2848,5.82366,7.12502,12.8186,-23.7628,4.53229e-14,-1.74931e-14,-24.9264,4.49529,86.2617,46.7652,6.94411,-13.5124,31.5776,7.12502,12.5992,61.1776,-45.4364,-3.92962,17.6531,49.3643,-2.80953,5.17176,3.783,2.14055,-2.02727,-32.5333,25.5278,-23.7525,3.4487,-10.8416
-10.4255,16.7973,2.81664,2.48721,-2.36731,5.53254,9.67187,-1.40704,-4.73626,2.62192,-2.23884,2.84462,-2.38638,-1.11128,5.90157,-11.9313,7.91902,-2.03556,21.9712,11.9924,-2.33806,8.87148,5.21503,0.869456,-2.10712e-14,-1.43125e-14,-38.145,-20.9688,-69.7382,41.6732,15.2761,-13.2294,5.67118,7.12502,12.872,-23.9119,-2.10712e-14,-1.43125e-14,-24.8245,4.30783,86.4737,46.7407,6.98191,-13.7554,31.8843,7.12502,12.3649,61.4986,-45.5382,-3.85465,17.8889,49.9595,-3.97311,5.49357,4.35431,2.05192,-1.97998,-32.2899,26.1278,-24.4318,3.45296,-10.8286
-10.4343,16.7551,2.93147,2.60306,-2.07992,5.51271,9.61554,-1.57513,-4.62397,2.55351,-2.44266,3.06176,-2.39385,-1.2118,6.08837,-11.5132,8.08893,-1.99247,21.7233,12.2313,-2.53676,8.72789,5.32878,0.796783,-7.95139e-16,-3.02153e-14,-38.1409,-21.046,-69.3907,41.3883,15.5168,-13.0626,5.58295,7.12502,13.0328,-23.9899,-7.95139e-16,-3.02153e-14,-25.0222,4.22418,86.6835,46.8312,7.26051,-13.6759,31.8997,7.12502,12.4416,61.5094,-45.5312,-4.03774,18.0015,50.6422,-5.17318,5.46567,4.83476,2.14226,-1.97189,-32.1898,26.6886,-25.1042,3.39426,-10.3822
-10.4453,16.7078,3.04284,2.65974,-1.84977,5.49521,9.57501,-1.64635,-4.38563,2.79082,-2.5101,3.14817,-2.12143,-1.26081,6.04156,-11.942,8.16561,-1.86983,21.5915,12.3557,-2.68577,8.78049,5.37732,0.761153,2.0276e-14,-1.27222e-14,-37.7936,-21.279,-69.4121,41.3451,15.4747,-13.0405,5.33902,7.12502,13.0542,-24.2325,2.0276e-14,-1.27222e-14,-24.6036,3.87329,86.8263,46.8115,7.38307,-13.7032,31.49,7.12502,12.4153,61.1012,-45.5228,-4.10452,18.1162,51.4204,-6.20703,5.04422,6.66423,2.32134,-1.94575,-32.1083,27.1284,-25.5479,3.23187,-10.1101
-10.4575,16.662,3.15266,2.80762,-1.71358,5.39874,9.65651,-1.69253,-4.15293,2.83801,-2.54696,3.3072,-2.11539,-1.28101,6.08327,-12.321,8.09882,-1.84025,21.5704,12.3041,-2.82717,8.85496,5.33297,0.723472,2.78299e-14,-1.11319e-14,-37.6685,-21.3648,-69.2981,41.3157,15.4874,-13.0226,4.84493,7.12502,13.0714,-24.7255,2.78299e-14,-1.11319e-14,-24.5073,3.61594,86.9819,46.863,7.26291,-13.8149,31.3392,7.12502,12.3076,60.957,-45.6963,-4.12163,18.3738,52.2546,-6.92,4.62109,8.62278,2.4341,-2.02929,-31.9687,27.4573,-25.8966,2.81978,-9.14378
-10.4688,16.62,3.26516,2.97697,-1.66989,5.40617,9.77853,-1.7357,-4.13379,2.74754,-2.59982,3.49772,-2.26131,-1.30123,6.28898,-12.5239,8.04827,-1.72866,21.6724,12.2731,-3.02551,8.9492,5.29721,0.651433,2.06736e-14,-3.02153e-14,-37.6239,-21.599,-68.9392,40.9686,15.8177,-13.0603,5.05447,7.12502,13.0351,-24.5182,2.06736e-14,-3.02153e-14,-24.6175,3.5282,87.1669,46.9244,7.06081,-13.6758,31.3291,7.12502,12.4417,60.9388,-45.9643,-4.09251,18.5077,53.1175,-7.30192,4.20861,10.3974,2.59024,-2.12235,-31.9698,27.7157,-26.3576,2.67382,-8.26253
-10.4807,16.5791,3.37746,3.1169,-1.78764,5.45746,9.7604,-1.7095,-4.14978,2.83334,-2.56299,3.62533,-2.15969,-1.28884,6.42661,-12.5891,8.18226,-1.49519,21.3853,12.4763,-3.38838,8.90627,5.38233,0.516805,2.14687e-14,-2.8625e-14,-37.4056,-21.7549,-68.8282,40.8295,15.8496,-12.8714,4.95823,7.12502,13.2171,-24.6028,2.14687e-14,-2.8625e-14,-24.5196,3.45578,87.2927,47.0915,7.15516,-13.4447,31.189,7.12502,12.6645,60.7851,-46.2848,-3.89996,18.5913,53.9831,-7.71272,3.54986,10.955,2.81632,-2.1027,-32.036,27.8772,-26.7971,2.81702,-8.42327
-10.4889,16.5413,3.49121,3.09818,-2.01732,5.45619,9.76231,-1.66368,-4.06663,3.00601,-2.49264,3.73089,-1.98909,-1.26405,6.47892,-12.9906,8.27801,-1.75776,21.4906,12.6475,-3.20939,8.98758,5.44814,0.657075,-1.23246e-14,-6.67916e-14,-37.2817,-21.5809,-68.8459,40.8531,15.2027,-12.8688,4.62589,7.12502,13.2196,-24.9349,-1.23246e-14,-6.67916e-14,-24.3384,3.24835,87.3925,47.0248,7.23313,-13.717,31.4801,7.12502,12.402,61.0922,-46.416,-3.67563,18.7475,54.8563,-8.18824,2.79718,10.1599,3.23001,-2.00454,-32.0893,27.991,-27.2349,2.99226,-8.80462
-10.5005,16.5063,3.60622,3.08424,-2.32224,5.37137,9.90363,-1.59685,-3.94987,3.07241,-2.39298,3.86815,-2.01051,-1.21577,6.55271,-13.028,8.32429,-1.93717,21.2723,12.7256,-3.16888,8.90507,5.48429,0.702101,-4.25399e-14,8.11041e-14,-37.1412,-21.7067,-68.7016,40.4319,14.6518,-13.2862,5.0232,7.12502,12.8173,-24.5633,-4.25399e-14,8.11041e-14,-24.3047,2.90758,87.5525,46.8064,6.89539,-14.5417,31.4966,7.12502,11.6068,61.1552,-46.5404,-3.28778,18.9649,55.7352,-8.3004,2.16112,10.9836,3.65147,-1.93083,-32.0807,28.0893,-27.6075,3.3082,-9.09262
-10.5146,16.4662,3.71692,3.28717,-2.76164,5.34506,9.87153,-1.50683,-3.97632,3.08914,-2.2729,3.97988,-1.98619,-1.15777,6.6728,-12.9014,8.50079,-1.69644,20.921,12.963,-3.50066,8.80482,5.59692,0.569654,5.84427e-14,-6.36111e-15,-36.944,-21.7237,-68.6858,40.0719,14.2923,-13.5941,5.19992,7.12502,12.5205,-24.405,5.84427e-14,-6.36111e-15,-24.4201,2.67086,87.6549,46.7299,6.5917,-15.3102,30.5021,7.12502,10.8656,60.201,-46.9784,-2.81149,19.1519,56.6148,-8.39742,1.71026,11.5735,3.80348,-1.8032,-32.1498,28.1883,-27.9293,3.81484,-9.87539
-10.5248,16.4322,3.82921,3.53323,-3.02838,5.35462,9.66656,-1.47963,-3.92737,3.19835,-2.22724,4.05889,-1.76442,-1.14532,6.71197,-13.193,8.65805,-1.5737,21.016,13.1851,-3.55219,8.90533,5.69371,0.577751,-4.21423e-14,-4.77083e-14,-36.6044,-21.7985,-68.743,39.8587,14.2082,-13.5393,4.89947,7.12502,12.5733,-24.7022,-4.21423e-14,-4.77083e-14,-24.3515,2.56011,87.7089,46.7002,6.49207,-15.3313,30.2246,7.12502,10.8452,59.9246,-47.4121,-2.55968,19.2753,57.4848,-8.81236,1.38009,11.2319,3.94632,-1.83503,-32.2514,28.2631,-28.1519,4.2089,-10.5402
-10.5308,16.4049,3.94268,3.61659,-3.10875,5.16916,9.71776,-1.51051,-3.59875,3.25216,-2.23546,4.20364,-1.74296,-1.15111,6.67882,-13.5017,8.72861,-1.61271,21.3086,13.3049,-3.45782,9.05402,5.7367,0.652448,-2.42517e-14,-1.27222e-14,-36.303,-22.4405,-68.4392,39.1272,14.8231,-13.5991,4.83558,7.12502,12.5157,-24.7696,-2.42517e-14,-1.27222e-14,-24.2401,2.32194,87.8139,46.4775,6.48866,-15.0538,31.3533,7.12502,11.1129,61.039,-47.5033,-2.38742,19.5016,58.2916,-9.43807,1.12397,11.2321,4.3704,-2.06233,-32.17,28.2934,-28.281,4.53449,-10.8151
-10.5399,16.3793,4.05653,3.73967,-3.14255,5.13194,9.8766,-1.57654,-3.51599,3.10891,-2.31124,4.36755,-1.96534,-1.17934,6.82571,-13.1991,8.84155,-1.44984,21.2869,13.4865,-3.76742,9.02999,5.80929,0.533042,-3.93594e-14,5.725e-14,-36.4554,-22.5757,-68.0226,38.6619,15.1782,-13.4794,4.95567,7.12502,12.631,-24.6424,-3.93594e-14,5.725e-14,-24.2365,2.1672,87.9528,45.933,6.44702,-14.7175,32.7549,7.12502,11.4372,62.4229,-47.5881,-2.19298,19.5172,58.9959,-10.0151,0.901513,11.0215,4.75766,-2.33158,-32.2331,28.2849,-28.2516,4.82498,-11.0411
-10.5555,16.3644,4.17283,3.88766,-2.99974,5.19514,9.86129,-1.7145,-3.58966,3.04872,-2.49699,4.50003,-1.98304,-1.27121,7.0307,-12.8412,8.98817,-1.31218,21.0408,13.6987,-4.07702,8.91787,5.9065,0.411897,1.98785e-15,4.29375e-14,-36.5299,-22.3029,-67.9573,38.6158,14.9165,-13.343,4.93998,7.12502,12.7625,-24.65,1.98785e-15,4.29375e-14,-24.1612,2.13471,88.0209,45.2979,6.30903,-14.686,32.6559,7.12502,11.4676,62.3222,-47.6032,-2.07541,19.4094,59.5671,-10.5127,0.656312,11.2218,5.06492,-2.74182,-32.342,28.2976,-28.0886,4.91519,-11.1442
-10.5746,16.3582,4.28957,3.99018,-2.77258,4.99567,9.79897,-1.84042,-3.32625,3.07749,-2.63545,4.61148,-1.90551,-1.34366,7.00814,-12.6108,9.06716,-1.22204,20.846,13.7758,-4.1344,8.8209,5.95838,0.371373,-3.33958e-14,2.8625e-14,-36.4118,-22.6641,-67.9115,38.3033,15.0588,-13.2539,4.91564,7.12502,12.8485,-24.6689,-3.33958e-14,2.8625e-14,-24.2892,1.98614,88.0177,45.0926,5.81365,-14.625,32.144,7.12502,11.5264,61.8071,-47.4294,-1.97316,19.6048,59.9881,-10.7885,0.393285,12.3776,5.37295,-3.14947,-32.1376,28.413,-27.9144,5.13846,-11.953
-10.5888,16.3481,4.41092,4.09748,-2.5479,4.89367,9.71853,-1.92851,-3.14184,3.08509,-2.73071,4.74162,-1.84185,-1.39371,7.04635,-12.7235,9.01803,-1.2581,21.1093,13.7297,-4.08332,8.92473,5.92457,0.401102,3.65764e-14,1.27222e-14,-36.2564,-23.2486,-67.5963,37.599,15.3933,-13.3786,5.23047,7.12502,12.7282,-24.3616,3.65764e-14,1.27222e-14,-24.4671,1.73461,88.1748,44.8144,5.1989,-14.5568,31.9035,7.12502,11.5922,61.5628,-47.1834,-2.05519,19.7098,60.3413,-11.3016,0.253488,13.0534,5.61062,-3.51488,-32.0669,28.7061,-27.7823,5.46681,-13.1192
-10.6008,16.3361,4.53036,4.22003,-2.34669,4.94886,9.70197,-2.03906,-3.09816,2.99366,-2.86872,4.83587,-1.90528,-1.45907,7.13831,-12.7425,8.9895,-1.32269,21.4086,13.7201,-4.0409,9.02368,5.90559,0.43258,3.1408e-14,-7.95139e-15,-36.0932,-23.6484,-67.26,36.6992,15.6572,-13.6426,5.44,7.12502,12.4737,-24.1677,3.1408e-14,-7.95139e-15,-24.5295,1.40536,88.3779,44.1337,5.1698,-15.3664,31.6842,7.12502,10.8113,61.3859,-46.936,-2.21403,19.6563,60.6408,-11.9885,0.0716801,12.6931,5.65923,-3.7633,-32.1386,29.2395,-27.5569,5.48606,-13.8254
-10.6146,16.3323,4.6447,4.45021,-2.23843,4.99689,9.67758,-2.12813,-3.06799,2.82382,-2.97833,4.90005,-2.05123,-1.50556,7.20545,-12.504,9.04795,-1.36969,21.3974,13.8021,-4.04685,8.97469,5.94694,0.434198,-2.0276e-14,3.02153e-14,-36.0331,-24.0962,-66.9492,35.8953,16.0003,-13.8496,5.57202,7.12502,12.2741,-24.0478,-2.0276e-14,3.02153e-14,-24.6206,1.19203,88.5034,43.5393,5.05199,-16.2083,31.4838,7.12502,9.99923,61.2263,-46.844,-2.27049,19.6474,60.901,-12.6014,-0.195897,11.6768,5.42564,-3.90815,-32.1714,29.9603,-27.1426,5.3912,-15.1221
-10.6314,16.3419,4.76252,4.71918,-2.1039,4.81407,9.53902,-2.17439,-2.84595,2.73476,-3.01228,5.022,-2.06805,-1.52028,7.20675,-12.5668,9.0301,-1.46763,21.5307,13.7956,-3.97718,9.01963,5.93626,0.477596,-1.15295e-14,-3.18055e-15,-36.035,-24.6652,-66.662,35.4015,16.4049,-13.713,5.7833,7.12502,12.4058,-23.8286,-1.15295e-14,-3.18055e-15,-24.6775,0.962713,88.6408,43.1331,4.65025,-16.4738,31.4197,7.12502,9.74305,61.1743,-46.6745,-2.28549,19.9194,61.0667,-13.2626,-0.561089,11.1811,5.05175,-3.89046,-31.8474,30.8285,-26.5736,5.18647,-18.1987
-10.648,16.3568,4.88217,4.85885,-1.93412,4.72574,9.38848,-2.24336,-2.71715,2.75524,-3.09008,5.09437,-1.95528,-1.56336,7.20803,-12.72,9.08013,-1.43334,21.7725,13.868,-3.90827,9.12935,5.96505,0.518352,-6.40087e-14,9.54166e-15,-36.1429,-24.5669,-66.6854,35.5088,16.0928,-13.3722,5.76766,7.12502,12.7344,-23.824,-6.40087e-14,9.54166e-15,-24.7928,0.961397,88.6688,42.8326,3.48903,-15.9443,31.483,7.12502,10.2539,61.213,-46.3039,-2.39896,20.0797,61.1489,-13.9262,-0.857035,10.7594,4.72942,-3.79722,-31.5802,31.8507,-26.0812,4.5157,-20.334
-10.6665,16.3771,4.99999,4.91673,-1.87204,4.61299,9.29915,-2.28714,-2.62477,2.78983,-3.13874,5.17468,-1.86327,-1.59165,7.23898,-12.7073,9.20468,-1.34725,21.874,14.0405,-3.94764,9.17442,6.04396,0.515466,1.74931e-14,-3.33958e-14,-36.3032,-24.4561,-66.7172,35.6732,15.7714,-13.2262,5.40208,7.12502,12.8751,-24.1808,1.74931e-14,-3.33958e-14,-24.8544,1.10577,88.6001,42.4842,1.74801,-14.2097,31.855,7.12502,11.9269,61.4953,-45.8224,-2.36724,20.2506,61.1543,-14.4215,-1.13295,10.5198,4.37609,-3.6423,-31.2915,32.9815,-25.489,3.57665,-21.0192
-10.683,16.3933,5.11151,5.03189,-1.84847,4.58492,9.32375,-2.27893,-2.60214,2.73204,-3.12255,5.22947,-1.93747,-1.58023,7.28696,-12.8691,9.1698,-1.3961,22.1233,14.0144,-3.87964,9.28169,6.01944,0.557722,4.37326e-14,-4.77083e-14,-36.446,-24.913,-66.5196,35.446,16.1125,-13.2198,5.42184,7.12502,12.8813,-24.1606,4.37326e-14,-4.77083e-14,-24.8256,1.06281,88.628,41.9475,0.478394,-13.0037,31.482,7.12502,13.0896,61.0512,-45.4696,-2.30153,20.3258,61.1336,-14.7561,-1.38817,10.124,3.84035,-3.48773,-31.0967,34.2057,-24.6233,2.8188,-22.197
-10.6957,16.4122,5.22047,5.1275,-1.72671,4.60227,9.50941,-2.2797,-2.49095,2.59686,-3.10848,5.21512,-2.19034,-1.56213,7.2224,-12.9155,9.05941,-1.3642,22.2796,13.8749,-3.90075,9.34713,5.94583,0.536405,-7.95139e-16,4.45278e-14,-36.8135,-25.0956,-66.3716,35.3287,16.0598,-13.3933,5.80356,7.12502,12.714,-23.7894,-7.95139e-16,4.45278e-14,-24.9846,0.860705,88.7117,41.378,-0.141707,-13.3561,30.7989,7.12502,12.7499,60.3896,-45.0854,-2.4717,20.3736,61.0574,-15.1662,-1.57488,9.17036,3.25248,-3.29273,-30.898,35.5639,-23.6016,2.19681,-24.2392
-10.7132,16.4384,5.33098,5.10955,-1.60864,4.58485,9.68104,-2.2992,-2.43063,2.5164,-3.12447,5.24324,-2.36861,-1.56304,7.2332,-12.6867,9.05754,-1.4073,22.2613,13.8886,-3.97017,9.30166,5.94839,0.508987,-1.74931e-14,2.8625e-14,-37.1489,-24.9966,-66.2308,35.283,15.6534,-13.2684,5.8966,7.12502,12.8345,-23.6888,-1.74931e-14,2.8625e-14,-25.3356,0.756865,88.7827,41.0643,-0.466783,-13.8951,29.6349,7.12502,12.2302,59.2573,-44.4927,-2.58277,20.4477,60.9015,-15.6821,-1.83431,8.00596,2.70018,-2.97346,-30.5669,37.0003,-22.4459,1.2422,-26.0619
-10.7332,16.471,5.4419,5.09363,-1.66118,4.4489,9.80112,-2.2189,-2.34901,2.52303,-3.00711,5.31071,-2.4452,-1.50252,7.2536,-12.7959,9.05506,-1.38586,22.3552,13.9282,-4.10378,9.36872,5.94661,0.475702,1.47101e-14,-3.97569e-14,-37.2589,-25.2646,-66.0683,35.0261,15.6275,-13.3495,5.76815,7.12502,12.7563,-23.8222,1.47101e-14,-3.97569e-14,-25.4918,0.495694,88.8646,40.8499,-0.895579,-14.1188,27.2135,7.12502,12.0146,56.8486,-43.8525,-2.42104,20.6126,60.6669,-16.1222,-1.98937,7.57302,2.05298,-2.50935,-30.0803,38.4881,-20.9309,-0.0120287,-27.1115
-10.7489,16.503,5.55705,5.16854,-1.69191,4.39603,9.8844,-2.14985,-2.26476,2.44296,-2.90354,5.31281,-2.59392,-1.44465,7.20421,-12.9102,9.04841,-1.27147,22.466,13.941,-4.22711,9.44804,5.9398,0.429301,9.46215e-14,-6.52014e-14,-37.5792,-25.5435,-65.8764,34.7742,15.7876,-13.6019,5.84191,7.12502,12.5129,-23.7634,9.46215e-14,-6.52014e-14,-25.8126,0.244114,88.8915,40.7481,-1.48595,-13.0691,29.7436,7.12502,13.0265,59.3169,-43.2929,-2.37635,20.7035,60.3961,-16.2778,-2.04962,8.35861,1.29144,-2.00059,-29.6593,40.0649,-19.2525,-1.33318,-28.0589
-10.763,16.5293,5.67557,5.24077,-1.59039,4.47794,9.75816,-2.14711,-2.26966,2.47928,-2.90311,5.27808,-2.48796,-1.44812,7.16065,-13.0467,9.04516,-1.37945,22.424,13.9611,-4.21939,9.45072,5.93974,0.456638,-4.17448e-14,-7.95139e-15,-37.7418,-25.6245,-65.8805,34.6905,15.7047,-13.6795,6.00492,7.12502,12.4381,-23.605,-4.17448e-14,-7.95139e-15,-26.0009,0.192811,88.9389,40.6311,-1.99234,-13.3507,29.8692,7.12502,12.7551,59.4596,-42.6956,-2.5193,20.6485,60.1085,-16.6737,-2.14848,7.96948,0.456988,-1.67182,-29.3937,41.7898,-17.6839,-2.69753,-27.9718
-10.7819,16.5552,5.78313,5.22005,-1.44792,4.44518,9.63464,-2.13299,-2.20824,2.66787,-2.88559,5.24348,-2.23035,-1.45064,7.07179,-13.274,8.98944,-1.63561,22.2095,13.8896,-4.05638,9.38399,5.90824,0.54554,-2.82274e-14,3.33958e-14,-37.6017,-25.6739,-66.1687,34.6899,15.3364,-13.6542,6.27008,7.12502,12.4626,-23.3383,-2.82274e-14,3.33958e-14,-25.8371,0.195235,88.8807,40.3868,-2.28024,-13.87,28.9831,7.12502,12.2545,58.6041,-42.0015,-2.59324,20.7371,59.7933,-17.1189,-2.4634,7.02794,-0.484018,-1.35258,-28.9426,43.6488,-16.2302,-4.10006,-28.0648
-10.7999,16.5848,5.87802,5.17812,-1.23069,4.2109,9.7549,-2.0923,-1.89785,2.7495,-2.8026,5.22273,-2.23993,-1.41016,6.8657,-13.525,8.85651,-1.66378,22.1769,13.703,-3.99194,9.40882,5.82075,0.560534,-3.57812e-14,4.77083e-15,-37.6733,-25.6301,-66.4174,34.767,14.8177,-13.6377,6.20489,7.12502,12.4784,-23.4026,-3.57812e-14,4.77083e-15,-25.9001,-0.0363047,88.8212,40.215,-2.42176,-13.9818,28.1462,7.12502,12.1466,57.7736,-41.2805,-2.63325,21.0609,59.4295,-17.3628,-2.783,7.15707,-1.57423,-1.06882,-28.2282,45.6021,-14.8997,-5.2781,-28.3315
-10.8124,16.6123,5.9748,5.18355,-1.18166,4.03151,9.9276,-2.02434,-1.63247,2.59046,-2.67874,5.2012,-2.53169,-1.33749,6.69168,-13.1087,8.82147,-1.57023,22.1211,13.6163,-4.01328,9.31905,5.79971,0.505577,-4.37326e-15,7.95139e-15,-38.1699,-25.4309,-66.3649,34.743,14.7561,-13.6967,6.04392,7.12502,12.4216,-23.567,-4.37326e-15,7.95139e-15,-26.5556,-0.196876,88.8378,40.1976,-2.61548,-14.3829,27.437,7.12502,11.7599,57.0869,-40.6233,-2.61942,21.2756,59.0518,-17.6148,-2.84847,7.93032,-2.73371,-0.686322,-27.6656,47.5717,-14.0993,-5.67318,-28.4991
-10.8271,16.6362,6.0796,5.17158,-1.20077,3.98799,10.0463,-1.95268,-1.6029,2.39182,-2.57281,5.17966,-2.82066,-1.27343,6.65332,-12.1359,8.90069,-1.53884,21.6595,13.6605,-4.10385,8.98921,5.86157,0.412604,3.33958e-14,-3.49861e-14,-38.7708,-25.1577,-66.2181,34.7216,14.8243,-13.5407,6.29377,7.12502,12.5719,-23.308,3.33958e-14,-3.49861e-14,-27.2259,-0.144105,88.8549,40.1467,-2.65933,-14.4364,27.6457,7.12502,11.7082,57.2986,-39.9472,-2.64459,21.3596,58.6311,-17.6938,-2.96149,8.09233,-3.87062,-0.231917,-27.2829,49.5068,-14.1429,-5.62283,-29.1542
-10.8446,16.6644,6.17921,5.16044,-1.06985,3.88735,10.1745,-1.86736,-1.52025,2.42486,-2.45059,5.15467,-2.87712,-1.21172,6.57046,-12.2944,8.86832,-1.52277,21.5309,13.6163,-4.13453,8.97672,5.84079,0.400188,4.65156e-14,-9.54166e-15,-38.9038,-25.0064,-66.4115,34.8566,14.5766,-13.4553,6.02479,7.12502,12.6542,-23.5719,4.65156e-14,-9.54166e-15,-27.3504,-0.225119,88.8501,40.1066,-2.31684,-13.7597,28.328,7.12502,12.3608,57.9425,-39.2892,-2.74036,21.5387,58.1657,-17.6999,-3.23399,7.79842,-5.1387,0.0298925,-26.8239,51.3816,-14.3809,-5.63226,-28.9702
-10.8643,16.6994,6.27225,5.23536,-0.905319,3.46179,10.2514,-1.79667,-1.11573,2.50535,-2.31271,5.2272,-2.86629,-1.14623,6.40032,-12.9957,8.75993,-1.45569,21.791,13.5315,-4.24192,9.20859,5.76339,0.389199,3.97569e-16,-5.24792e-14,-38.7402,-24.8849,-66.6965,34.8406,14.6449,-13.3959,5.41612,7.12502,12.7116,-24.177,3.97569e-16,-5.24792e-14,-27.4623,-0.283385,88.8616,40.164,-1.88934,-13.6037,29.3374,7.12502,12.5112,58.9429,-38.6932,-2.74197,22.0844,57.6291,-17.7927,-3.44849,8.28919,-6.61147,0.330094,-25.9681,53.1833,-14.5164,-5.51342,-28.7558
-10.8815,16.7304,6.3701,5.31109,-0.692513,3.19743,10.202,-1.74791,-0.818531,2.51628,-2.21669,5.25446,-2.8497,-1.0999,6.24432,-13.0955,8.69898,-1.41243,21.73,13.4868,-4.4419,9.22485,5.72423,0.315915,-3.97569e-15,-1.27222e-14,-38.7468,-24.6909,-66.8638,34.7607,14.9347,-13.4053,5.17804,7.12502,12.7025,-24.4156,-3.97569e-15,-1.27222e-14,-27.6996,-0.347801,88.86,40.168,-1.39764,-13.7417,30.1582,7.12502,12.3781,59.7717,-38.0499,-2.87839,22.4284,57.0898,-17.9739,-3.48111,10.0718,-8.02872,0.514865,-25.3278,54.8245,-14.3586,-5.09222,-27.8719
-10.8903,16.7685,6.46797,5.32386,-0.523898,3.13332,10.1194,-1.64416,-0.610146,2.61368,-2.06462,5.188,-2.73006,-1.02838,6.02841,-13.2295,8.66916,-1.53957,21.5301,13.4575,-4.42118,9.16903,5.70926,0.340039,-7.95139e-15,-2.54444e-14,-38.6771,-24.4462,-67.1752,34.8472,14.9728,-13.612,4.42389,7.12502,12.5032,-25.1821,-7.95139e-15,-2.54444e-14,-27.7546,-0.417664,88.8985,40.1344,-1.06943,-13.9826,29.5107,7.12502,12.1459,59.1381,-37.3179,-3.12077,22.4985,56.5418,-18.1608,-3.37596,11.1372,-9.311,0.620129,-24.9917,56.2457,-13.9081,-4.38003,-25.2308
-10.8981,16.8117,6.56547,5.27142,-0.524596,3.17421,10.2128,-1.51495,-0.591742,2.66853,-1.89387,5.0941,-2.74686,-0.94345,5.89984,-13.2693,8.67571,-1.68956,21.284,13.4587,-4.33171,9.07319,5.71916,0.387392,-2.98177e-14,3.18055e-15,-38.6809,-23.8785,-67.5752,35.0579,14.7156,-13.7403,3.63152,7.12502,12.3795,-25.9819,-2.98177e-14,3.18055e-15,-27.9836,-0.409878,88.8962,40.2349,-0.766122,-14.4179,28.9705,7.12502,11.7261,58.6223,-36.5512,-3.23909,22.4391,56.0247,-18.3671,-3.28316,10.9329,-10.4955,0.855517,-24.8293,57.4697,-13.9102,-3.28877,-23.9902
-10.9094,16.842,6.65886,5.2116,-0.433405,3.19961,10.4918,-1.39189,-0.56686,2.57697,-1.72065,4.99468,-3.0188,-0.850397,5.77279,-13.2252,8.56476,-1.73083,21.2598,13.2962,-4.27073,9.04642,5.64922,0.39123,2.98177e-14,3.81667e-14,-39.0705,-23.4771,-67.6898,35.2828,14.4465,-13.5884,3.57347,7.12502,12.5259,-26.0311,2.98177e-14,3.81667e-14,-28.4168,-0.49132,88.8605,40.3164,-0.407426,-14.169,29.9118,7.12502,11.9661,59.5498,-35.849,-3.36481,22.4288,55.5644,-18.5363,-3.33072,10.2036,-11.6934,1.13212,-24.6053,58.5903,-14.2598,-2.4386,-24.5291
-10.9203,16.8672,6.7444,5.12387,-0.311397,3.18913,10.6842,-1.28611,-0.550062,2.61821,-1.57706,4.94098,-3.09884,-0.777852,5.69432,-13.4608,8.45531,-1.76701,21.4403,13.1717,-4.2367,9.14552,5.57716,0.409509,-4.81059e-14,-1.90833e-14,-39.0285,-23.3539,-67.7989,35.1839,14.4386,-13.5487,3.48186,7.12502,12.5643,-26.1203,-4.81059e-14,-1.90833e-14,-28.6851,-0.367418,88.831,40.3273,-0.0613467,-14.1924,30.161,7.12502,11.9436,59.8003,-35.1763,-3.4648,22.4578,55.1231,-18.7506,-3.40384,9.75971,-12.9853,1.32656,-24.3302,59.6539,-14.3168,-2.09627,-23.5508
-10.9299,16.8907,6.83158,5.09256,-0.241786,3.22225,10.7855,-1.14629,-0.627728,2.67122,-1.40063,4.90905,-3.11617,-0.689894,5.68456,-13.6926,8.39936,-1.80108,21.5001,13.1238,-4.25684,9.20791,5.54124,0.41553,-7.15625e-15,-1.59028e-15,-38.8129,-23.5148,-67.7136,34.7001,14.8876,-13.6599,3.8622,7.12502,12.4571,-25.7466,-7.15625e-15,-1.59028e-15,-28.9396,-0.112886,88.8475,40.2454,0.0691481,-14.6129,29.4298,7.12502,11.5381,59.0922,-34.5657,-3.55022,22.4269,54.7003,-18.9533,-3.46371,9.41737,-14.3962,1.50669,-24.1482,60.616,-14.3508,-1.74746,-22.5203
-10.948,16.9194,6.91877,5.03687,-0.111979,2.99712,11.078,-0.988619,-0.478934,2.65491,-1.16636,4.92534,-3.32127,-0.570028,5.59638,-13.8824,8.34521,-1.7492,21.4624,13.0615,-4.32916,9.23818,5.50529,0.38507,7.95139e-16,4.77083e-15,-38.9729,-23.138,-67.823,34.787,14.7661,-13.8445,4.15992,7.12502,12.2791,-25.4596,7.95139e-16,4.77083e-15,-29.1545,0.0528152,88.8283,40.0956,0.142773,-14.0575,29.9461,7.12502,12.0737,59.5778,-33.9291,-3.46877,22.7211,54.237,-18.9756,-3.76868,8.34415,-15.7892,1.66969,-23.6321,61.4291,-14.6066,-1.34425,-22.3634
-10.9687,16.9492,7.00532,4.96695,0.0510105,2.60849,11.2126,-0.884131,-0.230162,2.7707,-0.996695,5.01565,-3.29412,-0.48895,5.52868,-14.1365,8.30687,-1.83743,21.3951,13.053,-4.4012,9.26175,5.48304,0.384659,1.19271e-14,-1.11319e-14,-38.9166,-22.4781,-68.2661,35.3935,14.3194,-13.642,3.46873,7.12502,12.4742,-26.139,1.19271e-14,-1.11319e-14,-29.134,0.482396,88.736,39.9531,0.0830293,-12.8855,30.4478,7.12502,13.2035,60.0097,-33.3192,-3.35025,23.2309,53.7645,-18.7557,-4.18862,7.12295,-17.1237,1.84855,-22.8949,62.0707,-14.8817,-1.16636,-22.6452
-10.9745,16.9746,7.09269,4.89019,0.248772,2.51977,11.2922,-0.815845,-0.075131,2.89893,-0.892256,4.98431,-3.21709,-0.440492,5.39152,-14.0055,8.24105,-1.88961,20.9814,12.9756,-4.58723,9.10425,5.44588,0.305803,-2.70347e-14,3.81667e-14,-38.5899,-22.4373,-68.458,35.415,14.4277,-13.4696,3.14813,7.12502,12.6405,-26.4494,-2.70347e-14,3.81667e-14,-29.26,0.713669,88.6929,39.9232,0.0863193,-12.671,30.4165,7.12502,13.4104,59.9649,-32.666,-3.53096,23.3487,53.3073,-18.9335,-4.46456,6.23585,-18.338,1.81553,-22.6407,62.4691,-15.1029,-1.13821,-22.9662
-10.98,16.9904,7.17423,4.83974,0.587234,2.4342,11.5577,-0.726733,0.132803,2.87601,-0.742462,4.92973,-3.40491,-0.363833,5.20135,-13.3331,8.09663,-1.66479,20.1612,12.72,-5.01088,8.74168,5.35488,0.0526137,1.63003e-14,-3.65764e-14,-38.5761,-22.4832,-68.4133,35.2807,14.3773,-13.6039,3.35995,7.12502,12.511,-26.2455,1.63003e-14,-3.65764e-14,-29.6577,0.525763,88.7444,39.9179,0.41301,-13.4391,30.3133,7.12502,12.6699,59.909,-32.0038,-3.79707,23.4632,52.8574,-19.3396,-4.69138,6.03802,-19.6296,1.6549,-22.4035,62.6936,-15.0428,-1.35552,-23.0578
-10.9945,17.0128,7.26524,4.75161,0.900871,2.3545,11.7752,-0.608217,0.226468,2.86112,-0.56927,4.85508,-3.55741,-0.275977,5.04926,-12.9536,7.9443,-1.43269,19.6189,12.4623,-5.30874,8.5194,5.25503,-0.138072,-7.15625e-15,1.59028e-15,-38.7708,-22.4948,-68.4327,35.4165,14.361,-13.6726,3.35765,7.12502,12.4448,-26.2519,-7.15625e-15,1.59028e-15,-29.8421,0.367306,88.7275,39.587,0.72246,-12.8559,31.7593,7.12502,13.2321,61.3193,-31.2342,-3.8977,23.5906,52.3882,-19.4431,-4.82686,7.23133,-20.8591,1.55474,-22.1297,62.719,-14.7808,-1.70432,-22.62
-11.0017,17.042,7.36668,4.55082,1.10988,2.26835,11.8778,-0.519423,0.333943,2.98391,-0.442376,4.80494,-3.49743,-0.215615,4.91593,-12.9467,7.90099,-1.37734,19.279,12.3888,-5.43676,8.41414,5.22718,-0.203525,-9.14409e-15,2.06736e-14,-38.5426,-22.6744,-68.4558,35.156,14.5125,-13.5836,3.25216,7.12502,12.5306,-26.3521,-9.14409e-15,2.06736e-14,-29.9698,0.518846,88.6754,39.4118,1.30968,-10.3975,37.2122,7.12502,15.6008,66.6031,-30.2701,-4.03148,23.6689,51.8681,-19.5195,-4.8873,7.88825,-21.8438,1.50049,-21.9407,62.5787,-14.8723,-1.7859,-22.5233
-11.0109,17.0685,7.45585,4.42973,1.27972,1.97096,11.9333,-0.413233,0.547041,3.16339,-0.278505,4.88221,-3.35424,-0.138661,4.85049,-13.2337,7.89519,-1.64357,19.1258,12.4071,-5.3061,8.3887,5.23017,-0.109216,1.07344e-14,3.81667e-14,-38.1389,-22.5365,-68.5706,35.0258,14.3051,-13.6461,2.95137,7.12502,12.4703,-26.6566,1.07344e-14,3.81667e-14,-30.0567,0.608519,88.7817,39.2203,2.64766,-14.3289,29.1156,7.12502,11.812,58.7624,-29.484,-4.03701,24.023,51.3473,-19.4142,-5.07868,9.04364,-22.9615,1.46811,-21.5036,62.4017,-15.0238,-2.06034,-22.3044
-11.0233,17.0835,7.53419,4.43937,1.35428,1.62088,12.0304,-0.218788,0.690924,3.21978,0.00241242,5.00116,-3.37096,-6.47017e-05,4.85456,-13.5887,7.85426,-1.85619,19.2445,12.4105,-5.24011,8.47556,5.20909,-0.036698,-2.46493e-14,2.8625e-14,-38.0281,-22.0957,-68.6969,35.4021,13.8804,-13.6789,2.38212,7.12502,12.4387,-27.2278,-2.46493e-14,2.8625e-14,-30.0692,1.05103,88.699,39.1244,1.15889,-13.6636,29.9593,7.12502,12.4534,59.5683,-28.9516,-3.79198,24.4607,50.8881,-19.1744,-5.44611,10.8742,-24.2975,1.53509,-20.9999,62.1815,-15.1081,-2.51078,-22.3323
-11.0265,17.0894,7.61591,4.44419,1.51283,1.51866,12.3124,-0.036362,0.67445,3.11383,0.260487,5.06053,-3.65754,0.132239,4.89431,-13.9617,7.71987,-1.93252,19.621,12.3016,-5.26051,8.66661,5.12278,-0.0196063,8.34896e-15,-1.43125e-14,-38.1565,-21.7154,-68.633,35.8231,13.5822,-13.5259,2.47646,7.12502,12.5862,-27.1244,8.34896e-15,-1.43125e-14,-30.4262,1.2275,88.8277,38.9175,0.867656,-14.2238,29.5405,7.12502,11.9133,59.1815,-28.3511,-3.78324,24.5652,50.5171,-19.6585,-5.81221,10.7075,-25.6028,1.46152,-20.8601,61.851,-15.6893,-2.82548,-22.4214
-11.0284,17.0921,7.69596,4.42198,1.84166,1.56273,12.6257,0.0615676,0.691136,3.01071,0.406887,5.00336,-3.94902,0.208647,4.80637,-14.0582,7.56552,-1.92491,19.6486,12.1228,-5.37961,8.69978,5.0231,-0.075719,5.96354e-15,-3.65764e-14,-38.2173,-21.723,-68.4983,35.809,13.7547,-13.5977,3.34929,7.12502,12.517,-26.2558,5.96354e-15,-3.65764e-14,-30.8255,1.29924,88.8609,38.6309,0.795475,-14.9276,28.0746,7.12502,11.2346,57.7537,-27.6932,-3.95042,24.5239,50.2046,-20.4121,-6.06139,9.91855,-26.8792,1.22355,-20.9013,61.3445,-16.3206,-2.94855,-22.2998
-11.0301,17.102,7.78212,4.47971,1.98248,1.51107,12.6633,0.149784,0.811287,2.97107,0.537533,4.89442,-4.01968,0.27304,4.6012,-13.7513,7.51728,-1.81243,19.224,12.0316,-5.61798,8.52175,4.99206,-0.202436,-1.31198e-14,-5.56597e-14,-38.1236,-21.8447,-68.4756,35.4278,14.3958,-14.1389,4.44395,7.12502,11.9952,-25.1923,-1.31198e-14,-5.56597e-14,-31.0439,1.66332,88.6268,38.2478,-0.225617,-14.1974,28.2418,7.12502,11.9388,57.8814,-27.1925,-3.97206,24.5812,49.9045,-20.8496,-6.16316,9.49629,-28.1099,1.09425,-20.8591,60.638,-16.5118,-3.07002,-21.4281
-11.0265,17.1145,7.88074,4.50246,2.13778,1.60579,12.5485,0.214361,0.8981,3.01721,0.618567,4.69684,-3.91129,0.31069,4.32643,-13.748,7.55476,-1.64426,19.0118,12.0725,-5.82127,8.47478,5.01237,-0.293279,9.54166e-15,2.06736e-14,-38.0056,-21.9146,-68.5998,35.4418,14.843,-14.1678,4.26792,7.12502,11.9673,-25.37,9.54166e-15,2.06736e-14,-31.141,1.77652,88.4042,37.8948,-0.677072,-13.7304,28.8277,7.12502,12.389,58.4406,-26.6415,-4.137,24.4318,49.5937,-21.1301,-6.17605,9.501,-29.0861,0.852912,-21.05,59.7215,-16.6689,-2.93745,-21.3749
-11.0253,17.119,7.971,4.52081,2.40693,1.55222,12.6029,0.278009,1.18366,2.98056,0.73509,4.51745,-3.98191,0.366194,3.955,-13.8869,7.57998,-1.36202,19.0142,12.104,-6.04899,8.5348,5.01951,-0.400504,3.97569e-15,1.27222e-14,-37.8935,-21.8611,-68.8263,35.7543,14.7402,-13.5853,3.04278,7.12502,12.529,-26.5616,3.97569e-15,1.27222e-14,-31.4003,1.5793,88.2211,37.6189,-0.450695,-13.7935,29.0224,7.12502,12.3282,58.639,-26.1379,-4.27913,24.4858,49.2684,-21.265,-6.25155,10.0155,-30.1577,0.610408,-21.0602,58.686,-17.2468,-2.77256,-23.5329
-11.0309,17.1254,8.05135,4.5649,2.50088,1.37265,12.8041,0.429533,1.45478,2.92158,0.975281,4.38559,-4.16218,0.482923,3.62323,-14.0692,7.50604,-1.36449,18.9593,11.9876,-5.97072,8.54007,4.96994,-0.382087,2.22639e-14,4.6118e-14,-37.7546,-21.7683,-69.0875,35.9399,14.3807,-13.5339,2.80938,7.12502,12.5785,-26.792,2.22639e-14,4.6118e-14,-31.8236,1.37601,88.0233,37.5742,-0.272785,-14.0406,29.0089,7.12502,12.0899,58.6396,-25.6864,-4.07573,24.717,48.8756,-21.4284,-6.52134,10.3082,-31.2497,0.537402,-20.9117,57.5128,-17.9218,-2.44437,-26.2951
-11.0355,17.1436,8.14193,4.56587,2.4816,1.25425,12.8607,0.575064,1.57963,2.98724,1.17765,4.27271,-4.13008,0.580783,3.3993,-14.2205,7.49814,-1.52056,18.8024,11.9605,-5.78159,8.49041,4.96886,-0.296824,-1.66979e-14,-4.92986e-14,-37.4991,-21.6691,-69.3174,36.0118,14.1937,-13.8039,3.42044,7.12502,12.3182,-26.1967,-1.66979e-14,-4.92986e-14,-31.9956,1.35796,87.7941,37.313,-0.206144,-14.4234,28.5292,7.12502,11.7208,58.1813,-25.0818,-3.88014,24.8679,48.4273,-21.727,-6.76033,10.294,-32.0567,0.568856,-20.8684,56.1366,-17.7309,-2.15659,-26.189
-11.0346,17.168,8.24021,4.52202,2.49849,1.0468,12.8965,0.672069,1.82117,3.05073,1.33272,4.20522,-4.08343,0.654526,3.16522,-14.2698,7.53837,-1.53531,18.5515,11.9981,-5.78312,8.41428,4.99574,-0.29333,7.95139e-16,9.54166e-15,-37.2657,-21.633,-69.4596,36.0818,14.2985,-13.8623,3.81414,7.12502,12.2619,-25.8064,7.95139e-16,9.54166e-15,-32.0133,1.58527,87.5664,36.7876,-0.416827,-14.3531,28.5039,7.12502,11.7886,58.1522,-24.327,-3.79914,25.0815,47.9026,-21.9305,-6.92362,10.203,-32.7009,0.490698,-20.7447,54.5597,-16.7097,-2.04134,-23.5023
-11.0286,17.1881,8.33586,4.58153,2.6365,1.03378,12.8784,0.722244,1.95485,3.03991,1.41001,4.07465,-4.08164,0.691116,2.93894,-14.4812,7.53099,-1.63021,18.4655,11.994,-5.70835,8.41211,4.99309,-0.248066,-7.95139e-16,9.54166e-15,-37.1145,-21.4503,-69.6485,36.297,14.2818,-13.9544,3.82864,7.12502,12.1731,-25.7972,-7.95139e-16,9.54166e-15,-32.3013,1.89535,87.3188,36.5767,-0.734815,-14.2672,28.9028,7.12502,11.8714,58.5463,-23.7048,-3.88064,25.0777,47.3444,-21.9996,-7.09697,9.4763,-33.3263,0.234557,-20.8499,52.7851,-15.519,-1.88333,-19.5311
-11.0254,17.2009,8.42986,4.73432,2.80457,1.01586,12.8548,0.7849,2.06457,2.88332,1.50649,3.92777,-4.23001,0.737221,2.70611,-14.4397,7.46784,-1.67458,18.4888,11.8948,-5.60298,8.40001,4.95427,-0.22032,7.95139e-15,-1.59028e-14,-37.195,-21.2418,-69.7933,36.5574,14.1943,-14.0204,3.53362,7.12502,12.1094,-26.096,7.95139e-15,-1.59028e-14,-32.8126,2.21711,87.0106,36.34,-1.08703,-14.1066,28.6668,7.12502,12.0263,58.3012,-23.2111,-3.91187,25.1037,46.743,-21.9885,-7.28217,9.45953,-33.9496,-0.0659474,-20.9408,50.8626,-14.5489,-1.48574,-16.2113
-11.0236,17.2293,8.52186,4.98073,2.83672,0.910953,12.8486,0.944264,2.20839,2.69957,1.73849,3.81113,-4.4195,0.849042,2.46332,-14.4081,7.41957,-1.55601,18.5969,11.8176,-5.63095,8.43797,4.91922,-0.255826,3.97569e-16,1.59028e-15,-37.2115,-21.1737,-69.8568,36.7732,14.046,-14.0909,3.11316,7.12502,12.0414,-26.5204,3.97569e-16,1.59028e-15,-33.0761,2.43919,86.7702,35.8192,-1.22615,-14.0697,28.1237,7.12502,12.0619,57.7561,-22.7964,-3.78045,25.2257,46.1223,-21.9101,-7.41636,9.94372,-34.7526,-0.167395,-20.9598,48.803,-13.8827,-1.15457,-15.835
-11.0172,17.2651,8.61691,5.14632,2.91759,0.903962,12.8955,1.06983,2.2543,2.57435,1.91488,3.73788,-4.57796,0.934345,2.32986,-14.4942,7.41121,-1.55892,18.7241,11.8237,-5.62991,8.49658,4.91421,-0.248286,1.59028e-15,-1.59028e-15,-37.2321,-20.9184,-69.8496,37.1419,13.7362,-14.1571,3.0222,7.12502,11.9776,-26.6151,1.59028e-15,-1.59028e-15,-33.3178,2.72754,86.6512,35.3847,-1.3402,-14.1224,28.1403,7.12502,12.0111,57.7757,-22.2433,-3.85343,25.2118,45.4851,-21.8215,-7.48997,10.034,-35.3562,-0.296366,-21.1367,46.6086,-13.2725,-0.757272,-18.5005
-11.0098,17.2812,8.72486,5.21294,3.13046,0.848614,12.7745,1.13601,2.29546,2.52621,2.00526,3.74541,-4.56323,0.978687,2.30105,-14.5664,7.34826,-1.70922,18.7043,11.7823,-5.66643,8.49631,4.87997,-0.239322,2.14687e-14,2.54444e-14,-37.2052,-20.6053,-69.7761,37.4547,13.5649,-14.1105,2.65345,7.12502,12.0226,-26.9812,2.14687e-14,2.54444e-14,-33.6842,3.21631,86.5368,35.1253,-1.65643,-13.9079,28.3485,7.12502,12.2179,57.9716,-21.5262,-4.11559,25.2318,44.8557,-21.8623,-7.32433,10.494,-35.4979,-0.517875,-21.2324,44.3246,-12.4026,-0.474512,-20.2063
-10.9988,17.2929,8.83487,5.34158,2.97377,0.830356,12.3739,1.30224,2.25666,2.58789,2.19579,3.69831,-4.28232,1.0745,2.24954,-14.3989,7.23328,-1.87184,18.252,11.6481,-5.8355,8.31344,4.81411,-0.300037,1.47101e-14,-1.74931e-14,-36.9155,-20.3859,-69.8257,37.5975,13.5323,-14.0767,2.24534,7.12502,12.0551,-27.3874,1.47101e-14,-1.74931e-14,-33.9553,3.843,86.3039,34.8634,-2.06523,-13.7189,28.8421,7.12502,12.4002,58.4543,-20.9281,-4.08583,25.1726,44.2409,-21.8904,-7.21531,10.4125,-35.5461,-0.533848,-21.3707,41.9249,-11.164,-0.221585,-20.8819
-10.9895,17.3068,8.94045,5.40925,2.56523,0.644151,12.0821,1.53841,2.33346,2.69654,2.49629,3.65446,-4.00987,1.22327,2.12043,-14.4274,7.14439,-1.97665,17.9805,11.532,-5.8702,8.22127,4.76053,-0.312569,-2.90226e-14,-9.54166e-15,-36.7099,-20.2274,-69.9173,38.0355,13.3452,-14.2143,2.6334,7.12502,11.9225,-27.0071,-2.90226e-14,-9.54166e-15,-34.1435,4.45914,85.9958,34.4361,-2.44671,-13.8159,29.3049,7.12502,12.3066,58.9228,-20.3381,-3.68985,25.2999,43.6249,-21.785,-7.29029,9.68688,-35.5657,-0.370833,-21.278,39.4379,-9.73145,-0.0668378,-21.34
-10.9853,17.3287,9.05235,5.34703,2.44683,0.655467,12.0284,1.65881,2.23177,2.75473,2.63238,3.54349,-3.92161,1.29161,2.04253,-14.5472,7.21264,-1.86671,17.9864,11.6126,-5.89399,8.25411,4.79985,-0.322878,-3.97569e-16,-3.18055e-15,-36.5702,-20.2108,-70.0041,38.4703,13.516,-14.3872,3.03021,7.12502,11.7557,-26.6199,-3.97569e-16,-3.18055e-15,-34.278,5.06277,85.6197,33.7966,-2.54462,-13.913,29.2309,7.12502,12.213,58.8543,-19.5182,-3.55595,25.2631,43.0175,-21.7515,-7.38913,9.52212,-35.2985,-0.418874,-21.3444,36.8481,-8.41948,-0.176817,-20.406
-10.9777,17.3519,9.16568,5.28277,2.4729,0.712039,11.8829,1.69969,2.11791,2.85965,2.65622,3.42627,-3.73184,1.30534,1.98556,-14.6992,7.25947,-1.77633,17.8655,11.6828,-6.03703,8.25746,4.82569,-0.370773,5.1684e-15,3.18055e-15,-36.2268,-20.2074,-70.1748,38.7109,13.776,-14.6458,3.28375,7.12502,11.5064,-26.3804,5.1684e-15,3.18055e-15,-34.2011,5.73955,85.2548,33.1367,-2.49364,-13.7411,29.6089,7.12502,12.3787,59.2224,-18.6426,-3.60896,25.1488,42.3707,-21.8152,-7.28381,10.0326,-34.9069,-0.622503,-21.4668,34.2323,-7.49149,-0.304069,-18.784
-10.9688,17.3629,9.27086,5.32545,2.32042,0.6023,11.7521,1.82031,2.13503,2.86371,2.80977,3.37962,-3.65581,1.38149,1.90817,-14.7463,7.20848,-1.95793,17.7399,11.6383,-6.00888,8.21062,4.80019,-0.339541,-2.14687e-14,1.27222e-14,-36.1111,-19.9175,-70.3012,39.0657,13.2383,-14.7785,3.57514,7.12502,11.3784,-26.0962,-2.14687e-14,1.27222e-14,-34.234,6.64678,84.8873,32.4577,-2.88259,-13.6454,30.0625,7.12502,12.471,59.6704,-17.9512,-3.46302,25.2127,41.7184,-21.8601,-7.13892,10.4469,-34.6158,-0.778246,-21.3691,31.6209,-6.83741,-0.351414,-18.8013
-10.9565,17.3747,9.38417,5.41304,2.06074,0.315991,11.6451,2.00503,2.36778,2.7579,3.08044,3.3591,-3.69948,1.51287,1.718,-14.5288,7.22247,-1.85815,17.6537,11.6419,-6.12065,8.15636,4.80768,-0.400428,-1.59028e-14,-2.54444e-14,-36.1176,-19.8035,-70.2722,39.3149,12.8829,-14.6195,3.20148,7.12502,11.5317,-26.4613,-1.59028e-14,-2.54444e-14,-34.6802,7.40234,84.482,31.9513,-3.26454,-14.02,29.2565,7.12502,12.1098,58.886,-17.2668,-3.31879,25.4571,41.0419,-21.8847,-6.9801,10.5207,-34.4312,-0.73159,-21.0877,29.1164,-6.28303,-0.686821,-18.8929
-10.9439,17.3892,9.50439,5.35217,1.74871,-0.0131876,11.5177,2.16932,2.57786,2.7867,3.31496,3.36282,-3.59109,1.62801,1.57541,-14.7958,7.12948,-2.08521,17.6241,11.5483,-5.99562,8.1707,4.75494,-0.326473,-1.74931e-14,-1.90833e-14,-35.7163,-19.8768,-70.2677,39.2361,12.9394,-14.4026,2.3907,7.12502,11.7409,-27.2603,-1.74931e-14,-1.90833e-14,-35.1086,8.16472,84.0496,31.5009,-3.53704,-14.4518,28.1945,7.12502,11.6934,57.8481,-16.395,-3.18807,25.7201,40.3709,-21.9363,-6.86694,10.3888,-34.0347,-0.610646,-20.7432,26.7758,-5.9351,-1.11551,-19.0754
-10.9301,17.3945,9.62772,5.17992,1.45319,-0.217255,11.3064,2.26062,2.6052,2.89959,3.42247,3.34109,-3.35529,1.68352,1.53295,-14.6823,7.14763,-2.04846,17.3744,11.5405,-6.0227,8.07033,4.76564,-0.350776,-1.27222e-14,-1.43125e-14,-35.3062,-19.6756,-70.4072,39.2934,12.8913,-14.2057,2.08431,7.12502,11.9308,-27.5557,-1.27222e-14,-1.43125e-14,-35.3852,8.95745,83.626,31.061,-3.48383,-14.406,28.4197,7.12502,11.7376,58.0708,-15.4012,-3.03294,25.8335,39.7401,-22.0186,-6.80706,10.2461,-33.3002,-0.859082,-20.3916,24.5602,-5.8247,-1.06177,-19.3316
-10.9151,17.3955,9.75828,5.09596,1.1676,-0.323666,10.9517,2.33165,2.52962,2.97793,3.4865,3.30662,-3.08162,1.71864,1.54683,-14.7295,7.19307,-2.18434,17.4188,11.6037,-5.85209,8.07531,4.80033,-0.265332,6.75868e-15,1.59028e-15,-35.0439,-19.4082,-70.5365,39.5101,12.8154,-14.4297,2.71978,7.12502,11.7148,-26.9327,6.75868e-15,1.59028e-15,-35.7479,9.7596,83.1993,30.7302,-3.29231,-14.0425,29.268,7.12502,12.0882,58.8988,-14.5075,-3.0159,25.81,39.1688,-22.0905,-6.58346,9.78643,-32.5792,-1.26305,-20.1124,22.4966,-5.69529,-0.773917,-19.6448
-10.8988,17.4006,9.88418,5.03956,0.798517,-0.252438,10.7669,2.48075,2.31932,2.93853,3.65017,3.19143,-3.02852,1.8012,1.52981,-14.8222,7.17105,-2.29534,17.6381,11.5898,-5.68857,8.14741,4.78996,-0.189643,4.33351e-14,-3.18055e-15,-34.9542,-19.2229,-70.5893,39.7989,12.599,-14.6697,3.41636,7.12502,11.4833,-26.2491,4.33351e-14,-3.18055e-15,-36.1974,10.5619,82.6757,30.1654,-3.27347,-13.5331,29.8854,7.12502,12.5793,59.4867,-13.6911,-3.02221,25.571,38.6496,-22.1768,-6.21561,9.58121,-31.9217,-1.7068,-19.9932,20.6799,-5.37161,-0.508544,-20.0363
-10.8876,17.4035,10.004,4.98248,0.391958,-0.48163,10.6694,2.62428,2.36943,2.78238,3.84471,3.10604,-3.13068,1.8961,1.38797,-14.4499,7.16859,-2.08561,17.6832,11.5267,-5.69292,8.10655,4.78117,-0.244344,1.63003e-14,3.18055e-15,-35.0139,-19.1059,-70.6756,39.995,12.5203,-14.6014,3.517,7.12502,11.5492,-26.1448,1.63003e-14,3.18055e-15,-36.726,11.3556,81.9609,29.5428,-3.28307,-12.7762,30.5213,7.12502,13.3089,60.0763,-12.929,-2.81286,25.71,38.1176,-22.2014,-5.93604,9.77278,-31.4336,-2.05512,-19.5231,19.2184,-5.09471,-0.454842,-20.9213
-10.8764,17.4033,10.1269,4.94533,-0.0428075,-0.942165,10.463,2.7788,2.6807,2.70182,4.07423,3.05292,-3.07733,2.00834,1.13777,-14.3563,7.17464,-2.01342,17.7692,11.4748,-5.47137,8.10572,4.78177,-0.192452,1.43125e-14,-1.27222e-14,-35.0237,-19.058,-70.8267,40.2203,12.4609,-14.6357,3.72079,7.12502,11.5161,-25.9429,1.43125e-14,-1.27222e-14,-37.1104,11.8336,81.3914,29.1172,-3.0017,-12.3161,31.3637,7.12502,13.7523,60.8892,-12.1712,-2.42419,26.119,37.5703,-22.1919,-5.85438,9.82185,-31.0452,-2.26218,-18.8511,18.1057,-4.97493,-0.477923,-21.5392
-10.8634,17.3997,10.2555,4.88455,-0.406825,-1.30863,10.3556,2.9288,2.8484,2.56107,4.29126,3.04028,-3.15204,2.11352,1.00524,-14.5269,7.14631,-2.13419,18.1673,11.4338,-5.12762,8.23843,4.76658,-0.0535235,1.59028e-14,2.14687e-14,-35.1819,-19.014,-70.7938,40.4592,12.4866,-14.7592,3.87951,7.12502,11.397,-25.7908,1.59028e-14,2.14687e-14,-37.5868,12.538,80.8654,28.5748,-3.00154,-12.4381,32.2342,7.12502,13.6348,61.7676,-11.3435,-2.18132,26.4115,37.0251,-22.197,-5.89222,9.09873,-30.6201,-2.38314,-18.3684,17.3818,-5.00041,-0.577742,-21.8261
-10.8493,17.3938,10.3855,4.8463,-0.685557,-1.46625,9.89612,2.99065,2.7871,2.59117,4.3423,2.99021,-2.86798,2.14333,1.00745,-14.5032,7.14281,-2.08084,18.1678,11.4077,-5.09174,8.23419,4.76161,-0.0541973,3.75703e-14,-9.54166e-15,-34.9986,-18.8929,-70.9463,40.6766,12.4197,-14.7594,3.67501,7.12502,11.3968,-25.9953,3.75703e-14,-9.54166e-15,-37.8139,13.461,80.2851,27.8779,-3.18531,-12.6498,32.7734,7.12502,13.4308,62.3204,-10.5005,-2.12113,26.4616,36.5266,-22.291,-5.80422,8.63643,-30.2634,-2.42049,-18.1911,17.0113,-4.95315,-0.77799,-22.2041
-10.837,17.3876,10.5161,4.67591,-0.896235,-1.58707,9.47932,2.99155,2.70467,2.71771,4.30872,2.92327,-2.50756,2.13213,1.01547,-14.3573,7.16191,-2.09148,17.9232,11.373,-4.93642,8.1137,4.77417,-0.0176475,-1.39149e-14,-3.10104e-14,-34.7835,-18.7516,-71.2037,41.1634,12.3875,-14.2965,3.11902,7.12502,11.8432,-26.5261,-1.39149e-14,-3.10104e-14,-37.9512,14.2571,79.717,27.2147,-3.07965,-12.9766,33.196,7.12502,13.1158,62.7636,-9.54702,-2.10223,26.482,36.0492,-22.3448,-5.59518,9.0409,-29.8391,-2.32638,-18.1237,16.9703,-4.7053,-1.1167,-22.2029
-10.8246,17.3811,10.6458,4.574,-1.06064,-1.69029,9.49244,3.01977,2.56094,2.48458,4.34261,2.88692,-2.76477,2.1461,1.04522,-14.3631,7.11094,-2.25841,18.3083,11.2836,-4.51416,8.20438,4.74658,0.141731,-5.76476e-15,-2.38542e-14,-35.1224,-18.5143,-71.1623,41.6507,12.3547,-13.6655,2.18054,7.12502,12.4516,-27.4285,-5.76476e-15,-2.38542e-14,-38.5408,14.8446,79.1256,26.4623,-2.97316,-13.1526,33.4702,7.12502,12.9461,63.0486,-8.74443,-2.15147,26.4921,35.5934,-22.2729,-5.48103,8.58704,-29.5167,-2.35869,-18.0338,17.2262,-4.25867,-1.46699,-22.0094
-10.8116,17.3793,10.7712,4.52831,-1.10888,-2.04731,9.33864,3.0038,2.75025,2.35674,4.33722,2.85662,-2.79599,2.14182,0.913978,-14.7292,7.05679,-2.30785,18.8009,11.2001,-4.1567,8.40777,4.71019,0.28053,-6.55989e-15,-1.11319e-14,-35.0448,-18.5302,-71.2649,41.6779,12.4614,-13.5357,1.90645,7.12502,12.5768,-27.695,-6.55989e-15,-1.11319e-14,-38.8353,15.6614,78.3692,25.5282,-3.51554,-12.9622,33.182,7.12502,13.1297,62.7486,-7.96942,-2.17416,26.7953,35.0911,-22.1011,-5.42132,8.01907,-29.3833,-2.51151,-17.6463,17.8044,-3.28948,-1.76298,-21.9982
-10.7985,17.3817,10.8954,4.45336,-1.14652,-2.37995,8.92706,2.97946,2.91944,2.49569,4.2944,2.83314,-2.41003,2.12545,0.828632,-15.1042,7.05892,-2.24334,18.97,11.1971,-4.06455,8.52949,4.70611,0.318957,2.52457e-14,-1.82882e-14,-34.4878,-18.6876,-71.5226,41.6569,12.5723,-13.7752,1.87198,7.12502,12.3458,-27.7435,2.52457e-14,-1.82882e-14,-38.7585,16.9604,77.5088,24.5419,-4.57145,-12.9208,31.9091,7.12502,13.1696,61.4732,-7.15523,-2.16509,27.0789,34.566,-21.9187,-5.28515,8.00414,-29.3236,-2.71948,-17.2636,18.6045,-1.85813,-1.8486,-21.0043
-10.7818,17.3902,11.0222,4.3466,-1.16922,-2.55084,8.76384,2.95761,2.9724,2.46168,4.26232,2.77737,-2.34699,2.11021,0.753255,-15.092,7.11707,-1.9655,19.112,11.254,-4.20128,8.60085,4.73184,0.2412,4.01545e-14,1.59028e-15,-34.2175,-18.7391,-71.6313,41.6756,12.3537,-13.6972,1.72291,7.12502,12.4211,-27.888,4.01545e-14,1.59028e-15,-39.1623,17.579,76.9355,24.1035,-4.85571,-12.8708,31.7103,7.12502,13.2177,61.2712,-6.28145,-2.17257,27.1707,34.0482,-21.7337,-5.26137,7.91744,-29.2426,-2.74055,-17.16,19.5052,-0.968114,-1.8502,-19.5467
-10.7643,17.4046,11.1475,4.28779,-1.20424,-2.58733,8.87889,2.94198,2.86801,2.16077,4.24809,2.67429,-2.72243,2.09746,0.689848,-15.0229,7.11947,-1.88355,19.3479,11.2196,-4.04217,8.66168,4.73023,0.278624,-1.82882e-14,-1.35174e-14,-34.5568,-18.8271,-71.5406,41.832,12.3735,-13.7041,2.02126,7.12502,12.4144,-27.5901,-1.82882e-14,-1.35174e-14,-39.8956,17.7896,76.4207,23.8863,-4.68727,-12.56,32.5702,7.12502,13.5173,62.1115,-5.54431,-2.16478,27.1115,33.6659,-21.498,-5.23072,6.51467,-29.1542,-2.63514,-17.2392,20.2716,-1.04665,-1.93084,-18.4036
-10.7554,17.4157,11.2725,4.25689,-1.2588,-2.55008,8.70634,2.91143,2.56813,2.01682,4.17581,2.55605,-2.78918,2.0623,0.746867,-14.9952,7.13606,-1.9133,19.3973,11.1962,-3.79565,8.65431,4.74172,0.360545,4.41302e-14,2.94201e-14,-34.7636,-18.9947,-71.6021,42.0769,12.3259,-13.9399,2.86369,7.12502,12.1871,-26.7613,4.41302e-14,2.94201e-14,-40.2223,18.8731,75.4756,23.1117,-5.4261,-12.2501,32.337,7.12502,13.8159,61.8582,-4.95121,-2.0331,27.0237,33.492,-21.2491,-5.20387,4.74274,-28.9782,-2.63272,-17.3026,20.7234,-1.39688,-2.13132,-19.8099
-10.7537,17.4213,11.3955,4.17933,-1.2302,-2.39674,8.31871,2.85437,2.20516,2.12834,4.04325,2.35558,-2.46984,2.00248,0.780384,-15.234,6.99522,-2.02261,19.285,10.9853,-3.61498,8.63868,4.65217,0.418164,-2.78299e-14,3.18055e-15,-34.5261,-19.2862,-71.9283,42.1793,12.0569,-14.9868,4.75703,7.12502,11.1774,-24.9252,-2.78299e-14,3.18055e-15,-40.1349,19.8922,74.6333,22.3138,-6.10743,-12.4323,31.6545,7.12502,13.6404,61.1876,-4.43278,-1.91255,26.8619,33.5547,-20.9555,-5.28207,4.04675,-28.7038,-2.72354,-17.4208,20.8889,-1.17024,-2.37734,-20.8494
-10.7477,17.4352,11.5155,4.10285,-1.07621,-2.08837,8.20551,2.77758,1.77072,2.07486,3.89616,2.10874,-2.47417,1.93128,0.786891,-15.5099,6.78469,-2.09986,19.5001,10.686,-3.37816,8.73961,4.51612,0.487525,-5.12864e-14,-2.38542e-15,-34.5896,-19.5438,-72.1183,42.2638,11.8834,-16.4138,6.75507,7.12502,9.80091,-22.9968,-5.12864e-14,-2.38542e-15,-40.3105,20.5314,73.9092,21.7318,-6.63491,-12.8723,31.8391,7.12502,13.2163,61.4002,-4.08634,-1.87777,26.5298,33.8153,-20.5872,-5.34376,3.99965,-28.472,-2.92764,-17.7194,20.9531,-0.467545,-2.45383,-19.1647
-10.7392,17.4506,11.633,3.88737,-1.06212,-1.96852,8.42223,2.75569,1.41726,1.96052,3.84288,1.97487,-2.72644,1.90453,0.836411,-15.7559,6.62555,-2.13591,19.8136,10.4531,-3.13895,8.87259,4.41236,0.560186,-2.40529e-14,-1.82882e-14,-34.7686,-19.6794,-72.1825,42.353,11.6644,-17.0026,7.13699,7.12502,9.23286,-22.6409,-2.40529e-14,-1.82882e-14,-40.4896,22.1343,72.6371,20.5717,-8.27463,-13.1165,31.7095,7.12502,12.9809,61.2857,-3.67882,-1.74273,26.383,34.2312,-20.1384,-5.43372,3.23052,-27.957,-2.94841,-17.8872,20.9262,0.0517473,-2.51435,-17.8579
