JuanDHNZ/ProyectoFinalCD/preprocessing/sports_trials_csv/17_02.csv
root1,root2,root3,root4,root5,root6,lowerback1,lowerback2,lowerback3,upperback1,upperback2,upperback3,thorax1,thorax2,thorax3,lowerneck1,lowerneck2,lowerneck3,upperneck1,upperneck2,upperneck3,head1,head2,head3,rclavicle1,rclavicle2,rhumerus1,rhumerus2,rhumerus3,rradius1,rwrist1,rhand1,rhand2,rfingers1,rthumb1,rthumb2,lclavicle1,lclavicle2,lhumerus1,lhumerus2,lhumerus3,lradius1,lwrist1,lhand1,lhand2,lfingers1,lthumb1,lthumb2,rfemur1,rfemur2,rfemur3,rtibia1,rfoot1,rfoot2,rtoes1,lfemur1,lfemur2,lfemur3,ltibia1,lfoot1,lfoot2,ltoes1
-8.67057,17.5035,-14.127,6.64975,-16.3878,-0.443171,5.26327,-1.52706,-1.62697,1.30308,-2.06923,3.39821,-1.42341,-1.03604,4.5547,-14.2669,0.707459,-3.84781,28.1068,2.65405,-2.45212,11.5208,0.431155,0.116097,-6.71892e-14,2.8625e-14,-36.2552,2.49294,-81.3358,60.5648,28.4888,168.986,55.0804,7.12502,-164.993,84.5166,-6.71892e-14,2.8625e-14,-28.5803,2.77985,88.3834,38.861,-2.84579,-10.7628,22.6443,7.12502,15.249,52.0622,-20.167,4.24803,24.4422,39.251,-19.0667,-9.48652,12.5789,-16.1259,-1.61885,-20.2812,32.8767,-17.3966,7.33626,-14.6328
-8.68379,17.5004,-14.1173,6.64421,-16.1858,-0.582192,5.31138,-1.56319,-1.42155,1.3266,-2.10585,3.4632,-1.42778,-1.05522,4.50938,-14.5307,0.925185,-3.21667,28.716,3.02957,-3.11058,11.8332,0.562279,-0.183386,-2.14687e-14,3.97569e-15,-36.2455,2.4702,-81.3229,60.4998,28.1071,169.22,54.8701,7.12502,-164.767,84.2893,-2.14687e-14,3.97569e-15,-28.8205,2.88643,88.5631,38.9376,-3.11473,-10.9396,21.8961,7.12502,15.0787,51.3269,-20.0407,4.02792,24.6598,39.2044,-19.1264,-9.45808,12.5787,-16.4367,-1.53632,-20.069,33.4045,-17.3098,7.09025,-14.4576
-8.69803,17.4974,-14.1072,6.66248,-16.1431,-0.665607,5.36347,-1.35923,-1.16573,1.3257,-1.82189,3.28898,-1.49688,-0.911939,4.16743,-13.8013,0.880773,-2.87982,28.4154,2.78285,-2.9744,11.5645,0.523502,-0.227404,3.67752e-14,-2.22639e-14,-36.4774,1.67184,-81.3753,60.5319,27.8625,169.352,54.9845,7.12502,-164.64,84.394,3.67752e-14,-2.22639e-14,-28.8326,1.92341,88.6387,38.913,-2.78326,-10.6518,22.0823,7.12502,15.3559,51.4921,-19.956,4.03361,24.796,39.0889,-19.081,-9.49948,12.4369,-16.8127,-1.28712,-19.9525,34.0388,-17.3387,6.99053,-15.1518
-8.70973,17.4931,-14.0933,6.63703,-16.0141,-0.916422,5.45252,-1.47511,-0.831674,1.6152,-1.9625,3.48595,-1.24137,-0.990892,4.18887,-13.5716,1.01416,-3.99517,27.8961,3.01465,-2.22557,11.2891,0.621329,0.269259,4.17448e-15,2.14687e-14,-35.8703,2.11678,-81.2642,60.3955,27.4842,169.28,55.2115,7.12502,-164.71,84.6263,4.17448e-15,2.14687e-14,-28.3009,2.18106,88.9164,38.7324,-2.89453,-11.0716,22.1687,7.12502,14.9515,51.6091,-19.7609,3.91576,25.0977,38.9819,-19.1102,-9.50663,12.5262,-17.0171,-1.10724,-19.6652,34.6732,-17.4562,6.82735,-15.8089
-8.724,17.4894,-14.0807,6.58229,-15.8531,-0.983799,5.3896,-1.47881,-0.601471,1.89045,-1.96381,3.48426,-0.930728,-0.998711,4.04894,-13.2954,1.08963,-4.45698,27.5264,3.08568,-1.79155,11.0759,0.674202,0.512233,-1.05356e-14,3.33958e-14,-35.4522,2.12044,-81.2544,60.3416,27.136,169.28,55.1479,7.12502,-164.71,84.5627,-1.05356e-14,3.33958e-14,-27.9848,1.99086,89.0981,38.8212,-2.97627,-11.0037,22.2345,7.12502,15.0169,51.67,-19.601,3.78558,25.2206,38.9176,-19.1559,-9.50866,12.641,-17.2392,-0.877639,-19.5666,35.2893,-17.4982,6.56206,-15.7523
-8.73386,17.4859,-14.0696,6.582,-15.5346,-1.16276,5.36363,-1.49501,-0.162342,2.07406,-1.96889,3.47374,-0.742443,-1.00377,3.78547,-13.0944,1.15733,-4.46467,27.4151,3.17467,-1.81613,10.9929,0.716985,0.514095,2.50469e-14,0,-35.3591,1.99709,-81.232,60.307,26.6799,169.378,55.1768,7.12502,-164.616,84.5844,2.50469e-14,0,-27.801,1.65545,89.2982,38.8997,-2.94411,-11.026,22.2904,7.12502,14.9955,51.7274,-19.4546,3.49471,25.4712,38.8747,-19.1969,-9.66502,11.8493,-17.5884,-0.670095,-19.3239,35.9305,-17.4194,6.16535,-15.3704
-8.74707,17.4825,-14.0579,6.38087,-15.1648,-0.99491,5.58423,-1.65074,-0.297482,2.02431,-2.17721,3.52778,-0.895157,-1.1067,3.93881,-12.4049,1.346,-4.61547,27.4039,3.43693,-1.84823,10.847,0.822889,0.554287,3.97569e-15,1.74931e-14,-35.5413,2.286,-81.1443,60.0054,26.1426,169.437,55.4668,7.12502,-164.559,84.87,3.97569e-15,1.74931e-14,-28.0511,1.83527,89.4956,39.0237,-2.21548,-11.1845,22.3397,7.12502,14.8428,51.7881,-19.2017,3.18735,25.3808,38.9005,-19.2526,-9.77401,11.4991,-17.8057,-0.456269,-19.4266,36.5823,-17.4431,5.62977,-15.0723
-8.76331,17.4759,-14.0491,6.14907,-14.9972,-1.02846,5.95915,-2.13165,-0.790813,1.59901,-2.82155,4.05601,-1.4448,-1.42037,4.83623,-10.309,2.13062,-5.29274,27.0048,4.61792,-2.24065,10.2723,1.2804,0.639344,9.93923e-16,-2.38542e-14,-36.1662,4.36733,-81.0288,59.6805,25.4346,169.572,55.5775,7.12502,-164.429,84.9707,9.93923e-16,-2.38542e-14,-29.4118,3.70731,89.6999,39.3696,-1.80805,-11.1559,22.6769,7.12502,14.8703,52.1232,-18.9008,3.20192,25.4964,38.9518,-19.3579,-9.8079,12.3,-17.9163,-0.0586197,-19.3197,37.2907,-17.4294,5.15179,-14.8262
-8.77866,17.4678,-14.0371,6.12059,-14.7695,-1.15184,5.81763,-1.63451,0.103376,2.24334,-2.13669,3.47063,-0.819586,-1.08742,3.65448,-11.2543,2.11748,-4.06273,26.9572,4.48015,-2.47291,10.4685,1.31011,0.34926,-5.68524e-14,-1.59028e-14,-35.4102,2.1971,-81.2542,59.5946,24.9203,169.894,55.7462,7.12502,-164.118,85.1149,-5.68524e-14,-1.59028e-14,-28.0894,1.24373,89.7659,39.1807,-1.47698,-10.7314,23.0853,7.12502,15.2792,52.501,-18.8335,3.20174,25.7192,39.0119,-19.3098,-10.2194,11.2254,-18.3136,0.361593,-19.1177,38.0789,-17.3052,4.63753,-14.8714
-8.7873,17.4571,-14.0236,6.12135,-14.5218,-1.15058,5.7837,-1.46608,0.460355,2.56719,-1.90604,3.2857,-0.500177,-0.973687,3.23992,-11.8987,1.96419,-3.85577,27.1846,4.26657,-2.44466,10.6839,1.22347,0.309022,-2.50469e-14,-1.03368e-14,-34.9773,1.53154,-81.2788,59.5272,24.5896,170.041,55.5314,7.12502,-163.977,84.8887,-2.50469e-14,-1.03368e-14,-27.5411,0.201409,89.9417,39.2393,-1.15514,-10.5363,23.4525,7.12502,15.4671,52.8538,-18.8184,3.03964,25.7803,39.08,-19.4689,-10.4827,10.7094,-18.832,0.63671,-19.0764,38.9141,-17.2434,4.25466,-14.9661
-8.79439,17.4516,-14.0126,6.03618,-14.31,-1.25026,5.88848,-1.4245,0.771807,2.84429,-1.84148,3.25415,-0.287441,-0.941766,3.02649,-12.1507,1.99336,-3.92685,27.2257,4.33103,-2.39088,10.7459,1.24887,0.352296,2.06736e-14,-2.8625e-14,-34.4413,1.40039,-81.2709,59.2775,24.6508,170.127,54.915,7.12502,-163.894,84.2658,2.06736e-14,-2.8625e-14,-27.1039,-0.157438,90.0775,39.1522,-1.18276,-10.957,23.0122,7.12502,15.0619,52.4443,-18.6411,2.8113,25.924,39.101,-19.8338,-10.3322,11.9573,-19.2155,1.07442,-18.9504,39.7636,-17.1377,3.79431,-15.2788
-8.80417,17.4481,-14.0014,5.95756,-14.1767,-1.25629,6.04571,-1.44744,0.896511,2.92852,-1.86389,3.25535,-0.290856,-0.952363,2.96233,-11.8966,2.11526,-4.15598,27.2589,4.51785,-2.30363,10.6998,1.32318,0.441896,-2.42517e-14,1.98785e-14,-34.3812,1.67365,-81.2952,59.2543,24.5871,170.038,54.6813,7.12502,-163.98,84.0389,-2.42517e-14,1.98785e-14,-27.046,0.0326333,90.1841,39.0396,-1.40823,-11.1318,22.8,7.12502,14.8935,52.2446,-18.4842,2.74958,25.9698,39.1014,-19.9881,-10.2724,13.0865,-19.5934,1.41642,-18.9256,40.5476,-16.9217,3.57377,-15.9414
-8.81281,17.4505,-13.9829,6.02845,-14.0224,-1.29892,6.08783,-1.46162,1.08677,2.89859,-1.86985,3.26763,-0.350466,-0.953168,2.87026,-11.6813,2.24373,-4.20236,27.4258,4.7284,-2.39198,10.7204,1.40076,0.441678,9.54166e-15,1.11319e-14,-34.5943,2.06957,-81.305,59.2749,24.1965,169.938,54.8388,7.12502,-164.076,84.2042,9.54166e-15,1.11319e-14,-27.2174,0.217878,90.3006,39.136,-1.45263,-10.3679,23.6582,7.12502,15.6294,53.0468,-18.4492,2.81918,26.0317,39.0527,-19.9293,-10.294,13.7012,-20.1388,1.65928,-18.8587,41.3044,-16.7038,3.45817,-16.4939
-8.82114,17.4529,-13.9574,6.05202,-13.7594,-1.30443,5.95478,-1.42772,1.34286,3.03346,-1.82077,3.20617,-0.149759,-0.926506,2.65347,-11.717,2.33815,-3.94441,27.5193,4.87751,-2.62473,10.775,1.46462,0.334538,-1.59028e-14,5.56597e-15,-34.2582,1.82339,-81.2464,58.5586,24.3854,169.328,54.7949,7.12502,-164.664,84.2061,-1.59028e-14,5.56597e-15,-27.1636,0.041104,90.4857,39.0338,-1.78108,-10.8109,23.2124,7.12502,15.2027,52.6339,-18.3431,2.58952,26.0672,38.9859,-19.9281,-10.4457,12.9896,-20.6288,1.86288,-18.8205,42.0708,-16.6693,3.23069,-16.8571
-8.83176,17.4532,-13.9378,6.01669,-13.5344,-1.29749,6.09279,-1.39382,1.28591,3.03369,-1.77324,3.33994,-0.221585,-0.904438,2.82516,-11.3984,2.46899,-3.92039,27.5604,5.11626,-2.89799,10.7374,1.54699,0.257177,-6.10269e-14,-8.74653e-15,-34.1846,1.87272,-80.9089,57.8239,25.3466,168.052,54.9648,7.12502,-165.893,84.466,-6.10269e-14,-8.74653e-15,-27.4594,-0.129835,90.9309,38.9505,-2.35682,-11.8336,21.5599,7.12502,14.2173,51.0533,-18.1749,2.52444,26.1101,38.9227,-19.9364,-10.7423,13.0941,-21.052,2.11613,-18.786,42.8608,-16.6336,3.0699,-17.4859
-8.84022,17.449,-13.9278,6.08155,-13.2801,-1.54899,6.64207,-1.35942,1.15003,2.76129,-1.70171,3.79683,-0.791199,-0.87032,3.39213,-11.0015,2.55669,-4.26972,27.8906,5.36442,-3.09288,10.7837,1.5947,0.271386,3.08116e-14,-3.49861e-14,-34.6637,2.48232,-80.295,57.6566,26.0318,167.235,54.9496,7.12502,-166.68,84.504,3.08116e-14,-3.49861e-14,-28.0323,0.22508,91.6123,38.9331,-2.77747,-11.7266,20.4966,7.12502,14.3204,49.9827,-18.0855,2.50733,26.4392,38.8601,-19.8263,-11.0573,13.4974,-21.6131,2.3549,-18.4433,43.6641,-16.3535,2.98478,-18.8313
-8.84839,17.4433,-13.915,6.09302,-13.0241,-1.6086,7.17007,-1.38374,1.03334,2.47771,-1.70771,4.02528,-1.36565,-0.870376,3.71835,-10.5749,2.66983,-4.42032,28.1463,5.59566,-3.28772,10.8002,1.65778,0.248313,-2.18663e-15,1.82882e-14,-35.1682,3.18397,-80.0113,57.6183,26.2069,167.002,54.9308,7.12502,-166.905,84.4997,-2.18663e-15,1.82882e-14,-28.6697,0.576257,91.9629,39.2129,-2.2645,-11.4575,20.7362,7.12502,14.5798,50.2038,-18.0347,2.40585,26.5644,38.8342,-19.8393,-11.1718,13.2948,-22.142,2.52413,-18.2959,44.4164,-15.9341,2.83069,-19.3901
-8.85793,17.4463,-13.8938,5.97225,-12.8129,-1.44607,6.93292,-1.39729,0.908842,2.77501,-1.7548,4.05431,-0.919631,-0.899723,3.80917,-10.5947,2.74317,-4.57858,28.0347,5.75241,-3.36228,10.7616,1.70911,0.267262,9.34288e-15,-2.46493e-14,-34.6566,3.48473,-79.9461,57.2038,25.9761,167.162,54.8968,7.12502,-166.75,84.4557,9.34288e-15,-2.46493e-14,-28.3866,0.888161,92.1053,39.6472,-0.840615,-10.6174,21.9829,7.12502,15.389,51.3901,-17.8298,2.3265,26.425,38.7865,-19.8825,-11.2812,13.0333,-22.5483,2.72804,-18.3971,45.1222,-15.6629,2.56945,-19.2857
-8.86751,17.4505,-13.872,5.91147,-12.6628,-1.31385,6.82661,-1.2136,0.990365,3.09328,-1.52369,3.90624,-0.552422,-0.786765,3.58348,-10.8611,2.66602,-4.45956,27.8789,5.63476,-3.36328,10.7586,1.67235,0.237562,-1.05356e-14,-1.35174e-14,-34.0584,3.07757,-79.9069,56.7232,26.2157,166.895,54.7199,7.12502,-167.008,84.2954,-1.05356e-14,-1.35174e-14,-27.8441,0.128128,92.346,39.1514,-1.53243,-11.8874,20.6822,7.12502,14.1655,50.1792,-17.6862,2.48143,26.3229,38.7278,-19.8452,-11.5339,12.6954,-22.9516,2.9631,-18.489,45.7206,-15.4804,2.42171,-20.0659
-8.87495,17.4477,-13.8559,5.96964,-12.4395,-1.49691,6.8369,-1.04396,1.43302,3.32211,-1.28133,3.78406,-0.348079,-0.662181,3.18684,-11.0372,2.63032,-4.13887,27.7506,5.55612,-3.47591,10.7567,1.66102,0.136891,-7.15625e-15,1.51076e-14,-33.6864,2.61916,-79.9223,56.3201,26.2694,166.742,54.6376,7.12502,-167.155,84.2224,-7.15625e-15,1.51076e-14,-27.4897,-0.512423,92.4309,39.2565,-0.780683,-11.332,21.4017,7.12502,14.7006,50.8605,-17.6078,2.60198,26.5741,38.639,-19.7263,-11.8782,12.1904,-23.3815,3.15478,-18.2195,46.2446,-15.3701,2.34861,-20.6458
-8.88017,17.456,-13.8324,5.9734,-12.3169,-1.43738,6.87908,-0.964792,1.48614,3.39617,-1.1744,3.77586,-0.301046,-0.60848,3.14105,-11.0134,2.65061,-4.08402,27.8058,5.64515,-3.71726,10.7847,1.67793,0.0521005,-1.0138e-14,-2.38542e-14,-33.5347,2.80482,-79.8443,55.941,25.9105,166.899,54.8136,7.12502,-167.004,84.3889,-1.0138e-14,-2.38542e-14,-27.6836,-0.532444,92.6486,39.6523,-0.185653,-10.8592,22.1774,7.12502,15.1562,51.6024,-17.4752,2.52219,26.5203,38.5364,-19.6642,-12.0001,11.837,-23.7679,3.34984,-18.2396,46.6998,-15.298,2.38668,-21.0825
-8.88189,17.4665,-13.8055,6.00329,-12.312,-1.14178,6.90635,-0.877716,1.24608,3.35188,-1.07011,3.75126,-0.362702,-0.558172,3.24458,-10.8464,2.70045,-4.20689,27.9335,5.75253,-3.75968,10.7993,1.70763,0.0681837,-2.44505e-14,-7.95139e-16,-33.5842,3.28417,-79.7302,55.7727,25.5144,167.302,54.8871,7.12502,-166.615,84.4371,-2.44505e-14,-7.95139e-16,-28.033,-0.333106,92.8733,39.871,-0.257674,-10.4616,22.6907,7.12502,15.5391,52.0863,-17.4239,2.47618,26.171,38.4402,-19.6652,-11.9958,11.6618,-24.221,3.5293,-18.5645,47.0574,-15.2096,2.42644,-21.9945
-8.8844,17.4667,-13.782,6.10901,-12.0805,-1.23019,6.96372,-0.826197,1.46239,3.30624,-0.983719,3.77454,-0.448848,-0.51226,3.14228,-10.5425,2.77988,-4.2829,27.8679,5.83247,-3.67054,10.7085,1.75615,0.116931,2.5842e-15,3.73715e-14,-33.9153,3.57067,-79.6034,55.8796,25.5645,167.519,54.5417,7.12502,-166.407,84.0779,2.5842e-15,3.73715e-14,-28.1257,-0.563004,93.0803,39.6277,-0.472525,-10.4704,22.7486,7.12502,15.5306,52.145,-17.361,2.53392,26.294,38.3118,-19.6899,-12.2075,11.8496,-24.6892,3.6177,-18.4154,47.399,-15.1151,2.27573,-22.4216
-8.88715,17.4752,-13.7527,6.16047,-11.6542,-1.09282,6.87369,-0.825006,1.51587,3.34208,-0.983486,3.747,-0.363436,-0.511379,3.0814,-10.1699,2.789,-4.44866,27.6454,5.85743,-3.72803,10.5505,1.76105,0.119781,-4.01545e-14,1.66979e-14,-34.1349,3.69591,-79.4659,55.9548,25.7011,167.674,54.1611,7.12502,-166.257,83.6872,-4.01545e-14,1.66979e-14,-28.1392,-0.904796,93.3494,39.1895,-1.25005,-11.9506,21.3624,7.12502,14.1046,50.8637,-17.2427,2.40154,26.1852,38.1813,-19.7809,-12.3919,12.1561,-25.1111,3.46934,-18.4708,47.6458,-14.9332,2.15139,-22.0039
-8.89173,17.4863,-13.7213,6.13862,-11.4147,-1.09616,6.867,-0.820771,1.57773,3.41372,-0.976941,3.81535,-0.285636,-0.508496,3.11631,-10.1103,2.86931,-4.70769,27.6181,6.01298,-3.69493,10.5214,1.81293,0.192238,3.89618e-14,1.66979e-14,-34.1075,3.94589,-79.2984,55.7319,25.8295,167.598,54.2408,7.12502,-166.331,83.7719,3.89618e-14,1.66979e-14,-28.4141,-0.764517,93.5608,39.2547,-1.73348,-13.0734,19.5,7.12502,13.0225,49.0735,-16.9802,2.3246,26.2078,38.0038,-19.7483,-12.547,12.0457,-25.4275,3.49291,-18.374,47.8793,-14.6976,2.17902,-21.8151
-8.89724,17.4925,-13.6956,6.08362,-11.3154,-1.08165,7.06453,-0.796576,1.47569,3.39526,-0.941624,3.90039,-0.412325,-0.492431,3.26372,-10.3547,3.05549,-4.4668,27.9741,6.36382,-4.02351,10.7245,1.94028,0.0827736,7.15625e-15,8.74653e-15,-34.1036,4.34468,-79.1587,55.3654,26.0451,167.373,54.2288,7.12502,-166.547,83.7743,7.15625e-15,8.74653e-15,-28.8334,-0.257349,93.6343,39.8148,-1.02273,-12.4892,19.9689,7.12502,13.5855,49.5057,-16.7638,2.33592,26.1975,37.8332,-19.7122,-12.6097,12.228,-25.7152,3.64058,-18.289,48.025,-14.4837,2.19194,-21.8535
-8.90095,17.4997,-13.6677,6.16088,-11.2382,-1.05854,7.17103,-0.664512,1.52426,3.39106,-0.758762,3.854,-0.485467,-0.399765,3.17655,-10.5246,3.036,-4.20281,28.2325,6.37556,-4.23976,10.8732,1.93439,-0.0331185,1.55052e-14,-8.74653e-15,-34.0344,4.2454,-79.1127,55.0451,26.2161,167.27,54.0425,7.12502,-166.646,83.5946,1.55052e-14,-8.74653e-15,-29.0736,-0.351944,93.7145,40.2413,-0.109927,-11.8074,21.1765,7.12502,14.2426,50.6681,-16.6756,2.43905,26.1632,37.6935,-19.6747,-12.6621,12.2217,-26.113,3.81539,-18.2338,48.1032,-14.3334,2.2294,-22.4858
-8.90364,17.5109,-13.6406,6.31314,-10.9753,-1.00559,7.23449,-0.535291,1.59202,3.37486,-0.579421,3.79505,-0.546717,-0.308467,3.06464,-10.4499,2.96315,-4.12461,28.124,6.24783,-4.24465,10.8186,1.89208,-0.0648209,-1.15295e-14,1.74931e-14,-34.1125,4.00328,-79.0404,55.1032,26.3032,167.305,53.9875,7.12502,-166.613,83.5373,-1.15295e-14,1.74931e-14,-29.1261,-0.97272,93.9236,40.2714,0.250778,-11.964,21.633,7.12502,14.0917,51.1352,-16.6312,2.36802,26.1168,37.5605,-19.7274,-12.7107,12.5208,-26.6021,3.82687,-18.2008,48.1357,-14.3072,2.17423,-22.9399
-8.9051,17.5219,-13.6165,6.42316,-10.5469,-0.663269,7.29847,-0.466138,1.40758,3.31883,-0.494568,3.69839,-0.64319,-0.26613,3.06287,-10.5209,2.94219,-4.05576,28.1745,6.23792,-4.31608,10.857,1.88495,-0.101334,3.97569e-16,4.69132e-14,-34.2418,3.88215,-78.9113,55.1433,26.2489,167.329,53.999,7.12502,-166.589,83.5474,3.97569e-16,4.69132e-14,-29.2851,-1.30688,94.1338,40.2808,-0.0511771,-12.0455,21.9518,7.12502,14.0132,51.4594,-16.5942,2.10763,25.7594,37.4334,-19.6985,-12.7389,12.6927,-27.1139,3.5692,-18.4464,48.0742,-14.2748,2.5056,-23.2054
-8.9054,17.5365,-13.5928,6.51411,-10.1586,-0.826789,7.29613,-0.390282,1.83495,3.45008,-0.372106,3.63635,-0.514677,-0.200784,2.74744,-10.7383,3.02009,-3.83923,28.0547,6.3447,-4.41943,10.8655,1.94698,-0.157269,1.19271e-15,-2.22639e-14,-34.1503,3.57637,-78.8495,55.0772,26.4393,167.041,54.1221,7.12502,-166.867,83.6885,1.19271e-15,-2.22639e-14,-29.1881,-1.93129,94.2582,40.2112,-0.247174,-12.0865,22.0807,7.12502,13.9736,51.5911,-16.4301,1.99929,25.9642,37.284,-19.6705,-12.9587,12.0258,-27.5807,3.44957,-18.1142,47.9758,-14.2112,2.95961,-23.0889
-8.90424,17.5511,-13.5631,6.69082,-9.71117,-0.773648,7.25339,-0.41859,2.00701,3.37901,-0.397211,3.55607,-0.565362,-0.210401,2.56905,-10.8871,3.18186,-3.64964,28.2565,6.57582,-4.46625,10.9808,2.05624,-0.173997,-1.31198e-14,-5.56597e-15,-34.3542,3.57695,-78.8795,55.1288,26.3803,166.976,54.1786,7.12502,-166.93,83.7491,-1.31198e-14,-5.56597e-15,-29.4526,-2.25235,94.3034,40.3352,0.123508,-12.2013,22.1546,7.12502,13.863,51.6726,-16.43,1.84748,25.9192,37.1245,-19.6582,-13.2076,11.5879,-28.112,3.27167,-18.0424,47.8173,-13.9719,3.1496,-23.5642
-8.90453,17.5612,-13.5319,6.97963,-9.27262,-0.598247,7.17696,-0.574249,1.76226,3.07543,-0.607363,3.67699,-0.826225,-0.317187,2.8494,-10.6545,3.34888,-4.02274,28.5765,6.84675,-4.26996,11.039,2.15473,-0.0112914,-3.02153e-14,1.59028e-14,-34.8231,4.28198,-78.7741,55.2496,26.4193,166.747,54.0271,7.12502,-167.151,83.6116,-3.02153e-14,1.59028e-14,-30.1888,-1.80852,94.4528,40.7583,0.329101,-12.0229,22.543,7.12502,14.0349,52.0492,-16.5876,1.63771,25.7428,36.9346,-19.542,-13.3987,11.0718,-28.7326,3.08607,-18.1085,47.5856,-13.502,3.08945,-23.2427
-8.90818,17.5668,-13.5094,7.21174,-8.87956,-0.703811,7.30119,-0.640417,1.74581,2.9001,-0.680239,3.87047,-1.07049,-0.353926,3.06894,-10.6339,3.44366,-4.17973,28.7339,7.04032,-4.30893,11.0944,2.21563,0.0251656,2.0276e-14,3.73715e-14,-35.2525,4.71584,-78.5763,55.5498,26.7716,166.163,53.9576,7.12502,-167.714,83.5766,2.0276e-14,3.73715e-14,-30.5488,-1.54542,94.6575,40.8378,0.235761,-12.2685,21.9875,7.12502,13.7983,51.5099,-16.6235,1.65802,25.9084,36.7394,-19.259,-13.7395,10.3046,-29.3362,3.01016,-17.8309,47.276,-12.9334,2.95124,-9.57032
-8.91217,17.5772,-13.4769,7.21653,-8.74135,-0.633291,7.44021,-0.47854,1.74883,3.01108,-0.465306,3.77136,-1.04267,-0.246333,2.94779,-10.6602,3.33868,-4.16554,28.414,6.85147,-4.24342,10.9729,2.15486,0.0230239,-3.97569e-16,-5.56597e-14,-35.1543,4.31317,-78.5244,55.5063,27.1673,165.639,53.9255,7.12502,-168.219,83.5742,-3.97569e-16,-5.56597e-14,-30.3333,-2.14756,94.7167,40.5366,0.199635,-12.3569,21.5879,7.12502,13.7131,51.116,-16.4566,1.76807,25.8303,36.5921,-18.9985,-13.9255,9.84379,-29.5695,3.01379,-17.7289,46.8041,-12.5079,2.80696,-16.8127
-8.90778,17.5886,-13.4327,7.04679,-8.74453,-0.628187,7.54337,-0.238499,1.98096,3.29203,-0.141344,3.59648,-0.823197,-0.0826495,2.60846,-10.5786,3.09948,-4.55753,27.8119,6.41296,-3.75294,10.6926,2.00254,0.207184,-1.86858e-14,-5.64548e-14,-34.7232,3.77652,-78.478,55.1922,26.9631,165.694,53.9133,7.12502,-168.166,83.5589,-1.86858e-14,-5.64548e-14,-30.2198,-2.76088,94.7221,40.5987,0.0834488,-12.469,21.9452,7.12502,13.605,51.4806,-16.029,1.82564,25.7641,36.4746,-19.0038,-13.8952,9.81013,-29.4672,3.12054,-17.6212,46.2517,-12.1771,2.85162,-19.2028
-8.90363,17.5947,-13.3963,7.18048,-8.61077,-0.565587,7.45927,-0.133722,1.99421,3.34378,-0.00729199,3.58031,-0.727418,-0.0153659,2.57273,-10.4585,3.04247,-5.04783,27.4903,6.3144,-3.41219,10.5204,1.96507,0.394373,1.94809e-14,0,-34.511,3.71377,-78.3752,54.9869,26.3736,166.132,53.897,7.12502,-167.744,83.5178,1.94809e-14,0,-30.5107,-2.80032,94.8311,40.819,-0.199002,-12.7368,21.7802,7.12502,13.3469,51.3327,-15.9881,1.95897,25.6631,36.4223,-19.0317,-14.0239,9.84396,-29.6861,3.18858,-17.5836,45.5634,-11.8,2.80901,-17.3183
-8.90174,17.5899,-13.3705,7.37085,-8.28724,-0.545756,7.56782,-0.164283,1.95951,3.24495,-0.039538,3.66171,-0.888387,-0.032091,2.68023,-10.4859,3.06353,-5.22252,27.4549,6.39999,-3.4696,10.511,1.98172,0.413796,2.62396e-14,-2.3059e-14,-34.6082,3.8483,-78.2795,55.0656,26.1452,166.204,54.0933,7.12502,-167.674,83.71,2.62396e-14,-2.3059e-14,-30.801,-2.60511,94.9675,40.9146,-0.0697635,-13.0944,21.4568,7.12502,13.0022,51.0316,-16.0758,2.01787,25.6524,36.3825,-18.9583,-14.3231,9.01693,-29.9973,3.20001,-17.4791,44.7872,-11.4499,2.63186,-16.3727
-8.89979,17.5987,-13.3394,7.4268,-7.88968,-0.483579,7.68162,-0.15291,1.97073,3.26651,-0.0193509,3.64604,-0.929749,-0.021711,2.65662,-10.3573,3.01074,-5.15946,27.1614,6.32365,-3.61543,10.3856,1.95286,0.338359,5.96354e-15,-1.59028e-14,-34.5751,3.78556,-78.2291,55.0935,25.6987,166.442,54.3331,7.12502,-167.445,83.9359,5.96354e-15,-1.59028e-14,-30.8592,-2.83578,95.0037,40.9646,0.634473,-12.9954,21.6421,7.12502,13.0977,51.2109,-15.9885,1.92853,25.598,36.3078,-18.8377,-14.5588,8.40413,-30.1737,3.01636,-17.3759,43.8604,-11.2866,2.43319,-16.3536
-8.89934,17.6205,-13.3054,7.45615,-7.46297,-0.36672,7.74751,-0.0974849,1.99187,3.3852,0.0523732,3.53958,-0.845902,0.0150679,2.5283,-10.712,2.93431,-5.19187,27.3234,6.20739,-3.39422,10.5049,1.91006,0.417291,2.74323e-14,9.54166e-15,-34.3814,3.61088,-78.2445,55.1169,24.9315,166.894,54.2862,7.12502,-167.009,83.8617,2.74323e-14,9.54166e-15,-30.7054,-3.28571,94.9647,41.0145,1.56451,-12.4488,22.1849,7.12502,13.6245,51.719,-15.8062,1.88241,25.4931,36.167,-18.7406,-14.7529,8.45318,-30.3642,2.78341,-17.2717,42.7874,-11.215,1.94112,-14.1401
-8.89429,17.6389,-13.269,7.44967,-7.1199,-0.33618,7.97125,-0.0386334,2.06866,3.37485,0.145987,3.49791,-0.98274,0.0626343,2.4348,-10.8336,2.899,-5.40223,27.503,6.14347,-3.08296,10.5768,1.88761,0.559442,-8.34896e-15,-9.54166e-15,-34.2672,3.36779,-78.1723,54.8776,24.9016,166.824,54.1584,7.12502,-167.077,83.7382,-8.34896e-15,-9.54166e-15,-30.8342,-3.35326,94.9492,41.0906,2.53677,-11.8047,22.756,7.12502,14.2452,52.2475,-15.5194,1.81901,25.4417,35.9794,-18.7389,-14.7801,8.55501,-30.4294,2.54188,-17.1154,41.584,-11.4047,1.78706,-14.9724
-8.88608,17.6522,-13.2347,7.66313,-6.7727,-0.263582,8.01838,-0.0591976,2.0039,3.20132,0.125083,3.54603,-1.18785,0.0517102,2.52347,-10.4701,2.96302,-5.44584,27.418,6.24106,-3.20083,10.4774,1.92527,0.528074,2.0276e-14,5.56597e-15,-34.3863,3.53453,-78.0288,54.7766,25.1742,166.415,54.2576,7.12502,-167.471,83.862,2.0276e-14,5.56597e-15,-31.1849,-3.21598,95.0376,41.2017,3.33557,-11.6307,23.7371,7.12502,14.4128,53.2167,-15.4902,1.72363,25.3392,35.767,-18.6554,-14.8415,8.6341,-30.7294,2.35501,-17.0693,40.3069,-11.9385,1.73057,-18.6445
-8.87838,17.6612,-13.2036,7.87854,-6.48124,-0.178989,8.00485,-0.0741445,1.9563,3.18942,0.102183,3.55028,-1.19212,0.0401921,2.55668,-10.3747,3.06239,-5.39452,27.2279,6.40834,-3.40741,10.3978,1.99415,0.46253,1.11319e-14,1.43125e-14,-34.3661,3.74831,-77.9415,54.8883,25.3396,166.225,54.0491,7.12502,-167.654,83.6646,1.11319e-14,1.43125e-14,-31.0854,-3.00983,94.9848,41.1422,3.5629,-11.3615,24.7614,7.12502,14.6722,54.2223,-15.5491,1.66075,25.2125,35.577,-18.4704,-14.9463,9.00454,-30.9947,2.21191,-17.0203,38.9693,-12.382,1.44214,-19.3057
-8.86936,17.6681,-13.1625,8.01602,-6.30323,-0.277072,7.93361,-0.0283173,2.21954,3.33443,0.171646,3.47624,-1.00383,0.077226,2.32509,-10.6336,3.10532,-5.04002,27.2483,6.51988,-3.76934,10.4819,2.03392,0.294692,4.37326e-15,7.95139e-15,-34.1817,3.68426,-77.9791,54.9539,25.2362,166.341,53.8658,7.12502,-167.543,83.4746,4.37326e-15,7.95139e-15,-30.759,-2.92827,94.7415,41.1081,3.39453,-10.8319,25.1263,7.12502,15.1824,54.5493,-15.4766,1.71557,25.2626,35.4168,-18.2739,-15.0342,8.76174,-31.0804,2.13244,-16.7696,37.5585,-12.5097,1.16876,-18.8584
-8.86371,17.6731,-13.1241,8.11893,-5.84946,-0.377084,7.98575,-0.0598335,2.43237,3.43177,0.143863,3.48027,-0.930522,0.0653281,2.21214,-10.9283,3.13953,-4.66975,27.3887,6.66318,-4.26101,10.6263,2.06827,0.0830737,1.66979e-14,3.81667e-14,-33.9885,3.61228,-78.0007,55.1067,24.6238,166.639,53.968,7.12502,-167.255,83.559,1.66979e-14,3.81667e-14,-30.4742,-2.93829,94.6468,40.9687,3.95696,-11.1633,25.0634,7.12502,14.8632,54.5103,-15.3444,1.613,25.3852,35.2376,-18.026,-15.293,7.89188,-31.1722,1.74027,-16.4218,36.0754,-12.4176,1.00239,-18.5868
-8.85642,17.6775,-13.0887,8.17455,-5.38154,-0.28295,8.19052,-0.0761134,2.35351,3.36258,0.130253,3.49264,-1.11519,0.0575109,2.27133,-10.7868,3.11692,-4.4119,27.4694,6.6801,-4.64426,10.6546,2.05798,-0.0967406,-7.55382e-15,-5.56597e-15,-33.9984,3.64003,-77.9053,55.0632,24.4591,166.587,54.2021,7.12502,-167.305,83.7962,-7.55382e-15,-5.56597e-15,-30.4363,-2.84727,94.6312,40.6603,4.61804,-11.4892,25.0069,7.12502,14.5492,54.4767,-15.1573,1.54136,25.3067,35.0255,-17.9688,-15.6136,7.54805,-31.2545,1.29272,-16.3105,34.5158,-12.1117,1.16913,-19.6755
-8.8449,17.6891,-13.0414,8.13105,-5.08376,-0.234728,8.32647,-0.0348442,2.36383,3.22004,0.198427,3.4521,-1.33914,0.0913119,2.21786,-10.1162,3.09339,-4.33379,27.4824,6.57102,-4.61099,10.5265,2.03517,-0.124673,-3.18055e-15,2.94201e-14,-34.2836,3.58076,-77.8334,54.8158,24.7362,166.268,54.027,7.12502,-167.612,83.6399,-3.18055e-15,2.94201e-14,-31.0066,-2.71701,94.5058,40.9041,4.50522,-10.7557,26.2485,7.12502,15.2558,55.6659,-14.8264,1.4515,25.2233,34.8037,-17.8915,-15.818,7.1913,-31.1083,0.956772,-16.2036,32.914,-11.6927,1.56579,-20.7497
-8.83352,17.7039,-12.9973,8.20916,-4.83554,-0.0266752,8.29927,0.0574551,2.25609,3.21276,0.309778,3.33428,-1.33426,0.147127,2.14571,-10.2809,3.0754,-4.3033,27.8637,6.53193,-4.41882,10.6933,2.02444,-0.0614979,-1.74931e-14,-2.3059e-14,-34.5222,3.33769,-77.7711,55.1258,24.7093,166.312,53.8617,7.12502,-167.57,83.4721,-1.74931e-14,-2.3059e-14,-31.4432,-2.72229,94.3881,41.4755,4.177,-9.88606,28.4941,7.12502,16.0934,57.8458,-14.6573,1.33098,24.9526,34.5927,-17.7241,-15.9634,6.68479,-31.1534,0.572614,-16.2533,31.3238,-11.2058,2.06216,-20.1935
-8.8301,17.7169,-12.9653,8.40952,-4.57194,0.114371,8.30605,0.159737,2.17452,3.28411,0.434084,3.19202,-1.26662,0.209789,2.03252,-10.7778,2.98566,-4.29648,28.1429,6.39171,-4.15545,10.8843,1.97148,0.0258569,3.97569e-16,2.54444e-14,-34.4392,2.95157,-77.8188,55.4818,24.762,166.386,53.9362,7.12502,-167.499,83.5423,3.97569e-16,2.54444e-14,-31.3934,-2.95751,94.2422,41.7911,4.06827,-10.5217,28.8547,7.12502,15.4812,58.2548,-14.6361,1.51182,24.8067,34.3789,-17.8173,-16.2479,7.00938,-31.452,0.309173,-16.2409,29.7772,-10.6161,2.5329,-20.5933
-8.82567,17.7218,-12.9323,8.65869,-4.19601,0.0306043,8.2386,0.18558,2.24893,3.30256,0.471311,3.21949,-1.21057,0.22904,2.01583,-10.9265,2.91041,-4.4868,28.2617,6.2936,-3.9566,10.945,1.9239,0.120912,7.95139e-15,-1.59028e-14,-34.0493,2.87585,-77.7753,55.3754,24.2174,167.076,53.8838,7.12502,-166.833,83.4481,7.95139e-15,-1.59028e-14,-31.1963,-2.92378,94.1591,41.5937,3.6195,-11.6782,26.5878,7.12502,14.3671,56.0707,-14.6597,1.81437,24.9499,34.21,-17.9002,-16.7063,7.65146,-31.8339,0.119523,-15.9782,28.2396,-10.1635,2.94691,-21.3147
-8.81463,17.7284,-12.8913,8.97385,-3.57855,-0.154452,8.02227,0.143631,2.56066,3.35696,0.428197,3.26214,-1.0316,0.210539,1.88913,-11.2455,2.797,-4.55629,28.3702,6.14849,-3.83221,11.0428,1.85604,0.166488,5.56597e-15,9.54166e-15,-33.5189,2.84077,-77.6749,55.2787,23.8412,167.668,53.5284,7.12502,-166.263,83.055,5.56597e-15,9.54166e-15,-30.83,-2.99018,94.0425,41.2582,2.89871,-11.8769,25.5745,7.12502,14.1756,55.0708,-14.7432,1.82197,25.2067,34.0929,-17.7704,-17.196,7.22566,-32.2565,-0.248584,-15.6225,26.7074,-9.72298,3.45984,-21.2943
-8.80046,17.7316,-12.85,9.06232,-3.08259,-0.175084,8.21606,0.126775,2.5861,3.40805,0.417039,3.35717,-1.086,0.20455,1.97423,-11.365,2.696,-4.79093,28.2579,6.05838,-3.81468,11.0182,1.79641,0.203267,4.37326e-15,5.56597e-15,-33.2072,2.73461,-77.4344,55.2902,24.144,167.684,53.2424,7.12502,-166.247,82.7679,4.37326e-15,5.56597e-15,-30.5183,-2.90385,94.0536,41.0053,2.28234,-11.6433,25.5468,7.12502,14.4007,55.0272,-14.6377,1.67236,25.2406,34.0339,-17.6091,-17.5315,6.26635,-32.4161,-0.597084,-15.4993,25.2392,-9.34449,4.26624,-22.0589
-8.79024,17.7239,-12.8055,9.10579,-2.75487,-0.175686,8.38962,0.101819,2.48951,3.4419,0.385246,3.43237,-1.14745,0.187435,2.1094,-11.2145,2.69266,-5.04662,28.0984,6.06653,-3.73443,10.918,1.79354,0.272676,6.75868e-15,4.77083e-14,-33.024,2.85343,-77.3278,55.3884,23.9697,168.045,53.3473,7.12502,-165.9,82.849,6.75868e-15,4.77083e-14,-30.4157,-2.68413,93.9925,40.8725,1.89614,-12.143,24.6912,7.12502,13.9192,54.2053,-14.4939,1.7061,25.2559,34.0089,-17.7029,-17.9232,5.73148,-32.4431,-0.78725,-15.4383,23.8368,-9.28271,5.24648,-23.207
-8.77888,17.7063,-12.7569,9.16485,-2.30047,-0.223409,8.41219,0.0951441,2.6173,3.53938,0.383124,3.40838,-1.05784,0.18821,2.01304,-11.3551,2.62655,-5.01749,28.1924,5.96358,-3.65167,10.979,1.75412,0.2882,1.47101e-14,3.97569e-15,-32.8412,2.77451,-77.2816,55.5801,23.8555,168.019,53.6151,7.12502,-165.925,83.1185,1.47101e-14,3.97569e-15,-30.2411,-2.89252,93.8669,40.9129,1.5839,-12.1881,24.709,7.12502,13.8758,54.2261,-14.3679,1.85842,25.3395,33.9978,-17.8197,-18.3978,6.10907,-32.4523,-0.79032,-15.4405,22.5266,-9.47379,5.85682,-23.0466
-8.76634,17.6967,-12.7086,9.24261,-1.7725,-0.239433,8.44497,0.147913,2.77034,3.6851,0.459686,3.36078,-0.924554,0.229214,1.87101,-12.0086,2.45904,-4.94921,28.5081,5.77259,-3.58725,11.2308,1.65867,0.289879,-2.38542e-15,4.77083e-15,-32.5286,2.47399,-77.1463,55.6581,23.7077,167.852,53.6872,7.12502,-166.086,83.2017,-2.38542e-15,4.77083e-15,-29.8603,-3.48938,93.8535,40.9212,1.39834,-12.2676,24.3134,7.12502,13.7991,53.8357,-14.2222,1.74633,25.3912,33.9619,-18.0644,-18.6764,6.4685,-32.5746,-1.02135,-15.4315,21.31,-9.38995,6.65253,-22.0924
-8.75361,17.6897,-12.6631,9.4149,-1.3517,-0.340378,8.38476,0.186185,2.89958,3.79232,0.513074,3.3859,-0.779855,0.258234,1.82016,-12.2602,2.34149,-5.03546,28.5019,5.62767,-3.51206,11.2749,1.59008,0.317828,9.54166e-15,1.59028e-14,-32.1204,2.32283,-77.0292,55.6438,23.5539,168.001,53.5009,7.12502,-165.942,83.0055,9.54166e-15,1.59028e-14,-29.5158,-3.82317,93.8603,40.8259,1.09248,-12.4427,24.2275,7.12502,13.6303,53.7612,-14.1445,1.73226,25.5185,33.8576,-18.1278,-18.9356,6.1152,-32.9251,-0.982827,-15.3993,20.2369,-9.19251,7.40017,-22.5305
-8.74033,17.6841,-12.6166,9.61019,-1.04611,-0.434032,8.33699,0.204647,2.97116,3.80889,0.540434,3.4132,-0.736073,0.272913,1.80606,-12.2041,2.30729,-5.16162,28.4676,5.59648,-3.48263,11.2469,1.5697,0.344849,1.98785e-15,3.02153e-14,-31.9137,2.32723,-76.9228,55.5151,24.2348,167.109,53.8268,7.12502,-166.801,83.389,1.98785e-15,3.02153e-14,-29.3761,-3.59729,93.7342,40.7954,0.610348,-10.935,27.7165,7.12502,15.0831,57.147,-14.0841,1.77615,25.6273,33.7042,-17.9064,-19.3,5.02018,-33.2707,-0.880325,-15.3897,19.2059,-9.08916,8.33753,-22.1442
-8.7231,17.6821,-12.5628,9.75091,-0.664653,-0.429616,8.37065,0.158205,2.88308,3.74154,0.479326,3.50155,-0.825275,0.240429,1.95219,-12.0881,2.35685,-5.21551,28.5284,5.70833,-3.58915,11.2504,1.60217,0.328017,1.35174e-14,-1.11319e-14,-31.8226,2.46029,-76.6714,55.1603,25.8026,165.212,54.2428,7.12502,-168.63,83.9146,1.35174e-14,-1.11319e-14,-29.5396,-3.37851,93.7409,41.0182,0.596743,-15.6735,20.0218,7.12502,10.5151,49.7388,-13.9054,1.73011,25.6141,33.5249,-17.7935,-19.6455,3.785,-33.473,-0.834187,-15.5635,18.2326,-9.14721,9.25896,-21.6796
-8.69987,17.6788,-12.5037,9.7999,-0.385205,-0.317222,8.30324,0.215232,2.84788,3.88937,0.541672,3.46722,-0.636018,0.273081,1.93152,-12.3568,2.26654,-5.21782,28.6399,5.63787,-3.66626,11.3521,1.55224,0.296652,3.18055e-15,2.22639e-14,-31.524,2.36388,-76.5096,54.9538,26.2999,164.444,54.3472,7.12502,-169.371,84.0584,3.18055e-15,2.22639e-14,-29.4099,-3.68967,93.7779,41.2974,1.1889,-15.8451,19.7522,7.12502,10.3496,49.4775,-13.6213,1.55129,25.4339,33.3453,-17.9946,-19.7053,4.35548,-33.5552,-0.650455,-15.9886,17.3387,-9.22553,10.059,-21.1999
-8.67927,17.6653,-12.4546,9.89575,-0.15337,-0.451266,8.3039,0.261388,3.03975,4.05915,0.60891,3.45389,-0.458868,0.310657,1.80509,-12.676,2.21592,-5.20426,28.6283,5.58873,-3.65824,11.4126,1.52771,0.296416,4.77083e-15,7.95139e-15,-31.0971,2.29033,-76.5445,54.8912,25.7821,165.182,53.8726,7.12502,-168.66,83.546,4.77083e-15,7.95139e-15,-29.2435,-4.00052,93.7374,41.6299,1.77634,-12.247,25.7747,7.12502,13.819,55.2957,-13.4367,1.59183,25.5516,33.136,-17.9011,-19.9755,3.65461,-33.8163,-0.732299,-15.9442,16.5777,-9.45899,11.2118,-20.843
-8.65466,17.6487,-12.4014,9.88429,0.0763893,-0.660558,8.41434,0.271326,3.28316,4.17502,0.641147,3.49631,-0.397039,0.330386,1.71002,-12.9382,2.18042,-5.36531,28.7229,5.5779,-3.54942,11.4949,1.51084,0.366836,3.97569e-16,1.59028e-14,-30.8072,2.329,-76.4319,54.9212,26.3782,165.081,53.1885,7.12502,-168.757,82.8673,3.97569e-16,1.59028e-14,-29.2039,-3.91101,93.6862,41.9035,1.4735,-7.17639,34.3539,7.12502,18.7012,63.475,-13.1239,1.52521,25.7276,32.9267,-17.8099,-20.1994,2.78778,-33.8965,-1.17095,-15.6591,15.8647,-9.66395,12.8736,-20.8184
-8.62345,17.638,-12.3303,9.83516,0.174296,-0.862525,8.23531,0.391328,3.61816,4.44544,0.799345,3.46174,-0.0128614,0.41921,1.47665,-13.3117,2.06427,-5.43298,28.8353,5.41732,-3.36357,11.6064,1.44391,0.431851,-1.98785e-15,6.36111e-15,-30.49,1.9763,-76.2956,55.0272,27.3122,164.362,52.9956,7.12502,-169.451,82.7108,-1.98785e-15,6.36111e-15,-28.9889,-5.18432,94.2866,40.5382,8.00479,-19.5348,16.9154,7.12502,6.78892,46.7865,-12.6866,1.30807,25.8245,32.716,-18.0169,-20.1154,2.0801,-33.8178,-2.05536,-15.1631,15.2492,-9.92906,15.0834,-20.6283
-8.59791,17.6257,-12.2644,9.89929,0.311545,-1.04628,8.04499,0.498942,3.78456,4.64229,0.931477,3.48475,0.299299,0.492036,1.40082,-13.6219,1.96005,-5.40999,28.922,5.30743,-3.39268,11.7067,1.38517,0.407886,-5.96354e-15,2.38542e-15,-30.0213,1.99244,-76.1833,54.914,27.1848,164.223,53.105,7.12502,-169.585,82.8271,-5.96354e-15,2.38542e-15,-28.5002,-4.92326,93.9953,40.9309,6.30673,-17.4229,19.1308,7.12502,8.82726,48.9262,-12.368,1.32799,25.9574,32.5244,-18.352,-20.2164,2.46217,-33.9176,-3.03749,-14.5892,14.6784,-10.25,17.2908,-20.312
-8.57866,17.6113,-12.2093,10.0037,0.558482,-1.21446,8.15202,0.51023,3.78479,4.63201,0.954853,3.58565,0.228193,0.501808,1.50212,-13.7618,1.89183,-5.60964,29.0441,5.25626,-3.29523,11.7765,1.34594,0.473363,1.19271e-14,4.6118e-14,-29.6437,2.18263,-76.0719,54.6714,26.9822,164.302,53.048,7.12502,-169.508,82.7662,1.19271e-14,4.6118e-14,-28.4522,-4.56878,93.8596,41.3573,5.87586,-15.7878,21.4846,7.12502,10.4048,51.2071,-12.2005,1.46393,26.1322,32.3749,-18.4782,-20.4551,2.93898,-34.0786,-3.59906,-14.2446,14.1133,-10.6459,19.0263,-19.2952
-8.55858,17.5954,-12.1542,10.1163,0.776416,-1.26654,8.05964,0.514452,3.66038,4.604,0.948676,3.64027,0.246671,0.496113,1.62938,-13.3954,1.85739,-5.74347,28.9254,5.17387,-3.20259,11.6494,1.31835,0.512821,5.96354e-15,1.98785e-14,-29.5102,2.46541,-76.0311,54.5826,26.7375,164.48,52.8744,7.12502,-169.337,82.5838,5.96354e-15,1.98785e-14,-28.5228,-4.3853,93.8503,41.489,6.0282,-15.8513,21.8169,7.12502,10.3436,51.5425,-12.0537,1.58677,26.1819,32.286,-18.5767,-20.7435,3.16517,-34.1305,-3.76969,-14.2392,13.5464,-11.1749,20.0991,-17.4397
-8.53594,17.5771,-12.0949,10.216,0.96227,-1.39379,7.83469,0.456712,3.45517,4.29138,0.863338,3.83411,0.0402645,0.445051,1.95059,-11.664,2.07302,-5.58465,28.4543,5.39307,-3.67368,11.137,1.42896,0.313519,-1.19271e-15,3.18055e-14,-30.1544,3.16014,-75.9195,54.7218,26.9645,164.185,52.963,7.12502,-169.621,82.6869,-1.19271e-15,3.18055e-14,-29.4637,-3.89384,94.0204,41.6958,6.16252,-16.5287,21.3185,7.12502,9.6901,51.0756,-11.8784,1.54036,26.2779,32.21,-18.7988,-20.8492,3.22552,-34.1825,-3.90195,-14.1829,13.0858,-11.2744,21.0393,-16.5145
-8.51467,17.5598,-12.0392,10.2407,1.0898,-1.52647,7.97854,0.566037,3.41886,4.37091,1.0108,3.86787,0.04075,0.518016,1.99396,-11.8808,2.10982,-5.36926,28.6112,5.50145,-3.91982,11.2554,1.46153,0.205811,-1.03368e-14,-3.18055e-14,-29.9452,3.01349,-75.8002,54.8257,27.3739,163.873,53.1094,7.12502,-169.923,82.8481,-1.03368e-14,-3.18055e-14,-29.4948,-3.83148,93.9568,41.952,5.68726,-15.9944,21.2469,7.12502,10.2056,50.9793,-11.6466,1.54204,26.3926,32.1391,-18.8915,-21.0347,2.77093,-34.2004,-3.96192,-14.1092,12.733,-11.4752,21.8367,-15.0922
-8.48347,17.5444,-11.9771,10.3286,1.28546,-1.73343,8.04736,0.627298,3.58999,4.29212,1.11236,3.87647,-0.0763054,0.570095,1.89747,-11.8027,2.09115,-5.42751,28.9348,5.45808,-3.74388,11.3563,1.44633,0.273971,2.10712e-14,2.54444e-14,-29.9303,3.02012,-75.7819,54.8836,26.965,164.342,52.8813,7.12502,-169.47,82.5975,2.10712e-14,2.54444e-14,-29.718,-3.62825,93.883,42.1446,4.84948,-15.3035,21.2986,7.12502,10.872,50.9972,-11.4839,1.2912,26.5265,32.0532,-19.0451,-21.0405,2.04482,-34.3144,-4.09062,-13.973,12.573,-11.8307,22.5577,-13.4798
-8.45342,17.5282,-11.9137,10.4196,1.44773,-1.89489,8.05901,0.746142,3.67752,4.25939,1.27861,3.88422,-0.115845,0.653872,1.84279,-11.6744,2.09219,-5.35854,29.1236,5.4801,-3.83973,11.4095,1.44852,0.228895,1.74931e-14,2.70347e-14,-29.8103,2.78522,-75.6942,54.8236,27.036,164.421,52.5462,7.12502,-169.393,82.2585,1.74931e-14,2.70347e-14,-29.7025,-3.55867,93.8505,42.2752,3.77289,-14.2195,22.6821,7.12502,11.9174,52.3229,-11.3206,1.00842,26.6163,31.9646,-19.2832,-20.974,1.84561,-34.462,-4.19383,-13.8971,12.5981,-12.114,23.1331,-12.666
-8.42951,17.5087,-11.851,10.4728,1.39476,-2.25319,8.21301,0.889427,3.73036,4.2234,1.48513,4.00912,-0.240809,0.754939,1.92317,-11.0612,2.28519,-4.77599,28.4102,5.76758,-4.70174,11.0595,1.58056,-0.156699,8.74653e-15,6.36111e-15,-29.6107,2.78421,-75.5545,54.6095,27.6653,164.163,52.2613,7.12502,-169.643,81.9863,8.74653e-15,6.36111e-15,-29.8765,-3.381,93.767,42.9697,2.22672,-11.4864,26.3273,7.12502,14.5519,55.7969,-11.0835,1.20944,26.9446,31.8738,-19.9029,-21.0048,2.81512,-34.6025,-4.01622,-13.651,12.8129,-12.0661,23.5988,-11.815
-8.406,17.487,-11.7799,10.3975,1.35896,-2.48919,8.35259,1.00064,3.71328,4.25447,1.6388,4.04303,-0.287996,0.830611,1.95309,-10.6154,2.42255,-4.28525,28.0513,5.91102,-5.12519,10.8626,1.67253,-0.381062,-5.56597e-15,-7.15625e-15,-29.3474,2.78134,-75.5394,54.366,27.8127,164.252,52.3041,7.12502,-169.557,82.0248,-5.56597e-15,-7.15625e-15,-30.0894,-3.02806,93.5248,43.7,0.470106,-8.40517,29.3126,7.12502,17.5189,58.5432,-10.7066,1.48233,27.1533,31.8269,-20.1817,-21.2158,3.20147,-34.565,-3.89088,-13.5357,13.0307,-11.7041,23.8296,-11.6313
-8.37431,17.4705,-11.7024,10.4164,1.46004,-2.65628,8.21515,0.992102,3.75088,4.33542,1.61686,4.04556,-0.126996,0.822156,1.94038,-10.612,2.55483,-4.17278,28.2882,6.08332,-5.08646,10.9542,1.75746,-0.365538,6.75868e-15,9.54166e-15,-29.089,2.84167,-75.5974,54.2859,27.8598,164.323,52.4067,7.12502,-169.488,82.1238,6.75868e-15,9.54166e-15,-30.0804,-2.86053,93.5274,43.3192,1.97395,-10.768,26.4115,7.12502,15.244,55.8298,-10.3783,1.12409,27.2206,31.7268,-20.1057,-21.1046,2.49609,-34.6018,-3.94939,-13.4911,13.3727,-11.3139,23.7866,-12.6079
-8.33908,17.4582,-11.6321,10.5085,1.43604,-2.71127,8.21868,1.05444,3.65576,4.32924,1.69295,4.01092,-0.13798,0.858912,1.95127,-10.5687,2.58336,-4.0344,28.3524,6.13545,-5.2198,10.9798,1.77866,-0.431433,-3.57812e-15,-9.54166e-15,-29.0577,2.72952,-75.6263,54.3284,28.1756,164.242,52.3096,7.12502,-169.566,82.0307,-3.57812e-15,-9.54166e-15,-29.9616,-2.55352,93.4759,43.0074,1.73738,-10.8864,26.6445,7.12502,15.1299,56.0715,-10.1314,0.705703,27.1074,31.5916,-20.0147,-20.7825,1.66367,-34.6993,-3.62244,-13.7574,13.7871,-10.8698,23.2246,-13.0554
-8.30518,17.4595,-11.5517,10.5867,1.21902,-2.89572,8.18154,1.21914,3.59057,4.32831,1.90377,4.00322,-0.122205,0.963181,1.96344,-10.4472,2.53983,-4.0774,28.1854,6.05388,-5.19424,10.8887,1.75017,-0.426501,-1.90833e-14,3.97569e-15,-28.8755,2.61198,-75.6172,54.2303,28.5112,164.071,52.3637,7.12502,-169.732,82.093,-1.90833e-14,3.97569e-15,-30.0139,-2.50931,93.4451,42.974,1.54701,-10.7278,26.5976,7.12502,15.2827,56.013,-9.87264,0.70947,27.1135,31.3996,-19.8536,-20.6701,0.651668,-34.7984,-3.0091,-13.9621,14.2628,-9.81809,22.7808,-14.2383
-8.27112,17.4639,-11.4725,10.6272,1.02257,-3.00234,8.24347,1.37122,3.37637,4.33445,2.09356,4.0078,-0.160056,1.05424,2.07105,-10.4958,2.50176,-3.98219,28.2791,6.01523,-5.27408,10.9394,1.72874,-0.475491,-1.78906e-14,-2.22639e-14,-28.6832,2.42702,-75.6187,54.1391,28.6352,164.073,52.71,7.12502,-169.73,82.4393,-1.78906e-14,-2.22639e-14,-30.105,-2.31398,93.3693,43.2731,0.838829,-9.05474,28.024,7.12502,16.8937,57.3092,-9.57676,0.882323,27.0524,31.2102,-19.4593,-20.6368,-0.158175,-34.898,-2.305,-14.2848,14.7225,-8.16377,22.4689,-15.4685
-8.24055,17.4741,-11.4018,10.7352,0.982272,-2.99639,8.41875,1.48676,3.14049,4.29624,2.24102,3.91791,-0.304259,1.12405,2.09193,-10.6593,2.46796,-3.87708,28.4774,5.96204,-5.22982,11.0474,1.7095,-0.481825,-4.37326e-15,-1.98785e-14,-28.5842,2.01487,-75.7073,54.1312,28.7377,164.045,52.9212,7.12502,-169.757,82.6518,-4.37326e-15,-1.98785e-14,-30.0584,-2.37478,93.3587,43.1628,1.68994,-9.76884,27.4562,7.12502,16.2062,56.7988,-9.34582,1.11113,26.9405,31.0471,-19.1406,-20.7064,-1.00631,-35.1755,-1.39025,-14.8212,15.1842,-6.33553,21.9599,-16.2022
-8.21127,17.4853,-11.3304,10.8268,1.07949,-2.87057,8.48316,1.49944,2.88618,4.30877,2.24048,3.75804,-0.330965,1.12171,2.06696,-11.0691,2.49316,-4.02925,28.8165,6.02739,-5.00504,11.248,1.72663,-0.36053,-2.70347e-14,-2.46493e-14,-28.3856,1.57175,-75.9267,54.0144,29.2913,163.637,53.0936,7.12502,-170.15,82.8432,-2.70347e-14,-2.46493e-14,-29.9099,-2.28611,93.1938,42.864,2.24789,-10.3372,26.8335,7.12502,15.6589,56.2199,-9.19799,1.36141,26.7484,31.0427,-19.0041,-20.9711,-1.40615,-35.3345,-0.693208,-15.4424,15.4392,-5.06472,21.1278,-16.1781
-8.18184,17.496,-11.2552,10.9139,1.2,-2.70696,8.38937,1.54307,2.58998,4.38135,2.26723,3.61134,-0.210994,1.13328,2.08256,-11.3243,2.4661,-4.18942,29.0954,5.98664,-4.72215,11.3909,1.70843,-0.231572,-1.15295e-14,1.74931e-14,-28.1675,1.01812,-76.1012,53.885,29.5046,163.735,53.0593,7.12502,-170.056,82.8044,-1.15295e-14,1.74931e-14,-29.6932,-2.39704,93.1076,42.4649,2.5476,-10.6397,26.3553,7.12502,15.3675,55.7642,-9.1044,1.53028,26.5201,31.1488,-18.8403,-21.2001,-1.89677,-35.3664,-0.322123,-15.935,15.5874,-4.51952,19.9596,-14.5605
-8.15056,17.5112,-11.1777,10.9652,1.46289,-2.32175,8.54506,1.53038,2.1489,4.40039,2.22252,3.37372,-0.284674,1.10678,2.0833,-11.36,2.45403,-4.03417,29.1311,5.92099,-4.65926,11.4115,1.70104,-0.242818,-2.74323e-14,-2.38542e-14,-28.0765,0.450618,-76.3479,53.8259,29.2101,164.213,52.771,7.12502,-169.594,82.4935,-2.74323e-14,-2.38542e-14,-29.5423,-2.37148,92.9301,42.1446,2.73177,-10.6714,26.3774,7.12502,15.337,55.7886,-8.99215,1.4721,26.0636,31.3759,-18.6196,-21.3248,-2.15472,-35.2875,0.331859,-16.9044,15.63,-3.84302,18.5087,-13.5797
-8.11819,17.5228,-11.0947,11.0814,1.70446,-2.14496,8.64049,1.49737,1.90265,4.34983,2.16506,3.22201,-0.392167,1.0759,2.06566,-11.3237,2.51975,-4.04845,29.0997,5.99342,-4.58908,11.3888,1.74267,-0.20598,-5.96354e-15,-7.15625e-15,-27.9861,0.106812,-76.565,53.6994,28.8413,164.514,52.6672,7.12502,-169.304,82.375,-5.96354e-15,-7.15625e-15,-29.5685,-2.27318,92.7987,41.833,2.85866,-11.0567,26.6414,7.12502,14.9658,56.0806,-8.96351,1.30708,25.8002,31.6549,-18.4081,-21.3747,-2.52236,-35.2524,1.08983,-17.6885,15.6969,-3.13253,17.7007,-13.1421
-8.08708,17.5402,-11.0108,11.307,1.74843,-2.021,8.51171,1.53508,1.56015,4.25279,2.18732,3.10646,-0.431183,1.0836,2.13774,-11.151,2.57533,-4.22293,29.075,6.04741,-4.41177,11.3322,1.77445,-0.107775,-2.46493e-14,3.97569e-15,-28.0597,-0.386039,-76.7888,53.6756,28.4912,164.819,52.688,7.12502,-169.009,82.3803,-2.46493e-14,3.97569e-15,-29.6751,-1.79327,92.609,41.5449,2.22038,-10.5502,27.6102,7.12502,15.4538,57.0124,-9.1447,1.3203,25.5576,31.9656,-17.7426,-21.439,-4.55532,-35.2693,1.29816,-18.0524,15.7826,-2.53142,17.8035,-12.8048
-8.05147,17.5504,-10.9192,11.4625,1.91835,-2.0823,8.33401,1.54474,1.48321,4.26064,2.18762,3.02647,-0.325273,1.08376,2.10313,-11.1704,2.54721,-4.33261,29.0274,5.9801,-4.239,11.3067,1.75457,-0.0344923,5.96354e-15,-7.95139e-16,-28.0688,-1.03301,-77.0008,53.7679,28.4024,164.989,52.6456,7.12502,-168.846,82.3292,5.96354e-15,-7.95139e-16,-29.5559,-1.63138,92.4959,41.1211,2.31277,-10.2565,26.4056,7.12502,15.7366,55.7858,-9.16934,1.40328,25.5348,32.2458,-17.4631,-21.3777,-4.37826,-35.2849,1.55127,-18.2784,15.98,-2.03797,17.5026,-12.3299
-8.00501,17.5636,-10.8241,11.5316,2.31803,-2.09431,8.11369,1.45699,1.51366,4.39285,2.06196,2.98922,-0.0614419,1.02236,2.06651,-11.292,2.53647,-4.43612,28.9189,5.96816,-4.16539,11.2835,1.74874,0.0103508,4.77083e-15,2.14687e-14,-27.9768,-1.46911,-77.0716,53.7916,28.4109,164.645,52.826,7.12502,-169.178,82.5272,4.77083e-15,2.14687e-14,-29.2506,-1.50467,92.5264,40.5646,2.82531,-10.8948,25.4152,7.12502,15.1218,54.8428,-8.99472,1.0826,25.4341,32.5193,-17.4152,-21.0246,-3.36864,-35.2396,1.69145,-18.6079,16.2158,-1.66302,16.7103,-12.867
-7.95999,17.5736,-10.7319,11.6019,2.59666,-2.24689,7.86775,1.43248,1.63902,4.47478,2.02713,2.98051,0.164457,1.00761,1.99802,-10.8741,2.54364,-4.36518,28.4695,5.94774,-4.344,11.0359,1.75275,-0.076976,-1.23246e-14,-5.56597e-15,-28.1286,-1.85083,-77.2046,54.0289,28.0935,164.637,53.1754,7.12502,-169.186,82.877,-1.23246e-14,-5.56597e-15,-29.035,-1.42576,92.5373,40.2075,3.04547,-10.9939,25.3144,7.12502,15.0264,54.7491,-8.87211,0.822772,25.4623,32.7742,-16.9191,-20.754,-4.01326,-35.2448,2.00799,-18.7995,16.5203,-1.16681,16.0594,-15.3528
-7.91954,17.5889,-10.6448,11.6237,2.70574,-2.41761,7.83972,1.51281,1.68406,4.49321,2.13446,2.90968,0.200735,1.06286,1.89259,-10.5096,2.5225,-4.23671,28.1112,5.85208,-4.40317,10.8311,1.73807,-0.138387,-2.54444e-14,-1.90833e-14,-28.3263,-2.34738,-77.4675,54.2484,27.1762,165.23,53.4152,7.12502,-168.614,83.0861,-2.54444e-14,-1.90833e-14,-28.8445,-1.30514,92.4208,39.966,2.76774,-10.1847,26.5098,7.12502,15.8058,55.8845,-8.76943,0.804893,25.5071,33.0549,-16.3257,-20.508,-4.67467,-35.0869,2.08097,-18.7307,16.736,-0.925003,16.1452,-15.6795
-7.87537,17.6038,-10.5595,11.8397,2.76632,-2.68352,7.69838,1.59507,1.81194,4.4095,2.2492,2.85635,0.196713,1.12291,1.75969,-10.5418,2.55974,-3.92903,28.2229,5.9046,-4.58898,10.8949,1.7677,-0.250071,-1.98785e-14,-7.95139e-15,-28.5732,-2.56199,-77.719,54.3706,26.257,165.737,53.3404,7.12502,-168.125,82.9837,-1.98785e-14,-7.95139e-15,-28.7444,-1.29607,92.3043,39.7757,2.43534,-10.2579,26.6388,7.12502,15.7353,56.0191,-9.005,0.823888,25.5969,33.4005,-15.5902,-20.3315,-5.47437,-35.1045,2.15518,-18.5757,16.875,-0.943942,16.3377,-14.7559
-7.83211,17.6259,-10.4678,12.0999,2.57192,-2.89892,7.42348,1.69063,1.75821,4.2514,2.36763,2.78564,0.183343,1.18176,1.71316,-10.255,2.63646,-3.69784,28.3594,5.98449,-4.68987,10.8996,1.81719,-0.320856,0,1.19271e-14,-29.0784,-2.44842,-78.0186,54.4993,25.7512,165.928,53.0255,7.12502,-167.94,82.658,0,1.19271e-14,-28.7842,-1.29302,92.2276,39.0395,3.6177,-13.2079,22.2675,7.12502,12.8928,51.8492,-9.32826,0.86066,25.5173,33.8253,-14.8189,-19.8078,-6.11802,-35.0277,2.15576,-18.3833,16.9528,-0.880161,16.4815,-15.0099
-7.79283,17.6479,-10.3745,12.2354,2.3326,-3.05603,7.39531,1.83824,1.5709,4.09206,2.55571,2.75068,0.0241128,1.2726,1.76552,-9.99731,2.61272,-3.7989,28.3967,5.91252,-4.52559,10.852,1.79742,-0.257892,3.35946e-14,1.03368e-14,-29.5577,-2.32208,-78.227,54.5728,25.5426,165.801,52.71,7.12502,-168.062,82.3496,3.35946e-14,1.03368e-14,-28.8636,-1.10143,92.2318,38.581,4.26676,-14.2861,20.6932,7.12502,11.8532,50.3377,-9.47942,1.05188,25.4101,34.306,-14.231,-19.339,-6.62119,-34.7666,2.32129,-18.2874,16.9652,-0.833323,16.3941,-14.9717
-7.74938,17.6633,-10.2732,12.2364,2.33982,-2.99373,7.55378,1.87388,1.31755,3.9731,2.59452,2.63432,-0.193212,1.28913,1.7761,-10.1878,2.62032,-3.96281,28.7388,5.89173,-4.14907,10.9999,1.7978,-0.0934697,3.37934e-15,1.66979e-14,-29.8344,-1.96802,-78.5533,54.5611,24.7511,165.861,52.6989,7.12502,-168.004,82.3351,3.37934e-15,1.66979e-14,-29.0267,-1.06705,92.1576,38.6091,4.46393,-13.4329,22.1141,7.12502,12.6759,51.7094,-9.42905,0.864011,25.0925,34.8086,-13.7801,-18.6392,-6.48092,-34.3846,2.40037,-18.4689,16.9464,-0.58359,16.3164,-14.0134
-7.70611,17.676,-10.1664,12.1008,2.79834,-3.04395,7.71596,1.74635,1.29165,3.89175,2.43096,2.58936,-0.362345,1.20762,1.74977,-10.1967,2.64526,-4.01417,28.9573,5.86748,-3.84321,11.0702,1.80879,0.0232574,-5.1684e-15,7.15625e-15,-30.1605,-1.48685,-78.8816,54.7309,23.835,166.023,53.1641,7.12502,-167.849,82.7912,-5.1684e-15,7.15625e-15,-29.1457,-1.16077,92.1324,38.4579,4.70694,-11.9431,24.7758,7.12502,14.1118,54.2766,-9.20966,0.262548,24.9986,35.2955,-12.9788,-17.9276,-6.01527,-33.9946,2.72212,-18.7221,16.984,-0.233012,15.5757,-12.4221
-7.66898,17.6877,-10.058,11.7824,3.38452,-3.09392,7.86143,1.57849,1.16764,3.96274,2.20309,2.59988,-0.369419,1.09256,1.84547,-10.1473,2.63171,-3.99346,28.9653,5.79713,-3.69404,11.0567,1.79698,0.064059,5.96354e-16,5.96354e-15,-30.2927,-1.13695,-79.2062,54.8133,23.1303,166.175,53.3538,7.12502,-167.702,82.9722,5.96354e-16,5.96354e-15,-29.1887,-1.1127,92.0933,38.3271,4.65331,-10.7249,26.8456,7.12502,15.2855,56.2607,-8.78806,-0.241094,25.0049,35.8125,-12.1565,-17.5031,-5.77334,-33.3974,3.08315,-18.9827,17.048,-0.260781,14.553,-11.3061
-7.62415,17.705,-9.9548,11.7383,3.6002,-3.10152,7.76969,1.48756,0.953148,3.94372,2.06671,2.59347,-0.342581,1.02212,1.9723,-9.99684,2.74082,-3.86611,28.921,5.94289,-3.80381,11.0176,1.86766,0.0173964,3.33958e-14,1.19271e-14,-30.4017,-0.560242,-79.4906,54.8157,22.6938,166.283,53.2505,7.12502,-167.598,82.8626,3.33958e-14,1.19271e-14,-29.4549,-0.891243,92.0703,38.6376,4.57256,-10.3346,27.9575,7.12502,15.6614,57.3436,-8.76484,-0.566787,24.8099,36.3721,-11.3824,-16.9495,-6.18758,-33.0472,3.7147,-19.3916,17.0583,-0.276894,13.4499,-11.8463
-7.57287,17.7208,-9.85947,12.0575,3.75389,-3.07796,7.45909,1.4629,0.855238,3.72971,2.02487,2.47345,-0.390219,1.00169,1.91097,-9.63128,2.78135,-3.66694,28.7672,5.92988,-3.82798,10.8908,1.89261,-0.0342456,-5.76476e-15,-9.14409e-15,-30.8793,-0.18817,-79.8116,55.1655,22.4355,166.271,53.3021,7.12502,-167.609,82.9149,-5.76476e-15,-9.14409e-15,-29.7718,-1.02081,92.0196,39.0231,4.66013,-9.88563,29.1487,7.12502,16.0938,58.5004,-9.25904,-0.991582,24.4977,37.0318,-10.6494,-16.1817,-6.29868,-33.1412,4.24476,-19.8597,17.095,-0.219291,12.6474,-11.6299
-7.52188,17.7371,-9.76105,12.2717,4.41939,-2.90146,7.18036,1.24687,0.724428,3.61577,1.72646,2.36167,-0.346074,0.852744,1.8966,-9.74949,2.71414,-3.86105,28.8495,5.79439,-3.49891,10.9263,1.84327,0.103288,-6.95746e-15,-7.95139e-16,-31.2117,0.178696,-80.1764,55.5753,22.2535,166.355,53.3058,7.12502,-167.529,82.9137,-6.95746e-15,-7.95139e-16,-29.9365,-1.34833,92.009,39.3202,4.72622,-9.90882,29.3528,7.12502,16.0715,58.7063,-9.66287,-1.75288,24.1727,37.8268,-9.95175,-15.5522,-7.05274,-33.147,4.39176,-20.4426,17.0931,0.0076513,11.8767,-10.8881
-7.48077,17.7482,-9.66465,12.2879,4.9367,-2.93861,7.22392,1.08021,0.614788,3.56085,1.5014,2.36508,-0.423327,0.739671,1.97691,-10.1964,2.63523,-4.2411,29.0376,5.68623,-3.0805,11.0612,1.78751,0.315009,1.11319e-14,5.56597e-15,-31.2953,0.827587,-80.5112,55.7372,21.7918,166.661,53.3709,7.12502,-167.234,82.9606,1.11319e-14,5.56597e-15,-29.9693,-1.33296,91.97,39.1377,5.0341,-10.9501,26.8956,7.12502,15.0686,56.3271,-9.97399,-2.16785,24.113,38.6743,-9.05963,-15.1222,-7.71052,-32.9654,4.60567,-20.6981,17.1622,0.0658221,11.1176,-10.7989
-7.44251,17.7618,-9.5758,12.2615,5.09743,-2.94982,7.46987,1.10348,0.401837,3.47355,1.52438,2.30821,-0.654033,0.750161,2.03039,-10.3432,2.57989,-4.14138,28.9925,5.59383,-3.08023,11.0757,1.75541,0.289558,8.54774e-15,-7.15625e-15,-31.3261,1.18538,-80.7986,55.7411,21.4956,167.085,53.4136,7.12502,-166.825,82.9773,8.54774e-15,-7.15625e-15,-30.0403,-1.54995,91.9548,39.2081,4.70855,-10.8528,27.1055,7.12502,15.1623,56.5301,-10.3024,-2.40151,23.9202,39.5458,-8.0268,-14.5353,-6.92907,-32.7402,4.92441,-20.9567,17.2921,-0.0376735,10.3567,-10.4883
-7.39627,17.7748,-9.4763,12.2767,5.38197,-2.94563,7.35377,1.07474,0.288162,3.44812,1.47691,2.24474,-0.615747,0.725944,2.03436,-10.1597,2.60824,-3.79629,28.7063,5.60363,-3.34199,10.9477,1.779,0.132955,1.11319e-14,8.34896e-15,-31.5207,1.38507,-81.0741,55.9973,21.4969,167.319,53.1794,7.12502,-166.6,82.7284,1.11319e-14,8.34896e-15,-30.0541,-1.87689,91.9585,39.4007,4.29799,-10.3492,28.507,7.12502,15.6473,57.8942,-10.5747,-2.88879,23.6731,40.4225,-7.03922,-13.8122,-6.74448,-32.5931,5.33874,-21.3563,17.5612,-0.0577988,9.27119,-9.94637
-7.3477,17.7911,-9.37156,12.317,5.59591,-2.8179,7.14089,0.991542,0.0127174,3.4216,1.34614,2.19461,-0.52598,0.658257,2.15097,-9.88313,2.61191,-3.85149,28.3464,5.60275,-3.43073,10.7584,1.77956,0.103629,1.48095e-14,1.19271e-14,-31.5913,1.86309,-81.3343,55.9684,21.6737,167.304,52.8281,7.12502,-166.613,82.3781,1.48095e-14,1.19271e-14,-30.0637,-1.99017,92.0037,39.5377,4.24839,-10.1667,28.9287,7.12502,15.8231,58.3021,-10.8999,-3.36464,23.2705,41.3626,-6.01484,-13.1652,-5.98386,-32.4529,5.91485,-21.9767,17.7892,0.0846927,8.25345,-9.90781
-7.30121,17.8063,-9.27608,12.3311,5.60689,-2.92266,7.08025,0.974526,-0.0972023,3.39252,1.31652,2.19266,-0.523629,0.642539,2.21368,-9.63143,2.5874,-3.9037,27.8598,5.56635,-3.56963,10.5303,1.76261,0.0520405,1.13307e-14,1.63003e-14,-31.6719,2.27345,-81.5984,55.9561,22.0809,166.879,52.9515,7.12502,-167.023,82.5279,1.13307e-14,1.63003e-14,-29.969,-2.08663,91.9894,39.514,4.70247,-10.4416,28.2381,7.12502,15.5584,57.6322,-11.3268,-3.57818,23.0919,42.3033,-4.66321,-12.5443,-4.65297,-32.3514,6.19333,-22.1546,18.0086,0.26467,8.04186,-9.66969
-7.25725,17.8158,-9.18615,12.3131,5.63974,-2.74469,7.21755,0.989969,-0.448902,3.31504,1.31566,2.08258,-0.684535,0.640855,2.29502,-9.4179,2.62409,-3.51327,27.7095,5.56225,-3.74415,10.447,1.78959,-0.0808634,1.8487e-14,1.41137e-14,-32.104,2.59433,-81.9168,56.3665,21.6181,167.27,53.0063,7.12502,-166.646,82.5584,1.8487e-14,1.41137e-14,-29.9656,-2.33494,91.9601,39.5345,4.99951,-10.6825,27.0726,7.12502,15.3263,56.4847,-11.7698,-3.82285,22.624,43.2963,-3.13757,-11.8979,-3.65038,-32.0705,6.30163,-22.5736,18.1327,0.469923,7.71961,-8.39118
-7.20667,17.8279,-9.08671,12.1447,5.85361,-2.578,7.42391,0.976815,-0.60871,3.21891,1.28809,1.9449,-0.896924,0.628617,2.24083,-8.85662,2.57776,-2.97964,27.187,5.45643,-4.23589,10.1731,1.76812,-0.367444,-7.25564e-15,-1.17283e-14,-32.6552,2.78509,-82.2148,56.7535,21.2339,167.437,53.1425,7.12502,-166.486,82.6839,-7.25564e-15,-1.17283e-14,-30.2432,-2.74754,91.9397,39.8946,4.88239,-10.4622,27.3581,7.12502,15.5385,56.7538,-12.0116,-4.32499,22.1282,44.3272,-2.00722,-11.1424,-2.26512,-31.5417,6.74734,-23.1621,18.215,0.664816,6.80537,-7.8481
-7.1547,17.8382,-8.99186,12.0371,6.03247,-2.55523,7.34147,0.953924,-0.621725,3.24602,1.25494,1.84785,-0.820142,0.611908,2.15217,-9.52169,2.47164,-3.72799,27.9813,5.3077,-3.34197,10.5476,1.68678,0.0717519,1.64991e-14,-3.18055e-15,-32.8739,3.01767,-82.4907,56.8775,21.3729,166.735,53.3109,7.12502,-167.162,82.8961,1.64991e-14,-3.18055e-15,-30.1832,-2.94601,91.8502,40.0738,4.14621,-9.56171,28.9035,7.12502,16.4057,58.2298,-12.392,-4.77804,21.791,45.3924,-0.777202,-10.4046,-1.99836,-31.1248,7.04281,-23.5279,18.2327,0.922545,6.25447,-8.4636
-7.10872,17.8454,-8.9124,12.1648,6.07806,-2.61558,7.18589,1.03177,-0.593744,3.21466,1.35818,1.72619,-0.767361,0.664168,2.00482,-9.82839,2.29458,-3.82954,28.1114,5.02343,-3.0426,10.6434,1.57192,0.168312,5.86415e-15,3.18055e-15,-32.8947,3.03681,-82.7779,56.7604,21.517,166.863,53.3163,7.12502,-167.038,82.8937,5.86415e-15,3.18055e-15,-29.8208,-3.25975,91.7223,40.0641,3.31985,-8.27257,30.4177,7.12502,17.6466,59.6369,-13.1851,-4.95958,21.6142,46.487,0.86167,-9.79565,0.39552,-31.0571,6.62261,-23.4814,18.327,1.14981,6.53383,-8.00448
-7.06999,17.8544,-8.82625,12.0997,6.08391,-2.5136,7.29829,1.11508,-0.851619,3.18288,1.45099,1.64627,-0.870055,0.709763,2.05771,-9.45164,2.201,-3.45359,27.4302,4.85756,-3.44209,10.3363,1.51718,-0.0647784,-2.6339e-14,-8.34896e-15,-32.9556,3.13276,-83.0246,56.749,20.7387,167.525,53.3242,7.12502,-166.401,82.8601,-2.6339e-14,-8.34896e-15,-29.6467,-3.9224,91.9392,39.6464,5.15127,-10.8458,27.0209,7.12502,15.1691,56.4449,-13.802,-4.9783,21.3181,47.6702,2.63039,-9.31615,4.43885,-30.7645,6.48466,-23.6491,18.5032,0.930755,6.61557,-5.99915
-7.02848,17.8626,-8.73524,12.0022,5.93649,-2.51444,7.27571,1.22398,-1.05847,3.22626,1.5807,1.59923,-0.822348,0.772448,2.11601,-10.0056,2.11944,-4.23246,27.9788,4.77197,-2.70536,10.61,1.45685,0.329875,1.19768e-14,6.36111e-15,-33.03,3.29569,-83.2775,56.8088,20.4267,167.395,53.2369,7.12502,-166.526,82.7811,1.19768e-14,6.36111e-15,-29.4464,-4.03086,91.8379,40.1055,4.06977,-9.07095,29.064,7.12502,16.8781,58.3506,-14.4032,-4.92731,21.0481,48.911,4.0041,-8.86289,8.36643,-30.4471,6.6437,-23.7829,18.7769,0.615532,6.54398,-5.40809
-6.98248,17.8657,-8.66894,12.1775,5.62962,-2.42615,7.12494,1.35219,-1.29565,3.2261,1.73449,1.49778,-0.749634,0.847111,2.13567,-9.62572,2.24525,-3.88822,27.7171,4.99917,-3.28101,10.4642,1.54488,0.0860178,3.21037e-14,-6.85807e-15,-32.858,3.51775,-83.4843,56.62,20.6893,167.395,53.0943,7.12502,-166.526,82.6385,3.21037e-14,-6.85807e-15,-29.1207,-4.2544,91.7816,40.3319,3.94725,-8.71154,29.0201,7.12502,17.2241,58.2767,-15.483,-4.88964,20.6255,50.2155,5.41613,-8.14421,10.3248,-30.535,6.72999,-24.0739,19.0572,0.436904,6.59564,-6.44278
-6.93227,17.868,-8.59505,12.442,5.46753,-2.39952,6.83027,1.42365,-1.35468,3.10946,1.82673,1.37937,-0.709095,0.893817,2.04476,-9.51644,2.08485,-4.09343,27.4071,4.72715,-3.06415,10.3165,1.43599,0.163519,2.66371e-14,-1.51076e-14,-32.8496,3.71438,-83.7884,56.3362,20.7225,167.683,53.0579,7.12502,-166.249,82.5835,2.66371e-14,-1.51076e-14,-28.9052,-4.38722,91.7164,40.2737,4.02354,-8.9292,28.6507,7.12502,17.0146,57.9255,-16.5755,-4.87635,20.3089,51.4835,6.335,-7.47292,11.7639,-30.7235,6.87712,-24.3499,19.3321,0.153862,6.63219,-6.42853
-6.88671,17.8699,-8.50542,12.5209,5.41601,-2.31178,6.65358,1.4728,-1.51611,2.96909,1.88258,1.25013,-0.759067,0.922699,2.00026,-9.30973,2.02273,-4.15161,27.3851,4.59316,-2.90101,10.2616,1.3913,0.212605,-9.06955e-15,1.31198e-14,-33.2182,3.87666,-84.1147,56.3553,20.5749,167.666,52.9486,7.12502,-166.265,82.4753,-9.06955e-15,1.31198e-14,-28.9391,-4.72457,91.6323,40.3013,4.17017,-9.37359,28.2857,7.12502,16.5868,57.5969,-17.3262,-4.78302,19.9973,52.7191,7.05515,-7.17586,13.6019,-30.5211,7.08073,-24.6308,19.5404,-0.356984,6.45123,-5.83435
-6.84297,17.8774,-8.41439,12.5691,5.43452,-2.20631,6.44041,1.47553,-1.73508,2.89864,1.87511,1.17057,-0.717131,0.918027,2.04607,-8.83626,2.05636,-3.56497,27.0884,4.61186,-3.39986,10.0864,1.41973,-0.0682904,1.01877e-15,-9.24349e-15,-33.2169,4.16891,-84.4189,56.1882,20.3002,167.755,52.8735,7.12502,-166.179,82.3943,1.01877e-15,-9.24349e-15,-28.7732,-4.80635,91.5683,40.3883,4.39236,-9.72261,28.0643,7.12502,16.2508,57.4033,-17.9887,-4.7857,19.6761,53.8787,7.83549,-7.22986,15.6394,-30.2613,7.06843,-24.8566,19.7144,-0.824749,6.39753,-5.78218
-6.80284,17.8839,-8.33146,12.516,5.39088,-2.12951,6.34467,1.48228,-1.92267,2.95539,1.87404,1.10135,-0.608926,0.914783,2.08351,-9.17452,2.08378,-3.86449,27.2926,4.70827,-3.26553,10.2182,1.43704,0.0459823,2.57178e-14,1.15792e-14,-32.8441,4.43504,-84.7241,55.8826,19.7435,168.268,52.9181,7.12502,-165.684,82.4046,2.57178e-14,1.15792e-14,-28.3738,-4.56049,91.4186,40.5603,4.45098,-9.61882,28.4705,7.12502,16.3507,57.8012,-18.5915,-4.67697,19.4071,54.9943,8.31416,-7.43903,17.1175,-29.9655,7.07881,-25.027,19.9044,-1.1434,6.41278,-6.38519
-6.76817,17.8829,-8.25821,12.4018,5.24568,-2.05181,6.44467,1.54948,-2.24999,3.00775,1.94272,1.09935,-0.623959,0.946076,2.25863,-9.66471,2.05375,-4.35995,27.7072,4.75405,-2.99702,10.4506,1.41706,0.239169,1.08586e-14,9.93923e-16,-32.5907,4.55347,-84.8873,55.6308,19.7782,168.357,53.0056,7.12502,-165.599,82.486,1.08586e-14,9.93923e-16,-28.1291,-4.40076,91.3736,40.9462,4.2588,-8.91966,29.4174,7.12502,17.0238,58.6915,-19.2592,-4.37917,19.2034,56.1075,8.47204,-7.72717,17.2302,-29.6701,6.99365,-25.1138,20.1825,-1.52624,6.60885,-6.4601
-6.73288,17.8783,-8.18115,12.3159,5.34432,-1.96714,6.48922,1.54793,-2.52061,2.97184,1.92382,1.08694,-0.692382,0.935931,2.39751,-9.81394,2.00453,-4.69827,27.9311,4.72422,-2.7889,10.5511,1.38307,0.370498,-2.04375e-15,2.4699e-14,-32.5913,4.61739,-85.0219,55.27,20.537,167.835,52.8605,7.12502,-166.102,82.3761,-2.04375e-15,2.4699e-14,-27.9788,-4.44322,91.4044,40.8611,5.75138,-10.2935,27.2067,7.12502,15.701,56.5897,-19.8832,-4.3729,19.0027,57.1423,8.34503,-7.93892,17.5561,-29.5172,7.05102,-25.303,20.6005,-2.00747,6.37826,-5.97991
-6.69425,17.8726,-8.10838,12.2111,5.50024,-2.0272,6.60514,1.56626,-2.4024,2.96745,1.95115,0.991417,-0.755974,0.951818,2.22755,-9.87608,1.94717,-4.6688,27.9372,4.65723,-2.83562,10.5685,1.34945,0.342199,-3.73405e-14,-1.03275e-14,-32.3395,4.52124,-85.2913,54.8362,20.9509,167.605,52.8736,7.12502,-166.323,82.4042,-3.73405e-14,-1.03275e-14,-27.6512,-4.63513,91.2394,40.9477,6.31636,-10.8505,26.8135,7.12502,15.1645,56.2379,-20.4658,-4.34767,18.9733,58.1023,8.1501,-8.00673,17.0665,-29.4501,7.12179,-25.3549,21.1569,-2.4839,6.18176,-6.40925
-6.65653,17.8658,-8.04095,12.1107,5.61545,-2.21981,6.75969,1.56649,-2.19888,2.97633,1.96009,0.968536,-0.825876,0.95859,2.08513,-9.771,1.98049,-4.2528,27.7884,4.69767,-3.18318,10.5108,1.37743,0.150499,8.31168e-15,-1.32689e-14,-32.0487,4.49673,-85.528,54.6484,20.5363,168.174,53.0188,7.12502,-165.775,82.5117,8.31168e-15,-1.32689e-14,-27.4208,-4.71164,91.1413,41.0385,7.22923,-11.8275,25.5039,7.12502,14.2233,54.9969,-21.0499,-4.15527,19.1088,58.9464,7.61788,-8.2865,16.5503,-29.4206,7.09555,-25.2148,21.744,-2.94188,6.16872,-5.71174
-6.61508,17.8588,-7.96705,12.0765,5.77832,-2.33856,6.74908,1.51783,-2.08875,2.95222,1.90291,0.996771,-0.839422,0.931139,2.05666,-9.37853,1.99817,-4.00027,27.4593,4.69995,-3.46343,10.3252,1.38968,0.00191788,2.90226e-14,-1.20762e-14,-31.8448,4.63526,-85.6576,54.3735,20.402,168.27,53.2572,7.12502,-165.683,82.7436,2.90226e-14,-1.20762e-14,-27.1474,-4.0746,90.8759,40.5901,7.1971,-11.3085,19.2419,7.12502,14.7233,48.699,-21.6606,-4.08293,19.1362,59.6613,6.90273,-8.652,17.0401,-29.3914,7.15061,-25.2315,22.2795,-3.48422,6.04205,-5.46417
-6.57722,17.8493,-7.88962,12.125,5.93092,-2.25655,6.59255,1.49081,-2.24395,2.95862,1.86115,1.0027,-0.748683,0.908139,2.15712,-9.41708,2.00648,-4.05836,27.4142,4.72395,-3.46443,10.3153,1.39576,0.0146514,-1.14177e-14,-1.49089e-14,-31.5835,4.60414,-85.6992,53.9564,20.9784,167.982,53.4115,7.12502,-165.96,82.9173,-1.14177e-14,-1.49089e-14,-26.8523,-4.19451,91.0164,42.4158,6.43514,-8.69561,29.6792,7.12502,17.2394,58.9346,-22.3703,-3.98407,18.9615,60.2598,6.44123,-9.07561,16.7926,-29.3624,6.9761,-25.3982,22.6925,-3.76349,5.985,-6.29464
-6.53819,17.8421,-7.81282,12.0612,5.99419,-2.313,6.49111,1.51573,-2.27769,2.97465,1.8948,1.01926,-0.679318,0.923623,2.19344,-9.59507,2.04386,-3.88864,27.6035,4.81942,-3.64814,10.43,1.42699,-0.0652231,-1.22625e-14,-1.27222e-14,-31.4734,4.45137,-85.7703,53.7549,21.2863,168.002,53.3549,7.12502,-165.941,82.8594,-1.22625e-14,-1.27222e-14,-26.5687,-4.0877,90.9956,42.5596,7.03925,-8.15373,31.4864,7.12502,17.7609,60.6953,-22.9079,-3.63222,18.9196,60.7324,5.90472,-9.58229,16.1777,-29.2238,6.58931,-25.3405,23.064,-3.85449,6.22456,-8.95295
-6.49093,17.8412,-7.73453,11.8188,5.84325,-2.21703,6.58201,1.58407,-2.37472,3.02159,1.97713,0.954317,-0.686694,0.963849,2.17336,-9.4675,2.10395,-3.80647,27.5646,4.92372,-3.81225,10.3982,1.46836,-0.127209,-4.27387e-15,2.27111e-14,-31.4541,4.41098,-85.8903,53.6757,21.3479,168.086,53.2496,7.12502,-165.861,82.7485,-4.27387e-15,2.27111e-14,-26.4885,-3.93511,90.989,42.9765,7.47632,-5.62453,39.2011,7.12502,20.1933,68.1715,-23.1982,-3.16339,18.6001,61.046,4.87552,-9.96465,15.688,-28.7309,6.35585,-25.4863,23.2911,-4.1926,6.68464,-8.51096
-6.43496,17.8284,-7.66826,11.3936,5.90994,-2.28203,7.03631,1.62167,-2.04753,3.04695,2.03668,0.89247,-0.902689,0.998492,1.90958,-9.26493,2.05424,-3.77138,27.5424,4.83452,-3.81395,10.3505,1.43601,-0.146805,-3.75206e-14,-7.45443e-16,-31.5989,4.19436,-86.0091,53.7451,21.3207,168.023,53.3727,7.12502,-165.921,82.8758,-3.75206e-14,-7.45443e-16,-26.5582,-4.22476,91.0398,43.4707,8.4081,-7.72134,32.4128,7.12502,18.177,61.5835,-23.3363,-2.94657,18.4511,61.1529,4.01885,-10.133,15.7459,-28.0155,5.96513,-25.4318,23.3719,-4.66711,7.17669,-5.28397
-6.42227,17.8322,-7.57759,11.1804,7.06363,-2.03859,7.01669,1.32603,-2.42257,3.10386,1.62354,0.974524,-0.824666,0.788306,2.23906,-9.09021,1.92432,-3.80521,27.4434,4.60286,-3.67623,10.2733,1.34871,-0.12103,-2.16178e-14,1.98288e-14,-31.6843,4.01109,-86.0535,53.672,21.7423,167.661,53.3454,7.12502,-166.27,82.8725,-2.16178e-14,1.98288e-14,-26.4046,-4.33587,91.0843,43.9312,9.11719,-8.87651,28.7211,7.12502,17.0653,57.9916,-23.2646,-3.37919,18.492,61.0858,3.06716,-10.8088,16.23,-27.4928,5.88919,-25.6972,23.4361,-5.11507,6.30401,-4.11572
-6.41817,17.8392,-7.46398,9.45985,9.712,-1.58825,8.53201,0.562493,-2.76133,3.62538,0.560758,1.17598,-1.06536,0.253416,2.7151,-9.71131,1.85512,-4.42809,27.8502,4.55228,-3.13245,10.5186,1.30057,0.181318,4.05024e-15,-1.54555e-14,-31.5316,3.99447,-86.0453,53.439,21.9566,167.476,53.3225,7.12502,-166.448,82.8615,4.05024e-15,-1.54555e-14,-26.1802,-4.18271,91.1405,44.5976,9.40013,-10.6936,23.0283,7.12502,15.3156,52.4412,-20.8716,-4.90115,18.5592,60.756,1.45602,-11.8748,16.2767,-25.1964,5.46968,-25.8618,23.517,-5.79978,4.45726,-2.58321
-6.38694,17.8377,-7.38494,9.65161,10.2905,-1.45931,8.27341,0.455983,-2.88095,3.57454,0.417382,1.18412,-0.966161,0.180062,2.80505,-9.75596,1.87608,-4.02503,27.759,4.59513,-3.48551,10.5117,1.32407,-0.00720157,-4.39811e-15,-2.6339e-15,-31.2425,3.85483,-86.0886,53.1251,21.5244,167.609,53.5144,7.12502,-166.32,83.0448,-4.39811e-15,-2.6339e-15,-25.9833,-4.4918,91.2548,45.0952,9.98955,-11.1488,22.2449,7.12502,14.8772,51.6907,-21.5036,-4.91155,18.4909,60.5999,0.475669,-12.2914,15.9004,-25.1277,5.23307,-26.0492,23.6028,-6.26113,4.2424,-0.255355
-6.35159,17.8314,-7.30409,9.73452,10.6155,-1.32805,8.06169,0.380522,-2.99709,3.50274,0.313402,1.14592,-0.916384,0.12758,2.84057,-9.8206,1.88463,-4.40972,27.9603,4.61192,-3.1408,10.5818,1.32459,0.184331,1.1778e-14,3.62782e-15,-31.0911,3.88783,-86.1949,52.8194,21.4784,167.316,53.5304,7.12502,-166.603,83.0796,1.1778e-14,3.62782e-15,-25.913,-4.76214,91.3242,45.277,10.74,-8.29901,32.0901,7.12502,17.6211,61.3116,-21.977,-4.67033,18.3435,60.4177,-0.588069,-12.6101,15.9337,-24.9544,4.97117,-26.2148,23.7673,-6.7827,4.23845,1.58759
-6.31533,17.8195,-7.22843,9.63475,10.9594,-1.11369,8.06196,0.277949,-3.21536,3.53759,0.162085,1.13476,-0.869351,0.049144,2.96544,-9.16448,1.97992,-3.62282,27.2989,4.751,-4.06014,10.2516,1.39741,-0.26952,-5.81445e-15,3.67752e-15,-31.0827,3.9491,-86.2333,52.8164,21.8977,167.184,53.19,7.12502,-166.729,82.7475,-5.81445e-15,3.67752e-15,-25.6764,-4.67485,91.404,45.465,11.2252,-10.2714,26.6551,7.12502,15.7223,56.0364,-22.2264,-4.55347,18.0877,60.3379,-1.92763,-12.8884,15.3763,-24.7362,4.88055,-26.5049,24.2332,-7.44677,3.92256,2.15217
-6.27456,17.8058,-7.15556,9.59378,11.2195,-1.02764,7.99529,0.222004,-3.26523,3.56524,0.0867021,1.11765,-0.798134,0.00961187,2.98225,-9.93057,1.93016,-4.32848,28.0843,4.71345,-3.26835,10.6558,1.35917,0.13901,-3.35449e-16,6.21202e-15,-31.1383,3.72889,-86.2801,52.8618,22.691,167.256,53.0741,7.12502,-166.66,82.6271,-3.35449e-16,6.21202e-15,-25.4681,-4.76819,91.4414,46.0122,11.5334,-10.3576,25.968,7.12502,15.6393,55.3559,-22.6253,-4.46106,17.9532,60.2468,-3.10783,-13.0494,14.4896,-24.6808,4.71274,-26.6646,24.8421,-7.88726,3.71895,1.18763
-6.23561,17.7776,-7.09022,9.69104,11.0536,-1.11455,7.8113,0.319426,-3.25011,3.48703,0.221593,1.13357,-0.787739,0.0776604,2.97859,-9.92374,1.94905,-4.4071,28.1493,4.72641,-3.14108,10.6729,1.37008,0.199556,-3.17559e-14,1.42131e-14,-31.2461,3.74359,-86.327,52.8066,23.0512,166.897,53.29,7.12502,-167.006,82.8653,-3.17559e-14,1.42131e-14,-25.3968,-4.97741,91.5815,46.5012,11.7058,-10.4245,26.5592,7.12502,15.5749,55.9521,-23.3512,-3.97835,17.915,60.1889,-4.3607,-13.1399,14.3788,-24.9381,4.69652,-26.6839,25.5303,-8.03459,3.7246,-2.06597
-6.20179,17.7465,-7.02784,9.67438,11.0237,-1.14185,7.79871,0.355442,-3.33408,3.45176,0.264187,1.1903,-0.820689,0.0988638,3.08119,-9.92246,1.91198,-4.42593,28.0139,4.67791,-3.17421,10.6229,1.34693,0.184783,1.44119e-15,-1.02126e-14,-31.3452,3.90577,-86.319,52.8768,23.098,166.477,53.3221,7.12502,-167.411,82.9228,1.44119e-15,-1.02126e-14,-25.2863,-5.01509,91.7035,46.8965,11.8004,-10.6233,25.9293,7.12502,15.3834,55.337,-24.0271,-3.63053,17.8606,60.1287,-5.36738,-13.2745,13.4141,-25.1079,4.56223,-26.7189,26.321,-8.3836,3.92366,-4.25684
-6.16224,17.7249,-6.95843,9.63134,11.3312,-1.0158,7.82322,0.349503,-3.2898,3.39033,0.256601,1.08848,-0.896887,0.0984965,2.95124,-9.62767,1.74817,-4.39533,27.7486,4.36048,-3.02317,10.4617,1.23667,0.191575,-1.34552e-14,-1.32689e-14,-31.5012,3.59386,-86.4128,53.001,22.9726,166.856,53.3192,7.12502,-167.046,82.8971,-1.34552e-14,-1.32689e-14,-25.2905,-5.40867,91.7536,47.4116,11.9744,-10.5547,25.2831,7.12502,15.4494,54.6857,-24.5644,-3.54743,17.6696,60.0281,-6.29301,-13.3222,12.5315,-25.1589,4.30444,-26.9187,27.0925,-8.95269,3.95155,-4.47119
-6.12842,17.6983,-6.88987,9.58439,11.706,-1.03858,7.76919,0.367875,-3.15348,3.37167,0.291637,1.04154,-0.888667,0.117607,2.82276,-9.17389,1.68033,-4.03379,27.4053,4.20445,-3.25123,10.2579,1.19541,0.0250541,-1.70955e-14,-2.16178e-14,-31.5222,3.27782,-86.4355,53.0777,22.7334,167.28,53.3963,7.12502,-166.637,82.9478,-1.70955e-14,-2.16178e-14,-25.1794,-6.04443,91.8204,47.7886,12.1128,-10.1533,24.5758,7.12502,15.836,53.9481,-25.0794,-3.38166,17.6719,59.8452,-7.50265,-13.3158,12.0933,-25.2267,4.20874,-26.9712,27.7488,-9.38518,3.76875,-5.38266
-6.10491,17.6743,-6.81782,9.36275,12.1593,-0.914464,7.88826,0.300868,-3.37284,3.48394,0.186363,1.09539,-0.830571,0.0605726,3.0113,-9.54736,1.67993,-4.34636,27.6762,4.22809,-2.94936,10.4177,1.19499,0.193305,-1.78906e-15,-2.63887e-14,-31.4414,3.41432,-86.4043,53.1912,22.5442,167.447,53.2178,7.12502,-166.476,82.7587,-1.78906e-15,-2.63887e-14,-24.9366,-6.24585,91.949,48.2208,12.1345,-9.71521,24.5478,7.12502,16.2579,53.8862,-25.3101,-3.19914,17.6012,59.6081,-8.69272,-13.4257,11.4956,-24.9912,4.16086,-27.1161,28.2979,-9.86379,3.5449,-5.96683
-6.07886,17.6556,-6.74284,9.15508,12.7655,-0.690797,8.02685,0.159525,-3.58989,3.60127,-0.0186042,1.10651,-0.7687,-0.0463016,3.16303,-9.94938,1.58837,-4.64738,27.7919,4.11341,-2.65062,10.527,1.13644,0.343113,1.41013e-14,1.9133e-15,-31.347,3.50237,-86.4303,53.2773,22.455,167.781,52.953,7.12502,-166.154,82.4721,1.41013e-14,1.9133e-15,-24.7152,-6.42357,92.0132,48.7864,12.1892,-9.1572,24.9103,7.12502,16.7951,54.2039,-25.4757,-3.05262,17.4072,59.3125,-9.83367,-13.6017,11.0431,-24.7162,4.06294,-27.3662,28.8462,-10.3533,3.16854,-6.38262
-6.04618,17.637,-6.66844,9.14902,13.2475,-0.509892,8.00302,0.118581,-3.66983,3.53458,-0.0788764,1.07634,-0.819305,-0.0747271,3.18206,-9.79473,1.4874,-4.5173,27.7429,3.96687,-2.77284,10.4851,1.07392,0.258628,4.88265e-15,-1.83876e-14,-31.6201,3.29894,-86.3948,53.4767,22.6049,167.694,52.696,7.12502,-166.238,82.2209,4.88265e-15,-1.83876e-14,-24.6868,-6.89725,92.1801,49.1811,12.2575,-8.88955,25.0956,7.12502,17.0528,54.3671,-25.9669,-2.85248,17.2132,59.0142,-10.53,-13.6874,8.52187,-24.6201,3.85198,-27.5874,29.3229,-10.7728,2.95943,-6.21876
-6.01469,17.6142,-6.60056,9.18431,13.6065,-0.432411,7.82289,0.0411665,-3.74282,3.54187,-0.179518,1.09704,-0.703309,-0.128238,3.25222,-9.76263,1.58225,-4.40789,27.7907,4.1358,-2.96754,10.5033,1.13977,0.190223,1.79093e-14,1.5704e-14,-31.4329,3.49227,-86.3944,53.3133,22.7665,167.271,52.6861,7.12502,-166.645,82.2381,1.79093e-14,1.5704e-14,-24.4296,-7.0213,92.2697,49.5409,12.0385,-8.52948,26.622,7.12502,17.3993,55.8633,-26.6036,-2.5666,17.1211,58.703,-10.9858,-13.6911,6.5699,-24.6297,3.6442,-27.7032,29.7865,-10.9999,2.91178,-6.88974
-5.98504,17.5904,-6.53045,9.01391,13.9246,-0.319464,7.90223,-0.00289174,-3.84942,3.58265,-0.247351,1.09375,-0.69823,-0.163655,3.31497,-9.9266,1.56723,-4.72678,28.0576,4.09212,-2.54087,10.6178,1.12573,0.394638,-1.26663e-14,-3.95085e-15,-31.1535,3.7627,-86.4,52.9923,22.4569,167.388,52.9935,7.12502,-166.533,82.5381,-1.26663e-14,-3.95085e-15,-24.2602,-7.20919,92.3431,50.0208,11.7655,-8.22219,29.4045,7.12502,17.695,58.6193,-26.9891,-2.29633,16.9632,58.3767,-11.6129,-13.6916,6.18641,-24.3529,3.41918,-27.8258,30.2104,-11.3934,2.90009,-6.72779
-5.95469,17.5739,-6.45645,8.82696,14.2016,-0.407837,8.0124,-0.0360712,-3.76191,3.60225,-0.287835,1.13755,-0.735787,-0.182642,3.31512,-10.177,1.49416,-4.92917,28.2464,3.9815,-2.25537,10.7278,1.07826,0.522508,-2.62768e-15,1.08089e-15,-31.2485,3.81411,-86.4273,53.0748,22.6529,167.21,53.0679,7.12502,-166.705,82.6239,-2.62768e-15,1.08089e-15,-24.2321,-7.43908,92.3834,50.4923,11.669,-8.33938,26.325,7.12502,17.5823,55.55,-27.3859,-1.85536,17.0477,58.0098,-12.2864,-13.8188,6.39404,-24.0762,3.15786,-27.7103,30.5951,-11.9543,2.96598,-5.65908
-5.92294,17.5604,-6.38189,8.8629,14.4238,-0.245053,7.93126,-0.00399154,-3.90028,3.5478,-0.254094,1.06388,-0.749493,-0.165436,3.3136,-9.99986,1.50702,-4.51984,28.2322,3.98438,-2.54701,10.7016,1.09241,0.346579,1.07095e-14,2.55687e-14,-31.609,3.60127,-86.4778,53.3598,22.7932,167.328,53.0681,7.12502,-166.59,82.6165,1.07095e-14,2.55687e-14,-24.2989,-7.80342,92.4543,50.8325,11.865,-7.50232,29.2531,7.12502,18.3877,58.404,-27.9989,-1.42955,16.8278,57.6417,-12.9534,-13.8062,6.19389,-23.9356,3.0072,-27.8998,30.9367,-12.413,2.94828,-4.96909
-5.88742,17.5406,-6.31408,8.83629,14.6821,-0.0225857,7.92329,-0.00857938,-4.06879,3.50627,-0.272645,1.0512,-0.784975,-0.174647,3.39728,-9.76241,1.52257,-4.37215,28.1008,4.01781,-2.7731,10.614,1.1055,0.241258,-3.97569e-15,-4.97272e-15,-31.6618,3.67807,-86.411,53.2311,22.8029,167.588,53.011,7.12502,-166.34,82.5428,-3.97569e-15,-4.97272e-15,-24.1689,-7.94224,92.6528,51.0243,11.828,-6.42569,31.2439,7.12502,19.4231,60.2938,-28.5659,-1.18549,16.5287,57.3053,-13.4495,-13.6907,5.34192,-23.7457,3.00226,-28.2018,31.3045,-12.834,2.76664,-5.61014
-5.8538,17.5221,-6.24924,8.83571,14.9318,0.116093,7.8655,-0.0240467,-4.09898,3.5525,-0.29233,1.01369,-0.703392,-0.186965,3.37638,-9.95442,1.41328,-4.32157,28.085,3.89448,-2.87719,10.6509,1.04068,0.183357,-4.1282e-14,2.05307e-14,-31.4806,3.81872,-86.4096,53.0429,22.8282,167.398,53.091,7.12502,-166.523,82.635,-4.1282e-14,2.05307e-14,-23.8725,-8.14594,92.7322,51.359,11.8354,-6.01075,31.3132,7.12502,19.822,60.3224,-29.2076,-0.854757,16.3112,56.9777,-14.0753,-13.4576,4.34487,-23.6628,3.04581,-28.4188,31.7134,-13.1975,2.60352,-6.54514
-5.82575,17.4974,-6.18727,8.79739,15.19,0.167005,8.03647,0.0129667,-4.033,3.46869,-0.247566,0.964367,-0.889544,-0.158005,3.28576,-10.0634,1.24119,-4.45702,28.3375,3.6436,-2.65775,10.7613,0.929833,0.257477,1.92604e-14,2.55376e-14,-31.4991,3.68311,-86.3813,52.9336,22.7803,167.373,53.0409,7.12502,-166.547,82.5865,1.92604e-14,2.55376e-14,-23.8825,-8.53199,92.8281,51.7757,11.7705,-6.22218,28.6368,7.12502,19.6188,57.6669,-29.8974,-0.520196,16.2351,56.695,-14.5931,-13.2949,3.40068,-23.6139,2.87159,-28.4906,32.1726,-13.4643,2.7925,-6.59372
-5.79659,17.4754,-6.12288,8.69925,15.4584,0.195278,8.18467,-0.0202713,-4.03836,3.43692,-0.297914,0.988128,-0.999655,-0.180197,3.31906,-10.0126,1.24501,-4.55331,28.3362,3.66044,-2.63007,10.7489,0.93208,0.285418,-1.09145e-14,-1.08213e-14,-31.5546,3.69858,-86.319,53.0374,22.8124,167.486,53.0443,7.12502,-166.438,82.5826,-1.09145e-14,-1.08213e-14,-23.9986,-8.70704,92.9201,52.2866,11.9053,-7.02912,24.5529,7.12502,18.8428,53.6602,-30.432,-0.265408,16.2204,56.3932,-15.1163,-13.239,3.30049,-23.4776,2.77842,-28.5283,32.606,-13.8823,2.77767,-6.2165
-5.77118,17.4564,-6.0574,8.55757,15.8572,0.189001,8.28652,-0.0753746,-4.02072,3.4861,-0.371279,1.04372,-0.998167,-0.217572,3.37395,-9.90483,1.30021,-4.50293,28.099,3.75285,-2.78957,10.6429,0.970354,0.228911,5.356e-14,1.31695e-14,-31.5123,3.7511,-86.2858,53.0273,22.7295,167.458,53.1542,7.12502,-166.466,82.6943,5.356e-14,1.31695e-14,-23.9278,-8.87514,93.0273,52.6671,11.9316,-5.95665,29.8958,7.12502,19.874,58.8996,-30.8694,-0.0358473,16.3001,56.0728,-15.3827,-13.1939,3.38618,-23.2392,2.75193,-28.5272,32.9456,-14.2754,2.60979,-6.7199
-5.74099,17.4411,-5.99009,8.58309,16.238,0.46811,8.18939,-0.125912,-4.25733,3.54267,-0.451076,1.00938,-0.876214,-0.262723,3.47769,-9.86708,1.26506,-4.55318,27.9694,3.69717,-2.76395,10.5859,0.947807,0.239481,3.45388e-14,-1.83379e-14,-31.4206,3.69886,-86.2589,52.9184,22.866,167.402,53.193,7.12502,-166.52,82.7368,3.45388e-14,-1.83379e-14,-23.6391,-8.9347,93.0901,52.8614,11.515,-5.28522,29.8848,7.12502,20.5193,58.8204,-31.4534,0.0492733,16.0115,55.6967,-15.7754,-12.9092,3.3427,-22.9932,2.62034,-28.8437,33.1371,-14.5409,2.491,-6.60225
-5.70376,17.4316,-5.9205,8.51192,16.5015,0.53965,8.04516,-0.122435,-4.25553,3.64369,-0.437459,1.03195,-0.692903,-0.261972,3.49693,-9.97431,1.18643,-4.56328,27.965,3.60674,-2.79914,10.6073,0.900946,0.21934,-5.31749e-15,-6.01324e-15,-31.266,3.67057,-86.0919,52.9119,22.7898,167.438,53.3208,7.12502,-166.484,82.8622,-5.31749e-15,-6.01324e-15,-23.4323,-9.00084,93.2395,53.2446,10.9804,-4.71023,26.7748,7.12502,21.0718,55.6499,-32.0104,0.246524,15.8872,55.2365,-16.0893,-12.593,3.87567,-22.6087,2.56782,-28.9659,33.1771,-14.8049,2.35581,-5.87422
-5.66867,17.4271,-5.84938,8.37938,16.8888,0.681265,8.10398,-0.155546,-4.29295,3.70666,-0.484884,1.01776,-0.655318,-0.287589,3.50752,-9.98927,1.16958,-4.4569,27.9225,3.58315,-2.87954,10.5978,0.893825,0.169956,2.70347e-14,9.93923e-17,-31.3363,3.56085,-86.0196,53.0866,22.9369,166.886,54.0548,7.12502,-167.017,83.6308,2.70347e-14,9.93923e-17,-23.4206,-9.31013,93.3798,53.5643,11.5424,-5.14799,26.0869,7.12502,20.6512,55.0082,-32.457,0.411231,15.695,54.743,-16.3222,-12.175,4.55427,-22.0607,2.56196,-29.1338,33.1275,-15.1424,2.03144,-4.68397
-5.63875,17.4222,-5.77879,8.40069,17.3704,1.02228,8.21516,-0.277953,-4.55096,3.65982,-0.671702,0.999198,-0.743745,-0.380115,3.65138,-10.0876,1.19805,-4.75011,28.1202,3.63276,-2.61493,10.6806,0.909955,0.322017,3.43897e-14,-5.36719e-15,-31.5729,3.57792,-85.9798,53.3155,23.2956,165.737,55.5961,7.12502,-168.125,85.2393,3.43897e-14,-5.36719e-15,-23.628,-9.44507,93.4969,54.0215,12.1943,-5.43961,26.9538,7.12502,20.371,55.9053,-32.9793,0.587485,15.3324,54.2297,-16.4168,-12.0618,4.87928,-21.5998,2.42566,-29.4911,33.0619,-15.3238,1.86944,-5.13794
-5.60234,17.4104,-5.7077,8.42437,17.6146,1.22472,8.15894,-0.313568,-4.6389,3.60601,-0.724662,0.949859,-0.762608,-0.405566,3.65387,-10.0717,1.19509,-4.98581,28.3052,3.61277,-2.33517,10.7366,0.904194,0.460748,4.12478e-15,1.19271e-15,-31.7954,3.71201,-85.9729,53.4902,23.2228,165.347,56.0822,7.12502,-168.5,85.7468,4.12478e-15,1.19271e-15,-23.8718,-9.61636,93.5767,54.6038,12.4582,-5.41385,26.4888,7.12502,20.3957,55.4377,-33.4975,0.782973,15.1498,53.7005,-16.5034,-11.9953,3.59448,-21.2203,2.47947,-29.7553,33,-15.4756,1.71484,-5.60044
-5.56973,17.4041,-5.64097,8.39108,17.8168,1.253,8.11179,-0.310133,-4.66123,3.60671,-0.719082,0.967981,-0.735699,-0.403789,3.6842,-10.0312,1.1614,-4.82002,28.3357,3.57891,-2.50561,10.7473,0.886794,0.367168,-2.71093e-14,8.64713e-15,-31.8759,4.08046,-85.9968,53.6178,22.5805,165.723,55.5409,7.12502,-168.138,85.1848,-2.71093e-14,8.64713e-15,-23.9167,-9.72437,93.6643,55.0094,12.6693,-5.44235,26.009,7.12502,20.3684,54.9609,-34.0417,0.989686,15.1995,53.1104,-16.4109,-11.8706,2.26895,-20.8328,2.46541,-29.8138,32.9134,-15.6311,1.65933,-6.26635
-5.54474,17.4034,-5.57334,8.28216,18.1579,1.1782,8.19157,-0.325504,-4.64609,3.70005,-0.737787,1.07179,-0.679594,-0.416637,3.78557,-10.2686,1.06496,-4.86193,28.3348,3.48335,-2.55614,10.7966,0.830352,0.347383,-5.0044e-14,7.65321e-15,-32.0184,4.2269,-85.9366,54.3478,22.2293,166.256,54.9871,7.12502,-167.624,84.6008,-5.0044e-14,7.65321e-15,-23.6074,-9.74644,93.7748,55.1978,12.6908,-5.33148,23.3699,7.12502,20.4749,52.3103,-34.5146,1.28841,15.3472,52.389,-16.0824,-11.7665,3.23586,-20.3578,2.34023,-29.6874,32.7139,-15.7717,1.54437,-5.9988
-5.51108,17.4161,-5.50909,8.22843,18.5868,1.13898,8.35423,-0.396923,-4.45984,3.67155,-0.825674,1.09285,-0.793461,-0.455096,3.71237,-10.3383,1.01297,-4.9934,28.4076,3.39696,-2.37295,10.8326,0.796181,0.426411,3.2551e-14,-1.89839e-14,-32.359,4.32584,-85.9724,55.1841,21.841,166.393,54.3466,7.12502,-167.492,83.9523,3.2551e-14,-1.89839e-14,-23.6575,-9.81449,93.8513,55.7471,12.945,-5.84504,20.8602,7.12502,19.9813,49.8529,-35.0833,1.57848,15.3284,51.6232,-16.0868,-11.432,5.39578,-19.9452,2.27603,-29.6302,32.5862,-15.8428,1.23627,-5.40215
-5.47295,17.4416,-5.44186,8.28888,18.9449,1.14419,8.39968,-0.429106,-4.26136,3.53616,-0.858888,1.03345,-0.960861,-0.462944,3.54332,-10.2749,0.96891,-4.82027,28.4643,3.29875,-2.37617,10.8439,0.769468,0.383663,3.8266e-15,-6.95746e-15,-32.7142,4.6208,-86.1661,55.817,20.7711,166.359,53.764,7.12502,-167.525,83.3716,3.8266e-15,-6.95746e-15,-24.1438,-10.1002,93.9359,56.7127,13.5114,-7.0952,20.8482,7.12502,18.7793,49.9617,-35.928,2.05914,15.1249,50.7985,-16.0582,-10.8396,6.72912,-19.5387,2.22725,-29.6359,32.386,-15.982,0.943807,-5.20738
-5.44126,17.4253,-5.37666,8.2778,19.2068,1.08537,8.44748,-0.414274,-4.06449,3.43024,-0.828753,0.994338,-1.10432,-0.440969,3.39056,-10.3616,0.915801,-4.69306,28.5717,3.20804,-2.36832,10.9036,0.739309,0.355159,2.21148e-14,6.85807e-15,-33.15,4.90188,-86.3567,56.5711,20.1795,166.057,53.4996,7.12502,-167.816,83.1247,2.21148e-14,6.85807e-15,-24.6169,-10.37,94.035,57.6544,13.8818,-8.20583,19.7864,7.12502,17.7108,48.9999,-36.1856,2.13957,15.2781,50.0952,-16.1288,-10.5602,5.22381,-19.2005,2.11313,-29.5747,32.2526,-16.081,0.80441,-5.05216
-5.41449,17.4216,-5.30839,8.16323,19.5979,1.16163,8.57566,-0.453074,-4.16043,3.48022,-0.890365,1.04228,-1.11488,-0.472955,3.50175,-10.408,0.916053,-4.67677,28.5554,3.20924,-2.37089,10.9069,0.741843,0.352118,1.90336e-14,1.09332e-15,-33.3598,5.44174,-86.4336,57.5569,19.2623,166.097,53.6789,7.12502,-167.777,83.3017,1.90336e-14,1.09332e-15,-24.6918,-10.3548,94.1304,58.4515,14.431,-8.28397,19.3492,7.12502,17.6356,48.5694,-36.4894,2.29943,15.2782,49.4185,-15.9712,-10.4702,4.72426,-18.6716,2.02557,-29.6174,32.0505,-16.1186,0.521976,-4.9871
-5.38583,17.4214,-5.23984,8.29038,19.9964,1.40025,8.46223,-0.548071,-4.38774,3.54675,-1.02674,1.08076,-0.964841,-0.547652,3.67966,-10.3974,0.870691,-4.75818,28.4049,3.16885,-2.42489,10.8492,0.713291,0.341222,1.37161e-14,2.39536e-14,-33.6771,5.98147,-86.4408,59.0876,18.6978,166.143,53.7912,7.12502,-167.733,83.4114,1.37161e-14,2.39536e-14,-24.7269,-10.0927,94.2174,59.2973,14.8497,-8.02575,19.4845,7.12502,17.8841,48.6822,-37.1223,2.35999,15.0911,48.8118,-15.8376,-10.242,4.70357,-18.333,1.86151,-29.8481,31.8637,-16.162,0.331991,-4.5062
-5.35541,17.4262,-5.17393,8.30896,20.4161,1.45705,8.53815,-0.663357,-4.3757,3.59154,-1.17936,1.12977,-0.944657,-0.625021,3.73823,-10.6807,0.850837,-5.02791,28.4003,3.15595,-2.2036,10.8962,0.701311,0.467998,-1.635e-14,2.127e-14,-34.2043,6.48589,-86.4678,61.0269,18.6306,165.984,53.7244,7.12502,-167.887,83.3538,-1.635e-14,2.127e-14,-24.814,-9.76492,94.2592,60.2359,15.1915,-7.65589,19.362,7.12502,18.2399,48.5268,-37.6674,2.37683,15.1533,48.1387,-14.5868,-10.0493,1.88692,-17.8623,1.78026,-29.8931,31.5279,-16.191,0.183589,-4.81165
-5.3294,17.4389,-5.11134,8.28807,20.8521,1.63735,8.8001,-0.753814,-4.57426,3.64468,-1.32319,1.19102,-1.01254,-0.697651,3.93226,-10.8185,0.87408,-5.20696,28.158,3.20032,-2.12137,10.8276,0.717597,0.533818,7.25564e-15,3.37934e-15,-34.7021,6.98203,-86.4498,63.0221,19.0713,165.194,53.622,7.12502,-168.648,83.2948,7.25564e-15,3.37934e-15,-24.9889,-9.56172,94.3481,61.3356,15.7114,-7.8174,19.1316,7.12502,18.0845,48.3109,-38.097,2.50912,15.0438,47.4369,-15.0043,-9.6099,4.01928,-17.2979,1.76007,-30.0364,31.1427,-16.1024,-0.125861,-5.10188
-5.30454,17.4521,-5.04693,8.14878,21.2576,1.42655,8.91532,-0.774481,-4.39819,3.7387,-1.33597,1.32075,-0.978485,-0.705592,3.97047,-10.9002,0.830529,-5.19174,27.9975,3.15037,-2.1838,10.7859,0.693431,0.502911,-2.8128e-14,1.90833e-14,-35.0671,7.44046,-86.47,64.9503,18.9758,164.853,53.7513,7.12502,-168.977,83.4418,-2.8128e-14,1.90833e-14,-25.1372,-9.51262,94.4408,62.3946,16.1474,-7.69589,18.501,7.12502,18.2014,47.6694,-38.5096,2.76307,15.3531,46.6687,-14.8185,-9.51714,3.86286,-16.7858,1.72647,-29.7873,30.7994,-16.005,-0.223388,-5.68793
-5.27493,17.4567,-4.98759,8.28399,21.6723,1.45622,8.9038,-0.897642,-4.36013,3.68625,-1.4957,1.35209,-1.01072,-0.783326,3.99663,-10.7322,0.808059,-5.18645,27.8258,3.08156,-2.13803,10.6876,0.675183,0.507895,2.35063e-14,1.61016e-14,-35.5741,8.31886,-86.7155,67.0195,17.9205,165.068,54.0194,7.12502,-168.769,83.6988,2.35063e-14,1.61016e-14,-25.4459,-9.11634,94.4689,63.4611,16.6452,-7.98305,18.8505,7.12502,17.9251,48.0444,-39.1486,2.649,15.4636,45.9396,-14.4784,-9.13363,3.25662,-16.4932,1.54875,-29.8373,30.4605,-15.8937,-0.0407425,-7.4209
-5.24434,17.461,-4.92615,8.38484,22.0953,1.56293,8.91791,-1.01848,-4.36787,3.71903,-1.65578,1.34646,-0.968109,-0.864635,4.00944,-10.8038,0.780206,-5.34739,27.698,2.99806,-1.86731,10.6466,0.654562,0.622163,7.65321e-15,-2.24627e-14,-36.1052,9.09492,-86.9438,69.4607,16.6474,165.265,53.986,7.12502,-168.58,83.655,7.65321e-15,-2.24627e-14,-25.3664,-8.70948,94.414,64.2904,17.1936,-8.19414,19.7939,7.12502,17.722,49.0063,-39.6396,2.61617,15.4784,45.2053,-14.2714,-8.75319,1.86476,-16.1408,1.38949,-29.9399,30.1664,-15.8779,-0.0798753,-7.91589
-5.21452,17.4627,-4.86157,8.38886,22.4464,1.84226,9.09219,-1.05257,-4.63344,3.82656,-1.72627,1.37965,-0.934379,-0.904914,4.2039,-10.8912,0.761444,-5.49968,27.4104,2.9559,-1.72818,10.5524,0.643238,0.691905,-2.24627e-14,-9.93923e-16,-36.6281,9.74659,-87.0091,72.1199,15.3072,165.567,53.6327,7.12502,-168.288,83.2853,-2.24627e-14,-9.93923e-16,-25.2526,-8.42343,94.4772,65.2099,17.5533,-7.90128,20.4007,7.12502,18.0038,49.5874,-40.0085,2.52344,15.3552,44.5152,-13.9703,-8.25966,1.26171,-15.5538,1.27184,-30.2221,29.8716,-15.8891,-0.0772041,-8.1105
-5.18876,17.4661,-4.8018,8.41386,22.8046,1.96871,9.27908,-1.0798,-4.70835,3.84135,-1.77573,1.37792,-1.01373,-0.927941,4.25445,-10.5444,0.773371,-5.21724,26.9255,2.92881,-1.98235,10.3132,0.648402,0.544868,4.6615e-14,-2.16675e-14,-37.4721,10.2517,-87.1835,75.0849,14.379,165.459,53.3488,7.12502,-168.393,83.0073,4.6615e-14,-2.16675e-14,-25.4341,-8.15631,94.4843,66.2126,17.8168,-7.79121,20.9559,7.12502,18.1097,50.1329,-40.5261,2.6942,15.2782,43.8829,-13.7122,-7.77681,2.89353,-15.0865,1.151,-30.3352,29.5575,-15.85,-0.184809,-8.53163
-5.16351,17.4693,-4.74409,8.53016,23.1847,1.98163,9.37217,-1.16876,-4.67648,3.87751,-1.89252,1.41512,-1.0144,-0.9865,4.28843,-10.7169,0.767794,-5.02138,26.8464,2.93076,-2.14845,10.3231,0.649837,0.454176,-5.98342e-14,7.35503e-15,-38.3223,10.8903,-87.4544,78.2264,12.9863,163.856,55.0181,7.12502,-169.939,84.7576,-5.98342e-14,7.35503e-15,-25.4599,-7.74194,94.3941,67.077,18.1834,-9.03948,20.9659,7.12502,16.9084,50.2499,-41.0808,2.8153,15.3817,43.292,-13.3323,-7.44665,2.3807,-14.8124,1.12282,-30.3261,29.2569,-15.8624,-0.421951,-8.00643
-5.13074,17.463,-4.68628,8.63752,23.4877,2.26668,9.56624,-1.24178,-4.82571,3.96899,-2.00753,1.41529,-1.00703,-1.04669,4.38856,-11.0598,0.781578,-5.13778,26.8345,2.977,-2.07074,10.3825,0.664244,0.509729,-5.75482e-14,2.44505e-14,-38.9743,11.6837,-87.7281,81.3186,10.1946,165.17,54.488,7.12502,-168.672,84.1621,-5.75482e-14,2.44505e-14,-25.3406,-7.21229,94.3507,67.8013,18.1738,-9.49327,19.8821,7.12502,16.4716,49.2028,-41.3848,2.50488,15.385,42.7315,-12.9039,-6.93848,1.63907,-14.4623,1.17804,-30.6376,29.1027,-16.0876,-0.664357,-6.46445
-5.09357,17.4571,-4.63571,8.68827,23.0753,2.4455,9.75237,-1.02498,-4.97564,4.02096,-1.74158,1.39514,-1.07974,-0.914045,4.43183,-10.9124,0.777391,-5.18054,26.505,2.94068,-2.03149,10.2316,0.659334,0.523887,1.02374e-14,1.43125e-14,-39.6887,12.3364,-87.8991,84.6355,7.95357,165.749,55.0177,7.12502,-168.113,84.6603,1.02374e-14,1.43125e-14,-25.261,-6.86599,94.4004,68.7142,18.4729,-9.42257,19.8714,7.12502,16.5396,49.1865,-41.9105,2.54168,15.4357,42.133,-12.1141,-6.01405,0.289197,-14.2536,1.60738,-31.0133,29.1067,-16.3749,-0.377294,-7.03851
-5.06011,17.4361,-4.60293,9.17738,21.7444,2.47143,9.618,-0.5299,-5.06171,3.86347,-1.09661,1.26044,-1.24384,-0.585192,4.27453,-10.6078,0.746486,-5.1964,26.0741,2.83121,-1.94322,10.0143,0.633314,0.540383,-2.98177e-15,6.16232e-15,-40.6797,12.6875,-88.1846,88.2312,7.06717,165.606,54.9064,7.12502,-168.251,84.5569,-2.98177e-15,6.16232e-15,-25.342,-6.6938,94.3168,69.7847,18.9703,-9.88506,20.2391,7.12502,16.0943,49.5907,-43.3296,3.28069,15.4396,41.4768,-11.0158,-4.60947,1.18537,-14.8028,2.30476,-31.456,29.2494,-16.5611,0.29899,-7.85648
-5.03327,17.411,-4.56328,9.71774,20.9593,2.56736,9.48451,-0.239885,-5.18483,3.69649,-0.725646,1.12687,-1.38549,-0.393585,4.16635,-10.5406,0.771349,-4.98458,25.8262,2.82409,-2.02594,9.91459,0.648617,0.473096,3.37934e-14,-4.57205e-15,-41.6152,13.0905,-88.616,91.8128,5.921,165.863,54.2873,7.12502,-168.003,83.9235,3.37934e-14,-4.57205e-15,-25.5255,-6.54058,94.1459,71.0089,19.8478,-10.4686,20.9465,7.12502,15.5324,50.3427,-44.6062,3.85855,15.3663,40.7452,-9.89918,-3.49901,3.4109,-15.4058,2.4872,-31.8033,29.5297,-16.7988,0.671148,-6.70913
-5.00548,17.3913,-4.52009,10.3189,20.6707,2.67921,9.23569,-0.118841,-5.25731,3.59824,-0.562713,1.09654,-1.36815,-0.311667,4.15649,-10.7227,0.792664,-5.00992,25.7025,2.86225,-2.01692,9.90404,0.66599,0.485814,-5.17834e-14,1.2921e-14,-42.3039,13.4097,-88.9784,95.5226,4.37518,166.371,53.9039,7.12502,-167.514,83.5109,-5.17834e-14,1.2921e-14,-25.3925,-6.19067,94.0736,72.0309,20.7429,-10.821,21.3875,7.12502,15.193,50.8097,-45.7821,4.03703,15.373,40.0348,-8.40164,-2.74959,5.65309,-16.0055,2.3378,-32.0562,29.8715,-17.0805,1.16393,-6.08929
-4.97608,17.3827,-4.47433,10.7557,20.9056,2.5577,9.12641,-0.164343,-5.01798,3.49945,-0.597961,1.16377,-1.4099,-0.325065,4.09399,-10.8772,0.793902,-4.99249,25.5654,2.87995,-2.08135,9.8858,0.670594,0.463065,9.62118e-14,-3.65764e-14,-43.1018,13.5895,-89.3939,99.4819,3.41775,166.167,53.7344,7.12502,-167.71,83.3532,9.62118e-14,-3.65764e-14,-25.1813,-5.66175,93.9149,72.7157,20.7222,-10.9025,20.5733,7.12502,15.1144,50.0015,-46.6209,4.1478,15.6046,39.4024,-7.12737,-2.75929,6.39227,-16.3195,1.94913,-31.9244,30.0366,-17.5045,1.34419,-5.64199
-4.94755,17.3685,-4.42586,11.1215,21.4277,2.61939,9.23829,-0.298527,-4.80019,3.35725,-0.765486,1.15651,-1.60554,-0.399039,3.98281,-10.6609,0.757464,-4.98528,25.2728,2.7935,-2.06879,9.73989,0.643526,0.453432,-1.89839e-14,-1.55052e-14,-43.9684,13.9416,-89.9413,103.21,2.71775,165.774,53.8922,7.12502,-168.089,83.5334,-1.89839e-14,-1.55052e-14,-25.0646,-4.97143,93.5746,73.1937,19.633,-9.90625,19.5535,7.12502,16.0739,48.9068,-47.2097,3.86703,15.8646,38.8989,-6.50835,-2.71469,1.70883,-16.352,1.47935,-31.8978,29.9648,-17.8368,1.03545,-5.23098
-4.91934,17.3619,-4.37394,11.3361,22.1667,2.91854,9.59353,-0.456871,-4.69802,3.33399,-0.983465,1.09245,-1.8061,-0.500304,3.88723,-10.5795,0.684866,-4.89938,24.9736,2.6552,-2.08023,9.61991,0.595525,0.417689,2.96189e-14,1.63003e-14,-44.6174,14.4024,-90.5596,106.81,0.690089,166.376,54.5185,7.12502,-167.508,84.1251,2.96189e-14,1.63003e-14,-25.0316,-5.0392,93.4387,74.3276,20.361,-10.9154,19.8948,7.12502,15.102,49.3239,-47.7234,3.29383,16.0005,38.4948,-6.09998,-2.54032,0.873963,-16.0244,1.00546,-32.0463,29.6917,-18.1317,0.483486,-3.16174
-4.89533,17.3552,-4.31946,11.3111,22.9675,3.29172,10.1924,-0.667538,-4.74581,3.41615,-1.29088,1.07808,-2.01744,-0.647866,3.94475,-10.6006,0.711421,-4.90416,24.6737,2.67421,-2.06582,9.51653,0.613,0.42453,-6.85807e-15,-4.37326e-15,-45.09,14.9336,-91.1492,110.473,-2.25517,167.845,55.3663,7.12502,-166.093,84.8813,-6.85807e-15,-4.37326e-15,-24.8643,-4.57262,93.1286,75.2449,20.4529,-10.1989,19.3455,7.12502,15.7921,48.7214,-48.0742,2.83815,15.9437,38.3018,-5.95744,-2.78396,4.03686,-15.2148,0.655327,-32.253,29.0356,-18.2527,0.0408511,-1.88251
-4.87148,17.3355,-4.26065,10.9215,23.9794,3.44557,11.0037,-0.923515,-4.55275,3.64371,-1.63583,1.12241,-2.19418,-0.816217,3.94004,-10.8106,0.767604,-4.81279,24.3897,2.74471,-2.12,9.45647,0.652898,0.398649,2.82274e-14,-2.10712e-14,-45.6618,15.9341,-92.4051,113.748,-10.3094,171.854,60.6656,7.12502,-162.232,89.8739,2.82274e-14,-2.10712e-14,-24.4343,-4.07946,92.6752,75.8809,20.6008,-9.81345,18.3581,7.12502,16.1633,47.7041,-47.8913,2.36582,16.174,38.1787,-6.02898,-3.47167,2.87511,-14.089,0.340439,-32.2068,28.3811,-18.3327,-0.195357,-3.29504
-4.86463,17.3608,-4.14269,10.713,27.5423,3.89766,11.2748,-1.9633,-4.47757,3.99689,-2.98785,1.41558,-1.82236,-1.50339,4.366,-11.1913,0.687825,-4.84158,24.2072,2.65151,-2.10955,9.46518,0.608621,0.398786,5.40694e-14,-7.15625e-15,-45.3189,14.8768,-91.6173,117.778,-0.551798,167.229,52.4669,7.12502,-166.686,82.0216,5.40694e-14,-7.15625e-15,-24.0298,-3.80688,92.3645,76.7278,21.2914,-10.3374,17.7251,7.12502,15.6587,47.1114,-46.844,0.963602,16.133,38.2092,-6.67947,-5.94489,-1.69913,-12.4509,-0.973048,-31.6301,27.5865,-18.4564,-2.19398,-4.39659
-4.84315,17.3533,-4.08715,10.7741,28.2661,3.7997,11.6198,-2.09928,-4.1476,3.98522,-3.13942,1.51391,-2.01997,-1.5706,4.31848,-11.0599,0.554042,-4.76743,23.7762,2.44556,-2.2206,9.2939,0.52065,0.322917,-1.66979e-14,-5.56597e-15,-45.5421,14.9472,-92.0389,121.225,0.479998,167.477,51.0605,7.12502,-166.447,80.5994,-1.66979e-14,-5.56597e-15,-23.582,-3.03588,92.1447,77.2321,21.5501,-9.79184,16.6394,7.12502,16.1841,45.9838,-47.2604,0.615137,16.6157,38.2565,-6.40411,-6.38144,-2.52393,-11.9511,-1.47641,-31.335,27.116,-18.6269,-2.5104,-3.58188
-4.83292,17.3618,-4.01498,10.7892,29.3107,4.17542,12.1532,-2.33889,-4.48352,4.04593,-3.50404,1.65547,-2.1768,-1.74901,4.72856,-10.6519,0.502758,-4.6963,23.1177,2.334,-2.36851,8.99191,0.480999,0.244263,3.598e-14,-4.77083e-15,-45.5863,15.339,-92.393,124.592,0.860773,167.114,51.0069,7.12502,-166.797,80.5688,3.598e-14,-4.77083e-15,-22.9767,-1.94876,91.9661,77.5266,21.7064,-8.26019,15.4796,7.12502,17.6585,44.6977,-47.342,0.395165,16.4064,38.3281,-6.25006,-7.11805,0.710902,-11.1689,-1.81776,-31.3276,26.7896,-18.9132,-3.43993,-1.58369
-4.79991,17.3186,-3.98707,11.2933,29.4454,4.64053,12.4724,-2.32081,-4.46038,4.04097,-3.49152,1.54772,-2.36558,-1.73491,4.61945,-11.0255,0.404541,-4.76347,22.8877,2.19684,-2.26322,8.98142,0.423548,0.277911,1.61016e-14,3.57812e-15,-45.5076,15.455,-92.7546,128.102,1.35381,166.657,51.1768,7.12502,-167.238,80.7667,1.61016e-14,3.57812e-15,-22.3143,-1.40404,91.7022,78.0796,22.3636,-8.35338,15.0112,7.12502,17.5688,44.2374,-48.305,-0.172443,16.2933,38.3324,-5.53428,-6.56639,2.41897,-11.4122,-2.08734,-31.8848,26.9064,-19.0462,-3.43013,-0.938773
-4.77032,17.2719,-3.94601,11.6832,29.8179,4.99127,12.5252,-2.30372,-4.44341,4.21999,-3.46122,1.5706,-2.20922,-1.72666,4.62653,-11.5884,0.2328,-4.93765,22.6946,1.99943,-2.17184,9.02039,0.325008,0.31866,-8.15017e-15,-6.75868e-15,-44.9542,15.3883,-92.7249,131.364,2.77923,166.489,50.7801,7.12502,-167.399,80.3801,-8.15017e-15,-6.75868e-15,-21.4792,-0.784646,91.6036,78.7136,23.1642,-8.6302,15.2632,7.12502,17.3024,44.513,-48.9974,-0.594157,16.284,38.355,-4.74323,-6.54406,3.21706,-11.5624,-2.1988,-32.2523,27.0604,-19.181,-3.62301,-0.730114
-4.74377,17.2377,-3.89678,12.0587,30.1291,5.40684,12.487,-2.23864,-4.67405,4.45983,-3.39088,1.63462,-1.92528,-1.70562,4.8044,-12.0912,0.0636836,-5.13196,22.4338,1.7944,-2.03689,9.02444,0.228541,0.375536,-1.10127e-13,5.60573e-14,-44.0309,15.5222,-92.5815,134.385,4.0254,166.842,50.4956,7.12502,-167.059,80.0743,-1.10127e-13,5.60573e-14,-20.3153,-0.119459,91.5771,78.9955,23.9257,-8.68362,15.4273,7.12502,17.251,44.6816,-49.5701,-1.10183,16.3547,38.423,-3.8976,-6.3637,1.81533,-11.6937,-2.36439,-32.6237,27.4019,-19.5257,-3.73219,-0.309297
-4.7171,17.2031,-3.84714,12.3371,30.4125,5.70831,12.8698,-2.21646,-4.74136,4.47351,-3.38149,1.66396,-2.11289,-1.69458,4.8934,-12.2594,-0.0151521,-5.20063,22.0629,1.67808,-1.97469,8.92824,0.182627,0.3948,1.41137e-14,-1.51076e-14,-43.0825,15.9028,-92.5514,137.172,4.49397,168.152,50.3545,7.12502,-165.797,79.8489,1.41137e-14,-1.51076e-14,-19.1975,0.872926,91.5465,78.9675,24.6379,-8.85473,16.1087,7.12502,17.0863,45.3773,-50.0924,-1.58781,16.5221,38.5418,-2.8182,-6.17227,3.28817,-11.8061,-2.48594,-32.8919,27.7403,-19.8345,-3.65227,-1.20226
-4.69407,17.1689,-3.80054,12.6234,30.7423,5.90101,13.2343,-2.21904,-4.69659,4.48182,-3.39027,1.69176,-2.30122,-1.69157,4.91906,-12.4443,-0.0818618,-5.31173,21.7496,1.56153,-1.78031,8.85335,0.145202,0.465969,5.76476e-15,5.56597e-15,-41.856,16.4407,-92.5784,139.654,4.52423,169.416,50.703,7.12502,-164.579,80.1078,5.76476e-15,5.56597e-15,-18.0589,1.8039,91.5415,79.0232,25.4838,-7.94757,15.1726,7.12502,17.9593,44.3634,-50.719,-1.96816,16.7797,38.7974,-1.81451,-6.18752,4.63918,-12.0324,-2.52938,-33.046,28.0107,-20.0249,-3.56413,-2.83488
-4.66533,17.1327,-3.76061,12.9211,30.9078,6.14575,13.5562,-2.10608,-4.62199,4.49533,-3.2439,1.6482,-2.48551,-1.61127,4.82825,-12.4236,-0.26119,-5.21374,21.3168,1.26096,-1.73728,8.7056,0.0276528,0.429933,-4.69132e-14,1.98785e-14,-40.3033,15.8973,-91.8436,141.815,7.86114,168.501,50.2982,7.12502,-165.461,79.7687,-4.69132e-14,1.98785e-14,-17.2539,2.24103,91.4838,79.4441,26.2648,-8.3791,17.0252,7.12502,17.544,46.2536,-51.4169,-2.35655,17.0184,39.1878,-0.757577,-6.10056,4.48829,-12.2064,-2.61033,-33.2935,28.2873,-20.2654,-3.49024,-3.88233
-4.62732,17.0978,-3.71602,13.4353,31.0697,6.78884,13.7054,-2.0147,-4.8796,4.57865,-3.16146,1.5865,-2.47566,-1.57188,4.90253,-12.5212,-0.407473,-5.0959,20.8533,1.04825,-1.86596,8.57047,-0.0659365,0.342999,-4.09496e-14,2.78299e-14,-38.943,16.9393,-92.1972,143.815,6.92338,169.899,51.2835,7.12502,-164.114,80.6519,-4.09496e-14,2.78299e-14,-16.4549,2.69778,91.5547,80.0705,27.0116,-7.50113,14.9794,7.12502,18.3888,44.1303,-52.066,-2.98709,16.9614,39.6436,0.259775,-6.0569,3.27795,-12.3083,-2.75172,-33.891,28.6693,-20.6313,-3.64212,-3.5571
-4.59158,17.0559,-3.65682,14.0521,31.0756,7.49335,13.6169,-1.89403,-5.42771,4.64613,-3.06839,1.56554,-2.33593,-1.53435,5.17088,-12.4097,-0.43434,-4.95557,20.2203,0.980457,-2.02475,8.33785,-0.0874836,0.258693,3.4191e-14,7.95139e-15,-36.8522,16.9792,-91.3914,144.696,7.56855,170.311,50.5441,7.12502,-163.717,79.8804,3.4191e-14,7.95139e-15,-15.654,3.12832,91.7384,80.8017,27.9045,-8.1664,15.2634,7.12502,17.7487,44.4734,-52.6999,-3.51474,16.9228,40.1393,0.929998,-6.15017,-0.59982,-12.5239,-2.723,-34.5456,29.1538,-21.0789,-3.72532,-3.82452
-4.55223,17.0189,-3.60273,14.1452,31.1693,7.29467,13.7497,-1.82552,-5.06024,4.57144,-2.93433,1.67159,-2.51874,-1.45863,5.06498,-12.0795,-0.481906,-4.85623,19.7636,0.858111,-2.04765,8.1257,-0.126441,0.221784,-7.03698e-14,5.56597e-15,-34.4169,15.9269,-89.8748,144.283,7.82498,170.24,50.1753,7.12502,-163.785,79.5172,-7.03698e-14,5.56597e-15,-15.1117,3.59918,91.9327,81.5905,28.396,-8.45412,15.3974,7.12502,17.4718,44.6322,-53.0801,-4.22578,18.0508,40.5431,1.27505,-5.97587,-5.60953,-12.7615,-2.72101,-34.3925,29.7292,-21.5747,-3.64303,-4.0803
-4.51295,16.9809,-3.55115,14.2831,31.2369,7.22828,13.9432,-1.75918,-4.75661,4.51511,-2.81346,1.72876,-2.71108,-1.38989,4.94702,-12.0176,-0.544271,-4.62238,19.4599,0.764166,-2.31675,8.01595,-0.172257,0.0842417,-1.86858e-14,-2.38542e-14,-32.2646,15.8453,-89.1676,143.603,5.84886,170.774,49.949,7.12502,-163.271,79.2482,-1.86858e-14,-2.38542e-14,-14.7198,3.94473,92.1443,83.1041,28.4609,-7.9602,16.211,7.12502,17.9471,45.4029,-53.4378,-4.92877,18.9715,40.9055,1.27786,-5.93545,-7.2411,-12.9784,-2.85509,-34.3534,30.3368,-21.8932,-3.6397,-3.26151
-4.47835,16.9464,-3.48933,14.3191,31.0643,7.10701,13.9786,-1.62461,-4.72821,4.59641,-2.62649,1.8571,-2.66134,-1.30079,5.03825,-12.1264,-0.540096,-4.56427,19.2148,0.780808,-2.4483,7.95471,-0.16846,0.0328931,2.98177e-14,-7.95139e-16,-29.7516,15.3489,-88.1769,142.234,4.55256,170.265,49.5479,7.12502,-163.762,78.8878,2.98177e-14,-7.95139e-16,-14.3838,4.25976,92.3949,84.9379,28.3666,-7.73706,16.3258,7.12502,18.1618,45.4979,-53.6922,-5.12481,19.6309,41.1965,1.12687,-6.61192,-1.37776,-13.1501,-2.52817,-34.291,30.9021,-22.2951,-3.86208,-2.35281
-4.43584,16.9098,-3.42255,14.3881,30.8323,7.13941,13.9891,-1.51422,-4.77672,4.63736,-2.48692,1.86999,-2.63752,-1.23342,5.05798,-11.9239,-0.577316,-4.6189,18.8055,0.67446,-2.27807,7.78175,-0.195725,0.0880754,7.55382e-15,1.82882e-14,-27.0984,14.1539,-87.1394,139.982,4.22266,169.474,49.1834,7.12502,-164.523,78.5839,7.55382e-15,1.82882e-14,-14.1208,4.53511,92.6272,86.957,27.9731,-7.86423,16.1961,7.12502,18.0395,45.3796,-53.7435,-5.37917,20.2011,41.5339,0.850553,-7.17473,7.76425,-13.1159,-2.11518,-34.4087,31.2338,-22.7635,-3.8943,-2.23026
