JuanDHNZ/ProyectoFinalCD/preprocessing/sports_trials_csv/17_04.csv
root1,root2,root3,root4,root5,root6,lowerback1,lowerback2,lowerback3,upperback1,upperback2,upperback3,thorax1,thorax2,thorax3,lowerneck1,lowerneck2,lowerneck3,upperneck1,upperneck2,upperneck3,head1,head2,head3,rclavicle1,rclavicle2,rhumerus1,rhumerus2,rhumerus3,rradius1,rwrist1,rhand1,rhand2,rfingers1,rthumb1,rthumb2,lclavicle1,lclavicle2,lhumerus1,lhumerus2,lhumerus3,lradius1,lwrist1,lhand1,lhand2,lfingers1,lthumb1,lthumb2,rfemur1,rfemur2,rfemur3,rtibia1,rfoot1,rfoot2,rtoes1,lfemur1,lfemur2,lfemur3,ltibia1,lfoot1,lfoot2,ltoes1
-1.40872,14.4752,-8.55852,-0.952582,-58.4186,4.88582,33.8686,-0.53546,2.55254,7.3254,0.044109,3.36501,-9.16826,-0.259626,2.22197,-14.3949,14.0263,-4.23695,5.08098,21.0709,-15.1684,5.12979,9.34221,-2.07094,2.78299e-14,-6.36111e-15,-33.5707,-22.5108,-59.5407,48.782,16.0079,-34.802,-10.8549,7.12502,-7.95371,-40.6853,2.78299e-14,-6.36111e-15,-0.00177043,30.5019,53.6062,40.6928,-10.3526,-27.4424,34.3293,7.12502,-0.847364,64.3074,-34.4716,6.3275,9.06025,92.2691,-17.4565,32.4515,16.1962,-63.1356,4.665,-15.6594,60.1664,2.7625,-9.99716,-19.2896
-1.45625,14.439,-8.43967,-2.29558,-58.6529,6.28854,34.0085,-0.40412,1.89892,7.34843,-0.0317932,3.17057,-9.20135,-0.28374,2.39388,-14.2983,14.0634,-4.45638,4.83975,21.0819,-14.9646,4.99088,9.38544,-2.00402,1.98785e-14,6.04305e-14,-33.6753,-22.6225,-59.1735,48.662,15.7609,-35.0781,-11.4116,7.12502,-8.22016,-41.2317,1.98785e-14,6.04305e-14,-0.142696,30.7995,53.3105,40.4576,-10.1954,-26.9978,34.7896,7.12502,-0.417917,64.7689,-34.0113,6.44608,7.70437,92.4378,-16.8919,33.4896,17.2178,-63.1884,4.49048,-16.52,61.4036,0.902301,-10.2213,-21.2032
-1.48901,14.3969,-8.33916,-2.03736,-58.7362,6.00468,34.2032,-0.4265,2.15538,7.34037,0.0310868,3.16935,-9.28174,-0.260914,2.23512,-14.3129,14.0816,-4.32657,4.70374,21.0891,-15.1688,4.98889,9.389,-2.07873,9.38264e-14,-5.08889e-14,-33.8138,-23.2157,-58.881,48.6945,15.8183,-35.273,-12.0214,7.12502,-8.40826,-41.834,9.38264e-14,-5.08889e-14,0.0376124,30.7177,53.1926,40.3333,-9.62027,-26.6991,34.6783,7.12502,-0.129453,64.658,-33.8355,6.58796,7.46267,92.6405,-15.7859,34.3797,19.266,-63.8142,4.46289,-16.7095,62.7851,1.03744,-9.4151,-20.8839
-1.51675,14.3504,-8.25302,-0.944294,-58.8457,4.73465,34.6163,-0.509979,2.81731,7.28063,0.176191,3.24333,-9.49552,-0.210408,1.91335,-14.517,14.0097,-4.12194,4.6604,20.9805,-15.2546,5.03352,9.32634,-2.12576,-8.26944e-14,6.67916e-14,-34.005,-23.6028,-58.8903,48.9355,15.4103,-35.3918,-12.483,7.12502,-8.52289,-42.291,-8.26944e-14,6.67916e-14,0.289175,30.6986,52.9709,40.1138,-9.23914,-26.7099,35.0436,7.12502,-0.139881,65.0233,-33.7925,6.85745,7.95211,92.8479,-14.4675,34.8839,21.5433,-64.4589,4.41604,-16.2591,64.0933,0.255908,-9.21922,-24.7085
-1.55398,14.3023,-8.15516,-1.02651,-59.0511,4.88079,34.7607,-0.46598,2.79291,7.28841,0.212758,3.13001,-9.53993,-0.194191,1.79366,-14.5965,13.9312,-4.02629,4.43361,20.8316,-15.2975,4.98132,9.26816,-2.16845,-7.95139e-15,-1.59028e-14,-34.1597,-24.0305,-58.8599,49.0975,15.2465,-35.3327,-12.6247,7.12502,-8.46586,-42.4351,-7.95139e-15,-1.59028e-14,0.473485,30.8975,52.7596,39.8733,-9.18256,-26.5743,35.7946,7.12502,-0.00889711,65.7744,-33.7944,7.04548,7.55785,93.0898,-14.4312,35.1532,20.9337,-64.8171,4.19206,-16.2895,65.2097,-0.1605,-8.83598,-22.0535
-1.59284,14.2709,-8.05335,-1.98003,-59.3188,6.06945,34.8383,-0.28957,2.03961,7.31166,0.159456,3.03106,-9.55439,-0.205426,2.10981,-14.6253,14.0353,-3.89948,4.24588,20.9548,-15.5757,4.98052,9.32673,-2.25168,-6.83819e-14,1.90833e-14,-33.9447,-24.3317,-58.7907,48.9876,15.5737,-35.3081,-12.5518,7.12502,-8.44212,-42.3631,-6.83819e-14,1.90833e-14,0.385659,31.2679,52.5961,39.7482,-9.04255,-26.2714,35.8774,7.12502,0.283583,65.8569,-33.7406,7.1448,6.49282,93.2368,-14.9274,35.6188,19.2634,-65.229,4.17588,-17.0958,66.4094,-0.759958,-8.37607,-20.4739
-1.6299,14.2341,-7.95749,-2.6778,-59.6466,6.87072,35.0632,-0.0711345,1.40974,7.32674,0.214205,3.0462,-9.63337,-0.171897,2.4427,-14.6991,14.0938,-3.77435,4.21218,21.0569,-15.9431,5.04644,9.35169,-2.35238,-1.98785e-14,-1.03368e-14,-33.7621,-24.2783,-58.6783,49.0037,15.4882,-35.0867,-11.9164,7.12502,-8.22844,-41.7362,-1.98785e-14,-1.03368e-14,0.267936,31.6989,52.5993,39.6471,-9.01598,-26.0954,35.6287,7.12502,0.453574,65.6079,-33.6048,7.364,5.67175,93.3703,-14.5843,36.2391,19.9094,-65.5065,4.1386,-17.5722,67.5523,-1.53393,-7.66988,-20.2898
-1.6609,14.1938,-7.87107,-2.25858,-60.2099,6.39534,35.3131,0.136917,1.41619,7.33823,0.487833,3.17827,-9.72466,-0.0520542,2.4769,-14.7617,14.0362,-3.84486,4.13132,20.9998,-16.1081,5.04175,9.31425,-2.39454,-2.46493e-14,1.74931e-14,-33.7645,-24.0857,-58.5143,49.185,15.3726,-34.3901,-10.915,7.12502,-7.55615,-40.76,-2.46493e-14,1.74931e-14,0.205694,32.0232,52.5696,39.5088,-9.24498,-26.1873,35.2851,7.12502,0.364882,65.2645,-33.5756,8.16836,5.7256,93.4645,-13.955,36.5209,20.8117,-65.9393,4.31996,-17.2975,68.885,-2.43506,-6.97617,-20.8403
-1.6893,14.1557,-7.79365,-1.50269,-61.1433,5.60854,35.5844,0.456374,1.35954,7.31603,0.869837,3.28564,-9.74498,0.115518,2.49217,-14.9413,14.0428,-4.07441,3.97948,21.0232,-16.0024,4.98813,9.33317,-2.32884,-7.15625e-15,-7.95139e-15,-33.4292,-23.9636,-58.7088,49.2313,15.4306,-34.0128,-10.8942,7.12502,-7.19195,-40.7519,-7.15625e-15,-7.95139e-15,0.253045,32.622,52.4375,39.262,-9.77062,-26.0645,35.279,7.12502,0.483431,65.2582,-33.7552,9.47484,5.99271,93.563,-13.133,36.7247,22.2119,-66.4428,4.98181,-16.9297,70.1937,-3.39712,-6.49571,-22.1801
-1.71546,14.1358,-7.70124,-1.0975,-61.1054,5.3277,35.6037,0.250789,1.63914,7.34557,0.699146,3.20317,-9.70411,0.0308573,2.3224,-14.9453,14.0706,-4.06111,3.70197,21.0137,-16.0389,4.90621,9.35218,-2.35176,-3.18055e-14,-1.43125e-14,-32.9831,-24.3547,-59.1327,49.0507,15.5923,-34.081,-10.9402,7.12502,-7.25772,-40.7957,-3.18055e-14,-1.43125e-14,0.419724,33.1244,52.2363,39.0187,-10.0085,-25.867,35.4266,7.12502,0.674155,65.4053,-33.5384,9.52906,5.78606,93.5336,-12.0619,37.303,24.3119,-67.0878,4.80385,-17.2239,71.4528,-4.5462,-5.98889,-26.0687
-1.74822,14.0946,-7.61299,-0.87142,-61.0361,5.25958,35.5743,0.120545,1.87341,7.41089,0.593474,3.03133,-9.6076,-0.021727,2.05502,-14.9981,14.044,-3.70316,3.4945,20.9123,-16.2613,4.90669,9.30962,-2.47116,-1.98785e-14,-2.38542e-15,-32.8977,-24.776,-59.3439,49.0332,15.6176,-34.1536,-10.9696,7.12502,-7.3278,-40.8227,-1.98785e-14,-2.38542e-15,0.811368,33.0966,51.9983,38.8046,-9.60033,-25.7954,35.5957,7.12502,0.743401,65.5741,-33.3865,9.34376,5.47733,93.6254,-11.6188,37.6557,25.1366,-67.441,4.53285,-17.1727,72.1145,-4.64632,-5.97572,-22.3677
-1.78689,14.0599,-7.54501,-0.463104,-61.761,5.01497,35.6173,0.497619,1.61775,7.45794,0.956259,2.9628,-9.58446,0.146708,1.97644,-15.1998,14.0329,-3.36061,3.47597,20.8737,-16.4256,4.98579,9.2755,-2.54908,-4.77083e-14,-6.36111e-15,-33.0998,-24.75,-59.3434,49.266,15.4102,-34.3384,-11.8264,7.12502,-7.50621,-41.6732,-4.77083e-14,-6.36111e-15,1.19046,33.0049,51.8399,38.52,-9.45291,-25.9956,35.3543,7.12502,0.549984,65.3333,-33.652,10.0017,5.39073,93.7626,-11.4669,37.6732,25.3409,-67.7814,5.2125,-17.0852,72.8683,-5.08218,-5.98368,-20.6576
-1.81701,14.0341,-7.4721,-0.0319081,-62.2694,4.61847,35.8873,0.673262,1.67977,7.46566,1.18307,2.85518,-9.67492,0.245768,1.74146,-15.2958,13.9883,-3.07,3.31708,20.7578,-16.5447,4.98753,9.22435,-2.63001,3.89618e-14,-1.74931e-14,-33.1231,-24.9851,-59.5059,49.3629,15.3077,-34.171,-11.6489,7.12502,-7.34462,-41.5014,3.89618e-14,-1.74931e-14,1.50728,33.0255,51.6571,38.3089,-9.56643,-26.1683,34.9641,7.12502,0.383196,64.9435,-33.6366,10.6039,5.3654,93.8451,-11.403,37.7796,25.7177,-67.9933,5.39318,-16.8969,73.5491,-5.61705,-5.63253,-20.4814
-1.84292,14.0058,-7.40067,0.244595,-62.7447,4.41981,36.0946,0.846694,1.66516,7.49369,1.37805,2.76049,-9.72021,0.331591,1.57211,-15.1946,13.9139,-2.99201,2.95954,20.5769,-16.5867,4.85967,9.17272,-2.69181,3.33958e-14,-4.77083e-14,-32.9326,-25.4941,-59.7381,49.2941,15.5006,-33.7444,-10.3191,7.12502,-6.93288,-40.1856,3.33958e-14,-4.77083e-14,1.82574,33.2815,51.5856,38.1518,-9.83511,-26.0027,35.2336,7.12502,0.543147,65.2127,-33.7027,11.1576,5.27211,93.9342,-11.6856,37.7463,25.1574,-68.2831,5.63127,-16.8749,74.2798,-6.1269,-5.31165,-20.555
-1.87183,13.9809,-7.32659,0.248538,-62.8111,4.78859,35.9633,0.933303,1.42313,7.4734,1.40176,2.76871,-9.70382,0.349323,1.69914,-15.2453,13.8744,-3.11565,2.95624,20.5496,-16.6089,4.85587,9.1538,-2.68276,-3.57812e-14,6.04305e-14,-32.794,-25.3315,-59.7332,49.3296,15.2918,-33.8491,-10.7674,7.12502,-7.03393,-40.6305,-3.57812e-14,6.04305e-14,2.06004,33.6146,51.7388,37.9491,-9.98287,-25.8222,35.6514,7.12502,0.717454,65.63,-33.9126,10.9876,4.81869,93.9992,-12.2667,37.6649,23.853,-68.7935,5.5286,-17.2255,74.9176,-6.49013,-5.11198,-19.9512
-1.90193,13.9637,-7.25504,0.454304,-62.8356,4.87915,35.9252,0.983302,1.22592,7.4743,1.40005,2.83025,-9.69752,0.352018,1.86961,-15.5195,13.9411,-3.01171,3.13056,20.7042,-16.8611,5.00737,9.18244,-2.72281,-2.38542e-14,3.18055e-15,-32.6531,-24.8658,-59.7728,49.5122,14.8586,-34.1073,-11.728,7.12502,-7.28314,-41.5826,-2.38542e-14,3.18055e-15,2.16461,33.818,51.812,37.8925,-9.85044,-25.8692,35.6454,7.12502,0.672051,65.624,-33.9837,10.7641,4.51026,93.9739,-12.6293,37.6308,22.7879,-69.1971,5.36906,-17.4131,75.4959,-6.878,-4.92088,-19.4493
-1.92514,13.9397,-7.19096,1.05588,-62.9354,4.30148,36.217,0.968803,1.32278,7.4641,1.42051,2.86172,-9.81372,0.354978,1.84405,-15.5313,14.0215,-2.85527,2.96218,20.779,-17.0488,5.00029,9.22392,-2.79001,-5.1684e-14,-7.95139e-16,-32.5455,-24.7523,-59.9163,49.6283,14.9122,-33.6244,-10.7634,7.12502,-6.81701,-40.6337,-5.1684e-14,-7.95139e-16,2.17801,33.9305,51.6647,37.9123,-9.70445,-25.8559,34.7091,7.12502,0.684906,64.6877,-33.8388,10.8819,4.59983,93.9087,-11.9562,37.8024,23.8353,-69.513,5.58158,-17.3725,76.1087,-7.30568,-4.96549,-19.5222
-1.94656,13.9204,-7.11885,1.62174,-62.923,3.65028,36.51,0.874709,1.66673,7.50253,1.42364,2.85668,-9.86497,0.344508,1.65631,-15.5072,13.969,-2.87133,2.68976,20.655,-17.0079,4.89527,9.1927,-2.80279,-3.49861e-14,3.57812e-14,-32.5208,-24.7809,-59.9973,49.7608,14.9494,-33.2536,-10.2408,7.12502,-6.45907,-40.1223,-3.49861e-14,3.57812e-14,2.32122,33.8473,51.5908,37.8685,-9.45235,-25.845,34.3376,7.12502,0.695422,64.3162,-33.4711,10.9498,4.73002,93.7679,-11.6078,38.0528,24.5574,-69.6665,5.5335,-17.2168,76.6806,-7.73026,-4.89114,-19.0166
-1.97213,13.915,-7.04985,1.94604,-63.0328,3.34529,36.6557,0.933296,1.735,7.57333,1.51576,2.88048,-9.83831,0.380807,1.60954,-15.7033,13.8763,-2.88208,2.63307,20.5323,-16.9724,4.89541,9.1289,-2.79554,1.19271e-14,-5.40694e-14,-32.4352,-24.5184,-60.0912,49.9401,14.7063,-33.5881,-11.1066,7.12502,-6.78193,-40.978,1.19271e-14,-5.40694e-14,2.50986,33.7065,51.6137,37.83,-9.1301,-25.8333,35.2623,7.12502,0.706772,65.2409,-33.2341,11.0368,4.6911,93.5956,-12.069,38.1063,23.664,-69.7174,5.39399,-17.1058,77.165,-8.1454,-4.74685,-17.7985
-1.99475,13.8993,-6.99089,2.48121,-63.0812,2.88911,36.8762,1.00274,1.75007,7.5609,1.62246,2.98906,-9.9372,0.424965,1.67525,-15.8452,13.8407,-2.7929,2.63081,20.4969,-17.1345,4.94454,9.09384,-2.84662,1.82882e-14,-3.97569e-15,-32.3349,-24.256,-60.1358,50.0513,14.725,-33.7741,-11.4525,7.12502,-6.96154,-41.318,1.82882e-14,-3.97569e-15,2.79063,33.748,51.7135,37.6287,-9.0379,-26.1613,35.8926,7.12502,0.389974,65.872,-33.1386,11.107,4.7395,93.4837,-12.2144,38.0848,23.1963,-70.0299,5.56518,-17.1225,77.7038,-8.54429,-4.83389,-17.2062
-2.01638,13.8749,-6.93111,2.79544,-62.9357,2.8577,36.9295,1.02348,1.68056,7.52043,1.63708,3.05354,-10.0073,0.433364,1.77471,-15.8854,13.831,-2.69931,2.55493,20.4785,-17.3256,4.9593,9.07831,-2.91349,1.43125e-14,-3.97569e-15,-32.3378,-24.3553,-60.0286,50.1721,14.5535,-33.3976,-10.6433,7.12502,-6.59802,-40.5205,1.43125e-14,-3.97569e-15,3.15667,33.8132,51.8773,37.4409,-9.07112,-26.201,35.5353,7.12502,0.351594,65.5148,-33.1462,10.9584,4.52039,93.4293,-12.2011,38.2246,23.3618,-70.5852,5.65578,-17.5028,78.2494,-8.91,-4.8324,-18.1187
-2.04115,13.8668,-6.87533,3.06991,-63.1096,2.85801,36.9201,1.17105,1.38424,7.53706,1.71422,3.1062,-10.0007,0.47302,1.9562,-15.9313,13.8705,-2.68068,2.36372,20.5137,-17.4689,4.9288,9.10155,-2.95494,-2.14687e-14,6.52014e-14,-32.118,-24.5636,-60.0146,50.1377,14.5152,-32.4392,-8.40187,7.12502,-5.67279,-38.3059,-2.14687e-14,6.52014e-14,3.25972,33.9375,51.8731,37.4307,-9.06019,-26.1243,34.2723,7.12502,0.425684,64.2516,-33.2734,11.0408,4.30398,93.3128,-12.2798,38.3888,23.1337,-70.8865,5.76087,-17.6664,78.6769,-9.2654,-4.60343,-18.6015
-2.06759,13.8604,-6.82536,3.41411,-63.482,2.63319,37.0416,1.30246,1.213,7.59132,1.79225,3.00129,-9.98661,0.508181,1.90263,-16.0868,13.9286,-2.60766,2.14784,20.5446,-17.3909,4.88491,9.13416,-2.93603,3.65764e-14,-1.90833e-14,-31.8781,-24.7264,-60.3568,50.0669,15.2276,-31.9065,-7.19478,7.12502,-5.1584,-37.112,3.65764e-14,-1.90833e-14,3.41527,33.9878,51.638,37.4162,-9.10585,-27.0418,33.7425,7.12502,-0.460456,63.7217,-33.3508,11.4091,4.24491,93.1767,-12.3838,38.4877,22.7841,-70.9576,6.01442,-17.5775,79.0253,-9.85247,-4.65691,-19.4712
-2.09348,13.8465,-6.76719,3.83185,-63.2658,2.38174,37.3283,1.43443,0.978124,7.43059,1.93311,3.36212,-10.3007,0.575658,2.35482,-16.2196,13.8666,-2.71156,2.32889,20.5388,-17.5497,4.97337,9.09425,-2.95339,-5.56597e-15,-1.03368e-14,-32.0702,-24.6,-59.7687,50.1137,15.9568,-32.0213,-7.41715,7.12502,-5.26927,-37.3316,-5.56597e-15,-1.03368e-14,3.41184,34.0385,52.1017,37.3299,-9.4866,-27.0643,34.9879,7.12502,-0.482208,64.9671,-33.1501,11.3459,4.21224,93.0174,-12.4354,38.5973,22.9037,-71.2234,5.78701,-17.5637,79.3654,-10.2999,-4.89399,-19.7685
-2.12119,13.8389,-6.70217,4.61485,-62.9056,1.72024,37.0972,0.909289,1.92379,7.6171,1.54922,2.84657,-9.93889,0.385343,1.46059,-16.5323,13.8946,-2.06777,2.05599,20.4375,-17.571,4.99587,9.05837,-3.04122,-3.4191e-14,1.51076e-14,-31.8383,-25.409,-60.6441,50.0959,16.6679,-31.7088,-6.57226,7.12502,-4.96756,-36.494,-3.4191e-14,1.51076e-14,4.01953,34.0237,51.5289,37.3262,-9.24954,-26.1409,35.7592,7.12502,0.409672,65.7385,-32.807,11.2203,4.40384,92.7773,-12.0991,38.6706,23.8045,-71.5611,5.4516,-17.4636,79.7565,-10.3961,-4.8242,-18.3644
-2.15097,13.8395,-6.64711,5.18705,-62.9307,1.27101,37.1306,0.994922,1.77048,7.64203,1.6231,3.08813,-9.93983,0.417548,1.77041,-16.4308,13.8691,-2.43408,1.6938,20.3989,-17.6171,4.83263,9.0712,-3.03225,2.8625e-14,-2.62396e-14,-31.5901,-25.0621,-60.6614,50.1903,16.8115,-31.3818,-5.49331,7.12502,-4.65181,-35.4222,2.8625e-14,-2.62396e-14,3.85774,34.3489,51.7425,37.5361,-8.98526,-27.7447,35.5214,7.12502,-1.13934,65.4981,-32.6365,11.3825,4.49874,92.5458,-11.808,38.7138,24.369,-71.7573,5.49079,-17.439,80.1268,-10.4902,-4.75465,-16.7884
-2.17789,13.8365,-6.60374,5.8197,-62.8614,0.811457,37.2152,0.91646,1.44261,7.58157,1.4518,3.44487,-10.0599,0.341307,2.39442,-16.1539,14.0073,-3.1186,1.25722,20.6017,-17.6109,4.59657,9.22081,-2.95507,4.92986e-14,-2.38542e-15,-31.2352,-23.5606,-60.7415,50.4236,16.6177,-31.5421,-5.51406,7.12502,-4.80656,-35.4395,4.92986e-14,-2.38542e-15,3.08869,35.0847,51.5793,37.6739,-9.05427,-28.9103,36.2246,7.12502,-2.26508,66.1923,-32.5813,11.331,4.65208,92.3847,-11.7608,38.6586,24.4196,-72.0152,5.60028,-17.3701,80.4093,-10.7964,-4.99704,-17.3237
-2.20219,13.8287,-6.56371,6.63697,-62.47,0.249956,37.2559,0.682176,1.20996,7.49344,1.13612,3.87728,-10.1862,0.200066,3.11023,-16.03,14.1444,-3.76349,0.843004,20.8221,-17.7794,4.41849,9.35812,-2.92123,-1.66979e-14,-4.6118e-14,-30.7161,-22.212,-60.7693,50.4884,16.5558,-31.8321,-6.21136,7.12502,-5.08657,-36.1303,-1.66979e-14,-4.6118e-14,2.1933,35.6167,51.0399,37.6965,-8.95332,-27.1786,36.3027,7.12502,-0.592578,66.2817,-32.5828,10.9305,4.91264,92.2701,-11.8072,38.5641,24.2379,-72.4659,5.42751,-17.2258,80.6654,-11.0344,-5.19196,-17.4449
-2.22888,13.8212,-6.52625,7.91808,-62.1873,-0.764554,37.2287,0.511303,1.15841,7.36128,0.969162,4.30088,-10.3353,0.126036,3.66374,-15.8466,14.303,-4.16851,0.601561,21.0628,-18.0306,4.32057,9.49137,-2.93548,-2.8625e-14,1.98785e-14,-30.328,-20.9431,-60.8392,50.6555,16.2635,-31.9915,-6.91562,7.12502,-5.24052,-36.8308,-2.8625e-14,1.98785e-14,1.44431,35.7507,50.3229,37.5764,-8.70334,-25.9495,35.79,7.12502,0.594538,65.7689,-32.7808,10.7641,5.50818,92.1704,-12.5429,37.9601,22.7249,-73.0437,5.38979,-16.8796,80.9793,-11.0578,-5.30865,-16.2023
-2.25953,13.8204,-6.48954,8.89827,-62.4465,-1.63773,37.1808,0.605106,1.33641,7.38919,1.1265,4.14119,-10.2834,0.193292,3.33293,-15.7938,14.368,-3.67443,0.509127,21.0591,-18.1249,4.34495,9.50083,-3.027,6.04305e-14,-6.75868e-14,-30.451,-20.4837,-61.3788,51.0809,15.6674,-32.3545,-8.12219,7.12502,-5.59105,-38.0284,6.04305e-14,-6.75868e-14,1.81304,35.4089,49.9731,37.4399,-8.60167,-26.5558,35.2973,7.12502,0.00894604,65.277,-32.8509,11.2196,5.95668,92.0054,-12.9829,37.4497,21.8066,-73.2908,5.8525,-16.652,81.303,-11.2154,-5.37574,-15.6728
-2.29083,13.8266,-6.43664,8.88499,-62.7118,-1.57301,37.0402,0.724435,2.04011,7.66839,1.39576,3.24117,-9.8695,0.304948,1.88414,-16.4677,14.1199,-2.36341,0.676347,20.5741,-17.9416,4.57892,9.22921,-3.14266,3.10104e-14,1.66979e-14,-30.9139,-22.4992,-62.088,51.1486,16.093,-32.5657,-8.39004,7.12502,-5.79496,-38.2908,3.10104e-14,1.66979e-14,3.75147,34.1636,50.0642,37.2393,-8.20254,-26.6702,34.7654,7.12502,-0.101603,64.7451,-32.5487,11.5276,5.77853,91.7179,-13.0056,37.4357,21.9247,-73.1461,6.13945,-16.8964,81.4942,-11.6669,-5.43556,-15.5259
-2.31432,13.8282,-6.37115,8.93208,-61.9668,-1.35989,36.8125,0.332618,2.8992,7.77406,1.1674,2.81507,-9.62254,0.195445,1.06679,-16.9534,13.903,-1.88561,0.695922,20.2183,-17.8002,4.66533,9.03692,-3.176,4.6118e-14,-1.90833e-14,-31.1236,-23.862,-62.2873,51.0819,16.748,-32.5625,-7.86676,7.12502,-5.79184,-37.7676,4.6118e-14,-1.90833e-14,4.81337,33.4224,50.1643,37.1312,-7.8104,-26.3577,35.1513,7.12502,0.200268,65.1309,-32.0716,10.7305,5.60612,91.3914,-13.6083,37.4597,21.0637,-73.3647,5.37548,-17.0972,81.57,-11.8541,-5.59397,-14.7427
-2.33416,13.8343,-6.30612,9.44285,-60.4541,-1.62726,36.7274,-0.449046,3.51355,7.64382,0.488282,3.19284,-9.72615,-0.123508,1.41649,-16.8724,13.9428,-2.38363,0.464138,20.3207,-17.8906,4.54989,9.10291,-3.13972,1.35174e-14,1.74931e-14,-30.8417,-22.852,-62.212,51.1928,16.7476,-32.7209,-8.50982,7.12502,-5.94471,-38.4064,1.35174e-14,1.74931e-14,4.30604,33.8564,50.1981,37.2118,-7.75457,-26.149,35.5411,7.12502,0.401852,65.5204,-31.3273,9.34145,5.8995,90.98,-14.0484,37.4308,20.7953,-73.7714,3.8978,-16.9301,81.6011,-11.7473,-5.7622,-12.7071
-2.36465,13.8456,-6.27014,9.97116,-60.4737,-2.12392,37.0932,-0.184147,2.93562,7.50867,0.686584,3.67854,-10.0382,-0.031035,2.16697,-16.7049,13.9358,-2.72616,0.240876,20.3286,-18.0141,4.43599,9.12636,-3.14912,-3.97569e-14,-5.32743e-14,-30.7,-22.0768,-62.0169,51.2768,16.9498,-32.9705,-9.89223,7.12502,-6.18571,-39.7819,-3.97569e-14,-5.32743e-14,3.85483,34.0831,50.3724,37.2474,-7.71455,-25.8937,35.5077,7.12502,0.64839,65.4865,-31.07,9.57079,6.22126,90.648,-14.3412,37.1096,20.4892,-73.776,4.11497,-16.8104,81.7397,-11.902,-5.9924,-10.8523
-2.39547,13.8511,-6.2338,10.343,-60.5205,-2.36529,37.3466,0.127493,2.60689,7.42427,0.989448,3.85171,-10.2461,0.110787,2.40695,-16.7649,13.7844,-2.7772,0.0889599,20.1034,-17.9626,4.37062,9.02849,-3.15761,-1.35174e-14,1.74931e-14,-30.8579,-22.4742,-61.7949,51.3798,17.1717,-32.8813,-9.50227,7.12502,-6.09961,-39.3945,-1.35174e-14,1.74931e-14,4.18268,33.7898,50.6622,37.0711,-7.696,-25.6729,35.4206,7.12502,0.86168,65.3986,-30.9866,9.66187,6.34859,90.396,-14.8274,36.7892,19.3434,-73.8606,4.3915,-16.8909,81.9108,-12.2279,-6.1648,-11.2816
-2.43245,13.8551,-6.19392,10.7372,-60.9152,-2.6507,37.3756,0.485528,2.31114,7.50632,1.3066,3.81166,-10.1815,0.258217,2.39072,-17.1051,13.7116,-2.72706,0.140215,20.0227,-17.8725,4.42839,8.97032,-3.12613,-1.19271e-14,-5.1684e-14,-30.8649,-22.7819,-61.8819,51.5825,16.9693,-32.6101,-8.69815,7.12502,-5.83783,-38.5977,-1.19271e-14,-5.1684e-14,4.53984,33.6672,50.8355,37.1287,-7.76673,-26.1341,35.3114,7.12502,0.416233,65.2907,-30.9149,10.2189,6.40195,90.1324,-14.5876,36.6411,20.0837,-73.8511,4.9605,-17.0061,82.1376,-12.6817,-6.10325,-12.3957
-2.46084,13.8522,-6.14313,11.1267,-60.5738,-2.8308,37.2313,0.397892,2.56852,7.50584,1.2976,3.8471,-10.1229,0.251722,2.29635,-17.2371,13.6138,-2.94132,0.173629,19.932,-17.7279,4.4147,8.9234,-3.06129,4.37326e-14,3.57812e-14,-30.9322,-22.5204,-61.8024,51.7158,16.8691,-32.7196,-10.0385,7.12502,-5.9435,-39.9352,4.37326e-14,3.57812e-14,4.61026,33.5817,51.1394,37.4035,-7.84172,-26.3156,35.2738,7.12502,0.240901,65.2534,-30.6492,10.1238,6.47681,89.8668,-14.1709,36.6354,21.2686,-74.1184,4.73213,-17.0769,82.3659,-12.914,-6.10742,-12.3833
-2.48694,13.8492,-6.09373,11.6058,-59.5562,-3.04076,37.1152,-0.0456485,3.10996,7.35451,0.986132,3.97067,-10.2302,0.105438,2.27016,-17.0235,13.5844,-3.16496,-0.111613,19.8502,-17.5631,4.2438,8.93126,-3.02076,1.90833e-14,7.15625e-15,-31.1895,-21.9079,-61.6657,51.946,16.6627,-32.7435,-10.9607,7.12502,-5.96663,-40.8567,1.90833e-14,7.15625e-15,4.46171,33.4719,51.2277,37.5582,-7.77252,-25.8789,35.3978,7.12502,0.662748,65.3765,-30.2581,9.36935,6.80019,89.6031,-14.601,36.3739,20.6468,-74.5605,3.82458,-16.9495,82.5074,-13.0153,-6.29105,-11.8875
-2.51801,13.8547,-6.05266,12.005,-59.4549,-3.31353,37.2357,-0.127848,2.97582,7.29236,0.849494,4.00106,-10.3452,0.0455175,2.43028,-16.877,13.6899,-3.16117,-0.540515,19.9083,-17.6321,4.09887,9.00283,-3.05822,-8.11041e-14,1.35174e-14,-31.0103,-21.323,-61.957,52.0364,16.5681,-32.6281,-10.8129,7.12502,-5.85514,-40.712,-8.11041e-14,1.35174e-14,4.19429,33.9062,50.9771,37.5426,-7.83614,-25.009,36.209,7.12502,1.50288,66.1835,-30.0601,9.48818,6.97622,89.3263,-13.9514,36.3077,21.8316,-74.6699,3.85064,-16.9415,82.6737,-13.1359,-6.29643,-11.4748
-2.54539,13.8608,-5.99576,12.0203,-58.8527,-2.9936,36.9295,-0.535986,3.14762,7.33422,0.388613,3.93475,-10.1706,-0.162169,2.44969,-17.0236,13.7311,-3.31828,-0.752476,19.9623,-17.6248,4.04281,9.03993,-3.02971,4.29375e-14,0,-30.5967,-21.244,-62.2687,51.9552,16.7958,-32.9487,-11.2084,7.12502,-6.16464,-41.0987,4.29375e-14,0,4.0495,34.348,50.756,37.5058,-7.88388,-24.2354,36.4832,7.12502,2.25001,66.4511,-29.7465,8.89364,6.82325,89.0092,-13.6675,36.3149,22.5576,-74.9073,3.32016,-17.249,82.7455,-13.162,-6.17649,-11.0858
-2.58254,13.8741,-5.96835,12.5305,-59.7528,-3.48109,37.0686,0.131854,2.59359,7.37754,1.00261,3.90902,-10.2031,0.124097,2.46788,-17.2225,13.7268,-3.21863,-0.396701,20.0211,-17.6222,4.19883,9.02724,-3.00885,6.12257e-14,-1.03368e-14,-30.6823,-21.7327,-62.2064,51.9908,16.7291,-32.7076,-10.3208,7.12502,-5.93193,-40.2178,6.12257e-14,-1.03368e-14,4.42135,34.1079,50.87,37.5147,-7.8112,-24.1973,36.0064,7.12502,2.28684,65.9739,-29.9175,9.88157,6.97266,88.7749,-14.4162,35.7029,20.4284,-74.7554,4.56969,-17.3626,82.9133,-13.8157,-6.3778,-12.4039
-2.60853,13.901,-5.91523,12.4703,-59.519,-3.53784,37.4955,0.016199,2.82355,7.27532,0.959169,3.80946,-10.4577,0.0978437,2.26191,-17.0771,13.4844,-3.21215,-0.582675,19.6259,-17.4065,4.06587,8.86953,-3.01178,5.64548e-14,-2.06736e-14,-30.9617,-21.7597,-62.1157,52.238,16.471,-32.3562,-7.58288,7.12502,-5.59265,-37.4891,5.64548e-14,-2.06736e-14,4.47697,33.9596,50.8272,37.5337,-8.1182,-24.9308,36.1003,7.12502,1.57839,66.0742,-29.3413,9.53773,7.05533,88.3676,-15.441,35.2478,17.873,-74.3735,4.3347,-17.4428,82.9032,-14.2652,-6.32403,-13.7529
-2.64114,13.9195,-5.87768,12.9591,-59.4434,-3.80507,37.4326,-0.010567,2.82425,7.23015,0.916334,3.68607,-10.4815,0.0817505,2.14581,-17.0602,13.4879,-3.07023,-0.790811,19.5568,-17.2816,3.99159,8.86294,-3.01162,-2.94201e-14,-3.18055e-15,-31.0457,-21.6749,-62.259,52.2336,16.8094,-32.4241,-5.50538,7.12502,-5.65823,-35.4098,-2.94201e-14,-3.18055e-15,4.43196,33.7502,50.4373,37.4702,-8.20242,-26.1532,36.0061,7.12502,0.39779,65.9855,-29.3029,9.41612,7.21498,88.0509,-15.2657,34.9984,17.8277,-74.449,4.24763,-17.3332,82.9516,-14.3925,-6.28973,-13.5362
-2.67039,13.928,-5.83059,13.3835,-59.1315,-3.99271,37.2529,-0.133299,2.97847,7.22232,0.816689,3.65659,-10.4189,0.036879,2.0718,-17.169,13.6113,-2.83738,-0.712859,19.7169,-17.4122,4.08162,8.92311,-3.04866,4.13472e-14,7.23576e-14,-30.9604,-21.5889,-62.3721,52.1218,17.1221,-32.58,-5.23214,7.12502,-5.80875,-35.1325,4.13472e-14,7.23576e-14,4.38053,33.4504,50.1648,37.4104,-7.88991,-26.5429,35.8672,7.12502,0.0213827,65.847,-29.1396,9.1058,7.34283,87.73,-14.8055,34.8905,18.9034,-74.6293,3.95817,-17.3035,83.0452,-14.5556,-6.23652,-14.0412
-2.70521,13.9384,-5.78418,13.4808,-59.4178,-3.97256,37.2431,0.0953502,2.52196,7.24777,0.933591,3.72892,-10.4058,0.0984518,2.34182,-17.0729,13.6671,-2.92386,-0.858183,19.7903,-17.601,4.04115,8.96682,-3.0925,7.55382e-15,-1.35174e-14,-30.7594,-21.2001,-62.3859,52.2539,16.7637,-32.3524,-4.94072,7.12502,-5.58895,-34.847,7.55382e-15,-1.35174e-14,4.11946,33.5266,50.0482,37.3883,-7.85071,-25.7898,36.3439,7.12502,0.748764,66.3224,-28.9923,9.37647,7.22375,87.4427,-14.4434,34.6668,19.851,-74.5122,4.2134,-17.4974,83.13,-14.9494,-6.20788,-14.3338
-2.74066,13.9514,-5.75092,14.112,-60.1261,-4.59077,37.3571,0.567515,2.00797,7.27344,1.32916,3.80244,-10.449,0.284093,2.53168,-16.9682,13.6493,-2.99127,-1.10986,19.7313,-17.688,3.94647,8.96106,-3.13062,1.94809e-14,4.57205e-14,-30.6468,-20.9366,-62.3399,52.3736,16.512,-32.1272,-4.7124,7.12502,-5.37156,-34.6243,1.94809e-14,4.57205e-14,3.93392,33.7168,50.0102,37.4764,-7.94268,-24.9718,37.1171,7.12502,1.53883,67.0913,-29.0744,10.1829,7.44192,87.18,-13.9255,34.3127,20.6579,-74.3629,5.05816,-17.3897,83.2428,-15.2831,-6.38418,-14.022
-2.75937,13.9692,-5.69284,14.3306,-58.8073,-4.49832,37.1825,-0.180057,2.81162,7.16096,0.723126,3.81871,-10.4709,-0.000307012,2.37165,-16.9674,13.6985,-3.04902,-1.16291,19.7977,-17.6748,3.92693,8.99991,-3.11421,6.20208e-14,-7.23576e-14,-30.5419,-20.4814,-62.3563,52.6178,15.8648,-32.165,-4.67183,7.12502,-5.40808,-34.5828,6.20208e-14,-7.23576e-14,3.69444,34.1627,50.0028,37.6476,-8.40654,-24.8304,37.5504,7.12502,1.6754,67.5235,-28.5755,8.75616,7.70434,86.8175,-14.291,33.9804,19.8524,-74.6262,3.71711,-17.2602,83.1655,-15.3004,-6.38152,-14.1966
-2.79004,13.9866,-5.64962,14.6072,-58.8331,-4.63063,37.1195,-0.16833,2.6463,7.19326,0.670772,3.82512,-10.4154,-0.0205525,2.48563,-17.0941,13.7314,-3.27336,-1.11695,19.8892,-17.5503,3.92989,9.04121,-3.0325,-5.48646e-14,-9.89948e-14,-30.2406,-20.0571,-62.5031,52.698,15.7632,-32.278,-5.1058,7.12502,-5.51713,-35.014,-5.48646e-14,-9.89948e-14,3.43153,34.7611,49.9089,37.7426,-9.15548,-25.3682,37.0005,7.12502,1.15594,66.9771,-28.3525,8.81336,7.72724,86.511,-13.6891,33.8241,21.4006,-74.5631,3.69647,-17.2327,83.2137,-15.4801,-6.37727,-13.5082
-2.82288,13.9977,-5.59968,14.7624,-59.012,-4.67363,37.044,-0.029839,2.48209,7.23823,0.7641,3.74481,-10.3426,0.0257855,2.44655,-17.1604,13.6902,-3.22885,-1.10456,19.8293,-17.5028,3.93863,9.01001,-3.02728,1.47101e-14,2.74323e-14,-30.1761,-20.0835,-62.5061,52.6563,16.2106,-32.1858,-5.3929,7.12502,-5.42817,-35.3034,1.47101e-14,2.74323e-14,3.36364,34.7016,49.7921,37.7545,-8.88132,-25.8342,35.3329,7.12502,0.705838,65.3115,-28.1272,9.01549,7.61397,86.2361,-13.0143,33.8098,23.1946,-74.4734,3.87213,-17.3933,83.3315,-15.5547,-6.50175,-12.2778
-2.85194,13.9969,-5.55887,15.2641,-59.2587,-5.03545,36.9809,0.162746,2.39727,7.26527,0.955632,3.66436,-10.295,0.114757,2.32673,-17.2106,13.6828,-3.03161,-1.21925,19.7719,-17.5453,3.93105,8.98739,-3.07116,1.70955e-14,7.15625e-15,-30.0442,-20.8049,-62.4693,52.5581,16.7925,-31.8801,-4.3169,7.12502,-5.13292,-34.2347,1.70955e-14,7.15625e-15,3.38283,34.3807,49.5972,37.8913,-8.1251,-25.7376,36.1456,7.12502,0.79917,66.1239,-28.2044,9.24409,7.78318,86.0645,-13.5662,33.2774,21.7039,-74.4771,4.31371,-17.5056,83.5537,-15.8081,-6.36536,-12.625
-2.88533,13.9892,-5.5139,15.6858,-59.3787,-5.38554,36.9088,0.269149,2.40872,7.30895,1.08108,3.64302,-10.2222,0.17094,2.24661,-17.2349,13.631,-3.12617,-1.26504,19.7077,-17.4853,3.89986,8.96238,-3.05059,9.93923e-15,1.15295e-14,-29.8814,-21.2488,-62.4582,52.4246,17.6572,-32.1756,-5.00164,7.12502,-5.41826,-34.9124,9.93923e-15,1.15295e-14,3.34714,34.2029,49.5209,38.0224,-7.48328,-25.4791,36.9974,7.12502,1.04883,66.9745,-28.1639,9.42322,8.04899,85.8718,-14.4224,32.4103,19.0993,-74.3406,4.63942,-17.6912,83.8165,-16.4569,-5.81796,-15.7358
-2.92151,14.0134,-5.46196,15.7559,-59.2912,-5.44773,37.0376,0.360759,2.28589,7.26083,1.1734,3.7655,-10.3337,0.214387,2.40682,-17.0515,13.5111,-3.46264,-1.39385,19.5609,-17.4065,3.77994,8.91611,-3.01973,2.34566e-14,-4.13472e-14,-30.0646,-20.3183,-62.2843,52.8093,17.1905,-32.6006,-6.85468,7.12502,-5.82862,-36.7545,2.34566e-14,-4.13472e-14,3.14654,34.2676,49.6158,38.1106,-7.56884,-25.1569,37.1834,7.12502,1.36005,67.1589,-27.7597,9.38516,8.16916,85.4966,-14.6242,31.8792,18.2234,-74.0643,4.48446,-17.7808,83.9341,-16.9024,-5.59581,-17.4724
-2.95224,14.0545,-5.41155,16.1796,-59.0571,-5.8908,37.1876,0.322287,2.44175,7.2149,1.20343,3.85227,-10.4379,0.223041,2.4073,-17.0385,13.4632,-3.58561,-1.40833,19.5053,-17.2882,3.74379,8.89767,-2.97952,1.11319e-14,-4.45278e-14,-30.1732,-19.4001,-62.2127,53.4113,15.8325,-32.4057,-6.29786,7.12502,-5.6404,-36.2028,1.11319e-14,-4.45278e-14,3.04515,34.2764,49.5895,38.0969,-7.76004,-25.5308,37.0604,7.12502,0.998945,67.0378,-27.3086,9.18828,8.50929,85.0134,-14.3821,31.65,18.4113,-73.8954,4.20393,-17.4734,83.96,-16.9441,-5.7475,-17.1683
-2.98279,14.0637,-5.36308,16.1055,-58.9338,-5.76093,37.1221,0.146904,2.51651,7.30894,0.973469,3.61268,-10.2911,0.118221,2.20195,-17.1718,13.5783,-3.29569,-1.4211,19.6209,-17.3095,3.79776,8.94834,-3.00084,-3.53837e-14,7.95139e-16,-29.921,-19.0804,-62.5633,53.5393,15.8446,-32.2662,-6.06127,7.12502,-5.50574,-35.9697,-3.53837e-14,7.95139e-16,2.94561,34.4287,49.2124,38.1008,-7.69312,-26.228,36.4284,7.12502,0.325546,66.4079,-26.915,9.06352,8.45169,84.6531,-14.1542,31.572,18.8556,-73.6847,4.19512,-17.6995,83.9753,-17.0749,-5.67895,-17.3882
-3.02132,14.0688,-5.31287,16.1028,-59.0747,-5.53877,36.9515,0.548259,1.77094,7.29771,1.24046,4.00331,-10.2905,0.255285,2.90612,-17.2095,13.5572,-3.62794,-1.2825,19.6935,-17.5062,3.84427,8.95823,-2.99809,-7.11649e-14,8.46823e-14,-29.8152,-18.8805,-61.8574,53.4274,16.3694,-32.3646,-7.17119,7.12502,-5.60072,-37.0772,-7.11649e-14,8.46823e-14,2.55934,34.5886,49.6855,38.1515,-7.74709,-26.5464,35.9125,7.12502,0.0179795,65.8922,-26.7746,9.1986,8.25153,84.3272,-13.6352,31.5252,19.893,-73.6089,4.48149,-18.0999,84.0279,-17.2684,-5.71761,-17.1096
-3.06162,14.0927,-5.25887,16.6018,-59.1364,-5.89351,36.8275,0.393792,2.23674,7.21367,1.17139,3.52463,-10.3043,0.221476,2.17339,-17.0424,13.6385,-3.0743,-1.41112,19.6569,-17.2959,3.80246,8.97475,-3.02769,-6.40087e-14,2.46493e-14,-29.9884,-19.3964,-62.4004,53.4764,16.8255,-32.5543,-8.13239,7.12502,-5.78391,-38.0335,-6.40087e-14,2.46493e-14,2.48285,33.8811,48.7693,38.058,-7.33909,-26.4569,35.9269,7.12502,0.10445,65.9066,-26.5682,9.3125,8.43884,83.8841,-13.3005,31.2611,20.1886,-73.538,4.59081,-18.0375,84.0933,-17.5078,-5.75768,-17.2606
-3.0948,14.1196,-5.20588,17.0092,-58.8667,-6.28269,36.7435,0.423858,2.24584,7.2801,1.23299,3.7771,-10.2103,0.246646,2.4145,-17.0953,13.5946,-3.15269,-1.44672,19.6254,-17.524,3.81831,8.94645,-3.08234,2.5842e-14,1.23246e-14,-29.7693,-19.3207,-62.148,53.6203,16.7924,-32.412,-8.16653,7.12502,-5.64656,-38.0713,2.5842e-14,1.23246e-14,2.24197,33.9094,48.8807,38.1041,-7.32455,-26.1726,36.2603,7.12502,0.379033,66.2397,-26.1554,9.17383,8.78006,83.3918,-13.2929,30.7774,19.9972,-73.3804,4.29131,-17.7824,84.1291,-17.7931,-5.63882,-18.0924
-3.12545,14.1524,-5.15228,17.3648,-58.6109,-6.53586,36.7021,0.378822,2.20273,7.24829,1.18269,3.92314,-10.2368,0.225207,2.61434,-17.0718,13.6567,-3.00588,-1.35479,19.7249,-17.8847,3.90879,8.96851,-3.18621,-2.5842e-14,-3.93594e-14,-29.607,-19.1521,-62.0296,53.7638,16.6356,-32.3011,-7.41965,7.12502,-5.53944,-37.3272,-2.5842e-14,-3.93594e-14,1.74344,34.3871,48.9207,38.3395,-7.67603,-26.1399,36.2153,7.12502,0.410616,66.1947,-25.8349,8.99929,9.01304,82.8645,-12.8922,30.3093,20.3621,-73.377,4.03579,-17.6933,84.2123,-18.1873,-5.44768,-18.8495
-3.15784,14.1824,-5.09944,17.8589,-58.4547,-6.96362,36.6715,0.346243,2.39475,7.20127,1.21683,3.91261,-10.2729,0.238249,2.48832,-17.0125,13.6438,-3.03189,-1.30273,19.71,-17.7843,3.89983,8.96652,-3.15863,6.83819e-14,-4.17448e-14,-29.615,-19.1366,-62.1051,54.0741,16.4218,-32.2881,-7.18416,7.12502,-5.52692,-37.0921,6.83819e-14,-4.17448e-14,1.52174,34.4833,48.8638,38.4691,-7.7561,-26.149,35.689,7.12502,0.40183,65.6684,-25.5085,9.07358,9.36075,82.3311,-12.1168,29.9073,21.5466,-73.509,4.03143,-17.6614,84.4155,-18.4541,-5.19184,-20.0824
-3.19178,14.2056,-5.04738,17.9402,-58.3586,-6.92205,36.631,0.37227,2.47948,7.15586,1.27666,3.82787,-10.3049,0.266728,2.32849,-16.9111,13.4707,-3.3067,-1.45213,19.4623,-17.4283,3.75116,8.88336,-3.06633,-9.54166e-15,3.93594e-14,-29.6953,-19.2852,-62.0574,54.2728,16.4194,-32.2757,-7.1084,7.12502,-5.51495,-37.0166,-9.54166e-15,3.93594e-14,1.5782,34.3221,48.896,38.4036,-7.71175,-26.4802,35.3681,7.12502,0.0819091,65.3478,-25.1611,9.18763,9.45579,81.8669,-11.9348,29.4528,21.3365,-73.486,4.02534,-17.8615,84.5516,-18.4216,-5.1843,-20.3339
-3.22866,14.2276,-4.99589,17.9336,-58.3658,-6.77383,36.4887,0.402873,2.46929,7.18455,1.28617,3.66404,-10.2153,0.274556,2.15305,-16.9995,13.3924,-3.41482,-1.43606,19.3674,-17.1861,3.72427,8.84415,-2.99089,1.39149e-14,-4.13472e-14,-29.6628,-19.5246,-61.9999,54.2248,16.5815,-32.1849,-7.02409,7.12502,-5.42727,-36.9346,1.39149e-14,-4.13472e-14,1.85039,34.2744,48.7321,38.1345,-7.44893,-26.5604,35.5552,7.12502,0.00453728,65.5349,-24.9243,9.20891,9.417,81.4422,-11.8302,29.0349,20.8724,-73.3258,4.1313,-18.1421,84.6157,-18.4191,-5.11521,-20.4103
-3.26377,14.2428,-4.94924,18.3653,-58.1519,-7.14989,36.3764,0.322155,2.63947,7.22283,1.23964,3.65153,-10.124,0.250568,2.0679,-17.1223,13.4635,-3.3036,-1.34835,19.4759,-17.2682,3.79804,8.87948,-3.0046,1.15295e-14,-9.18385e-14,-29.4815,-19.5984,-62.0047,54.2425,16.5733,-32.1638,-7.08822,7.12502,-5.40688,-36.9992,1.15295e-14,-9.18385e-14,2.05913,34.3158,48.4272,37.6855,-7.20978,-26.542,35.6469,7.12502,0.0222932,65.6266,-24.6266,9.22699,9.75483,81.0398,-11.4432,28.5973,21.1658,-73.3136,4.19375,-18.1218,84.7481,-18.4085,-4.92608,-20.9718
-3.29865,14.2632,-4.90128,18.5882,-57.9219,-7.2209,36.394,0.403558,2.30568,7.135,1.26466,3.92698,-10.2524,0.269528,2.53006,-17.1673,13.5268,-3.34654,-1.2164,19.6125,-17.4954,3.87885,8.91962,-3.03872,1.39149e-14,2.0276e-14,-29.319,-19.4701,-61.6341,54.2559,16.3774,-32.3072,-6.33482,7.12502,-5.54536,-36.2423,1.39149e-14,2.0276e-14,1.64739,34.4582,48.3725,37.579,-7.25743,-26.8625,35.7011,7.12502,-0.28725,65.6806,-24.3239,9.2747,9.90112,80.6388,-10.8497,28.3151,21.8938,-73.3756,4.16623,-18.2763,84.8607,-18.4609,-4.92956,-21.5914
-3.33725,14.286,-4.84763,18.7091,-57.9156,-7.19358,36.3003,0.40771,2.25054,7.09579,1.24195,3.82995,-10.2598,0.263834,2.46354,-17.0555,13.4469,-3.49083,-1.36528,19.4782,-17.2886,3.7673,8.88453,-2.99134,7.196e-14,-4.69132e-14,-29.3791,-19.5208,-61.5012,54.3437,16.1893,-32.2278,-5.36651,7.12502,-5.46868,-35.276,7.196e-14,-4.69132e-14,1.41251,34.5815,48.1851,37.6315,-7.08456,-27.226,35.6756,7.12502,-0.638408,65.6544,-24.1004,9.42833,9.92583,80.2198,-10.5091,28.0675,21.7336,-73.2937,4.22912,-18.4525,84.8844,-18.7521,-5.05078,-22.2794
-3.37496,14.3072,-4.80004,18.9021,-57.8707,-7.30066,36.3884,0.472129,1.99213,6.94519,1.2731,4.04121,-10.4802,0.28565,2.81623,-16.8045,13.3425,-4.22964,-1.45015,19.3987,-16.8924,3.57922,8.88822,-2.81841,5.76476e-14,1.15295e-14,-29.493,-18.9055,-61.0275,54.5143,15.9678,-32.2198,-5.15254,7.12502,-5.46091,-35.0622,5.76476e-14,1.15295e-14,0.56194,34.9257,48.117,37.9036,-7.02205,-27.1783,35.7527,7.12502,-0.592288,65.7317,-23.9138,9.5334,10.1159,79.8094,-10.737,27.6508,19.7118,-73.0846,4.21409,-18.4181,84.8462,-18.861,-5.20844,-21.9867
-3.41414,14.3401,-4.74759,19.0117,-57.8203,-7.3195,36.1705,0.352301,1.7743,7.05745,1.02556,4.02701,-10.2705,0.177358,3.01281,-16.955,13.4868,-4.46845,-1.51037,19.6309,-16.8149,3.56471,9.00521,-2.73703,-3.26007e-14,2.18663e-14,-28.9438,-18.4778,-61.3213,54.534,15.9508,-32.2097,-4.8317,7.12502,-5.45117,-34.7416,-3.26007e-14,2.18663e-14,-0.129511,35.6526,47.6979,38.1357,-7.09684,-26.8382,35.937,7.12502,-0.26386,65.9165,-23.6016,9.62092,10.2089,79.2978,-10.4037,27.3454,19.1696,-72.8362,4.15014,-18.5411,84.8006,-18.7803,-5.12089,-21.2114
-3.45703,14.3687,-4.69553,19.4036,-58.0111,-7.71676,36.1864,0.761039,1.1809,7.10716,1.3582,4.42215,-10.2727,0.337079,3.62015,-17.2201,13.4872,-4.80649,-1.35811,19.7511,-16.9653,3.64643,9.0273,-2.70216,2.74323e-14,-2.38542e-14,-28.7067,-18.4966,-60.7567,54.4477,15.6595,-31.9133,-3.06563,7.12502,-5.16497,-32.9827,2.74323e-14,-2.38542e-14,-0.468635,36.1883,48.2148,38.247,-7.30998,-26.5372,36.163,7.12502,0.026924,66.1427,-23.3161,10.1665,10.4013,78.7765,-9.29009,27.1485,20.938,-72.706,4.58508,-18.698,84.9431,-18.7782,-4.93141,-21.6759
-3.48555,14.3861,-4.63629,19.659,-57.0918,-7.77143,35.8576,0.0330996,2.27822,7.12945,0.788781,3.93884,-10.048,0.0617223,2.74186,-17.2332,13.5507,-4.29212,-1.5734,19.6989,-16.7859,3.60499,9.03204,-2.72898,4.09496e-14,-3.89618e-14,-28.6519,-18.6448,-61.5929,54.7341,15.7571,-32.0302,-4.46415,7.12502,-5.27788,-34.3784,4.09496e-14,-3.89618e-14,-0.423465,36.3487,47.6299,38.284,-7.30358,-26.4826,36.2184,7.12502,0.0796497,66.1981,-22.9872,9.52708,10.748,78.2355,-8.58895,27.0787,21.3719,-72.8486,3.75967,-18.2382,84.6153,-17.8404,-6.68863,-14.501
-3.53112,14.4084,-4.59102,19.9234,-57.1988,-8.03868,35.9265,0.292135,1.95266,7.06608,1.01545,4.04628,-10.1662,0.17237,2.94124,-17.1118,13.4482,-4.36083,-1.61747,19.5472,-16.6924,3.54614,8.97241,-2.72022,-1.27222e-14,-2.22639e-14,-28.8231,-18.2793,-61.4647,55.1011,15.4116,-32.2155,-6.16052,7.12502,-5.45685,-36.0703,-1.27222e-14,-2.22639e-14,-0.834832,36.4139,47.6922,38.4891,-7.27172,-26.7636,36.2162,7.12502,-0.191781,66.1958,-22.6846,9.84004,10.8679,77.6855,-7.71608,27.2027,22.133,-72.5946,4.31308,-18.6534,84.8638,-18.9629,-5.21457,-23.2716
-3.58009,14.4441,-4.51722,20.0271,-57.1147,-8.03506,35.6982,0.296343,2.29061,7.06973,1.10482,3.7556,-10.0599,0.211407,2.41341,-17.1351,13.312,-3.89854,-1.53904,19.2991,-16.6984,3.60466,8.841,-2.80031,-4.37326e-15,4.05521e-14,-29.2276,-18.6307,-61.5055,55.3652,15.2973,-32.4094,-6.82459,7.12502,-5.64402,-36.7294,-4.37326e-15,4.05521e-14,-0.581085,36.1224,47.759,38.7255,-6.81796,-26.8698,36.762,7.12502,-0.294368,66.7415,-22.1665,9.97442,10.7935,77.0201,-7.06182,27.4672,22.2017,-72.2287,4.16433,-18.6782,84.7603,-19.0547,-5.56562,-22.2286
-3.62319,14.4702,-4.4557,20.6076,-56.8972,-8.52521,35.5253,0.424368,2.72183,7.03613,1.40702,3.65079,-10.0223,0.344368,1.95441,-17.4044,13.2197,-3.25044,-1.16454,19.1591,-16.8688,3.83628,8.71549,-2.91304,-1.55052e-14,-4.17448e-14,-29.7286,-19.4399,-61.3127,55.5373,15.3693,-32.4249,-6.8583,7.12502,-5.659,-36.7627,-1.55052e-14,-4.17448e-14,0.0763872,35.9333,48.2194,38.8398,-6.23804,-27.1719,36.3233,7.12502,-0.586081,66.3023,-21.887,10.2462,11.1454,76.47,-6.4155,27.5808,21.6731,-72.1289,4.1304,-18.3719,84.7418,-18.9022,-6.22072,-19.687
-3.65067,14.4882,-4.42631,20.9707,-56.63,-8.71381,35.5141,0.52547,2.71908,6.96751,1.54165,3.64275,-10.0977,0.408428,1.89448,-17.6882,13.2214,-2.76076,-0.878174,19.1537,-17.0064,4.03173,8.66553,-2.98652,-1.03368e-14,-1.98785e-15,-29.9228,-19.5947,-61.2498,55.7449,15.1058,-32.3794,-7.34103,7.12502,-5.61503,-37.2466,-1.03368e-14,-1.98785e-15,0.348031,36.2214,48.51,38.8643,-6.27041,-27.597,33.7966,7.12502,-0.99669,63.774,-21.9535,10.4592,11.4196,76.1073,-5.00485,27.4786,22.2612,-72.2282,4.18338,-18.2441,84.5775,-18.6083,-6.88635,-17.9756
-3.67717,14.5087,-4.39656,21.1146,-56.2294,-8.65948,35.4585,0.472272,2.45469,6.97315,1.411,3.8358,-10.2069,0.356799,2.26831,-17.9751,13.2657,-2.53526,-0.636009,19.2536,-17.2791,4.21303,8.66085,-3.05418,-1.51076e-14,4.96962e-14,-29.8737,-18.9195,-61.0658,55.998,14.6141,-32.2683,-7.38751,7.12502,-5.50776,-37.2959,-1.51076e-14,4.96962e-14,-0.34851,36.769,48.4537,39.2199,-6.32564,-27.686,35.1752,7.12502,-1.08266,65.1522,-22.0382,10.4074,11.5895,75.8079,-3.7862,27.3927,21.8333,-72.2738,4.08263,-18.1752,84.2487,-18.2221,-7.81426,-16.3721
-3.71494,14.5363,-4.34401,21.0912,-55.9728,-8.55706,35.713,0.48505,2.38462,6.72961,1.44,3.88784,-10.46,0.373104,2.37462,-18.0457,13.1372,-2.57162,-0.455758,19.1194,-17.2632,4.26651,8.57463,-3.05103,-2.26615e-14,-4.25399e-14,-30.2119,-18.5729,-60.7058,56.1898,14.3107,-32.3297,-7.07419,7.12502,-5.56709,-36.9811,-2.26615e-14,-4.25399e-14,-1.05181,36.944,48.5048,39.7587,-6.3634,-27.5047,36.0261,7.12502,-0.907588,66.0039,-21.8997,10.3634,11.5612,75.4613,-2.74025,27.7386,20.7637,-71.9571,3.93564,-18.0987,83.8056,-17.9833,-8.83609,-14.5187
-3.75693,14.5679,-4.29994,21.0777,-56.2819,-8.47513,35.6666,0.727734,2.17579,6.80315,1.61838,3.55484,-10.3581,0.460352,2.05627,-18.1728,12.9971,-2.50233,-0.596038,18.8684,-16.8723,4.18465,8.48084,-2.97854,3.57812e-15,3.18055e-15,-30.1776,-19.3336,-61.0417,56.0579,14.9343,-32.3738,-6.54808,7.12502,-5.6096,-36.4538,3.57812e-15,3.18055e-15,-0.959978,37.076,48.5267,40.1667,-6.45721,-27.0254,36.1377,7.12502,-0.444581,66.117,-21.9202,10.8704,11.3146,75.1267,-0.843676,28.1793,21.1558,-71.5023,4.28497,-18.2531,83.4714,-18.0139,-9.43228,-13.0333
-3.78254,14.5887,-4.23887,20.6088,-55.5349,-7.50088,35.2612,0.330709,2.32668,6.78414,1.16669,3.39832,-10.3269,0.262803,1.96374,-18.1995,13.0009,-2.5452,-0.613264,18.8682,-16.7174,4.16076,8.49052,-2.92896,8.5875e-14,-3.51849e-14,-30.0273,-19.5352,-61.146,55.9238,15.2692,-32.4375,-6.20072,7.12502,-5.67116,-36.1048,8.5875e-14,-3.51849e-14,-1.40156,37.1778,48.4431,40.5773,-6.17072,-27.2469,36.3391,7.12502,-0.658541,66.3178,-22.0122,10.1396,10.7892,74.8375,1.44556,28.7595,21.982,-71.5721,3.39598,-18.7639,83.1999,-17.9,-9.55356,-12.279
-3.82418,14.6083,-4.19496,20.8783,-55.6329,-7.82908,35.3745,0.493282,2.01475,6.74084,1.28537,3.57433,-10.4378,0.322516,2.27167,-18.1118,13.0248,-2.86093,-0.564108,18.9622,-16.7078,4.13862,8.53739,-2.87812,-1.41137e-14,4.57205e-15,-29.9344,-19.0997,-60.9532,55.9947,14.9375,-32.5604,-6.20749,7.12502,-5.78978,-36.1084,-1.41137e-14,4.57205e-15,-2.25236,37.4013,48.3555,41.0425,-5.74861,-27.516,36.3391,7.12502,-0.918473,66.3168,-22.0589,10.5975,10.8776,74.6142,3.92267,28.9486,22.5198,-71.2726,3.84846,-18.8009,83.1832,-17.9617,-9.85359,-11.4131
-3.86235,14.6226,-4.15792,21.6884,-55.5627,-8.71411,35.4377,0.734445,1.77245,6.70388,1.55274,3.99017,-10.5392,0.447474,2.74046,-18.0528,12.9938,-3.31356,-0.618457,18.9897,-16.6725,4.06846,8.55963,-2.813,-1.15295e-14,-3.57812e-15,-29.7378,-18.8087,-60.6823,55.9578,15,-32.6953,-6.27353,7.12502,-5.92,-36.1708,-1.15295e-14,-3.57812e-15,-3.06074,37.7049,48.5162,41.5388,-5.36348,-27.7734,36.1437,7.12502,-1.16702,66.1203,-22.3392,10.9486,11.3659,74.6355,6.37696,28.8015,22.9547,-71.2021,4.41278,-18.4598,83.2178,-17.831,-10.4751,-9.78817
-3.89302,14.6438,-4.12262,22.0813,-55.2325,-8.88732,35.2887,0.72962,1.83483,6.66113,1.57113,3.96852,-10.5291,0.458314,2.6764,-18.1833,12.9011,-3.23573,-0.588716,18.8551,-16.5625,4.08389,8.49052,-2.79935,-1.15295e-13,3.04141e-14,-29.6446,-18.9846,-60.912,55.9251,15.4935,-32.998,-7.42888,7.12502,-6.21229,-37.3178,-1.15295e-13,3.04141e-14,-3.2561,37.9655,48.5539,41.8404,-5.49306,-27.6199,36.3588,7.12502,-1.01882,66.3361,-22.8051,10.7446,11.4504,74.6146,9.17255,28.5195,23.6031,-71.2534,4.50478,-18.4148,83.0471,-17.5049,-11.1801,-6.83595
-3.88722,14.6573,-4.15384,22.6703,-53.7737,-7.40482,33.7595,0.222613,1.72851,6.2834,0.911664,3.82837,-10.3433,0.195521,2.83534,-18.2831,12.8361,-2.95034,-0.731102,18.7005,-16.6367,4.0799,8.41743,-2.87379,-1.66979e-14,3.8763e-14,-29.5491,-18.9453,-61.2478,56.0298,15.5853,-33.1743,-8.35493,7.12502,-6.38252,-38.2388,-1.66979e-14,3.8763e-14,-3.26045,38.3887,48.4754,42.0348,-6.00646,-26.8909,36.4938,7.12502,-0.314746,66.4733,-25.1933,8.97055,10.9854,75.1433,11.7114,28.1978,23.4472,-73.3874,3.62037,-18.9913,82.6621,-16.8137,-12.1761,-5.43414
-3.96382,14.7063,-4.01204,21.2423,-54.8024,-7.69799,35.3659,0.623576,1.66219,6.54362,1.35188,3.56484,-10.67,0.370791,2.42275,-18.2657,12.8116,-2.72327,-0.550745,18.6586,-16.7015,4.15951,8.37897,-2.92048,-2.80286e-14,-5.12864e-14,-29.9241,-18.8429,-60.8967,56.1392,15.1789,-33.2237,-7.79011,7.12502,-6.43015,-37.6725,-2.80286e-14,-5.12864e-14,-3.69586,38.2621,48.5119,42.2531,-6.16312,-27.0881,36.3198,7.12502,-0.505132,66.2989,-23.3165,9.95432,10.4492,74.821,14.4901,28.5689,24.6292,-70.464,4.00791,-19.3139,82.4397,-17.9611,-11.2403,-6.68001
-3.99469,14.7195,-3.97855,21.2063,-54.4684,-7.35381,35.105,0.658019,1.64111,6.53899,1.36441,3.36313,-10.5704,0.382877,2.21211,-18.4433,12.7142,-2.36372,-0.446195,18.4751,-16.5474,4.22212,8.28153,-2.93217,1.96797e-14,-2.44505e-14,-30.0983,-19.3915,-60.8812,56.1423,14.9168,-33.1284,-7.08296,7.12502,-6.3382,-36.9681,1.96797e-14,-2.44505e-14,-3.56207,37.918,48.5368,42.4454,-5.99786,-27.5549,36.6995,7.12502,-0.956057,66.6771,-23.9161,9.67661,10.211,75.2099,17.2178,27.7269,26.3077,-70.4248,3.90996,-19.5637,82.1453,-17.9667,-11.6809,-5.09546
-4.0308,14.7442,-3.92601,21.3285,-54.2395,-7.43745,34.9825,0.554502,1.4981,6.53669,1.21059,3.58577,-10.5357,0.317749,2.58701,-18.2212,12.6805,-3.09248,-0.660276,18.4956,-16.2588,4.02286,8.33679,-2.77437,0,-3.53837e-14,-29.6966,-18.8751,-60.6677,55.9862,14.949,-32.7824,-6.43744,7.12502,-6.00415,-36.3324,0,-3.53837e-14,-4.79471,38.2722,48.2382,42.9417,-5.69882,-27.419,36.6313,7.12502,-0.824805,66.6095,-24.2824,9.49226,10.1764,75.5189,19.6462,26.5847,27.1779,-70.0129,3.69966,-19.5225,81.8644,-18.0798,-11.9013,-1.67121
-4.06682,14.7796,-3.87302,21.5072,-54.0703,-7.64252,35.0223,0.775286,1.78612,6.57285,1.56925,3.44206,-10.5058,0.47309,2.13817,-18.5861,12.4547,-2.60119,-0.335787,18.1769,-16.2754,4.2074,8.13392,-2.8487,-2.94201e-14,5.98342e-14,-30.0556,-19.9787,-60.5216,56.0093,15.0496,-32.6501,-6.02744,7.12502,-5.87639,-35.926,-2.94201e-14,5.98342e-14,-4.19152,37.8084,48.887,43.1168,-5.87447,-27.3617,37.3972,7.12502,-0.7694,67.3755,-24.8317,9.21704,10.2119,76.1694,21.3449,25.9571,26.0394,-69.472,3.3467,-19.2857,81.5654,-18.3782,-11.7888,-0.808574
-4.09249,14.7939,-3.84766,21.4028,-53.6999,-7.44213,35.1337,0.692973,1.54346,6.51993,1.40878,3.58759,-10.6171,0.407485,2.48652,-18.5047,12.4919,-2.90824,-0.384546,18.2741,-16.2756,4.15849,8.18946,-2.80341,5.74488e-14,-1.51076e-14,-29.845,-19.2814,-60.5167,56.1754,14.7257,-32.9135,-6.76989,7.12502,-6.1307,-36.6612,5.74488e-14,-1.51076e-14,-5.10031,38.2589,48.7627,43.5533,-5.94481,-27.7014,39.1511,7.12502,-1.09748,69.128,-25.7504,8.61231,10.1527,77.2824,21.8946,26.2916,22.0626,-69.2495,3.16567,-19.3312,81.2968,-18.6887,-11.964,-2.90406
-4.11621,14.7925,-3.83149,21.3829,-53.1673,-7.16069,35.0424,0.475409,1.47525,6.47662,1.12037,3.58308,-10.6229,0.28249,2.6318,-18.4659,12.4548,-3.24078,-0.54227,18.2367,-15.9945,4.03876,8.20277,-2.69337,1.0953e-13,-2.24627e-14,-29.7442,-18.5023,-60.6884,56.4771,14.3093,-33.1258,-7.64507,7.12502,-6.33568,-37.5303,1.0953e-13,-2.24627e-14,-5.81302,38.5635,48.4237,43.8742,-5.84677,-28.0509,38.8175,7.12502,-1.4351,68.7925,-26.9094,7.76426,10.0894,78.5367,22.9262,26.0512,19.9645,-69.3839,3.16421,-19.4884,81.0684,-18.6225,-12.8685,-1.92105
-4.12909,14.7978,-3.87414,22.422,-52.3138,-6.61086,33.8792,0.455993,0.764839,6.114,0.91231,3.85117,-10.6058,0.23368,3.37779,-18.4055,12.3945,-3.59559,-0.655514,18.1821,-15.7502,3.9315,8.20252,-2.59258,8.92543e-14,-3.55825e-14,-29.6507,-18.3126,-60.6667,56.5106,14.4333,-33.2191,-7.93551,7.12502,-6.42578,-37.818,8.92543e-14,-3.55825e-14,-6.44148,38.7566,48.2083,44.0352,-5.93105,-28.0272,37.0971,7.12502,-1.41222,67.0722,-29.7226,6.55898,10.3374,80.2591,23.9313,24.824,19.1339,-71.0591,3.48376,-19.6653,80.7954,-17.8699,-14.7927,3.20114
-4.18178,14.846,-3.74939,20.5695,-52.7072,-6.27626,35.26,0.480351,0.972051,6.44643,0.958001,3.56297,-10.7449,0.224469,2.94405,-18.3064,12.2731,-3.78461,-0.75862,18.0228,-15.6531,3.8478,8.14289,-2.56732,-1.10127e-13,9.28324e-14,-29.6714,-18.5181,-60.5913,56.4525,14.7437,-33.1151,-7.36034,7.12502,-6.32537,-37.2459,-1.10127e-13,9.28324e-14,-6.84363,38.7287,48.2086,44.1758,-5.89007,-27.9997,36.4416,7.12502,-1.38561,66.4168,-28.6136,6.27306,9.55824,81.1167,24.5782,25.2406,18.5814,-68.2718,2.95882,-20.2079,80.3702,-18.6611,-13.8367,5.16413
-4.21264,14.8442,-3.71652,20.4305,-52.6452,-6.10054,35.1923,0.457855,1.24798,6.50692,0.969167,3.11787,-10.6291,0.222637,2.31432,-18.3311,12.1129,-3.44768,-0.842098,17.7104,-15.3795,3.80686,8.01184,-2.5696,2.38542e-15,-2.56432e-14,-29.8586,-18.99,-60.9019,56.5416,14.6779,-32.9956,-6.81773,7.12502,-6.20992,-36.7067,2.38542e-15,-2.56432e-14,-6.76783,38.2021,47.9907,44.4239,-5.26768,-28.3873,36.2513,7.12502,-1.75997,66.2238,-29.8288,5.91259,9.49893,82.6363,24.6986,25.0959,17.4785,-68.005,3.15201,-20.5052,80.1306,-18.8577,-14.0116,5.90873
-4.2399,14.8815,-3.67562,20.6531,-52.2578,-6.36882,35.1158,0.403048,1.47952,6.59055,0.982667,3.17543,-10.5028,0.221741,2.24624,-18.4808,12.0555,-3.4223,-0.752814,17.6478,-15.294,3.84711,7.97182,-2.54484,4.96962e-14,-8.94531e-15,-29.7112,-18.7775,-60.8503,56.6865,14.3719,-33.0739,-7.14896,7.12502,-6.28555,-37.0357,4.96962e-14,-8.94531e-15,-7.14655,38.2804,48.0945,44.7547,-5.25897,-28.3947,36.0639,7.12502,-1.76712,66.0363,-30.927,5.56347,10.0198,83.895,25.0159,24.6065,16.465,-67.4281,2.07643,-19.9093,79.6154,-19.7665,-12.8139,2.03736
-4.26586,14.8991,-3.6455,20.7001,-51.7512,-6.47399,35.2332,0.304303,1.59926,6.56995,0.927409,3.32944,-10.5701,0.193585,2.3696,-18.5426,12.0477,-3.52477,-0.567573,17.692,-15.2896,3.9079,7.97595,-2.51584,3.57812e-15,1.68967e-14,-29.5723,-18.3248,-60.7516,56.8257,14.2281,-33.1071,-7.89131,7.12502,-6.31762,-37.7771,3.57812e-15,1.68967e-14,-7.65638,38.5408,48.1629,44.9359,-5.59753,-27.9024,36.1294,7.12502,-1.29163,66.1052,-32.1512,4.53802,10.4592,85.4229,25.1512,24.057,17.3096,-67.0134,1.98959,-19.8936,79.2161,-20.754,-12.5893,-1.36651
-4.29326,14.9195,-3.6221,20.3116,-51.4116,-6.01588,35.4443,0.381977,1.32832,6.52227,0.944287,3.36423,-10.7113,0.209635,2.54568,-18.7838,11.9508,-3.52972,-0.268155,17.6282,-15.2886,4.03526,7.90765,-2.49935,3.08116e-14,2.42517e-14,-29.5717,-18.2431,-60.5705,56.8838,14.2034,-33.1138,-8.20011,7.12502,-6.32407,-38.0857,3.08116e-14,2.42517e-14,-7.91586,38.6227,48.2889,45.0484,-5.74928,-27.6502,36.1408,7.12502,-1.0481,66.118,-33.5254,2.91252,10.371,86.9997,25.4104,23.8729,19.1908,-66.5312,2.32247,-20.4735,78.7478,-20.9814,-13.3088,0.523997
-4.3236,14.9148,-3.60467,19.8805,-51.5851,-5.53879,35.5264,0.71346,0.744303,6.5938,1.12718,3.22969,-10.6794,0.30653,2.63953,-19.0736,11.8325,-3.27333,-0.0635317,17.4724,-15.3128,4.16022,7.79881,-2.53589,4.35338e-14,4.57205e-15,-29.5266,-18.2101,-60.5787,56.9733,13.9946,-33.3009,-8.33911,7.12502,-6.50468,-38.2192,4.35338e-14,4.57205e-15,-7.911,38.7684,48.4625,45.1227,-6.07688,-27.9048,36.3548,7.12502,-1.29394,66.3306,-35.0514,2.02223,10.1314,88.7258,25.5323,22.8728,21.4174,-66.074,2.92238,-21.1278,78.4084,-21.0143,-13.9454,4.94772
-4.35266,14.9142,-3.57663,19.5614,-51.5555,-5.26981,35.6178,0.771683,0.685789,6.59359,1.1452,2.98412,-10.5861,0.314547,2.41497,-19.1087,11.7604,-3.08533,-0.0196445,17.3343,-15.1615,4.17076,7.73666,-2.53019,6.55989e-14,-7.85199e-14,-29.4161,-18.3998,-60.8114,56.9072,14.0411,-33.3204,-7.82426,7.12502,-6.52354,-37.7038,6.55989e-14,-7.85199e-14,-7.98245,38.6445,48.3912,45.0988,-6.16361,-28.1195,36.6182,7.12502,-1.50133,66.5926,-36.3076,1.30262,10.1644,90.3313,24.8789,21.4204,21.8195,-65.4991,2.89399,-21.4138,78.0141,-20.9351,-14.2826,10.9488
-4.38006,14.9439,-3.54561,19.5619,-51.3225,-5.33212,35.6194,0.689305,0.815379,6.60166,1.08171,2.91604,-10.5694,0.282977,2.29822,-18.9899,11.687,-3.23794,0.005043,17.2359,-14.8314,4.10603,7.7128,-2.43237,-4.65156e-14,1.98785e-15,-29.197,-18.5878,-60.9396,56.6796,14.4409,-32.9273,-6.57118,7.12502,-6.14398,-36.4621,-4.65156e-14,1.98785e-15,-8.5361,38.6819,48.0285,45.1676,-5.98138,-28.1468,36.8918,7.12502,-1.5277,66.8661,-37.5365,0.445504,10.5915,91.7477,23.325,20.0957,20.093,-64.8382,2.37894,-21.279,77.5554,-21.1508,-13.8167,13.8265
-4.40559,14.9659,-3.51708,19.4211,-50.9542,-5.1845,35.6492,0.646253,0.733074,6.54434,1.0241,3.05334,-10.6497,0.261395,2.51238,-18.7424,11.5182,-3.75745,-0.101855,17.0463,-14.4087,3.93649,7.66348,-2.28025,3.71727e-14,-2.70347e-14,-29.0134,-18.1277,-60.8773,56.769,14.6607,-32.8693,-6.52081,7.12502,-6.088,-36.4133,3.71727e-14,-2.70347e-14,-9.4192,39.1598,47.9741,45.5357,-6.09153,-28.0441,37.1068,7.12502,-1.42854,67.0817,-38.8433,-0.673166,10.9673,93.2335,21.0788,18.7983,18.5878,-64.2989,1.92292,-21.4502,77.2231,-22.3986,-12.0393,7.64789
-4.42685,14.9665,-3.4925,19.2134,-50.5494,-4.86643,35.5351,0.577219,0.799268,6.55626,0.975534,3.1018,-10.7125,0.242171,2.53309,-18.6362,11.3121,-4.15751,-0.0375046,16.8262,-14.0837,3.86332,7.57254,-2.16145,2.18663e-14,-4.49253e-14,-28.8021,-17.8597,-60.8859,56.8308,14.6771,-32.7045,-6.57854,7.12502,-5.92895,-36.4756,2.18663e-14,-4.49253e-14,-10.166,39.2983,48.1364,45.9259,-6.50121,-28.2312,35.9267,7.12502,-1.60923,65.9003,-40.2901,-1.72632,11.1865,94.7795,18.3059,17.5793,18.8658,-64.0598,1.54187,-21.8137,77.0151,-23.4896,-10.2984,-0.0435582
-4.44563,14.9675,-3.46535,19.0352,-50.2891,-4.74441,35.6597,0.467603,1.05347,6.49557,0.915012,2.94698,-10.6934,0.207876,2.27143,-18.6567,11.2702,-4.05826,0.148085,16.776,-14.0285,3.92475,7.53659,-2.15687,1.45113e-14,4.45278e-14,-28.5615,-17.9732,-61.1317,56.7691,14.8327,-32.6595,-5.88119,7.12502,-5.88552,-35.7794,1.45113e-14,4.45278e-14,-10.7214,39.1839,47.9497,46.0712,-6.81548,-28.5739,35.0946,7.12502,-1.94016,65.0655,-41.6894,-2.58243,11.5396,96.3105,14.756,16.9968,18.4162,-63.8452,1.14354,-21.8243,76.9128,-23.3293,-10.398,1.74577
-4.5038,14.9938,-3.33741,18.4137,-51.5621,-5.27044,35.8981,0.851697,1.31517,6.9726,1.37391,2.46761,-10.2338,0.392837,1.43723,-18.6728,11.2098,-3.68044,0.168993,16.625,-14.0505,3.95938,7.4607,-2.22759,-1.94809e-14,-1.98785e-14,-28.5038,-18.0361,-61.4124,56.8433,14.908,-33.15,-5.55564,7.12502,-6.35903,-35.4402,-1.94809e-14,-1.98785e-14,-10.8058,39.0946,47.6905,46.1315,-6.08112,-28.3924,35.4012,7.12502,-1.76485,65.3736,-41.81,-2.07974,11.4385,97.2728,11.9296,15.9987,19.3853,-61.9563,1.65714,-21.9173,76.8265,-24.064,-9.60551,2.38889
-4.50818,14.976,-3.36171,18.2573,-50.6426,-4.74412,35.9423,0.67632,1.32166,6.8302,1.18688,2.51303,-10.4079,0.314032,1.5555,-18.7375,11.0409,-3.61973,0.244205,16.3934,-13.9504,3.97657,7.34378,-2.22604,-7.27552e-14,3.10104e-14,-28.5516,-17.9221,-61.3582,57.0596,14.7248,-33.5242,-6.17289,7.12502,-6.72022,-36.0462,-7.27552e-14,3.10104e-14,-10.8834,39.1353,47.6491,46.1618,-5.71556,-28.1156,40.3156,7.12502,-1.49756,70.2901,-43.7782,-3.68123,12.0378,98.8963,8.69533,15.0451,16.4588,-62.4288,0.945337,-21.9634,76.8968,-24.1868,-9.4148,0.245399
-4.5201,14.9657,-3.35637,17.9979,-50.2775,-4.36628,36.0684,0.670635,1.07646,6.7534,1.12025,2.65269,-10.5504,0.291431,1.86107,-18.7339,11.0125,-3.72625,0.339547,16.3964,-14.0155,4.0046,7.33328,-2.22708,-4.55217e-14,8.74653e-15,-28.576,-17.1016,-61.0034,57.4195,14.1441,-33.4864,-6.84242,7.12502,-6.68379,-36.7169,-4.55217e-14,8.74653e-15,-11.3772,39.6676,47.6075,46.0074,-6.4091,-27.843,46.0904,7.12502,-1.23427,76.0665,-45.5749,-4.68712,12.4435,100.332,6.97918,12.3028,17.5623,-62.4526,0.213984,-21.979,77.0035,-24.1885,-9.12074,0.431693
-4.53639,14.9491,-3.34257,17.8966,-50.1866,-4.31463,36.2302,0.727691,0.916701,6.71747,1.14396,2.69989,-10.6568,0.305775,1.98677,-18.82,11.059,-3.68011,0.471959,16.4779,-14.0364,4.06906,7.35842,-2.22236,-4.45278e-14,2.8625e-14,-28.0699,-17.1418,-61.2611,57.237,14.4869,-33.4658,-6.84113,7.12502,-6.66385,-36.7163,-4.45278e-14,2.8625e-14,-11.7138,39.9264,47.4115,45.6454,-6.14827,-28.3839,43.745,7.12502,-1.75669,73.7176,-47.3519,-5.33416,13.0217,101.699,3.66983,11.9642,13.3867,-62.3942,-0.174959,-21.9002,77.1956,-24.3291,-8.71578,0.355675
-4.55735,14.9345,-3.30843,17.8252,-50.1865,-4.45661,36.2881,0.785922,1.1226,6.79277,1.27561,2.62764,-10.5885,0.357915,1.74762,-19.0296,10.9532,-3.56454,0.759173,16.3645,-13.9716,4.18876,7.27516,-2.21274,1.92821e-14,-1.21259e-14,-27.7968,-17.2881,-61.3849,57.2252,14.4644,-33.4134,-6.51708,7.12502,-6.61328,-36.3938,1.92821e-14,-1.21259e-14,-11.8229,39.72,47.2833,45.3964,-5.29581,-29.944,43.0045,7.12502,-3.26334,72.9592,-48.895,-5.84203,13.6971,102.824,1.69559,10.642,12.2191,-62.1667,-0.387133,-21.7627,77.446,-24.302,-8.82227,3.62855
-4.58904,14.9439,-3.23244,17.4129,-50.6537,-4.62064,36.4175,1.07508,1.15656,7.01921,1.62295,2.63438,-10.3882,0.506188,1.59836,-19.3437,10.8125,-3.47155,1.19077,16.2538,-14.0977,4.38853,7.16386,-2.24615,1.66979e-14,2.0276e-14,-27.4886,-17.5699,-61.2039,57.1388,14.6784,-33.1738,-4.99874,7.12502,-6.38202,-34.8826,1.66979e-14,2.0276e-14,-12.2505,39.5982,47.413,45.3567,-5.16355,-31.3111,45.2728,7.12502,-4.58352,75.2033,-49.776,-6.01254,14.014,103.527,0.183451,9.33383,11.1979,-61.188,-0.57719,-21.7348,77.5927,-24.5792,-8.75711,7.10293
-4.60256,14.9327,-3.21482,17.3457,-50.6872,-4.34462,36.3231,1.43635,0.537009,6.90008,1.89894,2.96427,-10.5334,0.64917,2.16832,-19.3479,10.7376,-3.58655,1.46028,16.2402,-14.3239,4.48864,7.11858,-2.28902,3.37934e-14,-9.93923e-15,-27.3549,-17.373,-60.6695,57.0458,14.8647,-33.3407,-4.21991,7.12502,-6.5431,-34.0988,3.37934e-14,-9.93923e-15,-13.2076,39.8563,47.7316,45.4927,-5.56411,-31.7115,43.5304,7.12502,-4.97017,73.4521,-51.8176,-6.55913,14.5537,104.425,-1.22839,7.96649,9.59204,-61.3349,-0.69518,-21.9392,77.805,-24.7927,-8.48187,6.60304
-4.62772,14.9272,-3.15602,17.0313,-51.1433,-4.33676,36.4022,1.68428,0.272257,6.95298,2.10996,3.0328,-10.5244,0.747107,2.29668,-19.0915,10.7458,-3.78443,1.3075,16.2497,-14.3073,4.38413,7.14697,-2.27231,1.63003e-14,-2.98177e-14,-27.124,-16.961,-60.5511,57.0212,14.9927,-33.5909,-5.80845,7.12502,-6.78462,-35.6797,1.63003e-14,-2.98177e-14,-14.431,40.3035,47.6366,45.6968,-5.98887,-31.466,40.7233,7.12502,-4.73314,70.6505,-53.1006,-6.60772,14.8629,104.975,-2.4449,6.81045,10.076,-60.7408,-0.672266,-22.1992,77.9568,-25.1945,-7.85597,6.86187
-4.64951,14.9268,-3.10552,16.9207,-51.3339,-4.47161,36.3931,1.66178,0.3999,7.03765,2.11106,2.97475,-10.4176,0.74146,2.16731,-19.0767,10.7636,-3.92061,1.30503,16.284,-14.1203,4.35267,7.17611,-2.19713,-1.19271e-15,2.78299e-14,-26.5944,-16.7985,-60.7492,56.8162,15.099,-33.4452,-8.36552,7.12502,-6.64396,-38.2413,-1.19271e-15,2.78299e-14,-15.5929,40.5536,47.1797,45.7488,-6.58903,-29.7824,32.8136,7.12502,-3.10732,62.7707,-54.4007,-6.63943,15.3782,105.393,-3.91672,6.17077,9.73634,-60.2582,-1.2059,-22.1033,78.0706,-25.3964,-7.24467,8.02508
-4.6646,14.9313,-3.07517,16.78,-51.4772,-4.54323,36.5592,1.70803,0.333293,7.05186,2.1422,2.98918,-10.4664,0.754037,2.20418,-19.1501,10.7889,-3.96926,1.49695,16.3618,-14.106,4.42309,7.19581,-2.16886,7.55382e-15,-6.36111e-15,-26.1979,-16.8991,-60.5556,56.2599,15.2867,-33.4429,-12.5599,7.12502,-6.6418,-42.4357,7.55382e-15,-6.36111e-15,-16.6855,40.7165,46.6665,45.7653,-6.83642,-29.0834,36.4717,7.12502,-2.43224,66.4376,-55.8808,-6.73295,16.0207,105.677,-4.85306,5.58677,7.86102,-59.822,-1.98115,-21.8918,78.1233,-25.5658,-6.22027,7.91047
-4.67695,14.9219,-3.04769,16.4127,-51.6178,-4.32399,36.7265,1.78272,0.183136,7.08894,2.16689,2.92799,-10.4886,0.765839,2.20642,-19.1889,10.7756,-3.95725,1.55237,16.3548,-14.1293,4.44969,7.18444,-2.17451,-1.39149e-14,3.10104e-14,-25.9167,-16.3777,-60.7554,56.5237,15.493,-33.9252,-4.36124,7.12502,-7.10736,-34.2219,-1.39149e-14,3.10104e-14,-17.6152,40.9195,46.2988,45.9177,-6.68303,-28.8698,35.2203,7.12502,-2.22593,65.1885,-57.4354,-6.89161,16.4137,105.926,-4.6009,4.50501,8.91631,-59.5128,-2.53595,-21.9803,78.2415,-25.7101,-5.43546,7.64358
-4.69412,14.9038,-3.00591,16.0045,-51.8299,-4.13745,36.877,1.8074,0.323114,7.12971,2.21497,2.70496,-10.4806,0.782221,1.87283,-19.1584,10.7661,-3.79801,1.57854,16.3048,-14.0701,4.45704,7.16524,-2.18505,4.53229e-14,-4.57205e-14,-25.7582,-16.5755,-60.9543,56.5635,15.8402,-33.9107,-9.13882,7.12502,-7.09333,-39,4.53229e-14,-4.57205e-14,-18.3207,40.9804,45.9292,45.9092,-6.63042,-28.2706,32.5873,7.12502,-1.64723,62.5607,-58.8563,-6.78027,16.7377,106.049,-6.39577,4.87404,5.18808,-59.1313,-2.90686,-22.1669,78.4071,-25.9389,-4.78654,6.65593
-4.71297,14.8841,-2.971,15.8632,-51.9568,-4.21747,37.0413,1.71963,0.651714,7.0924,2.19811,2.45821,-10.5546,0.766721,1.44037,-19.1722,10.7927,-3.47188,1.77509,16.2931,-13.9777,4.53631,7.15319,-2.19738,3.77691e-14,5.56597e-15,-25.5404,-16.9959,-61.2438,56.3143,16.1421,-33.4418,-10.5799,7.12502,-6.6407,-40.4557,3.77691e-14,5.56597e-15,-19.0166,40.9695,45.2691,45.6059,-6.56423,-28.1938,37.2383,7.12502,-1.57308,67.2122,-60.284,-6.41054,17.3074,105.983,-6.93538,3.92126,5.02727,-58.8144,-3.21783,-22.1509,78.5545,-26.098,-4.02361,5.06191
-4.73017,14.8777,-2.94195,15.7438,-51.9131,-4.22638,37.1213,1.62347,0.755068,7.07123,2.11343,2.41239,-10.5986,0.72573,1.37034,-19.0302,10.7729,-3.43183,1.73177,16.2382,-13.9576,4.49894,7.13768,-2.21081,6.95746e-14,-6.48038e-14,-25.217,-16.7706,-61.3664,56.2277,15.8433,-33.4402,-6.93554,7.12502,-6.63919,-36.8115,6.95746e-14,-6.48038e-14,-19.8624,41.2411,44.6528,45.1875,-6.69378,-33.914,41.4915,7.12502,-7.09655,71.3525,-61.6015,-6.3024,17.7996,105.682,-8.31513,4.46346,4.22319,-58.4964,-3.61287,-22.1111,78.6029,-26.2615,-3.36501,3.56465
-4.75531,14.8939,-2.87863,15.5181,-52.2395,-4.29249,37.0555,1.68902,0.895622,7.20249,2.22331,2.34734,-10.4203,0.769466,1.18448,-18.846,10.6864,-3.56578,1.56202,16.1094,-13.9422,4.39877,7.09542,-2.21567,-3.97569e-15,6.75868e-14,-25.0362,-16.2765,-61.3427,56.5208,15.3878,-33.5099,-3.785,7.12502,-6.70646,-33.6588,-3.97569e-15,6.75868e-14,-20.6076,41.4138,44.3442,44.9672,-6.61372,-34.3365,40.8612,7.12502,-7.50436,70.708,-62.5384,-6.0968,18.055,105.03,-9.10149,4.52262,5.56572,-57.7575,-3.92806,-22.1937,78.5349,-26.5846,-2.6353,2.70934
-4.77878,14.9001,-2.83165,15.3097,-52.5606,-4.31551,37.1211,1.8733,0.923007,7.21866,2.45317,2.31197,-10.4265,0.871135,1.03895,-18.6271,10.5851,-3.49521,1.54605,15.944,-13.9855,4.3617,7.02307,-2.26595,7.95139e-15,-3.77691e-14,-25.0358,-16.0462,-61.3691,56.8658,15.4129,-33.5313,-4.82304,7.12502,-6.72711,-34.6962,7.95139e-15,-3.77691e-14,-21.3642,41.3303,44.1331,44.8596,-6.37853,-34.1458,41.7308,7.12502,-7.3203,71.5842,-63.638,-5.80096,18.4407,104.3,-9.54613,3.98188,5.43421,-57.2129,-4.02312,-22.2682,78.5218,-26.7931,-2.52349,3.64703
-4.79648,14.8982,-2.79827,15.2527,-52.6132,-4.42628,37.3138,1.92848,1.01496,7.17844,2.56244,2.34242,-10.5397,0.9161,0.976121,-18.6955,10.5493,-3.4015,1.71902,15.9092,-14.0087,4.43469,6.98844,-2.28121,-1.74931e-14,3.77691e-14,-24.722,-15.8927,-61.7412,57.1784,15.5667,-33.3631,-7.95586,7.12502,-6.56474,-37.8341,-1.74931e-14,3.77691e-14,-22.1919,41.528,43.8888,44.6742,-6.4804,-33.918,42.3353,7.12502,-7.10039,72.1962,-64.8228,-5.62005,18.9233,103.506,-10.16,4.21105,4.73213,-56.9294,-4.10804,-22.2437,78.5726,-26.9982,-2.28353,2.98251
-4.8165,14.8936,-2.75764,15.2848,-52.4826,-4.61391,37.4398,1.8383,1.28485,7.10549,2.56863,2.41187,-10.6583,0.911769,0.90397,-18.6839,10.564,-3.41072,1.92252,15.9608,-14.0064,4.49872,6.99843,-2.26831,-7.15625e-15,6.75868e-15,-24.4307,-16.1303,-61.7528,57.0256,16.1275,-32.9904,-7.08868,7.12502,-6.20491,-36.9778,-7.15625e-15,6.75868e-15,-23.3532,41.7968,43.5845,44.6719,-6.73298,-33.6988,42.4049,7.12502,-6.88884,72.2728,-65.8894,-5.51067,19.3772,102.612,-11.2164,4.8706,3.91166,-56.709,-4.41916,-22.1287,78.6635,-27.1507,-2.02874,2.13678
-4.84347,14.8964,-2.69976,15.0777,-52.4869,-4.63767,37.4472,1.70857,1.50087,7.15232,2.48205,2.39653,-10.596,0.866691,0.810328,-18.6478,10.5803,-3.579,1.9998,16.01,-13.8281,4.48894,7.02836,-2.18781,1.31198e-14,2.82274e-14,-24.1603,-15.7273,-61.7388,57.067,15.8245,-33.2877,-6.37173,7.12502,-6.49195,-36.2522,1.31198e-14,2.82274e-14,-24.5232,42.0438,43.0893,44.5648,-6.73753,-33.569,44.187,7.12502,-6.76351,74.059,-66.6891,-5.39023,19.6601,101.583,-11.6415,4.04821,3.06204,-56.1797,-4.75297,-22.1978,78.6732,-27.3681,-2.03355,2.50191
-4.86422,14.8956,-2.66173,14.7753,-52.3862,-4.45377,37.5355,1.60508,1.56972,7.17918,2.37539,2.37145,-10.5912,0.815876,0.790179,-18.5883,10.5364,-3.68532,1.86165,15.9385,-13.7333,4.41503,7.01146,-2.16041,-1.11319e-14,4.6118e-14,-23.9561,-15.3371,-61.8057,57.2876,15.4927,-33.6405,-6.68692,7.12502,-6.83249,-36.5567,-1.11319e-14,4.6118e-14,-25.1376,42.2772,42.6768,44.0134,-6.66492,-33.3845,45.8936,7.12502,-6.58541,75.7712,-67.5882,-5.33459,19.8626,100.514,-10.3629,1.34236,7.24516,-55.7447,-5.00573,-22.3393,78.6333,-27.5847,-1.95576,0.61504
-4.88641,14.8928,-2.6263,14.4502,-52.4038,-4.21335,37.6829,1.67396,1.50405,7.11387,2.44489,2.3787,-10.721,0.847918,0.801424,-18.3814,10.4929,-3.50866,1.83476,15.8382,-13.8869,4.39845,6.96521,-2.2497,4.96962e-14,-1.31198e-14,-23.9317,-15.5188,-61.7769,57.329,15.8249,-33.5666,-6.30032,7.12502,-6.76119,-36.1724,4.96962e-14,-1.31198e-14,-25.6127,42.2879,42.47,43.4797,-6.41597,-33.6782,46.8497,7.12502,-6.86893,76.7183,-68.5008,-5.14412,19.9431,99.3324,-12.8887,4.6074,2.6937,-55.3894,-5.11986,-22.5418,78.5942,-27.787,-1.64884,-2.62649
-4.9177,14.8946,-2.58426,14.045,-52.5081,-3.89493,37.8107,1.89063,1.15223,7.07474,2.59865,2.49063,-10.8351,0.924026,1.04042,-18.4679,10.4712,-3.26272,2.139,15.8319,-14.1186,4.54955,6.92129,-2.33871,-7.51406e-14,9.93923e-15,-23.8211,-15.5442,-61.6401,57.2741,16.3869,-33.723,-7.41282,7.12502,-6.91221,-37.28,-7.51406e-14,9.93923e-15,-26.4253,42.2623,42.343,43.364,-5.81127,-33.6603,47.6874,7.12502,-6.85166,77.5566,-69.2648,-4.86381,20.0278,97.9627,-12.0766,2.91342,1.6721,-54.9259,-5.22858,-22.7957,78.5196,-28.0735,-1.64165,-3.63893
-4.95214,14.8951,-2.53465,13.8081,-52.6014,-3.7602,37.7266,2.02104,0.971392,7.19377,2.68718,2.55232,-10.6847,0.966928,1.16762,-18.83,10.451,-3.13915,2.40428,15.8573,-14.249,4.71395,6.88797,-2.36767,6.63941e-14,-5.84427e-14,-23.5257,-15.2895,-61.6524,57.4706,16.8046,-33.6674,-6.55918,7.12502,-6.85855,-36.4281,6.63941e-14,-5.84427e-14,-27.0523,42.5009,42.2805,43.2295,-5.52498,-32.913,47.8414,7.12502,-6.13018,77.7327,-69.9412,-4.47201,20.2238,96.4496,-11.8417,1.8299,-1.27825,-54.4809,-5.35722,-22.9059,78.455,-28.1992,-2.09973,-2.80895
-4.97492,14.8894,-2.50885,13.8443,-52.3248,-3.84655,37.722,1.90467,1.18571,7.2338,2.62521,2.57502,-10.6278,0.934022,1.1057,-19.0207,10.4423,-3.16066,2.55075,15.8783,-14.1675,4.78134,6.88335,-2.32634,-4.73108e-14,4.41302e-14,-23.3626,-14.9842,-61.828,57.8504,17.2093,-33.6474,-7.05471,7.12502,-6.83924,-36.9242,-4.73108e-14,4.41302e-14,-27.5514,42.6521,42.2257,43.0571,-5.48192,-32.5077,47.7408,7.12502,-5.73887,77.6431,-70.725,-4.17783,20.6045,94.9035,-11.8709,1.40537,-2.41107,-54.3204,-5.51815,-22.7165,78.4198,-28.031,-3.05373,-0.66759
-5.00267,14.8999,-2.47725,13.8691,-52.0645,-3.90539,37.6205,1.78257,1.39076,7.25679,2.55434,2.60024,-10.5567,0.899114,1.05579,-18.9305,10.4067,-3.25461,2.42733,15.8086,-13.9972,4.70021,6.87393,-2.279,-2.8625e-14,3.49861e-14,-23.3263,-14.5396,-61.9262,58.2494,17.5369,-33.9257,-8.50115,7.12502,-7.10784,-38.3618,-2.8625e-14,3.49861e-14,-28.0576,42.6615,42.1657,42.952,-5.27294,-31.7179,48.8204,7.12502,-4.97636,78.742,-71.2992,-4.05506,20.9096,93.2161,-11.8022,0.966225,-1.55508,-54.0176,-5.56503,-22.6353,78.2987,-28.0627,-3.51362,0.0874471
-5.03464,14.9219,-2.43847,13.6299,-51.8472,-3.6396,37.5118,1.77518,1.45648,7.28672,2.56466,2.56113,-10.4794,0.905208,0.976656,-18.9269,10.1861,-3.17028,2.33145,15.4681,-13.902,4.64904,6.72112,-2.30388,7.39479e-14,-1.39149e-14,-23.3397,-14.6228,-61.8941,58.3993,18.0426,-33.9261,-8.56658,7.12502,-7.1082,-38.4272,7.39479e-14,-1.39149e-14,-28.2646,42.6129,42.3677,42.8142,-5.12515,-30.1037,47.6947,7.12502,-3.41757,77.6471,-71.7546,-4.20366,21.0153,91.4538,-11.7533,0.650441,0.165431,-53.6218,-5.51514,-22.8598,78.0954,-28.2962,-3.5952,-0.809158
-5.06152,14.9277,-2.40685,13.4854,-51.5309,-3.44024,37.4722,1.73802,1.59858,7.27731,2.57208,2.52492,-10.4673,0.908168,0.860494,-19.0538,9.99219,-3.03019,2.46738,15.1953,-13.8014,4.69846,6.57923,-2.31568,1.23246e-14,3.97569e-16,-23.3261,-14.8926,-61.863,58.4119,18.6544,-33.7145,-7.41112,7.12502,-6.90394,-37.2785,1.23246e-14,3.97569e-16,-28.4143,42.8347,42.5355,42.5761,-5.39906,-28.4693,44.0265,7.12502,-1.83918,73.9983,-72.3252,-4.3123,21.2141,89.6404,-11.561,0.360853,0.0994519,-53.4822,-5.52683,-22.9533,77.9851,-28.4451,-4.00832,-0.770646
-5.08953,14.9309,-2.37693,13.5623,-51.1238,-3.49913,37.42,1.59214,1.84862,7.24349,2.49661,2.56252,-10.4765,0.870813,0.800445,-19.2279,9.95364,-3.05576,2.76136,15.1814,-13.5676,4.79328,6.55863,-2.2304,3.57812e-15,-3.69739e-14,-23.343,-14.6178,-61.8083,58.6092,18.9516,-33.6639,-6.38469,7.12502,-6.85511,-36.2537,3.57812e-15,-3.69739e-14,-28.6676,43.1745,42.5577,42.3116,-5.74893,-28.5518,46.7255,7.12502,-1.91886,76.6966,-72.8001,-4.2793,21.5607,87.7357,-11.2267,0.014477,-1.58547,-53.3921,-5.6694,-22.813,77.9184,-28.5115,-4.50061,-1.59123
-5.1238,14.943,-2.34187,13.57,-50.8957,-3.51089,37.3284,1.53761,1.95388,7.20946,2.47613,2.58478,-10.4786,0.861687,0.777843,-19.3344,9.92101,-3.00874,3.03674,15.1519,-13.3441,4.87728,6.53564,-2.16325,1.21656e-13,-5.96354e-14,-23.4542,-14.1059,-61.8549,59.0314,19.1012,-33.7412,-6.95754,7.12502,-6.92971,-36.8241,1.21656e-13,-5.96354e-14,-29.0322,43.271,42.6211,42.2311,-5.67685,-28.2726,51.7241,7.12502,-1.64917,81.6975,-73.1028,-4.00495,21.7017,85.7701,-10.8153,-0.0857782,-2.02889,-53.1747,-5.68377,-22.7933,77.9048,-28.6851,-4.52567,-3.08584
-5.15697,14.9647,-2.30746,13.7243,-50.7995,-3.94203,37.4803,1.60672,2.25505,7.1753,2.6883,2.64902,-10.5607,0.948355,0.60094,-19.333,9.79458,-2.88815,3.21854,14.964,-13.1774,4.91808,6.4442,-2.14783,1.29608e-13,-9.62118e-14,-23.6181,-14.0563,-61.9873,59.3411,19.5456,-33.9577,-8.34486,7.12502,-7.13873,-38.2045,1.29608e-13,-9.62118e-14,-29.1743,43.1418,42.9723,42.1124,-5.38288,-28.1966,41.6531,7.12502,-1.57583,71.6271,-73.0797,-3.60776,22.1004,83.6777,-10.4145,0.0397048,-0.816856,-52.7699,-5.3924,-22.5443,77.8941,-28.8194,-4.68106,-3.02352
-5.19935,14.9479,-2.27358,13.7096,-50.6878,-4.10175,37.5456,1.74038,2.44062,7.18916,2.92655,2.66578,-10.5595,1.05129,0.424468,-19.3193,9.56603,-2.75863,3.28227,14.625,-13.0777,4.91937,6.28312,-2.17413,-4.53229e-14,-1.51076e-14,-23.8259,-14.3619,-61.9188,59.4915,20.0859,-33.9285,-7.70356,7.12502,-7.11055,-37.5641,-4.53229e-14,-1.51076e-14,-28.9003,43.0095,43.5803,41.8162,-5.1689,-28.2764,36.5691,7.12502,-1.65282,66.5425,-73.3478,-3.36412,22.4337,81.784,-9.89178,-0.00556814,-1.35994,-52.5459,-5.08164,-22.5255,78.0351,-28.904,-5.18883,-2.1068
-5.23734,14.9648,-2.24487,13.3479,-50.5547,-3.59566,37.4282,1.86787,2.1556,7.19518,2.97384,2.62867,-10.5248,1.08295,0.515708,-19.2841,9.35432,-2.78205,3.24759,14.3203,-12.9145,4.8714,6.14864,-2.15912,-3.02153e-14,7.15625e-14,-24.0882,-14.0192,-61.7751,59.9356,20.1499,-33.8377,-6.58893,7.12502,-7.02295,-36.4524,-3.02153e-14,7.15625e-14,-29.0103,42.9628,43.9455,41.738,-5.28725,-30.2389,37.1963,7.12502,-3.54813,67.1465,-73.5728,-3.27209,22.2454,79.7503,-9.31976,0.196389,-0.577027,-52.2863,-4.95732,-22.9371,77.9332,-28.8773,-5.53862,-1.75478
-5.27438,14.972,-2.21874,12.9084,-50.3046,-3.03789,37.4576,1.90772,1.83926,7.12617,2.91467,2.61636,-10.6295,1.06538,0.689789,-19.2235,9.20494,-3.01313,3.32295,14.1355,-12.5124,4.82489,6.08026,-2.02821,-7.15625e-15,-7.95139e-15,-24.2785,-13.3313,-61.8059,60.468,20.4204,-34.0483,-7.67714,7.12502,-7.22617,-37.5338,-7.15625e-15,-7.95139e-15,-29.6042,42.9456,44.0103,41.7934,-5.88815,-32.1959,39.0306,7.12502,-5.4379,68.9408,-73.6832,-3.25001,22.0098,77.7063,-8.54645,0.278264,0.541331,-52.0408,-4.94387,-23.2946,77.8686,-28.9045,-5.87443,-2.2521
-5.31538,14.9771,-2.19125,12.6729,-50.0049,-2.81415,37.4956,1.94322,1.75947,7.09341,2.93528,2.60964,-10.6841,1.07793,0.71445,-18.9702,9.06265,-3.29406,3.12166,13.915,-12.0372,4.65089,6.02631,-1.88603,6.99722e-14,-8.5875e-14,-24.3964,-13.0575,-61.9319,60.8002,20.9791,-34.3846,-8.74808,7.12502,-7.55083,-38.5933,6.99722e-14,-8.5875e-14,-29.992,42.8372,44.2141,41.6521,-6.43938,-31.5205,35.7367,7.12502,-4.78569,65.6627,-73.6084,-3.30292,22.264,75.4436,-7.71172,0.0505913,-2.58297,-51.7955,-4.90897,-23.3934,77.799,-28.9004,-6.28606,-3.11311
-5.35499,15.0017,-2.15572,12.5577,-49.7965,-2.79153,37.4153,1.98303,1.84671,7.18194,3.00521,2.5719,-10.5489,1.10945,0.602571,-18.9089,8.83318,-3.56422,3.00765,13.6047,-11.6099,4.53815,5.9097,-1.75897,-3.57812e-14,3.65764e-14,-24.2876,-13.2639,-62.1201,60.9187,21.8908,-34.3663,-8.51197,7.12502,-7.5331,-38.3578,-3.57812e-14,3.65764e-14,-30.0484,42.6614,44.7046,41.7213,-6.11307,-30.5499,33.3948,7.12502,-3.84849,63.3398,-73.3439,-3.45551,22.7663,73.063,-6.8139,0.364556,-5.08251,-51.4367,-4.82009,-23.4224,77.6968,-28.7788,-6.73207,-2.99752
-5.39126,15.0281,-2.11854,12.5397,-49.4868,-2.77272,37.3059,1.99024,1.84574,7.14486,3.03317,2.67639,-10.5592,1.12475,0.704335,-18.8072,8.58425,-3.78696,3.06415,13.2916,-11.3344,4.49124,5.77059,-1.68021,1.43125e-14,-1.19271e-14,-24.2411,-13.1394,-62.1566,61.0395,22.7468,-34.2412,-7.96577,7.12502,-7.4124,-37.8159,1.43125e-14,-1.19271e-14,-30.4301,42.489,45.1235,42.0905,-5.57436,-30.0697,35.7774,7.12502,-3.38477,65.7303,-73.1378,-3.48722,23.0171,70.7375,-5.75993,0.977951,-4.88906,-51.1705,-4.88167,-23.4272,77.5964,-28.5613,-7.1739,-2.70642
-5.42423,15.0468,-2.08552,12.7092,-49.0198,-2.99455,37.2741,1.83491,2.12993,7.01263,2.96988,2.7216,-10.6843,1.09199,0.627772,-18.4171,8.43181,-3.69343,2.96012,13.0116,-11.1867,4.38139,5.66577,-1.69463,1.74931e-14,7.95139e-16,-24.5716,-12.4458,-62.2918,61.606,22.9835,-34.1944,-8.06569,7.12502,-7.36718,-37.9174,1.74931e-14,7.95139e-16,-31.0342,42.1568,45.2358,42.4758,-5.46767,-29.1559,38.5131,7.12502,-2.50227,68.4782,-72.8901,-3.40295,23.2568,68.4505,-4.59392,1.30749,-4.19643,-51.0057,-5.10321,-23.1807,77.5691,-28.2652,-7.78118,-1.82089
-5.46142,15.0606,-2.05411,12.6399,-48.615,-2.96828,37.1871,1.68472,2.30121,7.04074,2.83311,2.61072,-10.6046,1.02962,0.476385,-18.4202,8.26216,-3.58795,2.9749,12.7326,-10.8657,4.35697,5.55021,-1.64196,-2.70347e-14,8.74653e-15,-24.6378,-11.9278,-62.6432,62.1935,23.084,-34.2989,-8.54209,7.12502,-7.46809,-38.3903,-2.70347e-14,8.74653e-15,-31.4816,42.0519,45.2767,42.7844,-5.60689,-28.8351,38.556,7.12502,-2.19241,68.5245,-72.6563,-3.45125,23.4791,66.2509,-3.32407,1.79743,-4.47674,-50.7916,-5.24619,-23.1161,77.5672,-27.7911,-8.72005,1.26938
-5.50417,15.0657,-2.02136,12.4027,-48.3056,-2.7266,37.0916,1.68874,2.2448,7.09272,2.8076,2.5593,-10.5117,1.02273,0.463001,-18.76,7.97557,-3.70494,3.29645,12.3871,-10.372,4.45347,5.37833,-1.49338,-7.15625e-15,0,-24.4583,-12.033,-62.8515,62.3003,23.6789,-34.4203,-8.53058,7.12502,-7.58528,-38.3746,-7.15625e-15,0,-31.8254,42.1085,45.5912,43.029,-5.92816,-29.2088,37.3035,7.12502,-2.55334,67.268,-72.4789,-3.45635,23.5824,64.1792,-2.04289,2.42061,-5.58757,-50.5532,-5.24596,-23.2464,77.5693,-27.3728,-9.69481,4.20529
-5.54545,15.0863,-1.98976,12.3692,-48.0275,-2.72616,36.9692,1.74391,2.33344,7.15291,2.90392,2.5585,-10.3953,1.06755,0.37957,-19.1598,7.6305,-3.72087,3.61089,11.9591,-10.0542,4.57619,5.15486,-1.41872,-4.37326e-14,4.29375e-14,-24.3084,-12.291,-63.0174,62.5034,24.3397,-34.4273,-8.27497,7.12502,-7.592,-38.1187,-4.37326e-14,4.29375e-14,-32.0113,42.1816,46.1046,43.3322,-6.25209,-28.7915,38.8918,7.12502,-2.15035,68.8607,-72.2185,-3.30204,23.5573,62.2544,-0.647902,3.04754,-1.20197,-50.3054,-5.2374,-23.1713,77.4742,-27.2272,-10.3533,4.16983
-5.58694,15.1191,-1.9658,12.5045,-47.857,-2.92357,36.9154,1.75429,2.2039,7.35034,2.83543,2.45096,-10.1541,1.04047,0.36411,-20.1342,7.55772,-3.16534,3.82033,11.8071,-9.97277,4.81257,5.04868,-1.45658,-2.22639e-14,-3.18055e-15,-23.6218,-12.1402,-63.8832,62.9041,24.9068,-34.5441,-8.12353,7.12502,-7.70477,-37.9632,-2.22639e-14,-3.18055e-15,-32.1643,42.5888,46.0648,43.5362,-6.37511,-27.6111,40.6712,7.12502,-1.01027,70.6486,-71.8865,-2.86619,23.3648,60.4086,1.03014,3.40144,8.87904,-50.0694,-5.10903,-22.9288,77.3315,-27.3633,-10.5328,1.92019
-5.63219,15.1475,-1.93377,12.3084,-47.6963,-2.71724,36.7589,2.01456,2.38043,7.13318,3.25432,2.50608,-10.3353,1.2318,0.161292,-19.1186,6.84053,-3.94424,3.70401,10.8794,-9.27137,4.50068,4.66876,-1.25686,3.02153e-14,5.56597e-15,-24.7047,-12.0012,-63.2805,63.7952,25.1287,-34.7032,-8.07347,7.12502,-7.85834,-37.9074,3.02153e-14,5.56597e-15,-32.3479,41.554,46.9648,43.7331,-6.51848,-27.2835,40.3806,7.12502,-0.693924,70.3592,-71.5748,-2.62179,23.187,58.5267,2.68693,3.60124,12.5116,-49.7194,-5.02981,-23.0827,77.2095,-27.3344,-10.5916,0.542916
-5.68038,15.1608,-1.89656,12.0744,-47.4529,-2.40931,36.4838,2.11191,2.4461,7.12377,3.38005,2.34156,-10.2306,1.29567,-0.0939712,-18.9139,6.34407,-4.11871,3.8136,10.1895,-8.6344,4.43611,4.36999,-1.10856,-6.99722e-14,2.14687e-14,-25.265,-11.8521,-63.2492,64.5919,25.5735,-34.8444,-7.91267,7.12502,-7.99456,-37.7415,-6.99722e-14,2.14687e-14,-32.1952,40.9505,47.5093,43.7916,-6.58144,-28.0453,40.073,7.12502,-1.42971,70.0479,-71.3522,-2.75806,23.4952,56.5785,4.16043,4.52799,9.62824,-49.3873,-5.0856,-23.3312,77.1037,-26.8414,-10.9825,2.28405
-5.7277,15.1676,-1.85945,11.9439,-47.1794,-2.28006,36.3926,2.18417,2.40633,7.10002,3.44906,2.25401,-10.22,1.33169,-0.192904,-18.954,6.00315,-3.94941,3.9619,9.68534,-8.36426,4.46905,4.13364,-1.0962,1.59028e-15,-4.92986e-14,-25.4223,-11.74,-63.3911,65.0722,26.2876,-35.2519,-8.09922,7.12502,-8.38783,-37.9127,1.59028e-15,-4.92986e-14,-32.212,40.7984,47.7636,43.7371,-6.60402,-28.282,40.3445,7.12502,-1.65826,70.3178,-71.0693,-2.88551,23.9236,54.6193,5.5887,5.60223,7.67845,-49.0915,-5.12143,-23.4038,77.0554,-26.4189,-11.6097,4.42348
-5.77494,15.1913,-1.80797,11.5749,-46.7928,-1.93679,36.1498,2.12542,2.29997,7.20266,3.32237,2.20393,-10.0206,1.28298,-0.133575,-19.0948,5.74713,-4.18647,4.00584,9.35791,-7.83196,4.45525,3.99839,-0.92557,5.00937e-14,-6.12257e-14,-25.17,-11.489,-63.6048,65.4234,27.1924,-35.6529,-9.29077,7.12502,-8.77481,-39.0884,5.00937e-14,-6.12257e-14,-32.5759,40.9842,47.8553,43.6765,-6.81507,-28.0568,41.4273,7.12502,-1.44078,71.4021,-70.5615,-3.27111,24.1357,52.6005,7.08839,6.25137,9.04137,-48.5439,-5.35576,-23.6914,76.9571,-26.3064,-11.9414,5.39906
-5.82715,15.197,-1.76334,11.284,-46.3525,-1.59708,35.8885,1.87196,2.00671,7.51165,2.84635,1.97871,-9.58498,1.07833,-0.0226626,-20.1856,5.73481,-3.85121,4.1816,9.30835,-7.45263,4.6687,3.96861,-0.835811,2.8625e-14,-1.51076e-14,-24.1717,-10.9787,-64.531,65.7781,28.0679,-35.9484,-9.71557,7.12502,-9.06004,-39.501,2.8625e-14,-1.51076e-14,-32.9401,41.7773,47.4205,43.7467,-6.95812,-27.9632,41.684,7.12502,-1.35035,71.6595,-70.2146,-3.69016,24.5867,50.6427,8.28974,7.41231,6.41157,-48.2049,-5.5605,-23.9657,76.965,-26.3614,-12.0739,5.31824
-5.88702,15.1653,-1.73062,11.4167,-46.0098,-1.78697,35.8561,1.98088,2.19485,7.25502,3.09942,2.17132,-9.86028,1.19133,-0.0197411,-19.2287,5.07393,-4.54446,3.9613,8.45814,-6.96069,4.38424,3.60605,-0.687534,-2.46493e-14,1.11319e-14,-24.7154,-10.7388,-64.0453,66.3238,28.6722,-36.2379,-7.8509,7.12502,-9.33934,-37.624,-2.46493e-14,1.11319e-14,-33.9054,40.999,47.8334,44.3576,-6.57076,-27.9892,40.3733,7.12502,-1.37546,70.3486,-69.9722,-3.83791,25.7973,48.6512,8.54463,10.0319,-4.77652,-48.1963,-5.50455,-23.7443,77.2269,-26.3355,-12.3057,4.48962
-5.93361,15.1968,-1.7043,11.4225,-45.5987,-1.82339,35.761,1.98846,2.19664,7.29415,3.10929,2.17893,-9.78195,1.19889,-0.0140086,-19.5055,4.63385,-4.56876,4.07645,7.86774,-6.59544,4.43668,3.32679,-0.619141,-3.97569e-15,2.94201e-14,-24.4257,-10.7378,-64.2571,66.7141,29.3083,-36.4617,-5.6352,7.12502,-9.55526,-35.3985,-3.97569e-15,2.94201e-14,-34.5237,40.7984,48.0683,45.0812,-6.25855,-28.0593,39.3454,7.12502,-1.44319,69.3202,-69.5556,-3.68241,25.645,46.9461,10.5971,9.68569,1.75184,-47.8796,-5.57561,-23.6395,77.1441,-26.4496,-12.096,2.24518
-5.98623,15.2114,-1.66724,11.3338,-45.1546,-1.71978,35.5322,1.92255,2.26078,7.40598,3.0233,2.02845,-9.56052,1.16544,-0.167897,-19.9522,4.25014,-4.2564,4.27415,7.29795,-6.32288,4.55934,3.05144,-0.625416,3.73715e-14,7.95139e-16,-24.2921,-10.5705,-64.6408,67.4666,29.4917,-36.503,-6.45974,7.12502,-9.59511,-36.2212,3.73715e-14,7.95139e-16,-34.6185,40.8163,48.2359,45.2582,-6.22994,-28.4283,38.5049,7.12502,-1.79956,68.477,-69.1946,-3.89158,25.9204,45.3137,11.7429,10.125,2.93209,-47.5388,-5.66714,-23.6946,77.1066,-26.5145,-12.1631,1.65647
-6.04235,15.2146,-1.63156,11.1655,-44.7627,-1.50634,35.2945,1.9178,2.14507,7.4746,2.96672,1.98585,-9.40046,1.14746,-0.125181,-19.9717,3.83251,-4.25744,4.20567,6.70836,-6.05864,4.52295,2.78168,-0.600168,-7.95139e-16,1.27222e-14,-24.4483,-9.76456,-64.7727,68.6808,29.4643,-36.3484,-8.4994,7.12502,-9.44593,-38.2677,-7.95139e-16,1.27222e-14,-34.8285,40.8501,48.3981,45.1902,-6.01979,-29.0357,37.6309,7.12502,-2.38614,67.5973,-68.9144,-3.97745,26.1152,43.9112,12.3173,10.6604,0.935798,-47.249,-5.57216,-23.8596,77.045,-26.3217,-12.641,2.83626
-6.09721,15.2213,-1.60097,11.055,-44.3648,-1.41903,35.2294,1.92018,1.93273,7.59295,2.88589,1.97011,-9.25547,1.11615,0.00378941,-20.3618,3.51473,-4.1871,4.14694,6.25049,-5.71193,4.54693,2.57594,-0.542015,-9.30312e-14,3.18055e-14,-23.971,-9.31376,-65.2676,69.3815,30.1093,-36.5899,-8.45255,7.12502,-9.67898,-38.2102,-9.30312e-14,3.18055e-14,-35.1157,41.0935,48.4739,45.3296,-5.92021,-29.1193,37.419,7.12502,-2.46697,67.3845,-68.5305,-3.81505,26.1051,42.5244,12.9831,10.5688,1.56535,-46.9703,-5.42639,-23.9209,77.0255,-26.348,-12.7712,1.99809
-6.15479,15.2251,-1.56889,10.8339,-43.9957,-1.21234,35.0856,1.87827,1.70664,7.79168,2.72819,1.82982,-9.10741,1.05099,0.0215491,-20.553,3.21271,-4.03786,3.92321,5.76473,-5.31285,4.48958,2.37274,-0.487273,-1.02573e-13,1.43125e-14,-23.2309,-9.1739,-65.9844,69.664,30.8759,-36.6763,-8.62083,7.12502,-9.76238,-38.3746,-1.02573e-13,1.43125e-14,-35.5795,41.4312,48.2903,45.5833,-5.9933,-29.0772,37.5646,7.12502,-2.42623,67.5306,-68.1999,-3.92376,26.3194,41.2192,13.3087,11.1699,1.22451,-46.6076,-5.40415,-24.0838,77.0372,-26.2864,-12.7643,1.18165
-6.21157,15.2275,-1.53793,10.7467,-43.4595,-1.1438,35.238,1.88668,1.92886,7.3835,2.8579,1.85644,-9.48595,1.10855,-0.109579,-19.1776,2.51997,-4.63932,3.38505,4.8092,-4.70233,4.07257,1.97711,-0.312982,-1.59028e-14,1.43125e-14,-23.9296,-8.97255,-65.7301,70.5225,31.1694,-36.7975,-8.24009,7.12502,-9.87928,-37.9883,-1.59028e-14,1.43125e-14,-36.4301,40.6819,48.4075,45.8055,-6.09858,-28.6236,38.3414,7.12502,-1.98815,68.3119,-67.9235,-4.25581,26.7598,40.0163,13.5383,11.925,0.289947,-46.3569,-5.5753,-24.0221,77.0788,-25.4917,-13.9228,4.86248
-6.26494,15.234,-1.50804,10.9764,-42.8429,-1.52498,35.5791,1.75934,1.95066,7.1858,2.74773,1.9914,-9.84039,1.05291,0.0546263,-19.3652,2.27955,-4.43305,3.49689,4.4391,-4.48527,4.13353,1.80443,-0.307548,-5.32743e-14,6.36111e-15,-23.8688,-8.21885,-65.9055,71.2678,31.5473,-37.539,-6.408,7.12502,-10.5947,-36.1209,-5.32743e-14,6.36111e-15,-37.4001,40.7698,47.9823,45.9923,-6.3455,-27.5237,39.7482,7.12502,-0.925913,69.7259,-67.5492,-4.2034,27.0472,38.9639,13.85,11.6894,0.35269,-46.2564,-5.60129,-23.5562,77.1726,-24.8917,-15.1661,6.58784
-6.32194,15.2452,-1.47067,11.0362,-42.4812,-1.77957,35.7712,1.7587,1.78903,7.17568,2.7084,2.10812,-9.93732,1.03515,0.275637,-19.6692,1.95233,-4.5142,3.48542,3.99825,-4.03477,4.16149,1.61024,-0.191458,5.96354e-15,5.40694e-14,-23.5258,-7.59762,-66.0891,71.8541,32.1322,-37.9014,-5.1635,7.12502,-10.9442,-34.8583,5.96354e-15,5.40694e-14,-38.0627,41.1458,47.7187,46.0178,-6.46529,-27.2444,39.8107,7.12502,-0.656143,69.7894,-67.0977,-3.92504,27.1041,38.0695,14.1407,10.9753,0.481266,-45.9098,-5.40075,-23.3262,77.2477,-25.3672,-15.0091,2.5728
-6.38182,15.254,-1.43618,10.9642,-41.9746,-1.67042,35.6669,1.83623,1.73503,7.07706,2.81617,2.25416,-10.0209,1.08854,0.417013,-18.9513,1.21153,-5.37456,3.05761,3.07014,-3.20524,3.89015,1.21425,0.112495,-1.12115e-13,-7.15625e-15,-23.7269,-7.29679,-65.8308,72.6759,32.6155,-37.7622,-5.08561,7.12502,-10.8099,-34.7874,-1.12115e-13,-7.15625e-15,-38.5771,40.9079,48.0301,46.1529,-6.44494,-27.6974,39.015,7.12502,-1.09367,68.9919,-66.8218,-3.82254,26.9014,37.2695,14.426,10.4052,-0.934027,-45.6663,-5.47689,-23.33,77.3353,-25.1744,-15.3536,2.51928
-6.44242,15.2561,-1.40756,10.9888,-41.4043,-1.59892,35.4659,1.92013,1.86672,6.89791,3.00558,2.4041,-10.1502,1.17731,0.433322,-17.5391,0.409299,-6.05393,2.05828,1.97034,-2.70916,3.79143,0.731564,0.345255,-5.1684e-14,-4.77083e-15,-24.2511,-7.06138,-65.3765,73.5911,33.0612,-37.9603,-5.34429,7.12502,-11.001,-35.036,-5.1684e-14,-4.77083e-15,-39.0525,40.3809,48.5208,46.3098,-6.42682,-27.9044,38.9772,7.12502,-1.29357,68.953,-66.6683,-3.70662,26.7046,36.5967,14.6133,9.92259,-3.18159,-45.6012,-5.52145,-23.2867,77.4581,-24.7703,-15.9685,5.04457
-6.51021,15.2583,-1.37964,10.8767,-41.3934,-1.69108,35.5261,2.20153,1.78756,6.89826,3.32287,2.34689,-10.1735,1.32378,0.28865,-17.0414,-0.249861,-6.18187,1.80483,1.03658,-2.26339,3.61935,0.302653,0.435471,-2.3059e-14,-1.35174e-14,-24.5169,-6.87519,-65.2959,74.5226,33.3944,-38.171,-5.78172,7.12502,-11.2042,-35.4625,-2.3059e-14,-1.35174e-14,-39.1368,39.9603,48.7858,46.2582,-6.06991,-27.9286,39.3264,7.12502,-1.31695,69.3021,-66.2788,-3.16051,26.6944,35.9937,14.8078,9.64283,-4.27712,-45.1218,-4.91053,-23.3036,77.4663,-25.2654,-15.5923,3.02619
-6.56915,15.2558,-1.3399,10.9896,-40.3775,-1.66625,35.3675,1.87908,2.14302,6.87223,3.04568,2.26314,-10.1183,1.19578,0.123014,-17.3941,-0.718248,-6.14864,1.89386,0.398765,-1.71045,3.73518,0.00962052,0.564689,-1.09729e-13,5.32743e-14,-24.41,-6.46465,-65.5852,75.5548,33.6369,-37.9522,-6.78537,7.12502,-10.9932,-36.4775,-1.09729e-13,5.32743e-14,-39.3788,39.8648,48.7079,46.2534,-6.06415,-27.5994,39.4864,7.12502,-0.999026,69.4639,-66.3113,-3.33497,26.4794,35.4888,15.0744,9.13134,-4.71851,-45.1322,-5.34859,-23.1524,77.4756,-25.012,-16.0608,3.0847
-6.63225,15.2651,-1.30721,11.115,-39.9005,-1.78942,35.3481,1.8794,2.1525,6.85624,3.05414,2.26161,-10.1284,1.20122,0.112871,-17.4379,-1.14606,-6.16403,1.80507,-0.197453,-1.29072,3.72905,-0.262657,0.658394,7.15625e-15,-7.95139e-16,-23.9676,-6.17006,-65.9611,76.2225,34.096,-37.5624,-7.7506,7.12502,-10.6172,-37.4624,7.15625e-15,-7.95139e-16,-39.7435,39.8276,48.6329,46.3155,-6.2828,-27.3545,38.8382,7.12502,-0.762433,68.8165,-66.1821,-2.97895,26.2049,35.1212,15.799,8.28097,-2.47255,-44.9111,-5.28427,-22.9429,77.4542,-25.0857,-16.3803,2.66372
-6.6994,15.2748,-1.2746,11.1058,-39.7514,-1.91465,35.4279,2.08556,1.93069,6.91019,3.23303,2.28551,-10.1113,1.28703,0.184605,-17.3569,-1.56764,-6.06609,1.59531,-0.811263,-1.03468,3.65574,-0.547992,0.673997,5.08889e-14,-2.8625e-14,-23.4539,-6.0417,-66.1874,76.6343,34.7243,-37.3517,-7.70588,7.12502,-10.4139,-37.428,5.08889e-14,-2.8625e-14,-39.9594,39.8295,48.6955,46.1928,-6.0967,-27.703,38.3907,7.12502,-1.09911,68.3676,-65.9546,-2.30579,25.8644,34.9685,16.621,7.64083,-0.408627,-44.4635,-4.86856,-22.8633,77.4637,-25.7331,-15.8947,-0.446551
-6.75757,15.2736,-1.23719,11.2457,-38.6591,-1.78059,35.3262,1.81571,2.09124,6.7885,2.97822,2.33893,-10.2048,1.17189,0.255198,-17.4754,-1.96347,-6.01604,1.58412,-1.36051,-0.748662,3.69319,-0.806167,0.713835,-2.54444e-14,2.22639e-14,-23.2362,-5.71764,-66.2199,77.149,35.0571,-37.1796,-7.74418,7.12502,-10.2479,-37.4745,-2.54444e-14,2.22639e-14,-40.3828,39.8419,48.6367,46.1441,-6.28065,-27.5525,38.9444,7.12502,-0.953718,68.922,-66.2234,-2.58768,25.5469,35.0067,17.2974,7.49004,-1.0238,-44.6078,-5.51178,-22.7238,77.5577,-25.0696,-16.7741,2.55425
-6.81882,15.2758,-1.21078,11.372,-37.716,-1.54308,35.0979,1.67818,2.05642,6.76787,2.81308,2.4121,-10.2689,1.1029,0.397167,-17.351,-2.43291,-6.18222,1.31095,-1.99711,-0.32471,3.59921,-1.09699,0.832616,-3.57812e-14,5.40694e-14,-22.9137,-5.41301,-66.2463,77.5748,35.1851,-37.45,-7.70238,7.12502,-10.5088,-37.4197,-3.57812e-14,5.40694e-14,-40.7135,39.7981,48.6799,46.0876,-6.47973,-27.6896,38.7901,7.12502,-1.08611,68.7671,-66.597,-2.86255,25.2811,35.1585,18.0053,7.5909,-2.2391,-44.8183,-6.05656,-22.6322,77.6215,-24.2356,-17.7816,5.93703
-6.8831,15.2727,-1.1851,11.5043,-36.8866,-1.26542,34.7324,1.54588,1.93199,6.76046,2.61081,2.45287,-10.1487,1.02121,0.589822,-16.8584,-2.85603,-6.60029,0.686282,-2.5689,0.326464,3.322,-1.34068,1.08271,-1.43125e-14,-7.95139e-16,-22.4415,-4.90945,-66.3213,78.1405,35.3202,-37.8994,-6.00479,7.12502,-10.9422,-35.6996,-1.43125e-14,-7.95139e-16,-41.1075,39.7924,48.6658,46.0856,-6.13616,-28.0909,38.5309,7.12502,-1.47375,68.5056,-67.0444,-2.9391,24.8749,35.4466,18.6526,7.47661,-2.14101,-44.9457,-6.49675,-22.6259,77.6716,-24.5209,-17.715,4.37296
-6.95271,15.262,-1.15617,11.6353,-36.4931,-1.27602,34.6277,1.59803,1.70297,6.77048,2.60886,2.553,-10.1152,1.0277,0.819735,-16.5867,-3.18476,-7.08593,0.374527,-2.97087,0.895228,3.20089,-1.5123,1.33106,3.81667e-14,9.54166e-15,-22.004,-4.37085,-66.3629,78.8716,35.8916,-37.834,-5.17489,7.12502,-10.8792,-34.8731,3.81667e-14,9.54166e-15,-41.7044,40.0092,48.5558,46.2457,-6.07243,-27.766,38.7322,7.12502,-1.15987,68.7088,-67.3074,-2.6511,24.7683,35.8073,19.3949,7.54075,-2.39717,-44.8813,-6.36134,-22.4527,77.8027,-24.7396,-17.8204,3.3877
-7.01966,15.2519,-1.12528,11.7417,-36.1657,-1.45028,34.8002,1.70861,1.69423,6.79151,2.75086,2.58389,-10.1603,1.09137,0.799692,-16.7523,-3.56636,-7.10482,0.321468,-3.47905,1.16686,3.2438,-1.75288,1.38241,1.90833e-14,4.77083e-15,-21.5773,-4.2453,-66.4953,79.6068,36.7128,-37.3192,-6.50778,7.12502,-10.3825,-36.2314,1.90833e-14,4.77083e-15,-41.7306,40.1829,48.6207,45.9354,-6.38212,-27.6588,38.6621,7.12502,-1.05635,68.6393,-67.453,-2.34887,24.8362,36.269,20.1175,7.56047,-1.81131,-44.7592,-6.10315,-22.1779,77.9875,-24.5971,-18.1413,3.44214
-7.0824,15.2393,-1.0868,11.8856,-35.3416,-1.40533,34.833,1.59347,2.08171,6.80766,2.72207,2.36377,-10.1214,1.07293,0.371192,-17.2038,-3.95878,-6.45876,0.286563,-4.10757,1.32773,3.33,-2.05407,1.26086,-7.15625e-15,-1.90833e-14,-21.2892,-4.59105,-66.8261,80.2628,37.188,-37.0837,-6.85128,7.12502,-10.1554,-36.5862,-7.15625e-15,-1.90833e-14,-41.19,39.9984,48.8062,45.5211,-6.33812,-28.2637,38.3526,7.12502,-1.64063,68.3261,-67.8045,-2.40549,24.5969,36.8532,20.7787,6.8438,-1.43645,-44.7734,-6.37018,-22.054,78.1277,-25.3904,-17.4091,-2.95586
-7.14779,15.2328,-1.04232,11.9192,-34.522,-1.2338,34.7715,1.38296,2.10007,6.81577,2.47808,2.42696,-10.0918,0.964255,0.523566,-17.1766,-4.19958,-6.73817,0.0905382,-4.3991,1.72483,3.29011,-2.18061,1.4213,-4.6118e-14,-2.06736e-14,-20.7296,-4.1236,-66.8113,80.5556,37.8064,-37.3774,-6.32376,7.12502,-10.4387,-36.0446,-4.6118e-14,-2.06736e-14,-41.8062,40.2535,48.5993,45.4049,-6.08954,-29.0644,37.6905,7.12502,-2.41387,67.6566,-68.1208,-2.65087,24.4109,37.6043,21.3052,6.38523,-0.845462,-44.6743,-6.73268,-22.0107,78.1889,-25.772,-17.06,-8.21406
-7.21349,15.2375,-0.993427,11.8569,-33.8791,-1.0339,34.709,1.30924,2.07985,6.79956,2.39472,2.51006,-10.0916,0.929416,0.654906,-16.8519,-4.606,-7.17677,-0.206589,-4.90548,2.18202,3.1794,-2.41251,1.6164,-4.21423e-14,-1.51076e-14,-20.3473,-3.77395,-66.6498,80.8449,37.9685,-37.2643,-6.2207,7.12502,-10.3297,-35.947,-4.21423e-14,-1.51076e-14,-42.4741,40.3733,48.5299,45.4126,-5.85552,-29.4182,36.9201,7.12502,-2.75562,66.882,-68.3158,-2.99075,24.4294,38.4358,21.6454,6.7142,-1.39211,-44.5127,-7.16034,-21.9669,78.2289,-24.9005,-17.9797,-5.26404
-7.27638,15.2436,-0.94143,11.8467,-33.0048,-0.842253,34.6123,1.06848,2.26208,6.78112,2.16392,2.50844,-10.0668,0.824001,0.646014,-16.725,-4.936,-7.33184,-0.402002,-5.34558,2.55299,3.12969,-2.61516,1.73426,-3.26007e-14,3.10104e-14,-19.9361,-3.15597,-66.7728,81.4387,37.0675,-36.5904,-6.99304,7.12502,-9.67944,-36.7506,-3.26007e-14,3.10104e-14,-43.1532,40.3339,48.3951,45.6608,-5.54863,-29.4926,36.8112,7.12502,-2.82745,66.7722,-68.5288,-3.52739,24.4372,39.3006,21.8226,6.75423,-0.962117,-44.3954,-7.8146,-21.8664,78.2604,-24.8487,-18.392,-4.96575
-7.35566,15.2461,-0.904381,11.6962,-33.1024,-0.712836,34.8902,1.44542,1.76689,6.9231,2.44158,2.38686,-10.0299,0.959239,0.670625,-17.3082,-5.17703,-6.86715,-0.372716,-5.7203,2.62806,3.25321,-2.79525,1.63246,3.10104e-14,-2.22639e-14,-19.5127,-2.78794,-67.0467,82.3287,36.4521,-36.2237,-8.43766,7.12502,-9.32564,-38.2114,3.10104e-14,-2.22639e-14,-43.1213,40.3058,48.4825,45.809,-5.44247,-29.3411,36.6958,7.12502,-2.68112,66.6587,-68.5114,-3.20614,24.4954,40.1111,21.6417,6.97422,0.678573,-43.9552,-7.36485,-21.8643,78.2509,-25.1341,-18.9172,-5.90544
-7.42505,15.2473,-0.84404,11.6401,-32.8316,-0.755871,35.0344,1.46893,1.75282,7.05319,2.45523,2.34391,-9.93684,0.964975,0.627021,-17.9024,-5.32928,-6.5943,-0.0222041,-5.94176,2.79166,3.061,-2.88999,1.43944,4.29375e-14,5.88403e-14,-18.8906,-2.46085,-67.2163,82.9041,36.8922,-36.5057,-8.52266,7.12502,-9.59774,-38.284,4.29375e-14,5.88403e-14,-43.3228,40.583,48.3032,45.7162,-5.44539,-29.1357,36.8068,7.12502,-2.48281,66.7721,-68.448,-3.16968,24.6697,40.9795,20.6665,7.37482,3.01247,-43.552,-7.33671,-21.7099,78.267,-24.7089,-19.7276,-3.87926
-7.48503,15.2564,-0.748678,11.3286,-32.5613,-0.889944,35.3859,1.35813,2.28263,7.28913,2.46566,2.13559,-9.64767,0.958464,0.140736,-18.747,-5.6293,-6.2612,0.0303738,-6.36958,2.98517,3.21627,-3.08814,1.39137,4.77083e-15,1.90833e-14,-17.9651,-2.70651,-67.5211,83.1387,38.0554,-36.953,-7.75318,7.12502,-10.0293,-37.4942,4.77083e-15,1.90833e-14,-43.0387,40.954,48.298,45.373,-5.4798,-28.9687,36.8224,7.12502,-2.32144,66.7895,-67.9581,-3.25406,24.8523,41.8231,20.6649,8.84632,11.0834,-42.6321,-7.53131,-21.6748,78.2349,-25.0052,-19.6719,-4.11545
-7.5562,15.2385,-0.712821,11.3416,-31.6623,-0.770988,35.7016,1.19107,2.34734,7.17827,2.31173,2.20134,-9.88948,0.884949,0.230022,-18.592,-5.89215,-6.37249,-0.265416,-6.72553,3.34406,3.13429,-3.24881,1.49551,-6.12257e-14,-3.49861e-14,-17.525,-2.48652,-67.538,83.3864,38.7665,-37.4013,-6.73095,7.12502,-10.4617,-36.4506,-6.12257e-14,-3.49861e-14,-43.5328,41.1033,48.0816,45.221,-5.57634,-29.1823,36.6854,7.12502,-2.52781,66.6502,-68.1372,-3.55884,24.8207,42.6947,19.8554,9.29144,12.9118,-42.6008,-7.89889,-21.4045,78.4181,-25.1021,-20.2338,-3.34908
-7.63392,15.2134,-0.668844,11.4872,-31.1651,-0.682009,35.7269,1.29811,2.3159,7.12459,2.44521,2.21819,-9.96072,0.948039,0.211006,-18.2879,-6.21348,-6.45814,-0.694879,-7.17393,3.73497,2.99607,-3.45626,1.6034,-1.27222e-14,-1.98785e-14,-17.2714,-2.47186,-67.4363,83.6751,38.6766,-37.7827,-5.81089,7.12502,-10.8297,-35.5117,-1.27222e-14,-1.98785e-14,-43.7461,40.9292,48.1543,45.1872,-5.69944,-29.6959,36.3086,7.12502,-3.02378,66.2669,-68.4238,-3.4937,24.7517,43.4897,18.9598,10.1468,12.9999,-42.6894,-7.97488,-21.1998,78.6408,-24.7821,-21.0641,-0.972686
-7.71206,15.193,-0.615544,11.6496,-30.9573,-0.731641,35.7108,1.40428,2.09474,6.97481,2.52899,2.36535,-10.1409,0.990218,0.449126,-17.1092,-6.37398,-6.95299,-1.77533,-7.38104,4.00754,2.87928,-3.56365,1.97674,-1.66979e-14,-1.03368e-14,-17.1526,-1.64686,-67.2234,84.1387,38.7554,-37.8559,-5.85422,7.12502,-10.9002,-35.5513,-1.66979e-14,-1.03368e-14,-44.7269,41.0294,47.6255,44.9973,-5.7467,-30.1883,35.5116,7.12502,-3.49933,65.4626,-68.6142,-3.118,24.7107,44.2017,17.794,10.0645,12.2306,-42.6635,-7.83901,-20.9341,78.8744,-24.8567,-21.6029,-0.669895
-7.78898,15.184,-0.552693,11.6991,-30.8476,-0.701798,35.5827,1.53377,1.92916,7.04015,2.62245,2.3458,-10.0274,1.03882,0.481498,-17.0234,-6.52234,-6.82168,-1.99686,-7.60917,3.98843,2.78999,-3.67967,1.92954,-3.26007e-14,-7.95139e-15,-16.8632,-1.1612,-67.207,84.647,39.1451,-37.9079,-6.06833,7.12502,-10.9504,-35.7628,-3.26007e-14,-7.95139e-15,-45.274,41.2412,47.2863,44.9314,-5.66377,-30.2869,34.8938,7.12502,-3.59448,64.8432,-68.6561,-2.71285,24.5342,44.7686,17.1342,9.43941,14.072,-42.4393,-7.72881,-20.7914,79.0194,-24.8187,-22.1186,0.00991882
-7.86404,15.1752,-0.489038,11.7022,-30.4704,-0.604672,35.5407,1.53602,1.90794,7.13612,2.61026,2.32099,-9.90394,1.03608,0.472883,-17.1016,-6.733,-6.85838,-2.25319,-7.88687,4.2374,2.74565,-3.80883,1.9953,-3.18055e-15,2.8625e-14,-16.3171,-0.922301,-67.2975,84.9452,39.4052,-37.8748,-4.76063,7.12502,-10.9185,-34.4567,-3.18055e-15,2.8625e-14,-45.6878,41.4789,47.0821,44.9831,-5.52435,-30.3869,35.0875,7.12502,-3.6911,65.0353,-68.7139,-2.63621,24.4031,45.2859,16.5261,9.04485,15.5338,-42.2477,-7.83993,-20.6601,79.1876,-24.4073,-22.939,1.92889
-7.93874,15.1671,-0.439005,11.7945,-29.9255,-0.5766,35.7279,1.46586,1.94637,7.09028,2.55131,2.34846,-10.024,1.00767,0.501148,-17.008,-6.95386,-7.09135,-2.62324,-8.15673,4.67236,2.65286,-3.92835,2.16524,6.36111e-15,-4.77083e-15,-15.7944,-0.557008,-67.3304,85.1403,39.5162,-37.7244,-3.11247,7.12502,-10.7735,-32.8162,6.36111e-15,-4.77083e-15,-46.1097,41.6878,46.7156,44.6493,-5.50898,-30.475,34.9732,7.12502,-3.77619,64.9195,-68.938,-2.65346,24.3718,45.8839,15.9691,8.93861,16.4718,-42.3377,-8.05528,-20.31,79.4188,-23.2088,-24.3195,5.65848
-8.01484,15.1593,-0.389409,11.8704,-29.3366,-0.441979,35.7863,1.36769,1.95205,7.05284,2.4392,2.3386,-10.0865,0.957875,0.529765,-17.0378,-7.08569,-7.04126,-2.82024,-8.3414,4.74585,2.60162,-4.01877,2.16528,2.46493e-14,-6.04305e-14,-15.4426,-0.0722708,-67.3003,85.5945,39.2317,-37.9878,-4.01736,7.12502,-11.0275,-33.7077,2.46493e-14,-6.04305e-14,-46.6225,41.7751,46.2801,44.378,-5.41656,-30.4781,34.3997,7.12502,-3.77919,64.3459,-69.2916,-2.70264,24.1689,46.6541,15.5091,8.77833,16.8024,-42.4324,-8.2625,-20.0681,79.6069,-22.0501,-25.5063,8.57935
-8.09319,15.1449,-0.333317,11.8626,-28.6352,-0.231613,35.7486,1.24597,2.05983,7.06868,2.32449,2.28308,-10.0469,0.906966,0.459005,-17.0134,-7.30625,-6.86315,-3.10969,-8.67301,4.8695,2.51281,-4.18302,2.14835,-6.20208e-14,-1.03368e-14,-15.3236,0.204324,-67.2472,86.245,38.9696,-38.2665,-5.57083,7.12502,-11.2963,-35.2466,-6.20208e-14,-1.03368e-14,-46.8232,41.7228,46.1196,44.2554,-5.20393,-30.3063,34.8286,7.12502,-3.61321,64.7777,-69.6401,-2.8151,23.7818,47.6373,15.0321,7.99195,18.5693,-42.2678,-8.44887,-19.9988,79.6984,-22.0609,-25.8336,9.25032
-8.17349,15.114,-0.283271,11.8331,-28.2019,-0.0311269,35.9525,1.32273,1.91995,7.01479,2.38101,2.27653,-10.1884,0.935144,0.499684,-16.7725,-7.53708,-6.88687,-3.54742,-8.99639,5.1663,2.35655,-4.33934,2.23478,-8.98507e-14,2.78299e-14,-15.1574,0.28503,-67.1533,86.6488,39.7157,-38.3745,-6.06856,7.12502,-11.4004,-35.7386,-8.98507e-14,2.78299e-14,-46.8988,41.7014,46.0452,44.0413,-5.28219,-29.5201,36.5288,7.12502,-2.85399,66.4894,-70.086,-2.7476,23.4976,48.7619,14.4091,7.13672,20.1324,-41.9782,-8.2877,-20.0033,79.7707,-23.1795,-25.3789,6.91
-8.25288,15.0833,-0.232355,11.6597,-27.8884,0.260588,36.2921,1.41081,1.64189,6.96129,2.39702,2.23315,-10.383,0.946419,0.587643,-16.356,-7.63358,-7.0435,-3.97603,-9.1256,5.45759,2.17033,-4.39995,2.36631,-1.03368e-14,3.33958e-14,-14.5739,0.44758,-67.1924,86.5893,40.8118,-38.3254,-6.70982,7.12502,-11.3531,-36.3825,-1.03368e-14,3.33958e-14,-47.3553,41.6949,45.6615,43.9821,-5.68103,-28.2917,37.2499,7.12502,-1.66768,67.2231,-70.4774,-2.80102,23.3286,49.9781,13.5193,6.87871,19.9174,-41.4589,-8.0546,-20.1679,79.7961,-24.699,-24.3175,1.7474
-8.33038,15.0562,-0.179674,11.5507,-27.5238,0.49064,36.4273,1.44542,1.43066,7.05026,2.35825,2.20117,-10.3393,0.933813,0.679014,-15.971,-7.70959,-7.09371,-4.56304,-9.24181,5.71626,1.92774,-4.45809,2.47094,1.11319e-14,-1.11319e-14,-13.7834,0.768148,-67.2142,86.7023,40.9077,-37.8104,-8.33927,7.12502,-10.8564,-38.0387,1.11319e-14,-1.11319e-14,-47.6911,41.8604,45.3344,43.8069,-5.62332,-28.1884,36.7617,7.12502,-1.56786,66.7357,-70.8558,-2.9277,23.2437,51.2019,12.402,6.92859,19.0024,-41.2434,-7.9608,-20.1742,79.9574,-24.2873,-24.9611,3.40856
-8.40924,15.0295,-0.12729,11.4983,-27.0016,0.765913,36.2864,1.4545,1.34834,7.1473,2.33436,2.18053,-10.1813,0.928659,0.712405,-15.6609,-7.88393,-7.10596,-4.99351,-9.4903,5.93683,1.75748,-4.58339,2.54125,2.78299e-14,-4.92986e-14,-13.5275,1.00713,-67.1065,87.3175,40.6052,-37.4873,-9.31968,7.12502,-10.5447,-39.0352,2.78299e-14,-4.92986e-14,-47.6165,41.7961,45.468,43.5229,-5.11618,-28.9614,36.6561,7.12502,-2.31441,66.6233,-71.2872,-3.07075,22.9645,52.4204,11.3251,6.61174,19.3599,-41.2957,-8.02298,-20.1348,80.2235,-23.666,-25.8667,5.88591
-8.48736,15.0097,-0.0699592,11.4378,-26.1414,0.917501,36.1443,1.28604,1.7109,7.14265,2.26433,2.18624,-10.1193,0.894276,0.556818,-15.3326,-8.12784,-7.15986,-5.12135,-9.82671,6.03829,1.68861,-4.75363,2.56864,-1.59028e-15,-3.18055e-15,-13.5457,1.04049,-66.941,87.7953,40.6043,-37.5826,-8.35456,7.12502,-10.6366,-38.0654,-1.59028e-15,-3.18055e-15,-47.6538,41.355,45.6507,43.4762,-5.25725,-28.751,36.8013,7.12502,-2.11125,66.7706,-71.5653,-3.4794,22.7723,53.6199,10.292,6.04433,20.194,-41.1821,-8.34484,-19.9494,80.4396,-23.7211,-26.2302,3.57704
