JuanDHNZ/ProyectoFinalCD/preprocessing/sports_trials_csv/17_06.csv
root1,root2,root3,root4,root5,root6,lowerback1,lowerback2,lowerback3,upperback1,upperback2,upperback3,thorax1,thorax2,thorax3,lowerneck1,lowerneck2,lowerneck3,upperneck1,upperneck2,upperneck3,head1,head2,head3,rclavicle1,rclavicle2,rhumerus1,rhumerus2,rhumerus3,rradius1,rwrist1,rhand1,rhand2,rfingers1,rthumb1,rthumb2,lclavicle1,lclavicle2,lhumerus1,lhumerus2,lhumerus3,lradius1,lwrist1,lhand1,lhand2,lfingers1,lthumb1,lthumb2,rfemur1,rfemur2,rfemur3,rtibia1,rfoot1,rfoot2,rtoes1,lfemur1,lfemur2,lfemur3,ltibia1,lfoot1,lfoot2,ltoes1
1.09655,17.1901,38.3748,-178.766,12.5433,174.42,9.4795,-0.365257,-5.49073,1.9541,-0.818092,1.84432,-3.16752,-0.295834,5.12057,-13.7026,6.00756,-2.29342,22.2127,10.6732,-3.24154,9.33773,4.77015,0.605474,-2.127e-14,-3.97569e-15,-36.7595,-20.6247,-74.049,29.8043,21.3618,-8.9857,1.26403,7.12502,16.9602,-28.0155,-2.127e-14,-3.97569e-15,-21.884,-3.16296,88.9474,38.5156,-1.63775,-12.4422,29.097,7.12502,13.6308,58.6307,-37.4078,-2.20039,14.5119,48.6552,-7.4699,-6.88085,7.13539,-10.4715,-2.05606,-30.9123,28.1306,-15.607,-0.897281,1.73554
1.13733,17.2241,38.2824,-178.542,11.9851,174.4,9.38437,-0.488717,-5.54743,1.87428,-0.986035,1.92414,-3.17405,-0.37861,5.25589,-13.6407,6.03189,-2.6398,22.1015,10.7526,-3.14661,9.26386,4.79677,0.695586,1.17283e-14,-1.98785e-14,-36.9406,-20.4579,-73.9801,30.0181,21.1094,-9.13114,1.13874,7.12502,16.8202,-28.1527,1.17283e-14,-1.98785e-14,-22.1883,-3.31931,89.065,38.7181,-1.50654,-12.8282,28.2803,7.12502,13.2588,57.8386,-37.5559,-2.15713,14.3326,46.1645,-6.79036,-7.59569,9.44859,-9.66678,-2.57838,-30.878,26.9197,-15.3583,-0.828814,1.60575
1.17055,17.2488,38.1914,-178.445,11.5735,174.307,9.44088,-0.470612,-5.56894,1.82961,-0.970292,1.907,-3.2542,-0.367546,5.25018,-13.6466,6.00545,-2.80988,22.0305,10.7183,-3.04035,9.22412,4.78052,0.751632,1.21259e-14,-2.8625e-14,-37.0554,-20.3261,-73.9559,30.1909,20.6224,-9.32369,1.57167,7.12502,16.6348,-27.7355,1.21259e-14,-2.8625e-14,-22.4421,-3.67552,89.2148,38.9434,-1.45534,-12.7531,27.7829,7.12502,13.3312,57.3364,-37.613,-1.92075,13.9883,43.7219,-5.88849,-8.36799,8.9886,-8.70696,-3.0177,-30.9649,25.6785,-15.178,-0.823106,1.43739
1.20859,17.2712,38.0953,-178.307,11.3091,174.316,9.425,-0.376768,-5.55747,1.83425,-0.842234,1.92625,-3.25723,-0.303682,5.24863,-13.8267,5.94358,-2.94883,22.0652,10.6611,-2.9882,9.25912,4.74277,0.792412,2.70347e-14,-1.82882e-14,-37.1656,-20.1548,-73.9419,30.5269,20.2412,-9.57024,2.0475,7.12502,16.3975,-27.2794,2.70347e-14,-1.82882e-14,-22.7061,-4.22861,89.3529,39.2731,-1.58568,-12.5224,27.8431,7.12502,13.5536,57.382,-37.6213,-1.38999,13.6252,41.2486,-5.21409,-9.09814,9.46158,-7.75205,-3.14474,-30.925,24.3871,-15.0094,-0.872229,0.872187
1.24712,17.2864,37.9998,-178.165,10.9747,174.073,9.25641,-0.283974,-5.74855,1.91403,-0.728293,1.84152,-3.09326,-0.252403,5.25064,-14.035,5.89607,-3.04236,21.8264,10.5487,-2.91245,9.2039,4.68327,0.819271,-1.2921e-14,-1.11319e-14,-37.1289,-19.9775,-74.08,30.9365,19.7192,-9.96727,2.29784,7.12502,16.0152,-27.0602,-1.2921e-14,-1.11319e-14,-22.7304,-4.99279,89.4379,39.5323,-1.51467,-12.3505,27.3219,7.12502,13.7193,56.8496,-37.6956,-0.815496,12.9081,38.8265,-4.88722,-9.98295,9.55749,-6.84902,-3.37055,-31.1499,23.0576,-14.7288,-0.903584,0.258401
1.28795,17.3026,37.8998,-178.039,10.2315,173.826,9.06133,-0.370693,-5.9396,1.92472,-0.854558,1.77657,-2.95464,-0.319793,5.30136,-14.0152,5.90897,-3.01139,21.5933,10.5276,-2.94796,9.12265,4.67505,0.792269,1.35174e-14,1.59028e-14,-37.2474,-19.7272,-74.1215,31.2055,19.4161,-10.4536,2.74037,7.12502,15.5469,-26.6547,1.35174e-14,1.59028e-14,-22.9842,-5.65833,89.5437,39.8676,-1.60857,-11.7892,27.8953,7.12502,14.2601,57.3857,-37.6153,-0.467604,12.1428,36.4604,-4.74779,-11.1102,8.85146,-5.96329,-3.68406,-31.3157,21.8639,-14.5498,-1.33399,0.126765
1.33134,17.3241,37.7939,-178.076,9.03376,173.893,9.06516,-0.643854,-5.83503,1.94261,-1.20292,1.80028,-2.89266,-0.494932,5.3046,-13.6285,5.91112,-2.75801,21.2842,10.493,-3.21674,8.97446,4.67033,0.6364,1.51076e-14,7.15625e-15,-37.5469,-19.5084,-74.1076,31.5913,19.1525,-10.6139,2.95898,7.12502,15.3924,-26.448,1.51076e-14,7.15625e-15,-23.3457,-6.3744,89.5937,40.1236,-1.42318,-10.9468,28.766,7.12502,15.0717,58.1973,-37.0528,-0.093437,11.5675,34.2206,-4.93639,-12.4878,10.389,-4.80032,-3.97485,-31.0683,20.7102,-14.4261,-2.15745,-0.186573
1.37547,17.3199,37.704,-177.982,9.14069,173.856,9.09742,-0.442957,-5.99742,1.90886,-0.956838,1.79059,-2.97597,-0.368565,5.36138,-13.4543,5.84901,-2.68156,21.1203,10.4073,-3.37482,8.89968,4.63056,0.551798,4.17448e-14,-3.73715e-14,-37.6668,-19.1929,-74.1224,31.9136,18.7743,-10.7625,2.941,7.12502,15.2493,-26.4769,4.17448e-14,-3.73715e-14,-23.5704,-7.00022,89.6694,40.3715,-1.09977,-9.72653,30.2975,7.12502,16.247,59.6367,-37.128,0.878806,11.0226,32.1048,-4.6839,-13.2548,11.5383,-4.04018,-3.4735,-31.0058,19.6885,-14.3571,-2.51766,-0.466322
1.42157,17.3136,37.61,-177.99,8.73805,173.37,9.1794,-0.418729,-6.55324,1.89196,-0.986825,1.70073,-3.02556,-0.377295,5.5889,-13.3839,5.87033,-2.88147,20.9135,10.4132,-3.23878,8.79678,4.63734,0.619828,-1.09332e-14,-1.82882e-14,-37.712,-18.7091,-74.1901,32.2525,18.424,-11.146,2.50871,7.12502,14.8798,-26.9369,-1.09332e-14,-1.82882e-14,-23.8546,-7.34871,89.7668,40.601,-1.10268,-10.3776,29.0629,7.12502,15.62,58.4522,-37.0624,1.54188,9.88696,30.1373,-4.72656,-14.4239,12.2309,-3.24883,-3.40288,-31.3848,18.8099,-14.2807,-3.05809,0.542737
1.46615,17.3062,37.5128,-177.958,8.28246,173.109,9.11558,-0.383749,-6.8341,1.91284,-0.96369,1.63999,-2.96703,-0.366298,5.68063,-13.2605,5.94118,-2.79496,20.7684,10.4792,-3.27209,8.73087,4.67841,0.594048,2.16675e-14,-4.6118e-14,-37.787,-18.1353,-74.3957,32.8585,17.9103,-11.2354,0.905118,7.12502,14.7938,-28.5469,2.16675e-14,-4.6118e-14,-24.0433,-7.8006,89.8398,40.8327,-1.02567,-12.4308,26.6312,7.12502,13.6418,56.1641,-36.9754,1.95794,9.06023,28.3357,-5.16362,-15.2926,12.7948,-2.54003,-3.28031,-31.5127,18.0992,-14.2907,-3.68108,0.798241
1.5131,17.3002,37.4176,-177.881,7.85127,173.17,9.0116,-0.334965,-6.77524,1.96117,-0.882552,1.63951,-2.87163,-0.330506,5.63477,-13.1055,5.95162,-2.55299,20.6491,10.4897,-3.5197,8.68983,4.68621,0.467768,-6.95746e-15,3.97569e-14,-37.7578,-17.5424,-74.7146,33.5345,17.2605,-11.2045,-1.56542,7.12502,14.8235,-31.0152,-6.95746e-15,3.97569e-14,-24.0244,-8.37826,89.8336,40.9305,-0.70289,-12.1476,26.687,7.12502,13.9147,56.2015,-36.8589,2.81494,8.42594,26.733,-5.79311,-16.5692,13.1082,-1.85188,-2.95114,-31.2324,17.3596,-14.3281,-4.51549,0.600672
1.56654,17.2991,37.3196,-177.793,7.19633,173.152,8.9598,-0.367975,-6.90199,2.02933,-0.926441,1.67663,-2.76154,-0.355651,5.74914,-13.4188,5.85576,-2.6156,20.8051,10.3845,-3.46695,8.79361,4.6243,0.499158,1.66979e-14,-4.77083e-15,-37.5282,-17.2613,-74.7662,33.8199,16.8777,-11.0243,-2.39399,7.12502,14.9971,-31.8309,1.66979e-14,-4.77083e-15,-23.982,-8.66806,89.8287,41.0004,-0.504024,-10.7841,27.5744,7.12502,15.2284,56.9939,-36.6424,3.70502,7.63152,25.2572,-6.4397,-18.0612,12.7899,-1.28505,-2.83703,-30.99,16.8549,-14.4389,-5.3781,0.536324
1.6146,17.2906,37.215,-177.87,6.43034,173.15,9.01963,-0.449975,-6.89263,2.09751,-1.02959,1.67862,-2.70767,-0.408137,5.75714,-13.2757,5.78486,-2.69944,20.6837,10.2773,-3.42335,8.71832,4.5804,0.505977,-7.95139e-15,3.89618e-14,-37.3828,-17.0963,-74.7298,33.7973,16.905,-11.265,-2.35132,7.12502,14.7652,-31.8054,-7.95139e-15,3.89618e-14,-24.198,-9.03886,89.8122,41.0734,-0.457428,-9.83658,28.644,7.12502,16.141,57.9919,-36.2295,4.60722,6.81529,23.9874,-7.14494,-19.7084,11.0255,-0.586866,-2.80992,-30.7484,16.4987,-14.465,-6.26427,1.09263
1.65698,17.2734,37.1184,-177.717,6.00953,173.133,8.76681,-0.40572,-6.77379,2.16995,-0.942107,1.57638,-2.5089,-0.374421,5.56554,-12.7639,5.83536,-2.63791,20.1092,10.2234,-3.37972,8.42846,4.58688,0.4693,6.36111e-15,1.27222e-14,-37.1398,-17.3534,-74.6874,33.6856,16.8726,-11.423,-2.47494,7.12502,14.613,-31.9401,6.36111e-15,1.27222e-14,-24.2493,-9.56295,89.7802,40.9229,-0.736815,-10.4971,28.9322,7.12502,15.5049,58.3305,-36.2535,5.36884,6.08271,23.0156,-7.81658,-20.9021,10.237,-0.211286,-2.8949,-30.6019,16.1989,-14.5983,-6.69103,0.937762
1.69108,17.2476,37.0252,-177.852,5.64213,172.942,8.94633,-0.328423,-6.68523,2.29438,-0.832623,1.41552,-2.49815,-0.318662,5.33556,-12.3594,5.89323,-2.74405,19.6176,10.2221,-3.27982,8.1775,4.60773,0.489255,-1.98785e-16,2.38542e-14,-36.9741,-17.4655,-74.6476,33.7634,16.9311,-11.4478,-2.48952,7.12502,14.5891,-31.9564,-1.98785e-16,2.38542e-14,-24.1319,-9.92356,89.7353,40.6911,-0.881618,-11.9819,28.2337,7.12502,14.0744,57.7371,-36.0804,5.51479,5.49613,22.4097,-8.17747,-21.3922,8.92263,0.450106,-2.9868,-30.7136,15.9269,-14.7562,-6.93583,0.194808
1.72325,17.2286,36.9254,-178.153,5.00949,172.799,9.41135,-0.335228,-6.56165,2.35154,-0.849894,1.31179,-2.69725,-0.315929,5.16538,-12.3862,5.83633,-2.60193,19.7756,10.1398,-3.26848,8.24123,4.57828,0.467435,5.76476e-15,7.95139e-15,-36.9579,-17.6304,-74.4048,33.8073,17.2422,-10.7401,-1.94963,7.12502,15.2708,-31.3659,5.76476e-15,7.95139e-15,-24.1162,-9.95883,89.7056,40.4991,-0.917887,-12.1335,28.4012,7.12502,13.9284,57.9147,-35.6184,4.98344,5.29184,22.1385,-8.45851,-21.5609,6.48382,1.30854,-3.24091,-30.7634,15.7393,-15.0251,-7.21794,-0.373178
1.75944,17.2143,36.8222,-178.257,4.42868,172.731,9.49592,-0.379861,-6.44568,2.47667,-0.88865,1.26738,-2.61038,-0.33665,5.05683,-12.836,5.72127,-2.38368,20.0296,10.0003,-3.38862,8.42543,4.49668,0.402513,2.78299e-15,-4.37326e-14,-36.5601,-17.9065,-74.1778,33.4806,17.6119,-10.6354,-1.29429,7.12502,15.3717,-30.7029,2.78299e-15,-4.37326e-14,-24.0392,-9.67251,89.5771,40.0647,-1.68269,-11.6328,26.8116,7.12502,14.4108,56.2914,-35.5154,4.14068,5.36474,22.4699,-8.7466,-21.4672,5.706,2.09049,-3.54859,-30.7036,15.2756,-15.134,-7.51158,-0.243142
1.80276,17.2061,36.7221,-178.289,4.01539,172.829,9.38752,-0.382852,-6.21156,2.6653,-0.844581,1.22948,-2.36384,-0.322712,4.87467,-13.0357,5.73493,-2.19448,20.0682,10.0042,-3.47818,8.48901,4.49466,0.352129,-1.78906e-15,4.13472e-14,-36.1001,-18.1036,-74.1185,33.2325,17.6771,-10.5286,-1.01384,7.12502,15.4746,-30.4145,-1.78906e-15,4.13472e-14,-24.0252,-9.17282,89.3723,39.8895,-2.1773,-11.4998,26.1106,7.12502,14.539,55.5811,-35.5046,3.23847,5.79485,22.9626,-9.10024,-21.2542,7.04054,2.75186,-3.89918,-30.4672,14.8755,-15.2637,-7.57096,-1.01864
1.83226,17.1858,36.6206,-178.283,3.3846,172.084,9.28459,-0.492517,-6.61682,2.81115,-1.01011,0.930114,-2.12894,-0.409863,4.8038,-12.8317,5.97223,-2.20851,19.7455,10.2607,-3.38139,8.33758,4.63257,0.397448,-1.63003e-14,1.03368e-14,-35.6576,-18.3283,-74.0825,33.0826,18.0331,-10.4714,-0.977661,7.12502,15.5297,-30.3741,-1.63003e-14,1.03368e-14,-23.9524,-8.63274,89.1443,39.6367,-2.46901,-11.6679,27.0324,7.12502,14.377,56.5145,-35.5529,0.823323,5.77123,23.5557,-8.78128,-19.9552,6.02794,3.25433,-4.4692,-31.2009,14.6613,-15.331,-7.72612,-1.13459
1.8832,17.172,36.5108,-178.272,3.1808,172.392,9.23177,-0.419201,-6.41387,2.92953,-0.874537,1.07929,-1.99519,-0.346963,4.82898,-12.727,6.1407,-2.43749,19.536,10.4534,-3.14391,8.22275,4.73557,0.520616,2.18663e-15,-7.95139e-15,-35.3176,-18.2531,-73.9147,32.9715,18.1074,-10.6351,-1.0708,7.12502,15.3719,-30.4794,2.18663e-15,-7.95139e-15,-23.9395,-7.87917,89.1222,39.3237,-3.1888,-11.5529,29.0043,7.12502,14.4878,58.4785,-35.5908,0.32236,6.43289,24.1645,-8.19024,-20.2152,5.62621,3.71404,-4.93555,-30.7711,14.6412,-15.4951,-7.41643,-1.73841
1.93596,17.1615,36.4002,-178.047,3.26139,172.786,8.98958,-0.280059,-6.16571,2.81095,-0.667516,1.24483,-2.01497,-0.247566,4.83807,-12.9335,6.06386,-2.27354,19.8659,10.382,-3.20125,8.38297,4.69909,0.486381,-1.21259e-14,-1.11319e-14,-35.3676,-18.1249,-73.5695,32.8385,18.0714,-10.6797,-1.63873,7.12502,15.329,-31.0506,-1.21259e-14,-1.11319e-14,-24.4041,-6.91852,89.0737,38.9417,-4.04733,-12.3285,28.2759,7.12502,13.7404,57.8023,-35.971,-0.36859,7.39101,24.8617,-7.63412,-20.1559,5.30694,3.88569,-5.22176,-30.2343,14.7588,-15.7297,-7.11704,-2.41968
1.98463,17.1527,36.2937,-177.133,3.54695,172.724,7.88214,-0.145532,-6.36718,2.54171,-0.483263,1.28012,-1.70454,-0.178365,4.95965,-12.4531,6.1835,-2.32589,19.6719,10.5479,-3.22655,8.23081,4.79464,0.480851,-9.93923e-15,1.35174e-14,-35.3477,-17.9984,-73.2205,32.6392,18.2259,-10.7782,-1.74482,7.12502,15.2341,-31.1639,-9.93923e-15,1.35174e-14,-24.8684,-5.85249,89.0026,38.4157,-4.15438,-13.6834,26.5046,7.12502,12.4343,56.1147,-37.0692,-1.02038,7.79688,25.4606,-7.46063,-19.7475,7.09123,3.12537,-5.403,-30.1568,15.1097,-15.9089,-6.79172,-3.84508
2.02567,17.1184,36.2044,-177.8,5.0518,172.687,8.61988,0.486535,-6.55073,2.7003,0.317192,1.23804,-2.05282,0.238285,4.94597,-12.0338,6.28252,-2.27917,19.3525,10.6606,-3.34869,8.05891,4.85994,0.420987,5.1684e-15,-1.03368e-14,-35.0494,-18.384,-72.8476,32.2134,18.9613,-10.8006,-0.943406,7.12502,15.2126,-30.3641,5.1684e-15,-1.03368e-14,-25.2244,-4.74088,88.85,38.146,-3.84186,-13.5758,27.2763,7.12502,12.5381,56.8801,-37.0182,-1.26156,8.64168,26.2242,-6.95073,-18.1933,7.84559,4.07932,-4.82517,-30.4657,15.2846,-16.157,-5.52295,-5.74799
2.06874,17.1018,36.0997,-178.01,5.47556,172.663,8.90607,0.782219,-6.47256,2.76551,0.705305,1.12143,-2.19301,0.439062,4.73677,-12.006,6.28359,-2.06105,19.3101,10.6059,-3.34427,8.04966,4.84864,0.380089,2.98177e-15,-2.78299e-14,-34.8337,-18.6099,-72.7308,32.0435,18.9373,-10.645,-0.906443,7.12502,15.3624,-30.3157,2.98177e-15,-2.78299e-14,-25.5625,-3.44122,88.4297,37.8981,-5.20172,-19.6413,23.6744,7.12502,6.68606,53.5488,-37.0722,-1.70726,9.14771,27.182,-6.88299,-17.558,9.41171,4.80697,-4.79311,-30.5366,15.1042,-16.1186,-5.04533,-6.49058
2.11339,17.0996,35.9879,-177.993,5.25061,172.649,8.94512,0.861567,-6.32517,2.79747,0.823771,1.04269,-2.19432,0.499045,4.55722,-12.1012,6.27754,-1.96059,19.3341,10.5577,-3.263,8.07404,4.83491,0.389529,-3.57812e-15,0,-34.6949,-18.6316,-72.6337,32.1058,18.6558,-10.4878,-1.59482,7.12502,15.5139,-30.9924,-3.57812e-15,0,-25.7745,-2.31516,88.0284,37.2837,-6.94829,-21.4122,21.1228,7.12502,4.97638,51.0444,-37.1248,-2.41891,9.51981,28.0992,-6.23838,-17.4392,9.43335,5.4225,-5.13394,-30.4945,14.7747,-15.8573,-4.87867,-7.14899
2.16187,17.1059,35.8764,-177.908,4.99644,172.564,8.83176,0.878941,-6.40531,2.76448,0.842407,1.04551,-2.16926,0.506561,4.6043,-11.8987,6.3331,-1.90448,19.3135,10.6395,-3.30528,8.03706,4.88357,0.367603,2.98177e-15,1.66979e-14,-34.7111,-18.5448,-72.4124,32.2655,18.6877,-10.5327,-2.16685,7.12502,15.4706,-31.5678,2.98177e-15,1.66979e-14,-26.0759,-0.891684,87.7387,36.6062,-7.4632,-20.7869,21.9574,7.12502,5.58006,51.8639,-37.3078,-3.14487,9.76457,28.9542,-5.3911,-17.43,9.82097,5.99655,-5.45888,-30.4819,14.389,-15.536,-4.82914,-8.98232
2.2068,17.116,35.7654,-177.886,5.12325,172.707,8.83883,1.00146,-6.25226,2.78103,1.02059,1.1133,-2.17798,0.595207,4.56908,-11.8973,6.3581,-2.03075,19.2769,10.6664,-3.18637,8.01077,4.89916,0.426934,3.37934e-15,-4.77083e-15,-34.612,-18.389,-72.2138,32.4496,18.4425,-10.2961,-2.7415,7.12502,15.6985,-32.1247,3.37934e-15,-4.77083e-15,-26.3806,0.360062,87.5069,36.1724,-7.40462,-18.1018,26.6757,7.12502,8.17205,56.4976,-37.4971,-3.41426,10.1489,29.6897,-4.28437,-17.3757,9.29979,6.62193,-5.38645,-30.2959,14.0068,-15.306,-4.5113,-11.9431
2.25247,17.1207,35.6558,-177.709,5.27851,172.629,8.97451,1.15455,-6.36307,2.58288,1.18646,1.17996,-2.48437,0.686654,4.68043,-11.725,6.4299,-2.04562,19.2011,10.7875,-3.2765,7.96068,4.95753,0.404386,-3.18055e-15,2.70347e-14,-34.6866,-18.0444,-71.8445,32.4982,18.1874,-10.4537,-2.30263,7.12502,15.5467,-31.6977,-3.18055e-15,2.70347e-14,-26.9761,1.84105,87.3375,35.6465,-7.51913,-13.2361,32.5601,7.12502,12.8656,62.1435,-37.8721,-3.77882,10.335,30.3152,-3.19726,-17.0609,8.73901,6.98591,-5.43717,-30.3528,13.7253,-14.9852,-4.14744,-14.9374
2.29997,17.1326,35.5399,-177.465,5.2452,172.983,8.97583,1.26448,-5.95931,2.43638,1.35442,1.24428,-2.65447,0.772761,4.49824,-11.5578,6.49083,-1.83304,19.0203,10.8202,-3.36052,7.88677,4.98648,0.335892,-7.55382e-15,-3.97569e-15,-34.7042,-18.0011,-71.6019,32.4782,18.0566,-10.6518,-1.55154,7.12502,15.3559,-30.9613,-7.55382e-15,-3.97569e-15,-27.4675,2.95383,86.9589,35.0701,-7.7006,-16.7395,28.2093,7.12502,9.48672,57.9757,-38.1073,-4.07651,10.9467,30.8715,-2.63834,-16.6151,9.8817,7.25776,-5.89502,-29.8874,13.5607,-14.3578,-4.1206,-15.3639
2.35178,17.1522,35.4208,-177.46,5.08808,173.332,9.00202,1.36279,-5.45065,2.48265,1.53387,1.21794,-2.63094,0.859998,4.16118,-11.5698,6.48403,-1.48122,18.9409,10.7261,-3.38784,7.8808,4.95899,0.260519,-4.17448e-15,-3.02153e-14,-34.6966,-18.3139,-71.4676,32.6492,18.018,-10.7407,-1.55628,7.12502,15.2703,-30.9726,-4.17448e-15,-3.02153e-14,-27.7236,3.7152,86.6208,34.3649,-6.97803,-16.8499,29.297,7.12502,9.38018,59.0683,-37.9548,-4.54201,11.5957,31.377,-2.50495,-15.987,10.4656,7.70863,-6.28565,-29.3841,13.6079,-13.7891,-4.26044,-15.7829
2.4062,17.172,35.2938,-177.421,4.7515,173.374,8.72237,1.32674,-5.31588,2.68757,1.52978,1.1896,-2.25817,0.848128,4.06272,-11.8464,6.53975,-1.32642,18.8806,10.7468,-3.3835,7.91777,4.96513,0.24866,-1.25234e-14,-2.38542e-15,-34.3107,-18.5429,-71.4786,32.7409,17.9052,-11.0671,-1.8604,7.12502,14.9558,-31.3004,-1.25234e-14,-2.38542e-15,-27.7294,4.58771,86.3617,33.4633,-5.4711,-15.0552,32.8849,7.12502,11.1115,62.5708,-37.7606,-5.06494,11.8353,31.8421,-2.31448,-15.7402,10.1421,7.96198,-6.65483,-29.1539,13.8978,-13.4504,-4.54548,-16.8624
2.46338,17.199,35.1705,-177.293,4.47605,173.579,8.52795,1.26675,-5.11648,2.75542,1.4851,1.30819,-2.07395,0.820543,4.08278,-11.9315,6.60422,-1.4205,18.7983,10.8403,-3.38386,7.90181,5.00052,0.273975,7.55382e-15,-2.8625e-14,-34.0434,-18.5176,-71.2589,32.7564,17.9434,-11.1951,-1.83462,7.12502,14.8326,-31.2837,7.55382e-15,-2.8625e-14,-27.9776,5.63651,86.0786,32.5372,-4.43783,-14.873,33.0403,7.12502,11.2873,62.7166,-37.5785,-5.47747,12.2711,32.2175,-1.78717,-15.5883,9.70335,7.88344,-6.80307,-28.7096,14.5086,-13.1553,-4.94881,-18.2525
2.52385,17.2314,35.0552,-177.064,4.28959,173.539,8.45929,1.28565,-5.21551,2.58131,1.48834,1.35486,-2.22111,0.823569,4.18671,-11.6154,6.60516,-1.48398,18.6594,10.846,-3.39421,7.79672,5.01323,0.264807,9.14409e-15,1.66979e-14,-34.1999,-18.547,-70.8657,32.7941,17.9422,-11.2056,-0.987495,7.12502,14.8224,-30.4374,9.14409e-15,1.66979e-14,-28.6474,7.00367,85.563,31.715,-4.70719,-15.4897,30.8106,7.12502,10.6925,60.5186,-37.5598,-5.82227,12.451,32.5753,-1.4909,-15.293,9.52985,7.58955,-6.73344,-28.4982,15.2076,-12.8606,-5.28233,-21.1916
2.58877,17.266,34.9417,-176.757,3.9314,173.82,8.32377,1.27368,-4.90497,2.4997,1.49594,1.35604,-2.2256,0.825439,4.01271,-11.6045,6.6609,-1.21932,18.5671,10.8586,-3.42691,7.77984,5.03177,0.211226,-6.55989e-15,1.03368e-14,-34.1842,-18.8779,-70.7958,32.9424,17.9538,-11.4685,-0.944979,7.12502,14.5691,-30.4133,-6.55989e-15,1.03368e-14,-29.0307,8.43649,84.8776,31.1704,-5.86447,-14.1939,31.2374,7.12502,11.9422,60.8767,-37.4726,-6.27185,13.0091,32.8839,-1.75882,-15.0242,10.6095,7.25767,-6.8654,-27.8727,15.9276,-12.5032,-5.767,-22.9364
2.64939,17.2969,34.8183,-176.751,3.8916,173.902,8.32166,1.42402,-4.77943,2.57588,1.71212,1.31351,-2.16374,0.932293,3.87506,-11.6321,6.66415,-0.927505,18.3572,10.7994,-3.57805,7.73884,5.00633,0.106851,-3.22031e-14,4.77083e-15,-34.1591,-18.8929,-70.7986,33.3641,17.3768,-11.5731,-1.38355,7.12502,14.4684,-30.8591,-3.22031e-14,4.77083e-15,-29.4279,8.98394,84.4423,30.8615,-5.98553,-13.2002,32.507,7.12502,12.9002,62.0883,-37.1483,-6.50458,13.3109,33.2016,-2.21506,-14.4458,11.7329,7.29377,-7.1395,-27.6166,16.6029,-11.9942,-5.9845,-24.2312
2.69854,17.3151,34.665,-177.093,4.62554,174.027,8.35097,1.68954,-4.59944,2.71611,2.09123,1.33144,-2.06814,1.12031,3.75269,-11.5801,7.44655,-1.2322,18.3102,10.684,-3.30683,7.67127,4.49226,0.160736,-9.74045e-15,-1.35174e-14,-34.1162,-18.7589,-70.6592,33.569,17.0743,-11.5119,-1.4592,7.12502,14.5273,-30.9306,-9.74045e-15,-1.35174e-14,-30.086,9.64421,84.0775,30.4293,-5.33216,-12.8655,32.7732,7.12502,13.2229,62.3338,-36.5756,-6.39851,13.699,33.4907,-2.36256,-13.5061,11.2187,7.86031,-7.08749,-27.6204,17.128,-11.3959,-5.76149,-25.0965
2.76017,17.3327,34.5334,-177.025,4.67066,174.033,8.3413,1.76042,-4.56754,2.60078,2.176,1.30137,-2.18916,1.16344,3.69256,-11.3257,7.51562,-1.07857,18.2551,10.7521,-3.41001,7.62339,4.52934,0.099184,2.98177e-15,-3.26007e-14,-34.3069,-18.6825,-70.5432,33.8545,16.9419,-11.6185,-1.55489,7.12502,14.4246,-31.0336,2.98177e-15,-3.26007e-14,-30.8873,10.2702,83.5331,29.8668,-4.60424,-13.1511,32.0143,7.12502,12.9475,61.5926,-36.3241,-6.48298,13.9078,33.736,-2.26713,-13.0583,10.8997,7.91138,-7.35537,-27.474,17.5622,-10.3897,-6.1872,-24.4199
2.82053,17.3584,34.3953,-176.879,4.5126,174.063,7.99858,1.78488,-4.4732,2.61283,2.22667,1.27311,-1.98779,1.18188,3.61432,-11.091,7.58689,-0.783027,18.0008,10.8167,-3.57749,7.52547,4.58304,-0.0071489,-2.28602e-14,-3.65764e-14,-34.3718,-18.6787,-70.4772,34.1499,16.6633,-11.761,-1.43002,7.12502,14.2874,-30.9185,-2.28602e-14,-3.65764e-14,-31.3546,10.9314,82.9821,28.9991,-4.42913,-13.5698,30.7353,7.12502,12.5439,60.3388,-36.0682,-6.76587,14.1148,33.8921,-2.35119,-12.8004,11.6869,7.77587,-7.75737,-27.2852,18.1735,-9.40757,-6.6626,-23.5409
2.88634,17.3888,34.26,-176.803,4.46793,174.245,7.87932,1.82967,-4.32869,2.59147,2.3016,1.36137,-1.94974,1.2175,3.61997,-11.0644,7.6625,-0.894427,18.0517,10.9196,-3.46203,7.52563,4.63372,0.0566605,-1.98785e-15,-5.56597e-15,-34.3434,-18.5116,-70.3749,34.4408,16.1991,-11.8239,-1.3261,7.12502,14.2267,-30.8189,-1.98785e-15,-5.56597e-15,-31.8976,11.4876,82.5332,28.3597,-4.82855,-12.9672,31.4933,7.12502,13.1248,61.0603,-35.7079,-6.88301,14.5019,34.0474,-2.56449,-12.5671,12.3324,7.65064,-8.16098,-26.9247,18.9249,-8.49585,-6.74923,-22.7309
2.94557,17.4164,34.1313,-176.81,4.40303,174.635,8.02488,1.87859,-3.84363,2.57453,2.40338,1.45096,-2.04351,1.27152,3.42424,-11.1485,7.68448,-0.909131,18.1091,10.954,-3.42934,7.55703,4.64935,0.0775275,-2.42517e-14,2.38542e-14,-34.3088,-18.2733,-70.3452,34.7356,15.7292,-11.9551,-1.11923,7.12502,14.1003,-30.6208,-2.42517e-14,2.38542e-14,-32.4716,11.8247,82.1015,27.9074,-5.21309,-12.2342,32.0557,7.12502,13.8313,61.5758,-35.2633,-7.10448,15.1062,34.2086,-2.71107,-12.1812,12.5647,7.5593,-8.02103,-26.2222,19.7807,-7.78025,-7.26816,-23.0914
3.0087,17.4332,33.9961,-176.791,4.40871,174.738,8.00897,1.99847,-3.73925,2.59503,2.57378,1.46931,-2.02521,1.35638,3.36763,-11.6675,7.60566,-1.11406,18.4561,10.8731,-3.17352,7.73509,4.60027,0.21135,6.75868e-15,3.97569e-15,-34.2327,-18.2673,-70.2889,35.0348,15.4626,-12.0675,-1.09887,7.12502,13.9919,-30.608,6.75868e-15,3.97569e-15,-32.7775,12.1027,81.7533,27.1285,-5.50493,-12.1917,31.8337,7.12502,13.8723,61.351,-34.944,-7.34991,15.4271,34.4354,-2.70163,-11.8071,12.5611,7.45578,-8.09925,-25.9691,20.7296,-7.02281,-7.44822,-25.1835
3.0788,17.4479,33.868,-176.825,4.52354,175.083,8.07029,2.0853,-3.44379,2.52923,2.70809,1.51652,-2.12885,1.42478,3.23261,-12.7358,7.50928,-2.14971,19.5618,10.7894,-2.00745,8.16189,4.53705,0.804578,-1.94809e-14,2.78299e-14,-34.299,-18.1921,-70.3169,35.2161,15.528,-12.1021,-1.06885,7.12502,13.9586,-30.5803,-1.94809e-14,2.78299e-14,-33.3775,12.0781,81.2638,26.3502,-5.53891,-12.4954,30.6654,7.12502,13.5795,60.2026,-34.6133,-7.36901,16.0371,34.722,-2.74749,-11.5133,13.843,7.36387,-7.92918,-25.3667,21.7012,-6.25719,-7.83211,-27.0292
3.14921,17.4646,33.7421,-176.778,4.74342,175.358,8.05129,2.19662,-3.3922,2.42256,2.85875,1.69438,-2.24812,1.50112,3.37054,-12.3083,7.65461,-2.16152,19.5578,10.9573,-2.00846,8.08294,4.61554,0.803771,2.5842e-14,-8.74653e-15,-34.4057,-17.7019,-70.1842,35.6123,15.1108,-11.9514,-1.26844,7.12502,14.1038,-30.7698,2.5842e-14,-8.74653e-15,-34.2404,12.2774,80.9315,25.8774,-5.56766,-12.3634,30.1472,7.12502,13.7067,59.6758,-34.4071,-7.28999,16.5864,35.0922,-2.98845,-11.2798,16.1927,7.16635,-7.96113,-24.9001,22.6096,-5.33769,-8.02408,-27.9278
3.21419,17.4783,33.6035,-176.888,4.89917,175.273,7.96514,2.32482,-3.46895,2.51601,3.02862,1.63123,-2.11822,1.58375,3.33562,-12.1015,7.71809,-1.71581,19.4426,10.9999,-2.28674,8.0505,4.6487,0.638973,-1.45113e-14,-1.59028e-15,-34.1764,-17.6389,-70.2786,35.8594,14.5249,-11.6457,-1.57747,7.12502,14.3985,-31.0581,-1.45113e-14,-1.59028e-15,-34.684,12.0843,80.6297,25.5299,-6.00145,-11.7293,30.958,7.12502,14.3178,60.4443,-34.0577,-7.52892,16.7356,35.5228,-3.43054,-10.8618,18.2856,7.07666,-8.05907,-24.9126,23.6436,-4.47012,-8.09446,-29.6837
3.27704,17.4853,33.4544,-176.956,5.02691,175.34,7.69208,2.40664,-3.36101,2.61703,3.15751,1.61188,-1.8668,1.64333,3.25524,-12.7051,7.68385,-2.17643,20.0503,10.9568,-1.635,8.29397,4.62688,0.956006,-1.39149e-15,-1.51076e-14,-33.9568,-17.3485,-70.3347,36.1759,13.7789,-11.1701,-1.82143,7.12502,14.8567,-31.2688,-1.39149e-15,-1.51076e-14,-35.2074,12.2545,80.1894,25.2065,-7.09881,-11.5759,30.8813,7.12502,14.4656,60.3571,-33.6967,-7.6985,17.0057,35.9897,-3.93106,-10.5158,18.5326,6.91658,-8.10349,-24.7394,24.8355,-3.43931,-8.23185,-30.0768
3.34759,17.489,33.3211,-176.876,5.04826,175.322,7.41702,2.45023,-3.52544,2.6046,3.20811,1.66225,-1.74283,1.66432,3.4062,-12.7428,7.73745,-2.42823,20.2649,11.0263,-1.35901,8.3401,4.65714,1.09762,3.45885e-14,1.66979e-14,-33.9235,-17.1161,-70.2264,36.4568,13.7883,-11.0415,-1.50406,7.12502,14.9805,-30.9422,3.45885e-14,1.66979e-14,-35.7217,12.3292,79.883,24.7113,-7.6653,-11.6834,30.9129,7.12502,14.3621,60.3961,-33.5789,-7.82497,17.2018,36.4963,-4.22246,-10.2014,18.3753,6.3411,-8.05052,-24.5012,26.19,-2.12714,-8.62337,-30.3601
3.41874,17.4884,33.1989,-176.822,5.1821,175.512,7.2717,2.56291,-3.43199,2.64167,3.37162,1.70472,-1.63559,1.74401,3.38928,-12.2356,7.76546,-1.98173,19.8949,11.0013,-1.6538,8.16912,4.67297,0.899647,4.7112e-14,4.29375e-14,-33.667,-17.2103,-70.155,36.3941,14.3207,-11.3082,-0.624008,7.12502,14.7236,-30.0811,4.7112e-14,4.29375e-14,-36.1012,12.258,79.5566,24.3056,-8.1112,-11.1602,31.2362,7.12502,14.8661,60.6829,-33.4686,-7.74103,17.6345,36.9782,-4.35464,-9.89297,17.7909,5.62945,-7.8863,-23.9922,27.8054,-0.764005,-9.04721,-30.7202
3.48114,17.4827,33.0733,-176.99,5.34719,175.829,7.4713,2.63677,-3.11422,2.6594,3.49471,1.77467,-1.72475,1.80983,3.26261,-12.0529,7.83575,-1.76566,19.9051,11.0592,-1.73943,8.1575,4.70762,0.836774,-4.6118e-14,-3.4191e-14,-33.4493,-16.9119,-70.1501,36.3807,14.3973,-11.3834,0.221908,7.12502,14.6511,-29.2405,-4.6118e-14,-3.4191e-14,-36.7378,12.2985,79.1826,24.0742,-8.82715,-10.7261,31.4827,7.12502,15.2843,60.898,-33.1054,-7.62876,18.1094,37.5432,-4.63978,-9.52796,18.2431,5.10164,-7.71478,-23.4234,29.5426,0.86691,-9.39962,-31.2136
3.54382,17.4741,32.9521,-177.174,5.24533,176.288,7.72727,2.58843,-2.68702,2.72767,3.47539,1.95683,-1.78141,1.80703,3.20323,-12.2615,7.86337,-1.99922,20.0476,11.1122,-1.50539,8.21386,4.73206,0.9664,-7.95139e-15,-3.18055e-15,-32.9891,-16.7593,-70.091,36.2921,14.9434,-11.557,0.971343,7.12502,14.4839,-28.5031,-7.95139e-15,-3.18055e-15,-37.3683,12.5449,78.8527,24.0169,-9.49062,-10.2356,31.6341,7.12502,15.7568,61.0127,-32.7412,-7.71026,18.7512,38.2284,-5.08812,-9.28137,19.0864,4.53116,-7.65823,-22.6068,31.2755,2.66763,-9.99421,-31.1363
3.60517,17.4444,32.8301,-177.413,5.04092,176.433,7.96416,2.55428,-2.52212,2.88521,3.45846,2.01864,-1.74245,1.8043,3.16986,-12.5722,7.8856,-1.94681,20.1785,11.1666,-1.54958,8.31985,4.74982,0.96789,2.98177e-15,7.95139e-16,-32.4536,-16.6894,-70.1269,36.2536,15.2347,-12.0107,1.80897,7.12502,14.0467,-27.6964,2.98177e-15,7.95139e-16,-37.7411,12.3239,78.7594,24.0411,-9.51866,-9.97196,31.947,7.12502,16.0106,61.3054,-32.4833,-7.92115,18.9994,39.092,-5.76253,-9.00491,20.4659,4.10336,-7.65469,-22.1389,32.9876,4.08087,-10.7494,-31.0142
3.66997,17.3954,32.7177,-177.589,4.91909,176.803,8.19617,2.5176,-2.2586,2.92004,3.44361,2.18629,-1.829,1.80357,3.18733,-12.4199,7.96138,-1.816,20.1957,11.2618,-1.69298,8.31526,4.78757,0.904719,4.55217e-14,3.81667e-14,-32.2313,-16.4582,-70.0984,36.5877,15.2583,-12.1178,2.1749,7.12502,13.9435,-27.3376,4.55217e-14,3.81667e-14,-38.278,11.9224,78.803,23.9962,-9.37342,-9.97442,32.1919,7.12502,16.0083,61.5505,-32.3634,-7.86782,19.5086,40.0106,-6.31062,-9.17862,20.9943,3.66597,-7.44801,-21.3548,34.7803,5.04366,-11.7765,-30.788
3.73404,17.3594,32.6093,-177.764,4.65581,177.063,8.37607,2.48129,-2.05757,3.00864,3.42687,2.28656,-1.83027,1.8011,3.17433,-12.2295,7.99299,-1.61794,20.0577,11.2889,-1.86132,8.2574,4.80698,0.811028,4.17448e-15,4.05521e-14,-32.012,-15.9485,-70.24,37.2394,14.6112,-16.1286,10.0837,7.12502,10.0761,-19.655,4.17448e-15,4.05521e-14,-38.6795,11.8242,78.6635,23.9242,-9.74037,-9.72445,31.9854,7.12502,16.249,61.3245,-32.2083,-8.26118,19.9803,40.8747,-6.82351,-9.27589,20.4271,2.91629,-7.49011,-20.7015,36.7432,6.01334,-12.826,-31.2751
3.79737,17.3433,32.496,-177.865,4.38546,177.287,8.39691,2.4093,-1.89068,3.20049,3.36881,2.39702,-1.63634,1.77759,3.20548,-12.2146,8.03486,-1.48165,19.8134,11.358,-2.01938,8.19151,4.85046,0.740878,3.83654e-14,-4.77083e-15,-31.3459,-15.6931,-70.3366,37.549,14.2992,-13.8869,6.19257,7.12502,12.2382,-23.4294,3.83654e-14,-4.77083e-15,-38.9129,11.7602,78.6218,23.9312,-9.93241,-9.91476,31.9599,7.12502,16.0657,61.3138,-31.9244,-8.49671,20.3403,41.4627,-7.5134,-9.21176,19.6975,1.71734,-7.59282,-20.1055,39.0163,7.20172,-13.6624,-31.3104
3.86327,17.339,32.3807,-177.833,4.34567,177.509,8.36792,2.42879,-1.84591,3.23889,3.41167,2.56419,-1.59113,1.80187,3.35151,-12.0038,8.07218,-1.29864,19.6837,11.4094,-2.26477,8.13774,4.87058,0.626712,3.81667e-14,-1.59028e-15,-30.9309,-15.1404,-70.2731,37.9279,14.2781,-11.5399,2.72612,7.12502,14.5003,-26.7472,3.81667e-14,-1.59028e-15,-39.4006,11.3275,78.8283,24.173,-9.37911,-9.74572,31.7826,7.12502,16.2285,61.1234,-31.7021,-8.70009,20.7883,41.7962,-8.17711,-8.80103,19.069,0.156025,-7.54021,-19.5633,41.5068,8.30816,-14.7076,-31.8348
3.92876,17.3499,32.2681,-177.932,4.13821,177.972,8.55322,2.38729,-1.48626,3.33497,3.41267,2.76977,-1.58655,1.81262,3.35672,-12.0991,8.07082,-1.2058,19.6424,11.4201,-2.36915,8.15367,4.87488,0.584048,-4.77083e-15,-3.49861e-14,-30.4621,-14.9748,-70.2175,37.4859,12.2185,-14.1782,6.24371,7.12502,11.9572,-23.3948,-4.77083e-15,-3.49861e-14,-39.7152,11.1598,78.9394,24.3058,-9.18053,-9.47177,31.4023,7.12502,16.4923,60.7214,-31.1723,-8.84901,21.446,41.979,-8.76262,-8.55591,18.5691,-1.49196,-7.60589,-18.7629,44.0788,9.85636,-15.9704,-32.053
3.99262,17.348,32.1499,-178.257,3.98486,178.657,8.76756,2.3201,-0.922303,3.60898,3.42297,3.06638,-1.40852,1.83677,3.34436,-12.4144,8.07404,-1.27056,19.7342,11.4678,-2.40034,8.23988,4.8833,0.606043,-2.26615e-14,3.97569e-14,-29.8423,-15.4013,-69.8334,38.4847,15.8095,-13.7496,6.16962,7.12502,12.3705,-23.4444,-2.26615e-14,3.97569e-14,-39.7648,11.1164,79.1335,24.3266,-8.90846,-9.71409,31.1224,7.12502,16.259,60.4607,-30.336,-8.98547,22.2941,42.2084,-9.36656,-8.52351,18.3498,-2.66298,-7.65097,-17.7427,46.5556,11.3598,-16.9283,-30.8238
4.05354,17.3308,32.0374,-178.587,3.89237,178.907,8.91526,2.31306,-0.754112,3.84235,3.46352,3.20779,-1.24987,1.86947,3.39252,-12.3472,8.04228,-1.32943,19.6282,11.4324,-2.39864,8.18845,4.8699,0.60642,4.25399e-14,9.54166e-15,-29.3538,-15.1887,-69.647,39.0114,16.7433,-13.5911,5.01044,7.12502,12.5234,-24.5943,4.25399e-14,9.54166e-15,-39.8234,11.1181,79.2358,24.3039,-8.71758,-9.67121,31.3581,7.12502,16.3002,60.693,-29.6407,-8.96408,22.6279,42.5164,-9.84563,-8.85038,18.9431,-3.6553,-7.74017,-17.2539,48.8615,12.2357,-17.4468,-29.069
4.10896,17.3063,31.9314,-178.744,3.78778,178.915,9.04812,2.34885,-0.906268,3.88921,3.51538,3.34294,-1.29428,1.8994,3.60855,-12.0652,8.10225,-1.31333,19.5986,11.4977,-2.42232,8.1308,4.90258,0.589231,2.84262e-14,1.59028e-15,-29.1172,-14.8513,-69.3555,39.4587,16.6502,-10.4403,-0.326182,7.12502,15.5596,-29.7202,2.84262e-14,1.59028e-15,-40.0408,11.1977,79.3544,24.1959,-8.82027,-9.50499,31.6023,7.12502,16.4603,60.924,-29.3261,-9.2104,22.7825,42.935,-10.2362,-9.11327,17.9294,-4.80319,-7.8908,-17.0606,51.0016,12.6105,-17.854,-28.3449
4.16114,17.2904,31.8187,-179.117,3.9792,179.219,9.41123,2.50144,-0.827623,4.01101,3.76905,3.62464,-1.39884,2.04093,3.81624,-11.8367,8.072,-1.29161,19.5097,11.4703,-2.59627,8.07304,4.87797,0.51442,0,3.97569e-14,-28.7674,-14.5783,-68.945,39.9435,17.2917,-12.7136,2.76866,7.12502,13.3692,-26.7824,0,3.97569e-14,-40.3152,10.9177,79.8165,24.3725,-8.37026,-9.45266,31.708,7.12502,16.5107,61.0255,-28.74,-9.29844,23.2347,43.3773,-10.6886,-9.23902,16.394,-5.56791,-7.7742,-16.6121,53.0083,12.3764,-18.207,-27.6818
4.21384,17.279,31.7056,-179.443,4.24934,179.282,9.58641,2.70936,-0.866918,4.1888,4.06434,3.66632,-1.33742,2.19549,3.84526,-11.7847,7.93791,-0.993097,19.5706,11.2375,-2.65843,8.10364,4.78183,0.423741,-9.54166e-15,-2.38542e-14,-28.3606,-14.5151,-68.8005,40.2605,17.7597,-13.0492,2.62107,7.12502,13.0457,-26.951,-9.54166e-15,-2.38542e-14,-40.4212,10.3876,80.1007,24.6685,-8.06406,-9.38639,31.818,7.12502,16.5745,61.1302,-28.2154,-9.24857,23.4021,43.804,-11.2382,-9.22306,16.4661,-6.40355,-7.60104,-16.4356,54.9492,11.8533,-18.4912,-26.6598
4.2674,17.259,31.5993,-179.665,4.36459,179.428,9.55589,2.80323,-0.81613,4.42404,4.22216,3.76457,-1.09185,2.2831,3.91126,-11.6566,7.87937,-0.952263,19.4847,11.1368,-2.62859,8.05133,4.74778,0.409181,-2.42517e-14,-7.79236e-14,-27.7384,-14.3438,-68.6994,40.1082,16.2107,-12.6448,1.81687,7.12502,13.4356,-27.7298,-2.42517e-14,-7.79236e-14,-40.2566,10.3304,80.2779,24.6827,-7.9523,-9.57859,31.4903,7.12502,16.3894,60.8179,-27.7709,-9.212,23.659,44.1717,-11.7811,-9.37168,15.7504,-7.39353,-7.52828,-16.1374,56.8486,10.9525,-18.3712,-25.9566
4.31635,17.2347,31.5006,-179.812,4.44441,179.575,9.60797,2.83408,-0.769053,4.55582,4.29247,3.89335,-0.995018,2.32629,4.01317,-11.5824,7.8824,-1.10238,19.4843,11.1383,-2.49099,8.02028,4.75286,0.4731,-2.14687e-14,4.13472e-14,-27.1492,-13.858,-68.624,39.6834,13.8491,-12.4754,1.26802,7.12502,13.5989,-28.2678,-2.14687e-14,4.13472e-14,-40.2488,10.5469,80.3909,24.7356,-7.91553,-9.38031,31.7019,7.12502,16.5803,61.0136,-27.4606,-9.20866,23.9051,44.5659,-12.2649,-9.43996,15.7172,-8.51534,-7.37297,-15.8469,58.6643,9.46498,-18.1461,-26.6324
4.36528,17.2195,31.4006,-179.872,4.65019,179.862,9.65792,2.95743,-0.605771,4.60767,4.49215,4.05243,-0.984675,2.43434,4.06368,-11.617,7.8842,-1.10428,19.5917,11.1495,-2.52315,8.06447,4.74787,0.467978,1.19271e-15,-8.74653e-14,-26.7096,-13.8423,-68.4157,39.4226,12.584,-13.5638,2.38874,7.12502,12.5497,-27.2144,1.19271e-15,-8.74653e-14,-40.2822,10.7326,80.5286,24.8747,-7.88209,-9.44923,31.4206,7.12502,16.514,60.7378,-27.1878,-9.11622,24.3484,44.9187,-12.5836,-9.53195,14.8621,-9.67567,-7.24114,-15.4364,60.3458,7.96983,-17.5996,-25.9844
4.41061,17.1934,31.3026,-179.951,4.87673,180.111,9.73818,3.12196,-0.437427,4.66205,4.7436,4.1524,-0.986954,2.56764,4.04193,-11.7263,7.79883,-1.16433,19.6577,11.0343,-2.43824,8.09633,4.69424,0.498958,-1.59028e-14,1.59028e-14,-26.4181,-14.2519,-68.0473,40.4053,15.4402,-12.8765,0.293877,7.12502,13.2122,-29.2674,-1.59028e-14,1.59028e-14,-40.1648,11.1267,80.4782,24.7905,-8.42008,-9.58101,30.8993,7.12502,16.3871,60.2271,-26.8798,-8.98495,24.7314,45.2252,-13.0215,-9.59965,14.6521,-10.6123,-7.08732,-15.0376,61.8474,6.27814,-16.8946,-25.1315
4.45164,17.1762,31.199,-180.121,5.2553,180.405,9.85926,3.29075,-0.258122,4.79483,5.01528,4.30531,-0.934506,2.71555,4.06744,-11.5321,7.70226,-1.1361,19.4292,10.8933,-2.47822,7.98829,4.64048,0.453983,-6.75868e-15,4.13472e-14,-26.1328,-14.551,-67.7542,40.5018,15.5787,-12.9887,-0.0998013,7.12502,13.1041,-29.6681,-6.75868e-15,4.13472e-14,-40.081,11.4797,80.5274,24.9533,-8.62358,-9.51027,30.8183,7.12502,16.4552,60.1404,-26.3785,-8.93033,25.1308,45.4202,-13.552,-9.44339,14.9267,-11.3416,-6.70223,-14.7197,63.1865,4.35525,-15.627,-24.3042
4.49212,17.1729,31.0929,-180.205,5.82622,180.654,9.88572,3.54294,-0.128436,4.83523,5.37382,4.40239,-0.931607,2.89976,4.05426,-11.0709,7.69236,-0.744217,19.2162,10.8355,-2.77616,7.87505,4.62527,0.267673,2.98177e-14,-6.36111e-15,-25.926,-14.3101,-67.6873,39.9046,12.7391,-13.4548,-0.257436,7.12502,12.6547,-29.8541,2.98177e-14,-6.36111e-15,-40.1697,11.7433,80.5565,25.248,-8.79056,-9.67756,31.3089,7.12502,16.2941,60.6444,-25.9048,-8.58579,25.5153,45.5665,-13.9381,-9.59284,13.2375,-12.3933,-6.091,-14.5184,64.479,2.69244,-13.7707,-20.6551
4.53132,17.1724,30.9881,-180.234,6.36722,180.8,9.83206,3.80789,-0.038166,4.80532,5.73039,4.44788,-0.955895,3.07736,4.01192,-10.6974,7.69997,-0.563751,19.2796,10.7825,-2.74802,7.83679,4.61405,0.228082,-3.45885e-14,-4.77083e-15,-25.8806,-14.8013,-67.326,39.8804,13.2626,-12.6511,-1.16502,7.12502,13.4295,-30.7121,-3.45885e-14,-4.77083e-15,-40.404,11.8737,80.6197,25.5716,-8.7508,-10.3409,31.3543,7.12502,15.6553,60.7409,-25.496,-8.30701,25.7746,45.6691,-14.2676,-9.62717,11.8425,-13.5304,-5.42179,-14.424,65.6478,2.75843,-13.4769,-27.7993
4.56682,17.1596,30.8951,-180.244,6.65171,180.804,9.78843,3.90153,-0.169678,4.86453,5.8519,4.54349,-0.901249,3.13893,4.17688,-11.0614,7.7021,-0.754805,19.7636,10.7942,-2.52772,8.03875,4.59821,0.354425,5.1684e-15,-1.74931e-14,-25.33,-14.8662,-67.125,39.7889,13.7203,-13.9143,0.431653,7.12502,12.2118,-29.1919,5.1684e-15,-1.74931e-14,-40.3315,12.6518,80.6253,25.6779,-8.87526,-10.5429,30.6514,7.12502,15.4608,60.0531,-25.1528,-8.17151,25.842,45.6768,-14.7056,-9.52801,13.3684,-14.5962,-5.05585,-14.5131,66.675,0.974891,-12.1677,-27.4277
4.59954,17.1464,30.8145,-180.197,6.71351,180.894,9.88963,3.93023,-0.157126,4.88358,5.90461,4.61667,-0.94702,3.16944,4.23285,-11.5127,7.71152,-0.820324,20.1697,10.8138,-2.36735,8.24243,4.59522,0.446359,-1.55052e-14,-1.59028e-15,-24.8737,-15.1281,-66.9629,39.9635,14.5477,-15.398,2.36323,7.12502,10.7809,-27.3401,-1.55052e-14,-1.59028e-15,-40.1222,12.0245,81.3175,26.1111,-7.44135,-10.887,30.8583,7.12502,15.1293,60.2853,-24.8476,-8.28235,26.0377,45.5812,-15.0147,-9.47482,13.8651,-15.8586,-4.84709,-14.5131,67.5953,-0.563546,-10.1598,-20.2736
4.63416,17.1685,30.7236,-180.13,6.91904,181.282,9.77578,3.98974,0.268838,4.92702,6.03274,4.6942,-0.816752,3.24323,4.07298,-11.3605,7.68705,-0.800666,20.0999,10.7576,-2.32023,8.18908,4.58031,0.444549,-2.42517e-14,-7.95139e-15,-24.6609,-15.5347,-66.801,41.136,18.3384,-12.7706,-3.04476,7.12502,13.3143,-32.5994,-2.42517e-14,-7.95139e-15,-40.0551,11.993,81.609,26.6054,-6.77161,-11.0413,31.5028,7.12502,14.9807,60.9409,-24.3102,-8.25551,26.5258,45.3306,-15.2585,-9.44836,13.2395,-17.3826,-4.81151,-14.1428,68.3941,0.743996,-10.2093,-24.6365
4.66283,17.1997,30.6216,-180.214,7.36245,181.291,9.76657,4.19554,0.384688,5.00096,6.31279,4.62025,-0.734632,3.38455,3.90483,-11.4731,7.58718,-0.81147,20.1158,10.6012,-2.17794,8.20383,4.52093,0.4814,-5.96354e-15,-1.59028e-15,-24.4972,-16.4515,-66.6059,39.1659,15.626,-18.3289,7.54191,7.12502,7.95286,-22.2885,-5.96354e-15,-1.59028e-15,-40.0151,11.9246,81.8213,26.9439,-6.32159,-11.393,31.3281,7.12502,14.6419,60.7912,-23.6164,-8.1406,26.5332,45.0201,-15.4023,-9.30698,12.1537,-18.7174,-4.66607,-14.3281,68.9491,0.214358,-9.02925,-18.7532
4.68507,17.2018,30.5218,-180.224,7.83247,181.387,9.80747,4.38918,0.5359,4.9655,6.57955,4.60772,-0.794233,3.51795,3.77196,-11.695,7.51194,-0.968645,20.4876,10.4767,-1.89934,8.34209,4.4571,0.599748,-3.77691e-14,-5.24792e-14,-24.3668,-16.2984,-66.667,39.8748,14.5052,-16.5188,3.34267,7.12502,9.69967,-26.414,-3.77691e-14,-5.24792e-14,-40.0442,12.0453,81.9474,27.1566,-5.87504,-11.3418,31.1283,7.12502,14.6912,60.5878,-22.99,-7.99456,26.6351,44.5897,-15.5404,-9.18562,11.7028,-19.6938,-3.97566,-14.6162,69.1335,-1.95062,-7.35631,-12.7914
4.70964,17.1981,30.432,-180.185,8.24871,181.53,9.8237,4.52238,0.585062,4.90179,6.7589,4.65481,-0.881084,3.60617,3.7674,-11.7932,7.50492,-1.10452,20.7847,10.4591,-1.74408,8.44299,4.43565,0.67928,-7.4743e-14,-1.24042e-13,-24.1714,-16.3223,-66.6724,39.9202,14.0156,-15.8273,1.30394,7.12502,10.3668,-28.4205,-7.4743e-14,-1.24042e-13,-40.0477,12.3186,82.0733,27.2931,-5.39357,-11.2987,31.3052,7.12502,14.7327,60.7617,-22.4646,-7.70196,26.813,44.1724,-15.7408,-9.09565,12.3147,-20.2149,-3.94631,-14.621,69.2716,-1.2496,-8.0277,-22.8867
4.73855,17.2241,30.3445,-180.22,8.61922,182.068,10.1113,4.58581,1.07385,4.86202,6.92177,4.81188,-1.05408,3.70144,3.61253,-11.8527,7.44508,-1.32425,20.7809,10.4092,-1.68299,8.43658,4.39991,0.730237,6.24184e-14,9.38264e-14,-24.0883,-16.4786,-66.6536,39.9321,13.8876,-16.2499,2.39398,7.12502,9.95903,-27.3504,6.24184e-14,9.38264e-14,-40.0953,12.3917,82.3569,27.6067,-4.88513,-11.5973,31.3983,7.12502,14.445,60.8755,-21.673,-7.43428,27.4253,43.6433,-15.976,-9.08535,13.1481,-21.2364,-3.90547,-14.1317,69.3356,-1.59914,-8.06081,-22.6101
4.76463,17.2559,30.2542,-180.167,8.70585,182.066,10.213,4.60894,1.12073,4.69774,6.94393,4.75346,-1.26925,3.70493,3.50392,-11.7998,7.35281,-1.40741,20.8978,10.2663,-1.58801,8.45582,4.32682,0.758539,4.01545e-14,-3.97569e-14,-24.1744,-16.7055,-66.6655,39.854,13.904,-16.1734,2.5108,7.12502,10.0329,-27.2301,4.01545e-14,-3.97569e-14,-40.34,12.1005,82.6608,28.0537,-4.14912,-11.5813,32.2048,7.12502,14.4605,61.681,-21.0535,-7.38626,27.4419,43.1344,-16.1084,-9.18483,13.3639,-22.4443,-4.1799,-14.3744,69.1403,-1.73658,-7.82753,-21.0499
4.78883,17.2671,30.1695,-179.999,8.76208,182.447,10.1546,4.5563,1.60497,4.56867,6.91203,4.73044,-1.31248,3.69005,3.21569,-11.6409,7.38886,-1.06706,21.0672,10.2565,-1.71859,8.51058,4.32342,0.658028,8.98507e-14,9.70069e-14,-24.1383,-16.8505,-66.884,39.6787,13.5342,-15.0147,-0.361616,7.12502,11.1506,-30.0453,8.98507e-14,9.70069e-14,-40.3672,11.9337,82.7922,28.3163,-3.69865,-10.6057,33.8738,7.12502,15.4003,63.2802,-20.4638,-7.27171,27.8725,42.5532,-16.3228,-9.13013,14.1325,-23.4892,-4.36017,-14.1479,68.8353,-2.4112,-7.43503,-19.3637
4.81279,17.276,30.0728,-180.001,9.21187,182.4,10.0566,4.69229,1.63035,4.55924,7.07179,4.60988,-1.25812,3.76386,3.06747,-11.6031,7.31492,-1.07569,20.9372,10.1473,-1.68266,8.45655,4.2826,0.655373,1.13307e-13,3.18055e-15,-24.1426,-17.1763,-67.0144,39.5169,13.6106,-17.1749,5.48324,7.12502,9.06658,-24.3019,1.13307e-13,3.18055e-15,-40.2167,11.6092,83.0322,28.4739,-3.15577,-10.3896,33.9173,7.12502,15.6085,63.3076,-19.7856,-6.85301,27.8155,42.1046,-16.5801,-9.14765,13.8629,-24.0844,-4.30646,-14.4769,68.2587,-3.50338,-6.70936,-18.1646
4.83246,17.287,29.9764,-180.076,9.6207,182.697,10.2023,4.7314,1.98095,4.56177,7.16996,4.62001,-1.29937,3.8188,2.86101,-11.7661,7.22128,-1.26626,21.0331,10.0274,-1.52383,8.49869,4.22108,0.732863,-1.17283e-14,-1.59028e-15,-24.1153,-17.1027,-67.1703,39.5832,13.491,-16.8827,5.73311,7.12502,9.3485,-24.0396,-1.17283e-14,-1.59028e-15,-40.1658,11.2794,83.3851,28.7264,-2.69839,-10.9389,32.0012,7.12502,15.0793,61.432,-18.9909,-6.4328,28.1104,41.6412,-16.7245,-9.23146,13.6483,-24.5483,-4.20673,-14.4277,67.537,-4.48229,-6.27006,-17.9064
4.85373,17.2975,29.8884,-180.007,9.65292,182.685,10.1825,4.67819,2.01407,4.54849,7.09096,4.5301,-1.28398,3.7766,2.7608,-11.8973,7.14511,-1.17657,21.0094,9.92,-1.5595,8.52122,4.17521,0.700987,-7.49418e-14,-6.83819e-14,-23.9069,-17.2377,-67.4214,39.4953,13.5677,-14.8835,-0.469412,7.12502,11.2771,-30.1463,-7.49418e-14,-6.83819e-14,-39.9025,11.3898,83.5828,28.8505,-2.75136,-11.5364,30.1678,7.12502,14.5037,59.6409,-18.4949,-6.25645,28.1399,41.1905,-16.8471,-9.59011,13.1977,-25.4001,-4.31673,-14.6873,66.7148,-5.30696,-5.96797,-19.2828
4.87543,17.3142,29.7935,-179.775,9.86177,182.708,9.98234,4.75425,2.12095,4.45736,7.17029,4.41153,-1.24445,3.80817,2.58531,-12.3547,6.96676,-1.61456,21.1317,9.72702,-1.26315,8.60602,4.07405,0.867431,-5.48646e-14,2.70347e-14,-23.9131,-17.3725,-67.6184,39.4298,13.495,-16.5806,3.16017,7.12502,9.63996,-26.5993,-5.48646e-14,2.70347e-14,-39.6963,10.8017,83.9863,29.0836,-2.45924,-12.0825,29.1455,7.12502,13.9775,58.6556,-18.1381,-5.67829,28.2345,40.6972,-16.7639,-10.2457,11.8778,-26.3494,-4.25686,-14.9057,65.7388,-5.83372,-5.45768,-20.4927
4.8972,17.3282,29.7027,-179.685,9.98691,183.137,10.1334,4.72329,2.57242,4.27242,7.17877,4.42589,-1.46766,3.81056,2.3267,-12.1165,6.79894,-1.39233,20.9824,9.48555,-1.53639,8.53911,3.9529,0.703831,-3.26007e-14,3.49861e-14,-24.0466,-17.4199,-67.8629,39.2899,13.5727,-16.9721,4.89156,7.12502,9.26223,-24.885,-3.26007e-14,3.49861e-14,-39.7834,10.5579,84.1368,29.3048,-2.71526,-11.742,28.7676,7.12502,14.3056,58.2548,-17.4954,-5.22506,28.7319,40.1853,-16.8413,-10.6366,11.9715,-27.0943,-4.27107,-14.641,64.6798,-6.04248,-5.18492,-19.6499
4.92136,17.342,29.6121,-179.547,10.0873,183.131,10.1413,4.66956,2.60086,4.093,7.08822,4.31534,-1.63857,3.75268,2.19621,-12.553,6.65275,-1.9479,21.4417,9.29941,-1.01842,8.7186,3.84793,0.967074,-2.0276e-14,4.77083e-15,-24.0911,-17.099,-68.2494,39.2273,13.4581,-16.3691,4.05125,7.12502,9.84404,-25.6986,-2.0276e-14,4.77083e-15,-39.7736,10.4639,84.2269,29.4178,-2.99153,-11.0436,29.1615,7.12502,14.9785,58.5998,-16.9484,-4.78961,28.7658,39.6588,-16.9359,-11.009,12.7236,-27.866,-4.40608,-14.8843,63.4397,-6.31901,-4.69349,-18.7864
4.94743,17.3607,29.5133,-179.448,10.4985,183.138,10.0875,4.74519,2.66903,4.00793,7.16822,4.15843,-1.67082,3.78311,1.98915,-11.7861,6.63732,-1.26905,20.7893,9.21367,-1.56358,8.42056,3.83857,0.62944,2.04748e-14,6.36111e-15,-24.1694,-17.0158,-68.6412,39.2773,13.4558,-14.4093,-0.330571,7.12502,11.7345,-29.9819,2.04748e-14,6.36111e-15,-39.5986,10.3076,84.2437,29.5294,-2.80282,-10.0564,29.7496,7.12502,15.9293,59.1145,-16.3026,-4.08269,28.806,39.0758,-17.0331,-11.2862,13.6583,-28.3885,-4.21324,-15.1327,62.021,-6.80042,-3.98165,-18.6458
4.9725,17.3733,29.4233,-179.313,10.591,183.314,10.1169,4.66151,2.79887,3.81319,7.06233,4.14938,-1.87076,3.72103,1.90656,-11.9253,6.45805,-1.93706,20.993,8.99377,-1.0856,8.45688,3.71724,0.876618,1.80894e-14,-2.54444e-14,-24.3593,-16.5726,-68.9554,39.4389,13.45,-17.4629,6.71446,7.12502,8.78861,-23.0825,1.80894e-14,-2.54444e-14,-39.7824,9.95291,84.5143,29.9032,-2.81813,-9.24325,30.6726,7.12502,16.7123,59.9732,-15.7346,-3.56477,29.0732,38.4952,-17.0356,-11.8509,13.6825,-29.0054,-4.38015,-15.1058,60.4664,-7.19338,-3.18171,-18.0769
4.99815,17.3926,29.327,-179.147,10.5562,183.456,9.93164,4.56092,2.94811,3.71481,6.92283,4.10284,-1.84606,3.64668,1.80527,-12.0987,6.24731,-2.32455,20.9892,8.74685,-0.889288,8.46024,3.58908,0.982796,6.95746e-15,-6.20208e-14,-24.3102,-16.1823,-69.3414,39.323,13.3316,-14.1519,-0.865878,7.12502,11.9827,-30.5029,6.95746e-15,-6.20208e-14,-39.7003,9.47605,84.7825,30.2085,-2.84315,-8.7616,31.3766,7.12502,17.1759,60.6375,-15.1535,-3.16055,29.2991,37.8899,-17.0679,-12.4669,13.339,-29.6345,-4.55063,-15.1227,58.7817,-9.45503,-2.79461,-29.4466
5.02133,17.4136,29.2271,-178.94,10.5707,183.529,9.74573,4.49723,3.11782,3.61255,6.82554,3.97997,-1.81435,3.59099,1.60928,-12.2899,6.02549,-2.59966,21.0068,8.47285,-0.734246,8.48311,3.45219,1.05603,-2.88238e-14,-6.44062e-14,-24.3289,-16.0368,-69.7446,39.2672,13.3343,-13.6561,-0.764039,7.12502,12.4607,-30.3726,-2.88238e-14,-6.44062e-14,-39.5507,9.22622,84.8817,30.4688,-3.38926,-8.37592,30.9895,7.12502,17.5471,60.2176,-14.6902,-2.62293,29.4348,37.3026,-17.0796,-12.9886,14.2089,-30.2522,-4.68757,-15.2065,56.9873,-8.76445,-1.66786,-18.922
5.0421,17.4286,29.1372,-178.682,10.618,183.558,9.84124,4.45147,3.26248,3.31872,6.75392,3.7806,-2.13011,3.53445,1.30853,-12.3623,5.88342,-2.64951,21.1195,8.24912,-0.578152,8.52661,3.35135,1.09628,-1.33186e-14,-7.95139e-15,-24.6674,-15.9842,-70.1509,39.3443,13.5687,-13.2443,-0.587785,7.12502,12.8577,-30.1717,-1.33186e-14,-7.95139e-15,-39.6294,8.70928,84.9344,30.8636,-3.71565,-8.31849,30.4138,7.12502,17.6024,59.637,-14.3564,-2.25001,29.5351,36.7899,-16.9203,-13.4142,13.8155,-30.9014,-4.85252,-15.3398,55.1055,-9.06227,-0.862638,-19.0955
5.06553,17.444,29.0402,-178.484,10.678,183.684,9.80525,4.38021,3.41501,3.09961,6.65715,3.70473,-2.31124,3.47296,1.14959,-10.2601,5.97036,-0.789077,19.2522,8.29309,-2.49048,7.69609,3.41335,0.0790303,-4.23411e-14,1.59028e-15,-24.9471,-15.5237,-70.5255,39.4326,13.7073,-14.9886,2.41214,7.12502,11.1757,-27.2702,-4.23411e-14,1.59028e-15,-39.6046,8.32809,85.0843,31.1264,-3.79204,-7.87958,30.3626,7.12502,18.0247,59.5474,-13.8998,-1.7967,29.7302,36.3338,-16.9698,-13.8348,13.0344,-31.305,-4.77528,-15.3887,53.1273,-9.20793,-0.114342,-19.2623
5.08894,17.45,28.9419,-178.361,10.8347,183.579,9.78277,4.30355,3.23797,2.93983,6.5189,3.6224,-2.47422,3.39169,1.17069,-10.2576,5.85314,-1.09183,19.1451,8.17298,-2.45573,7.64493,3.33924,0.125054,-1.18873e-13,9.54166e-15,-25.1495,-14.961,-70.9105,39.4538,13.8373,-13.0044,-1.10399,7.12502,13.089,-30.6733,-1.18873e-13,9.54166e-15,-39.5006,8.31441,85.1675,31.2388,-3.89711,-7.42632,30.2994,7.12502,18.4608,59.4434,-13.453,-1.41965,29.6765,35.9753,-17.1444,-14.1653,12.6198,-31.4442,-4.57408,-15.7565,51.0075,-9.30697,0.814362,-20.0884
5.11135,17.4529,28.8419,-178.083,10.876,183.719,9.61686,4.26918,3.49223,2.85111,6.46942,3.45752,-2.42781,3.35943,0.878689,-11.1902,5.53458,-1.34402,19.6167,7.79331,-2.26884,7.9472,3.13285,0.224338,-3.97569e-16,-3.49861e-14,-25.3598,-14.9342,-71.3867,39.7176,13.7953,-12.4485,-1.54181,7.12502,13.6248,-31.0759,-3.97569e-16,-3.49861e-14,-39.0797,7.69636,85.2953,31.3348,-3.79993,-7.76992,30.323,7.12502,18.1302,59.4981,-13.1155,-1.14507,29.8758,35.5638,-17.2498,-14.4716,13.0506,-31.6826,-4.59174,-15.7463,48.7796,-9.23105,1.33625,-18.7142
5.13596,17.4639,28.7396,-177.919,11.0786,183.532,9.38634,4.25819,3.33082,2.72401,6.39722,3.27525,-2.42894,3.31112,0.801637,-11.7789,5.20092,-1.68236,20.0752,7.3742,-2.04753,8.18212,2.90295,0.330852,-3.3197e-14,-3.18055e-15,-25.659,-14.6119,-71.8535,40.0776,13.5053,-12.219,-1.49094,7.12502,13.846,-31.0101,-3.3197e-14,-3.18055e-15,-39.036,7.49825,85.2908,31.5402,-3.9477,-7.92368,30.6652,7.12502,17.9823,59.8539,-12.6606,-0.696618,29.7148,35.0846,-17.1326,-14.7402,12.6721,-31.7279,-4.53035,-16.0488,46.3684,-9.16235,1.76521,-16.8827
5.16253,17.4727,28.6441,-177.622,11.2576,183.756,8.97343,4.16483,3.48647,2.63982,6.25932,3.29095,-2.27478,3.24046,0.778728,-12.0433,4.95194,-1.94713,20.2473,7.08366,-2.03007,8.27721,2.73298,0.357816,3.65764e-14,1.98785e-14,-25.7542,-14.089,-72.2648,40.2743,13.3908,-11.8602,-1.84501,7.12502,14.1917,-31.3402,3.65764e-14,1.98785e-14,-38.9977,7.35163,85.4282,31.941,-3.91851,-7.7808,31.0237,7.12502,18.1197,60.1997,-12.1985,-0.122783,30.0494,34.4709,-16.8768,-15.2717,11.1235,-31.9222,-4.39999,-15.8774,43.8884,-8.90662,2.13665,-14.7007
5.1918,17.4839,28.5517,-177.482,11.326,184.163,8.97957,4.04407,3.7735,2.56106,6.13166,3.33293,-2.336,3.17536,0.67345,-12.4657,4.74064,-2.05239,20.4593,6.84141,-2.07356,8.42384,2.59165,0.348217,5.26779e-14,7.95139e-15,-25.7727,-13.4881,-72.7188,40.4437,13.1419,-11.6382,-1.82868,7.12502,14.4056,-31.3088,5.26779e-14,7.95139e-15,-38.7982,6.95677,85.5479,32.1752,-3.67646,-7.4969,31.565,7.12502,18.3929,60.7155,-11.5133,0.256627,30.5836,33.7651,-16.8764,-15.6983,11.0508,-31.9949,-4.38668,-15.4749,41.2621,-8.34876,2.68,-13.1552
5.21802,17.5021,28.4505,-177.303,11.689,184.152,8.96701,4.02757,3.6552,2.40167,6.08129,3.22963,-2.49536,3.13787,0.630571,-12.7343,4.54279,-2.2538,20.5937,6.6118,-2.04135,8.51051,2.46028,0.374633,2.14687e-14,2.3059e-14,-25.8654,-13.1465,-73.2018,40.5919,12.9734,-11.351,-1.4233,7.12502,14.6824,-30.8834,2.14687e-14,2.3059e-14,-38.7162,6.80915,85.5218,32.4197,-3.77993,-7.04311,32.2987,7.12502,18.8294,61.4074,-10.8684,0.743349,30.6,32.9527,-16.7472,-15.8422,11.4765,-32.0227,-4.15813,-15.5557,38.5868,-7.94758,3.19704,-12.5379
5.23828,17.5122,28.3478,-177.187,12.0485,184.286,8.98361,4.02086,3.77609,2.34868,6.0749,3.13834,-2.53695,3.1292,0.467779,-13.0169,4.36443,-2.47007,20.8204,6.39883,-1.94507,8.62884,2.33784,0.427263,-5.12864e-14,2.62396e-14,-25.9825,-12.9096,-73.639,40.7942,13.1184,-11.1495,-1.5151,7.12502,14.8765,-30.961,-5.12864e-14,2.62396e-14,-38.4246,6.49369,85.5399,32.5646,-3.62227,-6.99812,32.4191,7.12502,18.8726,61.5235,-10.1183,0.965967,30.7354,32.0988,-16.508,-15.7672,12.0737,-31.893,-4.08626,-15.4229,35.8332,-7.0387,3.75499,-11.4227
5.26328,17.5183,28.2423,-177.026,12.4602,184.6,8.8196,4.04359,3.93836,2.35121,6.11312,3.18002,-2.4311,3.1505,0.431815,-12.4976,4.33032,-2.68862,20.3972,6.36928,-1.99551,8.38566,2.32043,0.425521,6.37105e-14,2.38542e-14,-26.1201,-12.6248,-73.9486,41.06,13.2274,-10.9339,-1.41479,7.12502,15.0842,-30.8452,6.37105e-14,2.38542e-14,-38.1768,6.11779,85.6939,32.8528,-3.27325,-6.44809,33.2143,7.12502,19.4016,62.2664,-9.34935,1.36502,31.081,31.2174,-16.3696,-15.8367,12.3646,-31.7685,-4.19318,-14.9578,33.0853,-6.3948,4.39369,-10.8239
5.28712,17.5298,28.1348,-176.819,12.8506,184.894,8.56948,4.03901,4.14604,2.35672,6.10879,3.18493,-2.26635,3.15068,0.345387,-13.5422,2.7838,-2.93121,20.7532,5.74672,-1.83692,8.70071,2.57682,0.566708,2.79292e-14,2.38542e-14,-26.064,-12.2307,-74.3919,41.2429,13.0094,-10.6889,-1.63615,7.12502,15.3202,-31.0487,2.79292e-14,2.38542e-14,-37.7885,6.14974,85.6845,32.907,-3.52976,-6.23289,33.9662,7.12502,19.6085,62.9974,-8.65706,1.45601,31.3579,30.4189,-16.4386,-15.5863,12.2143,-31.6609,-4.39219,-14.4981,30.3431,-6.54933,4.97485,-10.3859
5.31061,17.5332,28.0336,-176.558,13.1865,185.491,8.44701,3.99321,4.65682,2.34927,6.09407,3.24092,-2.16056,3.14754,0.135656,-14.5386,2.19222,-3.83717,20.9883,4.89478,-0.850573,8.91756,2.16811,0.969883,-1.99779e-14,-1.90833e-14,-25.8742,-11.8856,-74.8687,41.2507,12.7367,-10.5886,-1.73232,7.12502,15.4167,-31.1374,-1.99779e-14,-1.90833e-14,-37.2813,6.09654,85.5892,32.8601,-3.62804,-6.49545,33.1933,7.12502,19.356,62.25,-8.03019,1.56507,31.9604,29.7348,-16.4899,-15.3451,12.6078,-31.6684,-4.72839,-13.6041,27.7424,-6.85609,5.39361,-9.66477
5.33463,17.5262,27.9297,-176.44,13.5445,185.619,8.40201,3.95026,4.5902,2.28275,6.02704,3.26226,-2.21554,3.11039,0.200327,-13.844,2.54676,-3.37143,20.6696,5.49744,-1.83185,8.71862,2.41453,0.616211,-6.55989e-15,3.97569e-15,-25.9673,-11.2678,-75.2547,41.5228,12.5001,-10.5327,-2.25625,7.12502,15.4706,-31.6572,-6.55989e-15,3.97569e-15,-36.9979,6.13335,85.5539,32.9103,-3.72663,-6.67996,32.7871,7.12502,19.1786,61.8614,-7.45011,1.49873,32.0413,29.2512,-16.6646,-14.9413,12.9699,-31.4979,-5.18182,-13.1994,25.2392,-7.20856,5.79408,-9.82631
5.35246,17.5018,27.8194,-176.398,13.9427,185.834,8.34905,3.90689,4.79912,2.2656,5.97742,3.19621,-2.17692,3.08375,0.0270932,-13.41,2.58353,-3.03123,20.3827,5.5607,-2.34981,8.56785,2.43275,0.38216,2.48481e-15,-7.31528e-14,-26.0335,-10.8335,-75.7144,41.6572,12.4125,-10.8049,-2.15966,7.12502,15.2084,-31.5807,2.48481e-15,-7.31528e-14,-36.7841,5.89043,85.4815,33.139,-3.44364,-6.61298,33.657,7.12502,19.243,62.725,-6.80743,1.35729,32.168,28.9052,-17.0934,-14.5081,13.2282,-30.9816,-5.18444,-12.9896,22.9302,-7.57561,5.86775,-13.3458
5.37583,17.4812,27.7179,-176.171,14.2327,186.066,8.0828,3.85116,4.82821,2.21862,5.88702,3.23966,-2.08271,3.03903,0.0833126,-13.1252,2.36623,-3.16601,20.1264,5.29849,-2.53731,8.43343,2.28936,0.303992,7.34509e-14,4.13472e-14,-26.0243,-10.4114,-76.0729,41.6956,12.4066,-11.0384,-1.34453,7.12502,14.9835,-30.7825,7.34509e-14,4.13472e-14,-36.597,5.77825,85.5003,33.298,-3.36618,-7.04276,33.6298,7.12502,18.8297,62.7384,-6.48597,1.39789,32.3684,28.7336,-17.2922,-14.2711,13.4907,-30.7597,-5.47306,-12.5503,20.706,-7.76228,6.18452,-15.2627
5.39435,17.4637,27.6161,-175.988,14.6319,186.492,7.95925,3.79854,5.08099,2.13554,5.83825,3.32981,-2.08667,3.01417,0.0478785,-12.8554,2.21532,-3.4495,20.0603,5.12401,-2.45556,8.35407,2.20291,0.353389,-3.50855e-14,-2.22639e-14,-26.1632,-10.0676,-76.3796,41.6993,12.7038,-10.8934,-1.04045,7.12502,15.1232,-30.4679,-3.50855e-14,-2.22639e-14,-36.3714,5.91968,85.371,33.2212,-3.44969,-7.30975,33.3366,7.12502,18.5729,62.47,-6.08102,1.48464,32.7391,28.5956,-17.4367,-14.1423,12.9423,-30.6403,-6.26651,-11.5868,18.7167,-7.58031,7.00444,-16.5614
5.41289,17.4501,27.5048,-175.821,15.067,186.597,7.6021,3.76689,4.98375,2.16269,5.76149,3.3964,-1.87945,2.98124,0.20555,-12.943,2.09597,-3.90876,20.1477,5.01461,-2.21641,8.38335,2.13741,0.49899,4.29375e-14,4.85035e-14,-25.964,-9.60989,-76.5982,41.3828,13.029,-10.7727,-1.07365,7.12502,15.2394,-30.4923,4.29375e-14,4.85035e-14,-36.0701,6.24837,85.3273,33.3017,-3.65636,-7.86213,33.9327,7.12502,18.0415,63.1159,-5.73332,1.29481,32.6984,28.4646,-17.7377,-13.6149,12.127,-30.6057,-7.06949,-10.968,16.9227,-7.37117,8.14234,-18.1275
5.43065,17.4302,27.3988,-175.63,15.4703,186.768,7.43778,3.69495,5.00739,2.15675,5.65281,3.39957,-1.79566,2.9278,0.21739,-13.0586,2.02355,-3.9991,20.1033,4.95159,-2.32472,8.39197,2.0857,0.471998,-5.05907e-14,-3.4191e-14,-25.7198,-9.14127,-76.9702,40.9698,13.2562,-11.1842,-1.15441,7.12502,14.843,-30.6028,-5.05907e-14,-3.4191e-14,-35.8149,6.34794,85.2011,33.4535,-3.71143,-8.1127,34.1156,7.12502,17.8004,63.3209,-5.38346,1.38892,32.7827,28.3364,-17.9635,-13.508,11.2216,-30.6182,-7.84981,-10.2712,15.3717,-7.40913,9.44815,-19.0608
5.44886,17.4121,27.2933,-175.421,15.8822,187.051,7.32958,3.69278,5.18818,2.09795,5.65308,3.37639,-1.77673,2.92547,0.100802,-13.0786,1.85325,-4.17123,20.0963,4.72428,-2.22694,8.38891,1.97232,0.50797,-6.80837e-14,1.98785e-15,-25.7945,-9.025,-77.2311,40.7759,13.64,-11.301,-0.697798,7.12502,14.7306,-30.1544,-6.80837e-14,1.98785e-15,-35.4372,6.13097,85.0813,33.3569,-3.73092,-8.57422,34.0684,7.12502,17.3563,63.3134,-5.07935,1.32425,32.9527,28.2719,-18.2546,-13.1383,11.1181,-30.623,-8.99249,-9.26965,14.0778,-7.71791,11.3407,-19.2715
5.46766,17.3925,27.1924,-175.231,16.2303,187.256,7.20622,3.60952,5.22733,2.01781,5.53518,3.38801,-1.79255,2.86324,0.106162,-12.9029,1.70611,-4.30291,20.0909,4.57163,-2.32487,8.35785,1.88706,0.478289,-1.78906e-14,-4.73108e-14,-25.8416,-8.59142,-77.5526,40.5757,13.7745,-11.3386,-0.373474,7.12502,14.6943,-29.8327,-1.78906e-14,-4.73108e-14,-35.2404,6.3399,84.8828,33.3483,-3.95324,-8.66364,34.3788,7.12502,17.2702,63.6314,-4.76548,1.49883,33.0971,28.2173,-18.4706,-13.1215,10.5814,-30.6871,-10.3131,-8.24625,13.1125,-8.39164,13.5341,-17.3122
5.48918,17.373,27.0948,-175.229,16.4878,187.245,7.31017,3.53876,5.0056,1.90558,5.42694,3.35503,-1.98691,2.79963,0.188794,-12.7419,1.59057,-4.41833,20.117,4.43558,-2.31541,8.3368,1.81995,0.484109,2.28602e-14,-3.93594e-14,-25.9033,-8.50344,-77.7978,40.1959,13.8534,-11.5618,0.331697,7.12502,14.4792,-29.1431,2.28602e-14,-3.93594e-14,-35.1057,6.27111,84.7278,33.3869,-3.85618,-9.22383,33.9755,7.12502,16.731,63.2746,-4.34587,1.65088,33.0583,28.1928,-18.705,-13.1522,10.1716,-30.6475,-10.986,-7.84833,12.4629,-8.47128,15.1462,-16.3083
5.51464,17.3522,27.0097,-175.134,16.4778,187.311,7.46768,3.38118,4.77474,1.74955,5.215,3.39701,-2.26666,2.68483,0.357034,-12.9367,1.59391,-4.6208,20.4008,4.51885,-2.2623,8.46319,1.84484,0.551163,-3.00165e-14,-5.1684e-14,-26.0224,-8.27733,-78.0231,39.9244,14.0517,-11.9401,0.55672,7.12502,14.1147,-28.9439,-3.00165e-14,-5.1684e-14,-34.9271,6.30575,84.5553,33.3409,-4.09234,-10.3655,32.9228,7.12502,15.6316,62.3113,-4.08336,1.82332,33.1961,28.2128,-18.8018,-13.456,9.40941,-30.7128,-10.7959,-7.78156,12.0229,-7.72462,15.6901,-16.5232
5.5331,17.3385,26.922,-174.844,16.369,187.372,7.28976,3.16351,4.69416,1.65992,4.90022,3.3576,-2.27139,2.52356,0.396028,-13.1888,1.6009,-4.57125,20.5595,4.54589,-2.29366,8.56475,1.84817,0.540993,-8.05078e-15,-1.19271e-15,-25.9432,-8.28759,-78.2954,39.5514,14.5971,-11.8661,0.919843,7.12502,14.1861,-28.5758,-8.05078e-15,-1.19271e-15,-34.6662,6.43026,84.2272,33.3538,-4.39592,-10.7351,32.0516,7.12502,15.2757,61.4675,-4.06091,1.7082,33.2492,28.2798,-18.8405,-13.6045,7.99512,-30.9563,-9.60854,-8.25385,11.8483,-7.0256,15.1207,-16.5738
5.54917,17.3273,26.8224,-174.802,16.4773,187.003,7.08998,3.04953,4.24858,1.72096,4.67659,3.19364,-2.12308,2.41062,0.507026,-13.5006,1.52438,-4.60203,20.6852,4.45145,-2.25446,8.66405,1.79207,0.554144,6.27166e-14,-7.95139e-15,-25.7245,-8.43612,-78.535,39.1289,15.1336,-11.9525,1.11409,7.12502,14.1028,-28.3873,6.27166e-14,-7.95139e-15,-34.2614,6.43282,84.0472,33.4123,-4.71149,-10.7389,31.7854,7.12502,15.2721,61.2016,-3.85841,1.64505,32.7675,28.347,-19.0894,-13.4393,7.87746,-31.0606,-8.08647,-9.4345,12.0663,-6.57655,14.411,-15.3255
5.57185,17.3084,26.7225,-174.959,16.7061,187.051,7.35302,2.93347,4.08311,1.77173,4.52467,3.17192,-2.23062,2.33459,0.574016,-13.6999,1.39334,-4.79186,20.7784,4.27433,-2.06551,8.726,1.7032,0.63218,-9.22361e-14,-2.14687e-14,-25.7746,-8.40309,-78.7634,38.9739,15.2795,-11.9457,1.23666,7.12502,14.1093,-28.2643,-9.22361e-14,-2.14687e-14,-33.8935,6.48434,83.7977,33.2881,-5.18141,-10.9226,31.2933,7.12502,15.095,60.7229,-3.24816,1.95313,32.8287,28.3498,-19.3366,-13.6886,8.04878,-31.0559,-6.96677,-9.94469,12.7995,-6.31417,14.2361,-14.1169
5.60196,17.2826,26.6221,-175.071,17.0501,187.233,7.46943,2.84698,3.88995,1.86961,4.4035,3.2058,-2.21326,2.27848,0.722388,-13.8932,1.20417,-4.92522,20.864,4.01767,-1.94347,8.78901,1.57445,0.668997,4.01048e-14,9.54166e-15,-25.7145,-8.44054,-79.0599,38.6882,15.5794,-12.4151,2.07614,7.12502,13.657,-27.4558,4.01048e-14,9.54166e-15,-33.6306,6.42271,83.5932,33.438,-5.32651,-11.2758,31.4756,7.12502,14.7548,60.9304,-2.59555,2.5951,33.1292,28.3305,-19.3495,-14.3001,7.56585,-31.1203,-6.20965,-10.0571,13.754,-6.44078,14.4693,-13.7692
5.62678,17.2539,26.5171,-175.141,17.3802,187.623,7.54222,2.76582,4.02779,2.00961,4.3191,3.26996,-2.10525,2.24455,0.720183,-14.2611,1.07369,-4.93993,21.0437,3.86541,-1.95044,8.92099,1.48692,0.657722,1.47598e-14,4.17448e-14,-25.5666,-8.51694,-79.3235,38.3943,15.6743,-13.0033,2.96021,7.12502,13.09,-26.609,1.47598e-14,4.17448e-14,-33.1854,6.45495,83.3806,33.4151,-5.41009,-11.1577,32.0239,7.12502,14.8686,61.4704,-1.92421,3.20302,33.6138,28.2696,-19.2793,-14.7368,7.21309,-31.197,-5.50301,-9.96166,14.8865,-6.60536,14.3947,-13.8965
5.65281,17.2339,26.4098,-175.231,17.7869,187.561,7.57399,2.73437,3.71893,2.02979,4.24573,3.21536,-2.12078,2.20591,0.840129,-14.3228,1.02203,-4.98204,21.1452,3.80745,-1.92121,8.96705,1.45597,0.669689,-5.68524e-14,2.46493e-14,-25.6841,-8.40882,-79.5763,38.1821,15.5837,-12.669,1.55249,7.12502,13.4123,-27.9958,-5.68524e-14,2.46493e-14,-33.1102,6.28777,83.1734,33.6601,-5.37312,-10.7733,32.4744,7.12502,15.2388,61.8931,-1.38215,3.84025,33.636,28.2188,-19.1161,-15.3372,5.08454,-31.3099,-4.93366,-10.2268,15.9622,-6.66918,14.0304,-12.48
5.67337,17.2194,26.2968,-175.27,18.193,187.65,7.75008,2.68368,3.56002,1.93103,4.17538,3.22514,-2.33328,2.16526,0.931199,-14.1146,0.927543,-5.12756,21.1473,3.69742,-1.88741,8.92875,1.40208,0.690281,-1.86361e-14,2.127e-14,-26.2206,-8.1064,-79.7279,38.1616,15.5468,-12.4228,0.552178,7.12502,13.6495,-28.9803,-1.86361e-14,2.127e-14,-33.0939,6.05031,83.0443,33.7229,-5.21239,-11.0574,32.7204,7.12502,14.9652,62.1597,-0.791094,4.19925,33.7161,28.1227,-19.0823,-15.5217,4.20262,-31.4015,-4.52205,-10.2762,17.0348,-6.73706,13.6212,-11.1253
5.69116,17.2122,26.1807,-175.28,18.7832,187.428,7.75695,2.75538,3.15986,1.86808,4.21832,3.06953,-2.41799,2.17881,0.986379,-14.2336,0.794266,-5.07348,21.321,3.52777,-1.92087,9.0152,1.31764,0.65356,8.84592e-15,-4.57205e-15,-26.7463,-8.00032,-79.8885,38.2289,15.5099,-13.9238,3.0676,7.12502,12.2026,-26.5565,8.84592e-15,-4.57205e-15,-33.0143,5.53256,82.9032,33.9968,-4.87047,-11.722,32.2477,7.12502,14.3249,61.7335,-0.24859,4.74439,33.4287,27.9691,-18.9544,-15.547,3.60205,-31.4837,-4.13119,-10.649,18.0195,-6.93774,13.4454,-10.3275
5.69538,17.2152,26.0615,-175.292,19.2096,187.352,7.75593,2.75306,3.14261,1.8649,4.19931,2.92018,-2.41038,2.16496,0.844185,-14.3288,0.541529,-5.17969,21.2004,3.13894,-1.78159,8.99273,1.13302,0.671036,4.19933e-15,3.97569e-16,-27.0519,-7.94792,-80.005,38.1026,15.489,-12.7344,0.583543,7.12502,13.3492,-28.9688,4.19933e-15,3.97569e-16,-32.833,5.17874,82.7559,34.3071,-4.68019,-19.776,22.9344,7.12502,6.55609,52.8129,0.344445,4.82335,33.1702,27.72,-18.9111,-15.2801,2.56672,-31.5367,-3.56267,-11.0628,18.971,-6.98767,13.0184,-9.96643
5.70279,17.2264,25.9433,-175.28,19.5547,187.255,7.58171,2.64667,3.06224,1.88147,4.02951,2.80958,-2.29458,2.0785,0.801055,-13.6759,0.333628,-5.52964,20.6847,2.83544,-1.73254,8.69713,0.984915,0.699181,4.87271e-14,3.4191e-14,-27.2647,-7.8437,-80.2071,37.7714,15.5985,-13.2809,1.32532,7.12502,12.8224,-28.2609,4.87271e-14,3.4191e-14,-32.583,5.13123,82.5306,34.1972,-4.82591,-22.8148,19.7343,7.12502,3.6219,49.6833,0.928181,5.01123,32.9645,27.4288,-18.6989,-15.3381,1.49995,-31.7267,-2.85435,-11.5239,19.911,-5.98284,12.7691,-9.35441
5.71835,17.2404,25.8231,-175.217,19.8347,187.008,7.34629,2.58775,2.79985,1.85994,3.89693,2.60374,-2.18919,2.0071,0.759082,-13.5541,0.101807,-5.52564,20.5811,2.5071,-1.80736,8.64745,0.823355,0.634003,-3.21534e-14,2.52457e-14,-27.465,-7.81054,-80.4947,37.4785,15.684,-14.5505,3.40484,7.12502,11.5983,-26.2542,-3.21534e-14,2.52457e-14,-32.3066,4.69655,82.2723,34.0675,-4.70561,-23.1123,19.2804,7.12502,3.33465,49.2341,1.37535,5.45591,32.7026,27.1887,-18.5008,-15.5721,0.953224,-32.0515,-2.0468,-12.1194,20.8497,-3.70129,12.5943,-11.5739
5.73423,17.2514,25.6994,-175.229,20.1029,186.836,7.37135,2.48591,2.48788,1.766,3.72667,2.50555,-2.31378,1.91636,0.842559,-13.5607,-0.0680805,-5.4767,20.5431,2.30688,-2.03497,8.64441,0.708449,0.526236,-7.06555e-14,1.20265e-14,-27.9356,-7.56126,-80.6531,37.2795,15.7514,-15.9709,7.54369,7.12502,10.2282,-22.1876,-7.06555e-14,1.20265e-14,-32.1915,4.412,82.0397,33.8988,-4.66005,-23.0993,19.1195,7.12502,3.34724,49.073,1.83245,5.62401,32.4759,27.0845,-18.0608,-15.7837,-1.379,-32.2103,-1.29478,-12.6677,21.6775,-3.39916,12.2735,-12.2807
5.74612,17.266,25.577,-175.103,20.3444,186.592,7.36404,2.37116,2.10666,1.46306,3.52798,2.39768,-2.63836,1.80559,0.953871,-13.3037,-0.222433,-5.60282,20.6346,2.11625,-2.00507,8.63144,0.617957,0.535689,2.05991e-14,6.01324e-15,-28.6411,-7.35647,-80.7539,36.8186,15.7667,-14.94,4.35388,7.12502,11.2226,-25.3259,2.05991e-14,6.01324e-15,-32.27,4.5934,81.672,33.4829,-5.01054,-23.4435,19.0404,7.12502,3.01478,48.9989,1.97926,5.82001,32.124,27.1793,-17.7302,-15.729,-1.83344,-32.4792,-0.883038,-13.1435,22.3593,-3.30057,12.0153,-11.0447
5.76447,17.2823,25.4567,-175.212,20.4065,186.157,7.392,2.22398,1.58738,1.41738,3.27384,2.2107,-2.71753,1.67586,1.07263,-13.9948,-0.386635,-5.60149,21.2087,1.9513,-1.923,8.95758,0.526274,0.550701,6.52852e-14,3.9086e-14,-28.9024,-7.27639,-80.9515,36.3493,16.0418,-16.0251,7.65208,7.12502,10.176,-22.0818,6.52852e-14,3.9086e-14,-31.9902,4.68334,81.3398,33.2387,-5.30296,-23.5887,18.7323,7.12502,2.87458,48.6926,2.22738,5.8977,31.6287,27.4707,-17.6319,-15.593,-1.47915,-32.573,-0.580739,-13.8082,22.9901,-3.22818,11.7027,-9.76046
5.77817,17.2924,25.3335,-175.259,20.2935,185.967,7.30559,2.12519,1.42416,1.50282,3.11426,2.02744,-2.57784,1.5959,0.996047,-14.7802,-0.692321,-5.45873,21.6154,1.53918,-1.88803,9.25129,0.321363,0.492865,-3.62161e-14,7.10655e-15,-29.0928,-7.66239,-81.0665,36.0325,16.433,-16.1935,8.31522,7.12502,10.0134,-21.4266,-3.62161e-14,7.10655e-15,-31.5672,4.33194,81.1083,33.1394,-5.47125,-23.7975,18.0628,7.12502,2.67289,48.0258,2.43658,5.71534,31.3725,27.8337,-17.347,-15.6018,-2.64314,-32.6149,-0.118851,-14.3306,23.6695,-3.04415,11.4241,-8.53415
5.78899,17.2969,25.2086,-175.151,20.183,185.882,7.2271,1.96388,1.28748,1.33898,2.87837,1.97283,-2.70485,1.47389,1.03782,-14.7649,-0.970396,-5.54945,21.7375,1.16002,-1.80752,9.2974,0.142561,0.489539,2.3643e-14,1.13804e-14,-29.7688,-7.56181,-81.0139,35.8193,16.6048,-16.2489,9.10909,7.12502,9.96,-20.6353,2.3643e-14,1.13804e-14,-31.5821,4.12919,80.8931,32.9988,-5.43709,-24.7222,16.9088,7.12502,1.77982,46.8811,2.48859,5.5548,31.1728,28.2428,-17.0773,-15.4316,-3.42835,-32.6852,0.391377,-14.8449,24.3437,-2.78228,11.161,-10.3324
5.80011,17.3003,25.0822,-174.837,20.1212,186.323,7.13545,1.72875,1.57604,1.14314,2.59221,2.10758,-2.84675,1.32762,1.04165,-14.5675,-1.21689,-5.89721,21.8149,0.859678,-1.63749,9.29364,-0.0048919,0.569458,1.77788e-14,9.24349e-15,-30.4453,-7.28922,-80.964,35.5412,16.94,-16.4176,10.2068,7.12502,9.79732,-19.5453,1.77788e-14,9.24349e-15,-31.5783,4.84584,80.5235,32.6262,-6.10568,-25.1571,16.3839,7.12502,1.35983,46.3593,2.46574,5.38163,31.4849,28.619,-16.5854,-15.1607,-4.54477,-32.882,0.987104,-14.7546,25.0803,-2.71214,10.6305,-11.8593
5.81368,17.3138,24.9513,-174.776,20.2047,186.45,6.89957,1.61727,1.65953,1.23432,2.44069,2.08058,-2.6151,1.25335,0.990517,-14.4718,-1.42677,-6.15621,21.6252,0.572972,-1.53123,9.21663,-0.149788,0.612323,-2.7308e-14,-3.72721e-14,-30.8452,-7.14884,-81.0404,35.4468,16.7381,-15.41,7.70019,7.12502,10.7693,-22.0037,-2.7308e-14,-3.72721e-14,-31.1862,5.18617,80.2378,32.4218,-6.45557,-22.4091,19.1101,7.12502,4.01377,49.052,2.77858,5.56895,31.5406,28.7545,-16.0192,-14.8294,-3.53877,-32.7592,1.53096,-14.8763,25.5831,-2.80276,10.2643,-10.7556
5.81989,17.3358,24.8105,-174.649,20.2312,186.715,6.76415,1.46798,1.85584,1.19474,2.25613,2.14692,-2.57445,1.16077,0.968913,-14.3698,-1.56009,-6.16494,21.5102,0.395908,-1.64123,9.16308,-0.244358,0.554024,6.11263e-14,-2.17669e-14,-31.5092,-6.98523,-80.9175,35.2041,17.0167,-12.8738,0.897163,7.12502,13.2149,-28.664,6.11263e-14,-2.17669e-14,-31.0798,5.53045,80.0288,32.6087,-6.22699,-13.3776,26.8993,7.12502,12.7292,56.4913,3.00263,5.53548,31.6376,29.0603,-15.3724,-14.4248,-4.34594,-32.6176,1.87245,-14.8517,26.1608,-2.71412,10.425,-10.5717
5.83108,17.4126,24.6674,-174.66,20.4639,186.746,6.74973,1.42459,1.79131,1.13124,2.19032,2.12861,-2.63322,1.12622,0.99142,-14.3886,-1.79474,-6.38428,21.5679,0.0785056,-1.4635,9.19499,-0.395639,0.612307,9.46712e-15,1.54058e-14,-32.0683,-7.29721,-80.6513,34.5088,17.6462,-12.7248,2.02017,7.12502,13.3585,-27.5316,9.46712e-15,1.54058e-14,-31.0937,5.7381,79.8326,32.7178,-5.96545,-13.0902,28.4074,7.12502,13.0062,57.982,3.19854,5.53594,31.4284,29.4656,-14.5497,-13.9054,-5.24143,-32.8064,0.0892209,-13.6563,26.4691,-3.9177,12.6182,2.84096
5.83832,17.4127,24.5362,-174.574,20.8337,186.728,6.56621,1.42699,1.73877,1.11584,2.17358,2.01159,-2.54378,1.11534,0.906759,-14.6033,-1.92278,-6.20541,21.6344,-0.117233,-1.54644,9.26151,-0.489922,0.528711,7.78242e-14,1.53064e-14,-32.4363,-7.43877,-80.6171,33.9683,17.9856,-12.2962,1.8929,7.12502,13.7715,-27.6313,7.78242e-14,1.53064e-14,-30.8473,5.77649,79.5927,32.4606,-5.74089,-23.5681,21.1014,7.12502,2.89444,51.0616,3.1093,5.63817,31.1342,30.1631,-13.8441,-13.2184,-5.94423,-32.0473,2.12784,-14.8346,26.6723,-2.67639,11.5715,-7.55721
5.84729,17.4288,24.3992,-174.59,21.1106,186.531,6.35484,1.43607,1.48945,1.22071,2.15132,1.8771,-2.32131,1.10525,0.917447,-15.0067,-1.98326,-5.98043,21.7268,-0.200633,-1.70301,9.36913,-0.538985,0.424269,2.27608e-14,1.17283e-14,-32.7253,-7.36432,-80.6203,33.7083,17.9647,-12.1213,1.03935,7.12502,13.9401,-28.4733,2.27608e-14,1.17283e-14,-30.2924,5.82777,79.414,32.1444,-5.69052,-11.7452,30.9819,7.12502,14.3025,60.4693,2.99885,5.71821,30.685,30.9712,-13.1074,-12.5871,-5.93755,-31.4407,3.09064,-15.5583,26.6489,-1.76314,11.1907,-12.5259
5.85194,17.4531,24.2474,-174.759,21.2551,186.125,6.12485,1.32214,1.06376,1.32747,1.95749,1.78821,-2.09263,1.01046,1.08786,-15.2455,-2.0695,-5.96725,21.7544,-0.271987,-1.87125,9.42576,-0.595903,0.352992,-9.31803e-15,-1.41137e-14,-33.0465,-6.95405,-80.5463,33.2606,18.0949,-12.4391,0.951361,7.12502,13.6338,-28.5821,-9.31803e-15,-1.41137e-14,-29.9376,6.27619,79.274,31.7106,-6.06782,-25.7346,17.6619,7.12502,0.802087,47.6401,2.83982,5.50071,29.9779,32.0947,-12.4405,-11.9726,-7.12444,-30.8685,3.07989,-16.0529,26.7111,-1.60672,11.6325,-13.7586
5.85788,17.4841,24.0947,-174.852,21.3582,185.872,5.98231,1.17909,0.705103,1.20465,1.73641,1.80693,-2.1478,0.898971,1.32723,-14.9747,-2.21962,-6.11226,21.7722,-0.414609,-2.00921,9.38763,-0.682175,0.313848,3.7943e-14,-6.16232e-15,-33.7611,-6.53278,-80.3152,32.8075,18.27,-12.5612,1.23359,7.12502,13.5162,-28.3078,3.7943e-14,-6.16232e-15,-30.1924,6.54574,79.2378,31.6577,-5.99346,-25.1975,19.1681,7.12502,1.32084,49.1438,2.62216,5.10698,29.3688,33.174,-11.6798,-11.1713,-6.32212,-30.1506,3.16571,-16.4555,26.6158,-1.76183,11.9444,-14.2943
5.86298,17.5185,23.949,-174.841,21.4443,185.858,5.99872,1.06295,0.60593,0.962503,1.57412,1.86092,-2.40735,0.815947,1.44822,-14.5472,-2.40297,-6.2576,21.8333,-0.623198,-2.08217,9.33674,-0.78867,0.290965,-1.36416e-14,-3.97569e-16,-34.6812,-6.17286,-80.0911,32.5562,18.5995,-12.4504,1.42925,7.12502,13.6229,-28.105,-1.36416e-14,-3.97569e-16,-30.5712,6.6,79.1875,31.6349,-5.66107,-24.7571,19.9087,7.12502,1.74613,49.8813,2.25558,4.56095,28.9288,34.3543,-10.9546,-10.0876,-4.97868,-29.5124,3.64072,-16.747,26.4972,-2.0935,11.8639,-13.3128
5.86598,17.5419,23.8067,-174.94,21.4896,185.692,5.81463,0.89896,0.469201,0.966278,1.33838,1.80363,-2.2971,0.697604,1.48797,-14.2003,-2.4578,-6.52373,21.5642,-0.736433,-1.87125,9.18379,-0.835455,0.396191,1.36167e-14,6.16232e-15,-35.1432,-5.89027,-80.0811,32.2995,18.7349,-12.3989,1.14449,7.12502,13.6726,-28.3864,1.36167e-14,6.16232e-15,-30.5512,6.67088,79.068,31.5226,-5.70359,-25.3807,20.9948,7.12502,1.14391,50.9715,1.85968,4.07904,28.3938,35.7051,-10.1756,-9.20688,-5.33764,-28.9556,3.9669,-17.1257,26.4371,-2.72086,11.572,-10.7326
5.86737,17.5533,23.6644,-175.118,21.2862,185.403,5.71211,0.676191,0.221675,1.01937,1.01982,1.73428,-2.1806,0.538982,1.58186,-13.8203,-2.57288,-6.76506,21.1664,-0.950126,-1.69016,8.98368,-0.93083,0.474884,1.15544e-14,2.14687e-14,-35.6973,-5.37023,-80.1003,32.4255,18.5714,-12.3272,1.38814,7.12502,13.7417,-28.1381,1.15544e-14,2.14687e-14,-30.3098,6.6493,79.0097,31.3456,-5.93487,-13.8126,28.1508,7.12502,12.3098,57.7685,1.35285,3.43868,27.8147,37.256,-9.05799,-8.65355,-6.47155,-28.4194,3.99244,-17.5977,26.4229,-2.88814,11.2851,-10.8897
5.87417,17.5695,23.5187,-175.301,21.2266,185.098,5.68965,0.571567,-0.16675,1.05532,0.853225,1.69906,-2.13154,0.457226,1.77693,-13.9911,-2.891,-6.98324,21.1739,-1.37504,-1.54782,9.03293,-1.14074,0.50546,-9.59136e-15,-3.37934e-15,-35.9942,-5.29526,-79.8615,31.9477,18.7521,-12.174,2.1117,7.12502,13.8893,-27.4045,-9.59136e-15,-3.37934e-15,-30.1653,6.53304,79.108,31.4519,-5.51681,-12.8044,29.2039,7.12502,13.2818,58.7607,0.683024,2.68332,27.1437,38.9727,-7.6557,-7.96428,-6.04093,-27.837,4.18781,-18.1263,26.4695,-2.95664,10.9412,-11.4642
5.87517,17.5826,23.3731,-175.353,21.1849,184.919,5.60913,0.435673,-0.330697,0.998006,0.656724,1.65138,-2.14028,0.358477,1.83512,-14.0896,-3.09415,-7.10536,21.2349,-1.66511,-1.38774,9.08311,-1.27564,0.543074,-3.55079e-14,1.41137e-14,-36.3511,-5.61175,-79.4758,31.2277,19.2884,-11.6317,1.03469,7.12502,14.4119,-28.4449,-3.55079e-14,1.41137e-14,-30.0783,6.0856,79.2117,31.4838,-4.73594,-13.1354,29.8969,7.12502,12.9627,59.4742,-0.156053,2.06505,26.5878,40.7967,-6.00943,-7.23503,8.06142,-27.4381,4.52914,-18.5917,26.5386,-2.96402,10.4474,-12.0651
5.87347,17.5837,23.2341,-175.492,20.9583,184.719,5.69483,0.190192,-0.484675,0.944194,0.317864,1.61994,-2.23229,0.190042,1.91434,-13.8586,-3.11015,-7.34142,20.9836,-1.72082,-1.18795,8.96008,-1.29721,0.645783,1.67973e-14,7.95139e-16,-36.8074,-5.35249,-79.3158,30.8812,19.3441,-12.6924,2.84599,7.12502,13.3897,-26.7037,1.67973e-14,7.95139e-16,-29.9738,5.73055,79.2685,31.4106,-4.22434,-13.5543,29.9448,7.12502,12.5589,59.5473,-0.943737,1.19517,25.9929,42.6566,-3.93975,-6.64527,10.7183,-27.0503,4.99217,-19.1874,26.7015,-2.82224,9.64389,-14.2026
5.87523,17.5882,23.0889,-175.67,20.8268,184.482,5.78802,0.0109427,-0.701506,0.882843,0.0621108,1.57907,-2.33809,0.0636544,2.01392,-13.6401,-3.25198,-7.59236,20.8225,-1.93365,-1.01026,8.87702,-1.39678,0.72418,-1.54058e-15,-2.78299e-15,-37.4399,-5.02209,-79.1918,30.9647,19.1771,-13.0007,1.54106,7.12502,13.0925,-28.028,-1.54058e-15,-2.78299e-15,-29.941,5.64328,79.3004,31.3467,-4.37751,-13.428,29.4559,7.12502,12.6806,59.051,-1.80472,0.463006,25.3794,44.5839,-1.47299,-6.36125,-1.26478,-26.7003,5.46926,-19.7679,26.9122,-2.90301,9.05078,-15.6649
5.87545,17.5951,22.9396,-175.848,20.7,184.192,5.53255,-0.149152,-0.870991,0.970717,-0.166835,1.46892,-2.09535,-0.0528967,2.01155,-13.5163,-3.45806,-7.77069,20.6736,-2.25006,-0.829567,8.81875,-1.54237,0.778037,1.99033e-14,-3.77691e-15,-37.954,-5.29189,-78.9185,31.0887,19.6129,-12.6668,0.487106,7.12502,13.4144,-29.061,1.99033e-14,-3.77691e-15,-29.7416,5.36124,79.2994,31.2922,-4.38898,-13.4237,28.5338,7.12502,12.6847,58.1286,-2.73711,-0.28485,24.696,46.5717,0.628526,-6.0146,2.07698,-26.2754,5.19495,-20.0303,27.1867,-3.73619,8.98451,-10.8845
5.87477,17.5874,22.7971,-176.179,20.6401,183.75,5.496,-0.34319,-1.33255,1.03353,-0.453073,1.45923,-1.99463,-0.194401,2.28124,-13.4724,-3.51368,-7.89883,20.4798,-2.32212,-0.823389,8.74968,-1.58593,0.792756,-4.58199e-14,1.8487e-14,-38.3134,-5.00099,-78.6116,30.9368,19.729,-12.388,0.379499,7.12502,13.6831,-29.1507,-4.58199e-14,1.8487e-14,-29.8,5.249,79.4485,31.5102,-4.20377,-13.237,28.3207,7.12502,12.8647,57.9042,-3.60282,-1.01809,23.848,48.687,2.39025,-5.39562,2.07967,-25.7956,5.52485,-20.6614,27.488,-3.99889,8.40921,-9.77137
5.86872,17.5779,22.662,-176.565,20.6048,183.277,5.79707,-0.58058,-1.81578,0.964192,-0.804597,1.42091,-2.21044,-0.364661,2.54372,-13.3271,-3.41767,-7.8605,20.2953,-2.1885,-0.973116,8.65338,-1.53188,0.753742,2.51463e-14,-3.37934e-15,-38.8436,-4.64426,-78.3892,30.8569,19.7389,-12.4257,0.627205,7.12502,13.6468,-28.9054,2.51463e-14,-3.37934e-15,-30.1363,5.10286,79.4876,31.8202,-4.21009,-15.0213,27.2117,7.12502,11.1442,56.8958,-4.4692,-1.70511,22.9374,50.7986,4.47033,-4.54212,2.23331,-25.2953,5.92567,-21.3623,27.765,-4.22752,7.80022,-9.2494
5.86539,17.5677,22.5354,-176.743,20.5558,183.018,5.93144,-0.759554,-2.04495,0.936909,-1.06136,1.38751,-2.29525,-0.490191,2.66025,-13.1628,-3.41397,-7.85477,20.158,-2.20427,-0.997329,8.57675,-1.53902,0.745086,1.62506e-14,2.38542e-15,-39.3126,-4.36668,-78.2409,31.0528,19.4645,-12.2802,0.492908,7.12502,13.787,-29.0302,1.62506e-14,2.38542e-15,-30.0207,4.60314,79.6034,31.8984,-3.99231,-20.8452,23.3136,7.12502,5.52385,53.2216,-5.61787,-2.25708,22.3217,53.0268,6.3679,-4.21261,5.74164,-24.9344,6.47521,-21.8659,28.043,-4.54893,7.04553,-9.23774
5.86554,17.5983,22.4091,-176.955,20.4891,182.686,6.02139,-0.876811,-2.28864,0.991798,-1.23831,1.2415,-2.27607,-0.577867,2.66117,-13.0679,-3.54238,-7.97226,20.0533,-2.43365,-0.760671,8.53587,-1.63442,0.818357,-1.52319e-14,2.98177e-15,-39.5783,-4.79387,-78.0374,31.0005,19.5954,-12.2708,0.369646,7.12502,13.796,-29.1529,-1.52319e-14,2.98177e-15,-29.702,4.17643,79.6117,31.8602,-4.08602,-11.5022,28.7689,7.12502,14.5366,58.2396,-6.76788,-2.76841,21.7219,55.1815,7.797,-3.7919,6.07671,-25.2075,5.70493,-21.75,28.3786,-4.88868,7.06324,1.42038
5.86335,17.5913,22.2818,-177.383,20.5661,182.095,6.33629,-0.892164,-2.90037,1.00847,-1.30795,1.14543,-2.41855,-0.605476,2.91854,-12.9892,-3.67783,-8.12965,19.9486,-2.61957,-0.685298,8.49733,-1.72642,0.848788,4.21423e-14,7.55382e-15,-40.0361,-5.10461,-77.5523,31.1128,19.5245,-12.0351,1.03403,7.12502,14.0232,-28.4729,4.21423e-14,7.55382e-15,-29.609,3.70005,79.8416,32.0549,-4.35924,-13.1171,27.7145,7.12502,12.9804,57.2907,-7.81342,-3.10564,20.8303,57.4722,8.82223,-3.43015,5.5849,-24.9788,6.0398,-22.3583,28.8191,-5.19978,6.53244,5.30913
5.85649,17.5608,22.1542,-177.885,20.6479,181.601,6.81678,-0.908662,-3.31024,0.956287,-1.37676,1.01405,-2.72932,-0.629376,3.03107,-12.9565,-3.76434,-8.05956,20.0881,-2.72755,-0.766333,8.54093,-1.78036,0.797994,-2.63638e-14,7.95139e-16,-40.7603,-5.17069,-77.2575,31.4323,19.1753,-12.0123,1.76814,7.12502,14.0451,-27.7373,-2.63638e-14,7.95139e-16,-29.7233,2.83532,80.084,32.3879,-3.72588,-12.5035,28.0677,7.12502,13.5718,57.6053,-8.75795,-3.42775,19.9931,59.8204,9.59474,-3.00717,4.55628,-24.4573,6.6363,-23.0112,29.3796,-5.58463,5.91603,7.37354
5.85278,17.5209,22.0313,-178.339,20.5996,181.147,7.0593,-1.06089,-3.7131,1.07358,-1.61385,0.903508,-2.71692,-0.743424,3.16834,-13.1576,-3.82146,-7.972,20.2508,-2.77341,-0.88827,8.63176,-1.81194,0.733563,-5.89397e-14,5.96354e-16,-41.056,-5.07858,-77.1306,31.6106,18.8408,-12.0435,2.27117,7.12502,14.015,-27.2364,-5.89397e-14,5.96354e-16,-29.4336,2.2331,80.172,32.5589,-2.96228,-12.7409,27.456,7.12502,13.343,57.0088,-9.81215,-3.6763,19.2838,62.247,10.0826,-2.91514,4.56274,-24.0175,7.557,-23.7872,30.1776,-5.96685,5.07157,5.0134
5.85274,17.4617,21.9151,-178.765,20.3856,180.903,7.38161,-1.22103,-3.98865,1.22401,-1.85003,0.879882,-2.71321,-0.857161,3.32654,-13.1402,-3.9023,-7.83819,20.1513,-2.86944,-1.13274,8.59263,-1.87133,0.618526,-2.70347e-14,-1.03368e-14,-41.2383,-5.26919,-76.8782,31.6555,18.455,-12.2488,2.19463,7.12502,13.8172,-27.3265,-2.70347e-14,-1.03368e-14,-29.1021,1.62787,80.2933,32.7128,-2.77081,-12.5178,27.6403,7.12502,13.558,57.1789,-10.8502,-4.00114,18.8481,64.6664,14.6305,-3.63359,17.7252,-23.523,8.83716,-24.4856,31.1954,-6.5641,4.0394,-1.82938
5.85231,17.4035,21.7991,-179.101,20.4631,180.564,7.5778,-1.26809,-4.32815,1.3451,-1.94064,0.8098,-2.67981,-0.899304,3.45686,-13.1215,-3.99647,-7.89914,20.0421,-3.01085,-1.08723,8.55885,-1.93932,0.627571,-6.71147e-14,6.75868e-15,-41.4199,-5.28416,-76.7783,31.8658,17.6117,-12.4058,1.88662,7.12502,13.6659,-27.6447,-6.71147e-14,6.75868e-15,-28.6149,1.0491,80.3739,32.8742,-2.54378,-11.216,28.9565,7.12502,14.8124,58.4071,-11.9634,-3.989,18.259,66.9665,16.2421,-4.39583,23.1929,-23.3745,9.89736,-25.1104,32.3386,-7.19246,3.36788,-7.69775
5.85117,17.3539,21.6866,-179.403,20.5526,180.418,7.70565,-1.36825,-4.462,1.49992,-2.0796,0.784708,-2.57352,-0.969403,3.51971,-12.8836,-3.94821,-8.01769,19.7463,-2.98233,-0.989503,8.41784,-1.92125,0.687959,-5.57591e-14,9.74045e-15,-41.4763,-5.56917,-76.5511,31.872,17.5998,-12.5163,2.05932,7.12502,13.5594,-27.4792,-5.57591e-14,9.74045e-15,-28.0432,0.513156,80.4068,32.7871,-2.40222,-10.775,28.8979,7.12502,15.2372,58.3167,-12.9682,-3.82005,17.9832,69.0359,17.6629,-5.29393,26.8962,-23.3452,10.51,-25.353,33.5234,-7.88726,2.90955,-5.13449
5.8482,17.3014,21.5715,-179.857,20.5133,180.167,7.85104,-1.53448,-4.63436,1.71553,-2.30701,0.689964,-2.40606,-1.08466,3.53903,-12.6956,-3.9005,-7.94496,19.52,-2.95237,-1.0501,8.30341,-1.90467,0.663232,-2.4376e-14,-2.78299e-15,-41.3212,-6.09453,-76.2806,31.579,17.7031,-12.5745,2.1494,7.12502,13.5033,-27.3928,-2.4376e-14,-2.78299e-15,-27.6039,0.0475555,80.407,32.6954,-2.49003,-11.4089,28.1126,7.12502,14.6266,57.5768,-13.9366,-3.92264,17.6088,70.9758,19.4144,-5.39689,28.6771,-23.0551,11.0555,-25.6837,34.6147,-8.68367,2.39239,-1.24787
5.84444,17.2564,21.4604,-180.267,20.3852,180.058,8.21385,-1.73519,-4.79836,1.87959,-2.58723,0.739346,-2.40041,-1.22102,3.71815,-12.4236,-3.9008,-8.12223,19.2331,-2.95399,-1.05542,8.16223,-1.91309,0.695504,9.6659e-14,-4.96962e-15,-41.3233,-5.9651,-76.1539,31.7743,17.2562,-12.4324,1.67256,7.12502,13.6402,-27.8605,9.6659e-14,-4.96962e-15,-27.3633,-0.107519,80.4795,33.0343,-2.74448,-11.9969,28.3981,7.12502,14.06,57.9025,-14.8941,-4.09862,17.4525,72.7419,20.5579,-5.16322,28.5981,-22.6949,11.4188,-25.8608,35.5271,-9.50618,2.01961,-2.91681
5.83828,17.2138,21.3495,-180.715,20.2156,179.495,8.53,-1.86851,-5.30375,2.00677,-2.81235,0.619484,-2.40146,-1.32774,3.90846,-12.2458,-3.91538,-8.14698,18.9537,-3.0048,-1.06187,8.03861,-1.93633,0.695593,-3.8117e-14,-9.54166e-15,-41.2995,-6.39895,-75.8437,31.8417,17.1705,-12.4135,1.95012,7.12502,13.6585,-27.5817,-3.8117e-14,-9.54166e-15,-26.8758,-0.608071,80.5371,33.0982,-2.6661,-13.8328,28.1389,7.12502,12.2903,57.7578,-15.9755,-4.41419,16.7415,74.4403,20.675,-4.28521,26.2759,-22.4728,11.6335,-26.5119,36.2737,-10.1741,1.68176,-3.78062
5.82911,17.1707,21.2372,-181.156,20.0306,178.674,8.66631,-1.98581,-5.9687,2.07881,-3.02902,0.415663,-2.35359,-1.43151,4.09381,-12.2283,-3.99497,-8.30997,18.9406,-3.10529,-0.962075,8.04017,-1.98679,0.74413,6.13996e-14,-9.0447e-15,-41.2481,-7.10251,-75.3839,31.6506,17.2768,-12.24,2.40511,7.12502,13.8257,-27.1154,6.13996e-14,-9.0447e-15,-26.3903,-1.02305,80.5519,33.0261,-2.45249,-15.2453,27.0321,7.12502,10.9282,56.7277,-17.0851,-4.68182,15.6967,76.0387,20.1834,-3.68853,25.9267,-22.3555,11.6277,-27.4367,36.9948,-10.8481,1.39104,-1.95849
5.83343,17.1252,21.1187,-181.592,19.8561,178.355,8.93526,-2.12574,-6.33851,2.10382,-3.25955,0.389099,-2.42981,-1.53967,4.30749,-11.8285,-4.0708,-8.46638,18.8427,-3.20333,-0.995557,7.9437,-2.04007,0.755147,1.45982e-14,-9.93923e-17,-41.4963,-7.22035,-75.1465,31.7719,16.9151,-12.2588,1.95763,7.12502,13.8076,-27.5641,1.45982e-14,-9.93923e-17,-26.2339,-1.0175,80.5064,33.1365,-2.57755,-14.5604,27.3134,7.12502,11.5887,56.973,-17.9205,-4.73304,15.3177,77.4586,19.5489,-3.39356,27.3128,-22.0494,11.6286,-27.7893,37.7955,-11.5971,1.36681,-0.885126
5.84493,17.0812,21.0005,-181.887,19.7896,178.545,9.15489,-2.19373,-6.33054,2.24039,-3.34565,0.519668,-2.39051,-1.58329,4.45437,-11.7354,-4.09159,-8.36604,18.9057,-3.20017,-1.22635,7.94317,-2.05013,0.664549,9.2907e-14,-1.87852e-14,-41.8119,-7.36154,-74.9142,32.1539,16.4394,-12.3596,1.44427,7.12502,13.7105,-28.0841,9.2907e-14,-1.87852e-14,-25.8036,-1.30717,80.5824,33.1316,-2.76134,-13.0045,28.1258,7.12502,13.0889,57.6951,-18.6519,-4.59359,15.6488,78.699,18.3856,-3.03867,26.8844,-21.7396,11.7561,-27.5454,38.6779,-12.4571,1.17014,0.092349
5.84856,17.02,20.877,-182.324,18.6448,178.527,9.31602,-2.61586,-6.16961,2.55495,-3.86894,0.43353,-2.1038,-1.85123,4.3212,-11.8853,-4.19192,-8.14436,18.8651,-3.36259,-1.31946,7.95482,-2.12485,0.577494,2.8128e-14,1.53064e-14,-41.6532,-8.18702,-74.7182,32.125,16.5962,-12.41,1.14644,7.12502,13.6618,-28.3852,2.8128e-14,1.53064e-14,-25.0572,-1.759,80.5166,33.0139,-2.64064,-13.2707,27.9653,7.12502,12.8322,57.5508,-18.9119,-5.50979,15.5485,79.8173,16.5198,-2.5887,26.5968,-21.2834,10.9708,-27.5944,39.6005,-13.2411,0.926454,0.015779
5.85027,16.964,20.774,-182.699,18.3036,177.845,9.42118,-2.78345,-6.79616,2.6548,-4.14499,0.249026,-1.99077,-1.9883,4.5065,-11.758,-4.31246,-8.30321,18.7584,-3.57599,-1.05958,7.91145,-2.21405,0.668569,2.44132e-14,-6.26172e-15,-41.5083,-9.03879,-74.3667,31.8844,17.0652,-12.3409,1.35419,7.12502,13.7285,-28.1729,2.44132e-14,-6.26172e-15,-24.6766,-1.60945,80.3354,33.1614,-3.66194,-13.8117,28.4034,7.12502,12.3106,58.021,-19.7158,-5.68738,14.7369,80.9581,14.4338,-2.30143,27.688,-21.2106,10.8346,-28.3728,40.4898,-13.8905,0.759623,0.820201
5.84975,16.9383,20.672,-182.907,18.5923,177.447,9.49692,-2.78344,-7.2363,2.60468,-4.19573,0.20014,-2.04837,-2.00954,4.71245,-11.0887,-4.37869,-8.61225,18.4753,-3.70903,-0.896574,7.71418,-2.27266,0.772595,-7.23079e-14,5.76476e-15,-41.7537,-9.34418,-74.1522,32.0678,17.0349,-12.4788,1.18365,7.12502,13.5956,-28.3524,-7.23079e-14,5.76476e-15,-24.5098,-0.919813,80.0521,33.2884,-5.99961,-12.5487,29.5113,7.12502,13.5282,59.0519,-20.7584,-5.2656,14.323,81.872,11.9186,-1.57999,25.7849,-21.469,10.9519,-28.812,41.2262,-14.2374,0.718856,1.79633
5.84731,16.869,20.5738,-183.154,18.585,177.252,9.69367,-2.87076,-7.39239,2.58796,-4.34118,0.160846,-2.14574,-2.07561,4.78518,-10.5679,-4.43981,-8.47214,18.1806,-3.83499,-1.11687,7.52172,-2.33313,0.67713,-5.60945e-14,4.57205e-15,-41.8543,-9.7979,-73.9775,32.0079,17.0422,-12.9391,1.31163,7.12502,13.1519,-28.2536,-5.60945e-14,4.57205e-15,-24.377,-1.11021,80.1273,33.3595,-4.64917,-12.9848,30.2642,7.12502,13.1078,59.8323,-21.949,-5.0972,14.1408,82.8635,10.0368,-0.97422,24.7371,-20.8431,11.0283,-29.0763,41.8643,-15.4046,0.644393,2.85807
5.85082,16.826,20.4739,-183.419,18.3015,176.985,9.82007,-2.95492,-7.59229,2.78373,-4.45766,0.0155279,-1.98912,-2.13593,4.75529,-10.538,-4.55013,-7.93617,17.9583,-4.02027,-1.56004,7.42627,-2.42386,0.429881,2.24005e-14,4.87022e-15,-41.6362,-10.7891,-73.8522,31.7957,17.3981,-13.3928,1.53138,7.12502,12.7145,-28.0615,2.24005e-14,4.87022e-15,-23.7304,-1.40809,80.0462,33.407,-3.96034,-11.7322,31.2256,7.12502,14.3151,60.7121,-23.1339,-5.20383,13.9782,83.5946,9.51462,-0.655081,28.7443,-20.4459,11.0537,-29.4677,42.4032,-15.9968,1.00532,-1.97216
5.84987,16.7804,20.3814,-183.515,18.1066,176.551,9.8352,-2.96195,-7.89791,2.91792,-4.4796,-0.167078,-1.84265,-2.14876,4.73157,-10.825,-4.74022,-7.78969,18.1282,-4.27781,-1.5774,7.53634,-2.54642,0.366346,-3.49116e-14,-7.15625e-15,-41.3551,-11.9506,-73.6372,31.5701,17.4629,-13.4749,1.22302,7.12502,12.6354,-28.3748,-3.49116e-14,-7.15625e-15,-22.7924,-1.84089,79.9899,32.9776,-3.85647,-12.5385,30.1492,7.12502,13.5381,59.6891,-24.5267,-5.23511,13.6407,84.139,5.0243,-0.203662,19.2725,-20.3651,11.0224,-30.0335,42.9233,-16.6147,1.01541,-2.50254
5.85409,16.7359,20.2825,-183.713,18.1227,176.304,9.93213,-2.97912,-8.21101,2.88896,-4.54158,-0.151379,-1.88997,-2.17665,4.93531,-10.4676,-4.91284,-8.46676,18.2165,-4.48592,-1.16161,7.53952,-2.64996,0.596427,-8.94283e-14,2.18663e-14,-41.3527,-12.537,-73.337,31.317,17.2678,-13.6025,0.337048,7.12502,12.5124,-29.2683,-8.94283e-14,2.18663e-14,-22.5412,-1.58959,80.0601,32.7422,-4.03126,-14.1131,28.8755,7.12502,12.0201,58.5104,-25.6007,-5.00412,13.6296,84.389,1.36256,0.26116,9.9939,-20.0227,11.2564,-30.3247,43.4293,-17.3868,0.946558,-2.94559
5.85661,16.7107,20.1814,-183.902,18.039,176.319,10.0307,-3.12615,-8.28705,2.94356,-4.74366,-0.0134495,-1.83869,-2.28108,5.14423,-10.2832,-4.98992,-9.10372,18.238,-4.53125,-0.90624,7.54257,-2.6883,0.780745,-1.50952e-14,-7.7526e-15,-41.2557,-12.6309,-73.1657,31.1497,17.1677,-13.8767,-0.731623,7.12502,12.248,-30.353,-1.50952e-14,-7.7526e-15,-22.247,-0.885323,80.0387,32.5674,-4.58101,-15.0928,28.2658,7.12502,11.0752,57.9536,-26.3259,-4.69885,13.8185,84.3658,0.964078,-0.0340064,16.1176,-19.7026,11.4167,-30.3396,43.92,-18.0535,1.01452,-4.34685
5.863,16.6788,20.0847,-183.982,17.9833,176.336,10.1043,-3.25732,-8.38442,2.95772,-4.93012,0.0780679,-1.8193,-2.37583,5.31516,-10.4064,-5.02661,-9.16282,18.4982,-4.50354,-1.06025,7.64943,-2.69425,0.737823,-6.09648e-14,-2.38542e-15,-41.1849,-12.9961,-73.0253,30.9221,17.3757,-14.0725,-0.750516,7.12502,12.0592,-30.383,-6.09648e-14,-2.38542e-15,-22.0181,-0.136375,79.8762,32.495,-5.65935,-16.0123,27.6715,7.12502,10.1883,57.4048,-27.0503,-4.17926,14.0012,84.2972,-1.67193,-0.230408,15.6885,-19.547,11.5766,-30.3651,44.3538,-18.5917,1.05408,-5.32705
5.86884,16.6588,19.9846,-183.986,17.8575,176.345,10.0198,-2.72513,-7.73018,3.78868,-4.04476,-0.593331,-1.13127,-1.94417,4.13157,-13.1702,-5.89905,-7.18749,19.5245,-5.85032,-1.27878,8.455,-3.27229,0.114254,3.56322e-14,5.96354e-16,-40.4122,-16.8615,-73.2044,30.5101,17.8667,-14.0563,-0.250891,7.12502,12.0749,-29.8825,3.56322e-14,5.96354e-16,-19.4599,-2.49711,79.5231,32.2062,-5.59954,-16.1014,28.3247,7.12502,10.1024,58.0622,-27.9793,-3.8782,14.2526,84.0085,-3.73558,-0.63293,14.7116,-19.3271,11.8496,-30.3859,44.6671,-19.067,0.996479,-5.62546
5.87062,16.6437,19.8807,-184.184,17.8833,176.089,10.2167,-3.2836,-8.62638,2.98955,-4.99173,0.0983416,-1.81357,-2.40581,5.48306,-10.3188,-5.41722,-9.29788,18.7613,-5.00005,-1.06733,7.7475,-2.94282,0.704517,-1.15028e-13,2.39536e-14,-41.0246,-13.839,-72.8378,30.3312,17.2426,-14.1723,-0.462209,7.12502,11.9629,-30.1004,-1.15028e-13,2.39536e-14,-21.5341,0.343738,79.9411,32.4229,-5.99219,-16.0307,28.4946,7.12502,10.1705,58.2288,-28.8542,-3.55342,14.2352,83.5075,-5.06685,-1.23674,13.0072,-18.8269,12.0471,-30.6711,44.8242,-19.6139,0.947728,-4.24064
5.87014,16.6262,19.7865,-184.197,17.8822,176.102,10.0799,-2.96131,-7.99656,3.59766,-4.41398,-0.432777,-1.28282,-2.12832,4.49044,-11.643,-5.99208,-8.00431,18.9068,-5.96706,-1.10519,8.01547,-3.34867,0.342105,-7.33515e-14,2.16675e-14,-40.4016,-16.7746,-73.0132,29.9593,17.8513,-14.0727,0.0721983,7.12502,12.059,-29.5603,-7.33515e-14,2.16675e-14,-19.6181,-1.28876,79.5945,32.0837,-5.49899,-15.7934,28.8299,7.12502,10.3994,58.5527,-29.8502,-3.28239,14.5262,82.8697,-6.00772,-1.72341,11.8502,-18.4603,12.1543,-30.7046,44.9087,-20.0343,1.01846,-4.27431
5.87411,16.6251,19.694,-184.123,17.8047,176.104,9.96721,-2.93588,-7.85221,3.85099,-4.32279,-0.54894,-0.987654,-2.09022,4.26365,-12.3103,-6.21544,-7.40106,18.9762,-6.29052,-1.43886,8.13319,-3.50251,0.0782592,-1.35422e-14,-1.49089e-14,-39.8558,-18.3909,-72.8801,29.3331,18.7528,-13.7977,1.26833,7.12502,12.3241,-28.3485,-1.35422e-14,-1.49089e-14,-18.6438,-1.37072,79.5271,31.8171,-5.23395,-16.134,28.8029,7.12502,10.0709,58.5419,-30.8217,-3.00249,14.81,82.0148,-6.97114,-2.13747,10.041,-18.2007,12.1813,-30.7225,44.882,-20.2643,0.756582,-3.72749
5.88207,16.6182,19.6004,-184.106,17.6802,175.801,9.90073,-2.99629,-8.19082,3.79773,-4.43383,-0.548741,-0.963501,-2.14945,4.45851,-12.1876,-6.34642,-7.46524,19.0749,-6.42767,-1.56307,8.14792,-3.58139,0.0342673,-8.01351e-14,-1.21259e-14,-39.7581,-18.8038,-72.8807,29.0803,19.17,-13.8037,1.2463,7.12502,12.3184,-28.3708,-8.01351e-14,-1.21259e-14,-18.4453,-1.10162,79.6411,31.6341,-4.99486,-16.7213,28.1374,7.12502,9.50423,57.903,-31.6974,-2.79267,14.6984,81.0517,-8.1897,-2.30585,9.5182,-17.9262,12.2582,-31.0937,44.7148,-20.3134,0.732782,-4.10546
5.88188,16.6101,19.5019,-184.144,17.2437,175.675,9.98857,-3.1352,-8.15284,3.77127,-4.62368,-0.588367,-1.02053,-2.23944,4.41878,-11.8993,-6.53931,-7.71021,19.0636,-6.72485,-1.28321,8.12133,-3.71166,0.140704,-1.44616e-14,-1.63003e-14,-39.626,-18.7982,-73.1503,28.9753,19.0795,-13.677,0.339784,7.12502,12.4405,-29.27,-1.44616e-14,-1.63003e-14,-18.3358,-1.0361,79.766,31.5062,-5.03842,-17.1241,27.9834,7.12502,9.11564,57.7664,-32.1501,-2.90689,14.6934,79.9534,-9.56994,-2.63277,9.77398,-17.3788,12.082,-31.2858,44.4902,-20.4111,0.639321,-3.66975
5.88264,16.6447,19.3992,-184.059,16.9688,175.682,9.97453,-3.24025,-7.99898,3.81,-4.74286,-0.544336,-0.966174,-2.30079,4.38662,-11.9825,-6.70838,-7.96986,19.0455,-6.92632,-1.15921,8.15291,-3.81546,0.196129,1.01604e-13,-2.18663e-14,-39.3472,-18.979,-73.3739,28.8876,19.479,-13.5374,-0.14243,7.12502,12.5751,-29.744,1.01604e-13,-2.18663e-14,-18.0754,-0.892853,80.0059,31.4188,-4.94033,-17.3481,28.0299,7.12502,8.8994,57.8222,-33.2081,-2.85287,14.8917,78.5355,-9.52686,-2.92548,12.1478,-16.8084,11.9263,-31.3371,44.1424,-20.59,0.549386,-2.61623
5.88654,16.6366,19.3085,-183.933,16.7339,175.497,9.84649,-3.29974,-8.26246,3.63084,-4.85993,-0.486708,-1.03954,-2.36119,4.60068,-11.3649,-6.82277,-8.00423,18.8691,-7.11887,-1.19985,7.99048,-3.90616,0.190956,-8.69683e-15,8.84592e-15,-39.4798,-18.6053,-73.588,28.9005,19.3739,-13.3952,0.00696401,7.12502,12.7122,-29.5861,-8.69683e-15,8.84592e-15,-18.3754,-0.777224,80.2881,31.3888,-4.91096,-15.2916,29.8213,7.12502,10.8835,59.5192,-33.9815,-2.8449,14.9742,77.2484,-9.83262,-3.72558,12.315,-16.5293,11.6378,-31.6323,43.8691,-20.7534,0.720198,-1.99371
5.89118,16.6321,19.2141,-183.803,16.4337,175.464,9.95324,-3.53698,-8.51344,3.22978,-5.26101,-0.181411,-1.41121,-2.55318,5.11736,-10.4051,-6.75873,-8.68244,18.7328,-6.96484,-1.16669,7.80294,-3.86019,0.360547,-4.11112e-14,4.8901e-14,-39.8504,-17.221,-73.7244,28.9856,19.3011,-13.4267,0.407346,7.12502,12.6819,-29.1876,-4.11112e-14,4.8901e-14,-19.2012,0.300848,80.5748,31.6192,-5.54698,-15.5131,29.7687,7.12502,10.6698,59.4778,-34.5247,-2.82926,15.1931,75.7912,-10.1358,-4.60359,11.8965,-16.0985,11.2783,-31.7628,43.4931,-20.8304,0.834507,-2.50058
5.8963,16.6533,19.1141,-183.577,16.0299,175.642,10.4407,-4.01773,-9.05455,2.25816,-6.10614,0.669856,-2.42508,-2.93164,6.47599,-8.26061,-6.38774,-10.184,18.3341,-6.28682,-1.44408,7.32797,-3.61171,0.652437,1.45858e-14,-5.96354e-16,-40.6371,-14.3634,-73.3865,29.0867,19.1066,-12.8482,0.655556,7.12502,13.2395,-28.904,1.45858e-14,-5.96354e-16,-21.2033,2.51847,81.2285,31.845,-6.06112,-15.8479,29.4252,7.12502,10.3469,59.1507,-35.0865,-2.98266,15.5786,74.1018,-10.606,-4.86119,9.39926,-15.6153,10.7811,-31.6568,43.0678,-21.0108,0.812994,-2.92287
5.90182,16.6729,19.016,-183.426,15.6958,175.351,9.82576,-3.72631,-8.59028,2.98269,-5.5399,-0.0208467,-1.53629,-2.69046,5.35196,-9.82256,-6.99495,-8.4332,18.4092,-7.29315,-1.65848,7.57611,-4.03339,0.153164,3.46041e-14,1.6027e-14,-39.8004,-16.7623,-74.2079,29.1045,19.5409,-12.4807,1.42031,7.12502,13.5937,-28.1159,3.46041e-14,1.6027e-14,-19.3554,0.334718,81.0973,31.6214,-5.25164,-16.8608,28.1247,7.12502,9.3697,57.8964,-35.7316,-3.09113,15.4673,72.2809,-11.189,-4.80897,5.73358,-15.0612,10.3315,-32.0522,42.4166,-21.004,0.787267,-2.76998
5.90597,16.7135,18.917,-183.305,15.4254,175.479,9.72865,-3.67539,-8.25035,3.14557,-5.41261,-0.0612067,-1.36876,-2.63358,5.09561,-10.3626,-7.29907,-8.0519,18.5924,-7.7033,-1.82858,7.7204,-4.22831,-0.0283792,2.19145e-14,9.82742e-15,-39.4839,-17.2989,-74.5494,29.1196,19.943,-12.2154,2.32117,7.12502,13.8494,-27.1977,2.19145e-14,9.82742e-15,-18.7835,-0.548501,81.3999,31.4103,-4.61343,-17.374,27.7348,7.12502,8.87443,57.5282,-36.0699,-3.12179,15.8229,70.2196,-11.5995,-4.76024,3.06576,-14.3066,9.90525,-31.986,41.6315,-20.8915,0.925847,-3.10041
5.91088,16.7545,18.8102,-183.082,15.181,175.413,9.49119,-3.85196,-8.38129,2.89243,-5.67236,0.127567,-1.4337,-2.7663,5.37801,-9.58314,-7.36026,-8.50596,18.3572,-7.79507,-1.69727,7.53619,-4.27923,0.109064,-5.57839e-15,-9.98893e-15,-39.567,-16.5669,-74.7517,29.1395,20.13,-11.8902,2.72915,7.12502,14.1628,-26.7681,-5.57839e-15,-9.98893e-15,-19.3765,-0.241276,81.791,31.515,-4.49232,-16.4465,28.6051,7.12502,9.76936,58.3584,-36.5435,-3.14178,15.9245,68.0678,-11.8873,-4.57252,3.21282,-13.6481,9.29979,-32.1801,40.7083,-20.8208,1.38864,-3.85326
5.91693,16.7955,18.7078,-182.716,15.0589,175.732,9.43148,-4.24337,-8.5416,2.19069,-6.27954,0.7817,-1.95494,-3.05274,6.23019,-7.45759,-7.1836,-9.92362,17.683,-7.57343,-1.37197,7.01887,-4.19924,0.546051,-1.73191e-14,1.49089e-14,-40.2529,-13.9667,-74.8461,29.6231,19.6965,-11.3258,2.57306,7.12502,14.7066,-26.8853,-1.73191e-14,1.49089e-14,-21.0058,1.07377,82.3796,31.6842,-4.32646,-13.4709,30.2775,7.12502,12.6392,59.8751,-36.955,-2.99703,16.5013,65.7224,-11.7718,-4.56332,1.23341,-13.0766,8.8249,-31.9479,39.7367,-20.6707,1.76084,-4.36994
5.92386,16.8437,18.6069,-182.472,14.6926,175.991,9.25673,-3.9853,-7.84673,2.69476,-5.80699,0.483376,-1.51121,-2.83712,5.45435,-9.22161,-7.88606,-8.57751,18.2858,-8.5748,-1.54086,7.4857,-4.6429,0.104648,5.58585e-14,1.2921e-15,-39.7547,-15.2582,-75.6202,30.094,19.5734,-11.05,2.44532,7.12502,14.9723,-26.9934,5.58585e-14,1.2921e-15,-19.5969,-0.322755,82.4506,31.4557,-4.52323,-16.0918,28.267,7.12502,10.1116,58.004,-37.1136,-3.00276,16.9543,63.258,-11.4643,-4.44051,1.75873,-12.2633,8.21991,-31.7515,38.6507,-20.3547,1.8551,-4.08033
5.93102,16.8954,18.5028,-182.277,14.2246,175.911,9.04679,-4.10846,-7.90087,2.75465,-5.95221,0.535482,-1.29917,-2.92122,5.52633,-9.64183,-7.9322,-8.5107,18.4623,-8.59519,-1.60242,7.61265,-4.65814,0.0510468,7.82963e-14,-3.18055e-15,-39.356,-15.0904,-76.0617,30.1696,19.4863,-10.9598,2.81432,7.12502,15.0592,-26.618,7.82963e-14,-3.18055e-15,-19.4568,-0.0900276,82.6728,31.6123,-5.2911,-15.6148,28.6892,7.12502,10.5718,58.4033,-37.2766,-3.13515,16.9945,60.7303,-10.6445,-4.38161,1.39368,-11.4183,7.53233,-31.9284,37.4687,-20.0274,2.04849,-4.39052
5.93813,16.951,18.3962,-182.03,13.9387,176.01,9.01947,-4.54514,-8.29376,2.1182,-6.62699,1.13199,-1.7323,-3.24388,6.44694,-7.97794,-7.46919,-9.7644,18.0791,-7.86989,-1.58901,7.23674,-4.35722,0.396495,1.42578e-13,1.98785e-16,-39.7886,-12.4224,-76.3299,30.428,18.8896,-10.9681,2.53986,7.12502,15.0513,-26.893,1.42578e-13,1.98785e-16,-20.9516,1.32057,83.2514,31.7977,-4.90231,-14.5848,29.0076,7.12502,11.5652,58.6685,-37.3771,-3.02586,17.2529,58.0977,-9.55508,-4.21698,1.71593,-10.4793,6.95948,-31.8905,36.1401,-19.7274,2.0834,-3.93931
5.94714,16.9991,18.2929,-181.731,13.8489,175.948,8.85215,-4.5289,-8.42672,1.96565,-6.61854,1.25263,-1.7718,-3.23871,6.63924,-7.83146,-7.59164,-9.81057,18.0627,-8.03892,-1.60696,7.21466,-4.44033,0.38697,-1.40143e-14,3.97569e-16,-39.8729,-12.1072,-76.4593,30.537,18.8841,-10.9193,3.44807,7.12502,15.0982,-25.9813,-1.40143e-14,3.97569e-16,-21.2043,0.806505,83.8129,31.8125,-3.4089,-14.5428,28.7403,7.12502,11.6056,58.399,-37.6756,-2.89805,17.4067,55.4667,-8.14476,-4.0413,1.96259,-9.63104,6.52769,-32.0494,34.7219,-19.431,2.30029,-4.32639
5.95564,17.048,18.1918,-181.428,13.523,175.779,8.773,-4.58011,-8.73411,1.75475,-6.7257,1.41149,-1.87565,-3.28586,6.98846,-7.77616,-7.75604,-9.76799,18.0288,-8.24055,-1.78554,7.19331,-4.5467,0.306071,-1.69961e-14,3.97569e-16,-39.9254,-11.5282,-76.6233,30.8429,18.7693,-10.9452,3.3005,7.12502,15.0733,-26.1307,-1.69961e-14,3.97569e-16,-21.6261,0.561884,84.3569,32.0315,-2.67672,-15.122,28.195,7.12502,11.047,57.8842,-37.9252,-3.15153,17.478,52.8361,-6.62191,-4.02284,1.8354,-8.78643,5.93433,-32.3182,33.2921,-19.0593,2.5399,-5.2881
5.9637,17.0881,18.094,-181.19,13.0995,175.707,8.63421,-4.6599,-8.75326,1.65565,-6.83151,1.44162,-1.87825,-3.33832,7.0287,-7.65971,-7.82549,-9.71686,17.9816,-8.34642,-1.83591,7.15694,-4.59607,0.277525,8.69683e-15,-7.55382e-15,-39.9397,-11.4206,-76.8993,31.1186,18.7581,-10.82,3.32609,7.12502,15.1939,-26.096,8.69683e-15,-7.55382e-15,-21.8359,0.658188,84.5482,32.2455,-3.76307,-14.4677,28.0191,7.12502,11.6782,57.6736,-38.0298,-3.32216,17.6304,50.2382,-5.01822,-4.41915,1.01238,-7.86951,5.21206,-32.4818,31.8738,-18.6176,2.75272,-6.03021
