JuanDHNZ/ProyectoFinalCD/preprocessing/sports_trials_csv/17_07.csv
root1,root2,root3,root4,root5,root6,lowerback1,lowerback2,lowerback3,upperback1,upperback2,upperback3,thorax1,thorax2,thorax3,lowerneck1,lowerneck2,lowerneck3,upperneck1,upperneck2,upperneck3,head1,head2,head3,rclavicle1,rclavicle2,rhumerus1,rhumerus2,rhumerus3,rradius1,rwrist1,rhand1,rhand2,rfingers1,rthumb1,rthumb2,lclavicle1,lclavicle2,lhumerus1,lhumerus2,lhumerus3,lradius1,lwrist1,lhand1,lhand2,lfingers1,lthumb1,lthumb2,rfemur1,rfemur2,rfemur3,rtibia1,rfoot1,rfoot2,rtoes1,lfemur1,lfemur2,lfemur3,ltibia1,lfoot1,lfoot2,ltoes1
-11.7911,17.7718,-12.2552,6.2221,-7.97982,-0.325076,3.26374,-2.13898,0.146475,-0.706631,-2.75555,4.10707,-2.3616,-1.35329,4.29857,-8.62204,-9.58047,-8.98321,10.5944,-12.3055,4.65636,5.44532,-6.09417,1.90805,6.09275e-14,-4.13472e-14,-14.0359,-7.89427,-76.7149,78.9951,-8.59031,2.56905,7.37368,7.12502,28.0487,-20.5497,6.09275e-14,-4.13472e-14,-32.4053,13.7677,83.2891,36.2881,-0.43042,-14.2635,13.5671,7.12502,11.875,43.2103,-16.23,2.61207,26.2518,33.3931,-15.6764,-12.2264,12.4736,-9.96347,-5.60455,-19.2919,22.9445,-13.4183,10.9458,-13.8314
-11.7934,17.772,-12.2599,6.16666,-7.87686,-0.267916,3.33836,-2.09769,0.0147077,-0.702995,-2.70573,4.03383,-2.40076,-1.32639,4.29758,-8.6844,-9.64441,-8.96847,10.8189,-12.4193,4.81508,5.54311,-6.13799,1.93492,3.27995e-14,-1.51076e-14,-13.837,-8.01132,-76.6757,78.5614,-5.94758,2.09622,6.41316,7.12502,27.5966,-21.5833,3.27995e-14,-1.51076e-14,-32.1122,13.4145,83.4047,37.3704,0.0656526,-11.162,18.8067,7.12502,14.8644,48.2535,-16.1886,2.51171,26.2145,33.4309,-15.7592,-12.2569,12.209,-9.91914,-5.61735,-19.3344,22.9067,-13.3819,10.835,-13.7945
-11.7975,17.7724,-12.2673,6.13315,-7.74786,-0.28808,3.55352,-2.10682,-0.188297,-0.840811,-2.71659,4.09395,-2.65105,-1.3239,4.49034,-8.40944,-9.65123,-8.9475,10.8945,-12.4517,4.75158,5.51786,-6.16246,1.92093,3.11098e-14,-1.74931e-14,-13.6144,-8.0691,-76.4946,78.0222,-4.3852,2.96746,6.12887,7.12502,28.4295,-21.7316,3.11098e-14,-1.74931e-14,-32.3187,13.2069,83.5798,38.2131,0.587756,-10.6578,19.7717,7.12502,15.3501,49.1819,-16.1507,2.51757,26.2705,33.4339,-15.8286,-12.3185,12.9141,-9.92315,-5.57791,-19.277,22.9073,-13.344,10.6782,-13.751
-11.7975,17.7732,-12.2713,6.09153,-7.59315,-0.313012,3.62019,-2.13699,-0.232677,-0.877001,-2.7563,4.09874,-2.72054,-1.34166,4.52698,-8.31169,-9.72777,-8.86618,10.9142,-12.5634,4.65642,5.50388,-6.22153,1.87344,-2.43511e-14,-1.27222e-14,-12.9974,-8.44883,-76.4276,77.3267,-3.77757,5.00125,6.34431,7.12502,30.3712,-21.1751,-2.43511e-14,-1.27222e-14,-32.4721,12.9133,83.8081,38.7793,1.21272,-11.0145,19.5258,7.12502,15.0065,48.962,-16.1301,2.41329,26.3101,33.4478,-15.8288,-12.2618,13.25,-9.89204,-5.54806,-19.238,22.8812,-13.2591,10.5296,-14.2131
-11.796,17.7731,-12.2685,6.07005,-7.49837,-0.259307,3.46718,-2.11727,-0.22455,-0.789551,-2.7376,3.99868,-2.55071,-1.33622,4.40654,-8.49808,-9.81292,-8.79989,11.0874,-12.6865,4.71503,5.59703,-6.27135,1.85621,-7.35503e-15,1.59028e-14,-12.4041,-8.84083,-76.4883,76.6727,-3.38969,6.60203,6.44045,7.12502,31.8968,-20.7861,-7.35503e-15,1.59028e-14,-32.1807,12.5329,84.0441,39.0561,1.87068,-9.82097,21.7073,7.12502,16.156,51.054,-16.1218,2.22709,26.2454,33.4529,-15.7976,-12.1902,12.7683,-9.87125,-5.51217,-19.3002,22.8673,-13.2385,10.4003,-14.3662
-11.7983,17.7731,-12.2646,6.12161,-7.47255,-0.20625,3.25849,-2.05825,-0.312017,-0.731387,-2.66999,3.92564,-2.37794,-1.30447,4.3647,-8.54203,-9.88543,-8.78279,11.1346,-12.8004,4.82577,5.6331,-6.31796,1.87274,-1.38155e-14,2.70347e-14,-12.1844,-8.94971,-76.4314,76.2856,-3.43433,7.95554,6.51274,7.12502,33.1848,-20.4483,-1.38155e-14,2.70347e-14,-31.7636,12.457,84.1653,39.2361,1.12902,-10.7954,19.8331,7.12502,15.2175,49.2534,-16.1683,2.16628,26.1904,33.453,-15.8094,-12.2374,12.2369,-9.93061,-5.5144,-19.3449,22.863,-13.2762,10.3624,-14.0426
-11.7995,17.7727,-12.262,6.13051,-7.36269,-0.204876,3.27256,-2.08148,-0.475171,-0.803259,-2.70383,4.01807,-2.44561,-1.31697,4.55793,-8.47175,-9.94016,-9.07754,11.2054,-12.8572,4.91838,5.67338,-6.35277,1.93972,1.59028e-15,3.33958e-14,-12.2097,-8.6802,-76.1229,76.0717,-4.46528,9.64523,6.79923,7.12502,34.7898,-19.8057,1.59028e-15,3.33958e-14,-31.7288,12.6582,84.3492,39.5742,0.280642,-10.9922,19.0905,7.12502,15.028,48.5251,-16.1588,2.14797,26.203,33.4481,-15.8298,-12.3261,12.4217,-9.95084,-5.569,-19.3308,22.8747,-13.2713,10.3077,-14.0377
-11.7995,17.77,-12.2601,6.0281,-7.23173,-0.21781,3.53627,-2.11013,-0.642581,-0.941343,-2.73849,4.14106,-2.72024,-1.32518,4.80027,-8.46616,-9.98807,-9.42374,11.4663,-12.8922,4.94661,5.78221,-6.38225,1.98903,4.86029e-14,0,-12.2907,-8.48071,-75.7827,75.8166,-6.16658,11.7911,7.49708,7.12502,36.8231,-18.6129,4.86029e-14,0,-31.8749,12.7703,84.6057,39.9455,0.0246958,-11.3538,19.0428,7.12502,14.6796,48.5031,-16.0138,2.1454,26.2373,33.4326,-15.8481,-12.4365,12.8615,-9.87675,-5.6217,-19.3123,22.9194,-13.2574,10.2343,-14.0862
-11.8022,17.7695,-12.2629,5.97373,-7.17962,-0.286412,3.61099,-2.01482,-0.607472,-0.9149,-2.61036,4.07643,-2.75052,-1.26179,4.70873,-8.69349,-10.1201,-9.40277,11.6873,-13.0785,5.0529,5.90915,-6.45993,1.98243,1.2921e-14,3.49861e-14,-12.4445,-8.85545,-75.6376,75.7063,-8.42656,14.9294,7.39248,7.12502,39.7852,-17.898,1.2921e-14,3.49861e-14,-31.5208,12.4361,84.798,40.1015,-0.163196,-11.4439,19.4225,7.12502,14.5928,48.8892,-15.9335,2.194,26.3388,33.4039,-15.8136,-12.5675,12.8255,-9.88077,-5.58811,-19.2158,22.9963,-13.3041,10.1425,-14.0909
-11.8046,17.7706,-12.2663,5.94832,-7.14758,-0.381583,3.38835,-1.86255,-0.412389,-0.683058,-2.41261,3.88249,-2.41861,-1.17433,4.36836,-9.19502,-10.3339,-9.12433,11.8514,-13.392,5.20426,6.05886,-6.57843,1.92551,5.19822e-14,-4.85035e-14,-12.7181,-9.53468,-75.5979,75.8263,-11.4047,18.2723,6.79351,7.12502,42.9224,-17.4798,5.19822e-14,-4.85035e-14,-30.7586,11.786,84.928,40.1195,-0.186962,-11.5217,19.212,7.12502,14.5179,48.6841,-15.8827,2.21048,26.4617,33.3731,-15.7778,-12.6171,12.7472,-9.89298,-5.46752,-19.0921,23.0699,-13.3442,10.0094,-14.3876
-11.805,17.7704,-12.2674,5.90057,-7.06831,-0.442197,3.25263,-1.80067,-0.314313,-0.588052,-2.33334,3.75754,-2.25942,-1.13963,4.17046,-9.15712,-10.4293,-8.92677,11.7747,-13.5617,5.28387,6.03208,-6.64781,1.90691,2.82274e-14,5.56597e-15,-12.9802,-10.0192,-75.6047,75.8141,-14.4909,20.5321,7.04179,7.12502,45.0305,-16.4458,2.82274e-14,5.56597e-15,-30.3245,11.4236,84.9598,40.1096,-0.317482,-11.7028,18.6743,7.12502,14.3434,48.1588,-15.8049,2.17944,26.5342,33.3552,-15.7074,-12.6158,12.7653,-9.86098,-5.40588,-19.0195,23.098,-13.3208,9.90298,-14.6217
-11.8026,17.7701,-12.2674,5.86052,-6.82552,-0.429899,3.24448,-1.87414,-0.299068,-0.651085,-2.43,3.71184,-2.31522,-1.18703,4.12028,-8.65004,-10.4022,-8.9386,11.5054,-13.5696,5.38937,5.87099,-6.65746,1.97306,-2.47487e-14,1.98785e-14,-13.2251,-10.2896,-75.6611,75.7029,-17.2086,21.5134,7.1249,7.12502,45.9423,-15.9936,-2.47487e-14,1.98785e-14,-30.2159,11.3962,84.9766,40.1445,-0.475311,-9.65208,24.4136,7.12502,16.3187,53.747,-15.7722,1.96183,26.5288,33.3634,-15.631,-12.6565,12.3419,-9.83245,-5.48579,-19.0157,23.0557,-13.3209,9.70286,-14.4194
-11.8012,17.7699,-12.264,5.80638,-6.59302,-0.307466,3.10047,-1.97115,-0.397929,-0.626184,-2.56764,3.66771,-2.19625,-1.25659,4.12947,-8.30927,-10.4264,-9.16062,11.2701,-13.623,5.62052,5.77592,-6.68583,2.09316,3.12092e-14,-1.90833e-14,-13.5034,-9.84717,-75.8952,76.3356,-21.7497,19.3131,3.9374,7.12502,43.8946,-19.9847,3.12092e-14,-1.90833e-14,-30.0447,11.4906,85.065,40.329,-0.465368,-10.4791,22.7729,7.12502,15.5222,52.1698,-15.7232,1.7429,26.4038,33.3773,-15.6923,-12.6995,12.2677,-9.77587,-5.58346,-19.1367,23.0043,-13.343,9.52531,-14.1364
-11.8033,17.7707,-12.259,5.76042,-6.41955,-0.159425,2.92849,-1.9934,-0.589047,-0.55335,-2.61039,3.61108,-2.01558,-1.27909,4.17047,-8.12444,-10.5584,-9.29713,11.0493,-13.8094,5.76604,5.70962,-6.77721,2.1524,9.0447e-14,-1.35174e-14,-13.6481,-10.044,-76.0175,76.4526,-24.6719,17.1389,3.42324,7.12502,41.861,-21.2132,9.0447e-14,-1.35174e-14,-29.7822,11.4411,85.2447,40.7008,-0.367366,-10.0545,23.4697,7.12502,15.9311,52.8345,-15.6518,1.63179,26.2565,33.3698,-15.8264,-12.7242,12.7595,-9.75002,-5.65103,-19.2841,23.0005,-13.331,9.43298,-14.0636
-11.8056,17.7699,-12.258,5.70883,-6.2797,-0.282193,2.96936,-1.90917,-0.460135,-0.455835,-2.49599,3.54449,-1.95516,-1.22522,4.02276,-8.35252,-10.7328,-9.15459,11.0788,-14.0458,5.76517,5.7643,-6.88079,2.09382,5.96354e-15,-8.74653e-15,-13.7283,-10.8627,-76.1498,76.2266,-26.9169,15.2025,4.26713,7.12502,40.0422,-20.9462,5.96354e-15,-8.74653e-15,-29.3136,11.0756,85.4581,41.0262,-0.449064,-9.36486,24.4431,7.12502,16.5952,53.7536,-15.5565,1.63477,26.4223,33.3399,-15.8715,-12.8508,13.2454,-9.7359,-5.67908,-19.1238,23.0379,-13.3359,9.33101,-14.0514
-11.807,17.7671,-12.2594,5.66186,-6.24169,-0.550159,3.04407,-1.81654,-0.143369,-0.347505,-2.36288,3.48612,-1.9104,-1.1636,3.77805,-8.68381,-10.8403,-9.08899,11.1998,-14.1935,5.8752,5.87208,-6.93418,2.08096,-6.40087e-14,-3.18055e-15,-13.904,-11.6019,-76.3663,76.1771,-29.2321,12.092,5.24764,7.12502,37.1077,-20.7889,-6.40087e-14,-3.18055e-15,-28.7375,10.7998,85.5851,41.0543,-0.70387,-10.2753,23.4623,7.12502,15.7185,52.8439,-15.4699,1.8,26.7408,33.2944,-15.8197,-13.0307,13.6776,-9.72041,-5.61711,-18.8108,23.1018,-13.3912,9.23766,-14.0161
-11.8089,17.766,-12.2608,5.63237,-6.22624,-0.600043,3.04009,-1.79522,-0.124633,-0.300769,-2.33561,3.45326,-1.86396,-1.15114,3.73083,-8.58449,-10.8809,-9.18644,11.039,-14.2594,6.04864,5.82996,-6.96199,2.14966,-1.26228e-14,-3.02153e-14,-14.1574,-12.057,-76.5561,76.2045,-31.3952,8.22787,6.04254,7.12502,33.4437,-20.863,-1.26228e-14,-3.02153e-14,-28.4062,10.7803,85.6456,41.1159,-0.683803,-8.38429,29.5865,7.12502,17.539,58.8154,-15.4177,1.92722,26.8075,33.2512,-15.7808,-13.1568,13.7592,-9.72537,-5.54043,-18.7464,23.1741,-13.4573,9.1724,-14.0433
-11.8112,17.7675,-12.264,5.63827,-6.15018,-0.540187,3.05894,-1.83684,-0.266766,-0.342939,-2.39535,3.43753,-1.9089,-1.17879,3.79902,-8.30723,-10.8805,-9.27015,10.8363,-14.2724,6.13275,5.73342,-6.9741,2.20583,2.27608e-14,-3.26007e-14,-14.373,-12.4664,-76.7883,76.0689,-33.3846,4.31698,6.42635,7.12502,29.7183,-21.2116,2.27608e-14,-3.26007e-14,-28.3667,10.8222,85.6815,41.4578,-0.462008,-8.30882,29.4234,7.12502,17.6117,58.6458,-15.4369,1.92218,26.7586,33.2372,-15.7674,-13.2401,13.5598,-9.77192,-5.59997,-18.7963,23.2159,-13.464,9.15854,-13.9968
-11.8105,17.769,-12.2683,5.68164,-5.91177,-0.443805,3.11564,-1.93333,-0.402688,-0.482313,-2.52507,3.42593,-2.07013,-1.23905,3.87542,-8.15637,-10.8907,-9.32493,10.816,-14.2815,6.05808,5.70101,-6.98916,2.1988,-1.45113e-14,7.95139e-15,-14.5804,-12.962,-77.0212,75.7395,-35.2211,0.560642,6.59597,7.12502,26.1273,-21.6265,-1.45113e-14,7.95139e-15,-28.5717,10.8462,85.7632,41.9622,-0.314717,-8.55082,29.3302,7.12502,17.3788,58.5732,-15.5371,1.7188,26.6729,33.2619,-15.7531,-13.3,13.3332,-9.88018,-5.75062,-18.8705,23.2032,-13.4111,9.05093,-13.99
-11.8095,17.7669,-12.2723,5.71792,-5.73432,-0.405117,3.18597,-2.00935,-0.537387,-0.59752,-2.62709,3.48025,-2.21271,-1.2853,4.01878,-8.12992,-10.9239,-9.40498,10.8107,-14.2997,5.92332,5.69205,-7.01014,2.16899,-4.76089e-14,1.98785e-14,-14.6617,-13.5543,-77.1953,75.1778,-36.4067,-2.63928,6.66856,7.12502,23.0601,-21.9717,-4.76089e-14,1.98785e-14,-28.778,10.9368,85.9197,42.4298,-0.0452697,-8.8679,29.7034,7.12502,17.0736,58.9731,-15.6007,1.58725,26.6471,33.2894,-15.7785,-13.3305,13.3973,-9.98244,-5.74324,-18.8822,23.1891,-13.3529,8.89882,-14.3736
-11.8113,17.7649,-12.2757,5.75789,-5.68894,-0.471523,3.20118,-2.048,-0.669226,-0.641951,-2.68071,3.59521,-2.25179,-1.30899,4.21717,-8.01944,-10.9189,-9.44512,10.7234,-14.272,5.77104,5.63564,-7.0106,2.13989,-1.51076e-14,-1.66979e-14,-14.6929,-14.2998,-77.3176,74.4676,-36.9695,-4.81663,6.88551,7.12502,20.9696,-22.0009,-1.51076e-14,-1.66979e-14,-28.7844,11.0406,86.0879,42.659,0.217512,-9.18078,30.4595,7.12502,16.7724,59.755,-15.6434,1.66311,26.7389,33.3069,-15.8157,-13.3805,13.5626,-10.0615,-5.64218,-18.7792,23.176,-13.3447,8.79352,-14.7802
-11.8135,17.7648,-12.2791,5.76037,-5.6222,-0.571233,3.19543,-2.07172,-0.717454,-0.664717,-2.71267,3.66107,-2.26425,-1.32367,4.31485,-7.77213,-10.9204,-9.43565,10.6047,-14.2744,5.643,5.54723,-7.02536,2.11644,-4.23411e-14,5.56597e-15,-14.7574,-15.2733,-77.4621,73.6495,-37.3918,-5.99174,7.00966,7.12502,19.8403,-21.9977,-4.23411e-14,5.56597e-15,-28.6663,10.9953,86.1859,42.6445,0.300487,-9.34199,31.0055,7.12502,16.6172,60.3141,-15.6682,1.7312,26.872,33.3189,-15.7169,-13.5306,13.269,-10.0642,-5.64917,-18.6443,23.1306,-13.3353,8.72284,-14.954
-11.8158,17.7666,-12.2756,5.68132,-5.57668,-0.676727,3.16401,-2.08859,-0.665867,-0.646986,-2.73377,3.67079,-2.22857,-1.33559,4.29476,-7.57804,-10.9273,-9.53314,10.5465,-14.2856,5.6345,5.50417,-7.03956,2.13875,-7.95139e-15,1.19271e-14,-14.7109,-16.2767,-77.7163,72.7365,-37.8858,-7.01175,6.37919,7.12502,18.8595,-22.7265,-7.95139e-15,1.19271e-14,-28.5794,10.9459,86.2137,42.6508,0.332681,-9.29374,30.9974,7.12502,16.6637,60.3021,-15.4572,1.90996,26.9375,33.3124,-16.1804,-13.2733,15.9783,-9.91577,-5.68748,-18.5324,23.0802,-13.3002,8.68826,-14.8031
-11.817,17.7695,-12.263,5.61781,-5.5074,-0.64472,3.08946,-2.15434,-0.746475,-0.668615,-2.82512,3.68422,-2.1973,-1.38048,4.3554,-7.59964,-10.8439,-9.67744,10.7604,-14.1482,5.51935,5.56651,-6.98448,2.13186,2.5345e-14,-1.59028e-14,-14.7583,-17.0155,-77.9246,71.9075,-38.4614,-8.2251,5.30151,7.12502,17.6922,-23.9136,2.5345e-14,-1.59028e-14,-28.6935,10.9798,86.2827,42.8205,0.542138,-9.61566,30.3162,7.12502,16.3537,59.6467,-15.2128,1.93825,26.8325,33.2981,-16.8369,-12.8206,19.0241,-9.76016,-5.6895,-18.5867,23.0319,-13.3418,8.60782,-14.6287
-11.8165,17.7678,-12.2585,5.63998,-5.3644,-0.580472,3.07877,-2.26328,-0.882403,-0.760982,-2.9735,3.71419,-2.26624,-1.45077,4.47225,-7.69244,-10.7266,-9.71137,11.0388,-13.9603,5.30134,5.64178,-6.9058,2.07806,-4.00551e-14,6.20208e-14,-14.9399,-17.5824,-78.0702,71.1019,-38.6417,-9.39816,4.42625,7.12502,16.5631,-24.8869,-4.00551e-14,6.20208e-14,-28.8208,11.0725,86.346,42.9126,0.792751,-10.4425,28.723,7.12502,15.5575,58.1172,-15.2994,1.60492,26.819,33.2773,-16.364,-13.1693,16.2283,-9.76491,-5.76657,-18.6487,22.9874,-13.3771,8.54746,-14.8712
-11.8154,17.765,-12.2606,5.70529,-5.26981,-0.589872,3.00855,-2.28873,-0.892798,-0.802507,-3.00834,3.68048,-2.26795,-1.46772,4.44234,-7.65253,-10.705,-9.64096,11.1595,-13.9412,5.23898,5.66206,-6.89857,2.05034,4.1546e-14,-2.38542e-15,-15.011,-18.4614,-78.2484,70.142,-38.2679,-10.4078,3.53902,7.12502,15.5909,-25.8526,4.1546e-14,-2.38542e-15,-28.8209,11.0619,86.3467,42.9307,0.718081,-10.8107,26.6903,7.12502,15.2028,56.1118,-15.4621,1.36726,26.8902,33.2461,-15.7463,-13.5651,12.9707,-9.85369,-5.83721,-18.6217,22.9728,-13.3613,8.53237,-15.0598
-11.8139,17.7638,-12.2585,5.70643,-5.25014,-0.628587,2.94436,-2.25402,-0.825778,-0.80131,-2.9616,3.59625,-2.24218,-1.44603,4.31164,-7.71917,-10.7508,-9.54816,11.3641,-14.0222,5.25948,5.73829,-6.93137,2.02615,2.70347e-14,2.8625e-14,-15.075,-19.4402,-78.3984,69.0636,-37.387,-11.2411,2.52909,7.12502,14.7882,-26.9233,2.70347e-14,2.8625e-14,-28.862,10.8393,86.354,43.0016,0.881729,-10.6634,25.272,7.12502,15.3448,54.6827,-15.4339,1.29153,26.921,33.2104,-15.7995,-13.5013,13.0746,-9.84386,-5.80801,-18.5861,22.998,-13.3508,8.49161,-15.2403
-11.8136,17.7635,-12.2575,5.65618,-5.21148,-0.688224,3.03246,-2.30324,-0.83075,-0.850964,-3.02518,3.60907,-2.33689,-1.47569,4.33659,-7.89225,-10.7451,-9.55632,11.6136,-14.002,5.20427,5.8409,-6.92151,1.99685,1.88845e-15,5.56597e-15,-15.2223,-19.9359,-78.4406,67.922,-35.9922,-11.6624,1.75786,7.12502,14.3823,-27.7239,1.88845e-15,5.56597e-15,-28.98,10.7697,86.3891,42.9897,1.45365,-10.885,25.1011,7.12502,15.1313,54.528,-15.3472,1.25211,26.9839,33.1866,-15.923,-13.4208,14.0692,-9.77797,-5.8147,-18.5217,23.0162,-13.3283,8.4578,-15.3836
-11.8145,17.7645,-12.2578,5.66082,-5.22562,-0.70362,3.03676,-2.3917,-0.996918,-0.917749,-3.14679,3.70768,-2.38423,-1.53224,4.54081,-7.8813,-10.6681,-9.71449,11.7231,-13.8782,5.16606,5.87321,-6.87079,2.0186,-3.3694e-14,-7.15625e-15,-15.2917,-20.0429,-78.4111,66.5818,-34.1901,-11.7342,1.35229,7.12502,14.3131,-28.1344,-3.3694e-14,-7.15625e-15,-29.0797,11.0005,86.4282,42.8459,1.63756,-11.1798,25.7301,7.12502,14.8473,55.1781,-15.3386,1.29239,27.005,33.1671,-15.9139,-13.4108,14.4882,-9.80331,-5.8903,-18.4984,23.0355,-13.3428,8.52647,-15.0383
-11.8135,17.7634,-12.2573,5.6667,-5.2798,-0.689541,2.98577,-2.44168,-1.18839,-0.964346,-3.21912,3.80151,-2.38188,-1.56476,4.74876,-7.84168,-10.586,-9.93407,11.8601,-13.7496,5.17178,5.91648,-6.81829,2.06398,-9.64106e-15,-9.54166e-15,-15.332,-20.0994,-78.3075,65.0452,-31.9559,-12.1336,1.23556,7.12502,13.9283,-28.2779,-9.64106e-15,-9.54166e-15,-29.0977,11.2122,86.5115,42.6027,1.39282,-11.1641,25.9581,7.12502,14.8624,55.405,-15.3474,1.26013,26.9827,33.1354,-15.8295,-13.4115,13.5879,-9.84075,-5.91334,-18.5251,23.0905,-13.4133,8.59937,-14.7334
-11.8125,17.7628,-12.2616,5.69819,-5.29757,-0.77517,3.03039,-2.44417,-1.25284,-0.99296,-3.2225,3.88543,-2.42803,-1.56389,4.87644,-8.09531,-10.576,-10.0465,12.1311,-13.7001,5.11301,6.04493,-6.79769,2.04709,2.29596e-14,-2.38542e-14,-15.4163,-20.1624,-78.1641,63.6067,-29.6179,-13.1383,0.801033,7.12502,12.9599,-28.7765,2.29596e-14,-2.38542e-14,-28.9948,11.3214,86.6059,42.3525,0.947584,-10.7701,27.2904,7.12502,15.242,56.7089,-15.4012,1.24619,27.0833,33.1182,-15.7157,-13.4619,12.8035,-9.89745,-5.83749,-18.4284,23.1403,-13.429,8.55582,-14.9223
-11.8125,17.7638,-12.2683,5.76714,-5.36118,-0.911919,3.0121,-2.40641,-1.17888,-0.961401,-3.16973,3.89238,-2.3936,-1.5396,4.83753,-8.12072,-10.6628,-9.89374,11.9994,-13.8072,4.96252,5.99371,-6.85218,1.96962,-1.81888e-14,6.67916e-14,-15.5388,-20.089,-78.0968,62.3238,-27.4119,-14.1968,0.0417012,7.12502,11.9393,-29.5978,-1.81888e-14,6.67916e-14,-28.8287,11.3316,86.6088,42.1273,0.426481,-12.7327,22.3298,7.12502,13.3509,51.882,-15.5046,1.39145,27.2441,33.1301,-15.5875,-13.5548,12.7224,-9.98414,-5.79932,-18.267,23.1564,-13.3839,8.58372,-15.0073
-11.8091,17.7635,-12.2717,5.78266,-5.45924,-0.865343,2.91483,-2.37689,-1.189,-0.912922,-3.13435,3.80576,-2.29628,-1.52456,4.74443,-7.60415,-10.726,-9.70009,11.4114,-13.9313,4.89198,5.71174,-6.91925,1.95076,3.22031e-14,1.51076e-14,-15.7466,-19.8298,-78.0309,60.9799,-24.9928,-14.8577,-0.369456,7.12502,11.302,-30.0449,3.22031e-14,1.51076e-14,-28.6836,11.2413,86.5675,41.7743,0.0852337,-12.1608,22.0451,7.12502,13.9021,51.5604,-15.5645,1.46213,27.1741,33.167,-15.5882,-13.5452,12.7836,-9.99763,-5.83804,-18.336,23.1267,-13.3638,8.70793,-14.9015
-11.8067,17.7645,-12.2726,5.77672,-5.51483,-0.715737,2.85393,-2.36656,-1.34592,-0.886133,-3.12941,3.72033,-2.23123,-1.52186,4.73961,-7.55888,-10.7105,-9.64819,11.3618,-13.923,4.92195,5.68641,-6.91219,1.95715,-2.18663e-15,2.14687e-14,-15.8854,-19.4988,-77.9591,59.3988,-21.8473,-15.1382,-0.541909,7.12502,11.0314,-30.232,-2.18663e-15,2.14687e-14,-28.5933,11.1419,86.5225,41.3891,-0.0933873,-13.0244,21.6901,7.12502,13.0697,51.2606,-15.5743,1.48856,26.994,33.2069,-15.7507,-13.4947,13.0765,-9.98218,-5.83425,-18.5109,23.0694,-13.3744,8.73987,-14.8648
-11.8069,17.7666,-12.2708,5.79889,-5.5628,-0.65572,2.80144,-2.34471,-1.43268,-0.890293,-3.10516,3.64546,-2.20774,-1.50926,4.70703,-7.93044,-10.6826,-9.55764,11.7913,-13.8813,4.92017,5.87411,-6.8808,1.91682,-6.26172e-15,-3.18055e-15,-16.0273,-19.1901,-77.8755,57.6465,-18.09,-15.026,-0.786291,7.12502,11.1397,-30.4706,-6.26172e-15,-3.18055e-15,-28.6031,11.0291,86.4319,41.0111,-0.437982,-13.0361,22.1104,7.12502,13.0584,51.6816,-15.5892,1.5386,26.9235,33.2217,-15.8314,-13.4631,13.3867,-9.98328,-5.78137,-18.5775,23.0122,-13.3445,8.74259,-14.9613
-11.8049,17.7658,-12.2679,5.82322,-5.63011,-0.727151,2.70262,-2.27696,-1.32503,-0.866206,-3.01293,3.56638,-2.14535,-1.46631,4.55444,-7.98951,-10.7187,-9.3809,11.8517,-13.9594,4.97674,5.89991,-6.90632,1.896,3.73715e-14,-3.10104e-14,-16.3356,-18.8239,-77.7023,56.0329,-14.6632,-14.9059,-0.682819,7.12502,11.2555,-30.3609,3.73715e-14,-3.10104e-14,-28.4934,10.8547,86.3309,40.5013,-1.19659,-12.9084,22.8526,7.12502,13.1815,52.4159,-15.6116,1.49919,26.9888,33.1899,-15.6803,-13.4454,12.8659,-9.96563,-5.70084,-18.5151,22.9827,-13.2781,8.76548,-15.2853
-11.8007,17.7648,-12.2648,5.82259,-5.67724,-0.862131,2.57251,-2.22467,-1.13508,-0.763706,-2.93999,3.51602,-1.98499,-1.4364,4.38231,-8.02811,-10.7824,-9.19131,11.6534,-14.0685,5.05453,5.84336,-6.94562,1.88427,-4.18442e-14,2.22639e-14,-16.5284,-18.377,-77.5755,54.4806,-11.5443,-14.8373,-0.218205,7.12502,11.3217,-29.8926,-4.18442e-14,2.22639e-14,-28.2804,10.7328,86.2466,40.0173,-1.85498,-13.3416,22.3154,7.12502,12.7639,51.9053,-15.5658,1.43723,27.1157,33.1144,-15.6028,-13.397,12.4402,-9.92026,-5.62227,-18.3952,23.0065,-13.348,8.75261,-15.3733
-11.7968,17.7653,-12.2612,5.7608,-5.73555,-0.924833,2.59055,-2.20892,-1.06145,-0.70536,-2.9181,3.48114,-1.94226,-1.4278,4.30271,-8.19547,-10.8167,-9.08545,11.618,-14.1195,5.10578,5.85973,-6.95908,1.87113,-2.99171e-14,0,-16.644,-18.0648,-77.455,52.7389,-8.21087,-14.2241,0.229836,7.12502,11.913,-29.4112,-2.99171e-14,0,-28.2254,10.7646,86.1359,39.5668,-2.26954,-14.723,18.742,7.12502,11.4319,48.4103,-15.4352,1.46004,27.1644,33.0369,-15.6949,-13.3197,12.9177,-9.8291,-5.59441,-18.3614,23.0548,-13.5086,8.76764,-15.2357
-11.7951,17.766,-12.2605,5.73771,-5.82386,-0.945155,2.6208,-2.18127,-1.0667,-0.717826,-2.88128,3.45509,-1.97614,-1.40872,4.27913,-8.11463,-10.8568,-9.12081,11.4796,-14.1889,5.24069,5.82007,-6.98763,1.91772,-1.47101e-14,7.95139e-15,-16.9089,-17.7275,-77.2525,50.9546,-4.62828,-13.4586,0.836745,7.12502,12.6511,-28.7601,-1.47101e-14,7.95139e-15,-28.1633,10.8881,86.0209,38.9661,-2.77959,-13.0143,24.7953,7.12502,13.0794,54.3651,-15.3841,1.58234,27.1779,32.9879,-15.7363,-13.3229,13.3,-9.8046,-5.55788,-18.3504,23.0718,-13.5575,8.80581,-15.4535
-11.7931,17.7666,-12.2606,5.76356,-5.86012,-0.928077,2.59072,-2.20078,-1.1657,-0.77253,-2.9092,3.4996,-2.00622,-1.42025,4.38259,-7.8065,-10.8686,-9.26362,11.1616,-14.2079,5.31053,5.68562,-7.00578,1.98238,1.98785e-14,-1.03368e-14,-17.2178,-17.1056,-77.0063,49.1865,-0.868931,-13.1455,1.46177,7.12502,12.9529,-28.1162,1.98785e-14,-1.03368e-14,-28.2136,11.238,85.9484,38.4226,-3.37437,-10.0965,30.1979,7.12502,15.8907,59.5659,-15.4184,1.62429,27.1493,32.9725,-15.7927,-13.3167,13.431,-9.82888,-5.55047,-18.3708,23.0473,-13.5331,8.85076,-15.6827
-11.7887,17.7652,-12.2576,5.68055,-5.83204,-0.898689,2.71567,-2.24437,-1.25911,-0.818505,-2.96831,3.5456,-2.11179,-1.44614,4.49298,-7.65738,-10.8549,-9.3089,11.0063,-14.179,5.23495,5.60764,-7.00189,1.98128,-5.86415e-15,3.97569e-15,-17.4703,-16.6888,-76.7493,47.2839,2.83639,-12.5832,2.03564,7.12502,13.4949,-27.5071,-5.86415e-15,3.97569e-15,-28.4933,11.6046,85.8623,38.1325,-3.90393,-12.0693,26.1205,7.12502,13.9902,55.6298,-15.3218,1.49792,27.0965,32.9619,-15.8596,-13.1995,13.5602,-9.72944,-5.54307,-18.4218,23.0354,-13.5501,8.8074,-15.5593
-11.782,17.7653,-12.2556,5.6694,-5.85251,-0.901577,2.78094,-2.25919,-1.24146,-0.840602,-2.98646,3.55436,-2.1701,-1.45413,4.4968,-7.59916,-10.8046,-9.34785,10.9029,-14.1128,5.28489,5.56721,-6.96961,2.01458,-3.8763e-15,1.59028e-14,-17.5536,-16.501,-76.5764,45.2917,6.3893,-11.6,2.50466,7.12502,14.4425,-26.9728,-3.8763e-15,1.59028e-14,-28.679,11.889,85.7322,37.8077,-4.24297,-13.126,23.7963,7.12502,12.9717,53.373,-15.2887,1.38597,27.0658,32.9255,-15.7783,-13.0708,13.5679,-9.72365,-5.52964,-18.4427,23.0535,-13.5688,8.76605,-15.4805
-11.7762,17.7688,-12.2587,5.79713,-5.94917,-0.957582,2.72372,-2.1921,-1.13348,-0.824737,-2.89407,3.51979,-2.13655,-1.41019,4.39298,-7.79646,-10.8178,-9.32884,10.8688,-14.1325,5.42912,5.59995,-6.96523,2.04336,-2.68359e-15,-2.38542e-15,-17.5597,-16.478,-76.4897,43.4569,9.5359,-10.9194,2.65746,7.12502,15.0981,-26.7719,-2.68359e-15,-2.38542e-15,-28.5258,12.1124,85.5595,37.1283,-4.59037,-10.3012,28.6862,7.12502,15.6936,58.0698,-15.3997,1.4087,27.095,32.8451,-15.7083,-12.9878,13.7228,-9.87452,-5.51397,-18.3941,23.0902,-13.5742,8.78595,-15.1848
-11.7731,17.7712,-12.2553,5.85639,-5.99864,-1.08189,2.58692,-2.08196,-0.870599,-0.717116,-2.74307,3.39167,-1.97972,-1.34204,4.09602,-8.29654,-10.9253,-9.04183,10.9969,-14.2804,5.4537,5.71488,-7.01267,1.96379,3.06128e-14,-1.51076e-14,-17.7216,-16.7139,-76.4397,41.7871,12.2557,-10.1094,2.94005,7.12502,15.8783,-26.4289,3.06128e-14,-1.51076e-14,-28.2276,11.9981,85.3425,36.3533,-4.95673,-8.89643,30.8177,7.12502,17.0461,60.0898,-15.3932,1.38703,27.2079,32.7808,-15.7701,-12.8604,13.975,-9.91535,-5.42596,-18.2692,23.1324,-13.6462,8.72985,-14.8399
-11.7663,17.7709,-12.2345,5.82394,-5.94734,-1.19866,2.32758,-2.06378,-0.566732,-0.611516,-2.71535,3.30062,-1.74585,-1.33611,3.81458,-8.54108,-10.9519,-8.8567,11.0905,-14.3162,5.39291,5.7694,-7.02082,1.89949,1.35174e-14,1.59028e-14,-18.0076,-16.7509,-76.3387,40.171,14.6829,-8.8335,3.34687,7.12502,17.1067,-25.92,1.35174e-14,1.59028e-14,-28.1761,11.8002,85.1878,35.8392,-5.27902,-9.01028,32.3682,7.12502,16.9365,61.6498,-15.2051,1.0474,27.2878,32.7308,-15.869,-12.5963,13.7732,-9.78266,-5.3426,-18.1942,23.1562,-13.7725,8.65614,-14.8678
-11.7676,17.7699,-12.256,5.7603,-6.05674,-1.06641,2.73966,-2.03084,-0.845356,-0.701627,-2.67429,3.30215,-2.06014,-1.30723,3.99266,-8.39462,-10.9006,-8.90963,11.0374,-14.2453,5.36443,5.72504,-6.99388,1.9154,-2.78299e-14,-1.98785e-14,-18.2756,-16.6402,-76.1952,38.5928,16.697,-7.87537,3.51294,7.12502,18.0288,-25.6715,-2.78299e-14,-1.98785e-14,-28.2492,11.9261,85.0646,35.2597,-5.59152,-9.87737,32.153,7.12502,16.1017,61.504,-15.2574,1.56687,27.1903,32.7188,-15.6223,-13.0516,13.8761,-9.84956,-5.29996,-18.31,23.1627,-13.6354,8.70381,-14.7216
-11.7645,17.7693,-12.2643,5.81215,-6.10634,-0.981092,2.80479,-2.04166,-0.952261,-0.7456,-2.69143,3.2908,-2.1364,-1.31293,4.04606,-8.21268,-10.8676,-9.00998,10.8447,-14.2073,5.46862,5.64663,-6.97762,1.9801,-6.75868e-15,2.46493e-14,-18.3602,-16.7598,-76.1361,36.7866,18.3981,-7.3069,3.87243,7.12502,18.5756,-25.2607,-6.75868e-15,2.46493e-14,-28.2119,12.2967,84.867,34.4536,-5.79721,-10.3175,31.0076,7.12502,15.6779,60.3924,-15.3776,1.72219,27.0923,32.7199,-15.5168,-13.197,13.9954,-9.96986,-5.32548,-18.3985,23.1729,-13.5796,8.74187,-14.3047
-11.7597,17.7685,-12.2651,5.85541,-6.15932,-0.960251,2.7336,-2.02741,-0.93695,-0.715762,-2.67373,3.25068,-2.06958,-1.30576,3.991,-8.15152,-10.8423,-8.99669,10.6273,-14.1832,5.57718,5.57357,-6.96083,2.02251,-2.29596e-14,7.95139e-16,-18.4471,-17.2528,-76.0488,34.8393,19.9397,-6.86737,4.43414,7.12502,18.9984,-24.658,-2.29596e-14,7.95139e-16,-28.1305,12.5913,84.6648,33.6655,-6.08445,-10.7022,30.5845,7.12502,15.3074,59.998,-15.421,1.73763,27.0459,32.7522,-15.5712,-13.2006,13.2676,-10.0038,-5.44344,-18.4413,23.1732,-13.6119,8.86192,-14.0391
-11.7565,17.7687,-12.2669,5.82893,-6.17664,-0.996943,2.78969,-2.0195,-0.901769,-0.689115,-2.66199,3.24984,-2.07616,-1.30049,3.97153,-8.13732,-10.7834,-8.89829,10.5255,-14.1046,5.52545,5.52267,-6.92289,2.00456,2.98177e-15,-3.02153e-14,-18.7581,-17.7783,-75.8674,33.2297,21.0173,-6.48709,4.86237,7.12502,19.3641,-24.1935,2.98177e-15,-3.02153e-14,-28.1208,12.9056,84.4625,32.9335,-6.55079,-10.6325,30.7978,7.12502,15.3745,60.2061,-15.3827,1.79114,27.074,32.7716,-15.6931,-13.2148,13.0407,-9.94163,-5.47395,-18.4198,23.156,-13.6387,8.90969,-14.3387
-11.7524,17.7695,-12.2654,5.839,-6.15811,-0.938056,2.77576,-2.08014,-0.961186,-0.708522,-2.74456,3.26973,-2.07844,-1.34077,4.02888,-8.02204,-10.7132,-8.94138,10.4297,-13.9995,5.45597,5.464,-6.88055,2.00928,1.69961e-14,-2.22639e-14,-19.1523,-18.222,-75.6329,31.8255,21.7161,-6.18286,5.97234,7.12502,19.6566,-23.0539,1.69961e-14,-2.22639e-14,-28.2076,13.4705,84.2061,32.2086,-6.83275,-10.2273,30.663,7.12502,15.7647,60.041,-15.4043,1.78713,26.9896,32.7897,-15.7658,-13.1777,13.5756,-9.9355,-5.41278,-18.4999,23.1536,-13.6024,8.85866,-15.1204
-11.7488,17.7681,-12.2619,5.85973,-6.17897,-0.809787,2.74405,-2.12896,-1.11553,-0.753226,-2.81459,3.28269,-2.09338,-1.37315,4.13199,-7.93793,-10.645,-9.06988,10.3947,-13.8905,5.41195,5.4373,-6.83692,2.03078,-2.97183e-14,-2.54444e-14,-19.5585,-19.0117,-75.3237,30.365,22.5615,-6.12665,7.09579,7.12502,19.7106,-21.9249,-2.97183e-14,-2.54444e-14,-28.346,14.1362,83.9203,31.5032,-6.91759,-10.7796,30.3034,7.12502,15.2328,59.7226,-15.404,1.81194,26.8267,32.7981,-15.8667,-13.1501,14.1575,-9.97066,-5.34715,-18.654,23.1802,-13.5941,8.80815,-15.3092
-11.7481,17.7649,-12.2596,5.83223,-6.22922,-0.787325,2.76202,-2.10844,-1.15208,-0.722524,-2.7892,3.27365,-2.07257,-1.3607,4.14211,-8.21306,-10.64,-9.04408,10.5469,-13.8581,5.32421,5.52005,-6.81917,1.98518,2.78299e-15,-1.11319e-14,-19.8807,-20.3291,-75.049,28.9938,23.3988,-5.93189,7.35656,7.12502,19.8978,-21.6448,2.78299e-15,-1.11319e-14,-28.3499,14.6578,83.6474,30.8035,-7.10553,-6.16998,39.0368,7.12502,19.6689,68.0617,-15.3244,1.96254,26.7952,32.7828,-16.0243,-13.1858,14.6447,-9.96374,-5.28751,-18.6838,23.2196,-13.6214,8.79233,-14.9725
-11.7474,17.761,-12.2555,5.85674,-6.29771,-0.93577,2.65267,-2.06106,-0.965233,-0.629662,-2.72173,3.27623,-1.92937,-1.33238,4.02908,-8.52076,-10.7062,-8.91756,10.6031,-13.9284,5.24082,5.5785,-6.8468,1.91674,1.38155e-14,-1.66979e-14,-20.1405,-22.3837,-74.611,27.4297,24.544,-5.6091,8.55886,7.12502,20.2081,-20.41,1.38155e-14,-1.66979e-14,-28.2468,15.1093,83.3807,30.0351,-7.4721,-9.40276,28.973,7.12502,16.5587,58.2865,-15.2853,2.09776,26.9458,32.7247,-16.0863,-13.2224,14.3909,-10.0086,-5.23172,-18.5262,23.2982,-13.6533,8.81983,-15.0483
-11.7448,17.7585,-12.2494,5.91849,-6.33568,-1.15031,2.55595,-2.03813,-0.699734,-0.604232,-2.68274,3.31942,-1.8619,-1.3169,3.91778,-8.62106,-10.8005,-8.79839,10.5272,-14.0356,5.06432,5.55713,-6.9035,1.83212,3.27995e-15,-4.77083e-15,-20.6177,-24.8885,-73.8501,25.7313,26.0699,-5.57801,10.4401,7.12502,20.238,-18.5256,3.27995e-15,-4.77083e-15,-28.3328,15.5193,83.1071,29.3382,-7.85221,-5.70806,39.4521,7.12502,20.113,68.431,-15.2562,2.0692,27.1565,32.6349,-16.0721,-13.1763,13.952,-10.0866,-5.29173,-18.3062,23.4232,-13.7878,8.92275,-14.8425
-11.7413,17.758,-12.2438,5.88204,-6.32343,-1.26665,2.60513,-2.04601,-0.527066,-0.603085,-2.68643,3.34282,-1.89483,-1.32012,3.84706,-8.65394,-10.8798,-8.71516,10.4563,-14.1212,4.8654,5.5253,-6.95391,1.75185,-1.3418e-14,8.74653e-15,-21.2469,-26.8568,-73.188,24.5269,26.8098,-5.1973,9.05064,7.12502,20.6038,-19.8759,-1.3418e-14,8.74653e-15,-28.5643,15.8485,82.8029,28.7858,-8.0108,-7.7601,36.5444,7.12502,18.1397,65.7186,-15.1294,1.97425,27.2639,32.5631,-16.0409,-13.1038,13.8463,-10.0472,-5.30798,-18.2045,23.528,-13.915,8.94053,-14.5557
-11.7414,17.7571,-12.2463,5.7947,-6.34847,-1.26672,2.74969,-2.07,-0.570296,-0.587443,-2.71788,3.38174,-1.95386,-1.33462,3.91896,-8.63776,-10.8495,-8.81531,10.3996,-14.0654,4.86772,5.50846,-6.93079,1.77481,-4.30369e-14,2.94201e-14,-21.9116,-28.026,-72.6695,23.6824,26.8802,-5.02161,4.56659,7.12502,20.7726,-24.3415,-4.30369e-14,2.94201e-14,-28.7712,16.4076,82.4749,28.1796,-8.1535,-7.28414,36.3164,7.12502,18.5975,65.4474,-15.0279,2.13129,27.2727,32.5462,-16.0092,-13.2032,14.1008,-9.97553,-5.23617,-18.2065,23.5678,-13.9565,8.88421,-14.4816
-11.7425,17.7551,-12.2582,5.76858,-6.36591,-1.18675,2.9585,-2.09294,-0.771847,-0.629955,-2.75142,3.44981,-2.09983,-1.34634,4.1154,-8.48509,-10.7853,-9.00532,10.2668,-13.969,4.93339,5.45354,-6.89021,1.84315,3.68746e-14,1.35174e-14,-22.8394,-28.5081,-72.0959,23.1261,26.6225,-5.96164,1.65509,7.12502,19.8692,-27.3492,3.68746e-14,1.35174e-14,-28.9892,17.0331,82.2273,27.6065,-8.35955,-6.0422,37.9147,7.12502,19.7918,66.9271,-15.0925,2.38517,27.2129,32.5838,-15.9595,-13.4296,14.277,-10.0064,-5.29909,-18.2681,23.5498,-13.9663,8.91104,-14.2653
-11.7407,17.7544,-12.2648,5.80737,-6.36416,-1.07982,3.01681,-2.0976,-0.926568,-0.677213,-2.7617,3.46886,-2.17235,-1.34788,4.2271,-8.24406,-10.7463,-9.13453,10.0758,-13.9182,4.97932,5.36303,-6.87252,1.89864,5.06901e-15,-2.06736e-14,-23.81,-29.2028,-71.5071,22.719,26.3414,-6.75822,0.631604,7.12502,19.1033,-28.4502,5.06901e-15,-2.06736e-14,-29.1981,17.4305,82.0224,27.1505,-8.28363,-8.79002,31.505,7.12502,17.1486,60.7683,-15.2236,2.47806,27.1005,32.6481,-15.9749,-13.5225,14.461,-10.0734,-5.40202,-18.3766,23.5065,-13.9071,8.98885,-14.2935
-11.739,17.7551,-12.2607,5.8235,-6.41785,-1.01408,2.94083,-2.10139,-1.01657,-0.68088,-2.77054,3.48913,-2.12755,-1.35178,4.29592,-8.0588,-10.6828,-9.26091,9.94916,-13.8322,5.01727,5.2986,-6.83673,1.94998,-1.69961e-14,1.35174e-14,-24.6111,-30.7338,-70.7395,22.0415,26.8659,-7.098,-0.00775833,7.12502,18.7766,-29.1215,-1.69961e-14,1.35174e-14,-29.4425,17.8568,81.7751,26.7741,-7.86889,-9.66438,29.8259,7.12502,16.3068,59.1603,-15.2531,2.43312,27.0108,32.6979,-16.1138,-13.3828,14.8588,-10.0584,-5.34267,-18.467,23.4767,-13.8789,8.99585,-14.3911
-11.7376,17.7548,-12.2551,5.8257,-6.56199,-1.03336,2.90085,-2.09973,-1.06494,-0.68251,-2.76901,3.57653,-2.10043,-1.35054,4.41233,-7.88104,-10.6236,-9.40439,9.81477,-13.7414,4.99258,5.22927,-6.80256,1.98506,8.05078e-15,-2.22639e-14,-25.4685,-32.2007,-69.8225,21.3582,27.5987,-7.68972,0.135982,7.12502,18.2074,-29.0319,8.05078e-15,-2.22639e-14,-29.7161,18.4896,81.4965,26.4695,-7.71147,-9.44577,30.7566,7.12502,16.5173,60.0735,-15.2277,2.41648,27.0022,32.7089,-16.1973,-13.188,14.9116,-10.0075,-5.24542,-18.477,23.4695,-13.9446,9.03572,-14.1491
-11.7374,17.754,-12.2505,5.8665,-6.69578,-1.13976,2.93309,-2.09897,-1.08484,-0.728016,-2.76476,3.73183,-2.15742,-1.34611,4.5882,-8.0138,-10.5491,-9.60726,9.95239,-13.6038,4.95636,5.296,-6.74223,2.00587,1.8487e-14,-3.97569e-15,-26.4918,-33.3156,-68.8293,20.9027,28.1219,-8.35545,0.491763,7.12502,17.5668,-28.7346,1.8487e-14,-3.97569e-15,-30.0395,19.2181,81.2103,26.1065,-8.10858,-8.89536,32.154,7.12502,17.0472,61.426,-15.243,2.5274,27.1007,32.7008,-16.1308,-13.191,14.7899,-9.98574,-5.15634,-18.3838,23.4666,-13.9801,9.09485,-14.1749
-11.7341,17.7552,-12.2479,5.94298,-6.64493,-1.16842,2.98216,-2.12321,-1.06853,-0.790158,-2.7932,3.80646,-2.24377,-1.35801,4.66233,-8.3444,-10.4732,-9.70123,10.2215,-13.466,4.94101,5.43038,-6.6732,2.00409,6.26172e-15,-1.66979e-14,-27.6295,-34.6208,-67.7353,20.5498,28.8434,-8.75615,0.81568,7.12502,17.1812,-28.4447,6.26172e-15,-1.66979e-14,-30.399,19.7242,80.926,25.6898,-8.40457,-8.86887,32.2595,7.12502,17.0727,61.5293,-15.3126,2.47738,27.1193,32.6846,-16.0021,-13.2232,14.7317,-10.0627,-5.07941,-18.3578,23.4713,-13.9179,9.01592,-14.6656
-11.7286,17.7572,-12.2487,5.98225,-6.59368,-1.08474,3.00145,-2.12816,-1.04641,-0.778771,-2.79988,3.75658,-2.24574,-1.36194,4.5986,-8.45784,-10.3966,-9.65922,10.2893,-13.3637,4.97318,5.4624,-6.61776,2.01067,3.97569e-15,-2.94201e-14,-28.6949,-35.6212,-66.9373,20.4787,29.1315,-8.83446,0.970033,7.12502,17.1058,-28.2969,3.97569e-15,-2.94201e-14,-30.6659,19.9665,80.6521,25.2741,-8.28442,-9.42037,31.1067,7.12502,16.5418,60.4217,-15.3896,2.29313,27.0181,32.6636,-15.8132,-13.1978,13.7978,-10.1575,-5.05808,-18.4507,23.4795,-13.8782,8.92129,-14.7489
-11.7266,17.7567,-12.242,5.94258,-6.62985,-1.11958,3.03092,-2.12248,-0.989774,-0.749261,-2.79016,3.77215,-2.23462,-1.3583,4.58285,-8.51772,-10.3478,-9.70732,10.3746,-13.2963,5.02908,5.50138,-6.58221,2.0362,-1.40143e-14,2.54444e-14,-29.6837,-35.6528,-66.557,20.7617,28.6665,-9.05192,0.641725,7.12502,16.8965,-28.6433,-1.40143e-14,2.54444e-14,-31.046,20.1679,80.4006,25.0631,-8.17148,-9.52601,31.0576,7.12502,16.44,60.381,-15.3358,2.21926,27.0539,32.6455,-15.7647,-13.211,12.6756,-10.0842,-5.03749,-18.4236,23.4753,-13.9477,8.89662,-14.6117
-11.7232,17.7562,-12.231,5.91782,-6.66316,-1.21966,3.0084,-2.13576,-0.824798,-0.730136,-2.80152,3.79963,-2.20774,-1.3667,4.51703,-8.48856,-10.3456,-9.75808,10.3484,-13.2977,5.09904,5.49677,-6.58101,2.0667,-5.86415e-15,-2.46493e-14,-30.6598,-35.2803,-66.3008,21.0908,28.1199,-9.47851,0.457824,7.12502,16.4858,-28.8618,-5.86415e-15,-2.46493e-14,-31.4873,20.5346,80.0378,24.9266,-8.46703,-9.10486,31.6424,7.12502,16.8455,60.9317,-15.235,2.14456,27.1313,32.6331,-15.9588,-13.0792,12.8422,-9.95731,-5.04522,-18.3514,23.4707,-14.0203,8.95787,-14.8816
-11.718,17.7556,-12.226,5.96512,-6.7392,-1.21955,2.88982,-2.14608,-0.69644,-0.668369,-2.81401,3.76884,-2.08403,-1.37731,4.4053,-8.56345,-10.3351,-9.7499,10.3061,-13.2848,5.17415,5.4996,-6.56819,2.08682,2.31584e-14,3.97569e-15,-31.4921,-35.2591,-65.9984,21.2696,28.0016,-9.9093,0.44769,7.12502,16.071,-28.9059,2.31584e-14,3.97569e-15,-31.7135,21.0126,79.6431,24.5551,-8.95629,-9.50583,31.1055,7.12502,16.4595,60.4273,-15.2721,2.07466,27.0913,32.6225,-16.0207,-12.9242,12.9695,-9.96582,-5.07887,-18.3923,23.4842,-14.0671,9.08501,-15.2301
-11.7155,17.7531,-12.2263,6.05551,-6.82356,-1.20516,2.82693,-2.14288,-0.702654,-0.635069,-2.81145,3.78631,-2.01344,-1.37734,4.42285,-8.89556,-10.3327,-9.70637,10.4416,-13.2559,5.13935,5.58962,-6.54788,2.05261,1.07344e-14,-6.36111e-14,-32.2272,-35.3981,-65.6202,21.3406,28.0035,-10.3289,0.578513,7.12502,15.6669,-28.8072,1.07344e-14,-6.36111e-14,-31.9185,21.3428,79.4024,24.2315,-9.28367,-10.7426,30.0704,7.12502,15.2684,59.4869,-15.4035,2.17957,27.0646,32.633,-15.9146,-13.0225,12.42,-10.0832,-5.12818,-18.4149,23.4935,-14.1195,9.20043,-15.2522
-11.7161,17.7529,-12.2288,6.11978,-6.83867,-1.21048,2.92485,-2.14603,-0.798825,-0.669311,-2.81592,3.85836,-2.09526,-1.37655,4.55822,-9.09587,-10.3146,-9.62178,10.4989,-13.2116,5.03194,5.62435,-6.52581,2.00081,-2.20651e-14,-9.54166e-15,-32.965,-35.0839,-65.3702,21.5418,27.5948,-10.582,0.925305,7.12502,15.4231,-28.4793,-2.20651e-14,-9.54166e-15,-32.2483,21.6714,79.1701,23.9867,-9.64506,-11.1922,29.5163,7.12502,14.8353,58.9652,-15.4977,2.32812,27.0776,32.6866,-15.9178,-13.1693,12.1979,-10.1641,-5.12636,-18.389,23.4635,-14.1372,9.19209,-15.0241
-11.7151,17.7538,-12.2303,6.15784,-6.8148,-1.16754,3.05433,-2.15781,-0.896082,-0.695684,-2.83233,3.90613,-2.1868,-1.38157,4.67081,-9.20488,-10.2545,-9.5833,10.5226,-13.1235,5.01487,5.63971,-6.48047,1.99324,-2.94201e-14,2.54444e-14,-33.6196,-34.4272,-65.357,21.8889,26.9034,-10.8512,1.20126,7.12502,15.1638,-28.2232,-2.94201e-14,2.54444e-14,-32.5353,22.0448,78.909,23.7235,-9.98099,-10.7783,29.4643,7.12502,15.2341,58.8834,-15.5706,2.35462,27.03,32.7683,-16.0189,-13.1481,12.4578,-10.197,-5.07204,-18.424,23.3959,-14.0876,9.11047,-14.9636
-11.7118,17.7557,-12.2308,6.28239,-6.95764,-1.03832,3.001,-2.11909,-0.988517,-0.691373,-2.7858,3.86205,-2.15421,-1.35787,4.67248,-9.2466,-10.2239,-9.55315,10.4879,-13.093,5.10664,5.63777,-6.4577,2.01883,1.58034e-14,-4.29375e-14,-34.1678,-33.5519,-65.6057,22.3204,25.8055,-11.1078,1.5601,7.12502,14.9166,-27.8828,1.58034e-14,-4.29375e-14,-32.7276,22.2434,78.6696,23.5442,-9.94662,-10.7312,29.2788,7.12502,15.2794,58.6945,-15.7722,2.3693,26.8486,32.853,-16.0396,-12.9566,12.7961,-10.3014,-4.9879,-18.5864,23.3331,-14.0028,9.14872,-14.9529
-11.7086,17.7582,-12.2299,6.46827,-7.23597,-0.928705,2.8198,-2.04384,-1.04887,-0.697171,-2.69046,3.79602,-2.06704,-1.31107,4.62566,-9.0928,-10.2424,-9.53422,10.2928,-13.1433,5.23072,5.56189,-6.47671,2.06107,2.64384e-14,7.95139e-16,-34.8545,-32.8916,-65.6675,22.7699,24.6849,-10.839,2.49418,7.12502,15.1756,-26.9293,2.64384e-14,7.95139e-16,-32.9892,22.3652,78.4119,23.4101,-9.7279,-11.245,28.7319,7.12502,14.7845,58.1845,-16.0465,2.41526,26.6644,32.9279,-16.0271,-12.7214,12.81,-10.4438,-4.86486,-18.7449,23.2927,-13.9625,9.26503,-14.8669
-11.7059,17.7577,-12.2295,6.54628,-7.38544,-0.970689,2.81748,-2.01141,-0.984163,-0.689154,-2.64489,3.80042,-2.06413,-1.28918,4.59152,-9.07291,-10.2935,-9.57687,10.174,-13.2175,5.3402,5.53716,-6.50782,2.09657,4.08502e-14,-5.56597e-15,-35.502,-32.4856,-65.6018,23.1264,23.8978,-10.4385,3.2195,7.12502,15.5614,-26.1744,4.08502e-14,-5.56597e-15,-33.3372,22.6063,78.1275,23.3551,-9.94329,-11.5887,28.2333,7.12502,14.4534,57.71,-16.1652,2.52748,26.679,32.9946,-16.1078,-12.696,12.8031,-10.4819,-4.78705,-18.7183,23.2531,-14.0324,9.30458,-15.0183
-11.7045,17.7562,-12.2314,6.55326,-7.45048,-1.02187,2.93743,-2.01196,-0.952429,-0.662186,-2.64339,3.82714,-2.10405,-1.28839,4.60596,-9.22566,-10.3544,-9.62367,10.1808,-13.2906,5.42827,5.57928,-6.53616,2.11439,2.47487e-14,-1.59028e-14,-35.9152,-32.1569,-65.7232,23.3476,23.4875,-10.5987,3.1598,7.12502,15.4071,-26.2461,2.47487e-14,-1.59028e-14,-33.6434,22.8574,77.8696,23.351,-10.2337,-11.5007,28.4654,7.12502,14.5381,57.936,-16.191,2.68689,26.7224,33.0491,-16.1924,-12.7237,13.0171,-10.4831,-4.79291,-18.6604,23.224,-14.0933,9.32206,-14.899
-11.7028,17.7575,-12.2335,6.64081,-7.60349,-0.973619,2.94946,-1.9939,-1.01875,-0.665362,-2.6219,3.81308,-2.11363,-1.27669,4.6286,-9.37554,-10.3646,-9.53577,10.3073,-13.3018,5.37902,5.63523,-6.53818,2.07492,-3.80673e-14,8.74653e-15,-36.382,-32.4731,-65.533,23.3293,23.7364,-10.6976,3.52487,7.12502,15.3118,-25.8883,-3.80673e-14,8.74653e-15,-33.8379,22.9475,77.6894,23.2246,-9.91609,-11.5155,29.0642,7.12502,14.5239,58.5358,-16.3164,2.79415,26.6328,33.0886,-16.2032,-12.58,13.4281,-10.5759,-4.7892,-18.7173,23.2157,-14.0262,9.41854,-14.4136
-11.7003,17.7589,-12.2366,6.74804,-7.787,-0.966638,2.92482,-1.96349,-0.965833,-0.661469,-2.58073,3.74883,-2.10453,-1.25718,4.52873,-9.60056,-10.3348,-9.26672,10.5648,-13.2658,5.19098,5.71946,-6.51775,1.96526,-1.96797e-14,7.15625e-15,-36.9327,-32.5268,-65.4528,23.5357,23.541,-10.3307,3.83572,7.12502,15.6652,-25.5501,-1.96797e-14,7.15625e-15,-33.9571,22.9909,77.4423,23.0086,-9.6599,-11.6726,29.1606,7.12502,14.3724,58.643,-16.4646,2.86325,26.5907,33.1203,-16.1832,-12.4535,13.4259,-10.6753,-4.73392,-18.7363,23.2057,-13.9312,9.51409,-14.2493
-11.6987,17.7569,-12.2368,6.74542,-7.83231,-1.02507,2.93453,-1.99015,-0.841149,-0.620965,-2.61302,3.71844,-2.07239,-1.27596,4.42706,-9.72391,-10.2459,-9.16972,10.7801,-13.1565,5.17725,5.79253,-6.45906,1.94744,-3.78685e-14,1.66979e-14,-37.4291,-31.8483,-65.7392,24.051,22.5906,-9.96532,3.84797,7.12502,16.017,-25.5099,-3.78685e-14,1.66979e-14,-34.1609,23.2025,77.095,22.7546,-9.80785,-11.6902,28.7877,7.12502,14.3555,58.2713,-16.4762,2.83905,26.6545,33.1379,-16.205,-12.4052,13.0435,-10.6663,-4.75181,-18.6685,23.2009,-13.8738,9.51666,-14.5194
-11.6971,17.7532,-12.2328,6.6851,-7.80399,-1.0828,2.96362,-2.098,-0.82247,-0.585954,-2.75542,3.81515,-2.03718,-1.34813,4.52329,-9.67848,-10.0992,-9.35857,10.8616,-12.9495,5.26311,5.81457,-6.36126,2.02354,2.0276e-14,-5.725e-14,-37.7745,-31.3401,-65.7978,24.322,22.0268,-9.68399,3.97863,7.12502,16.2879,-25.3573,2.0276e-14,-5.725e-14,-34.4691,23.752,76.7689,22.4587,-10.0524,-11.525,28.7312,7.12502,14.5147,58.2034,-16.4034,2.81541,26.732,33.1388,-16.1885,-12.4571,12.6995,-10.5924,-4.83118,-18.5967,23.2171,-13.9011,9.50556,-14.5906
-11.6973,17.7475,-12.2283,6.56991,-7.85681,-1.15565,3.13017,-2.21489,-0.894548,-0.57898,-2.90988,3.98463,-2.09845,-1.42325,4.75499,-9.57329,-9.96436,-9.52028,10.8466,-12.7386,5.1687,5.78143,-6.27381,2.04614,-1.40143e-14,-2.54444e-14,-38.0506,-31.1648,-65.5627,24.3102,22.0528,-9.49421,3.80813,7.12502,16.4707,-25.5127,-1.40143e-14,-2.54444e-14,-34.9002,24.2839,76.5368,22.3558,-10.0957,-11.4521,28.7583,7.12502,14.585,58.2255,-16.2555,2.92943,26.8292,33.1335,-16.0667,-12.6649,11.9597,-10.4294,-4.80066,-18.5193,23.2512,-14.0381,9.48935,-14.4074
-11.7013,17.7412,-12.2222,6.40865,-7.88663,-1.18587,3.32662,-2.30976,-0.989861,-0.558453,-3.0372,4.08324,-2.16626,-1.4847,4.92666,-9.33067,-9.88056,-9.51178,10.6592,-12.6254,5.05358,5.66562,-6.23098,2.0377,1.799e-14,-7.95139e-16,-38.4178,-31.2686,-65.2297,24.2375,22.3059,-9.42043,4.00911,7.12502,16.5417,-25.3058,1.799e-14,-7.95139e-16,-35.3575,24.3552,76.4212,22.4027,-9.51204,-11.8932,28.2831,7.12502,14.1599,57.7805,-16.0346,3.05572,26.8926,33.1382,-16.037,-12.8454,11.7438,-10.2242,-4.74949,-18.4763,23.3037,-14.2161,9.42187,-14.3638
-11.7026,17.7385,-12.2172,6.36853,-7.92523,-1.18682,3.34996,-2.42007,-1.06895,-0.541642,-3.18685,4.17065,-2.13915,-1.55925,5.06996,-9.05399,-9.80085,-9.5332,10.37,-12.5232,5.01353,5.52021,-6.18985,2.05915,9.93923e-15,-2.38542e-15,-38.6929,-31.158,-65.0799,24.291,22.3393,-9.33012,4.49371,7.12502,16.6286,-24.814,9.93923e-15,-2.38542e-15,-35.7918,24.4154,76.3315,22.5004,-8.9621,-12.2049,28.3359,7.12502,13.8596,57.8541,-15.9634,3.09331,26.8966,33.1616,-16.1434,-12.7834,12.323,-10.184,-4.68048,-18.4664,23.3725,-14.307,9.37032,-14.5107
-11.6989,17.7368,-12.215,6.42441,-8.07185,-1.24178,3.3055,-2.51859,-1.05547,-0.539641,-3.31657,4.30234,-2.09293,-1.62507,5.20315,-8.93109,-9.71416,-9.76088,10.2135,-12.3862,5.06476,5.45879,-6.13054,2.13128,7.72278e-14,-7.95139e-15,-38.8013,-30.7725,-65.0905,24.401,22.1271,-9.42316,4.50932,7.12502,16.5391,-24.8058,7.72278e-14,-7.95139e-15,-36.1359,24.8142,76.1781,22.4871,-9.17467,-11.8831,28.7785,7.12502,14.1696,58.2753,-16.0497,3.01435,26.916,33.2181,-16.209,-12.5465,12.58,-10.2435,-4.54589,-18.426,23.4466,-14.2846,9.38275,-14.6688
-11.6971,17.7341,-12.2184,6.47739,-8.32321,-1.30506,3.34446,-2.52504,-1.0007,-0.527923,-3.32197,4.35514,-2.1022,-1.62833,5.22944,-8.87542,-9.69522,-9.8575,10.1347,-12.3569,5.12245,5.43259,-6.11713,2.17034,4.01545e-14,-1.59028e-14,-38.9531,-30.6507,-65.0574,24.4266,21.9754,-9.66539,4.30871,7.12502,16.3058,-25.0257,4.01545e-14,-1.59028e-14,-36.3796,25.0265,76.011,22.391,-9.39673,-11.4701,28.9719,7.12502,14.5676,58.4403,-16.1822,3.04028,26.9477,33.3199,-16.2272,-12.4004,12.6124,-10.2849,-4.41677,-18.3787,23.5004,-14.3363,9.44935,-14.6355
-11.6964,17.7307,-12.2261,6.44888,-8.5375,-1.26858,3.54833,-2.51955,-1.075,-0.535071,-3.31509,4.35697,-2.22046,-1.62168,5.285,-8.91378,-9.69819,-9.72966,10.1812,-12.3588,4.98467,5.43662,-6.12123,2.10661,-2.23633e-14,-1.11319e-14,-39.1647,-30.5868,-65.0087,24.4683,21.8718,-9.73295,4.08792,7.12502,16.2408,-25.2518,-2.23633e-14,-1.11319e-14,-36.6858,25.0122,75.8691,22.3722,-9.49662,-11.3312,29.0796,7.12502,14.7014,58.5383,-16.2553,3.16997,26.8904,33.4569,-16.3825,-12.3431,12.8987,-10.2606,-4.28353,-18.4301,23.5179,-14.4728,9.43568,-14.6609
-11.6944,17.7277,-12.2246,6.38554,-8.54525,-1.11887,3.6744,-2.57346,-1.22899,-0.52632,-3.39311,4.35256,-2.26596,-1.65812,5.37809,-9.15398,-9.70001,-9.55422,10.4085,-12.3348,4.70742,5.51692,-6.11641,1.98225,1.96797e-14,-1.59028e-14,-39.2944,-30.5036,-64.9808,24.5752,21.7343,-9.71544,3.59577,7.12502,16.2577,-25.7426,1.96797e-14,-1.59028e-14,-36.879,25.0499,75.7773,22.2552,-9.8273,-11.3358,29.1243,7.12502,14.697,58.5833,-16.2567,3.17722,26.7168,33.6289,-16.7195,-12.2232,13.7096,-10.2076,-4.17435,-18.5888,23.506,-14.5607,9.27566,-14.7851
-11.6949,17.7252,-12.2149,6.36961,-8.41481,-0.972255,3.51318,-2.73761,-1.32475,-0.481356,-3.61999,4.35096,-2.10028,-1.77478,5.42915,-9.15233,-9.62357,-9.51986,10.5071,-12.2205,4.55917,5.52799,-6.06936,1.94142,-2.52457e-14,3.02153e-14,-39.3044,-30.2689,-65.0651,24.6806,21.5332,-9.76097,3.08717,7.12502,16.2138,-26.2548,-2.52457e-14,3.02153e-14,-36.9751,25.2911,75.5954,21.9763,-10.1166,-11.3768,29.0252,7.12502,14.6575,58.4872,-16.2889,3.116,26.5676,33.831,-17.0282,-12.1622,14.6706,-10.1798,-4.12947,-18.7098,23.4891,-14.6069,9.06465,-15.048
-11.6962,17.7194,-12.2104,6.3577,-8.35076,-0.844424,3.28497,-2.93638,-1.39054,-0.462256,-3.89192,4.31754,-1.92253,-1.91449,5.42689,-8.63927,-9.44293,-9.72793,10.3373,-12.0213,4.78422,5.40289,-5.97532,2.0886,-5.2181e-14,1.03368e-14,-39.4044,-30.054,-65.1111,24.6444,21.5287,-9.931,3.18815,7.12502,16.0501,-26.1671,-5.2181e-14,1.03368e-14,-37.1377,25.6398,75.2346,21.6627,-10.4271,-11.3737,28.844,7.12502,14.6604,58.3057,-16.3824,3.08001,26.4463,34.031,-17.1459,-12.2896,14.706,-10.1751,-4.13378,-18.8213,23.5079,-14.6135,8.96959,-15.4332
-11.6964,17.7115,-12.2128,6.35158,-8.52189,-0.715283,3.24431,-2.87942,-1.48324,-0.524065,-3.82069,4.16469,-1.97516,-1.87599,5.31657,-7.90065,-9.39807,-9.6635,10.0455,-12.0675,5.06793,5.20637,-5.99153,2.20229,-1.75924e-14,1.35174e-14,-39.9532,-30.2974,-64.894,24.6444,21.6229,-10.1145,3.59816,7.12502,15.8734,-25.7712,-1.75924e-14,1.35174e-14,-37.2921,25.3229,75.0139,21.5224,-10.7396,-11.1926,28.8678,7.12502,14.8349,58.3167,-16.5191,3.11516,26.2989,34.2066,-17.1827,-12.3641,14.1983,-10.2174,-4.06066,-18.9777,23.6118,-14.654,9.01735,-15.5889
-11.6962,17.704,-12.2174,6.28678,-8.73893,-0.747011,3.49049,-2.97577,-1.61381,-0.466018,-3.95213,4.36439,-2.01726,-1.94031,5.61825,-8.10436,-9.30408,-10.0416,10.0662,-11.8788,5.12061,5.25925,-5.90629,2.28206,-6.37105e-14,1.27222e-14,-39.629,-29.7616,-65.0099,24.6665,21.534,-10.2127,3.66647,7.12502,15.7788,-25.7104,-6.37105e-14,1.27222e-14,-37.3787,25.9648,74.9629,21.3249,-11.1729,-11.174,28.4804,7.12502,14.8529,57.9281,-16.565,3.1238,26.3342,34.3802,-17.2224,-12.2884,13.8261,-10.2211,-3.94676,-18.959,23.7989,-14.7637,9.07921,-15.5492
-11.6967,17.6977,-12.2222,6.22617,-8.9045,-0.8807,3.69499,-2.94696,-1.44337,-0.390473,-3.90662,4.34634,-2.07145,-1.91928,5.51119,-8.31275,-9.32891,-9.83819,10.1651,-11.9099,5.02976,5.30884,-5.91578,2.20972,-3.76697e-14,2.8625e-14,-39.6095,-30.2345,-64.9214,24.5437,21.8408,-10.4495,3.49304,7.12502,15.5508,-25.9017,-3.76697e-14,2.8625e-14,-37.1556,26.0136,74.8511,20.9426,-11.5183,-11.2966,27.9192,7.12502,14.7348,57.3755,-16.6057,3.13343,26.4957,34.5814,-17.2008,-12.2604,13.2997,-10.2475,-3.82746,-18.8089,24.0335,-14.873,9.10222,-15.2974
-11.7004,17.6903,-12.227,6.21903,-9.23522,-0.852408,3.80772,-2.8705,-1.51286,-0.359263,-3.80852,4.29496,-2.1117,-1.86905,5.4984,-8.51793,-9.31913,-9.65513,10.4072,-11.8948,4.90966,5.39879,-5.90591,2.13307,-1.71949e-14,3.97569e-15,-39.6457,-30.8415,-64.6895,24.3195,22.3381,-10.7388,3.45856,7.12502,15.2721,-25.9576,-1.71949e-14,3.97569e-15,-37.0756,26.0124,74.7519,20.7623,-11.7451,-11.1489,28.2282,7.12502,14.8771,57.674,-16.7638,3.30077,26.4601,34.845,-17.2006,-12.192,13.0307,-10.3247,-3.64302,-18.8465,24.2599,-14.9994,9.16184,-14.87
-11.7042,17.6792,-12.2351,6.16284,-9.67759,-0.747869,4.01493,-2.79924,-1.79339,-0.338036,-3.72579,4.33134,-2.19459,-1.823,5.70422,-8.63933,-9.27806,-9.72661,10.555,-11.8149,4.84572,5.45993,-5.87197,2.1232,2.88238e-14,-1.90833e-14,-39.5579,-30.7551,-64.6481,24.3085,22.3675,-10.7687,3.70295,7.12502,15.2433,-25.7154,2.88238e-14,-1.90833e-14,-37.0658,26.0611,74.8232,20.7528,-11.7527,-11.2003,28.6775,7.12502,14.8275,58.127,-16.9389,3.52906,26.3181,35.19,-17.3082,-12.0336,13.0419,-10.3397,-3.40106,-18.9902,24.4466,-15.1409,9.26597,-14.4593
-11.7042,17.6676,-12.241,6.03843,-9.9611,-0.558733,4.15184,-2.77627,-2.02586,-0.201483,-3.7104,4.28999,-2.11999,-1.8169,5.79496,-8.70692,-9.26836,-9.70852,10.403,-11.7915,4.84948,5.42094,-5.85763,2.12408,3.4191e-14,-1.19271e-14,-39.2552,-30.7125,-64.8248,24.3261,22.2896,-10.6611,3.79796,7.12502,15.347,-25.6125,3.4191e-14,-1.19271e-14,-36.8679,26.0395,74.9597,20.8196,-11.6488,-11.2357,28.6617,7.12502,14.7934,58.1137,-17.066,3.49842,26.0789,35.597,-17.5643,-11.7893,13.1521,-10.2936,-3.25964,-19.2353,24.6015,-15.244,9.38461,-14.3016
-11.7032,17.6544,-12.2402,5.83656,-9.99818,-0.274912,4.18404,-2.80448,-2.11793,0.0294537,-3.76109,4.08359,-1.90151,-1.85067,5.62513,-9.02508,-9.31909,-9.51239,10.324,-11.8574,4.8907,5.44416,-5.87331,2.08842,4.37326e-15,3.97569e-14,-38.9089,-30.9587,-65.2003,24.3733,22.3317,-10.6479,3.53882,7.12502,15.3597,-25.8707,4.37326e-15,3.97569e-14,-36.5304,25.6914,75.0844,20.9456,-11.4597,-10.6721,29.3178,7.12502,15.3364,58.7291,-17.0816,3.28487,25.7563,36.0438,-17.8489,-11.5839,13.6865,-10.1828,-3.32221,-19.5677,24.7412,-15.3266,9.47422,-14.5894
-11.7064,17.6433,-12.2419,5.71058,-10.0043,-0.179176,4.28704,-2.80476,-2.04033,0.15585,-3.76273,3.92017,-1.84447,-1.85545,5.41123,-9.41552,-9.38693,-9.42838,10.4955,-11.9474,5.02155,5.57215,-5.89848,2.08557,-9.29318e-14,3.4191e-14,-38.7983,-31.3361,-65.388,24.4298,22.5343,-10.7302,3.27935,7.12502,15.2803,-26.1362,-9.29318e-14,3.4191e-14,-36.1984,25.0245,75.2658,20.9779,-11.2777,-10.2993,30.107,7.12502,15.6954,59.4905,-17.1896,3.26858,25.6718,36.51,-17.9414,-11.6211,13.9228,-10.1393,-3.34245,-19.65,24.8732,-15.4209,9.47376,-14.8756
-11.7115,17.6333,-12.2482,5.67068,-10.1078,-0.0671949,4.42579,-2.79905,-2.13531,0.16148,-3.7612,3.85649,-1.9147,-1.85236,5.40671,-9.45165,-9.33604,-9.47915,10.6457,-11.8855,5.10692,5.62936,-5.86449,2.12086,-8.92543e-14,5.24792e-14,-38.7451,-31.5362,-65.3728,24.4142,22.7151,-10.7418,3.33553,7.12502,15.2692,-26.0809,-8.92543e-14,5.24792e-14,-36.0068,24.7367,75.3466,20.8848,-11.4568,-10.9791,28.8713,7.12502,15.0406,58.305,-17.4643,3.28892,25.5719,36.9831,-18.0274,-11.5972,13.8035,-10.2016,-3.29519,-19.7425,25.0053,-15.4475,9.49203,-14.6228
-11.7157,17.6181,-12.2493,5.50883,-10.2112,0.224366,4.59899,-2.84883,-2.46492,0.154385,-3.8465,3.80482,-1.99167,-1.89037,5.55462,-9.28799,-9.21634,-9.46119,10.706,-11.7276,4.98196,5.60093,-5.79857,2.10218,-7.45443e-15,1.43125e-14,-38.5816,-31.0848,-65.6127,24.5281,22.4553,-10.7492,3.40031,7.12502,15.2621,-26.0166,-7.45443e-15,1.43125e-14,-36.037,24.7565,75.3491,20.9425,-11.744,-11.694,27.3204,7.12502,14.3518,56.8043,-17.6104,3.18871,25.2739,37.4554,-18.2265,-11.4814,13.6876,-10.1457,-3.2609,-20.0561,25.1518,-15.4608,9.53075,-14.6774
-11.7201,17.6061,-12.2475,5.33929,-10.4103,0.464884,4.75789,-2.84165,-2.7244,0.17043,-3.85383,3.73288,-2.0511,-1.89057,5.63614,-9.20945,-9.22348,-9.33989,10.6224,-11.7412,4.85028,5.5471,-5.81022,2.04773,-2.76311e-14,2.70347e-14,-38.4049,-30.7254,-65.9158,24.6753,22.2001,-10.8807,3.05474,7.12502,15.1354,-26.3718,-2.76311e-14,2.70347e-14,-35.988,24.5018,75.471,21.1013,-11.6772,-11.1883,28.145,7.12502,14.8391,57.5937,-17.754,3.12598,25.0374,37.9201,-18.2991,-11.4663,13.0409,-10.072,-3.15731,-20.3351,25.3541,-15.5621,9.6403,-15.7841
-11.7257,17.5947,-12.2494,5.17457,-10.6714,0.634792,4.84263,-2.80901,-2.87052,0.238673,-3.82208,3.63091,-2.02911,-1.87528,5.613,-8.90324,-9.25643,-9.32316,10.264,-11.8159,4.95103,5.39434,-5.84456,2.09009,5.23798e-14,-2.78299e-14,-38.1753,-30.3592,-66.3552,24.8641,21.8068,-10.8969,2.67541,7.12502,15.1198,-26.7523,5.23798e-14,-2.78299e-14,-35.8232,24.0521,75.6393,21.313,-11.4042,-10.5714,29.3474,7.12502,15.4333,58.7513,-17.884,3.05397,24.8748,38.3624,-18.4616,-11.3257,12.6113,-10.0359,-2.93269,-20.5404,25.6436,-15.7031,9.72337,-16.4888
-11.7343,17.5758,-12.2551,4.97159,-10.6579,0.682476,5.00369,-2.93748,-2.93078,0.26657,-3.99964,3.62253,-2.0661,-1.96326,5.65684,-8.46294,-9.13676,-9.43212,9.99194,-11.6794,5.02099,5.23751,-5.78553,2.16654,4.14466e-14,-2.3059e-14,-38.0049,-29.5248,-66.8453,25.1601,21.2617,-10.7664,2.97742,7.12502,15.2456,-26.4408,4.14466e-14,-2.3059e-14,-35.8172,23.8479,75.6951,21.4737,-11.2696,-10.9522,28.9673,7.12502,15.0665,58.3991,-17.8514,2.95179,24.8729,38.7385,-18.8288,-11.1645,12.8734,-10.0452,-2.77952,-20.5459,26.0163,-15.8555,9.57245,-16.1442
-11.7441,17.5572,-12.2583,4.836,-10.4958,0.738467,5.19789,-3.13139,-2.99962,0.234279,-4.26465,3.63059,-2.17122,-2.09183,5.73308,-8.38829,-8.95335,-9.46288,10.1194,-11.4315,4.95573,5.24505,-5.67172,2.1757,3.48867e-14,3.97569e-15,-37.9015,-29.0134,-67.0727,25.3194,21.1634,-10.6916,3.36825,7.12502,15.3176,-26.0445,3.48867e-14,3.97569e-15,-35.8937,23.8383,75.6397,21.5874,-11.202,-11.3927,28.4955,7.12502,14.6422,57.9585,-17.8455,2.84479,24.8763,39.0393,-19.0834,-11.1351,13.2087,-10.207,-2.88226,-20.5399,26.4936,-16.0494,9.48099,-15.7808
-11.7533,17.5441,-12.2576,4.62118,-10.5162,0.732649,5.47267,-3.21285,-3.01615,0.316639,-4.37912,3.63091,-2.22468,-2.14907,5.76508,-8.53738,-8.84372,-9.60101,10.2945,-11.2705,5.06067,5.32709,-5.59002,2.23388,5.79457e-14,2.94201e-14,-37.5478,-28.405,-67.576,25.583,20.7298,-10.7162,2.84749,7.12502,15.2939,-26.567,5.79457e-14,2.94201e-14,-35.8288,23.8721,75.6373,21.7733,-11.336,-11.2927,28.5833,7.12502,14.7385,58.0394,-17.7031,2.83626,24.9374,39.2692,-19.2523,-11.1309,13.8537,-10.2509,-2.98347,-20.5224,27.0409,-16.3142,9.60664,-15.651
-11.7606,17.5287,-12.2574,4.39136,-10.5432,0.56071,5.79673,-3.24073,-2.86415,0.453306,-4.41092,3.69845,-2.26659,-2.16782,5.76931,-8.69348,-8.83877,-9.7673,10.32,-11.2308,5.09384,5.36974,-5.57195,2.26537,2.59414e-14,-2.3059e-14,-37.0806,-27.7338,-68.1246,25.8989,20.1779,-10.6768,2.51513,7.12502,15.3318,-26.8965,2.59414e-14,-2.3059e-14,-35.4782,23.7851,75.8633,21.8258,-11.4847,-11.4321,28.3602,7.12502,14.6042,57.826,-17.4517,2.90829,25.1649,39.4379,-19.4654,-11.1465,14.5565,-10.2547,-3.0117,-20.3342,27.6062,-16.5685,9.7288,-15.7542
-11.7653,17.5112,-12.2503,4.28989,-10.423,0.553365,5.73877,-3.34415,-2.72996,0.565794,-4.54134,3.69157,-2.11319,-2.24059,5.68429,-8.74296,-8.84487,-9.79431,10.2761,-11.2103,4.95379,5.35619,-5.57033,2.22698,-1.66979e-14,-1.27222e-14,-36.714,-27.6982,-68.2306,25.8907,20.4543,-10.4832,3.38149,7.12502,15.5183,-26.0158,-1.66979e-14,-1.27222e-14,-35.0481,23.5096,76.1627,21.9833,-11.2337,-11.4731,28.3994,7.12502,14.5647,57.868,-17.3761,2.79742,25.186,39.5818,-19.5868,-11.1539,14.2791,-10.4315,-3.10885,-20.3235,28.1912,-16.7856,9.80509,-16.1941
-11.7718,17.4962,-12.2421,4.15689,-10.2939,0.541732,5.66375,-3.4213,-2.54911,0.674745,-4.63487,3.62877,-1.96731,-2.29443,5.51094,-8.69468,-8.83781,-9.84224,10.2377,-11.1972,4.95223,5.33793,-5.56653,2.23771,-1.2921e-14,1.27222e-14,-36.5227,-27.8386,-68.2548,25.9292,20.7792,-10.2692,4.38301,7.12502,15.7244,-24.9982,-1.2921e-14,1.27222e-14,-34.7091,23.0872,76.4073,22.3115,-10.9217,-11.0044,28.8724,7.12502,15.0163,58.3079,-17.2754,2.68327,25.2252,39.7255,-19.59,-11.2309,13.41,-10.5937,-3.23506,-20.3143,28.8264,-17.0556,9.88421,-16.4209
-11.7815,17.4807,-12.2391,4.01703,-10.195,0.422713,5.83891,-3.40849,-2.33344,0.704639,-4.60604,3.59802,-2.05706,-2.27945,5.36757,-8.64329,-8.81939,-9.92175,10.3271,-11.1776,5.01044,5.36391,-5.5579,2.26986,5.46658e-15,1.35174e-14,-36.5422,-27.6716,-68.4053,26.2981,20.4433,-10.1341,4.60847,7.12502,15.8545,-24.7624,5.46658e-15,1.35174e-14,-34.4106,22.5212,76.6899,22.5194,-10.6007,-11.3085,28.8281,7.12502,14.7232,58.2852,-17.1352,2.69638,25.4045,39.8665,-19.5823,-11.3482,12.9526,-10.7852,-3.39574,-20.1794,29.5088,-17.2873,10.0432,-16.5848
-11.7924,17.4658,-12.2319,3.95989,-10.1138,0.354154,5.86248,-3.45758,-2.27182,0.695934,-4.66664,3.64556,-2.07359,-2.30973,5.38846,-8.44808,-8.71605,-10.0557,10.3789,-11.0371,4.97322,5.34282,-5.5008,2.29941,1.68967e-14,6.36111e-15,-36.5008,-26.884,-68.7268,26.8038,19.6723,-10.2341,4.31219,7.12502,15.7582,-25.0663,1.68967e-14,6.36111e-15,-34.2191,22.2406,76.9437,22.7643,-10.2721,-12.0039,28.4921,7.12502,14.0533,57.997,-17.0852,2.71836,25.5316,39.991,-19.6398,-11.3692,13.1231,-11.1082,-3.5894,-20.0875,30.2608,-17.3815,10.2695,-16.7446
-11.8048,17.4552,-12.2239,3.76405,-10.0291,0.236209,5.97366,-3.52545,-2.20741,0.785893,-4.75366,3.71894,-2.03205,-2.35649,5.43844,-8.58041,-8.61165,-10.134,10.6978,-10.864,4.82567,5.44787,-5.42834,2.27099,-2.98177e-14,-7.95139e-15,-36.264,-26.1838,-69.0632,27.1693,19.1604,-10.4494,3.97509,7.12502,15.5508,-25.4197,-2.98177e-14,-7.95139e-15,-33.9,22.1374,77.1837,23.0186,-10.1221,-12.1187,28.5525,7.12502,13.9426,58.065,-16.8577,2.72072,25.7259,40.1066,-19.7168,-11.4062,13.3019,-11.3148,-3.69487,-19.9447,31.0926,-17.1513,10.3288,-16.0079
-11.816,17.4423,-12.2231,3.49898,-9.89532,0.0575513,6.26056,-3.51241,-1.96681,0.891575,-4.72282,3.69413,-2.10772,-2.34227,5.29253,-8.89489,-8.60023,-10.0994,11.1241,-10.8347,4.81611,5.62945,-5.41054,2.245,-5.27773e-14,1.11319e-14,-36.0724,-26.2342,-69.2535,27.4231,19.1158,-10.5101,3.77044,7.12502,15.4924,-25.6288,-5.27773e-14,1.11319e-14,-33.3887,21.591,77.4863,23.1925,-9.82369,-12.2737,28.5474,7.12502,13.7932,58.0701,-16.5818,2.63961,25.9978,40.2186,-19.6949,-11.5464,13.101,-11.5109,-3.74186,-19.7346,31.9879,-16.5099,10.2244,-14.3074
-11.8245,17.4229,-12.2261,3.45623,-9.80932,-0.134344,6.29888,-3.48039,-1.59656,0.964729,-4.6577,3.59919,-2.09797,-2.31288,4.98053,-8.69094,-8.68867,-9.91313,10.9334,-10.9944,4.81657,5.53667,-5.48312,2.21353,1.72943e-14,-6.36111e-15,-35.9279,-26.2302,-69.5988,27.7976,18.9432,-10.5514,3.89647,7.12502,15.4526,-25.5059,1.72943e-14,-6.36111e-15,-32.8779,20.7946,77.7836,23.5446,-9.39926,-12.493,28.5685,7.12502,13.5819,58.1055,-16.5867,2.57476,26.2676,40.3418,-19.6794,-11.6601,12.8911,-11.9927,-3.82062,-19.4935,32.9516,-16.0429,10.1872,-12.936
-11.8324,17.4067,-12.2252,3.47404,-10.0433,-0.408847,6.31771,-3.39451,-1.32565,1.04055,-4.52528,3.64778,-2.05996,-2.25018,4.86804,-8.48142,-8.81485,-9.73971,10.6651,-11.1647,4.54851,5.40473,-5.5779,2.10256,-5.86415e-14,-5.56597e-15,-35.6475,-25.8295,-69.8949,28.0957,18.6503,-10.6566,4.20071,7.12502,15.3513,-25.2094,-5.86415e-14,-5.56597e-15,-32.5172,20.4586,78.0946,24.0789,-9.40624,-12.3769,28.9895,7.12502,13.6938,58.519,-16.6284,2.73188,26.5916,40.4858,-19.7862,-11.6167,12.9423,-12.4751,-3.76202,-19.1946,33.965,-16.0749,10.3526,-12.6268
-11.844,17.3937,-12.2234,3.34633,-10.3471,-0.725187,6.57867,-3.28637,-1.23481,1.08161,-4.37024,3.83678,-2.16904,-2.17207,5.02096,-8.51766,-8.84047,-9.86615,10.765,-11.166,4.42556,5.44254,-5.59108,2.07976,8.65707e-14,-4.77083e-15,-35.3689,-25.2677,-69.9866,28.3375,18.3105,-10.7885,4.09117,7.12502,15.2242,-25.3287,8.65707e-14,-4.77083e-15,-32.2219,20.486,78.4174,24.4615,-9.54302,-12.1248,29.0462,7.12502,13.9367,58.5591,-16.5203,2.99505,26.9996,40.6391,-19.8003,-11.6865,12.6397,-12.7686,-3.57551,-18.8409,34.9997,-16.3307,10.4779,-12.5883
-11.8559,17.3766,-12.2237,3.05162,-10.3946,-0.988295,6.81044,-3.19973,-0.991681,1.24021,-4.23837,3.86333,-2.16221,-2.10982,4.91178,-8.35761,-8.86776,-9.93,10.8235,-11.2244,4.51354,5.44725,-5.61969,2.1165,2.64384e-14,-2.22639e-14,-35.0956,-25.1313,-70.1225,28.4732,18.0762,-10.9469,4.20385,7.12502,15.0717,-25.2275,2.64384e-14,-2.22639e-14,-31.6825,20.1006,78.7285,24.739,-9.33407,-12.0169,28.9192,7.12502,14.0407,58.425,-16.2768,3.07496,27.405,40.7695,-19.6025,-11.9864,11.533,-12.9528,-3.51115,-18.5134,36.0501,-16.5084,10.4868,-11.5571
-11.8625,17.3634,-12.2187,2.69418,-10.5468,-1.10464,6.9434,-3.057,-0.709636,1.47516,-4.03455,3.7448,-2.04005,-2.01401,4.61281,-8.18441,-8.96095,-9.71405,10.8179,-11.3858,4.43302,5.41069,-5.69768,2.05204,3.04141e-14,-4.77083e-15,-34.7514,-25.4272,-70.2384,28.42,18.1444,-11.1346,4.61628,7.12502,14.8908,-24.8285,3.04141e-14,-4.77083e-15,-31.1447,19.4079,79.0586,25.159,-8.98358,-12.0253,29.0215,7.12502,14.0326,58.5279,-15.9382,3.09329,27.5889,40.8956,-19.4991,-12.0493,10.9219,-13.063,-3.42566,-18.4057,37.1073,-16.6308,10.5515,-14.048
-11.8741,17.3538,-12.2143,2.47716,-10.8597,-1.24696,7.17573,-2.92436,-0.629215,1.56459,-3.85085,3.75837,-2.0965,-1.92275,4.57909,-8.33483,-8.94502,-9.53642,11.0139,-11.3564,4.25691,5.47428,-5.68592,1.96388,3.18055e-15,9.54166e-15,-34.3816,-25.3939,-70.3299,28.3754,18.2554,-11.379,4.46339,7.12502,14.6553,-24.9987,3.18055e-15,9.54166e-15,-30.8795,19.0085,79.3569,25.7469,-8.69284,-11.9388,29.3488,7.12502,14.116,58.8493,-15.7186,3.33153,27.7967,41.0485,-19.4889,-12.0067,11.0576,-13.3057,-3.16699,-18.2229,38.1459,-16.8718,10.47,-14.4971
-11.8938,17.3356,-12.2175,2.40923,-11.259,-1.56169,7.45949,-2.72521,-0.524048,1.56769,-3.57185,3.82248,-2.27637,-1.78113,4.58177,-8.53232,-8.92831,-9.37431,11.2905,-11.3392,4.20503,5.58015,-5.67256,1.91123,2.05742e-14,-4.45278e-14,-34.0951,-25.4597,-70.3703,28.2851,18.4207,-11.6237,4.50649,7.12502,14.4196,-24.9726,2.05742e-14,-4.45278e-14,-30.744,18.4872,79.6197,26.5472,-8.51279,-11.6649,29.8853,7.12502,14.3799,59.3672,-15.702,3.77092,28.2504,41.2516,-19.4312,-12.1148,11.2836,-13.7215,-2.69567,-17.7551,39.147,-16.9584,10.2482,-13.9436
-11.9103,17.3201,-12.216,2.34055,-11.539,-1.70622,7.52645,-2.52993,-0.423226,1.59411,-3.30491,3.75958,-2.31764,-1.64778,4.43915,-8.68005,-8.98318,-9.03952,11.6191,-11.4325,4.02224,5.68361,-5.71504,1.78305,4.53229e-14,-3.97569e-14,-33.8973,-25.6229,-70.4732,28.2904,18.5138,-11.8428,4.97224,7.12502,14.2085,-24.5218,4.53229e-14,-3.97569e-14,-30.5354,17.7395,79.8622,27.24,-8.12608,-11.7002,29.9393,7.12502,14.3458,59.4237,-15.7569,3.99638,28.5065,41.5337,-19.4903,-12.2038,11.5008,-14.1303,-2.30926,-17.4836,40.0768,-16.8448,10.008,-12.6872
-11.9202,17.3079,-12.2096,2.19516,-11.6369,-1.6077,7.54191,-2.53545,-0.621324,1.62216,-3.32755,3.8124,-2.28076,-1.65933,4.60802,-8.82156,-8.91109,-9.03097,11.9812,-11.2906,3.70419,5.79333,-5.6665,1.68386,-2.76311e-14,1.66979e-14,-33.4654,-25.1554,-70.5811,28.2659,18.5022,-12.0187,4.96059,7.12502,14.039,-24.5453,-2.76311e-14,1.66979e-14,-30.3138,17.6836,80.1507,27.6276,-7.68827,-12.6897,29.0916,7.12502,13.3923,58.6412,-15.7976,3.95028,28.4601,41.8844,-19.6576,-12.1901,11.526,-14.4384,-2.16362,-17.4898,40.8836,-16.8253,9.69524,-11.7907
-11.9268,17.2841,-12.2055,1.93538,-11.839,-1.5194,7.7728,-2.5517,-0.886748,1.66592,-3.36599,3.9391,-2.33717,-1.67745,4.90616,-8.76887,-8.76839,-9.43136,12.1412,-11.0566,3.74711,5.84618,-5.56964,1.77865,1.19271e-15,5.56597e-15,-32.9472,-24.56,-70.6057,28.1329,18.5536,-12.1387,4.83254,7.12502,13.9233,-24.6813,1.19271e-15,5.56597e-15,-30.2276,17.8614,80.4944,28.1562,-7.43923,-13.3748,28.9197,7.12502,12.7319,58.5115,-15.7127,3.8747,28.3969,42.2337,-19.8176,-12.0266,11.4348,-14.4645,-1.7918,-17.5002,41.5388,-16.8369,9.47378,-14.8211
-11.9365,17.2632,-12.1972,1.65809,-12.0973,-1.575,8.00114,-2.47292,-0.879979,1.71504,-3.25895,3.947,-2.42264,-1.62326,4.91266,-8.6727,-8.71844,-9.70519,12.3996,-10.9992,3.96002,5.93596,-5.54318,1.89027,-2.64384e-14,2.62396e-14,-32.6602,-24.2244,-70.722,28.109,18.5513,-12.2825,4.75233,7.12502,13.7847,-24.771,-2.64384e-14,2.62396e-14,-30.2902,17.4409,80.812,28.9938,-6.99357,-12.5481,30.444,7.12502,13.5288,59.9845,-15.5368,3.81359,28.5016,42.5071,-19.9188,-11.7964,11.5089,-14.2986,-1.28317,-17.3554,42.0933,-16.7855,9.47741,-19.8328
-11.9504,17.266,-12.1822,1.47592,-12.4988,-1.64327,8.05701,-2.32208,-0.832467,1.75162,-3.05561,3.90871,-2.43877,-1.52215,4.82863,-8.64891,-8.76408,-9.80446,12.7795,-11.0664,3.98329,6.06422,-5.58204,1.89928,-6.62947e-14,-7.95139e-15,-32.4023,-24.159,-70.8282,28.039,18.6615,-12.3624,4.54445,7.12502,13.7078,-24.9841,-6.62947e-14,-7.95139e-15,-30.2638,16.4827,81.3265,29.1724,-3.52626,-16.2592,27.6911,7.12502,9.95007,57.436,-15.4117,3.91109,28.6318,42.6811,-19.8787,-11.6471,12.4129,-14.3017,-0.953161,-17.158,42.6075,-16.7876,9.40388,-20.0082
-11.964,17.2728,-12.1715,1.32972,-13.036,-1.56327,8.04935,-2.18103,-0.928646,1.80173,-2.87971,3.82895,-2.39752,-1.43522,4.7809,-8.47144,-8.74752,-9.80803,12.8086,-11.0554,3.93206,6.04009,-5.5838,1.89222,-5.56597e-15,6.36111e-15,-31.9682,-24.3031,-70.9672,27.8051,19.1456,-12.4377,4.54601,7.12502,13.6352,-24.9874,-5.56597e-15,6.36111e-15,-30.1768,16.9031,81.0672,30.0165,-5.47965,-20.9047,17.3635,7.12502,5.4664,47.273,-15.2615,4.20122,28.6021,42.7493,-19.7505,-11.6353,12.6739,-14.459,-0.638233,-17.0912,43.1183,-16.9356,9.13507,-18.3122
-11.9766,17.2644,-12.1659,1.16447,-13.433,-1.43235,8.10855,-2.14428,-1.12068,1.80787,-2.8478,3.78765,-2.41945,-1.41815,4.84635,-8.18935,-8.61158,-9.82984,12.7158,-10.8869,3.88196,5.94986,-5.51085,1.91087,1.98785e-14,-1.90833e-14,-31.5247,-24.0501,-71.219,27.6878,19.4864,-12.5793,4.39874,7.12502,13.4987,-25.1438,1.98785e-14,-1.90833e-14,-30.2466,17.088,81.0302,30.727,-5.90714,-19.8685,18.1907,7.12502,6.4668,48.072,-15.0146,4.43794,28.5188,42.7688,-19.7867,-11.5744,11.4024,-14.5664,-0.340761,-17.0807,43.6269,-17.142,8.93895,-21.8012
-11.9895,17.2618,-12.1531,1.11147,-13.7252,-1.38675,8.0075,-2.10417,-1.22571,1.81579,-2.80485,3.77608,-2.35448,-1.39765,4.8843,-8.13523,-8.52808,-9.87324,12.8873,-10.7742,3.84842,5.98792,-5.4632,1.91728,-5.96354e-16,-6.44062e-14,-31.1289,-23.6863,-71.4775,27.727,19.4774,-12.538,4.16856,7.12502,13.5385,-25.3713,-5.96354e-16,-6.44062e-14,-30.3016,17.0225,81.1629,31.3849,-5.73183,-20.3818,17.4578,7.12502,5.97118,47.3537,-14.8473,4.57309,28.5052,42.7863,-19.9444,-11.3582,11.0445,-14.7012,-0.107616,-16.9877,44.0871,-17.3567,8.81847,-26.1868
-12.0018,17.2637,-12.1382,1.12172,-14.1003,-1.37336,7.70584,-1.99585,-1.12837,1.93067,-2.6619,3.62437,-2.09324,-1.3326,4.63846,-8.41791,-8.55547,-9.61139,13.2439,-10.8134,3.73259,6.12988,-5.47617,1.81951,7.70291e-14,-3.57812e-14,-30.7192,-23.7048,-71.8341,27.7507,19.4599,-12.4726,4.36305,7.12502,13.6016,-25.1726,7.70291e-14,-3.57812e-14,-30.0604,16.5961,81.2414,31.8964,-5.32895,-20.4665,17.461,7.12502,5.88946,47.3591,-14.8019,4.78735,28.5245,42.8107,-19.8557,-11.2492,10.9368,-14.778,0.245675,-16.8653,44.4561,-17.5304,8.1516,-26.8633
-12.0108,17.2592,-12.1304,1.0031,-14.4438,-1.37555,7.67897,-1.91942,-0.979479,1.99073,-2.55396,3.45647,-2.04028,-1.28024,4.36591,-8.56334,-8.59355,-9.30887,13.5886,-10.8847,3.59298,6.24342,-5.50628,1.71086,-5.25785e-14,-1.35174e-14,-30.5695,-23.3519,-72.2535,28.0157,19.1295,-12.4917,4.50539,7.12502,13.5832,-25.0315,-5.25785e-14,-1.35174e-14,-29.9914,15.9643,81.2847,32.3989,-4.64988,-20.472,17.8969,7.12502,5.88416,47.7952,-14.6821,4.97917,28.5834,42.8184,-19.6034,-11.3155,9.83648,-14.6493,0.544668,-16.7332,44.7067,-17.451,6.86863,-24.8787
-12.0202,17.2574,-12.1254,0.921004,-14.689,-1.47993,7.82702,-1.946,-0.918814,1.90006,-2.58005,3.50005,-2.21482,-1.28967,4.38904,-8.34142,-8.54428,-9.4825,13.7768,-10.824,3.60358,6.27252,-5.49026,1.75237,-3.84648e-14,2.94201e-14,-30.4804,-22.4508,-72.5638,28.3486,18.7472,-12.5805,4.13811,7.12502,13.4975,-25.4045,-3.84648e-14,2.94201e-14,-30.2639,15.799,81.3561,32.9789,-4.29596,-20.2456,18.4268,7.12502,6.10267,48.3189,-14.5952,5.14612,28.7659,42.8059,-19.4115,-11.4515,8.61609,-14.6047,0.748222,-16.4753,44.856,-17.1846,5.9673,-23.6516
-12.032,17.2603,-12.1192,1.00281,-14.9549,-1.59614,7.80612,-1.97934,-0.945768,1.78803,-2.6208,3.64793,-2.30749,-1.30741,4.56525,-8.2265,-8.44269,-9.80676,13.9235,-10.6525,3.57472,6.30578,-5.42925,1.81146,4.07509e-15,2.06736e-14,-30.0983,-21.7939,-72.7552,28.4167,18.746,-12.6763,3.69834,7.12502,13.4052,-25.8504,4.07509e-15,2.06736e-14,-30.5261,15.9025,81.5117,33.5731,-4.06117,-19.8945,18.399,7.12502,6.44167,48.281,-14.6487,5.42732,28.9515,42.7799,-19.2469,-11.5332,8.163,-14.7352,1.00425,-16.2025,44.9044,-16.9768,5.58642,-24.2536
-12.0429,17.2649,-12.1067,1.02041,-15.182,-1.56533,7.76692,-1.9409,-0.987956,1.72896,-2.57149,3.66655,-2.3483,-1.28117,4.60416,-8.33337,-8.42665,-9.90434,14.1761,-10.5994,3.48172,6.40187,-5.41623,1.7932,1.39149e-15,-5.56597e-15,-29.7128,-21.6662,-72.8857,28.4261,18.7974,-12.6529,3.59953,7.12502,13.4278,-25.9477,1.39149e-15,-5.56597e-15,-30.6114,15.6386,81.7386,34.0691,-3.65268,-19.8738,18.1451,7.12502,6.46163,48.0266,-14.5698,5.6685,28.9609,42.7379,-19.1915,-11.425,8.95369,-14.7047,1.2057,-16.1416,44.8785,-16.8862,5.3673,-25.0661
-12.0519,17.2705,-12.0864,0.883533,-15.3385,-1.43806,7.73938,-1.88663,-0.991758,1.76889,-2.50359,3.54822,-2.30278,-1.24829,4.47374,-8.58547,-8.47261,-9.7627,14.5133,-10.6488,3.36702,6.54189,-5.44054,1.71396,-2.25621e-14,1.03368e-14,-29.4441,-21.4392,-73.1967,28.6963,18.4076,-12.4938,3.76266,7.12502,13.5812,-25.7744,-2.25621e-14,1.03368e-14,-30.5177,15.2721,81.877,34.3669,-3.39069,-19.6859,18.9714,7.12502,6.64307,48.8472,-14.2812,5.76659,28.8578,42.6922,-19.3381,-11.2968,9.92795,-14.4337,1.37393,-16.2246,44.8217,-16.8339,5.28239,-25.6654
-12.0578,17.2736,-12.0721,0.841424,-15.4094,-1.43906,7.63502,-1.88794,-0.865758,1.85104,-2.50046,3.46752,-2.16928,-1.25028,4.31048,-9.06377,-8.5151,-9.56701,14.8956,-10.6698,3.19055,6.72715,-5.4495,1.59923,-8.15017e-15,-1.98785e-14,-29.0146,-21.2162,-73.6038,28.9748,18.041,-12.1629,4.31241,7.12502,13.9,-25.203,-8.15017e-15,-1.98785e-14,-30.2836,15.1795,81.9513,34.5678,-3.36714,-19.5684,19.2559,7.12502,6.75646,49.1281,-14.1188,5.78874,28.8827,42.6413,-19.4356,-11.3115,10.0001,-14.2561,1.56829,-16.1612,44.7693,-16.8021,5.12076,-26.0708
-12.0607,17.2757,-12.0652,0.944787,-15.4057,-1.51949,7.53778,-1.93994,-0.682462,1.80956,-2.55532,3.47202,-2.16174,-1.2779,4.21306,-9.24362,-8.54581,-9.67912,15.0373,-10.682,3.20119,6.81189,-5.45905,1.60765,2.60408e-14,-7.95139e-15,-28.5633,-21.3883,-73.7597,28.9324,18.279,-12.0344,4.82758,7.12502,14.0239,-24.6793,2.60408e-14,-7.95139e-15,-30.1617,15.2361,82.056,34.7288,-3.43066,-19.969,18.3655,7.12502,6.36971,48.2498,-14.1614,5.7858,28.9773,42.5854,-19.2684,-11.3989,9.15358,-14.2637,1.75366,-16.0179,44.7336,-16.812,4.85408,-26.4041
-12.064,17.2851,-12.0524,1.04287,-15.5027,-1.48979,7.45357,-1.99235,-0.634039,1.6167,-2.61641,3.49984,-2.31059,-1.30408,4.22196,-8.80931,-8.48907,-9.9874,14.8397,-10.6191,3.32901,6.69453,-5.44109,1.72317,1.21259e-14,-3.18055e-15,-28.5177,-20.9958,-73.8239,29.1564,18.154,-12.0107,4.80818,7.12502,14.0467,-24.6971,1.21259e-14,-3.18055e-15,-30.4124,15.3805,82.1356,34.8869,-3.62166,-20.1626,18.2823,7.12502,6.1828,48.1721,-14.1664,5.86262,28.9309,42.5239,-19.2099,-11.3567,9.02487,-14.2554,1.96709,-16.0341,44.6654,-16.8125,4.66764,-26.2363
-12.0686,17.2974,-12.0389,1.16465,-15.6389,-1.45531,7.34462,-2.04337,-0.606058,1.43557,-2.67807,3.5224,-2.43283,-1.33105,4.23554,-8.50315,-8.40952,-10.1231,14.754,-10.5139,3.28092,6.61277,-5.40581,1.75396,1.09332e-15,-1.19271e-14,-28.5931,-20.1488,-74.0387,29.7409,17.5957,-11.8498,4.68404,7.12502,14.2017,-24.8105,1.09332e-15,-1.19271e-14,-30.7343,15.4903,82.2002,35.1315,-3.74696,-19.9195,18.308,7.12502,6.41755,48.1907,-14.1827,5.99693,28.8863,42.4556,-19.2269,-11.2695,9.39617,-14.2352,2.21499,-16.0689,44.5439,-16.7543,4.57782,-25.9634
-12.0726,17.3104,-12.027,1.32217,-15.729,-1.44976,7.19487,-2.12091,-0.51749,1.32582,-2.77357,3.5246,-2.4598,-1.37762,4.19229,-8.47342,-8.39097,-10.1673,14.7684,-10.4644,3.14737,6.60463,-5.39529,1.7245,1.31198e-14,1.27222e-14,-28.4229,-19.6122,-74.3559,30.2148,17.3584,-11.8135,4.4994,7.12502,14.2367,-24.9927,1.31198e-14,1.27222e-14,-30.9517,15.5829,82.2326,35.3698,-3.77195,-19.9942,17.3038,7.12502,6.3454,47.1887,-14.2784,6.06633,28.8791,42.3933,-19.0832,-11.2873,8.97719,-14.2525,2.41003,-16.0782,44.3652,-16.572,4.55398,-26.0258
-12.0767,17.3244,-12.0149,1.39074,-15.7859,-1.41047,7.12388,-2.28231,-0.544781,1.19182,-2.98632,3.60078,-2.53731,-1.48105,4.30644,-8.23369,-8.30578,-10.3815,14.5907,-10.3208,3.03072,6.50335,-5.34795,1.74783,3.29983e-14,-1.90833e-14,-28.1798,-18.9547,-74.6024,30.5509,17.2086,-11.8629,4.19992,7.12502,14.1891,-25.2955,3.29983e-14,-1.90833e-14,-31.2705,16.0877,82.1807,35.5199,-3.96766,-20.0988,17.0344,7.12502,6.24442,46.9224,-14.2972,6.10955,28.8365,42.3284,-18.9461,-11.3295,8.46069,-14.2141,2.49595,-16.14,44.1694,-16.3634,4.5568,-25.8663
-12.0817,17.3349,-12.0108,1.47257,-15.8242,-1.33657,7.16384,-2.41278,-0.746611,1.01038,-3.16621,3.76685,-2.71298,-1.56426,4.61838,-8.03994,-8.19547,-10.6063,14.4501,-10.1267,2.83485,6.41516,-5.28185,1.74997,-9.74045e-15,-1.59028e-15,-28.0458,-18.0889,-74.6596,30.9438,16.8225,-11.9533,3.91025,7.12502,14.102,-25.5912,-9.74045e-15,-1.59028e-15,-31.4994,16.6891,82.2527,35.5783,-4.31594,-19.5563,18.1194,7.12502,6.76813,47.9912,-14.3699,6.23953,28.7665,42.247,-18.7747,-11.3226,8.11321,-14.2299,2.58997,-16.2322,43.9887,-16.206,4.53607,-25.2082
-12.0875,17.3451,-12.0092,1.65247,-15.8886,-1.32753,7.14017,-2.4002,-0.820784,0.92033,-3.15069,3.85905,-2.78512,-1.55338,4.75761,-8.30586,-8.24949,-10.5717,14.5665,-10.1456,2.63803,6.48759,-5.30176,1.66749,-8.54774e-15,3.65764e-14,-28.0429,-17.4249,-74.7135,31.6277,16.2551,-12.3487,4.0593,7.12502,13.7209,-25.4683,-8.54774e-15,3.65764e-14,-31.2441,16.7238,82.5235,35.4003,-4.59722,-19.0665,19.0396,7.12502,7.24096,48.8957,-14.5058,6.43663,28.7565,42.124,-18.5793,-11.2081,8.0902,-14.3198,2.77474,-16.2496,43.8182,-16.053,4.60422,-24.5635
-12.092,17.3591,-12.0009,1.68882,-15.8635,-1.40974,7.0933,-2.37838,-0.613506,1.00013,-3.10968,3.80797,-2.69384,-1.53741,4.57776,-8.70289,-8.38076,-10.4137,14.6736,-10.3069,2.65807,6.59253,-5.36531,1.61483,-4.07509e-15,-7.95139e-15,-28.0347,-17.2331,-74.8989,32.3889,15.9703,-13.0254,4.34877,7.12502,13.0687,-25.2218,-4.07509e-15,-7.95139e-15,-30.655,16.4695,82.7422,35.0224,-4.6353,-19.4418,18.9087,7.12502,6.87867,48.777,-14.3871,6.46875,28.8401,41.9521,-18.4668,-11.1193,8.29008,-14.1911,2.87374,-16.1852,43.6509,-15.9241,4.75564,-24.1939
-12.0942,17.3748,-11.9953,1.67026,-15.673,-1.39686,7.12132,-2.41859,-0.443529,1.01506,-3.15266,3.69474,-2.70614,-1.56026,4.36807,-8.75169,-8.43656,-10.1682,14.4627,-10.4197,2.72633,6.52954,-5.3977,1.58988,4.27387e-15,1.59028e-14,-28.0573,-17.173,-75.1471,33.0542,15.6917,-13.1175,3.94401,7.12502,12.9799,-25.6322,4.27387e-15,1.59028e-14,-30.2904,16.2423,82.8276,34.74,-4.54008,-20.1094,18.5589,7.12502,6.23417,48.4471,-14.2722,6.32192,28.8182,41.7509,-18.3418,-11.1276,8.2541,-14.0829,2.78945,-16.2417,43.4621,-15.751,4.87088,-23.9222
-12.0963,17.3906,-11.9924,1.85603,-15.5185,-1.32626,7.03338,-2.42538,-0.382858,0.911056,-3.15748,3.60069,-2.77302,-1.56095,4.23493,-8.65671,-8.4816,-9.81146,14.1606,-10.524,2.64489,6.39794,-5.43281,1.51028,-3.38928e-14,2.62396e-14,-28.1705,-16.9359,-75.3913,33.8627,15.0892,-12.343,3.40296,7.12502,13.7265,-26.1243,-3.38928e-14,2.62396e-14,-30.1915,15.8765,82.9428,34.7504,-4.57784,-19.9735,19.7358,7.12502,6.36542,49.6202,-14.4096,6.25664,28.7139,41.5268,-18.1708,-11.1199,8.10161,-14.2642,2.70801,-16.3794,43.2478,-15.4782,5.03411,-23.7811
-12.0988,17.4076,-11.9835,2.10408,-15.5283,-1.26269,6.74493,-2.38183,-0.313426,0.884042,-3.10026,3.51557,-2.6527,-1.53451,4.08717,-8.74982,-8.53593,-9.58934,14.0356,-10.6226,2.67854,6.36862,-5.46357,1.47616,2.37548e-14,-1.27222e-14,-28.1875,-16.7872,-75.6003,34.6462,14.6623,-12.1529,2.99906,7.12502,13.9096,-26.5157,2.37548e-14,-1.27222e-14,-29.9826,15.5261,83.1117,34.7713,-4.64161,-19.2954,21.2362,7.12502,7.02,51.0998,-14.543,6.31238,28.6006,41.3148,-18.0451,-11.0597,7.99294,-14.4086,2.76734,-16.5273,42.9944,-15.305,5.2175,-23.6441
-12.1018,17.4232,-11.9763,2.27178,-15.5911,-1.21547,6.55244,-2.37231,-0.254821,0.896713,-3.08857,3.44648,-2.53993,-1.53089,3.97032,-9.08798,-8.53392,-9.46754,14.1116,-10.6232,2.79618,6.44954,-5.44474,1.47872,1.07841e-13,4.77083e-15,-28.0338,-16.8306,-75.8085,35.0739,14.5654,-12.8701,2.75001,7.12502,13.2184,-26.8109,1.07841e-13,4.77083e-15,-29.6818,15.376,83.2241,34.5578,-4.70691,-19.2999,20.8026,7.12502,7.0157,50.6663,-14.6354,6.42179,28.5145,41.1241,-17.8652,-11.0039,7.90681,-14.4401,2.88486,-16.6414,42.7194,-15.1625,5.30121,-23.4707
-12.106,17.4389,-11.9687,2.38076,-15.601,-1.19087,6.47704,-2.38587,-0.209349,0.898395,-3.10536,3.41955,-2.49887,-1.54021,3.91392,-9.57672,-8.53799,-9.38338,14.3592,-10.6013,2.816,6.6071,-5.42359,1.44875,-4.01545e-14,1.90833e-14,-27.785,-16.9631,-75.9686,35.34,14.5488,-13.3924,2.8108,7.12502,12.7149,-26.7821,-4.01545e-14,1.90833e-14,-29.4625,15.2571,83.3857,34.4101,-4.86815,-18.0116,21.3081,7.12502,8.25909,51.1267,-14.6702,6.44491,28.4598,40.9541,-17.7625,-10.8477,8.22203,-14.4177,2.93494,-16.7204,42.4387,-15.3043,5.90209,-25.4536
-12.1094,17.4554,-11.9581,2.45081,-15.4852,-1.11075,6.35218,-2.41124,-0.162433,0.922575,-3.13924,3.39594,-2.40576,-1.5589,3.85802,-9.78158,-8.62369,-9.44504,14.317,-10.7042,2.9311,6.64477,-5.46371,1.47514,-3.35946e-14,2.14687e-14,-27.5517,-16.935,-76.0965,35.7313,14.2139,-13.4538,2.95186,7.12502,12.6558,-26.6447,-3.35946e-14,2.14687e-14,-29.2349,15.0028,83.6571,34.3954,-5.01744,-12.8425,25.1518,7.12502,13.245,54.711,-14.6213,6.27361,28.352,40.7938,-17.7455,-10.6897,8.2712,-14.3144,2.92544,-16.8588,42.1665,-16.1446,7.40643,-30.4157
-12.1103,17.4659,-11.9537,2.48973,-15.366,-0.983369,6.37803,-2.48329,-0.224771,0.841358,-3.23632,3.41431,-2.49307,-1.60489,3.92411,-9.52525,-8.66104,-9.57389,13.9548,-10.771,3.05749,6.50335,-5.49325,1.54513,-2.46493e-14,5.56597e-15,-27.4781,-16.6096,-76.1366,36.0791,13.8754,-13.3385,3.33333,7.12502,12.7669,-26.2563,-2.46493e-14,5.56597e-15,-29.1678,14.9156,83.87,34.33,-5.41902,-15.2562,24.4283,7.12502,10.9177,54.1244,-14.5894,6.10892,28.1934,40.6388,-17.6292,-10.603,7.99933,-14.196,2.94103,-17.0428,41.9333,-14.9798,6.33442,-24.2679
-12.1095,17.4792,-11.9514,2.66892,-15.3806,-0.913762,6.38132,-2.55793,-0.3549,0.648454,-3.33674,3.53481,-2.67279,-1.64931,4.13811,-9.2785,-8.59989,-9.72584,13.7734,-10.6838,3.04719,6.40611,-5.46181,1.58788,6.03311e-14,-1.19271e-14,-27.5018,-16.2447,-75.9651,36.2614,13.8669,-13.1868,4.28666,7.12502,12.9131,-25.2938,6.03311e-14,-1.19271e-14,-29.2355,15.0907,84.0895,34.2119,-5.70548,-11.726,27.3577,7.12502,14.321,56.8438,-14.7305,6.04797,28.0544,40.4818,-17.5424,-10.3821,8.38063,-14.2329,2.96312,-17.1865,41.6989,-14.4781,6.10954,-21.5866
-12.1088,17.4964,-11.9495,2.98076,-15.3636,-0.951229,6.11791,-2.61111,-0.295212,0.562658,-3.40388,3.61016,-2.60829,-1.68348,4.17621,-9.38082,-8.57555,-9.76177,13.7208,-10.6358,3.06716,6.40671,-5.43687,1.60112,-7.36497e-14,2.78299e-14,-27.3655,-16.0761,-75.9243,36.4715,13.676,-13.1823,4.97991,7.12502,12.9175,-24.6003,-7.36497e-14,2.78299e-14,-29.0397,15.0966,84.3219,34.0364,-5.684,-21.3328,18.0164,7.12502,5.05297,47.9361,-14.9918,5.938,28.0262,40.2996,-17.4672,-10.1676,8.70715,-14.4109,2.95394,-17.2109,41.4584,-14.4091,6.24337,-21.139
-12.1099,17.5094,-11.947,3.04731,-15.2582,-0.975337,6.03036,-2.68734,-0.16374,0.579906,-3.49953,3.57195,-2.54484,-1.73361,4.06386,-9.51761,-8.52624,-9.66688,13.6258,-10.5904,3.22291,6.39927,-5.3956,1.63667,-8.24956e-15,3.97569e-15,-27.1525,-15.9237,-76.1749,36.7179,13.385,-13.6692,4.37928,7.12502,12.4481,-25.23,-8.24956e-15,3.97569e-15,-28.8342,14.8956,84.4155,33.922,-5.72212,-11.0839,30.7254,7.12502,14.9396,60.1666,-14.9331,5.78306,28.0369,40.08,-17.3894,-10.0574,8.89272,-14.3468,2.8837,-17.215,41.198,-14.7521,6.61765,-22.9937
-12.1127,17.5197,-11.9441,2.99261,-15.3234,-1.0243,6.17449,-2.72186,-0.138307,0.543815,-3.5396,3.5913,-2.66022,-1.75192,4.08289,-9.47165,-8.40465,-9.53921,13.6171,-10.4576,3.27237,6.37523,-5.32242,1.64922,-8.37877e-14,1.51076e-14,-27.0968,-15.7211,-76.3229,36.9156,13.3076,-13.9709,3.77113,7.12502,12.1571,-25.8556,-8.37877e-14,1.51076e-14,-28.8789,14.6845,84.5009,33.9861,-5.77937,-11.3871,28.1393,7.12502,14.6476,57.6019,-14.6931,5.79121,28.0909,39.8237,-17.3485,-9.93289,9.37953,-14.1611,2.87452,-17.1837,40.9297,-15.3899,7.35716,-27.3144
-12.1162,17.5284,-11.9427,3.11358,-15.5385,-1.15036,6.14976,-2.6659,-0.107378,0.489406,-3.4603,3.65748,-2.70596,-1.71151,4.129,-9.33574,-8.3473,-9.40038,13.5703,-10.4093,3.24186,6.32447,-5.29628,1.63047,1.5207e-14,-2.8625e-14,-27.1839,-15.6274,-76.2678,37.1415,13.2262,-13.8009,4.00347,7.12502,12.3211,-25.6135,1.5207e-14,-2.8625e-14,-28.9067,14.4213,84.6588,34.07,-5.93975,-11.7174,26.7888,7.12502,14.3293,56.2743,-14.6533,5.94417,28.2159,39.5594,-17.2391,-9.84644,9.36307,-14.1323,2.99068,-17.0682,40.6758,-15.5647,7.81141,-29.4164
-12.1179,17.537,-11.9348,3.27136,-15.6713,-1.24314,5.97332,-2.60589,-0.0159865,0.475213,-3.37674,3.68446,-2.63153,-1.67168,4.08946,-9.20945,-8.36544,-9.35774,13.339,-10.4635,3.35403,6.23614,-5.31195,1.66323,-8.24956e-15,2.38542e-15,-27.3131,-15.435,-76.2323,37.5224,12.9802,-13.741,3.89785,7.12502,12.3788,-25.7156,-8.24956e-15,2.38542e-15,-28.8672,14.0517,84.8614,34.1652,-6.09939,-11.758,26.5107,7.12502,14.2902,55.9989,-14.6684,5.99568,28.2847,39.3028,-17.0709,-9.82164,8.72149,-14.0821,3.05019,-16.9982,40.4044,-15.462,7.8977,-29.1552
-12.1163,17.545,-11.9267,3.38153,-15.76,-1.26008,5.91334,-2.55374,0.0476943,0.436937,-3.30281,3.6931,-2.64577,-1.6349,4.05509,-9.39183,-8.39551,-9.32069,13.3272,-10.5063,3.45164,6.26908,-5.32068,1.67643,3.21037e-14,8.74653e-15,-27.3791,-15.1786,-76.2733,37.9287,12.665,-13.6774,3.52254,7.12502,12.4402,-26.0872,3.21037e-14,8.74653e-15,-28.7882,13.654,85.0776,34.2698,-6.0819,-11.382,26.689,7.12502,14.6524,56.1514,-14.6605,5.9179,28.2532,39.0516,-16.906,-9.67446,8.30068,-13.9736,3.03896,-17.0273,40.1132,-15.3695,7.96758,-28.9447
-12.1139,17.5553,-11.9235,3.44608,-15.8094,-1.15496,5.99835,-2.54666,-0.0555963,0.331633,-3.29429,3.73124,-2.79474,-1.62645,4.16123,-9.54066,-8.41347,-9.40885,13.4467,-10.5179,3.52651,6.34226,-5.32374,1.70347,-3.598e-14,1.98785e-14,-27.3254,-15.0899,-76.2401,37.9949,12.5993,-13.6869,3.59261,7.12502,12.431,-26.0177,-3.598e-14,1.98785e-14,-28.7402,13.507,85.2596,34.2692,-6.0695,-11.1429,26.8324,7.12502,14.8828,56.2778,-14.64,5.75197,28.0932,38.8005,-16.781,-9.4244,8.04096,-13.8438,2.93817,-17.1863,39.7711,-15.2144,8.08667,-28.8337
-12.1125,17.5702,-11.917,3.51052,-15.8271,-1.08746,6.01961,-2.63225,-0.166711,0.228993,-3.4098,3.84618,-2.89119,-1.68018,4.35793,-9.34262,-8.38538,-9.66997,13.3058,-10.4689,3.61256,6.27998,-5.30859,1.78545,2.10712e-14,1.27222e-14,-27.1787,-14.89,-76.189,37.8744,12.7509,-13.8985,3.65486,7.12502,12.227,-25.9677,2.10712e-14,1.27222e-14,-28.8767,13.6689,85.3936,34.4058,-6.07717,-10.8834,27.031,7.12502,15.1328,56.4577,-14.5707,5.57466,27.9675,38.5552,-16.784,-9.18886,8.02358,-13.6882,2.77224,-17.2971,39.3992,-15.0557,8.23844,-28.6853
-12.1133,17.5852,-11.908,3.62724,-15.9454,-1.18498,5.87848,-2.65229,-0.0802508,0.248154,-3.43264,3.92019,-2.7912,-1.69426,4.37903,-9.34246,-8.32312,-9.79961,13.2298,-10.384,3.75697,6.26488,-5.26267,1.86039,-5.34731e-14,6.91771e-14,-27.0238,-14.5882,-76.2828,37.9684,12.6725,-14.0342,3.37133,7.12502,12.0961,-26.259,-5.34731e-14,6.91771e-14,-28.9482,13.5589,85.5411,34.6512,-6.07657,-11.0903,26.6937,7.12502,14.9335,56.1353,-14.4901,5.54709,28.0139,38.3236,-16.8849,-8.88319,8.78893,-13.5626,2.70474,-17.2157,39.0451,-14.9306,8.38115,-28.3866
-12.1147,17.5945,-11.9002,3.78501,-16.0679,-1.23393,5.67997,-2.58754,-0.0126768,0.293922,-3.34758,3.92864,-2.64244,-1.65517,4.32996,-9.47407,-8.28288,-9.83222,13.1974,-10.3429,3.97799,6.28736,-5.22573,1.93426,3.8763e-15,2.06736e-14,-26.8385,-14.6034,-76.3169,37.9848,12.6156,-14.0066,3.18011,7.12502,12.1228,-26.4487,3.8763e-15,2.06736e-14,-28.858,13.2167,85.7562,34.7198,-6.37107,-11.9818,25.8139,7.12502,14.0745,55.3173,-14.5144,5.52937,28.0201,38.1163,-16.9318,-8.61824,9.51008,-13.5402,2.6584,-17.1773,38.755,-14.8763,8.51074,-28.1157
-12.1139,17.598,-11.8949,3.92759,-16.0994,-1.19848,5.57769,-2.58062,-0.0229587,0.262003,-3.33986,3.94787,-2.617,-1.65122,4.35054,-9.49117,-8.32353,-9.81092,13.0206,-10.4055,4.05682,6.24121,-5.24733,1.95154,-2.29596e-14,-1.98785e-14,-26.636,-14.7507,-76.2645,37.8119,12.7609,-14.0273,2.90276,7.12502,12.1028,-26.7272,-2.29596e-14,-1.98785e-14,-28.8095,13.1617,85.8747,34.7699,-6.76546,-12.3344,25.233,7.12502,13.7347,54.7597,-14.5855,5.46224,27.9459,37.9423,-16.9599,-8.48514,9.8537,-13.5797,2.49897,-17.2352,38.5421,-14.8385,8.65024,-28.1024
-12.1133,17.5988,-11.895,3.99536,-16.1688,-1.24869,5.60032,-2.57898,0.020717,0.25741,-3.3336,3.97814,-2.63559,-1.64827,4.35859,-9.59489,-8.44497,-9.65222,12.918,-10.5697,3.98398,6.22464,-5.32168,1.88517,-5.02925e-14,-1.11319e-14,-26.5458,-14.616,-76.2918,37.8368,12.6883,-14.1479,2.67257,7.12502,11.9865,-26.9642,-5.02925e-14,-1.11319e-14,-28.7244,13.1218,85.9069,34.8716,-6.90086,-12.2453,25.1281,7.12502,13.8206,54.6489,-14.5577,5.51991,27.9846,37.7892,-16.9929,-8.4076,10.2996,-13.5118,2.41676,-17.1909,38.3607,-14.7943,8.75087,-28.1439
-12.1143,17.6026,-11.8972,4.08553,-16.2989,-1.34992,5.63896,-2.54106,0.0389267,0.25588,-3.27938,4.05109,-2.6596,-1.621,4.42292,-9.68756,-8.53653,-9.53229,12.8572,-10.6925,3.92606,6.21933,-5.37735,1.83342,-4.07509e-15,-1.03368e-14,-26.5123,-14.1522,-76.3926,38.0115,12.1411,-14.214,2.76164,7.12502,11.9228,-26.8789,-4.07509e-15,-1.03368e-14,-28.6221,13.012,85.9934,35.0312,-6.76256,-12.0563,25.5938,7.12502,14.0028,55.1022,-14.5463,5.62229,28.0864,37.6234,-16.9411,-8.30173,10.9236,-13.4048,2.44292,-17.0894,38.1504,-14.7808,8.85149,-28.2321
-12.1151,17.6115,-11.894,4.20948,-16.4058,-1.31679,5.54361,-2.51183,-0.00736846,0.224217,-3.24424,4.06644,-2.6381,-1.60292,4.45828,-9.71912,-8.52293,-9.64599,12.8808,-10.6813,4.1058,6.24774,-5.3639,1.90619,5.96354e-16,-2.3059e-14,-26.4271,-14.022,-76.4575,37.9434,11.8978,-14.1723,2.92167,7.12502,11.963,-26.7165,5.96354e-16,-2.3059e-14,-28.5811,12.9446,86.0376,35.2173,-6.51326,-11.8558,26.0541,7.12502,14.1959,55.549,-14.59,5.6249,28.0243,37.4197,-16.8843,-8.16583,11.2639,-13.3555,2.39187,-17.1539,37.9034,-14.7658,9.02443,-28.123
-12.1161,17.6265,-11.8879,4.30562,-16.5383,-1.27853,5.37559,-2.46364,0.0173448,0.264882,-3.18481,4.01667,-2.51063,-1.57573,4.37719,-9.8115,-8.47899,-9.82281,12.9837,-10.64,4.44462,6.32185,-5.32672,2.03793,1.67973e-14,1.03368e-14,-26.2784,-14.5355,-76.3833,37.6421,12.5952,-14.117,3.18955,7.12502,12.0163,-26.4455,1.67973e-14,1.03368e-14,-28.4126,12.7249,86.0469,35.2216,-6.48231,-12.0638,25.932,7.12502,13.9955,55.4409,-14.6071,5.62296,27.954,37.1639,-16.7931,-8.05403,11.2045,-13.2872,2.33605,-17.2288,37.6884,-14.7283,9.18069,-27.7939
-12.1171,17.6407,-11.887,4.41368,-16.6844,-1.45931,5.35361,-2.39791,0.209886,0.319383,-3.0874,4.03811,-2.45829,-1.53029,4.2812,-9.92216,-8.4771,-9.92571,13.0375,-10.6557,4.72874,6.38027,-5.3166,2.13578,-1.55052e-14,-1.11319e-14,-26.104,-15.0178,-76.289,37.3494,13.1836,-14.0249,3.22293,7.12502,12.1051,-26.4069,-1.55052e-14,-1.11319e-14,-28.1948,12.5237,86.0615,35.2074,-6.52401,-12.0845,25.8366,7.12502,13.9756,55.3468,-14.571,5.69916,28.1311,36.8648,-16.6515,-7.93822,11.3588,-13.2403,2.30319,-17.0524,37.5452,-14.6994,9.30278,-27.6614
-12.1167,17.6391,-11.8888,4.53391,-16.8079,-1.72771,5.43555,-2.35359,0.45004,0.303153,-3.00953,4.09977,-2.53563,-1.49285,4.20986,-10.1044,-8.4888,-9.90443,13.1969,-10.6752,4.80648,6.46665,-5.31662,2.14505,-1.03368e-14,-3.57812e-14,-25.978,-15.3034,-76.254,37.0428,13.4367,-13.8329,3.03126,7.12502,12.2902,-26.5876,-1.03368e-14,-3.57812e-14,-28.105,12.5644,85.9857,35.3351,-6.40125,-11.6249,26.1112,7.12502,14.4185,55.5904,-14.4466,5.78963,28.4122,36.5564,-16.5299,-7.95754,11.1211,-13.2531,2.30998,-16.7774,37.4815,-14.6819,9.39991,-27.7356
-12.1163,17.6332,-11.8863,4.63179,-16.9144,-1.80786,5.44281,-2.32708,0.501474,0.257707,-2.96866,4.12135,-2.59093,-1.472,4.20254,-10.1543,-8.49697,-9.7407,13.2234,-10.6829,4.64126,6.4657,-5.3239,2.06495,5.98342e-14,7.15625e-15,-25.9859,-15.4313,-76.2142,36.8347,13.6549,-13.7163,3.27789,7.12502,12.4026,-26.3342,5.98342e-14,7.15625e-15,-28.1076,12.673,85.8882,35.4696,-6.27095,-11.3955,26.2528,7.12502,14.6395,55.716,-14.3119,5.80083,28.4859,36.2641,-16.432,-8.0056,10.6269,-13.2838,2.31715,-16.7177,37.4495,-14.68,9.49081,-27.6024
-12.1162,17.6357,-11.8804,4.73638,-16.9618,-1.72865,5.3414,-2.31557,0.399871,0.192518,-2.95983,4.13461,-2.59622,-1.46582,4.26999,-9.94307,-8.52788,-9.5746,12.9816,-10.7306,4.43233,6.33495,-5.35706,1.98173,-7.66315e-14,-1.03368e-14,-26.091,-15.1144,-76.2408,36.8591,13.1457,-13.6838,3.7762,7.12502,12.4339,-25.834,-7.66315e-14,-1.03368e-14,-28.1602,12.7208,85.8644,35.5332,-6.17382,-11.437,26.0568,7.12502,14.5995,55.5229,-14.2667,5.71007,28.3641,36.0263,-16.4982,-7.83527,10.7553,-13.3544,2.21199,-16.8372,37.4031,-14.7001,9.62252,-27.2866
-12.1155,17.641,-11.8759,4.85733,-16.996,-1.68648,5.27868,-2.3427,0.282173,0.0691901,-2.99862,4.22708,-2.67488,-1.48163,4.43682,-9.89875,-8.51496,-9.63574,13.0279,-10.693,4.32236,6.33707,-5.35107,1.9614,4.1546e-14,-1.90833e-14,-26.2108,-14.5055,-76.2982,36.9064,12.2408,-13.5705,3.97507,7.12502,12.5432,-25.6284,4.1546e-14,-1.90833e-14,-28.3313,12.8754,85.8571,35.5942,-6.05608,-11.3931,26.0335,7.12502,14.6418,55.4966,-14.2907,5.57662,28.2689,35.8732,-16.6659,-7.5827,11.279,-13.4187,2.06986,-16.9231,37.3118,-14.7095,9.82543,-27.2365
-12.1151,17.6409,-11.8742,4.99076,-17.0626,-1.70669,5.26822,-2.36363,0.210534,-0.0705543,-3.02403,4.32754,-2.80262,-1.49026,4.58879,-10.0377,-8.41377,-9.872,13.3845,-10.5319,4.41384,6.48166,-5.27803,2.03149,4.60187e-14,7.95139e-16,-26.3006,-14.5619,-76.1248,36.6069,12.5361,-13.5603,4.11603,7.12502,12.553,-25.4869,4.60187e-14,7.95139e-16,-28.5937,13.109,85.7718,35.7607,-5.90053,-11.1034,26.3097,7.12502,14.9209,55.7523,-14.3769,5.48608,28.2552,35.7861,-16.7782,-7.41585,11.791,-13.4775,2.03556,-16.9315,37.1963,-14.7386,9.95473,-27.0572
-12.1157,17.6371,-11.8731,5.1162,-17.1633,-1.73332,5.19975,-2.34677,0.205933,-0.131391,-3.00104,4.34843,-2.82756,-1.47779,4.61022,-10.013,-8.34788,-9.98004,13.5072,-10.4556,4.55927,6.52508,-5.23713,2.10117,-6.26172e-14,7.15625e-15,-26.3366,-15.2507,-75.8072,36.123,13.8015,-13.643,4.35018,7.12502,12.4733,-25.2576,-6.26172e-14,7.15625e-15,-28.7251,13.2797,85.6175,35.9351,-5.6372,-10.9467,26.6318,7.12502,15.0718,56.0631,-14.4559,5.5244,28.2671,35.7127,-16.8839,-7.30549,12.3494,-13.5477,2.08122,-16.9199,37.1253,-14.7947,9.9748,-26.5408
-12.1156,17.6359,-11.8722,5.12566,-17.237,-1.72492,5.2461,-2.38103,0.144472,-0.156266,-3.04752,4.39317,-2.87014,-1.49924,4.69854,-9.89071,-8.30796,-10.0994,13.4477,-10.4058,4.6414,6.49256,-5.21484,2.15644,-4.62174e-14,1.74931e-14,-26.4137,-15.2617,-75.6682,35.9576,14.2038,-13.6542,4.23187,7.12502,12.4625,-25.3766,-4.62174e-14,1.74931e-14,-28.7805,13.5516,85.4844,35.9598,-5.34318,-11.1683,26.9802,7.12502,14.8584,56.4274,-14.3837,5.58782,28.2511,35.6157,-16.9869,-7.23567,12.7473,-13.5148,2.06805,-16.9608,37.1037,-14.7372,10.049,-26.3558
-12.1145,17.635,-11.8729,5.10194,-17.2551,-1.77223,5.41191,-2.4004,0.145969,-0.177938,-3.06709,4.43249,-2.9821,-1.50711,4.75039,-9.98748,-8.28909,-10.1063,13.5441,-10.3768,4.6667,6.53948,-5.19822,2.16338,2.61402e-14,-4.6118e-14,-26.534,-14.9807,-75.7228,35.9898,13.8723,-13.788,3.68746,7.12502,12.3335,-25.9288,2.61402e-14,-4.6118e-14,-28.7629,13.7212,85.364,35.8875,-5.121,-11.2047,27.2078,7.12502,14.8233,56.6577,-14.2403,5.60533,28.2963,35.4728,-17.0458,-7.19386,13.1183,-13.4641,2.01005,-16.9435,37.118,-14.6124,10.1651,-26.3177
-12.1137,17.6376,-11.8727,5.18939,-17.3156,-1.92247,5.48681,-2.36553,0.282152,-0.220482,-3.00732,4.45939,-3.07861,-1.47745,4.70312,-9.99033,-8.27877,-10.0062,13.5572,-10.3765,4.64946,6.53755,-5.19452,2.14251,1.10325e-14,1.59028e-14,-26.6485,-15.0753,-75.7107,35.8418,13.8065,-13.8345,3.65466,7.12502,12.2886,-25.9643,1.10325e-14,1.59028e-14,-28.7451,13.7529,85.2434,35.7813,-5.14753,-11.0661,27.3175,7.12502,14.9568,56.7574,-14.1963,5.5815,28.438,35.289,-17.0829,-7.03608,13.7275,-13.5007,2.01424,-16.8076,37.1323,-14.6157,10.2719,-26.2156
-12.1139,17.6428,-11.8697,5.32733,-17.3813,-2.12639,5.43354,-2.3936,0.450494,-0.275808,-3.0312,4.5515,-3.10802,-1.49087,4.70569,-9.64924,-8.21082,-10.0334,13.2863,-10.3034,4.64092,6.38837,-5.1659,2.16941,-3.02153e-14,5.56597e-14,-26.7669,-14.9946,-75.6306,35.6388,13.7799,-13.609,4.27012,7.12502,12.5061,-25.3356,-3.02153e-14,5.56597e-14,-28.8616,13.9591,85.1111,35.6695,-5.36678,-10.983,27.2895,7.12502,15.0369,56.7234,-14.1876,5.544,28.6334,35.1132,-17.1525,-6.88861,14.3471,-13.5632,2.01029,-16.6063,37.1228,-14.6955,10.3382,-26.0178
-12.1146,17.6454,-11.8667,5.3698,-17.2703,-2.1933,5.39895,-2.47658,0.497854,-0.311653,-3.13704,4.61883,-3.11648,-1.54384,4.75696,-9.34394,-8.17064,-10.1371,13.0927,-10.2641,4.68319,6.27977,-5.15322,2.21756,5.65542e-14,-3.81667e-14,-26.8337,-14.9448,-75.5704,35.4179,13.8294,-13.4637,4.64405,7.12502,12.6462,-24.9531,5.65542e-14,-3.81667e-14,-28.9326,14.1354,84.9778,35.513,-5.38976,-11.1491,27.0905,7.12502,14.8768,56.5364,-14.1054,5.48365,28.7125,34.9713,-17.2148,-6.93692,15.6558,-13.5977,1.80119,-16.5296,37.0815,-14.6622,10.381,-25.6032
-12.1157,17.6478,-11.8628,5.35359,-17.1972,-2.10582,5.39924,-2.51174,0.385973,-0.346655,-3.18949,4.6342,-3.14191,-1.56751,4.8416,-9.18389,-8.16993,-10.2413,13.0609,-10.2699,4.72514,6.2509,-5.1608,2.25272,-6.08281e-14,4.05521e-14,-26.8006,-15.3435,-75.4364,34.9573,14.2644,-13.4073,4.83995,7.12502,12.7005,-24.7538,-6.08281e-14,4.05521e-14,-29.0111,14.1542,84.8704,35.3506,-5.50792,-11.7737,26.8153,7.12502,14.2751,56.3047,-14.0449,5.43523,28.6289,34.8593,-17.0929,-7.01704,17.3452,-13.5525,1.61103,-16.6355,37.0012,-14.6234,10.5131,-25.5336
-12.1174,17.6511,-11.8571,5.38346,-17.4555,-2.09597,5.30369,-2.45368,0.360757,-0.303839,-3.11891,4.61363,-3.04921,-1.53372,4.82178,-9.18902,-8.1598,-10.2009,13.0247,-10.2575,4.70789,6.23615,-5.15369,2.24282,-3.47873e-15,3.89618e-14,-26.7172,-15.8505,-75.3553,34.4728,14.7489,-13.2711,5.16949,7.12502,12.8318,-24.4161,-3.47873e-15,3.89618e-14,-29.161,14.2055,84.6962,35.4094,-5.9454,-12.1142,26.6165,7.12502,13.9469,56.1287,-14.0316,5.5485,28.5818,34.7645,-16.9368,-6.90292,18.047,-13.4381,1.69501,-16.7062,36.9147,-14.6746,10.7462,-25.6379
-12.1193,17.6549,-11.8518,5.47343,-17.67,-2.14117,5.16678,-2.41414,0.38793,-0.2246,-3.07197,4.61607,-2.89524,-1.51364,4.79473,-9.5156,-8.13662,-10.1397,13.1705,-10.1982,4.66003,6.32769,-5.12055,2.20972,-3.598e-14,-3.4191e-14,-26.6986,-15.9784,-75.3467,34.2484,14.9685,-13.3062,5.24927,7.12502,12.7981,-24.3384,-3.598e-14,-3.4191e-14,-29.2183,14.4253,84.5181,35.576,-6.12353,-11.7879,26.7868,7.12502,14.2614,56.2771,-14.0427,5.62032,28.593,34.6661,-16.9716,-6.73412,16.8187,-13.4216,1.74525,-16.6978,36.8285,-14.6564,10.9064,-25.5186
-12.1209,17.6572,-11.8497,5.57917,-17.6272,-2.25837,5.15491,-2.45264,0.451231,-0.225148,-3.11822,4.69505,-2.88458,-1.53766,4.84444,-9.80998,-8.10768,-10.1261,13.3731,-10.1212,4.55858,6.43074,-5.08634,2.16935,2.11706e-14,-3.49861e-14,-26.8298,-15.8477,-75.2703,34.1462,14.917,-13.4153,5.22567,7.12502,12.6929,-24.3686,2.11706e-14,-3.49861e-14,-29.2522,14.7279,84.3817,35.5934,-6.07519,-11.4387,26.9323,7.12502,14.5978,56.3986,-14.045,5.59886,28.7203,34.5602,-17.0368,-6.70186,14.4735,-13.4809,1.61822,-16.5616,36.7441,-14.6008,10.9769,-25.0861
-12.1221,17.6609,-11.8469,5.62536,-17.5668,-2.32767,5.18966,-2.49289,0.518418,-0.253646,-3.16493,4.72047,-2.93215,-1.56102,4.8396,-9.89423,-8.08384,-9.98623,13.4422,-10.0812,4.40847,6.44883,-5.07037,2.10064,-4.32357e-14,-3.18055e-15,-27.0333,-15.8509,-75.19,34.0129,14.8194,-13.3808,5.2399,7.12502,12.7261,-24.3523,-4.32357e-14,-3.18055e-15,-29.2483,14.8947,84.2107,35.4301,-6.12017,-11.4222,26.8885,7.12502,14.6137,56.3536,-14.0129,5.51398,28.7945,34.4647,-17.0013,-6.63079,15.9812,-13.4736,1.46442,-16.4817,36.6617,-14.5553,11.0715,-24.2679
-12.123,17.668,-11.8418,5.64396,-17.5197,-2.21409,5.12442,-2.51859,0.444926,-0.250301,-3.20715,4.66879,-2.88758,-1.58178,4.82587,-10.0088,-8.08385,-9.85209,13.5041,-10.0819,4.33846,6.47724,-5.06777,2.05271,4.3832e-14,-1.90833e-14,-27.1565,-16.0261,-75.1459,33.7992,14.9407,-13.3589,5.21639,7.12502,12.7473,-24.3745,4.3832e-14,-1.90833e-14,-29.0948,14.9858,84.0448,35.1376,-6.14488,-11.5553,27.0616,7.12502,14.4855,56.536,-14.0311,5.29854,28.6585,34.4037,-16.9517,-6.49494,14.9316,-13.4705,1.37115,-16.6041,36.5804,-14.4578,11.1092,-24.4839
-12.1239,17.6712,-11.8398,5.68649,-17.489,-2.17463,5.02734,-2.52123,0.415194,-0.231265,-3.21691,4.64215,-2.81245,-1.58749,4.80895,-9.92603,-8.13486,-9.84155,13.4355,-10.1675,4.3908,6.44947,-5.10545,2.06275,5.25785e-14,-3.4191e-14,-27.2168,-16.4074,-75.0817,33.4943,15.2385,-13.2372,5.48169,7.12502,12.8645,-24.1018,5.25785e-14,-3.4191e-14,-28.964,15.0791,83.8876,34.8602,-6.22868,-11.4114,27.365,7.12502,14.6241,56.8294,-14.0705,5.1767,28.6069,34.3658,-16.9759,-6.37232,13.8045,-13.4863,1.34217,-16.6417,36.5225,-14.3863,11.1043,-25.7488
-12.1263,17.671,-11.8416,5.73181,-17.5709,-2.20814,5.00217,-2.48214,0.404942,-0.200839,-3.16749,4.6375,-2.77042,-1.56354,4.80387,-9.82162,-8.18234,-9.81842,13.3471,-10.25,4.43348,6.41037,-5.1421,2.06936,1.38454e-13,-3.89618e-14,-27.2911,-16.7158,-75.0594,33.2944,15.3947,-13.1568,5.68558,7.12502,12.9421,-23.8931,1.38454e-13,-3.89618e-14,-28.8853,15.1471,83.7336,34.6961,-6.24009,-11.1082,27.5588,7.12502,14.9163,57.0017,-14.0915,5.19959,28.6366,34.313,-16.9635,-6.22618,13.9115,-13.4725,1.36238,-16.6127,36.4944,-14.3907,11.1694,-26.4129
-12.1295,17.6715,-11.8408,5.81177,-17.6509,-2.27442,4.92505,-2.47336,0.444597,-0.14304,-3.15821,4.6446,-2.66981,-1.56135,4.78163,-10.0342,-8.12521,-9.85729,13.5176,-10.1651,4.52767,6.5019,-5.09337,2.1033,-2.79292e-14,-7.15625e-15,-27.2543,-17.0128,-75.0493,32.9892,15.6215,-13.2592,5.71991,7.12502,12.8434,-23.865,-2.79292e-14,-7.15625e-15,-28.7648,15.2233,83.5846,34.5823,-6.04964,-11.2647,27.5859,7.12502,14.7655,57.04,-14.1113,5.22413,28.7007,34.2305,-16.8312,-6.12942,14.3037,-13.4907,1.36386,-16.547,36.4904,-14.4124,11.2355,-26.578
-12.133,17.6761,-11.8341,5.94346,-17.6734,-2.4202,4.81637,-2.4919,0.559501,-0.174093,-3.17759,4.7026,-2.64243,-1.57258,4.77388,-10.1872,-8.05647,-9.91966,13.7985,-10.06,4.54873,6.61485,-5.04361,2.12092,-3.24019e-14,-1.66979e-14,-27.2239,-17.6862,-74.8416,32.3384,16.2962,-13.3326,6.04753,7.12502,12.7726,-23.5418,-3.24019e-14,-1.66979e-14,-28.8616,15.3225,83.4412,34.4846,-5.94014,-11.6814,27.7657,7.12502,14.364,57.2488,-14.1318,5.21799,28.8481,34.1254,-16.6559,-6.14803,14.3136,-13.5612,1.29659,-16.3802,36.4894,-14.4951,11.258,-26.7038
-12.1383,17.6813,-11.8289,5.97175,-17.8744,-2.49067,4.97155,-2.44244,0.458572,-0.318917,-3.10426,4.80654,-2.87412,-1.52998,4.94975,-10.0989,-8.05405,-10.0011,13.9726,-10.0437,4.44555,6.65372,-5.05097,2.10317,-6.6891e-14,2.70347e-14,-27.4542,-18.1755,-74.4869,31.7748,16.912,-13.3289,6.59195,7.12502,12.7761,-22.9971,-6.6891e-14,2.70347e-14,-29.2263,15.5527,83.3064,34.4137,-6.06223,-11.6254,28.131,7.12502,14.4179,57.6102,-14.0546,5.31543,28.9048,34.0199,-16.5818,-6.1262,13.2492,-13.5135,1.37711,-16.3046,36.4671,-14.562,11.3366,-27.0053
