JuanDHNZ/ProyectoFinalCD/preprocessing/sports_trials_csv/17_08.csv
root1,root2,root3,root4,root5,root6,lowerback1,lowerback2,lowerback3,upperback1,upperback2,upperback3,thorax1,thorax2,thorax3,lowerneck1,lowerneck2,lowerneck3,upperneck1,upperneck2,upperneck3,head1,head2,head3,rclavicle1,rclavicle2,rhumerus1,rhumerus2,rhumerus3,rradius1,rwrist1,rhand1,rhand2,rfingers1,rthumb1,rthumb2,lclavicle1,lclavicle2,lhumerus1,lhumerus2,lhumerus3,lradius1,lwrist1,lhand1,lhand2,lfingers1,lthumb1,lthumb2,rfemur1,rfemur2,rfemur3,rtibia1,rfoot1,rfoot2,rtoes1,lfemur1,lfemur2,lfemur3,ltibia1,lfoot1,lfoot2,ltoes1
-9.6333,17.4274,-14.1648,0.959677,-8.61031,1.43746,4.666,-1.61609,-3.80668,0.528025,-2.30781,1.99365,-1.83842,-1.12148,4.33566,-17.6559,-0.278142,-6.3646,22.1646,1.2876,0.551257,9.94043,0.107058,1.42708,-1.23246e-14,7.95139e-16,-33.2566,-0.942519,-74.6414,37.6789,8.52609,3.474,9.63147,7.12502,28.9134,-18.1471,-1.23246e-14,7.95139e-16,-30.7136,-11.67,77.6967,45.5788,0.173341,-9.14652,27.5749,7.12502,16.8054,56.8677,-18.1963,-1.46309,21.1198,42.5241,-20.0262,-6.51522,16.0813,-6.88877,-3.89271,-17.9075,28.0736,-16.3834,10.6711,-18.2801
-9.6713,17.4271,-14.1534,0.917836,-8.51404,1.22412,5.00194,-1.59543,-3.71073,0.342548,-2.2831,2.15375,-2.21787,-1.09629,4.46419,-17.4097,-0.175208,-6.50646,22.2703,1.47737,0.459758,9.92611,0.169376,1.44343,-4.87022e-14,1.03368e-14,-33.6099,-0.496507,-74.5085,37.7282,8.31964,3.65656,9.65412,7.12502,29.0878,-18.0945,-4.87022e-14,1.03368e-14,-31.1372,-11.1679,77.8464,45.5183,-0.0680073,-8.95367,27.1346,7.12502,16.991,56.4115,-17.9203,-1.43905,21.5022,42.3045,-19.9331,-6.70119,15.4465,-7.12707,-3.95888,-17.5717,28.6635,-16.4773,10.7368,-18.0694
-9.71206,17.4335,-14.1344,0.906028,-8.41598,1.0806,5.07292,-1.545,-3.58323,0.276998,-2.20931,2.21966,-2.33524,-1.05624,4.46055,-17.1258,-0.172389,-6.63413,22.0804,1.5009,0.417253,9.80486,0.170714,1.44918,-1.6201e-14,0,-33.9414,-0.394276,-74.3821,37.873,8.2846,4.00926,9.41805,7.12502,29.4245,-18.2719,-1.6201e-14,0,-31.4361,-10.8679,77.9143,45.5074,-0.357226,-8.78525,27.3234,7.12502,17.1531,56.5863,-17.6944,-1.49735,21.8013,42.1727,-19.9625,-6.77307,15.0529,-7.33243,-3.99924,-17.301,29.1883,-16.348,10.6565,-16.9883
-9.74939,17.4283,-14.1135,0.80433,-8.45315,0.937888,5.13812,-1.45174,-3.44556,0.293851,-2.07726,2.28065,-2.37054,-0.990926,4.43985,-16.9682,-0.18005,-6.75598,21.9493,1.51844,0.377553,9.72874,0.168324,1.4555,2.08724e-15,-2.54444e-14,-34.1374,-0.3655,-74.2132,37.8784,8.31391,4.27326,9.59638,7.12502,29.6766,-18.049,2.08724e-15,-2.54444e-14,-31.6968,-10.5194,77.9848,45.4853,-0.52707,-8.76652,27.4298,7.12502,17.1712,56.6911,-17.4208,-1.53207,22.0689,42.0634,-20.0151,-6.65264,15.4274,-7.42063,-4.02352,-17.079,29.8216,-15.1434,10.697,-16.9469
-9.7871,17.4162,-14.0992,0.749944,-8.40931,0.785766,5.30955,-1.41628,-3.34061,0.1875,-2.02661,2.34318,-2.58311,-0.959359,4.45101,-16.7568,-0.112353,-6.89173,22.091,1.62642,0.414684,9.73434,0.207739,1.50513,1.62506e-14,5.56597e-15,-34.4164,-0.15343,-74.1418,37.8391,8.35023,4.27223,9.60282,7.12502,29.6756,-18.0427,1.62506e-14,5.56597e-15,-32.0906,-10.1119,78.0167,45.454,-0.591114,-8.54837,27.4669,7.12502,17.3811,56.7097,-17.2119,-1.56537,22.3701,41.9406,-20.3297,-6.59528,16.5734,-7.60634,-3.97254,-16.8325,30.5047,-14.7939,10.7131,-16.11
-9.82899,17.4109,-14.0918,0.7255,-8.15398,0.509187,5.52752,-1.37002,-3.00138,0.206213,-1.95014,2.29505,-2.70649,-0.922838,4.21065,-16.8434,-0.0827892,-6.75436,22.1868,1.6329,0.44464,9.78392,0.223208,1.4954,-9.14409e-15,-5.56597e-15,-34.5423,-0.442574,-74.1802,37.8955,8.4023,4.47594,9.61155,7.12502,29.87,-17.9992,-9.14409e-15,-5.56597e-15,-31.9776,-10.0454,77.8265,45.3551,-0.462702,-8.05304,28.041,7.12502,17.8578,57.2411,-16.9676,-1.54644,22.858,41.7371,-19.6826,-7.00366,14.5042,-7.97391,-3.88063,-16.3761,31.2511,-15.4867,10.4232,-14.0448
-9.86705,17.418,-14.077,0.540011,-7.9736,0.320213,5.63156,-1.22828,-2.58559,0.540254,-1.74221,2.12629,-2.45662,-0.834905,3.78107,-17.452,-0.161585,-6.44318,22.2355,1.50837,0.36795,9.92209,0.180539,1.40496,-4.57205e-15,5.1684e-15,-34.2185,-1.12306,-74.2006,37.7935,8.38235,4.7327,9.84387,7.12502,30.115,-17.7225,-4.57205e-15,5.1684e-15,-31.3577,-10.1024,77.5087,45.2639,-0.367131,-7.61567,28.4652,7.12502,18.2786,57.6264,-16.456,-1.54966,23.2012,41.3767,-19.5015,-7.11736,14.2991,-8.23951,-3.82662,-16.067,32.0946,-14.6963,10.4759,-17.4753
-9.90582,17.4318,-14.0531,0.274351,-7.96258,0.265181,5.58707,-1.06558,-2.39882,0.873676,-1.51717,2.00658,-2.11468,-0.735784,3.52775,-17.7014,-0.214175,-6.27927,22.1486,1.42514,0.297751,9.94228,0.149895,1.34264,-3.38431e-14,8.34896e-15,-33.9205,-1.60098,-74.1193,37.5646,8.39179,4.83172,10.0778,7.12502,30.2095,-17.4713,-3.38431e-14,8.34896e-15,-30.9479,-10.0412,77.3143,45.1862,-0.334525,-7.58132,27.8968,7.12502,18.3117,57.0549,-15.7825,-1.57563,23.3673,40.8654,-19.4197,-7.0491,14.6056,-8.44406,-3.74639,-15.9141,33.0027,-14.5753,10.7574,-18.1257
-9.94848,17.453,-14.0344,0.178422,-7.8256,0.13094,5.67027,-1.00991,-2.35086,0.887474,-1.43983,2.07658,-2.15241,-0.696892,3.56986,-17.4664,-0.209443,-6.35943,22.0225,1.44354,0.258135,9.85316,0.151301,1.34206,3.926e-15,-1.27222e-14,-33.9883,-1.78289,-73.8806,37.4227,8.59406,5.08478,10.2971,7.12502,30.4508,-17.2076,3.926e-15,-1.27222e-14,-31.0954,-9.75794,77.3698,45.1427,-0.393112,-7.57359,27.7425,7.12502,18.3191,56.8999,-15.3302,-1.65447,23.6736,40.3674,-19.1701,-7.2324,14.4873,-8.95851,-3.71876,-15.5789,33.8713,-14.5809,10.7282,-17.8358
-9.98933,17.48,-14.0172,0.170663,-7.65829,0.0920439,5.78929,-1.02306,-2.37005,0.810368,-1.45853,2.13667,-2.29497,-0.70224,3.64892,-17.4631,-0.159121,-6.44615,22.1177,1.56419,0.165312,9.88362,0.186118,1.34073,6.5102e-15,3.97569e-15,-33.9975,-1.65993,-73.7401,37.2507,8.7501,5.21243,10.1557,7.12502,30.5726,-17.3263,6.5102e-15,3.97569e-15,-31.4072,-9.17733,77.3949,45.1545,-0.501955,-7.23397,28.7356,7.12502,18.6458,57.862,-15.0771,-1.85035,23.8816,40.0241,-18.9653,-7.49218,13.5275,-9.5714,-3.54947,-15.3673,34.708,-14.2146,10.1403,-17.5957
-10.0259,17.476,-13.9981,0.104828,-7.55224,0.177074,5.81186,-0.988152,-2.4397,0.813906,-1.41747,2.105,-2.30633,-0.681067,3.65294,-17.4846,-0.0523814,-6.43733,22.2405,1.72959,0.11249,9.92638,0.253609,1.3441,-4.52235e-14,1.98785e-15,-33.9955,-1.43854,-73.7194,37.1948,8.69983,5.16877,9.65442,7.12502,30.5309,-17.8354,-4.52235e-14,1.98785e-15,-31.5306,-8.71432,77.3174,45.0258,-0.588271,-6.87636,29.425,7.12502,18.9897,58.5181,-14.8158,-2.0434,23.9146,39.7817,-18.9231,-7.60019,12.7707,-9.82364,-3.17876,-15.3414,35.5886,-14.0646,9.55667,-19.6126
-10.0586,17.4525,-13.9838,0.0990802,-7.3322,0.246398,5.8061,-0.899069,-2.44394,0.806656,-1.30078,2.02279,-2.32183,-0.622546,3.56136,-17.4866,-0.00446519,-6.39815,22.3911,1.77164,0.186697,9.9778,0.281326,1.37095,-7.00716e-15,0,-34.2056,-1.5212,-73.6281,37.3979,8.61787,5.33106,9.48049,7.12502,30.6857,-17.9804,-7.00716e-15,0,-31.4387,-8.75375,77.2793,44.7307,-0.695619,-6.72794,29.6525,7.12502,19.1325,58.7314,-14.6716,-2.24973,23.9494,39.5719,-18.8775,-7.65506,13.1362,-10.061,-2.88747,-15.2835,36.4984,-14.3855,9.10373,-22.5664
-10.0936,17.4696,-13.9669,0.106025,-7.14185,0.246966,5.87907,-0.792223,-2.38036,0.732506,-1.15633,1.97642,-2.45286,-0.547682,3.46931,-17.432,-0.0248323,-6.40643,22.5615,1.73522,0.230152,10.0292,0.264705,1.38417,-4.50247e-14,4.37326e-15,-34.512,-1.64099,-73.4189,37.5033,8.57912,5.48496,9.5834,7.12502,30.8324,-17.8499,-4.50247e-14,4.37326e-15,-31.4668,-8.80527,77.3301,44.5007,-0.769813,-6.69964,29.545,7.12502,19.1597,58.6212,-14.4748,-2.45688,24.0568,39.3389,-18.8299,-7.67697,13.53,-10.7161,-2.57919,-15.1277,37.4871,-14.5805,8.52078,-21.4993
-10.1327,17.4947,-13.9451,-0.0438449,-7.01604,0.125977,6.03881,-0.75617,-2.30573,0.688484,-1.10346,2.06066,-2.59154,-0.518659,3.51467,-17.1246,0.0223284,-6.59681,22.5871,1.82903,0.23818,9.97637,0.293092,1.42926,2.48481e-15,1.82882e-14,-34.5363,-1.46641,-73.2333,37.2088,8.67134,5.36869,9.28344,7.12502,30.7216,-18.1707,2.48481e-15,1.82882e-14,-31.7013,-8.40536,77.4064,44.3265,-0.746227,-6.83095,28.793,7.12502,19.0334,57.8817,-13.9987,-2.55746,24.3072,39.0489,-18.8495,-7.72882,13.4202,-11.3724,-2.15813,-14.8142,38.5882,-13.2893,8.46806,-25.1132
-10.171,17.491,-13.9303,-0.0959143,-6.88293,-0.0314271,6.0781,-0.727833,-2.20292,0.714457,-1.05821,2.10979,-2.59115,-0.497301,3.50446,-17.0596,0.0881636,-6.67137,22.6996,1.93857,0.245185,9.99992,0.335163,1.45937,-3.16068e-14,4.37326e-15,-34.3503,-1.36347,-73.2018,37.0251,8.71699,5.38695,8.74047,7.12502,30.739,-18.7104,-3.16068e-14,4.37326e-15,-31.8172,-8.01773,77.3501,44.237,-0.639672,-7.04542,28.1697,7.12502,18.8271,57.2786,-13.6741,-2.56979,24.6266,38.7104,-18.7548,-7.85698,13.1628,-11.9929,-1.7122,-14.4261,39.7604,-12.7559,8.42974,-26.3153
-10.2036,17.492,-13.9142,-0.0172761,-6.76079,0.0486905,6.00537,-0.615412,-2.18681,0.733024,-0.910032,1.97194,-2.5451,-0.425026,3.33876,-17.2112,0.0301837,-6.54851,22.8695,1.84086,0.244705,10.0938,0.295473,1.42884,-1.41386e-14,-1.74931e-14,-34.4048,-1.50397,-73.1959,37.1809,8.72539,5.49095,8.37483,7.12502,30.8381,-19.0574,-1.41386e-14,-1.74931e-14,-31.8408,-7.93321,77.1801,44.2974,-1.0159,-6.51223,28.1704,7.12502,19.3399,57.2287,-13.5311,-2.70736,24.6397,38.3881,-18.6779,-7.81694,12.8081,-12.7187,-1.32457,-14.3133,40.9185,-12.6597,7.8521,-23.3897
-10.2343,17.5044,-13.8909,-0.0421327,-6.59759,0.220731,6.00023,-0.512679,-2.21297,0.738434,-0.778962,1.81308,-2.54813,-0.359947,3.1782,-17.2915,-0.0392523,-6.54266,23.0138,1.72578,0.351142,10.1635,0.251692,1.45222,-1.80894e-14,-4.77083e-15,-34.5674,-1.64719,-73.1057,37.2047,8.70178,5.39365,8.55107,7.12502,30.7454,-18.8986,-1.80894e-14,-4.77083e-15,-31.8842,-7.9106,77.0631,44.2225,-1.59474,-5.81722,28.2869,7.12502,20.0081,57.2768,-13.2246,-3.00964,24.5074,38.0852,-18.7217,-7.70068,13.2594,-13.3802,-0.961022,-14.3368,42.0247,-11.8372,7.02484,-19.2266
-10.2675,17.5162,-13.8704,-0.0611677,-6.41741,0.0989802,6.10085,-0.444623,-2.04868,0.73703,-0.678891,1.80974,-2.61495,-0.310596,3.07551,-17.6195,-0.0470953,-6.49808,23.3243,1.73552,0.360434,10.338,0.251494,1.4551,-2.48481e-17,5.56597e-15,-34.6521,-1.58414,-72.9679,37.2627,8.42072,5.49041,8.81545,7.12502,30.8376,-18.6168,-2.48481e-17,5.56597e-15,-31.9261,-7.86705,77.0727,44.0247,-1.47759,-6.15463,28.4543,7.12502,19.6837,57.4778,-12.8962,-3.21471,24.7392,37.7194,-18.8099,-7.76659,13.0789,-14.0772,-0.613084,-14.0192,43.0939,-10.5852,6.3131,-17.0701
-10.3009,17.5251,-13.8505,-0.0599703,-6.32287,-0.123228,6.16806,-0.34155,-1.81156,0.792071,-0.525951,1.83865,-2.60805,-0.237351,2.95949,-18.1422,-0.0874141,-6.32261,23.6465,1.72086,0.203172,10.5596,0.230321,1.37463,-1.45361e-14,-3.57812e-15,-34.736,-1.44961,-72.8664,37.5938,8.113,5.683,8.55214,7.12502,31.0212,-18.8453,-1.45361e-14,-3.57812e-15,-31.8736,-7.85514,77.0948,43.9166,-1.10223,-8.99814,26.7523,7.12502,16.9482,56.0328,-12.6035,-3.23641,25.0979,37.3184,-18.8591,-7.8662,12.9317,-14.766,-0.291057,-13.5837,44.1162,-9.83676,5.64287,-16.5218
-10.3308,17.5303,-13.8273,-0.0885467,-6.366,-0.196818,6.10312,-0.16135,-1.65657,0.879276,-0.27693,1.78482,-2.49882,-0.117285,2.79454,-18.4004,-0.123998,-6.18033,23.7588,1.67187,0.126945,10.6539,0.207649,1.3195,1.799e-14,-7.55382e-15,-34.8579,-1.39674,-72.7815,37.8859,7.79761,5.70345,8.30216,7.12502,31.0407,-19.0915,1.799e-14,-7.55382e-15,-31.8259,-7.89952,77.0806,43.9481,-1.00205,-15.3962,19.9023,7.12502,10.7826,49.6056,-12.2636,-3.26816,25.2458,36.9613,-18.8,-7.7214,13.1535,-15.3746,0.132784,-13.3489,45.1059,-9.51822,4.98365,-16.5671
-10.3577,17.5342,-13.8067,-0.158567,-6.45979,-0.340017,6.19743,0.0204439,-1.42422,0.868376,-0.0210246,1.74615,-2.57843,0.0090754,2.60308,-18.2699,-0.0799498,-6.03602,23.7445,1.6813,0.12373,10.6235,0.226197,1.29489,8.17502e-15,1.98785e-15,-35.0403,-1.25638,-72.6787,38.0044,7.57445,5.81548,8.16139,7.12502,31.1475,-19.2119,8.17502e-15,1.98785e-15,-32.0234,-7.94475,77.0743,44.0375,-0.964132,-8.31298,27.7482,7.12502,17.6077,56.9709,-11.8758,-3.3164,25.4518,36.668,-18.8157,-7.4511,13.7911,-15.9392,0.601937,-13.0547,46.0517,-9.35258,4.2843,-16.9586
-10.3853,17.5355,-13.7884,-0.268501,-6.47131,-0.586671,6.50605,0.11928,-1.11866,0.778706,0.131326,1.75724,-2.85141,0.0855505,2.43064,-18.1708,-0.00914182,-5.93818,23.8571,1.74399,0.136449,10.6436,0.26305,1.29262,-4.32357e-15,5.1684e-15,-35.2208,-1.11387,-72.5514,38.0312,7.66113,6.52162,7.78983,7.12502,31.8202,-19.452,-4.32357e-15,5.1684e-15,-32.3284,-7.88386,77.0521,43.9864,-1.00772,-5.61815,30.2823,7.12502,20.1994,59.2521,-11.4856,-3.22668,25.8161,36.4158,-18.8665,-7.42955,14.3853,-16.4894,0.894817,-12.6393,46.9259,-9.47382,3.62881,-17.703
-10.4096,17.5361,-13.7643,-0.323148,-6.50937,-0.701607,6.6125,0.204674,-0.920908,0.755916,0.259816,1.77466,-2.94021,0.148345,2.32591,-18.2476,0.030435,-6.02694,23.9888,1.83648,0.138598,10.7035,0.293736,1.32317,5.34234e-15,7.15625e-15,-35.276,-0.843707,-72.4196,38.1726,7.51811,7.59079,7.17847,7.12502,32.8379,-19.8558,5.34234e-15,7.15625e-15,-32.5673,-7.68531,77.0609,43.9352,-0.964817,-5.44521,29.7891,7.12502,20.3656,58.7412,-11.1886,-3.09889,26.0336,36.182,-18.821,-7.54575,15.0755,-17.0223,1.11893,-12.3987,47.6798,-9.77392,2.93598,-17.5971
-10.429,17.5387,-13.7403,-0.358127,-6.56506,-0.807812,6.63127,0.303946,-0.743594,0.791543,0.406493,1.84131,-2.92015,0.219191,2.28156,-18.2552,0.0842923,-6.25486,24.0266,1.98565,0.134987,10.7131,0.339626,1.38151,-8.72168e-15,-2.38542e-14,-35.2184,-0.3789,-72.2578,38.3436,7.18615,8.05576,6.82325,7.12502,33.28,-20.1175,-8.72168e-15,-2.38542e-14,-32.8623,-7.41732,77.1605,44.1081,-0.802119,-7.20995,28.0951,7.12502,18.6689,57.2192,-10.9245,-3.03463,26.2189,35.9566,-18.7434,-7.62156,15.7114,-17.5521,1.35188,-12.194,48.2762,-9.91563,2.13812,-17.3404
-10.4509,17.5432,-13.7156,-0.346571,-6.51632,-0.912629,6.69662,0.397024,-0.559654,0.762807,0.544469,1.84193,-2.99095,0.28644,2.16576,-18.1923,0.148778,-6.31692,24.031,2.08437,0.16196,10.6982,0.382997,1.4152,-5.06901e-15,1.55052e-14,-35.2813,-0.110267,-72.1183,38.4803,7.07297,8.17866,6.67246,7.12502,33.3969,-20.2432,-5.06901e-15,1.55052e-14,-33.1176,-7.24462,77.1677,44.2686,-0.987155,-10.731,25.0861,7.12502,15.2796,54.5017,-10.7041,-3.03542,26.4073,35.7512,-18.7566,-7.6263,16.1296,-18.1337,1.45629,-11.996,48.7004,-10.0001,1.52444,-18.3729
-10.475,17.5493,-13.6863,-0.308692,-6.37022,-0.826808,6.709,0.480078,-0.518802,0.663019,0.655557,1.7159,-3.10364,0.341944,2.00188,-17.9307,0.190595,-6.10286,23.8902,2.07853,0.0738294,10.5988,0.394863,1.34363,3.26255e-14,2.18663e-14,-35.5166,-0.0322189,-72.0263,38.6564,7.05597,8.16639,6.83488,7.12502,33.3852,-20.0833,3.26255e-14,2.18663e-14,-33.3716,-7.28682,77.0847,44.3267,-1.09293,-12.3771,23.0087,7.12502,13.6936,52.5382,-10.5365,-3.20627,26.3784,35.5808,-18.9206,-7.6324,16.1831,-18.6767,1.46564,-12.0282,48.9554,-10.0981,1.0963,-19.1958
-10.4952,17.5543,-13.6627,-0.372936,-6.28482,-0.647241,6.83471,0.582435,-0.587337,0.592112,0.78474,1.61644,-3.25183,0.407865,1.92443,-17.6528,0.193623,-5.89804,23.7207,2.05705,-0.152878,10.4896,0.382307,1.2217,-3.27995e-15,-8.74653e-15,-35.6026,0.124446,-71.8714,38.7153,6.95671,7.79607,7.29232,7.12502,33.0331,-19.7009,-3.27995e-15,-8.74653e-15,-33.684,-7.28742,77.0699,44.4127,-1.04211,-12.5929,21.5714,7.12502,13.4856,51.1148,-10.3233,-3.39478,26.2245,35.4535,-19.0059,-7.64344,15.7324,-19.0744,1.55895,-12.1863,49.0726,-10.0685,0.711184,-19.1242
-10.5125,17.5573,-13.6395,-0.432324,-6.36076,-0.489814,6.87924,0.707102,-0.639423,0.654961,0.943783,1.54751,-3.21752,0.486623,1.86698,-17.7626,0.180236,-5.87128,23.6681,2.06376,-0.248857,10.4933,0.377192,1.18424,1.0138e-14,-1.59028e-15,-35.3737,0.379681,-71.7425,38.6904,6.75141,7.47741,6.98695,7.12502,32.73,-20.0698,1.0138e-14,-1.59028e-15,-33.789,-7.05354,77.0125,44.4936,-1.1874,-12.7411,20.3392,7.12502,13.3427,49.892,-10.146,-3.42915,26.0822,35.3539,-18.848,-7.61058,15.8596,-19.3955,1.78738,-12.3363,49.0629,-10.2303,0.430618,-18.8953
-10.5352,17.5623,-13.6099,-0.483786,-6.32832,-0.454597,6.8077,0.78815,-0.590938,0.84918,1.0513,1.49508,-2.97898,0.536656,1.77695,-18.2788,0.188752,-5.96865,23.7784,2.1133,-0.114453,10.6279,0.402056,1.26036,-1.10077e-14,-5.96354e-15,-34.9524,0.480086,-71.6383,38.6599,6.60125,7.27276,6.40144,7.12502,32.5353,-20.6957,-1.10077e-14,-5.96354e-15,-33.6811,-6.83723,76.9124,44.5956,-1.19423,-12.7053,19.3636,7.12502,13.3773,48.9141,-9.84755,-3.23404,26.0646,35.2323,-19.0854,-7.22658,19.5225,-19.713,1.9036,-12.335,48.9685,-10.7117,0.23698,-19.5204
-10.558,17.5693,-13.5773,-0.522379,-6.18942,-0.361837,6.76604,0.85165,-0.609304,0.958831,1.13115,1.42686,-2.8443,0.57491,1.71054,-18.76,0.202592,-6.05194,24.0013,2.16512,0.0284321,10.7975,0.427386,1.33914,5.51627e-15,-3.57812e-15,-34.7144,0.524469,-71.4881,38.7094,6.56214,7.24788,6.04712,7.12502,32.5116,-21.0549,5.51627e-15,-3.57812e-15,-33.7794,-6.59937,76.8128,44.9048,-0.582231,-12.4488,18.1485,7.12502,13.6245,47.6826,-9.47779,-3.15435,25.9734,35.0752,-19.5367,-6.74086,22.8054,-20.1125,1.84061,-12.4182,48.8237,-10.9547,0.157025,-20.5461
-10.5728,17.5688,-13.5464,-0.447936,-6.14108,-0.269582,6.67013,0.948566,-0.523514,0.904643,1.26288,1.29424,-2.84635,0.639328,1.51423,-18.6814,0.194067,-5.98008,23.942,2.12406,0.0275163,10.7621,0.417662,1.31978,2.45251e-14,3.57812e-15,-34.7708,0.605976,-71.4082,38.7997,6.56632,7.13167,5.73869,7.12502,32.401,-21.386,2.45251e-14,3.57812e-15,-34.1199,-6.45954,76.6334,45.3458,0.503004,-10.9045,19.7378,7.12502,15.1125,49.1661,-9.37861,-3.40242,25.9373,34.8835,-19.3991,-7.0501,20.1174,-20.6306,1.77744,-12.5279,48.6332,-10.771,0.180489,-19.0858
-10.5898,17.5624,-13.5204,-0.400951,-6.23739,-0.456017,6.71347,1.10619,-0.199716,0.812396,1.49544,1.23273,-2.96303,0.751923,1.2459,-18.3005,0.16658,-5.91034,23.7226,2.03337,0.0117975,10.6117,0.389217,1.28449,-2.36057e-14,-1.23246e-14,-34.887,0.590463,-71.3359,38.8184,6.53135,6.55974,5.61978,7.12502,31.8565,-21.6148,-2.36057e-14,-1.23246e-14,-34.4645,-6.54537,76.5114,45.5764,0.967864,-9.43047,22.4196,7.12502,16.532,51.7354,-9.32873,-3.31848,26.2727,34.6809,-19.0561,-7.65436,16.8428,-21.0695,1.87715,-12.2841,48.3758,-10.6121,0.272866,-17.3488
-10.61,17.5646,-13.4891,-0.424023,-6.27565,-0.514837,6.76763,1.22658,-0.0818994,0.76048,1.66412,1.19697,-3.04654,0.834562,1.1255,-18.1299,0.188062,-5.90638,23.7187,2.04676,0.0247024,10.5768,0.398662,1.28911,-5.49143e-15,-4.77083e-15,-34.8967,0.595981,-71.2017,38.8151,6.51342,6.17382,5.34283,7.12502,31.4889,-21.9643,-5.49143e-15,-4.77083e-15,-34.7316,-6.43685,76.4558,45.5089,0.69142,-10.6493,18.6973,7.12502,15.3583,48.1069,-9.15333,-3.23047,26.4363,34.4855,-18.8542,-7.98295,15.4698,-21.3942,1.98423,-12.2037,48.0029,-10.7645,0.526716,-19.2527
-10.6263,17.5711,-13.4527,-0.424303,-6.08142,-0.305121,6.63494,1.26142,-0.150015,0.842263,1.69985,1.06474,-2.8866,0.85202,1.02798,-18.406,0.203231,-5.84501,23.8026,2.07816,0.00872612,10.6602,0.413198,1.28064,2.24627e-14,6.75868e-15,-34.6447,0.561207,-71.0712,38.7605,6.64394,6.07985,5.18431,7.12502,31.3994,-22.1403,2.24627e-14,6.75868e-15,-34.6605,-6.18221,76.3477,45.2903,0.457979,-8.7208,24.7887,7.12502,17.2152,54.0461,-8.9111,-3.44619,26.2373,34.2989,-18.8341,-8.07709,14.9071,-21.7353,1.87167,-12.4698,47.5366,-11.1559,0.765978,-21.7875
-10.6425,17.5748,-13.4211,-0.38519,-5.99483,-0.252472,6.55894,1.35508,-0.116592,0.971461,1.82373,1.01389,-2.71063,0.912482,0.949206,-18.9418,0.167252,-5.87828,23.9541,2.07904,0.0269502,10.8186,0.406179,1.29856,1.98536e-14,6.75868e-15,-34.2846,0.480381,-70.8533,38.6402,6.89031,5.65508,5.59161,7.12502,30.9946,-21.8109,1.98536e-14,6.75868e-15,-34.5405,-6.08109,76.3559,45.2625,0.432116,-8.26468,27.2321,7.12502,17.6541,56.4507,-8.70288,-3.39772,26.2185,34.1784,-18.9698,-8.06306,16.5912,-22.0736,1.83961,-12.5397,47.0101,-11.5656,0.756224,-22.5802
-10.662,17.5786,-13.3937,-0.34071,-6.09677,-0.408824,6.64514,1.51653,0.0290019,1.00821,2.04985,1.04718,-2.72115,1.02359,0.880037,-19.3388,0.165671,-5.92941,24.1901,2.11334,0.0928705,10.9803,0.417153,1.34163,-1.73937e-15,5.96354e-15,-34.0895,0.418474,-70.6347,38.5676,7.02843,4.89426,6.1842,7.12502,30.2691,-21.354,-1.73937e-15,5.96354e-15,-34.6782,-6.07558,76.4036,45.4459,0.306311,-8.04307,28.2501,7.12502,17.8674,57.4493,-8.63751,-3.13906,26.4834,34.1849,-19.0104,-8.26026,17.3865,-22.3619,1.99333,-12.3523,46.4137,-11.4777,0.879519,-22.4738
-10.6785,17.5709,-13.368,-0.343956,-6.0681,-0.44213,6.81581,1.6527,0.147491,1.00611,2.238,0.960229,-2.81361,1.11554,0.702109,-19.6173,0.168678,-5.79665,24.353,2.09488,0.118127,11.0957,0.418884,1.33009,3.44146e-14,-9.93923e-16,-34.0432,0.248666,-70.5322,38.6452,6.9205,4.46665,6.44373,7.12502,29.8611,-21.1686,3.44146e-14,-9.93923e-16,-34.8597,-6.14219,76.3062,45.6063,0.130692,-6.66474,30.323,7.12502,19.1932,59.396,-8.59697,-3.04162,26.5989,34.2706,-19.0267,-8.53011,16.3764,-22.5173,1.96723,-12.331,45.7121,-11.018,1.35267,-21.588
-10.6882,17.5589,-13.3362,-0.32394,-5.83683,-0.320531,6.91913,1.73238,0.2073,0.942804,2.34553,0.821114,-2.92968,1.16769,0.511028,-19.6849,0.121268,-5.68809,24.3792,2.00966,0.0821705,11.1228,0.385158,1.28706,1.69712e-14,1.23246e-14,-34.0282,0.0169285,-70.3608,38.6373,6.86614,4.48669,6.68273,7.12502,29.8802,-20.9262,1.69712e-14,1.23246e-14,-35.1803,-6.28997,76.2374,45.741,0.113616,-4.62172,34.2551,7.12502,21.1568,63.1207,-8.59156,-3.18135,26.4871,34.3511,-19.1236,-8.56921,16.1979,-22.5843,1.72789,-12.5372,44.8625,-10.6998,1.89032,-20.8174
-10.702,17.5689,-13.2973,-0.236117,-5.6651,-0.331954,6.87941,1.80533,0.30477,0.842893,2.4497,0.785734,-3.00593,1.21823,0.409657,-19.4254,0.0739777,-5.72015,24.2581,1.9416,0.0463393,11.0301,0.351626,1.26614,-7.23079e-15,-1.2921e-14,-33.9628,-0.0729121,-70.154,38.5565,6.59956,4.72039,6.78326,7.12502,30.1032,-20.7853,-7.23079e-15,-1.2921e-14,-35.4748,-6.31002,76.2574,45.7249,0.0505166,-3.37908,37.0842,7.12502,22.3501,65.8114,-8.62115,-3.17164,26.5409,34.375,-19.4142,-8.52974,17.6036,-22.8383,1.60827,-12.57,43.9076,-10.3682,2.21901,-22.2888
-10.7218,17.5897,-13.2607,-0.102274,-5.6341,-0.380152,6.79826,1.88782,0.333493,0.762577,2.56233,0.795593,-3.04347,1.274,0.394366,-19.1766,0.0725531,-5.84646,24.1086,1.95245,0.0657693,10.9251,0.352906,1.29257,1.89094e-14,1.2921e-14,-34.0029,0.151515,-70.0708,38.9165,5.90917,5.33033,5.91929,7.12502,30.685,-21.5417,1.89094e-14,1.2921e-14,-35.5595,-6.13455,76.2615,45.5037,-0.129169,-3.31315,37.0994,7.12502,22.4134,65.819,-8.60121,-2.94743,26.6929,34.2754,-19.7768,-8.73581,18.7077,-23.3154,1.60534,-12.5263,42.9229,-9.92428,2.46258,-18.3023
-10.7339,17.6002,-13.2193,-0.0567775,-5.70713,-0.36273,6.80709,1.98693,0.392474,0.701793,2.69858,0.77,-3.10805,1.34071,0.320669,-19.125,0.0546967,-5.96661,24.0959,1.97154,0.0309166,10.9102,0.346855,1.30224,1.68967e-15,1.78906e-15,-34.0759,0.493003,-70.0011,39.1854,5.63348,5.37127,5.28383,7.12502,30.724,-22.1699,1.68967e-15,1.78906e-15,-35.6869,-5.98502,76.2623,45.2568,-0.238348,-3.9504,35.9967,7.12502,21.8016,64.7887,-8.37943,-2.81854,26.715,34.0357,-19.8906,-8.89434,18.5998,-23.5376,1.54282,-12.5891,41.9534,-9.8018,2.88184,-14.4463
-10.7382,17.6053,-13.17,-0.113953,-5.8072,-0.383853,6.67749,2.08422,0.607681,0.783726,2.84075,0.739266,-2.93963,1.40934,0.162653,-19.1651,0.0197154,-6.0132,24.0642,1.97848,-0.108828,10.9087,0.328771,1.26033,-4.74598e-15,2.5842e-15,-33.8188,0.734577,-69.8802,38.9557,5.77539,4.65359,5.63966,7.12502,30.0395,-21.9404,-4.74598e-15,2.5842e-15,-35.7724,-5.83048,76.2628,45.0687,-0.190244,-4.26628,34.6225,7.12502,21.4982,63.4495,-7.99115,-2.77348,26.7049,33.7596,-19.8946,-8.85129,18.3942,-23.5028,1.39679,-12.6344,41.0147,-10.425,3.4961,-12.9022
-10.7433,17.6075,-13.1306,-0.16356,-5.78349,-0.381154,6.50054,2.11985,0.808571,0.941867,2.89687,0.688887,-2.66507,1.43648,0.00478947,-19.2422,0.0377126,-6.0697,23.9679,2.04552,-0.181748,10.8869,0.347254,1.25272,2.98177e-16,1.39149e-15,-33.4239,0.963716,-69.829,38.9861,5.62589,4.57891,5.6601,7.12502,29.9682,-21.9329,2.98177e-16,1.39149e-15,-35.8581,-5.47735,76.105,45.0472,-0.258831,-3.77771,33.605,7.12502,21.9674,62.3777,-7.68076,-2.70785,26.7018,33.5615,-19.9334,-8.91073,18.6009,-23.6022,1.1763,-12.6971,40.0527,-11.1471,4.12679,-14.8027
-10.753,17.6027,-13.1035,-0.209542,-5.6834,-0.446125,6.57793,2.13406,0.997445,1.00694,2.9278,0.64367,-2.62918,1.45016,-0.151283,-19.2777,0.0866439,-6.08011,23.926,2.12948,-0.216539,10.876,0.381301,1.25403,-4.62174e-14,1.07344e-14,-33.1601,1.10304,-69.8512,39.3523,5.14725,5.29054,4.86985,7.12502,30.6471,-22.5983,-4.62174e-14,1.07344e-14,-36.1644,-5.11214,75.8201,45.2355,-0.352948,-3.21301,33.3327,7.12502,22.5095,62.0407,-7.43991,-2.55653,26.8335,33.4218,-19.9039,-9.11253,18.7583,-23.8081,1.04523,-12.6661,39.0639,-11.2559,4.37835,-16.18
-10.7673,17.5974,-13.0744,-0.135748,-5.537,-0.527674,6.5769,2.18087,1.14561,1.0161,2.99864,0.584161,-2.60774,1.48402,-0.300844,-19.364,0.124916,-6.03416,23.9375,2.17458,-0.208244,10.8953,0.406581,1.25683,3.50358e-15,-7.55382e-15,-32.9632,1.00149,-69.8243,39.1961,5.63836,4.74224,5.60186,7.12502,30.1241,-21.9629,3.50358e-15,-7.55382e-15,-36.324,-4.9895,75.602,45.3001,-0.211008,-2.67018,33.8349,7.12502,23.0305,62.4789,-7.3129,-2.40903,27.0085,33.2999,-19.9078,-9.27412,18.6834,-24.12,1.02843,-12.614,38.0638,-11.2635,4.22648,-16.5825
-10.781,17.588,-13.0369,0.0617344,-5.37522,-0.485591,6.44167,2.27397,1.16186,0.928653,3.12,0.482442,-2.61444,1.54374,-0.420996,-19.4303,0.100882,-6.08528,24.0336,2.1221,-0.04755,10.9419,0.395745,1.31741,-1.27346e-14,-1.61016e-14,-32.968,0.949482,-69.7899,39.3459,5.51226,4.9324,5.69425,7.12502,30.3055,-21.8373,-1.27346e-14,-1.61016e-14,-36.3596,-4.98057,75.4635,45.1186,-0.395121,-2.04092,35.3521,7.12502,23.6341,63.9194,-7.24785,-2.32566,27.0291,33.1817,-20.086,-9.36111,18.2261,-24.5297,0.970858,-12.7073,37.0051,-11.3886,4.11642,-17.6894
-10.79,17.5704,-12.996,0.184563,-5.18046,-0.413254,6.48387,2.356,1.11581,0.722465,3.22743,0.414655,-2.84779,1.59494,-0.481715,-19.1836,0.165785,-6.006,24.0216,2.14704,0.035354,10.8874,0.427291,1.33608,-1.45982e-14,7.15625e-15,-33.2352,1.05241,-69.7017,39.5203,5.56511,4.69408,6.22911,7.12502,30.0781,-21.344,-1.45982e-14,7.15625e-15,-36.7451,-4.94138,75.4046,45.1273,-0.920695,-0.656648,38.5321,7.12502,24.9613,66.9217,-7.05729,-2.36162,26.9922,33.0201,-20.2345,-9.5361,18.0276,-24.8531,0.777247,-12.8351,35.8704,-11.4169,4.08323,-18.642
-10.7976,17.566,-12.9578,0.1967,-4.92619,-0.417013,6.60091,2.3757,1.1778,0.611283,3.26006,0.374481,-3.0217,1.60836,-0.569029,-18.7787,0.433645,-5.65339,23.6478,2.40544,-0.0848996,10.6668,0.575637,1.26422,-1.79403e-14,1.5704e-14,-33.3221,1.23176,-69.6373,39.6561,5.66204,4.59567,6.49112,7.12502,29.9842,-21.099,-1.79403e-14,1.5704e-14,-37.1909,-4.92573,75.3676,45.4274,-1.04938,-0.321077,36.6938,7.12502,25.2828,65.0384,-6.70496,-2.29711,27.0098,32.7785,-20.48,-9.36521,21.0156,-25.0487,0.492982,-12.8748,34.6854,-11.4399,4.01216,-19.1869
-10.8069,17.5705,-12.9156,0.150563,-4.94749,-0.574512,6.65346,2.47983,1.39182,0.65116,3.41386,0.352555,-2.99352,1.68242,-0.725747,-18.6887,0.56807,-5.50531,23.3493,2.53807,-0.102057,10.5369,0.656645,1.24833,5.15225e-14,-6.16232e-15,-33.2202,1.31893,-69.6271,39.7545,5.52865,4.89887,6.39993,7.12502,30.2735,-21.1375,5.15225e-14,-6.16232e-15,-37.2866,-4.9158,75.2732,45.5174,-0.911204,-0.402121,35.5716,7.12502,25.2052,63.9271,-6.26303,-1.92347,27.2073,32.4939,-20.7094,-9.17258,23.5413,-25.1267,0.421085,-12.7266,33.4418,-11.4855,3.98679,-19.6799
-10.8161,17.5663,-12.8658,0.078474,-5.1702,-0.781992,6.69103,2.67407,1.64619,0.760975,3.68947,0.337904,-2.87838,1.81811,-0.904955,-19.2683,0.317435,-5.74876,23.6686,2.28093,0.0212345,10.7694,0.520507,1.30479,-1.18401e-14,7.55382e-15,-33.0191,1.18873,-69.6017,39.7852,5.42817,4.90761,6.44482,7.12502,30.2818,-21.091,-1.18401e-14,7.55382e-15,-37.1486,-4.81097,75.1128,45.4026,-0.936348,-0.255667,35.1084,7.12502,25.3455,63.4441,-5.90787,-1.70117,27.5157,32.2295,-20.385,-9.80356,20.32,-25.1172,0.429162,-12.503,32.1,-11.4693,3.986,-20.4737
-10.8212,17.5639,-12.8147,0.16005,-5.04947,-0.752768,6.531,2.7157,1.72484,0.873614,3.74434,0.299923,-2.66378,1.84765,-0.979906,-19.461,0.171709,-5.97827,23.4554,2.18656,-0.0878909,10.7321,0.447666,1.28893,7.37988e-15,-9.93923e-15,-32.6333,1.1578,-69.5337,39.9262,5.30372,4.93889,6.43524,7.12502,30.3117,-21.0951,7.37988e-15,-9.93923e-15,-37.0126,-4.40987,74.9331,45.3801,-0.932678,0.519786,35.284,7.12502,26.0881,63.5123,-5.76481,-1.84857,27.5279,32.0171,-20.0647,-10.3215,17.2088,-25.2858,0.115225,-12.5838,30.7126,-11.4496,3.98117,-21.6881
-10.825,17.5649,-12.7659,0.369351,-4.83926,-0.677248,6.28747,2.68694,1.72778,0.838682,3.70157,0.287457,-2.56408,1.82748,-0.978749,-18.4939,0.445436,-5.8949,22.2014,2.51505,-0.417176,10.0888,0.607309,1.18364,-2.57675e-14,-6.55989e-15,-32.4163,1.44919,-69.4944,40.018,5.14047,4.83781,6.38944,7.12502,30.2153,-21.1586,-2.57675e-14,-6.55989e-15,-37.1448,-3.82839,74.7608,45.3523,-0.948875,1.36874,35.7087,7.12502,26.9007,63.8144,-5.75909,-1.94718,27.4526,31.8847,-20.0081,-10.4239,16.9474,-25.5709,-0.309409,-12.7051,29.3316,-11.621,4.11656,-22.48
-10.8295,17.5547,-12.7198,0.461635,-4.83073,-0.887577,6.286,2.72113,1.99904,0.693917,3.76838,0.300038,-2.69415,1.85556,-1.12667,-18.2379,0.528733,-5.88528,22.1782,2.59835,-0.376005,10.0289,0.654189,1.20558,3.23025e-16,3.37934e-15,-32.3908,1.74433,-69.5887,39.8575,4.99511,4.4536,6.416,7.12502,29.8487,-21.1986,3.23025e-16,3.37934e-15,-37.5897,-3.58289,74.6466,45.2982,-0.162284,0.255304,35.3171,7.12502,25.8349,63.5825,-5.65257,-1.79623,27.6996,31.8485,-19.9457,-10.5096,16.2558,-25.5478,-0.695458,-12.4349,27.8793,-11.9597,4.42031,-23.2263
-10.8311,17.5365,-12.6715,0.457237,-4.80594,-1.14653,6.2679,2.72309,2.3874,0.682641,3.79668,0.276055,-2.66796,1.8657,-1.36867,-18.8049,0.42749,-6.03163,22.9258,2.49831,-0.0979371,10.4021,0.604037,1.32765,-2.95195e-14,3.57812e-15,-32.1956,1.85896,-69.7434,39.8196,5.01383,4.05725,6.79508,7.12502,29.4704,-20.8868,-2.95195e-14,3.57812e-15,-37.8712,-3.7563,74.7331,45.1675,2.571,-3.87969,34.4117,7.12502,21.8695,63.1959,-5.43416,-1.69903,27.9957,31.8503,-19.9184,-10.6807,15.2521,-25.3177,-1.18719,-12.1038,26.3953,-12.1418,4.84576,-24.244
-10.83,17.5257,-12.6143,0.528273,-4.69231,-1.24597,5.94832,2.68887,2.70164,0.825348,3.75713,0.183386,-2.31736,1.84973,-1.61273,-19.1075,0.516647,-6.03565,22.9481,2.62443,-0.00587055,10.4609,0.670416,1.38205,2.49351e-14,1.98785e-15,-31.6548,1.81152,-69.8769,39.8417,5.34414,3.4319,7.91301,7.12502,28.8732,-19.8725,2.49351e-14,1.98785e-15,-37.7032,-2.82697,73.9851,44.4114,1.90404,-2.42554,27.2854,7.12502,23.2652,55.8999,-5.28931,-1.79035,28.1023,31.8151,-19.8852,-11.0215,13.7802,-25.2608,-1.83701,-11.9546,24.987,-12.3636,5.42343,-24.2651
-10.8286,17.5198,-12.5549,0.719798,-4.49017,-1.38172,5.55984,2.66671,3.03327,0.946894,3.73109,0.114599,-1.95061,1.84198,-1.84013,-19.6085,0.546661,-6.04195,23.0523,2.71141,-0.00695433,10.591,0.703316,1.40135,-2.24068e-14,-1.07344e-14,-31.0674,1.79652,-69.9763,39.8211,5.43112,2.76162,9.20072,7.12502,28.2327,-18.6924,-2.24068e-14,-1.07344e-14,-37.7062,-2.31467,73.5952,45.4153,0.174004,2.07269,32.3152,7.12502,27.5741,60.3153,-5.25135,-1.95204,28.2297,31.7635,-19.9702,-11.2124,12.7127,-25.3915,-2.50829,-11.7668,23.6283,-13.066,5.97833,-23.6608
-10.8324,17.5104,-12.5068,0.89842,-4.34918,-1.70362,5.45541,2.69025,3.40033,0.921994,3.78112,0.142267,-1.89342,1.86556,-2.01386,-19.907,0.465214,-6.09242,23.2191,2.65334,-0.0461082,10.7118,0.660517,1.39219,-4.75033e-14,9.93923e-17,-30.9273,1.88632,-70.0426,40.0882,5.19388,3.1317,8.97311,7.12502,28.5864,-18.861,-4.75033e-14,9.93923e-17,-37.8358,-1.98081,73.336,45.569,0.467146,2.64749,33.1782,7.12502,28.1237,61.0893,-5.2191,-1.82336,28.6365,31.724,-20.0808,-11.4607,12.346,-25.5591,-3.06641,-11.3429,22.3428,-13.6146,6.71323,-24.1871
-10.8358,17.4966,-12.4639,0.962366,-4.39902,-1.91677,5.54254,2.7411,3.68528,0.785498,3.87188,0.121952,-2.05718,1.90378,-2.20833,-19.5564,0.481256,-6.15465,23.1064,2.65255,-0.00060004,10.6022,0.666182,1.41396,1.09332e-15,-2.09221e-14,-31.0278,2.01019,-70.1575,40.3532,5.16024,4.17318,7.43914,7.12502,29.581,-20.2232,1.09332e-15,-2.09221e-14,-38.0726,-1.70072,73.0575,45.6921,0.385637,3.53271,34.9003,7.12502,28.9695,62.6693,-5.09603,-1.47815,28.9408,31.6925,-20.2038,-11.7251,12.1182,-25.6451,-3.81089,-10.9544,21.2383,-13.8202,8.11751,-24.9544
-10.8316,17.4824,-12.4161,1.0146,-4.55157,-1.94316,5.59276,2.78637,3.82939,0.603425,3.94688,0.0903486,-2.25642,1.93312,-2.33497,-18.6348,0.657189,-6.18462,22.5293,2.84405,-0.107634,10.2131,0.76181,1.39133,-1.44802e-14,-5.01931e-15,-31.0008,2.33008,-70.2545,40.3046,5.22565,4.29709,6.75019,7.12502,29.6993,-20.8911,-1.44802e-14,-5.01931e-15,-38.5685,-1.34486,72.8237,45.5663,1.37213,2.73491,33.0064,7.12502,28.2072,60.9037,-4.9612,-1.30484,28.937,31.6676,-20.4165,-11.6511,12.3026,-25.6992,-4.77044,-10.7346,20.3416,-14.3343,9.98071,-24.2601
-10.8268,17.4725,-12.3653,1.17454,-4.59823,-2.0672,5.4761,2.81331,3.99125,0.493553,3.99163,0.14556,-2.29466,1.95174,-2.36804,-18.0732,0.821073,-6.19679,22.0258,3.06926,-0.323025,9.9245,0.858206,1.33583,1.85802e-14,-1.34677e-14,-30.8095,2.69115,-70.2986,40.274,5.00299,3.68368,6.81759,7.12502,29.1137,-20.9266,1.85802e-14,-1.34677e-14,-39.1077,-1.0245,72.716,46.1436,2.14779,3.41713,34.8411,7.12502,28.8591,62.629,-4.93353,-1.30155,29.0197,31.6583,-20.6393,-11.5166,12.5187,-25.8798,-5.54948,-10.4668,19.5744,-14.9116,11.6995,-23.5726
-10.8228,17.4656,-12.314,1.35079,-4.63904,-2.30877,5.17055,2.86723,4.31423,0.596374,4.06547,0.183803,-1.99306,1.99462,-2.49031,-18.4269,0.836121,-6.23856,22.0547,3.1568,-0.419249,10.0004,0.879939,1.32493,-2.38417e-14,4.52235e-15,-30.3371,2.81064,-70.3417,40.3039,4.83514,3.29379,6.76319,7.12502,28.7413,-21.0448,-2.38417e-14,4.52235e-15,-39.0797,-0.642195,72.5955,46.5729,2.48107,3.58523,35.5809,7.12502,29.0196,63.3413,-4.87281,-1.35375,29.2318,31.6365,-20.8357,-11.4187,12.5386,-26.0882,-6.27928,-10.0616,18.9515,-15.4508,13.3658,-23.7021
-10.8166,17.4547,-12.2612,1.46629,-4.73915,-2.50211,4.89972,2.9466,4.65924,0.720796,4.17123,0.148987,-1.67834,2.05494,-2.70171,-18.5605,0.688745,-6.10796,21.9782,3.00582,-0.756749,10.0132,0.781771,1.16472,9.17515e-15,4.57205e-15,-29.8819,2.77579,-70.398,40.3887,5.13133,3.31259,6.91015,7.12502,28.7592,-20.8948,9.17515e-15,4.57205e-15,-38.7909,-0.141816,72.3232,46.1381,2.70412,1.75253,29.7476,7.12502,27.2679,57.7962,-4.70195,-1.41911,29.3572,31.5739,-21.0483,-11.2093,12.4622,-26.2556,-7.10768,-9.68337,18.5127,-15.7884,15.1609,-23.5881
-10.8127,17.4407,-12.2094,1.56714,-4.69502,-2.63932,4.8699,2.96636,4.90473,0.658783,4.20975,0.10401,-1.70154,2.07102,-2.8864,-18.1744,0.506553,-5.86715,21.7321,2.76596,-1.25607,9.87459,0.642377,0.91174,-2.19595e-14,-8.49804e-15,-29.7516,2.78445,-70.505,40.6387,5.3996,3.49976,6.91875,7.12502,28.938,-20.8557,-2.19595e-14,-8.49804e-15,-38.8982,0.188731,72.0855,45.9941,2.70865,0.959147,27.0306,7.12502,26.5087,55.1961,-4.56667,-1.5852,29.4434,31.4825,-21.2176,-11.1464,11.7794,-26.4589,-7.60879,-9.50967,18.2367,-15.7661,16.5081,-23.3165
-10.8102,17.4275,-12.16,1.6506,-4.61074,-2.79048,4.9705,2.9253,5.06183,0.484236,4.17597,0.153557,-1.93353,2.04357,-2.93389,-17.7874,0.474985,-5.86774,21.6752,2.7433,-1.47023,9.78822,0.611851,0.830643,-3.5306e-14,-6.70898e-15,-29.7125,3.10094,-70.5771,40.7968,5.42971,3.6262,6.86682,7.12502,29.0588,-20.8868,-3.5306e-14,-6.70898e-15,-39.4505,0.531912,71.9305,46.2418,2.73482,1.338,27.3597,7.12502,26.8713,55.47,-4.44653,-1.72498,29.5856,31.3717,-21.3337,-11.2941,11.1348,-26.6731,-7.58211,-9.49753,18.1545,-15.8723,17.2042,-22.0964
-10.806,17.4177,-12.1094,1.6667,-4.62088,-2.98093,5.0384,2.88729,5.25858,0.364476,4.14592,0.221456,-2.08918,2.02037,-2.98036,-17.6824,0.455251,-6.01623,21.9155,2.73906,-1.38208,9.85136,0.601161,0.886269,1.32378e-14,-8.39865e-15,-29.6104,3.56908,-70.6782,40.9217,5.24364,3.88053,6.70994,7.12502,29.3016,-21.0015,1.32378e-14,-8.39865e-15,-39.9926,0.845715,71.7739,46.4948,2.92022,1.61188,27.7355,7.12502,27.1333,55.8051,-4.18552,-1.68081,29.7771,31.2567,-21.4738,-11.3464,11.2649,-26.8142,-7.10068,-9.59015,18.2586,-15.7943,17.4396,-20.5007
-10.8019,17.4114,-12.059,1.64574,-4.83325,-3.15404,5.18588,2.96748,5.50724,0.324302,4.27619,0.170551,-2.17986,2.07927,-3.18847,-17.8613,0.378276,-5.94767,22.1737,2.6303,-1.35281,9.97972,0.550216,0.87374,-2.99031e-14,2.20154e-14,-29.4278,3.70772,-70.8661,41.0628,5.07583,3.92724,6.49201,7.12502,29.3462,-21.2117,-2.99031e-14,2.20154e-14,-40.0973,1.01027,71.5389,46.4849,3.03832,1.79645,27.5287,7.12502,27.3099,55.5707,-3.88974,-1.53764,29.9119,31.1641,-21.5985,-11.1805,11.312,-26.8558,-6.46732,-9.71286,18.4797,-15.5179,17.5745,-19.38
-10.7959,17.4017,-12.0079,1.65057,-5.03764,-3.17907,5.2683,3.06727,5.63268,0.393449,4.41669,0.0746736,-2.12417,2.15094,-3.36695,-17.943,0.389739,-5.84996,21.9242,2.64465,-1.47659,9.90884,0.557526,0.815005,2.53606e-14,-1.40229e-14,-28.9795,3.64618,-70.9822,41.0812,5.19388,3.50422,6.77663,7.12502,28.9423,-20.997,2.53606e-14,-1.40229e-14,-39.9353,1.15651,71.3968,46.454,3.13576,1.89523,27.0796,7.12502,27.4044,55.1067,-3.68151,-1.56344,29.8463,31.0954,-21.6941,-11.0179,10.7471,-26.939,-5.67126,-10.0698,18.764,-14.9349,17.4885,-18.5743
-10.7887,17.3894,-11.9563,1.65572,-5.0931,-3.25162,5.22098,3.05963,5.7556,0.518769,4.40598,0.0814591,-1.96027,2.15232,-3.41932,-17.9579,0.414658,-6.03886,21.6345,2.71601,-1.45217,9.80473,0.586754,0.86229,-2.27229e-14,-1.10403e-14,-28.5029,3.78649,-71.0367,41.2303,5.27507,3.21742,7.10541,7.12502,28.6683,-20.7149,-2.27229e-14,-1.10403e-14,-39.9064,1.44005,71.3585,46.5882,3.31715,1.83437,27.411,7.12502,27.3462,55.4473,-3.45968,-1.64465,29.872,31.0493,-21.7103,-11.1331,9.58752,-27.0543,-4.76217,-10.4373,19.0575,-13.8115,17.0008,-18.1222
-10.7827,17.381,-11.9038,1.63583,-5.42594,-3.46944,5.23089,3.11771,5.91003,0.53665,4.49426,0.183892,-1.93501,2.19634,-3.40379,-17.9445,0.440883,-6.22593,21.6668,2.79505,-1.40377,9.80937,0.612531,0.920613,-1.29909e-15,-6.27414e-15,-28.41,4.11748,-71.0696,41.6763,5.10433,3.31976,7.23237,7.12502,28.7661,-20.5714,-1.29909e-15,-6.27414e-15,-40.0406,1.79862,71.3069,46.6338,3.41736,1.97932,28.0965,7.12502,27.4848,56.1108,-3.21909,-1.46309,30.0565,31.0427,-21.6557,-11.2549,8.29973,-27.0061,-4.29121,-10.3758,19.3079,-13.0579,16.6058,-16.5837
-10.7798,17.3749,-11.8592,1.6341,-5.73039,-3.62758,5.39405,3.18846,5.91491,0.458768,4.60548,0.293421,-2.10452,2.24461,-3.31383,-17.8602,0.531328,-6.24279,21.6758,2.94951,-1.52296,9.79591,0.669061,0.901792,-8.17471e-14,-6.4605e-16,-28.3654,4.43506,-71.0749,42.0668,4.8155,3.6022,7.13711,7.12502,29.0358,-20.6205,-8.17471e-14,-6.4605e-16,-40.2604,1.9549,71.3049,46.7079,3.53748,2.32317,27.9211,7.12502,27.8136,55.8827,-3.02897,-1.24689,30.1862,31.044,-21.7394,-11.1344,8.51527,-26.9864,-4.00769,-10.2646,19.5648,-12.4347,15.8511,-15.3613
-10.7814,17.371,-11.8196,1.64906,-5.67157,-3.61266,5.6454,3.1548,5.74113,0.40411,4.57028,0.326078,-2.32142,2.22054,-3.20164,-18.129,0.583468,-6.20176,21.8969,3.07647,-1.65228,9.92577,0.705441,0.870624,9.24395e-14,8.52289e-15,-28.0696,4.64046,-71.1194,42.1463,4.6712,3.62186,7.15318,7.12502,29.0546,-20.6012,9.24395e-14,8.52289e-15,-40.4177,1.9488,71.2799,46.8481,3.74546,2.4542,27.4333,7.12502,27.9389,55.3746,-2.87267,-1.20951,30.2014,31.0327,-21.8855,-11.1334,9.13631,-27.0943,-3.44583,-10.4791,19.8221,-11.1487,14.4,-15.8637
-10.7781,17.3706,-11.7694,1.53988,-5.71173,-3.49592,5.83281,3.14208,5.57433,0.471603,4.55157,0.289287,-2.36786,2.21256,-3.15611,-18.4309,0.581673,-6.18813,22.1154,3.1188,-1.70169,10.0613,0.709276,0.860794,7.42958e-15,-6.01324e-15,-27.8221,4.82596,-71.2192,42.3373,4.51876,3.54861,7.06291,7.12502,28.9847,-20.7035,7.42958e-15,-6.01324e-15,-40.3679,2.08651,71.2048,46.8474,3.82501,2.46338,27.491,7.12502,27.9477,55.4309,-2.59752,-1.17206,30.0772,31.0379,-21.9081,-11.355,8.20874,-26.9842,-2.89412,-10.7931,20.0302,-9.75294,13.1513,-16.8434
-10.7694,17.3743,-11.7122,1.38239,-5.91135,-3.30612,5.90315,3.18435,5.41109,0.534306,4.59752,0.217684,-2.34467,2.23881,-3.14453,-18.2294,0.61738,-6.22567,22.0189,3.14105,-1.63602,9.98606,0.729786,0.89073,-2.168e-14,-1.07592e-14,-27.8266,4.94223,-71.3498,42.7558,4.27757,3.68245,6.60672,7.12502,29.1125,-21.1376,-2.168e-14,-1.07592e-14,-40.3731,2.29151,71.1599,46.8413,3.76411,2.4109,27.5995,7.12502,27.8975,55.5476,-2.24111,-1.04507,29.818,31.0734,-21.9479,-11.4429,7.32961,-26.7713,-2.568,-11.0758,20.2478,-8.74986,12.4565,-17.6576
-10.7584,17.3803,-11.6526,1.27097,-6.13682,-3.0075,5.96727,3.24938,5.18514,0.512816,4.67022,0.0745069,-2.40194,2.27482,-3.17677,-18.2371,0.593557,-6.23243,22.2801,3.07881,-1.46259,10.0781,0.712264,0.946515,-9.02195e-14,-2.05276e-14,-27.7568,4.89696,-71.5205,42.8153,4.25778,3.50239,6.66667,7.12502,28.9405,-21.1073,-9.02195e-14,-2.05276e-14,-40.3848,2.47274,71.0559,46.6781,3.63219,2.23128,27.646,7.12502,27.7258,55.6218,-1.91684,-0.945911,29.3933,31.133,-22.0974,-11.2986,7.3126,-26.6129,-2.00505,-11.5388,20.4765,-8.02779,11.6094,-17.6007
-10.7463,17.382,-11.5931,1.11071,-6.41076,-2.82178,6.12597,3.30771,5.08694,0.601042,4.74404,-0.0557787,-2.38923,2.31419,-3.26866,-18.673,0.524834,-6.19837,22.579,2.99422,-1.35216,10.2677,0.674941,0.974272,4.68977e-14,-1.29707e-14,-27.3649,4.75921,-71.6999,42.5839,4.46809,3.20746,6.97602,7.12502,28.6588,-20.8459,4.68977e-14,-1.29707e-14,-40.1751,2.58996,70.9148,46.4495,3.56441,2.2191,27.4507,7.12502,27.7141,55.4284,-1.58399,-0.737329,29.1093,31.2387,-22.2527,-11.2441,7.56218,-26.3928,-1.18255,-11.929,20.6774,-7.26258,10.4768,-16.4619
-10.7378,17.3821,-11.5302,1.05648,-6.68323,-2.66325,6.03608,3.37693,4.94656,0.775883,4.81365,-0.154048,-2.15453,2.36021,-3.28227,-18.612,0.600296,-6.03662,22.0512,3.07164,-1.55129,10.07,0.718537,0.883331,1.08928e-14,-2.55935e-15,-26.9572,4.51639,-71.8255,42.5438,4.67246,3.23581,7.01769,7.12502,28.6859,-20.7996,1.08928e-14,-2.55935e-15,-39.9461,2.44427,70.8609,46.5286,3.79487,2.34668,26.8733,7.12502,27.8361,54.8313,-1.39216,-0.375552,28.9215,31.3785,-22.3039,-11.3887,7.52733,-26.3209,-0.592728,-12.1818,20.9251,-6.3142,9.66679,-15.5703
-10.7293,17.3813,-11.4668,1.20622,-6.86579,-2.43839,5.69487,3.42933,4.72909,0.807239,4.84851,-0.241458,-1.9389,2.38613,-3.22762,-18.2195,0.7058,-5.8973,21.5601,3.18509,-1.80278,9.82607,0.773233,0.780868,-1.73843e-14,-1.19271e-14,-26.8171,4.37271,-71.9004,42.6588,4.71545,3.53318,6.82576,7.12502,28.9699,-20.9432,-1.73843e-14,-1.19271e-14,-39.9974,2.20249,70.8886,46.7645,4.18148,2.45221,26.6371,7.12502,27.937,54.5787,-1.42472,-0.134323,28.6414,31.4698,-22.2118,-11.5831,6.55994,-26.5111,-0.2267,-12.4695,21.2908,-5.52806,9.17143,-15.5075
-10.7207,17.3789,-11.4091,1.33253,-7.03766,-2.45602,5.63974,3.46573,4.75967,0.753366,4.89663,-0.279199,-1.9537,2.40857,-3.2844,-18.3713,0.713025,-5.88601,21.7243,3.21308,-1.80595,9.91265,0.779386,0.7841,5.68804e-14,-2.28602e-15,-26.8326,4.32939,-72.0278,42.8284,4.62217,3.78246,6.53048,7.12502,29.208,-21.1973,5.68804e-14,-2.28602e-15,-40.0711,2.05234,70.8701,46.8346,4.37608,2.37075,26.6761,7.12502,27.8591,54.6303,-1.37731,0.0827253,28.6227,31.4697,-22.0048,-11.7733,5.25916,-26.666,0.181273,-12.4941,21.7122,-5.02698,8.74182,-15.9955
-10.7132,17.381,-11.3472,1.34795,-7.24724,-2.65818,5.89324,3.51104,4.95249,0.64891,4.98539,-0.281931,-2.17865,2.44272,-3.42266,-18.6723,0.722306,-5.93879,22.051,3.23592,-1.62353,10.08,0.793024,0.864963,2.29845e-14,-2.08724e-15,-26.9284,4.25899,-72.221,42.978,4.5191,3.64798,6.7029,7.12502,29.0796,-21.0471,2.29845e-14,-2.08724e-15,-40.152,1.87291,70.7965,46.8531,4.35352,2.06653,26.9782,7.12502,27.5682,54.9792,-1.121,0.347059,28.8018,31.4019,-21.8064,-11.8373,4.32952,-26.7835,0.74823,-12.3406,22.1666,-4.48144,8.35712,-16.4434
-10.7008,17.3842,-11.2749,1.4178,-7.22915,-2.75365,5.8472,3.47963,5.10882,0.57067,4.95333,-0.288364,-2.2232,2.4226,-3.51402,-18.6765,0.787349,-6.04875,22.1733,3.29941,-1.36401,10.1148,0.840269,0.984309,6.07846e-14,9.74045e-15,-26.938,4.21856,-72.345,42.9627,4.48264,3.51809,7.19139,7.12502,28.9555,-20.58,6.07846e-14,9.74045e-15,-40.2077,1.69407,70.7879,46.8704,4.35039,1.86334,26.8394,7.12502,27.3739,54.8713,-0.8993,0.357908,28.8092,31.3258,-21.7301,-11.7663,3.77279,-27.0106,1.21854,-12.3858,22.6593,-3.97585,7.89356,-16.4233
-10.6816,17.3841,-11.1962,1.57113,-7.06823,-2.63309,5.39106,3.40509,5.1515,0.610931,4.82834,-0.355862,-1.92933,2.36995,-3.56461,-18.4646,0.840646,-5.9985,21.9127,3.31774,-1.32102,9.97993,0.869097,0.989259,-2.60284e-14,8.44835e-15,-26.8636,4.23419,-72.4208,43.0312,4.41966,3.85109,7.17657,7.12502,29.2735,-20.5398,-2.60284e-14,8.44835e-15,-39.9486,1.67186,70.7949,46.6711,4.29679,1.88617,26.1893,7.12502,27.3957,54.2177,-0.785717,0.100161,28.5103,31.284,-21.685,-11.6177,3.02713,-27.1611,1.50022,-12.718,23.1612,-3.7209,7.33935,-15.94
-10.6616,17.3856,-11.1234,1.69376,-7.13541,-2.47288,5.13112,3.3804,5.07236,0.528107,4.77786,-0.406716,-1.87679,2.34549,-3.55536,-18.2674,0.919699,-5.99731,21.8471,3.38567,-1.23104,9.91513,0.915498,1.02722,-1.75738e-14,4.07509e-15,-27.0145,4.36085,-72.5347,43.1928,4.45062,4.21785,7.1566,7.12502,29.6237,-20.4982,-1.75738e-14,4.07509e-15,-39.96,1.62346,70.8103,46.7069,4.07607,2.94893,28.8382,7.12502,28.4118,56.7016,-0.662352,0.0674811,28.1657,31.2987,-21.73,-11.3401,2.81629,-27.2472,1.88962,-13.0675,23.6425,-3.40866,6.92092,-15.251
-10.6455,17.3868,-11.0574,1.66596,-7.42513,-2.59713,5.22803,3.45191,5.21019,0.483024,4.88769,-0.404396,-1.95567,2.3959,-3.64388,-18.7174,0.989873,-6.21925,22.2561,3.48809,-0.773935,10.1274,0.981283,1.24764,-3.97507e-14,6.4605e-15,-27.0023,4.29489,-72.6663,43.0762,4.63589,4.20725,7.46941,7.12502,29.6135,-20.1871,-3.97507e-14,6.4605e-15,-39.9434,1.37087,70.8409,46.9419,3.88804,4.72121,33.5821,7.12502,30.104,61.1505,-0.374365,0.388824,28.1872,31.3484,-21.8261,-11.034,3.46985,-27.2292,2.46515,-13.078,24.1118,-2.89509,6.68398,-15.9495
-10.6304,17.3883,-10.9851,1.60744,-7.6212,-2.85788,5.26385,3.51163,5.52366,0.562576,4.98491,-0.397329,-1.85768,2.44671,-3.81395,-18.9417,0.938294,-6.17233,22.3006,3.40167,-0.69668,10.1864,0.951357,1.25839,3.21037e-14,-2.32578e-14,-26.8564,4.20666,-72.7932,43.0221,4.71808,4.15066,7.41642,7.12502,29.5595,-20.2497,3.21037e-14,-2.32578e-14,-39.7142,1.06958,70.8245,46.9967,3.91384,5.30035,34.9338,7.12502,30.6564,62.4001,-0.00866325,0.544277,28.3476,31.3622,-21.6996,-10.8126,3.05465,-27.1453,2.98403,-12.9452,24.5897,-2.45835,6.38367,-16.3352
-10.6145,17.3928,-10.9058,1.74617,-7.64701,-2.93287,4.99489,3.46149,5.59502,0.517507,4.90807,-0.357361,-1.75967,2.41025,-3.79063,-18.534,0.927277,-5.93127,21.9856,3.34389,-0.997166,10.0094,0.922522,1.09693,-1.55922e-14,-1.25234e-14,-27.0441,4.57534,-72.8814,43.3407,4.62766,4.11514,7.21618,7.12502,29.5256,-20.4559,-1.55922e-14,-1.25234e-14,-39.8716,0.834154,70.8401,47.1824,4.01972,5.29843,34.2799,7.12502,30.6546,61.7467,0.109956,0.491101,28.2758,31.3078,-21.3544,-10.704,1.25944,-27.2915,3.36613,-13.0148,25.0463,-2.25497,5.95509,-13.9441
-10.594,17.4006,-10.8244,1.98059,-7.64722,-2.84214,4.66549,3.38628,5.48376,0.36993,4.7881,-0.288239,-1.75585,2.34843,-3.63511,-18.5712,1.06134,-6.00858,22.1289,3.54225,-0.914393,10.059,1.01236,1.16777,4.80686e-14,1.18277e-14,-27.2971,5.15291,-72.8845,43.6054,4.52598,4.1266,7.08808,7.12502,29.5366,-20.5821,4.80686e-14,1.18277e-14,-40.1468,0.700554,70.9605,47.4446,4.10767,5.58409,34.1296,7.12502,30.9269,61.545,0.0906313,0.459602,27.988,31.1808,-21.2965,-10.4476,-0.370989,-27.5455,3.73698,-13.311,25.475,-2.276,5.46099,-10.9686
-10.57,17.412,-10.7429,2.09065,-7.76486,-2.82819,4.59944,3.40251,5.51078,0.259111,4.81157,-0.244473,-1.83277,2.35532,-3.60615,-18.9051,1.14315,-6.10433,22.559,3.67113,-0.680549,10.265,1.07466,1.29307,-1.02964e-14,2.18663e-15,-27.3726,5.35622,-72.8588,43.6291,4.58394,4.4167,6.96031,7.12502,29.8135,-20.6606,-1.02964e-14,2.18663e-15,-40.1188,0.481292,71.1094,47.5024,4.42095,5.47736,33.9837,7.12502,30.8252,61.4184,0.316508,0.538051,27.7613,31.0239,-21.6012,-9.92787,-1.26449,-27.5996,4.17115,-13.545,25.8817,-2.4622,4.94725,-9.88088
-10.5476,17.4203,-10.6645,2.03469,-7.97672,-2.963,4.70103,3.47995,5.75076,0.30949,4.93142,-0.259581,-1.80395,2.41508,-3.76477,-19.2067,1.07018,-6.04228,22.7656,3.53509,-0.500238,10.3964,1.03034,1.33431,-6.46671e-14,-1.14798e-14,-27.3323,5.17801,-72.8853,43.6971,4.63227,4.78902,6.93422,7.12502,30.1687,-20.6224,-6.46671e-14,-1.14798e-14,-39.734,0.165154,71.1761,47.8401,4.22828,6.25967,36.8412,7.12502,31.5707,64.1323,0.764646,0.729234,27.7324,30.8637,-21.5653,-9.64374,-2.23903,-27.4939,4.64801,-13.5765,26.3162,-2.57091,4.55384,-10.1591
-10.5266,17.4235,-10.586,2.00709,-8.06925,-2.9865,4.65234,3.47101,5.83225,0.356152,4.91927,-0.24297,-1.72435,2.41203,-3.7865,-19.2093,1.01777,-6.12232,22.6891,3.44429,-0.353684,10.3665,1.00225,1.38578,-3.56943e-14,-1.43622e-14,-27.3546,5.25586,-72.8893,43.8389,4.50689,4.79734,6.88129,7.12502,30.1766,-20.6739,-3.56943e-14,-1.43622e-14,-39.4905,0.224261,71.1424,47.6997,4.29185,5.70584,34.6327,7.12502,31.043,62.026,1.10466,0.880382,27.6231,30.7082,-21.236,-9.62849,-3.45093,-27.5257,5.02009,-13.7255,26.7963,-2.44885,4.33902,-10.4138
-10.5054,17.4236,-10.5024,2.07299,-8.07723,-2.98583,4.48131,3.3863,5.79379,0.285902,4.79814,-0.125843,-1.72756,2.35039,-3.6304,-18.8957,1.12287,-6.18784,22.5251,3.58477,-0.373891,10.243,1.06651,1.40273,1.97993e-14,1.78906e-15,-27.3569,5.55859,-72.8576,43.7468,4.46115,4.25785,6.70882,7.12502,29.6618,-20.9392,1.97993e-14,1.78906e-15,-39.5548,0.478571,71.13,46.9129,5.1485,3.65337,29.4172,7.12502,29.0847,57.1664,1.41319,0.986743,27.5049,30.5856,-20.8391,-9.45947,-3.08817,-27.6316,5.3159,-13.9204,27.26,-2.31622,4.16838,-10.688
-10.4835,17.425,-10.4195,2.13166,-8.05869,-3.06525,4.42705,3.30217,5.81779,0.187216,4.68979,-0.000438966,-1.81926,2.29123,-3.51068,-18.8049,1.25114,-6.10912,22.5476,3.75285,-0.446922,10.2318,1.14163,1.3863,1.31097e-14,-2.37299e-15,-27.3639,5.68512,-72.8237,43.5722,4.6027,3.66172,6.56526,7.12502,29.0927,-21.1825,1.31097e-14,-2.37299e-15,-39.7248,0.369092,71.2867,47.1659,5.51266,3.19178,30.1824,7.12502,28.6438,58.0069,1.80883,1.09968,27.4994,30.5051,-20.2664,-9.21177,-1.20075,-27.6626,5.61801,-14.0349,27.6631,-2.36827,3.89924,-11.0233
-10.4601,17.4365,-10.337,2.18596,-8.01084,-3.00066,4.36681,3.244,5.73228,0.101311,4.60806,0.036842,-1.8925,2.24719,-3.42109,-18.9126,1.24286,-5.96951,22.723,3.73635,-0.53071,10.3207,1.12895,1.33528,2.37967e-14,4.17448e-15,-27.5267,5.60708,-72.7765,43.5778,4.75341,3.11211,6.82528,7.12502,28.5677,-21.012,2.37967e-14,4.17448e-15,-39.7711,0.235306,71.3581,47.37,5.73209,2.76501,30.0878,7.12502,28.236,57.9803,2.0276,1.27581,27.3124,30.4527,-20.1313,-9.03802,-1.02041,-27.6759,5.84435,-14.3022,28.0284,-2.58704,3.60732,-10.8437
-10.4325,17.4493,-10.2476,2.18646,-7.96226,-2.90156,4.28576,3.18552,5.70844,0.0548919,4.52543,0.0383246,-1.90531,2.20489,-3.39934,-18.8841,1.14689,-5.89789,22.7421,3.57546,-0.521177,10.3278,1.06193,1.30434,3.04141e-14,-5.41688e-15,-27.6943,5.44237,-72.7326,43.5802,4.91494,2.49106,7.04928,7.12502,27.9741,-20.8863,3.04141e-14,-5.41688e-15,-39.6448,0.140355,71.3565,47.3744,5.80463,2.5712,30.0215,7.12502,28.0507,57.9445,2.22488,1.35626,27.0115,30.3983,-20.491,-8.89028,-3.2707,-27.5829,6.00002,-14.6065,28.382,-2.82882,3.3899,-10.4888
-10.4048,17.4464,-10.1563,2.11357,-7.95247,-2.82722,4.31755,3.10145,5.67772,0.0386931,4.4161,0.107516,-1.95848,2.14876,-3.30933,-19.1969,1.02953,-6.12229,23.0476,3.43637,-0.21845,10.4913,1.00338,1.43749,-5.88247e-14,1.64494e-14,-27.8137,5.37277,-72.6327,43.5292,5.23431,2.07665,6.87152,7.12502,27.5779,-21.128,-5.88247e-14,1.64494e-14,-39.454,0.300977,71.3075,47.1669,5.63102,2.9381,29.313,7.12502,28.4014,57.1781,2.6603,1.30903,26.7695,30.3696,-20.4503,-8.87675,-5.41522,-27.4221,6.15137,-14.8649,28.7182,-3.04661,3.25785,-10.4344
-10.3836,17.4407,-10.0691,2.01086,-8.02545,-2.71147,4.39677,3.04562,5.4864,0.0701874,4.33823,0.199013,-1.99893,2.11134,-3.10977,-20.1064,0.887871,-6.31393,23.8546,3.32372,0.0713629,10.9564,0.938049,1.58031,-1.63563e-14,1.00386e-14,-27.9253,5.2169,-72.5058,43.5671,5.67134,1.68569,6.89102,7.12502,27.204,-21.1676,-1.63563e-14,1.00386e-14,-39.1797,0.556966,71.2652,46.9102,5.4693,3.3741,27.8744,7.12502,28.818,55.6693,3.127,1.49284,26.5882,30.3761,-19.9254,-8.878,-5.46992,-27.2704,6.30586,-15.1165,29.0945,-3.26859,3.18828,-10.0736
-10.3616,17.4435,-9.98487,1.87219,-8.11405,-2.65262,4.47778,3.00173,5.39229,0.141887,4.27913,0.270576,-1.98789,2.08458,-2.98379,-20.5707,0.831013,-6.21125,24.1533,3.26103,0.0600555,11.1614,0.904194,1.56021,2.29969e-14,-1.90833e-14,-28.0588,4.93375,-72.3875,43.7084,5.93442,1.3471,6.80551,7.12502,26.88,-21.3034,2.29969e-14,-1.90833e-14,-38.9898,0.451301,71.3851,47.2077,5.6857,3.52708,28.6935,7.12502,28.9641,56.4635,3.52441,1.84014,26.4811,30.4331,-19.5156,-8.6905,-4.74691,-27.0482,6.39831,-15.2753,29.4868,-3.41732,3.17609,-9.26986
-10.3307,17.4455,-9.8929,1.75883,-8.2569,-2.58128,4.40333,2.96719,5.40611,0.211112,4.22749,0.317075,-1.88179,2.06321,-2.93393,-20.5227,0.85956,-6.14783,24.0617,3.26631,0.0803953,11.1175,0.918295,1.55595,-1.09953e-14,2.66371e-14,-28.0626,4.64681,-72.2646,43.5738,6.03306,1.00976,6.86989,7.12502,26.5572,-21.2883,-1.09953e-14,2.66371e-14,-38.8649,0.270614,71.5112,47.5579,5.77765,3.80611,30.0005,7.12502,29.2306,57.7243,3.92326,2.03308,26.2452,30.5555,-19.4143,-8.36655,-5.65313,-26.7722,6.52001,-15.4884,29.7997,-3.56137,3.23117,-8.86094
-10.2968,17.4506,-9.79357,1.73705,-8.30781,-2.44363,4.23543,2.91652,5.39139,0.172867,4.15012,0.321197,-1.83551,2.02548,-2.90912,-20.3944,0.888232,-6.13397,24.075,3.2568,0.20549,11.0945,0.932022,1.59638,5.684e-14,1.98785e-15,-28.1256,4.29859,-72.1919,43.3063,6.08742,0.898764,7.17567,7.12502,26.4509,-20.9985,5.684e-14,1.98785e-15,-38.7676,0.0136077,71.6182,47.9628,5.40904,4.74452,32.6399,7.12502,30.1263,60.2042,4.20042,1.97536,25.8471,30.7061,-19.3368,-8.12504,-6.95498,-26.5434,6.70941,-15.8545,30.0127,-3.61611,3.1698,-8.89253
-10.2653,17.4651,-9.69148,1.71674,-8.22268,-2.28912,4.06496,2.78665,5.31708,0.0891686,3.96686,0.362813,-1.85063,1.93294,-2.8101,-20.0637,0.95059,-6.11822,23.9171,3.29543,0.247296,10.9692,0.96362,1.60792,1.04735e-14,-1.11319e-14,-28.4305,4.07741,-72.1021,43.3973,5.97225,1.35064,6.82632,7.12502,26.8834,-21.2821,1.04735e-14,-1.11319e-14,-38.7399,-0.162104,71.713,48.3291,4.8447,5.61345,35.8959,7.12502,30.9549,63.306,4.36198,1.90956,25.4585,30.9447,-19.0559,-8.08223,-7.17516,-26.2734,6.79434,-16.2511,30.1567,-3.51099,3.05102,-9.10946
-10.2329,17.4816,-9.58232,1.66002,-8.37582,-2.07158,3.81672,2.74374,5.19567,0.0887302,3.88928,0.386773,-1.7283,1.89887,-2.7005,-19.9145,0.846958,-6.22203,23.9338,3.16407,0.272756,10.95,0.897759,1.61321,-9.90196e-15,-6.75868e-15,-28.6488,3.82953,-71.9597,43.4542,5.8495,1.64315,6.44307,7.12502,27.1633,-21.6219,-9.90196e-15,-6.75868e-15,-38.6451,-0.240431,71.732,48.1639,4.73508,5.30995,34.5612,7.12502,30.6656,62.0258,4.5215,2.08049,24.9989,31.2302,-18.4711,-8.00676,-7.58185,-25.9154,6.86216,-16.667,30.2718,-3.4675,3.15954,-9.43068
-10.2125,17.4873,-9.50868,1.81707,-7.87705,-1.81917,3.77885,2.53144,4.86619,-0.0403795,3.59507,0.409612,-1.88631,1.74882,-2.48434,-20.0385,0.612134,-6.31136,24.1668,2.89699,0.209632,11.0725,0.751392,1.57039,-1.10822e-14,-1.59028e-15,-28.7381,3.48332,-71.8144,43.341,5.80398,1.53992,6.57847,7.12502,27.0645,-21.5019,-1.10822e-14,-1.59028e-15,-38.386,-0.578973,71.8462,48.045,4.92301,6.08453,36.7076,7.12502,31.4039,64.0313,4.29752,1.94083,24.7216,31.5853,-17.6838,-8.24038,-7.95877,-26.1145,6.80667,-17.1614,30.3941,-3.28667,2.69815,-9.09265
-10.1806,17.4905,-9.40649,1.6219,-7.88631,-1.59359,3.81383,2.4424,4.68073,-0.00549641,3.47036,0.46574,-1.89388,1.68894,-2.31904,-20.2246,0.529316,-6.38888,24.3797,2.83219,0.193339,11.1909,0.704385,1.57263,1.58655e-14,-3.97569e-16,-28.8655,3.37286,-71.6457,43.3398,5.62282,1.59458,6.47219,7.12502,27.1168,-21.6001,1.58655e-14,-3.97569e-16,-38.1651,-0.889638,72.0175,47.8687,4.93404,7.93006,44.0319,7.12502,33.1605,70.9981,4.53708,2.06716,24.3363,31.9569,-17.1783,-8.13785,-7.53336,-25.7179,6.82208,-17.5564,30.5583,-3.38119,2.6421,-7.92194
-10.1431,17.494,-9.29267,1.26921,-8.02625,-1.44092,3.87669,2.39292,4.68021,0.0639368,3.40629,0.498594,-1.86422,1.65887,-2.28328,-20.2491,0.487487,-6.40966,24.5394,2.75872,0.291991,11.256,0.676653,1.60363,1.79527e-14,-9.54166e-15,-29.0238,3.2239,-71.5127,43.1744,5.50179,1.85056,6.04016,7.12502,27.3617,-21.9937,1.79527e-14,-9.54166e-15,-38.1703,-1.24818,72.1624,47.8381,4.78554,6.41631,36.0199,7.12502,31.7199,63.2816,4.9882,2.17022,23.9461,32.3695,-16.7894,-7.81748,-7.41495,-25.0399,6.80218,-17.8537,30.7283,-3.72897,2.79467,-7.07757
-10.1047,17.5051,-9.18096,1.09822,-8.11565,-1.36149,3.75245,2.35162,4.8158,0.110323,3.34801,0.478216,-1.74211,1.63233,-2.36946,-20.0782,0.424842,-6.27273,24.4799,2.60621,0.297385,11.2072,0.623887,1.55722,4.1223e-14,1.90833e-14,-29.0751,2.79999,-71.4521,42.845,5.66632,1.95472,5.82531,7.12502,27.4613,-22.1928,4.1223e-14,1.90833e-14,-38.0798,-1.63456,72.2334,48.0029,4.46145,5.70365,33.748,7.12502,31.0409,61.1417,5.19883,2.17598,23.591,32.8146,-16.2739,-7.3691,-7.89555,-24.5297,6.7045,-18.0891,30.856,-4.09522,2.97732,-6.31358
-10.0673,17.5216,-9.06858,1.0189,-8.30761,-1.20487,3.5632,2.31799,4.76931,0.136708,3.29004,0.513661,-1.61788,1.60741,-2.29481,-19.9854,0.447676,-6.15446,24.4381,2.60096,0.25758,11.1754,0.629058,1.52069,5.31749e-15,-1.90833e-14,-29.1464,2.5554,-71.371,42.7137,5.788,1.98232,5.57679,7.12502,27.4877,-22.4371,5.31749e-15,-1.90833e-14,-37.8571,-1.82172,72.3036,48.0801,3.87186,7.34861,38.5522,7.12502,32.6075,65.6344,5.26153,2.29268,23.1221,33.3726,-15.7664,-6.80466,-8.37166,-24.0518,6.54365,-18.3756,30.9068,-4.45229,3.33409,-4.14589
-10.0304,17.5321,-8.95753,0.782228,-8.48327,-0.856103,3.67341,2.28423,4.4652,0.129587,3.23975,0.546246,-1.70922,1.58251,-2.09577,-20.1288,0.457359,-6.11547,24.6116,2.61766,0.258877,11.2684,0.634224,1.52101,1.95182e-14,-3.97569e-15,-29.476,2.49294,-71.2108,42.7179,5.84061,1.93547,5.49866,7.12502,27.4429,-22.5223,1.95182e-14,-3.97569e-15,-37.6612,-2.07269,72.448,47.6817,4.11908,9.3114,46.4508,7.12502,34.4729,73.1283,5.4196,2.37536,22.429,34.0818,-15.1496,-6.13058,-8.95474,-23.398,6.26869,-18.8382,30.8834,-4.8576,3.78016,-2.08268
-9.99332,17.5438,-8.85388,0.517838,-8.48845,-0.560531,3.90378,2.21164,4.26479,0.141218,3.14632,0.538552,-1.84288,1.53469,-1.9986,-20.2446,0.39888,-6.11784,24.6907,2.52602,0.330891,11.3224,0.598734,1.53616,-2.14936e-14,-6.36111e-15,-29.828,2.19408,-71.0361,42.7034,6.01923,1.91355,5.79682,7.12502,27.4219,-22.2275,-2.14936e-14,-6.36111e-15,-37.4246,-2.4945,72.6119,47.3216,4.82814,5.60987,36.5673,7.12502,30.9515,63.978,5.42259,2.3498,21.8478,34.9886,-14.4607,-5.47943,-8.64053,-22.6773,5.88651,-19.2521,30.7848,-5.25252,4.12202,-1.9994
-9.95631,17.5588,-8.75306,0.313442,-8.39646,-0.321632,3.9176,2.06541,4.12655,0.165881,2.94621,0.578677,-1.84717,1.43646,-1.87112,-20.0328,0.39936,-6.2038,24.6344,2.50302,0.445535,11.2574,0.597754,1.58602,4.16205e-15,1.82882e-14,-29.9627,1.90699,-70.8303,42.4145,6.35675,1.96347,6.3954,7.12502,27.4697,-21.6213,4.16205e-15,1.82882e-14,-37.2387,-2.78107,72.8146,46.5302,6.30588,1.3042,27.2851,7.12502,26.839,55.4003,5.21415,2.24044,21.3533,36.1056,-13.8779,-5.00815,-8.23318,-21.9537,5.49721,-19.6421,30.5972,-5.64557,4.43887,-2.83743
-9.91786,17.5639,-8.65071,0.0876932,-8.29482,0.0613231,3.88638,1.88395,3.79749,0.1695,2.68996,0.652875,-1.86026,1.31155,-1.59811,-19.8294,0.461111,-6.27141,24.692,2.59819,0.441671,11.2355,0.632989,1.60878,1.21383e-14,-1.27222e-14,-30.1199,1.90315,-70.5774,42.0932,6.72098,1.86578,6.90202,7.12502,27.3762,-21.1295,1.21383e-14,-1.27222e-14,-37.1219,-2.69132,72.9196,47.07,4.58245,4.78474,34.5501,7.12502,30.1646,62.1074,4.96113,1.95318,20.6226,37.4212,-13.0765,-4.41297,-8.96807,-21.2638,5.11884,-20.2457,30.3172,-5.83414,4.82565,-4.28155
-9.87986,17.568,-8.54965,-0.104228,-8.28142,0.370359,3.91418,1.7167,3.50375,0.207143,2.45631,0.743566,-1.86603,1.19817,-1.33011,-19.9956,0.548279,-6.30943,24.8609,2.7528,0.438491,11.3255,0.692468,1.64145,1.74682e-14,7.55382e-15,-30.1574,1.87816,-70.403,41.8769,6.96651,2.04379,6.59985,7.12502,27.5465,-21.4047,1.74682e-14,7.55382e-15,-37.0097,-2.78869,73.0918,47.1864,4.70057,6.56007,39.4971,7.12502,31.8568,66.7317,4.48632,1.73286,19.9571,38.9219,-11.9061,-3.60002,-8.81067,-20.5703,4.84973,-20.7913,29.9373,-5.91259,5.17174,-4.2411
-9.84467,17.5789,-8.45239,-0.334664,-8.36971,0.63633,4.00395,1.59593,3.23206,0.303214,2.28629,0.827629,-1.83959,1.11729,-1.08492,-20.1984,0.599065,-6.39018,24.9112,2.84269,0.529332,11.3773,0.734237,1.70492,-1.97791e-14,7.15625e-15,-29.9108,1.69082,-70.2542,41.429,7.20653,2.24825,6.23981,7.12502,27.742,-21.7334,-1.97791e-14,7.15625e-15,-36.8556,-3.14048,73.3791,46.7161,6.18283,-0.262493,25.12,7.12502,25.3389,53.4566,3.82606,1.62613,19.3502,40.6199,-10.6324,-2.83608,-6.89914,-19.7336,4.63568,-21.2474,29.4553,-6.03565,5.50428,-4.14895
-9.81018,17.589,-8.35509,-0.648973,-8.43644,1.09095,4.16705,1.49209,2.74866,0.385716,2.1316,0.886405,-1.8723,1.04441,-0.750366,-20.0408,0.543365,-6.50737,24.7647,2.78485,0.525406,11.2926,0.701434,1.70992,-2.09469e-14,-1.66979e-14,-29.8775,1.63289,-70.019,41.1962,7.36248,2.01776,6.24595,7.12502,27.5216,-21.7625,-2.09469e-14,-1.66979e-14,-36.6432,-3.06789,73.4933,46.9588,3.77491,-3.6933,16.8259,7.12502,22.0484,45.589,3.10509,1.39516,18.4829,42.4868,-9.23654,-2.20271,-4.71785,-18.7796,4.38194,-21.8828,28.8974,-6.11728,5.82688,-3.74073
-9.77639,17.596,-8.25855,-0.888906,-8.50579,1.57024,4.34528,1.41266,2.20685,0.400605,2.00731,0.945609,-1.98146,0.985849,-0.385124,-19.932,0.500718,-6.55772,24.7566,2.75006,0.456913,11.2713,0.672409,1.68646,5.1684e-15,1.59028e-14,-30.1235,1.55921,-69.7588,41.2577,7.4701,1.86821,6.22527,7.12502,27.3785,-21.8059,5.1684e-15,1.59028e-14,-36.2463,-3.02828,73.6716,46.6108,2.64809,-1.59986,22.6877,7.12502,24.0571,51.1998,2.22495,1.1871,17.5822,44.494,-7.76095,-1.61498,-4.3368,-17.8885,4.29761,-22.5742,28.2855,-6.14882,6.0595,-4.89677
-9.74183,17.6027,-8.16504,-1.11522,-8.52444,2.09821,4.53453,1.34163,1.65552,0.420068,1.89038,0.936912,-2.08745,0.931402,-0.0838383,-20.1677,0.57071,-6.35658,24.9605,2.84382,0.332026,11.3958,0.709602,1.62711,-3.12837e-14,-9.54166e-15,-30.3439,1.24734,-69.5626,41.2692,7.68252,1.51979,6.52817,7.12502,27.0452,-21.5552,-3.12837e-14,-9.54166e-15,-35.8216,-3.19485,73.8358,46.3497,2.79811,-1.59321,24.0914,7.12502,24.0635,52.6027,1.30762,0.920196,16.6032,46.6459,-6.06405,-1.03188,-2.70654,-17.0192,4.26626,-23.3296,27.6206,-6.1984,6.21652,-6.15896
-9.70615,17.6104,-8.07394,-1.32152,-8.56086,2.72224,4.58048,1.24826,1.08108,0.46643,1.73549,0.849038,-2.08175,0.859051,0.15643,-20.2379,0.620651,-6.15363,24.9776,2.87382,0.255748,11.4186,0.731362,1.57091,3.49364e-14,-3.18055e-15,-30.5076,0.938395,-69.4578,41.2612,7.92244,0.735547,7.17536,7.12502,26.2947,-21.0223,3.49364e-14,-3.18055e-15,-35.6207,-3.47356,73.8949,46.4606,3.1063,1.30085,26.1386,7.12502,26.8358,54.2544,0.226767,0.626325,15.499,48.9083,-3.78352,-0.51451,0.0467737,-16.1761,4.22331,-24.1748,26.9252,-6.25354,6.3291,-6.67713
-9.67443,17.6189,-7.98935,-1.49791,-8.78481,3.19089,4.62296,1.21411,0.639714,0.531996,1.66612,0.78564,-2.04912,0.828122,0.342684,-20.1566,0.556964,-6.14406,24.8599,2.73709,0.365122,11.3602,0.688682,1.58605,-1.41634e-14,-7.15625e-15,-30.6317,0.669888,-69.4111,41.2911,7.98591,0.541759,7.01239,7.12502,26.1092,-21.2128,-1.41634e-14,-7.15625e-15,-35.2483,-3.77695,73.8552,46.4857,3.1679,-3.0891,19.3499,7.12502,22.6284,48.0435,-1.12598,0.598456,14.6479,51.2407,-1.343,-0.0125998,2.75997,-15.3508,4.31563,-24.8011,26.193,-6.264,6.43661,-6.6589
-9.64782,17.6285,-7.90301,-1.75059,-9.05366,3.5011,4.80872,1.2111,0.257463,0.63581,1.64369,0.816162,-2.05801,0.819962,0.586628,-20.1177,0.53628,-6.08411,24.7309,2.66706,0.408943,11.3056,0.672362,1.57922,-1.32937e-14,-3.18055e-15,-30.6901,0.350137,-69.2891,41.2579,7.96415,0.825496,6.67963,7.12502,26.3808,-21.5051,-1.32937e-14,-3.18055e-15,-34.7573,-3.98176,73.8578,46.3612,3.07105,2.73934,27.7912,7.12502,28.2114,55.6878,-2.46611,0.692451,14.0534,53.6147,0.826686,0.477668,4.2637,-14.391,4.36066,-25.1915,25.4186,-6.30166,6.59311,-5.80769
-9.62497,17.6433,-7.81485,-2.04203,-9.30106,3.84146,5.02793,1.15759,-0.22145,0.755103,1.54862,0.895467,-2.07206,0.776108,0.939479,-20.014,0.637444,-5.95763,24.5223,2.77633,0.32607,11.2055,0.729574,1.54013,-8.44835e-15,-4.77083e-15,-30.4559,-0.151718,-69.0727,40.8104,8.27227,0.868201,7.5568,7.12502,26.4217,-20.6218,-8.44835e-15,-4.77083e-15,-34.4174,-4.07173,73.9021,46.2557,3.38154,-0.102781,23.0209,7.12502,25.4919,51.3358,-3.72734,0.796025,13.4553,55.9922,2.92101,0.943064,4.72221,-13.3753,4.31763,-25.5864,24.6548,-6.43099,6.79915,-4.87294
-9.60577,17.652,-7.74103,-2.3034,-9.51478,4.28203,5.3565,1.09822,-0.845502,0.81742,1.43494,0.944017,-2.20613,0.724433,1.34159,-20.0022,0.731769,-5.90306,24.4239,2.89242,0.305849,11.1627,0.787436,1.53949,3.97569e-16,-1.51076e-14,-30.2149,-0.685283,-68.8737,40.3397,8.58855,0.803467,8.48522,7.12502,26.3597,-19.7027,3.97569e-16,-1.51076e-14,-34.1705,-4.2287,73.9427,46.319,3.81293,3.30803,27.7649,7.12502,28.7549,55.5705,-5.11848,0.896686,12.7552,58.393,5.21748,1.26577,5.54848,-12.4739,4.52101,-26.1252,23.8991,-6.43321,6.83041,-4.58049
-9.5866,17.6472,-7.67257,-2.51255,-9.54318,4.74037,5.65348,1.00331,-1.4704,0.881633,1.26933,0.962759,-2.315,0.647124,1.71967,-20.1251,0.755309,-5.8952,24.353,2.92054,0.337027,11.1579,0.806099,1.55414,2.48481e-15,-1.43125e-14,-30.2888,-0.992929,-68.7384,40.4044,8.62258,0.710776,8.66337,7.12502,26.271,-19.5378,2.48481e-15,-1.43125e-14,-33.8115,-4.3223,73.9472,46.4567,3.78786,-3.57659,17.7758,7.12502,22.1605,46.5257,-6.66373,0.845853,12.0552,60.7847,7.65811,1.47058,6.71317,-11.669,4.8533,-26.7359,23.1487,-6.24638,6.68347,-4.97201
-9.56529,17.6494,-7.5962,-2.70851,-9.51249,5.15255,5.77682,0.855016,-1.97671,1.01569,1.03933,0.974604,-2.24547,0.534454,2.0337,-20.2265,0.803677,-5.81892,24.2826,2.96615,0.343442,11.1498,0.835946,1.55079,2.00773e-14,-7.95139e-15,-30.2913,-1.25315,-68.7148,40.619,8.65565,0.640522,8.40479,7.12502,26.2037,-19.8064,2.00773e-14,-7.95139e-15,-33.34,-4.23199,73.8825,46.4503,3.62783,1.75249,25.9109,7.12502,27.2679,53.9595,-8.20687,0.785917,11.4295,63.0462,10.1142,1.72904,8.31447,-10.8649,4.92116,-27.2691,22.425,-6.20645,6.69421,-4.25024
-9.54676,17.657,-7.52331,-2.87743,-9.53885,5.43297,5.96177,0.689574,-2.42116,1.0421,0.789607,1.05593,-2.31598,0.414012,2.38575,-19.9927,0.938828,-5.67611,24.1432,3.11085,0.257491,11.0508,0.908995,1.51242,-1.65488e-14,-1.43125e-14,-30.1816,-1.5553,-68.6711,40.4742,8.84615,0.646942,8.3478,7.12502,26.2099,-19.8624,-1.65488e-14,-1.43125e-14,-33.119,-4.11346,73.8533,46.4354,3.63151,3.32125,28.3483,7.12502,28.7675,56.1518,-9.71865,0.779068,10.9912,65.1338,12.5527,1.984,11.089,-10.1126,4.93395,-27.6248,21.7583,-6.25426,6.74661,-3.19993
-9.53099,17.662,-7.45213,-3.0824,-9.48735,5.64959,6.22457,0.499668,-2.87601,1.04254,0.504238,1.19378,-2.45028,0.277729,2.80648,-19.5121,1.09442,-5.63058,23.7095,3.2905,0.16591,10.7937,0.998968,1.48545,1.80397e-14,-1.59028e-14,-30.0362,-1.9078,-68.5092,40.0531,9.24172,0.519089,8.40141,7.12502,26.0875,-19.827,1.80397e-14,-1.59028e-14,-32.9306,-4.0599,73.9199,46.3482,3.48299,2.42361,28.0076,7.12502,27.9096,55.9537,-11.0969,0.694247,10.6445,67.0225,14.277,2.0392,12.9245,-9.34116,4.88825,-27.92,21.1836,-6.24436,6.78363,-3.75879
-9.51355,17.6685,-7.37306,-3.30537,-9.58148,5.95297,6.34939,0.406993,-3.33953,1.15468,0.348883,1.27505,-2.39633,0.201467,3.16518,-19.1992,1.1301,-5.60763,23.2615,3.31069,0.108459,10.5699,1.01824,1.45322,7.35503e-15,7.95139e-16,-29.9351,-2.34317,-68.3752,39.9282,9.6129,0.243933,8.00764,7.12502,25.824,-20.2593,7.35503e-15,7.95139e-16,-32.4273,-4.12466,74.0048,46.1121,3.36144,1.6157,28.2979,7.12502,27.137,56.367,-12.4623,0.780454,10.2066,68.7262,14.5507,1.92236,12.0023,-8.58679,4.7691,-28.3058,20.7296,-6.39331,6.97681,-3.98014
-9.49786,17.6703,-7.2976,-3.46365,-9.82903,6.09705,6.47472,0.371337,-3.6045,1.26491,0.282163,1.35938,-2.34859,0.167463,3.40802,-19.1472,1.12234,-5.45734,23.0614,3.2702,0.00149902,10.4927,1.00564,1.38089,8.69683e-15,2.38542e-15,-29.8333,-2.82102,-68.3105,39.9119,9.89853,-0.0857697,8.24353,7.12502,25.5082,-20.069,8.69683e-15,2.38542e-15,-31.9382,-4.10193,73.9748,45.9709,3.31304,1.45015,28.7191,7.12502,26.9786,56.8128,-13.9248,1.04795,10.0212,70.2903,13.8246,1.91542,8.9365,-7.96711,4.88396,-28.5127,20.3726,-6.62619,7.1207,-3.50425
-9.48579,17.6731,-7.22778,-3.45605,-9.7986,5.9974,6.55853,0.201254,-3.63778,1.30029,0.0540696,1.48879,-2.33925,0.0533754,3.58078,-19.1601,1.21352,-5.33574,23.0152,3.35483,0.0163525,10.4765,1.05809,1.37757,-4.99446e-14,4.29375e-14,-29.5856,-3.20969,-68.3358,39.5175,9.6274,-0.517265,8.70386,7.12502,25.0948,-19.6671,-4.99446e-14,4.29375e-14,-31.6783,-4.01639,73.8392,45.9811,2.90338,1.56045,28.9683,7.12502,27.0841,57.0457,-15.3901,1.03946,10.1688,71.6867,15.3327,2.47922,13.651,-7.56491,4.90965,-28.4742,20.0494,-6.69008,7.1628,-3.69721
-9.47335,17.6765,-7.15455,-3.38731,-9.62033,5.99587,6.53803,-0.0298923,-3.78819,1.31555,-0.259612,1.6314,-2.28251,-0.103377,3.84046,-19.1386,1.30683,-5.39266,23.0204,3.467,0.144537,10.4663,1.12023,1.44823,3.27995e-15,-2.8625e-14,-29.4075,-3.38394,-68.3528,39.283,9.21447,-0.612196,8.14559,7.12502,25.0039,-20.2381,3.27995e-15,-2.8625e-14,-31.5097,-3.95925,73.7751,46.0662,2.56452,1.162,29.4302,7.12502,26.7029,57.5663,-16.7752,0.784946,10.1721,72.9008,14.5005,3.10559,13.6968,-7.26335,4.80495,-28.5629,19.8165,-6.72435,7.17265,-4.09377
-9.45964,17.6773,-7.07715,-3.46552,-9.49727,6.1728,6.63174,-0.178945,-4.092,1.40165,-0.479837,1.713,-2.2213,-0.214478,4.11635,-19.2167,1.30751,-5.47501,22.9673,3.45558,0.299041,10.4565,1.12792,1.51552,-1.74931e-14,-2.70347e-14,-29.3535,-3.66203,-68.3304,39.4441,9.24167,-0.428464,7.28824,7.12502,25.1799,-21.0708,-1.74931e-14,-2.70347e-14,-31.1735,-3.94943,73.7648,46.1408,2.53505,0.471122,29.123,7.12502,26.0415,57.3582,-17.9635,0.527534,9.92342,73.9126,13.1091,3.35793,12.3584,-6.82314,4.814,-28.8497,19.6859,-6.87778,7.13413,-4.45326
-9.44456,17.6765,-7.00238,-3.49536,-9.32267,6.19261,6.7392,-0.320098,-4.14896,1.48732,-0.67416,1.75782,-2.17152,-0.314133,4.21217,-19.2926,1.30412,-5.39666,22.8613,3.39441,0.425625,10.4315,1.12515,1.53847,-3.77691e-14,-4.77083e-15,-29.247,-4.18848,-68.3398,39.3256,9.04045,-0.611607,7.16854,7.12502,25.0044,-21.2151,-3.77691e-14,-4.77083e-15,-30.6382,-4.00517,73.6884,46.1079,2.39908,0.313428,28.6401,7.12502,25.8905,56.8974,-19.1612,0.237975,9.87423,74.7556,11.765,3.22907,11.7278,-6.45637,4.66571,-28.974,19.6194,-7.09611,7.18957,-4.3683
-9.42901,17.6675,-6.93495,-3.46193,-9.15295,6.17108,6.80121,-0.506612,-4.1832,1.51464,-0.924725,1.85579,-2.14955,-0.440124,4.35525,-19.2198,1.39923,-5.21708,22.8225,3.48381,0.35389,10.405,1.1743,1.49421,-2.32578e-14,-4.77083e-15,-29.019,-4.73525,-68.2541,38.8599,9.05398,-0.994659,7.62602,7.12502,24.6373,-20.8082,-2.32578e-14,-4.77083e-15,-30.2419,-4.04446,73.6339,46.1072,2.36953,0.291622,28.8828,7.12502,25.8697,57.1432,-20.454,-0.0546331,9.90091,75.4904,10.212,3.1463,10.2363,-6.24109,4.42242,-29.0566,19.6243,-7.36687,7.31551,-4.03569
-9.41826,17.6595,-6.86551,-3.43402,-9.09033,6.25722,6.76788,-0.665971,-4.41278,1.55592,-1.14881,1.96894,-2.05712,-0.554344,4.62075,-19.0481,1.5321,-5.03838,22.6698,3.63269,0.22222,10.3185,1.24709,1.43391,-3.47873e-15,-9.54166e-15,-28.8248,-5.18497,-68.2034,38.6825,9.42384,-1.18336,7.48183,7.12502,24.4564,-20.9769,-3.47873e-15,-9.54166e-15,-30.0433,-4.09455,73.5945,46.2688,2.42238,0.170706,28.8502,7.12502,25.7539,57.1274,-21.7458,-0.249344,9.83113,76.0404,8.95164,3.03199,9.58554,-6.06752,4.34368,-29.2364,19.6912,-7.63546,7.37534,-3.95782
-9.40961,17.6564,-6.78945,-3.38052,-9.02994,6.27172,6.60878,-0.873872,-4.57425,1.62859,-1.42652,2.12295,-1.85358,-0.700065,4.89012,-18.8514,1.66223,-5.08599,22.4327,3.80242,0.246096,10.1889,1.33178,1.46694,3.97569e-15,-1.11319e-14,-28.7886,-5.28697,-68.2283,38.938,9.51851,-1.01755,6.93636,7.12502,24.6154,-21.5008,3.97569e-15,-1.11319e-14,-29.818,-3.96136,73.543,46.3523,2.34411,0.147,28.7626,7.12502,25.7312,57.0431,-23.0139,-0.44826,9.87705,76.3658,8.00517,2.74112,8.62164,-5.8948,4.31983,-29.3271,19.7998,-7.89444,7.36911,-3.9655
-9.39851,17.6511,-6.71226,-3.51176,-8.87622,6.34754,6.69557,-1.08894,-4.6963,1.73553,-1.72217,2.22201,-1.7491,-0.853379,5.08593,-18.8195,1.7488,-5.18909,22.3647,3.93131,0.317619,10.1504,1.39299,1.52515,-1.80894e-14,3.18055e-14,-28.8071,-5.34629,-68.2315,39.2062,9.4749,-1.00933,6.56706,7.12502,24.6233,-21.8691,-1.80894e-14,3.18055e-14,-29.4144,-3.89046,73.5019,46.2769,2.39924,-0.115799,28.6772,7.12502,25.4795,56.9938,-23.975,-0.745649,9.81131,76.5167,6.75059,2.38876,7.02905,-5.52246,4.23831,-29.4845,19.9465,-8.27551,7.3872,-4.16478
-9.38916,17.646,-6.64178,-3.56183,-8.79977,6.31181,6.92827,-1.2155,-4.74802,1.79261,-1.90149,2.32638,-1.79202,-0.943255,5.24475,-18.8533,1.80534,-5.05914,22.2711,3.98763,0.248418,10.1255,1.42395,1.48609,9.24349e-15,0,-28.8189,-5.5776,-68.2373,39.4008,9.52544,-1.19701,6.39673,7.12502,24.4434,-22.0638,9.24349e-15,0,-29.1019,-4.02459,73.4802,46.452,2.55819,-0.242173,28.8386,7.12502,25.3584,57.1725,-25.0113,-0.930362,9.88739,76.5298,5.44356,1.85799,7.46109,-5.3252,4.13411,-29.5189,20.2088,-8.6953,7.50472,-4.0385
-9.38133,17.6384,-6.57647,-3.30439,-8.8569,6.12595,7.00781,-1.34587,-4.77825,1.66643,-2.0763,2.55436,-1.9353,-1.02341,5.52062,-18.55,1.91052,-4.93653,22.0222,4.10358,0.115366,9.982,1.4807,1.42584,-1.14301e-14,0,-28.9392,-5.58535,-68.1797,39.5669,9.66238,-1.15147,6.7455,7.12502,24.487,-21.7091,-1.14301e-14,0,-29.1434,-4.00236,73.5014,46.7758,2.51363,-0.0966091,29.2061,7.12502,25.4978,57.5201,-26.4138,-1.02768,10.2035,76.4048,4.48878,1.34822,8.44804,-5.57528,4.15255,-29.393,20.6119,-9.11861,7.62435,-3.95854
-9.37228,17.6204,-6.50687,-3.11871,-8.75215,6.09265,7.11641,-1.52819,-4.89778,1.45887,-2.32919,2.73002,-2.16581,-1.13679,5.80306,-18.0611,2.01329,-4.88236,21.8414,4.20764,0.0571381,9.82595,1.53474,1.39924,-4.27387e-15,3.18055e-15,-29.2286,-5.47401,-68.094,39.6808,9.79593,-1.2456,7.21667,7.12502,24.3968,-21.2501,-4.27387e-15,3.18055e-15,-29.1934,-4.03371,73.5519,46.7976,2.45212,-0.353746,28.9934,7.12502,25.2515,57.3424,-27.5483,-1.33104,10.3235,76.1437,3.43963,0.954663,8.1839,-5.80038,4.17432,-29.4372,21.1369,-9.67223,7.62767,-4.28468
-9.36321,17.5994,-6.43376,-3.03914,-8.45795,6.09756,7.12978,-1.74318,-4.97443,1.4079,-2.61914,2.85716,-2.1771,-1.27983,6.00549,-17.9182,2.09874,-4.86865,21.8427,4.30748,0.0790472,9.79641,1.58553,1.41528,-1.56046e-14,2.22639e-14,-29.4275,-5.47327,-68.0078,39.9152,9.91234,-1.34854,7.84395,7.12502,24.2981,-20.6361,-1.56046e-14,2.22639e-14,-28.8302,-4.30922,73.6481,46.573,2.52938,-0.763666,28.9033,7.12502,24.8587,57.3071,-28.4299,-1.78874,10.3741,75.707,2.24048,0.482843,7.39007,-5.87663,4.0318,-29.5217,21.6794,-10.2528,7.47011,-3.78076
-9.35658,17.5835,-6.36356,-2.9788,-8.30896,6.01237,7.09673,-1.88451,-4.96448,1.52033,-2.80215,2.9871,-2.00995,-1.38048,6.14582,-18.1568,2.17716,-4.831,21.9519,4.40589,0.15136,9.87522,1.638,1.45339,2.62396e-14,0,-29.3093,-5.76433,-67.9468,40.0515,10.0947,-1.16702,8.73044,7.12502,24.4721,-19.7262,2.62396e-14,0,-28.3052,-4.60254,73.6892,46.5728,2.55082,-0.824106,28.9747,7.12502,24.8008,57.3865,-29.3034,-2.10553,10.5665,75.0565,0.843224,-0.0780653,6.23976,-5.88384,4.05078,-29.4732,22.1356,-10.8346,7.196,-4.37484
-9.35093,17.5696,-6.29323,-2.99591,-8.3288,6.02589,7.21977,-1.94498,-5.03243,1.58402,-2.89122,3.05175,-1.9926,-1.42731,6.26384,-18.286,2.23564,-4.69232,21.9847,4.44685,0.185155,9.9113,1.67078,1.4508,2.18663e-14,-7.95139e-15,-29.2928,-5.97455,-67.9948,40.1893,10.0791,-1.08746,8.90423,7.12502,24.5484,-19.5421,2.18663e-14,-7.95139e-15,-28.0897,-4.85478,73.6691,46.9057,2.67891,-0.761523,29.043,7.12502,24.8608,57.4466,-30.1127,-2.19712,10.6704,74.1959,-0.578773,-0.746831,6.57969,-5.8167,4.2899,-29.5055,22.5405,-11.3245,7.01822,-4.57764
-9.34542,17.5586,-6.2181,-2.98476,-8.44984,6.07747,7.27642,-1.96658,-5.12696,1.59528,-2.92856,3.09421,-1.99975,-1.44587,6.3682,-18.3477,2.26702,-4.49972,22.0273,4.44494,0.158867,9.94268,1.6812,1.41162,-2.38542e-15,-6.36111e-14,-29.5802,-5.96256,-68.0727,40.5498,9.93809,-1.41382,8.43625,7.12502,24.2355,-20.0522,-2.38542e-15,-6.36111e-14,-27.8335,-5.22786,73.6779,47.0002,2.81554,-0.796825,28.791,7.12502,24.8269,57.1992,-30.8982,-2.12916,10.7385,73.1235,-1.42552,-1.4291,7.8885,-5.74953,4.51231,-29.5909,22.8864,-11.6346,7.05383,-4.59883
-9.34122,17.5429,-6.14209,-2.88319,-8.5771,6.12282,7.20632,-1.99273,-5.24835,1.63085,-2.96793,3.17322,-1.90706,-1.46986,6.51947,-18.5151,2.28986,-4.34003,22.1122,4.45515,0.104007,10.009,1.68908,1.3721,4.92986e-14,-6.36111e-15,-29.7303,-6.13924,-68.0175,40.726,9.87743,-1.65249,8.56718,7.12502,24.0067,-19.9516,4.92986e-14,-6.36111e-15,-27.4342,-5.56066,73.7102,46.9293,2.75501,-0.99974,28.2066,7.12502,24.6325,56.6415,-31.649,-2.113,10.8173,71.9123,-2.2622,-1.99785,8.25978,-5.7246,4.66035,-29.6855,23.1461,-12.0059,7.10076,-4.48274
-9.33486,17.5211,-6.06702,-2.79664,-8.56099,6.34114,7.13906,-2.13956,-5.54923,1.61941,-3.18132,3.27211,-1.8263,-1.57909,6.80868,-18.375,2.39146,-4.36318,22.0245,4.61479,0.0157874,9.94984,1.75341,1.3624,-7.35503e-14,2.54444e-14,-29.6892,-6.01436,-67.9276,40.7707,9.5294,-1.22621,9.02946,7.12502,24.4154,-19.4348,-7.35503e-14,2.54444e-14,-27.2903,-5.62584,73.7634,47.0172,2.68495,-1.22309,27.9945,7.12502,24.4184,56.4584,-32.3243,-2.26962,10.6749,70.551,-3.52433,-2.54762,9.04439,-5.71501,4.68606,-29.9918,23.4151,-12.4712,7.12003,-4.61347
-9.32672,17.508,-5.98809,-2.67335,-8.39653,6.5074,7.03232,-2.3174,-5.7244,1.59068,-3.42515,3.3484,-1.74267,-1.70367,7.00151,-18.2197,2.48216,-4.42063,21.9308,4.75434,-0.0185987,9.88375,1.81265,1.37384,-6.32135e-14,-4.77083e-15,-29.6678,-5.89404,-67.9407,40.9404,9.18326,-0.678819,8.76215,7.12502,24.94,-19.6304,-6.32135e-14,-4.77083e-15,-27.1347,-5.75698,73.813,47.1274,2.64464,-1.31983,28.1045,7.12502,24.3256,56.5809,-32.9302,-2.53392,10.5934,68.975,-4.59046,-3.16937,7.4097,-5.71803,4.53819,-30.2577,23.7056,-12.8978,7.1718,-5.06403
-9.3232,17.5024,-5.91,-2.43255,-8.24232,6.3273,6.95981,-2.39926,-5.57445,1.5438,-3.51776,3.47024,-1.73753,-1.74966,7.04861,-18.1892,2.49891,-4.33921,21.8308,4.73943,0.0184426,9.8432,1.82023,1.36912,3.08116e-14,-2.8625e-14,-29.8354,-6.20518,-67.9079,41.1503,9.13339,-0.599749,8.3617,7.12502,25.0158,-20.0203,3.08116e-14,-2.8625e-14,-26.9906,-6.11261,73.8871,47.4072,2.61626,-1.34083,28.4135,7.12502,24.3055,56.8926,-33.5314,-2.66725,10.959,67.2046,-5.40335,-3.98019,0.213542,-5.73404,4.34226,-30.124,23.8765,-13.1756,7.21661,-5.17389
-9.3236,17.4907,-5.8387,-2.31905,-8.27321,6.19421,7.10719,-2.43439,-5.57039,1.47829,-3.56781,3.61791,-1.8702,-1.76806,7.21863,-18.1049,2.58069,-4.17721,21.7638,4.81778,-0.0562549,9.80773,1.86362,1.32419,3.29983e-14,4.77083e-15,-30.1186,-6.34037,-67.7678,41.3263,9.08834,-0.596892,8.41214,7.12502,25.0185,-19.9695,3.29983e-14,4.77083e-15,-26.8328,-6.43128,73.9887,47.4916,2.57048,-1.47989,28.3034,7.12502,24.1722,56.8003,-34.0169,-2.60554,11.2823,65.2859,-5.83312,-4.88669,-5.31702,-5.60168,4.47156,-30.0124,23.9216,-13.2791,7.27203,-5.77543
-9.32008,17.4738,-5.75789,-2.33128,-8.29236,6.52928,7.15518,-2.50914,-5.91502,1.50022,-3.69565,3.61839,-1.83024,-1.83357,7.42773,-18.3766,2.70753,-3.97784,21.9804,5.00014,-0.223685,9.94182,1.93599,1.26668,-1.55052e-14,3.18055e-15,-30.1403,-6.46157,-67.644,41.2411,9.12263,-0.345812,8.68332,7.12502,25.2591,-19.6646,-1.55052e-14,3.18055e-15,-26.268,-6.69034,74.0319,47.1203,2.55639,-1.70519,27.7528,7.12502,23.9561,56.2782,-34.3148,-2.74676,11.0077,63.2526,-6.01647,-5.67471,-2.85479,-5.33598,4.72342,-30.427,23.9362,-13.5014,7.26766,-6.36492
-9.31545,17.4666,-5.67026,-2.22226,-8.17594,6.82762,7.00848,-2.6186,-6.13623,1.48561,-3.85166,3.59489,-1.7236,-1.91528,7.5305,-18.4353,2.75926,-3.90282,22.015,5.05195,-0.215412,9.96539,1.96571,1.26602,2.42517e-14,-2.8625e-14,-30.2615,-6.56122,-67.5915,41.2291,9.15986,-0.0892932,8.72321,7.12502,25.5048,-19.5898,2.42517e-14,-2.8625e-14,-25.9482,-6.99471,74.0771,47.0915,2.66833,-1.84674,27.5403,7.12502,23.8204,56.0835,-34.5697,-2.99947,10.7631,61.0517,-6.70437,-6.57594,1.72904,-5.10335,4.56884,-30.8138,23.8707,-13.8805,7.26806,-5.77958
-9.31869,17.4658,-5.59364,-1.99519,-8.08674,6.82643,7.00378,-2.69095,-6.23036,1.322,-3.95339,3.70523,-1.85936,-1.9552,7.71553,-18.0495,2.74457,-3.97648,21.7921,4.99632,-0.103521,9.80938,1.95677,1.29785,-6.1822e-14,2.38542e-14,-30.7885,-6.45271,-67.5167,41.6373,9.08616,-0.0398184,8.34475,7.12502,25.5522,-19.9615,-6.1822e-14,2.38542e-14,-26.0754,-7.36685,74.2017,47.392,2.88441,-2.09283,27.5746,7.12502,23.5844,56.1483,-34.8758,-3.02702,10.8995,58.6712,-7.24853,-7.49065,3.35473,-4.97622,4.39069,-30.8323,23.707,-14.1771,7.24033,-5.47678
-9.32522,17.4647,-5.51803,-1.8041,-8.17319,6.76126,7.00246,-2.68646,-6.25833,1.27511,-3.94766,3.79808,-1.89984,-1.94924,7.83276,-18.1381,2.74802,-3.88877,21.8233,4.97982,-0.0986095,9.83916,1.95543,1.28536,-8.15017e-15,1.59028e-14,-31.1207,-6.61736,-67.4612,41.9647,9.05682,-0.139864,8.43971,7.12502,25.4564,-19.8802,-8.15017e-15,1.59028e-14,-25.8348,-7.74865,74.2309,47.4871,3.0696,-2.12213,27.6819,7.12502,23.5562,56.2593,-35.0805,-2.90054,11.0928,56.1422,-7.27854,-8.19064,3.82589,-4.8445,4.51941,-30.7564,23.5751,-14.4152,7.17165,-5.2172
-9.32842,17.4656,-5.43428,-1.66982,-8.37612,6.658,6.82229,-2.65504,-6.12497,1.38864,-3.88574,3.85187,-1.6972,-1.93161,7.79277,-18.4344,2.78131,-3.80228,21.8805,5.00593,-0.0504162,9.9144,1.9767,1.29855,6.1822e-14,-1.74931e-14,-31.1168,-7.00632,-67.4457,42.0086,9.08807,-0.174543,9.03962,7.12502,25.4232,-19.285,6.1822e-14,-1.74931e-14,-25.3089,-7.95263,74.2074,47.4791,3.00165,-1.80921,27.9219,7.12502,23.8564,56.4604,-35.1722,-2.77509,11.3167,53.5024,-7.07169,-8.73075,2.97915,-4.58057,4.64558,-30.6641,23.4224,-14.6273,7.23792,-3.79932
-9.33159,17.466,-5.34732,-1.45504,-8.51313,6.49886,6.60882,-2.71904,-6.02552,1.35673,-3.95098,4.03511,-1.59325,-1.96908,7.92256,-18.1731,2.89072,-3.95179,21.6732,5.17041,-0.0043195,9.78295,2.05382,1.3517,-9.34288e-15,3.49861e-14,-31.101,-7.13772,-67.3207,41.8504,9.23242,-0.108015,9.3164,7.12502,25.4869,-18.9992,-9.34288e-15,3.49861e-14,-25.2275,-7.96326,74.3662,47.5166,2.89053,-1.85148,27.7081,7.12502,23.8158,56.2519,-35.2954,-2.67462,11.5909,50.8232,-6.69873,-9.16874,1.3449,-4.31064,4.64987,-30.5184,23.1248,-14.7746,7.31643,-3.21159
-9.33379,17.4704,-5.26013,-1.27723,-8.50949,6.46033,6.48601,-2.85931,-6.03319,1.22163,-4.13057,4.19724,-1.62035,-2.05451,8.10815,-17.7847,3.04414,-3.9964,21.5653,5.39867,-0.110797,9.67022,2.14943,1.34155,1.78906e-14,-9.54166e-15,-31.2833,-6.95574,-67.2104,41.7618,9.2159,-0.0625392,8.93086,7.12502,25.5305,-19.3785,1.78906e-14,-9.54166e-15,-25.399,-8.01696,74.5449,47.5255,3.01643,-2.14802,27.0382,7.12502,23.5314,55.6188,-35.2641,-2.63836,11.6416,48.1573,-6.75053,-9.30261,1.64794,-3.94181,4.59725,-30.4971,22.6907,-14.8846,7.29177,-5.14886
-9.33649,17.4754,-5.17676,-1.12615,-8.55469,6.64524,6.33842,-2.91669,-6.17458,1.20234,-4.21025,4.1954,-1.53312,-2.0975,8.18205,-17.9022,3.11081,-3.86955,21.6288,5.48736,-0.207478,9.71948,2.18658,1.3028,-4.29375e-14,1.59028e-14,-31.4282,-7.06925,-67.1735,41.7492,9.19429,0.0719085,8.67051,7.12502,25.6592,-19.6203,-4.29375e-14,1.59028e-14,-25.1707,-8.19024,74.5596,47.4585,3.22843,-2.10435,26.9439,7.12502,23.5733,55.5191,-35.266,-2.52236,11.4001,45.5224,-6.87215,-9.22993,2.85312,-3.51719,4.74457,-30.7041,22.132,-14.9158,7.16274,-3.7095
-9.34626,17.4765,-5.09491,-0.938322,-8.7843,6.86704,6.17636,-2.86293,-6.44595,1.20903,-4.14906,4.17838,-1.42837,-2.07118,8.30557,-18.1918,3.18712,-3.64413,21.7156,5.57598,-0.325258,9.81269,2.22716,1.24507,2.127e-14,-1.90833e-14,-31.477,-7.45333,-67.1069,41.6493,9.30756,0.256027,9.68343,7.12502,25.8356,-18.5819,2.127e-14,-1.90833e-14,-24.8716,-8.48625,74.5696,47.4524,3.32496,-1.90791,27.5511,7.12502,23.7617,56.1019,-35.4199,-2.09295,11.1249,42.9318,-6.63881,-9.2112,3.69711,-3.09612,5.16094,-30.9112,21.4403,-14.8979,6.94919,-5.18721
-9.35648,17.4734,-5.00464,-0.919325,-8.77201,7.12104,6.11726,-2.88031,-6.73471,1.19216,-4.18845,4.16527,-1.38504,-2.09194,8.45673,-18.2629,3.28319,-3.48352,21.8162,5.68955,-0.402705,9.86691,2.28025,1.21062,1.11319e-14,3.97569e-14,-31.6856,-7.62066,-67.0133,41.6569,9.27899,0.351601,10.3926,7.12502,25.9271,-17.8593,1.11319e-14,3.97569e-14,-24.6855,-8.8807,74.6543,47.3956,3.40978,-1.725,28.0194,7.12502,23.9371,56.5473,-35.3028,-1.67741,10.7025,40.4244,-6.3994,-9.30336,3.98444,-2.40735,5.34173,-31.1445,20.6746,-14.9189,6.75799,-3.31643
-9.36344,17.4679,-4.91119,-0.855105,-8.54967,7.3778,5.93253,-2.99832,-6.90514,1.1946,-4.34764,4.12705,-1.23827,-2.1787,8.5072,-18.3374,3.29315,-3.55751,21.8213,5.69642,-0.274139,9.87526,2.29198,1.27,-4.63168e-14,1.59028e-14,-31.7893,-7.87599,-66.9156,41.5427,9.38155,0.477783,9.78689,7.12502,26.0479,-18.4473,-4.63168e-14,1.59028e-14,-24.4193,-9.1857,74.688,47.2983,3.55379,-1.617,27.796,7.12502,24.0407,56.3103,-35.1615,-1.2627,10.1549,38.0382,-6.31263,-9.71274,2.13761,-1.74161,5.30083,-31.4029,19.9007,-14.8994,6.58422,-4.63418
-9.37514,17.47,-4.82193,-0.610343,-8.67392,7.53743,5.50499,-3.04195,-7.00637,1.19701,-4.3886,4.09055,-0.983952,-2.21137,8.49619,-18.4051,3.32938,-3.59106,21.7357,5.71679,-0.114169,9.84956,2.31986,1.33363,1.39149e-15,-6.36111e-15,-31.8918,-8.07696,-66.9139,41.433,9.41637,0.665979,9.40583,7.12502,26.2281,-18.8017,1.39149e-15,-6.36111e-15,-24.2762,-9.33915,74.6435,47.3323,3.58974,-1.90046,27.2056,7.12502,23.7689,55.7555,-35.2787,-0.3423,9.64979,35.8368,-6.56358,-10.1771,0.631063,-1.31382,5.50925,-31.5534,19.138,-14.8738,6.44298,-3.10371
-9.39237,17.4703,-4.73186,-0.434133,-8.90874,7.69375,5.13935,-3.05045,-7.22961,1.17228,-4.3914,4.10346,-0.786318,-2.22182,8.61357,-18.2687,3.44677,-3.56546,21.6771,5.8568,-0.0853079,9.79995,2.39323,1.35365,1.07344e-14,-1.11319e-14,-32.1798,-8.05052,-66.9065,41.5272,9.39124,0.942557,9.19344,7.12502,26.4929,-18.9745,1.07344e-14,-1.11319e-14,-24.2709,-9.48271,74.6688,47.3794,3.58489,-2.10804,26.962,7.12502,23.5698,55.5376,-35.3729,0.87041,9.05185,33.8413,-6.97936,-10.3775,0.98971,-0.852288,5.93867,-31.6808,18.4684,-14.8756,6.28957,-3.47299
-9.41258,17.4558,-4.64427,-0.400749,-8.86746,7.90959,5.19674,-3.08774,-7.58103,1.04596,-4.46436,4.16665,-0.902646,-2.24881,8.89723,-18.1706,3.53874,-3.59483,21.8172,6.01092,-0.15481,9.83041,2.4506,1.35513,-3.16068e-14,3.33958e-14,-32.3829,-8.23648,-66.7209,41.3427,9.68021,1.2437,9.09824,7.12502,26.7811,-19.0259,-3.16068e-14,3.33958e-14,-24.255,-9.68356,74.8048,47.3059,3.33286,-1.19952,27.5064,7.12502,24.441,55.9673,-35.3929,2.02775,8.30399,32.1605,-7.2555,-10.6775,-0.392112,-0.23415,6.32159,-31.8392,17.7654,-14.737,6.08326,-5.55322
-9.43282,17.4386,-4.55941,-0.389512,-8.68429,8.03989,5.37843,-3.11649,-7.72554,0.976956,-4.5232,4.16001,-1.05328,-2.26789,8.99228,-18.3504,3.57466,-3.54587,21.9533,6.06256,-0.162476,9.91308,2.47205,1.35862,-2.96189e-14,-1.11319e-14,-32.5335,-8.46957,-66.6433,41.1745,9.66086,1.49355,10.4959,7.12502,27.0201,-17.5914,-2.96189e-14,-1.11319e-14,-24.0303,-10.0051,74.841,47.1458,3.04685,-0.521934,27.6205,7.12502,25.0904,55.9921,-35.4028,3.1231,7.62109,30.7292,-7.83505,-11.1403,-1.75613,0.372474,6.41327,-31.8992,17.1543,-14.6775,5.97325,-7.05425
-9.44826,17.4449,-4.47389,-0.264098,-8.47968,8.08559,5.26739,-3.17857,-7.65744,0.963169,-4.59577,4.10371,-1.00068,-2.30616,8.88603,-18.4257,3.57703,-3.46812,21.8841,6.04116,-0.149746,9.90456,2.47163,1.34806,-4.29375e-14,-3.18055e-14,-32.9039,-8.4515,-66.6976,41.3914,9.25493,1.77279,11.6577,7.12502,27.2873,-16.3879,-4.29375e-14,-3.18055e-14,-23.96,-10.4895,74.8352,47.2377,3.42154,-1.63707,26.6209,7.12502,24.0215,55.1377,-35.3608,4.07535,7.01709,29.6272,-9.78579,-11.2691,2.42661,0.844994,6.31061,-31.9017,16.6814,-14.7792,5.88291,-7.35981
-9.46136,17.4369,-4.38614,-0.0412013,-8.30701,8.2692,4.99857,-3.27715,-7.73914,0.857599,-4.71594,4.07215,-0.931776,-2.36575,8.8863,-18.3184,3.62644,-3.42387,21.8199,6.10989,-0.229414,9.865,2.50041,1.31845,2.78299e-15,2.8625e-14,-33.2114,-8.53496,-66.6007,41.3631,9.2867,1.95737,10.7898,7.12502,27.4638,-17.2278,2.78299e-15,2.8625e-14,-24.0938,-10.8331,74.9065,47.4405,3.92716,-2.55833,26.2345,7.12502,23.1378,54.8651,-35.6173,4.57872,6.40538,28.8196,-11.2605,-11.2586,2.98967,1.13116,6.16414,-32.0765,16.3752,-14.9997,5.70631,-7.02284
-9.47544,17.4162,-4.30182,0.0204254,-8.15517,8.50943,4.84724,-3.34363,-7.86948,0.897385,-4.8021,3.98577,-0.78407,-2.41769,8.85626,-18.5034,3.7132,-3.29911,21.785,6.20372,-0.236488,9.88918,2.55277,1.3123,6.32135e-14,-3.81667e-14,-33.1693,-8.97699,-66.5433,41.0506,9.66614,1.87897,9.87784,7.12502,27.3888,-18.1517,6.32135e-14,-3.81667e-14,-23.7604,-11.0539,74.8452,47.3457,3.96954,-2.35064,26.9567,7.12502,23.337,55.5621,-35.7771,4.56071,6.00364,28.3828,-11.5333,-11.0318,-2.16491,1.52598,5.99677,-32.296,16.1064,-15.1345,5.58447,-7.72067
-9.49301,17.3912,-4.22076,-0.0443494,-7.98941,8.61042,4.91143,-3.40362,-7.93538,0.973369,-4.88941,3.96893,-0.717822,-2.46807,8.87925,-18.6936,3.73888,-3.25346,21.6775,6.23617,-0.256327,9.88777,2.57058,1.30507,3.10104e-14,-3.18055e-15,-33.2138,-9.09034,-66.5124,40.9627,9.75288,1.75549,9.87218,7.12502,27.2707,-18.176,3.10104e-14,-3.18055e-15,-23.4121,-11.1257,74.816,47.2062,3.83052,-1.9804,27.6047,7.12502,23.6922,56.1646,-35.7528,4.22028,6.00182,28.2386,-10.8205,-10.8347,-5.8432,1.98829,5.89138,-32.3323,15.9308,-15.1866,5.55715,-8.23763
-9.50983,17.3735,-4.13219,-0.0664484,-7.93187,8.71752,4.98577,-3.45878,-8.0315,0.897006,-4.97387,4.02145,-0.808281,-2.50333,9.00291,-18.6644,3.7471,-3.33424,21.6391,6.30088,-0.382402,9.87052,2.57994,1.28166,9.54166e-15,1.59028e-14,-33.4773,-8.76874,-66.4175,40.9806,9.5889,1.73128,10.9449,7.12502,27.2476,-17.1069,9.54166e-15,1.59028e-14,-23.4215,-11.0633,74.9633,47.1074,3.92022,-2.18822,27.3588,7.12502,23.4929,55.9443,-35.8303,3.49417,6.21203,28.4616,-10.484,-10.2555,-7.00739,2.47647,5.93885,-32.372,15.6867,-15.2565,5.46487,-9.14895
-9.52645,17.3574,-4.04171,-0.0973122,-7.77985,8.99937,5.02735,-3.48968,-8.15119,0.819834,-5.02674,3.90098,-0.901974,-2.52083,8.94991,-18.7899,3.77183,-3.34069,21.8237,6.33992,-0.341265,9.95704,2.59571,1.30918,1.64991e-14,-4.77083e-14,-33.7344,-8.88461,-66.3802,40.7876,9.61575,1.66751,11.8962,7.12502,27.1866,-16.1651,1.64991e-14,-4.77083e-14,-23.4214,-11.3399,75.0076,47.0229,4.07758,-2.78781,26.62,7.12502,22.9176,55.278,-35.9346,2.4384,6.29666,28.9773,-10.331,-9.38843,-8.71242,3.04301,5.96371,-32.5882,15.4011,-15.3789,5.21034,-9.00763
-9.54427,17.3363,-3.95651,-0.132075,-7.50505,9.41278,5.08727,-3.51693,-8.3669,0.795871,-5.08201,3.68907,-0.949773,-2.54333,8.85245,-18.9629,3.78841,-3.27512,21.8965,6.32398,-0.221836,10.0123,2.60472,1.3439,2.22639e-14,-1.90833e-14,-33.9628,-9.21052,-66.3561,40.6188,9.72826,1.76098,11.0948,7.12502,27.276,-16.9525,2.22639e-14,-1.90833e-14,-23.3555,-11.6263,74.939,47.0855,3.93257,-3.0013,26.252,7.12502,22.7127,54.9353,-36.0388,1.30381,6.20345,29.6375,-10.0164,-8.52255,-4.11248,3.53093,5.849,-32.9522,15.2182,-15.5341,4.99832,-8.86901
-9.5641,17.3147,-3.8701,-0.212558,-7.46239,9.663,5.13517,-3.49577,-8.48309,0.857887,-5.06415,3.55938,-0.917267,-2.53758,8.77978,-19.102,3.80025,-3.2321,21.7658,6.32193,-0.19229,9.99143,2.61363,1.34784,2.66371e-14,-2.06736e-14,-34.2039,-9.17715,-66.4392,40.8085,9.59893,2.02075,10.0012,7.12502,27.5244,-18.0069,2.66371e-14,-2.06736e-14,-23.1565,-11.6319,74.8426,47.1198,3.75196,-3.05792,26.2917,7.12502,22.6584,54.9816,-36.0927,0.670855,6.21797,30.3517,-10.0795,-7.8544,-0.550895,3.95334,5.75479,-33.17,15.1791,-15.7976,5.14568,-9.74062
-9.58899,17.2911,-3.78689,-0.216493,-7.33433,9.62541,5.19739,-3.54153,-8.37189,0.887545,-5.12337,3.54646,-0.919572,-2.56835,8.70688,-19.2894,3.79043,-3.33602,21.7391,6.32717,-0.111853,10.0098,2.6163,1.39766,3.67752e-14,-7.95139e-15,-34.3704,-9.13397,-66.5375,40.901,9.58382,2.00604,9.35792,7.12502,27.5104,-18.6523,3.67752e-14,-7.95139e-15,-22.985,-11.5811,74.7627,47.0638,3.68709,-3.07332,26.4717,7.12502,22.6436,55.1634,-36.1052,0.471755,6.39692,31.0351,-9.87515,-7.70169,1.10468,4.26623,5.54242,-33.0557,15.2525,-16.0741,5.23358,-9.41004
-9.61693,17.273,-3.70273,-0.155895,-6.879,9.54491,5.21525,-3.71169,-8.25142,0.872318,-5.3452,3.5725,-0.907412,-2.68016,8.67267,-19.3293,3.8049,-3.37833,21.6259,6.3678,-0.149304,9.97615,2.62996,1.39567,9.78021e-14,-3.33958e-14,-34.358,-9.38849,-66.5265,40.6213,9.85687,1.77992,9.23105,7.12502,27.2941,-18.8134,9.78021e-14,-3.33958e-14,-22.9862,-11.4055,74.7468,47.0695,3.55549,-2.82506,26.5427,7.12502,22.8819,55.2051,-36.0245,0.114541,6.54896,31.6658,-9.25453,-7.62573,1.1351,4.56193,5.20861,-32.8435,15.2747,-16.3558,5.08911,-10.2421
-9.64288,17.2745,-3.61171,-0.219131,-6.38761,9.51175,5.23881,-3.86532,-8.13651,0.914129,-5.54505,3.56432,-0.846883,-2.78544,8.60176,-19.2283,3.87124,-3.32814,21.3721,6.4713,-0.307209,9.87341,2.67138,1.3389,-1.00187e-13,5.08889e-14,-34.3644,-9.60384,-66.4653,40.353,9.88325,1.77841,9.67748,7.12502,27.2926,-18.3672,-1.00187e-13,5.08889e-14,-22.9593,-11.2221,74.7729,47.0439,3.42656,-2.75308,26.3677,7.12502,22.9509,55.0215,-35.7698,-0.26658,6.59841,32.2612,-8.7414,-7.41555,-0.214769,5.01789,4.86869,-32.6937,15.0545,-16.217,5.06336,-12.0436
-9.66762,17.288,-3.51943,-0.215231,-5.85555,9.46768,5.28319,-4.00495,-8.006,0.890103,-5.72731,3.59452,-0.868924,-2.87517,8.56834,-19.2525,3.87646,-3.44424,21.2932,6.52594,-0.361071,9.84748,2.68293,1.34539,-1.12115e-13,3.49861e-14,-34.5033,-9.60751,-66.3182,40.1708,9.73492,1.89516,10.0024,7.12502,27.4043,-18.0247,-1.12115e-13,3.49861e-14,-22.8973,-11.1092,74.903,46.9277,3.34306,-2.89493,26.4153,7.12502,22.8148,55.086,-35.6977,-0.501212,6.51366,32.8002,-8.46361,-7.38356,-1.37105,5.51494,4.31436,-32.5928,14.7034,-15.8786,5.19802,-13.7436
-9.69493,17.2946,-3.42899,-0.0358212,-5.30088,9.33399,5.32746,-4.16765,-7.83623,0.711192,-5.93903,3.71639,-1.04172,-2.9667,8.62066,-19.2507,3.86255,-3.55669,21.295,6.57632,-0.501037,9.84967,2.68008,1.32192,-5.34731e-14,3.81667e-14,-34.6772,-9.57551,-66.123,39.9642,9.85172,1.95286,11.3163,7.12502,27.4595,-16.702,-5.34731e-14,3.81667e-14,-23.0528,-10.8854,75.1559,46.8308,3.18342,-2.96522,26.4976,7.12502,22.7473,55.1766,-35.9629,-0.686049,6.45746,33.3074,-8.05851,-7.64719,-2.21515,6.02579,3.4962,-32.4234,14.4151,-16.0634,5.28593,-13.4733
-9.72016,17.3015,-3.34137,0.132994,-4.83573,9.13862,5.32239,-4.31417,-7.55182,0.57343,-6.1178,3.83014,-1.16385,-3.0463,8.59172,-19.0981,3.91141,-3.63413,21.1659,6.69995,-0.680022,9.77915,2.71527,1.2826,2.90226e-14,-1.74931e-14,-34.7564,-9.61683,-65.988,39.8248,10.074,2.08358,13.8128,7.12502,27.5845,-14.1857,2.90226e-14,-1.74931e-14,-23.0759,-10.6507,75.3591,46.6375,3.16892,-3.01765,26.5387,7.12502,22.697,55.2239,-36.1563,-1.05108,6.58377,33.8388,-7.54992,-7.82978,-1.49658,6.3636,2.91408,-32.2035,14.1691,-15.8819,5.5138,-15.34
-9.74499,17.3066,-3.25438,0.240982,-4.41237,9.05825,5.23566,-4.42332,-7.37508,0.590858,-6.24676,3.8742,-1.08506,-3.11645,8.53095,-19.2359,3.96497,-3.68263,21.103,6.8136,-0.758424,9.78226,2.75516,1.28102,-1.64991e-14,1.27222e-14,-34.7131,-9.78765,-65.8304,39.634,10.2069,2.25394,13.964,7.12502,27.7474,-14.0083,-1.64991e-14,1.27222e-14,-22.6751,-10.4245,75.4639,46.2552,3.30204,-3.07425,26.5798,7.12502,22.6427,55.2716,-36.182,-1.63489,6.70403,34.4289,-7.29145,-7.65782,-1.18676,6.49129,2.63835,-32.0976,14.1228,-15.3242,5.8445,-19.2808
-9.77478,17.2973,-3.16385,0.303952,-4.10628,8.93786,5.17362,-4.44517,-7.21403,0.630311,-6.26191,3.89754,-1.02087,-3.12908,8.4559,-19.588,3.98544,-3.54037,21.2161,6.8499,-0.867399,9.89655,2.7624,1.23708,-1.18873e-13,2.22639e-14,-34.8002,-9.91457,-65.6577,39.4733,10.0735,2.62447,9.55638,7.12502,28.1017,-18.3583,-1.18873e-13,2.22639e-14,-22.4567,-10.2312,75.5895,45.9691,3.13434,-2.79274,26.3255,7.12502,22.9129,54.9841,-36.1911,-2.21187,6.95082,35.0456,-7.09003,-7.27846,-0.717156,6.68187,2.22696,-31.9249,14.611,-15.8358,6.03594,-16.7491
-9.80635,17.283,-3.07048,0.312441,-3.97205,8.69672,5.15506,-4.40606,-6.93711,0.614072,-6.19205,3.93515,-1.06674,-3.09169,8.33656,-19.5886,3.95261,-3.41769,21.1872,6.80769,-1.0336,9.89895,2.73352,1.15351,-1.98785e-15,1.90833e-14,-35.0674,-9.73394,-65.6274,39.5956,9.7729,2.54446,13.1982,7.12502,28.0252,-14.729,-1.98785e-15,1.90833e-14,-22.6302,-10.1983,75.7674,45.9087,2.97276,-2.31843,26.6777,7.12502,23.3679,55.2791,-36.2927,-2.71476,7.40369,35.8474,-6.86643,-6.8899,-0.738696,7.18805,1.78716,-31.6123,15.0062,-15.8693,6.30415,-17.7551
-9.83939,17.2849,-2.97232,0.37544,-3.9158,8.56296,5.06568,-4.37381,-6.82878,0.575914,-6.13746,3.97586,-1.07418,-3.06298,8.31088,-19.4391,3.95866,-3.39421,20.9585,6.82841,-1.18102,9.79737,2.73664,1.09339,-1.23246e-14,-9.54166e-15,-35.2576,-9.65596,-65.5546,39.62,9.82763,2.72166,12.6824,7.12502,28.1945,-15.217,-1.23246e-14,-9.54166e-15,-22.7019,-10.1783,75.9284,45.7738,3.14673,-2.36287,27.3704,7.12502,23.3253,55.9773,-36.4606,-3.20824,7.77639,36.7364,-6.76109,-6.59181,0.496237,7.01096,1.82876,-31.3833,15.2592,-15.4026,6.58966,-20.709
-9.87771,17.2655,-2.87541,0.485341,-3.79268,8.58214,5.01771,-4.36302,-6.94873,0.463599,-6.1275,4.01934,-1.14906,-3.05046,8.42753,-19.3814,4.02147,-3.37025,20.8469,6.92929,-1.29453,9.75192,2.77626,1.06056,-1.35174e-14,-2.38542e-14,-35.3182,-9.85561,-65.3223,39.342,10.2236,3.21947,10.0576,7.12502,28.6702,-17.7623,-1.35174e-14,-2.38542e-14,-22.8022,-10.0462,76.1114,45.5866,3.23777,-2.66015,27.1244,7.12502,23.0401,55.7671,-36.7234,-3.76331,8.00167,37.681,-6.82296,-6.35552,1.71053,7.08657,1.77425,-31.2753,15.6023,-15.8561,6.73033,-22.6997
-9.91818,17.2594,-2.78108,0.493964,-3.58029,8.73043,5.17706,-4.34885,-7.23486,0.31937,-6.13536,4.05031,-1.35372,-3.03832,8.64866,-19.4027,3.96463,-3.43308,20.9493,6.8934,-1.36548,9.79412,2.7423,1.0438,4.75095e-14,4.6118e-14,-35.3917,-9.87838,-65.1019,39.1276,10.4103,3.49049,8.48596,7.12502,28.9292,-19.29,4.75095e-14,4.6118e-14,-23.0393,-9.89315,76.3525,45.4974,3.20415,-2.43782,26.7496,7.12502,23.2534,55.3655,-36.8096,-4.38543,8.09843,38.5615,-7.01636,-6.07653,1.6719,7.18319,1.81915,-31.275,16.0035,-16.4598,6.77841,-24.0238
-9.96035,17.2627,-2.68628,0.577496,-3.32995,8.7843,5.15004,-4.35519,-7.39863,0.276421,-6.15224,4.06429,-1.3613,-3.04427,8.75739,-19.6399,3.88992,-3.56696,21.0886,6.83102,-1.29115,9.8804,2.70386,1.09109,-6.67916e-14,3.02153e-14,-35.586,-9.72104,-65.0164,39.2402,10.2817,3.64452,8.31985,7.12502,29.0763,-19.4308,-6.67916e-14,3.02153e-14,-23.055,-9.79733,76.4908,45.419,3.21469,-2.10366,26.877,7.12502,23.574,55.4521,-36.9317,-4.94954,8.2871,39.427,-7.25313,-5.80117,1.7833,7.29118,1.59417,-31.1832,16.1435,-16.6264,6.71443,-23.069
-10.0032,17.259,-2.58975,0.865531,-3.06797,8.66423,4.88393,-4.42765,-7.31434,0.161138,-6.2287,4.09098,-1.32359,-3.08095,8.71962,-19.7557,3.92911,-3.60394,21.1361,6.89393,-1.24402,9.9143,2.73274,1.12587,1.80894e-14,3.97569e-14,-35.849,-9.55688,-64.9706,39.3255,10.4,3.89472,8.97141,7.12502,29.3152,-18.7377,1.80894e-14,3.97569e-14,-23.1983,-9.71647,76.5559,45.353,3.05066,-2.23782,26.5028,7.12502,23.4453,55.0944,-37.2617,-5.50908,8.68489,40.1956,-7.34281,-5.49464,1.79368,7.34158,1.09429,-30.9382,16.234,-16.6081,6.79598,-22.62
-10.0435,17.2525,-2.48948,1.04212,-2.85369,8.79244,4.66896,-4.48546,-7.40128,0.0435682,-6.30014,4.00719,-1.31233,-3.11224,8.66577,-19.7774,3.96685,-3.54071,21.1665,6.94459,-1.30174,9.93332,2.75294,1.10388,-7.71285e-14,5.40694e-14,-35.9174,-9.58823,-64.9096,39.0876,10.8076,3.98155,10.2636,7.12502,29.3981,-17.4309,-7.71285e-14,5.40694e-14,-23.5449,-9.73379,76.5941,45.4254,2.88151,-2.45015,25.9411,7.12502,23.2416,54.5585,-37.5016,-6.21427,8.8347,40.8766,-7.32158,-4.97276,1.65875,7.52605,0.694655,-30.9805,16.2829,-16.2506,6.68653,-22.2033
-10.0842,17.2478,-2.38352,0.985224,-2.66194,9.16389,4.49735,-4.49891,-7.74988,0.0952674,-6.32771,3.83526,-1.13893,-3.13449,8.65942,-19.9998,3.98567,-3.50006,21.2955,6.98692,-1.34259,10.0233,2.76336,1.09725,-1.78906e-15,-7.95139e-15,-35.8807,-9.5451,-64.9486,39.0265,10.8432,4.0243,10.5002,7.12502,29.4389,-17.1873,-1.78906e-15,-7.95139e-15,-23.7457,-9.90543,76.6036,45.6215,3.01526,-2.5674,26.1632,7.12502,23.1291,54.7948,-37.4755,-6.96616,8.67454,41.5253,-7.31927,-4.28614,2.24716,7.97078,0.362915,-31.2764,16.1707,-15.5318,6.21394,-19.7741
