JuanDHNZ/ProyectoFinalCD/preprocessing/sports_trials_csv/17_10.csv
root1,root2,root3,root4,root5,root6,lowerback1,lowerback2,lowerback3,upperback1,upperback2,upperback3,thorax1,thorax2,thorax3,lowerneck1,lowerneck2,lowerneck3,upperneck1,upperneck2,upperneck3,head1,head2,head3,rclavicle1,rclavicle2,rhumerus1,rhumerus2,rhumerus3,rradius1,rwrist1,rhand1,rhand2,rfingers1,rthumb1,rthumb2,lclavicle1,lclavicle2,lhumerus1,lhumerus2,lhumerus3,lradius1,lwrist1,lhand1,lhand2,lfingers1,lthumb1,lthumb2,rfemur1,rfemur2,rfemur3,rtibia1,rfoot1,rfoot2,rtoes1,lfemur1,lfemur2,lfemur3,ltibia1,lfoot1,lfoot2,ltoes1
2.63418,15.8511,17.0682,-51.5363,-85.2164,51.5966,11.7369,2.07133,-4.08804,4.18148,2.0353,-1.99415,-2.27316,0.925107,-0.0453803,-8.50342,1.89053,-12.8269,23.7719,3.89067,2.19069,8.55296,0.7229,3.23277,-1.23743e-14,2.24627e-14,-32.9362,21.8152,-97.2486,132.884,7.11728,-19.0523,22.0034,7.12502,7.25471,-7.85222,-1.23743e-14,2.24627e-14,0.62032,-16.5075,89.704,134.502,12.0637,-8.49372,9.42514,7.12502,17.4337,38.6633,-14.1244,-17.4526,19.5789,69.3845,-30.0979,-4.98765,-6.82304,-28.444,-2.21121,-5.38545,47.67,-14.7066,-3.34585,-30.3691
2.72425,15.9272,17.0441,-47.0212,-83.7679,46.8913,12.1864,1.93519,-5.08005,4.39508,1.70427,-2.01079,-2.30965,0.746853,0.529085,-8.0499,1.72499,-12.5115,23.3628,3.56555,2.05227,8.36283,0.609497,3.08944,2.93207e-15,2.90226e-14,-33.0076,22.6397,-97.8874,132.783,7.96103,-19.2857,22.086,7.12502,7.02936,-7.77726,2.93207e-15,2.90226e-14,0.541032,-16.9542,89.6885,134.142,11.661,-7.9483,9.2586,7.12502,17.9586,38.4495,-14.4389,-18.485,18.4532,69.7046,-28.9435,-3.4709,0.708798,-28.3651,-2.56411,-6.58035,46.3409,-13.4083,-3.22524,-34.0855
2.81076,16.0203,17.0197,-46.4622,-82.3985,46.076,12.6794,2.04417,-5.96175,4.67394,1.68834,-2.19352,-2.30021,0.720043,0.824692,-7.58715,1.43828,-11.9886,22.9155,3.04926,1.90755,8.17347,0.42582,2.8959,1.17283e-14,-1.55052e-14,-32.9305,22.5794,-97.2402,133.59,7.083,-18.4512,21.9212,7.12502,7.83482,-7.9136,1.17283e-14,-1.55052e-14,0.654765,-17.8623,89.3361,133.739,10.6748,-9.31875,9.67877,7.12502,16.6396,38.9855,-14.4587,-19.1864,17.168,69.5904,-27.4659,-2.53852,-0.407923,-27.7618,-2.3754,-7.92822,44.4994,-11.9601,-3.83768,-35.3111
2.90388,16.1359,16.9784,-40.825,-81.6205,40.4143,13.0854,2.07499,-6.01315,4.83124,1.69671,-2.02883,-2.36118,0.719128,1.0158,-7.2138,1.10186,-12.0669,22.609,2.47373,2.25128,8.03492,0.201355,2.96689,1.32192e-14,5.56597e-15,-32.8725,21.981,-95.0801,135.132,5.10614,-18.0313,22.0614,7.12502,8.24011,-7.75787,1.32192e-14,5.56597e-15,0.841393,-18.7212,89.0501,133.287,9.97261,-11.0802,10.3308,7.12502,14.9433,39.7717,-14.7565,-19.6504,17.2685,69.2646,-25.8577,-1.59274,0.0305377,-27.4567,-2.05921,-8.10276,42.5419,-10.1006,-4.96985,-34.0896
2.99685,16.2744,16.8972,-35.5111,-80.4835,35.7116,12.9496,1.99371,-6.64257,4.83277,1.53735,-1.82261,-2.29401,0.635794,1.6105,-7.00334,0.816286,-12.343,22.3437,1.96497,2.89262,7.93006,0.0173718,3.18021,3.41661e-14,-2.29596e-14,-32.8496,22.2155,-95.1743,135.14,6.39556,-19.935,23.0339,7.12502,6.40259,-6.84937,3.41661e-14,-2.29596e-14,1.0927,-19.0978,88.7437,132.88,10.4992,-10.5202,10.0323,7.12502,15.4827,39.4323,-15.7981,-20.1737,17.6333,68.7094,-23.84,-0.546232,1.47313,-27.7949,-2.28874,-8.3283,40.4231,-7.85478,-5.48867,-32.4503
3.09351,16.4138,16.8339,-29.6046,-79.9004,30.1241,13.0409,1.92422,-6.31859,4.9437,1.49394,-1.58544,-2.22315,0.612327,1.68342,-7.15418,0.534756,-12.0961,22.1147,1.51748,3.18577,7.91009,-0.127448,3.20025,1.47349e-14,2.98177e-16,-32.5887,22.6013,-95.0891,135.244,7.33374,-21.3682,23.4171,7.12502,5.01887,-6.50349,1.47349e-14,2.98177e-16,1.14197,-19.4808,88.4317,132.763,10.8962,-9.41561,9.82667,7.12502,16.5463,39.1412,-16.4349,-20.5376,18.5147,67.9932,-21.6357,0.206109,1.71835,-27.811,-2.18486,-7.89285,38.4248,-5.52675,-5.96086,-30.0608
3.20246,16.5374,16.7933,-17.933,-79.7973,18.5844,13.4041,1.66471,-4.26624,4.99745,1.40783,-1.18669,-2.32769,0.587853,0.955966,-7.88348,0.145158,-11.3108,22.3654,0.985262,3.12439,8.16953,-0.320595,3.01638,3.05631e-14,-3.72721e-14,-32.1792,22.7521,-94.946,135.666,7.05095,-21.2412,23.2253,7.12502,5.14145,-6.6923,3.05631e-14,-3.72721e-14,0.866013,-19.9837,88.1744,132.836,10.7162,-9.16626,9.98412,7.12502,16.7864,39.2785,-17.0104,-21.0654,20.8798,67.2406,-19.3674,0.00748931,-1.80245,-27.9006,-1.44254,-6.13065,36.4351,-3.20697,-6.44067,-30.4222
3.31173,16.6265,16.6985,-8.83653,-78.3381,10.8625,12.879,1.22569,-3.62523,4.62875,0.968234,-0.892356,-2.40529,0.391527,0.974235,-7.34697,0.155231,-11.1916,21.51,0.755161,3.97826,7.78656,-0.301499,3.24628,2.02263e-14,-1.25234e-14,-32.0322,22.4481,-95.4888,135.945,6.86395,-20.0725,23.1373,7.12502,6.26984,-6.74995,2.02263e-14,-1.25234e-14,0.421341,-20.7089,87.9818,132.941,10.354,-9.33119,10.0067,7.12502,16.6276,39.3145,-19.5834,-22.2626,23.2881,66.997,-16.8507,-1.18025,-10.9779,-29.7407,-1.03741,-5.11857,34.4329,-1.15551,-6.19286,-33.969
3.40543,16.763,16.6705,-14.2651,-77.4221,16.4097,13.4471,1.27301,-4.28208,4.68082,0.884289,-1.4601,-2.65345,0.346708,0.756687,-7.2792,-0.0678739,-11.3058,21.1952,0.296448,4.84001,7.69521,-0.433313,3.51126,-2.28602e-15,-3.18055e-15,-32.0642,22.221,-96.1183,136,7.41567,-18.4585,22.799,7.12502,7.82779,-7.03605,-2.28602e-15,-3.18055e-15,-0.0507743,-21.3943,87.8628,132.976,10.0398,-9.68979,9.90605,7.12502,16.2823,39.2424,-20.1104,-22.9657,21.4687,66.9261,-14.3611,0.293608,-15.0544,-28.9078,-1.67972,-6.87494,32.5242,-0.620717,-3.27984,-37.242
3.48457,16.8981,16.6363,-19.3866,-76.2558,22.2133,13.2134,1.25426,-5.2802,4.69743,0.716745,-2.07512,-2.5031,0.255363,0.703531,-7.40057,-0.284921,-11.1529,20.9147,-0.0974354,5.35883,7.65156,-0.545732,3.62348,-1.56046e-14,1.05356e-14,-31.7638,22.3989,-96.3515,136.042,7.90798,-17.84,22.2034,7.12502,8.42476,-7.60852,-1.56046e-14,1.05356e-14,-0.283824,-21.7066,87.5022,132.99,9.96061,-9.35574,9.68141,7.12502,16.604,38.9911,-21.4925,-23.2358,19.401,67.1339,-11.4579,3.18643,-9.4783,-28.4936,-3.18609,-8.61757,30.8829,-0.807194,0.993123,-36.4626
3.58814,17.0216,16.6264,-16.3562,-75.7519,19.2865,13.1831,0.938941,-3.66323,5.02793,0.503136,-2.29393,-2.11971,0.148498,-0.396908,-7.71822,-0.382127,-10.6244,20.3629,-0.298834,5.65772,7.53835,-0.54623,3.61026,2.88238e-15,-3.83654e-14,-30.7143,22.4697,-96.504,136.139,7.65433,-17.0989,21.7146,7.12502,9.13987,-8.06735,2.88238e-15,-3.83654e-14,-0.0401366,-21.7882,86.6524,133.141,9.91996,-9.27579,9.78482,7.12502,16.681,39.0881,-22.4582,-23.3259,19.5009,67.0948,-8.25338,5.42623,-4.97362,-27.9045,-4.7601,-7.94705,29.8626,-2.22316,4.80557,-31.5047
3.69548,17.1472,16.5988,-9.42691,-75.2365,12.5863,13.3498,1.04993,-3.48931,4.93095,0.756658,-0.243683,-2.34074,0.276937,1.60266,-7.5663,-0.808719,-12.0039,19.8436,-0.572832,5.16929,7.38451,-0.803646,3.64422,1.51076e-14,-1.94809e-14,-30.3761,22.9312,-93.4171,136.768,6.67253,-16.0365,21.4062,7.12502,10.1649,-8.32821,1.51076e-14,-1.94809e-14,-0.573207,-21.4918,89.1827,133.295,9.2635,-10.2226,10.0667,7.12502,15.7693,39.4444,-23.833,-23.2389,21.0806,66.984,-5.63924,6.69581,-4.19716,-28.0472,-5.34261,-6.43945,29.5742,-3.24794,6.64254,-32.1114
3.81168,17.2541,16.56,-2.29835,-74.4196,5.77016,13.524,0.639126,-1.61938,4.72633,0.486507,0.551628,-2.6293,0.159585,1.41721,-7.60563,-1.00849,-12.3881,19.4726,-0.828336,5.49103,7.29626,-0.909059,3.78843,-4.17448e-15,-2.78299e-15,-30.1503,23.1745,-92.2526,137.478,5.57861,-15.0117,21.2363,7.12502,11.1535,-8.44725,-4.17448e-15,-2.78299e-15,-0.930887,-21.2716,89.3899,133.44,8.7279,-10.6952,10.129,7.12502,15.3141,39.5419,-25.4014,-23.1403,22.9077,66.8963,-4.01504,7.63154,-0.688912,-28.7271,-5.57405,-4.77385,30.2479,-3.55185,7.30451,-34.966
3.91159,17.3516,16.5515,-4.83865,-74.1812,8.61104,13.5448,0.624389,-2.11628,4.69793,0.40584,0.603708,-2.67022,0.118415,1.76481,-7.89207,-1.07696,-12.2776,19.4318,-0.880242,5.42001,7.33876,-0.924826,3.74209,-6.95746e-15,7.95139e-15,-29.6453,23.4351,-91.1005,138.1,4.04865,-13.4238,20.8429,7.12502,12.6846,-8.75184,-6.95746e-15,7.95139e-15,-1.32653,-20.9549,89.6156,133.632,8.33017,-10.6923,10.1223,7.12502,15.3168,39.5351,-26.4023,-22.9465,21.282,67.0538,-3.61656,9.34628,3.52674,-28.4239,-6.29803,-5.69552,31.6403,-4.6596,8.29723,-31.5138
4.02116,17.4107,16.5286,-5.73466,-74.0032,9.83168,13.6005,0.662447,-2.53457,4.62159,0.41245,0.862501,-2.78405,0.122204,2.27092,-7.99426,-1.15434,-11.9785,19.2331,-0.964205,5.18556,7.29854,-0.953941,3.6038,-3.97569e-15,-9.54166e-15,-28.8877,23.6363,-89.9998,138.248,3.92341,-13.2954,20.6371,7.12502,12.8084,-8.94992,-3.97569e-15,-9.54166e-15,-1.70787,-20.7057,90.0792,133.913,8.56553,-10.8344,10.1532,7.12502,15.18,39.5764,-27.7035,-22.5189,20.3105,67.3686,-4.41623,10.5067,5.62266,-28.3539,-6.21938,-6.0101,33.5057,-5.87876,7.71581,-22.1345
4.13063,17.4599,16.4849,-3.51386,-74.0143,7.90024,13.6605,0.636256,-2.3254,4.47061,0.429779,1.44263,-2.97817,0.134916,2.75791,-8.24797,-1.36463,-11.9064,19.1325,-1.20089,5.06528,7.33326,-1.06382,3.53001,1.72943e-14,-2.06736e-14,-28.2342,24.2178,-89.1574,137.794,6.02802,-17.0225,21.3374,7.12502,9.21365,-8.44131,1.72943e-14,-2.06736e-14,-2.05503,-20.2505,90.512,134.075,8.75736,-10.4504,9.52649,7.12502,15.5499,38.9213,-29.1627,-21.449,20.6258,67.5271,-5.80844,10.1534,7.90255,-28.7362,-5.298,-5.44322,36.0951,-5.76914,6.08733,-21.2684
4.20589,17.5225,16.4509,-9.07402,-74.4138,13.783,13.3965,0.913986,-4.10856,4.4948,0.569732,1.34605,-2.82949,0.198321,3.64638,-9.17199,-1.74759,-11.579,19.5564,-1.64424,4.95054,7.67515,-1.26084,3.4032,-2.18663e-14,1.82882e-14,-27.3986,24.3601,-88.5866,137.815,5.36047,-17.7049,21.9071,7.12502,8.55511,-7.89958,-2.18663e-14,1.82882e-14,-2.26253,-19.9278,90.6088,134.164,8.94177,-10.5227,9.3134,7.12502,15.4802,38.7136,-30.1907,-20.2022,18.3011,67.5944,-7.14975,9.08439,10.3016,-28.312,-4.37153,-7.47939,38.8867,-5.34533,4.94679,-28.5748
4.32767,17.547,16.4062,-4.60822,-74.6752,9.27115,13.7591,0.852193,-2.9392,4.36746,0.649531,1.90003,-3.16357,0.245971,3.55252,-8.72524,-1.54802,-11.0299,18.8309,-1.48102,4.89002,7.33401,-1.13163,3.29738,-1.33186e-14,-3.18055e-15,-26.5887,24.1657,-88.1662,137.824,5.00687,-16.8067,22.0262,7.12502,9.4219,-7.74325,-1.33186e-14,-3.18055e-15,-2.29424,-19.8985,90.5086,134.276,9.49627,-11.3552,10.0178,7.12502,14.6783,39.4782,-31.3295,-18.9423,19.3376,67.3064,-8.57942,6.43275,10.2013,-28.5118,-3.38686,-6.1285,42.0507,-5.00064,3.29636,-30.8299
4.422,17.6062,16.4395,-14.3141,-75.8455,17.9631,14.6539,1.34316,-4.05982,4.8363,1.06298,1.33885,-3.19364,0.431217,3.52621,-8.56655,-1.50939,-10.6969,18.4168,-1.48462,4.88212,7.16648,-1.1001,3.23399,2.14687e-14,0,-25.7199,24.152,-87.68,137.374,6.57246,-17.3298,22.1219,7.12502,8.91707,-7.66965,2.14687e-14,0,-2.43697,-20.0187,90.8467,134.36,9.604,-11.3766,10.3762,7.12502,14.6577,39.8381,-30.5397,-17.6554,15.6547,66.8117,-9.68658,5.1156,9.11938,-25.6848,-3.13505,-8.6774,44.8959,-5.48876,3.77406,-30.0972
4.52136,17.6413,16.431,-19.9703,-76.2743,23.3295,15.0667,1.49149,-5.00867,4.95655,1.08986,1.27767,-3.30233,0.437706,3.99463,-8.43826,-1.37518,-10.2528,18.0656,-1.30397,4.49732,7.01014,-1.008,3.04457,3.97569e-15,-7.15625e-15,-24.7904,24.56,-87.2418,136.702,8.60347,-18.691,21.9691,7.12502,7.60341,-7.87422,3.97569e-15,-7.15625e-15,-2.9071,-20.231,91.714,134.432,9.02776,-11.0957,10.2508,7.12502,14.9283,39.6929,-30.8579,-16.3296,13.4372,66.075,-10.6097,3.31979,10.5685,-24.2331,-2.82753,-10.0242,47.742,-5.29412,3.6611,-30.2185
4.62522,17.6726,16.417,-21.6471,-76.6026,24.9354,15.3906,1.42238,-5.20062,4.83069,0.964432,1.54299,-3.60177,0.385764,4.4074,-7.82693,-1.00552,-8.8227,17.4322,-0.83725,3.20055,6.65298,-0.787686,2.41655,-3.18055e-14,-1.51076e-14,-24.0816,24.9186,-86.8768,136.2,9.49201,-18.9639,21.715,7.12502,7.34003,-8.1377,-3.18055e-14,-1.51076e-14,-3.36277,-20.1285,92.3574,134.449,8.89538,-11.3082,10.0972,7.12502,14.7236,39.5544,-31.3871,-14.7859,12.2894,65.0564,-11.3413,1.65642,14.317,-23.1715,-2.62825,-10.3127,50.276,-4.68308,2.87596,-30.7037
4.71504,17.7022,16.4176,-24.9169,-76.9739,28.0332,15.75,1.41279,-5.38093,4.6918,0.904769,1.56242,-3.937,0.369645,4.54164,-8.2118,-1.17024,-9.82533,17.8723,-1.08959,4.35472,6.88598,-0.888319,2.94262,1.19271e-15,-1.35174e-14,-23.6996,24.8854,-86.8761,135.797,9.88039,-18.7581,21.7158,7.12502,7.53862,-8.12987,1.19271e-15,-1.35174e-14,-3.67849,-19.8512,92.4846,134.438,9.09184,-11.5787,10.2305,7.12502,14.463,39.7065,-31.62,-13.1385,10.7647,63.7712,-11.6968,-0.363463,17.4541,-21.6978,-2.36269,-10.9668,52.6329,-4.15933,1.55298,-30.1383
4.78634,17.7187,16.404,-27.6783,-77.1862,30.5125,16.1119,1.33179,-5.53552,4.56684,0.750428,1.52668,-4.24636,0.306447,4.62204,-8.06068,-1.11115,-9.59376,17.7625,-1.11682,4.6707,6.82217,-0.859841,3.00421,-2.0276e-14,1.35174e-14,-23.5371,24.7664,-87.1039,135.396,10.3772,-18.8767,21.6581,7.12502,7.42416,-8.19163,-2.0276e-14,1.35174e-14,-3.96056,-19.6025,92.2818,134.443,8.90537,-11.6976,10.4202,7.12502,14.3484,39.9043,-31.6202,-11.8118,9.28348,62.3827,-11.8626,-2.84159,20.9732,-19.991,-2.1222,-11.393,54.5865,-3.4739,-0.695978,-28.1544
4.86171,17.7161,16.3997,-26.9846,-77.8433,29.3211,16.5732,1.02363,-4.87101,4.53723,0.442219,1.90668,-4.48832,0.155999,4.71277,-8.28739,-0.637464,-9.65481,17.9792,-0.489385,4.92278,6.88195,-0.54628,3.15178,1.15295e-14,3.97569e-15,-23.2862,25.3228,-87.2282,134.93,10.8561,-18.8133,21.5401,7.12502,7.48538,-8.30744,1.15295e-14,3.97569e-15,-4.06661,-18.9072,92.2704,134.347,8.53099,-11.8213,10.506,7.12502,14.2292,39.9986,-31.4658,-10.4627,8.81552,60.9398,-11.7169,-5.35549,24.7084,-18.0805,-1.60266,-10.6742,56.0473,-2.41002,-3.92801,-29.367
4.92747,17.6766,16.387,-31.5104,-77.5321,33.9344,16.3981,0.806237,-6.05383,4.49176,-0.020242,2.03032,-4.38093,-0.06674,5.61669,-8.99883,-0.0561735,-10.1895,18.6426,0.32834,5.57407,7.15127,-0.145212,3.53869,9.54166e-15,-2.38542e-14,-22.9038,25.8497,-87.5815,134.355,11.3081,-18.2544,21.718,7.12502,8.02481,-8.10962,9.54166e-15,-2.38542e-14,-3.95867,-18.2511,92.3873,134.198,8.41735,-11.927,10.7247,7.12502,14.1273,40.2244,-31.9434,-9.69694,6.73547,59.731,-10.4605,-7.57886,25.2604,-16.4924,-1.54832,-11.7852,56.7316,-0.949879,-7.55058,-32.7237
4.99416,17.6232,16.3877,-33.9421,-77.5153,36.4374,16.1696,0.809384,-6.30671,4.43365,-0.0368394,2.08798,-4.31596,-0.0724867,5.82486,-8.88415,-0.135078,-9.46429,18.4634,0.114395,5.46109,7.08966,-0.204114,3.35816,8.34896e-15,1.43125e-14,-22.7658,25.194,-88.2159,133.846,12.1274,-18.2032,21.8326,7.12502,8.07426,-7.99317,8.34896e-15,1.43125e-14,-3.81944,-18.3308,92.3709,134.085,8.54354,-11.9115,10.7899,7.12502,14.1423,40.2886,-32.5237,-9.12761,5.43038,58.5815,-7.84662,-9.65683,22.3286,-14.7316,-1.94809,-12.3116,56.6904,1.16012,-11.4444,-33.0665
5.05937,17.5643,16.3916,-35.3695,-77.6615,37.9513,15.9323,0.898351,-6.02932,4.34513,0.141493,2.03585,-4.31002,0.0192131,5.57154,-7.80284,-0.902156,-7.22689,17.1051,-1.11727,4.26253,6.54405,-0.7305,2.47071,4.37326e-15,9.54166e-15,-22.7409,23.7724,-88.3939,133.623,12.4021,-18.3299,21.6731,7.12502,7.95192,-8.15737,4.37326e-15,9.54166e-15,-3.74055,-18.8358,92.4536,133.902,8.37472,-12.0927,10.7233,7.12502,13.9677,40.2341,-33.1867,-8.45368,4.41408,57.638,-4.73864,-11.2894,21.498,-12.7428,-2.63069,-12.6083,55.8255,3.77244,-15.1027,-29.4677
5.12904,17.4836,16.3793,-34.743,-77.8103,37.5593,15.6767,0.880642,-5.45336,4.18539,0.232378,2.05851,-4.35606,0.0708758,5.24541,-7.69896,-1.18904,-6.0287,16.8567,-1.6569,4.11679,6.46675,-0.923678,2.17962,5.56597e-15,-2.38542e-14,-22.5459,22.317,-87.8898,133.457,11.8732,-18.6416,21.5219,7.12502,7.65112,-8.31973,5.56597e-15,-2.38542e-14,-3.57107,-19.394,92.4444,133.64,8.27282,-12.2426,10.6382,7.12502,13.8232,40.1589,-34.0408,-7.60759,3.65545,56.9608,-1.97365,-12.6185,23.3661,-10.8887,-3.32928,-12.6028,54.2337,6.01154,-18.8031,-28.7959
5.20802,17.3737,16.3582,-32.8892,-77.7954,36.0894,15.4568,0.736143,-4.89119,3.94003,0.15706,2.17641,-4.48944,0.0456704,5.06288,-7.99636,-1.38707,-5.0889,16.9878,-2.0541,4.1156,6.57127,-1.05386,1.99053,1.94809e-14,-6.36111e-15,-22.454,21.1619,-87.7755,133.196,11.7954,-19.2989,21.5345,7.12502,7.01665,-8.32921,1.94809e-14,-6.36111e-15,-3.3433,-19.7128,92.2469,133.405,8.35114,-12.1244,10.4807,7.12502,13.9371,39.9936,-35.1351,-7.12835,3.04761,56.7432,-1.87163,-12.814,16.7609,-9.19556,-4.18379,-12.5525,51.9338,7.91177,-22.3103,-31.6545
5.27473,17.2484,16.3636,-34.1786,-77.5531,37.6862,15.1302,0.513772,-4.86877,3.78926,-0.111167,2.15584,-4.43981,-0.0806502,5.07536,-8.26727,-1.4361,-4.57699,17.0321,-2.21987,4.29675,6.63661,-1.08391,1.94894,-1.66979e-14,6.36111e-15,-22.5798,20.5877,-88.2504,132.982,12.6006,-19.8592,21.3372,7.12502,6.47576,-8.54377,-1.66979e-14,6.36111e-15,-3.3401,-19.516,92.1981,133.325,8.1931,-12.1403,10.4176,7.12502,13.9218,39.9316,-36.0447,-7.04392,1.69497,56.8654,-2.08217,-11.6573,9.21023,-7.12267,-5.16024,-13.6186,49.3223,9.26495,-24.5403,-30.5699
5.32201,17.1053,16.3868,-40.0069,-76.8834,43.8639,14.5502,0.354187,-6.05458,3.71822,-0.46656,2.077,-4.14279,-0.251995,5.7266,-8.38338,-1.336,-4.6143,16.7993,-2.06815,4.35066,6.57626,-1.0051,1.98345,1.19271e-15,4.77083e-15,-22.6856,20.6202,-88.1282,132.914,13.4854,-20.106,20.7537,7.12502,6.23749,-9.1345,1.19271e-15,4.77083e-15,-3.48634,-18.7827,92.6514,133.296,7.90456,-12.17,10.3075,7.12502,13.8932,39.8234,-37.1612,-7.46274,-0.821887,57.7806,-2.82642,-9.01855,9.36326,-4.48187,-6.2193,-16.2947,46.0293,9.85694,-24.5245,-30.6325
5.43218,16.9944,16.326,-21.9803,-77.817,26.8595,14.0676,-0.498443,-2.65779,3.06735,-0.997495,3.55944,-4.53196,-0.511192,5.45575,-8.65778,-1.29514,-4.47347,16.627,-2.01613,4.38773,6.56591,-0.962178,1.9744,-5.1684e-15,1.59028e-15,-22.8246,20.3566,-87.8014,132.987,13.7782,-20.0941,20.3723,7.12502,6.24895,-9.51553,-5.1684e-15,1.59028e-15,-3.46879,-18.1939,93.074,133.226,7.87166,-12.0783,10.3814,7.12502,13.9815,39.8913,-39.1763,-7.58209,2.95685,58.6816,-4.20538,-8.44927,14.4688,-4.56966,-7.36501,-12.0258,43.2621,10.5303,-24.6689,-30.6362
5.48195,16.7851,16.3632,-39.0576,-76.3364,44.2507,13.6287,-0.107602,-6.16458,3.12731,-0.999286,2.4838,-4.17967,-0.483232,6.30486,-9.08617,-1.45775,-3.90195,16.5246,-2.31194,4.43861,6.61668,-1.05744,1.86858,2.46493e-14,-4.29375e-14,-23.1302,19.6854,-88.0413,133.142,14.0798,-20.3479,20.0198,7.12502,6.00392,-9.87509,2.46493e-14,-4.29375e-14,-3.3693,-17.9669,93.1354,133.257,7.99531,-11.9176,10.6085,7.12502,14.1364,40.1076,-40.5823,-9.17964,-1.83469,60.5814,-4.14057,-5.4804,1.98123,-1.42821,-8.70151,-18.0178,40.1924,7.53139,-21.9598,-29.8623
5.58953,16.6558,16.3117,-23.8721,-77.1454,30.0507,13.0345,-0.742348,-2.86837,2.58811,-1.30548,3.58146,-4.43153,-0.643678,5.62791,-9.35027,-1.68355,-3.30341,16.1359,-2.65426,4.27435,6.54505,-1.19242,1.68442,-2.90226e-14,4.13472e-14,-23.3991,18.9564,-88.1735,133.456,14.2033,-20.5094,19.7045,7.12502,5.84804,-10.1948,-2.90226e-14,4.13472e-14,-3.26239,-17.8938,93.1963,133.32,8.02845,-11.8282,10.4313,7.12502,14.2226,39.9244,-42.511,-9.86328,1.98334,61.9211,-4.94572,-6.02369,-4.40606,-1.73137,-10.0472,-14.4088,38.5273,4.35126,-21.4642,-26.4492
5.65618,16.49,16.3288,-34.7793,-76.4562,41.2466,12.7763,-0.372949,-4.82967,2.63346,-1.09377,2.86706,-4.24095,-0.518794,5.94693,-9.54562,-1.97818,-3.07481,15.5568,-3.09388,4.5188,6.41345,-1.36663,1.68475,-8.74653e-15,6.52014e-14,-23.5037,17.995,-88.0241,133.801,14.1327,-20.1197,19.7179,7.12502,6.22426,-10.1706,-8.74653e-15,6.52014e-14,-3.04221,-18.0728,93.2598,133.346,8.03136,-12.128,10.193,7.12502,13.9336,39.7062,-43.7102,-10.5895,-1.08247,63.4642,-6.42405,-4.0483,-3.79705,0.591592,-10.9644,-18.6049,37.394,-3.44466,-17.9638,-33.1155
5.73376,16.389,16.3029,-34.1581,-76.2953,41.1034,12.7955,-0.363057,-5.07631,2.35238,-1.09151,3.23213,-4.536,-0.492814,6.48857,-9.89389,-2.35798,-3.54289,15.105,-3.61041,5.20119,6.37253,-1.58254,1.93228,-1.66979e-14,0,-23.5209,17.5725,-87.5399,133.988,14.1937,-20.1857,19.6813,7.12502,6.16052,-10.2091,-1.66979e-14,0,-2.83626,-18.0822,93.3064,133.438,8.03808,-12.385,10.0757,7.12502,13.686,39.6057,-44.6699,-11.0686,-1.13919,64.134,-7.90314,-2.95855,0.949853,0.719458,-11.384,-19.1467,37.7497,-9.37647,-13.8295,-38.1282
5.82741,16.308,16.2303,-26.3311,-76.6251,33.9694,12.9422,-0.571197,-4.40845,1.8764,-1.22369,4.40128,-5.09066,-0.530777,7.41041,-9.86003,-2.1216,-3.62335,14.5909,-3.15664,4.70436,6.17615,-1.40502,1.8256,-1.43125e-14,3.18055e-15,-23.3225,17.6177,-86.7151,134.152,14.0054,-20.7413,19.6331,7.12502,5.62412,-10.2722,-1.43125e-14,3.18055e-15,-2.66685,-17.7684,93.4492,133.61,8.06542,-12.2478,9.93895,7.12502,13.8182,39.46,-45.9233,-11.1429,1.06534,64.5971,-9.21968,-3.90429,0.675943,-0.580414,-10.7425,-16.9076,38.2375,-13.1823,-11.9958,-36.6228
5.9352,16.1935,16.1483,-18.2954,-76.9448,26.2223,13.33,-0.769856,-3.04022,1.69865,-1.27225,5.1709,-5.50041,-0.564692,7.4862,-10.1218,-2.09957,-3.62567,14.1331,-3.08011,4.66109,6.07305,-1.36547,1.81609,5.56597e-15,-2.38542e-14,-22.7264,17.0897,-86.2633,134.375,13.6947,-20.8154,19.7158,7.12502,5.55261,-10.1915,5.56597e-15,-2.38542e-14,-2.33819,-17.5268,93.6299,133.736,7.91111,-11.5788,9.68673,7.12502,14.4628,39.1627,-46.9424,-10.875,3.56178,64.9272,-10.3537,-5.99664,-1.45376,-1.69785,-9.54783,-14.2881,38.781,-16.5955,-12.1627,-37.1248
5.99975,16.036,16.1382,-31.6557,-76.9562,39.0955,13.8946,-0.248274,-5.129,2.18473,-0.952001,4.18379,-5.32312,-0.388065,7.57506,-10.5722,-2.21126,-3.69464,13.7946,-3.2362,4.99619,6.05755,-1.41109,1.9168,-1.98785e-14,4.29375e-14,-21.9473,16.4554,-86.2789,134.389,13.3405,-20.6609,19.904,7.12502,5.70179,-9.99933,-1.98785e-14,4.29375e-14,-1.97732,-17.4418,93.7522,133.752,7.74846,-10.8094,9.39975,7.12502,15.2041,38.8211,-47.2586,-10.778,0.81708,65.5854,-11.8132,-5.37701,0.637695,-0.127641,-8.57406,-17.7303,38.7286,-19.5663,-10.272,-37.7791
6.07157,15.915,16.1101,-40.337,-76.7161,47.3405,14.6835,0.183947,-6.79629,2.48124,-0.698296,3.78988,-5.46452,-0.240493,8.09189,-11.0264,-2.31395,-4.23164,13.5881,-3.27301,5.14036,6.08335,-1.43625,2.04418,-1.19271e-14,-9.54166e-14,-21.2994,16.5269,-86.0828,134.153,12.9116,-20.948,20.0643,7.12502,5.42453,-9.84629,-1.19271e-14,-9.54166e-14,-1.84389,-17.1594,94.0819,133.752,7.94433,-10.9907,9.45183,7.12502,15.0295,38.8863,-47.5753,-10.6637,-0.662749,66.1366,-13.2677,-5.06783,3.18025,1.12464,-8.15877,-19.8263,38.309,-21.5002,-7.97923,-38.3561
6.14475,15.8284,16.0555,-44.2917,-76.9257,51.0325,15.3014,0.466815,-7.54371,2.69097,-0.490875,3.77742,-5.60906,-0.129724,8.49299,-11.4311,-2.49186,-4.92074,13.2787,-3.38957,5.36462,6.07664,-1.50174,2.21499,1.82882e-14,-2.54444e-14,-20.7407,16.9388,-85.7941,133.897,12.4487,-21.5639,19.9959,7.12502,4.82983,-9.92901,1.82882e-14,-2.54444e-14,-1.69759,-16.6721,94.1791,133.735,8.33966,-11.5056,9.5355,7.12502,14.5334,39.0064,-48.0044,-10.3171,-0.607365,66.5233,-14.2895,-6.04129,1.09487,1.95566,-7.98773,-20.3004,37.567,-22.9032,-6.96506,-39.0296
6.21101,15.78,15.986,-45.5626,-77.3308,52.383,15.5096,0.632881,-7.85382,2.79687,-0.330389,3.9657,-5.63701,-0.0492684,8.85837,-11.6166,-2.23137,-4.80417,13.249,-2.84633,4.11735,6.05064,-1.32319,1.84509,2.38542e-15,-6.67916e-14,-20.2196,17.2588,-85.3778,133.655,12.1527,-21.859,19.8042,7.12502,4.54489,-10.1271,2.38542e-15,-6.67916e-14,-1.55034,-16.0362,94.7023,133.483,8.36828,-11.1332,9.34544,7.12502,14.8922,38.7902,-48.5929,-9.90433,-0.0222813,66.6934,-14.6142,-6.97796,-3.96829,2.06438,-7.72127,-19.8213,36.9316,-24.1874,-7.83252,-39.2311
6.26953,15.7638,15.9187,-45.7935,-77.7756,52.9059,15.4625,0.71482,-7.89121,2.838,-0.217589,4.12889,-5.58942,0.00270521,9.03839,-11.7243,-2.04077,-4.75504,13.0928,-2.43678,3.16709,5.98919,-1.19215,1.56983,3.18055e-15,2.54444e-14,-19.7884,17.349,-85.3249,133.441,12.1006,-21.662,19.4966,7.12502,4.73517,-10.4305,3.18055e-15,2.54444e-14,-1.45653,-15.3148,95.4092,133.063,8.11222,-10.2396,9.05943,7.12502,15.7529,38.4384,-49.3869,-9.39206,0.524149,66.8538,-14.6527,-6.74566,-5.99693,1.80934,-7.38019,-19.0416,36.3871,-25.1904,-8.75916,-39.5233
6.31909,15.7548,15.8631,-47.1941,-78.0936,54.4477,15.4957,0.863373,-7.89132,2.91019,-0.0255313,4.13303,-5.57072,0.0920385,9.00408,-11.8246,-1.93701,-5.14011,12.9822,-2.15389,2.75088,5.96048,-1.10379,1.52438,-3.18055e-15,-2.06736e-14,-19.6392,17.5284,-85.209,133.351,11.7509,-21.2643,19.0575,7.12502,5.11919,-10.8607,-3.18055e-15,-2.06736e-14,-1.2623,-14.8654,95.7844,132.651,7.86219,-9.9403,8.81551,7.12502,16.0411,38.1715,-50.1976,-9.25259,0.642782,67.1506,-14.8877,-4.8195,0.858296,1.85399,-7.23583,-18.7422,35.7911,-25.7137,-8.28657,-40.1031
6.36431,15.7645,15.8052,-46.7689,-78.6331,54.0355,15.6771,1.0084,-7.2271,2.92223,0.25843,4.09639,-5.71716,0.22513,8.51708,-11.7971,-1.95012,-5.60882,13.0041,-2.08741,2.73671,5.96566,-1.09649,1.60223,-1.74931e-14,-3.33958e-14,-19.8444,17.5212,-85.1925,133.291,11.5262,-20.8823,18.7423,7.12502,5.48795,-11.1667,-1.74931e-14,-3.33958e-14,-0.745156,-15.3332,95.1697,132.255,7.76052,-10.5345,9.06185,7.12502,15.4688,38.463,-50.8006,-9.3234,1.14981,67.3451,-14.8841,-2.19924,15.2303,1.87756,-7.03035,-17.9549,35.3269,-25.8992,-7.87267,-40.7056
6.37896,15.7637,15.7617,-50.2883,-78.3815,57.3375,15.6921,1.22175,-7.38293,3.09531,0.476989,3.47623,-5.57839,0.317211,7.87201,-11.7397,-1.92596,-5.22751,13.0563,-2.09111,2.49195,5.96567,-1.09939,1.46234,-2.38542e-15,-3.18055e-15,-20.1223,17.1375,-85.7927,133.143,11.7916,-20.6521,18.7859,7.12502,5.71023,-11.1172,-2.38542e-15,-3.18055e-15,0.36168,-16.8766,92.7185,132.064,7.78383,-11.979,10.373,7.12502,14.0772,39.8762,-51.0199,-9.86899,0.923046,67.4996,-14.357,-1.71535,13.4615,2.51513,-6.62033,-18.5344,34.7504,-25.8678,-8.4265,-39.9591
6.40435,15.7995,15.6818,-46.2161,-79.059,53.3122,15.6363,1.10726,-6.23324,3.10936,0.507733,3.33816,-5.53205,0.309089,7.04055,-11.7459,-1.79883,-4.61175,13.1932,-1.966,2.0549,5.99417,-1.04348,1.23404,-2.38542e-15,-1.11319e-14,-20.346,17.0192,-86.3119,133.037,11.7196,-20.659,18.9122,7.12502,5.70359,-10.9911,-2.38542e-15,-1.11319e-14,0.242366,-16.5945,93.8175,131.368,7.06749,-10.5576,9.58877,7.12502,15.4466,38.9916,-51.2067,-10.1052,2.65587,67.3204,-13.9945,-2.01964,12.9157,2.31283,-6.05142,-16.8169,34.3626,-25.3808,-9.83998,-38.1888
6.40566,15.8227,15.616,-48.9928,-78.7792,55.8375,15.6504,1.19668,-6.6263,3.2418,0.528809,2.80549,-5.39884,0.312032,6.68049,-11.8224,-1.68542,-4.50075,13.5342,-1.81046,1.89052,6.10733,-0.979218,1.17683,1.98785e-14,3.02153e-14,-20.6975,17.2111,-86.5704,133.068,11.2067,-20.5945,18.8984,7.12502,5.76589,-11.0032,1.98785e-14,3.02153e-14,0.889416,-17.3478,92.786,131.207,6.72427,-10.5868,9.97642,7.12502,15.4185,39.3814,-51.0076,-10.9519,2.60767,67.0756,-13.6825,-1.2616,14.2078,2.79328,-5.54193,-17.1867,34.0455,-24.8729,-9.50709,-37.6857
6.40955,15.8851,15.5201,-45.9123,-79.1407,52.8525,15.513,1.0028,-6.14572,3.13967,0.356775,2.70202,-5.40326,0.22511,6.32313,-11.8703,-1.57307,-4.82688,13.8693,-1.62432,2.02529,6.2197,-0.899897,1.28943,1.59028e-15,-1.27222e-14,-21.1594,17.6819,-87.0408,133.112,10.9422,-20.6024,18.848,7.12502,5.75823,-11.0538,1.59028e-15,-1.27222e-14,1.01969,-17.3609,92.7207,130.84,6.40099,-9.95556,9.8375,7.12502,16.0264,39.1946,-50.8674,-11.5389,3.78221,66.5811,-13.3963,-0.14378,20.1872,2.69185,-5.37079,-16.0501,33.5088,-23.8068,-9.11972,-38.0641
6.42632,15.9899,15.3878,-32.607,-80.0358,39.9033,15.4034,0.440794,-4.15666,2.83534,-0.0306902,3.08267,-5.61405,0.0223738,5.66551,-11.6802,-1.31551,-4.99495,13.9607,-1.25284,1.99265,6.204,-0.735154,1.34026,-7.95139e-15,3.18055e-15,-21.5497,18.3086,-87.5925,133.003,11.0467,-20.9121,18.9608,7.12502,5.45917,-10.9489,-7.95139e-15,3.18055e-15,1.11656,-17.3704,92.4456,130.542,6.29552,-10.2335,9.89764,7.12502,15.7588,39.2761,-50.7083,-11.6252,6.76824,65.7917,-13.0661,0.353831,27.2101,1.78839,-5.53119,-12.6573,32.8917,-22.4097,-9.62196,-39.0207
6.37605,16.0585,15.3154,-42.7341,-79.2229,49.7446,15.1073,0.607046,-5.96383,3.04266,-0.146715,1.99148,-5.21142,-0.0290851,5.54239,-11.4742,-0.948118,-4.84663,14.0773,-0.792141,1.96823,6.18768,-0.5102,1.34927,3.18055e-15,-1.59028e-15,-21.7795,18.7932,-88.1682,132.768,11.3223,-20.9797,19.2196,7.12502,5.39391,-10.6917,3.18055e-15,-1.59028e-15,1.12292,-17.6411,91.8853,130.358,6.3828,-11.107,9.94491,7.12502,14.9174,39.3878,-50.0004,-12.238,4.87413,65.3177,-12.3615,2.19441,30.3365,2.92941,-5.98421,-15.0708,32.1961,-21.3962,-8.50754,-39.7352
6.35005,16.1545,15.2036,-41.3512,-79.2338,48.6042,14.6734,0.443325,-5.92153,2.95048,-0.357679,1.41161,-5.04824,-0.136281,4.9285,-11.6295,-0.680685,-4.70505,14.4722,-0.479915,2.13463,6.32783,-0.343407,1.40801,-1.59028e-14,1.11319e-14,-21.9448,19.0529,-89.0211,132.567,11.694,-21.1149,19.3499,7.12502,5.26345,-10.5648,-1.59028e-14,1.11319e-14,1.1351,-18.0577,90.9605,130.268,6.46402,-11.882,9.85029,7.12502,14.1707,39.347,-49.8332,-12.8668,5.66925,64.6692,-11.6911,2.76361,30.1464,2.65448,-6.58384,-14.6211,31.818,-19.5355,-8.6505,-38.6493
6.33286,16.2572,15.076,-36.7701,-79.5071,44.3294,14.2694,0.192007,-5.15753,2.83868,-0.579489,0.814492,-4.93405,-0.256828,3.89084,-12.0471,-0.539138,-4.39384,14.8733,-0.35382,2.27963,6.522,-0.255767,1.41702,9.93923e-15,1.90833e-14,-22.1248,19.0358,-90.2188,132.48,11.8837,-21.5978,19.4186,7.12502,4.79711,-10.5071,9.93923e-15,1.90833e-14,1.46984,-18.4458,89.7032,130.146,6.93273,-12.0525,9.85053,7.12502,14.0064,39.3587,-49.8212,-13.2721,7.15137,64.1424,-10.9363,3.12769,29.2362,2.02473,-7.09504,-13.2808,31.5796,-17.1853,-8.81766,-38.0949
6.31301,16.3504,14.9423,-34.5763,-79.6819,42.1225,14.2728,0.791689,-7.34812,2.73284,-0.0394964,2.10606,-5.09471,0.0585045,6.43283,-12.1297,-0.788459,-5.98678,15.059,-0.253995,1.45679,6.60041,-0.372446,1.42301,3.18055e-15,1.59028e-14,-22.3634,19.443,-87.6814,132.76,11.0874,-21.547,19.5084,7.12502,4.84621,-10.4161,3.18055e-15,1.59028e-14,1.68397,-18.3473,91.9632,129.993,7.07264,-12.069,9.97161,7.12502,13.9905,39.4808,-49.5697,-13.5663,8.08294,63.6631,-9.77457,4.05999,29.7166,1.48029,-7.278,-12.3644,31.985,-15.0432,-9.01182,-38.2977
6.29673,16.4373,14.8101,-32.0443,-79.9318,39.298,14.4965,0.5931,-6.48826,2.76968,-0.249634,1.08458,-5.15584,-0.0645229,4.88091,-12.1609,-0.556343,-5.77238,15.0313,-0.0881573,2.14334,6.58683,-0.219949,1.62453,2.18663e-15,-5.56597e-15,-22.657,19.3375,-89.148,132.707,11.2502,-21.4515,19.7919,7.12502,4.93843,-10.1305,2.18663e-15,-5.56597e-15,2.14679,-18.6807,90.394,129.957,7.46861,-12.198,10.0547,7.12502,13.8662,39.5725,-49.0722,-13.9466,9.08268,63.2391,-8.42168,5.21075,30.8231,0.876086,-7.2432,-11.2309,32.8288,-12.7363,-9.79805,-37.3042
6.26907,16.5197,14.7027,-31.4398,-80.2461,37.9606,14.879,0.58601,-6.01871,3.01168,-0.263322,0.369829,-5.11374,-0.0962359,3.856,-12.2751,-0.486492,-6.25613,15.0758,0.0191998,2.67376,6.61521,-0.150626,1.8855,-1.76918e-14,-1.66979e-14,-22.9299,19.5887,-90.0227,132.522,11.8652,-21.8512,19.994,7.12502,4.55247,-9.93705,-1.76918e-14,-1.66979e-14,2.64845,-18.9057,89.6906,129.852,7.26905,-11.8631,9.94421,7.12502,14.1889,39.4396,-48.0537,-14.494,9.79308,62.8519,-7.56103,6.45848,28.3134,0.888095,-7.23585,-10.603,33.8007,-10.4784,-9.97737,-36.3182
6.24377,16.6057,14.5454,-27.6608,-80.2367,34.2395,14.6332,0.614679,-6.55087,3.0032,-0.293595,0.281805,-4.98172,-0.107719,4.06744,-12.4606,-0.491931,-6.92738,15.2673,0.144253,2.72601,6.7041,-0.127747,2.02613,2.5842e-15,-8.34896e-15,-23.0419,19.6776,-89.9837,132.472,11.9633,-22.0211,20.2002,7.12502,4.38842,-9.7343,2.5842e-15,-8.34896e-15,3.27961,-19.0628,89.6405,129.599,6.63199,-11.2575,9.68452,7.12502,14.7724,39.1381,-47.9089,-14.9144,11.0213,62.4595,-7.74958,6.63254,18.9537,-0.381122,-7.05221,-9.36687,34.8173,-8.04835,-10.3627,-36.114
6.21563,16.6952,14.3995,-24.7808,-80.3886,31.0821,14.6147,0.71323,-6.81581,3.13833,-0.224065,-0.0410749,-4.83643,-0.0835484,3.86033,-12.4338,-0.340422,-7.2044,15.202,0.405171,2.71669,6.66543,-0.017907,2.09171,-3.97569e-16,-6.95746e-15,-23.0051,19.3417,-90.0111,132.578,11.4647,-21.8844,20.436,7.12502,4.52038,-9.4958,-3.97569e-16,-6.95746e-15,4.24264,-19.2775,89.0258,129.18,6.16111,-11.0709,9.63442,7.12502,14.9522,39.0747,-47.2615,-14.9126,11.9749,62.0397,-8.403,6.98913,7.69336,-1.15517,-6.6511,-8.22587,35.7572,-5.85031,-10.623,-35.3503
6.18142,16.7728,14.2689,-27.2653,-80.5854,32.81,14.9513,0.846856,-7.30531,3.45921,-0.22813,-1.09309,-4.6819,-0.110609,3.02195,-12.2514,0.130767,-6.22775,14.8842,0.903949,2.38694,6.51031,0.256641,1.8664,9.0447e-15,-3.37934e-15,-23.1207,19.1486,-90.9892,132.76,11.04,-22.1313,20.3125,7.12502,4.28199,-9.62424,9.0447e-15,-3.37934e-15,5.3961,-19.3016,87.3032,128.724,6.04488,-11.0786,9.7829,7.12502,14.9448,39.2237,-46.0364,-14.7877,11.7372,61.7336,-9.02253,8.53315,-0.723154,-0.995469,-6.49794,-8.21471,36.6685,-4.33018,-9.89974,-34.0209
6.14986,16.8497,14.1306,-27.6446,-80.5368,32.5204,15.382,0.774906,-7.69548,3.65564,-0.505247,-2.11062,-4.68565,-0.264216,2.21658,-11.7555,0.913111,-4.28299,14.439,1.75782,1.26054,6.27175,0.689902,1.2542,-2.82274e-14,-1.35174e-14,-23.435,19.1142,-91.9708,133.022,10.7143,-22.5645,20.0866,7.12502,3.86364,-9.85814,-2.82274e-14,-1.35174e-14,6.45071,-19.0203,85.4946,128.165,5.74093,-11.1927,9.71962,7.12502,14.8349,39.1686,-44.7837,-14.7113,11.5,61.4839,-9.48025,10.1981,-5.40004,-1.06058,-6.63662,-8.02138,37.5815,-3.59115,-8.3168,-34.0589
6.1198,16.9231,13.9921,-27.1365,-80.3109,31.4356,15.7764,0.758453,-8.30799,3.76003,-0.720911,-2.71858,-4.76851,-0.376042,1.95769,-12.4707,1.01566,-5.71704,15.356,1.97744,2.62009,6.65004,0.812972,1.96115,1.21259e-14,3.02153e-14,-23.6879,19.0927,-92.0377,133.267,10.2104,-22.5014,20.0789,7.12502,3.92463,-9.8647,1.21259e-14,3.02153e-14,7.43182,-18.801,84.6106,127.444,5.41633,-11.0837,9.67433,7.12502,14.9399,39.1155,-43.5123,-14.4946,11.169,61.2837,-9.43394,11.5465,-6.45154,-1.40709,-6.77063,-7.79144,38.678,-3.33985,-5.41677,-33.9601
6.09099,16.9781,13.8635,-25.3506,-80.4183,28.935,16.1425,0.954673,-8.43654,3.9417,-0.568872,-3.20794,-4.79184,-0.316424,1.48112,-12.4863,1.00134,-6.65981,15.6575,2.01246,3.35147,6.72862,0.830551,2.35955,1.19271e-15,-5.56597e-15,-23.7944,18.9375,-91.8682,133.458,9.37825,-22.4465,19.8551,7.12502,3.97757,-10.0876,1.19271e-15,-5.56597e-15,8.57418,-19.0492,84.0817,126.673,5.69704,-10.1777,9.60418,7.12502,15.8126,38.9784,-42.1686,-14.1927,11.2956,61.2762,-9.59394,12.6265,-7.63546,-1.71195,-6.6254,-7.11064,40.0683,-3.43558,-1.8488,-31.1291
6.07174,17.0253,13.7193,-13.283,-80.7021,16.3992,16.3134,0.931033,-6.9134,4.04041,-0.366028,-3.33277,-4.81191,-0.231769,0.457309,-11.8162,1.0015,-7.07882,15.307,1.98384,3.70992,6.49233,0.825141,2.52739,1.19271e-15,-1.11319e-14,-23.7553,18.4012,-91.7201,133.626,8.3413,-22.8469,19.5546,7.12502,3.59094,-10.3949,1.19271e-15,-1.11319e-14,9.8828,-19.6174,83.4104,125.814,6.10082,-10.0368,9.61731,7.12502,15.9482,38.9807,-41.0936,-13.5941,13.316,61.3745,-10.144,12.4473,-8.28506,-2.85691,-5.85673,-4.14631,41.5644,-3.84786,-0.158293,-28.4999
6.04277,17.0475,13.4796,-7.05202,-79.6115,11.1033,15.3869,0.858752,-8.21123,3.75826,-0.571917,-3.32053,-4.58274,-0.314801,1.2352,-10.4408,1.28883,-7.43096,14.3134,2.31286,3.86989,5.91454,0.987776,2.62769,-3.18055e-14,-2.54444e-14,-23.666,17.8768,-91.437,133.653,7.61935,-23.2292,19.6297,7.12502,3.22172,-10.3257,-3.18055e-14,-2.54444e-14,11.1225,-20.076,82.8583,124.864,6.30604,-10.933,9.89295,7.12502,15.085,39.3233,-41.7101,-12.9809,14.1887,61.8704,-10.3266,10.686,-6.77329,-6.12269,-4.70839,-2.11233,43.0447,-4.35891,-0.880181,-29.2419
6.01043,17.0617,13.3143,-7.01321,-79.1145,10.767,15.472,0.967784,-9.31064,3.81116,-0.652039,-3.7157,-4.55591,-0.3568,1.4425,-10.5137,1.48565,-7.39138,14.5784,2.60035,3.69512,5.99718,1.10878,2.59255,-1.23246e-14,-9.54166e-15,-23.6379,17.7356,-91.5037,133.475,7.56177,-23.6242,19.8146,7.12502,2.84029,-10.1463,-1.23246e-14,-9.54166e-15,12.2718,-20.2517,82.2684,123.918,6.57916,-10.8276,9.89743,7.12502,15.1865,39.3201,-40.8383,-12.4461,13.7925,62.5262,-10.5448,9.2232,-4.46713,-7.33727,-3.5883,-1.55883,44.2708,-5.58602,-2.0417,-32.3721
5.99306,17.0723,13.1834,-0.338117,-78.4522,3.30827,16.0598,0.792577,-8.26069,3.99784,-0.792756,-3.92899,-4.68375,-0.438624,0.660986,-10.5435,1.5301,-8.06799,14.8081,2.68302,4.26529,6.05057,1.15038,2.89598,-1.70955e-14,9.54166e-15,-23.5449,17.3994,-91.5741,133.36,7.60404,-23.5208,19.9117,7.12502,2.94015,-10.0478,-1.70955e-14,9.54166e-15,13.4768,-20.4382,81.8817,122.939,6.82212,-9.64245,9.55127,7.12502,16.3279,38.8839,-39.3511,-11.979,14.7594,63.2083,-10.8339,7.35183,-1.83975,-8.2687,-2.8961,0.514085,45.3252,-6.63972,-4.07106,-33.3473
5.97555,17.0646,13.0396,3.15969,-77.4658,-0.674536,16.4302,0.734385,-7.72734,4.21769,-0.853563,-4.37933,-4.66239,-0.486663,-0.101924,-10.3712,1.50625,-7.97883,14.7771,2.58486,4.49244,6.01375,1.12493,2.94339,-6.36111e-15,1.11319e-14,-23.4371,16.3044,-91.459,133.408,7.71565,-23.0902,19.9716,7.12502,3.35602,-9.98171,-6.36111e-15,1.11319e-14,14.93,-21.3133,81.4521,121.855,6.97987,-8.10089,9.25732,7.12502,17.8118,38.4616,-38.2761,-11.7955,15.2035,64.0011,-11.0227,5.15736,-0.604474,-9.60097,-2.62864,1.98149,46.1827,-7.03488,-6.6902,-33.22
5.95505,17.0427,12.8827,5.24695,-76.2763,-3.11009,16.7793,0.714262,-7.61689,4.41899,-0.932229,-4.81183,-4.6414,-0.539345,-0.607881,-10.0833,1.52437,-7.98558,14.5659,2.51292,4.98933,5.8924,1.13063,3.0894,-5.56597e-15,-3.49861e-14,-23.4109,15.0431,-91.2027,133.524,7.8853,-22.8447,19.9919,7.12502,3.5931,-9.95757,-5.56597e-15,-3.49861e-14,16.7459,-22.3851,80.201,120.552,7.18009,-7.54119,9.00699,7.12502,18.3503,38.1615,-37.3992,-11.7799,15.4991,64.8192,-11.0529,2.56387,-0.943455,-11.2834,-2.4275,3.24836,47.0558,-6.63065,-9.87687,-32.4457
5.93651,17.0121,12.7206,9.70578,-74.9389,-7.99326,17.2785,0.587116,-7.12367,4.53042,-1.05763,-4.77144,-4.79367,-0.60128,-0.814262,-10.0637,1.45319,-9.0348,14.6992,2.41019,6.1002,5.90515,1.10568,3.61293,4.53229e-14,1.59028e-15,-23.4456,14.1256,-90.6692,133.675,7.85836,-22.5544,20.0082,7.12502,3.87344,-9.93635,4.53229e-14,1.59028e-15,18.6064,-22.9248,78.8843,119.071,7.67226,-9.06656,8.96495,7.12502,16.8824,38.2511,-36.4804,-11.2984,16.4466,65.6352,-10.6864,0.471079,5.91335,-13.0787,-1.93578,5.36355,47.901,-5.64533,-13.4378,-31.6725
5.91865,16.9635,12.5595,14.0875,-73.4418,-12.7277,17.6761,0.445256,-6.32295,4.64061,-1.13053,-4.74735,-4.90234,-0.640032,-1.2212,-9.9593,1.28045,-9.98192,14.8028,2.14682,7.18652,5.9115,1.00528,4.10181,5.56597e-14,6.36111e-14,-23.637,13.1823,-90.4434,133.798,8.20384,-23.2757,20.014,7.12502,3.17683,-9.94211,5.56597e-14,6.36111e-14,20.1541,-23.7229,77.8633,117.957,8.15504,-11.2191,9.41663,7.12502,14.8094,38.8675,-35.7,-10.7208,17.4248,66.4482,-10.3058,-0.983476,18.503,-15.067,-1.08197,7.58608,48.7331,-4.56554,-16.9269,-32.6339
5.89472,16.9029,12.4105,14.3669,-72.0228,-13.3431,18.1095,0.436513,-6.26645,4.87484,-1.19361,-5.04078,-4.88879,-0.681767,-1.55288,-9.42178,1.19015,-10.5295,14.3737,1.95958,7.92048,5.68349,0.93982,4.39795,5.725e-14,9.54166e-15,-23.9699,12.0025,-90.1555,133.993,8.52537,-24.3639,20.0262,7.12502,2.1259,-9.94299,5.725e-14,9.54166e-15,21.2197,-24.6024,77.9745,117.025,7.77045,-11.6435,9.53629,7.12502,14.4005,39.0167,-34.831,-10.4963,17.265,67.228,-10.0287,-2.73617,25.2064,-16.9283,-0.51761,8.38818,49.5028,-3.48767,-20.1134,-33.1888
5.8742,16.8327,12.2602,12.9675,-70.6008,-12.3008,18.819,0.487184,-7.07612,5.09437,-1.35,-5.05211,-5.0056,-0.759311,-1.07549,-8.96065,1.11839,-11.4738,14.0511,1.89704,8.40734,5.49339,0.893261,4.69281,-3.26007e-14,5.08889e-14,-24.3231,11.0639,-89.1695,134.247,8.26683,-24.4943,20.0431,7.12502,1.99994,-9.92727,-3.26007e-14,5.08889e-14,21.7613,-24.4286,80.7388,115.33,6.65718,-9.79009,8.61174,7.12502,16.1858,37.956,-33.8955,-10.3499,16.5934,67.959,-9.56409,-4.91087,27.9535,-18.7505,-0.370491,8.5062,50.2016,-2.23109,-23.1268,-31.9448
5.86176,16.7527,12.1134,12.1021,-69.0348,-11.56,19.12,0.154671,-7.29643,5.44906,-1.87911,-5.47624,-4.77359,-1.03638,-1.28686,-9.14502,1.11638,-11.7478,14.192,1.88268,8.87398,5.55942,0.905819,4.89595,-1.66979e-14,1.59028e-14,-24.4406,10.3972,-88.9112,134.466,7.98657,-24.6874,20.0318,7.12502,1.8135,-9.94022,-1.66979e-14,1.59028e-14,23.1894,-24.4941,79.9647,114.003,6.59894,-10.0381,8.48863,7.12502,15.947,37.8521,-33.2175,-10.1571,15.962,68.5936,-9.05052,-6.47395,31.7297,-20.9368,-0.589221,8.59034,50.8668,-0.569441,-25.3333,-30.1648
5.84741,16.6641,11.9773,11.8399,-67.4625,-11.2979,19.7025,-0.00501406,-8.15839,5.48326,-2.29248,-5.20701,-4.98171,-1.225,-0.415681,-9.31096,1.06139,-12.0366,14.5581,1.9047,8.54875,5.70368,0.872089,4.8519,3.57812e-14,-3.18055e-14,-25.0554,10.0845,-87.6296,134.932,7.32516,-25.1149,19.9329,7.12502,1.40061,-10.0423,3.57812e-14,-3.18055e-14,23.8453,-24.4848,80.6059,112.755,6.13712,-10.3558,8.39507,7.12502,15.641,37.7828,-32.6924,-10.0949,15.4991,69.0513,-9.07289,-8.01321,32.5839,-23.1863,-0.871881,8.72486,51.4589,1.43657,-26.6071,-28.4143
5.83797,16.5483,11.8369,12.6563,-65.7583,-12.2746,20.2245,-0.359796,-7.871,5.69672,-2.75332,-5.33885,-5.02355,-1.45412,-0.602847,-9.25145,1.04309,-11.6598,14.4725,1.82048,8.53283,5.6789,0.851269,4.77535,-2.62396e-14,-1.27222e-13,-25.4879,9.34401,-87.3628,135.345,6.60532,-25.3273,19.708,7.12502,1.19541,-10.2684,-2.62396e-14,-1.27222e-13,24.6969,-24.77,80.3068,111.645,5.85806,-10.7565,8.43926,7.12502,15.2551,37.8568,-32.1652,-10.1648,15.6676,69.3852,-9.90668,-11.6365,29.8941,-25.3847,-0.769309,9.40026,52.0675,2.88268,-27.5808,-27.3175
5.82512,16.4293,11.7168,12.9278,-64.4915,-12.7186,20.5353,-0.397898,-7.25097,6.01319,-2.73143,-5.72693,-4.89551,-1.4612,-1.37003,-8.68483,0.867625,-11.5315,13.9409,1.44986,9.01563,5.44864,0.712477,4.86516,-7.31528e-14,-8.90555e-14,-25.9656,7.78507,-86.989,135.806,5.83595,-25.4605,19.5004,7.12502,1.06678,-10.4766,-7.31528e-14,-8.90555e-14,25.9053,-25.8224,79.8565,110.568,5.96231,-11.0899,8.5328,7.12502,14.9339,37.9744,-31.5165,-10.0868,15.4246,69.531,-10.9961,-13.5189,28.7187,-27.0514,-0.756835,9.5885,52.7403,3.54677,-27.5586,-24.4087
5.81829,16.314,11.6045,12.8589,-63.3959,-12.7082,20.8417,-0.450962,-6.86788,6.25555,-2.7374,-5.7002,-4.80918,-1.47172,-1.55121,-7.81293,0.764137,-12.932,12.9663,1.34562,9.76573,4.99132,0.643947,5.29991,-1.90833e-14,9.54166e-15,-26.3307,6.7447,-85.7418,136.243,5.00915,-25.6051,19.4888,7.12502,0.927123,-10.489,-1.90833e-14,9.54166e-15,26.7787,-26.3602,80.3758,109.639,6.04219,-10.7183,8.08593,7.12502,15.2919,37.5006,-30.9865,-10.0356,14.8687,69.5122,-11.8758,-14.5462,27.8191,-28.4698,-1.30037,9.61542,53.7077,3.34854,-26.7266,-11.3147
5.80947,16.2065,11.502,12.4025,-62.5535,-12.3253,21.2539,-0.365433,-6.92629,6.43346,-2.65416,-5.48364,-4.81613,-1.4339,-1.29965,-7.20512,0.601853,-14.117,12.2747,1.19818,10.0329,4.68559,0.535865,5.55176,-4.45278e-14,3.81667e-14,-26.6681,5.9466,-84.2347,136.581,4.5951,-25.8154,19.4015,7.12502,0.723996,-10.5771,-4.45278e-14,3.81667e-14,27.2454,-26.7643,81.3898,109.021,6.15067,-10.3682,7.72135,7.12502,15.6291,37.11,-30.3646,-9.76238,13.9544,69.3538,-13.2601,-14.6361,28.1321,-29.3001,-2.29154,9.46739,54.8696,-2.62738,-24.5413,-27.6888
5.79087,16.1035,11.4145,11.8943,-62.0479,-11.9993,21.4769,-0.359359,-6.92527,6.71013,-2.66141,-5.51473,-4.63122,-1.45088,-1.33117,-7.20569,0.518303,-14.5868,12.1315,1.1455,10.0827,4.6468,0.496191,5.6404,7.95139e-15,0,-26.7922,5.6422,-83.3514,136.875,4.54792,-26.1809,19.1403,7.12502,0.371024,-10.8391,7.95139e-15,0,27.8194,-26.8464,81.382,108.618,6.36747,-10.6631,7.94212,7.12502,15.345,37.3527,-29.6518,-9.21022,12.9722,69.1986,-14.7668,-14.4576,25.1834,-29.7304,-3.22042,9.20196,56.1844,-10.3679,-21.0689,-43.0116
5.77016,15.9677,11.3495,11.9768,-61.8889,-12.3745,21.5348,-0.179724,-7.0803,6.96188,-2.4255,-5.14332,-4.36688,-1.35068,-0.902808,-7.2817,0.395241,-15.3343,12.2221,1.08834,10.0077,4.69444,0.429912,5.74062,-1.43125e-14,-2.8625e-14,-26.819,5.53727,-82.0181,137.174,4.53554,-26.5169,18.9664,7.12502,0.0464687,-11.0134,-1.43125e-14,-2.8625e-14,28.1785,-26.6661,81.886,108.391,6.63835,-10.6838,8.07303,7.12502,15.3251,37.4852,-29.1529,-8.47313,12.2253,69.2736,-16.2871,-14.27,19.4246,-29.7048,-4.81219,9.90431,57.0516,-8.80805,-20.7735,-32.2267
5.77723,15.8045,11.2062,12.5503,-61.1858,-12.6515,21.7509,-0.316496,-7.07516,6.89328,-2.61759,-5.08998,-4.54385,-1.43464,-0.796453,-7.3341,0.344962,-15.3861,12.3778,1.0048,10.1855,4.75905,0.394296,5.8078,5.40694e-14,-1.59028e-14,-26.88,5.18039,-81.732,137.336,5.08228,-26.5005,19.2096,7.12502,0.0623787,-10.7702,5.40694e-14,-1.59028e-14,28.164,-26.538,82.0632,108.41,7.05655,-9.78576,8.1104,7.12502,16.1899,37.4543,-29.7128,-8.35686,12.1814,69.8425,-17.5062,-13.1901,12.0445,-30.7133,-5.11632,11.0678,57.5455,-9.43928,-21.5562,-27.7516
5.76351,15.6578,11.098,12.5844,-61.0456,-12.6309,21.9255,-0.0256445,-7.81645,6.87326,-2.37314,-4.54346,-4.60164,-1.31465,0.150839,-7.20144,0.172429,-15.8849,12.2892,0.835249,10.0358,4.73439,0.279273,5.829,-4.13472e-14,-1.27222e-14,-26.6815,4.92777,-80.5634,137.336,5.75816,-26.5,19.6439,7.12502,0.0628206,-10.3358,-4.13472e-14,-1.27222e-14,27.9288,-26.4439,83.2781,108.466,6.92476,-9.11696,8.11127,7.12502,16.8338,37.4016,-30.1842,-8.57022,11.8076,70.703,-17.9034,-12.4734,-2.04649,-30.787,-5.46302,11.5981,57.5919,-12.5989,-20.7443,-32.1556
5.74242,15.5305,11.0043,12.2125,-61.2104,-12.2808,22.0136,0.188172,-8.1731,6.90716,-2.18353,-4.50607,-4.60188,-1.22647,0.344368,-6.95071,0.0572851,-15.8822,12.0847,0.641665,10.0845,4.65499,0.187817,5.82692,-6.52014e-14,-3.81667e-14,-26.5396,4.47223,-80.1537,137.283,6.47406,-27.0339,19.7117,7.12502,-0.452847,-10.2675,-6.52014e-14,-3.81667e-14,27.645,-26.6386,83.7399,108.625,6.71963,-8.93701,8.19858,7.12502,17.0071,37.4741,-30.5282,-8.8595,11.0492,71.8769,-19.3034,-10.4134,-11.2575,-30.4646,-6.0415,11.9079,57.4681,-14.397,-20.0112,-31.8901
5.7248,15.3951,10.903,11.3938,-61.4693,-11.4475,21.9137,0.202377,-8.20611,7.10346,-2.20301,-5.0345,-4.35707,-1.25441,-0.206965,-7.02774,-0.0538261,-15.5677,11.9439,0.406056,10.632,4.6501,0.124857,5.94019,-1.59028e-15,3.18055e-14,-26.1705,3.91525,-80.6974,137.192,7.11126,-27.3699,19.7289,7.12502,-0.77738,-10.2495,-1.59028e-15,3.18055e-14,27.7011,-26.7332,83.2828,108.902,7.10014,-8.58807,8.37852,7.12502,17.3429,37.6248,-30.9075,-9.09252,9.98423,73.3732,-21.2559,-7.50858,-13.7516,-30.2113,-6.3673,11.9932,57.4036,-15.6608,-20.14,-30.0865
5.70366,15.2622,10.7943,10.0818,-61.7313,-10.0361,22.1435,0.370261,-9.21206,7.02517,-2.24523,-5.07294,-4.51178,-1.27362,0.325927,-7.16751,-0.187248,-15.6983,12.0865,0.219754,10.9172,4.74011,0.0446532,6.05113,-5.56597e-14,-4.45278e-14,-25.8786,3.77115,-80.7442,137.034,7.73356,-27.1623,19.8491,7.12502,-0.576882,-10.1298,-5.56597e-14,-4.45278e-14,27.4205,-26.3285,83.589,109.16,7.57763,-7.99145,8.13464,7.12502,17.9171,37.3293,-31.4904,-9.65087,8.80851,75.0511,-22.9293,-5.44032,-15.8611,-30.0503,-6.20045,11.6184,57.47,-18.0273,-19.669,-30.7048
5.68276,15.133,10.6769,8.5969,-61.8061,-8.3769,22.283,0.410065,-9.96476,6.9923,-2.4168,-5.43434,-4.58665,-1.35825,0.396687,-7.08315,-0.259566,-14.9049,11.9194,0.0124136,10.979,4.70112,-0.0166843,5.92244,1.59028e-15,9.54166e-15,-25.6592,3.40856,-81.5496,136.845,8.6801,-27.2695,19.8604,7.12502,-0.680401,-10.1182,1.59028e-15,9.54166e-15,27.1734,-26.0408,83.4267,109.529,8.05306,-7.11713,7.89456,7.12502,18.7582,37.0101,-32.3077,-10.7134,7.69787,76.7628,-24.4901,-3.63623,-18.2696,-30.1539,-5.69286,11.1305,57.711,-20.2505,-18.6627,-34.0521
5.66735,15.0033,10.5573,7.50717,-61.8199,-7.13854,22.4411,0.410335,-10.2261,6.9868,-2.53894,-5.82724,-4.67106,-1.41758,0.147567,-6.90499,-0.408959,-14.0181,11.5017,-0.315558,11.1206,4.58448,-0.127852,5.79108,-1.90833e-14,4.77083e-14,-25.4371,2.87341,-82.6786,136.676,9.37779,-27.7312,19.9718,7.12502,-1.12629,-10.005,-1.90833e-14,4.77083e-14,26.9927,-25.9164,83.3489,109.974,8.52854,-6.33647,7.9063,7.12502,19.5089,36.9476,-33.2568,-11.9463,6.94513,78.3415,-25.7463,-1.94207,-20.2653,-30.3689,-4.76858,10.8266,58.081,-22.5354,-16.6064,-38.8631
5.65268,14.8839,10.4421,6.745,-61.8179,-6.33336,22.6804,0.298195,-10.3476,6.98668,-2.76463,-5.99274,-4.77998,-1.52417,0.0960236,-7.18503,-0.616709,-13.5207,11.4941,-0.622401,11.1422,4.66849,-0.247948,5.69894,8.74653e-14,3.81667e-14,-25.198,3.15372,-83.1694,136.891,9.34527,-28.3781,19.4622,7.12502,-1.75107,-10.5104,8.74653e-14,3.81667e-14,27.0066,-25.4013,83.2547,110.227,9.04347,-5.56079,7.89364,7.12502,20.2545,36.8576,-34.1298,-13.3175,6.59149,79.7616,-26.5564,-0.950397,-21.7188,-30.5175,-3.94292,10.672,58.4459,-24.6246,-14.0275,-42.4448
5.62935,14.7959,10.3387,5.6834,-61.8021,-5.5504,23.3183,0.176783,-10.6562,6.93316,-3.08585,-5.88968,-5.11597,-1.66396,0.475508,-7.66529,-0.752542,-13.1846,11.8356,-0.771382,10.8468,4.87328,-0.315273,5.54675,7.95139e-15,1.27222e-14,-24.9819,3.57285,-83.3192,137.145,8.79838,-28.2747,19.2188,7.12502,-1.65124,-10.7546,7.95139e-15,1.27222e-14,26.6857,-24.5434,83.578,110.407,9.5037,-4.44204,7.96011,7.12502,21.3294,36.8063,-34.5388,-14.8681,6.28531,81.0707,-27.2357,-0.277564,-22.2503,-30.2266,-3.94333,10.4395,58.6263,-26.0261,-11.9189,-44.15
5.59483,14.7399,10.2501,4.71111,-61.8722,-5.04357,23.8766,0.336571,-11.0682,6.98007,-3.00774,-5.32229,-5.29197,-1.61934,1.31393,-7.6668,-0.996302,-13.6667,11.5755,-1.01695,10.8104,4.82928,-0.453063,5.596,-3.18055e-15,9.54166e-15,-24.621,3.77895,-82.5831,137.52,7.96384,-27.7742,19.3171,7.12502,-1.16786,-10.6595,-3.18055e-15,9.54166e-15,26.2967,-23.9768,84.8128,110.642,9.79855,-3.38075,8.12153,7.12502,22.3485,36.8489,-34.6867,-16.3942,6.12429,82.2628,-27.7339,0.104199,-21.2216,-29.5372,-4.55221,10.3193,58.5682,-26.4978,-10.5931,-44.0138
5.55387,14.6939,10.1533,4.45518,-61.9904,-5.02877,23.985,0.468,-10.6794,7.04427,-2.74127,-5.11843,-5.31174,-1.49302,1.25207,-7.22678,-1.35092,-13.6982,10.8797,-1.55347,11.1719,4.61324,-0.697873,5.67227,-3.33958e-14,9.54166e-14,-24.448,3.46617,-82.3911,137.947,7.61196,-27.8406,19.2933,7.12502,-1.23194,-10.6829,-3.33958e-14,9.54166e-14,25.985,-24.1594,85.4647,111.01,10.281,-3.16127,8.47207,7.12502,22.5592,37.1741,-35.0942,-17.6466,6.38288,83.3174,-27.8936,0.638104,-18.6094,-29.0193,-5.06279,10.5796,58.366,-26.682,-9.31259,-43.9216
5.50888,14.6489,10.0448,3.92786,-62.2801,-4.61298,23.8596,0.69747,-10.5597,7.15691,-2.38648,-5.0155,-5.1567,-1.33522,1.19887,-7.16527,-1.75893,-13.1244,10.4076,-2.16154,11.2423,4.53327,-0.965437,5.55287,-1.82882e-14,-4.45278e-14,-24.1614,3.15942,-82.432,138.203,7.77413,-28.1976,19.1669,7.12502,-1.57678,-10.8071,-1.82882e-14,-4.45278e-14,25.6244,-24.379,85.9846,111.463,10.8056,-4.18721,8.53836,7.12502,21.5742,37.3566,-35.5711,-18.4823,6.52294,84.2166,-27.9852,1.4185,-16.8437,-28.4754,-5.43723,10.6667,58.0954,-27.0072,-7.61443,-45.3426
5.47739,14.6054,9.92392,6.01287,-62.3008,-6.927,23.77,0.538279,-9.36728,7.18343,-2.24047,-4.49692,-5.13015,-1.26121,1.06155,-7.50171,-2.03051,-12.5543,10.3011,-2.5562,11.2758,4.60175,-1.12484,5.44024,-7.95139e-15,-1.59028e-14,-23.5959,3.21739,-82.3592,138.342,7.92664,-28.0626,19.1912,7.12502,-1.44641,-10.7836,-7.95139e-15,-1.59028e-14,25.0779,-23.9247,86.4749,111.936,11.286,-5.24141,8.21738,7.12502,20.5615,37.1485,-36.2313,-18.8919,8.39181,84.8991,-27.951,1.59379,-15.4015,-28.5089,-5.60489,12.4563,57.9344,-26.8615,-7.44107,-45.8109
5.44272,14.578,9.81654,6.47165,-62.4992,-7.59479,23.7307,0.429895,-8.92983,7.20842,-2.23452,-4.12187,-5.08717,-1.25907,1.22355,-7.11979,-2.06417,-12.1954,9.66909,-2.67162,11.496,4.35755,-1.16491,5.43572,9.54166e-15,3.33958e-14,-22.9701,3.54887,-82.0276,138.487,8.20033,-27.5845,19.3854,7.12502,-0.984599,-10.592,9.54166e-15,3.33958e-14,24.3436,-23.1275,86.9454,112.513,11.8776,-5.30347,7.92926,7.12502,20.5018,36.8668,-36.4916,-19.0304,9.0791,85.4593,-28.1995,2.54439,-11.8835,-28.309,-6.10427,13.3265,57.8791,-26.0893,-8.28422,-44.2917
5.40953,14.5501,9.70065,6.28961,-62.8315,-7.49555,23.6788,0.421681,-8.97808,7.16061,-2.22,-3.77973,-5.09671,-1.24938,1.61861,-5.88087,-1.90465,-12.1468,8.31573,-2.55738,12.036,3.73246,-1.11599,5.5954,7.15625e-15,-6.67916e-14,-22.3581,4.02297,-81.7709,138.471,9.12184,-27.2769,19.5431,7.12502,-0.687569,-10.4355,7.15625e-15,-6.67916e-14,23.2298,-22.6558,87.7267,113.285,12.2458,-4.88514,7.42155,7.12502,20.9038,36.3153,-36.7247,-19.0234,9.3942,85.9112,-28.6771,3.26189,-10.0229,-28.1812,-6.32977,13.83,57.9783,-25.1488,-8.93694,-43.2193
5.37705,14.5271,9.58361,6.42053,-63.3507,-7.62459,23.4419,0.418753,-8.95564,7.08731,-2.15829,-3.41923,-5.04796,-1.21765,1.97786,-6.47387,-2.1385,-12.0674,8.61879,-2.9032,12.5904,3.97278,-1.24294,5.74279,-3.4191e-14,-4.45278e-14,-21.5645,4.39608,-81.6477,138.29,10.1253,-27.041,19.6351,7.12502,-0.45964,-10.3442,-3.4191e-14,-4.45278e-14,21.9386,-22.2787,88.6972,114.267,12.4307,-4.60287,7.55299,7.12502,21.1749,36.4166,-37.0598,-18.8405,10.0069,86.1573,-29.2645,2.8262,-14.2156,-28.1077,-6.38205,14.3551,58.1962,-24.4161,-8.42392,-43.9669
5.32737,14.5367,9.50382,6.30585,-64.3157,-7.59366,22.8984,0.456362,-8.79084,7.06728,-1.98099,-3.11734,-4.80612,-1.14033,2.15605,-6.42726,-2.14456,-11.7929,8.63529,-2.96834,12.7591,3.97617,-1.26181,5.74704,1.43125e-14,-2.54444e-14,-20.7076,4.76607,-81.419,138.16,10.5544,-26.5871,19.8589,7.12502,-0.0212982,-10.1209,1.43125e-14,-2.54444e-14,20.8765,-21.5956,89.0958,115.23,12.7748,-4.76606,8.17322,7.12502,21.0182,37.0543,-37.1011,-18.2744,10.3345,86.0695,-29.8321,2.01143,-17.2279,-27.6557,-6.83981,14.4036,58.6186,-23.4986,-7.35243,-44.2145
5.29525,14.5507,9.3967,6.24958,-64.9905,-7.57182,22.7569,0.44341,-8.84443,6.86721,-1.95376,-2.60172,-4.9328,-1.11274,2.73821,-6.66895,-2.21399,-11.0023,8.8597,-3.09897,12.325,4.08323,-1.31272,5.46592,1.11319e-14,9.54166e-15,-19.8672,5.24292,-80.9232,138.077,10.5754,-25.9419,20.1187,7.12502,0.601849,-9.86024,1.11319e-14,9.54166e-15,19.7247,-20.8003,89.2194,116.124,13.0624,-4.8433,8.14088,7.12502,20.944,37.0302,-37.1781,-17.9294,10.7895,85.9282,-30.1235,1.90176,-17.5938,-27.6671,-7.41256,14.7103,59.2342,-21.6851,-7.95578,-42.0803
5.2671,14.5685,9.30846,6.49231,-65.6865,-7.85066,22.5701,0.355186,-8.56859,6.66582,-1.94278,-2.06886,-5.04981,-1.09211,3.15723,-6.65926,-2.24673,-10.0096,8.8256,-3.16933,11.5686,4.054,-1.35049,5.05028,-3.97569e-14,4.77083e-14,-18.9964,5.71562,-80.3234,138.027,10.6367,-25.6032,20.0018,7.12502,0.928982,-9.97589,-3.97569e-14,4.77083e-14,18.4057,-20.1807,89.4279,117.116,13.2089,-5.17571,8.37292,7.12502,20.6246,37.2972,-37.2843,-17.7168,11.2196,85.7065,-30.2097,3.33775,-14.3952,-27.8914,-7.94766,15.0247,60.1601,-19.6862,-7.8068,-40.2453
5.2258,14.6047,9.26089,6.25628,-66.9238,-7.73552,22.0708,0.341423,-8.12204,6.62229,-1.78477,-1.75617,-4.86653,-1.02095,3.19293,-6.79056,-2.17534,-8.86011,8.79709,-3.09337,10.7046,4.02994,-1.31228,4.58548,-3.65764e-14,1.03368e-13,-18.0541,6.28432,-79.9761,137.956,10.9291,-25.5657,19.7484,7.12502,0.965185,-10.2291,-3.65764e-14,1.03368e-13,17.3151,-19.5921,89.0887,118.067,13.4684,-5.70851,8.64571,7.12502,20.1125,37.6246,-37.1525,-17.3729,11.2801,85.3293,-30.4391,4.35395,-12.9856,-27.5976,-8.03639,14.5851,61.3056,-18.3485,-5.73983,-40.9831
5.19107,14.65,9.21955,5.79951,-68.0664,-7.4091,21.6852,0.246778,-7.57108,6.61249,-1.73361,-1.5263,-4.6988,-1.00206,3.10857,-7.20212,-2.12789,-7.74051,8.91722,-3.06424,10.0291,4.10683,-1.28181,4.18505,3.33958e-14,-1.11319e-14,-16.9811,6.97401,-80.12,137.684,11.6745,-25.7929,19.7222,7.12502,0.745805,-10.2562,3.33958e-14,-1.11319e-14,16.358,-18.8307,88.2828,119.062,13.8829,-5.30984,8.433,7.12502,20.4957,37.3712,-37.051,-17.5629,11.3334,84.9191,-30.582,4.44392,-14.3379,-27.5238,-8.12613,13.9739,62.6026,-16.7529,-4.43664,-39.3561
5.16232,14.7032,9.17992,5.08264,-69.2929,-6.76987,21.406,0.224377,-7.14266,6.55525,-1.63133,-1.29279,-4.63647,-0.95244,3.0877,-7.5972,-2.18115,-6.50544,9.06577,-3.17648,9.17751,4.19743,-1.32667,3.70332,-3.1408e-14,5.88403e-14,-15.9154,7.64639,-80.2798,137.333,12.5159,-26.4279,19.5448,7.12502,0.132505,-10.4349,-3.1408e-14,5.88403e-14,15.1198,-18.0644,87.7411,120.348,14.1778,-4.77675,8.43132,7.12502,21.0079,37.3135,-37.068,-17.7397,11.2625,84.5362,-30.296,5.36717,-13.4324,-27.426,-8.28923,13.1937,63.8933,-15.1342,-3.72744,-34.6356
5.13409,14.7522,9.15216,4.61785,-70.7441,-6.43699,21.1064,0.205474,-6.60892,6.4935,-1.49701,-0.9508,-4.5706,-0.887351,3.11566,-8.02613,-2.13735,-5.81352,9.46717,-3.11819,8.38492,4.36441,-1.30068,3.34386,-1.70955e-14,-7.15625e-15,-14.7895,8.21788,-79.7334,137.185,12.1867,-26.7139,19.3419,7.12502,-0.143808,-10.6378,-1.70955e-14,-7.15625e-15,13.5798,-17.1169,87.4459,121.706,14.3496,-4.79831,8.47169,7.12502,20.9872,37.3562,-37.1278,-17.7548,11.2384,84.1841,-29.8433,6.64159,-11.608,-27.0561,-7.96533,12.3533,65.1441,-14.0967,-2.59759,-31.4341
5.10718,14.7976,9.13934,4.67063,-72.2153,-6.75988,20.8609,0.122644,-5.61887,6.49598,-1.35907,-0.548905,-4.47417,-0.823701,2.94791,-8.52717,-2.10186,-5.90162,10.0155,-3.03591,8.09625,4.60662,-1.26282,3.27357,5.96354e-14,8.74653e-15,-13.7503,8.93208,-79.3045,137.125,11.8669,-26.7528,19.4207,7.12502,-0.18134,-10.559,5.96354e-14,8.74653e-15,12.0722,-16.0825,87.1149,122.898,14.5398,-5.49865,8.48728,7.12502,20.3142,37.4449,-37.0404,-18.0795,11.2739,83.8136,-29.515,7.98322,-10.8786,-26.4529,-7.19291,11.593,66.3008,-13.6698,-1.54094,-30.8326
5.07841,14.8539,9.1379,4.77617,-73.7443,-7.13085,20.6657,0.0727908,-4.46435,6.4814,-1.15594,-0.13776,-4.42726,-0.725646,2.68111,-8.76601,-2.12715,-5.72154,10.2339,-3.02417,7.52131,4.70174,-1.27539,3.06419,2.26615e-14,7.95139e-15,-12.9853,9.9732,-79.6497,136.93,12.8024,-26.6035,19.7051,7.12502,-0.0371222,-10.2746,2.26615e-14,7.95139e-15,10.4469,-15.0216,86.9123,124.072,14.8847,-6.31481,8.48688,7.12502,19.5297,37.526,-36.877,-18.6157,11.1147,83.379,-29.041,10.1595,-9.38529,-25.6615,-6.50344,10.6766,67.3063,-13.7677,-1.19878,-29.387
5.05244,14.9166,9.15115,4.40091,-75.3839,-6.78164,20.3994,-0.0212471,-3.50441,6.36252,-1.04854,0.271808,-4.43868,-0.669379,2.54462,-8.787,-2.05332,-5.00042,10.1308,-2.86421,6.30856,4.6359,-1.23827,2.57717,-2.38542e-14,-2.38542e-15,-11.8325,10.5954,-79.3444,136.56,13.005,-25.8197,19.9697,7.12502,0.719882,-10.0089,-2.38542e-14,-2.38542e-15,8.54416,-13.5303,86.9054,125.371,15.4887,-6.05625,8.52588,7.12502,19.7783,37.5396,-36.989,-19.3822,10.6228,82.9232,-28.1589,13.3574,-6.78407,-24.9422,-5.88418,9.3701,68.1686,-14.1695,-1.52061,-27.7657
5.03363,14.9777,9.17026,3.96088,-77.0404,-6.18899,20.091,-0.100045,-2.68636,6.20812,-0.945096,0.802022,-4.45741,-0.615525,2.61789,-8.91903,-1.88289,-4.20481,10.1325,-2.55413,4.81554,4.61197,-1.13948,2.00318,5.56597e-15,-2.10712e-14,-10.1532,10.5591,-77.929,136.044,12.3781,-24.9811,19.9945,7.12502,1.52983,-9.97976,5.56597e-15,-2.10712e-14,6.64401,-11.8605,87.0222,126.692,16.1435,-5.67982,8.87259,7.12502,20.1401,37.8486,-37.3971,-20.0281,10.075,82.5195,-26.48,17.3643,-2.00457,-24.3798,-4.97247,7.92479,68.8857,-14.784,-1.85203,-30.1457
5.01295,15.04,9.18619,3.66451,-78.7781,-5.82028,19.9621,-0.0313072,-2.14888,6.06827,-0.703313,1.58864,-4.55155,-0.498018,3.09758,-9.17076,-1.65852,-3.83892,10.313,-2.13023,3.42878,4.67174,-0.996257,1.54116,-1.77912e-14,2.08724e-15,-8.64787,10.7866,-76.5729,135.508,12.7151,-24.4169,19.9335,7.12502,2.07468,-10.0361,-1.77912e-14,2.08724e-15,4.64748,-10.2,87.4638,127.906,16.4118,-6.29649,8.87842,7.12502,19.5473,37.9158,-37.7944,-20.2168,9.59997,82.1513,-24.4046,20.9932,2.29095,-23.6983,-3.85796,6.58135,69.4556,-15.6171,-2.74823,-33.1596
4.98797,15.1083,9.21043,2.66161,-80.6318,-4.88863,20.0035,-0.0346798,-1.43835,6.04698,-0.553781,2.08437,-4.60769,-0.431725,3.19031,-9.63741,-1.3806,-3.36967,10.51,-1.67728,2.33783,4.78095,-0.819246,1.15547,-3.00165e-14,3.57812e-15,-7.33376,11.4541,-76.2731,134.941,13.9429,-24.2335,19.9009,7.12502,2.25186,-10.067,-3.00165e-14,3.57812e-15,2.736,-8.51477,87.5363,128.943,16.5598,-7.28085,8.57382,7.12502,18.6007,37.7045,-38.0826,-20.3764,8.80219,81.7778,-21.172,25.433,8.98137,-22.8146,-2.84951,5.17856,69.9027,-16.3386,-5.00906,-32.3979
4.9623,15.1828,9.24311,1.4976,-82.4778,-3.8119,20.1634,0.430867,-1.90245,6.046,0.0269056,3.69601,-4.72403,-0.166037,5.06797,-10.0649,-1.31417,-3.66865,10.589,-1.30524,0.498674,4.85833,-0.76624,0.657394,1.47101e-14,-4.77083e-15,-5.85709,12.4227,-73.9688,134.404,14.5423,-24.2945,19.7324,7.12502,2.19289,-10.2361,1.47101e-14,-4.77083e-15,0.843786,-6.60829,89.3783,129.884,16.7513,-7.97669,8.56793,7.12502,17.9313,37.7613,-38.4118,-20.4496,7.89844,81.3669,-15.9706,30.2251,18.112,-21.9582,-1.87574,3.74899,70.2388,-16.7828,-7.44672,-30.804
4.93744,15.2522,9.27401,0.316004,-84.3385,-2.61694,20.2289,0.946183,-2.27501,6.06206,0.680513,5.30895,-4.82323,0.13243,6.90373,-10.2482,-1.2395,-3.79645,10.4517,-0.95486,-1.44089,4.8344,-0.729129,0.100196,1.11319e-14,1.11319e-14,-4.40312,13.1671,-71.5554,133.881,14.6642,-24.0927,19.7359,7.12502,2.3878,-10.2305,1.11319e-14,1.11319e-14,-0.923515,-4.84357,90.6786,130.767,17.5573,-8.64968,8.86911,7.12502,17.2836,38.1206,-38.9538,-20.2746,7.21967,80.9599,-11.7546,33.5304,20.6596,-21.2367,-0.710874,2.3872,70.4272,-17.1508,-9.43426,-30.4764
4.91466,15.3188,9.30338,-0.584927,-86.3254,-1.60944,20.2707,1.40025,-2.50027,6.08553,1.26708,6.8471,-4.9319,0.395781,8.62158,-10.4454,-1.05882,-4.08524,10.3623,-0.459601,-3.30035,4.83654,-0.629085,-0.39635,-1.59028e-15,1.27222e-14,-2.89605,13.8639,-69.4338,133.321,14.4635,-23.5665,20.0389,7.12502,2.89603,-9.92121,-1.59028e-15,1.27222e-14,-2.63958,-2.87642,91.5191,131.562,18.5479,-9.38963,9.10959,7.12502,16.5713,38.422,-39.7455,-19.8229,6.67431,80.5835,-7.66496,36.0221,19.6073,-20.583,0.634617,1.2194,70.4303,-17.4836,-11.3269,-30.3193
4.89265,15.3844,9.33455,-1.15448,-88.3164,-0.935095,20.3141,1.78131,-2.43582,6.20836,1.78284,8.1912,-4.94333,0.613734,9.99605,-10.8695,-0.865951,-4.52465,10.3233,0.0381895,-4.73133,4.90141,-0.513335,-0.73758,3.18055e-15,4.29375e-14,-1.30472,14.3655,-67.396,132.792,13.7824,-23.3146,19.9665,7.12502,3.13932,-9.99012,3.18055e-15,4.29375e-14,-4.14667,-0.704449,93.0016,132.296,18.914,-9.2383,9.09908,7.12502,16.717,38.3993,-40.5861,-19.2705,6.21145,80.2187,-4.058,36.9212,15.2948,-19.9557,1.88252,0.151334,70.2262,-17.9998,-12.6275,-31.2355
4.86352,15.4416,9.363,44.8843,-90.4917,-46.9556,20.3683,2.30498,-2.44913,6.43038,2.44525,9.1534,-4.89517,0.903006,10.9568,-11.0489,-0.826306,-4.51481,9.89036,0.185254,-5.80909,4.80283,-0.508631,-1.06274,-1.98785e-14,-3.81667e-14,0.153119,14.0084,-65.3827,132.385,12.3647,-23.2122,19.5657,7.12502,3.23819,-10.3894,-1.98785e-14,-3.81667e-14,-5.28943,1.08829,94.8119,132.944,18.9651,-8.24927,8.91541,7.12502,17.669,38.1326,-41.3198,-18.8694,5.52771,79.908,-4.94989,35.0341,5.45904,-19.1713,2.90301,-1.28161,69.782,-18.3267,-13.5495,-31.7441
4.82882,15.4968,9.3879,18.4038,-92.6095,-20.5112,20.4308,2.88948,-2.829,6.72668,3.10198,10.1145,-4.80832,1.18364,12.1604,-11.0114,-0.682187,-4.33528,9.31822,0.419523,-6.9772,4.62846,-0.450343,-1.43382,-1.59028e-15,-2.54444e-14,1.18633,14.8947,-64.7679,131.739,12.7618,-22.9884,19.8054,7.12502,3.45427,-10.1463,-1.59028e-15,-2.54444e-14,-6.23589,2.92235,96.0085,133.406,19.1207,-8.06005,8.74061,7.12502,17.8511,37.9413,-41.9188,-18.1871,4.67696,79.5872,-6.63162,29.6277,2.82025,-18.2603,3.90594,-2.84004,69.126,-18.6637,-13.9881,-32.0172
4.79444,15.554,9.41312,14.5903,-94.6749,-16.7048,20.5029,3.37215,-2.98373,7.04762,3.65023,11.101,-4.69028,1.40071,13.3069,-11.094,-0.455191,-4.65938,8.99462,0.818235,-7.75171,4.55592,-0.315051,-1.59275,4.77083e-15,3.18055e-15,2.39913,15.2842,-63.3616,131.179,12.4463,-23.0948,19.7538,7.12502,3.35159,-10.1996,4.77083e-15,3.18055e-15,-7.09216,4.7767,96.1403,133.705,19.6879,-8.95232,8.73187,7.12502,16.9923,38.0086,-42.3375,-17.1047,3.93073,79.1077,-6.66981,22.5052,10.2753,-17.4174,4.81507,-4.23071,68.3147,-19.5793,-13.0207,-34.0432
4.75755,15.6009,9.42503,11.7601,-96.5712,-13.7924,20.5598,3.80906,-2.82879,7.29456,4.19711,11.9905,-4.64054,1.6237,14.1583,-11.0388,-0.278617,-5.04552,8.62905,1.11524,-8.26796,4.4447,-0.206724,-1.66785,3.18055e-15,-2.22639e-14,3.37851,15.3411,-62.1397,130.64,12.1047,-23.3686,19.5098,7.12502,3.08716,-10.4476,3.18055e-15,-2.22639e-14,-7.93131,6.32497,96.2034,133.997,20.4565,-9.23317,8.69863,7.12502,16.722,37.9984,-42.6332,-15.9905,3.57882,78.3764,-9.21267,12.601,12.1031,-16.739,5.50389,-5.23894,67.4326,-20.0979,-11.8,-34.6735
4.71561,15.6291,9.42293,10.6017,-98.3378,-12.4726,20.3366,4.3879,-3.33565,7.5928,4.79805,13.1356,-4.48884,1.86476,15.7704,-10.9309,-0.179461,-5.50523,8.22909,1.31981,-9.05045,4.31634,-0.162274,-1.82046,-2.38542e-14,-8.5875e-14,4.32534,15.6269,-60.8358,130.086,12.0847,-22.7792,19.7499,7.12502,3.65628,-10.1985,-2.38542e-14,-8.5875e-14,-8.5821,7.45951,97.9986,134.276,20.3861,-8.91969,8.76307,7.12502,17.0237,38.0371,-42.8309,-14.9681,3.36405,77.3606,-9.97628,3.43477,1.29351,-16.2469,6.08897,-6.05155,66.6256,-20.192,-10.9435,-33.0629
4.66462,15.6583,9.40078,11.0318,-100.135,-12.8193,19.5165,5.17539,-4.92141,8.3687,5.44326,14.9491,-4.10379,2.08984,17.9842,-10.818,-0.135973,-5.85518,7.73992,1.43838,-10.2615,4.16505,-0.180396,-2.12898,-7.95139e-15,6.67916e-14,5.41913,15.8868,-58.9782,129.525,12.0643,-21.9095,19.9348,7.12502,4.49611,-9.99751,-7.95139e-15,6.67916e-14,-8.94159,8.37427,100.445,134.549,20.1838,-9.0557,9.03494,7.12502,16.8928,38.3202,-42.7529,-13.471,2.80767,76.0802,-8.76334,-1.15096,3.63177,-15.5619,6.5636,-6.97425,65.8903,-20.6136,-9.1206,-32.9186
4.61223,15.6862,9.38105,11.9302,-101.969,-13.7733,19.5531,5.65484,-5.16535,8.61397,5.9888,15.2834,-4.13036,2.33886,18.3882,-10.7019,-0.0575336,-5.35773,7.60011,1.49008,-10.8554,4.11329,-0.167637,-2.38691,-4.29375e-14,-5.40694e-14,5.47072,15.6011,-59.0599,128.991,12.5435,-21.3686,20.0088,7.12502,5.0184,-9.91177,-4.29375e-14,-5.40694e-14,-9.6553,8.70508,100.849,134.764,20.7902,-9.0074,8.79316,7.12502,16.9393,38.0745,-42.3365,-11.3422,1.70581,74.5287,-7.85151,-3.72849,12.1904,-14.7673,6.71173,-8.07581,65.3609,-20.949,-6.9506,-34.325
4.55995,15.6837,9.35239,13.5233,-103.869,-15.5724,19.5655,6.1246,-5.74801,8.9926,6.44733,15.4869,-3.99989,2.52554,18.8738,-10.8707,0.0350316,-5.34065,7.60971,1.63566,-10.9432,4.15045,-0.108418,-2.40826,-2.22639e-14,-3.18055e-14,5.62467,15.263,-59.3193,128.491,12.8909,-20.777,20.3035,7.12502,5.5897,-9.60282,-2.22639e-14,-3.18055e-14,-10.1606,9.17237,101.147,134.884,21.4464,-8.42507,8.23584,7.12502,17.4998,37.4682,-41.5751,-8.95452,0.0174924,72.8385,-8.26631,-5.02396,3.80543,-13.9514,6.81451,-9.26909,65.0931,-20.8733,-6.25755,-34.1185
4.50728,15.6587,9.31519,14.5784,-105.509,-16.7545,19.4534,6.56718,-6.23701,9.33177,6.89862,15.6883,-3.84457,2.71206,19.3092,-11.0556,0.0184506,-5.2833,7.62544,1.62971,-11.0359,4.18771,-0.1236,-2.44795,-2.38542e-14,-8.5875e-14,5.66228,14.6714,-59.4573,128.05,12.879,-20.1117,20.6855,7.12502,6.23199,-9.20278,-2.38542e-14,-8.5875e-14,-10.5539,9.41799,101.367,134.936,22.0357,-6.79603,7.37235,7.12502,19.067,36.4578,-40.7703,-6.80963,-1.73381,71.3305,-10.0761,-1.77701,-8.43749,-13.4457,6.73546,-10.2128,65.1196,-20.6404,-5.97041,-32.917
4.45179,15.6335,9.27866,14.9259,-106.817,-17.0276,19.1384,6.84152,-6.39655,9.56598,7.18869,15.98,-3.62139,2.81801,19.7228,-10.9429,0.0960346,-5.15808,7.5356,1.72639,-11.5418,4.15279,-0.10088,-2.61739,-6.67916e-14,-1.90833e-13,5.67492,14.2882,-59.4381,127.578,12.6578,-19.2484,21.3254,7.12502,7.06536,-8.53664,-6.67916e-14,-1.90833e-13,-10.9349,9.86587,101.48,134.912,22.2748,-2.22198,5.13593,7.12502,23.4605,33.7256,-40.2831,-4.98247,-3.09986,70.3733,-11.7765,3.52487,-1.94939,-13.3199,6.52088,-10.8473,65.3698,-20.5198,-5.2032,-32.8638
4.39919,15.5891,9.24147,15.8841,-108.062,-17.76,18.6923,6.99636,-6.83058,9.68482,7.30385,16.2641,-3.42867,2.84641,20.383,-10.4408,0.244465,-5.51597,7.21603,1.89741,-11.8254,3.97946,-0.0172566,-2.6318,4.77083e-15,9.54166e-15,5.68756,14.4417,-59.2601,127.127,12.2937,-18.448,22.0092,7.12502,7.83792,-7.82547,4.77083e-15,9.54166e-15,-11.3671,10.5389,101.511,134.89,22.0401,-7.91753,7.20189,7.12502,17.9882,36.39,-40.2926,-4.03148,-4.03096,70.0766,-13.1672,5.61838,-3.18221,-13.5235,6.50719,-11.4856,65.8097,-20.465,-4.82951,-32.8713
4.35413,15.5259,9.19741,16.368,-109.15,-18.0061,18.2897,7.19428,-7.31904,9.76059,7.48525,16.5958,-3.35046,2.92077,21.1241,-10.0512,0.265899,-5.93334,7.08638,1.9195,-11.9292,3.87487,-0.0110675,-2.59365,-2.06736e-14,5.725e-14,5.55703,14.539,-59.0071,126.76,11.9968,-18.4635,21.9553,7.12502,7.82303,-7.87992,-2.06736e-14,5.725e-14,-11.71,10.7364,101.891,134.944,21.5935,-9.84322,7.90234,7.12502,16.1346,37.2507,-40.6001,-3.79692,-4.2862,70.1743,-15.4975,2.09465,-20.4377,-13.844,6.56052,-11.7822,66.3952,-20.5213,-4.75397,-33.0202
4.31186,15.4762,9.13343,15.0199,-110.122,-16.5506,17.9995,7.49514,-7.4364,9.97357,7.81808,17.0762,-3.22848,3.04994,21.7668,-10.0598,0.244523,-6.25288,7.33247,1.96287,-12.1094,3.95542,-0.0344146,-2.59875,-1.74931e-14,-5.40694e-14,5.4138,14.3608,-58.7893,126.491,11.8207,-19.1529,20.929,7.12502,7.15758,-8.92994,-1.74931e-14,-5.40694e-14,-11.8082,10.7804,102.568,135.034,20.932,-10.2033,8.01961,7.12502,15.7879,37.3958,-41.0232,-3.19325,-3.78605,70.378,-16.5642,1.97564,-20.7362,-13.8307,6.55919,-11.2523,66.9725,-20.535,-5.07805,-32.2856
4.26978,15.4352,9.06964,13.1201,-110.956,-14.611,17.8666,7.76333,-7.2045,10.2043,8.13291,17.5567,-3.11456,3.16461,22.1718,-10.1906,0.206321,-6.64338,7.58963,2.00361,-12.2072,4.05847,-0.0620879,-2.56828,6.36111e-15,0,5.30006,13.9745,-58.5762,126.493,10.7418,-19.4072,19.1799,7.12502,6.91211,-10.6872,6.36111e-15,0,-11.7589,10.963,103.247,135.074,20.2456,-11.0499,8.23034,7.12502,14.9724,37.6691,-41.5416,-2.78361,-2.86848,70.7325,-16.8086,3.80041,-12.1541,-13.7723,6.18253,-10.4562,67.6825,-20.4603,-5.96114,-29.9212
4.2362,15.3876,8.99762,11.0082,-111.958,-12.2861,17.5831,8.12529,-7.02542,10.454,8.56631,18.0534,-2.96768,3.33892,22.6152,-10.265,0.152214,-6.80166,7.66088,1.97982,-12.5632,4.09813,-0.117525,-2.65731,-2.06736e-14,1.59028e-14,5.26047,13.5157,-58.4324,126.657,8.94954,-18.3245,18.9357,7.12502,7.95711,-10.8946,-2.06736e-14,1.59028e-14,-11.5605,11.1134,103.991,135.089,19.978,-11.6767,8.31374,7.12502,14.3685,37.7965,-42.3989,-2.55088,-1.36064,71.4241,-16.8308,3.556,-7.81581,-13.9021,6.06647,-9.48152,68.3878,-20.576,-6.56009,-29.8007
4.20531,15.3294,8.99866,10.0808,-112.054,-10.4785,16.937,7.92189,-5.95227,10.301,8.38678,18.3844,-2.61822,3.22043,22.4877,-10.3401,0.159102,-6.81954,7.66532,2.02728,-13.1707,4.12491,-0.147243,-2.84198,-7.4743e-14,-1.08139e-13,5.30404,13.4957,-58.156,126.53,9.2355,-17.7029,20.5445,7.12502,8.55705,-9.26212,-7.4743e-14,-1.08139e-13,-11.216,11.2226,104.842,135.176,19.7895,-11.7251,8.47566,7.12502,14.3219,37.9617,-43.7682,-3.98248,0.0803421,72.1929,-17.0001,0.574811,-16.162,-15.6406,5.25618,-8.99976,69.4106,-20.6096,-5.78939,-33.042
4.17422,15.299,8.93484,8.77597,-113.095,-9.20449,16.7693,8.28343,-6.19337,10.6777,8.73665,18.8183,-2.41317,3.32933,23.1663,-10.3176,0.221641,-7.03777,7.57801,2.13993,-13.6015,4.10553,-0.129735,-2.9343,-2.54444e-14,-4.45278e-14,5.44615,13.6822,-57.5908,126.268,10.6607,-18.3342,21.121,7.12502,7.94779,-8.70961,-2.54444e-14,-4.45278e-14,-10.7426,11.4542,105.766,135.228,19.5817,-11.471,8.39452,7.12502,14.5668,37.863,-44.4148,-4.00664,1.3872,72.9533,-17.1512,-2.02883,-22.7207,-15.4707,5.43156,-8.33209,69.9024,-20.7311,-5.70043,-34.995
4.13167,15.278,8.88203,7.72132,-113.815,-8.28723,16.6184,8.49635,-6.22968,11.0207,8.90684,19.1842,-2.12993,3.33941,23.6812,-10.2702,0.27386,-7.39628,7.43523,2.23985,-14.0181,4.06364,-0.118423,-3.00056,3.81667e-14,4.45278e-14,5.74345,13.3979,-56.8787,126.21,10.2614,-17.7333,20.9761,7.12502,8.5277,-8.83169,3.81667e-14,4.45278e-14,-10.1238,11.6293,106.836,135.281,19.7322,-11.102,8.25477,7.12502,14.9222,37.6973,-44.4914,-3.46529,1.77841,73.2534,-17.6606,-0.844147,-17.0451,-15.1536,5.10353,-7.79394,70.2185,-20.5281,-6.42457,-34.0518
4.08589,15.265,8.8306,6.10275,-114.254,-7.03782,16.7091,8.66427,-5.99931,11.3686,9.02862,19.596,-1.91298,3.32338,24.0662,-10.2979,0.25692,-7.72497,7.34693,2.25449,-14.3852,4.04749,-0.151244,-3.06307,2.70347e-14,4.45278e-14,6.07136,12.8623,-56.0307,126.127,9.27806,-16.4634,21.4542,7.12502,9.75309,-8.29993,2.70347e-14,4.45278e-14,-9.58597,11.6375,107.812,135.488,20.011,-10.8197,8.27044,7.12502,15.1942,37.6925,-43.9922,-3.08946,2.31388,73.482,-18.4615,0.0758694,-15.0427,-14.5238,4.4664,-7.06946,70.3073,-20.2861,-7.12089,-32.5588
4.04256,15.2468,8.77209,5.43131,-114.689,-6.92793,16.9157,8.84895,-6.29533,11.6729,9.16617,19.7994,-1.857,3.34153,24.498,-10.3345,0.281993,-7.82605,7.49426,2.33447,-14.6211,4.10702,-0.150036,-3.1183,4.77083e-14,5.40694e-14,6.13652,12.5318,-55.5078,125.913,8.88626,-16.077,21.7703,7.12502,10.1259,-7.96601,4.77083e-14,5.40694e-14,-9.23463,11.7033,108.362,135.666,20.1102,-10.7417,8.13057,7.12502,15.2693,37.547,-43.2387,-2.73212,2.31118,73.5827,-19.3705,0.300758,-15.4775,-13.8034,3.93727,-6.85461,70.423,-20.1387,-7.00818,-32.9803
3.99885,15.2169,8.73962,7.03698,-115.096,-8.76045,16.653,8.92748,-7.29763,11.7722,9.18923,19.6583,-1.76741,3.33626,25.0388,-10.215,0.399666,-7.79651,7.61484,2.50908,-14.9926,4.13917,-0.0983055,-3.22892,-1.22451e-13,-1.27222e-13,6.00206,12.5093,-55.311,125.714,8.20674,-15.8207,21.7285,7.12502,10.3731,-7.99567,-1.22451e-13,-1.27222e-13,-8.85555,11.6603,108.955,135.649,19.8265,-10.7271,7.99723,7.12502,15.2833,37.4126,-43.101,-2.82158,1.16571,73.5895,-20.2975,1.25544,-14.6888,-13.885,3.48413,-7.77853,70.6632,-19.7299,-6.44648,-34.4363
3.94671,15.1839,8.74888,8.43138,-114.943,-9.87106,16.0025,8.66048,-7.59019,11.5999,8.84095,19.5769,-1.47649,3.14344,25.3624,-10.1922,0.536961,-7.83907,7.81949,2.75586,-15.6445,4.2241,-0.0503714,-3.41432,1.27222e-14,1.27222e-14,6.01244,12.7298,-54.8233,125.521,7.07918,-15.101,21.6988,7.12502,11.0674,-7.98941,1.27222e-14,1.27222e-14,-8.29733,11.2325,110.137,135.438,19.0459,-11.0219,8.00568,7.12502,14.9994,37.4424,-43.2533,-3.83447,0.321193,73.4488,-21.0662,3.26477,-10.932,-14.9391,2.70198,-8.45969,71.2455,-19.0469,-6.69832,-34.8515
3.90039,15.1664,8.70501,7.75336,-115.325,-9.16279,15.5402,8.73853,-7.91979,11.697,8.88953,19.7649,-1.24842,3.12163,25.9433,-10.3927,0.630128,-8.20536,8.2263,3.027,-15.917,4.40199,-0.00470641,-3.43221,8.90555e-14,1.7175e-13,6.14767,12.8801,-54.2169,125.257,5.99737,-14.4631,21.7203,7.12502,11.6825,-7.934,8.90555e-14,1.7175e-13,-7.63125,10.569,111.322,135.063,18.0587,-11.6527,7.88956,7.12502,14.3917,37.3706,-42.9666,-3.89142,0.740557,73.2504,-21.9232,3.85826,-8.0604,-14.9815,2.9388,-7.87246,71.6308,-18.1671,-8.15991,-34.6403
3.85772,15.1467,8.69737,7.70568,-115.514,-8.78464,15.061,8.65046,-7.87983,11.5704,8.79938,19.7442,-1.07176,3.07151,25.9897,-10.4077,0.71252,-8.74624,8.40675,3.2225,-15.7667,4.46164,0.0591828,-3.28978,-8.11041e-14,-7.63333e-14,6.18994,13.0763,-53.7175,124.94,5.71154,-14.6517,21.67,7.12502,11.5007,-7.99455,-8.11041e-14,-7.63333e-14,-7.03476,10.0577,111.875,134.734,17.3792,-11.7593,7.71509,7.12502,14.2889,37.2035,-43.0226,-4.52664,1.05938,72.9993,-22.6628,3.68083,-7.36317,-15.7176,3.27868,-7.53763,72.1746,-16.629,-9.50616,-34.6973
3.81949,15.152,8.65323,7.5089,-116.347,-8.91145,15.0238,8.95034,-8.59982,11.7444,9.14813,19.7239,-1.15425,3.24271,26.3633,-10.2689,0.923725,-8.8913,8.53096,3.54405,-16.1107,4.49815,0.174371,-3.35524,2.70347e-14,1.36764e-13,6.04992,13.5516,-53.2547,124.67,6.31818,-15.4712,21.5925,7.12502,10.7102,-8.11454,2.70347e-14,1.36764e-13,-6.5816,9.51985,112.253,134.494,16.7695,-11.7376,7.62852,7.12502,14.3098,37.1154,-42.5331,-4.00858,1.13467,72.6935,-23.2777,3.05904,-7.93651,-15.1815,4.1877,-7.26759,72.3133,-15.2941,-10.5629,-35.4765
3.76533,15.1727,8.63886,7.86539,-116.834,-9.40329,14.7895,9.02923,-8.96824,11.7662,9.26007,19.5395,-1.07882,3.30065,26.3485,-10.136,1.07207,-9.04187,8.44462,3.74529,-16.4908,4.46615,0.246135,-3.43759,-7.31528e-14,-1.27222e-14,5.82641,13.6957,-53.0368,124.567,6.94626,-15.8007,21.7736,7.12502,10.3925,-7.9496,-7.31528e-14,-1.27222e-14,-6.15307,8.7735,112.599,134.271,16.1477,-11.8874,7.54661,7.12502,14.1655,37.0437,-42.1643,-3.83497,0.807355,72.3636,-23.5153,3.4133,-7.35676,-14.9835,4.48705,-7.42435,72.4294,-13.8265,-11.2089,-35.0745
3.70844,15.2024,8.6198,7.7495,-117.015,-9.08289,14.2421,9.0102,-9.03856,11.7283,9.26691,19.4315,-0.811968,3.28908,26.3271,-10.109,1.03991,-9.37921,8.03302,3.66221,-16.6139,4.32904,0.217088,-3.42579,-2.06736e-14,-5.08889e-14,5.57391,13.6212,-52.9842,124.713,7.44668,-15.6483,22.0869,7.12502,10.5394,-7.62888,-2.06736e-14,-5.08889e-14,-5.58885,8.13077,112.93,134.152,15.9729,-11.58,7.56642,7.12502,14.4617,37.0425,-42.0178,-3.95268,0.923216,72.0906,-23.5791,4.20395,-5.81506,-15.1187,4.65191,-7.1039,72.4858,-11.782,-12.5553,-32.2781
3.66231,15.2311,8.59021,7.04665,-117.087,-8.05749,13.6451,9.01897,-9.08729,11.6819,9.30489,19.4747,-0.573969,3.2904,26.5177,-10.2564,1.05281,-9.5981,7.76575,3.68788,-16.8793,4.27743,0.213393,-3.47257,-5.56597e-14,-8.90555e-14,5.3861,13.7935,-52.7147,124.99,7.8318,-15.6999,22.1323,7.12502,10.4897,-7.58598,-5.56597e-14,-8.90555e-14,-5.04827,7.49882,113.258,134.178,15.9145,-11.5475,7.86575,7.12502,14.4931,37.3396,-41.928,-4.1332,1.53135,71.8461,-23.6103,4.36476,-5.59881,-15.3943,4.91793,-6.2428,72.5376,-9.75308,-14.048,-30.6918
3.61661,15.269,8.57855,6.28523,-117.079,-7.30532,13.4383,9.02774,-8.98574,11.6837,9.33218,19.4624,-0.450943,3.29588,26.4517,-10.6351,1.04596,-9.6693,7.77756,3.76198,-17.2021,4.35917,0.196721,-3.56152,-7.95139e-15,3.18055e-15,5.30274,13.734,-52.4971,125.262,7.94154,-15.5564,22.1242,7.12502,10.6281,-7.58698,-7.95139e-15,3.18055e-15,-4.74544,6.4016,112.81,134.326,15.7246,-12.0755,8.09711,7.12502,13.9843,37.6068,-41.3906,-4.25073,1.92873,71.4484,-23.5094,4.44139,-5.16105,-15.3877,4.99583,-5.57182,72.464,-7.86255,-15.1453,-30.4801
3.56158,15.3306,8.57012,6.0357,-117.088,-7.30072,13.3359,9.04937,-9.20143,11.725,9.36757,19.3477,-0.377462,3.30721,26.4432,-11.0465,0.900963,-9.81842,7.7862,3.64973,-17.3494,4.4315,0.0970822,-3.59667,-9.06458e-14,-2.09917e-13,5.16983,13.7134,-52.3186,125.522,8.33645,-15.8387,21.9365,7.12502,10.3558,-7.78846,-9.06458e-14,-2.09917e-13,-4.54504,4.76069,111.723,134.498,15.2559,-12.8564,8.16548,7.12502,13.2316,37.7255,-40.5531,-4.16706,1.84837,70.8392,-23.21,4.999,-3.21154,-15.0645,4.9218,-5.43244,72.153,-5.80461,-15.2214,-29.8493
3.50789,15.402,8.55363,6.72614,-117.227,-8.1778,13.0108,9.11488,-10.099,11.7473,9.47158,19.1242,-0.329515,3.35782,26.7819,-11.0615,0.887602,-10.2426,7.59783,3.64123,-17.2892,4.36824,0.0944681,-3.51144,-4.45278e-14,-6.04305e-14,5.01833,13.9344,-51.9664,125.781,8.7292,-16.6173,21.6608,7.12502,9.60461,-8.10026,-4.45278e-14,-6.04305e-14,-4.3523,3.26919,111.164,134.445,14.5803,-13.7592,7.9181,7.12502,12.3613,37.5327,-39.8884,-4.16426,1.38193,70.1309,-22.9556,5.17031,-3.63943,-14.8208,4.93587,-5.78951,71.7124,-3.89879,-13.866,-30.0176
3.45372,15.4743,8.55971,7.65526,-117.236,-9.10234,12.5922,9.05224,-10.7195,11.6726,9.43947,18.7945,-0.189292,3.34418,26.8199,-10.8717,1.10161,-10.423,7.40707,3.89696,-17.4935,4.29014,0.223625,-3.52767,-7.31528e-14,-1.17681e-13,4.85346,14.0187,-51.8828,126.041,8.79527,-17.1238,21.519,7.12502,9.11584,-8.26398,-7.31528e-14,-1.17681e-13,-4.11498,2.15457,110.911,134.227,14.0746,-14.6432,7.55545,7.12502,11.5089,37.2195,-39.3272,-4.5817,0.889581,69.3218,-22.9016,4.70861,-7.36982,-15.0084,4.81905,-6.23953,71.3486,-0.83269,-17.1413,-27.0864
3.40245,15.5521,8.58489,8.03567,-117.175,-9.29761,12.2725,8.9448,-10.7353,11.4898,9.37459,18.4964,-0.107637,3.34226,26.45,-10.7802,1.26827,-10.3125,7.40133,4.113,-17.8859,4.29576,0.307004,-3.65399,4.45278e-14,5.725e-14,4.4885,14.2039,-52.0479,126.385,8.72186,-17.4358,21.2236,7.12502,8.81483,-8.57232,4.45278e-14,5.725e-14,-3.75427,1.42527,111.127,133.844,13.4947,-14.9316,7.20884,7.12502,11.2307,36.8882,-38.785,-4.82407,0.734375,68.3398,-22.7923,3.93871,-11.9026,-15.4884,4.71759,-6.34743,71.0466,1.81809,-18.1548,-27.3192
3.35096,15.6432,8.60455,7.24405,-117.036,-8.42562,12.247,8.88971,-10.0384,11.2884,9.3894,18.2498,-0.141225,3.41078,25.5641,-10.8575,1.20109,-10.4788,7.65348,4.09175,-17.6502,4.37819,0.280112,-3.55854,8.5875e-14,1.43125e-13,3.80379,14.3452,-52.4844,126.792,8.70205,-17.4665,21.0394,7.12502,8.78514,-8.75772,8.5875e-14,1.43125e-13,-3.15276,0.775895,111.807,133.33,12.7266,-14.3565,6.76944,7.12502,11.7853,36.4179,-37.7812,-4.42853,1.12991,67.0558,-22.4708,3.11636,-14.9134,-15.7078,4.94524,-5.71499,70.6892,4.02878,-19.1986,-27.7752
3.28775,15.7457,8.62043,5.93424,-116.703,-7.25424,12.3413,8.76899,-8.86448,11.1665,9.31844,17.8829,-0.00303611,3.41732,24.2083,-11.1914,1.07637,-10.7395,8.10044,4.06952,-16.9723,4.55166,0.25626,-3.31086,7.79236e-14,1.55847e-13,3.06076,14.0291,-53.2317,127.13,8.98208,-17.3509,21.1367,7.12502,8.89673,-8.65576,7.79236e-14,1.55847e-13,-1.98066,0.414288,112.809,132.906,12.2434,-12.8405,6.86391,7.12502,13.2469,36.423,-36.2019,-3.91678,1.60485,65.489,-21.9524,2.94762,-14.1096,-15.571,5.07111,-4.79402,70.3047,6.70247,-21.4703,-24.4767
3.24148,15.8449,8.63315,5.1247,-116.763,-6.54255,12.2939,8.93527,-9.49477,11.0695,9.54509,18.0973,-0.348013,3.56898,24.8758,-11.1149,1.29536,-11.0129,8.46265,4.47263,-17.3981,4.68024,0.365694,-3.38122,-4.29375e-14,-6.36111e-15,2.60821,14.2859,-52.6839,127.47,8.50366,-16.7753,21.4672,7.12502,9.4522,-8.30087,-4.29375e-14,-6.36111e-15,0.129872,1.76862,116.188,132.601,11.8602,-9.37639,7.91068,7.12502,16.5841,37.2221,-34.9982,-3.11554,1.86999,63.8637,-21.1289,2.98343,-11.9864,-15.486,5.25475,-4.1551,69.8537,8.63471,-21.2131,-25.6411
3.18809,15.9424,8.7148,5.60489,-116.202,-6.24448,11.7844,8.66597,-8.99176,10.5047,9.33919,17.868,-0.434962,3.55811,24.3159,-11.0534,1.44433,-11.3257,8.83321,4.77915,-17.5306,4.80032,0.450828,-3.35902,-4.45278e-14,-5.725e-14,1.88252,14.4122,-52.6625,127.73,8.28328,-16.6539,21.5827,7.12502,9.56933,-8.18001,-4.45278e-14,-5.725e-14,0.547569,0.962152,116.634,132.47,10.9089,-8.47756,8.14195,7.12502,17.4493,37.3788,-34.7238,-3.3236,1.78295,62.2177,-19.983,2.976,-11.2534,-17.1962,4.93789,-4.16261,69.6849,10.1805,-21.4709,-24.551
3.12371,16.0705,8.75707,5.58566,-115.964,-6.10439,11.6132,8.59832,-8.82135,10.2679,9.33213,17.6229,-0.504528,3.60724,23.8652,-11.0604,1.51476,-11.6007,9.11696,4.9619,-17.4944,4.89416,0.498198,-3.29643,-1.74931e-14,3.18055e-15,0.983256,14.6762,-53.101,127.943,8.91362,-17.1889,21.4036,7.12502,9.05306,-8.3821,-1.74931e-14,3.18055e-15,0.156987,-0.611051,115.49,132.34,9.76795,-9.36117,7.8065,7.12502,16.5988,37.1167,-33.5791,-2.73309,1.72008,60.5649,-19.0756,2.17353,-12.5868,-17.5396,5.04608,-3.98147,69.1017,11.601,-23.5073,-21.1678
3.06516,16.1952,8.79082,5.79857,-115.843,-6.15045,11.3325,8.56002,-8.82584,10.1052,9.35682,17.2904,-0.458748,3.65493,23.431,-11.1347,1.47913,-11.8604,9.13536,4.95091,-17.292,4.90144,0.492936,-3.19394,-1.20861e-13,-2.03555e-13,0.204606,14.9106,-53.7014,128.141,9.1883,-17.0771,21.4329,7.12502,9.16099,-8.34811,-1.20861e-13,-2.03555e-13,-0.0445473,-1.99587,114.222,132.109,8.80124,-10.3269,7.40844,7.12502,15.6688,36.794,-32.6497,-2.03645,1.57705,59.0562,-18.0706,1.62702,-13.5024,-17.8339,5.13067,-3.91038,68.4581,12.4285,-25.0229,-19.1936
3.01389,16.3186,8.82422,5.95479,-115.81,-6.19891,11.1214,8.54509,-8.79205,10.026,9.39737,16.9263,-0.35568,3.69646,22.9228,-11.3864,1.4828,-12.3023,9.25662,5.05734,-16.7888,4.96229,0.543988,-2.96032,-7.95139e-15,-7.31528e-14,-0.55188,15.2312,-54.4636,128.293,9.35771,-16.8901,21.443,7.12502,9.3414,-8.33,-7.95139e-15,-7.31528e-14,-0.531933,-3.82782,112.198,131.924,7.77483,-12.3163,6.98041,7.12502,13.7522,36.5059,-31.8619,-1.04849,1.46643,57.7011,-16.8599,0.895208,-14.3581,-18.0353,5.25877,-3.86594,67.6949,11.4355,-25.08,-21.1308
2.96774,16.4447,8.87718,6.43435,-115.846,-6.45512,10.9293,8.5397,-8.80949,9.90828,9.45552,16.5414,-0.316336,3.75699,22.4166,-11.723,1.62648,-12.79,9.54043,5.41922,-16.421,5.1006,0.682246,-2.74538,7.95139e-15,4.77083e-14,-1.33391,15.6644,-55.0983,128.357,10.0008,-17.2924,21.3436,7.12502,8.95321,-8.44647,7.95139e-15,4.77083e-14,-0.024557,-4.57166,111.861,131.832,7.26655,-12.7659,7.18216,7.12502,13.3188,36.7365,-31.4291,0.0742305,1.26288,56.5029,-15.4021,-0.398852,-16.2566,-18.4411,5.44775,-4.04689,66.9526,9.3555,-23.9307,-24.2207
2.92404,16.5602,8.95168,7.26438,-115.82,-7.00559,10.7256,8.58582,-9.11752,9.73758,9.58111,16.2569,-0.428669,3.86618,22.2207,-11.8712,1.70893,-13.0498,9.66421,5.62945,-16.5776,5.17458,0.734059,-2.74257,6.83819e-14,3.18055e-15,-2.19815,16.0459,-55.3514,128.376,10.3471,-17.663,21.5379,7.12502,8.59556,-8.26711,6.83819e-14,3.18055e-15,1.12951,-4.59656,112.829,131.47,6.97578,-11.6784,7.31362,7.12502,14.3669,36.7965,-31.1838,1.05053,0.795176,55.4107,-13.8386,-1.30597,-15.9964,-19.0128,5.3575,-4.53631,66.1483,8.12775,-22.6887,-17.6194
2.86502,16.6733,9.02946,8.22968,-115.351,-7.75218,10.4411,8.46336,-9.52429,9.51858,9.47,16.0867,-0.486146,3.84196,22.3266,-11.7587,1.78374,-13.292,9.56705,5.73949,-16.9358,5.13793,0.755343,-2.81362,-2.54444e-14,-6.99722e-14,-3.24187,16.6777,-55.6004,128.519,10.2169,-17.6027,21.9067,7.12502,8.65374,-7.89595,-2.54444e-14,-6.99722e-14,1.77319,-4.77308,113.109,131.27,6.45843,-11.2701,7.25822,7.12502,14.7602,36.7127,-30.6307,1.70623,0.194858,54.3636,-12.4274,-2.11793,-13.6112,-19.6652,4.9231,-5.16026,65.2519,7.75387,-22.8168,-17.515
2.80948,16.7971,9.04078,8.44337,-115.431,-8.1549,10.279,8.61059,-10.5212,9.56453,9.67052,15.9752,-0.580274,3.95022,22.8065,-11.7634,1.935,-13.6828,9.61046,6.0057,-16.9413,5.15309,0.857588,-2.73851,5.88403e-14,1.39944e-13,-4.4397,17.502,-56.2552,128.694,10.2348,-17.8624,21.7007,7.12502,8.40312,-8.11218,5.88403e-14,1.39944e-13,2.26075,-5.14562,112.719,131.136,6.14816,-11.3784,7.20531,7.12502,14.6559,36.6674,-29.7226,3.48558,0.0628805,53.53,-11.1766,-3.91205,-12.249,-19.2594,5.40425,-5.2986,64.0527,5.60805,-20.416,-21.4806
2.75558,16.9085,9.08074,7.96258,-115.23,-7.68738,10.2481,8.66328,-10.5954,9.49049,9.77686,15.8,-0.661775,4.03212,22.5848,-11.9659,2.06571,-13.7473,9.9092,6.29967,-16.9248,5.29099,0.955108,-2.70238,-2.8625e-14,-9.54166e-15,-6.07633,18.4153,-57.4949,128.879,10.6818,-18.4723,21.4752,7.12502,7.81448,-8.36038,-2.8625e-14,-9.54166e-15,2.74894,-5.54938,111.998,131.123,6.09975,-11.41,7.08048,7.12502,14.6255,36.5447,-28.9394,4.68887,0.450303,52.9286,-9.8436,-5.75358,-11.2914,-19.2454,5.68405,-5.08232,62.9008,5.05171,-19.3832,-18.4101
2.70056,16.9947,9.12794,7.86289,-114.906,-7.48029,9.99762,8.66246,-10.7832,9.38771,9.82489,15.6173,-0.643293,4.07644,22.4837,-11.8986,2.18922,-13.6872,9.9662,6.4642,-16.92,5.3025,1.03906,-2.69638,-8.5875e-14,-1.04958e-13,-7.87205,19.4359,-58.8393,128.991,11.1347,-18.8925,21.6126,7.12502,7.40891,-8.2377,-8.5875e-14,-1.04958e-13,3.2197,-5.63006,111.017,131.234,5.70332,-12.2964,7.12315,7.12502,13.7714,36.6474,-28.4252,5.56815,0.696675,52.6743,-8.71813,-7.30042,-8.43951,-19.5718,5.9867,-5.04047,61.7426,2.56572,-16.2097,-21.8792
2.64566,17.0714,9.16659,9.78575,-114.567,-9.24121,9.41349,8.57799,-11.9894,9.25269,9.78104,15.2156,-0.551947,4.06461,22.842,-11.7375,2.29843,-14.0311,9.85912,6.58242,-16.5613,5.21782,1.13637,-2.52172,4.45278e-14,1.59028e-14,-8.98705,19.8989,-59.3063,128.921,10.4264,-18.7917,21.6187,7.12502,7.50624,-8.22808,4.45278e-14,1.59028e-14,4.09489,-5.90266,110.361,130.957,4.73567,-13.2814,7.24858,7.12502,12.822,36.8348,-28.2168,6.2161,0.0095252,52.8588,-8.2359,-8.00198,-4.53585,-20.1285,6.25507,-5.95465,60.5376,0.98625,-13.5432,-22.1361
2.58255,17.1365,9.19669,11.9403,-113.65,-11.4035,8.9381,8.31218,-13.2063,9.05434,9.49239,14.8217,-0.467226,3.92547,23.2679,-11.9689,2.27241,-14.678,10.2399,6.71451,-15.9696,5.34359,1.16678,-2.23078,6.52014e-14,1.08139e-13,-9.92904,20,-59.4053,128.764,9.69639,-18.4672,21.6908,7.12502,7.81944,-8.14461,6.52014e-14,1.08139e-13,5.2827,-6.45226,110.084,130.392,3.95869,-12.8334,7.0479,7.12502,13.2537,36.6065,-27.5648,6.07113,-0.654598,53.5109,-8.62481,-7.28301,-0.964944,-20.5792,6.04166,-6.83652,59.2839,0.164327,-11.4692,-21.0566
2.51681,17.1781,9.22229,13.3032,-112.772,-12.9729,8.6384,8.10902,-14.1018,8.92694,9.27062,14.487,-0.389548,3.81433,23.5129,-12.1455,2.18213,-15.2333,10.6665,6.73426,-15.2547,5.46883,1.15855,-1.92282,-1.90833e-14,8.90555e-14,-11.3889,20.5121,-60.3282,128.512,10.2465,-18.7561,21.898,7.12502,7.54055,-7.94764,-1.90833e-14,8.90555e-14,6.42247,-6.71088,109.332,130.054,3.71771,-12.2788,6.7499,7.12502,13.7883,36.273,-26.7775,5.58777,-0.875864,54.6955,-9.32144,-5.1996,-0.827449,-20.712,5.96125,-7.35573,58.0306,-0.665708,-9.67595,-22.9258
2.45847,17.2013,9.24201,13.8873,-111.911,-13.6275,8.32702,7.93827,-14.6454,8.77305,9.1066,14.1288,-0.299599,3.74057,23.4721,-11.9747,2.1166,-15.5048,10.6911,6.58425,-14.3408,5.39648,1.17169,-1.60444,-5.88403e-14,-1.7175e-13,-12.8409,20.9493,-61.5207,128.234,10.2747,-19.1004,21.9218,7.12502,7.20819,-7.93546,-5.88403e-14,-1.7175e-13,7.45936,-6.789,107.958,129.878,3.70955,-12.7588,6.63789,7.12502,13.3256,36.1918,-26.2431,5.221,-0.507131,56.3281,-10.1079,-2.7041,-2.95703,-21.0152,6.05219,-7.40249,56.8333,-1.20589,-8.16794,-25.3697
2.40647,17.2132,9.25561,14.2367,-110.941,-14.0067,8.12272,7.85113,-15.1208,8.53569,9.05763,13.7807,-0.406503,3.76274,23.3395,-11.7055,2.04146,-15.5116,10.796,6.38806,-13.5562,5.34692,1.15938,-1.36978,1.27222e-14,8.5875e-14,-14.3136,20.8563,-62.5371,127.98,9.54488,-18.6462,22.0738,7.12502,7.64668,-7.76794,1.27222e-14,8.5875e-14,8.12477,-7.08491,106.848,129.43,3.89364,-13.2011,6.13243,7.12502,12.8993,35.7138,-25.7779,4.9639,0.109559,58.2156,-10.9306,-0.15527,-3.26437,-21.4426,6.14807,-7.23103,55.6469,-1.19751,-7.06255,-26.0008
2.35567,17.2134,9.26681,14.4886,-109.818,-14.4535,8.17547,7.74086,-15.6047,8.29521,8.93288,13.5561,-0.649224,3.75541,23.3598,-11.4538,1.99588,-15.629,11.0126,6.28787,-13.1033,5.352,1.13769,-1.21871,4.13472e-14,1.33583e-13,-16.0522,21.0686,-64.0588,127.624,9.53321,-17.792,22.6831,7.12502,8.47111,-7.12699,4.13472e-14,1.33583e-13,8.62553,-7.28136,106.246,128.8,4.47231,-13.6512,5.25951,7.12502,12.4654,34.8678,-25.0482,4.59357,0.808984,60.0925,-11.64,2.31087,-1.96696,-21.7497,6.14456,-7.05391,54.4443,-1.09864,-6.48872,-26.755
2.3029,17.2025,9.27086,14.6643,-108.498,-14.9957,8.4229,7.49277,-15.9948,8.10685,8.57903,13.3261,-0.813562,3.60827,23.3512,-11.3328,1.99469,-15.9269,11.2294,6.28378,-12.4832,5.36873,1.16154,-0.980802,-5.08889e-14,3.49861e-14,-17.8493,21.9902,-66.1652,127.173,11.039,-18.7045,22.5342,7.12502,7.59041,-7.30957,-5.08889e-14,3.49861e-14,10.372,-7.13904,105.906,128.527,5.44432,-13.95,5.64421,7.12502,12.1773,35.2698,-23.8765,4.05178,1.6306,61.6606,-12.1131,4.39585,1.29844,-21.9194,6.01646,-6.87071,53.2197,-1.03074,-6.64949,-28.5866
2.24545,17.1823,9.27004,14.0433,-106.898,-14.5521,8.61119,7.162,-15.8942,7.79332,8.1402,13.0673,-0.965875,3.43658,23.0097,-11.3249,1.99305,-16.2065,11.7064,6.30783,-11.4483,5.4711,1.20853,-0.609852,-3.18055e-14,2.22639e-14,-19.774,23.1436,-68.2319,126.746,14.0007,-22.3079,20.7487,7.12502,4.11149,-9.19136,-3.18055e-14,2.22639e-14,13.8125,-6.76583,106.353,128.803,6.54109,-12.2899,7.69916,7.12502,13.7777,37.2229,-22.5318,3.2532,2.92593,62.6982,-12.1459,5.72804,6.82953,-22.3262,5.85167,-6.25782,52.0084,-0.684757,-7.49024,-29.8421
2.18133,17.1499,9.27701,12.6271,-105.327,-13.1905,8.65196,6.88346,-15.6272,7.43758,7.79875,12.9539,-1.14221,3.32482,22.7504,-11.2485,1.92099,-16.6475,12.2495,6.24409,-10.4594,5.58542,1.1941,-0.237248,-9.54166e-15,6.36111e-14,-20.9199,22.5299,-68.958,126.959,9.65469,-17.0519,22.5651,7.12502,9.18525,-7.21483,-9.54166e-15,6.36111e-14,14.9332,-6.5412,105.976,128.644,7.27555,-11.9146,7.50779,7.12502,14.1393,37.0067,-21.0507,2.53131,4.4932,63.0286,-11.7917,6.06048,4.27303,-22.8473,5.78226,-5.45878,50.873,0.110555,-8.41668,-30.2508
2.10853,17.1039,9.28947,13.2326,-104.011,-13.998,8.58896,6.71862,-16.0084,7.22137,7.59694,12.7944,-1.25171,3.259,22.8356,-11.1213,1.73292,-17.4724,12.5948,6.02847,-9.50323,5.62873,1.10213,0.166643,3.4191e-14,7.63333e-14,-23.0432,23.4796,-72.016,125.682,14.6965,-21.2733,22.5789,7.12502,5.1105,-7.33946,3.4191e-14,7.63333e-14,16.101,-6.59702,105.769,128.407,7.23624,-12.3035,7.54868,7.12502,13.7645,37.0734,-19.2959,1.75853,5.3438,62.5975,-11.5414,5.87959,-2.18781,-23.284,5.58967,-5.51025,49.8965,1.20843,-9.0695,-31.0831
2.03017,17.0467,9.30711,11.8579,-102.446,-12.6977,8.54612,6.50965,-15.6203,6.96617,7.35755,12.7394,-1.32522,3.17773,22.5644,-11.1826,1.48371,-18.5032,13.0532,5.79194,-8.29655,5.73349,0.994028,0.681312,3.49861e-14,7.95139e-14,-24.4961,23.1614,-73.6474,125.813,13.1411,-18.8468,22.7741,7.12502,7.45306,-7.07461,3.49861e-14,7.95139e-14,17.3176,-7.0155,105.46,127.886,6.38402,-13.4627,7.63359,7.12502,12.6472,37.2307,-17.3307,0.879195,6.77508,61.4194,-12.056,5.37797,-7.30731,-23.9771,5.52263,-5.06434,49.231,2.05216,-10.0058,-32.7653
1.95066,16.976,9.33764,3.94171,-100.639,-4.96083,8.90173,6.22936,-13.7718,6.64705,7.02846,12.9131,-1.52467,3.06906,21.6125,-11.4194,1.25976,-19.1228,13.767,5.61439,-7.1913,5.96393,0.898811,1.11725,7.87187e-14,6.04305e-14,-26.0725,23.2089,-74.823,126.061,12.1344,-18.6238,22.4482,7.12502,7.66823,-7.39276,7.87187e-14,6.04305e-14,18.3551,-7.50958,105.036,127.213,5.3404,-14.5027,7.70764,7.12502,11.6444,37.3641,-14.8384,0.179212,9.47224,59.6489,-13.7314,4.44948,3.75133,-24.5789,5.86166,-3.37798,48.9626,1.82363,-11.3662,-32.0091
1.86696,16.9103,9.36876,-5.23878,-99.0927,3.93314,9.24213,5.88802,-12.1908,6.37862,6.62258,12.9909,-1.65102,2.89915,20.7301,-11.5685,1.1757,-19.274,14.2577,5.54707,-6.50554,6.12438,0.872723,1.36121,-4.85035e-14,-6.99722e-14,-27.607,23.5499,-76.3462,126.245,11.808,-19.0714,22.1007,7.12502,7.23627,-7.75555,-4.85035e-14,-6.99722e-14,19.2242,-7.95751,104.916,126.721,4.78269,-14.1055,7.66867,7.12502,12.0273,37.3031,-12.1187,-0.628504,11.9275,57.631,-16.9126,-1.8043,-3.40864,-25.0438,6.14149,-2.0335,49.0903,0.657986,-12.2476,-29.2197
1.7775,16.8675,9.38823,-12.6609,-97.831,11.2216,9.39232,5.54331,-11.5264,5.91248,6.19064,12.6691,-1.57059,2.68637,20.6592,-11.5559,1.22418,-19.4638,14.3251,5.59576,-6.04821,6.1189,0.925609,1.54033,-6.36111e-15,4.77083e-14,-28.8043,23.8896,-77.4596,126.608,11.7085,-18.9363,22.0374,7.12502,7.36664,-7.81437,-6.36111e-15,4.77083e-14,19.9599,-7.64836,104.759,126.681,5.51647,-12.4497,7.65398,7.12502,13.6236,37.1882,-9.7473,-1.46675,13.6296,55.6799,-17.8795,-8.25153,-16.9517,-25.5318,6.07274,-1.37848,49.5083,-0.722993,-12.2966,-30.326
1.68812,16.8302,9.41203,-19.2984,-96.6928,17.8255,9.2229,5.33439,-11.3734,5.6097,5.96646,12.5476,-1.68762,2.61807,20.4352,-11.2642,1.22961,-19.185,14.3745,5.48278,-5.92584,6.0895,0.905679,1.5301,-8.0309e-14,-8.26944e-14,-29.8939,23.9535,-76.7163,127.781,10.1762,-18.9559,21.7881,7.12502,7.3477,-8.06427,-8.0309e-14,-8.26944e-14,20.4353,-7.50953,104.127,126.575,5.78834,-12.6081,7.93558,7.12502,13.471,37.4799,-7.92334,-2.02202,14.5731,54.0526,-19.2498,-10.1442,-11.8508,-25.9121,5.59847,-1.18712,50.0565,-2.3345,-11.9777,-34.5251
1.60265,16.7891,9.45423,-25.9206,-95.47,24.4282,9.07315,5.54416,-11.2387,5.22184,6.34512,12.0904,-2.12899,2.91535,19.6358,-10.7171,0.836232,-17.5166,14.545,4.63511,-6.14147,6.12325,0.586026,1.15685,-7.15625e-15,1.59028e-14,-31.9809,23.2573,-79.4856,127.881,12.2884,-19.9167,21.8144,7.12502,6.42025,-8.06824,-7.15625e-15,1.59028e-14,20.8025,-8.46716,103.586,126.723,8.52123,-10.6039,8.31961,7.12502,15.402,37.7259,-6.57491,-2.30539,14.9439,52.8617,-21.2915,-9.3167,-3.06249,-26.1754,4.83316,-1.44356,50.5541,-4.2,-11.7214,-36.7316
1.52058,16.7485,9.5103,-35.3735,-94.3502,33.8238,9.40069,3.66307,-10.527,4.9618,3.74687,12.434,-1.49055,1.49003,20.0989,-11.2466,1.98747,-22.468,14.0901,6.71423,-4.14758,5.77361,1.49166,2.63474,-2.54444e-14,-9.85972e-14,-32.4598,29.4935,-80.6958,128.265,13.3259,-20.97,21.409,7.12502,5.40334,-8.5021,-2.54444e-14,-9.85972e-14,21.1053,-3.06093,102.699,127.264,9.09714,-10.0528,8.28349,7.12502,15.9328,37.6481,-5.4956,-2.49304,15.2578,52.1403,-21.8656,-10.5458,-1.98539,-26.3256,3.77787,-1.60915,50.8566,-5.61088,-11.7742,-34.9296
1.43935,16.7227,9.56492,-48.4499,-93.5941,47.0741,9.20057,4.05062,-9.5085,5.27968,4.37456,11.7983,-1.18283,1.79607,18.4447,-13.9349,0.911773,-21.4908,15.3042,5.97753,-3.67689,6.6919,1.0801,2.67272,3.97569e-15,1.90833e-14,-31.9308,28.2513,-80.1991,129.725,13.2355,-21.8687,20.7492,7.12502,4.53555,-9.1822,3.97569e-15,1.90833e-14,22.8471,-4.69949,101.627,127.156,10.5727,-9.29587,8.41581,7.12502,16.6616,37.7207,-4.9555,-2.85375,15.7218,51.8976,-20.6003,-14.0746,-8.93104,-26.4459,2.68194,-1.49563,50.6928,-6.50936,-12.0933,-32.6297
1.35658,16.6963,9.62256,-60.6956,-93.0787,59.6145,8.807,3.88126,-10.08,4.68881,4.20264,11.5253,-1.55603,1.80081,18.5053,-13.0661,1.28311,-19.9061,15.4563,6.07079,-4.37047,6.63819,1.15963,2.22328,2.38542e-15,4.77083e-14,-33.5465,29.1993,-80.3015,131.926,11.8316,-21.7548,20.0929,7.12502,4.64557,-9.83614,2.38542e-15,4.77083e-14,22.0433,-4.45171,100.761,127.508,11.5059,-8.29673,8.31097,7.12502,17.6233,37.5323,-4.88707,-3.57101,15.873,52.1354,-17.1845,-17.6984,-21.2153,-26.3105,1.50336,-1.57371,50.1073,-7.61854,-12.2807,-31.9826
1.26419,16.7206,9.68902,-80.1828,-92.4716,79.2544,8.51151,4.20325,-10.3328,4.20541,4.7121,11.2602,-2.11259,2.17105,18.2428,-11.9901,0.897757,-19.2708,15.6489,5.20705,-4.47939,6.59295,0.781932,2.01686,-2.66371e-14,-6.04305e-14,-34.9977,29.1495,-84.0395,131.302,14.2098,-21.8501,20.113,7.12502,4.5535,-9.81803,-2.66371e-14,-6.04305e-14,21.3554,-5.82656,101.136,127.619,11.9837,-6.73854,8.23812,7.12502,19.1223,37.3181,-4.98696,-3.05996,15.4448,52.8542,-18.5824,-15.1722,-12.4464,-25.6324,-0.49897,-2.07705,48.9416,-8.66555,-12.1399,-30.0429
1.17861,16.7513,9.74692,-114.557,-92.4146,113.855,8.06412,4.75136,-10.4537,3.86816,5.5461,10.5607,-2.48972,2.68406,17.2852,-11.4621,0.119091,-16.9015,16.0075,3.7486,-4.85948,6.74246,0.191446,1.42969,1.27222e-14,0,-35.8221,27.3346,-83.6009,133.286,13.2385,-22.2653,19.7868,7.12502,4.15255,-10.1525,1.27222e-14,0,21.0928,-8.78187,101.391,127.561,13.0921,-4.76285,8.65341,7.12502,21.0213,37.5341,-5.39064,-3.20567,15.2143,53.978,-16.9543,-15.2348,-12.6686,-25.1653,-2.69908,-2.58676,47.5787,-9.77781,-11.8246,-30.7294
1.0978,16.8018,9.77787,-135.531,-93.2257,135.102,7.76839,4.13739,-10.3982,3.76917,4.73762,10.4661,-2.11594,2.2438,17.2807,-12.1247,0.264661,-18.0181,16.3025,4.19162,-4.01381,6.89403,0.375195,1.91584,2.46493e-14,3.49861e-14,-35.5134,29.7576,-83.6827,134.561,13.3853,-22.4332,19.52,7.12502,3.99048,-10.4223,2.46493e-14,3.49861e-14,20.8499,-8.38048,101.373,127.765,13.5851,-4.04946,8.92489,7.12502,21.7065,37.7279,-6.19928,-3.75777,15.4234,55.4127,-13.2515,-16.4671,-16.0456,-24.6797,-4.38695,-2.67493,46.0403,-10.7224,-11.4472,-33.3725
1.03958,16.8564,9.84199,-152.202,-95.1507,152.084,7.92842,3.5904,-9.77702,3.43794,4.04635,10.1298,-2.24369,1.92421,16.542,-12.5918,0.151565,-18.0087,16.8036,4.09809,-3.34734,7.12409,0.351837,2.13679,-1.15295e-14,-6.52014e-14,-35.5579,31.047,-84.3106,135.774,14.1867,-21.9487,19.5462,7.12502,4.45829,-10.3869,-1.15295e-14,-6.52014e-14,20.2927,-9.58135,101.007,127.307,10.7897,-7.23327,8.37134,7.12502,18.6465,37.4976,-7.23654,-5.33845,15.4513,57.045,-9.50631,-16.5777,-15.9211,-24.8496,-6.70594,-2.73347,44.6544,-10.2614,-11.4587,-30.9935
0.983956,16.9314,9.88944,-157.273,-97.0698,157.351,8.17368,3.42846,-9.32428,3.13817,3.86862,9.82218,-2.59268,1.88366,15.8766,-12.8028,-0.106074,-17.3826,17.242,3.63602,-2.75728,7.32094,0.203163,2.20675,-2.38542e-14,-7.79236e-14,-35.4128,31.4353,-84.0982,137.083,15.2557,-21.3812,19.9134,7.12502,5.00632,-10.0074,-2.38542e-14,-7.79236e-14,19.7402,-10.9591,100.684,126.979,9.91135,-8.5909,7.99441,7.12502,17.3402,37.2409,-8.44575,-6.27559,15.7721,58.7233,-6.02536,-16.0967,-12.7447,-24.803,-8.13245,-2.62432,43.3387,-9.48143,-11.7543,-27.3707
0.927749,17.0151,9.92547,-158.078,-99.0588,158.315,8.22972,3.33669,-8.46754,3.0036,3.81696,9.43314,-2.67232,1.87044,14.8495,-13.0221,-0.469326,-16.4701,17.4802,2.93523,-2.06404,7.46663,-0.00630837,2.24144,-2.38542e-15,3.81667e-14,-34.156,31.1875,-82.9116,138.205,16.9067,-20.9758,20.0478,7.12502,5.39776,-9.86346,-2.38542e-15,3.81667e-14,19.4204,-12.6413,100.164,126.78,10.4202,-8.31647,7.5626,7.12502,17.6043,36.7856,-9.89816,-7.05936,16.5256,60.428,-1.77166,-15.6931,-5.01128,-24.7763,-8.99399,-2.23212,42.0693,-8.97415,-12.013,-27.2799
0.883328,17.1076,9.95742,-161.093,-101.103,161.303,8.53056,2.95189,-7.4471,3.15202,3.35143,8.76096,-2.43787,1.60617,13.4548,-13.7143,-0.766292,-16.0478,17.5783,2.44663,-1.08234,7.62678,-0.111105,2.46518,3.57812e-15,-1.00187e-13,-31.8827,31.5405,-81.3655,139.113,19.5501,-20.833,19.5321,7.12502,5.53561,-10.3756,3.57812e-15,-1.00187e-13,19.469,-14.2053,99.3132,126.574,10.8227,-8.14788,7.53896,7.12502,17.7665,36.7473,-11.2779,-8.05877,16.7805,62.1819,1.94606,-15.2392,3.94676,-24.6132,-9.93786,-2.30668,40.5891,-7.7837,-12.5193,-26.3467
