JuanDHNZ/ProyectoFinalCD/preprocessing/sports_trials_csv/42_01.csv
root1,root2,root3,root4,root5,root6,lowerback1,lowerback2,lowerback3,upperback1,upperback2,upperback3,thorax1,thorax2,thorax3,lowerneck1,lowerneck2,lowerneck3,upperneck1,upperneck2,upperneck3,head1,head2,head3,rclavicle1,rclavicle2,rhumerus1,rhumerus2,rhumerus3,rradius1,rwrist1,rhand1,rhand2,rfingers1,rthumb1,rthumb2,lclavicle1,lclavicle2,lhumerus1,lhumerus2,lhumerus3,lradius1,lwrist1,lhand1,lhand2,lfingers1,lthumb1,lthumb2,rfemur1,rfemur2,rfemur3,rtibia1,rfoot1,rfoot2,rtoes1,lfemur1,lfemur2,lfemur3,ltibia1,lfoot1,lfoot2,ltoes1
-0.802987,17.5261,0.048505,11.2241,-7.60028,3.37783,-21.5922,1.65355,-1.90673,5.11447,3.15782,-2.13852,18.3447,1.34205,-0.27668,18.8406,-3.44179,-9.28991,0.738063,-5.8962,14.3024,-2.12037,-3.5855,6.36338,1.59028e-15,1.98785e-14,-20.7232,-62.8412,-63.7044,34.4105,5.94039,-22.7131,22.4603,7.12502,3.72015,-7.48696,1.59028e-15,1.98785e-14,-10.5863,49.6845,66.7578,43.1502,3.66944,-22.6943,31.7527,7.12502,3.73827,61.6997,-21.3238,-8.31987,9.90443,29.4083,-15.9799,-14.7907,-21.2381,-13.3957,-9.91809,-16.3052,19.9668,-24.691,25.9821,-9.7743
-0.803773,17.5276,0.0488872,11.2416,-7.59413,3.40863,-21.7636,1.63977,-1.96666,5.19313,3.16612,-2.13508,18.5501,1.33512,-0.230956,18.7216,-3.42176,-8.65252,0.48752,-5.72447,13.6899,-2.22596,-3.47205,6.05319,-2.93207e-15,1.94809e-14,-20.4056,-63.332,-63.8656,34.2221,6.18616,-22.1534,22.8383,7.12502,4.26062,-7.09884,-2.93207e-15,1.94809e-14,-10.2186,49.9206,67.0389,42.9865,3.47711,-22.7341,31.7002,7.12502,3.69989,61.6478,-21.2866,-8.26896,9.87311,29.371,-16.0401,-14.556,-21.4523,-13.4789,-9.94097,-16.3139,20.016,-24.5018,26.1592,-10.3457
-0.803883,17.5276,0.0483102,11.2346,-7.61088,3.42997,-21.8456,1.63037,-2.00029,5.25048,3.16944,-2.13712,18.6739,1.33086,-0.210859,18.6235,-3.42723,-8.05401,0.338292,-5.61013,13.0377,-2.29587,-3.38478,5.73956,3.47873e-16,-8.54774e-15,-20.1495,-63.4001,-64.105,34.2148,6.13373,-22.034,22.8785,7.12502,4.37592,-7.05624,3.47873e-16,-8.54774e-15,-10.119,49.9689,67.1156,42.977,3.36221,-22.4272,31.4626,7.12502,3.99624,61.4049,-21.3014,-8.25251,9.84933,29.3707,-16.033,-14.356,-21.475,-13.4714,-9.98088,-16.3348,20.0153,-24.4654,26.2436,-9.99212
-0.802576,17.5269,0.0466614,11.2273,-7.66931,3.43448,-21.8771,1.64989,-1.99027,5.27709,3.19745,-2.14859,18.7295,1.34424,-0.218897,18.5714,-3.43595,-7.60997,0.222207,-5.53314,12.5704,-2.35077,-3.32555,5.51438,-1.0138e-14,-1.25234e-14,-20.0493,-63.2695,-64.2481,34.2648,5.95185,-22.0553,22.8323,7.12502,4.35536,-7.10289,-1.0138e-14,-1.25234e-14,-10.0875,49.9007,67.1186,42.9683,3.24061,-22.1202,31.237,7.12502,4.29271,61.1735,-21.3407,-8.21237,9.84182,29.3595,-15.9626,-14.2149,-21.5838,-13.4655,-9.98305,-16.3479,20.0279,-24.7019,26.142,-9.3566
-0.800819,17.5259,0.0462222,11.214,-7.67459,3.42058,-21.844,1.6516,-1.96243,5.25944,3.18871,-2.1441,18.687,1.34398,-0.23354,18.5247,-3.43341,-7.31889,0.230038,-5.47997,12.2334,-2.3602,-3.28255,5.35511,4.79071e-14,-9.34288e-15,-20.1707,-63.1175,-64.1523,34.2941,5.84179,-22.0175,22.8069,7.12502,4.39186,-7.12754,4.79071e-14,-9.34288e-15,-10.1588,49.8639,67.0659,42.977,3.15078,-22.0851,31.2979,7.12502,4.32664,61.2337,-21.3077,-8.20517,9.84662,29.3495,-16.0187,-14.0132,-21.2133,-13.4554,-9.93876,-16.3385,20.0338,-24.7464,26.0378,-9.22728
-0.79991,17.525,0.0464801,11.1932,-7.65984,3.44232,-21.7637,1.63549,-1.98334,5.20014,3.1697,-2.15889,18.56,1.33675,-0.248332,18.5427,-3.42119,-7.06006,0.285765,-5.42489,11.9615,-2.36311,-3.24292,5.22324,-1.59028e-14,2.82274e-14,-20.4578,-62.8947,-63.9962,34.4286,5.67944,-22.0023,22.702,7.12502,4.40659,-7.23213,-1.59028e-14,2.82274e-14,-10.3798,49.7757,66.8759,43.0395,3.13985,-22.3174,31.7392,7.12502,4.1023,61.6795,-21.2515,-8.10805,9.79906,29.3352,-15.9839,-13.9778,-20.9913,-13.4406,-9.94438,-16.3692,20.0526,-24.4729,26.1744,-10.1097
-0.799039,17.5255,0.045342,11.1908,-7.68826,3.43659,-21.7264,1.64225,-1.96163,5.17032,3.17219,-2.17319,18.5005,1.34252,-0.277639,18.5372,-3.43169,-6.87804,0.32527,-5.41078,11.7687,-2.35971,-3.22664,5.13084,1.05356e-14,-1.15295e-14,-20.5732,-62.7008,-64.0039,34.55,5.48876,-21.8785,22.7371,7.12502,4.52614,-7.19457,1.05356e-14,-1.15295e-14,-10.4771,49.7218,66.7541,43.0938,3.16756,-22.5476,32.2947,7.12502,3.87993,62.2391,-21.2652,-8.06681,9.78917,29.3445,-15.9135,-13.9211,-20.7219,-13.4327,-9.97584,-16.3719,20.0346,-24.4027,26.295,-10.4339
-0.797964,17.5266,0.0423765,11.2057,-7.71945,3.44521,-21.7492,1.6451,-1.96376,5.20845,3.17936,-2.17318,18.5637,1.34444,-0.273172,18.3906,-3.4625,-6.82836,0.382851,-5.44272,11.695,-2.31967,-3.23429,5.09509,-4.91992e-15,8.54774e-15,-20.3436,-62.67,-64.2004,34.553,5.41588,-21.7146,22.8323,7.12502,4.6844,-7.09592,-4.91992e-15,8.54774e-15,-10.2947,49.7778,66.8459,43.0508,3.25243,-22.7737,32.5892,7.12502,3.66167,62.5375,-21.3438,-8.13714,9.78474,29.4251,-15.9572,-13.8093,-20.1822,-13.3948,-9.98268,-16.3861,19.9039,-24.558,26.217,-9.65663
-0.796635,17.5209,0.0409727,11.2005,-7.72324,3.45453,-21.7611,1.63846,-1.95489,5.24612,3.1715,-2.18134,18.6207,1.34197,-0.290505,18.2322,-3.48284,-6.87418,0.461446,-5.4764,11.7659,-2.26657,-3.24881,5.11984,5.36719e-15,1.64991e-14,-20.1739,-62.6241,-64.3771,34.5728,5.37842,-21.6522,22.8969,7.12502,4.7446,-7.03,5.36719e-15,1.64991e-14,-10.1336,49.9893,66.9221,42.9962,3.18204,-22.7439,32.4614,7.12502,3.69041,62.4092,-21.4095,-8.29076,9.787,29.5356,-16.0306,-13.7024,-19.7029,-13.2004,-9.90019,-16.4176,19.7357,-25.3728,25.3878,-6.39734
-0.795811,17.5093,0.0416278,11.1756,-7.77134,3.50444,-21.8054,1.63676,-1.99905,5.26792,3.18516,-2.18325,18.6745,1.34209,-0.261446,18.1152,-3.47407,-6.98269,0.530626,-5.48482,11.856,-2.22297,-3.25279,5.16104,-5.06901e-15,-3.18055e-15,-20.1047,-62.5275,-64.409,34.5484,5.31643,-21.8066,22.9286,7.12502,4.59556,-7.00154,-5.06901e-15,-3.18055e-15,-10.0562,50.2022,66.9609,42.9236,3.06299,-22.5819,32.3126,7.12502,3.8469,62.2577,-21.4609,-8.39872,9.72274,29.6529,-16.1326,-13.5241,-19.0573,-12.8769,-9.72273,-16.5225,19.5698,-26.6768,23.9188,-0.729255
-0.791573,17.5048,0.04631,11.1477,-7.85586,3.53506,-21.9525,1.6443,-2.01736,5.30948,3.20227,-2.14834,18.8175,1.34162,-0.199406,18.1339,-3.44538,-7.09035,0.5123,-5.46799,11.8732,-2.22968,-3.24577,5.18409,-2.22639e-14,-1.78906e-15,-19.8917,-62.5817,-64.4842,34.4864,5.37054,-21.8678,22.8926,7.12502,4.53646,-7.03885,-2.22639e-14,-1.78906e-15,-10.044,50.3962,66.9969,42.8405,2.96885,-22.4447,32.2575,7.12502,3.97938,62.2001,-21.5033,-8.62068,9.675,29.755,-16.1842,-13.25,-18.8694,-12.6421,-9.9138,-16.5937,19.4064,-27.5198,23.3402,3.41397
-0.789738,17.5086,0.0483526,11.1479,-7.91276,3.54749,-22.0436,1.65233,-2.0223,5.34093,3.21891,-2.14411,18.9153,1.34607,-0.182915,18.1346,-3.46699,-7.03215,0.505235,-5.48823,11.7629,-2.23314,-3.25092,5.14094,8.54774e-15,-5.96354e-15,-19.6697,-62.6589,-64.6388,34.4635,5.40949,-21.7779,22.7855,7.12502,4.62325,-7.14404,8.54774e-15,-5.96354e-15,-9.97916,50.49,67.0176,42.7794,2.86042,-22.3635,32.1639,7.12502,4.0578,62.105,-21.5667,-8.74849,9.66949,29.8275,-16.1648,-13.1282,-19.0435,-12.5996,-10.1115,-16.5965,19.2837,-27.6525,23.5505,3.59627
-0.789281,17.5105,0.0439283,11.1729,-7.94924,3.52616,-21.9956,1.66439,-1.99294,5.34894,3.22914,-2.16669,18.8986,1.35638,-0.223879,17.9766,-3.51876,-6.83204,0.574193,-5.52101,11.586,-2.19376,-3.25427,5.04763,1.18774e-14,1.43125e-14,-19.4839,-62.7299,-64.8337,34.4246,5.45068,-21.9225,22.7231,7.12502,4.48358,-7.20943,1.18774e-14,1.43125e-14,-9.78613,50.6399,67.0984,42.7445,2.66585,-22.2685,32.0357,7.12502,4.14945,61.9751,-21.6254,-8.74326,9.69882,29.8487,-16.1521,-13.0809,-19.0818,-12.6147,-10.0386,-16.5732,19.254,-27.6653,23.4783,3.16942
-0.786103,17.5089,0.0414193,11.1897,-8.0045,3.47536,-21.9439,1.70365,-1.89669,5.35367,3.25347,-2.1737,18.8779,1.37918,-0.279198,17.8699,-3.54139,-6.92042,0.638505,-5.56538,11.7068,-2.14964,-3.27782,5.09752,-2.35063e-14,-3.97569e-14,-19.3341,-62.757,-64.9702,34.4045,5.35609,-22.5521,22.5502,7.12502,3.87563,-7.39429,-2.35063e-14,-3.97569e-14,-9.67569,50.7302,67.1762,42.778,2.58087,-22.1637,31.9932,7.12502,4.25067,61.9306,-21.6764,-8.92684,9.75515,29.8594,-16.1448,-12.8187,-19.1142,-12.5982,-9.95714,-16.5541,19.2453,-27.5904,23.4254,2.95915
-0.784571,17.5077,0.0421809,11.1827,-8.03106,3.4849,-21.9876,1.71408,-1.88427,5.41293,3.26993,-2.182,18.9837,1.38689,-0.288767,17.7162,-3.56487,-7.04751,0.687206,-5.61448,11.8604,-2.10089,-3.3039,5.1629,-2.98674e-14,2.22639e-14,-19.1062,-62.931,-65.1472,34.3909,5.4555,-23.0163,22.4856,7.12502,3.42735,-7.46664,-2.98674e-14,2.22639e-14,-9.51476,50.8041,67.3071,42.7929,2.58428,-22.1717,31.9915,7.12502,4.24295,61.9289,-21.7024,-9.00998,9.74142,29.8744,-16.1394,-12.7239,-19.2759,-12.5696,-9.90677,-16.5852,19.2195,-27.427,23.5857,1.20109
-0.786282,17.5062,0.0445539,11.1586,-8.03003,3.51781,-22.0241,1.69461,-1.94538,5.4385,3.26551,-2.18898,19.0371,1.37761,-0.263001,17.7787,-3.54808,-6.98449,0.564577,-5.57303,11.8447,-2.15323,-3.28613,5.15017,5.46658e-16,3.51849e-14,-19.1262,-63.009,-65.1426,34.4323,5.54585,-23.0153,22.5999,7.12502,3.42828,-7.35231,5.46658e-16,3.51849e-14,-9.48042,50.8514,67.316,42.8171,2.61667,-22.1954,32.0274,7.12502,4.2201,61.9654,-21.693,-8.87227,9.70624,29.893,-16.1098,-12.9102,-19.5297,-12.5263,-9.98407,-16.608,19.1875,-27.6656,23.5303,1.48839
-0.787493,17.5062,0.0440848,11.1455,-8.01816,3.52918,-21.9876,1.67608,-1.99107,5.41562,3.24891,-2.17543,18.9805,1.36479,-0.228122,17.9203,-3.52661,-7.07266,0.48309,-5.55933,11.9212,-2.1967,-3.28768,5.19438,-8.34896e-15,-9.93923e-16,-19.2149,-62.887,-65.07,34.4728,5.39443,-23.0746,22.6136,7.12502,3.37106,-7.33945,-8.34896e-15,-9.93923e-16,-9.63158,50.7496,67.2056,42.9065,2.72845,-22.1898,32.2236,7.12502,4.2255,62.1614,-21.6549,-8.61094,9.67546,29.8975,-16.1778,-13.1236,-19.3986,-12.5253,-9.97554,-16.6024,19.1745,-27.7482,23.4358,2.41452
-0.788956,17.5075,0.0404751,11.1809,-7.99255,3.52832,-21.9708,1.6564,-2.02819,5.40677,3.23076,-2.16797,18.9556,1.35237,-0.205395,17.8873,-3.5312,-7.18812,0.508391,-5.58557,12.0361,-2.17637,-3.30442,5.24917,3.97569e-16,-1.96797e-14,-19.1538,-62.7771,-65.1431,34.5035,5.22047,-23.1718,22.5169,7.12502,3.27718,-7.43764,3.97569e-16,-1.96797e-14,-9.66763,50.6308,67.2001,42.9875,2.83443,-22.2985,32.3893,7.12502,4.12052,62.3292,-21.6843,-8.53908,9.68913,29.9042,-16.1937,-13.1878,-19.3123,-12.5751,-9.8796,-16.5816,19.1607,-27.6198,23.3642,2.39513
-0.788063,17.5068,0.0386996,11.1985,-8.00544,3.5067,-21.9478,1.67209,-1.97225,5.38836,3.23896,-2.19709,18.9227,1.36567,-0.269358,17.9874,-3.52948,-7.05512,0.441004,-5.55772,11.9548,-2.21959,-3.29092,5.20521,2.90723e-14,-2.16675e-14,-19.1952,-62.6713,-65.1522,34.4884,5.09994,-23.0021,22.6073,7.12502,3.44111,-7.3447,2.90723e-14,-2.16675e-14,-9.60625,50.6854,67.2057,42.9692,2.76902,-22.4028,32.5078,7.12502,4.01982,62.4497,-21.7276,-8.69001,9.72614,29.9126,-16.1577,-13.0373,-19.3853,-12.5729,-9.82232,-16.568,19.1415,-27.6042,23.3308,2.02795
-0.78698,17.5057,0.0396271,11.1817,-8.03549,3.50378,-21.9412,1.68295,-1.94896,5.38542,3.24952,-2.21439,18.9175,1.37462,-0.299375,18.0562,-3.52406,-6.86117,0.417064,-5.51886,11.7543,-2.24966,-3.26514,5.11117,-1.94809e-14,-1.2921e-14,-19.2201,-62.5916,-65.1288,34.455,5.01966,-22.8751,22.7796,7.12502,3.56367,-7.17035,-1.94809e-14,-1.2921e-14,-9.6145,50.7395,67.1679,42.9301,2.6518,-22.49,32.5654,7.12502,3.9356,62.5088,-21.7172,-8.62858,9.71259,29.9207,-16.1524,-13.0384,-19.3938,-12.5244,-9.80497,-16.5776,19.13,-27.7629,23.2234,2.36395
-0.788793,17.5058,0.0456854,11.1522,-8.03913,3.52613,-22.0047,1.67396,-2.00153,5.40226,3.25641,-2.21586,18.9767,1.37052,-0.266978,18.0907,-3.52214,-6.92963,0.406674,-5.52817,11.831,-2.25393,-3.27424,5.14841,8.10048e-15,2.96189e-14,-19.3231,-62.6333,-65.0301,34.4841,5.05723,-22.8213,22.682,7.12502,3.61568,-7.2671,8.10048e-15,2.96189e-14,-9.74358,50.6603,67.0691,42.957,2.68387,-22.4841,32.4168,7.12502,3.94131,62.3601,-21.6469,-8.49322,9.67588,29.9083,-16.2071,-13.1474,-19.3248,-12.4863,-9.84322,-16.5989,19.154,-27.7457,23.3416,1.93511
-0.787808,17.5058,0.051245,11.1628,-8.07205,3.52788,-22.0958,1.68917,-1.9778,5.41809,3.27563,-2.22292,19.0572,1.38074,-0.279244,18.0565,-3.54298,-7.16593,0.455219,-5.59891,12.0537,-2.21687,-3.31742,5.25873,-2.64384e-14,-3.97569e-16,-19.3828,-62.6959,-64.9984,34.5553,5.08242,-22.6277,22.6487,7.12502,3.80264,-7.29715,-2.64384e-14,-3.97569e-16,-9.82057,50.4535,67.039,43.0251,2.91953,-22.648,32.581,7.12502,3.783,62.5272,-21.6487,-8.59883,9.67115,29.8815,-16.1863,-13.0402,-19.3782,-12.4928,-9.91598,-16.6168,19.1939,-27.5229,23.6649,1.0318
-0.783893,17.5051,0.0527564,11.182,-8.12203,3.5415,-22.0371,1.72515,-1.86979,5.69166,3.3162,-2.33177,18.7299,1.39342,-0.324586,18.0572,-3.55481,-7.23226,0.463517,-5.62788,12.0868,-2.20909,-3.33306,5.28129,-1.45113e-14,-5.1684e-15,-19.2797,-62.7874,-65.0879,34.5228,5.08699,-22.4153,22.897,7.12502,4.00773,-7.04506,-1.45113e-14,-5.1684e-15,-9.66444,50.4452,67.143,42.9815,2.9879,-22.7425,32.7896,7.12502,3.69173,62.7374,-21.6849,-8.85968,9.65215,29.8541,-16.1652,-12.7523,-19.4136,-12.5187,-9.98962,-16.6604,19.2298,-27.5316,23.8069,0.978345
-0.782198,17.506,0.0519484,11.1772,-8.16023,3.53319,-22.098,1.73865,-1.87608,5.4047,3.31813,-2.2571,19.0501,1.4142,-0.361675,18.109,-3.53941,-7.11419,0.416327,-5.58748,11.9274,-2.24105,-3.30804,5.21232,2.17172e-14,-9.34288e-15,-19.3294,-62.7941,-65.0105,34.5039,5.15286,-22.4066,22.8993,7.12502,4.01611,-7.04261,2.17172e-14,-9.34288e-15,-9.56701,50.5936,67.2408,42.9168,2.85366,-22.6143,32.7418,7.12502,3.81555,62.6874,-21.6766,-8.93489,9.65716,29.8284,-16.1526,-12.6273,-19.4233,-12.5504,-10.0988,-16.6505,19.2693,-27.8559,23.6845,2.02176
-0.785254,17.5075,0.0497782,11.1646,-8.13628,3.52322,-21.9865,1.714,-1.9533,5.35807,3.29513,-2.22481,18.9116,1.39458,-0.290956,18.1954,-3.49155,-7.07124,0.342129,-5.51534,11.8673,-2.28578,-3.27301,5.18705,7.70291e-15,-2.18663e-15,-19.5316,-62.7867,-64.7838,34.4608,5.26646,-22.3452,22.8614,7.12502,4.07547,-7.07933,7.70291e-15,-2.18663e-15,-9.81161,50.436,67.0818,42.9784,2.93473,-22.4744,32.6758,7.12502,3.95069,62.6189,-21.6347,-8.63632,9.6643,29.8229,-16.2049,-12.8852,-19.1993,-12.5761,-10.0994,-16.5997,19.2835,-28.0692,23.501,2.86477
-0.786863,17.5082,0.0516016,11.1622,-8.12054,3.55107,-21.9981,1.69378,-2.01418,5.35527,3.28578,-2.22363,18.9117,1.38332,-0.258131,18.2329,-3.44702,-7.17392,0.302224,-5.47158,11.987,-2.30313,-3.25826,5.24142,-2.08724e-14,1.59028e-15,-19.5755,-62.7913,-64.7596,34.4782,5.25023,-22.0924,22.9378,7.12502,4.31954,-6.99816,-2.08724e-14,1.59028e-15,-9.90437,50.3252,67.0286,43.0107,2.98337,-22.5018,32.7115,7.12502,3.92423,62.6551,-21.6179,-8.57928,9.64088,29.8301,-16.2198,-12.9636,-19.2343,-12.5745,-10.1276,-16.6105,19.2736,-27.8719,23.6285,3.02971
-0.785922,17.5082,0.0528884,11.1594,-8.08409,3.60199,-22.023,1.67952,-2.03738,5.36847,3.27971,-2.24997,18.9454,1.37987,-0.277881,18.2178,-3.43868,-7.27242,0.317807,-5.47619,12.1261,-2.29087,-3.26617,5.30094,3.22528e-14,-1.25234e-14,-19.5499,-62.8487,-64.7922,34.4621,5.29174,-21.9692,23.1225,7.12502,4.4385,-6.81103,3.22528e-14,-1.25234e-14,-9.75555,50.4097,67.1361,42.9228,2.85498,-22.5403,32.5926,7.12502,3.88707,62.5369,-21.6313,-8.81542,9.59536,29.8546,-16.2102,-12.7809,-19.1992,-12.5613,-10.1601,-16.6714,19.236,-27.5059,23.8189,2.44662
-0.787975,17.5085,0.0534972,11.1591,-8.04164,3.5748,-22.0195,1.66443,-2.0463,5.37009,3.25867,-2.23232,18.9433,1.36819,-0.259828,18.1345,-3.43509,-7.38425,0.393272,-5.49184,12.2633,-2.24887,-3.27668,5.35913,-2.57426e-14,2.3059e-14,-19.5774,-62.93,-64.7273,34.4092,5.50231,-21.929,23.1617,7.12502,4.47729,-6.771,-2.57426e-14,2.3059e-14,-9.60993,50.5913,67.2467,42.8013,2.71349,-22.4294,32.3143,7.12502,3.99409,62.2566,-21.6136,-8.78711,9.63328,29.8688,-16.2726,-12.8368,-19.0218,-12.5535,-10.1187,-16.6349,19.2161,-27.4833,23.7983,1.9264
-0.78866,17.507,0.0574193,11.1491,-8.06102,3.54936,-22.0178,1.67425,-2.03527,5.34873,3.26676,-2.22782,18.9149,1.37295,-0.25774,18.166,-3.42332,-7.44742,0.400226,-5.48785,12.356,-2.24884,-3.27972,5.39961,2.09221e-14,1.17283e-14,-19.7048,-62.9724,-64.6217,34.4024,5.62995,-21.9576,23.0925,7.12502,4.44968,-6.84079,2.09221e-14,1.17283e-14,-9.63168,50.5966,67.2482,42.7709,2.78163,-22.3417,32.1276,7.12502,4.07877,62.0683,-21.5992,-8.82618,9.65853,29.8742,-16.3168,-12.7726,-18.9904,-12.5074,-10.1272,-16.621,19.2164,-27.698,23.6698,2.73193
-0.787715,17.5065,0.0607573,11.145,-8.08645,3.53328,-22.023,1.69341,-1.99366,5.33863,3.28177,-2.23688,18.9083,1.38515,-0.286391,18.2018,-3.44711,-7.37122,0.390806,-5.50913,12.2332,-2.2588,-3.2859,5.3507,-2.4202e-14,8.54774e-15,-19.7624,-63.0862,-64.567,34.3372,5.77782,-22.0926,23.1536,7.12502,4.3194,-6.78235,-2.4202e-14,8.54774e-15,-9.67622,50.4982,67.245,42.7886,2.92229,-22.4069,31.9998,7.12502,4.01585,61.9417,-21.5909,-8.88605,9.67395,29.8644,-16.2791,-12.7071,-19.1332,-12.492,-10.1838,-16.6139,19.2333,-27.6633,23.7797,3.05742
-0.785452,17.5066,0.0630499,11.1263,-8.10373,3.52033,-21.9932,1.70131,-1.95972,5.31699,3.27826,-2.22582,18.8625,1.38731,-0.294649,18.2653,-3.48054,-7.28853,0.444595,-5.55156,12.0188,-2.25345,-3.29825,5.27255,8.29926e-15,-2.64384e-14,-19.9151,-63.2393,-64.3954,34.3005,5.96407,-22.1132,23.2667,7.12502,4.29944,-6.66968,8.29926e-15,-2.64384e-14,-9.75543,50.5646,67.2488,42.7622,2.82122,-22.4148,31.7706,7.12502,4.00818,61.7127,-21.5584,-8.98269,9.6853,29.8496,-16.2638,-12.6108,-19.2461,-12.4732,-10.2262,-16.6151,19.2545,-27.7649,23.81,2.59316
-0.784603,17.507,0.0645009,11.0965,-8.07719,3.51833,-21.9696,1.68961,-1.95014,5.31368,3.25717,-2.21825,18.8432,1.37901,-0.299638,18.2255,-3.51113,-7.22667,0.575479,-5.59352,11.8638,-2.2081,-3.30926,5.21162,7.55382e-15,6.55989e-15,-20.0238,-63.3007,-64.2795,34.3021,6.0926,-22.0502,23.1741,7.12502,4.36028,-6.761,7.55382e-15,6.55989e-15,-9.86291,50.5712,67.2195,42.7897,2.7934,-22.4259,31.6493,7.12502,3.9975,61.5916,-21.5026,-9.07126,9.68088,29.8194,-16.2527,-12.5361,-19.2711,-12.4629,-10.2793,-16.6196,19.2945,-27.6895,23.9287,1.92148
-0.786438,17.507,0.0662293,11.0774,-8.03061,3.55467,-22.0225,1.66257,-2.00509,5.35016,3.24336,-2.23356,18.9219,1.36681,-0.290404,18.221,-3.50929,-7.20134,0.552753,-5.58325,11.8777,-2.21578,-3.30501,5.21167,-1.3418e-14,-6.36111e-15,-19.9663,-63.2203,-64.3793,34.333,6.12192,-22.0761,23.0186,7.12502,4.33526,-6.91705,-1.3418e-14,-6.36111e-15,-9.85017,50.5943,67.2387,42.8163,2.82571,-22.6039,31.7502,7.12502,3.82557,61.6956,-21.4479,-9.00808,9.63796,29.7789,-16.2014,-12.6701,-19.4927,-12.4906,-10.3349,-16.6383,19.3447,-27.6497,23.9541,2.28988
-0.788579,17.5074,0.0669457,11.062,-7.9907,3.51106,-22.0323,1.65195,-2.00392,5.38272,3.22641,-2.21003,18.9684,1.35681,-0.269257,18.215,-3.49099,-7.25091,0.519968,-5.56355,11.9547,-2.22411,-3.29892,5.24351,1.2424e-15,-9.93923e-16,-19.9058,-63.2777,-64.3893,34.2536,6.3177,-22.0365,23.0631,7.12502,4.37354,-6.8717,1.2424e-15,-9.93923e-16,-9.62654,50.8225,67.4351,42.6758,2.5993,-22.6656,31.6393,7.12502,3.76603,61.5858,-21.3919,-8.78197,9.68279,29.7456,-16.1875,-12.9155,-19.4285,-12.5036,-10.3315,-16.566,19.3833,-27.6382,24.0277,1.4218
-0.789072,17.5072,0.0697844,11.0488,-7.96466,3.44405,-22.0076,1.64692,-1.95645,5.361,3.19769,-2.17735,18.9247,1.34767,-0.268823,18.247,-3.47752,-7.27398,0.570692,-5.55757,11.9115,-2.21435,-3.29423,5.23339,3.26007e-14,-2.18663e-15,-20.0795,-63.2868,-64.1873,34.1984,6.45731,-21.7049,23.0923,7.12502,4.69368,-6.8357,3.26007e-14,-2.18663e-15,-9.73364,50.8265,67.4174,42.6628,2.46817,-22.4759,31.3746,7.12502,3.94923,61.3178,-21.341,-8.61839,9.74977,29.737,-16.1839,-13.0922,-19.4526,-12.4793,-10.4215,-16.4766,19.3876,-27.7707,23.9832,1.63257
-0.786764,17.5066,0.0759062,11.0448,-8.00586,3.46224,-21.9949,1.6603,-1.95003,5.28852,3.21119,-2.18453,18.824,1.35629,-0.276236,18.4295,-3.46605,-7.24185,0.56414,-5.54591,11.8384,-2.24699,-3.29033,5.21076,5.96354e-15,-4.37326e-15,-20.4493,-63.0901,-63.8902,34.2362,6.38418,-21.4013,23.0761,7.12502,4.98691,-6.84524,5.96354e-15,-4.37326e-15,-10.1743,50.5251,67.1394,42.7437,2.55351,-22.4247,31.4449,7.12502,3.99861,61.3871,-21.3397,-8.80729,9.72203,29.7511,-16.2094,-12.8767,-19.4548,-12.4342,-10.5766,-16.5191,19.3675,-27.8761,24.0269,2.29546
-0.786102,17.5028,0.0781138,11.0437,-8.04486,3.53392,-22.0026,1.6705,-2.00126,5.26418,3.24624,-2.22405,18.7979,1.36939,-0.280664,18.4706,-3.49709,-7.14338,0.592001,-5.57403,11.7345,-2.24634,-3.3004,5.16423,-4.91992e-15,-1.59028e-15,-20.6184,-62.8777,-63.8424,34.2989,6.13153,-21.5844,22.9844,7.12502,4.81003,-6.941,-4.91992e-15,-1.59028e-15,-10.3537,50.348,67.0102,42.7742,2.52419,-22.4306,31.963,7.12502,3.993,61.9054,-21.3615,-8.96839,9.63638,29.7745,-16.2428,-12.7031,-19.436,-12.3873,-10.5038,-16.6422,19.3447,-27.8308,23.9741,2.57563
-0.786003,17.5004,0.0772636,11.0273,-8.02501,3.51848,-22.0151,1.66767,-1.98618,5.31528,3.23957,-2.21613,18.8719,1.36649,-0.282047,18.2667,-3.53857,-7.11529,0.737273,-5.62845,11.6525,-2.16879,-3.31625,5.12674,-1.11319e-14,1.53064e-14,-20.3973,-62.8723,-64.0739,34.2825,5.96777,-21.8326,22.9151,7.12502,4.57037,-7.0156,-1.11319e-14,1.53064e-14,-10.3327,50.2978,67.0913,42.8044,2.50974,-22.3585,32.1265,7.12502,4.0626,62.0675,-21.3456,-9.1557,9.65796,29.7997,-16.2829,-12.5107,-19.3657,-12.3237,-10.3699,-16.6514,19.3142,-27.9205,23.6989,3.27485
-0.787247,17.5019,0.0796145,11.0109,-7.99794,3.50299,-22.0232,1.65028,-2.02184,5.34996,3.22116,-2.175,18.9165,1.34998,-0.219592,18.1032,-3.54181,-7.1483,0.844446,-5.64181,11.6215,-2.11032,-3.31566,5.11531,-1.2275e-14,3.04141e-14,-20.2111,-62.9821,-64.1848,34.2081,6.02565,-21.9379,22.8595,7.12502,4.46871,-7.07334,-1.2275e-14,3.04141e-14,-10.3666,50.2689,67.1473,42.7766,2.56289,-22.3216,31.9248,7.12502,4.0982,61.8651,-21.3093,-9.14119,9.67655,29.8227,-16.333,-12.5308,-19.2964,-12.2909,-10.3827,-16.6242,19.2795,-28.1354,23.5699,3.53649
-0.788573,17.5028,0.0810356,11.0013,-7.95971,3.51641,-22.0411,1.62983,-2.06904,5.37187,3.20632,-2.15906,18.9523,1.33605,-0.1789,18.094,-3.53794,-7.10668,0.84072,-5.62961,11.5557,-2.11349,-3.30645,5.08691,2.68856e-14,-5.96354e-16,-20.1323,-63.3917,-64.1769,34.0777,6.49049,-22.0281,22.8441,7.12502,4.3816,-7.09056,2.68856e-14,-5.96354e-16,-10.3266,50.3884,67.2304,42.6402,2.44249,-22.4096,31.9494,7.12502,4.01328,61.8913,-21.2809,-8.95914,9.64989,29.8372,-16.3837,-12.7265,-19.2042,-12.2881,-10.4759,-16.6139,19.2562,-28.2536,23.5471,3.57868
-0.787207,17.5013,0.0813487,10.9961,-7.98498,3.50628,-22.0983,1.64065,-2.03633,5.41361,3.21617,-2.16212,19.0448,1.34284,-0.195956,18.0798,-3.52883,-7.11831,0.833312,-5.61809,11.5725,-2.11412,-3.30116,5.0932,3.14577e-14,-2.18663e-15,-19.9883,-63.7902,-64.2418,33.9529,6.9787,-21.7903,22.769,7.12502,4.61125,-7.16083,3.14577e-14,-2.18663e-15,-10.2671,50.6079,67.3177,42.5661,2.37888,-22.6103,32.23,7.12502,3.81946,62.1755,-21.2996,-9.06134,9.66468,29.8464,-16.365,-12.6402,-19.3338,-12.2527,-10.4375,-16.6279,19.2425,-28.1508,23.5947,3.18065
-0.786656,17.4997,0.0850287,10.9895,-8.02949,3.49856,-22.016,1.6658,-1.96343,5.67932,3.25062,-2.26831,18.6911,1.35018,-0.226522,18.1113,-3.51311,-7.06735,0.829813,-5.58705,11.5932,-2.12414,-3.2877,5.09103,-5.01931e-15,-2.38542e-15,-20.0436,-63.881,-64.2467,33.8777,7.1652,-21.5261,22.8939,7.12502,4.86635,-7.0302,-5.01931e-15,-2.38542e-15,-10.2795,50.7762,67.2519,42.4553,2.31022,-22.7201,32.2222,7.12502,3.71341,62.1696,-21.3028,-9.09292,9.67492,29.8544,-16.3495,-12.614,-19.5404,-12.1949,-10.3777,-16.6483,19.2305,-27.9869,23.6687,2.3251
-0.787374,17.5001,0.0851605,11.0123,-8.03455,3.48432,-22.0375,1.65708,-1.98268,5.34652,3.2263,-2.21451,18.9265,1.3602,-0.286547,18.096,-3.49829,-6.94543,0.885789,-5.54989,11.4819,-2.11394,-3.26343,5.03269,-1.8487e-14,1.0138e-14,-20.2938,-63.5808,-64.1676,33.931,6.86312,-21.6147,22.9788,7.12502,4.78081,-6.94726,-1.8487e-14,1.0138e-14,-10.5403,50.6736,66.9935,42.3823,2.32558,-22.6323,32.0599,7.12502,3.79818,62.0058,-21.3251,-8.8858,9.6862,29.8598,-16.3261,-12.8327,-19.5837,-12.2139,-10.4016,-16.6226,19.2236,-28.046,23.6239,2.49718
-0.78768,17.5025,0.0822702,11.0482,-7.99281,3.44213,-21.9781,1.6442,-1.98014,5.31117,3.19816,-2.18151,18.8406,1.34675,-0.260849,18.0209,-3.48849,-6.81871,0.880296,-5.51331,11.3152,-2.114,-3.23602,4.95532,1.46107e-14,-2.5842e-15,-20.4278,-63.2384,-64.1047,34.0086,6.41822,-21.7178,22.8601,7.12502,4.68127,-7.06819,1.46107e-14,-2.5842e-15,-10.7693,50.51,66.8961,42.4249,2.42973,-22.5322,31.8925,7.12502,3.89489,61.8366,-21.3408,-8.7461,9.72878,29.8479,-16.3096,-12.978,-19.4867,-12.2844,-10.3751,-16.5547,19.2343,-28.0218,23.6015,2.6066
-0.788161,17.5036,0.0832654,11.0577,-7.97026,3.46348,-22.0606,1.62311,-2.05105,5.34339,3.19012,-2.15262,18.9284,1.33085,-0.187065,18.0277,-3.4569,-6.82868,0.779663,-5.46624,11.3178,-2.14941,-3.21414,4.95744,6.60959e-15,-3.53837e-14,-20.4024,-63.11,-64.1091,34.0556,6.30553,-21.658,22.7167,7.12502,4.73902,-7.2103,6.60959e-15,-3.53837e-14,-10.8095,50.6124,66.9834,42.4803,2.36747,-22.2917,31.5225,7.12502,4.12711,61.4623,-21.3237,-8.75525,9.70186,29.8177,-16.3127,-12.9795,-19.4356,-12.3205,-10.4311,-16.5706,19.2712,-27.8513,23.7918,2.00795
-0.788969,17.5035,0.0820014,11.0481,-7.94844,3.46912,-22.0934,1.60942,-2.07707,5.36585,3.1816,-2.15213,18.9768,1.32328,-0.174057,18.1296,-3.42985,-6.8807,0.652793,-5.43191,11.4247,-2.20303,-3.20614,5.00357,8.05078e-15,4.57205e-15,-20.3899,-62.9489,-64.158,34.051,6.22069,-21.7355,22.6193,7.12502,4.66421,-7.3094,8.05078e-15,4.57205e-15,-10.987,50.6302,66.8975,42.575,2.38966,-21.9758,31.1605,7.12502,4.4321,61.0942,-21.2909,-8.80149,9.69868,29.7812,-16.3209,-12.9306,-19.3052,-12.3507,-10.4829,-16.5622,19.3172,-27.9131,23.7932,2.13847
-0.78998,17.5036,0.0794003,11.0552,-7.91395,3.42726,-22.0071,1.61196,-2.04205,5.32758,3.16723,-2.14002,18.8735,1.32188,-0.187202,18.1694,-3.42037,-6.96736,0.660732,-5.43636,11.5117,-2.20251,-3.21317,5.04652,-1.70955e-14,3.97569e-15,-20.5284,-62.6832,-64.0774,34.0527,5.88264,-21.9015,22.4601,7.12502,4.50392,-7.47203,-1.70955e-14,3.97569e-15,-11.2306,50.6125,66.7346,42.6148,2.37509,-21.6282,30.9357,7.12502,4.76783,60.862,-21.2819,-8.74594,9.75809,29.7566,-16.2709,-13.0546,-19.4627,-12.3934,-10.4395,-16.495,19.3451,-27.9458,23.7498,2.00749
-0.7904,17.5042,0.0808363,11.0684,-7.93273,3.3751,-21.9417,1.63289,-1.99052,5.2976,3.17481,-2.13106,18.7955,1.33164,-0.204729,18.141,-3.42581,-6.98229,0.70202,-5.44845,11.5167,-2.18417,-3.21812,5.0494,2.41523e-14,-2.88238e-14,-20.6289,-62.5414,-64.01,34.0496,5.74243,-21.8344,22.3695,7.12502,4.56865,-7.56124,2.41523e-14,-2.88238e-14,-11.3156,50.7012,66.6694,42.5733,2.2198,-21.3614,30.8989,7.12502,5.0254,60.8193,-21.2797,-8.55141,9.81169,29.7405,-16.229,-13.2542,-19.6524,-12.4071,-10.4423,-16.4318,19.3668,-27.8168,23.9425,1.31265
-0.790666,17.5051,0.0820298,11.0938,-7.96943,3.37506,-21.9812,1.63781,-2.02294,5.29231,3.1893,-2.11452,18.8106,1.33226,-0.16019,18.2111,-3.42449,-7.03832,0.638669,-5.45586,11.5364,-2.2111,-3.22523,5.06865,-3.42904e-15,7.35503e-15,-20.7453,-62.4369,-63.9012,34.0626,5.71471,-21.5657,22.4636,7.12502,4.82811,-7.46137,-3.42904e-15,7.35503e-15,-11.3882,50.7607,66.6552,42.5606,2.15724,-21.302,30.8513,7.12502,5.08271,60.7704,-21.3115,-8.44614,9.80281,29.7405,-16.2776,-13.3073,-19.4358,-12.4277,-10.4882,-16.432,19.3693,-27.8666,23.9411,1.70849
-0.789305,17.5045,0.0831513,11.0869,-7.97513,3.40325,-21.9844,1.63339,-2.0575,5.28031,3.19124,-2.10452,18.7945,1.32842,-0.127854,18.3159,-3.43552,-7.11753,0.582807,-5.48643,11.5618,-2.23796,-3.24488,5.09569,2.25124e-14,2.82274e-14,-20.9441,-62.3621,-63.6807,34.0562,5.72413,-21.4919,22.6879,7.12502,4.89939,-7.23551,2.25124e-14,2.82274e-14,-11.5811,50.5758,66.5295,42.5931,2.3675,-21.4649,30.9126,7.12502,4.9255,60.8353,-21.3241,-8.67379,9.77679,29.7607,-16.3274,-13.0856,-19.3563,-12.4047,-10.5093,-16.4803,19.3379,-28.0226,23.8713,2.50474
-0.788887,17.5029,0.0831311,11.0976,-7.95783,3.38545,-21.9729,1.63693,-2.02866,5.28742,3.18807,-2.10793,18.7982,1.33068,-0.149802,18.3046,-3.44859,-7.11802,0.578216,-5.50218,11.5824,-2.23575,-3.25335,5.10283,-1.67973e-14,-1.2921e-14,-20.8932,-62.4207,-63.6996,34.0079,5.78383,-21.8325,22.6648,7.12502,4.57052,-7.26592,-1.67973e-14,-1.2921e-14,-11.5444,50.5088,66.5106,42.5401,2.50831,-21.7244,31.119,7.12502,4.67486,61.0474,-21.3403,-8.79959,9.80463,29.782,-16.3404,-12.9667,-19.3006,-12.3738,-10.402,-16.4769,19.308,-28.1365,23.6151,3.51473
-0.789412,17.5024,0.0804057,11.11,-7.92545,3.36345,-22.019,1.63304,-2.01396,5.34104,3.18224,-2.10458,18.8973,1.32795,-0.155111,18.2518,-3.44576,-7.19551,0.560549,-5.50673,11.6922,-2.2288,-3.25925,5.14892,-1.36664e-14,5.76476e-15,-20.7115,-62.3664,-63.883,34.0427,5.6489,-22.231,22.4093,7.12502,4.18574,-7.52931,-1.36664e-14,5.76476e-15,-11.2946,50.66,66.722,42.5023,2.50036,-22.0425,31.4718,7.12502,4.36778,61.4067,-21.3547,-8.6098,9.82311,29.7894,-16.3215,-13.171,-19.2917,-12.3827,-10.284,-16.4484,19.3028,-28.1418,23.3744,3.65432
-0.791308,17.5052,0.0796007,11.1034,-7.88061,3.40893,-22.0208,1.60763,-2.09999,5.34875,3.17358,-2.10413,18.9035,1.31408,-0.108852,18.3027,-3.44667,-7.26471,0.544923,-5.52095,11.7556,-2.23678,-3.27063,5.18297,-1.92324e-14,3.35946e-14,-20.8364,-62.2613,-63.7808,34.0796,5.4264,-22.2712,22.3745,7.12502,4.14687,-7.56492,-1.92324e-14,3.35946e-14,-11.3383,50.6793,66.7488,42.6003,2.55217,-22.1624,31.789,7.12502,4.25196,61.7263,-21.3344,-8.5341,9.77794,29.7836,-16.3061,-13.2989,-19.3123,-12.4262,-10.3231,-16.4661,19.3086,-27.9153,23.5531,2.32828
-0.791905,17.5074,0.0792169,11.0921,-7.85204,3.42556,-21.9493,1.59653,-2.12247,5.30707,3.1626,-2.11703,18.8042,1.30969,-0.117381,18.4312,-3.43549,-7.19364,0.519831,-5.49822,11.6687,-2.26924,-3.2593,5.14758,-2.45002e-14,4.77083e-14,-21.0848,-62.2016,-63.5881,34.0919,5.37112,-22.0692,22.4287,7.12502,4.34197,-7.50675,-2.45002e-14,4.77083e-14,-11.6208,50.4918,66.5091,42.696,2.75105,-22.0511,31.8918,7.12502,4.35942,61.827,-21.2954,-8.62274,9.77094,29.7532,-16.2868,-13.2479,-19.3256,-12.4667,-10.4453,-16.4594,19.3468,-27.7928,23.755,1.86892
-0.792151,17.5079,0.0797208,11.1066,-7.85717,3.37407,-21.9203,1.6032,-2.07839,5.25459,3.15301,-2.10588,18.7198,1.311,-0.133588,18.6269,-3.38233,-7.19391,0.459429,-5.4316,11.6736,-2.32335,-3.23263,5.15341,1.75427e-14,5.36719e-15,-21.3434,-62.0595,-63.4063,34.1483,5.30294,-21.9375,22.4798,7.12502,4.46909,-7.45305,1.75427e-14,5.36719e-15,-11.8768,50.426,66.2715,42.7023,2.82948,-21.9973,31.7839,7.12502,4.41134,61.7179,-21.2749,-8.61745,9.83158,29.705,-16.2945,-13.242,-19.2587,-12.5134,-10.4558,-16.4008,19.4176,-27.7527,23.8408,1.74302
-0.791273,17.5093,0.0810167,11.1324,-7.87576,3.32315,-21.9863,1.60706,-2.04257,5.30374,3.14846,-2.0824,18.8251,1.30924,-0.126048,18.4863,-3.36129,-7.22441,0.510915,-5.40662,11.706,-2.28799,-3.21726,5.16155,1.14301e-15,-1.76918e-14,-21.037,-62.1275,-63.6582,34.1277,5.37232,-22.1493,22.5082,7.12502,4.26463,-7.42889,1.14301e-15,-1.76918e-14,-11.8513,50.4075,66.2952,42.7713,2.92387,-21.7832,31.6459,7.12502,4.61815,61.5755,-21.2824,-8.64658,9.89372,29.659,-16.2081,-13.2422,-19.4987,-12.5674,-10.52,-16.3404,19.4799,-27.8019,23.9016,1.81313
-0.789645,17.5098,0.0800618,11.1488,-7.87203,3.28102,-22.0125,1.6197,-1.95288,5.70432,3.16561,-2.15545,18.712,1.30568,-0.137692,18.1236,-3.40293,-7.11771,0.617594,-5.43465,11.626,-2.2028,-3.21639,5.10621,-2.09718e-14,-1.07344e-14,-20.3624,-62.3987,-64.2615,34.0861,5.54695,-22.3093,22.3462,7.12502,4.11005,-7.59391,-2.09718e-14,-1.07344e-14,-11.4197,50.4598,66.5661,42.7286,2.95459,-21.7025,31.6425,7.12502,4.69599,61.5705,-21.2965,-8.68295,9.93933,29.6319,-16.1648,-13.2211,-19.5735,-12.6019,-10.5474,-16.2947,19.5091,-27.773,23.9609,1.4683
-0.78933,17.5091,0.07678,11.1404,-7.78558,3.24287,-22.0724,1.59819,-1.93053,5.80862,3.13741,-2.15691,18.8784,1.29318,-0.159143,17.944,-3.42749,-7.03537,0.626199,-5.44259,11.6373,-2.17449,-3.2159,5.09067,2.12203e-14,-1.78906e-14,-19.9639,-62.4321,-64.67,34.1111,5.4526,-22.0821,22.2407,7.12502,4.32952,-7.69505,2.12203e-14,-1.78906e-14,-10.999,50.6475,66.8115,42.6326,2.7819,-21.794,31.8675,7.12502,4.60767,61.7973,-21.2488,-8.58659,9.97846,29.619,-16.2133,-13.3521,-19.4025,-12.6064,-10.4692,-16.24,19.5213,-27.8839,23.6871,1.85984
-0.790995,17.5077,0.0788177,11.1287,-7.74942,3.23863,-22.1451,1.59304,-1.93503,5.91469,3.14398,-2.18024,19.0551,1.29407,-0.176775,17.8222,-3.44654,-6.87825,0.529838,-5.42442,11.6019,-2.19168,-3.20339,5.05086,3.73715e-14,-2.80286e-14,-19.7112,-62.3753,-64.9935,34.2092,5.24065,-22.1255,22.1294,7.12502,4.28757,-7.80722,3.73715e-14,-2.80286e-14,-10.6557,50.8064,67.0337,42.5923,2.62765,-21.8875,31.8096,7.12502,4.5174,61.7414,-21.208,-8.5153,9.97757,29.623,-16.2422,-13.4258,-19.319,-12.5819,-10.4019,-16.2345,19.5153,-28.0192,23.5332,2.373
-0.789866,17.5077,0.0831429,11.146,-7.8446,3.25002,-22.1612,1.64008,-1.90349,5.89688,3.20366,-2.21058,19.0464,1.32589,-0.205747,17.8847,-3.46289,-6.83763,0.543059,-5.4417,11.5855,-2.19685,-3.21278,5.04181,-2.0276e-14,-1.59028e-15,-19.918,-62.3347,-64.8565,34.3018,5.27102,-22.2734,21.9237,7.12502,4.14477,-8.01577,-2.0276e-14,-1.59028e-15,-10.7427,50.7284,66.9454,42.6069,2.71878,-21.9958,31.9833,7.12502,4.41285,61.9173,-21.2597,-8.60926,9.96102,29.6436,-16.2245,-13.2705,-19.3885,-12.5518,-10.4509,-16.2727,19.4875,-28.2118,23.5172,3.14312
-0.787369,17.5083,0.0819262,11.1842,-7.91859,3.25515,-22.0303,1.66844,-1.90764,5.75411,3.2306,-2.20638,18.7913,1.34145,-0.194564,18.0824,-3.50104,-6.97027,0.712933,-5.53825,11.6427,-2.16165,-3.26625,5.08972,-1.58034e-14,-2.5842e-15,-20.4027,-62.4969,-64.336,34.2489,5.66354,-21.9437,21.9926,7.12502,4.46309,-7.94038,-1.58034e-14,-2.5842e-15,-11.1808,50.5403,66.6101,42.6518,2.86001,-22.087,32.3524,7.12502,4.32472,62.2882,-21.3613,-8.78625,9.96219,29.6663,-16.1985,-13.0584,-19.485,-12.5632,-10.4654,-16.2976,19.4554,-28.2201,23.5224,3.44092
-0.786913,17.5063,0.0787997,11.195,-7.8865,3.25439,-21.9852,1.66199,-1.9216,5.70495,3.22234,-2.20885,18.7033,1.33814,-0.194639,18.2529,-3.54038,-7.13167,0.835552,-5.63391,11.8138,-2.13376,-3.32433,5.17829,3.13086e-15,1.82882e-14,-20.5928,-62.7449,-64.1309,34.164,5.99509,-21.6234,22.3168,7.12502,4.7724,-7.60942,3.13086e-15,1.82882e-14,-11.3218,50.4952,66.4652,42.6496,2.86533,-22.2868,32.4465,7.12502,4.13187,62.3862,-21.3824,-8.79478,9.96076,29.6745,-16.2177,-13.076,-19.3915,-12.5652,-10.3126,-16.3137,19.4486,-27.9649,23.5037,2.81614
-0.788652,17.5052,0.0795202,11.191,-7.83035,3.24029,-22.0879,1.64804,-1.92632,5.742,3.21127,-2.21286,18.8085,1.33093,-0.196897,18.4505,-3.51629,-7.3843,0.8212,-5.64878,12.1819,-2.15332,-3.35389,5.34382,2.99171e-14,-3.16068e-14,-20.472,-62.9299,-64.2181,34.0655,6.15156,-21.6935,22.4927,7.12502,4.70469,-7.43508,2.99171e-14,-3.16068e-14,-11.251,50.5186,66.4834,42.6267,2.85503,-22.5203,32.4131,7.12502,3.90635,62.357,-21.334,-8.61991,9.96904,29.667,-16.2501,-13.281,-19.3244,-12.5646,-10.2683,-16.2852,19.4598,-27.74,23.5718,2.05607
-0.790907,17.5081,0.0800602,11.159,-7.79409,3.22415,-22.0988,1.62789,-2.00658,5.40799,3.18323,-2.12579,19.0366,1.3289,-0.182068,18.6346,-3.46876,-7.55036,0.923781,-5.62883,12.4142,-2.14415,-3.35853,5.44807,1.73937e-14,-1.70955e-14,-20.6896,-63.0154,-63.9915,34.0178,6.26446,-21.5916,22.4268,7.12502,4.80308,-7.49877,1.73937e-14,-1.70955e-14,-11.4582,50.4856,66.3325,42.627,2.83376,-22.5158,32.3684,7.12502,3.91069,62.3123,-21.2749,-8.49329,9.99467,29.6682,-16.2771,-13.4388,-19.2731,-12.5647,-10.3942,-16.2282,19.4454,-27.7838,23.6454,2.24304
-0.792809,17.5086,0.0793903,11.1492,-7.75394,3.22997,-22.005,1.59874,-2.09156,5.35557,3.15887,-2.10478,18.9029,1.30886,-0.120357,18.6571,-3.475,-7.48648,1.14583,-5.64561,12.3132,-2.08266,-3.36005,5.40288,3.3694e-14,-2.5842e-14,-20.848,-63.07,-63.8198,33.994,6.39023,-21.1928,22.4441,7.12502,5.18819,-7.47238,3.3694e-14,-2.5842e-14,-11.5394,50.4709,66.2534,42.5503,2.81977,-22.522,32.254,7.12502,3.90475,62.198,-21.2366,-8.41536,9.98992,29.6719,-16.3016,-13.5578,-19.2652,-12.5622,-10.3933,-16.2198,19.4254,-27.7281,23.631,2.33013
-0.793726,17.5057,0.0790879,11.1497,-7.75009,3.23941,-22.0475,1.59562,-2.14484,5.35838,3.17101,-2.09816,18.93,1.3067,-0.076495,18.6236,-3.50231,-7.48431,1.50181,-5.70906,12.2718,-1.96522,-3.38398,5.38464,-9.24349e-15,-8.54774e-15,-20.9726,-63.0853,-63.7163,34.0101,6.50767,-20.9962,22.6636,7.12502,5.37804,-7.24812,-9.24349e-15,-8.54774e-15,-11.4373,50.5535,66.2882,42.4132,2.78664,-22.5296,32.0846,7.12502,3.89737,62.0287,-21.2327,-8.37556,9.97492,29.6664,-16.3132,-13.5997,-19.1855,-12.5313,-10.2503,-16.2511,19.4315,-27.7376,23.4535,2.38101
-0.794442,17.5043,0.0779918,11.1496,-7.71996,3.22945,-22.0413,1.5972,-2.15415,5.32125,3.17462,-2.10247,18.878,1.3084,-0.0751497,18.5438,-3.53157,-7.5297,2.08755,-5.79928,12.3005,-1.7672,-3.42003,5.39196,2.30093e-14,-1.5704e-14,-21.1696,-62.9323,-63.601,34.0624,6.37535,-21.1624,22.6258,7.12502,5.21752,-7.28997,2.30093e-14,-1.5704e-14,-11.4249,50.644,66.2236,42.2534,2.70938,-22.5879,31.9977,7.12502,3.8411,61.9429,-21.2158,-8.3265,9.9862,29.6509,-16.2716,-13.6796,-19.2349,-12.5231,-10.2068,-16.2448,19.4505,-27.7205,23.4355,2.00163
-0.794155,17.5066,0.0778015,11.1473,-7.69421,3.21637,-22.0608,1.59565,-2.13966,5.3471,3.17126,-2.10787,18.9249,1.30834,-0.0905465,18.1313,-3.60851,-7.45525,2.87991,-5.93415,12.1307,-1.46026,-3.45725,5.30406,-2.55438e-14,1.74931e-14,-20.9747,-62.9562,-63.7984,34.0562,6.34385,-21.2575,22.5637,7.12502,5.12572,-7.35432,-2.55438e-14,1.74931e-14,-11.1747,50.846,66.3612,42.1134,2.49513,-22.5358,31.9909,7.12502,3.8914,61.9351,-21.1905,-8.33651,10,29.6359,-16.2697,-13.6847,-19.1886,-12.5629,-10.348,-16.2051,19.4659,-27.758,23.5283,2.06701
-0.793624,17.5095,0.0795568,11.1366,-7.69463,3.22356,-22.0757,1.59247,-2.14062,5.72473,3.1865,-2.14736,18.7615,1.29125,-0.0136781,17.4506,-3.70721,-7.30812,3.70797,-6.07604,11.7404,-1.10863,-3.48202,5.12608,-1.05853e-14,-3.43897e-14,-20.5146,-63.1924,-64.113,33.9531,6.59553,-21.213,22.7039,7.12502,5.16867,-7.21311,-1.05853e-14,-3.43897e-14,-10.6498,51.1367,66.7994,41.9247,2.25402,-22.489,32.0091,7.12502,3.93656,61.9525,-21.1755,-8.35245,9.98561,29.6103,-16.2525,-13.6931,-19.2174,-12.5983,-10.428,-16.2043,19.4991,-27.7057,23.7018,2.01862
-0.792779,17.5085,0.0796754,11.1302,-7.68769,3.23269,-22.1428,1.60251,-2.12852,5.7598,3.20435,-2.16599,18.846,1.29994,-0.0320474,16.393,-3.8444,-7.0769,5.07449,-6.27581,11.2587,-0.540834,-3.51683,4.88894,-2.54941e-14,-1.45113e-14,-20.4328,-63.6036,-64.1071,33.7468,7.0562,-21.0854,23.0153,7.12502,5.29188,-6.89864,-2.54941e-14,-1.45113e-14,-10.1891,51.437,67.1235,41.6848,1.94069,-22.5301,32.1257,7.12502,3.89688,62.0698,-21.1764,-8.42946,9.97567,29.5741,-16.1716,-13.6734,-19.3923,-12.6283,-10.2435,-16.2339,19.5609,-27.7143,23.4938,2.15834
-0.790552,17.5069,0.0785942,11.1248,-7.70476,3.21129,-22.1164,1.64737,-2.05768,5.66192,3.24275,-2.19162,18.7148,1.32918,-0.0881528,17.0361,-3.7254,-7.41822,5.49803,-6.23989,11.6031,-0.498141,-3.52574,5.06712,3.77691e-14,-2.42517e-14,-20.7867,-63.7871,-63.6891,33.5132,7.31527,-21.067,23.159,7.12502,5.30965,-6.75449,3.77691e-14,-2.42517e-14,-10.2669,51.4562,67.0014,41.5173,1.75311,-22.5493,32.2572,7.12502,3.87833,62.2016,-21.1592,-8.48818,9.98865,29.5462,-16.1782,-13.5685,-19.2916,-12.6305,-10.2354,-16.2319,19.6141,-27.9107,23.3588,3.02249
-0.787674,17.5055,0.0777388,11.101,-7.66389,3.13539,-22.166,1.68317,-1.92553,5.62457,3.25055,-2.18391,18.7041,1.34713,-0.149435,17.1974,-3.7113,-7.61052,6.2723,-6.32242,11.6262,-0.277673,-3.56543,5.10414,1.14301e-14,1.5704e-14,-21.0297,-63.5835,-63.4259,33.4784,7.14832,-21.0414,22.9635,7.12502,5.33437,-6.94932,1.14301e-14,1.5704e-14,-10.391,51.3201,66.8738,41.4155,1.77039,-22.6723,32.3397,7.12502,3.75955,62.2863,-21.1068,-8.71316,10.066,29.5314,-16.2092,-13.3617,-19.2892,-12.6072,-10.3266,-16.1735,19.6438,-27.9565,23.4363,3.51188
-0.787373,17.5041,0.0776906,11.0531,-7.54411,3.07417,-22.2573,1.6824,-1.84645,5.67701,3.23238,-2.18672,18.8271,1.34619,-0.199965,16.8103,-3.8189,-7.43591,7.33989,-6.48901,11.2039,0.100336,-3.61128,4.92277,4.37326e-15,-7.95139e-16,-21.0165,-63.2965,-63.4921,33.5482,6.78702,-20.8788,22.6073,7.12502,5.49142,-7.30155,4.37326e-15,-7.95139e-16,-10.1541,51.4314,67.0315,41.3078,1.56978,-22.5888,32.2911,7.12502,3.84018,62.2362,-21.0034,-8.84517,10.1302,29.5102,-16.214,-13.3337,-19.3003,-12.5783,-10.2956,-16.114,19.6784,-27.8621,23.3023,3.04824
-0.786855,17.5022,0.0775309,10.9993,-7.48108,3.1136,-22.2674,1.69142,-1.86748,5.68035,3.2584,-2.22458,18.8388,1.35766,-0.22042,15.8667,-4.01943,-6.95758,8.99603,-6.72435,10.2574,0.721182,-3.65655,4.50694,-5.46658e-16,-1.43125e-14,-21.1206,-62.9798,-63.4449,33.5722,6.32001,-21.0021,22.4065,7.12502,5.37229,-7.50538,-5.46658e-16,-1.43125e-14,-10.156,51.3234,67.0311,41.304,1.59943,-22.2905,32.022,7.12502,4.12828,61.9617,-20.9139,-8.81757,10.0735,29.4879,-16.2243,-13.4218,-19.2448,-12.5651,-10.345,-16.1609,19.7192,-27.8651,23.2357,2.54701
-0.786879,17.5007,0.0787048,10.9139,-7.40833,3.18122,-22.2129,1.69148,-1.93516,5.61302,3.27766,-2.24822,18.721,1.36219,-0.204417,17.2068,-3.82259,-7.56215,9.03646,-6.64581,10.8499,0.560221,-3.67794,4.83269,-8.44835e-15,9.93923e-16,-21.4858,-62.7495,-63.0858,33.4425,6.19595,-21.5409,22.3971,7.12502,4.85209,-7.52733,-8.44835e-15,9.93923e-16,-10.556,50.9247,66.7644,41.3979,1.84507,-22.0405,31.6262,7.12502,4.36969,61.5611,-20.7791,-8.80167,9.98071,29.4671,-16.2436,-13.511,-19.2272,-12.5135,-10.479,-16.2355,19.7475,-27.9715,23.1648,3.05442
-0.791155,17.4994,0.0787932,10.83,-7.23519,3.20808,-22.216,1.64868,-2.00362,5.60483,3.24486,-2.2757,18.7104,1.34249,-0.209071,15.2701,-4.19179,-6.96204,11.8192,-7.07078,9.37828,1.66433,-3.77951,4.19726,2.5345e-15,4.23411e-14,-21.5195,-62.8116,-63.0729,33.2198,6.3458,-22.1822,22.3832,7.12502,4.2328,-7.55448,2.5345e-15,4.23411e-14,-10.5739,50.7865,66.7751,41.3967,1.75172,-21.9672,31.2848,7.12502,4.44041,61.2183,-20.6254,-8.81232,9.95817,29.4548,-16.2732,-13.6572,-19.2061,-12.4752,-10.2964,-16.2412,19.7593,-27.6321,23.0316,2.5985
-0.797068,17.4995,0.0776318,10.7687,-7.07137,3.16382,-22.276,1.61569,-2.04682,5.66634,3.21451,-2.25332,18.8172,1.32062,-0.168614,15.9363,-4.13197,-7.40824,12.2631,-7.12379,9.54871,1.72386,-3.83588,4.34253,9.83984e-15,1.98785e-16,-21.2081,-63.1594,-63.297,32.9649,6.44959,-22.3211,22.3867,7.12502,4.0987,-7.55359,9.83984e-15,1.98785e-16,-10.2973,50.7436,67.1367,41.4502,1.65188,-22.1214,31.5015,7.12502,4.29153,61.438,-20.4847,-8.51502,10.007,29.4408,-16.3214,-14.0738,-19.0811,-12.4579,-10.0378,-16.1605,19.7691,-26.9541,23.1391,0.506663
-0.801619,17.4984,0.0740464,10.7191,-6.87016,3.14513,-22.2206,1.57576,-2.10133,5.63767,3.16793,-2.22488,18.7441,1.29361,-0.1258,16.0955,-4.13303,-7.626,13.2705,-7.20429,9.22824,2.01214,-3.88161,4.27771,7.90169e-15,1.35174e-14,-21.3122,-63.6266,-63.0993,32.7348,6.84682,-21.9904,22.5211,7.12502,4.41807,-7.41281,7.90169e-15,1.35174e-14,-10.3492,50.5758,67.1808,41.4716,1.68208,-22.3024,31.9366,7.12502,4.11675,61.8766,-20.3388,-8.16364,10.0176,29.4176,-16.3861,-14.5614,-18.8931,-12.469,-9.77184,-16.1147,19.7956,-26.4453,23.017,-0.617452
-0.804669,17.4966,0.0668831,10.6742,-6.6209,3.12514,-22.1492,1.51485,-2.16395,5.25946,3.07425,-2.1388,18.8694,1.26729,-0.147695,16.255,-4.13908,-7.71208,14.3816,-7.25251,8.65479,2.32066,-3.9096,4.11136,-4.96962e-17,-3.20043e-14,-21.7179,-63.3601,-62.7535,32.696,6.87044,-22.0076,22.4055,7.12502,4.4014,-7.52881,-4.96962e-17,-3.20043e-14,-10.5527,50.6225,66.9814,41.325,1.48219,-22.2008,32.0061,7.12502,4.21491,61.9442,-20.2036,-8.0089,10.0434,29.3727,-16.387,-14.928,-18.8548,-12.5059,-9.52523,-16.069,19.8504,-26.3126,22.6046,-0.430577
-0.804292,17.4971,0.0643853,10.6355,-6.47152,3.11298,-22.0972,1.50124,-2.18466,5.18981,3.05241,-2.11602,18.744,1.25548,-0.118246,16.2383,-4.18793,-7.89066,15.683,-7.35525,8.02042,2.72091,-3.9695,3.93509,4.78574e-14,-2.40529e-14,-21.9462,-62.6988,-62.5879,32.7071,6.46215,-22.1901,22.2731,7.12502,4.22523,-7.66475,4.78574e-14,-2.40529e-14,-10.6042,50.6773,67.0254,41.234,1.48737,-22.1984,31.8172,7.12502,4.21716,61.7552,-20.1048,-8.09579,10.056,29.3227,-16.3562,-14.9805,-18.9027,-12.5482,-9.78527,-16.0321,19.9152,-26.5788,22.5644,0.170494
-0.801924,17.4961,0.067275,10.5692,-6.38016,3.03842,-22.2122,1.53003,-2.09433,5.21108,3.06842,-2.10524,18.8482,1.26988,-0.148018,15.8459,-4.3213,-7.80959,17.2296,-7.46887,6.9972,3.23466,-4.02475,3.58093,1.59525e-14,1.68967e-14,-21.8814,-62.6866,-62.6034,32.4793,6.54583,-22.0201,22.4864,7.12502,4.38934,-7.44816,1.59525e-14,1.68967e-14,-10.3956,50.7612,67.2422,41.1065,1.55007,-22.2642,31.5963,7.12502,4.15365,61.5355,-19.9584,-8.19521,10.1249,29.2786,-16.3391,-14.9636,-18.9834,-12.5091,-10.4346,-15.9386,19.979,-26.9826,22.8223,1.07072
-0.798892,17.4938,0.0674838,10.5177,-6.22343,2.96193,-22.3018,1.55708,-1.90989,5.22434,3.06267,-2.15121,18.9355,1.2915,-0.307725,15.7323,-4.40642,-7.6209,18.4165,-7.47697,5.93123,3.58635,-4.03669,3.205,3.61788e-14,-2.04748e-14,-21.8039,-63.077,-62.6761,32.2084,6.87909,-21.6555,22.9187,7.12502,4.74144,-7.00825,3.61788e-14,-2.04748e-14,-10.0358,51.06,67.4052,40.8124,1.28206,-22.2033,31.5145,7.12502,4.21246,61.4526,-19.8316,-8.4355,10.2061,29.2353,-16.2433,-14.8928,-19.3101,-12.4875,-10.6222,-15.8691,20.0554,-26.9052,22.9185,0.65419
-0.796601,17.4884,0.0658974,10.4756,-6.0089,3.00637,-22.3041,1.52662,-1.85449,5.12965,3.01065,-2.20676,18.8219,1.28201,-0.424816,15.9888,-4.33273,-7.91002,19.5094,-7.39407,5.32838,3.88214,-4.03681,3.06388,-1.76421e-14,2.38542e-14,-22.0841,-63.2681,-62.4677,32.0277,7.25864,-21.4987,23.1556,7.12502,4.89283,-6.76786,-1.76421e-14,2.38542e-14,-10.007,51.5139,67.3401,40.5303,0.856182,-22.2671,31.5962,7.12502,4.15088,61.5355,-19.7096,-8.73458,10.1449,29.2059,-16.2081,-14.7968,-19.4251,-12.4877,-10.4421,-15.9445,20.1126,-26.6867,22.7024,-0.162138
-0.794729,17.4833,0.0690899,10.402,-5.81387,3.07117,-22.305,1.49437,-1.84781,5.05044,2.96684,-2.23702,18.7229,1.26777,-0.480905,16.1055,-4.21228,-8.3551,20.7718,-7.26903,4.83781,4.26098,-4.02908,2.97857,-9.39258e-15,2.50469e-14,-22.205,-63.2938,-62.3682,31.8518,7.56815,-21.6414,22.8729,7.12502,4.75505,-7.05377,-9.39258e-15,2.50469e-14,-10.0291,52.1009,67.2941,40.2432,0.295111,-22.3398,31.6108,7.12502,4.08061,61.5514,-19.5383,-9.04535,10.0608,29.1899,-16.3655,-14.6703,-19.1301,-12.4411,-10.3909,-16.0339,20.1452,-26.6477,22.4238,-0.0623777
-0.794101,17.4824,0.0706685,10.3145,-5.76854,3.06287,-22.2947,1.55016,-1.77041,5.01713,3.02287,-2.26755,18.6803,1.30401,-0.540235,16.3091,-4.15996,-8.62345,21.8632,-7.16764,4.11331,4.56756,-4.03291,2.79221,1.26725e-14,3.57812e-15,-22.1333,-63.3495,-62.4179,31.5795,7.85423,-21.6626,22.6843,7.12502,4.73458,-7.24283,1.26725e-14,3.57812e-15,-9.97165,52.4793,67.3074,40.0013,-0.0959469,-22.3259,31.5235,7.12502,4.09411,61.4639,-19.3947,-8.88898,10.0499,29.1627,-16.4662,-14.855,-18.8864,-12.3809,-10.4183,-16.0398,20.1829,-26.6637,22.4392,0.151195
-0.795101,17.4826,0.0634439,10.2299,-5.75276,2.96903,-22.2154,1.63618,-1.62778,4.95596,3.09305,-2.27691,18.5608,1.35284,-0.607837,16.6074,-4.15179,-8.78244,22.8986,-7.06467,3.12563,4.8368,-4.04222,2.50456,4.77083e-15,-5.1684e-15,-22.2937,-63.3951,-62.2565,31.2764,8.19136,-21.1794,22.8365,7.12502,5.20117,-7.07967,4.77083e-15,-5.1684e-15,-10.2616,52.1866,67.0782,39.9838,0.207085,-22.496,31.7157,7.12502,3.92985,61.6592,-19.294,-8.43486,10.1318,29.1153,-16.4738,-15.2343,-18.5935,-12.3592,-10.3589,-15.9305,20.2424,-26.4817,22.4925,-0.213773
-0.796559,17.4821,0.0555167,10.1623,-5.61521,2.92136,-22.1671,1.62762,-1.60269,4.95845,3.06738,-2.2476,18.5325,1.34248,-0.598137,16.7017,-4.12563,-8.95984,23.9101,-6.88822,2.01307,5.12414,-4.02514,2.17208,-9.93923e-15,-5.96354e-15,-22.0461,-63.4068,-62.4279,30.9847,8.51169,-20.9479,23.0493,7.12502,5.42468,-6.86131,-9.93923e-15,-5.96354e-15,-10.5163,51.839,66.954,40.1362,0.698833,-22.8174,32.2898,7.12502,3.61948,62.2389,-19.1676,-7.96924,10.1722,29.0715,-16.4956,-15.7402,-18.3311,-12.3868,-10.2904,-15.8414,20.2905,-26.2034,22.4351,-0.738084
-0.797003,17.48,0.0584833,10.088,-5.40246,2.91932,-22.2286,1.55758,-1.64338,5.00576,2.97951,-2.19408,18.625,1.29404,-0.543194,16.8426,-4.05825,-9.25556,24.8072,-6.65794,0.903349,5.37466,-3.99681,1.85915,1.20762e-14,1.59028e-15,-21.641,-63.4374,-62.6738,30.637,9.00944,-21.278,23.2282,7.12502,5.10592,-6.69029,1.20762e-14,1.59028e-15,-10.5436,51.8993,67.026,40.1436,0.76774,-22.7793,32.52,7.12502,3.65622,62.4684,-18.9842,-7.88232,10.166,29.0365,-16.5106,-16.0275,-18.4154,-12.3722,-10.2937,-15.8225,20.3294,-26.0221,22.3285,-1.03634
-0.795575,17.4763,0.062875,9.97678,-5.19175,2.93463,-22.2955,1.52711,-1.60087,5.02118,2.93269,-2.21586,18.6905,1.27978,-0.609522,17.2103,-4.05751,-9.30698,25.5638,-6.44718,-0.483865,5.53531,-3.9712,1.42036,4.96962e-16,7.95139e-16,-21.6989,-63.5004,-62.621,30.2978,9.49406,-21.2082,23.4444,7.12502,5.17334,-6.47241,4.96962e-16,7.95139e-16,-10.4621,52.1925,67.0565,39.9736,0.387966,-22.5449,32.3058,7.12502,3.88254,62.2502,-18.7979,-8.11443,10.1333,29.0169,-16.4944,-16.0407,-18.5846,-12.2806,-10.2776,-15.8681,20.3596,-25.8796,22.1626,-1.2558
-0.795808,17.4737,0.058242,9.88565,-4.97404,2.95015,-22.2595,1.51895,-1.55925,4.98142,2.91469,-2.26242,18.6221,1.28169,-0.695943,18.05,-3.97388,-9.53778,25.804,-6.26318,-1.47857,5.4818,-3.94511,1.15181,-1.71949e-14,2.46493e-14,-21.9904,-63.2748,-62.4603,30.0114,9.68377,-20.858,23.7659,7.12502,5.5115,-6.14241,-1.71949e-14,2.46493e-14,-10.4788,52.5136,66.977,39.7937,-0.118688,-22.2775,32.1897,7.12502,4.14078,62.1292,-18.6575,-8.17765,10.1149,29.0066,-16.5212,-16.194,-18.5542,-12.2537,-10.1733,-15.8859,20.3869,-25.6668,21.9184,-1.48513
-0.798756,17.4724,0.0510343,9.81896,-4.69483,2.94072,-22.1477,1.48216,-1.52808,4.90713,2.85612,-2.30404,18.4605,1.26534,-0.786978,17.8385,-4.00198,-9.38217,27.0209,-5.92172,-3.13599,5.86064,-3.87244,0.565378,1.1281e-14,-8.34896e-15,-22.3155,-62.7685,-62.3347,29.8105,9.69146,-20.4874,23.9469,7.12502,5.86928,-5.95177,1.1281e-14,-8.34896e-15,-10.7834,52.4828,66.6761,39.8149,-0.0421732,-22.1934,32.3082,7.12502,4.22204,62.2461,-18.513,-8.08149,10.1433,28.9918,-16.5425,-16.5276,-18.5237,-12.2893,-9.97602,-15.8365,20.4211,-25.2963,21.6995,-2.29141
-0.801764,17.4733,0.0469129,9.79966,-4.44329,2.91492,-22.1703,1.40394,-1.51957,4.73969,2.75186,-2.36442,18.2643,1.22763,-0.900937,15.4681,-4.51585,-7.42389,30.7983,-5.06516,-7.69134,7.27573,-3.67192,-1.39413,-2.23633e-14,2.78299e-15,-22.9772,-62.5181,-61.9624,29.5088,10.3111,-20.6992,24.0451,7.12502,5.66482,-5.85914,-2.23633e-14,2.78299e-15,-11.2198,52.5891,66.1099,39.6778,-0.0117579,-22.4423,32.3712,7.12502,3.98169,62.3137,-18.4191,-8.13214,10.196,28.9648,-16.5142,-16.7397,-18.6384,-12.3585,-9.74214,-15.7792,20.4645,-24.9706,21.4698,-3.25775
-0.803794,17.4745,0.0426616,9.81872,-4.2001,2.85025,-22.3954,1.22737,-1.62623,4.39023,2.54545,-2.41354,17.9565,1.13141,-0.968838,18.3169,-4.10565,-7.65037,29.9089,-4.73305,-8.40521,6.5566,-3.48712,-1.50814,2.23633e-15,-1.82882e-14,-24.2187,-61.941,-61.1892,29.0629,11.0639,-21.515,24.0789,7.12502,4.87712,-5.84499,2.23633e-15,-1.82882e-14,-12.3775,52.9784,64.7454,39.416,-0.443222,-22.327,32.1297,7.12502,4.09297,62.0701,-18.3556,-8.02521,10.2781,28.9236,-16.5063,-17.0761,-18.5899,-12.4625,-9.54959,-15.6878,20.5205,-24.8545,21.0904,-3.43641
-0.804628,17.473,0.0396628,9.79956,-3.93054,2.81362,-22.1927,1.40535,-1.33649,4.98891,2.719,-2.40403,18.608,1.23571,-1.06622,15.4512,-4.26229,-7.99504,31.1777,-4.37785,-9.2093,7.41046,-3.50272,-1.81959,2.8128e-14,-2.22639e-14,-21.6804,-63.0312,-63.017,28.575,11.7159,-21.987,23.9879,7.12502,4.42135,-5.94596,2.8128e-14,-2.22639e-14,-9.5399,53.5552,67.3462,39.1781,-0.980804,-22.0561,32.1361,7.12502,4.35458,62.0713,-18.1933,-7.70388,10.3065,28.86,-16.6186,-17.5594,-18.2838,-12.5429,-9.29154,-15.638,20.6144,-24.5497,20.7188,-4.21856
-0.809578,17.4733,0.0348114,9.78176,-3.62043,2.7484,-22.1954,1.37994,-1.30827,5.03223,2.68597,-2.44649,18.669,1.22831,-1.14559,15.4728,-4.20797,-7.97966,31.5504,-4.00488,-10.3589,7.51937,-3.40677,-2.22355,-3.67752e-15,1.07344e-14,-21.4775,-62.604,-63.4789,28.4908,11.8072,-22.3916,23.5229,7.12502,4.03058,-6.41876,-3.67752e-15,1.07344e-14,-9.65765,53.3376,67.1464,39.3185,-0.90736,-22.0774,32.2779,7.12502,4.33402,62.2136,-18.0244,-7.4165,10.3945,28.7796,-16.6638,-18.0809,-18.1545,-12.6646,-9.02139,-15.5269,20.7289,-24.1272,20.4164,-5.64935
-0.815006,17.4759,0.0305308,9.81948,-3.26267,2.60963,-22.1985,1.35353,-1.21664,5.02169,2.62847,-2.47756,18.6627,1.21679,-1.25644,15.7156,-4.07805,-8.01192,31.5868,-3.65129,-11.2216,7.48611,-3.28631,-2.50719,-5.66536e-15,4.45278e-14,-21.4696,-61.8975,-63.9122,28.571,11.7658,-22.8109,22.8169,7.12502,3.62568,-7.13197,-5.66536e-15,4.45278e-14,-9.94878,53.1733,66.8636,39.5469,-0.828778,-22.2543,31.9497,7.12502,4.16318,61.8888,-17.9222,-7.5854,10.5872,28.6907,-16.7134,-18.2146,-17.9241,-12.8569,-8.9947,-15.3124,20.8434,-23.9101,20.2069,-6.26461
-0.815587,17.4796,0.0300937,9.90492,-2.96018,2.49158,-22.2487,1.34972,-1.07124,4.99065,2.59098,-2.53559,18.6645,1.22222,-1.42177,16.6246,-3.83393,-8.15198,30.5841,-3.4262,-11.7381,6.99264,-3.13868,-2.60113,5.06901e-15,-1.43125e-14,-21.3996,-60.7854,-64.4477,28.6742,11.2136,-23.0972,22.2617,7.12502,3.34925,-7.69178,5.06901e-15,-1.43125e-14,-10.0159,53.0448,66.7962,39.7693,-0.613676,-22.4407,31.771,7.12502,3.98318,61.7135,-17.8847,-7.71529,10.7335,28.597,-16.7275,-18.3388,-17.7754,-13.097,-9.0092,-15.1434,20.9692,-23.7879,20.051,-6.48308
-0.816855,17.4809,0.0268188,9.94613,-2.72252,2.39472,-22.1755,1.36652,-0.958954,4.96954,2.58842,-2.59611,18.6005,1.23967,-1.55959,17.994,-3.56648,-8.29925,28.9696,-3.31755,-12.2642,6.22497,-2.98643,-2.67069,5.66536e-15,2.66371e-14,-21.4012,-59.6523,-64.8632,28.7177,10.4948,-23.2145,22.2501,7.12502,3.23599,-7.70505,5.66536e-15,2.66371e-14,-9.47074,53.2957,67.0643,39.5887,-0.868271,-22.3207,31.7723,7.12502,4.09911,61.7126,-17.835,-7.53277,10.8482,28.5255,-16.6327,-18.7574,-17.9686,-13.2879,-8.99873,-15.0104,21.1434,-23.7628,19.8069,-6.18554
-0.817638,17.4808,0.0244835,9.97057,-2.5111,2.43707,-22.0943,1.35931,-1.00669,4.99387,2.60382,-2.66541,18.5833,1.24756,-1.61015,18.5623,-3.40612,-8.20616,28.0786,-3.07178,-13.2909,5.81259,-2.82457,-2.99082,-1.03368e-14,-1.15295e-14,-21.5718,-58.3574,-65.1448,28.9802,9.53943,-22.7618,22.5292,7.12502,3.67318,-7.41892,-1.03368e-14,-1.15295e-14,-8.8979,53.5759,67.3801,39.328,-1.2145,-22.1211,31.7966,7.12502,4.29188,61.7331,-17.7918,-7.70029,10.8098,28.4607,-16.5066,-18.8732,-18.2279,-13.4491,-9.02559,-15.0503,21.3204,-23.5964,19.744,-6.82872
-0.81936,17.4793,0.0199522,10.0415,-2.27136,2.39312,-22.0144,1.35181,-0.984161,5.0163,2.59437,-2.71381,18.5657,1.2508,-1.68532,18.3857,-3.33377,-7.69426,27.6918,-2.66781,-14.7811,5.65406,-2.61992,-3.56433,-1.82882e-14,1.39149e-14,-21.8196,-58.5209,-65.1173,28.9328,9.90206,-22.2609,22.8357,7.12502,4.15679,-7.10349,-1.82882e-14,1.39149e-14,-8.79682,53.2559,67.4349,39.3617,-1.16211,-22.5433,32.1815,7.12502,3.88414,62.1258,-17.8189,-7.81768,10.8851,28.4027,-16.4385,-19.0346,-18.2889,-13.7097,-8.66758,-14.9813,21.5146,-23.2309,19.4266,-8.06564
-0.823614,17.4851,0.0101395,10.1504,-1.98094,2.17807,-21.8598,1.36804,-0.83215,4.97501,2.56403,-2.70342,18.4209,1.25433,-1.77236,18.4579,-3.24416,-7.27383,27.0405,-2.35454,-16.1483,5.37801,-2.43144,-4.06966,-1.63997e-14,1.94809e-14,-22.163,-60.8064,-64.5323,28.2189,12.1504,-22.3079,23.3269,7.12502,4.1114,-6.61322,-1.63997e-14,1.94809e-14,-9.22275,52.4731,67.085,39.6317,-0.826455,-22.7501,32.2969,7.12502,3.68443,62.2448,-17.854,-7.54859,11.1702,28.3247,-16.4462,-19.5047,-18.0777,-14.0647,-8.00713,-14.6901,21.7182,-22.8509,18.7547,-8.74409
-0.829441,17.4897,0.00507664,10.2702,-1.69128,1.93611,-21.7813,1.40155,-0.666969,4.90359,2.55271,-2.68215,18.2865,1.26593,-1.8457,18.9143,-3.0918,-7.11888,26.048,-2.16935,-17.1508,4.95135,-2.26713,-4.39164,-8.34896e-15,7.95139e-16,-22.6974,-62.0259,-64.0845,27.968,13.222,-22.4482,23.7159,7.12502,3.97596,-6.22674,-8.34896e-15,7.95139e-16,-9.49947,52.2026,66.7548,39.7264,-0.791468,-22.4849,32.1399,7.12502,3.94055,62.0832,-17.8712,-7.32675,11.4827,28.2351,-16.5078,-19.9174,-17.8383,-14.4026,-7.67573,-14.3676,21.9318,-22.5869,18.3603,-9.07455
-0.837363,17.4929,0.00617456,10.3289,-1.33676,1.79752,-21.6633,1.41178,-0.592494,4.81204,2.54558,-2.72289,18.1019,1.27436,-1.93919,19.6408,-2.84484,-7.00819,24.7155,-2.01841,-17.8686,4.38531,-2.06706,-4.5986,1.51076e-14,-7.95139e-16,-23.3792,-61.7066,-63.9124,28.1975,13.0129,-22.3982,23.7404,7.12502,4.02428,-6.20132,1.51076e-14,-7.95139e-16,-9.24732,52.7037,66.704,39.4276,-1.46486,-22.1582,32.1284,7.12502,4.25596,62.0657,-17.769,-7.17618,11.6906,28.0994,-16.5336,-20.3915,-17.7669,-14.6614,-7.72895,-14.1334,22.13,-22.3411,18.2943,-10.1143
-0.835162,17.4938,0.023676,10.4252,-1.05195,1.72593,-21.7974,1.44965,-0.466858,4.73375,2.57568,-2.80896,18.0997,1.30793,-2.09951,20.3008,-2.57162,-6.70364,23.2985,-1.81363,-18.7177,3.79786,-1.81601,-4.88623,-3.18055e-15,8.74653e-15,-24.1246,-61.8177,-63.4799,28.1801,13.4446,-22.1574,23.7498,7.12502,4.25676,-6.18743,-3.18055e-15,8.74653e-15,-9.09601,52.9337,66.6365,39.1939,-1.78331,-22.1777,32.0475,7.12502,4.23715,61.9851,-17.6644,-7.88919,11.7675,27.9322,-16.5485,-19.9513,-17.6132,-14.8535,-7.91354,-14.0542,22.3098,-22.3125,18.3089,-11.102
-0.82193,17.4956,0.0524413,10.6132,-0.938471,1.67685,-22.2628,1.53902,-0.208789,4.77664,2.65295,-2.9194,18.4707,1.38008,-2.34616,20.4367,-2.34045,-6.22871,21.9331,-1.55231,-19.8446,3.29432,-1.55281,-5.30444,1.49089e-15,2.54444e-14,-24.1158,-61.8284,-63.7281,28.1474,13.7669,-22.196,23.7275,7.12502,4.21954,-6.21048,1.49089e-15,2.54444e-14,-8.9216,52.6859,66.6304,39.179,-1.22479,-22.7192,31.8731,7.12502,3.7143,61.8204,-17.7029,-9.63503,11.7747,27.7823,-16.3995,-18.4113,-17.8046,-15.048,-8.30546,-14.0908,22.5031,-22.6308,18.5061,-10.8037
-0.816844,17.5016,0.0644459,10.7961,-0.744939,1.5694,-22.5138,1.58603,0.00352819,5.22741,2.69523,-3.06114,18.5725,1.39344,-2.41349,20.4708,-2.12104,-5.81457,20.0864,-1.42491,-20.9754,2.64834,-1.31383,-5.69756,3.67752e-15,-1.59028e-15,-23.3856,-61.5772,-64.717,28.303,13.6249,-22.3149,23.7701,7.12502,4.10472,-6.17014,3.67752e-15,-1.59028e-15,-8.54467,52.3373,66.851,39.3328,-0.471906,-22.9385,31.6964,7.12502,3.50249,61.6474,-17.7874,-10.5068,11.9109,27.6502,-16.1693,-17.848,-18.325,-15.3404,-8.49445,-13.9795,22.6595,-22.8029,18.5205,-10.4758
-0.819899,17.5028,0.0594487,10.929,-0.45887,1.48094,-22.6157,1.57357,0.03554,5.42971,2.6792,-3.06048,18.8841,1.39223,-2.43622,20.7424,-1.85643,-5.35045,17.7151,-1.40085,-22.1285,1.79907,-1.04986,-6.09719,-1.98785e-15,3.65764e-14,-22.8453,-61.7906,-65.3795,28.3769,13.7819,-22.3377,23.7193,7.12502,4.08267,-6.22136,-1.98785e-15,3.65764e-14,-8.08754,52.1333,67.1887,39.4917,-0.13321,-22.5485,31.6892,7.12502,3.87906,61.6336,-17.8406,-10.5511,12.0509,27.5626,-16.1566,-18.0488,-18.2299,-15.6615,-8.63257,-13.8058,22.7929,-22.6445,18.5241,-11.2619
-0.82277,17.5086,0.0485324,11.0395,-0.228361,1.42889,-22.4447,1.56745,0.0212309,5.45741,2.67341,-3.0607,18.8203,1.38907,-2.43418,20.7798,-1.55457,-5.24205,16.0994,-1.27509,-22.7787,1.26959,-0.828954,-6.30386,1.17283e-14,1.27222e-14,-23.0105,-62.1933,-65.2898,28.3657,14.2627,-22.417,23.4935,7.12502,4.00609,-6.44858,1.17283e-14,1.27222e-14,-7.78098,52.401,67.3493,39.3796,-0.404476,-21.9127,31.6734,7.12502,4.49308,61.6057,-17.9021,-10.4703,12.1495,27.5004,-16.2463,-18.2607,-17.7909,-15.9418,-8.60204,-13.6905,22.8876,-22.3568,18.4381,-11.8532
-0.822694,17.5141,0.0432698,11.145,-0.148073,1.37576,-22.2465,1.63601,0.080883,5.42551,2.74696,-3.07907,18.6763,1.42942,-2.4644,21.1641,-1.22809,-4.90881,13.9433,-1.24739,-23.6102,0.502445,-0.563401,-6.60613,-2.5842e-14,7.95139e-16,-23.2315,-62.48,-65.1373,28.3312,14.6737,-22.4985,23.463,7.12502,3.9274,-6.48059,-2.5842e-14,7.95139e-16,-7.66605,52.7453,67.3683,39.2594,-0.812819,-21.5189,31.2993,7.12502,4.87328,61.2233,-18.0625,-10.3831,12.2581,27.4916,-15.9977,-18.5642,-18.3171,-16.1567,-8.57642,-13.6022,22.9712,-22.3455,18.3229,-11.3953
-0.820191,17.5167,0.0484244,11.2847,-0.0629709,1.32485,-22.1788,1.69685,0.141487,5.41481,2.81028,-3.08173,18.6315,1.46403,-2.47905,21.5261,-0.852057,-4.50115,11.5934,-1.20854,-24.4542,-0.317952,-0.262705,-6.93959,6.16232e-15,2.70347e-14,-23.2118,-62.3301,-65.2603,28.4106,14.4694,-22.4717,23.5597,7.12502,3.95325,-6.38339,6.16232e-15,2.70347e-14,-7.83108,52.6462,67.2569,39.3721,-0.902358,-21.3526,30.9768,7.12502,5.03391,60.897,-18.2691,-10.6285,12.3575,27.4855,-15.6448,-18.6208,-19.0796,-16.3435,-8.67506,-13.5234,23.0135,-22.3056,18.3844,-11.7273
-0.817967,17.5195,0.0538436,11.4388,0.101699,1.28714,-22.1076,1.71805,0.158614,5.3961,2.83169,-3.08015,18.5697,1.47516,-2.48033,21.8973,-0.454834,-4.14156,9.18664,-1.19629,-25.1302,-1.14793,0.0338097,-7.22571,-1.98785e-16,7.95139e-16,-23.2754,-62.0097,-65.3421,28.5829,14.0527,-22.6017,23.3897,7.12502,3.82773,-6.55571,-1.98785e-16,7.95139e-16,-8.15923,52.3819,66.9708,39.5501,-0.706443,-21.1808,30.8698,7.12502,5.19977,60.786,-18.4426,-11.1122,12.4386,27.4882,-15.5258,-18.4108,-19.314,-16.5488,-8.74889,-13.4658,23.0465,-22.3025,18.361,-11.8446
-0.815924,17.5252,0.0582791,11.636,0.262658,1.30063,-22.1947,1.73025,0.112543,5.42998,2.86564,-3.0842,18.6614,1.48498,-2.4444,22.2153,-0.00594533,-3.98683,6.72231,-1.18757,-25.526,-1.97007,0.32353,-7.40072,-4.45278e-14,2.3059e-14,-23.4006,-62.5919,-65.1317,28.488,14.5652,-22.5775,23.586,7.12502,3.85114,-6.35896,-4.45278e-14,2.3059e-14,-8.24518,52.4909,66.8243,39.6362,-0.656023,-21.1623,30.9633,7.12502,5.21767,60.8791,-18.6264,-11.5317,12.4718,27.4832,-15.4786,-18.2098,-19.3618,-16.7966,-8.86016,-13.4544,23.0685,-22.4547,18.2559,-10.9054
-0.815962,17.5346,0.0577407,11.8401,0.443988,1.28496,-22.2839,1.74265,0.0729974,5.50753,2.89628,-3.06801,18.8074,1.4929,-2.39072,22.3923,0.492772,-3.80532,4.24694,-1.1032,-25.9001,-2.76476,0.644993,-7.59712,-1.88845e-14,1.27222e-14,-23.3969,-63.3996,-64.9517,28.3819,15.1873,-22.3382,23.9954,7.12502,4.08219,-5.94523,-1.88845e-14,1.27222e-14,-7.98542,52.5391,66.9528,39.6275,-0.546519,-21.6143,31.3374,7.12502,4.78124,61.2635,-18.7983,-11.5411,12.5407,27.4652,-15.4942,-18.3623,-19.2132,-17.0564,-8.93251,-13.3826,23.0528,-22.5741,18.0412,-9.93481
-0.81283,17.5439,0.0567484,12.0296,0.5793,1.29863,-22.3438,1.77557,0.0488371,5.65602,2.95769,-3.07758,19.031,1.51865,-2.36386,22.3413,1.01962,-3.4556,1.74063,-0.929736,-26.3194,-3.52598,1.00105,-7.86187,-2.16675e-14,3.10104e-14,-22.9771,-63.2536,-65.4448,28.7192,14.8162,-22.3758,23.9442,7.12502,4.04584,-5.99716,-2.16675e-14,3.10104e-14,-7.3811,52.4765,67.3502,39.5909,-0.401985,-21.721,31.453,7.12502,4.67813,61.3813,-18.9804,-11.5566,12.5425,27.4664,-15.5451,-18.4353,-18.9252,-17.3097,-9.32147,-13.34,23.0562,-22.5871,18.3516,-10.0364
-0.807164,17.5526,0.0613321,12.2172,0.684165,1.3467,-22.3894,1.80454,0.036268,5.75932,3.01617,-3.12989,19.1945,1.54748,-2.39277,22.45,1.54003,-3.03395,-0.882251,-0.795374,-26.6494,-4.35045,1.35268,-8.13641,-4.57205e-15,1.59028e-15,-22.6518,-63.2493,-65.8374,28.9554,14.6999,-22.4235,23.961,7.12502,3.99985,-5.98116,-4.57205e-15,1.59028e-15,-6.90315,52.7483,67.5371,39.5027,-0.486352,-21.1469,31.1724,7.12502,5.23251,61.0878,-19.1658,-11.9757,12.5131,27.469,-15.4358,-18.1999,-19.2258,-17.515,-9.6741,-13.3727,23.0504,-22.4899,18.7122,-10.5928
-0.806213,17.554,0.0611927,12.3924,0.847013,1.38878,-22.3206,1.789,-0.0534609,5.7084,3.02101,-3.1432,19.0866,1.53987,-2.35673,23.1171,2.10701,-2.77832,-3.7169,-0.733431,-26.6817,-5.33646,1.70558,-8.32687,3.29983e-14,-7.95139e-15,-22.856,-63.7303,-65.5128,28.8854,15.0419,-22.3315,24.4004,7.12502,4.08869,-5.54014,3.29983e-14,-7.95139e-15,-7.0776,52.9646,67.1899,39.4261,-0.495687,-21.1282,31.2959,7.12502,5.25061,61.2109,-19.3106,-11.9153,12.4938,27.4559,-15.5177,-18.4082,-18.9522,-17.7871,-9.35296,-13.4049,23.0824,-22.1743,18.3717,-11.2938
-0.805193,17.559,0.056725,12.568,0.975988,1.3957,-22.1755,1.79167,-0.136391,5.57315,3.03786,-3.13024,18.8282,1.53587,-2.29195,24.1331,2.66878,-2.46215,-6.7082,-0.720463,-26.6764,-6.4527,2.05769,-8.56802,8.94531e-15,1.90833e-14,-23.3172,-62.9182,-65.1674,29.2822,13.9431,-22.4047,24.4413,7.12502,4.01796,-5.50061,8.94531e-15,1.90833e-14,-7.70663,52.6243,66.5874,39.573,-0.178131,-21.52,31.7075,7.12502,4.87221,61.6315,-19.4636,-11.3719,12.4993,27.4144,-15.6138,-19.038,-18.5408,-18.099,-9.10003,-13.3689,23.1141,-22.083,18.0207,-11.143
-0.798838,17.5668,0.0522982,12.7805,1.08971,1.38796,-22.0545,1.81992,-0.117946,5.51026,3.06247,-3.11483,18.6814,1.5475,-2.27853,24.7175,3.33648,-2.08656,-9.61222,-0.429137,-26.5811,-7.44419,2.47795,-8.83312,1.59028e-14,-7.95139e-15,-23.4563,-61.7024,-65.1651,29.9612,12.3428,-22.5672,24.1705,7.12502,3.861,-5.77431,1.59028e-14,-7.95139e-15,-7.72981,52.6471,66.4877,39.6037,-0.155072,-21.3582,31.5238,7.12502,5.02849,61.4441,-19.6695,-11.2262,12.5078,27.3803,-15.5574,-19.2719,-18.4722,-18.4342,-9.15532,-13.3305,23.1789,-22.0909,18.0421,-10.863
-0.792019,17.5756,0.0485115,12.9794,1.21203,1.39597,-21.9229,1.85924,-0.0655823,5.52338,3.09989,-3.12353,18.6285,1.57122,-2.3071,24.6717,4.21485,-1.99324,-12.1186,0.336467,-26.0601,-8.12919,2.99997,-8.91267,9.54166e-15,-1.11319e-14,-23.3777,-61.467,-65.1382,30.3838,11.7265,-22.6666,24.0974,7.12502,3.76505,-5.84908,9.54166e-15,-1.11319e-14,-7.41406,52.8859,66.5639,39.5414,-0.268327,-20.7555,31.0404,7.12502,5.61041,60.9461,-19.8623,-11.3763,12.5178,27.3459,-15.4652,-19.2673,-18.504,-18.7146,-9.0134,-13.3491,23.2223,-21.9163,17.9529,-11.0807
-0.787748,17.579,0.0441342,13.0906,1.28935,1.41652,-21.7373,1.90429,-0.119865,5.20863,3.15188,-3.0439,18.7341,1.62384,-2.36958,24.7844,5.02089,-1.9622,-14.5248,1.05147,-25.4061,-8.83312,3.46939,-8.94602,-2.74323e-14,1.66979e-14,-23.9004,-61.3961,-64.6147,30.8987,11.0695,-22.7302,23.8709,7.12502,3.7036,-6.07662,-2.74323e-14,1.66979e-14,-7.66213,52.698,66.2273,39.7096,-0.108079,-20.9735,31.1752,7.12502,5.39989,61.0864,-19.9696,-11.2268,12.4886,27.3096,-15.4161,-19.4972,-18.4413,-18.9121,-8.90002,-13.3797,23.2771,-21.8046,17.8979,-11.1853
-0.783301,17.5769,0.0444666,13.148,1.34593,1.49155,-21.5014,1.95207,-0.203929,5.10703,3.24147,-3.1014,18.4587,1.65758,-2.35868,25.3174,5.76324,-1.87445,-17.154,1.66878,-24.6708,-9.72867,3.89587,-9.0153,-4.17448e-15,-1.19271e-14,-24.8434,-61.5784,-63.6486,31.3326,10.7391,-22.6649,23.7591,7.12502,3.76669,-6.18734,-4.17448e-15,-1.19271e-14,-8.11057,52.3657,65.7658,39.9536,0.16423,-21.522,31.4318,7.12502,4.87035,61.3558,-20.0093,-11.0923,12.3851,27.2839,-15.3565,-19.7132,-18.5623,-19.0268,-8.89873,-13.462,23.3373,-21.9318,17.6367,-10.6581
-0.77594,17.5768,0.0513339,13.2289,1.38308,1.54901,-21.4981,2.0148,-0.250084,5.0225,3.34259,-3.14049,18.3544,1.69887,-2.34015,25.8048,6.53253,-1.84458,-19.6743,2.41742,-23.8277,-10.5926,4.33274,-9.06171,-2.3059e-14,3.4191e-14,-25.6339,-62.0891,-62.6211,31.5252,10.9257,-22.7041,23.8835,7.12502,3.7288,-6.06365,-2.3059e-14,3.4191e-14,-8.5521,51.9445,65.295,40.1878,0.500175,-21.3172,31.3198,7.12502,5.06809,61.2392,-20.057,-11.2343,12.3048,27.2717,-15.371,-19.6188,-18.5424,-19.142,-8.81428,-13.5609,23.4004,-21.9229,17.48,-10.7406
-0.769525,17.5804,0.0550518,13.3606,1.4943,1.47734,-21.4356,2.07064,-0.228471,4.79168,3.39383,-3.10665,18.0227,1.71839,-2.29209,26.5352,7.25349,-1.68823,-22.1264,3.19522,-23.0216,-11.5086,4.74775,-9.18651,2.18663e-15,2.78299e-14,-26.889,-62.1143,-61.1452,31.7664,10.6462,-22.8399,24.1481,7.12502,3.59768,-5.80124,2.18663e-15,2.78299e-14,-9.4636,51.2155,64.4776,40.4647,1.18881,-21.3882,31.4612,7.12502,4.99954,61.3822,-20.1624,-11.3437,12.3996,27.2811,-15.4781,-19.5843,-18.2824,-19.3287,-8.62581,-13.5016,23.4355,-21.8194,17.3296,-11.2151
-0.76519,17.5862,0.0533231,13.4876,1.65192,1.45652,-21.3674,2.10739,-0.315804,4.88841,3.47593,-3.13306,18.1034,1.748,-2.24544,26.3125,7.86781,-1.37994,-24.5607,4.05856,-22.2315,-12.2475,5.11598,-9.29762,3.57812e-15,1.59028e-15,-26.949,-62.4711,-60.8251,32.0709,10.1589,-23.0228,24.3949,7.12502,3.42111,-5.55744,3.57812e-15,1.59028e-15,-8.63383,51.2813,64.9055,40.4243,1.19796,-21.5142,31.5536,7.12502,4.87781,61.4775,-20.2763,-11.3306,12.4598,27.2745,-15.4101,-19.81,-18.4298,-19.5443,-8.47427,-13.4615,23.4534,-21.6662,17.1044,-11.688
-0.760289,17.5895,0.0492155,13.6081,1.67409,1.52035,-21.2399,2.17313,-0.492354,4.81786,3.62218,-3.21421,17.9365,1.79941,-2.18877,26.273,8.42979,-0.857464,-26.5536,5.09014,-21.3295,-12.8427,5.47671,-9.39181,2.44505e-14,3.97569e-15,-27.8186,-62.8347,-59.7437,32.2891,9.90857,-23.051,24.5852,7.12502,3.39387,-5.36754,2.44505e-14,3.97569e-15,-8.34984,51.1932,64.879,40.4599,1.04172,-21.1926,31.3275,7.12502,5.18842,61.244,-20.4572,-11.5556,12.4238,27.2732,-15.1936,-19.7519,-18.8084,-19.7373,-8.51615,-13.52,23.4717,-21.5323,17.1716,-11.9163
-0.754481,17.5934,0.0428513,13.7294,1.66788,1.50565,-21.0856,2.25553,-0.600117,4.68572,3.76218,-3.26873,17.6772,1.8536,-2.14294,26.064,9.07346,-0.54446,-28.2516,6.38627,-20.0419,-13.2919,5.8771,-9.27596,-1.88845e-14,2.3059e-14,-28.8698,-63.046,-58.4958,32.5237,9.56796,-22.9099,24.6749,7.12502,3.53012,-5.27562,-1.88845e-14,2.3059e-14,-8.644,50.7655,64.4823,40.7762,1.34769,-21.2293,31.2222,7.12502,5.15293,61.1396,-20.6419,-11.686,12.4527,27.2937,-15.1657,-19.6446,-18.7215,-19.8896,-8.55369,-13.5053,23.4687,-21.4061,17.2641,-11.8789
-0.75032,17.5949,0.0415781,13.7767,1.65687,1.43547,-20.9426,2.33004,-0.685321,4.60702,3.88305,-3.29709,17.4912,1.90037,-2.08701,25.879,9.69758,-0.328332,-30.0214,7.73907,-18.5431,-13.822,6.25309,-9.08425,2.78299e-15,2.94201e-14,-29.716,-62.8534,-57.5958,32.9809,8.62111,-23.1012,24.5671,7.12502,3.34541,-5.38641,2.78299e-15,2.94201e-14,-8.85153,50.4399,64.2134,41.1926,1.70772,-21.0728,31.1316,7.12502,5.30409,61.0453,-20.7288,-11.6395,12.5289,27.3129,-15.0963,-19.6972,-18.8694,-19.9365,-8.37498,-13.4619,23.4739,-21.2114,17.2321,-12.2873
-0.745426,17.5944,0.0418174,13.7929,1.58072,1.3926,-20.7577,2.39259,-0.852451,4.50633,4.00445,-3.30986,17.2442,1.93818,-1.96766,25.597,10.2258,-0.00640208,-31.4001,9.13522,-16.9614,-14.2005,6.58796,-8.82244,1.63003e-14,3.73715e-14,-30.4829,-62.7253,-56.6279,33.2133,7.61743,-23.7669,24.321,7.12502,2.7025,-5.64159,1.63003e-14,3.73715e-14,-8.78805,50.3874,64.1229,41.383,1.83195,-20.8463,31.2304,7.12502,5.52272,61.1385,-20.7883,-11.4617,12.5619,27.2913,-14.9277,-19.9006,-19.222,-19.97,-8.27928,-13.4316,23.5208,-21.4064,17.0752,-11.519
-0.741279,17.5965,0.0405204,13.8339,1.54643,1.3901,-20.6154,2.40285,-1.17182,4.43442,4.08328,-3.23209,17.0375,1.93477,-1.67102,25.03,10.6056,0.202517,-32.381,10.387,-15.2718,-14.4234,6.83387,-8.40287,-2.38542e-14,5.48646e-14,-31.1995,-62.8993,-55.3779,33.2885,6.99283,-24.1661,23.9097,7.12502,2.31692,-6.05749,-2.38542e-14,5.48646e-14,-8.39271,50.9106,64.388,41.2961,1.55689,-21.5788,31.7456,7.12502,4.81553,61.6709,-20.8457,-11.4726,12.5655,27.2353,-14.659,-19.9487,-19.7685,-20.0501,-8.21217,-13.4435,23.5638,-21.4771,17.0263,-11.2989
-0.737275,17.5999,0.0415652,13.8504,1.51018,1.37404,-20.7006,2.41112,-1.47661,4.51964,4.16767,-3.12924,17.1659,1.93098,-1.34583,24.7274,10.7601,0.301821,-33.8519,11.3103,-13.5094,-15.0259,6.91287,-7.99623,-1.90833e-14,-4.92986e-14,-31.6792,-63.2572,-54.3515,33.4633,6.40542,-23.9267,24.2222,7.12502,2.54813,-5.74235,-1.90833e-14,-4.92986e-14,-7.80529,51.4025,64.8455,41.2827,1.30508,-21.5541,31.7596,7.12502,4.83935,61.6843,-20.8501,-11.5259,12.5794,27.1684,-14.5531,-19.878,-19.9127,-20.0665,-8.1352,-13.4525,23.6138,-21.4928,17.0925,-11.466
-0.72982,17.6039,0.0426891,13.8535,1.41641,1.27203,-20.707,2.47103,-1.59285,4.52144,4.26865,-3.05939,17.1587,1.95781,-1.16275,24.7279,10.6602,0.456749,-35.3632,11.9949,-11.599,-15.8078,6.82643,-7.53784,2.48481e-14,7.95139e-16,-32.4774,-63.6325,-53.1602,33.6311,5.84609,-23.1887,25.0509,7.12502,3.26084,-4.90389,2.48481e-14,7.95139e-16,-7.80938,51.2525,64.8417,41.5286,1.57781,-20.4007,31,7.12502,5.95293,60.8964,-20.8297,-11.5053,12.6719,27.0732,-14.6262,-19.7309,-19.5295,-20.0847,-8.09108,-13.3643,23.6985,-21.5916,17.139,-11.0112
-0.717804,17.6031,0.043152,13.8819,1.28547,1.22022,-20.632,2.52587,-1.69272,4.46875,4.35357,-2.99914,17.0343,1.98182,-1.00903,24.2574,10.2691,0.507534,-35.9589,12.3674,-9.33899,-16.1638,6.58073,-6.69418,3.85642e-14,-4.6118e-14,-33.0474,-63.7663,-52.2524,33.8754,5.02157,-23.0013,25.1335,7.12502,3.44181,-4.81847,3.85642e-14,-4.6118e-14,-8.14405,50.8216,64.5737,41.8877,2.26937,-20.2775,30.8229,7.12502,6.07195,60.7158,-20.8224,-11.8733,12.711,26.9823,-14.7155,-19.1489,-19.0843,-20.1371,-8.0681,-13.3611,23.8015,-21.7953,17.0544,-10.3461
-0.701408,17.603,0.048168,13.9522,1.0939,1.26776,-20.7495,2.58485,-1.82165,4.49712,4.46325,-2.93246,17.1273,2.00978,-0.815591,23.5201,9.66109,0.307649,-36.1078,12.4424,-6.72177,-16.3448,6.20609,-5.53785,-1.31198e-14,-1.35174e-14,-33.0452,-63.4839,-51.9325,34.2653,3.95038,-23.3607,24.808,7.12502,3.0948,-5.14933,-1.31198e-14,-1.35174e-14,-8.11673,50.887,64.6382,42.0568,2.38275,-20.8042,31.1384,7.12502,5.56341,61.0453,-20.909,-12.6536,12.6486,26.914,-14.643,-18.2401,-19.1251,-20.1654,-8.12798,-13.5212,23.8831,-21.931,17.2242,-10.449
-0.686151,17.6038,0.055401,14.0457,0.861244,1.36577,-20.8816,2.63756,-1.95287,4.40685,4.56576,-2.90637,17.0847,2.03909,-0.670346,23.3738,8.83464,0.218205,-36.2598,12.2722,-4.01502,-16.6889,5.69115,-4.36018,-3.93594e-14,-4.77083e-15,-33.4249,-63.2495,-51.3007,34.5646,3.49104,-23.2144,24.8311,7.12502,3.23608,-5.12408,-3.93594e-14,-4.77083e-15,-8.51409,51.0255,64.2974,42.184,2.07019,-20.8441,31.2418,7.12502,5.52484,61.1497,-21.1065,-13.326,12.5262,26.9057,-14.4838,-17.4961,-19.4608,-20.2133,-8.1893,-13.7405,23.9557,-21.8018,17.5844,-11.3404
-0.683698,17.6038,0.0530035,14.0836,0.757218,1.42145,-20.8079,2.60119,-2.20192,4.27157,4.55712,-2.80978,16.8402,2.00653,-0.424409,23.6398,7.86751,0.0126982,-36.3872,11.923,-1.1275,-17.1588,5.0832,-3.05474,2.78299e-15,1.74931e-14,-33.5791,-63.0398,-50.84,34.7867,2.96384,-22.6903,24.7405,7.12502,3.74216,-5.20644,2.78299e-15,1.74931e-14,-9.17672,50.8899,63.6965,42.3921,2.14717,-20.7456,31.2223,7.12502,5.61996,61.1278,-21.1429,-13.0081,12.4275,26.9296,-14.6103,-17.6263,-19.1513,-20.2764,-8.06678,-13.8151,23.9832,-21.6881,17.5238,-11.4083
-0.693409,17.6018,0.0442255,14.0266,0.787458,1.45288,-20.6393,2.49784,-2.52695,4.19457,4.47293,-2.6857,16.6019,1.93239,-0.133917,23.9348,6.85219,-0.343402,-36.3061,11.5312,2.01082,-17.563,4.4553,-1.55768,-1.70955e-14,9.54166e-15,-33.3511,-62.7377,-50.8524,35.012,1.98557,-22.8422,24.5226,7.12502,3.5955,-5.42678,-1.70955e-14,9.54166e-15,-9.82304,50.5386,63.0711,42.7545,2.67174,-20.4857,30.952,7.12502,5.87088,60.8507,-21.0116,-11.7169,12.3399,26.9784,-14.8208,-18.8047,-18.7603,-20.2685,-7.72898,-13.7958,23.9751,-21.6058,17.2603,-11.4963
-0.696515,17.6025,0.0406174,13.939,0.769754,1.43124,-20.5208,2.44161,-2.68076,4.18326,4.4153,-2.58241,16.4928,1.8866,0.0474176,24.1482,5.71265,-0.656673,-36.0411,10.9287,5.11932,-17.8238,3.76491,0.0154943,-2.60408e-14,3.1408e-14,-32.9704,-62.6159,-51.024,35.1361,1.26885,-23.5008,24.4446,7.12502,2.95947,-5.51458,-2.60408e-14,3.1408e-14,-10.353,50.3656,62.5622,43.1729,2.983,-20.397,30.7765,7.12502,5.95655,60.6728,-20.9678,-10.7898,12.3123,27.0291,-14.6899,-19.6338,-19.0032,-20.1682,-7.41425,-13.7792,23.9506,-21.5171,17.1585,-11.6782
-0.687054,17.6017,0.0425972,13.9042,0.636883,1.4219,-20.5668,2.45766,-2.59983,4.24684,4.42172,-2.58553,16.6061,1.89505,0.00289469,24.2777,4.4276,-0.856937,-35.7712,10.094,8.12647,-18.0038,2.99801,1.61674,3.77691e-15,-4.77083e-15,-32.4938,-63.1135,-51.2889,35.1116,1.1278,-23.6455,24.5999,7.12502,2.81975,-5.36117,3.77691e-15,-4.77083e-15,-10.5975,50.1455,62.1991,43.6075,3.29442,-20.9509,30.9863,7.12502,5.42173,60.8969,-21.0209,-10.5463,12.2575,27.071,-14.3877,-19.8042,-19.7655,-20.0815,-7.3969,-13.8229,23.9382,-21.3952,17.2367,-12.0858
-0.674901,17.5987,0.047366,13.8725,0.440585,1.42997,-20.7959,2.4358,-2.56325,4.68564,4.39991,-2.46857,17.2848,1.86415,0.124478,23.3965,3.1501,-1.39517,-35.3965,9.02155,11.0648,-17.8129,2.24816,3.32912,-2.38542e-15,1.59028e-15,-30.2833,-64.3504,-52.7764,34.9175,1.4336,-23.2257,24.7315,7.12502,3.22509,-5.22383,-2.38542e-15,1.59028e-15,-9.80039,50.5139,62.8859,44.021,3.72101,-21.661,31.4029,7.12502,4.73607,61.3299,-21.0495,-10.8278,12.2158,27.0773,-14.1608,-19.5318,-20.6126,-19.9888,-7.36463,-13.9109,23.9465,-21.5307,17.0617,-11.7043
-0.665061,17.5976,0.0472862,13.8653,0.292552,1.44063,-20.8364,2.4467,-2.47652,4.77108,4.39385,-2.4458,17.4215,1.86564,0.102474,23.4016,1.82377,-1.69616,-34.9335,7.9276,13.9318,-17.723,1.44433,4.97237,-5.77469e-14,2.10712e-14,-29.2565,-64.9921,-53.4438,34.773,1.49198,-23.0386,24.6138,7.12502,3.40587,-5.33877,-5.77469e-14,2.10712e-14,-9.85113,50.5042,62.7976,44.4472,4.17463,-22.0449,31.6267,7.12502,4.36538,61.5617,-21.0561,-11.0999,12.1749,27.0665,-14.2012,-19.2686,-20.8026,-19.9796,-7.29384,-13.9808,23.989,-21.8429,16.8316,-10.5383
-0.659379,17.5989,0.0441625,13.8638,0.191916,1.43152,-20.9142,2.4112,-2.45649,4.80619,4.33866,-2.40231,17.5117,1.83765,0.126073,23.6044,0.567914,-2.0174,-34.2808,6.86426,16.768,-17.5326,0.662984,6.59589,2.127e-14,7.55382e-15,-28.2632,-65.6255,-54.0973,34.5491,1.63498,-22.9987,24.389,7.12502,3.44431,-5.5629,2.127e-14,7.55382e-15,-9.84961,50.849,62.7413,44.6718,4.01668,-21.8632,31.2699,7.12502,4.54083,61.2012,-21.0269,-10.899,12.1355,27.058,-14.3922,-19.4139,-20.5552,-20.0113,-7.11729,-14.0195,24.0445,-21.7331,16.9353,-10.9585
-0.652353,17.5981,0.0418855,13.885,0.0550101,1.47282,-21.109,2.3444,-2.54081,4.95157,4.27153,-2.29843,17.8007,1.78319,0.280974,23.2531,-0.520277,-2.52967,-33.1406,5.81532,19.571,-16.8968,-0.0477962,8.14266,2.09718e-14,-3.89618e-14,-26.5821,-66.4138,-55.2318,34.2299,1.88287,-22.7869,24.3767,7.12502,3.64884,-5.57183,2.09718e-14,-3.89618e-14,-9.66719,51.1246,62.9174,44.8805,4.00157,-21.6345,31.235,7.12502,4.76175,61.1615,-21.071,-10.8882,12.063,27.0623,-14.4229,-19.3486,-20.5405,-20.0231,-6.98469,-14.1205,24.086,-21.6072,17.0478,-11.3126
-0.644993,17.5953,0.0357967,13.8877,-0.103632,1.51682,-21.1523,2.31606,-2.57519,5.04191,4.24124,-2.24721,17.935,1.75856,0.352344,22.7866,-1.62585,-2.95523,-31.6372,4.59946,22.2444,-15.9749,-0.813122,9.53538,8.38871e-14,-6.48038e-14,-25.054,-66.4715,-56.5039,34.1906,1.38197,-22.6969,24.0623,7.12502,3.73578,-5.88467,8.38871e-14,-6.48038e-14,-9.783,50.7735,62.8481,45.2531,4.46136,-21.7102,31.4409,7.12502,4.6886,61.369,-21.1491,-11.0011,12.0085,27.0749,-14.3631,-19.1165,-20.5085,-20.0213,-6.84648,-14.2267,24.1187,-21.5864,17.0805,-11.5289
-0.639817,17.594,0.028666,13.8436,-0.239819,1.58327,-21.0919,2.27876,-2.61515,5.0556,4.19893,-2.24081,17.9113,1.73593,0.364928,22.6455,-2.83475,-3.34359,-30.0673,3.11765,24.7559,-15.0182,-1.69283,10.8405,2.3556e-14,-5.56597e-15,-24.0403,-65.5885,-57.6189,34.4376,0.230932,-22.6803,23.8709,7.12502,3.75182,-6.0758,2.3556e-14,-5.56597e-15,-10.1232,50.3224,62.5729,45.6437,4.84518,-21.8354,31.6678,7.12502,4.56768,61.5986,-21.1583,-10.8554,11.9007,27.1026,-14.3888,-19.0077,-20.0951,-19.9805,-6.86406,-14.3156,24.1423,-21.5153,17.2965,-11.7204
-0.630474,17.5939,0.0266375,13.8273,-0.394435,1.67728,-21.1195,2.2314,-2.69084,5.02237,4.14812,-2.19755,17.8776,1.70244,0.441036,22.913,-4.07256,-3.86273,-28.5174,1.44213,27.0973,-14.0925,-2.64578,12.0988,3.08116e-15,1.19271e-15,-23.318,-64.5483,-58.3723,34.6413,-0.692661,-22.5459,23.9245,7.12502,3.8816,-6.0199,3.08116e-15,1.19271e-15,-10.5265,49.9775,62.266,45.8567,5.12187,-21.6595,31.627,7.12502,4.73754,61.554,-21.189,-11.0273,11.7839,27.1272,-14.2856,-18.5987,-20.0228,-19.9465,-6.88753,-14.4642,24.1609,-21.4585,17.5837,-12.043
-0.620456,17.5952,0.0198823,13.8957,-0.558264,1.72921,-21.1274,2.20402,-2.68174,4.9189,4.10394,-2.20273,17.7535,1.68749,0.413341,23.2562,-5.21877,-4.40881,-26.7067,-0.226351,29.3839,-13.0521,-3.58827,13.2492,-2.127e-14,1.31198e-14,-22.6959,-64.1969,-58.9494,34.5278,-0.800891,-22.4125,23.8266,7.12502,4.01046,-6.11541,-2.127e-14,1.31198e-14,-10.765,49.8211,61.9397,45.857,5.23273,-22.0561,31.5932,7.12502,4.35464,61.5284,-21.3313,-11.2723,11.7326,27.1386,-14.2283,-18.0755,-19.7413,-20.0084,-6.82309,-14.5701,24.1722,-21.5541,17.6093,-11.4956
-0.611724,17.5981,0.0143948,13.9698,-0.766291,1.66013,-21.1733,2.23272,-2.52836,4.84034,4.10221,-2.23104,17.6968,1.70681,0.293899,23.2616,-6.27648,-5.03826,-24.5457,-1.93751,31.7256,-11.7757,-4.51907,14.3095,-1.67973e-14,1.86858e-14,-21.8564,-64.9197,-59.5922,33.9815,0.115678,-22.2183,23.9943,7.12502,4.19801,-5.94403,-1.67973e-14,1.86858e-14,-10.7419,50.036,61.8174,45.8547,5.00159,-23.2135,32.0115,7.12502,3.23688,61.9667,-21.5403,-11.3356,11.7919,27.1604,-14.1051,-17.7537,-19.6585,-20.0653,-6.61976,-14.5641,24.1722,-21.5184,17.6291,-11.5486
-0.604277,17.5983,0.0157018,13.969,-1.0129,1.62133,-21.2771,2.26733,-2.44358,4.84165,4.13439,-2.25779,17.7718,1.73018,0.230304,22.9779,-7.33517,-5.72076,-22.0985,-3.86835,33.9445,-10.2723,-5.49868,15.2099,-4.17448e-15,2.38542e-15,-20.7955,-65.7142,-60.4634,33.44,1.1538,-22.0605,24.3427,7.12502,4.3503,-5.59265,-4.17448e-15,2.38542e-15,-10.5051,50.2844,61.8953,45.83,4.65577,-23.5536,32.2004,7.12502,2.90849,62.1603,-21.6432,-11.205,11.7693,27.2099,-14.0534,-17.6785,-19.788,-19.9988,-6.49062,-14.5908,24.1476,-21.7043,17.6528,-11.0643
-0.612024,17.5961,-0.00561592,13.8672,-1.09863,1.6584,-21.0663,2.16343,-2.70253,4.90303,4.05346,-2.2172,17.6958,1.66585,0.387593,22.4817,-8.27123,-6.42387,-19.4177,-5.83465,35.9137,-8.65,-6.42555,15.8972,2.84262e-14,-1.15295e-14,-19.2092,-66.0034,-61.8664,32.9569,1.67685,-22.2442,24.3784,7.12502,4.17293,-5.56051,2.84262e-14,-1.15295e-14,-10.1211,50.2078,62.1868,45.85,4.59101,-23.475,32.3013,7.12502,2.98437,62.2602,-21.548,-9.60513,11.6252,27.2688,-14.2811,-19.2217,-19.4545,-19.9657,-6.21562,-14.5692,24.1172,-21.6625,17.4119,-10.8646
-0.62666,17.598,-0.0497347,13.7873,-1.09459,1.65704,-20.5937,2.02475,-2.98392,4.90141,3.91448,-2.18058,17.3777,1.58092,0.522129,22.1732,-9.04602,-7.15299,-16.7436,-7.67697,37.7519,-7.12149,-7.26839,16.5449,-5.30755e-14,2.18663e-14,-17.5856,-66.6683,-63.2277,32.2063,2.52092,-21.9941,24.4808,7.12502,4.41446,-5.45322,-5.30755e-14,2.18663e-14,-9.86469,49.7469,62.3706,45.9666,4.83286,-23.6972,32.4527,7.12502,2.76981,62.4145,-21.55,-7.34086,11.5122,27.3227,-14.6828,-21.4314,-18.5462,-20.0974,-5.78476,-14.4463,24.101,-21.1999,17.2222,-11.6688
-0.62522,17.6004,-0.0807341,13.7961,-1.15531,1.61912,-20.4172,1.95933,-2.99449,4.88853,3.81843,-2.17494,17.252,1.54066,0.494618,22.1943,-9.77417,-7.98602,-14.1584,-9.56672,39.4523,-5.66747,-8.12958,17.2126,1.89839e-14,-8.74653e-15,-15.9326,-67.4591,-64.589,31.3982,3.45398,-21.8268,24.8331,7.12502,4.57599,-5.09747,1.89839e-14,-8.74653e-15,-9.75398,49.2282,62.4827,46.0972,5.10158,-23.8828,32.5109,7.12502,2.59058,62.4749,-21.6915,-6.57351,11.4996,27.3614,-14.8005,-22.2182,-18.3112,-20.2356,-5.60835,-14.3766,24.1127,-20.9169,17.3271,-12.5076
-0.612846,17.602,-0.0930684,13.7971,-1.35228,1.55418,-20.5083,1.94457,-2.87975,4.95311,3.77548,-2.17539,17.3981,1.53011,0.418227,22.2553,-10.4396,-8.811,-11.6346,-11.4572,40.927,-4.23138,-8.9722,17.8008,2.5842e-15,5.1684e-15,-13.7423,-67.863,-66.5545,30.747,4.17557,-22.1945,24.6925,7.12502,4.22099,-5.24546,2.5842e-15,5.1684e-15,-9.82755,48.6201,62.5463,46.4188,5.44142,-24.1506,32.7154,7.12502,2.33194,62.6824,-21.804,-6.94163,11.5731,27.3613,-14.7268,-21.7802,-18.3715,-20.2758,-5.5829,-14.3613,24.1668,-20.9826,17.452,-12.7784
-0.599499,17.602,-0.102076,13.7594,-1.61139,1.5039,-20.5128,1.93663,-2.77521,4.97512,3.74475,-2.21815,17.4395,1.53022,0.298896,22.3466,-10.947,-9.61058,-9.21536,-13.1682,42.2364,-2.87066,-9.72018,18.3622,1.03368e-14,-2.50469e-14,-11.9056,-67.5727,-68.3847,30.2635,4.41009,-22.4577,24.417,7.12502,3.96682,-5.52582,1.03368e-14,-2.50469e-14,-9.9981,48.0412,62.4515,46.6853,5.49305,-24.2169,32.9711,7.12502,2.26787,62.9388,-21.8703,-7.28814,11.605,27.3185,-14.5487,-21.221,-18.4172,-20.268,-5.56851,-14.3778,24.2567,-21.2425,17.1344,-11.9484
-0.585524,17.6031,-0.116375,13.7413,-1.78546,1.49508,-20.4796,1.8911,-2.69979,4.9995,3.67331,-2.28343,17.4608,1.51181,0.154253,22.4025,-11.4337,-10.1254,-6.70248,-14.8669,43.0183,-1.52056,-10.4158,18.6107,1.17283e-14,5.1684e-15,-9.92836,-67.4868,-70.2829,29.6021,4.88242,-22.4388,24.4377,7.12502,3.98501,-5.50481,1.17283e-14,5.1684e-15,-9.83267,47.7025,62.5525,46.6912,5.41104,-24.2459,33.1037,7.12502,2.23984,63.0717,-21.9374,-7.63215,11.6,27.2495,-14.2018,-20.7319,-18.7459,-20.3056,-5.51953,-14.4382,24.3586,-21.4639,16.8349,-11.0697
-0.575793,17.6063,-0.135166,13.7677,-1.92157,1.46699,-20.5382,1.80737,-2.7224,5.04837,3.57514,-2.30294,17.5605,1.46551,0.112196,22.9074,-11.9722,-9.94425,-4.17702,-16.4184,42.9045,-0.440054,-11.0193,18.3376,-2.18663e-15,-2.34566e-14,-7.32393,-68.2872,-72.6338,28.6532,6.33912,-22.1739,24.8103,7.12502,4.24087,-5.12721,-2.18663e-15,-2.34566e-14,-9.72582,47.22,62.684,46.7318,5.38598,-24.2495,33.0745,7.12502,2.23642,63.0426,-22.0272,-7.52108,11.598,27.1745,-13.949,-20.6388,-18.8129,-20.4252,-5.31442,-14.4545,24.4503,-21.3806,17.1556,-10.4677
-0.571197,17.6107,-0.15139,13.8172,-2.12834,1.30598,-20.6674,1.76029,-2.72216,5.0739,3.51173,-2.25987,17.671,1.43143,0.144338,23.199,-12.3735,-10.3408,-1.95887,-17.9019,43.1133,0.688552,-11.6157,18.3855,2.5842e-15,-1.19271e-15,-4.45234,-69.5358,-75.2457,27.6357,8.45712,-21.8084,25.2801,7.12502,4.59378,-4.65012,2.5842e-15,-1.19271e-15,-9.64129,46.6605,62.8741,46.682,5.0762,-24.0855,32.6449,7.12502,2.3948,62.6112,-22.1264,-6.90088,11.7178,27.0924,-13.872,-20.876,-18.3963,-20.548,-5.01934,-14.302,24.5311,-21.0235,17.5824,-10.2051
-0.562414,17.6159,-0.167051,13.8987,-2.40669,1.12554,-20.8001,1.76447,-2.62296,5.09424,3.49733,-2.26063,17.7864,1.43323,0.0863359,23.3876,-12.5331,-10.7405,0.315282,-19.0576,43.2201,1.75634,-12.0325,18.4408,3.18055e-15,1.59028e-15,-0.827946,-70.6163,-78.712,26.6082,10.9593,-22.0465,25.4108,7.12502,4.36389,-4.52428,3.18055e-15,1.59028e-15,-9.05642,46.4026,63.386,46.389,4.3882,-23.7241,32.2579,7.12502,2.74385,62.22,-22.2973,-6.62935,11.8816,27.0061,-13.6866,-20.7184,-18.1008,-20.6673,-4.8987,-14.1367,24.6032,-20.9101,17.8168,-9.8801
-0.548292,17.6212,-0.184568,13.9827,-2.75946,1.03874,-20.8887,1.78926,-2.51989,5.12696,3.52115,-2.3382,17.8961,1.45909,-0.0517709,23.8002,-12.6326,-10.8864,2.35292,-19.9327,43.0314,2.57434,-12.3381,18.3725,-8.34896e-15,1.43125e-14,2.24897,-70.0571,-81.8555,25.9245,12.3091,-22.9025,24.5925,7.12502,3.53729,-5.35792,-8.34896e-15,1.43125e-14,-8.55682,45.8665,63.8077,46.29,4.07688,-23.1766,32.1309,7.12502,3.27258,62.0855,-22.5324,-6.81343,11.9585,26.9311,-13.4401,-20.0731,-17.7428,-20.8069,-4.91233,-14.0793,24.6703,-21.0327,18.0673,-9.24307
-0.531419,17.6245,-0.201279,14.0873,-3.10743,0.946976,-21.0624,1.81214,-2.41761,5.15158,3.54026,-2.38285,18.0467,1.47921,-0.150105,24.2366,-12.7968,-10.9558,4.33175,-20.8198,42.4718,3.33086,-12.6356,18.0973,7.7526e-15,-7.15625e-15,3.6946,-68.3262,-83.4715,25.6055,12.1512,-23.3189,23.8628,7.12502,3.13511,-6.09393,7.7526e-15,-7.15625e-15,-8.30703,45.131,64.2073,46.2994,3.9523,-22.8791,31.9637,7.12502,3.55981,61.9138,-22.7865,-7.05256,12.0348,26.8791,-13.3046,-19.3564,-17.1051,-20.9717,-4.84839,-14.0324,24.739,-21.3545,18.1238,-7.83687
-0.519089,17.6287,-0.225272,14.2107,-3.3203,0.879594,-21.1844,1.79352,-2.37529,5.14873,3.51252,-2.40657,18.1248,1.47206,-0.208416,24.6186,-12.9027,-11.1038,6.35041,-21.626,41.728,4.07842,-12.8807,17.7609,5.56597e-15,8.74653e-15,6.13865,-68.0482,-85.9658,25.006,13.0959,-23.1669,24.0132,7.12502,3.28195,-5.9413,5.56597e-15,8.74653e-15,-7.97039,44.3565,64.7117,46.2026,3.68229,-22.9748,31.8766,7.12502,3.46746,61.8281,-23.0559,-6.99896,12.0991,26.8508,-13.0974,-19.1225,-16.7986,-21.1841,-4.55985,-14.0125,24.8069,-21.2758,18.1206,-8.17068
-0.51239,17.6311,-0.250807,14.3091,-3.45324,0.761799,-21.1728,1.74831,-2.34687,5.17322,3.44475,-2.41053,18.1509,1.44564,-0.254028,25.0494,-12.9807,-11.0212,8.25724,-22.2227,40.7796,4.66174,-13.0231,17.3108,-3.57812e-15,-6.36111e-15,9.45016,-68.1993,-89.2891,24.2308,14.8594,-23.502,24.2943,7.12502,2.95827,-5.66493,-3.57812e-15,-6.36111e-15,-7.60516,43.3482,65.1193,46.1943,3.66522,-23.0206,31.956,7.12502,3.42325,61.9082,-23.2721,-6.6641,12.2073,26.8265,-12.8407,-19.2845,-16.9367,-21.3825,-4.33549,-13.8957,24.8881,-21.019,18.2139,-9.17325
-0.502033,17.6323,-0.268563,14.3855,-3.67456,0.65952,-21.1519,1.7236,-2.30173,5.17106,3.40277,-2.44145,18.1403,1.43528,-0.33181,24.9823,-13.0541,-11.1352,10.4385,-22.9502,39.6367,5.4704,-13.1642,16.7518,2.06736e-14,-1.19271e-14,11.3655,-67.2891,-91.3109,23.6235,15.8268,-24.3512,24.3568,7.12502,2.13816,-5.61222,2.06736e-14,-1.19271e-14,-7.14685,42.7283,65.5796,46.1406,3.30553,-22.5737,32.1753,7.12502,3.8548,62.1201,-23.4704,-6.73437,12.3041,26.7972,-12.6555,-18.9714,-17.0002,-21.5164,-4.21175,-13.8345,24.987,-21.0308,18.2867,-8.97653
-0.485868,17.6356,-0.288607,14.5119,-4.01373,0.620246,-21.125,1.77026,-2.1927,5.07592,3.44691,-2.54669,18.0177,1.47751,-0.502217,25.4888,-13.0084,-11.0478,12.3593,-23.2848,38.4597,5.94701,-13.1897,16.2623,-1.98785e-14,-1.19271e-14,13.2938,-66.797,-93.4269,22.8992,17.5233,-24.7415,25.1861,7.12502,1.76123,-4.78642,-1.98785e-14,-1.19271e-14,-6.48307,42.3408,66.2249,45.848,2.64787,-22.3315,32.1263,7.12502,4.08861,62.0668,-23.7666,-6.96417,12.3339,26.736,-12.4591,-18.4631,-17.1223,-21.7031,-4.1155,-13.8635,25.0845,-21.3478,18.2379,-7.4681
-0.470863,17.6399,-0.317305,14.68,-4.30415,0.598701,-21.1343,1.80773,-2.11482,5.03701,3.48426,-2.60717,17.9843,1.50794,-0.603807,24.6851,-13.1962,-11.4767,15.5116,-24.4222,36.5712,7.3107,-13.4104,15.3551,-3.1408e-14,1.35174e-14,15.7202,-66.2925,-95.9611,22.1499,19.2632,-24.8539,26.0096,7.12502,1.65263,-3.96377,-3.1408e-14,1.35174e-14,-5.72181,41.5812,66.9702,45.537,2.23205,-22.1134,31.5029,7.12502,4.29922,61.4393,-24.1334,-7.24387,12.3767,26.6609,-12.2023,-18.0063,-17.5501,-21.9868,-4.02053,-13.8812,25.1639,-21.5777,18.1034,-7.1937
-0.464283,17.6498,-0.343066,14.8031,-4.48647,0.524778,-21.2996,1.787,-2.11854,5.12159,3.46173,-2.56628,18.1921,1.4908,-0.557538,24.8126,-13.0343,-11.7558,17.301,-24.5786,35.3742,7.82439,-13.3714,14.9324,-4.77083e-15,4.77083e-15,16.7947,-64.2386,-97.0986,21.7847,19.1344,-25.8147,25.4965,7.12502,0.724666,-4.48203,-4.77083e-15,4.77083e-15,-4.92434,41.0336,67.8132,45.4177,1.36274,-20.914,30.7164,7.12502,5.45743,60.6261,-24.4033,-7.05068,12.4431,26.6046,-12.0225,-18.0968,-18.0728,-22.2532,-3.89085,-13.7932,25.2332,-21.708,17.8504,-7.84747
-0.459205,17.6594,-0.372078,14.9125,-4.60904,0.481097,-21.4292,1.74608,-2.14166,5.20341,3.41808,-2.53908,18.3745,1.46392,-0.525058,25.1464,-12.7238,-11.9197,18.5838,-24.3245,34.3445,8.00149,-13.1861,14.6117,-3.47873e-14,2.38542e-15,17.8492,-62.2266,-98.1673,21.4165,19.6497,-26.4136,24.7529,7.12502,0.146325,-5.22684,-3.47873e-14,2.38542e-15,-4.03259,40.5962,68.7804,45.2995,0.568919,-20.2615,30.1599,7.12502,6.08731,60.0524,-24.6463,-6.56571,12.436,26.565,-11.9851,-18.543,-18.4563,-22.5366,-3.67594,-13.7405,25.3043,-21.6257,17.702,-8.17147
-0.450239,17.6606,-0.408124,15.011,-4.70022,0.49843,-21.4336,1.72243,-2.10094,5.26601,3.38814,-2.59739,18.4646,1.45958,-0.628235,25.37,-12.4276,-11.8544,19.7815,-23.9561,33.1572,8.079,-12.9211,14.1628,5.1684e-15,-7.15625e-15,19.7493,-60.9285,-100.041,20.6979,21.268,-26.0561,24.7006,7.12502,0.491576,-5.27857,5.1684e-15,-7.15625e-15,-2.73359,39.8894,69.8138,44.7322,0.216902,-20.7038,29.6193,7.12502,5.66031,59.5237,-24.9084,-6.35611,12.3791,26.5515,-12.0311,-18.8186,-18.8367,-22.7966,-3.35662,-13.8322,25.3525,-20.9206,18.144,-11.2946
-0.442748,17.6618,-0.434285,15.0644,-4.77765,0.435522,-21.4609,1.72563,-1.97987,5.32823,3.36945,-2.63896,18.5722,1.46771,-0.752789,25.4927,-12.1271,-11.7354,20.9289,-23.5084,31.8095,8.1096,-12.6067,13.6217,-1.09332e-14,3.02153e-14,21.4176,-59.5376,-101.702,19.9034,22.7105,-26.2886,24.6621,7.12502,0.266991,-5.31749,-1.09332e-14,3.02153e-14,-1.7198,38.3114,70.6207,44.5738,0.676523,-21.5437,30.1577,7.12502,4.84935,60.0822,-25.0723,-6.23586,12.4354,26.5471,-12.0016,-19.0603,-19.5811,-22.9653,-3.10248,-13.8323,25.4122,-20.2231,18.6113,-14.6166
-0.431644,17.6637,-0.449035,15.1407,-4.87831,0.379698,-21.5856,1.73358,-1.83909,5.43795,3.34578,-2.61307,18.7986,1.46853,-0.808575,25.0686,-11.8868,-11.7415,22.3956,-23.1704,30.0446,8.34747,-12.2888,12.8687,1.19271e-15,-4.77083e-15,23.4441,-58.4101,-103.616,19.1583,25.1544,-26.2058,24.7702,7.12502,0.346964,-5.20923,1.19271e-15,-4.77083e-15,-1.34126,35.9422,71.2344,45.1981,2.0532,-22.64,31.8941,7.12502,3.79078,61.8402,-25.2397,-6.44769,12.5082,26.5373,-11.9661,-18.9164,-20.0887,-23.0989,-3.19538,-13.7707,25.4899,-20.5154,18.3486,-12.5425
-0.413524,17.6655,-0.45906,15.266,-5.05165,0.428726,-21.7477,1.75952,-1.65672,5.87798,3.36502,-2.69797,18.8422,1.46785,-0.842434,24.3192,-11.6432,-11.7466,23.8624,-22.8094,28.3381,8.65684,-11.9511,12.1343,2.28602e-14,-9.54166e-15,24.2564,-55.7205,-104.031,18.6956,26.0972,-25.4175,24.9593,7.12502,1.10835,-5.01755,2.28602e-14,-9.54166e-15,-0.62791,34.41,72.0849,45.4509,2.46793,-23.0512,32.4738,7.12502,3.39364,62.4265,-25.5447,-7.39187,12.5573,26.5155,-11.7115,-18.0478,-20.768,-23.2496,-3.29976,-13.8849,25.5596,-20.9961,18.1194,-9.41904
-0.400768,17.6664,-0.473396,15.3549,-5.23019,0.431803,-21.8361,1.80866,-1.47769,5.92729,3.39429,-2.75074,18.9722,1.50373,-0.987872,23.7659,-11.3556,-11.6219,25.148,-22.309,26.735,8.84778,-11.5811,11.4606,-2.06736e-14,1.03368e-14,23.7205,-51.9474,-103.033,18.2112,25.1595,-25.4128,25.1616,7.12502,1.11292,-4.81521,-2.06736e-14,1.03368e-14,0.11607,33.2091,72.7489,45.3163,2.10278,-22.748,32.311,7.12502,3.68645,62.2588,-25.8267,-7.99932,12.6389,26.505,-11.441,-17.4252,-21.2357,-23.3591,-3.26201,-13.9502,25.5932,-21.407,17.9371,-7.10466
-0.395753,17.6676,-0.494252,15.3485,-5.30814,0.442484,-21.7016,1.8373,-1.36524,5.84226,3.39723,-2.78574,18.7985,1.52337,-1.09378,23.6247,-10.9877,-11.4491,26.123,-21.5454,24.9441,8.77701,-11.1384,10.7464,-1.74931e-14,1.66979e-14,23.7036,-49.2991,-102.687,17.4698,25.4723,-25.9524,24.9707,7.12502,0.591747,-5.00818,-1.74931e-14,1.66979e-14,0.670257,31.4495,73.2155,45.0863,2.0447,-22.4614,32.4473,7.12502,3.96323,62.3901,-25.9345,-7.87511,12.6055,26.5095,-11.3111,-17.4131,-21.0788,-23.4158,-3.13592,-13.9773,25.6142,-21.4972,17.687,-6.61001
-0.39528,17.6687,-0.511579,15.2871,-5.31316,0.508628,-21.7364,1.86178,-1.31663,5.49854,3.40038,-2.74859,19.0177,1.56346,-1.24379,23.7408,-10.5478,-11.2863,26.8676,-20.6341,23.2073,8.58399,-10.666,10.09,-7.95139e-15,4.77083e-15,23.3828,-46.5923,-102.153,17.0098,25.9089,-26.2514,24.6076,7.12502,0.302921,-5.37197,-7.95139e-15,4.77083e-15,1.13357,29.105,73.5803,44.9272,2.4187,-22.5356,33.0489,7.12502,3.89155,62.9931,-25.8983,-7.44623,12.4556,26.525,-11.3216,-17.6364,-20.4848,-23.4308,-3.10886,-14.0239,25.5982,-21.4166,17.8375,-7.14777
-0.396384,17.6675,-0.52412,15.2235,-5.32043,0.643616,-21.7584,1.87776,-1.32383,5.32824,3.42518,-2.79768,18.8162,1.57856,-1.2871,23.8916,-9.94867,-11.3367,27.7422,-19.6287,21.6985,8.49685,-10.1767,9.58909,-1.39149e-15,2.22639e-14,21.899,-42.3679,-100.273,16.9203,24.7835,-26.1143,24.5815,7.12502,0.435392,-5.39782,-1.39149e-15,2.22639e-14,1.08948,26.0076,73.4365,44.9882,3.31026,-22.7535,34.9889,7.12502,3.68114,64.9369,-25.8115,-7.10288,12.2509,26.5668,-11.3247,-17.7602,-20.1037,-23.4536,-2.90162,-14.2123,25.5318,-20.8075,18.2728,-9.29318
-0.397041,17.6677,-0.538904,15.1107,-5.31431,0.933903,-21.723,1.81365,-1.51836,4.99812,3.38006,-2.81668,18.3587,1.54092,-1.21399,24.3662,-9.20757,-11.5392,28.4346,-18.4219,20.1241,8.28905,-9.64169,9.11295,-6.55989e-15,-3.18055e-15,19.2806,-36.0003,-96.8845,17.1573,21.7048,-25.6123,24.2134,7.12502,0.920195,-5.76439,-6.55989e-15,-3.18055e-15,0.633861,22.9071,73.1319,44.9568,3.86138,-22.6185,36.5014,7.12502,3.81148,66.447,-25.7317,-6.78551,11.8469,26.63,-11.4707,-17.9362,-19.4036,-23.461,-2.87498,-14.5516,25.4434,-20.1048,18.6453,-13.1579
-0.394974,17.6661,-0.552076,14.9658,-5.32157,1.19715,-21.7964,1.74459,-1.67974,5.09723,3.33135,-2.76033,18.5162,1.49526,-1.07246,24.158,-8.71132,-11.3427,28.4409,-17.2565,18.2576,7.89356,-9.06344,8.3759,9.14409e-15,1.27222e-14,18.054,-28.3527,-93.8926,17.5907,17.5131,-25.0793,23.5392,7.12502,1.43494,-6.43569,9.14409e-15,1.27222e-14,1.6184,20.8831,73.736,44.4228,3.81838,-22.435,35.6457,7.12502,3.98869,65.5881,-25.7246,-6.43516,11.4544,26.707,-11.3394,-18.3263,-19.4404,-23.3495,-3.1234,-14.7872,25.361,-20.3737,18.5079,-11.5539
-0.39151,17.6611,-0.562127,14.8926,-5.32319,1.19991,-21.8071,1.79441,-1.45639,5.16748,3.33527,-2.74514,18.6255,1.52035,-1.18052,23.781,-8.32452,-10.6525,28.3113,-16.0927,16.1875,7.46255,-8.44457,7.48237,-2.88238e-14,-1.59028e-15,17.6897,-22.1203,-91.8695,17.9262,14.6369,-24.5938,22.939,7.12502,1.90388,-7.03223,-2.88238e-14,-1.59028e-15,2.6852,18.2119,73.7379,44.0094,4.46721,-22.2014,33.8925,7.12502,4.21432,63.8305,-25.7528,-6.24528,11.3922,26.797,-11.2448,-18.5037,-19.4584,-23.196,-3.2066,-14.7795,25.2856,-20.9882,17.8603,-8.13303
-0.385876,17.6583,-0.573692,14.8792,-5.40153,1.21446,-21.856,1.87182,-1.21383,5.30444,3.37925,-2.75258,18.8494,1.56674,-1.31105,23.2337,-7.8913,-9.90819,27.9685,-14.8919,14.3256,7.02937,-7.8033,6.66757,1.47101e-14,-5.56597e-15,17.7593,-16.0889,-89.9556,18.4759,11.956,-24.0597,22.9601,7.12502,2.41967,-7.00592,1.47101e-14,-5.56597e-15,3.49705,15.0346,73.3177,44.2802,5.01284,-21.3863,32.3421,7.12502,5.00139,62.2631,-25.8738,-6.29849,11.3618,26.9347,-11.1725,-18.349,-19.2532,-23.1231,-3.10586,-14.8583,25.1887,-20.9408,17.6228,-7.82156
-0.379626,17.6552,-0.588504,14.8119,-5.69103,1.3091,-21.7879,2.013,-1.00004,5.74709,3.54732,-2.90018,18.7685,1.63924,-1.36869,22.8981,-7.37126,-9.37281,27.2674,-13.6684,12.7529,6.51513,-7.18602,6.01541,-7.15625e-15,4.77083e-15,17.5422,-8.33687,-87.1783,19.4624,5.60544,-23.5978,24.133,7.12502,2.86574,-5.82748,-7.15625e-15,4.77083e-15,4.20951,12.3186,73.0635,44.6515,4.70261,-20.202,30.8,7.12502,6.14477,60.6909,-26.0329,-6.06014,11.1913,27.0576,-10.9063,-18.312,-19.2119,-23.0521,-3.00557,-15.0288,25.1301,-20.758,17.9075,-9.11557
-0.390977,17.6481,-0.591264,14.5506,-5.30775,1.61016,-21.797,1.83911,-1.25317,5.88148,3.38991,-2.88117,18.9186,1.53955,-1.26302,22.8288,-6.79583,-8.82924,26.5759,-12.3843,10.9784,5.99598,-6.55584,5.31544,2.22639e-14,-1.70955e-14,17.2805,-1.26877,-84.4102,21.6781,2.54427,-24.4362,22.7065,7.12502,2.0561,-7.26329,2.22639e-14,-1.70955e-14,4.57118,8.95717,72.5079,45.4495,5.50645,-20.0138,32.3623,7.12502,6.32648,62.2478,-25.6652,-5.4064,10.7607,27.1774,-11.0406,-19.247,-18.6307,-22.8436,-2.93763,-15.3048,25.0753,-20.4317,17.6021,-8.90494
-0.384193,17.6467,-0.600558,14.5524,-5.67603,1.60592,-21.8011,2.02954,-0.945843,5.75344,3.55377,-2.89515,18.7876,1.64777,-1.39056,23.0572,-6.17584,-8.24067,25.6854,-11.0597,9.13458,5.40581,-5.91159,4.60436,2.98177e-15,-2.3059e-14,16.9743,5.1314,-81.7403,24.1058,-0.753081,-24.4016,21.4073,7.12502,2.08948,-8.56218,2.98177e-15,-2.3059e-14,4.56194,5.14724,71.6482,46.4417,7.02232,-20.1055,33.191,7.12502,6.238,63.0791,-25.87,-5.39989,10.7144,27.2929,-11.1004,-18.8598,-18.3132,-22.8122,-2.79621,-15.3909,25.0315,-20.5102,17.7125,-7.51668
-0.381655,17.6437,-0.600093,14.4984,-5.70129,1.75565,-21.9878,2.06571,-0.846286,5.8104,3.58529,-2.9137,18.9764,1.67211,-1.44889,23.2129,-5.41522,-7.9304,24.4111,-9.72967,7.98966,4.77445,-5.2653,4.17207,-1.19271e-14,1.55052e-14,17.0937,11.2657,-78.8714,26.7803,-5.03113,-24.0003,21.0379,7.12502,2.47711,-8.92747,-1.19271e-14,1.55052e-14,5.14904,1.08103,70.6598,47.3328,9.24074,-20.5423,34.405,7.12502,5.81625,64.3052,-25.8808,-5.86764,10.6054,27.4326,-11.2744,-18.5097,-18.4601,-22.7569,-2.74153,-15.6142,24.9925,-20.4473,17.7708,-10.0896
-0.380073,17.6404,-0.605623,14.4518,-5.71528,1.95195,-22.099,2.01505,-0.90613,6.01311,3.55352,-2.94278,19.2937,1.6516,-1.45527,22.6969,-4.69521,-7.30588,23.1225,-8.37036,6.61113,4.23014,-4.56147,3.58412,-7.15625e-15,3.97569e-15,17.8912,16.6848,-75.9693,29.5251,-8.8559,-23.9859,20.7865,7.12502,2.49102,-9.17865,-7.15625e-15,3.97569e-15,6.11226,-2.6779,69.2417,48.5249,11.2488,-20.6641,35.9719,7.12502,5.6987,65.8753,-25.9299,-6.18171,10.4323,27.5734,-11.4042,-18.3825,-18.6451,-22.776,-2.71314,-15.8675,24.9934,-20.3555,17.9677,-11.2782
-0.380321,17.6351,-0.613875,14.3867,-5.60839,2.11143,-22.1287,1.92955,-0.949384,6.19782,3.4637,-2.95781,19.5407,1.60812,-1.48045,22.352,-4.14722,-6.04276,21.4217,-7.04441,4.38328,3.5299,-3.83713,2.62852,-2.42517e-14,7.15625e-15,18.665,21.0164,-73.202,32.5023,-11.7039,-23.778,20.3508,7.12502,2.69173,-9.612,-2.42517e-14,7.15625e-15,6.88657,-6.04435,67.4582,50.1512,12.2429,-18.8861,37.854,7.12502,7.41511,67.7041,-25.91,-6.22269,10.2397,27.7248,-11.665,-18.5036,-18.4064,-22.8002,-2.6216,-16.0654,25.0083,-20.148,17.985,-11.4185
