JuanDHNZ/ProyectoFinalCD/preprocessing/sports_trials_csv/49_09.csv
root1,root2,root3,root4,root5,root6,lowerback1,lowerback2,lowerback3,upperback1,upperback2,upperback3,thorax1,thorax2,thorax3,lowerneck1,lowerneck2,lowerneck3,upperneck1,upperneck2,upperneck3,head1,head2,head3,rclavicle1,rclavicle2,rhumerus1,rhumerus2,rhumerus3,rradius1,rwrist1,rhand1,rhand2,rfingers1,rthumb1,rthumb2,lclavicle1,lclavicle2,lhumerus1,lhumerus2,lhumerus3,lradius1,lwrist1,lhand1,lhand2,lfingers1,lthumb1,lthumb2,rfemur1,rfemur2,rfemur3,rtibia1,rfoot1,rfoot2,rtoes1,lfemur1,lfemur2,lfemur3,ltibia1,lfoot1,lfoot2,ltoes1
1.1565,17.6939,0.0029964,14.7741,2.00596,-3.1796,-11.3352,-1.02991,5.8498,-6.48244,-1.92907,1.51132,-0.579441,-1.0987,-1.9147,-15.8735,-1.60482,-7.29682,25.3382,-1.50925,4.55838,10.8859,-0.841542,2.67814,-1.7667e-14,1.19271e-15,-43.4923,-3.96631,-77.0936,37.7658,3.12129,-16.8924,-51.5518,7.12502,9.33917,-81.3249,-1.7667e-14,1.19271e-15,-38.6884,8.55734,78.5513,32.3678,16.6423,-34.8137,-27.5628,7.12502,-7.96499,2.26713,-8.83852,17.8159,13.4834,4.98829,-1.71769,-34.3852,-4.13795,-16.8767,-11.7907,-7.28095,13.2104,-7.05816,22.7779,-0.24281
1.14943,17.693,-0.0134779,14.813,1.87501,-3.18027,-11.0741,-0.995406,5.73984,-6.5676,-1.8507,1.54188,-0.798748,-1.06323,-1.80495,-15.8916,-1.61218,-7.43713,25.4261,-1.51799,4.69321,10.9249,-0.8436,2.75205,-1.44989e-14,1.86858e-14,-43.3234,-4.08704,-77.0082,37.5808,3.13039,-16.7106,-51.8307,7.12502,9.51462,-81.5959,-1.44989e-14,1.86858e-14,-38.7677,8.48717,78.6263,32.4798,16.7649,-34.9221,-27.3234,7.12502,-8.06961,2.50255,-9.51672,18.0244,13.3778,5.86357,-1.94322,-34.483,-4.8382,-16.8732,-11.7663,-7.23587,12.9976,-4.62396,22.6814,-6.01983
1.1499,17.6939,-0.0203496,14.8169,1.91356,-3.26036,-10.9858,-0.997042,5.84627,-6.60446,-1.85436,1.5665,-0.889468,-1.0706,-1.83585,-15.7574,-1.58287,-7.43794,25.3699,-1.47659,4.66176,10.8744,-0.82917,2.74493,1.35795e-14,1.88845e-14,-43.2863,-4.1283,-76.9767,37.466,3.25107,-16.757,-51.8587,7.12502,9.46981,-81.6259,1.35795e-14,1.88845e-14,-38.8297,8.49646,78.6368,32.5804,16.7493,-34.9461,-26.9611,7.12502,-8.09279,2.86398,-9.4887,18.0041,13.479,5.77412,-1.76038,-34.4721,-5.31268,-17.1068,-11.6768,-7.14819,13.3931,-6.84033,22.775,-0.805687
1.15369,17.6951,-0.0204457,14.8252,1.98116,-3.37853,-10.938,-1.0077,6.02983,-6.64188,-1.87953,1.59948,-0.963708,-1.09049,-1.90405,-15.6598,-1.56234,-7.42769,25.3177,-1.44865,4.63168,10.8336,-0.819364,2.73471,1.9543e-14,1.07344e-14,-43.3382,-4.07887,-76.9752,37.439,3.33446,-16.8232,-51.7951,7.12502,9.40591,-81.5653,1.9543e-14,1.07344e-14,-38.8905,8.58544,78.6003,32.5976,16.7267,-34.8788,-26.9366,7.12502,-8.02783,2.89098,-9.43166,17.9594,13.6188,5.70413,-1.66181,-34.4818,-5.45784,-17.123,-11.6234,-7.03236,13.4283,-6.99534,22.6969,-1.13923
1.14909,17.6967,-0.0471368,16.237,-0.891799,-4.25701,-11.6126,0.084018,6.41714,-7.04675,-0.511674,1.748,-0.928705,-0.423439,-1.83763,-15.5135,-1.65143,-7.24952,25.3142,-1.53223,4.25196,10.8068,-0.888128,2.55374,-5.59082e-15,2.78299e-15,-43.3953,-3.96248,-77.0106,37.434,2.92108,-17.4262,-50.9849,7.12502,8.82412,-80.7804,-5.59082e-15,2.78299e-15,-38.8914,8.68278,78.5721,32.5846,16.6838,-34.8708,-27.1004,7.12502,-8.02008,2.72738,-11.9534,20.8065,12.6829,5.27797,-0.107189,-34.6189,-6.33205,-17.9056,-10.7765,-6.34417,13.6408,-7.62488,24.9902,0.606322
1.17058,17.6899,0.00815915,14.2082,1.23281,-3.52045,-10.6512,-0.753028,6.32983,-6.38584,-1.55911,1.54687,-0.838668,-0.931378,-2.09423,-15.2967,-1.9314,-6.67831,25.8422,-1.82165,3.19139,10.9689,-1.10378,2.03746,-1.26849e-14,2.62396e-14,-43.5341,-3.83312,-77.055,37.381,2.14334,-18.6594,-49.3238,7.12502,7.63394,-79.166,-1.26849e-14,2.62396e-14,-38.8633,8.66321,78.5887,32.4767,16.6683,-34.9748,-27.2148,7.12502,-8.12049,2.60919,-8.39253,18.7052,13.7177,4.90545,-4.42837,-34.7736,-0.49053,-16.233,-12.0778,-7.18106,13.7159,-7.53781,23.7497,-0.256537
1.16515,17.6887,0.00989575,14.5278,-0.0726923,-3.79409,-10.8317,-0.286458,6.36004,-6.47562,-0.956909,1.58349,-0.785758,-0.631328,-2.01883,-14.9168,-1.87324,-6.61024,25.5286,-1.71344,2.94915,10.769,-1.07554,1.94983,-3.57812e-15,8.34896e-15,-43.6765,-3.75934,-77.0705,37.3978,1.81979,-18.9616,-49.0579,7.12502,7.34222,-78.9105,-3.57812e-15,8.34896e-15,-38.92,8.65145,78.5921,32.4888,16.6865,-35.0101,-27.119,7.12502,-8.15453,2.70368,-8.96984,19.9926,13.4006,4.55612,-4.43717,-34.9153,0.522712,-16.1328,-11.7522,-7.08332,13.7526,-7.82986,24.7119,0.147223
1.16794,17.6875,0.0194643,14.2445,0.511352,-3.64369,-10.7332,-0.509966,6.33734,-6.34595,-1.24779,1.55401,-0.726484,-0.772122,-2.06459,-15.1349,-1.87093,-6.57248,25.6246,-1.70941,2.96353,10.8468,-1.06811,1.94982,4.47266e-16,-1.55052e-14,-43.6119,-3.77425,-77.0666,37.4254,1.92366,-18.3735,-50.009,7.12502,7.90981,-79.841,4.47266e-16,-1.55052e-14,-38.9299,8.71532,78.5834,32.7524,16.6941,-34.8828,-26.7575,7.12502,-8.03163,3.06994,-8.24617,19.3857,13.6248,4.26734,-4.82154,-34.8437,1.4474,-15.8443,-11.9612,-7.19772,13.4843,-7.57317,24.272,-0.544066
1.16991,17.6861,0.0215464,14.0865,0.849978,-3.55455,-10.6348,-0.634948,6.33881,-6.25292,-1.40918,1.52921,-0.696112,-0.850385,-2.1058,-15.3982,-1.89465,-6.58885,25.7487,-1.73205,3.00422,10.9467,-1.07494,1.96515,-1.68967e-14,1.23246e-14,-43.4657,-3.86414,-77.0438,37.3454,2.00001,-18.0827,-50.5307,7.12502,8.19047,-80.352,-1.68967e-14,1.23246e-14,-38.8398,8.74048,78.5928,32.8522,16.7187,-34.7168,-26.775,7.12502,-7.87144,3.05847,-7.8788,19.0374,13.7397,4.15847,-5.18599,-34.8276,2.09488,-15.7943,-12.1147,-7.25119,13.4842,-7.56602,24.0115,-0.868308
1.17256,17.6853,0.0271103,14.0003,0.909639,-3.50942,-10.6137,-0.658392,6.34906,-6.22274,-1.44065,1.51737,-0.679204,-0.865462,-2.12678,-15.3928,-1.88488,-6.65735,25.7561,-1.70748,3.03285,10.9482,-1.06706,1.99075,7.96381e-15,-1.03368e-14,-43.4588,-3.90897,-77.0117,37.3093,2.03607,-18.0048,-50.7086,7.12502,8.2657,-80.5269,7.96381e-15,-1.03368e-14,-38.8536,8.73579,78.6131,32.8089,16.7736,-34.7174,-26.9511,7.12502,-7.87202,2.88236,-7.68742,18.966,13.7552,4.08792,-5.14067,-34.8211,1.66489,-15.645,-12.1122,-7.33367,13.416,-7.62471,23.9076,-1.06495
1.17417,17.6859,0.0320161,13.9811,0.912404,-3.51975,-10.6602,-0.660219,6.37291,-6.22959,-1.44864,1.52954,-0.662337,-0.869528,-2.12908,-15.2182,-1.86244,-6.70727,25.6676,-1.68446,3.0711,10.8802,-1.05676,2.01562,1.21756e-14,5.96354e-15,-43.5577,-3.83794,-77.0238,37.3925,1.95737,-18.2311,-50.2657,7.12502,8.04729,-80.0925,1.21756e-14,5.96354e-15,-38.9354,8.73663,78.6233,32.8392,16.7412,-34.8322,-26.9625,7.12502,-7.98278,2.86673,-7.59023,18.9564,13.7742,3.98485,-4.98661,-34.792,1.25556,-15.5821,-12.0972,-7.34675,13.4049,-7.68931,23.928,-0.941092
1.17417,17.6862,0.0324297,14.0256,0.939754,-3.52864,-10.7388,-0.659567,6.37678,-6.20738,-1.45552,1.53028,-0.596884,-0.870728,-2.13322,-15.2004,-1.84593,-6.6747,25.6147,-1.67688,3.09433,10.8561,-1.04658,2.01899,8.21229e-15,-7.95139e-16,-43.5157,-3.80789,-77.07,37.4136,1.81556,-18.9234,-49.2313,7.12502,7.37907,-79.0826,8.21229e-15,-7.95139e-16,-38.8809,8.76533,78.6229,32.9192,16.6506,-34.6855,-27.0255,7.12502,-7.84127,2.80905,-7.58702,18.9199,13.7734,3.87523,-4.98379,-34.7856,1.46967,-15.6609,-12.0818,-7.3222,13.4124,-7.55354,23.9512,-0.860037
1.17519,17.686,0.035326,14.0545,0.976156,-3.53502,-10.8465,-0.659971,6.39892,-6.16287,-1.46886,1.52952,-0.493517,-0.874082,-2.15076,-15.2199,-1.82184,-6.66121,25.563,-1.65013,3.11678,10.8389,-1.02934,2.02791,2.21148e-14,-1.78906e-14,-43.389,-3.83346,-77.0801,37.3097,1.77698,-19.4314,-48.6947,7.12502,6.88869,-78.5626,2.21148e-14,-1.78906e-14,-38.8442,8.83098,78.6145,32.9986,16.5795,-34.5262,-27.161,7.12502,-7.68745,2.67931,-7.58204,18.8785,13.7809,3.84357,-5.07829,-34.7938,1.68915,-15.71,-12.015,-7.31997,13.4122,-7.36635,23.9227,-1.06247
1.17512,17.6859,0.0362741,14.0276,0.969034,-3.55773,-10.8086,-0.656662,6.43275,-6.18105,-1.4636,1.53535,-0.533909,-0.873737,-2.16192,-15.1783,-1.83286,-6.67335,25.5701,-1.66293,3.10634,10.8343,-1.03809,2.02455,-1.50704e-14,7.15625e-15,-43.4417,-3.765,-77.1,37.3286,1.6951,-19.5732,-48.7378,7.12502,6.75188,-78.6101,-1.50704e-14,7.15625e-15,-38.9225,8.83217,78.6104,33.0318,16.5873,-34.6496,-27.0251,7.12502,-7.80658,2.81073,-7.55558,18.8947,13.8182,3.87362,-5.22379,-34.7732,1.94071,-15.656,-12.0532,-7.29875,13.4019,-7.42859,23.9698,-0.921204
1.1736,17.6858,0.0328214,14.0061,0.931032,-3.54099,-10.682,-0.652126,6.41068,-6.1875,-1.44502,1.528,-0.607323,-0.866272,-2.15259,-15.3148,-1.87356,-6.70516,25.6513,-1.70983,3.13039,10.8947,-1.05988,2.03295,6.23687e-15,-1.94809e-14,-43.4278,-3.7286,-77.1235,37.3319,1.62579,-19.607,-48.6955,7.12502,6.71921,-78.5688,6.23687e-15,-1.94809e-14,-38.8892,8.81477,78.6335,33.0524,16.6332,-34.7274,-26.5567,7.12502,-7.88166,3.27642,-7.54405,18.9311,13.8012,3.8574,-5.29468,-34.7424,2.10755,-15.6212,-12.1327,-7.30538,13.3967,-7.55437,24.0302,-0.696996
1.17462,17.6858,0.0330854,14.0285,0.894733,-3.53044,-10.681,-0.635287,6.4176,-6.15586,-1.42483,1.5222,-0.573297,-0.854841,-2.1611,-15.4852,-1.90468,-6.74324,25.7017,-1.74017,3.16196,10.9496,-1.07303,2.047,1.62382e-14,-9.93923e-15,-43.3144,-3.74825,-77.1105,37.2489,1.61164,-19.5781,-48.641,7.12502,6.74714,-78.5135,1.62382e-14,-9.93923e-15,-38.7662,8.87147,78.6561,32.9951,16.5895,-34.8101,-26.5407,7.12502,-7.96154,3.28933,-7.55641,18.9586,13.7701,3.83763,-5.18542,-34.7478,2.13958,-15.6288,-12.1484,-7.31744,13.3874,-7.57522,24.065,-0.549654
1.17667,17.6861,0.0355816,14.0574,0.924006,-3.54495,-10.7494,-0.631611,6.46558,-6.14099,-1.43051,1.52519,-0.522648,-0.857059,-2.18702,-15.5119,-1.91544,-6.74547,25.6784,-1.74905,3.14968,10.9467,-1.07825,2.0413,2.6339e-15,2.38542e-15,-43.2757,-3.75288,-77.1018,37.2519,1.59349,-19.713,-48.5636,7.12502,6.6169,-78.4403,2.6339e-15,2.38542e-15,-38.7152,8.88546,78.6872,32.9881,16.5954,-35.0252,-26.4881,7.12502,-8.16909,3.33394,-7.58584,18.93,13.7748,3.85626,-5.08362,-34.791,2.13194,-15.6471,-12.1451,-7.30042,13.3738,-7.56274,24.0597,-0.456122
1.17659,17.686,0.0361708,14.0595,1.01198,-3.51312,-10.7771,-0.665966,6.4417,-6.13508,-1.47622,1.52005,-0.504522,-0.878725,-2.18411,-15.4854,-1.88772,-6.66052,25.601,-1.71585,3.08453,10.9091,-1.06185,2.00689,-2.47238e-15,-7.95139e-16,-43.1958,-3.80189,-77.0932,37.1527,1.69152,-19.8428,-48.4367,7.12502,6.49158,-78.3172,-2.47238e-15,-7.95139e-16,-38.7204,8.78922,78.7421,33.0725,16.7446,-35.1056,-26.2487,7.12502,-8.24667,3.57034,-7.56865,18.8356,13.7647,3.82026,-4.86179,-34.8185,1.52684,-15.6845,-12.1186,-7.32883,13.3916,-7.45041,23.9715,-0.693649
1.17611,17.6851,0.0372539,14.0426,1.04346,-3.51007,-10.7859,-0.698428,6.43156,-6.1304,-1.51943,1.54484,-0.497341,-0.899367,-2.1571,-15.4294,-1.84524,-6.62706,25.5218,-1.65211,3.02831,10.8642,-1.03566,1.98878,-1.16289e-14,5.1684e-15,-43.1669,-3.76598,-77.0686,37.0885,1.78658,-19.7658,-48.4659,7.12502,6.56591,-78.3441,-1.16289e-14,5.1684e-15,-38.7555,8.81658,78.7631,33.1068,16.8145,-34.9768,-26.061,7.12502,-8.12233,3.76287,-7.44723,18.7937,13.7969,3.66113,-4.58678,-34.7792,1.21187,-15.692,-12.0657,-7.34305,13.436,-7.35737,23.9062,-0.876445
1.17497,17.685,0.0347982,14.0517,0.99488,-3.57356,-10.7526,-0.703423,6.46991,-6.14998,-1.52637,1.59688,-0.536504,-0.904509,-2.12396,-15.3906,-1.83392,-6.71894,25.5092,-1.62294,3.06226,10.8516,-1.02731,2.02064,-1.79527e-14,1.90833e-14,-43.1804,-3.68175,-77.0454,37.0982,1.85993,-19.6849,-48.4894,7.12502,6.64401,-78.3652,-1.79527e-14,1.90833e-14,-38.8412,9.02365,78.7041,33.1664,16.6264,-34.9384,-25.9252,7.12502,-8.08527,3.90017,-7.39185,18.8465,13.8656,3.52892,-4.55664,-34.7295,1.63411,-15.7065,-11.9852,-7.27445,13.4529,-7.42221,23.8475,-0.618536
1.17549,17.6855,0.0368243,14.0723,0.98951,-3.62111,-10.7438,-0.693301,6.52915,-6.19155,-1.51555,1.60796,-0.586051,-0.902717,-2.14349,-15.3392,-1.85224,-6.73969,25.5281,-1.64783,3.06296,10.8503,-1.04131,2.02127,6.78353e-15,-4.77083e-15,-43.214,-3.65317,-77.0391,37.0631,1.91515,-19.641,-48.4204,7.12502,6.6864,-78.2949,6.78353e-15,-4.77083e-15,-38.938,9.04077,78.6791,33.1686,16.5719,-35.0405,-26.4388,7.12502,-8.18385,3.38267,-7.40898,18.8602,13.9053,3.53069,-4.62318,-34.7427,1.46968,-15.7154,-11.9398,-7.22345,13.4437,-7.55304,23.7629,-0.729478
1.17729,17.6857,0.0425685,14.0781,1.02651,-3.5891,-10.7871,-0.690588,6.53735,-6.21998,-1.51455,1.58175,-0.593455,-0.903661,-2.17568,-15.2204,-1.85654,-6.71016,25.4954,-1.66252,3.03343,10.8152,-1.04911,2.00331,1.04859e-14,3.97569e-16,-43.3091,-3.60118,-77.0591,37.1395,1.8216,-19.7518,-48.2936,7.12502,6.57943,-78.1714,1.04859e-14,3.97569e-16,-38.9555,8.88696,78.7303,33.0195,16.8008,-34.9283,-27.0142,7.12502,-8.07554,2.81146,-7.36736,18.8085,13.8729,3.49463,-4.83995,-34.7735,1.31289,-15.7014,-12.0532,-7.2543,13.4472,-7.71482,23.831,-0.95144
1.17722,17.6864,0.0419151,14.0782,1.02501,-3.52551,-10.7866,-0.712375,6.47309,-6.20142,-1.5385,1.57093,-0.574076,-0.913262,-2.15371,-15.2325,-1.83584,-6.69446,25.4593,-1.63234,3.02033,10.8021,-1.03478,1.9996,-4.68386e-15,1.59028e-15,-43.3036,-3.54254,-77.0932,37.2175,1.73669,-19.9374,-48.0597,7.12502,6.40028,-77.943,-4.68386e-15,1.59028e-15,-38.8749,8.92765,78.7253,32.8932,16.8405,-34.7784,-27.0537,7.12502,-7.93088,2.77752,-7.29104,18.7838,13.8141,3.36991,-4.95969,-34.7786,1.69546,-15.7029,-12.1989,-7.30263,13.4472,-7.75974,23.9886,-0.3813
1.17838,17.6872,0.0438428,14.0984,1.01606,-3.52074,-10.8372,-0.723794,6.48121,-6.17464,-1.55996,1.57583,-0.520361,-0.922047,-2.15684,-15.2896,-1.82279,-6.67736,25.4404,-1.61082,3.00889,10.8047,-1.02403,1.99519,-2.86995e-15,8.74653e-15,-43.258,-3.5358,-77.0883,37.1634,1.77034,-20.0805,-47.7939,7.12502,6.26215,-77.6813,-2.86995e-15,8.74653e-15,-38.7634,9.0982,78.662,32.7416,16.689,-34.939,-27.1088,7.12502,-8.0859,2.71655,-7.22359,18.7767,13.8106,3.24418,-4.71421,-34.7603,1.67876,-15.7229,-12.2582,-7.30132,13.4482,-7.68431,24.0864,-0.309331
1.18065,17.6876,0.04894,14.1396,1.03477,-3.53066,-10.9722,-0.709637,6.53594,-6.17501,-1.55715,1.56188,-0.449717,-0.920189,-2.20473,-15.1991,-1.81734,-6.64286,25.4212,-1.61226,2.98415,10.7793,-1.0247,1.9801,4.8578e-15,3.18055e-15,-43.278,-3.57885,-77.0663,37.1097,1.82473,-20.1195,-47.8569,7.12502,6.22445,-77.7454,4.8578e-15,3.18055e-15,-38.7767,9.15052,78.62,32.6998,16.589,-35.1271,-27.3148,7.12502,-8.26746,2.5034,-7.18336,18.7442,13.812,3.1304,-4.49277,-34.7371,1.35604,-15.7622,-12.2594,-7.29674,13.4696,-7.68194,24.1112,-0.571801
1.18106,17.687,0.0487976,14.1546,1.02906,-3.56926,-10.9568,-0.69093,6.59239,-6.19918,-1.53502,1.55753,-0.483962,-0.912122,-2.23776,-15.1634,-1.81442,-6.59122,25.4599,-1.61449,2.9448,10.786,-1.02629,1.9573,2.83268e-15,3.57812e-15,-43.3073,-3.68524,-77.0282,37.1059,1.95561,-20.1614,-47.6662,7.12502,6.18398,-77.556,2.83268e-15,3.57812e-15,-38.887,9.11942,78.5986,32.8858,16.511,-35.0173,-26.9045,7.12502,-8.16146,2.9179,-7.10801,18.7442,13.8511,2.9312,-4.47082,-34.7233,1.44846,-15.7768,-12.2138,-7.26522,13.4998,-7.73843,24.0968,-0.148462
1.18,17.6866,0.047102,14.1551,0.997104,-3.58906,-10.8825,-0.680279,6.59799,-6.21341,-1.51461,1.56146,-0.537647,-0.903893,-2.23286,-15.2124,-1.84634,-6.59892,25.5315,-1.65678,2.9505,10.8248,-1.04642,1.95557,-6.39838e-15,-3.57812e-15,-43.3232,-3.77619,-76.9756,37.1212,2.10484,-20.1771,-47.3115,7.12502,6.16886,-77.2017,-6.39838e-15,-3.57812e-15,-38.8485,9.02453,78.6327,32.884,16.543,-34.8994,-26.3043,7.12502,-8.04766,3.52244,-6.98191,18.7619,13.8792,2.65956,-4.40165,-34.6959,1.65864,-15.7804,-12.2355,-7.23997,13.5303,-7.71464,24.1397,-0.360498
1.17979,17.6863,0.0517276,14.1426,1.04094,-3.55902,-10.9943,-0.699651,6.57398,-6.15817,-1.54997,1.5499,-0.421277,-0.916539,-2.2385,-15.2357,-1.86966,-6.61807,25.543,-1.69068,2.97714,10.8359,-1.06057,1.96388,-3.53091e-14,7.15625e-15,-43.2872,-3.76447,-76.9882,37.1289,2.08606,-20.051,-47.699,7.12502,6.29059,-77.5856,-3.53091e-14,7.15625e-15,-38.7116,8.90662,78.69,32.7112,16.6891,-34.9721,-26.6514,7.12502,-8.11787,3.17267,-6.861,18.6996,13.8792,2.53401,-4.38794,-34.6603,1.78866,-15.7728,-12.2867,-7.26253,13.54,-7.64857,24.1526,-1.24656
1.18007,17.686,0.0561421,14.1233,1.10932,-3.56634,-11.0796,-0.724808,6.59559,-6.12777,-1.59378,1.54973,-0.347605,-0.936111,-2.25761,-15.2231,-1.84963,-6.59772,25.5273,-1.67194,2.9895,10.8263,-1.04839,1.96736,-1.92448e-14,9.54166e-15,-43.2338,-3.79474,-76.9637,37.0049,2.08637,-19.9179,-48.0558,7.12502,6.41906,-77.9385,-1.92448e-14,9.54166e-15,-38.6845,8.87811,78.6985,32.6732,16.7354,-35.1571,-26.6364,7.12502,-8.29639,3.18071,-6.83939,18.6388,13.9157,2.60967,-4.51748,-34.6467,1.92391,-15.7385,-12.2194,-7.262,13.5073,-7.61727,24.0374,-1.42458
1.17881,17.6858,0.0531819,14.1182,1.10912,-3.53422,-10.9737,-0.734859,6.53756,-6.18036,-1.59032,1.55298,-0.457768,-0.937272,-2.21804,-15.1021,-1.86421,-6.59102,25.4689,-1.69633,2.96548,10.782,-1.06187,1.9537,-3.16565e-14,1.78906e-14,-43.2823,-3.86951,-76.8649,36.8892,2.14604,-19.7768,-47.8627,7.12502,6.55533,-77.7412,-3.16565e-14,1.78906e-14,-38.7684,8.91927,78.6823,32.7667,16.6263,-35.2847,-26.0376,7.12502,-8.41954,3.77454,-6.86339,18.6366,13.8869,2.65513,-4.47302,-34.6441,1.71611,-15.7274,-12.189,-7.29398,13.4727,-7.60213,23.993,-0.989606
1.1779,17.6858,0.0521663,14.0949,1.11985,-3.45558,-10.8836,-0.759134,6.44004,-6.17179,-1.60656,1.55233,-0.495212,-0.943879,-2.16394,-15.0986,-1.88613,-6.62379,25.4139,-1.71006,2.93615,10.7621,-1.07412,1.94609,-1.61513e-14,5.1684e-15,-43.3115,-3.87449,-76.8236,36.9622,2.07447,-19.6514,-47.8503,7.12502,6.67635,-77.725,-1.61513e-14,5.1684e-15,-38.801,8.97999,78.6829,32.8908,16.5548,-35.2772,-25.8195,7.12502,-8.41226,3.993,-6.83612,18.6098,13.8199,2.65979,-4.39637,-34.6339,1.53633,-15.7096,-12.2639,-7.36947,13.4653,-7.60082,24.0154,-0.636503
1.17874,17.686,0.0546865,14.0628,1.12729,-3.45787,-10.8884,-0.760829,6.4695,-6.11852,-1.61441,1.54256,-0.438701,-0.945946,-2.19238,-15.1728,-1.88455,-6.6461,25.4099,-1.70218,2.95868,10.7752,-1.06933,1.9589,1.17531e-14,8.34896e-15,-43.2431,-3.95884,-76.8044,36.9562,2.08409,-19.5104,-48.3299,7.12502,6.81243,-78.2003,1.17531e-14,8.34896e-15,-38.7419,8.96875,78.6863,32.8847,16.5807,-35.3143,-25.6138,7.12502,-8.4481,4.19724,-6.89867,18.6194,13.8171,2.83382,-4.44563,-34.6503,1.33192,-15.6387,-12.1732,-7.40435,13.4344,-7.53625,23.8869,-0.650415
1.17941,17.687,0.0549163,14.0625,1.08911,-3.48366,-10.8826,-0.731918,6.51572,-6.13298,-1.57901,1.52279,-0.456508,-0.930553,-2.23487,-15.0407,-1.88324,-6.65899,25.3502,-1.72373,3.02297,10.7287,-1.07272,1.98103,8.27441e-15,-1.31198e-14,-43.316,-4.01873,-76.7763,36.9591,2.13232,-19.4924,-48.4641,7.12502,6.82984,-78.3339,8.27441e-15,-1.31198e-14,-38.6995,8.95433,78.6543,32.7132,16.5632,-35.2446,-26.1021,7.12502,-8.3808,3.71161,-6.96467,18.6702,13.8181,2.92341,-4.46983,-34.6735,1.3227,-15.6046,-12.0413,-7.41152,13.4013,-7.56428,23.8087,-0.780062
1.17893,17.6878,0.0543397,14.1002,1.05448,-3.46561,-10.8613,-0.729319,6.49301,-6.15418,-1.57083,1.52249,-0.488759,-0.927334,-2.22084,-14.9712,-1.87499,-6.67852,25.2438,-1.71693,3.04611,10.6757,-1.06768,1.99255,-1.26601e-14,1.70955e-14,-43.3847,-3.94412,-76.7793,37.0895,2.09352,-19.4592,-48.4837,7.12502,6.86191,-78.3525,-1.26601e-14,1.70955e-14,-38.6557,8.98819,78.6424,32.6093,16.5937,-35.1588,-26.5283,7.12502,-8.29807,3.28876,-6.91557,18.6827,13.7917,2.76452,-4.321,-34.649,1.46614,-15.6578,-12.1264,-7.40185,13.4114,-7.70486,23.9341,-0.627049
1.17989,17.6878,0.0585521,14.1331,1.09451,-3.49083,-10.9479,-0.74328,6.55036,-6.12723,-1.60313,1.53907,-0.417892,-0.941982,-2.24126,-15.0035,-1.88636,-6.67215,25.1539,-1.71964,3.00355,10.6488,-1.07195,1.97458,2.72335e-14,-1.66979e-14,-43.2475,-3.99468,-76.7327,36.9705,2.22159,-19.3951,-48.6827,7.12502,6.92378,-78.5495,2.72335e-14,-1.66979e-14,-38.6725,9.01676,78.6451,32.6819,16.6713,-35.0106,-26.3366,7.12502,-8.15504,3.486,-6.89433,18.64,13.8277,2.7309,-4.21457,-34.6391,1.04909,-15.6823,-12.2024,-7.35376,13.4094,-7.75954,23.9497,-0.587039
1.18237,17.6869,0.065091,14.1392,1.17322,-3.52931,-11.0913,-0.750957,6.64747,-6.10898,-1.63502,1.54346,-0.327363,-0.957078,-2.29778,-14.9227,-1.90332,-6.67945,25.089,-1.74546,2.99734,10.6106,-1.08492,1.96949,-1.594e-14,-1.59028e-15,-43.1914,-4.06323,-76.6839,36.8285,2.32865,-19.413,-48.4878,7.12502,6.90645,-78.3551,-1.594e-14,-1.59028e-15,-38.7818,9.00475,78.628,32.7847,16.6648,-34.7969,-26.3064,7.12502,-7.94873,3.52414,-6.91526,18.5754,13.8795,2.84216,-4.50251,-34.6949,1.06959,-15.6691,-12.1773,-7.32522,13.3909,-7.67731,23.8738,-0.852884
1.18167,17.6859,0.0623391,14.1401,1.15207,-3.51057,-11.0453,-0.75396,6.616,-6.13596,-1.63087,1.53928,-0.379224,-0.956472,-2.28254,-14.9505,-1.93569,-6.65623,25.1516,-1.78417,2.95146,10.6409,-1.10673,1.94435,-2.27733e-14,8.34896e-15,-43.2736,-3.98941,-76.7137,36.916,2.2581,-19.5719,-47.8382,7.12502,6.75313,-77.7105,-2.27733e-14,8.34896e-15,-38.8432,8.96702,78.6211,32.8347,16.6328,-34.8895,-26.1961,7.12502,-8.03812,3.631,-6.92695,18.5922,13.8519,2.81895,-4.65207,-34.7218,1.41788,-15.7011,-12.1718,-7.3392,13.4059,-7.55129,23.9268,-1.0439
1.17859,17.6872,0.0547519,14.1404,1.09009,-3.48994,-10.8846,-0.764029,6.53357,-6.15637,-1.62253,1.54709,-0.483692,-0.953729,-2.22336,-15.1499,-1.96678,-6.59346,25.2821,-1.81013,2.8706,10.7284,-1.12288,1.90177,2.5842e-15,1.31198e-14,-43.2955,-3.94781,-76.7255,36.9661,2.23257,-19.9556,-46.7961,7.12502,6.3827,-76.6799,2.5842e-15,1.31198e-14,-38.7838,8.98966,78.6171,32.7627,16.6832,-34.9889,-26.4142,7.12502,-8.1341,3.40928,-6.97505,18.6539,13.8194,2.80709,-4.40621,-34.7082,1.13053,-15.7392,-12.2015,-7.33981,13.4408,-7.60751,24.0083,-0.941044
1.17622,17.6889,0.0493393,14.1481,1.08838,-3.50919,-10.7994,-0.778972,6.51539,-6.13281,-1.63497,1.55842,-0.505195,-0.959462,-2.20101,-15.2823,-1.93588,-6.56678,25.2774,-1.77263,2.90418,10.7501,-1.09804,1.91418,1.42628e-14,5.96354e-15,-43.2479,-3.95723,-76.7281,37.0135,2.21159,-20.0153,-46.3853,7.12502,6.32501,-76.2708,1.42628e-14,5.96354e-15,-38.6121,9.04435,78.6014,32.5726,16.7029,-34.9113,-26.9466,7.12502,-8.05915,2.87975,-7.07103,18.6732,13.8398,2.92168,-4.30208,-34.7139,0.982477,-15.7781,-12.2276,-7.29528,13.4695,-7.67938,24.0211,-0.433877
1.17466,17.688,0.0432425,14.1869,1.06324,-3.57106,-10.8045,-0.764744,6.5621,-6.0941,-1.62287,1.56816,-0.462209,-0.952352,-2.21661,-15.329,-1.9141,-6.56224,25.2048,-1.75167,2.9528,10.7312,-1.0807,1.933,2.66123e-14,-1.39149e-14,-43.2007,-3.93876,-76.7586,37.1264,2.13897,-19.6853,-46.6416,7.12502,6.64358,-76.5174,2.66123e-14,-1.39149e-14,-38.5114,8.98046,78.6299,32.5587,16.7123,-34.9398,-26.7268,7.12502,-8.08668,3.0985,-7.20806,18.7212,13.8711,2.98818,-4.19846,-34.7287,0.884812,-15.8528,-12.163,-7.21234,13.4902,-7.57892,24.0001,-0.0874661
1.17555,17.6868,0.0433136,14.2241,0.998516,-3.61232,-10.8637,-0.728244,6.62149,-6.0975,-1.58479,1.5666,-0.43276,-0.934035,-2.24904,-15.2549,-1.90607,-6.57548,25.1652,-1.74481,2.96466,10.7019,-1.07736,1.94022,-2.11084e-14,2.10712e-14,-43.2534,-3.9081,-76.7525,37.1891,2.14244,-19.3608,-46.6287,7.12502,6.95688,-76.4944,-2.11084e-14,2.10712e-14,-38.5582,8.87254,78.6626,32.5923,16.7172,-34.9115,-26.6236,7.12502,-8.05938,3.20277,-7.29312,18.793,13.861,2.9836,-4.07882,-34.7465,0.400295,-15.8805,-12.126,-7.17479,13.5003,-7.53658,24.0431,0.326074
1.1772,17.6868,0.0497118,14.2094,1.02578,-3.59542,-10.8925,-0.732332,6.63579,-6.12606,-1.59231,1.5557,-0.448691,-0.939396,-2.26923,-15.1082,-1.8763,-6.61463,25.1386,-1.71564,3.01304,10.6625,-1.06258,1.96839,-1.88845e-15,-1.70955e-14,-43.3591,-3.92011,-76.7052,37.1799,2.24338,-19.1985,-46.8005,7.12502,7.11359,-76.661,-1.88845e-15,-1.70955e-14,-38.6438,8.89017,78.6197,32.5273,16.557,-34.8477,-26.8771,7.12502,-7.99782,2.95154,-7.21477,18.7558,13.8626,2.97079,-4.30986,-34.7502,0.416694,-15.8537,-12.2136,-7.19201,13.5023,-7.5991,24.1185,0.709851
1.17692,17.6868,0.0525544,14.1831,1.06229,-3.58663,-10.8754,-0.752861,6.63061,-6.10475,-1.61856,1.55075,-0.437823,-0.951681,-2.274,-15.1839,-1.88432,-6.62536,25.168,-1.72832,3.04731,10.6891,-1.06517,1.98103,-1.53934e-14,2.18663e-14,-43.3598,-3.96698,-76.6859,37.2078,2.28057,-19.1284,-47.524,7.12502,7.18122,-77.3822,-1.53934e-14,2.18663e-14,-38.6313,8.96031,78.565,32.5218,16.3982,-34.9104,-26.6508,7.12502,-8.05833,3.1756,-7.08567,18.7094,13.8984,2.88231,-4.47222,-34.7099,0.813754,-15.8287,-12.2873,-7.19196,13.5005,-7.68715,24.15,0.131769
1.17576,17.6861,0.0507804,14.1731,1.0409,-3.57635,-10.8175,-0.754005,6.60397,-6.09416,-1.61333,1.54319,-0.456884,-0.948901,-2.26531,-15.2234,-1.88916,-6.63321,25.1717,-1.73952,3.08141,10.6991,-1.06669,1.99312,-3.65018e-14,3.22031e-14,-43.3852,-3.94606,-76.706,37.3078,2.22902,-19.4446,-47.8165,7.12502,6.87597,-77.6849,-3.65018e-14,3.22031e-14,-38.5753,9.0039,78.5226,32.4464,16.314,-34.8654,-26.7981,7.12502,-8.01484,3.02994,-6.99837,18.7179,13.8972,2.70978,-4.42947,-34.6786,1.16394,-15.808,-12.2715,-7.20688,13.504,-7.76722,24.1256,-0.342293
1.17676,17.6867,0.0527353,14.1886,1.07484,-3.55738,-10.8452,-0.758183,6.61604,-6.11288,-1.62114,1.5291,-0.463139,-0.953913,-2.28775,-15.1356,-1.89394,-6.64686,25.1416,-1.7498,3.08514,10.6716,-1.0725,1.99521,1.06971e-14,-3.97569e-15,-43.5057,-3.89761,-76.7107,37.4166,2.29608,-20.113,-47.2679,7.12502,6.23069,-77.1563,1.06971e-14,-3.97569e-15,-38.5643,8.98248,78.505,32.3087,16.3113,-34.8356,-27.1244,7.12502,-7.98611,2.70469,-6.89734,18.662,13.8857,2.50708,-4.35152,-34.6831,1.40772,-15.838,-12.2316,-7.23402,13.5347,-7.74258,24.0938,-0.304718
1.17859,17.6876,0.0562482,14.2186,1.1093,-3.59864,-10.9495,-0.752472,6.70369,-6.12102,-1.62991,1.53578,-0.419159,-0.959182,-2.33289,-15.1312,-1.93037,-6.61324,25.1775,-1.78119,2.97377,10.685,-1.09769,1.94534,3.93842e-15,-1.43125e-14,-43.6349,-3.87757,-76.682,37.4943,2.44438,-20.3441,-46.9704,7.12502,6.00762,-76.8652,3.93842e-15,-1.43125e-14,-38.6524,8.94391,78.5116,32.3411,16.3848,-34.8585,-27.2832,7.12502,-8.0082,2.54513,-6.83161,18.6219,13.9319,2.36678,-4.29636,-34.6926,1.48457,-15.8964,-12.1928,-7.19125,13.5667,-7.66708,24.0479,-0.288116
1.17695,17.6873,0.0523993,14.2233,1.08433,-3.64689,-10.8796,-0.738343,6.73122,-6.20028,-1.60395,1.55205,-0.53884,-0.951964,-2.32562,-14.9139,-1.93187,-6.61078,25.1327,-1.78436,2.91737,10.6259,-1.10668,1.9242,2.36678e-14,-2.70347e-14,-43.8685,-3.85005,-76.6378,37.5874,2.5068,-20.2045,-47.016,7.12502,6.14238,-76.907,2.36678e-14,-2.70347e-14,-38.9109,8.91603,78.4837,32.4848,16.4083,-34.6857,-27.5046,7.12502,-7.84141,2.32998,-6.8986,18.6663,13.9734,2.42877,-4.37713,-34.7011,1.63645,-15.9188,-12.1687,-7.12839,13.5652,-7.56945,24.0204,-0.22319
1.17552,17.6876,0.0507802,14.2207,1.08827,-3.62496,-10.7869,-0.739863,6.69278,-6.2666,-1.59122,1.54709,-0.656584,-0.949674,-2.30467,-14.6754,-1.89306,-6.65864,25.0256,-1.7484,2.97477,10.5388,-1.08802,1.95733,-1.32937e-14,-9.93923e-15,-44.0212,-3.86413,-76.5877,37.6543,2.54368,-20.1102,-47.0931,7.12502,6.2334,-76.9814,-1.32937e-14,-9.93923e-15,-39.0806,8.83488,78.4831,32.6042,16.4826,-34.5214,-27.4688,7.12502,-7.68288,2.37161,-6.99324,18.6719,13.9484,2.58676,-4.23922,-34.7108,1.24411,-15.9066,-12.1387,-7.154,13.5606,-7.50765,23.9647,-0.30859
1.17505,17.6879,0.051317,14.2366,1.09767,-3.5871,-10.7551,-0.752,6.65196,-6.3027,-1.59915,1.54353,-0.71103,-0.955045,-2.28492,-14.5953,-1.86195,-6.70579,25.0053,-1.71072,3.02379,10.5144,-1.06963,1.98798,-5.54112e-15,-1.98785e-14,-44.0189,-3.90397,-76.534,37.5745,2.58845,-20.2004,-47.0904,7.12502,6.14633,-76.9812,-5.54112e-15,-1.98785e-14,-39.1283,8.79106,78.4904,32.6009,16.5874,-34.4922,-27.6994,7.12502,-7.65469,2.14211,-7.05693,18.6591,13.9055,2.67842,-4.07721,-34.7295,0.751199,-15.9214,-12.0407,-7.20604,13.5701,-7.528,23.8675,-0.581379
1.17399,17.6877,0.0480933,14.2524,1.06519,-3.62275,-10.6602,-0.752309,6.66716,-6.35558,-1.59046,1.55942,-0.817703,-0.955182,-2.27277,-14.5838,-1.88394,-6.72314,25.0238,-1.73687,3.01685,10.5207,-1.08456,1.98513,1.26353e-14,-7.15625e-15,-43.969,-3.96536,-76.4862,37.4101,2.66477,-20.3057,-46.8118,7.12502,6.04464,-76.7056,1.26353e-14,-7.15625e-15,-39.1788,8.82249,78.4572,32.493,16.588,-34.4762,-28.4372,7.12502,-7.63919,1.40484,-7.08551,18.7001,13.9396,2.67944,-4.30867,-34.7435,1.08864,-15.9583,-11.9933,-7.15881,13.5816,-7.67222,23.8957,-0.091501
1.17403,17.688,0.0472089,14.2358,1.06892,-3.69401,-10.6241,-0.756389,6.73483,-6.31427,-1.60093,1.57798,-0.796898,-0.960407,-2.29204,-14.7589,-1.91574,-6.6737,25.0704,-1.76401,2.94823,10.5726,-1.09996,1.94846,-4.28629e-15,-1.43125e-14,-43.8431,-4.02148,-76.4785,37.3595,2.67319,-20.1567,-47.0633,7.12502,6.1885,-76.9529,-4.28629e-15,-1.43125e-14,-39.123,8.7821,78.475,32.4908,16.6474,-34.4714,-28.9487,7.12502,-7.6346,0.893457,-7.05347,18.7145,14.0274,2.65854,-4.49282,-34.7328,1.4002,-15.9511,-12.0398,-7.07021,13.5963,-7.85614,23.9517,0.665576
1.17501,17.688,0.049545,14.2115,1.08899,-3.69306,-10.6695,-0.768728,6.75303,-6.24713,-1.6261,1.57358,-0.704635,-0.969316,-2.31144,-14.9646,-1.92317,-6.59143,25.1782,-1.75323,2.84103,10.6503,-1.10013,1.89794,2.36678e-14,2.78299e-15,-43.7898,-4.04506,-76.4704,37.4244,2.58804,-20.1204,-47.1362,7.12502,6.22356,-77.0248,2.36678e-14,2.78299e-15,-39.0712,8.70638,78.5012,32.5658,16.7267,-34.4625,-28.8966,7.12502,-7.62602,0.945874,-6.97535,18.6894,14.038,2.60227,-4.4339,-34.6998,1.65942,-15.9269,-12.0856,-7.0756,13.6186,-7.83495,23.9782,-0.0112142
1.17497,17.6875,0.0490714,14.2132,1.07682,-3.67637,-10.6429,-0.77741,6.73901,-6.25729,-1.63366,1.57472,-0.729833,-0.973715,-2.30229,-14.9979,-1.93619,-6.60577,25.2481,-1.75832,2.81169,10.6831,-1.10822,1.8897,9.93923e-17,-1.74931e-14,-43.7257,-4.11216,-76.4191,37.3437,2.64623,-20.2927,-46.7296,7.12502,6.05726,-76.623,9.93923e-17,-1.74931e-14,-39.1272,8.6918,78.4963,32.5882,16.7142,-34.5032,-28.6817,7.12502,-7.66524,1.15942,-6.91027,18.6875,14.0256,2.50594,-4.43314,-34.6627,2.08284,-15.94,-12.0785,-7.09592,13.6402,-7.72986,23.9884,-0.918331
1.17377,17.6873,0.0451267,14.22,1.05567,-3.70489,-10.565,-0.783504,6.74498,-6.27989,-1.63468,1.59889,-0.795578,-0.976456,-2.27822,-14.9522,-1.92422,-6.67611,25.2559,-1.73932,2.86062,10.6772,-1.10084,1.92209,1.09456e-14,-3.97569e-16,-43.6551,-4.11598,-76.3969,37.2994,2.66873,-20.0883,-47.1043,7.12502,6.25456,-76.992,1.09456e-14,-3.97569e-16,-39.174,8.60393,78.543,32.616,16.8017,-34.6219,-28.4267,7.12502,-7.77988,1.41017,-6.94439,18.7188,14.054,2.51337,-4.5099,-34.6723,1.79888,-15.9695,-12.0651,-7.05338,13.6487,-7.68812,24.0126,-0.82305
1.17282,17.6867,0.0432632,14.2198,1.01677,-3.72229,-10.5527,-0.768565,6.74324,-6.27298,-1.61413,1.60224,-0.793015,-0.965854,-2.27174,-14.9534,-1.91834,-6.66049,25.2733,-1.72956,2.84002,10.683,-1.09757,1.91353,-7.24322e-15,2.10712e-14,-43.6763,-4.13043,-76.3701,37.3241,2.62997,-19.7683,-47.3014,7.12502,6.56352,-77.1797,-7.24322e-15,2.10712e-14,-39.1774,8.44532,78.6035,32.6403,16.9405,-34.707,-28.3042,7.12502,-7.86199,1.52958,-7.08859,18.7805,14.0478,2.70222,-4.53377,-34.7086,1.43497,-15.9632,-12.0863,-7.02641,13.6348,-7.71662,24.0886,-0.544238
1.17151,17.6864,0.0452372,14.2336,0.95286,-3.70658,-10.6265,-0.737391,6.70761,-6.2521,-1.57707,1.58216,-0.726758,-0.9443,-2.27159,-14.9287,-1.95253,-6.68687,25.2545,-1.78064,2.86888,10.6746,-1.11992,1.9213,-1.35422e-15,-3.18055e-15,-43.6641,-4.2066,-76.341,37.2671,2.66425,-19.7732,-47.1748,7.12502,6.55879,-77.0533,-1.35422e-15,-3.18055e-15,-39.2007,8.35807,78.6155,32.6957,16.9546,-34.7555,-28.2307,7.12502,-7.90884,1.60131,-7.23032,18.8538,13.9966,2.88152,-4.48155,-34.7232,1.66525,-15.9467,-12.0987,-7.04231,13.6211,-7.76784,24.1406,-0.541946
1.17116,17.6867,0.0476858,14.2454,0.874146,-3.65676,-10.6854,-0.719404,6.64334,-6.20461,-1.555,1.56103,-0.640822,-0.92842,-2.25799,-14.9441,-1.98121,-6.77871,25.2086,-1.82158,2.96607,10.6649,-1.135,1.96582,-1.0635e-14,1.03368e-14,-43.5242,-4.22934,-76.3631,37.1984,2.68477,-19.6711,-47.7634,7.12502,6.65729,-77.6387,-1.0635e-14,1.03368e-14,-39.1633,8.42238,78.5858,32.741,16.8643,-34.8168,-28.0358,7.12502,-7.96791,1.79405,-7.19609,18.9084,13.9244,2.78831,-4.44738,-34.7126,1.8173,-15.9382,-12.1405,-7.09883,13.6414,-7.81172,24.2202,-0.406665
1.17135,17.6872,0.0469029,14.2386,0.837729,-3.64913,-10.6529,-0.716911,6.62562,-6.16621,-1.54944,1.56185,-0.616874,-0.923656,-2.24669,-14.9545,-1.97423,-6.83735,25.1523,-1.81065,3.02618,10.6466,-1.12744,1.99829,-4.11236e-15,1.31198e-14,-43.4059,-4.26378,-76.3488,37.1121,2.71479,-19.3722,-48.2609,7.12502,6.94588,-78.1269,-4.11236e-15,1.31198e-14,-39.083,8.49754,78.5739,32.6875,16.8115,-34.6975,-28.2929,7.12502,-7.85277,1.54128,-7.02583,18.9191,13.9278,2.49922,-4.38568,-34.6857,1.83362,-15.9405,-12.1553,-7.10995,13.6771,-7.8857,24.2288,0.171506
1.17234,17.687,0.0498122,14.2139,0.856973,-3.71139,-10.6585,-0.715405,6.69794,-6.14293,-1.55556,1.58117,-0.592146,-0.926968,-2.26804,-14.9723,-1.94614,-6.83475,25.181,-1.76959,3.02375,10.6582,-1.10893,2.00287,-5.18083e-15,5.96354e-15,-43.4667,-4.232,-76.3198,37.1253,2.6949,-19.2211,-48.4086,7.12502,7.09171,-78.2698,-5.18083e-15,5.96354e-15,-39.1556,8.51121,78.584,32.8257,16.7778,-34.4397,-28.6804,7.12502,-7.60396,1.16293,-6.87138,18.9003,14.0171,2.28398,-4.23868,-34.6718,1.9574,-15.9162,-12.1288,-7.05938,13.6976,-7.93596,24.1548,0.548727
1.17519,17.686,0.0553685,14.2117,0.893455,-3.75883,-10.7204,-0.72469,6.78902,-6.11042,-1.58295,1.59524,-0.529897,-0.94013,-2.30878,-15.1291,-1.92508,-6.82122,25.2844,-1.73073,3.01743,10.7246,-1.09101,2.00445,-9.31803e-16,8.34896e-15,-43.4754,-4.11467,-76.3433,37.192,2.61034,-19.2323,-48.8138,7.12502,7.08087,-78.6754,-9.31803e-16,8.34896e-15,-39.2229,8.59749,78.5596,32.9808,16.7416,-34.3657,-28.666,7.12502,-7.53254,1.17988,-6.77494,18.8628,14.0737,2.15104,-4.00353,-34.6637,1.78189,-15.9124,-12.1351,-7.02231,13.7068,-7.85961,24.1622,-0.0316418
1.17663,17.6864,0.0569242,14.2457,0.913313,-3.74855,-10.7499,-0.737211,6.79655,-6.10964,-1.60283,1.59963,-0.514965,-0.949727,-2.311,-15.1538,-1.89615,-6.87007,25.275,-1.69305,3.08616,10.7247,-1.06982,2.04264,-8.08805e-15,1.94809e-14,-43.4018,-4.05211,-76.3542,37.224,2.47365,-19.2388,-49.1335,7.12502,7.07463,-78.9952,-8.08805e-15,1.94809e-14,-39.2114,8.67695,78.5234,32.9646,16.7161,-34.2498,-28.5368,7.12502,-7.42072,1.31301,-6.71416,18.8237,14.0622,2.01424,-3.93347,-34.6426,1.64462,-15.9601,-12.1128,-7.03379,13.7092,-7.75407,24.1921,-0.692651
1.17617,17.6876,0.0566781,14.2607,0.897113,-3.70997,-10.7369,-0.732344,6.73458,-6.13295,-1.5885,1.5947,-0.54296,-0.942456,-2.27951,-15.0641,-1.8844,-6.93259,25.2621,-1.68661,3.16087,10.7031,-1.06428,2.08119,3.13086e-15,-1.43125e-14,-43.3865,-4.09391,-76.3062,37.1813,2.41394,-19.3405,-48.9739,7.12502,6.9765,-78.839,3.13086e-15,-1.43125e-14,-39.1856,8.66214,78.5212,32.9485,16.6448,-34.089,-28.4411,7.12502,-7.26552,1.41417,-6.75631,18.8323,14.0146,2.08485,-4.18418,-34.6259,1.76127,-15.9708,-12.0748,-7.07925,13.6916,-7.69057,24.2099,-0.792444
1.17557,17.6879,0.0555886,14.2558,0.876283,-3.68467,-10.6925,-0.731592,6.68571,-6.12836,-1.57962,1.58973,-0.55969,-0.937276,-2.25564,-15.127,-1.88766,-6.94844,25.312,-1.69375,3.2012,10.7346,-1.06446,2.09804,-7.33018e-15,-8.34896e-15,-43.3591,-4.14142,-76.2731,37.1555,2.4972,-19.1576,-49.3272,7.12502,7.15299,-79.1864,-7.33018e-15,-8.34896e-15,-39.1587,8.55731,78.5682,33.004,16.6936,-34.1251,-28.2716,7.12502,-7.30034,1.58243,-6.98301,18.8796,13.9652,2.50148,-4.44986,-34.6394,1.79543,-15.947,-12.0905,-7.10289,13.6436,-7.62424,24.2382,-0.777407
1.17517,17.688,0.0554472,14.2565,0.84745,-3.64835,-10.6741,-0.748934,6.63533,-6.06925,-1.59959,1.57912,-0.507558,-0.94342,-2.24113,-15.3706,-1.85864,-6.87834,25.3822,-1.65067,3.1909,10.8047,-1.03848,2.08889,2.18166e-14,-9.54166e-15,-43.1966,-4.15672,-76.3034,37.1915,2.5704,-18.4599,-50.5503,7.12502,7.82648,-80.3854,2.18166e-14,-9.54166e-15,-39.0638,8.55187,78.5677,33.0502,16.7496,-34.1281,-28.0799,7.12502,-7.30318,1.77411,-7.25338,18.9358,13.8915,2.96336,-4.45493,-34.6819,1.73671,-15.8844,-12.0839,-7.15377,13.5795,-7.65671,24.2222,-0.530762
1.17288,17.6877,0.0544975,14.2657,0.764739,-3.62579,-10.6429,-0.719353,6.56457,-6.1964,-1.54532,1.58691,-0.650561,-0.921299,-2.18547,-14.9328,-1.83769,-6.94774,25.3244,-1.63882,3.20317,10.6978,-1.04068,2.10664,-2.96686e-14,3.26007e-14,-43.4549,-4.08113,-76.2396,37.3004,2.47672,-17.9754,-51.4957,7.12502,8.29408,-81.3129,-2.96686e-14,3.26007e-14,-39.2407,8.59338,78.5324,32.9523,16.6056,-34.1309,-27.9323,7.12502,-7.30588,1.9216,-7.46419,19.0362,13.8238,3.24358,-4.38848,-34.7382,1.63506,-15.8274,-12.0606,-7.18779,13.5316,-7.70802,24.2644,-0.460949
1.17118,17.6864,0.0538313,14.2634,0.700036,-3.63651,-10.608,-0.703708,6.52698,-6.19368,-1.51872,1.59688,-0.662654,-0.90717,-2.15095,-14.8206,-1.82739,-6.97977,25.226,-1.63159,3.23453,10.6396,-1.03598,2.12329,2.30093e-14,-1.07344e-14,-43.5077,-4.06129,-76.2268,37.3967,2.36931,-17.9572,-51.5727,7.12502,8.31164,-81.3891,2.30093e-14,-1.07344e-14,-39.173,8.67911,78.5027,32.8706,16.4719,-34.1689,-28.025,7.12502,-7.34257,1.82754,-7.54807,19.1127,13.8108,3.3343,-4.60998,-34.783,1.5632,-15.8121,-12.0783,-7.16906,13.5146,-7.72466,24.3445,-0.616655
1.17285,17.6854,0.0553467,14.2439,0.738546,-3.64192,-10.6113,-0.726066,6.55735,-6.14586,-1.55356,1.58705,-0.615022,-0.923156,-2.18225,-14.8705,-1.81867,-7.00564,25.1991,-1.62745,3.30575,10.6396,-1.02725,2.15357,1.36664e-15,5.96354e-15,-43.4871,-4.08802,-76.2246,37.3928,2.34785,-18.2441,-50.6857,7.12502,8.03472,-80.513,1.36664e-15,5.96354e-15,-39.1671,8.6331,78.4986,32.9663,16.5435,-34.1034,-28.3918,7.12502,-7.27938,1.46297,-7.51592,19.0777,13.8323,3.36249,-4.85185,-34.7991,1.30589,-15.7873,-12.0536,-7.17469,13.5002,-7.72507,24.2779,-0.616494
1.17413,17.6851,0.0562018,14.2361,0.805574,-3.66569,-10.6058,-0.757347,6.61378,-6.14864,-1.59926,1.58479,-0.627183,-0.947911,-2.22007,-14.9553,-1.82323,-6.98002,25.3121,-1.63259,3.29336,10.6979,-1.0298,2.14543,1.13307e-14,2.5842e-14,-43.4908,-4.09258,-76.2257,37.3136,2.31484,-18.6701,-49.8436,7.12502,7.62355,-79.6862,1.13307e-14,2.5842e-14,-39.2483,8.58048,78.4812,33.0753,16.654,-33.9869,-28.5601,7.12502,-7.16689,1.29856,-7.41598,19.0079,13.8868,3.24928,-4.84467,-34.7852,1.40548,-15.7815,-12.0269,-7.15441,13.5019,-7.71396,24.1809,-0.556364
1.17423,17.6858,0.0588254,14.252,0.824951,-3.65445,-10.6569,-0.766729,6.59216,-6.14423,-1.61428,1.58756,-0.59507,-0.95378,-2.20786,-14.9912,-1.80227,-6.9209,25.3654,-1.59781,3.22504,10.7216,-1.01694,2.11607,-1.52195e-14,2.38542e-15,-43.4694,-4.10973,-76.211,37.251,2.27441,-19.0243,-49.6844,7.12502,7.28168,-79.5391,-1.52195e-14,2.38542e-15,-39.2325,8.61436,78.4764,33.1148,16.6303,-34.0106,-28.1716,7.12502,-7.18979,1.68622,-7.26492,18.9612,13.8901,2.96857,-4.79226,-34.7369,1.90355,-15.8103,-12.0631,-7.15772,13.5284,-7.73042,24.1835,-0.413961
1.17613,17.6871,0.0658238,14.2686,0.79916,-3.66615,-10.779,-0.743585,6.61387,-6.12329,-1.59686,1.58769,-0.505981,-0.942532,-2.22152,-15.0027,-1.8074,-6.91527,25.3848,-1.60151,3.20891,10.7311,-1.02023,2.109,-8.44835e-16,9.93923e-15,-43.4357,-4.12943,-76.1861,37.1846,2.27626,-19.2141,-49.9874,7.12502,7.0985,-79.8484,-8.44835e-16,9.93923e-15,-39.1861,8.61013,78.5019,33.1237,16.5536,-34.1357,-27.9069,7.12502,-7.31055,1.94679,-7.05909,18.9552,13.9108,2.61833,-4.60287,-34.688,1.70198,-15.8245,-12.1627,-7.14527,13.5751,-7.76702,24.3142,-0.405967
1.17866,17.6875,0.0701558,14.2766,0.791753,-3.6973,-10.7764,-0.711922,6.68662,-6.14038,-1.56018,1.56725,-0.525714,-0.927289,-2.27945,-14.9681,-1.82621,-6.9742,25.3811,-1.64477,3.31725,10.7267,-1.0328,2.15237,1.40516e-14,-7.55382e-15,-43.4555,-4.18267,-76.1617,37.1166,2.29905,-19.5933,-50.1429,7.12502,6.73243,-80.0159,1.40516e-14,-7.55382e-15,-39.2061,8.40013,78.5651,33.1821,16.6413,-34.2696,-27.8497,7.12502,-7.43978,1.99945,-6.72208,18.9203,13.9728,2.03529,-4.125,-34.653,1.15951,-15.8618,-12.2317,-7.11454,13.6678,-7.78178,24.41,-0.519594
1.17929,17.6866,0.0690054,14.2973,0.80991,-3.72507,-10.7286,-0.691227,6.72657,-6.15971,-1.53111,1.55231,-0.571524,-0.915779,-2.31303,-14.8513,-1.79819,-7.04985,25.2929,-1.63524,3.47446,10.6719,-1.01625,2.22241,-1.87355e-14,-8.34896e-15,-43.471,-4.25843,-76.1356,37.1311,2.42582,-21.3672,-49.8167,7.12502,5.01977,-79.7373,-1.87355e-14,-8.34896e-15,-39.139,8.20073,78.6298,33.1299,16.7517,-34.3917,-27.6732,7.12502,-7.55765,2.1718,-6.22622,18.8351,14.0587,1.09917,-3.38929,-34.5865,0.996527,-15.9509,-12.1661,-7.08373,13.7749,-7.78515,24.3698,-0.673806
1.17913,17.6861,0.0664856,14.3379,0.841183,-3.87399,-10.7316,-0.674301,6.86643,-6.17753,-1.5208,1.59964,-0.591768,-0.914342,-2.34052,-14.7776,-1.78088,-7.08964,25.2472,-1.61701,3.51858,10.6401,-1.00627,2.24703,-2.76186e-14,1.11319e-14,-43.4408,-4.31765,-76.0816,37.1691,2.72245,-22.3475,-50.046,7.12502,4.07319,-79.9868,-2.76186e-14,1.11319e-14,-39.0322,8.22635,78.6462,32.9908,16.6889,-34.4441,-27.7539,7.12502,-7.6082,2.08927,-5.66474,18.7535,14.2843,-1.59028e-15,-2.73279,-34.4678,1.29934,-16.0436,-12.1065,-6.9025,13.8329,-7.78735,24.3634,-0.00981757
1.17919,17.6857,0.06552,14.3592,0.866067,-3.93514,-10.7161,-0.668935,6.91709,-6.17031,-1.51733,1.62007,-0.593659,-0.913416,-2.34694,-14.9376,-1.81659,-7.05205,25.3373,-1.64966,3.45659,10.7062,-1.02513,2.2149,9.61621e-15,1.31198e-14,-43.3803,-4.39853,-76.0257,37.0948,2.82662,-20.4743,-50.6341,7.12502,5.8819,-80.5324,9.61621e-15,1.31198e-14,-38.9217,8.23019,78.6695,32.9036,16.667,-34.5442,-27.7763,7.12502,-7.70481,2.06338,-5.68455,18.7425,14.3471,-6.36111e-15,-2.91404,-34.4495,1.4287,-16.0965,-12.0763,-6.82951,13.8816,-7.77139,24.3483,1.11811
1.17921,17.6852,0.0688429,14.3517,0.869182,-3.8223,-10.7195,-0.682337,6.79538,-6.15101,-1.52525,1.58287,-0.568556,-0.913723,-2.31899,-15.1361,-1.86531,-6.97407,25.4945,-1.69385,3.33654,10.8048,-1.05314,2.15395,-2.55935e-15,-3.1408e-14,-43.4258,-4.3919,-76.0191,37.0259,2.58147,-18.9609,-50.9611,7.12502,7.34285,-80.8137,-2.55935e-15,-3.1408e-14,-38.8855,8.14374,78.6971,32.8828,16.7418,-34.611,-27.6909,7.12502,-7.76928,2.14637,-5.64561,18.7075,14.2336,-3.18055e-15,-3.06247,-34.4202,1.05761,-16.102,-12.0356,-6.9713,13.9417,-7.84629,24.2683,0.746911
1.17835,17.6855,0.0685918,14.3754,0.882691,-3.84537,-10.6801,-0.694529,6.80026,-6.19472,-1.53626,1.58976,-0.636993,-0.922298,-2.31387,-15.1582,-1.91068,-6.93347,25.5881,-1.74258,3.23931,10.8461,-1.08464,2.10613,1.01132e-14,3.37934e-15,-43.5193,-4.3089,-76.0285,36.9887,2.43225,-18.8254,-51.1197,7.12502,7.47368,-80.9677,1.01132e-14,3.37934e-15,-38.992,8.11442,78.6757,32.9531,16.7307,-34.6585,-27.5084,7.12502,-7.81516,2.32712,-5.67329,18.6988,14.2562,1.43125e-14,-3.21918,-34.4236,1.50521,-16.1411,-12.0108,-6.93286,13.9504,-7.93038,24.2147,-0.120717
1.17764,17.686,0.0653106,14.3917,0.898787,-3.94454,-10.6265,-0.698903,6.8702,-6.21885,-1.54256,1.62416,-0.693836,-0.928935,-2.31594,-15.1164,-1.96488,-6.94402,25.5826,-1.81309,3.21269,10.8403,-1.12147,2.08845,-1.1368e-14,3.97569e-16,-43.4816,-4.27168,-76.0312,36.9108,2.46401,-18.6862,-51.2445,7.12502,7.60807,-81.0877,-1.1368e-14,3.97569e-16,-39.0307,8.16463,78.6381,32.9751,16.6154,-34.8379,-27.1684,7.12502,-7.98836,2.66067,-5.71878,18.7105,14.3545,1.74931e-14,-3.31452,-34.4328,2.39006,-16.1947,-12.0083,-6.80259,13.9709,-7.94403,24.2021,0.618833
1.1786,17.6856,0.065396,14.3441,0.957734,-3.94363,-10.6302,-0.722984,6.86481,-6.16668,-1.57696,1.6347,-0.639492,-0.942942,-2.3062,-15.1369,-1.98278,-6.94773,25.5785,-1.82959,3.18989,10.8438,-1.13193,2.07839,-3.34207e-15,1.15295e-14,-43.4238,-4.25766,-76.0268,36.897,2.47723,-18.879,-50.8935,7.12502,7.42197,-80.7433,-3.34207e-15,1.15295e-14,-38.9318,8.2231,78.6351,32.8754,16.5347,-34.8996,-27.2047,7.12502,-8.04783,2.62205,-5.65418,18.657,14.3877,1.43125e-14,-3.27447,-34.4249,2.32106,-16.2134,-12.0601,-6.79961,14.0644,-7.95018,24.1824,1.57945
1.18104,17.6852,0.065197,14.3374,1.03586,-3.98572,-10.5937,-0.747742,6.93222,-6.16193,-1.61271,1.65222,-0.659788,-0.962737,-2.32801,-15.2753,-1.97708,-6.95141,25.6963,-1.81153,3.19095,10.914,-1.12461,2.08309,2.38914e-14,-3.35946e-14,-43.4916,-4.19713,-76.0255,37.0034,2.4695,-19.1682,-50.1257,7.12502,7.14277,-79.9852,2.38914e-14,-3.35946e-14,-38.8522,8.23475,78.6429,32.7496,16.5191,-34.8798,-27.4264,7.12502,-8.02879,2.4011,-5.62282,18.5902,14.4567,1.43125e-14,-3.3319,-34.4215,1.94625,-16.271,-12.037,-6.75181,14.138,-7.94756,24.0979,0.699245
1.18322,17.6856,0.0655979,14.4104,1.05832,-4.03999,-10.5738,-0.74377,6.9918,-6.18813,-1.60965,1.67259,-0.699731,-0.964223,-2.33874,-15.4698,-1.98999,-6.97438,25.8189,-1.8189,3.22286,10.9992,-1.12666,2.09875,-3.3048e-15,-1.98785e-14,-43.537,-4.13602,-76.0132,37.1123,2.44129,-19.1087,-49.8349,7.12502,7.20024,-79.6924,-3.3048e-15,-1.98785e-14,-38.8459,8.17883,78.6884,32.7777,16.5653,-34.8453,-27.6169,7.12502,-7.99547,2.21187,-5.68506,18.5725,14.4895,9.54166e-15,-3.33912,-34.3843,1.95381,-16.3545,-11.9083,-6.69584,14.1336,-7.93492,23.9931,-0.284845
1.18534,17.6863,0.0705362,14.448,1.06221,-3.97994,-10.7176,-0.741892,6.92794,-6.12149,-1.61765,1.65807,-0.549838,-0.960692,-2.3238,-15.5644,-1.97984,-6.98059,25.7844,-1.80435,3.25799,11.0043,-1.11497,2.11409,3.00413e-14,-3.97569e-16,-43.4306,-4.1319,-76.0041,37.1136,2.43149,-18.9583,-49.8501,7.12502,7.34535,-79.7026,3.00413e-14,-3.97569e-16,-38.7737,8.14798,78.7475,32.8322,16.5998,-34.7242,-27.6357,7.12502,-7.87859,2.1975,-5.69362,18.5446,14.4077,3.18055e-15,-3.25083,-34.3606,2.11162,-16.3682,-11.8372,-6.78533,14.1321,-7.95742,23.9253,0.322307
1.18811,17.6866,0.0756438,14.4432,1.07909,-3.83012,-10.8347,-0.768953,6.80626,-6.062,-1.65532,1.59824,-0.423825,-0.97236,-2.32583,-15.5828,-1.96657,-6.96198,25.7297,-1.79969,3.29826,10.9869,-1.10512,2.12557,-1.60767e-14,1.61016e-14,-43.3122,-4.15999,-76.0367,37.0229,2.46146,-19.0266,-49.6251,7.12502,7.27947,-79.4799,-1.60767e-14,1.61016e-14,-38.684,8.19706,78.7206,32.7754,16.5287,-34.7598,-27.5351,7.12502,-7.91294,2.29679,-5.66068,18.486,14.2447,1.43125e-14,-3.20237,-34.3714,1.98756,-16.3379,-11.8569,-6.97859,14.1257,-7.98922,23.8902,0.983502
1.18909,17.6859,0.0740385,14.4797,1.13115,-3.8184,-10.7603,-0.781672,6.81417,-6.07724,-1.66544,1.57579,-0.482312,-0.980107,-2.35239,-15.7241,-2.01261,-6.94675,25.7639,-1.86288,3.31135,11.0314,-1.13022,2.11901,-1.74434e-14,2.64384e-14,-43.2472,-4.19283,-76.0702,36.9728,2.41846,-19.207,-49.4243,7.12502,7.10535,-79.2851,-1.74434e-14,2.64384e-14,-38.634,8.16802,78.7096,32.7423,16.4876,-34.8276,-27.681,7.12502,-7.97841,2.14839,-5.70663,18.4306,14.2289,1.74931e-14,-3.175,-34.3813,1.58795,-16.3775,-11.8942,-6.96698,14.063,-7.95725,23.8831,1.16709
1.1865,17.6858,0.0632192,14.5192,1.15429,-3.87239,-10.5345,-0.790305,6.81643,-6.12227,-1.65552,1.60429,-0.650886,-0.980857,-2.31658,-15.928,-2.06035,-6.93378,25.8545,-1.90946,3.2736,11.1083,-1.15451,2.09706,2.5842e-14,-2.24627e-14,-43.2431,-4.14117,-76.0929,37.0528,2.31231,-19.262,-49.5282,7.12502,7.05228,-79.3908,2.5842e-14,-2.24627e-14,-38.5885,8.04029,78.7833,32.7424,16.5756,-34.9328,-27.6143,7.12502,-8.0799,2.21121,-5.80904,18.4273,14.2756,1.11319e-14,-3.19442,-34.399,1.54559,-16.443,-11.9372,-6.84466,13.9703,-7.88117,23.9114,1.32336
1.18585,17.6869,0.0552317,14.5318,1.12232,-3.78856,-10.3752,-0.820442,6.69625,-6.15616,-1.66984,1.59345,-0.769957,-0.989497,-2.25754,-16.0088,-2.05362,-6.92024,25.9022,-1.89847,3.27425,11.1414,-1.14821,2.097,-1.57413e-14,1.94809e-14,-43.2296,-4.07056,-76.127,37.0939,2.27369,-19.2262,-49.5027,7.12502,7.08678,-79.364,-1.57413e-14,1.94809e-14,-38.5992,7.73937,78.9177,32.7928,16.9075,-35.0678,-27.5052,7.12502,-8.21021,2.31524,-6.29872,18.5022,14.118,0.762199,-3.61979,-34.5027,1.77915,-16.4421,-11.9182,-6.92599,13.8812,-7.78651,23.8994,0.636956
1.1882,17.6879,0.0560064,14.5503,1.08227,-3.58546,-10.4277,-0.852343,6.49042,-6.13395,-1.69985,1.535,-0.713929,-0.998118,-2.20807,-15.9741,-2.03155,-6.91991,25.8407,-1.88223,3.32115,11.1105,-1.13441,2.11577,1.97045e-14,1.59028e-15,-43.1551,-4.05372,-76.1731,37.0723,2.25441,-19.2436,-49.3715,7.12502,7.07004,-79.2334,1.97045e-14,1.59028e-15,-38.6229,7.2597,79.1129,32.9104,17.4197,-35.1046,-27.4972,7.12502,-8.24568,2.32186,-7.19965,18.6098,13.783,2.34099,-4.44374,-34.693,1.61255,-16.3796,-11.8775,-7.18013,13.7546,-7.73703,23.8497,0.0842699
1.18609,17.6886,0.0475778,14.5839,0.997685,-3.43503,-10.3644,-0.877548,6.25758,-6.13551,-1.7083,1.50726,-0.742011,-0.997705,-2.10624,-15.9507,-2.00736,-6.87652,25.7904,-1.8523,3.28974,11.0842,-1.1199,2.10055,-9.64106e-15,-1.19271e-14,-43.121,-4.00539,-76.2279,37.0744,2.17802,-19.3444,-49.3052,7.12502,6.9727,-79.1704,-9.64106e-15,-1.19271e-14,-38.6009,7.01756,79.2161,32.9755,17.6295,-34.6106,-27.4218,7.12502,-7.76896,2.41543,-7.90903,18.7418,13.5186,3.437,-4.99579,-34.8001,1.48486,-16.3368,-11.9088,-7.32533,13.5515,-7.64919,23.9134,0.810616
1.18426,17.6888,0.0384938,14.6062,0.924703,-3.42349,-10.2007,-0.890009,6.17139,-6.1598,-1.70387,1.52305,-0.852309,-0.996555,-2.03677,-15.9905,-2.00364,-6.84776,25.7812,-1.83982,3.2463,11.0873,-1.11639,2.08131,2.16675e-14,-1.90833e-14,-43.1013,-3.94586,-76.2507,37.0454,2.13545,-19.4137,-49.1377,7.12502,6.90577,-79.005,2.16675e-14,-1.90833e-14,-38.5019,7.04936,79.2298,32.908,17.5171,-33.6493,-27.2563,7.12502,-6.84103,2.61316,-8.41242,18.8721,13.4311,4.19711,-5.44393,-34.8236,1.71784,-16.284,-11.9014,-7.31938,13.3548,-7.4681,23.9873,1.08382
1.1855,17.6894,0.0425678,14.6489,0.855947,-3.36217,-10.2818,-0.891331,6.06896,-6.07851,-1.70733,1.51926,-0.718862,-0.990495,-1.98762,-16.261,-2.04624,-6.82968,25.8083,-1.87948,3.22539,11.1531,-1.13355,2.06462,-1.78782e-14,1.31198e-14,-42.9302,-3.91335,-76.2798,37.0708,2.13979,-19.2808,-49.3918,7.12502,7.0341,-79.2549,-1.78782e-14,1.31198e-14,-38.2659,7.14038,79.2554,32.7993,17.4267,-33.2462,-26.9808,7.12502,-6.4519,2.90091,-8.65147,18.9434,13.3133,4.58386,-5.72247,-34.8183,1.73099,-16.2381,-11.8339,-7.41096,13.2504,-7.36083,24.0016,-0.0280411
1.18674,17.6898,0.0472948,14.7168,0.743635,-3.30612,-10.444,-0.876747,5.97544,-5.98144,-1.69706,1.50236,-0.524564,-0.976288,-1.9581,-16.5756,-2.08352,-6.7797,25.8696,-1.91857,3.20595,11.2401,-1.14725,2.04336,2.29472e-14,-2.24627e-14,-42.7822,-3.82658,-76.3781,37.2353,2.07058,-19.06,-50.1556,7.12502,7.24721,-80.0115,2.29472e-14,-2.24627e-14,-38.1791,7.20526,79.2476,32.8833,17.4371,-33.0905,-27.1248,7.12502,-6.30163,2.7615,-8.77001,19.0327,13.189,4.64412,-5.86469,-34.8456,1.7589,-16.2559,-11.8179,-7.48771,13.2286,-7.3758,24.0834,-0.503669
1.18953,17.6885,0.045837,14.7585,0.708831,-3.31705,-10.4897,-0.859057,5.99917,-5.97228,-1.67952,1.48233,-0.490287,-0.96736,-1.9918,-16.573,-2.09272,-6.73324,25.8955,-1.94253,3.19357,11.25,-1.15548,2.02776,1.21756e-14,7.7526e-15,-42.8085,-3.7877,-76.4425,37.3295,1.97553,-19.1393,-50.3192,7.12502,7.17072,-80.1777,1.21756e-14,7.7526e-15,-38.2798,7.17737,79.2195,33.0253,17.4551,-32.7885,-27.0238,7.12502,-6.00998,2.87099,-8.90362,19.0736,13.1518,4.74526,-5.97994,-34.8998,1.90395,-16.2915,-11.8384,-7.47503,13.2184,-7.41547,24.1236,-0.226233
1.19234,17.6881,0.0450011,14.8456,0.798599,-3.30942,-10.582,-0.863507,6.00392,-6.01066,-1.69085,1.47287,-0.481748,-0.973768,-2.00691,-16.3757,-2.08627,-6.73352,25.8603,-1.94884,3.19792,11.1979,-1.15883,2.02856,1.83876e-14,-1.11319e-14,-42.8623,-3.84386,-76.4166,37.2839,1.99183,-19.3212,-50.0803,7.12502,6.99513,-79.9447,1.83876e-14,-1.11319e-14,-38.3345,7.13225,79.2323,32.9582,17.4622,-32.5903,-26.9524,7.12502,-5.8187,2.94767,-9.02728,18.9797,13.1266,4.80981,-5.63706,-34.9197,1.17861,-16.4523,-11.8058,-7.45871,13.2555,-7.3384,24.0155,-0.340464
1.1846,17.6932,0.0278594,15.4279,1.35404,-3.19626,-10.8176,-1.05832,5.78065,-6.33036,-1.93217,1.54037,-0.696129,-1.0993,-1.83482,-16.1196,-2.0456,-6.766,25.8085,-1.9039,3.21108,11.1255,-1.14128,2.04539,1.68594e-14,-1.05356e-14,-43.0136,-3.74523,-76.4093,37.2831,2.06105,-19.3351,-50.1757,7.12502,6.98168,-80.0405,1.68594e-14,-1.05356e-14,-38.4937,7.13355,79.2473,32.801,17.4592,-32.4749,-27.3221,7.12502,-5.70724,2.58107,-9.6408,18.3612,13.0005,4.8647,-5.6188,-34.8865,1.035,-17.4115,-11.5163,-7.34155,13.3222,-6.90449,23.338,-0.844042
1.18047,17.6952,0.0243325,15.6692,1.52075,-3.21531,-10.8252,-1.14741,5.70542,-6.53018,-2.03549,1.61129,-0.903519,-1.15664,-1.72469,-15.9976,-1.99635,-6.73483,25.8407,-1.8391,3.16307,11.1089,-1.11624,2.03245,2.53947e-14,-1.41137e-14,-43.1486,-3.53521,-76.4646,37.2329,2.07012,-19.4033,-50.271,7.12502,6.9158,-80.138,2.53947e-14,-1.41137e-14,-38.6151,7.26129,79.193,32.6156,17.2921,-32.5417,-27.1157,7.12502,-5.77175,2.78572,-10.0144,18.1998,12.9972,5.10895,-6.23903,-34.8587,2.08962,-17.7625,-11.3505,-7.24051,13.3235,-6.71818,23.1062,-1.41474
1.17944,17.6931,0.0257054,15.6753,1.40938,-3.2559,-10.7728,-1.13113,5.68013,-6.56325,-2.00677,1.63438,-0.962698,-1.14328,-1.68173,-16.018,-1.98819,-6.67838,25.9089,-1.82578,3.10124,11.1367,-1.1132,2.00289,3.8266e-15,1.0138e-14,-43.1201,-3.46109,-76.5038,37.0627,2.15321,-19.4771,-50.1937,7.12502,6.84462,-80.0631,3.8266e-15,1.0138e-14,-38.6375,7.34981,79.1571,32.5823,17.0928,-32.5573,-26.8038,7.12502,-5.78685,3.09723,-10.2101,18.3421,12.9966,5.43492,-6.7686,-34.8559,2.89806,-17.7144,-11.2675,-7.22031,13.2815,-6.76265,23.1387,-1.57843
1.18186,17.6925,0.0284689,15.6593,1.28284,-3.13312,-10.7428,-1.10222,5.53998,-6.59199,-1.95283,1.58228,-1.001,-1.11473,-1.65131,-15.8939,-1.99208,-6.69172,25.8834,-1.85432,3.16347,11.1046,-1.12036,2.02387,2.38542e-14,9.93923e-16,-43.1812,-3.41093,-76.5376,37.0096,2.21353,-19.6034,-49.7938,7.12502,6.72264,-79.6671,2.38542e-14,9.93923e-16,-38.7615,7.21817,79.2082,32.7028,17.033,-32.6533,-26.6608,7.12502,-5.87953,3.23762,-10.2133,18.4303,12.8221,5.4429,-6.71953,-34.8926,2.88394,-17.6369,-11.2459,-7.40567,13.3029,-6.92203,23.1722,-1.15867
1.19564,17.6958,0.0327035,15.6727,1.36625,-2.97744,-10.738,-1.1296,5.57022,-6.66796,-1.98766,1.50281,-1.09043,-1.13814,-1.75184,-15.6168,-1.95232,-6.75939,25.7618,-1.83589,3.29868,11.0045,-1.10243,2.08653,3.37934e-15,1.78906e-15,-43.3274,-3.29802,-76.5834,37.0472,2.20301,-19.7719,-49.042,7.12502,6.55997,-78.9204,3.37934e-15,1.78906e-15,-38.8684,7.09319,79.2664,32.6222,16.9855,-33.0313,-26.4455,7.12502,-6.24441,3.44244,-10.1101,18.2823,12.6282,5.31027,-6.41282,-34.9331,2.34946,-17.6458,-11.2161,-7.64728,13.3502,-6.96921,23.0146,-0.975818
1.21258,17.6967,0.0374146,15.6957,1.56669,-2.99654,-10.8139,-1.15535,5.85892,-6.69759,-2.05041,1.46107,-1.10022,-1.17975,-1.96313,-15.367,-1.91211,-6.84196,25.5892,-1.80993,3.43489,10.8908,-1.08159,2.15207,1.62382e-14,-2.98177e-15,-43.37,-3.27791,-76.5849,37.0129,2.32854,-19.727,-48.5158,7.12502,6.60339,-78.3928,1.62382e-14,-2.98177e-15,-38.9057,6.9999,79.3234,32.5307,16.9452,-33.268,-26.0058,7.12502,-6.47291,3.87527,-9.97957,18.065,12.6462,5.18702,-6.03097,-34.9493,1.56838,-17.7033,-11.1607,-7.68164,13.3819,-7.02174,22.7867,-0.849711
1.2218,17.696,0.0404719,15.6998,1.62945,-3.02127,-10.8799,-1.15201,6.01096,-6.67305,-2.06507,1.43922,-1.04783,-1.19016,-2.0744,-15.2424,-1.91059,-6.88692,25.4423,-1.82146,3.50326,10.8133,-1.08188,2.18118,-7.96381e-15,6.75868e-15,-43.3802,-3.23181,-76.5985,36.9926,2.38466,-19.5557,-48.6783,7.12502,6.76875,-78.5501,-7.96381e-15,6.75868e-15,-38.9501,6.93846,79.3705,32.5736,16.8733,-33.0709,-25.9112,7.12502,-6.28266,3.97567,-9.78978,17.9801,12.6697,4.93211,-5.85503,-34.908,1.52966,-17.7397,-11.1255,-7.68947,13.4408,-7.16204,22.7002,-0.830095
1.22529,17.6959,0.0457196,15.7087,1.59333,-2.98263,-10.9426,-1.16183,5.97728,-6.65198,-2.08085,1.4291,-0.991651,-1.19542,-2.07002,-15.2852,-1.8906,-6.83268,25.4453,-1.78845,3.44445,10.8197,-1.06842,2.15512,-2.42269e-15,-2.14687e-14,-43.453,-3.07235,-76.6881,37.0377,2.36103,-19.5604,-48.4439,7.12502,6.76417,-78.3159,-2.42269e-15,-2.14687e-14,-38.9895,6.9184,79.3987,32.547,16.7744,-32.8541,-26.1726,7.12502,-6.07338,3.72039,-9.60414,17.9744,12.6244,4.63285,-5.93126,-34.8486,1.61824,-17.7538,-11.1027,-7.76129,13.4987,-7.15856,22.7101,-1.2225
1.22589,17.6959,0.0555372,15.7137,1.58574,-3.02903,-11.0267,-1.17244,6.00616,-6.63792,-2.10457,1.44298,-0.933885,-1.20608,-2.07683,-15.3839,-1.85858,-6.75784,25.4891,-1.74255,3.39308,10.8513,-1.04631,2.13055,-4.24405e-14,1.49089e-14,-43.4843,-2.97564,-76.7866,37.0234,2.42754,-19.8034,-47.4028,7.12502,6.52964,-77.2821,-4.24405e-14,1.49089e-14,-38.9348,6.81541,79.4568,32.3535,16.734,-33.0472,-26.1533,7.12502,-6.25974,3.73419,-9.50069,17.9819,12.701,4.50996,-5.85698,-34.8223,1.17465,-17.7088,-11.1059,-7.72227,13.4839,-7.07497,22.7528,-1.63847
1.2299,17.6955,0.0669631,15.6987,1.5832,-2.99026,-11.1662,-1.18735,5.99937,-6.59026,-2.13629,1.43057,-0.810754,-1.21776,-2.09444,-15.3314,-1.84451,-6.73129,25.3792,-1.72069,3.35175,10.7982,-1.03773,2.11264,1.13804e-14,6.95746e-15,-43.3753,-2.95559,-76.8288,36.9035,2.52462,-20.0065,-47.1076,7.12502,6.33356,-76.9929,1.13804e-14,6.95746e-15,-38.7978,6.69011,79.5598,32.1134,16.6961,-33.2599,-26.2708,7.12502,-6.46515,3.61054,-9.35683,17.9582,12.6769,4.4067,-5.83197,-34.7986,1.04062,-17.6067,-11.1492,-7.79087,13.4142,-7.07096,22.7878,-1.57711
1.23863,17.6929,0.081513,15.4694,1.29942,-2.86711,-11.141,-1.13058,5.89809,-6.45539,-2.05607,1.38734,-0.67289,-1.16936,-2.07761,-15.2198,-1.83461,-6.75936,25.2706,-1.69032,3.29623,10.7345,-1.03264,2.10015,-2.18663e-15,1.80894e-14,-43.2641,-2.94137,-76.8122,36.7809,2.65118,-20.124,-47.3253,7.12502,6.22009,-77.214,-2.18663e-15,1.80894e-14,-38.7257,6.58827,79.6991,32.0208,16.6288,-33.2673,-26.3321,7.12502,-6.47228,3.54902,-8.77441,18.1697,12.5428,3.83605,-5.69191,-34.7588,1.23607,-17.2347,-11.2549,-8.06046,13.441,-7.26341,23.0675,-0.957663
1.24963,17.6873,0.0955242,14.8257,0.532402,-2.88661,-10.5684,-0.901067,5.90205,-6.21738,-1.72114,1.33121,-0.709201,-0.999315,-2.09556,-15.2637,-1.86352,-6.82096,25.2624,-1.71313,3.30408,10.7424,-1.04754,2.11012,1.9717e-14,-1.96797e-14,-43.2393,-2.96513,-76.7843,36.7627,2.7013,-20.158,-47.3504,7.12502,6.18727,-77.24,1.9717e-14,-1.96797e-14,-38.6675,6.51525,79.8223,31.9957,16.498,-33.1199,-26.3294,7.12502,-6.33,3.55599,-7.80451,18.933,12.5482,3.07045,-4.98816,-34.7404,1.14671,-16.2855,-11.6139,-8.31193,13.5027,-7.66975,24.0057,-0.280104
1.26169,17.687,0.109941,14.9006,0.631259,-3.16801,-10.8513,-0.845406,6.36318,-6.11623,-1.71469,1.3627,-0.466508,-0.998443,-2.32877,-15.4442,-1.91706,-6.82945,25.2261,-1.7666,3.28296,10.7677,-1.0734,2.09572,1.12189e-14,-1.53064e-14,-43.1277,-3.0265,-76.8189,36.7664,2.70549,-19.8431,-47.5262,7.12502,6.49125,-77.4068,1.12189e-14,-1.53064e-14,-38.462,6.486,79.8947,31.908,16.3136,-32.9694,-26.4618,7.12502,-6.18464,3.42795,-7.26576,18.8167,12.8941,2.09608,-4.29323,-34.6729,1.06297,-16.3618,-11.6746,-8.02028,13.5999,-7.78178,24.0909,-0.540861
1.26567,17.687,0.108886,14.9684,0.661883,-3.27009,-10.9191,-0.864539,6.52053,-6.02931,-1.76414,1.36749,-0.349038,-1.02168,-2.41979,-15.7475,-1.9367,-6.71895,25.2345,-1.77362,3.17874,10.8287,-1.07652,2.03768,1.77912e-14,-4.17448e-15,-42.8824,-2.98244,-76.9892,36.7351,2.67584,-19.6409,-47.3397,7.12502,6.68652,-77.2141,1.77912e-14,-4.17448e-15,-38.1903,6.49298,79.8925,31.7642,16.2238,-33.0014,-26.8043,7.12502,-6.21556,3.08452,-6.15033,18.6415,13.1085,1.59028e-15,-3.30216,-34.4718,1.33729,-16.5106,-11.6679,-7.89,13.7161,-7.88321,24.077,-0.424566
1.27241,17.6873,0.107989,15.0306,0.673162,-3.24135,-10.9073,-0.905407,6.55439,-5.99525,-1.82188,1.33229,-0.327518,-1.05067,-2.48123,-16.007,-1.9332,-6.54627,25.2794,-1.76962,3.07332,10.893,-1.06977,1.97064,-8.65956e-15,-1.15295e-14,-42.6995,-2.853,-77.1922,36.7457,2.52882,-19.94,-46.9071,7.12502,6.3977,-76.7905,-8.65956e-15,-1.15295e-14,-38.0629,6.44771,79.8836,31.7572,16.2993,-32.7841,-27.5243,7.12502,-6.00582,2.37061,-6.21738,18.6128,13.0328,-1.59028e-14,-3.35269,-34.4887,1.35335,-16.6488,-11.5718,-7.94692,13.8362,-7.94643,23.9536,-0.264861
1.28038,17.6884,0.104321,15.0888,0.728461,-3.14901,-10.8355,-0.93535,6.5077,-6.05156,-1.84846,1.30273,-0.427243,-1.06759,-2.48532,-16.0172,-1.9016,-6.40348,25.2871,-1.73027,2.95024,10.893,-1.05317,1.90731,-7.62836e-15,-2.38542e-15,-42.6384,-2.82379,-77.2322,36.6363,2.47796,-20.3371,-46.8718,7.12502,6.01433,-76.7665,-7.62836e-15,-2.38542e-15,-38.1491,6.26788,79.9934,31.9049,16.4269,-32.1589,-27.9361,7.12502,-5.40214,1.97508,-6.28535,18.5265,12.898,1.59028e-15,-3.09469,-34.5329,0.647719,-16.7669,-11.4289,-8.08539,13.8828,-7.86567,23.7587,-0.551072
1.28595,17.6901,0.093556,15.1274,0.785132,-3.03472,-10.5979,-0.962822,6.39322,-6.22714,-1.84724,1.28422,-0.736649,-1.07734,-2.43029,-15.7705,-1.81365,-6.38854,25.3072,-1.63206,2.96756,10.8464,-1.00675,1.92567,-1.46604e-15,-9.54166e-15,-42.8061,-2.78487,-77.2014,36.5262,2.5105,-20.4739,-47.1191,7.12502,5.88233,-77.0174,-1.46604e-15,-9.54166e-15,-38.4263,6.02833,80.1422,32.0233,16.4993,-31.7596,-27.6266,7.12502,-5.01658,2.29407,-6.36239,18.4401,12.7491,4.77083e-15,-2.88955,-34.5587,0.0835724,-16.9135,-11.4401,-8.19815,13.94,-7.82679,23.6926,-0.855948
1.28809,17.6904,0.0801333,15.1402,0.747291,-3.10033,-10.3054,-0.957342,6.41156,-6.41413,-1.8099,1.31795,-1.08902,-1.07284,-2.39013,-15.3977,-1.72826,-6.45446,25.3128,-1.54409,3.05684,10.7715,-0.964767,1.98214,1.96424e-14,-7.15625e-15,-43.094,-2.63472,-77.2416,36.6278,2.50556,-20.3055,-47.3014,7.12502,6.04491,-77.1952,1.96424e-14,-7.15625e-15,-38.7069,5.8515,80.2726,32.1038,16.4084,-31.7639,-27.1927,7.12502,-5.0208,2.72785,-6.45141,18.4999,12.7803,0,-3.18745,-34.5353,0.717958,-17.022,-11.5022,-8.08806,13.989,-7.79759,23.7919,-0.78218
1.28895,17.6892,0.0758114,15.1339,0.627627,-3.25399,-10.1868,-0.933292,6.48044,-6.47047,-1.77195,1.39799,-1.20987,-1.0591,-2.33777,-15.2271,-1.70249,-6.45857,25.3099,-1.49033,2.95322,10.7338,-0.954408,1.95284,-1.17407e-14,-2.38542e-14,-43.2393,-2.39004,-77.3376,36.8786,2.4792,-20.1879,-47.2359,7.12502,6.15842,-77.1264,-1.17407e-14,-2.38542e-14,-38.8488,5.8092,80.4153,32.2194,16.1785,-31.8276,-27.1028,7.12502,-5.0823,2.81621,-6.51175,18.6619,12.8943,3.33958e-14,-3.59489,-34.5145,1.57024,-17.0392,-11.3631,-7.93967,14.0264,-7.77224,23.803,-0.523848
1.29665,17.6889,0.0845495,15.1065,0.620894,-3.2025,-10.2027,-0.963175,6.42436,-6.44914,-1.8094,1.42437,-1.17863,-1.07435,-2.28311,-15.3428,-1.72607,-6.44787,25.3622,-1.47381,2.78911,10.7747,-0.965852,1.89425,1.70209e-14,-1.98785e-15,-43.3287,-2.14942,-77.3977,37.058,2.48184,-20.1966,-46.755,7.12502,6.15004,-76.6457,1.70209e-14,-1.98785e-15,-38.9479,5.76816,80.5753,32.3594,16.1067,-31.9462,-27.0482,7.12502,-5.19678,2.86808,-6.43955,18.6489,12.8262,2.06736e-14,-3.4934,-34.5037,1.34772,-16.991,-11.2717,-8.06676,14.0624,-7.82066,23.691,-0.396759
1.3069,17.6897,0.0856695,15.0817,0.705449,-3.09879,-10.0997,-1.01446,6.36027,-6.45069,-1.86377,1.41658,-1.23852,-1.10154,-2.25705,-15.4119,-1.76627,-6.54065,25.3389,-1.51089,2.82786,10.783,-0.986289,1.91848,2.2413e-14,-1.70955e-14,-43.4168,-1.96503,-77.4684,37.179,2.39608,-20.1635,-46.6531,7.12502,6.18201,-76.5429,2.2413e-14,-1.70955e-14,-38.9794,5.54344,80.7976,32.3738,16.1202,-32.3168,-27.3852,7.12502,-5.55465,2.52196,-6.36214,18.5347,12.7251,-3.18055e-15,-3.37886,-34.5095,1.47048,-16.9925,-11.3278,-8.21626,14.1005,-7.84531,23.6154,-0.379095
1.31641,17.6906,0.0766782,15.1497,0.679866,-2.98812,-10.0407,-1.00882,6.2731,-6.44876,-1.8448,1.38089,-1.26441,-1.09086,-2.2424,-15.2809,-1.79861,-6.69621,25.1038,-1.57889,3.03785,10.6768,-1.00419,2.00893,-1.25731e-14,9.74045e-15,-43.3428,-1.82149,-77.5882,37.2747,2.17768,-20.1059,-47.5494,7.12502,6.23761,-77.4375,-1.25731e-14,9.74045e-15,-38.8219,5.25867,81.0479,32.1611,15.9273,-32.7122,-28.3852,7.12502,-5.93639,1.51168,-6.47388,18.5219,12.5365,-1.27222e-14,-3.61964,-34.5648,2.4129,-17.0777,-11.3895,-8.34312,14.0669,-7.80878,23.6698,-0.188903
1.33587,17.6916,0.100642,15.3444,0.828056,-2.88423,-10.6642,-1.00228,6.38908,-6.36397,-1.89836,1.3091,-0.848056,-1.10869,-2.40572,-15.1858,-1.80206,-6.76977,24.8784,-1.60953,3.1907,10.5782,-1.00411,2.06978,1.11568e-14,2.38542e-14,-43.1116,-1.78025,-77.6675,37.0973,2.18612,-20.0438,-48.396,7.12502,6.29758,-78.2823,1.11568e-14,2.38542e-14,-38.6495,5.06322,81.2399,31.9072,15.7828,-32.8804,-28.9424,7.12502,-6.09875,0.949812,-6.52826,18.3026,12.3657,-1.11319e-14,-3.57259,-34.6085,1.79669,-17.1836,-11.3971,-8.516,14.0238,-7.86682,23.5707,-0.26664
1.33479,17.6962,0.0802066,15.8823,1.43041,-2.6796,-10.9683,-1.20869,6.17824,-6.54543,-2.16794,1.31306,-0.887242,-1.24257,-2.31375,-15.3001,-1.8848,-6.78357,24.8503,-1.72217,3.2193,10.5971,-1.05242,2.06651,3.13086e-15,3.18055e-15,-42.9415,-1.74659,-77.7467,36.9449,2.43227,-19.7601,-48.9214,7.12502,6.57138,-78.7994,3.13086e-15,3.18055e-15,-38.614,4.90806,81.3765,31.8333,15.8525,-32.8365,-29.2024,7.12502,-6.05639,0.691017,-7.58037,17.6764,12.0944,0.990544,-4.15344,-34.6688,1.17384,-18.051,-11.0244,-8.5537,13.9972,-7.55185,22.7039,-0.908719
1.33855,17.6973,0.0784444,16.0832,1.56107,-2.59625,-11.1511,-1.2366,6.08893,-6.57109,-2.20928,1.29585,-0.814857,-1.25956,-2.29111,-15.5603,-2.12167,-6.79431,24.9971,-2.01275,3.12432,10.7192,-1.19818,1.99488,-1.93815e-15,1.2921e-14,-42.845,-1.74433,-77.7811,36.788,2.61624,-19.725,-48.4034,7.12502,6.60525,-78.2804,-1.93815e-15,1.2921e-14,-38.5954,4.71143,81.5321,31.9128,15.9142,-32.8131,-29.4891,7.12502,-6.03382,0.404965,-8.01291,17.5318,11.946,1.43496,-4.60898,-34.7002,1.43728,-18.3461,-10.7868,-8.63094,14.0094,-7.42804,22.3703,-1.17403
1.34678,17.697,0.0778603,16.1775,1.46988,-2.55878,-11.1723,-1.19375,6.05744,-6.59616,-2.15015,1.27066,-0.824305,-1.23039,-2.29426,-15.7727,-2.26732,-6.80822,25.174,-2.19268,3.0873,10.8371,-1.28708,1.95969,1.44367e-14,1.53064e-14,-42.701,-1.84495,-77.7537,36.4357,3.00773,-19.8626,-47.7271,7.12502,6.47241,-77.6082,1.44367e-14,1.53064e-14,-38.5381,4.52365,81.6831,31.9268,15.8861,-32.687,-29.5797,7.12502,-5.91204,0.317793,-8.50632,17.6414,11.7769,2.07147,-4.91823,-34.7926,2.26681,-18.4448,-10.7684,-8.69771,14.0333,-7.39432,22.4528,-1.00148
1.35192,17.6967,0.0663537,16.2419,1.46711,-2.58958,-10.9699,-1.20526,6.06718,-6.67335,-2.14798,1.28942,-1.01496,-1.23614,-2.27159,-15.806,-2.26868,-6.85701,25.1885,-2.20315,3.17554,10.851,-1.28575,1.99856,-1.00759e-14,-2.38542e-15,-42.6229,-1.94534,-77.7421,36.3653,3.67736,-19.0711,-49.0824,7.12502,7.23649,-78.9387,-1.00759e-14,-2.38542e-15,-38.4401,4.38831,81.814,31.7621,15.8475,-32.2525,-29.7056,7.12502,-5.49254,0.203219,-8.69935,17.6577,11.7594,2.17809,-4.72298,-34.8125,2.54044,-18.6095,-10.7736,-8.63601,14.0865,-7.40462,22.461,-0.704762
1.35572,17.6964,0.0575357,16.2524,1.44713,-2.67872,-10.7137,-1.21358,6.09525,-6.76614,-2.13835,1.33797,-1.25046,-1.2396,-2.22542,-15.6236,-2.29194,-6.92694,25.0695,-2.24653,3.23819,10.7753,-1.30465,2.02644,-3.15571e-15,-1.51076e-14,-42.7358,-1.92652,-77.7787,36.5602,3.98748,-18.2544,-50.2078,7.12502,8.02485,-80.0355,-3.15571e-15,-1.51076e-14,-38.4391,4.21022,81.973,31.6166,15.9027,-32.0352,-29.7761,7.12502,-5.28275,0.138011,-8.64424,17.689,11.8366,1.95543,-4.53334,-34.7526,2.29104,-18.7191,-10.749,-8.5279,14.175,-7.50802,22.4595,-0.319082
1.36064,17.6957,0.0550812,16.2231,1.30262,-2.6739,-10.4864,-1.20537,6.01607,-6.83748,-2.10096,1.34663,-1.44194,-1.22496,-2.16016,-15.455,-2.29554,-6.90198,25.0239,-2.26067,3.19943,10.7256,-1.31437,2.00637,3.61912e-14,-1.64991e-14,-42.8573,-1.78951,-77.9065,36.6966,3.9774,-18.2236,-50.0395,7.12502,8.05454,-79.866,3.61912e-14,-1.64991e-14,-38.495,4.04238,82.0894,31.5224,15.9521,-31.94,-30.1637,7.12502,-5.19082,-0.247236,-8.5263,17.8104,11.7751,1.6751,-4.27269,-34.7107,1.58734,-18.7217,-10.7417,-8.57746,14.279,-7.63199,22.5709,-0.155544
1.36364,17.6952,0.0562216,16.1413,1.20706,-2.77129,-10.2643,-1.20578,6.03289,-6.87488,-2.08479,1.39094,-1.6,-1.2215,-2.11428,-15.4378,-2.21573,-6.78047,25.0625,-2.14967,3.07915,10.727,-1.26728,1.95821,8.03835e-15,-7.95139e-15,-42.9379,-1.62522,-78.0468,36.7447,3.81292,-18.4179,-49.9459,7.12502,7.86702,-79.7795,8.03835e-15,-7.95139e-15,-38.5374,3.95753,82.1712,31.4747,15.8411,-31.8562,-30.5117,7.12502,-5.10988,-0.59328,-8.34293,17.9242,11.8773,1.44962,-4.35752,-34.6672,1.7551,-18.6564,-10.6043,-8.53379,14.3557,-7.62908,22.5344,-0.550053
1.36658,17.6951,0.0467687,16.1366,1.1835,-2.83728,-10.0158,-1.24822,6.0119,-6.95014,-2.11744,1.46888,-1.81327,-1.24268,-2.01446,-15.4181,-2.0787,-6.7328,25.0116,-1.96332,3.05986,10.6925,-1.17925,1.96857,-1.2424e-14,3.18055e-14,-42.9618,-1.38372,-78.1695,36.7362,3.42899,-18.7378,-49.6893,7.12502,7.55821,-79.5343,-1.2424e-14,3.18055e-14,-38.6282,3.99488,82.2581,31.6198,15.5641,-32.0295,-29.7121,7.12502,-5.27725,0.202207,-7.57981,17.859,11.9816,-2.70347e-14,-3.81049,-34.5324,2.75055,-18.7429,-10.4375,-8.48464,14.4322,-7.61321,22.393,-0.705321
1.3837,17.6961,0.0422591,16.1808,1.30196,-2.65524,-10.0138,-1.3371,5.95516,-6.93439,-2.23164,1.44478,-1.80496,-1.29804,-2.01676,-15.2785,-1.85977,-6.71,24.7652,-1.69324,3.16331,10.5587,-1.03832,2.03675,-6.74625e-15,-4.77083e-15,-42.8753,-1.09457,-78.3478,36.8756,3.1494,-18.9171,-49.4206,7.12502,7.38515,-79.2717,-6.74625e-15,-4.77083e-15,-38.5315,4.05963,82.3419,31.7632,15.2893,-32.1322,-28.6446,7.12502,-5.37633,1.26716,-7.58887,17.6778,11.7511,-2.06736e-14,-3.72918,-34.569,2.6461,-18.8733,-10.3371,-8.74275,14.507,-7.72003,22.1106,-0.478061
1.41067,17.6978,0.0557606,16.1962,1.49021,-2.52285,-10.2665,-1.38171,6.10089,-6.82729,-2.3257,1.37287,-1.57269,-1.34326,-2.19109,-14.9453,-1.63401,-6.58936,24.3583,-1.42221,3.15633,10.3278,-0.899704,2.04587,-3.08489e-14,-7.95139e-15,-42.7999,-0.943892,-78.4765,37.144,3.31888,-18.2514,-50.263,7.12502,8.02767,-80.0905,-3.08489e-14,-7.95139e-15,-38.2388,4.01211,82.4563,31.6474,15.0857,-32.187,-28.1667,7.12502,-5.42929,1.74371,-7.45303,17.4323,11.5992,2.38542e-14,-3.62853,-34.5761,1.81778,-18.8533,-10.2738,-9.00712,14.5099,-7.82043,21.8247,-0.287366
1.42933,17.6977,0.0651871,16.2634,1.57116,-2.37919,-10.4828,-1.39744,6.08971,-6.75881,-2.36485,1.32038,-1.38774,-1.35718,-2.25195,-14.9921,-1.65077,-6.47283,24.2307,-1.42463,2.97892,10.289,-0.90879,1.96089,1.67973e-14,-8.34896e-15,-42.6759,-0.862912,-78.5441,37.387,3.73239,-16.9864,-51.8418,7.12502,9.24848,-81.619,1.67973e-14,-8.34896e-15,-37.9388,3.98093,82.5861,31.4201,14.903,-32.3735,-27.8199,7.12502,-5.60937,2.08584,-7.43934,17.2878,11.399,-4.77083e-15,-3.75661,-34.597,1.80711,-18.9152,-10.3027,-9.22636,14.4989,-7.75399,21.7617,-0.450141
1.44087,17.6965,0.071427,16.3383,1.55211,-2.14238,-10.7105,-1.41742,5.84654,-6.61604,-2.39374,1.28046,-1.10461,-1.35453,-2.17242,-15.7655,-1.84392,-6.40515,24.5235,-1.61531,2.79738,10.5548,-1.01071,1.86047,1.7754e-14,-1.23246e-14,-42.4227,-0.670727,-78.6728,37.722,3.62485,-16.3439,-52.9562,7.12502,9.86837,-82.7049,1.7754e-14,-1.23246e-14,-37.544,3.98648,82.7506,31.2108,14.8707,-32.4772,-28.0553,7.12502,-5.70943,1.84773,-7.47969,17.2178,11.0844,2.38542e-14,-3.87523,-34.6338,1.51958,-19.0294,-10.3343,-9.52737,14.5547,-7.64827,21.7767,-0.706001
1.45188,17.6967,0.0790338,16.3638,1.50879,-2.10683,-10.8575,-1.39124,5.78488,-6.47165,-2.3704,1.29268,-0.867075,-1.33166,-2.13234,-16.1561,-1.84841,-6.38761,24.585,-1.59904,2.79992,10.6521,-0.999354,1.86051,-1.15171e-14,-3.57812e-15,-42.3164,-0.307859,-78.8498,37.8896,3.47917,-16.7921,-52.4823,7.12502,9.43597,-82.2511,-1.15171e-14,-3.57812e-15,-37.1744,3.8276,82.9893,30.9586,14.9804,-32.4109,-28.766,7.12502,-5.64551,1.1388,-7.48771,17.237,10.9937,1.74931e-14,-3.81589,-34.6449,0.870066,-19.0402,-10.3637,-9.6173,14.6175,-7.73405,21.8238,-0.42094
1.46083,17.6969,0.0778351,16.3607,1.60863,-2.22427,-10.6978,-1.37534,5.90758,-6.53449,-2.3457,1.33065,-1.02271,-1.3273,-2.15181,-15.3544,-1.56988,-6.48503,24.0624,-1.28727,3.01761,10.2903,-0.836639,1.99288,-2.78299e-15,-3.97569e-15,-42.5406,0.197775,-79.1073,38.044,2.91375,-17.4165,-51.9708,7.12502,8.83342,-81.7659,-2.78299e-15,-3.97569e-15,-37.2001,3.45855,83.2569,30.8662,15.1594,-32.3677,-29.4817,7.12502,-5.60376,0.424188,-7.46916,17.172,11.124,-6.36111e-15,-3.88182,-34.6415,0.919326,-19.093,-10.3542,-9.49978,14.6835,-7.79316,21.7515,-0.446526
1.46649,17.6956,0.0761022,16.3545,1.72493,-2.33929,-10.5451,-1.39175,5.99962,-6.61531,-2.36041,1.38272,-1.19453,-1.34248,-2.14278,-15.907,-1.8913,-6.56966,24.5636,-1.6738,2.97319,10.6031,-1.03101,1.94366,-2.81529e-14,6.36111e-15,-42.6887,0.574194,-79.3202,37.8595,2.4064,-18.4467,-50.3502,7.12502,7.83917,-80.1849,-2.81529e-14,6.36111e-15,-37.3461,3.17457,83.4726,30.9781,15.2216,-32.2821,-30.1087,7.12502,-5.52106,-0.200634,-7.43851,17.092,11.2717,2.06736e-14,-3.98023,-34.6044,1.23056,-19.1785,-10.2434,-9.38312,14.746,-7.76285,21.5945,-0.714937
1.47071,17.694,0.0807462,16.3294,1.6526,-2.42871,-10.6033,-1.3716,5.9938,-6.52514,-2.34183,1.43341,-1.06379,-1.32668,-2.08979,-16.1037,-1.9419,-6.50295,24.605,-1.70211,2.79637,10.6567,-1.05836,1.86461,1.10636e-14,-2.22639e-14,-42.4728,0.682455,-79.4295,37.5741,2.55104,-18.732,-50.0684,7.12502,7.56387,-79.9131,1.10636e-14,-2.22639e-14,-37.1703,3.01644,83.6491,31.0497,15.102,-32.0019,-30.4534,7.12502,-5.25059,-0.538412,-7.42295,17.1874,11.3366,1.90833e-14,-4.12061,-34.5614,2.36375,-19.1515,-10.1613,-9.31624,14.75,-7.84694,21.5736,0.133411
1.48077,17.6928,0.0808165,16.3375,1.54634,-2.23577,-10.6648,-1.38122,5.7739,-6.43366,-2.34426,1.38167,-0.925124,-1.31723,-2.0258,-16.029,-1.84645,-6.3467,24.3738,-1.56502,2.61864,10.547,-0.999507,1.79116,6.7711e-15,-8.74653e-15,-42.1619,0.674399,-79.5502,37.4797,3.07852,-18.2412,-51.6938,7.12502,8.03759,-81.521,6.7711e-15,-8.74653e-15,-36.9215,2.87663,83.781,31.0771,14.9429,-31.759,-30.5202,7.12502,-5.01601,-0.599557,-7.43892,17.2267,11.0581,7.95139e-15,-4.31806,-34.5831,3.01856,-19.1528,-10.0997,-9.59762,14.7549,-7.82239,21.554,0.576855
1.50249,17.6942,0.0713341,16.3549,1.63977,-1.89042,-10.5498,-1.48903,5.59907,-6.49332,-2.46121,1.27874,-1.05488,-1.3774,-2.0397,-15.9341,-1.87408,-6.38101,24.345,-1.6082,2.64235,10.5209,-1.02004,1.79941,-8.58501e-15,1.82882e-14,-42.0806,0.846602,-79.7413,37.3836,3.41291,-18.1965,-51.966,7.12502,8.08065,-81.7915,-8.58501e-15,1.82882e-14,-36.9473,2.70863,83.9035,31.1389,14.8883,-31.879,-29.9413,7.12502,-5.1319,-0.0234092,-7.40708,17.0244,10.6476,3.18055e-15,-4.25384,-34.6457,2.31603,-19.2893,-10.0561,-10.0684,14.8577,-7.71011,21.3783,-0.389032
1.52608,17.697,0.0671412,16.3498,1.87223,-1.90002,-10.447,-1.57846,5.84511,-6.60012,-2.58851,1.2727,-1.2472,-1.45566,-2.18672,-15.8222,-1.89171,-6.51274,24.4403,-1.6454,2.78634,10.5384,-1.03439,1.86945,8.64092e-15,-3.97569e-15,-42.2147,1.24183,-80.0303,37.6153,3.13609,-17.9508,-52.1437,7.12502,8.31779,-81.9599,8.64092e-15,-3.97569e-15,-37.0488,2.36123,84.1087,31.1728,15.0425,-32.1678,-28.5221,7.12502,-5.41078,1.38881,-7.33113,16.7937,10.6658,3.81667e-14,-4.07037,-34.6798,1.90123,-19.4461,-10.0358,-10.1163,15.0196,-7.80394,21.138,-0.692542
1.54031,17.6971,0.0749142,16.4368,1.9821,-2.21428,-10.5566,-1.56335,6.25154,-6.59236,-2.61107,1.35655,-1.20041,-1.47604,-2.33205,-16.1418,-1.83834,-6.42086,24.6078,-1.56516,2.75497,10.6563,-0.993103,1.85483,-2.8333e-14,1.47101e-14,-42.2772,1.52417,-80.2355,37.8202,3.13909,-18.0837,-51.442,7.12502,8.18958,-81.2633,-2.8333e-14,1.47101e-14,-36.8222,1.94069,84.3428,31.0888,15.105,-32.2246,-27.3146,7.12502,-5.46557,2.59487,-7.39935,16.7575,10.9709,-2.06736e-14,-4.05552,-34.681,1.36238,-19.6136,-9.88695,-9.8079,15.1946,-8.09998,20.9652,-0.166325
1.54639,17.6958,0.0789564,16.5269,1.89779,-2.34581,-10.5399,-1.49691,6.29287,-6.54149,-2.52776,1.40268,-1.14878,-1.43206,-2.30099,-16.7256,-1.83914,-6.23261,24.7985,-1.5476,2.63875,10.8367,-0.980293,1.78431,-4.93856e-15,-1.55052e-14,-42.251,1.69472,-80.3727,37.9006,3.24009,-18.4018,-51.0154,7.12502,7.88253,-80.8485,-4.93856e-15,-1.55052e-14,-36.4559,1.51684,84.5874,30.9923,14.9055,-32.3104,-27.2192,7.12502,-5.54839,2.68813,-7.53784,16.8614,11.0316,-1.43125e-14,-4.02962,-34.6929,0.781226,-19.7477,-9.73394,-9.6959,15.3425,-8.31849,20.9482,0.00466789
1.55364,17.6948,0.0776096,16.5245,1.77647,-2.16905,-10.3028,-1.4431,5.9941,-6.62863,-2.40964,1.37582,-1.34446,-1.37155,-2.14189,-16.4685,-1.75815,-6.25436,24.5839,-1.46456,2.72228,10.7032,-0.932416,1.82831,2.03071e-14,1.19271e-15,-42.4206,1.77555,-80.4363,37.8902,3.23796,-18.5958,-51.2683,7.12502,7.69527,-81.1083,2.03071e-14,1.19271e-15,-36.4398,1.13661,84.8622,30.9475,14.6358,-32.4687,-28.0503,7.12502,-5.70123,1.85299,-7.57277,16.9248,10.7707,-2.70347e-14,-3.94355,-34.7069,0.870109,-19.7333,-9.69047,-9.95196,15.3456,-8.23927,20.9833,-0.378935
1.56389,17.694,0.0800032,16.5513,1.58933,-1.87853,-10.1522,-1.39129,5.61837,-6.82801,-2.29168,1.31669,-1.61005,-1.31247,-1.9743,-15.4659,-1.52985,-6.41821,24.0302,-1.22015,2.94284,10.2955,-0.807058,1.9635,3.66509e-14,-1.74931e-14,-42.7702,1.87999,-80.4836,37.9426,3.02619,-18.7408,-51.2625,7.12502,7.55539,-81.1076,3.66509e-14,-1.74931e-14,-36.7647,0.906117,85.0926,30.9364,14.3601,-32.208,-29.3672,7.12502,-5.44951,0.542714,-7.62208,17.0082,10.3498,-1.27222e-14,-3.99778,-34.7143,1.31741,-19.6522,-9.63582,-10.3662,15.2173,-8.1101,21.0309,-0.637067
1.5736,17.6924,0.081074,16.633,1.32658,-1.65756,-10.5198,-1.35906,5.27188,-6.65559,-2.25318,1.29407,-1.20894,-1.27001,-1.81861,-15.1544,-1.38523,-6.43494,23.5229,-1.03854,2.98268,10.0428,-0.714478,1.99836,3.08365e-14,-1.74931e-14,-42.3601,1.97187,-80.5749,37.7483,3.01926,-18.9001,-50.8072,7.12502,7.40161,-80.6577,3.08365e-14,-1.74931e-14,-36.4249,0.813184,85.2576,30.848,14.1464,-31.8794,-29.2908,7.12502,-5.13233,0.627097,-7.78028,17.1767,9.95223,0,-4.06419,-34.7356,1.65355,-19.674,-9.71942,-10.6371,15.1157,-8.0979,21.256,-0.287484
1.5909,17.6909,0.0822206,16.6935,1.32128,-1.64826,-10.2639,-1.36137,5.40069,-6.89583,-2.24048,1.25048,-1.6086,-1.28258,-1.91984,-14.9263,-1.31987,-6.29778,23.5879,-0.973297,2.88009,10.0176,-0.686467,1.94808,-5.80203e-15,9.14409e-15,-42.6248,2.04602,-80.7526,37.5944,3.25845,-19.0638,-50.4156,7.12502,7.24359,-80.2717,-5.80203e-15,9.14409e-15,-36.5756,0.378517,85.464,30.7171,14.1797,-31.9855,-27.4325,7.12502,-5.23473,2.48287,-7.84848,17.1605,9.86142,7.95139e-15,-3.94488,-34.7589,1.38757,-19.7853,-9.93359,-10.6425,15.1662,-8.11082,21.4204,0.104982
1.61737,17.6913,0.0880366,16.7252,1.64414,-1.75677,-10.4063,-1.40784,5.81017,-6.87886,-2.34501,1.2249,-1.54376,-1.34698,-2.18799,-14.8426,-1.29469,-6.25052,23.5323,-0.95529,2.87921,9.98023,-0.673705,1.94142,1.16289e-14,2.62396e-14,-42.6086,2.07376,-80.9493,37.6021,3.30819,-19.0893,-50.5715,7.12502,7.219,-80.4283,1.16289e-14,2.62396e-14,-36.4669,-0.0884132,85.7047,30.7481,14.269,-32.0629,-26.0682,7.12502,-5.30946,3.84525,-7.74097,16.8601,10.009,-2.22639e-14,-3.90846,-34.7646,1.29469,-19.9054,-9.93641,-10.6031,15.3354,-8.08006,21.1977,-0.368086
1.64192,17.6915,0.0904182,16.6557,2.0008,-1.96272,-10.4786,-1.47625,6.22673,-6.77262,-2.47904,1.2883,-1.4235,-1.42058,-2.37021,-15.065,-1.44766,-6.28904,23.5985,-1.12115,2.78203,10.0558,-0.764899,1.89274,2.42642e-14,-2.90226e-14,-42.5105,2.29654,-81.1464,37.674,3.14052,-19.4592,-50.5611,7.12502,6.86184,-80.4299,2.42642e-14,-2.90226e-14,-36.3943,-0.362335,85.925,30.9609,14.2959,-31.794,-26.0443,7.12502,-5.04985,3.87553,-7.52346,16.5732,10.3061,3.65764e-14,-4.15092,-34.7708,1.39291,-19.9596,-9.7455,-10.4949,15.5411,-8.15678,20.7676,-1.03367
1.65451,17.6893,0.0904196,16.5876,2.05644,-2.11997,-10.3931,-1.50697,6.33416,-6.7067,-2.52497,1.38975,-1.40567,-1.44288,-2.32692,-15.7405,-1.72155,-6.18305,23.9829,-1.40273,2.43844,10.3376,-0.92753,1.71821,4.29872e-15,3.97569e-16,-42.3817,2.64861,-81.3466,37.5695,2.98411,-20.3925,-49.5135,7.12502,5.96092,-79.4096,4.29872e-15,3.97569e-16,-36.2053,-0.538691,86.1156,30.9863,14.3285,-31.7559,-26.6438,7.12502,-5.01303,3.27693,-7.43715,16.5705,10.4762,2.54444e-14,-4.34821,-34.7888,1.08846,-20.0164,-9.64808,-10.3641,15.6978,-8.38312,20.5921,-0.566225
1.66104,17.687,0.0932069,16.7143,1.88979,-1.99214,-10.5778,-1.49446,6.03334,-6.6241,-2.50167,1.40599,-1.1983,-1.41429,-2.15025,-16.3487,-1.88013,-5.99124,24.1921,-1.56645,2.16419,10.5361,-1.01773,1.56529,-2.51214e-14,1.59028e-14,-42.0677,2.84209,-81.4883,37.3626,2.94474,-20.4869,-49.1385,7.12502,5.86977,-79.0372,-2.51214e-14,1.59028e-14,-35.903,-0.799036,86.3093,31.0067,14.3652,-31.9886,-27.2637,7.12502,-5.23772,2.65161,-7.61632,16.6695,10.2191,6.36111e-15,-4.44107,-34.7736,1.0848,-20.1798,-9.54993,-10.5265,15.7314,-8.48523,20.5787,0.0542711
1.67213,17.6872,0.0944804,16.8829,1.81209,-1.68735,-10.7161,-1.48845,5.64428,-6.64712,-2.46956,1.35566,-1.12583,-1.38616,-1.98784,-16.048,-1.78782,-6.00711,23.8331,-1.46754,2.23354,10.3427,-0.961715,1.60461,-4.68386e-15,-1.23246e-14,-42.0048,3.00964,-81.6083,37.3645,2.78128,-19.9417,-49.8458,7.12502,6.3961,-79.7292,-4.68386e-15,-1.23246e-14,-35.8874,-1.17614,86.585,31.0912,14.3898,-32.0769,-27.7189,7.12502,-5.32302,2.19425,-7.78582,16.6184,9.77917,2.22639e-14,-4.5742,-34.7473,1.57051,-20.325,-9.20613,-10.9838,15.7144,-8.39703,20.2785,-0.36823
1.68824,17.6881,0.0934476,16.9244,1.76318,-1.41498,-10.6071,-1.4883,5.38451,-6.71605,-2.43685,1.2934,-1.2441,-1.36737,-1.89917,-14.8181,-1.3532,-6.32708,22.9189,-0.97379,2.72258,9.75885,-0.697923,1.88971,1.73378e-14,-2.38542e-14,-42.0558,3.25017,-81.8048,37.3505,2.4901,-20.09,-50.4873,7.12502,6.25292,-80.375,1.73378e-14,-2.38542e-14,-35.9527,-1.56064,86.8712,31.1118,14.4006,-32.3636,-27.6939,7.12502,-5.59975,2.2121,-7.80611,16.5669,9.40747,-3.49861e-14,-4.62884,-34.7666,1.88459,-20.3863,-8.97814,-11.4167,15.785,-8.40697,20.048,-0.695686
1.70981,17.688,0.0901298,16.9705,1.85291,-1.4607,-10.4477,-1.50848,5.59066,-6.75925,-2.4682,1.30199,-1.38936,-1.39373,-2.00059,-15.8948,-1.58402,-6.0744,23.669,-1.18579,2.29378,10.2411,-0.829111,1.67462,3.4837e-14,6.36111e-15,-42.0161,3.51598,-82.0712,37.409,2.17745,-20.1983,-51.016,7.12502,6.14833,-80.9068,3.4837e-14,6.36111e-15,-35.8297,-1.88468,87.0948,31.0501,14.4116,-32.7235,-27.3202,7.12502,-5.94731,2.57632,-7.82942,16.4756,9.39926,-1.11319e-14,-4.56967,-34.7988,1.67835,-20.5556,-8.90081,-11.437,15.9519,-8.48186,19.9184,-0.434745
1.7341,17.6876,0.0828837,17.0346,2.06183,-1.7552,-10.2349,-1.54028,6.09505,-6.79203,-2.53426,1.37933,-1.56947,-1.44669,-2.19716,-15.389,-1.2765,-6.08058,22.9595,-0.826675,2.47063,9.872,-0.634689,1.77921,5.73991e-15,-2.38542e-15,-41.9123,3.62849,-82.2199,37.3815,2.29285,-20.0903,-49.8327,7.12502,6.25264,-79.7205,5.73991e-15,-2.38542e-15,-35.564,-2.04687,87.2225,30.8569,14.2863,-32.5543,-27.8981,7.12502,-5.78392,2.00293,-7.88454,16.343,9.67503,6.36111e-15,-4.44815,-34.8297,1.28897,-20.7706,-8.73854,-11.1864,16.1106,-8.46412,19.6622,-0.522546
1.75688,17.6872,0.0807813,16.962,2.09167,-1.80944,-10.0755,-1.53244,6.26053,-6.68389,-2.5296,1.36601,-1.552,-1.44718,-2.29953,-15.7762,-1.22922,-5.81217,22.9349,-0.745429,2.23615,9.93077,-0.598488,1.66208,-1.99282e-14,-5.96354e-15,-41.5947,3.79957,-82.449,37.3418,2.40505,-20.3816,-49.6154,7.12502,5.97143,-79.5113,-1.99282e-14,-5.96354e-15,-35.1822,-2.28236,87.33,30.6883,14.0933,-32.2031,-29.0097,7.12502,-5.4448,0.900354,-7.79091,16.3298,9.68108,2.54444e-14,-4.48289,-34.8321,1.11884,-20.7575,-8.76363,-11.2226,16.228,-8.43333,19.6695,-0.765846
1.77115,17.6861,0.0840763,16.8977,1.97201,-1.52847,-10.0473,-1.51871,5.921,-6.6498,-2.4843,1.29807,-1.5118,-1.41327,-2.17773,-15.707,-1.18869,-5.90059,22.8711,-0.696252,2.34476,9.8931,-0.570018,1.72096,4.4211e-14,-2.22639e-14,-41.4674,4.02962,-82.624,37.0376,2.269,-21.4551,-48.7769,7.12502,4.93493,-78.6995,4.4211e-14,-2.22639e-14,-35.0752,-2.68107,87.5887,30.584,14.0703,-32.7683,-30.9689,7.12502,-5.99053,-1.07363,-7.70318,16.3605,9.30878,-1.11319e-14,-4.85438,-34.8145,1.34326,-20.7123,-8.98875,-11.5799,16.3297,-8.46754,19.9175,-0.591063
1.78014,17.6841,0.0860185,16.9575,1.85341,-1.23923,-10.0447,-1.53756,5.4844,-6.77186,-2.47026,1.28598,-1.61722,-1.39754,-1.94297,-15.2143,-1.13263,-6.09095,22.6258,-0.641778,2.51251,9.71118,-0.540493,1.81579,1.98226e-14,-7.15625e-15,-41.6877,4.24426,-82.7358,36.9845,2.8724,-21.2947,-48.6409,7.12502,5.08978,-78.5598,1.98226e-14,-7.15625e-15,-35.2095,-3.23288,87.9897,30.5327,14.3687,-33.3621,-32.4733,7.12502,-6.5638,-2.59505,-7.78456,16.3722,8.90474,-3.81667e-14,-5.27309,-34.8477,1.9584,-20.8549,-9.02465,-11.9347,16.4961,-8.55169,19.9774,-0.544254
1.79752,17.6872,0.0889296,17.0044,1.86213,-1.08699,-10.0765,-1.56057,5.35619,-6.78853,-2.49239,1.25644,-1.61348,-1.40532,-1.90468,-14.9939,-1.10803,-6.12035,22.3628,-0.624074,2.55544,9.57599,-0.526928,1.83482,-7.15004e-15,-1.47101e-14,-41.6935,4.25576,-82.7851,37.1493,4.26124,-19.7157,-48.8917,7.12502,6.61423,-78.7684,-7.15004e-15,-1.47101e-14,-35.1531,-4.17732,88.4371,30.5387,14.8723,-32.7691,-31.1822,7.12502,-5.99131,-1.2869,-7.81104,16.301,8.67903,-7.95139e-15,-5.46974,-34.9046,2.64787,-20.9476,-8.74795,-12.2421,16.7217,-8.89,19.6008,-0.593802
1.82636,17.6991,0.0984131,17.0317,2.1004,-1.16464,-10.1764,-1.5737,5.68776,-6.71415,-2.54523,1.23521,-1.50412,-1.43877,-2.121,-15.1771,-1.13669,-6.02353,22.2886,-0.652274,2.45915,9.58519,-0.540633,1.78086,-4.04589e-14,2.78299e-15,-41.3802,4.42272,-83.0297,36.9099,4.16397,-19.9693,-48.5311,7.12502,6.36943,-78.4153,-4.04589e-14,2.78299e-15,-34.9077,-4.98045,88.7846,30.445,15.007,-32.2903,-30.237,7.12502,-5.52899,-0.329151,-7.71221,16.0743,8.77008,-4.77083e-15,-5.35691,-34.9361,2.5415,-20.9696,-8.71822,-12.2213,16.9553,-9.99538,19.0075,2.86433
1.85444,17.7028,0.108303,17.1282,2.38059,-1.33128,-10.2728,-1.57244,6.09898,-6.74106,-2.58161,1.25676,-1.50542,-1.47012,-2.33307,-15.2943,-1.15968,-5.9361,22.2825,-0.672843,2.35303,9.60563,-0.55411,1.72662,1.80273e-14,-4.37326e-15,-41.3176,4.62843,-83.3078,36.6881,3.55991,-21.5068,-47.5503,7.12502,4.88499,-77.474,1.80273e-14,-4.37326e-15,-34.6955,-5.29067,88.9957,30.2669,14.655,-32.2028,-30.3027,7.12502,-5.44455,-0.392607,-7.68095,15.8207,8.94801,2.22639e-14,-5.05586,-34.9587,1.68559,-21.2424,-8.88543,-12.0018,17.2594,-10.7422,18.6599,6.06999
1.86818,17.6993,0.102374,17.2949,2.34581,-1.22462,-10.3633,-1.53421,5.96184,-6.83102,-2.52263,1.24008,-1.53902,-1.43927,-2.27046,-14.9522,-1.1338,-6.04231,22.0012,-0.659036,2.46832,9.44245,-0.54088,1.78319,1.61637e-14,-7.55382e-15,-41.4454,4.44039,-83.2353,37.0978,5.07369,-19.6676,-48.7988,7.12502,6.66074,-78.6741,1.61637e-14,-7.55382e-15,-34.5608,-5.65484,89.2304,30.0946,14.3665,-31.9036,-29.7125,7.12502,-5.15564,0.204826,-7.88527,15.7852,8.7152,-3.18055e-14,-5.07775,-34.9532,1.87822,-21.6703,-8.84188,-12.1315,17.5534,-10.6726,18.6929,4.78213
1.87753,17.7054,0.0896665,17.4237,2.16858,-1.01013,-10.3922,-1.51545,5.60231,-6.83591,-2.47087,1.21356,-1.50541,-1.40155,-2.09482,-14.7746,-1.02995,-6.12122,21.7401,-0.537106,2.60475,9.31218,-0.472123,1.8558,1.67165e-14,2.78299e-15,-41.4604,4.9776,-83.7257,36.8274,2.92276,-23.3174,-46.1325,7.12502,3.13661,-76.0892,1.67165e-14,2.78299e-15,-34.4047,-6.01632,89.4302,30.115,14.3407,-31.6354,-28.9972,7.12502,-4.89673,0.926172,-8.12269,15.864,8.33158,3.49861e-14,-5.24049,-34.9099,2.54967,-21.8964,-8.81575,-12.3757,17.7195,-11.0882,18.6198,5.32642
1.89487,17.7107,0.0823953,17.4605,2.1297,-0.899673,-10.2426,-1.55075,5.50053,-6.83887,-2.49954,1.1941,-1.58752,-1.41524,-2.05495,-14.8287,-0.873155,-5.98527,21.6295,-0.339841,2.57197,9.27319,-0.370384,1.84477,-2.15557e-15,1.47101e-14,-41.4131,5.39356,-84.0657,36.9341,2.7022,-23.4168,-45.9419,7.12502,3.04055,-75.9,-2.15557e-15,1.47101e-14,-34.3219,-6.16736,89.5214,30.3129,14.3372,-31.371,-28.579,7.12502,-4.64136,1.35011,-8.18668,15.8534,8.12611,-4.77083e-15,-5.3145,-34.9123,2.41299,-21.9735,-8.7726,-12.541,17.8156,-11.4767,18.3766,6.78581
1.91867,17.7111,0.0825955,17.4094,2.15231,-0.895755,-10.0333,-1.5729,5.63676,-6.85811,-2.52467,1.17861,-1.73214,-1.43673,-2.14025,-14.8416,-0.766991,-5.87836,21.5473,-0.204476,2.51896,9.24008,-0.302886,1.82419,1.01442e-14,-4.37326e-15,-41.4111,5.55205,-84.2002,36.9974,3.99206,-22.0548,-46.7457,7.12502,4.35586,-76.6809,1.01442e-14,-4.37326e-15,-34.3275,-6.39069,89.6676,30.4539,14.3377,-31.2244,-28.1656,7.12502,-4.49986,1.76659,-8.10537,15.8281,8.07364,9.54166e-15,-5.48864,-34.9611,2.29051,-21.9392,-8.71939,-12.6586,17.9084,-11.486,18.2391,6.47082
1.94643,17.711,0.0869491,17.3467,2.20935,-0.825787,-9.88446,-1.58481,5.75448,-6.84367,-2.53973,1.13644,-1.80808,-1.45081,-2.24523,-14.8462,-0.708752,-5.97026,21.407,-0.133014,2.66249,9.18843,-0.258893,1.89615,-3.12403e-14,-2.38542e-15,-41.3126,5.58813,-84.3086,36.8701,4.88869,-20.7519,-47.8251,7.12502,5.61385,-77.7307,-3.12403e-14,-2.38542e-15,-34.2831,-6.88894,89.9442,30.5333,14.5708,-31.2969,-27.4985,7.12502,-4.56987,2.4322,-7.97714,15.7483,7.95221,1.43125e-14,-5.56711,-35.0147,2.24475,-21.8586,-8.74601,-12.8568,17.9352,-11.4926,18.1495,6.33787
1.96852,17.7047,0.0864892,17.3507,2.25506,-0.721015,-9.86061,-1.57138,5.7145,-6.84561,-2.51704,1.10657,-1.82049,-1.43899,-2.25136,-14.5555,-0.654345,-6.13837,21.0489,-0.0857184,2.88854,9.00775,-0.221416,2.00216,5.14977e-15,-2.38542e-14,-41.1773,5.63407,-84.4659,36.8712,5.13795,-20.1478,-48.4118,7.12502,6.19712,-78.3012,5.14977e-15,-2.38542e-14,-34.1433,-7.52112,90.2575,30.5389,14.5195,-31.4611,-26.8837,7.12502,-4.72835,3.04351,-7.96114,15.6608,7.77171,3.18055e-14,-5.40333,-35.0546,1.91344,-21.889,-8.51457,-13.1433,17.8575,-11.0186,18.1091,4.69451
1.98061,17.6986,0.0875917,17.3677,2.29448,-0.726719,-10.015,-1.52597,5.63879,-6.88427,-2.45956,1.14848,-1.76615,-1.40586,-2.16636,-13.9003,-0.600614,-6.33471,20.6111,-0.0373128,3.02642,8.73423,-0.196043,2.07933,3.67752e-15,1.98785e-15,-41.2206,5.81239,-84.6199,37.0489,5.17321,-19.6149,-49.3992,7.12502,6.7116,-79.2728,3.67752e-15,1.98785e-15,-34.0598,-7.9452,90.5256,30.4677,13.7689,-31.7288,-26.9936,7.12502,-4.9869,2.92768,-7.98612,15.6174,7.74013,4.77083e-15,-5.29373,-35.0723,1.71835,-21.8828,-8.18929,-13.2744,17.6921,-10.5354,17.9633,3.18488
1.99957,17.6947,0.0966304,17.4068,2.42096,-0.619842,-10.2991,-1.585,5.59436,-6.57479,-2.56612,1.11238,-1.29309,-1.44059,-2.20657,-14.5577,-0.515793,-6.21274,20.4841,0.0946701,3.04124,8.80416,-0.117241,2.08064,-1.41215e-14,-1.35174e-14,-40.4567,6.04411,-84.9005,36.9186,5.00948,-19.2384,-50.0172,7.12502,7.07506,-79.879,-1.41215e-14,-1.35174e-14,-33.361,-8.13743,90.4716,30.4553,13.2981,-31.916,-27.8456,7.12502,-5.16764,2.07138,-7.91558,15.4427,7.61409,-7.95139e-15,-5.49311,-35.09,1.71833,-21.8486,-8.05063,-13.4801,17.4832,-10.2999,17.695,2.7067
2.0265,17.6847,0.103691,17.457,2.53347,-0.609054,-10.4634,-1.5659,5.78949,-6.51583,-2.57029,1.05818,-1.15558,-1.4448,-2.37971,-14.6082,-0.426829,-6.15095,20.3446,0.203384,3.06132,8.75975,-0.0566542,2.08821,-3.74119e-15,-5.96354e-15,-40.2476,6.23749,-85.1806,37.1095,3.91261,-18.2891,-51.3561,7.12502,7.99131,-81.185,-3.74119e-15,-5.96354e-15,-33.2868,-8.47825,90.6382,30.6477,13.4921,-31.7266,-28.2197,7.12502,-4.9847,1.70169,-7.85432,15.3008,7.54597,4.6118e-14,-5.77687,-35.0859,1.9346,-21.8771,-7.74072,-13.6917,17.3377,-9.62806,17.5731,-0.0611015
2.04274,17.6777,0.0984828,17.4927,2.47027,-0.66578,-10.2227,-1.51684,5.83851,-6.63721,-2.48745,1.05712,-1.41025,-1.41407,-2.38887,-14.5819,-0.338972,-6.0139,20.3025,0.306515,2.99213,8.73547,-0.00428526,2.05301,4.79723e-15,-3.97569e-16,-40.5762,6.692,-85.5782,36.6248,4.99361,-20.5071,-48.172,7.12502,5.85025,-78.0713,4.79723e-15,-3.97569e-16,-33.329,-9.03456,90.9321,30.6684,13.8781,-31.5468,-28.2533,7.12502,-4.81116,1.67212,-7.94038,15.3622,7.4997,-9.54166e-15,-6.08209,-35.0543,2.64074,-21.9548,-7.47423,-13.7723,17.3172,-9.14557,17.5925,-2.01051
2.05129,17.6808,0.0907737,17.5571,2.33892,-0.590401,-9.92224,-1.49998,5.57462,-6.78035,-2.41814,1.07904,-1.70366,-1.38082,-2.19895,-14.6666,-0.315841,-5.82198,20.3321,0.341811,2.79552,8.76058,0.00621043,1.95901,-1.25328e-14,7.55382e-15,-40.7965,7.20376,-86.0081,36.6556,4.1692,-23.0317,-45.2417,7.12502,3.41252,-75.1941,-1.25328e-14,7.55382e-15,-33.2586,-9.57816,91.2432,30.536,14.0499,-31.699,-28.5627,7.12502,-4.95811,1.35928,-8.09183,15.449,7.30907,-4.77083e-15,-6.45046,-35.0293,3.30556,-22.1684,-7.73482,-13.7498,17.3958,-9.43339,17.7151,-0.0793347
2.06949,17.6911,0.0924283,17.6072,2.34758,-0.512536,-9.97955,-1.49655,5.46677,-6.7962,-2.40847,1.0842,-1.68226,-1.37202,-2.13452,-14.6167,-0.315313,-5.66901,20.2363,0.353277,2.57064,8.7197,0.00067777,1.85679,5.85483e-15,1.23246e-14,-40.6728,7.51777,-86.3583,36.4113,3.42965,-25.0992,-42.1566,7.12502,1.41576,-72.1317,5.85483e-15,1.23246e-14,-33.1962,-9.91801,91.4607,30.709,14.0728,-31.7092,-28.2593,7.12502,-4.96796,1.66248,-8.12174,15.3971,7.16365,-2.22639e-14,-6.63985,-35.0494,3.35515,-22.3238,-8.21876,-13.6905,17.5456,-10.2607,17.6767,3.69194
2.10374,17.6931,0.093474,17.5386,2.6167,-0.43892,-9.96228,-1.56387,5.67461,-6.78924,-2.5124,1.06764,-1.7049,-1.4317,-2.27464,-14.3822,-0.161366,-5.62799,19.9555,0.564331,2.47615,8.57233,0.0967216,1.83729,1.46511e-14,1.03368e-14,-40.4859,7.75917,-86.5258,36.354,3.86972,-23.3678,-44.4447,7.12502,3.08795,-74.402,1.46511e-14,1.03368e-14,-33.1984,-10.2214,91.6833,30.9835,14.2064,-31.483,-27.1906,7.12502,-4.7495,2.73621,-7.89172,15.1143,7.10531,-6.36111e-15,-6.65772,-35.085,3.07527,-22.2648,-8.1028,-13.9487,17.7535,-10.516,17.1919,3.64824
2.14044,17.6837,0.0866804,17.4516,2.94981,-0.466545,-9.74176,-1.62509,6.06612,-6.80346,-2.60635,1.05145,-1.87166,-1.49689,-2.50694,-14.2647,0.0552169,-5.62002,19.7081,0.843672,2.53249,8.45383,0.238682,1.88257,-2.8889e-14,1.63003e-14,-40.3299,8.14652,-86.7655,36.3005,4.37583,-20.3771,-48.1229,7.12502,5.97573,-78.0187,-2.8889e-14,1.63003e-14,-33.0302,-10.569,91.8843,31.0263,14.2323,-31.3722,-26.4394,7.12502,-4.64252,3.48976,-7.6553,14.8048,7.15169,3.49861e-14,-6.61163,-35.1086,2.75455,-22.2909,-7.46045,-14.2887,17.9522,-9.86589,16.6932,-0.430387
2.16306,17.6844,0.0801004,17.4857,2.92378,-0.364368,-9.66158,-1.59654,6.03114,-6.67162,-2.56577,0.994805,-1.77359,-1.4711,-2.54402,-14.5936,0.158068,-5.57497,19.5095,0.972578,2.64163,8.43941,0.318719,1.92621,-2.29825e-14,-9.93923e-15,-39.9457,8.42845,-87.0514,36.2043,4.53067,-19.539,-48.551,7.12502,6.78488,-78.4223,-2.29825e-14,-9.93923e-15,-32.477,-11.0957,92.0121,31.0441,14.3275,-31.3907,-26.7369,7.12502,-4.66042,3.19188,-7.71219,14.7817,6.93604,-4.77083e-14,-6.54488,-35.1194,2.64991,-22.3986,-7.31148,-14.5214,18.0455,-9.91686,16.5143,-0.140972
2.17415,17.6882,0.0783895,17.5704,2.62859,-0.129733,-9.74073,-1.51441,5.57069,-6.47838,-2.43599,0.964641,-1.49147,-1.38048,-2.31796,-15.0428,0.184022,-5.55573,19.3582,1.03057,2.64794,8.46699,0.352242,1.93326,-1.36851e-14,1.51076e-14,-39.4677,8.54206,-87.1996,36.1343,4.77922,-19.7484,-47.9026,7.12502,6.58268,-77.7803,-1.36851e-14,1.51076e-14,-31.9288,-11.7634,92.2625,31.1319,14.6136,-31.4128,-27.2028,7.12502,-4.68173,2.72548,-7.91151,14.9671,6.50619,3.18055e-15,-6.43894,-35.0899,2.61375,-22.47,-7.41497,-14.7709,18.0678,-10.338,16.5327,2.16625
2.18799,17.6816,0.0803609,17.6046,2.58023,-0.0482048,-9.81702,-1.47363,5.34542,-6.4326,-2.37125,0.988306,-1.3835,-1.33693,-2.16707,-15.1135,0.230432,-5.482,19.292,1.10178,2.55436,8.45545,0.382871,1.89722,-5.97286e-15,2.38542e-15,-39.3106,8.75405,-87.412,36.0998,4.70625,-20.0009,-47.4417,7.12502,6.33897,-77.3268,-5.97286e-15,2.38542e-15,-31.7428,-12.3053,92.5755,31.2207,14.8237,-31.1525,-27.3325,7.12502,-4.43035,2.60113,-7.94722,14.9708,6.33548,4.45278e-14,-6.15967,-35.0219,2.13184,-22.5722,-6.94629,-15.0559,18.1337,-9.95292,16.3058,0.203318
2.21045,17.6757,0.0844075,17.6187,2.78011,0.0106916,-9.90009,-1.51586,5.37541,-6.51602,-2.43146,0.987152,-1.43219,-1.3707,-2.19042,-14.9466,0.370414,-5.39112,19.3236,1.28268,2.46601,8.42922,0.46489,1.87187,1.339e-14,-1.66979e-14,-39.5005,9.20436,-87.8192,36.128,4.65491,-20.5604,-46.986,7.12502,5.79882,-76.8867,1.339e-14,-1.66979e-14,-31.7948,-12.8661,92.8694,31.3267,15.2072,-30.8094,-27.9226,7.12502,-4.09911,2.0177,-7.82894,14.7447,6.2697,1.59028e-15,-5.95995,-34.9554,1.65268,-22.6842,-6.51386,-15.335,18.2431,-9.57989,15.9282,-1.91719
2.23864,17.6798,0.0893972,17.6836,3.03036,0.073456,-10.1394,-1.54199,5.52641,-6.55242,-2.49182,0.952137,-1.35467,-1.40496,-2.32344,-14.7778,0.496885,-5.24147,19.2891,1.46044,2.2412,8.383,0.536685,1.78933,-8.321e-15,5.1684e-15,-39.6585,9.68246,-88.2414,36.2235,4.66698,-20.74,-47.4457,7.12502,5.62539,-77.3511,-8.321e-15,5.1684e-15,-31.7912,-13.5776,93.1607,31.5136,15.6864,-30.706,-27.9766,7.12502,-3.99919,1.96562,-7.73598,14.456,6.1954,-3.18055e-15,-6.03962,-34.906,1.51537,-22.7969,-6.72696,-15.403,18.3137,-9.94977,15.6826,-0.146488
2.26881,17.6839,0.0885053,17.7458,3.30818,0.122707,-10.2813,-1.53585,5.70842,-6.55613,-2.50703,0.889102,-1.2957,-1.41776,-2.49669,-14.0717,0.472627,-4.68513,18.5645,1.40229,1.53944,8.02671,0.487865,1.44097,4.49548e-14,-2.5842e-14,-39.6573,10.043,-88.5952,36.3122,4.5401,-20.2803,-48.2564,7.12502,6.0692,-78.1494,4.49548e-14,-2.5842e-14,-31.7019,-14.1852,93.383,31.825,15.9223,-30.8004,-27.2975,7.12502,-4.09035,2.64293,-7.66403,14.1486,6.13457,1.59028e-15,-6.18606,-34.8715,1.53056,-22.9171,-6.93067,-15.4542,18.3593,-10.3027,15.3649,1.64437
2.29048,17.6752,0.0797854,17.6746,3.39895,0.213281,-10.0694,-1.54177,5.67496,-6.55309,-2.49767,0.852807,-1.40706,-1.41554,-2.50699,-14.2302,0.698639,-5.0016,18.7516,1.67024,2.14701,8.09778,0.651476,1.72842,-1.57832e-14,-9.93923e-15,-39.5679,10.3832,-88.9178,36.2787,4.74622,-20.2917,-47.846,7.12502,6.05825,-77.7394,-1.57832e-14,-9.93923e-15,-31.5495,-14.6352,93.5679,32.1436,16.0589,-31.0381,-27.238,7.12502,-4.31995,2.69794,-7.55874,14.0429,6.00496,3.18055e-15,-6.28111,-34.8564,1.93027,-22.9718,-6.71513,-15.716,18.4693,-9.97339,15.2261,-0.202254
2.30134,17.6663,0.0710921,17.5256,3.24182,0.207422,-9.75642,-1.49836,5.5284,-6.43617,-2.41233,0.882154,-1.43828,-1.36604,-2.37981,-14.2579,0.864315,-4.88951,18.3599,1.88137,2.10741,7.96513,0.761951,1.71424,6.78353e-15,5.56597e-15,-39.2364,10.6654,-89.1576,36.2673,5.04322,-20.3776,-47.4647,7.12502,5.97529,-77.3604,6.78353e-15,5.56597e-15,-31.1327,-15.3435,93.7716,32.3559,16.4453,-30.9153,-27.0411,7.12502,-4.20131,2.89717,-7.51835,14.2257,5.9289,0,-6.2456,-34.8685,2.44022,-22.9217,-6.54364,-15.8399,18.5581,-9.68491,15.3738,-1.90674
2.30894,17.6656,0.0695236,17.4216,3.06839,-0.0278744,-9.61174,-1.37965,5.57346,-6.27993,-2.25441,0.959754,-1.33898,-1.28096,-2.31154,-14.3405,0.914717,-4.53363,17.9061,1.9493,1.72457,7.83515,0.787834,1.5306,5.70264e-15,-1.03368e-14,-38.8126,10.9311,-89.3815,36.2244,5.13126,-19.9863,-47.6869,7.12502,6.35303,-77.5716,5.70264e-15,-1.03368e-14,-30.6278,-16.2468,93.9882,32.47,16.9359,-30.4805,-26.8534,7.12502,-3.78144,3.09277,-7.54724,14.4819,6.09446,-7.95139e-15,-6.62779,-34.8309,3.18239,-22.8732,-6.34458,-15.6683,18.6229,-9.76371,15.3865,-1.83655
2.36691,17.6721,0.061332,17.5101,3.70804,0.403369,-9.54261,-1.50921,5.87585,-6.33028,-2.44163,0.757935,-1.471,-1.39225,-2.69922,-14.1678,0.984212,-4.3743,17.5052,2.02885,1.56767,7.67285,0.827198,1.45408,-3.29237e-15,-2.18663e-14,-38.8143,11.6012,-89.8184,36.2492,5.07757,-19.9925,-47.5944,7.12502,6.34706,-77.4793,-3.29237e-15,-2.18663e-14,-30.4389,-16.7291,94.1739,32.6437,16.777,-30.5075,-27.5394,7.12502,-3.80752,2.40631,-7.26309,13.6997,5.67615,3.97569e-14,-6.45189,-34.8392,2.18221,-23.0359,-6.47958,-16.2588,18.6984,-10.2067,14.5428,0.224433
2.3799,17.6731,0.0736621,17.4698,3.6045,0.443572,-9.5207,-1.45474,5.66699,-6.35754,-2.3511,0.786213,-1.4911,-1.34088,-2.54549,-13.8545,1.12413,-4.32915,17.1498,2.18883,1.59012,7.4952,0.914164,1.46267,-1.85739e-15,-1.98785e-15,-39.0422,12.6446,-90.4568,36.4638,4.54793,-20.0916,-48.1185,7.12502,6.25137,-78.0063,-1.85739e-15,-1.98785e-15,-30.4561,-16.9336,94.2716,33.4941,16.8826,-29.9643,-24.6777,7.12502,-3.28303,5.27677,-7.21115,13.7857,5.57458,1.27222e-14,-6.37784,-34.803,1.93724,-22.9765,-6.56313,-16.2799,18.7889,-10.7783,14.3506,3.25579
2.40245,17.6669,0.084095,17.4999,3.60491,0.604425,-9.69429,-1.41308,5.51606,-6.38386,-2.29485,0.718146,-1.41433,-1.30787,-2.53329,-13.473,1.26614,-4.1235,16.8207,2.33699,1.49394,7.31904,0.994188,1.40381,3.26939e-14,-1.90833e-14,-39.0864,13.2684,-90.9813,36.6336,3.92001,-19.8005,-49.0693,7.12502,6.53242,-78.9486,3.26939e-14,-1.90833e-14,-30.5524,-17.5736,94.4705,34.1156,17.0071,-30.1317,-24.2679,7.12502,-3.44468,5.68397,-7.15675,13.7148,5.3309,3.18055e-15,-6.34616,-34.8151,1.468,-22.9872,-6.22095,-16.6674,18.8446,-10.6198,14.109,1.89159
2.42772,17.6597,0.0764452,17.6334,3.63465,0.723494,-9.88735,-1.3826,5.47934,-6.41721,-2.26275,0.655362,-1.34218,-1.29069,-2.5814,-13.035,1.40864,-3.85745,16.4677,2.49035,1.29754,7.12873,1.07163,1.30167,1.96579e-14,3.97569e-15,-39.0947,13.6246,-91.3812,36.3746,4.67737,-20.7968,-47.6832,7.12502,5.57057,-77.59,1.96579e-14,3.97569e-15,-30.4409,-18.1405,94.5891,34.5031,16.9941,-30.1617,-24.3956,7.12502,-3.47358,5.55587,-7.28707,13.6063,5.07542,-7.95139e-15,-6.40898,-34.8459,1.44941,-23.2504,-5.92249,-16.9972,18.9209,-10.2038,13.9947,-0.620788
2.4564,17.6585,0.0679916,17.6236,3.72451,0.64863,-9.94544,-1.36383,5.68808,-6.33525,-2.26082,0.682115,-1.2336,-1.29082,-2.674,-12.8599,1.54194,-3.6329,16.0429,2.67131,0.988985,6.96357,1.15083,1.17503,-4.02415e-14,7.15625e-15,-38.9703,14.1465,-91.7146,36.4582,4.73258,-21.0031,-47.4537,7.12502,5.37132,-77.3656,-4.02415e-14,7.15625e-15,-30.0867,-18.5672,94.6425,34.8892,17.0679,-29.7386,-24.3739,7.12502,-3.06499,5.58378,-7.27498,13.5341,5.07706,3.81667e-14,-6.7633,-34.8347,2.62344,-23.3169,-5.79622,-17.0443,18.9759,-10.1807,13.7681,-1.01898
