JuanDHNZ/ProyectoFinalCD/preprocessing/sports_trials_csv/49_04.csv
root1,root2,root3,root4,root5,root6,lowerback1,lowerback2,lowerback3,upperback1,upperback2,upperback3,thorax1,thorax2,thorax3,lowerneck1,lowerneck2,lowerneck3,upperneck1,upperneck2,upperneck3,head1,head2,head3,rclavicle1,rclavicle2,rhumerus1,rhumerus2,rhumerus3,rradius1,rwrist1,rhand1,rhand2,rfingers1,rthumb1,rthumb2,lclavicle1,lclavicle2,lhumerus1,lhumerus2,lhumerus3,lradius1,lwrist1,lhand1,lhand2,lfingers1,lthumb1,lthumb2,rfemur1,rfemur2,rfemur3,rtibia1,rfoot1,rfoot2,rtoes1,lfemur1,lfemur2,lfemur3,ltibia1,lfoot1,lfoot2,ltoes1
0.905153,15.8417,-43.9351,24.0181,4.52189,-0.103027,-1.98829,-2.94849,-0.217126,-2.5043,-3.91847,2.18309,-1.28815,-1.94265,2.32273,-13.0086,-2.77824,-7.7336,4.38443,-2.97108,6.85231,3.62975,-1.26801,3.14987,-4.31114e-14,6.36111e-15,-45.0057,1.21933,-83.7478,40.3321,2.06785,-26.4685,-49.4952,7.12502,0.0932205,-79.475,-4.31114e-14,6.36111e-15,-25.2003,-23.2611,95.8037,49.5599,9.42003,-33.5163,-28.9139,7.12502,-6.7126,0.959672,-73.3989,-2.83918,23.6955,76.489,-13.8706,-9.71844,-13.1855,-20.8137,-3.07956,-25.3185,41.8342,-38.2185,20.9802,-8.28037
0.884869,15.8169,-43.8147,24.1068,4.50321,0.0583517,-2.18158,-2.94465,-0.471264,-2.50922,-3.91332,2.05082,-1.1776,-1.93816,2.31763,-12.0675,-2.67765,-7.5145,3.63044,-2.91315,6.91976,3.24453,-1.24869,3.14554,4.0403e-14,-1.68967e-15,-45.1514,0.815485,-83.7945,40.6316,2.08319,-28.0027,-47.2021,7.12502,-1.38856,-77.1773,4.0403e-14,-1.68967e-15,-25.226,-23.935,95.5897,50.5751,10.4565,-32.9795,-30.4428,7.12502,-6.19438,-0.553403,-73.3565,-2.74667,23.6838,77.0388,-14.5024,-8.88984,-13.9282,-20.4042,-2.76732,-25.3114,41.7411,-38.0884,20.4249,-9.38993
0.872932,15.8017,-43.6766,24.1514,4.58402,0.0143327,-1.96435,-3.07896,-0.365429,-2.59537,-4.09098,2.13886,-1.38099,-2.02621,2.36261,-12.2656,-2.56336,-7.69378,3.66136,-2.72314,6.96564,3.27479,-1.15176,3.20062,-3.64273e-14,6.85807e-15,-45.2781,1.12909,-83.8572,41.1142,2.19388,-28.6135,-46.2781,7.12502,-1.97845,-76.2486,-3.64273e-14,6.85807e-15,-25.2282,-23.9325,95.4483,51.5342,11.3024,-32.8467,-31.953,7.12502,-6.06624,-2.05983,-73.1287,-2.76508,23.9281,77.5777,-15.2624,-7.88374,-13.1691,-19.8301,-2.56141,-25.0744,41.6454,-37.8943,20.0825,-11.0845
0.857651,15.7922,-43.5322,24.3111,4.83299,-0.158194,-1.51826,-3.34151,0.0316547,-2.98471,-4.43262,2.29786,-2.03429,-2.19682,2.34741,-12.3891,-2.39731,-8.01777,4.03617,-2.45972,7.02399,3.39328,-1.02216,3.28905,-3.07744e-14,1.26228e-14,-45.9067,1.87459,-84.0538,41.7673,2.19968,-28.3517,-46.4755,7.12502,-1.7256,-76.4482,-3.07744e-14,1.26228e-14,-25.7797,-23.4766,95.3907,52.6322,12.0178,-32.748,-32.9242,7.12502,-5.97089,-3.02832,-72.9074,-2.81083,24.3783,78.0999,-15.8846,-6.85816,-11.8372,-19.4449,-2.21226,-24.5965,41.6132,-37.4177,19.654,-13.9053
0.838291,15.7824,-43.3838,24.5184,5.11767,-0.0743836,-1.14057,-3.31805,0.118462,-3.00338,-4.39754,2.21098,-2.27981,-2.17989,2.23632,-13.9777,-2.62865,-7.67355,4.81111,-2.72855,6.85097,3.89597,-1.13045,3.15327,-1.47598e-14,-2.43511e-15,-45.815,1.41949,-84.0433,42.2615,2.1633,-27.6163,-47.6757,7.12502,-1.01533,-77.6531,-1.47598e-14,-2.43511e-15,-25.5484,-24.2666,95.1575,53.6885,12.8702,-32.6626,-33.8355,7.12502,-5.88843,-3.93737,-72.6771,-2.9503,24.5932,78.6819,-16.3361,-5.99693,-10.4322,-19.1712,-1.88199,-24.3332,41.7076,-36.9414,19.0168,-15.4084
0.822731,15.7667,-43.2222,24.3791,5.31246,-0.164856,-1.50053,-3.50091,0.323992,-2.70361,-4.65002,2.28727,-1.77024,-2.31386,2.16285,-13.9477,-2.5143,-7.92749,4.4959,-2.53119,6.98129,3.78544,-1.03122,3.25022,3.23025e-16,1.8313e-14,-45.5229,1.8019,-84.218,42.7042,2.05949,-28.7388,-46.4367,7.12502,-2.09941,-76.4061,3.23025e-16,1.8313e-14,-25.3788,-24.0739,94.7132,54.8744,13.1524,-32.693,-34.0766,7.12502,-5.91785,-4.17926,-71.8758,-2.95345,25.0218,79.1107,-16.3736,-6.01303,-11.6725,-18.5434,-1.53,-23.925,41.9783,-36.6169,18.2305,-17.8777
0.806973,15.7463,-43.0875,24.5229,5.07675,-0.369694,-1.24941,-3.36603,0.489934,-3.52483,-4.45314,2.24058,-2.78108,-2.21215,2.07761,-11.0097,-2.2314,-7.86106,3.61103,-2.33675,6.90395,3.0308,-0.987455,3.24015,2.59538e-14,-1.42876e-14,-47.1855,1.68238,-84.253,43.3852,2.01629,-28.5176,-46.9539,7.12502,-1.88582,-76.9254,2.59538e-14,-1.42876e-14,-27.3456,-23.936,95.1317,56.3761,12.3081,-33.1201,-33.7082,7.12502,-6.33013,-3.82282,-71.5343,-2.55576,25.3894,79.5719,-16.0624,-5.87383,-12.8934,-18.4453,-1.15435,-23.5938,42.4209,-36.2811,17.1717,-18.5653
0.778463,15.7293,-42.9437,24.6391,5.14454,-0.409989,-1.16253,-3.41031,0.523772,-3.20996,-4.51454,2.30527,-2.50017,-2.24489,2.11711,-12.8101,-2.29599,-7.90013,4.12485,-2.29863,6.80803,3.47052,-0.943611,3.21246,-5.45105e-14,1.14301e-14,-46.1641,1.61248,-84.2915,43.7035,1.821,-27.3855,-48.5927,7.12502,-0.792461,-78.5709,-5.45105e-14,1.14301e-14,-26.6493,-24.0332,94.5915,57.2682,13.3064,-33.1395,-34.2602,7.12502,-6.34889,-4.37539,-71.0032,-2.34177,25.7222,80.0297,-15.571,-5.86274,-13.0358,-18.4053,-0.830893,-23.1622,43.0519,-36.0953,15.6586,-19.2886
0.758287,15.7093,-42.778,24.5888,5.14837,-0.472467,-0.712618,-3.37815,0.599522,-3.56723,-4.45574,2.35062,-3.12658,-2.21229,2.16848,-12.4009,-2.28311,-7.93088,4.21464,-2.29242,6.58662,3.42892,-0.958932,3.15065,1.36789e-14,2.98177e-15,-46.6538,1.69467,-84.3108,44.1864,1.59755,-27.8113,-46.0635,7.12502,-1.20363,-76.0399,1.36789e-14,2.98177e-15,-27.632,-23.7752,94.7819,58.2527,13.9791,-33.6141,-34.767,7.12502,-6.8071,-4.89647,-70.1443,-2.21477,26.0674,80.4539,-15.148,-5.574,-16.9591,-18.1121,-0.405805,-22.7854,43.7442,-35.7648,14.4308,-20.9192
0.731276,15.6811,-42.6269,24.9951,5.06961,-0.464318,-0.737432,-3.34967,0.620649,-3.5177,-4.41801,2.38588,-3.06136,-2.19407,2.18832,-13.8624,-2.4072,-7.87871,4.55726,-2.34742,6.30768,3.76534,-0.976906,3.04605,4.30245e-14,-7.30534e-15,-45.8959,1.79792,-84.4298,44.4598,1.57917,-27.9787,-47.8877,7.12502,-1.36537,-77.863,4.30245e-14,-7.30534e-15,-27.4838,-23.4264,94.4497,58.7084,13.8989,-34.5326,-36.1345,7.12502,-7.69367,-6.2945,-69.8118,-1.90017,26.356,80.755,-14.7968,-5.28357,-16.8638,-18.5572,0.338434,-22.4724,44.5979,-34.8594,13.3702,-24.0858
0.714372,15.6615,-42.4395,24.8483,5.14258,-0.572134,-0.78984,-3.32292,0.886889,-3.36983,-4.38226,2.39893,-2.89903,-2.18393,2.04351,-14.4447,-2.45293,-7.72193,4.63095,-2.3641,5.93798,3.87383,-0.993494,2.90164,-3.68994e-14,9.83984e-15,-45.6384,1.95329,-84.5645,44.8166,1.53666,-27.2281,-49.7779,7.12502,-0.640382,-79.7567,-3.68994e-14,9.83984e-15,-27.8613,-23.1187,94.4022,59.0202,15.4151,-35.5262,-40.3656,7.12502,-8.65263,-10.5629,-68.3704,-1.87123,26.7906,80.7987,-15.0797,-5.17491,-18.6745,-18.2239,1.39075,-21.9324,45.5117,-33.8807,12.1832,-26.462
0.691409,15.6392,-42.2565,24.8498,5.33257,-0.597436,-1.11578,-3.39646,0.977087,-3.84427,-4.47679,2.4481,-3.20762,-2.23197,2.04545,-11.9687,-2.21415,-7.7467,3.81233,-2.18154,5.69416,3.21492,-0.947666,2.85321,-1.74682e-14,1.799e-14,-46.689,2.41853,-84.7835,45.3101,1.47359,-28.2805,-49.0798,7.12502,-1.65683,-79.0531,-1.74682e-14,1.799e-14,-29.6266,-22.1648,94.6577,59.4576,16.7351,-35.6652,-42.6268,7.12502,-8.78674,-12.8297,-67.0902,-1.83147,27.1485,80.658,-16.2957,-5.41614,-19.689,-18.2578,1.79689,-21.3914,46.7193,-32.857,10.5981,-28.1441
0.669419,15.6174,-42.0719,24.9466,5.3808,-0.698855,-1.3076,-3.22604,1.24146,-3.6218,-4.25663,2.39539,-2.89828,-2.13081,1.81925,-13.2004,-2.43057,-7.65124,4.24352,-2.39291,5.51935,3.55261,-1.04437,2.76309,3.08116e-15,4.67144e-15,-45.9029,2.20942,-84.8299,45.5408,1.35534,-28.6977,-48.3297,7.12502,-2.05978,-78.2995,3.08116e-15,4.67144e-15,-29.5127,-21.6054,94.2073,59.6558,18.1718,-34.9833,-43.1325,7.12502,-8.12868,-13.3089,-65.9008,-1.63419,27.5108,80.272,-17.8487,-5.90463,-20.9784,-18.583,2.03571,-20.8834,48.1786,-31.72,8.62712,-29.0724
0.64277,15.5944,-41.8843,25.0559,5.46882,-0.820525,-1.59373,-3.25588,1.41074,-3.59803,-4.30095,2.54573,-2.7134,-2.15599,1.8603,-13.5529,-2.39542,-7.98326,4.37464,-2.25964,5.44666,3.6422,-0.984326,2.80198,3.23025e-16,-5.66536e-15,-45.53,2.87127,-84.9682,45.7834,0.906942,-29.0886,-46.8573,7.12502,-2.43729,-76.8231,3.23025e-16,-5.66536e-15,-30.0132,-20.0671,93.9596,59.741,19.7158,-34.3325,-43.1445,7.12502,-7.50052,-13.2975,-64.5801,-1.40919,27.8905,79.692,-19.6231,-6.23199,-20.3424,-19.2519,2.51062,-20.2974,50.2095,-30.3304,6.7977,-30.5319
0.608463,15.5785,-41.6861,25.1546,5.83332,-0.980319,-2.0672,-3.2575,1.58024,-3.53305,-4.31642,2.67187,-2.38348,-2.16684,1.86186,-13.8378,-2.40346,-7.93813,4.50914,-2.23653,5.17571,3.7226,-0.983573,2.71075,-3.83157e-14,9.44227e-15,-45.0567,2.80882,-84.7421,46.3178,2.79261,-28.7038,-47.912,7.12502,-2.06563,-77.8818,-3.83157e-14,9.44227e-15,-30.5803,-19.0718,93.7562,59.5089,20.9836,-33.8891,-41.5203,7.12502,-7.07247,-11.6585,-63.0649,-1.26071,28.3803,78.9638,-21.5574,-6.90304,-19.4162,-20.1071,2.83241,-19.4353,52.5681,-28.3921,4.93004,-31.7128
0.598817,15.5286,-41.5443,26.4432,4.33193,-1.98686,-2.91884,-2.54848,2.30132,-3.72137,-3.39751,2.77394,-2.15541,-1.72285,1.52924,-15.3466,-2.50744,-7.97033,5.16083,-2.24736,4.9918,4.15999,-0.986493,2.65107,-3.62285e-14,5.76476e-15,-43.8381,3.02353,-84.741,46.4718,3.91055,-27.5846,-48.646,7.12502,-0.984727,-78.6235,-3.62285e-14,5.76476e-15,-30.6466,-18.1932,93.3819,58.9974,21.4729,-34.6166,-41.9552,7.12502,-7.77471,-12.1181,-63.4002,0.616238,28.8795,78.2994,-22.766,-7.22053,-18.5784,-22.7539,4.41702,-18.9358,55.5016,-25.5347,3.53535,-31.5886
0.579122,15.4974,-41.3665,26.5141,4.29605,-2.48096,-2.80947,-2.35318,2.97765,-4.02312,-3.12736,2.78335,-2.56896,-1.60759,1.18179,-14.7665,-2.50685,-7.88557,5.12409,-2.29751,4.87466,4.05772,-1.02295,2.59932,-2.83765e-14,4.37326e-15,-43.819,3.54881,-85.1902,46.7398,3.64986,-27.4321,-49.1131,7.12502,-0.837429,-79.0912,-2.83765e-14,4.37326e-15,-31.9438,-17.1279,93.1616,58.7402,21.8331,-34.7872,-41.8464,7.12502,-7.93935,-12.0155,-62.095,1.13192,29.4567,77.652,-23.6141,-8.84398,-21.8922,-24.1355,5.05815,-18.0912,58.5289,-22.382,2.3879,-32.451
0.558548,15.4802,-41.1811,26.9016,4.39164,-2.94922,-3.99388,-2.18343,3.47251,-3.82979,-2.97539,2.93367,-1.72476,-1.53369,1.00207,-14.1579,-2.51038,-7.85128,4.42156,-2.32798,4.70339,3.74438,-1.0477,2.54107,-5.96354e-16,7.55382e-15,-43.1295,4.30451,-85.5574,47.0791,2.33773,-26.491,-50.599,7.12502,0.0714923,-80.5787,-5.96354e-16,7.55382e-15,-32.4405,-15.8697,92.7411,58.4803,22.1523,-34.2599,-40.6508,7.12502,-7.43046,-10.8012,-61.2857,1.59109,30.0107,77.0946,-24.6913,-9.67535,-22.0283,-26.1171,5.59625,-17.2507,61.8399,-19.2406,1.32982,-31.0921
0.539782,15.4517,-40.9992,27.3146,4.64028,-3.30782,-3.64283,-2.03353,4.15696,-4.03781,-2.7581,3.00209,-2.16663,-1.44612,0.718738,-16.0909,-2.69278,-7.80543,5.61026,-2.43,4.50587,4.41916,-1.0977,2.45282,3.27995e-15,-4.17448e-15,-42.5391,4.81524,-85.7495,47.631,1.51649,-28.4452,-49.5749,7.12502,-1.81592,-79.5469,3.27995e-15,-4.17448e-15,-33.0512,-14.8488,92.3551,57.8317,22.5461,-33.1933,-39.1248,7.12502,-6.40081,-9.24149,-60.4365,1.92182,30.458,76.4379,-25.813,-10.2304,-20.8787,-28.4679,5.63207,-16.4115,65.3181,-16.0109,-0.799876,-25.9707
0.527496,15.4201,-40.8262,27.9726,4.44124,-3.80099,-4.21019,-1.74693,4.72282,-4.42723,-2.4044,3.11808,-2.2685,-1.28733,0.51943,-15.136,-2.67722,-7.91836,5.49091,-2.44498,4.33676,4.23134,-1.1274,2.42189,-3.03644e-14,2.42517e-14,-42.4926,5.48857,-85.8608,48.5262,1.43028,-27.5638,-51.4212,7.12502,-0.964651,-81.3987,-3.03644e-14,2.42517e-14,-34.8596,-13.699,92.2376,58.0492,22.342,-33.8715,-38.5783,7.12502,-7.05551,-8.71588,-59.97,2.58015,30.8638,75.785,-26.2912,-11.1485,-22.1521,-31.3519,5.89737,-15.7645,68.9061,-12.0651,-2.80345,-17.0574
0.498172,15.4212,-40.6137,27.3018,5.14676,-3.62534,-3.35354,-1.82761,4.84513,-4.27149,-2.45971,3.10609,-2.59444,-1.3208,0.466555,-15.9557,-2.92447,-7.83163,6.05693,-2.71178,4.10828,4.54826,-1.26815,2.3076,1.2424e-14,-7.55382e-15,-41.888,5.85476,-85.908,49.5288,1.6959,-28.3233,-50.4942,7.12502,-1.69816,-80.4671,1.2424e-14,-7.55382e-15,-35.7433,-12.9902,91.8849,57.5313,22.0119,-35.0942,-38.9263,7.12502,-8.23567,-9.1068,-57.7066,2.19291,31.1212,75.1559,-27.4609,-12.1126,-23.1906,-32.5948,5.28066,-15.0665,72.4017,-9.02421,-3.04644,-13.2663
0.448089,15.454,-40.3539,25.0593,7.90162,-2.62424,-1.71262,-2.733,4.50052,-4.05813,-3.55966,3.17684,-3.29932,-1.86522,0.806674,-14.1863,-2.94502,-7.78153,5.57588,-2.86339,3.87557,4.12329,-1.36826,2.22825,2.8625e-14,-3.10104e-14,-42.186,6.22269,-85.8092,50.6584,2.83398,-26.5491,-52.31,7.12502,0.0154334,-82.2897,2.8625e-14,-3.10104e-14,-37.5731,-12.3995,91.7598,56.7204,21.5142,-36.839,-38.9023,7.12502,-9.91932,-9.15597,-53.3225,-0.102921,31.5177,74.5161,-29.6741,-12.9341,-22.1611,-32.0563,2.65332,-13.9456,75.6747,-6.86386,-2.92304,5.71085
0.44919,15.3922,-40.2266,25.8636,6.62701,-3.41623,-2.22679,-2.02924,5.23042,-3.46068,-2.68719,3.18091,-2.40825,-1.42897,0.35056,-16.8633,-3.22243,-7.78242,5.927,-3.01288,3.81349,4.66224,-1.42338,2.17255,3.56818e-14,-1.66979e-14,-39.3167,6.49036,-85.4056,51.4601,4.43637,-28.2626,-49.9888,7.12502,-1.63955,-79.9623,3.56818e-14,-1.66979e-14,-36.4636,-11.9208,90.9302,55.5667,21.0241,-38.7078,-38.9972,7.12502,-11.7219,-9.34518,-53.7212,1.30059,31.8309,74.4262,-29.6443,-12.8379,-22.5565,-35.7171,3.92104,-13.6972,79.9182,-7.13972,-1.83724,9.47971
0.454828,15.3105,-40.1121,27.1486,5.0858,-4.59776,-2.74592,-1.25831,6.18374,-3.86564,-1.68236,3.30941,-2.53421,-0.956851,-0.0531334,-16.4121,-3.20367,-8.02418,5.45772,-2.96699,3.80425,4.44556,-1.40617,2.21697,1.66979e-14,-1.03368e-14,-38.2941,7.42457,-85.2956,52.1774,5.72417,-28.5253,-47.9302,7.12502,-1.89323,-77.9016,1.66979e-14,-1.03368e-14,-37.4004,-11.003,90.5165,54.688,20.1687,-40.172,-39.0191,7.12502,-13.1336,-9.45268,-54.8462,3.13875,32.359,74.5407,-29.211,-12.9047,-23.5998,-40.3092,5.78078,-13.3907,84.5184,-7.55699,0.0103455,-5.05251
0.436988,15.2796,-39.9292,26.4881,5.67589,-4.89712,-2.22277,-1.19851,6.82414,-3.60459,-1.57279,3.3274,-2.57369,-0.914021,-0.380631,-15.8436,-3.3167,-7.79454,4.89737,-3.18757,3.60928,4.18789,-1.52032,2.10673,1.35174e-14,-1.23246e-14,-37.2302,8.02937,-85.3578,52.4484,7.38699,-28.4037,-45.972,7.12502,-1.77585,-75.9443,1.35174e-14,-1.23246e-14,-38.3826,-10.757,90.0437,53.9254,19.3328,-40.623,-38.8478,7.12502,-13.5683,-9.30989,-53.1394,2.96522,33.06,74.3792,-29.812,-13.5513,-24.1919,-42.3874,5.54264,-12.6177,88.3938,-7.46088,1.89727,2.31595
0.454218,15.1772,-39.8125,27.5818,4.58738,-5.99894,-2.72727,-0.543263,8.00707,-3.70955,-0.751224,3.42797,-2.37716,-0.528722,-0.938718,-16.1667,-3.39248,-7.84408,4.70482,-3.23609,3.46434,4.17905,-1.54873,2.06246,1.72943e-14,-2.22639e-14,-35.4847,8.95244,-85.1466,54.7157,4.34069,-23.3058,-56.6044,7.12502,3.14778,-86.5609,1.72943e-14,-2.22639e-14,-39.056,-10.0848,89.4826,53.1394,18.6671,-40.2896,-39.5947,7.12502,-13.2469,-10.0356,-53.7197,4.32443,33.6229,74.4857,-29.7603,-14.0555,-25.9508,-46.856,7.11887,-12.3849,92.6016,-5.3031,3.91342,0.0533806
0.450339,15.1827,-39.611,27.1786,4.15702,-6.72212,-1.86695,-0.225515,8.55734,-3.78484,-0.219647,3.62998,-2.9087,-0.293039,-1.0239,-15.2471,-3.41062,-7.81964,4.20251,-3.32087,3.27088,3.88066,-1.60288,2.00281,5.96354e-16,1.39149e-14,-34.6935,9.80636,-84.8643,56.9982,2.87369,-19.9922,-62.3973,7.12502,6.34733,92.2822,5.96354e-16,1.39149e-14,-40.6323,-9.76448,89.2994,52.2917,17.7952,-40.0401,-40.6652,7.12502,-13.0064,-11.0906,-52.2132,4.80797,34.2873,74.0191,-30.2371,-14.1306,-26.2906,-49.3432,7.78957,-11.7045,95.6493,-9.55013,5.85347,0.668719
0.443732,15.1569,-39.4284,26.8165,3.68306,-7.51339,0.133092,0.0313241,9.32806,-4.00046,0.403845,3.70168,-4.22624,-0.0562179,-1.37667,-16.8635,-3.51914,-7.85908,5.09947,-3.33741,3.37203,4.4144,-1.60325,2.01816,-2.18663e-15,-3.77691e-14,-33.375,10.6262,-84.7345,56.5299,6.28849,-22.6675,-58.2165,7.12502,3.76416,271.837,-2.18663e-15,-3.77691e-14,-42.0196,-9.54618,88.8005,50.6078,16.171,-38.7319,-44.7113,7.12502,-11.7451,-15.0606,-50.6001,5.38374,35.0124,73.6237,-31.2292,-13.733,-25.251,-51.9553,8.64347,-11.046,98.6048,-11.5971,7.7721,-17.136
0.43521,15.1017,-39.2647,26.6243,3.35925,-8.2613,0.616476,0.415671,9.82746,-4.10901,1.01136,3.85271,-4.56314,0.215118,-1.51817,-15.2372,-3.53884,-7.78686,4.17373,-3.50407,3.33879,3.88094,-1.68843,2.00399,1.0138e-14,-1.90833e-14,-32.1676,11.2024,-84.3759,57.3076,6.19846,-22.8117,-58.919,7.12502,3.62498,271.132,1.0138e-14,-1.90833e-14,-43.8263,-9.89598,88.7697,50.3025,15.2336,-39.9459,-43.1326,7.12502,-12.9157,-13.5523,-49.2685,5.95424,35.7561,73.1695,-31.7349,-14.0258,-25.4018,-54.9735,9.31635,-10.4685,101.286,-11.473,8.61802,-17.4335
0.423887,15.0188,-39.1185,27.3883,3.46627,-8.67475,0.169124,0.544726,10.3815,-3.74166,1.10492,3.97226,-3.90905,0.2808,-1.69854,-17.0893,-3.68241,-7.72646,4.23222,-3.54037,3.1997,4.1836,-1.69825,1.92628,4.37326e-15,-9.14409e-15,-29.4359,12.2162,-83.9224,58.5277,6.93771,-22.9937,-58.0096,7.12502,3.44914,272.039,4.37326e-15,-9.14409e-15,-44.0079,-9.75852,88.1973,50.2886,14.6425,-40.7623,-39.6625,7.12502,-13.7025,-10.1336,-49.3115,6.31795,36.2856,72.9281,-31.9905,-14.5181,-25.9123,-59.5964,9.35372,-10.2454,103.857,-11.8891,9.09177,-15.4011
0.431159,15.0062,-38.893,26.4755,2.574,-9.48566,0.618453,0.96867,11.2131,-3.58871,1.73893,3.89036,-3.92127,0.570299,-2.26525,-14.3582,-3.51969,-7.42163,2.79154,-3.58283,3.01884,3.3098,-1.72835,1.85956,-4.96962e-15,-5.32743e-14,-28.7605,13.0544,-83.8696,59.4943,7.27462,-23.7471,-55.3783,7.12502,2.72162,274.659,-4.96962e-15,-5.32743e-14,-46.2732,-10.0349,87.8567,49.7747,13.5833,-39.9138,-40.5339,7.12502,-12.8847,-10.9516,-46.5709,6.86767,36.8876,72.1924,-32.8896,-14.3491,-25.0341,-60.8393,10.1537,-9.75601,105.27,-15.1705,9.81751,-20.1485
0.427262,15.0194,-38.6435,26.5814,1.017,-8.68365,0.70684,1.32542,10.135,-2.99552,2.12865,3.48917,-3.30296,0.834466,-2.10516,-17.0381,-3.68362,-7.45142,3.75745,-3.58163,2.97839,4.02064,-1.72144,1.81324,-2.08724e-14,-8.74653e-15,-26.0929,14.1451,-83.3376,60.3263,7.65622,-23.2491,-55.8049,7.12502,3.20253,274.239,-2.08724e-14,-8.74653e-15,-46.7501,-9.98727,87.4339,49.2201,12.2862,-40.2691,-41.408,7.12502,-13.2272,-11.8477,-45.0638,7.48424,35.4793,71.5464,-33.742,-13.8936,-23.9271,-62.8302,10.4468,-11.5798,105.786,-14.8783,9.14553,-5.98692
0.40919,15.0033,-38.4463,27.7442,0.737662,-7.97181,-0.0205137,1.59031,9.44966,-3.55933,2.40809,3.07652,-3.45501,0.96635,-2.1492,-15.9996,-3.75016,-7.068,3.43368,-3.82354,2.91256,3.76458,-1.8427,1.72665,2.80286e-14,-2.78299e-15,-25.2737,14.5138,-83.2389,61.6062,7.95925,-23.5211,-55.5463,7.12502,2.93991,274.494,2.80286e-14,-2.78299e-15,-48.8111,-10.7692,87.3039,48.8599,11.1624,-40.5916,-41.657,7.12502,-13.538,-12.1171,-45.2143,7.56009,34.6588,70.8454,-34.0923,-13.8552,-23.7233,-67.1866,9.88973,-12.949,106.222,-14.6026,9.04847,-14.8316
0.403034,15.0047,-38.1986,28.0903,-0.0721879,-8.21785,-0.773118,2.03694,9.56208,-3.8909,2.93195,2.93595,-3.31121,1.21902,-2.34194,-13.1782,-3.65539,-6.89257,1.97486,-3.92328,2.70538,3.21327,-1.91341,1.86017,8.34896e-15,9.93923e-15,-24.914,15.2444,-83.1362,62.8855,7.78612,-24.2692,-53.7929,7.12502,2.21739,276.239,8.34896e-15,9.93923e-15,-51.3828,-11.2664,87.4486,48.6204,10.2367,-40.5202,-39.8752,7.12502,-13.4692,-10.3308,-43.8471,8.12207,34.5973,69.7541,-34.4362,-13.9775,-23.8958,-69.8058,10.3301,-13.45,106.06,-16.0576,9.42284,-11.4558
0.399624,15.0344,-37.9277,27.6245,-0.608634,-8.38047,-0.0171093,2.19076,9.65724,-3.60211,3.21229,2.94624,-3.40094,1.35908,-2.41264,-14.7185,-3.78062,-6.87702,3.01695,-3.98086,2.72794,3.43802,-1.93261,1.64733,1.78906e-14,-3.18055e-15,-23.1377,16.1699,-82.55,63.9381,7.59284,-24.4486,-53.4176,7.12502,2.04415,276.612,1.78906e-14,-3.18055e-15,-52.6477,-11.4407,87.4851,48.4263,9.71369,-40.2735,-38.0737,7.12502,-13.2314,-8.5136,-41.2765,8.28177,34.6589,68.335,-34.6325,-14.5516,-25.0927,-71.1566,10.405,-13.7481,105.282,-16.3632,8.82915,-4.50831
0.379124,15.053,-37.6882,28.5886,-0.412362,-8.01018,-0.366901,2.1979,9.24746,-3.86569,3.19149,2.894,-3.49663,1.35053,-2.23211,-16.4249,-3.89895,-6.87892,4.0253,-4.0157,2.72344,4.01485,-1.94838,1.61186,-2.84262e-14,-1.11319e-14,-21.4394,16.8388,-82.0035,64.9078,7.69071,-24.2699,-54.7261,7.12502,2.21666,275.306,-2.84262e-14,-1.11319e-14,-53.8723,-11.6731,87.4188,48.2484,9.22538,-41.9415,-37.2765,7.12502,-14.8388,-7.82788,-40.6179,8.27269,34.3456,66.916,-34.4884,-15.055,-26.2311,-74.7919,9.60835,-14.4461,104.269,-16.9831,8.01097,-4.63726
0.355902,15.0725,-37.4598,29.5403,0.0876421,-7.63011,-0.392114,2.10382,9.18721,-4.98969,3.14832,2.67901,-4.66855,1.25087,-2.44041,-14.7572,-3.76545,-6.747,3.96816,-3.99976,2.87416,3.73895,-1.9419,1.66284,6.75868e-15,3.4191e-14,-21.7228,17.3148,-82.3573,65.9349,8.06861,-23.7056,-56.1841,7.12502,2.76171,273.854,6.75868e-15,3.4191e-14,-56.8921,-12.1302,87.5542,48.4139,9.40457,-42.2998,-38.3154,7.12502,-15.184,-8.89247,-39.9591,8.16457,34.1416,65.3043,-34.2551,-15.3933,-26.8091,-78.2924,8.53712,-14.9927,102.783,-15.0328,7.10534,0.352034
0.349726,15.1139,-37.1839,29.7546,-0.167661,-7.77054,-1.49193,2.34627,9.42214,-4.41577,3.28772,2.63503,-3.40756,1.37883,-2.55825,-15.2533,-3.83387,-6.82496,3.59092,-4.0548,3.1001,3.70886,-1.95042,1.73642,-3.29983e-14,-1.98785e-14,-19.5213,17.7391,-81.7083,66.6463,8.3799,-23.9086,-55.426,7.12502,2.56568,274.61,-3.29983e-14,-1.98785e-14,-57.3723,-12.0838,87.3073,48.4552,8.86432,-42.362,-38.7432,7.12502,-15.2438,-9.32486,-38.1279,8.52485,34.0889,63.5037,-34.0541,-15.255,-27.1666,-80.0218,8.2543,-15.376,100.744,-15.3704,7.26848,1.42127
0.354756,15.1893,-36.8543,29.0898,-1.26356,-7.9829,-1.4043,2.82408,9.81134,-3.9503,3.88869,2.23621,-2.85059,1.69651,-3.17503,-15.5445,-3.96098,-6.71424,3.68343,-4.2531,3.44081,3.79822,-2.02602,1.80347,1.33186e-14,7.55382e-15,-18.1244,17.7448,-81.4945,67.202,8.92702,-25.8113,-51.0726,7.12502,0.727994,278.949,1.33186e-14,7.55382e-15,-58.5285,-12.5694,87.0548,48.3976,8.95685,-42.4429,-40.2852,7.12502,-15.3218,-10.8727,-34.9251,9.19939,33.7482,61.555,-33.6776,-15.1019,-28.7232,-79.827,8.53332,-15.9841,98.1721,-16.5605,8.1891,4.73509
0.327763,15.2272,-36.5911,29.7366,-1.41211,-7.65201,-0.64932,2.73297,9.27718,-4.69547,3.91458,2.14054,-4.08367,1.6503,-3.04363,-16.8313,-3.99513,-6.90863,5.00369,-4.19962,3.60386,4.41311,-1.99087,1.86301,-3.18055e-15,1.51076e-14,-17.5095,18.595,-81.526,67.6062,9.45612,-25.3209,-51.1923,7.12502,1.20163,278.831,-3.18055e-15,1.51076e-14,-60.4585,-12.1856,86.8471,48.376,9.11051,-42.056,-44.3122,7.12502,-14.9491,-14.8717,-33.733,9.67824,33.245,59.8944,-32.5622,-15.3876,-30.6265,-81.7378,7.98051,-16.7482,95.5385,-17.676,8.62846,-4.67097
0.311283,15.2266,-36.3311,30.3133,-1.45877,-7.35674,-1.45374,2.90038,8.83577,-5.23013,4.0747,2.05929,-4.19272,1.72869,-2.85709,-14.5431,-4.06119,-6.9454,4.11195,-4.43969,3.66107,3.7944,-2.12321,1.90425,-3.71727e-14,-3.4191e-14,-17.7232,18.8859,-81.4651,68.226,9.86347,-25.0858,-49.6801,7.12502,1.42871,280.345,-3.71727e-14,-3.4191e-14,-62.5304,-12.2672,86.985,48.4584,9.14679,-41.4719,-48.3145,7.12502,-14.3863,-18.8331,-32.7243,10.0566,32.7991,58.4253,-31.4755,-14.7184,-31.4351,-82.8255,7.38454,-17.3944,92.6141,-18.7819,8.98799,-7.04378
0.299147,15.3053,-36.0275,30.4957,-1.58726,-7.24922,-1.41408,2.96736,9.0236,-5.57781,4.18857,1.8112,-4.54407,1.74813,-3.23051,-14.1904,-4.16716,-7.0037,4.17181,-4.62162,3.95433,3.77609,-2.20247,1.99438,5.96354e-16,-4.37326e-15,-17.7544,19.0917,-81.7434,68.8293,10.1041,-25.6258,-47.6345,7.12502,0.907162,282.388,5.96354e-16,-4.37326e-15,-64.1758,-12.1356,86.6353,48.5915,9.00789,-40.2845,-49.6444,7.12502,-13.242,-20.085,-31.0996,10.4275,32.4802,56.7902,-30.6442,-12.5435,-30.6439,-83.4079,7.05672,-17.9768,89.3295,-18.8201,9.20212,-9.99259
0.287569,15.4114,-35.7051,30.4532,-1.81134,-7.17349,-1.10638,3.10545,8.97592,-5.47901,4.39512,1.63034,-4.57735,1.85013,-3.40927,-16.11,-4.4225,-6.91336,5.12719,-4.87168,4.09394,4.38758,-2.2994,1.96522,3.37934e-15,2.06736e-14,-16.5671,19.1941,-81.5503,68.7919,9.90675,-25.9491,-48.7672,7.12502,0.594921,281.254,3.37934e-15,2.06736e-14,-64.7524,-11.9265,86.1403,48.5562,8.22022,-38.7876,-47.9109,7.12502,-11.7989,-18.2632,-29.0421,10.8586,32.1429,54.9488,-29.7693,-9.46871,-28.03,-83.7008,6.84504,-18.6073,85.8212,-18.2879,9.64812,-16.1007
0.277214,15.4867,-35.3954,30.3854,-1.90239,-7.02049,-1.20312,3.18265,8.83107,-5.91448,4.51479,1.57159,-4.97654,1.88622,-3.40007,-14.1003,-4.36146,-7.13479,4.48046,-4.90498,4.36735,3.8869,-2.32531,2.11893,8.34896e-15,1.94809e-14,-17.2008,19.6984,-81.7757,69.1167,9.47245,-26.3583,-48.6822,7.12502,0.199657,281.338,8.34896e-15,1.94809e-14,-66.6609,-11.4944,85.9209,48.6859,8.50696,-37.5671,-46.88,7.12502,-10.6217,-17.1684,-27.0428,11.2084,31.8018,53.0826,-27.3007,-9.20106,-31.4549,-83.5614,6.4714,-19.0664,82.4267,-19.0521,8.79702,-20.3301
0.272903,15.5771,-35.063,29.8683,-2.51612,-6.93115,-1.28531,3.32371,8.84259,-5.15813,4.6301,1.35279,-4.0905,1.99708,-3.60278,-15.7849,-4.49059,-7.23384,4.69666,-4.97224,4.73204,4.23469,-2.31893,2.21408,1.88845e-14,1.27222e-14,-15.7886,20.0886,-81.4977,69.3125,8.90748,-26.6875,-48.1216,7.12502,-0.118225,281.899,1.88845e-14,1.27222e-14,-66.3264,-10.7965,85.0699,48.5714,8.72677,-35.9888,-42.3271,7.12502,-9.099,-12.5434,-24.5112,11.7702,31.2892,51.1456,-24.972,-6.43575,-30.1215,-82.5408,6.48995,-19.6738,78.9661,-20.1216,7.73797,-21.5508
0.274519,15.6562,-34.7345,29.8571,-2.46811,-7.22202,-0.961449,3.51488,9.44426,-5.85432,4.97844,1.18371,-4.92009,2.08315,-4.15799,-14.2649,-4.55613,-7.18731,4.63031,-5.20137,4.98599,3.99572,-2.43696,2.29042,-9.0447e-15,-1.03368e-14,-17.287,20.194,-82.0734,69.7146,8.49723,-26.8412,-48.3995,7.12502,-0.266753,281.621,-9.0447e-15,-1.03368e-14,-68.3301,-10.7358,84.6269,48.6968,8.42602,-37.7867,-49.5016,7.12502,-10.8335,-19.801,-22.6217,11.6866,31.3655,49.2219,-21.8754,-4.788,-31.6296,-82.1948,6.29051,-19.719,75.8096,-21.1359,5.91304,-18.7667
0.268095,15.7083,-34.4028,29.9815,-2.49812,-6.75082,-1.93368,3.57092,9.19767,-5.59987,4.90748,0.969492,-4.10217,2.10159,-4.16674,-14.7424,-4.72046,-7.26213,4.69355,-5.39016,5.16258,4.10923,-2.51485,2.33246,-2.55438e-14,-5.1684e-15,-16.8083,20.5318,-81.9391,69.7375,7.86088,-26.7989,-49.4281,7.12502,-0.225823,280.592,-2.55438e-14,-5.1684e-15,-68.5032,-10.0702,83.8414,48.6914,7.88502,-35.7986,-42.5034,7.12502,-8.91542,-12.7117,-20.7675,11.4953,30.6846,47.5796,-18.3415,-4.93967,-37.1858,-81.9111,5.68245,-20.4307,72.7271,-21.6685,4.20693,-15.9601
0.277175,15.7734,-34.0359,29.4148,-3.0892,-6.81929,-2.57618,3.88431,9.39328,-4.90321,5.19822,0.866301,-2.93738,2.31294,-4.29942,-15.6341,-4.88008,-7.34415,4.83731,-5.53319,5.23753,4.307,-2.56952,2.33982,1.0138e-14,-5.1684e-15,-16.3249,20.7586,-81.5668,69.8187,7.05896,-26.9305,-50.023,7.12502,-0.352958,279.998,1.0138e-14,-5.1684e-15,-68.2345,-9.34427,83.022,48.7144,7.32409,-36.5263,-48.5761,7.12502,-9.61762,-18.8156,-18.2574,11.48,30.2596,46.1816,-15.1528,-1.39111,-34.6988,-80.5429,5.72534,-20.7705,69.9403,-21.702,3.53915,-15.2728
0.263972,15.9084,-33.6859,29.4957,-3.17182,-6.76758,-2.26397,3.97064,9.48112,-5.72072,5.40191,0.656328,-3.92644,2.33585,-4.62124,-14.1615,-4.83473,-7.3631,4.94579,-5.60002,5.4431,4.1202,-2.61364,2.42541,-2.73329e-14,-1.03368e-14,-18.3526,21.0461,-82.4046,70.1072,6.4217,-26.8969,-50.5412,7.12502,-0.320486,279.479,-2.73329e-14,-1.03368e-14,-70.0412,-9.07264,82.2858,48.899,7.58898,-34.5873,-42.5212,7.12502,-7.74646,-12.6831,-18.0434,11.6003,29.836,45.6685,-10.4717,1.22241,-31.9603,-79.4276,5.51356,-21.0384,66.9178,-20.7313,2.86774,-16.1291
0.262953,16.0176,-33.3353,29.5274,-3.00747,-6.74959,-2.79826,4.1556,9.49046,-5.8621,5.59622,0.671359,-3.74801,2.43849,-4.57009,-13.6484,-5.04283,-7.34749,4.95398,-5.91145,5.36073,4.0577,-2.77927,2.38013,-9.07452e-14,-3.18055e-14,-19.2093,21.0688,-82.2778,70.1668,5.80172,-26.7524,-50.6221,7.12502,-0.180961,279.398,-9.07452e-14,-3.18055e-14,-70.4545,-8.79146,81.826,48.886,7.64222,-35.2288,-52.5029,7.12502,-8.36562,-22.6886,-17.7362,11.1425,29.5446,45.4084,-5.79845,3.43114,-29.927,-78.3326,5.01775,-21.0941,64.39,-20.9011,1.90538,-13.4381
0.257644,16.1083,-32.9987,30.4626,-2.50061,-6.71986,-3.68022,4.08615,9.77674,-6.20314,5.41743,0.607004,-3.61529,2.33313,-4.74534,-14.6972,-5.10763,-7.3219,5.68728,-5.95091,5.37225,4.4529,-2.78196,2.35006,4.42296e-14,2.82274e-14,-19.5638,21.5029,-82.4458,70.0477,5.47518,-27.051,-50.0573,7.12502,-0.469321,279.963,4.42296e-14,2.82274e-14,-70.4295,-8.0953,81.071,48.8386,8.28447,-34.8285,-56.0484,7.12502,-7.97927,-26.219,-18.6948,10.4666,29.2835,45.7888,-1.59719,4.83256,-32.4814,-78.356,4.28963,-21.076,62.139,-19.6722,1.56017,-13.8621
0.260992,16.2065,-32.6292,30.0125,-2.70528,-7.10243,-3.81215,4.24684,10.1417,-6.21848,5.61512,0.737719,-3.51421,2.42413,-4.7913,-13.9607,-5.08114,-7.34855,5.66885,-5.95403,5.27409,4.3277,-2.8014,2.33758,1.26228e-14,-3.18055e-15,-20.5857,21.8759,-82.5864,69.8972,5.47039,-27.2095,-49.489,7.12502,-0.622433,280.532,1.26228e-14,-3.18055e-15,-70.8437,-7.59142,80.7278,48.6501,8.67841,-34.8391,-52.5235,7.12502,-7.9895,-22.6945,-17.9395,10.0335,29.218,46.2166,2.34284,6.3545,-29.4229,-76.5499,4.29714,-20.7795,60.6499,-19.1126,1.35516,-12.7774
0.264688,16.2799,-32.2739,30.341,-2.54753,-7.34487,-5.33877,4.41413,10.3737,-5.68319,5.59854,0.915246,-2.09359,2.50024,-4.58609,-15.2543,-5.24881,-7.27521,6.0738,-6.08568,5.03625,4.65655,-2.85961,2.21145,1.33186e-14,3.18055e-15,-19.9191,22.071,-81.9947,69.3322,5.61771,-27.0417,-48.5137,7.12502,-0.460352,281.507,1.33186e-14,3.18055e-15,-69.5965,-6.91867,80.5171,48.4829,9.04678,-35.5741,-42.5048,7.12502,-8.69877,-12.704,-18.3579,9.42293,29.0726,47.0447,5.8831,7.60945,-27.3331,-75.7622,3.86504,-20.418,59.61,-18.1357,0.727181,-10.1809
0.257831,16.3237,-31.9317,30.711,-2.4115,-7.70815,-5.17696,4.42672,10.5083,-6.61263,5.70742,1.0941,-3.16686,2.46895,-4.52316,-14.677,-5.18182,-7.20344,7.00671,-6.05328,4.7843,4.84273,-2.86825,2.12771,1.71949e-14,2.42517e-14,-22.4285,22.3454,-82.6905,69.4313,6.4658,-26.9721,-46.9157,7.12502,-0.393151,283.105,1.71949e-14,2.42517e-14,-70.7342,-6.65155,80.396,48.4549,9.28591,-35.8349,-49.0859,7.12502,-8.95047,-19.2957,-18.9876,9.02556,29.1424,48.145,8.20893,8.7286,-28.7296,-75.2152,3.58159,-20.0067,59.1621,-17.2693,0.336105,-8.78345
0.247694,16.34,-31.5982,30.6817,-2.24199,-8.27516,-5.45876,4.53681,10.9702,-6.65727,5.80921,1.25046,-3.02455,2.51037,-4.58427,-14.9124,-5.26259,-7.04777,7.48319,-6.18323,4.72845,5.03046,-2.92843,2.06457,-1.87852e-14,-9.93923e-15,-23.3684,22.4068,-82.9183,69.0936,7.38611,-26.4884,-47.0346,7.12502,0.0740114,282.986,-1.87852e-14,-9.93923e-15,-70.5159,-6.5057,80.1906,48.4047,9.46862,-35.2041,-51.8741,7.12502,-8.34175,-22.0588,-19.3921,8.70795,29.5732,49.743,9.43024,9.40615,-30.5391,-74.3249,3.53881,-19.5059,59.1472,-16.7969,0.0543639,-8.38166
0.248126,16.3386,-31.2497,30.5436,-2.29197,-8.92564,-6.13685,4.63676,11.4522,-6.4073,5.8112,1.60963,-2.381,2.54182,-4.40342,-15.2426,-5.29007,-7.36999,7.94458,-6.16029,4.85924,5.24141,-2.91419,2.14826,-1.46107e-14,-1.59028e-14,-23.9677,22.8431,-82.8785,68.653,7.8916,-26.7046,-45.5114,7.12502,-0.134797,284.509,-1.46107e-14,-1.59028e-14,-69.981,-5.83686,80.2364,48.4122,9.34094,-34.8136,-52.0498,7.12502,-7.96483,-22.2199,-19.8219,8.48317,29.9255,51.6503,10.4276,7.74505,-32.7792,-73.2166,3.51702,-18.9395,59.5632,-16.6393,-0.0179253,-6.66791
0.230891,16.3163,-30.9529,30.8358,-1.52491,-9.17173,-5.9313,4.52136,11.7981,-6.94519,5.72539,1.61383,-3.06384,2.42989,-4.63465,-15.7162,-5.36611,-7.06163,8.93166,-6.32786,4.8866,5.63075,-2.97747,2.07416,2.10712e-14,1.66979e-14,-25.2846,22.4977,-83.4806,68.0856,8.47418,-26.7079,-45.2622,7.12502,-0.13792,284.758,2.10712e-14,1.66979e-14,-69.697,-6.05904,80.1003,48.2745,9.47114,-35.2839,-49.1772,7.12502,-8.41873,-19.365,-21.257,7.68793,30.4545,54.1338,11.6064,5.04089,-30.8416,-72.858,2.98331,-18.608,60.1819,-16.5615,-0.291019,-2.5837
0.231617,16.2873,-30.6075,30.4892,-1.80884,-10.016,-6.98567,4.79162,12.4303,-6.33947,5.83914,1.9808,-1.80156,2.5616,-4.46902,-15.5084,-5.33652,-7.16773,8.62997,-6.26906,4.87536,5.50113,-2.9564,2.09988,-3.66758e-14,-9.54166e-15,-25.4907,22.5928,-83.2341,67.4316,8.76776,-26.5257,-45.743,7.12502,0.038008,284.277,-3.66758e-14,-9.54166e-15,-68.3454,-5.51013,80.0618,48.0289,8.45734,-37.4922,-38.4919,7.12502,-10.5495,-8.7767,-21.758,7.44299,30.9516,56.7572,8.11748,2.09811,-32.6726,-71.4007,3.24989,-18.0184,61.0942,-17.4873,1.04685,1.70183
0.210465,16.2355,-30.3224,30.6161,-0.977391,-10.2489,-8.18564,4.82381,12.7759,-6.22357,5.65522,2.07049,-1.03132,2.50784,-4.47711,-14.0689,-5.35747,-6.99816,7.69222,-6.42335,5.03938,4.9834,-3.03671,2.14683,-3.8763e-15,-3.69739e-14,-26.4664,21.8872,-83.4295,66.8432,9.38746,-26.4481,-44.8942,7.12502,0.112941,285.126,-3.8763e-15,-3.69739e-14,-67.2068,-5.99735,80.342,47.8316,8.15797,-35.8194,-42.8112,7.12502,-8.93557,-13.0204,-23.245,6.44169,31.5383,59.6764,5.94374,-1.12585,-42.1288,-70.7903,2.59525,-17.5309,62.023,-18.4789,2.65172,4.19783
0.189669,16.1852,-30.0251,30.4783,-0.354378,-10.3704,-7.29832,4.51038,13.0044,-6.51026,5.40428,2.07741,-1.8581,2.31711,-4.70201,-15.6721,-5.38407,-6.7563,8.8729,-6.44468,5.08353,5.60927,-3.00973,2.0776,-1.85864e-14,-5.00937e-14,-27.4422,21.635,-84.0424,66.1066,9.6278,-26.2796,-44.152,7.12502,0.275738,285.868,-1.85864e-14,-5.00937e-14,-66.3595,-6.28098,80.51,47.7742,8.4414,-35.1826,-46.0633,7.12502,-8.32098,-16.2472,-24.6196,5.6455,31.8892,62.6695,5.44914,-4.24613,-34.458,-69.7467,1.99973,-17.0995,62.8952,-20.0244,3.99056,5.33903
0.187831,16.1506,-29.678,29.8104,-1.08055,-10.9729,-6.62139,4.58372,13.4801,-6.75999,5.61809,2.13579,-2.44086,2.36147,-4.94159,-14.3605,-5.18708,-6.76414,8.85413,-6.28562,5.24196,5.38612,-2.94252,2.17151,-1.22253e-14,-1.98785e-15,-29.4006,21.6941,-84.968,65.4169,9.80631,-26.4316,-43.7518,7.12502,0.128895,286.268,-1.22253e-14,-1.98785e-15,-66.3217,-6.36077,80.6423,47.8531,8.15706,-35.5238,-46.7133,7.12502,-8.65028,-16.9105,-25.3921,5.81872,31.8195,65.6284,6.03915,-6.45623,-28.4096,-67.6699,2.28635,-16.606,63.6638,-22.1325,5.26263,5.9538
0.15855,16.0983,-29.4055,29.9992,-0.191915,-10.6725,-7.15749,4.23396,13.1136,-6.03978,5.0095,2.2539,-1.50738,2.15724,-4.60425,-17.0048,-5.37726,-6.51847,9.23922,-6.42554,5.17008,5.93619,-2.96268,2.04045,-1.78906e-14,1.43125e-14,-28.3521,21.181,-84.494,64.4924,9.83292,-26.7843,-43.2966,7.12502,-0.211726,286.724,-1.78906e-14,1.43125e-14,-63.1655,-6.3066,80.906,47.5409,8.15468,-36.039,-44.9563,7.12502,-9.14739,-15.1747,-27.6783,4.81328,31.8678,68.8785,3.25253,-9.60701,-32.6972,-67.1804,1.25617,-16.2811,64.237,-23.4856,5.76384,5.76766
0.143294,16.0365,-29.1114,29.3788,-0.000679669,-10.4735,-6.66018,4.01917,13.0865,-6.37225,4.84177,2.11402,-2.16012,2.02028,-4.7987,-14.6019,-5.17877,-6.26996,8.39158,-6.33797,5.22683,5.26733,-2.94953,2.082,4.96962e-15,-3.97569e-16,-30.3998,20.4526,-85.359,63.8356,9.66584,-26.6385,-44.5108,7.12502,-0.0709114,285.509,4.96962e-15,-3.97569e-16,-62.9199,-7.07869,81.3505,47.652,8.15485,-36.6411,-43.7444,7.12502,-9.72841,-13.9891,-28.5882,4.19791,31.6117,72.1402,0.343557,-12.2986,-33.3947,-65.615,0.634339,-16.1468,64.8927,-24.9153,6.63707,4.71392
0.139854,16.0123,-28.7718,28.2512,-0.744479,-10.122,-5.08253,3.80569,12.6371,-6.25492,4.82084,1.92744,-2.92497,1.98101,-4.8553,-15.2356,-5.076,-5.97959,9.0493,-6.22778,5.08186,5.55696,-2.88345,1.98379,-1.82882e-14,-3.18055e-14,-31.3316,19.965,-85.8441,63.0949,9.15792,-25.5446,-47.5023,7.12502,0.98557,282.52,-1.82882e-14,-3.18055e-14,-61.9352,-7.47388,81.6983,47.9033,7.84261,-36.9153,-42.5487,7.12502,-9.99296,-12.806,-29.9799,4.04035,30.6392,75.3344,1.19716,-13.5882,-23.9504,-62.911,0.376926,-16.5487,65.3786,-26.4926,7.89556,3.15285
0.101017,15.9358,-28.5312,28.6607,0.0750943,-8.78397,-5.52753,3.25295,11.1208,-5.9817,4.03754,1.794,-2.575,1.67304,-4.17604,-16.4464,-5.09702,-5.70948,9.20628,-6.24319,5.01642,5.79393,-2.86582,1.89428,-2.67365e-14,-5.24792e-14,-30.9066,19.2117,-85.6446,61.9428,9.54399,-25.2057,-47.1626,7.12502,1.31294,282.862,-2.67365e-14,-5.24792e-14,-59.4891,-7.93693,82.1622,48.2177,7.35518,-37.3333,-40.1214,7.12502,-10.3962,-10.3985,-33.7164,2.74094,29.6557,79.1544,-0.157199,-15.3528,-21.416,-62.8954,-1.09237,-17.2439,66.1047,-27.2974,8.28227,1.68141
0.0889248,15.8686,-28.2124,27.4786,-0.422838,-7.95945,-3.91387,2.85554,10.3483,-6.17336,3.75601,1.48391,-3.73856,1.48929,-4.1816,-15.6699,-4.83625,-5.7265,9.46398,-5.98199,5.31457,5.74575,-2.72837,2.03149,-1.14798e-14,1.21259e-14,-32.7969,18.6164,-86.5567,61.1074,9.87425,-25.4299,-47.2187,7.12502,1.09637,282.804,-1.14798e-14,1.21259e-14,-59.0355,-8.49062,82.5053,48.7195,6.80423,-38.0005,-37.5158,7.12502,-11.0397,-7.82615,-34.8994,2.37652,28.3644,82.4125,-2.1623,-16.7203,-18.3928,-60.4176,-1.60411,-18.112,66.7412,-28.7179,8.87767,1.15332
0.0538225,15.766,-27.9613,28.0074,-0.823097,-7.07199,-4.26781,2.72815,8.96606,-6.33821,3.56645,1.23966,-3.78059,1.44071,-3.66617,-14.8031,-4.69742,-5.77418,8.88287,-5.85656,5.68556,5.42756,-2.66006,2.18764,-2.41026e-14,-1.11319e-14,-33.6241,17.8355,-86.8228,60.1236,10.1047,-25.9623,-47.4731,7.12502,0.582185,282.548,-2.41026e-14,-1.11319e-14,-57.2866,-9.17345,82.9072,48.9893,6.17807,-37.6869,-35.7277,7.12502,-10.7373,-6.02213,-39.0926,2.25333,27.108,86.1818,-4.62972,-18.4553,-22.1671,-60.3925,-1.91252,-19.0273,67.5141,-29.4219,9.15398,0.443236
0.020306,15.7042,-27.6496,26.6623,-0.792256,-5.59856,-3.29611,2.21722,7.30014,-5.74881,2.95938,0.982853,-3.81978,1.21273,-3.05344,-15.0439,-4.65561,-5.71395,8.74477,-5.80969,5.80796,5.42321,-2.62309,2.21791,8.74653e-15,-6.55989e-15,-34.2655,16.8678,-86.8323,59.3034,10.6433,-26.6308,-46.6736,7.12502,-0.0634753,283.347,8.74653e-15,-6.55989e-15,-55.1896,-9.98628,83.4047,49.367,5.59851,-36.1022,-34.0251,7.12502,-9.20845,-4.2462,-40.3897,1.30926,25.5606,89.1173,-6.67925,-19.2486,-18.8544,-57.6511,-2.69067,-20.4811,67.8245,-30.7401,9.91116,-1.18317
-0.0142797,15.6124,-27.3784,26.3667,-0.949197,-4.13228,-2.4325,1.72437,5.539,-5.55218,2.35676,0.744094,-4.2,0.969129,-2.35254,-16.1752,-4.57886,-5.8226,9.04123,-5.65791,5.96831,5.70069,-2.51911,2.28186,2.68359e-15,-3.18055e-15,-34.6957,16.368,-86.8706,58.5801,10.9262,-27.4504,-46.4736,7.12502,-0.855107,283.548,2.68359e-15,-3.18055e-15,-53.0209,-10.6384,83.8843,49.7632,5.02529,-36.2747,-39.4387,7.12502,-9.37486,-9.66719,-43.6547,0.706322,23.8005,92.21,-6.48663,-19.3534,-8.52325,-56.3098,-3.31186,-22.0477,68.0671,-31.5455,10.8767,-3.74863
-0.0439878,15.5353,-27.0762,25.6172,-1.69956,-2.81178,-2.63458,1.56088,3.7208,-5.09983,2.10004,0.481848,-3.66976,0.924918,-1.59528,-14.2097,-4.36533,-6.173,7.71321,-5.40367,6.43757,4.9731,-2.41878,2.5465,2.93207e-15,1.59028e-15,-35.7672,15.683,-86.8602,58.4787,10.975,-27.6857,-47.751,7.12502,-1.08231,282.272,2.93207e-15,1.59028e-15,-51.1635,-11.4335,84.4234,50.107,4.56619,-36.3112,-41.9081,7.12502,-9.41005,-12.1382,-46.174,0.600265,21.877,94.7306,-7.96402,-19.6135,-6.37057,-53.989,-3.31071,-23.7915,67.9823,-32.867,11.5623,-4.90302
-0.0731849,15.4623,-26.7673,24.791,-2.45063,-1.50395,-1.47877,1.42477,2.155,-5.06799,1.93542,-0.0335797,-4.32364,0.881306,-1.28406,-14.064,-4.25902,-6.02575,7.84833,-5.32589,6.62982,4.98863,-2.36542,2.59208,-1.74931e-14,9.93923e-17,-37.2673,14.5242,-87.1171,58.677,11.2608,-27.054,-49.7164,7.12502,-0.472233,280.304,-1.74931e-14,9.93923e-17,-49.5219,-12.4647,84.5535,50.7546,4.29669,-35.9971,-42.2636,7.12502,-9.10701,-12.4802,-48.6447,0.456557,19.9798,96.9312,-10.6889,-19.9599,-8.99467,-51.4622,-3.2486,-25.5365,67.712,-34.3087,12.2282,-4.1775
-0.105052,15.3805,-26.4752,24.6761,-2.7501,-0.0943713,-1.39714,1.10196,0.433756,-4.83354,1.47145,-0.322952,-4.17328,0.712551,-0.608826,-14.3003,-4.14141,-5.98986,7.67129,-5.15451,6.6381,4.96044,-2.27678,2.60197,-2.55935e-15,2.5842e-15,-38.0591,13.674,-86.9267,58.7646,11.9272,-26.8016,-50.9521,7.12502,-0.228451,279.068,-2.55935e-15,2.5842e-15,-47.2045,-13.0375,84.6412,51.6364,3.7829,-35.4146,-41.5567,7.12502,-8.5449,-11.7496,-52.2994,-0.0712092,18.2918,98.7443,-10.7914,-19.9364,-7.61958,-49.901,-3.52634,-27.1787,67.3468,-35.3417,13.0236,-4.08274
-0.140066,15.3168,-26.1687,23.9522,-2.34721,1.24252,-0.270748,0.605923,-0.773223,-4.35104,0.770744,-0.670331,-4.32895,0.399916,-0.285219,-16.0482,-4.13415,-5.77705,8.12815,-5.12813,6.69909,5.38211,-2.21569,2.56555,9.49197e-15,-2.73329e-15,-38.5621,12.6347,-86.845,59.0019,12.7671,-27.116,-51.0157,7.12502,-0.532149,279.005,9.49197e-15,-2.73329e-15,-44.5302,-13.9711,84.4938,52.5166,3.24491,-35.1379,-41.6898,7.12502,-8.27783,-11.8719,-54.7593,-1.06303,17.0736,99.991,-12.6432,-19.7841,-7.19719,-47.3312,-4.02143,-28.4874,66.7899,-36.5154,13.6149,-6.41503
-0.180887,15.2615,-25.865,23.9467,-2.94321,1.27892,-0.0222775,0.54111,-1.38175,-4.27331,0.666758,-0.654185,-4.39707,0.370812,0.0735345,-16.2238,-3.94946,-5.88348,7.96401,-4.86905,6.93377,5.3521,-2.0741,2.68142,-3.08427e-15,-6.80837e-15,-39.6119,11.9296,-86.8077,59.5529,13.2673,-27.2704,-51.3549,7.12502,-0.68129,278.666,-3.08427e-15,-6.80837e-15,-42.3033,-14.7474,84.4779,53.219,2.59995,-35.3912,-42.7527,7.12502,-8.52227,-12.9447,-58.4633,-0.345099,16.9981,100.491,-11.9608,-20.7104,-9.10171,-45.5783,-3.30173,-28.7653,66.275,-37.9216,14.3652,-9.25799
-0.205161,15.2057,-25.5535,24.1673,-2.6919,0.74001,-0.521666,0.318812,-0.816789,-4.40222,0.39395,-0.467661,-4.24111,0.217075,-0.0371936,-14.5622,-3.62716,-6.12364,7.11364,-4.47076,7.29172,4.80668,-1.903,2.88973,2.98177e-16,-4.31114e-15,-41.294,11.2543,-86.8345,60.2647,13.7784,-27.2912,-52.0304,7.12502,-0.701369,277.991,2.98177e-16,-4.31114e-15,-40.5797,-15.4317,84.5211,53.9124,1.85867,-35.566,-43.1889,7.12502,-8.69096,-13.3878,-61.8166,-0.0282809,17.7795,100.481,-11.601,-21.513,-5.45334,-44.134,-3.10653,-28.1453,65.7634,-39.001,14.8237,-10.2792
-0.231573,15.1607,-25.236,24.0627,-2.91216,0.354185,-0.971312,0.324398,-0.61143,-4.02414,0.413073,-0.4398,-3.59177,0.218088,-0.118946,-14.2002,-3.50187,-5.98158,6.58255,-4.33611,7.43551,4.57559,-1.83602,2.92784,-4.9075e-15,3.27995e-15,-42.2251,10.0534,-86.6867,61.0485,14.54,-27.4228,-52.1653,7.12502,-0.828454,277.857,-4.9075e-15,3.27995e-15,-37.953,-16.3117,84.3059,54.7108,1.48376,-35.615,-43.3572,7.12502,-8.73831,-13.5581,-64.526,0.629311,18.0864,100.098,-14.1262,-20.9512,-1.67602,-42.217,-2.56932,-27.8701,65.1108,-39.9904,15.3874,-10.8006
-0.255629,15.1433,-24.896,23.8013,-3.22304,0.628797,0.306189,0.103917,-1.0946,-4.08075,0.0919629,-0.430875,-4.37505,0.0766123,0.165002,-16.3197,-3.41066,-6.01767,7.80098,-4.1569,7.37612,5.2842,-1.69925,2.91377,-4.29872e-15,1.88845e-15,-43.4616,9.31353,-86.5868,62.2471,14.6618,-27.3187,-52.9723,7.12502,-0.727903,277.049,-4.29872e-15,1.88845e-15,-35.6585,-16.5493,84.0825,55.6653,1.28047,-35.6484,-43.9337,7.12502,-8.77051,-14.1359,-67.128,0.910182,17.8186,99.0438,-14.1494,-21.4345,-4.20987,-39.8195,-2.29085,-28.2673,64.0961,-41.0743,15.2692,-9.59261
-0.275899,15.1263,-24.5465,23.8981,-3.37793,0.771887,0.20782,0.0776666,-1.42609,-4.45416,0.0423558,-0.492079,-4.70961,0.0660121,0.288711,-14.8076,-3.21438,-5.72772,7.25997,-3.98265,7.23803,4.84966,-1.6498,2.85054,2.31087e-15,-2.78299e-15,-45.6688,7.96651,-86.3543,63.7803,13.6873,-26.7243,-54.0305,7.12502,-0.153803,275.99,2.31087e-15,-2.78299e-15,-34.2725,-17.4534,84.2469,56.6926,1.07611,-35.2309,-44.1322,7.12502,-8.36762,-14.3179,-69.6611,1.07933,17.6741,97.5153,-14.3915,-21.5169,-6.10553,-37.7619,-2.18424,-28.4571,62.8846,-41.9875,14.5859,-6.41909
-0.29254,15.1335,-24.1763,24.2057,-3.28765,0.545198,-0.0868323,-0.226568,-1.27151,-4.18803,-0.343769,-0.232943,-4.25699,-0.131044,0.484446,-16.9974,-3.01227,-5.62237,8.07172,-3.63789,6.96796,5.42655,-1.44729,2.76705,-1.71452e-15,1.49089e-15,-46.0643,7.83613,-86.1931,64.8393,13.118,-26.8163,-54.6961,7.12502,-0.242624,275.324,-1.71452e-15,1.49089e-15,-31.5302,-17.2119,83.9278,57.5754,0.881586,-34.815,-43.7627,7.12502,-7.96619,-13.9328,-72.0992,1.2223,17.9578,95.3522,-14.1704,-21.3504,-7.29391,-35.629,-2.21307,-28.1585,61.2739,-42.4009,14.5036,-6.75784
-0.310398,15.1487,-23.7967,24.319,-3.36815,0.336464,-0.673917,-0.454836,-1.19382,-4.50019,-0.635192,-0.0163269,-4.24264,-0.274427,0.670932,-15.4793,-2.6411,-5.62126,7.87568,-3.18138,6.80824,5.08629,-1.26569,2.76725,8.32411e-15,6.55989e-15,-48.2432,7.62534,-86.1436,65.9561,12.8777,-27.3277,-52.6608,7.12502,-0.736577,277.361,8.32411e-15,6.55989e-15,-30.651,-17.2199,84.1451,58.4796,0.23598,-35.443,-43.6367,7.12502,-8.57228,-13.8308,-74.0033,1.5175,18.1951,92.7909,-14.1192,-21.109,-8.88305,-33.0943,-2.23314,-27.9344,59.3539,-42.224,15.1645,-8.74336
-0.331376,15.172,-23.4133,24.3822,-3.56683,0.236517,-0.901153,-0.641051,-1.33744,-4.74803,-0.88009,0.174783,-4.36298,-0.385748,0.954712,-14.9808,-2.31526,-5.39944,8.07061,-2.77235,6.40745,5.02967,-1.09366,2.64408,1.06101e-14,-9.24349e-15,-50.103,7.35014,-85.9521,67.1616,12.6233,-27.3688,-51.4768,7.12502,-0.776266,278.545,1.06101e-14,-9.24349e-15,-29.4811,-17.2383,84.3047,59.3549,-0.387882,-36.082,-43.9805,7.12502,-9.18894,-14.2007,-75.6125,1.90657,18.2726,89.8398,-14.1574,-20.658,-15.9899,-30.499,-2.30983,-27.8302,57.2476,-41.6221,15.6681,-13.1517
-0.348387,15.208,-23.0149,24.6504,-3.71142,-0.123575,-1.14749,-0.955303,-1.17308,-5.02124,-1.28439,0.570762,-4.49308,-0.583992,1.28142,-15.2795,-1.85134,-5.29951,8.57257,-2.11246,5.89019,5.18648,-0.796546,2.52446,-1.3418e-15,-6.55989e-15,-51.4143,7.76622,-85.8085,68.2704,11.984,-26.8919,-52.369,7.12502,-0.315666,277.651,-1.3418e-15,-6.55989e-15,-28.2745,-16.6952,84.408,60.4902,-0.303448,-36.0728,-44.2539,7.12502,-9.18007,-14.4737,-76.9401,2.3463,18.5691,86.4627,-15.3342,-19.3543,-11.354,-28.0123,-2.54612,-27.423,54.9441,-40.9335,15.3379,-14.4371
-0.367701,15.2324,-22.6129,25.1555,-4.00717,-0.694323,-1.98711,-1.06846,-0.871795,-5.43747,-1.4163,0.901236,-4.44782,-0.654465,1.44547,-14.4807,-1.41044,-5.01864,8.6935,-1.56125,5.44296,5.05506,-0.56001,2.38706,-4.19933e-15,1.19271e-15,-52.9543,7.85984,-85.6833,69.1211,11.569,-26.6098,-52.3907,7.12502,-0.0431823,277.63,-4.19933e-15,1.19271e-15,-27.4606,-16.8506,84.7003,61.6244,0.00960892,-36.5318,-43.8321,7.12502,-9.62296,-14.0718,-78.153,2.96593,18.9628,82.9165,-16.7255,-17.5702,-8.48479,-25.8093,-2.75476,-26.8763,52.7643,-40.0869,14.6066,-14.1131
-0.393719,15.3088,-22.1917,25.1574,-3.69239,-0.703934,-2.23865,-1.47857,-1.01142,-5.81398,-1.95541,1.24314,-4.6687,-0.907148,1.88688,-13.7934,-0.94249,-4.81284,9.07253,-0.952877,4.94851,5.02317,-0.297682,2.25061,3.42904e-15,7.7526e-15,-54.5819,8.21676,-85.5196,69.7944,11.4875,-27.1941,-50.2018,7.12502,-0.607593,279.819,3.42904e-15,7.7526e-15,-26.9751,-16.9986,85.183,62.8132,0.659965,-36.9589,-42.6643,7.12502,-10.035,-12.9235,-78.7981,2.87768,19.2099,79.0948,-16.1166,-17.1433,-11.9816,-22.9826,-3.5411,-26.5937,50.4288,-38.5811,14.1042,-15.5655
-0.423387,15.3317,-21.7884,25.5107,-3.74374,-0.676174,-2.59532,-1.73866,-1.32485,-5.89097,-2.29519,1.5099,-4.51304,-1.05912,2.33264,-15.3357,-0.614479,-4.43497,10.2785,-0.483601,4.38119,5.62844,-0.0781644,2.06264,4.72114e-15,-1.49089e-15,-55.2011,8.44242,-85.2409,70.4018,11.3205,-28.8424,-47.2637,7.12502,-2.19947,282.768,4.72114e-15,-1.49089e-15,-25.6382,-17.3121,85.4272,63.9513,1.39374,-37.1976,-41.0758,7.12502,-10.2653,-11.3463,-79.7507,3.06416,19.2101,75.4331,-16.6603,-15.7679,-12.865,-20.8633,-4.07195,-26.5298,48.4288,-36.7327,13.4494,-18.5643
-0.449157,15.3722,-21.3688,25.8741,-3.77959,-0.997366,-3.34247,-2.189,-1.25053,-6.38494,-2.87845,2.03326,-4.56073,-1.33998,2.82137,-14.1425,0.0482003,-4.31103,10.3191,0.413052,3.8081,5.40363,0.309191,1.93454,1.97123e-14,-3.93842e-15,-56.9357,9.62326,-85.2455,71.5822,10.2997,-28.6596,-47.5976,7.12502,-2.023,282.432,1.97123e-14,-3.93842e-15,-25.8037,-16.9284,85.9085,65.2895,2.23611,-37.3654,-40.8199,7.12502,-10.4272,-11.0985,-80.2482,3.37482,19.5606,71.673,-15.5153,-14.7879,-17.5877,-18.7251,-4.61483,-26.1154,46.4974,-34.814,11.691,-19.4638
-0.470359,15.4373,-20.9283,26.011,-3.55282,-1.52812,-3.88423,-2.44774,-0.707198,-6.44881,-3.21653,2.40564,-4.31147,-1.52918,2.8795,-14.6956,0.451383,-3.69074,10.7823,0.945355,3.06125,5.62519,0.540008,1.65152,-2.10525e-14,-1.34677e-14,-57.7876,10.1291,-85.1323,72.2079,10.2936,-27.7863,-47.846,7.12502,-1.17956,282.178,-2.10525e-14,-1.34677e-14,-25.1463,-17.1554,86.1404,66.8702,4.00623,-37.1903,-42.2525,7.12502,-10.2583,-12.5226,-80.1158,3.5285,20.2672,68.1,-14.3346,-13.5567,-18.7639,-16.4611,-5.26707,-25.4258,44.8912,-32.4429,9.76719,-19.5428
-0.489788,15.4959,-20.4853,25.8071,-3.45395,-1.90558,-4.23157,-2.73141,-0.316496,-6.40658,-3.59395,2.76745,-4.0529,-1.73155,3.01281,-15.0602,0.883767,-3.33025,11.348,1.54295,2.4696,5.85118,0.798554,1.46737,4.49005e-14,7.7526e-15,-58.3473,10.9175,-85.0365,72.3401,10.7943,-28.4331,-46.2299,7.12502,-1.80416,283.798,4.49005e-14,7.7526e-15,-24.6758,-17.2873,86.4612,68.5386,5.648,-37.4138,-43.5726,7.12502,-10.4738,-13.8536,-79.4793,3.66486,20.7762,64.9345,-13.592,-11.5694,-19.4883,-14.0314,-5.73352,-25.0789,43.472,-29.2077,8.46027,-22.7633
-0.508904,15.5457,-20.0447,25.4915,-3.63599,-2.2846,-4.55535,-2.90779,-0.00100624,-6.23793,-3.83454,3.06242,-3.68262,-1.86455,3.11272,-15.5564,1.269,-2.8555,11.8278,2.07246,1.79443,6.08289,1.02019,1.23447,4.77083e-15,-8.44835e-15,-58.6532,11.6625,-84.9347,72.5194,11.1888,-29.3088,-44.8702,7.12502,-2.64996,285.166,4.77083e-15,-8.44835e-15,-23.954,-17.8461,86.6408,69.8523,7.25474,-37.7023,-44.3562,7.12502,-10.7521,-14.6514,-78.6443,3.9619,21.2312,62.182,-12.3919,-9.54998,-21.7327,-11.842,-5.75354,-24.9406,42.5513,-25.41,7.20822,-26.6633
-0.525043,15.6278,-19.5824,24.3855,-2.61992,-2.30418,-4.30303,-3.58678,0.534636,-6.28734,-4.73937,3.37569,-3.84669,-2.33252,3.14352,-14.1114,1.72512,-2.62408,11.5952,2.68959,1.17322,5.7652,1.28036,1.037,2.98177e-16,1.31198e-14,-59.7535,12.8564,-85.0939,72.6014,11.7737,-29.4789,-43.7643,7.12502,-2.81421,286.275,2.98177e-16,1.31198e-14,-24.3766,-18.2239,87.074,71.1355,8.95922,-38.0163,-45.3181,7.12502,-11.055,-15.6292,-76.7995,3.27228,21.7873,59.924,-11.1422,-8.77861,-24.3544,-9.2477,-6.3286,-24.5967,42.1634,-20.936,5.25151,-26.7571
-0.539343,15.6893,-19.1477,23.9351,-2.7415,-2.78637,-3.92915,-3.50256,1.23329,-5.8971,-4.63115,3.4972,-3.69815,-2.30444,2.88988,-16.6059,1.80128,-2.20726,12.7564,2.84417,0.709483,6.56378,1.3231,0.879739,-7.06928e-14,8.94531e-15,-59.1736,13.0101,-84.8357,72.5644,12.4775,-28.7001,-44.3003,7.12502,-2.06209,285.73,-7.06928e-14,8.94531e-15,-23.0018,-19.535,87.1347,72.0989,10.7609,-38.6111,-46.4803,7.12502,-11.6286,-16.8229,-75.632,3.50427,22.5809,58.2921,-10.739,-8.0427,-26.1655,-8.05433,-5.36962,-24.1563,42.5705,-15.5321,3.20064,-22.0664
-0.559328,15.737,-18.7146,23.5527,-3.00693,-3.11031,-4.03588,-3.72241,1.61802,-6.36294,-4.91255,3.84333,-4.12069,-2.45254,3.05157,-14.4395,2.2214,-2.49039,12.4137,3.45361,0.461278,6.08067,1.59038,0.872003,-3.32964e-15,-3.77691e-15,-60.5941,14.3443,-85.0503,73.0829,12.8739,-25.5106,-48.3319,7.12502,1.01847,281.691,-3.32964e-15,-3.77691e-15,-23.8334,-20.093,87.9059,72.9163,12.6896,-39.1451,-46.9492,7.12502,-12.1436,-17.3217,-74.5446,3.81209,23.1825,57.1963,-10.6587,-7.73293,-26.357,-7.35353,-3.9971,-23.8029,43.5267,-10.3392,1.73608,-18.8503
-0.578836,15.7698,-18.2747,23.2907,-2.73905,-2.88102,-4.43009,-3.85498,1.89394,-6.29578,-5.11101,3.7888,-3.85084,-2.56627,2.8064,-14.9548,2.3217,-2.42128,12.9604,3.62604,0.270762,6.3445,1.65243,0.830411,6.76862e-14,-3.67752e-14,-60.6405,14.4347,-84.8485,73.1424,13.4144,-25.3695,-46.8533,7.12502,1.15474,283.17,6.76862e-14,-3.67752e-14,-23.1738,-21.6055,88.1867,73.396,14.4452,-39.5575,-45.8607,7.12502,-12.5412,-16.2571,-73.5186,3.52686,23.3288,57.0445,-11.387,-7.49448,-24.7908,-7.24905,-2.94505,-23.6248,45.142,-1.60019,-0.671168,0.809911
-0.600447,15.8055,-17.8302,23.1409,-2.74687,-2.62009,-5.14312,-4.03222,2.05225,-6.73189,-5.36608,3.7749,-3.91895,-2.70332,2.67057,-13.0436,2.61065,-2.45847,12.8145,4.01128,-0.0213521,5.97555,1.8213,0.746968,5.96354e-15,-2.38542e-14,-61.8196,15.1147,-85.0795,72.9376,14.1386,-25.6532,-45.9362,7.12502,0.880653,284.086,5.96354e-15,-2.38542e-14,-24.3081,-21.9499,88.9781,74.2647,15.2401,-38.0386,-49.1491,7.12502,-11.0765,-19.4614,-72.8718,3.49457,23.3408,57.3115,-11.1157,-7.56013,-24.9507,-7.51831,-1.76886,-23.541,47.0893,-1.35147,-1.1836,-15.0943
-0.624519,15.8098,-17.3967,22.8672,-2.7641,-2.2989,-5.39566,-3.96346,2.07678,-6.41097,-5.29656,3.63753,-3.45711,-2.67221,2.47641,-15.0615,2.59517,-2.27299,13.9454,4.08307,-0.333043,6.69008,1.8122,0.671151,-5.97845e-14,0,-61.1771,15.1149,-84.8591,72.4721,14.9042,-27.5516,-43.9941,7.12502,-0.952826,286.028,-5.97845e-14,0,-23.5105,-22.9039,89.2139,74.7348,15.5164,-37.4375,-49.2867,7.12502,-10.4967,-19.5688,-71.8686,3.47482,23.3673,58.3606,-11.5393,-7.72787,-24.9726,-8.05956,-0.879967,-23.5196,49.6091,5.62531,-2.53616,2.26004
-0.645441,15.8144,-16.9599,22.1686,-2.79497,-1.91848,-5.40492,-3.95487,2.00489,-6.4431,-5.28434,3.48127,-3.49357,-2.66593,2.35645,-14.6097,2.60733,-2.10473,14.3858,4.12697,-0.732474,6.76787,1.80165,0.51806,-9.02482e-14,2.66371e-14,-61.4853,15.3588,-84.9458,71.9398,15.2599,-28.6547,-42.7773,7.12502,-2.01827,287.253,-9.02482e-14,2.66371e-14,-23.9887,-23.7974,89.9605,75.0981,15.1596,-37.3577,-48.1305,7.12502,-10.4197,-18.4087,-70.5695,3.31364,23.4899,59.7567,-12.4944,-8.30831,-18.5438,-8.31978,-0.353283,-23.6753,52.5085,6.60708,-2.10833,-1.76775
-0.669505,15.7719,-16.5513,21.8326,-3.03559,-1.43931,-5.68361,-3.88576,1.71588,-6.49405,-5.19517,3.32427,-3.38154,-2.61344,2.3367,-14.4989,2.61059,-2.01712,14.9246,4.17717,-1.04802,6.93257,1.79313,0.411543,5.11871e-14,-5.96354e-15,-61.4729,15.688,-85.0289,71.5036,15.1329,-26.0716,-44.3951,7.12502,0.476591,285.626,5.11871e-14,-5.96354e-15,-24.372,-24.353,90.671,75.5164,14.6146,-36.6799,-47.2063,7.12502,-9.76579,-17.4527,-69.5202,3.25179,23.4621,61.7242,-13.3109,-9.53239,-15.0313,-9.30288,0.272711,-24.0696,55.9179,4.1145,-1.4909,-12.9877
-0.696028,15.724,-16.1553,21.8753,-3.56008,-0.854889,-6.28309,-3.71563,1.17667,-6.36297,-4.9751,3.13617,-2.886,-2.48794,2.39418,-15.1662,2.6276,-1.97191,15.3529,4.25334,-1.22586,7.19234,1.80303,0.369416,9.93923e-15,1.27222e-14,-60.8256,16.075,-85.0368,71.3198,14.8647,-26.1393,-44.1919,7.12502,0.411157,285.829,9.93923e-15,1.27222e-14,-24.2045,-24.8502,91.1362,75.8951,13.8842,-36.1972,-45.4758,7.12502,-9.30005,-15.7009,-69.045,3.44117,23.1026,63.8693,-14.4809,-10.5384,-12.3874,-11.0671,1.1827,-24.6926,59.6985,3.18341,-0.959624,-11.6177
-0.715749,15.6823,-15.7432,21.5231,-4.31498,-0.454279,-6.08059,-3.37534,0.683364,-6.19379,-4.50293,3.02936,-2.80619,-2.23462,2.58086,-16.4194,2.56793,-1.86531,15.9126,4.27318,-1.61496,7.60611,1.7603,0.251966,1.56543e-14,7.95139e-15,-60.1002,16.4894,-84.8342,71.1957,14.743,-25.7105,-45.6133,7.12502,0.82536,284.409,1.56543e-14,7.95139e-15,-24.1243,-25.2702,91.9136,76.1297,12.9718,-36.0632,-44.0456,7.12502,-9.17081,-14.2651,-68.068,3.93608,22.6525,65.9511,-16.513,-10.3908,-10.0309,-12.4727,2.29043,-25.2544,63.609,-5.10595,3.1523,-36.0663
-0.748258,15.6214,-15.372,22.0158,-4.46433,0.14336,-7.09083,-3.3069,0.150927,-6.20091,-4.40999,2.80382,-2.23537,-2.17783,2.58231,-16.0424,2.50976,-1.43236,15.3285,4.15765,-2.13531,7.3705,1.69599,-0.011199,4.14963e-14,-1.59028e-14,-59.1848,16.808,-85.0457,70.6151,15.2189,-25.4786,-46.117,7.12502,1.04932,283.906,4.14963e-14,-1.59028e-14,-24.2017,-25.4658,92.3901,76.2493,12.5345,-35.5382,-44.2494,7.12502,-8.66422,-14.4472,-68.2688,4.17579,21.9565,67.869,-18.7624,-10.5399,-8.15682,-15.2202,2.79277,-25.6515,67.8111,-0.17364,2.02785,-7.55893
-0.764084,15.5823,-14.9655,21.8837,-5.01252,0.480193,-7.14374,-3.1066,-0.214523,-6.25688,-4.12522,2.80507,-2.25167,-2.02202,2.80184,-15.8413,2.50786,-1.39981,15.0354,4.22811,-2.65857,7.25456,1.68992,-0.183845,-3.19546e-14,-1.66979e-14,-58.488,17.6325,-85.092,69.7686,15.8073,-25.7684,-45.8819,7.12502,0.769466,284.14,-3.19546e-14,-1.66979e-14,-24.6962,-25.1096,93.4897,76.2375,12.6399,-34.6556,-44.6836,7.12502,-7.81233,-14.8479,-67.3938,4.78944,21.3143,69.3842,-19.6775,-11.7712,-9.0137,-17.9015,3.5559,-26.0083,72.0914,-1.75469,3.75612,-8.95849
-0.783463,15.5171,-14.578,21.8521,-5.20384,0.618814,-7.20182,-3.01302,-0.377416,-6.4453,-3.98884,2.94914,-2.40296,-1.94295,3.0539,-15.0417,2.56358,-1.64239,14.5825,4.36264,-2.9001,6.97198,1.73728,-0.222059,-3.97072e-14,-2.38542e-15,-58.0148,18.7876,-85.3562,69.0137,16.3375,-26.2749,-46.1256,7.12502,0.280256,283.895,-3.97072e-14,-2.38542e-15,-25.5292,-24.4569,94.7526,76.2023,12.9532,-34.2431,-44.6975,7.12502,-7.4142,-14.8474,-66.6436,5.27964,20.9886,70.8044,-21.0408,-12.521,-7.44068,-20.615,4.41823,-26.0228,76.4025,-3.90817,4.86424,-6.92856
-0.800428,15.454,-14.1969,21.8501,-4.88582,0.348248,-6.87978,-2.89758,-0.0578452,-6.51543,-3.84066,3.15397,-2.6695,-1.87246,3.11697,-15.2005,2.47631,-1.70602,14.4918,4.30436,-3.15502,6.97529,1.68281,-0.298571,-1.04859e-14,1.51076e-14,-57.0852,19.7877,-85.6552,68.2097,16.945,-27.1665,-45.8329,7.12502,-0.580855,284.188,-1.04859e-14,1.51076e-14,-26.0789,-24.0232,95.9037,76.0479,13.1786,-34.6003,-44.7166,7.12502,-7.75902,-14.879,-65.563,5.39745,21.4492,72.0061,-22.9486,-12.6604,-5.50845,-23.9544,4.90411,-25.3032,80.7769,-7.474,6.15021,-10.1713
-0.806237,15.3929,-13.8086,21.5932,-4.65056,-0.602298,-6.34981,-2.55401,1.1444,-6.27334,-3.41947,3.34479,-2.79093,-1.69934,2.68184,-16.0509,2.33082,-1.48104,14.5144,4.15469,-3.5658,7.14278,1.57448,-0.473647,-4.74101e-14,2.06736e-14,-55.6596,20.5957,-85.9937,67.3376,17.4203,-27.9331,-45.9068,7.12502,-1.32127,284.118,-4.74101e-14,2.06736e-14,-26.2316,-23.8186,96.7866,75.6219,13.8483,-34.4641,-45.187,7.12502,-7.62754,-15.3446,-63.8154,5.63356,22.7715,72.9853,-24.7292,-13.452,-5.99627,-26.9843,5.55286,-23.9789,85.0478,-9.58163,7.14001,-8.18846
-0.805584,15.3289,-13.4092,21.1447,-4.88823,-2.08922,-6.25435,-2.11962,2.95202,-5.88813,-2.91286,3.6136,-2.54163,-1.5012,1.96382,-15.6464,2.31998,-1.42298,13.8736,4.13703,-3.86774,6.87387,1.56276,-0.589739,6.70898e-14,-4.6118e-14,-54.4469,21.8853,-86.6345,66.7297,17.7796,-27.9069,-47.4813,7.12502,-1.29599,282.543,6.70898e-14,-4.6118e-14,-26.6282,-22.9011,97.425,75.2562,15.1944,-33.311,-46.2382,7.12502,-6.51441,-16.3584,-61.5959,6.34631,24.5236,73.593,-26.2526,-14.7047,-7.74036,-29.6966,6.6959,-22.2963,89.0359,-12.5399,8.10994,-7.55184
-0.831487,15.2412,-13.0696,21.7362,-4.11575,-3.5552,-5.37057,-1.92661,4.17941,-6.51031,-2.59748,4.27439,-3.72514,-1.3861,2.03831,-15.6451,2.20802,-1.44675,13.9479,4.04967,-4.18877,6.90469,1.48866,-0.698412,-5.37713e-14,5.96354e-14,-54.0151,23.1368,-87.1785,66.3183,18.1011,-28.4093,-48.0563,7.12502,-1.78126,281.971,-5.37713e-14,5.96354e-14,-28.1396,-22.4679,98.9701,74.5372,13.9138,-35.1705,-45.0237,7.12502,-8.30933,-15.2071,-60.7883,6.55854,26.5601,74.0712,-27.5127,-16.0251,-8.47692,-34.4152,6.96906,-20.1751,93.2921,-14.7007,8.40902,-4.36052
-0.844473,15.1816,-12.6858,21.2948,-3.89895,-5.66683,-4.43208,-1.46903,6.36645,-6.19588,-1.95744,4.70579,-4.00518,-1.14499,1.31031,-16.1585,2.06487,-1.39548,13.7632,3.84671,-4.1705,6.92983,1.39315,-0.7181,8.34896e-15,3.18055e-15,-52.5729,24.1663,-87.8675,65.9338,17.6785,-28.4772,-49.4071,7.12502,-1.84679,280.621,8.34896e-15,3.18055e-15,-28.9079,-22.2093,99.6265,74.236,12.964,-35.7811,-44.9594,7.12502,-8.89859,-15.167,-58.1342,7.17678,29.1823,74.0381,-28.8875,-17.362,-9.86079,-37.859,7.9622,-17.5517,96.7786,-16.8922,9.14469,-6.5078
-0.856799,15.1102,-12.308,20.8739,-3.56423,-7.67617,-3.59287,-1.13324,8.51605,-5.8038,-1.45813,5.12043,-4.12675,-0.968989,0.575539,-16.633,1.90712,-1.47313,13.3684,3.61901,-4.01443,6.87404,1.29726,-0.67649,-3.29983e-14,9.54166e-15,-50.921,25.249,-88.4792,65.2955,18.4421,-27.9986,-50.0852,7.12502,-1.38459,279.94,-3.29983e-14,9.54166e-15,-29.5957,-21.7129,100.006,74.094,11.7344,-35.7724,-45.6636,7.12502,-8.89013,-15.8709,-55.4484,7.53859,31.7255,73.8812,-29.9498,-18.9401,-12.342,-41.3819,8.81955,-14.9714,99.9095,-18.4232,9.69488,-6.53348
-0.87523,15.0252,-11.9375,20.6684,-3.10459,-9.47216,-2.84453,-0.88538,10.3016,-5.61517,-1.03427,5.60165,-4.38479,-0.822238,0.115922,-16.6796,1.76137,-1.55657,12.7361,3.41295,-4.01983,6.67311,1.20837,-0.687822,1.54058e-14,3.4191e-14,-49.6589,26.4368,-89.0439,65.0539,19.2921,-27.0666,-50.2839,7.12502,-0.484387,279.737,1.54058e-14,3.4191e-14,-30.7614,-21.2096,100.579,74.0683,10.4252,-35.7924,-46.3804,7.12502,-8.90946,-16.5885,-53.0857,7.76028,33.9872,73.6868,-31.2467,-20.0442,-13.2322,-45.4512,9.56228,-12.6406,102.626,-19.3474,10.1265,-4.32951
-0.894038,14.9369,-11.5506,20.2866,-3.04498,-11.1319,-2.05124,-0.565241,11.8569,-5.40144,-0.484187,6.02276,-4.61062,-0.60522,-0.282998,-16.4691,1.63025,-1.79156,12.0147,3.22879,-3.8917,6.39682,1.13994,-0.630968,1.78906e-14,-3.97569e-14,-48.6427,27.7586,-89.6934,65.156,19.8787,-26.3009,-49.7521,7.12502,0.255126,280.268,1.78906e-14,-3.97569e-14,-32.3657,-20.8721,101.228,74.1307,8.81008,-36.1454,-46.7776,7.12502,-9.25009,-17.0005,-50.4728,8.15632,35.9092,73.4775,-33.0693,-20.4467,-12.6361,-49.2904,10.5245,-10.6829,104.809,-21.0233,9.88356,-4.06434
-0.930998,14.8445,-11.1757,20.2534,-2.76035,-12.1658,-1.70017,-0.393908,12.6635,-5.3512,-0.183074,6.28467,-4.75098,-0.48729,-0.443635,-15.9389,1.49085,-2.00798,11.2014,2.98846,-3.59091,6.03642,1.06554,-0.529578,1.799e-14,-1.51076e-14,-47.6941,29.1223,-90.5387,65.4084,20.9122,-25.3028,-48.5672,7.12502,1.21913,281.457,1.799e-14,-1.51076e-14,-34.1638,-20.7003,101.63,74.3408,7.13281,-36.823,-46.5536,7.12502,-9.90386,-16.8066,-48.4902,8.30905,37.2956,73.349,-34.6407,-21.0668,-12.9797,-54.03,10.876,-9.53192,106.257,-22.5422,10.7238,-11.6568
-0.966672,14.7746,-10.7736,20.1173,-3.0302,-12.5756,-1.0993,-0.0146396,12.7853,-5.19139,0.413208,6.21257,-4.86299,-0.19842,-0.601552,-16.7676,1.20815,-1.88379,11.1672,2.58468,-3.45148,6.15811,0.878157,-0.540735,1.54058e-14,-1.43125e-14,-46.3845,30.1758,-91.2425,65.5505,22.1139,-24.8765,-46.7848,7.12502,1.63085,283.242,1.54058e-14,-1.43125e-14,-35.8887,-21.0323,101.914,74.7612,6.07189,-37.2519,-46.6184,7.12502,-10.3177,-16.8915,-46.2144,8.54831,37.8578,73.1187,-35.9972,-21.585,-13.8697,-57.9538,11.0924,-9.37287,106.725,-21.6686,11.152,-8.78806
-1.00302,14.7223,-10.3513,19.9704,-3.48904,-12.3447,-0.935695,0.324117,12.2707,-5.04805,0.861555,6.00976,-4.74588,0.0503302,-0.556466,-17.0412,1.00413,-1.92972,10.9799,2.2915,-3.24936,6.137,0.752346,-0.497501,-1.78906e-15,5.96354e-14,-45.1357,31.8136,-92.1576,65.6089,22.9417,-25.1229,-45.6592,7.12502,1.39287,284.366,-1.78906e-15,5.96354e-14,-37.9254,-20.9915,102.18,75.4105,5.25545,-37.3564,-47.5201,7.12502,-10.4185,-17.7983,-43.8455,8.65767,37.6772,72.8152,-37.2572,-21.9589,-14.5156,-61.4402,10.8795,-10.0663,106.377,-21.9521,12.1212,-11.0275
-1.03904,14.693,-9.90977,20.015,-3.91806,-12.0124,-1.12089,0.695667,11.6464,-4.941,1.29503,5.78557,-4.47474,0.300903,-0.469016,-17.4682,0.806084,-2.16323,11.043,2.0264,-2.7788,6.21686,0.648226,-0.3348,-4.87022e-15,0,-44.2941,33.1812,-92.8782,66.8995,23.8609,-24.6063,-45.0619,7.12502,1.89184,284.967,-4.87022e-15,0,-39.9994,-20.8801,102.378,76.3084,4.64978,-37.0733,-47.5787,7.12502,-10.1454,-17.8433,-41.4799,8.74572,37.3573,72.2307,-38.2809,-22.4177,-15.3994,-65.0374,10.4189,-10.8359,105.333,-21.9286,12.4579,-10.7998
-1.07309,14.6629,-9.47647,20.5625,-4.28941,-12.0487,-1.49544,1.09079,11.3492,-5.00544,1.7583,5.64892,-4.28432,0.54618,-0.456019,-17.8574,0.631953,-2.33452,10.9508,1.77272,-2.30802,6.24283,0.556858,-0.181466,-2.31584e-14,2.38542e-15,-43.0754,34.8735,-93.6983,67.6162,24.5192,-24.2122,-43.9262,7.12502,2.27242,286.106,-2.31584e-14,2.38542e-15,-42.1028,-20.6289,102.404,77.5195,4.35961,-36.3716,-46.4266,7.12502,-9.46841,-16.6593,-39.6797,9.06238,37.3729,71.5302,-39.1834,-22.6338,-16.069,-69.1687,10.1259,-11.1698,103.776,-21.8588,11.9949,-9.45318
-1.11761,14.6334,-9.05253,21.0072,-3.95302,-11.8977,-1.63261,1.17851,10.9355,-5.26568,1.8761,5.52082,-4.47452,0.604653,-0.364291,-17.6989,0.470473,-2.29798,10.4008,1.47744,-1.98976,6.03668,0.453637,-0.116936,1.88845e-14,-3.18055e-15,-42.2101,36.7197,-94.7885,68.4478,25.3856,-24.7301,-42.1273,7.12502,1.77223,287.9,1.88845e-14,-3.18055e-15,-44.4585,-20.3666,102.369,78.912,4.34311,-36.296,-45.5352,7.12502,-9.39543,-15.7646,-37.8901,8.89543,37.5206,70.6792,-40.0123,-22.8998,-16.7009,-72.914,9.21645,-11.3353,101.566,-22.0077,11.3381,-8.35144
-1.16586,14.5954,-8.63686,22.1145,-3.28413,-11.5285,-2.17238,1.20844,10.2835,-5.96626,1.90054,5.38932,-4.91954,0.608607,-0.133813,-17.6505,0.2785,-2.48027,10.4923,1.18543,-1.45074,6.05259,0.348574,0.055232,1.41137e-14,1.03368e-14,-41.8211,38.2476,-96.0247,70.2971,24.7464,-23.4333,-43.5777,7.12502,3.02468,286.464,1.41137e-14,1.03368e-14,-47.2451,-20.0067,102.481,80.496,4.38663,-37.5646,-44.1398,7.12502,-10.6193,-14.4281,-36.9451,8.63855,37.4676,69.7012,-39.9736,-23.2985,-16.8685,-77.268,7.98474,-11.7003,98.8207,-21.8853,10.897,-7.7911
-1.20189,14.5692,-8.18938,22.9603,-3.03551,-11.7808,-3.15028,1.42458,10.5049,-6.21373,2.06091,5.24827,-4.60714,0.681251,-0.382354,-18.0078,0.137874,-3.08892,10.9851,1.00391,-0.352815,6.25936,0.319422,0.488677,1.45113e-14,-7.15625e-15,-40.9237,39.6878,-97.0408,70.5022,28.7369,-25.2216,-38.2575,7.12502,1.29756,291.767,1.45113e-14,-7.15625e-15,-49.6788,-19.585,102.223,82.1588,4.50369,-34.7887,-45.1453,7.12502,-7.94085,-15.3145,-35.1344,8.75352,37.8483,68.2875,-39.3945,-23.5033,-17.1079,-80.5983,7.46703,-11.5556,95.5633,-21.5081,9.91726,-6.93889
-1.22271,14.5868,-7.68972,22.6767,-3.70377,-12.6825,-3.20479,1.90811,11.347,-6.01175,2.66689,5.165,-4.28561,0.961455,-0.923269,-16.935,-0.206057,-2.41711,9.65995,0.397579,-0.869539,5.67154,0.0307387,0.151055,-7.65321e-15,3.81667e-14,-39.63,41.1386,-97.9071,72.3321,25.8068,-21.9492,-39.3963,7.12502,4.45783,290.671,-7.65321e-15,3.81667e-14,-52.0847,-19.1272,101.934,83.8435,5.06997,-36.5666,-43.4109,7.12502,-9.6565,-13.6522,-31.3789,9.34601,38.5795,66.2484,-38.7053,-23.7057,-20.4995,-81.6441,7.99325,-11.0139,91.8727,-21.5862,9.28025,-9.4289
-1.26161,14.6222,-7.20965,22.7323,-4.44728,-13.016,-3.34833,2.35457,11.3468,-5.99823,3.22916,4.94497,-4.12091,1.24375,-1.14355,-17.442,-0.345715,-2.93999,10.1402,0.223407,0.0762634,5.90547,-0.00481385,0.519811,4.0403e-14,1.59028e-15,-38.4652,42.3638,-98.8272,73.3731,25.8885,-19.6271,-38.1757,7.12502,6.69979,291.95,4.0403e-14,1.59028e-15,-54.5647,-18.6654,101.505,85.7227,5.99652,-36.2595,-42.0753,7.12502,-9.36023,-12.3031,-28.3602,10.0714,38.7274,64.2124,-37.4698,-24.4005,-25.5069,-82.9186,8.47467,-11.1576,87.716,-21.7914,8.41992,-13.0055
-1.2954,14.6435,-6.67826,23.2888,-5.33085,-13.7533,-4.75705,3.01995,11.8488,-6.01002,3.86587,4.78444,-3.24168,1.57715,-1.5004,-17.2334,-0.611745,-3.3458,10.2301,-0.152154,0.82781,5.90625,-0.142959,0.787999,-2.29596e-14,-4.81059e-14,-37.6661,43.2717,-99.8671,74.4706,26.0089,-15.2103,-35.6482,7.12502,10.9619,294.658,-2.29596e-14,-4.81059e-14,-57.2093,-18.2749,101.147,87.655,7.13979,-36.0174,-40.8474,7.12502,-9.12655,-11.0649,-25.183,10.9031,38.9486,61.8415,-36.1176,-24.6868,-29.6048,-84.4441,9.3644,-11.1634,83.6528,-21.3414,7.07709,-13.8944
-1.3456,14.6403,-6.23306,23.5111,-5.74526,-13.1399,-4.68588,3.24589,10.6578,-6.38676,4.24037,4.43019,-3.67409,1.77586,-1.22691,-16.615,-0.971359,-3.54782,9.8874,-0.678533,1.298,5.70962,-0.367387,0.918887,1.31695e-14,4.6118e-14,-36.9279,43.9983,-100.88,75.4219,25.9511,10.5308,-47.8094,7.12502,35.6297,285.784,1.31695e-14,4.6118e-14,-59.7596,-18.2527,100.935,89.3795,8.50458,-36.1681,-40.9152,7.12502,-9.27197,-11.139,-22.4465,11.4639,38.175,59.73,-35.0046,-23.677,-31.4161,-85.7868,9.34682,-12.3746,79.0741,-18.6347,6.00158,-16.1917
-1.38123,14.6657,-5.73643,23.8624,-5.36315,-12.5495,-5.57161,3.3687,10.1156,-6.73005,4.31151,4.03021,-3.53339,1.8242,-1.30415,-15.619,-1.38152,-3.21499,9.19398,-1.29751,0.988827,5.339,-0.677778,0.712433,-1.04362e-14,-1.55052e-14,-36.3927,44.4431,-101.992,76.317,25.9614,-16.6741,-35.5087,7.12502,9.5498,294.728,-1.04362e-14,-1.55052e-14,-62.2886,-18.2743,100.586,91.138,9.62524,-35.5841,-41.0725,7.12502,-8.7085,-11.2722,-20.0632,11.0315,37.5791,57.4874,-32.9738,-22.9137,-34.1592,-86.6884,8.68229,-13.4617,74.4601,-15.0247,4.51156,-18.0667
-1.40666,14.7096,-5.20864,23.2695,-5.60585,-11.415,-6.1476,3.52679,9.13671,-6.66668,4.4569,3.43142,-3.13328,1.94276,-1.35212,-15.3113,-1.70781,-3.90138,9.628,-1.73957,2.02432,5.45042,-0.845672,1.11069,6.70898e-15,-3.49861e-14,-36.1222,44.6584,-103.148,77.3799,25.5456,-16.8027,-34.8756,7.12502,9.42574,295.355,6.70898e-15,-3.49861e-14,-64.7436,-18.2634,100.034,93.1598,10.3015,-34.5822,-40.3463,7.12502,-7.74155,-10.508,-16.4032,10.5495,36.2313,55.2081,-31.6318,-20.9855,-34.7898,-85.9543,8.11591,-15.1378,69.9644,-11.7464,2.14218,-14.2227
-1.43247,14.7686,-4.67563,22.4713,-5.44003,-10.4173,-6.69511,3.61139,8.43499,-6.42222,4.50125,2.90148,-2.56126,2.00841,-1.4748,-15.1447,-2.09929,-4.54336,9.88066,-2.25943,2.90898,5.5365,-1.05963,1.44708,1.66234e-14,-7.15625e-15,-35.7096,44.869,-104.067,78.5014,24.7807,-16.2486,-34.097,7.12502,9.96028,296.159,1.66234e-14,-7.15625e-15,-66.8472,-18.6281,99.5048,95.1256,10.4154,-33.7417,-39.2168,7.12502,-6.93019,-9.35027,-12.7111,9.69403,35.1897,52.9656,-28.1516,-19.1785,-36.9768,-84.8976,7.40972,-16.597,65.7719,-8.26771,-0.315754,-15.244
-1.4654,14.8317,-4.14645,21.4829,-4.95569,-9.77279,-6.58059,3.64924,8.01922,-6.38954,4.5759,2.47817,-2.57324,2.05376,-1.68727,-15.0289,-2.56106,-4.93649,10.51,-2.89912,3.51135,5.75582,-1.34376,1.6422,-1.08586e-14,-1.0138e-14,-35.8665,44.9265,-105.325,79.5613,24.6361,-15.9349,-33.6793,7.12502,10.2629,296.591,-1.08586e-14,-1.0138e-14,-69.0449,-19.4429,99.1314,96.826,10.0901,-32.9165,-38.4988,7.12502,-6.13358,-8.60764,-9.16696,8.86003,34.79,51.0671,-23.9027,-17.2097,-39.0524,-83.6108,6.8453,-17.8072,62.1198,-5.97165,-3.0798,-15.9077
-1.50542,14.896,-3.62555,20.4595,-4.48487,-9.18795,-6.68059,3.70498,7.52217,-6.22597,4.64551,2.08136,-2.33645,2.1109,-1.80871,-14.6917,-3.04222,-5.21474,11.0533,-3.60762,4.11882,5.91957,-1.65696,1.815,-4.72983e-14,-8.54774e-15,-35.9289,45.0663,-106.429,80.615,24.8913,-15.672,-33.5917,7.12502,10.5166,296.691,-4.72983e-14,-8.54774e-15,-70.7043,-20.6595,98.6846,98.2128,9.85527,-32.3393,-38.0322,7.12502,-5.57636,-8.12555,-5.9531,8.01794,34.5021,49.7053,-18.2657,-15.2422,-40.2666,-82.1897,6.56895,-19.2473,59.1229,-4.12701,-5.44017,-14.8956
-1.54183,14.9727,-3.09945,19.5362,-4.06493,-8.62599,-6.92581,3.75642,6.99884,-6.02574,4.69792,1.7218,-1.98882,2.16384,-1.8657,-14.3522,-3.5256,-5.52282,11.5162,-4.31651,4.70829,6.06433,-1.97223,1.98661,-7.0786e-15,7.8023e-15,-35.7524,45.3562,-107.299,81.6585,24.5665,-14.92,-33.3328,7.12502,11.2419,296.988,-7.0786e-15,7.8023e-15,-71.9218,-21.9503,98.2106,99.4029,9.67174,-31.9764,-37.1739,7.12502,-5.2259,-7.25837,-3.6224,7.10221,34.1608,49.2748,-12.802,-11.8831,-38.4118,-80.7367,6.46228,-20.8586,56.9506,-2.02655,-6.21896,-11.692
-1.57218,15.031,-2.57941,18.7578,-3.59896,-8.54136,-7.05816,3.84272,6.96828,-5.83122,4.7891,1.50093,-1.68692,2.22007,-2.05355,-14.2037,-3.90944,-5.69293,11.8695,-4.86839,5.01288,6.19316,-2.22449,2.05767,4.24933e-14,1.49089e-14,-35.1984,45.639,-107.806,82.6802,23.7912,-14.0511,-32.9037,7.12502,12.0798,297.465,4.24933e-14,1.49089e-14,-72.6323,-23.2788,97.6809,100.49,9.7113,-31.2883,-36.6682,7.12502,-4.56154,-6.73736,-2.34946,6.26445,34.1779,49.6542,-7.03326,-8.41487,-34.497,-79.5664,6.54244,-22.0096,55.6148,0.274503,-5.03873,-4.75927
-1.60213,15.058,-2.08171,18.0695,-2.95765,-9.15447,-7.03455,3.98884,7.65045,-5.62358,4.93888,1.42353,-1.41482,2.2871,-2.48913,-14.1878,-4.22762,-5.75527,12.144,-5.35456,5.37032,6.31703,-2.43313,2.13233,2.18912e-14,-4.27387e-15,-34.2226,45.7231,-107.88,83.6488,23.9107,-12.5502,-32.1535,7.12502,13.5268,298.306,2.18912e-14,-4.27387e-15,-72.7793,-24.9195,97.1512,101.379,10.1098,-30.5172,-36.4976,7.12502,-3.81693,-6.55207,-1.94733,5.32274,34.9444,51.0099,-2.80876,-6.96857,-35.3995,-78.2178,6.75661,-22.3218,55.3479,0.827297,-4.31297,-7.05575
-1.63488,15.0604,-1.59376,18.024,-2.18719,-10.1066,-7.7431,4.18177,8.5632,-5.51775,5.06195,1.4104,-0.835928,2.34738,-2.93669,-14.2921,-4.64502,-5.82977,12.4459,-5.99418,5.87219,6.48686,-2.70118,2.23616,-5.04043e-14,-5.1684e-15,-32.7117,45.6575,-107.555,84.3804,25.0371,-10.521,-31.148,7.12502,15.4818,299.452,-5.04043e-14,-5.1684e-15,-72.5167,-26.6436,96.5442,102.206,10.2206,-30.15,-36.3741,7.12502,-3.46231,-6.42247,-2.45054,4.20555,36.0595,53.1887,1.34602,-4.92214,-33.7953,-77.7958,7.01618,-22.2225,55.8166,1.91659,-3.39079,-3.9081
-1.65646,15.0413,-1.09349,17.5203,-1.67748,-11.0825,-6.9224,4.29438,9.52592,-6.0822,5.29455,1.36178,-1.78507,2.38227,-3.57755,-14.2396,-5.0422,-5.72493,13.5342,-6.65612,6.10927,6.87299,-2.98703,2.22182,-1.64122e-14,-2.22639e-14,-32.7217,45.2295,-108.559,84.8611,26.1877,-8.92669,-30.6377,7.12502,17.017,300.088,-1.64122e-14,-2.22639e-14,-72.6718,-28.3698,96.4541,102.493,9.91085,-30.0933,-36.5511,7.12502,-3.40758,-6.59862,-2.86877,2.85008,37.011,56.1688,1.2398,-5.40447,-39.9193,-76.798,7.34228,-21.8498,57.0669,1.61708,-3.56011,-1.60699
-1.68479,15.0123,-0.603475,17.1344,-0.816056,-11.9387,-6.9826,4.31382,10.392,-6.15961,5.277,1.33396,-1.77487,2.34373,-4.07944,-14.1755,-5.41214,-5.69973,13.8934,-7.26202,6.51705,7.03124,-3.23912,2.28221,4.75841e-15,-1.03368e-14,-31.5323,45.2832,-108.684,85.2078,27.1061,-7.74819,-31.174,7.12502,18.1511,299.653,4.75841e-15,-1.03368e-14,-71.6042,-30.2132,95.8927,102.867,9.43988,-29.6941,-36.345,7.12502,-3.02207,-6.3867,-4.28075,1.37241,38.0572,59.9442,2.24349,-5.33459,-34.7922,-75.7985,7.41694,-21.4826,58.7745,-0.131808,-3.4543,6.4497
-1.7226,14.9854,-0.11788,16.7049,0.117793,-12.607,-7.78069,4.28893,10.8679,-5.6725,5.07309,1.42854,-0.824007,2.29129,-4.18037,-14.1442,-5.80486,-5.88657,13.4921,-7.82698,7.03604,6.96278,-3.48119,2.41826,-9.25591e-15,-9.14409e-15,-29.2383,45.6539,-107.637,85.6482,27.9925,-6.58659,-31.7939,7.12502,19.2684,299.141,-9.25591e-15,-9.14409e-15,-68.8917,-32.0449,94.7798,103.242,8.33488,-29.338,-36.0643,7.12502,-2.67811,-6.10135,-6.36401,0.00284467,39.0394,64.1725,3.2214,-7.00421,-30.8138,-74.5598,7.35557,-21.0324,60.7915,-3.35897,-2.83605,12.2494
-1.74881,14.9409,0.345103,16.6462,0.508977,-13.2336,-9.08918,4.42023,11.1224,-5.00611,4.9912,1.62335,0.589817,2.33679,-4.00297,-14.1335,-6.10258,-6.02074,12.7581,-8.20367,7.30545,6.76823,-3.65669,2.48728,-2.08724e-15,-2.06736e-14,-26.2794,46.1371,-105.771,85.9942,28.237,-5.6897,-31.661,7.12502,20.1306,299.362,-2.08724e-15,-2.06736e-14,-65.1705,-33.7361,93.5289,103.543,7.57489,-28.7907,-35.4662,7.12502,-2.1496,-5.49726,-9.52061,-0.711957,39.7601,68.9171,2.94981,-9.31274,-34.2742,-73.6809,7.2934,-20.393,62.9992,-6.99349,-1.96262,9.72746
-1.76855,14.9384,0.796337,16.649,1.21982,-13.6037,-9.48492,4.32095,11.5543,-4.80721,4.75329,1.50348,1.01959,2.23829,-4.35959,-14.1676,-6.26946,-5.81498,12.2563,-8.4755,7.52745,6.63401,-3.76633,2.49686,-3.65764e-14,-1.98785e-15,-23.7354,46.2884,-104.663,86.1092,28.0049,-4.94863,-31.3884,7.12502,20.8428,299.711,-3.65764e-14,-1.98785e-15,-61.4267,-35.6395,91.9754,103.847,7.10462,-28.73,-34.8777,7.12502,-2.09091,-4.90823,-13.1489,-1.70039,40.2536,73.6142,2.42939,-10.5858,-31.0894,-73.4528,6.46748,-19.3292,65.2393,-9.18255,-0.344209,9.42496
-1.78882,14.9328,1.19899,16.6117,2.12041,-13.5301,-8.96351,4.00719,11.5762,-4.80133,4.41663,1.31382,0.701527,2.05408,-4.64819,-14.0806,-6.43736,-5.64233,11.4637,-8.72363,7.7486,6.38688,-3.87611,2.5196,2.05245e-14,-2.38542e-15,-21.1453,46.4046,-103.407,86.0729,27.8891,-4.59125,-31.4364,7.12502,21.1861,299.701,2.05245e-14,-2.38542e-15,-56.8786,-37.6962,90.2501,103.914,7.02091,-29.0295,-34.7161,7.12502,-2.38017,-4.74964,-17.4834,-2.70781,40.4369,78.54,1.71811,-11.9304,-30.4652,-73.3579,5.08357,-18.4496,67.5927,-10.8237,0.65025,11.384
-1.82083,14.9005,1.58241,16.2824,2.93983,-12.7879,-8.0867,3.54854,10.6563,-4.66969,3.99358,1.11376,0.255622,1.83986,-4.44813,-13.7233,-6.56406,-5.63505,10.3384,-8.87496,8.03175,5.99454,-3.95698,2.60965,2.36057e-14,-1.51076e-14,-18.5773,46.481,-101.902,86.0022,27.8124,-4.95258,-31.6173,7.12502,20.839,299.482,2.36057e-14,-1.51076e-14,-51.5867,-39.7333,88.4006,103.949,7.08162,-28.8835,-34.469,7.12502,-2.23917,-4.50104,-22.0786,-3.54668,39.9953,83.5153,1.08908,-13.1379,-27.1392,-72.8693,3.4644,-18.2194,69.8057,-12.4539,1.36262,12.0817
-1.86913,14.8293,1.93608,15.2424,3.92028,-11.0829,-6.23423,2.74489,8.53916,-4.32328,3.25317,0.85649,-0.591828,1.48,-3.69564,-13.4062,-6.636,-5.87334,9.17895,-8.91049,8.41867,5.60988,-3.98523,2.78352,-2.7482e-14,-7.95139e-15,-16.1253,46.6431,-100.293,86.1103,27.245,-5.11439,-31.5309,7.12502,20.6835,299.551,-2.7482e-14,-7.95139e-15,-45.5827,-41.5623,86.2161,104.09,6.75431,-28.4967,-33.9491,7.12502,-1.86563,-3.97752,-26.6264,-4.87171,38.4939,88.6643,-0.881158,-14.3175,-23.5489,-71.2945,1.42278,-19.0868,71.4744,-14.0344,2.2541,11.2047
-1.91628,14.8164,2.32869,13.4479,3.72026,-8.57094,-3.99862,2.19583,5.35848,-3.50077,2.79334,0.36632,-1.13468,1.3054,-2.53419,-13.5672,-6.67652,-6.17546,8.41704,-8.91062,8.92361,5.43786,-3.97091,2.99173,-1.14301e-14,-1.82882e-14,-13.4266,46.9357,-98.3545,86.4366,26.2691,-5.31741,-31.9514,7.12502,20.4884,299.11,-1.14301e-14,-1.82882e-14,-38.5523,-43.2099,83.2165,104.129,5.93841,-28.3298,-33.9162,7.12502,-1.70441,-3.94322,-30.0282,-5.40388,35.5326,93.1144,-3.6866,-15.7772,-23.4063,-67.7187,0.513954,-21.2556,72.2873,-16.029,3.29003,10.0537
-1.98659,14.8307,2.66954,12.8819,5.60218,-5.68019,-2.53397,1.08973,1.96414,-2.83965,1.42957,-0.177418,-1.43962,0.680631,-1.26394,-14.4515,-6.70815,-6.32548,8.00102,-8.92484,9.51376,5.49294,-3.92543,3.17981,-1.68967e-14,7.95139e-16,-9.6819,47.2286,-95.4353,86.8861,25.3942,-6.14632,-32.7636,7.12502,19.6917,298.214,-1.68967e-14,7.95139e-16,-30.1026,-44.5858,78.8855,103.997,4.83133,-28.0794,-34.7108,7.12502,-1.46261,-4.73608,-35.3234,-7.29601,32.7685,97.0527,-5.47065,-17.1131,-22.0393,-65.2655,-1.88383,-23.6884,72.2466,-17.3683,3.72254,7.72274
-2.05426,14.8475,3.03233,12.3571,6.36783,-3.47083,-1.50208,0.43419,-0.911765,-2.40402,0.57673,-0.659102,-1.62273,0.298536,-0.164043,-13.6406,-6.49812,-6.56287,7.1631,-8.67342,10.3731,5.13387,-3.7963,3.53978,3.57812e-15,2.70347e-14,-6.97382,47.3075,-93.1552,87.5918,25.0388,-7.58533,-33.1453,7.12502,18.3078,297.696,3.57812e-15,2.70347e-14,-22.5695,-45.5798,74.5371,104.41,2.91128,-27.1099,-33.0007,7.12502,-0.526207,-3.02158,-40.4868,-7.83287,30.2754,100.244,-6.189,-17.9534,-21.2744,-62.6596,-2.70937,-25.7625,71.9764,-18.7878,3.94171,6.11885
-2.10252,14.889,3.37685,12.1837,6.53288,-1.2389,0.647716,-0.0191837,-3.67134,-2.90668,-0.147379,-1.21689,-3.34989,0.0094251,0.808958,-12.5332,-6.11311,-6.80316,7.09857,-8.24058,11.0621,4.93766,-3.58664,3.86433,9.0447e-15,-1.35174e-14,-5.73028,47.3918,-91.7236,88.482,25.288,-9.64556,-34.6218,7.12502,16.3249,296.045,9.0447e-15,-1.35174e-14,-16.5521,-46.3407,70.8474,104.819,0.996151,-25.6071,-32.2314,7.12502,0.925178,-2.25367,-46.0796,-7.62296,27.3077,102.626,-7.02839,-18.7202,-20.2256,-60.155,-2.83835,-28.1044,71.4336,-20.1295,4.13064,5.80153
-2.1494,14.9194,3.72099,11.9366,6.45701,0.914911,1.37976,-0.372605,-6.32725,-2.21437,-0.725646,-1.83529,-3.01106,-0.237576,1.6777,-13.0011,-5.85345,-6.6133,6.8947,-7.93328,11.5166,4.93963,-3.3936,3.99777,-2.8128e-14,1.66979e-14,-1.0583,47.1524,-87.6439,89.1219,25.6341,-11.7747,-37.3882,7.12502,14.2741,293.122,-2.8128e-14,1.66979e-14,-7.59301,-45.9136,64.812,104.901,-1.03944,-23.1872,-30.314,7.12502,3.26228,-0.359233,-51.7036,-6.74173,24.2584,104.315,-6.57874,-19.1923,-20.7008,-57.6197,-2.57495,-30.3868,71.0255,-21.6396,4.23861,5.53895
-2.15777,15.0271,4.08157,12.0928,6.81189,-0.821072,1.793,-0.680948,-4.65629,-2.31961,-1.10913,-1.41344,-3.33896,-0.454279,1.20254,-13.1712,-5.59991,-6.37685,7.21956,-7.65689,11.5359,5.03436,-3.23749,3.98861,-5.05907e-14,-4.69132e-14,2.11403,46.2277,-84.483,89.7536,25.9485,-14.1376,-39.0591,7.12502,11.9964,291.305,-5.05907e-14,-4.69132e-14,-0.396628,-44.9753,60.0575,104.842,-3.41653,-20.2446,-26.8405,7.12502,6.10369,3.05157,-56.985,-4.44202,25.4586,103.919,-5.09069,-20.4994,-15.9662,-56.2637,-1.86806,-28.3741,70.7264,-23.0862,3.90752,5.85288
-2.17712,15.0668,4.42079,12.2567,6.93656,-2.21965,2.75559,-0.962603,-3.41352,-2.65214,-1.48763,-1.05436,-4.22569,-0.652091,0.917962,-13.3059,-5.31316,-6.12559,7.69707,-7.3385,11.4173,5.16029,-3.06603,3.93853,1.49089e-14,-4.77083e-15,4.93747,44.9807,-81.5604,90.33,25.5961,-16.8636,-39.4473,7.12502,9.36698,290.781,1.49089e-14,-4.77083e-15,6.41344,-43.8207,55.5843,104.421,-5.32799,-17.4679,-22.9352,7.12502,8.7838,6.86201,-62.615,-2.01544,25.9096,103.352,-4.97577,-21.4157,-17.7424,-55.2014,-0.966379,-26.7224,70.6353,-24.3991,3.64873,5.41802
-2.20626,15.2021,4.77948,12.2095,6.83991,-1.57104,3.90473,-1.31666,-4.49585,-2.71993,-2.08756,-1.18177,-4.89763,-0.902706,1.4603,-13.71,-5.06217,-5.78165,8.27128,-7.07348,11.2037,5.36031,-2.91244,3.83408,-9.54166e-15,-3.97569e-15,8.23958,43.8544,-78.2941,90.8094,24.3024,-19.3157,-40.4453,7.12502,7.0004,289.69,-9.54166e-15,-3.97569e-15,13.2605,-42.3063,51.0849,103.583,-6.21744,-15.8934,-21.6151,7.12502,10.303,8.11257,-67.2127,-0.374228,23.6227,101.843,-5.0276,-21.368,-16.25,-52.5846,-0.254478,-27.2397,69.6037,-25.8818,3.51148,5.42845
-2.2201,15.3259,5.14232,12.6912,6.88647,-2.20037,4.13726,-1.66902,-4.1012,-2.77911,-2.53965,-0.962765,-5.07142,-1.13207,1.51065,-16.1487,-5.20726,-4.24512,10.6181,-7.41883,9.06896,6.38494,-3.04611,2.82341,1.15295e-14,1.03368e-14,11.868,42.5483,-74.7041,91.2332,22.4521,-20.7998,-42.3491,7.12502,5.5676,287.744,1.15295e-14,1.03368e-14,19.6732,-40.3134,46.9869,102.229,-6.21937,-15.6848,-22.5661,7.12502,10.5042,7.15147,-72.0287,1.42946,22.5247,99.6336,-1.89376,-21.2748,-16.307,-51.0362,0.343982,-26.3203,68.5458,-26.8221,3.13738,6.81129
-2.21303,15.488,5.50825,13.8939,7.19679,-3.50475,3.41385,-2.02818,-2.75077,-2.95005,-2.89231,-0.52596,-4.85705,-1.34993,1.21189,-17.012,-5.04024,-3.82592,11.0167,-7.24114,8.68689,6.6134,-2.94014,2.63791,-6.12257e-14,3.97569e-15,14.669,40.5774,-71.4992,91.2609,19.9843,-21.4321,-43.6898,7.12502,4.95716,286.388,-6.12257e-14,3.97569e-15,25.5803,-38.127,43.3883,100.553,-5.51507,-15.1909,-22.668,7.12502,10.9806,7.0248,-77.4547,2.87004,21.7356,96.7238,-3.98041,-21.8044,-18.5652,-50.0878,0.540533,-24.6251,66.9005,-27.0819,2.91044,7.15912
-2.2199,15.69,5.88602,15.1599,7.30172,-4.11139,2.44286,-2.27483,-2.5466,-3.10561,-3.16576,-0.114839,-4.44352,-1.49218,1.50073,-17.1946,-4.81131,-3.87966,10.7436,-6.93162,8.94276,6.54914,-2.77404,2.76273,1.21259e-14,1.35174e-14,17.6012,38.5827,-67.9251,91.044,15.781,-21.5667,-45.5842,7.12502,4.82715,284.491,1.21259e-14,1.35174e-14,30.9403,-35.9401,40.3454,98.7679,-4.05132,-13.8292,-22.0104,7.12502,12.2938,7.60823,-82.4025,3.97373,20.3288,93.3885,-1.00673,-21.1261,-13.3758,-48.7013,0.530157,-23.5892,64.6292,-27.119,3.17365,6.18648
-2.24552,15.9003,6.26817,16.0732,7.14183,-4.13747,1.79563,-2.41268,-3.45444,-3.15415,-3.3501,0.328206,-4.0444,-1.55489,2.44197,-16.7251,-4.61753,-4.35832,9.71014,-6.58864,9.64872,6.16268,-2.61046,3.11352,1.78906e-14,-1.74931e-14,20.6917,36.5476,-64.1006,90.6352,10.4389,-21.5741,-47.3931,7.12502,4.82005,282.682,1.78906e-14,-1.74931e-14,35.7272,-33.8168,37.7939,96.9588,-2.56033,-12.591,-23.254,7.12502,13.4874,6.28931,-86.6491,4.97561,18.1647,89.7504,-0.727405,-20.9852,-12.5138,-46.5821,0.349611,-23.0999,61.7711,-26.8763,4.09103,3.08737
-2.2369,16.1712,6.66546,16.59,7.62774,-5.21423,1.30379,-2.70468,-2.58437,-3.09044,-3.67146,0.967844,-3.68839,-1.74076,2.60095,-15.4556,-4.26676,-5.70799,7.47831,-5.9337,11.6905,5.32159,-2.28688,4.06963,-7.95139e-15,-2.38542e-15,24.2475,34.7391,-59.8675,90.148,5.02164,-21.8298,-48.9241,7.12502,4.57313,281.145,-7.95139e-15,-2.38542e-15,39.9171,-31.5992,35.3429,95.512,-1.15217,-10.2066,-27.4155,7.12502,15.7847,1.96087,-89.741,5.33974,17.1972,85.5742,0.115786,-20.8133,-12.6417,-43.7146,-0.519702,-21.3885,58.3021,-26.1319,5.49017,-1.28935
-2.22114,16.4341,7.04493,16.7056,8.13469,-5.76904,1.48194,-3.08302,-2.14208,-2.77845,-4.14858,1.49574,-3.42756,-1.99249,2.91391,-16.4198,-4.05466,-5.45639,7.31466,-5.60695,11.3353,5.37983,-2.11753,3.93911,7.95139e-16,8.74653e-15,27.4027,32.5115,-56.2798,89.3302,1.60234,-22.0683,-49.9655,7.12502,4.34286,280.099,7.95139e-16,8.74653e-15,42.8205,-28.8089,33.5694,93.8085,0.655331,-8.37544,-22.4725,7.12502,17.5476,6.75559,-91.9667,5.15867,16.3845,81.8232,1.15018,-20.5729,-15.8827,-40.276,-2.26836,-20.1927,54.49,-24.505,7.39186,-4.46611
-2.2118,16.7021,7.42436,16.6138,8.359,-5.92959,2.45645,-3.39156,-2.31757,-2.71763,-4.57021,1.97483,-3.83685,-2.18375,3.58621,-17.1358,-3.88705,-5.42911,7.31709,-5.34348,11.1839,5.46837,-1.97665,3.90865,-4.57205e-15,2.70347e-14,29.683,30.4714,-53.2309,88.2053,0.420505,-22.0061,-50.8151,7.12502,4.40288,279.251,-4.57205e-15,2.70347e-14,45.188,-26.3358,32.004,92.0234,2.2044,-8.06948,-26.5229,7.12502,17.842,2.6786,-94.0545,5.12969,14.9145,78.1439,1.74734,-19.8003,-15.4214,-36.3604,-4.48528,-19.4619,50.3324,-22.3408,9.55863,-6.71251
-2.17784,17.0362,7.84435,16.7316,9.41081,-8.94466,2.45028,-3.72875,0.795754,-2.97515,-4.8319,3.2682,-4.22605,-2.3805,3.22103,-17.45,-3.68775,-5.49234,7.54671,-5.04318,10.9823,5.55953,-1.83186,3.88538,-9.97899e-14,1.11319e-14,31.3185,28.7678,-50.4499,86.9279,0.89188,-21.2689,-51.0776,7.12502,5.11468,279.004,-9.97899e-14,1.11319e-14,46.7957,-24.4997,30.5595,89.7798,2.56599,-8.36388,-28.915,7.12502,17.5587,0.312101,-95.7978,5.08364,17.3188,74.7174,1.86938,-18.9746,-12.2545,-33.1075,-6.5769,-15.5184,46.1148,-19.4466,10.6256,-5.0822
-2.14978,17.335,8.2643,17.053,9.53475,-9.54817,2.63484,-3.92757,1.28062,-3.28038,-5.03767,3.88314,-4.6286,-2.48405,3.63494,-17.7005,-3.42608,-5.33084,7.93641,-4.68903,10.5057,5.67255,-1.67324,3.74366,1.64991e-14,3.81667e-14,32.7209,26.305,-48.1627,85.1374,5.24439,-14.7104,-50.6269,7.12502,11.4441,279.705,1.64991e-14,3.81667e-14,47.9897,-22.9165,29.1259,87.6042,3.10715,-7.90606,-29.1486,7.12502,17.9992,0.0385234,-97.8552,4.82194,17.3466,71.8289,3.79378,-17.4645,-11.7551,-29.7047,-8.87488,-14.4879,41.8165,-15.6419,12.3201,-8.83417
-2.12113,17.6435,8.67253,17.5254,9.45226,-9.98612,2.57822,-4.03749,1.64777,-3.51572,-5.14049,4.3941,-4.82554,-2.53712,3.97973,-17.9315,-3.10616,-5.06628,8.16402,-4.26016,9.9834,5.72497,-1.48393,3.57773,7.45443e-15,2.54444e-14,34.297,25.2408,-44.7428,83.4801,5.18048,-17.3013,-49.0905,7.12502,8.94463,281.119,7.45443e-15,2.54444e-14,49.2288,-21.1424,27.6356,85.4705,4.65826,-5.07861,-24.4944,7.12502,20.7179,4.41968,-99.893,4.68457,17.3521,69.2067,6.51305,-15.906,-12.9533,-26.7923,-10.897,-13.8463,37.8478,-11.4424,13.8749,-14.2831
-2.0797,17.9597,9.08577,17.8227,9.35386,-10.7121,2.46142,-4.09592,2.53585,-3.5697,-5.15677,4.87955,-4.8526,-2.56802,3.99021,-18.416,-2.75565,-4.85698,8.48144,-3.79428,9.59916,5.85286,-1.26077,3.47016,2.8128e-14,1.27222e-14,35.7757,23.7614,-41.6008,81.5855,5.87927,-17.0034,-48.5419,7.12502,9.2321,281.68,2.8128e-14,1.27222e-14,50.5465,-19.2218,25.9249,82.8748,5.96948,-3.15396,-21.2822,7.12502,22.5662,7.41896,-101.554,4.57659,18.047,66.9579,8.16036,-14.8154,-13.0706,-24.01,-12.5203,-13.2019,34.3766,-6.48348,15.4613,-20.2926
-2.0326,18.2643,9.51442,18.1239,9.2716,-11.5668,2.42104,-4.15472,3.75118,-3.76328,-5.14438,5.37191,-5.10251,-2.59548,3.84565,-19.3156,-2.43301,-4.68233,9.47367,-3.37624,9.09509,6.2675,-1.05122,3.3312,-4.21423e-14,7.11649e-14,37.1598,22.4355,-38.5699,79.3059,6.38957,-16.0303,-47.7742,7.12502,10.1709,282.492,-4.21423e-14,7.11649e-14,51.4797,-17.6617,24.1194,79.8269,6.86572,-4.26593,-23.3519,7.12502,21.4986,5.47502,-103.107,4.51135,19.1448,65.0734,9.63029,-13.8008,-13.3174,-21.8239,-14.3859,-12.4507,31.7437,-1.48891,17.6647,-20.8545
-1.99042,18.5789,9.93864,18.6166,9.21538,-12.14,2.39524,-4.23465,4.79987,-4.27532,-5.14762,5.76931,-5.69336,-2.63091,3.7245,-19.8379,-2.16459,-4.39719,10.6903,-3.03453,8.30154,6.69699,-0.910484,3.07473,-2.08724e-14,-2.14687e-14,38.2151,21.5773,-35.6231,76.6709,6.29299,-16.2712,-46.5835,7.12502,9.93848,283.671,-2.08724e-14,-2.14687e-14,51.9732,-16.6667,22.159,76.5805,8.01943,-6.31735,-25.6889,7.12502,19.5273,3.35046,-104.651,4.42435,19.8911,63.3933,11.4087,-12.5334,-14.4672,-20.4699,-18.0772,-11.638,29.8473,0.238655,22.863,-7.28679
-1.95494,18.8745,10.3678,19.3164,9.13373,-12.197,2.07068,-4.23861,5.38389,-4.89523,-5.10027,5.91864,-6.21117,-2.63418,3.5782,-19.5095,-1.94275,-3.92347,11.4517,-2.78054,7.45271,6.84907,-0.838919,2.75356,6.42074e-14,-5.32743e-14,38.6251,20.8473,-32.939,74.0951,5.74031,-17.2842,-45.7374,7.12502,8.96113,284.473,6.42074e-14,-5.32743e-14,52.6229,-16.0989,19.7977,72.9811,9.23067,-9.79148,-28.2308,7.12502,16.1844,1.11351,-106.383,4.21485,19.9998,61.9662,13.005,-11.5933,-14.5413,-19.4485,-25.4426,-11.0376,28.4588,-18.8494,27.2386,34.5431
-1.9343,19.1371,10.8025,20.3627,9.1113,-11.8617,1.3471,-4.2633,5.54322,-5.48091,-5.14826,6.01156,-6.42757,-2.66998,3.5722,-19.5239,-1.75421,-3.54728,12.2412,-2.53969,6.67256,7.0753,-0.766397,2.46974,3.97569e-16,9.93923e-15,39.075,20.1045,-30.3487,71.6299,4.74476,-18.6994,-45.6481,7.12502,7.59532,284.508,3.97569e-16,9.93923e-15,53.257,-15.5653,17.2137,68.7762,10.4453,-15.3909,-33.5889,7.12502,10.7877,-3.88592,-108.461,3.87975,19.6045,60.6309,14.4212,-11.3622,-13.3534,-18.551,-36.8526,-10.5976,27.1067,-42.5005,19.0638,51.0157
-1.89089,19.4277,11.1952,20.8055,10.06,-11.8511,1.48837,-4.6506,6.84885,-5.87546,-5.54172,6.24518,-7.0484,-2.92934,3.1947,-20.421,-1.6008,-3.40563,13.2408,-2.24809,5.81892,7.52228,-0.675558,2.20795,-5.63058e-14,2.0276e-14,39.9904,19.2028,-27.7182,69.1065,3.52784,-19.7085,-45.5497,7.12502,6.62118,284.574,-5.63058e-14,2.0276e-14,53.0882,-14.7622,15.0067,64.3255,12.9344,-20.2144,-36.8848,7.12502,6.13279,-6.99355,-109.637,2.63767,20.1716,59.3453,15.4979,-11.0608,-12.8689,-16.6095,-33.3138,-11.255,25.4554,-35.7543,30.1404,46.7028
-1.86433,19.7023,11.5944,21.4404,10.6648,-11.2955,1.30826,-4.85734,7.32463,-6.23675,-5.77779,6.35154,-7.38138,-3.07488,3.08856,-20.6823,-1.57626,-3.36766,13.5162,-2.06325,4.91152,7.63452,-0.669716,1.92405,5.27773e-14,-2.46493e-14,40.3516,18.0279,-25.2186,66.7787,2.24452,-19.9752,-44.597,7.12502,6.36374,285.519,5.27773e-14,-2.46493e-14,53.4543,-14.1999,12.4579,60.9945,13.7661,-24.3774,-37.1449,7.12502,2.11285,-7.17559,-110.83,1.59574,19.755,58.036,16.6692,-11.2504,-12.4807,-13.9929,-21.5894,-13.1243,23.4172,-9.63208,37.3859,37.1504
-1.83062,19.955,12.0135,21.8039,11.3689,-10.5628,0.888342,-5.00798,7.75564,-6.39419,-5.99265,6.33369,-7.36472,-3.20783,2.82871,-20.4238,-1.65179,-3.48582,13.3172,-2.00398,4.21669,7.51443,-0.721312,1.71766,1.42566e-14,-7.09413e-14,40.039,16.6675,-23.0061,64.8649,1.09663,-19.8422,-43.4258,7.12502,6.49212,286.694,1.42566e-14,-7.09413e-14,53.5727,-13.5671,10.8294,56.9566,12.465,-27.6032,-38.3019,7.12502,-1.00269,-8.32446,-111.69,0.298962,19.297,56.8515,17.817,-11.3993,-11.9358,-10.9937,-14.6739,-14.6847,21.2548,10.4612,34.805,24.9311
-1.8028,20.2007,12.4336,21.9184,12.2762,-9.87953,0.528011,-5.18986,8.24865,-6.41364,-6.25383,6.29982,-7.24745,-3.36391,2.51604,-20.5501,-1.77062,-3.80549,13.4221,-2.0063,3.85842,7.56887,-0.773413,1.65025,-1.42628e-14,-3.77194e-14,39.4846,15.2283,-20.9656,63.049,0.297451,-19.1129,-42.2232,7.12502,7.19616,287.919,-1.42628e-14,-3.77194e-14,53.5956,-12.777,9.60516,53.1363,10.3921,-29.6609,-39.3957,7.12502,-2.98994,-9.43694,-112.1,-1.11851,18.6947,55.6219,19.0736,-11.4725,-11.8031,-7.97585,-9.87995,-15.7171,19.3183,22.2217,27.7849,14.6596
-1.79402,20.4325,12.8618,22.1352,12.9657,-9.24219,-0.00234924,-5.24255,8.44051,-6.49258,-6.37503,6.27329,-7.05693,-3.4348,2.34399,-20.437,-1.93249,-4.40759,13.5508,-2.05991,3.85789,7.60105,-0.832413,1.74181,-3.71727e-14,-1.92821e-14,38.7921,14.393,-18.3072,63.3741,2.41918,-8.47506,-44.4124,7.12502,17.4517,286.351,-3.71727e-14,-1.92821e-14,53.3771,-11.9535,9.0494,49.3791,8.08968,-30.0251,-39.9833,7.12502,-3.34169,-10.0297,-112.398,-2.18362,17.5303,54.3524,20.4217,-11.7248,-11.996,-5.29479,-6.58348,-16.4169,17.7272,28.0859,19.6818,6.59873
-1.78216,20.6554,13.3003,22.2065,13.6873,-8.85623,-0.624797,-5.28247,8.90035,-6.50012,-6.48753,6.27899,-6.76876,-3.51127,2.04586,-20.228,-2.024,-4.99938,13.6971,-2.04928,3.97558,7.62184,-0.850006,1.87956,7.45443e-14,-1.19271e-15,36.916,12.9961,-16.8729,60.0001,-0.921821,-17.8894,-40.5869,7.12502,8.37705,289.599,7.45443e-14,-1.19271e-15,52.8466,-11.1187,8.64603,45.8783,6.60433,-29.1682,-38.6188,7.12502,-2.51416,-8.65382,-112.373,-3.19237,16.6436,53.0288,21.5572,-12.0015,-12.0978,-3.07177,-4.82684,-16.6969,16.635,30.5935,10.3873,-6.16503
-1.75961,20.8576,13.7437,21.7913,14.7871,-8.38214,-0.996267,-5.50664,9.56415,-6.33664,-6.82952,6.22639,-6.48907,-3.70656,1.60883,-20.1439,-2.04028,-5.32836,14.1346,-1.96182,3.81544,7.75078,-0.844976,1.89291,-4.34841e-14,-1.07344e-14,35.6553,11.4969,-15.7768,57.6965,-0.285325,-18.0651,-41.6653,7.12502,8.20749,288.514,-4.34841e-14,-1.07344e-14,51.9851,-10.5457,7.94349,42.8522,6.92123,-28.1093,-34.6355,7.12502,-1.49144,-4.66094,-111.811,-4.68065,16.3066,51.7981,22.5641,-11.8718,-12.6634,-0.410707,-4.10354,-16.9303,16.0258,31.1098,4.44531,-8.83453
-1.76443,21.0341,14.2073,21.3728,15.3555,-7.93136,-1.6201,-5.61801,9.61703,-6.20246,-7.07539,6.2042,-6.00847,-3.81972,1.48561,-19.5447,-2.05336,-5.76272,14.7191,-1.8732,3.6612,7.84298,-0.852218,1.92755,-3.39425e-14,-1.07344e-14,34.8411,10.3963,-14.7442,55.0674,0.0574882,-19.681,-44.8842,7.12502,6.64774,285.24,-3.39425e-14,-1.07344e-14,50.7159,-10.1901,7.598,40.2637,8.54627,-29.5513,-36.4164,7.12502,-2.88416,-6.45619,-111.098,-5.44394,15.5985,50.513,23.5861,-12.5186,-12.9676,2.20547,-3.94901,-17.2462,15.8409,30.9913,1.63182,-8.54714
-1.76488,21.1975,14.6646,21.1327,15.7315,-7.28342,-2.11781,-5.74672,9.61368,-6.38653,-7.30515,6.03031,-5.95733,-3.94199,1.27884,-18.5989,-1.97634,-6.36167,15.5584,-1.70629,3.80751,7.95996,-0.809107,2.10255,9.24349e-15,7.95139e-15,33.9795,10.2725,-13.3896,52.9639,-0.487144,-20.148,-45.3626,7.12502,6.1969,284.748,9.24349e-15,7.95139e-15,49.0326,-10.1368,7.64965,38.1389,9.54034,-28.6608,-35.1936,7.12502,-2.02413,-5.22344,-110.472,-6.17266,15.2107,49.2362,24.4383,-13.2574,-13.0626,4.63665,-3.93951,-17.8255,15.7636,30.7479,-0.23122,-8.76022
-1.76596,21.3457,15.1173,21.1224,16.0524,-6.42786,-2.54309,-5.90184,9.48191,-6.82228,-7.54333,5.76474,-6.21619,-4.07751,1.07834,-17.5979,-1.74246,-6.86214,16.5891,-1.37075,3.96278,8.11748,-0.685247,2.28774,5.11871e-15,4.53229e-14,32.8556,10.7993,-11.8668,50.903,-1.6622,-20.5847,-44.0981,7.12502,5.77536,286.001,5.11871e-15,4.53229e-14,46.8649,-10.3292,7.82993,36.6808,10.2096,-27.4512,-33.9064,7.12502,-0.85591,-3.92833,-109.942,-6.97017,14.8816,47.8984,25.7691,-13.0569,-15.3386,6.75488,-3.24523,-18.3636,15.877,30.9363,-1.36544,-8.79445
-1.77177,21.4734,15.5726,21.26,16.118,-4.90725,-2.98067,-6.08363,8.45116,-7.31742,-7.83219,5.38059,-6.41381,-4.19606,1.22621,-16.1586,-1.50775,-7.24763,17.3361,-1.06896,3.96049,8.09897,-0.589926,2.39346,6.80341e-14,5.00937e-14,31.6233,11.3633,-10.4787,48.817,-2.85047,-21.6891,-45.8308,7.12502,4.70901,284.242,6.80341e-14,5.00937e-14,44.1072,-10.8736,7.65381,36.1068,10.9727,-26.8454,-33.1579,7.12502,-0.270786,-3.17829,-109.405,-7.81079,13.9224,46.6681,27.0269,-12.4649,-17.3717,8.93076,-2.10365,-19.3863,16.1747,31.4279,-1.73658,-8.20748
-1.77935,21.5868,16.0329,21.4804,16.0966,-2.95951,-3.62414,-6.31375,6.84148,-7.62833,-8.22246,4.9525,-6.20755,-4.32427,1.58479,-14.8961,-1.38812,-7.68454,17.8051,-0.902848,3.94583,8.02431,-0.559732,2.48348,1.7344e-14,-5.32743e-14,33.0791,7.4618,-14.3638,42.0191,1.8987,-20.3384,-45.1145,7.12502,6.01307,284.991,1.7344e-14,-5.32743e-14,43.352,-8.73405,11.3951,31.9672,6.73299,-26.1734,-34.8018,7.12502,0.378266,-4.82244,-108.835,-8.74926,12.5799,45.6166,27.0901,-13.4698,-15.094,11.1596,-1.25947,-20.797,16.601,31.9856,-1.66643,-7.59203
-1.79041,21.6917,16.5,21.7672,16.1558,-1.04763,-4.46559,-6.51679,5.31017,-7.70634,-8.58397,4.4795,-5.6497,-4.43913,1.80102,-14.1993,-1.34028,-8.0188,18.0871,-0.816267,3.91984,7.99101,-0.554405,2.54196,-1.19271e-14,3.97569e-15,29.3398,9.79138,-9.9473,44.3775,-2.96266,-19.8264,-44.312,7.12502,6.50745,285.808,-1.19271e-14,3.97569e-15,40.0894,-9.70947,9.28347,33.2093,8.4775,-27.3756,-34.8623,7.12502,-0.782873,-4.88401,-108.276,-9.69927,11.256,44.8003,27.076,-14.269,-13.3438,13.2408,-0.512407,-22.0275,17.2861,32.6275,-1.49566,-7.54015
-1.80941,21.7826,16.9652,22.0311,16.022,0.888689,-4.93849,-6.61542,3.63726,-7.8993,-8.74711,3.92205,-5.41033,-4.45386,2.06275,-13.3971,-1.33593,-8.00131,18.2258,-0.843217,3.71319,7.8956,-0.594914,2.46737,-3.06625e-14,-1.66979e-14,27.43,8.9378,-9.56131,43.1557,-2.6796,-19.4494,-41.5029,7.12502,6.87137,288.629,-3.06625e-14,-1.66979e-14,37.6646,-9.93184,8.7269,33.1379,8.37271,-27.9463,-35.6985,7.12502,-1.334,-5.72288,-107.637,-10.4026,9.7016,44.1598,27.5386,-14.1581,-13.8335,15.0381,0.636788,-23.1152,18.7521,33.0623,-1.03633,-8.16027
-1.82783,21.8707,17.4198,22.0431,15.877,2.39716,-4.95151,-6.65802,2.32295,-8.10707,-8.79979,3.51303,-5.48157,-4.42379,2.35387,-12.7142,-1.38887,-7.91093,18.2634,-0.924244,3.36203,7.79085,-0.666701,2.32646,1.15295e-14,1.35174e-14,25.905,6.96156,-10.0609,41.3404,-0.747076,-19.5631,-40.8332,7.12502,6.76163,289.295,1.15295e-14,1.35174e-14,35.3432,-10.241,8.21774,32.772,8.33917,-28.0024,-36.2377,7.12502,-1.38824,-6.26251,-106.731,-10.8073,8.52167,43.6522,27.8594,-14.0463,-14.1349,16.4362,1.98712,-23.6188,21.3033,33.0448,-0.499831,-9.83927
-1.84886,21.9658,17.8764,21.9804,15.764,3.24213,-5.377,-6.65837,1.45628,-8.03246,-8.80864,3.3536,-5.0535,-4.39124,2.58255,-12.1602,-1.44813,-8.08164,17.9224,-0.993529,3.24735,7.58556,-0.719768,2.30589,2.15681e-14,2.22639e-14,24.3666,4.36019,-10.5974,40.1681,1.12646,-19.5413,-42.5722,7.12502,6.78268,287.556,2.15681e-14,2.22639e-14,32.8624,-10.5767,7.27994,32.8582,8.86959,-29.0636,-36.5105,7.12502,-2.41311,-6.54437,-105.66,-10.8,7.77484,43.2114,28.0077,-14.4863,-13.5793,17.1382,3.41609,-23.3692,24.7574,32.7467,-1.27172,-12.6011
-1.86784,22.0659,18.3415,21.8793,15.8301,3.66785,-6.05506,-6.68452,1.00716,-7.94735,-8.85152,3.27738,-4.52688,-4.39804,2.64236,-11.2822,-1.45046,-8.21787,17.4324,-1.04789,3.26079,7.27375,-0.750504,2.32324,1.83876e-15,-1.59028e-15,22.234,3.77726,-9.44895,40.1711,0.456268,-20.0001,-44.5571,7.12502,6.33972,285.558,1.83876e-15,-1.59028e-15,30.5986,-10.1849,7.15471,32.2322,8.16405,-29.7633,-36.7081,7.12502,-3.08885,-6.75069,-104.393,-10.675,7.19663,42.7812,28.292,-14.7448,-13.6061,17.2619,4.73741,-22.5638,28.702,32.3673,-3.67855,-15.7949
-1.88224,22.1701,18.8045,21.7922,16.2168,3.61229,-6.5924,-6.72539,1.28215,-8.02185,-8.91881,3.29787,-4.34547,-4.44621,2.45201,-10.795,-1.44862,-8.06555,17.4387,-1.07025,3.00883,7.18962,-0.777044,2.21381,2.48978e-14,3.97569e-15,20.3862,4.19988,-7.78564,39.4935,-0.945166,-20.4252,-44.3646,7.12502,5.92934,285.738,2.48978e-14,3.97569e-15,27.1684,-11.7535,5.19038,33.7509,9.72125,-29.5185,-35.5433,7.12502,-2.85249,-5.58265,-103.021,-10.598,7.12869,42.2844,28.5486,-14.7206,-14.0071,16.967,5.48923,-21.1666,33.1245,32.0825,-4.5421,-14.3077
-1.90704,22.2576,19.266,22.0254,16.5596,3.39926,-7.40335,-6.71681,1.6468,-8.13552,-8.92957,3.41247,-4.05684,-4.4683,2.27935,-10.9934,-1.4703,-8.1385,17.9155,-1.06557,2.98261,7.38097,-0.789681,2.22164,-6.0679e-14,-1.59028e-15,18.8634,4.07171,-6.59785,38.3026,-1.58927,-20.605,-43.9017,7.12502,5.75568,286.196,-6.0679e-14,-1.59028e-15,24.4407,-12.9421,3.71446,34.0254,10.8182,-29.4428,-35.375,7.12502,-2.77938,-5.41337,-101.851,-10.339,6.99029,41.7188,28.3845,-15.7201,-12.529,16.5971,5.70622,-19.6364,37.6096,31.2844,-2.06896,-9.0828
-1.93273,22.3373,19.729,22.3574,16.9175,3.21375,-8.41141,-6.73011,1.96665,-8.26975,-8.97887,3.52565,-3.67723,-4.50696,2.10359,-10.8706,-1.45165,-8.42516,18.1845,-1.04138,3.20617,7.44842,-0.783182,2.34786,5.91384e-15,-1.35174e-14,17.2696,4.10188,-5.46552,37.3721,-2.21599,-21.2225,-45.2454,7.12502,5.15948,284.837,5.91384e-15,-1.35174e-14,21.9248,-14.4802,2.2188,33.8722,12.2838,-29.7033,-35.2216,7.12502,-3.03094,-5.2634,-100.551,-10.0119,6.52735,41.0843,28.283,-16.8269,-11.4201,15.6598,6.37334,-18.0078,42.2052,30.9802,-3.07454,-10.1678
-1.94919,22.4028,20.1945,22.3102,17.5892,2.53845,-9.41084,-6.74293,2.95756,-8.27017,-9.07737,3.67976,-3.26431,-4.59568,1.60284,-10.0953,-1.3878,-8.66024,17.8972,-1.02694,3.44263,7.2176,-0.770692,2.4638,5.96354e-16,-2.38542e-14,15.6844,4.50745,-4.321,36.3914,-3.00927,-21.7125,-46.8726,7.12502,4.68634,283.199,5.96354e-16,-2.38542e-14,19.517,-14.9196,1.70144,33.0755,12.3943,-29.7069,-35.0756,7.12502,-3.03437,-5.11743,-98.8873,-9.68467,6.69066,40.403,28.4731,-17.1247,-11.7796,15.1022,6.84997,-15.7065,46.7786,30.4981,-3.23128,-9.86142
