JuanDHNZ/ProyectoFinalCD/preprocessing/sports_trials_csv/49_07.csv
root1,root2,root3,root4,root5,root6,lowerback1,lowerback2,lowerback3,upperback1,upperback2,upperback3,thorax1,thorax2,thorax3,lowerneck1,lowerneck2,lowerneck3,upperneck1,upperneck2,upperneck3,head1,head2,head3,rclavicle1,rclavicle2,rhumerus1,rhumerus2,rhumerus3,rradius1,rwrist1,rhand1,rhand2,rfingers1,rthumb1,rthumb2,lclavicle1,lclavicle2,lhumerus1,lhumerus2,lhumerus3,lradius1,lwrist1,lhand1,lhand2,lfingers1,lthumb1,lthumb2,rfemur1,rfemur2,rfemur3,rtibia1,rfoot1,rfoot2,rtoes1,lfemur1,lfemur2,lfemur3,ltibia1,lfoot1,lfoot2,ltoes1
-4.67849,16.5697,17.5525,177.369,-60.2277,-163.988,-6.71696,5.81359,1.03834,-6.60051,7.33086,-4.36892,-2.39392,3.4216,-4.72759,-11.2982,-8.18333,-16.0144,31.9991,-15.1733,15.4783,15.7453,-7.33933,6.5089,1.50579e-14,1.11319e-14,0.98276,-0.488593,-26.4044,62.7815,17.2118,-30.7189,-52.9709,7.12502,-4.01171,-82.9129,1.50579e-14,1.11319e-14,-46.4815,19.434,20.0457,34.0888,28.6109,-41.6908,-35.0113,7.12502,-14.5973,-5.54503,-27.4475,11.5897,14.0482,37.6928,-20.7035,-18.9825,-16.7878,-39.0407,-7.29012,-1.13753,47.6194,-26.705,-1.80795,-21.5
-4.71887,16.5592,17.5587,177.315,-58.8044,-164.054,-6.70437,6.03759,1.91053,-6.65182,7.60418,-4.13626,-2.35146,3.53557,-4.95023,-10.9026,-8.27771,-15.7514,31.7531,-15.4685,15.5128,15.5746,-7.46185,6.40868,3.60794e-14,3.33958e-14,1.01545,-0.30281,-26.4926,62.3556,16.898,-30.32,-52.7931,7.12502,-3.62646,-82.742,3.60794e-14,3.33958e-14,-46.8846,19.6081,18.718,34.1328,29.2341,-42.0307,-34.5644,7.12502,-14.9247,-5.12207,-27.3803,11.7804,14.1384,37.5466,-20.9555,-18.9402,-17.0923,-38.2058,-6.94375,-1.16074,47.7831,-27.1753,0.247617,-22.4736
-4.75874,16.556,17.5712,177.896,-57.5386,-164.873,-6.65155,6.10968,2.40085,-6.65383,7.687,-3.95413,-2.33703,3.56444,-5.02982,-10.5625,-8.35303,-15.7129,31.5734,-15.6677,15.5203,15.4484,-7.57095,6.36048,3.69739e-14,7.15625e-14,1.34857,0.0729895,-26.5831,61.8907,16.6419,-31.2915,-52.6386,7.12502,-4.56466,-82.5695,3.69739e-14,7.15625e-14,-47.5904,19.8968,17.2244,34.2475,29.9575,-42.1943,-34.2557,7.12502,-15.0823,-4.82514,-27.2933,11.8011,13.8177,37.4598,-20.8225,-19.4173,-18.4811,-37.3163,-6.86736,-1.6364,47.6933,-27.3101,1.60907,-22.6655
-4.79485,16.5582,17.5804,178.293,-56.3552,-165.623,-6.46323,6.1507,2.8009,-6.58685,7.74234,-3.74302,-2.34282,3.58647,-5.0421,-10.3703,-8.4636,-15.6652,31.6071,-15.871,15.3277,15.4354,-7.69371,6.22704,-6.44062e-14,-7.63333e-14,1.67672,0.241659,-26.7444,61.5001,16.6289,-32.1988,-52.9069,7.12502,-5.44071,-82.8171,-6.44062e-14,-7.63333e-14,-48.2502,20.1455,15.8604,34.4429,30.6416,-42.481,-34.014,7.12502,-15.3585,-4.60442,-27.0678,12.1612,13.5114,37.3507,-20.7202,-19.9605,-19.9301,-36.3603,-6.92185,-2.09724,47.5597,-27.3532,3.11175,-23.2692
-4.82969,16.5648,17.5993,178.55,-55.2735,-166.199,-6.25398,6.14863,3.22717,-6.46229,7.74857,-3.41711,-2.31739,3.58898,-4.95212,-10.2652,-8.57239,-15.8772,31.6656,-16.0258,15.217,15.4831,-7.8111,6.18588,1.70955e-14,-4.45278e-14,2.11377,0.431425,-26.7232,61.2178,16.5167,-32.0369,-53.2615,7.12502,-5.28435,-83.1756,1.70955e-14,-4.45278e-14,-48.6935,19.6294,14.9819,34.5917,32.011,-42.8247,-33.7561,7.12502,-15.6895,-4.37218,-26.8872,12.7398,13.1883,37.2577,-21.1672,-19.9855,-20.632,-35.4578,-7.28751,-2.43866,47.3315,-27.3363,4.87676,-23.8697
-4.86446,16.5737,17.6262,179.319,-54.3424,-167.358,-6.04543,6.07884,3.30558,-6.32923,7.67168,-3.20817,-2.31938,3.55736,-4.79836,-10.1255,-8.69317,-15.9588,31.6085,-16.2408,15.1727,15.4747,-7.9333,6.13359,4.6615e-14,0,2.55794,0.598606,-26.6101,60.8013,16.4128,-31.7292,-52.7155,7.12502,-4.98728,-82.6368,4.6615e-14,0,-49.5227,20.2768,13.7271,34.7378,31.8229,-42.9257,-33.6408,7.12502,-15.7868,-4.26456,-26.8263,13.0899,12.4038,37.2328,-21.8214,-19.4675,-20.4235,-34.6275,-7.86822,-3.19497,47.0477,-27.263,6.37448,-23.8955
-4.89521,16.5815,17.6353,180.174,-53.3404,-168.686,-5.80025,6.11257,3.04222,-6.24861,7.7379,-3.13529,-2.40608,3.60183,-4.59699,-9.81706,-8.87503,-15.7508,31.5206,-16.6264,15.0619,15.409,-8.11362,5.969,6.61953e-14,7.15625e-14,2.54684,0.506515,-26.5925,60.261,16.7206,-31.3269,-52.3352,7.12502,-4.59878,-82.2653,6.61953e-14,7.15625e-14,-49.7964,20.5222,12.5033,34.8316,31.8141,-42.86,-33.4654,7.12502,-15.7235,-4.08411,-26.7892,12.9729,11.6266,37.2462,-22.1983,-18.533,-20.2943,-33.7019,-8.08778,-4.10606,46.725,-27.3057,7.27629,-23.7315
-4.9241,16.5834,17.6317,180.877,-52.2727,-169.811,-5.63249,6.13912,2.59563,-6.22519,7.79181,-3.02274,-2.54072,3.64281,-4.25279,-9.37805,-8.96774,-15.2962,31.4552,-16.8953,14.7898,15.2445,-8.24214,5.72415,-9.93923e-14,-2.54444e-14,2.39941,0.68053,-26.745,59.8308,17.1557,-30.8617,-52.9635,7.12502,-4.14963,-82.9029,-9.93923e-14,-2.54444e-14,-50.0701,20.6817,11.1905,34.9231,31.6466,-42.8453,-32.8505,7.12502,-15.7093,-3.46816,-26.8592,11.8571,11.1572,37.3871,-22.2221,-17.2028,-21.3715,-32.7762,-7.99977,-4.90894,46.3818,-27.4329,7.5668,-23.5199
-4.95365,16.5896,17.6253,181.652,-51.2497,-170.96,-5.67552,5.70713,1.99564,-6.08856,7.24254,-2.55823,-2.55324,3.39797,-3.46716,-9.46101,-8.72012,-15.2842,31.7557,-16.441,14.3182,15.2405,-8.1031,5.61782,2.94201e-14,-1.59028e-15,3.69642,1.45716,-27.1607,59.1959,17.5745,-30.9413,-53.466,7.12502,-4.22645,-83.4038,2.94201e-14,-1.59028e-15,-52.0223,21.3079,9.14734,35.159,30.9103,-42.836,-31.9991,7.12502,-15.7004,-2.61606,-26.9107,13.1629,10.351,37.5302,-21.9946,-18.0618,-22.6033,-31.9309,-8.0067,-5.73319,46.0497,-27.6753,7.62968,-22.7888
-4.98007,16.5927,17.6192,182.965,-50.1758,-172.517,-5.88232,5.03285,1.27315,-5.98948,6.37056,-1.8451,-2.55416,2.99709,-2.36085,-9.77768,-8.29438,-16.6641,32.3419,-15.4775,14.0708,15.5016,-7.88285,5.96189,-2.94201e-14,-1.19271e-14,6.04439,2.68284,-27.3922,58.3522,17.6975,-31.8813,-53.4791,7.12502,-5.13416,-83.3969,-2.94201e-14,-1.19271e-14,-54.8188,21.5542,6.9837,35.2638,30.5809,-42.8735,-32.6467,7.12502,-15.7365,-3.26644,-27.3938,13.9009,9.17221,37.788,-21.8199,-18.2016,-23.5394,-31.3435,-8.15314,-6.81512,45.6699,-27.9363,7.84259,-21.8329
-5.00649,16.5966,17.6211,183.144,-49.2489,-172.81,-5.70619,5.19508,1.70166,-5.83849,6.59395,-1.52416,-2.47365,3.10842,-2.26428,-9.81715,-8.63414,-17.7047,32.4227,-15.8718,14.2464,15.7839,-8.15795,6.13813,-6.75868e-15,1.59028e-15,6.03106,2.54897,-26.9989,57.7448,17.3435,-33.2714,-54.8184,7.12502,-6.47621,-84.6994,-6.75868e-15,1.59028e-15,-54.5706,21.6752,6.70871,35.1162,30.5437,-43.1236,-33.9424,7.12502,-15.9774,-4.58131,-27.6391,14.1107,8.96912,37.9858,-21.5518,-18.2542,-24.506,-30.7173,-8.20123,-7.07638,45.324,-28.1088,7.99736,-21.3428
-5.04761,16.6033,17.6297,185.044,-48.4355,-174.977,-6.00911,5.11985,0.836339,-5.87666,6.49972,-1.80149,-2.41309,3.07839,-2.05385,-9.58032,-8.66934,-17.405,32.4524,-16.0871,14.1446,15.7438,-8.25469,6.00085,5.27773e-14,2.94201e-14,5.98435,2.81144,-27.3076,57.271,16.7585,-33.1155,-56.6597,7.12502,-6.32574,-86.5452,5.27773e-14,2.94201e-14,-54.2991,21.1049,6.03158,35.0776,31.0594,-43.4219,-33.9497,7.12502,-16.2646,-4.6119,-28.1545,13.1497,7.33986,38.2053,-21.5342,-17.6591,-25.982,-30.3509,-8.60379,-8.78363,44.938,-28.1554,8.67965,-21.294
-5.08798,16.6076,17.6197,185.969,-47.4589,-176.155,-6.25548,5.09444,0.351381,-5.80589,6.47951,-1.76908,-2.26122,3.08421,-1.73063,-9.32275,-8.75535,-17.4007,32.4915,-16.3061,14.028,15.7364,-8.38805,5.909,7.25067e-14,-1.11319e-14,6.02839,3.03469,-27.5538,56.7641,16.3247,-32.2149,-55.7143,7.12502,-5.45627,-85.624,7.25067e-14,-1.11319e-14,-54.2319,20.9324,5.21701,35.0598,31.0922,-43.5513,-33.2226,7.12502,-16.3892,-3.89501,-28.3926,12.7017,6.45676,38.285,-21.514,-17.3949,-26.9217,-29.7357,-8.89191,-9.77737,44.6471,-28.4616,9.39659,-21.4761
-5.13027,16.6123,17.6143,186.258,-46.5891,-176.247,-6.6504,5.1735,0.76603,-5.76787,6.56337,-1.6318,-1.97091,3.11599,-1.77285,-9.20124,-8.91401,-17.3656,32.6046,-16.5975,13.8266,15.8004,-8.54683,5.75561,1.08338e-13,-2.8625e-14,5.63436,2.337,-28.2367,56.0411,16.9798,-32.6937,-53.7714,7.12502,-5.91847,-83.6688,1.08338e-13,-2.8625e-14,-53.9977,21.0171,4.39679,35.0503,30.8398,-43.5737,-32.7269,7.12502,-16.4108,-3.40115,-28.7499,12.3861,6.29156,38.3046,-21.3906,-17.5582,-26.707,-29.4071,-8.89642,-9.96584,44.4137,-28.8826,9.84149,-21.7244
-5.16435,16.6166,17.6097,186.306,-45.7905,-176.005,-6.87949,5.1309,1.42313,-5.71748,6.47524,-1.35261,-1.75553,3.0583,-1.82706,-8.9063,-9.01311,-17.5979,32.3066,-16.7425,13.8815,15.6511,-8.64352,5.78663,-6.61953e-14,1.82882e-14,6.00769,2.3315,-28.5197,55.5242,17.3808,-33.6754,-54.0126,7.12502,-6.86621,-83.8813,-6.61953e-14,1.82882e-14,-54.1847,21.1833,3.38316,35.2272,31.0393,-43.5816,-32.8579,7.12502,-16.4184,-3.53275,-29.0631,12.4313,6.35184,38.2267,-21.1329,-18.2346,-25.9929,-29.2104,-8.56708,-9.9077,44.2729,-29.3808,10.5068,-22.7703
-5.18644,16.6142,17.6104,186.5,-44.9126,-176.091,-6.73737,5.12847,1.81116,-5.72509,6.45682,-1.19939,-1.81798,3.03868,-1.89691,-8.52885,-9.08162,-17.6566,31.906,-16.8889,13.989,15.421,-8.71848,5.81189,-9.10434e-14,-3.26007e-14,6.26535,2.37687,-28.8713,55.3065,16.8938,-32.1674,-52.1978,7.12502,-5.41035,-82.1087,-9.10434e-14,-3.26007e-14,-54.1795,21.3868,2.30815,35.4938,31.53,-44.72,-32.9201,7.12502,-17.5142,-3.68905,-29.3683,12.4075,6.19786,38.119,-20.5741,-19.271,-26.0652,-28.977,-8.22036,-10.0985,44.154,-29.9277,11.6246,-24.9111
-5.2128,16.6143,17.6079,186.877,-44.0614,-176.364,-6.76152,5.45538,2.04022,-5.82006,6.87162,-1.39873,-1.83496,3.23156,-2.20207,-7.78826,-9.34747,-16.9634,31.4979,-17.5493,13.9511,15.1148,-8.9711,5.5547,-6.83819e-14,-9.54166e-15,5.5539,2.13638,-29.1353,54.3276,18.2025,-33.8189,-54.2861,7.12502,-7.00477,-84.1502,-6.83819e-14,-9.54166e-15,-52.8033,21.4139,1.83824,35.6306,31.7677,-45.7856,-32.9744,7.12502,-18.5395,-3.83789,-29.704,11.9563,5.93202,38.0156,-19.9695,-20.2101,-26.5108,-28.7546,-8.05295,-10.4249,44.0039,-30.4782,11.7716,-25.4425
-5.24756,16.6208,17.5967,187.527,-43.2873,-176.95,-7.08138,5.76484,1.97053,-5.85933,7.26824,-1.62751,-1.65904,3.4262,-2.34121,-7.04969,-9.71349,-16.2455,31.1846,-18.3192,13.7496,14.8515,-9.29013,5.21173,6.26172e-15,1.78906e-14,4.17891,1.00982,-29.7629,53.9554,18.7602,-32.2013,-52.5765,7.12502,-5.44313,-82.4866,6.26172e-15,1.78906e-14,-51.2667,21.3149,1.64264,35.7587,31.9888,-44.7038,-33.1985,7.12502,-17.4986,-3.9661,-29.9721,11.6583,5.39146,37.9298,-19.6798,-21.3671,-26.6431,-28.5296,-8.12982,-11.0059,43.81,-30.8435,11.264,-24.4106
-5.28078,16.6254,17.583,187.993,-42.5272,-177.368,-7.35272,5.81772,1.94649,-5.79984,7.33107,-1.5208,-1.46168,3.46147,-2.1833,-6.72463,-9.91855,-16.088,31.0727,-18.6459,13.484,14.7381,-9.46076,5.01777,-7.75509e-14,-2.14687e-14,3.84027,0.479234,-30.1639,53.469,19.6345,-31.1162,-52.0865,7.12502,-4.39537,-82.0209,-7.75509e-14,-2.14687e-14,-50.7146,21.2243,1.17476,35.9829,32.2489,-43.5518,-33.4737,7.12502,-16.3897,-4.1462,-30.1417,11.5417,4.97848,37.8612,-19.9006,-22.493,-25.619,-28.2571,-8.20978,-11.473,43.6048,-31.0541,11.3331,-24.2653
-5.30806,16.631,17.5704,188.198,-41.751,-177.477,-7.45055,5.79783,2.19787,-5.7485,7.28818,-1.3192,-1.35234,3.43706,-2.10401,-6.57262,-9.96837,-16.0105,30.9485,-18.6933,13.2967,14.6192,-9.50076,4.92149,9.04967e-14,1.74931e-14,3.88898,0.564135,-30.4811,52.8761,19.3334,-31.5333,-52.2806,7.12502,-4.79809,-82.2062,9.04967e-14,1.74931e-14,-50.4864,21.1618,0.483496,36.2231,32.4522,-43.6756,-33.9161,7.12502,-16.5089,-4.59846,-30.3257,11.3132,4.84253,37.8438,-20.49,-23.0844,-23.2457,-27.9535,-8.2974,-11.6719,43.3972,-31.2828,11.5311,-24.2295
-5.33055,16.6348,17.5586,188.614,-40.9997,-177.831,-7.50245,5.78622,2.30851,-5.71958,7.26312,-1.24066,-1.29182,3.42248,-2.0787,-6.42661,-10.0416,-16.0197,30.8192,-18.8236,13.2624,14.5495,-9.57322,4.88567,4.47266e-14,2.5842e-15,3.85268,0.669391,-30.8344,52.1319,18.485,-32.8362,-52.2921,7.12502,-6.0561,-82.1856,4.47266e-14,2.5842e-15,-50.1004,21.1633,-0.156618,36.4686,32.6398,-43.7725,-33.9171,7.12502,-16.6022,-4.6072,-30.5995,10.8344,4.54755,37.892,-20.9358,-23.5173,-20.8804,-27.7283,-8.52651,-12.0387,43.2142,-31.5858,11.5333,-23.5781
-5.34616,16.6337,17.5402,189.159,-40.1866,-178.347,-7.48356,5.81887,2.10729,-5.69521,7.31663,-1.10905,-1.31558,3.45579,-1.8325,-6.35295,-10.2303,-16.3771,30.7905,-19.1073,13.281,14.6266,-9.73852,4.89178,1.90088e-14,9.93923e-15,3.74367,0.689126,-30.9399,51.5104,18.1306,-33.3693,-52.701,7.12502,-6.57071,-82.5791,1.90088e-14,9.93923e-15,-49.6697,21.3515,-0.668928,36.7437,32.5844,-43.6655,-33.732,7.12502,-16.4992,-4.41355,-30.9686,10.4387,4.12673,37.9948,-21.2553,-24.0681,-19.517,-27.5605,-8.6766,-12.5251,43.0689,-31.9805,11.3805,-23.0079
-5.3609,16.6313,17.5215,189.488,-39.3048,-178.576,-7.35591,5.92489,2.0816,-5.69522,7.46127,-0.925254,-1.40655,3.52971,-1.63478,-6.27666,-10.4124,-16.7061,30.7511,-19.3848,13.3064,14.6957,-9.89648,4.89663,5.96634e-14,3.08116e-15,3.5758,0.619101,-30.9955,50.9695,18.1897,-33.0451,-53.1908,7.12502,-6.25777,-83.0783,5.96634e-14,3.08116e-15,-49.077,21.4651,-1.07847,37.013,32.4387,-43.5584,-33.9894,7.12502,-16.3961,-4.66243,-31.4223,10.3006,3.89468,38.1432,-21.3613,-24.6233,-19.4023,-27.3906,-8.67874,-12.8032,42.9589,-32.4573,11.007,-22.5523
-5.38067,16.6254,17.5114,189.795,-38.4718,-178.715,-7.31002,6.00219,2.358,-5.68402,7.54887,-0.862258,-1.39014,3.566,-1.71752,-6.06023,-10.5194,-16.8293,30.5111,-19.5891,13.4281,14.613,-9.99978,4.93006,-3.72966e-14,-2.17421e-15,3.47655,0.410912,-31.3955,50.2604,18.4666,-32.3693,-52.8145,7.12502,-5.60526,-82.7204,-3.72966e-14,-2.17421e-15,-48.4102,21.3733,-1.52157,37.3021,32.374,-43.483,-34.1469,7.12502,-16.3234,-4.81392,-31.9961,10.0811,3.69126,38.3405,-21.0467,-24.8951,-19.6384,-27.3131,-8.66289,-13.0477,42.8648,-32.8838,10.6576,-22.0852
-5.39847,16.6169,17.5007,190.257,-37.6389,-179.113,-7.31321,5.9594,2.38281,-5.60832,7.49166,-0.779955,-1.32007,3.53996,-1.64631,-5.88424,-10.6232,-16.9819,30.2289,-19.7179,13.4565,14.495,-10.0752,4.94242,-4.29251e-14,-1.81888e-14,3.58671,0.427342,-31.798,49.6129,18.6242,-32.1874,-52.5023,7.12502,-5.42965,-82.4127,-4.29251e-14,-1.81888e-14,-48.1556,21.3576,-2.15019,37.7166,32.2263,-43.4658,-34.4132,7.12502,-16.3069,-5.07887,-32.6232,9.47254,3.32976,38.568,-20.5697,-24.4569,-20.103,-27.2326,-8.81204,-13.4972,42.7513,-33.184,10.4802,-21.4693
-5.41556,16.6084,17.4871,190.808,-36.8605,-179.75,-7.32377,5.81078,2.04679,-5.47561,7.31622,-0.609437,-1.24718,3.46782,-1.29536,-5.73401,-10.724,-17.1275,30.0097,-19.7957,13.3257,14.3775,-10.1396,4.89882,8.83722e-14,1.23246e-14,3.99822,0.703425,-31.9738,48.9233,18.6844,-32.4257,-52.723,7.12502,-5.65977,-82.6274,8.83722e-14,1.23246e-14,-48.2024,21.3913,-2.84975,38.1504,31.9765,-43.5698,-34.5815,7.12502,-16.407,-5.25542,-33.1807,8.41578,2.87488,38.8197,-20.1248,-23.4624,-20.6595,-27.0643,-9.10896,-14.1479,42.5888,-33.2557,10.4965,-21.0381
-5.43465,16.6032,17.4703,191.231,-36.164,-180.216,-7.32345,5.69858,1.95201,-5.40101,7.17357,-0.532873,-1.19607,3.40181,-1.17209,-5.45128,-10.7584,-17.1758,29.8233,-19.8973,13.3313,14.2585,-10.21,4.90112,-7.80106e-14,-7.35503e-15,4.36844,0.893776,-32.326,48.1196,18.9376,-32.4767,-53.0656,7.12502,-5.70901,-82.9687,-7.80106e-14,-7.35503e-15,-47.9294,21.3034,-3.58731,38.4547,31.7361,-43.6599,-34.3813,7.12502,-16.4938,-5.06242,-33.6711,7.7459,2.51965,39.0601,-19.6069,-22.7146,-20.4355,-26.8751,-9.1119,-14.6791,42.3723,-32.9916,10.8546,-21.3773
-5.45003,16.5999,17.45,191.462,-35.3886,-180.481,-7.14926,5.72,2.03264,-5.39336,7.203,-0.505181,-1.2765,3.41415,-1.20275,-5.06439,-10.7689,-17.2207,29.6439,-20.028,13.4332,14.1404,-10.2948,4.94361,-1.64494e-14,-1.66979e-14,4.22324,0.842858,-32.8185,47.5857,19.5884,-32.3892,-53.5705,7.12502,-5.62449,-83.4759,-1.64494e-14,-1.66979e-14,-47.2555,21.1657,-4.21451,38.6767,31.4288,-43.6724,-34.8735,7.12502,-16.5059,-5.55557,-34.0985,7.53289,2.29407,39.2015,-18.6958,-22.0869,-20.2304,-26.5885,-8.74811,-15.0521,42.1092,-32.6411,11.2135,-21.4817
-5.46303,16.5965,17.4344,191.717,-34.5254,-180.779,-6.89515,5.72208,1.948,-5.34155,7.22107,-0.342487,-1.39279,3.42859,-1.01375,-4.8689,-10.7565,-17.2991,29.4975,-19.9933,13.3546,14.0232,-10.3068,4.94152,-7.84454e-14,3.18055e-15,4.11295,0.783783,-33.2079,47.2168,20.2048,-32.3944,-54.0681,7.12502,-5.62949,-83.9734,-7.84454e-14,3.18055e-15,-46.8675,21.2208,-4.83118,38.8856,30.6983,-43.7271,-35.7808,7.12502,-16.5585,-6.46729,-34.547,7.39831,2.01991,39.2422,-17.2656,-21.4332,-20.7182,-26.3142,-8.25977,-15.4656,41.8487,-32.2681,11.3122,-20.7101
-5.47922,16.6005,17.4225,191.98,-33.6257,-180.924,-6.61232,5.68169,2.12588,-5.34007,7.16708,-0.203961,-1.54467,3.39682,-1.00158,-4.78332,-10.6983,-17.3402,29.3892,-19.8876,13.2838,13.9284,-10.2786,4.94515,-9.08943e-14,-2.06736e-14,4.14285,0.904118,-33.7997,46.7832,20.0572,-33.5093,-54.9868,7.12502,-6.70584,-84.8607,-9.08943e-14,-2.06736e-14,-46.6692,21.1358,-5.63668,39.0949,29.9583,-43.815,-37.005,7.12502,-16.6431,-7.69854,-35.0901,7.4756,1.78538,39.1914,-15.7411,-20.8507,-21.0108,-26.1263,-7.67248,-15.7531,41.5738,-31.6555,11.4052,-20.0527
-5.49312,16.5985,17.4039,192.142,-32.6749,-180.979,-6.10594,5.72515,2.60705,-5.47069,7.21781,-0.308797,-1.88622,3.39934,-1.42444,-4.4937,-10.6578,-17.1882,29.2991,-19.9739,13.3505,13.8324,-10.3282,4.94787,5.03919e-14,5.56597e-15,3.75384,0.924105,-34.7386,46.3984,19.5041,-34.1018,-55.2099,7.12502,-7.27785,-85.0648,5.03919e-14,5.56597e-15,-45.9869,20.6387,-6.39056,39.3927,29.8339,-44.1264,-38.535,7.12502,-16.9429,-9.25404,-35.6058,7.51417,1.65715,39.1396,-14.5257,-20.1071,-20.9034,-25.8738,-6.94504,-15.9645,41.3066,-30.8814,10.7815,-19.0873
-5.50176,16.6004,17.3745,192.229,-31.6826,-181.15,-5.86096,5.76204,2.49991,-5.33729,7.28915,-0.143909,-1.91418,3.44577,-1.21283,-4.37596,-10.7052,-17.1091,29.2242,-20.0423,13.1958,13.7554,-10.3724,4.86585,-8.95525e-14,-9.54166e-15,3.59308,0.802409,-35.2574,46.066,19.1763,-33.2001,-54.1566,7.12502,-6.40741,-84.0397,-8.95525e-14,-9.54166e-15,-45.4433,20.35,-6.75671,39.7231,29.833,-44.5433,-39.018,7.12502,-17.3442,-9.77189,-35.9219,7.60379,1.49399,39.1016,-13.4696,-19.2722,-21.1666,-25.4484,-6.08913,-16.2874,41.039,-30.1165,9.15684,-16.3632
-5.51131,16.607,17.3451,192.406,-30.6899,-181.297,-5.78055,5.76574,2.38208,-5.14373,7.31015,0.080866,-1.8005,3.47038,-0.917017,-4.54617,-10.7553,-17.1072,29.374,-20.0919,12.9858,13.8369,-10.4051,4.76044,8.79374e-14,3.10104e-14,3.61547,0.816189,-35.6929,45.7149,19.0857,-32.8303,-53.219,7.12502,-6.05034,-83.1126,8.79374e-14,3.10104e-14,-45.1011,20.2761,-7.255,39.8901,29.4937,-44.5494,-38.1892,7.12502,-17.35,-8.94362,-36.3211,7.7298,1.31455,39.0694,-13.0389,-18.9537,-23.0532,-25.2301,-5.24426,-16.5937,40.9926,-29.4738,8.08857,-12.842
-5.52171,16.6086,17.325,192.774,-29.7275,-181.358,-5.79083,5.84501,2.49459,-4.99189,7.41401,0.24322,-1.64173,3.52651,-0.797246,-4.80677,-10.8857,-17.2425,29.5396,-20.2933,12.9324,14.0167,-10.4964,4.69965,5.12864e-14,0,3.8378,0.688852,-36.0739,45.1396,18.8759,-32.8174,-52.5119,7.12502,-6.03797,-82.4059,5.12864e-14,0,-44.5901,20.4141,-7.51273,40.2743,29.737,-44.9073,-34.422,7.12502,-17.6944,-5.20714,-37.0093,7.53334,1.22416,39.1128,-12.9637,-18.2405,-23.4394,-25.2447,-4.59644,-16.8175,40.8177,-28.884,7.92132,-9.92057
-5.54526,16.5822,17.3628,194.375,-27.4685,-180.995,-6.41219,6.52203,3.3282,-5.39803,8.2046,0.128392,-1.56853,3.8685,-1.26989,-5.05752,-10.9834,-17.534,29.585,-20.4946,13.1697,14.2055,-10.5777,4.77802,-3.42904e-14,-1.19271e-14,4.74298,0.307498,-36.6678,43.8248,18.8479,-32.7553,-52.3289,7.12502,-5.97799,-82.2246,-3.42904e-14,-1.19271e-14,-44.0191,20.3934,-7.72893,40.6593,29.9702,-45.2191,-33.1956,7.12502,-17.9944,-4.00803,-40.0526,6.6354,1.15795,39.1341,-12.1981,-16.5177,-24.3983,-26.99,-4.14521,-16.9291,40.8322,-28.2011,9.49261,-8.11051
-5.54064,16.603,17.2979,193.594,-27.4098,-181.401,-5.36953,6.13283,3.04342,-4.94387,7.79136,0.366459,-1.7593,3.69901,-0.990213,-5.37338,-10.9745,-17.8712,29.7127,-20.5818,13.5099,14.4457,-10.6088,4.92701,9.81375e-14,3.10104e-14,4.75852,0.206816,-37.3329,43.2966,18.9783,-32.913,-52.9963,7.12502,-6.13023,-82.8876,9.81375e-14,3.10104e-14,-43.4523,19.7063,-7.88407,41.1508,30.7321,-45.1238,-35.045,7.12502,-17.9028,-5.84904,-38.7374,7.07507,1.10801,39.2289,-12.5449,-17.4661,-24.6348,-25.4629,-3.88233,-17.2887,40.6016,-28.4184,9.37033,-8.04124
-5.5485,16.6043,17.2762,193.9,-26.4548,-181.347,-5.02968,6.19512,3.43552,-4.91009,7.87749,0.463766,-1.87141,3.73083,-1.13323,-5.74301,-10.9533,-17.9511,29.7929,-20.4782,13.4781,14.546,-10.5494,4.92465,5.58523e-14,-1.27222e-14,4.68167,0.391203,-37.7999,42.9913,18.9887,-32.8541,-54.0002,7.12502,-6.07338,-83.8931,5.58523e-14,-1.27222e-14,-42.9682,19.8411,-8.40883,41.3224,30.6311,-44.6901,-36.6335,7.12502,-17.4854,-7.39987,-39.4205,6.64509,1.26585,39.285,-12.4793,-17.0449,-25.4764,-25.5137,-3.7694,-17.4043,40.5278,-28.4113,10.1362,-7.44182
-5.55319,16.6055,17.254,194.225,-25.557,-181.296,-4.93246,6.20196,3.64788,-4.72272,7.88632,0.680282,-1.73319,3.73863,-1.02611,-5.98919,-10.9116,-17.7139,29.535,-20.1495,13.1491,14.3312,-10.3743,4.8075,5.49143e-14,2.3059e-14,5.02096,0.306128,-38.2574,42.4233,19.1803,-32.7605,-53.9271,7.12502,-5.983,-83.8226,5.49143e-14,2.3059e-14,-42.7407,21.185,-9.36451,41.0494,29.3659,-44.5631,-37.4888,7.12502,-17.3632,-8.24438,-40.1572,6.20384,1.43827,39.3847,-12.5278,-16.4721,-25.8506,-25.5172,-3.72165,-17.4877,40.2944,-28.4251,10.7726,-6.5978
-5.55953,16.6072,17.2363,194.624,-24.6704,-181.164,-4.69375,6.27089,3.96872,-4.79991,7.97234,0.82808,-1.92065,3.76435,-1.07603,-5.71737,-10.7875,-17.42,29.2405,-19.881,12.8892,14.0078,-10.2625,4.73145,3.84897e-14,3.18055e-15,5.26665,0.177129,-38.8304,41.4812,19.4857,-32.8631,-53.675,7.12502,-6.08206,-83.5677,3.84897e-14,3.18055e-15,-42.1857,22.0153,-10.1681,40.6969,28.1513,-44.7428,-37.8231,7.12502,-17.5361,-8.59399,-41.0329,5.72498,1.68496,39.4603,-12.7562,-15.8896,-25.878,-25.7397,-3.75859,-17.4857,40.2389,-28.4634,11.6189,-6.35731
-5.5678,16.6065,17.2222,195.109,-23.6795,-181.041,-4.76876,6.37932,4.393,-4.63819,8.09378,0.94044,-1.66572,3.8211,-1.16318,-5.66102,-10.7798,-17.2282,28.7877,-19.6967,12.7425,13.7146,-10.1575,4.68303,-9.0944e-15,0,5.96962,0.114901,-39.2686,40.369,19.4077,-32.9706,-54.1001,7.12502,-6.18583,-83.9898,-9.0944e-15,0,-41.6263,22.6806,-10.6827,40.5223,27.3736,-45.0725,-37.2622,7.12502,-17.8534,-8.06169,-42.0619,4.96832,2.03353,39.5764,-12.8595,-15.2585,-25.8926,-26.0358,-3.79405,-17.5237,40.1816,-28.4823,12.5163,-6.0101
-5.57123,16.6058,17.205,195.566,-22.6683,-181.085,-4.36764,6.39015,4.54255,-4.54592,8.13062,1.08322,-1.79086,3.83687,-1.13717,-6.10135,-10.8349,-17.0995,28.6531,-19.5487,12.4806,13.6689,-10.0587,4.56031,6.59468e-14,-3.65764e-14,6.61905,0.603258,-39.5867,39.4382,19.0181,-33.1726,-54.1043,7.12502,-6.38079,-83.9882,6.59468e-14,-3.65764e-14,-41.2402,22.5245,-10.9642,40.7352,27.2077,-45.563,-36.7646,7.12502,-18.3253,-7.60782,-43.0094,4.2236,2.31254,39.7505,-12.5774,-14.8452,-25.6995,-26.2074,-3.78051,-17.7233,40.1262,-28.6024,13.2322,-5.42285
-5.56975,16.6076,17.1861,196.056,-21.7627,-181.166,-4.06784,6.28708,4.47042,-4.38016,8.01459,1.34858,-1.83813,3.7866,-0.859584,-6.76648,-10.8903,-17.0584,28.691,-19.4004,12.2219,13.7582,-9.95918,4.43904,6.44062e-14,-2.22639e-14,7.33523,0.60438,-40.1101,38.7293,19.2287,-33.349,-54.1975,7.12502,-6.55117,-84.0762,6.44062e-14,-2.22639e-14,-41.0813,22.1534,-11.238,40.9133,27.1642,-45.9338,-36.4958,7.12502,-18.682,-7.37293,-43.9946,3.61608,2.58786,39.9903,-11.9797,-14.7629,-25.7856,-26.4411,-3.72455,-17.92,40.0679,-28.7128,13.8168,-4.87518
-5.56661,16.6053,17.168,196.647,-20.9025,-181.118,-3.93829,6.25113,4.60521,-4.32799,7.9639,1.53746,-1.86721,3.7562,-0.753872,-6.96689,-10.8264,-17.074,28.5781,-19.2332,12.2246,13.7209,-9.86993,4.4641,-2.8128e-14,3.18055e-15,7.74889,-0.296406,-41.1045,38.0854,20.2253,-33.2792,-54.3211,7.12502,-6.48375,-84.2018,-2.8128e-14,3.18055e-15,-40.6074,21.9694,-11.638,40.7627,27.0142,-45.8492,-37.33,7.12502,-18.6006,-8.19929,-45.1681,2.82263,3.08955,40.2683,-11.1376,-14.4081,-27.5775,-26.8636,-3.58743,-17.9818,39.9918,-28.874,14.239,-3.91122
-5.56161,16.6029,17.1483,197.217,-20.0042,-181.137,-3.56895,6.27877,4.78466,-4.36089,8.0193,1.60229,-2.08962,3.77161,-0.826033,-7.0062,-10.7425,-17.0788,28.366,-19.0602,12.2868,13.6123,-9.78047,4.5221,7.45443e-14,2.06736e-14,8.17855,0.893201,-41.1275,37.2234,18.9811,-33.5513,-55.2134,7.12502,-6.74638,-85.0859,7.45443e-14,2.06736e-14,-39.8481,22.0411,-12.0839,40.4847,26.5347,-45.2669,-39.3279,7.12502,-18.0404,-10.1445,-46.3143,2.0406,3.54352,40.5379,-9.77626,-13.6904,-29.9877,-27.2185,-3.60207,-18.1241,39.8985,-28.9781,14.9579,-3.29817
-5.55684,16.6107,17.1223,197.705,-19.1905,-181.208,-3.17103,6.23028,4.955,-4.29283,7.98185,1.65559,-2.22717,3.74781,-0.905167,-7.00301,-10.7331,-17.0924,27.9733,-18.9474,12.3552,13.4322,-9.71061,4.57213,3.89618e-14,-1.90833e-14,8.47926,1.08032,-41.7089,36.6692,18.7944,-33.941,-54.6945,7.12502,-7.12264,-84.5546,3.89618e-14,-1.90833e-14,-39.1522,21.8571,-12.4588,40.3201,26.008,-44.6606,-41.4231,7.12502,-17.457,-12.187,-47.2909,1.55428,3.89876,40.7652,-10.0107,-13.3879,-28.6224,-27.4677,-3.75647,-18.2967,39.8257,-28.9782,15.9676,-3.56011
-5.55035,16.6199,17.0926,198.176,-18.5238,-181.085,-2.83871,7.11713,5.71902,-4.92196,9.18195,0.720559,-2.74367,4.28031,-2.29848,-3.90845,-11.0708,-15.6583,26.3602,-20.3408,13.245,12.3267,-10.3252,4.62002,-3.56818e-14,-7.95139e-15,5.27935,-1.14666,-42.7081,36.3756,19.4581,-34.1267,-53.1751,7.12502,-7.30191,-83.0291,-3.56818e-14,-7.95139e-15,-34.4155,21.4934,-11.4143,39.7129,25.282,-44.3995,-42.2314,7.12502,-17.2058,-12.9732,-48.222,1.27129,4.44445,40.9618,-10.5286,-13.65,-26.808,-27.7624,-3.84206,-18.2212,39.7472,-29.1086,16.6356,-3.41316
-5.54111,16.6181,17.0718,198.599,-17.506,-180.825,-2.51475,5.87816,5.52816,-3.53748,7.54275,2.21216,-1.83418,3.54746,-0.686114,-8.78809,-10.9811,-17.5534,27.4573,-18.6472,12.5171,13.6115,-9.43675,4.65494,5.56597e-14,3.49861e-14,10.9226,-0.179988,-43.6362,35.0171,20.0723,-34.293,-51.554,7.12502,-7.46243,-81.4024,5.56597e-14,3.49861e-14,-39.1386,23.8006,-14.371,38.9582,23.5825,-43.9002,-42.6265,7.12502,-16.7251,-13.3269,-49.3244,1.04758,5.16733,41.1187,-9.79435,-13.6797,-27.2004,-28.0078,-4.06047,-18.0685,39.6962,-29.3636,17.632,-2.52596
-5.53121,16.6198,17.0457,198.923,-16.6268,-180.663,-1.99001,6.19218,5.7258,-3.7266,7.99948,2.22111,-2.27607,3.74921,-0.840764,-7.53407,-10.9942,-17.3579,26.8037,-18.8982,12.6302,13.1102,-9.59141,4.68803,-8.98507e-14,7.95139e-15,10.1156,-0.663477,-44.0133,34.3024,20.7868,-34.6004,-49.7282,7.12502,-7.75907,-79.5658,-8.98507e-14,7.95139e-15,-37.1841,23.3186,-14.0029,38.571,23.3232,-43.2153,-44.5572,7.12502,-16.0657,-15.2033,-50.2304,0.702749,5.91001,41.26,-9.52441,-13.6589,-26.1263,-28.1134,-4.50993,-17.9604,39.6801,-29.649,18.8926,-1.8871
-5.52228,16.6231,17.0197,199.473,-15.8581,-180.478,-1.62572,6.31442,5.95714,-3.82306,8.18531,2.3024,-2.55094,3.82008,-0.925481,-7.09305,-11.0094,-17.1485,26.3977,-18.9227,12.5295,12.818,-9.61012,4.63751,-1.19271e-14,-7.79236e-14,10.0193,-0.911203,-44.5167,33.5442,21.2361,-34.1974,-49.7625,7.12502,-7.37011,-79.6141,-1.19271e-14,-7.79236e-14,-35.8305,22.6525,-13.918,38.3602,23.2797,-42.7882,-46.4464,7.12502,-15.6544,-17.0597,-51.3117,0.271727,6.72297,41.3883,-9.4667,-13.7268,-24.6429,-28.5286,-4.91513,-17.8008,39.6947,-29.9126,20.0839,-1.73648
-5.50903,16.6192,16.9972,200.154,-15.1058,-180.334,-1.38119,6.31177,6.00826,-3.78952,8.19243,2.49981,-2.67422,3.81535,-0.778648,-7.33408,-11.0177,-17.0545,26.3068,-18.8061,12.3431,12.7746,-9.54273,4.55993,1.20066e-13,6.83819e-14,10.435,-1.02992,-45.001,32.7994,21.6309,-33.6082,-50.4939,7.12502,-6.80139,-80.3647,1.20066e-13,6.83819e-14,-34.854,22.0311,-13.9033,38.2304,23.7271,-42.7625,-47.4939,7.12502,-15.6297,-18.1053,-52.4646,-0.140506,7.52246,41.4851,-9.38642,-14.0057,-24.5682,-29.0786,-5.14592,-17.6784,39.6745,-30.1112,21.0507,-1.65232
-5.49156,16.6168,16.9666,200.658,-14.3701,-180.267,-1.16522,6.31383,5.9735,-3.57775,8.20386,2.70542,-2.60872,3.82849,-0.563521,-7.98358,-11.091,-17.1257,26.5221,-18.7819,12.2293,12.9869,-9.50379,4.49236,-4.92986e-14,-2.54444e-14,10.92,-1.03758,-45.2892,32.0994,21.8977,-33.2844,-51.2178,7.12502,-6.48873,-81.0984,-4.92986e-14,-2.54444e-14,-33.7853,22.012,-13.9666,37.8544,23.6864,-42.6565,-48.2902,7.12502,-15.5276,-18.8936,-53.4153,-0.470732,8.25779,41.5736,-9.49175,-14.3478,-24.0599,-29.3776,-5.41004,-17.6257,39.6536,-30.3886,22.0506,-1.29423
-5.47492,16.6277,16.933,201.168,-13.7273,-180.156,-0.945633,6.38155,6.17392,-3.41716,8.30736,2.74607,-2.53809,3.87965,-0.642549,-8.49195,-11.184,-16.9056,26.6429,-18.843,12.0992,13.1117,-9.4852,4.36584,8.62725e-14,6.36111e-14,11.1704,-1.39248,-45.7513,31.3814,22.1305,-34.0976,-50.3347,7.12502,-7.27379,-80.1897,8.62725e-14,6.36111e-14,-32.2849,22.3956,-14.1432,37.2217,23.0407,-42.9331,-48.4215,7.12502,-15.7939,-19.0458,-54.399,-0.860024,9.08607,41.6743,-9.77334,-14.444,-22.3481,-29.6682,-5.78784,-17.4916,39.5954,-30.6636,23.1399,-1.00308
-5.45509,16.6288,16.9041,201.795,-13.1221,-180.037,-0.565942,7.0344,6.73582,-4.32165,9.23403,2.13294,-3.46221,4.25564,-1.65805,-4.49914,-10.9571,-16.0132,24.9992,-19.4196,12.754,11.7169,-9.87579,4.62326,2.8625e-14,3.02153e-14,8.4942,-2.15757,-46.1443,30.9445,22.2601,-35.5366,-47.9598,7.12502,-8.66263,-77.7621,2.8625e-14,3.02153e-14,-28.0105,21.4322,-13.3147,36.4711,22.5203,-43.5378,-49.0087,7.12502,-16.3762,-19.6801,-55.5142,-1.20407,9.94037,41.8344,-10.1252,-14.4936,-20.9429,-30.1406,-6.09225,-17.3204,39.5245,-30.8047,24.1011,-0.878701
-5.43142,16.6219,16.869,202.512,-12.4964,-180.216,-0.256337,5.95873,6.03391,-3.19167,7.78633,3.20497,-2.79818,3.61828,-0.169353,-8.38372,-10.9006,-17.1412,25.5422,-18.0121,12.0762,12.5142,-9.10681,4.56428,3.18055e-15,3.02153e-14,13.0947,-0.691318,-46.6914,29.9107,22.2565,-35.1415,-48.3518,7.12502,-8.28134,-78.1695,3.18055e-15,3.02153e-14,-30.9811,22.4742,-15.2411,36.0721,21.8036,-43.5114,-48.6801,7.12502,-16.3508,-19.3493,-56.5563,-1.68754,10.6199,42.0134,-10.1501,-14.5722,-21.095,-30.6517,-6.34148,-17.4542,39.43,-30.7123,25.0616,-1.25891
-5.41204,16.6133,16.8276,203.212,-11.9665,-180.43,-0.179574,6.10621,5.81743,-3.20358,7.9922,3.12405,-2.86191,3.72607,-0.146587,-7.72753,-10.9834,-16.7431,24.8558,-18.2192,12.1876,12.1144,-9.17596,4.54248,-1.35174e-14,-9.54166e-15,12.7276,-1.30992,-47.0321,29.3896,22.8061,-33.8125,-50.976,7.12502,-6.99855,-80.8403,-1.35174e-14,-9.54166e-15,-28.6735,22.8315,-15.0495,35.5052,21.4564,-42.6596,-46.8273,7.12502,-15.5305,-17.431,-57.5185,-2.5197,11.5387,42.2132,-9.69359,-14.5401,-22.8914,-31.1698,-6.59771,-17.6304,39.3731,-30.3776,26.2764,-2.54632
-5.39307,16.6081,16.7897,203.804,-11.5049,-180.383,0.0315475,6.15143,5.93489,-3.09537,8.06393,3.19556,-2.85942,3.75869,-0.153762,-7.78767,-11.0013,-16.4859,24.4992,-18.1447,12.1274,11.9395,-9.10647,4.49168,2.14687e-14,-6.36111e-14,12.8747,-1.71821,-47.3534,28.8517,23.0406,-32.6913,-54.2414,7.12502,-5.91616,-84.1388,2.14687e-14,-6.36111e-14,-27.0376,22.8499,-14.9792,35.2472,21.5068,-41.4781,-49.3448,7.12502,-14.3923,-19.8638,-58.4416,-3.17587,12.6873,42.3717,-9.50604,-14.5502,-22.843,-31.6442,-6.9184,-17.5085,39.3233,-30.2658,27.4438,-3.2078
-5.36883,16.6012,16.7547,204.489,-11.1217,-180.341,0.22755,6.09095,5.95079,-2.99608,7.98877,3.36788,-2.89153,3.71853,-0.00262121,-7.99251,-10.9557,-16.2742,24.2417,-17.9181,11.9398,11.7982,-8.97799,4.42135,-7.15625e-14,5.08889e-14,13.2564,-1.69176,-47.5981,28.4161,23.0633,-33.9363,-48.3418,7.12502,-7.11804,-78.2021,-7.15625e-14,5.08889e-14,-25.8146,22.5983,-14.9396,35.0325,21.1117,-40.3688,-54.6253,7.12502,-13.3233,-25.0712,-59.4325,-3.63793,13.7034,42.5032,-9.45792,-14.7805,-20.3675,-32.2199,-7.35334,-17.299,39.2477,-30.465,28.2846,-3.03311
-5.34406,16.5983,16.7172,205.252,-10.9065,-180.327,0.427691,5.97145,6.0348,-3.00811,7.83924,3.51741,-3.03213,3.63271,0.0838099,-8.24902,-10.9047,-16.1796,24.1535,-17.7587,11.8866,11.7722,-8.88215,4.40286,6.67916e-14,4.77083e-14,13.4743,-1.62591,-47.9622,28.1536,23.2861,-34.1844,-51.4513,7.12502,-7.35757,-81.3034,6.67916e-14,4.77083e-14,-24.4984,22.9102,-15.1447,34.298,20.4147,-39.0681,-59.4067,7.12502,-12.0693,-29.7748,-60.3971,-4.03372,14.6171,42.6368,-9.33188,-15.3177,-17.5465,-32.8885,-7.67822,-17.0653,39.1235,-30.5734,28.9553,-2.97611
-5.31821,16.6059,16.6731,205.879,-10.7411,-180.323,0.731488,5.80561,6.15722,-2.95937,7.63782,3.68951,-3.16768,3.52221,0.167203,-8.49121,-10.8799,-16.1975,24.022,-17.6273,11.8922,11.7502,-8.80188,4.41847,8.74653e-15,1.90833e-14,13.7497,-1.28787,-48.1707,27.8882,23.2932,-35.1256,-45.2788,7.12502,-8.26594,-75.0971,8.74653e-15,1.90833e-14,-23.0503,22.5863,-15.0576,34.5028,19.3839,-42.1017,-52.6351,7.12502,-14.9931,-23.1978,-61.2083,-4.28373,15.4028,42.8188,-9.0927,-16.0435,-15.7456,-33.3357,-7.75226,-16.8953,38.9176,-30.7185,29.3776,-2.63512
-5.29145,16.6111,16.6276,206.456,-10.454,-180.375,1.03164,5.63853,6.1632,-2.82411,7.43142,3.87331,-3.22693,3.41826,0.331536,-8.50705,-10.8607,-16.1557,23.5831,-17.4454,11.8203,11.5433,-8.70515,4.41852,2.22639e-14,-6.67916e-14,14.2883,-0.852311,-48.2697,27.4149,23.1242,-36.55,-41.0578,7.12502,-9.64048,-70.8172,2.22639e-14,-6.67916e-14,-21.7707,22.4601,-15.1407,34.2268,18.1663,-43.3938,-50.7862,7.12502,-16.2376,-21.4461,-62.047,-4.43796,16.0573,43.041,-8.45509,-16.5912,-15.0355,-33.6561,-7.79012,-16.8304,38.6871,-30.8551,29.7705,-2.32665
-5.26333,16.6047,16.5895,207.229,-9.89327,-180.548,1.40926,5.61131,5.99152,-2.85824,7.43132,3.88573,-3.49815,3.41555,0.395481,-8.30754,-10.9012,-16.0295,23.0531,-17.4383,11.856,11.2935,-8.68382,4.42492,-9.06458e-14,-1.145e-13,14.6033,-0.741052,-48.4855,26.9622,22.7685,-35.966,-42.7154,7.12502,-9.07697,-72.5001,-9.06458e-14,-1.145e-13,-20.2515,22.3792,-15.2102,34.0701,17.3598,-43.2479,-48.5573,7.12502,-16.0971,-19.2058,-63.1602,-4.29699,16.3328,43.2637,-7.72085,-16.8311,-14.0792,-34.1571,-7.9994,-16.9034,38.4547,-31,30.4066,-1.86041
-5.25659,16.604,16.5657,207.818,-9.65898,-180.541,1.75104,5.57909,6.38221,-2.62569,7.40746,4.0396,-3.421,3.39301,0.322693,-8.4497,-11.0883,-16.0523,22.5501,-17.5557,11.9339,11.164,-8.69956,4.42626,9.06458e-14,5.40694e-14,15.193,-1.02518,-48.4439,26.6909,23.0433,-35.8818,-45.3166,7.12502,-8.99573,-75.1048,9.06458e-14,5.40694e-14,-18.7616,22.52,-14.9098,34.1835,17.1413,-43.1594,-46.402,7.12502,-16.0119,-17.0437,-64.0858,-4.95737,17.2484,43.479,-7.17286,-16.0393,-12.5704,-34.527,-8.17801,-16.8441,38.2457,-31.0282,30.86,-1.44769
-5.22654,16.6029,16.5162,208.354,-9.46815,-180.409,2.13055,5.46136,6.66631,-2.49851,7.278,4.20476,-3.49389,3.31481,0.313121,-8.65364,-11.0737,-15.9554,22.3443,-17.449,11.9396,11.1006,-8.62189,4.42205,2.94201e-14,1.30403e-13,15.6997,-1.10885,-48.7747,26.2859,23.4156,-35.8826,-46.1677,7.12502,-8.99656,-75.9559,2.94201e-14,1.30403e-13,-17.2144,22.1733,-14.9013,34.1556,16.9751,-43.8153,-45.5899,7.12502,-16.6434,-16.2834,-64.8117,-4.90094,17.9008,43.6225,-7.07741,-15.8173,-9.21394,-34.8961,-8.08807,-16.5658,38.1255,-30.9728,31.1756,-1.56475
-5.1836,16.6034,16.4494,208.794,-9.37956,-180.366,2.48718,5.26534,6.7007,-2.35949,7.03662,4.43141,-3.58364,3.18962,0.508278,-8.9177,-11.0066,-15.8595,22.2015,-17.243,11.8684,11.0486,-8.50499,4.40512,3.97569e-14,0,16.2139,-1.14163,-49.2382,25.8192,23.8157,-35.7258,-46.1111,7.12502,-8.84517,-75.9057,3.97569e-14,0,-15.7336,21.6712,-15.0691,33.9536,16.5544,-44.0977,-45.5939,7.12502,-16.9153,-16.3105,-65.293,-4.59284,18.2599,43.7619,-7.18415,-16.1465,-6.29746,-35.1033,-7.77868,-16.3562,37.9912,-30.8711,31.2168,-2.1357
-5.14489,16.5852,16.4014,209.747,-8.79412,-180.082,2.28902,5.35002,6.60732,-2.20184,7.08882,4.71705,-3.35215,3.21626,0.876288,-9.29543,-11.0877,-15.8622,21.9474,-17.1716,11.7791,11.0083,-8.44323,4.36501,-8.42847e-14,1.33583e-13,16.8279,-1.16075,-49.4018,25.5216,23.7854,-35.6832,-46.75,7.12502,-8.80408,-76.5463,-8.42847e-14,1.33583e-13,-14.5972,21.6391,-15.1284,33.9176,15.8498,-43.8991,-45.7356,7.12502,-16.724,-16.4359,-66.5557,-4.03229,18.8289,43.8688,-7.07461,-16.5358,-4.95137,-35.9536,-7.92702,-15.8417,37.8982,-31.3059,31.8872,-1.69843
-5.0997,16.5709,16.355,210.432,-8.48391,-180.172,2.57017,5.27935,6.36895,-2.07869,6.99951,4.9204,-3.43828,3.17461,1.19561,-9.44838,-11.1092,-15.7048,21.6782,-17.0754,11.6154,10.8913,-8.38185,4.29196,1.74931e-14,1.59028e-14,17.2805,-0.802456,-49.402,25.2946,23.0417,-35.8716,-47.9073,7.12502,-8.98588,-77.6959,1.74931e-14,1.59028e-14,-13.5165,21.4002,-15.2042,34.0971,15.4068,-43.9718,-45.9498,7.12502,-16.794,-16.6561,-67.4149,-3.47162,18.8239,44.0568,-7.51785,-17.8128,-3.8191,-36.4646,-8.11544,-15.6305,37.7323,-31.5934,32.2409,-1.38676
-5.08519,16.5743,16.3041,210.639,-8.58993,-179.968,3.40884,5.05991,7.21632,-1.96331,6.79738,5.10191,-3.72058,3.03115,0.86766,-9.4496,-11.0228,-15.4351,21.2791,-16.8394,11.448,10.666,-8.25876,4.23541,-9.38264e-14,-1.27222e-14,17.6957,-0.637426,-49.7209,25.026,23.0069,-35.0192,-49.6172,7.12502,-8.1633,-79.4396,-9.38264e-14,-1.27222e-14,-12.0466,20.6365,-15.3568,34.0442,15.4013,-44.3928,-45.2976,7.12502,-17.1993,-16.0388,-67.7028,-4.06805,19.9892,44.2438,-7.9159,-18.1258,-4.25172,-36.4303,-8.06959,-15.2921,37.611,-31.7658,32.2423,-1.43289
-5.05142,16.567,16.238,210.93,-8.37087,-180.021,4.12812,4.894,7.35146,-1.75838,6.64201,5.2451,-3.91963,2.94367,0.897381,-9.57466,-10.9852,-15.2496,20.7651,-16.6416,11.4316,10.4549,-8.13398,4.23147,2.8625e-14,-9.54166e-15,18.2396,-1.1303,-50.3146,24.7929,23.9161,-31.4976,-54.2905,7.12502,-4.76366,-84.2169,2.8625e-14,-9.54166e-15,-10.2239,20.0813,-15.39,33.6655,15.1619,-44.9383,-44.5167,7.12502,-17.7242,-15.3045,-68.0431,-4.04478,20.3708,44.494,-8.45691,-18.7938,-3.54634,-36.3682,-7.93793,-15.2647,37.431,-31.8116,32.38,-1.69604
-5.01876,16.5576,16.1765,211.194,-8.27797,-180.016,4.79994,4.74107,7.64407,-1.50397,6.49588,5.42333,-4.02602,2.8557,0.887952,-9.62449,-10.9538,-15.1022,20.2233,-16.4763,11.4733,10.236,-8.02615,4.25199,1.27222e-14,-7.31528e-14,18.8037,-1.35079,-50.5963,24.5819,24.163,-28.9962,-57.4273,7.12502,-2.34807,-87.3941,1.27222e-14,-7.31528e-14,-8.4105,19.7995,-15.2997,33.3809,14.6516,-45.7896,-44.0193,7.12502,-18.5433,-14.8832,-68.3985,-4.16877,20.9495,44.7876,-8.8259,-19.316,-4.17707,-36.3063,-7.89126,-15.1156,37.2249,-31.8297,32.4746,-1.92807
-4.9865,16.5508,16.1087,211.194,-8.43607,-179.934,5.7376,4.48826,8.01371,-1.34391,6.24802,5.81361,-4.40202,2.69449,1.04558,-9.15251,-10.7975,-15.1516,19.5936,-16.1775,11.45,9.88172,-7.90966,4.32992,-2.54444e-14,6.36111e-15,19.0503,-0.784165,-50.4638,24.568,24.0235,-28.5533,-58.4036,7.12502,-1.92034,-88.3747,-2.54444e-14,6.36111e-15,-6.96217,19.1393,-15.2875,33.322,14.299,-45.9305,-44.5378,7.12502,-18.6788,-15.4146,-68.3649,-4.51874,21.8178,45.0219,-8.74684,-19.6706,-6.01364,-36.0697,-7.9356,-14.8228,37.2926,-32.3907,32.2209,-1.61731
-4.955,16.5414,16.0305,211.373,-8.33774,-180.236,6.55874,4.28487,8.36087,-0.987583,6.07223,5.75581,-4.45515,2.60167,0.763074,-9.77054,-10.8964,-14.9286,19.379,-16.1958,11.5548,9.91536,-7.84726,4.29779,-4.45278e-14,-2.54444e-14,19.4487,-1.12146,-50.8253,24.4547,24.4043,-28.5263,-58.4927,7.12502,-1.89425,-88.464,-4.45278e-14,-2.54444e-14,-5.18135,19.2221,-15.4954,32.9767,13.6535,-44.5791,-46.8217,7.12502,-17.3786,-17.5786,-68.4699,-4.79282,22.0698,45.3326,-8.85416,-19.7284,-5.05191,-35.8957,-8.01323,-15.0118,37.3832,-33.1981,31.9092,-1.03312
-4.93008,16.488,16.0069,213.304,-6.90319,-179.411,5.80681,4.82586,8.48656,-1.11363,6.67336,5.86131,-4.13349,2.88387,0.813545,-10.0376,-10.8998,-14.9529,19.1048,-16.111,11.7087,9.87354,-7.7727,4.35644,4.77083e-15,7.31528e-14,20.1009,-0.940574,-50.8592,24.1413,24.5231,-28.5687,-58.5001,7.12502,-1.9352,-88.4711,4.77083e-15,7.31528e-14,-3.85334,18.8939,-15.6879,32.8048,13.0403,-43.669,-47.6675,7.12502,-16.5025,-18.3493,-71.0642,-4.09144,23.4624,45.5921,-8.44142,-18.4849,-4.22922,-37.871,-8.21347,-14.107,37.5702,-34.7962,32.8874,1.04373
-4.89922,16.4658,15.9506,214.213,-6.38322,-179.353,5.98569,4.83145,8.52926,-0.932823,6.66629,6.01951,-4.05738,2.87411,0.948402,-10.6314,-10.9538,-14.9379,18.788,-15.9786,11.7079,9.85345,-7.66506,4.34648,-4.13472e-14,0,21.0295,-0.592935,-50.7903,23.8249,24.4865,-28.608,-58.8278,7.12502,-1.97309,-88.7984,-4.13472e-14,0,-2.97146,18.1384,-16.043,33.1378,13.2889,-43.3342,-47.342,7.12502,-16.1801,-17.9973,-72.1947,-3.79143,23.6857,45.9483,-8.84691,-17.9329,-2.0383,-38.6485,-8.4653,-13.8613,37.7518,-35.6849,33.2915,1.44677
-4.86325,16.4587,15.864,214.511,-6.28554,-179.851,6.61783,4.60612,8.47036,-0.776366,6.43114,6.08281,-4.27319,2.75473,1.01945,-10.2925,-10.8958,-14.8105,18.1221,-15.8144,11.6508,9.51836,-7.59249,4.35448,2.06736e-14,-6.99722e-14,21.2506,-0.26628,-50.8176,23.784,24.3792,-28.7225,-58.776,7.12502,-2.08368,-88.7456,2.06736e-14,-6.99722e-14,-1.25268,16.806,-16.3556,33.1454,13.944,-42.8884,-46.9032,7.12502,-15.7509,-17.5241,-72.4572,-3.71013,23.0682,46.3824,-9.34436,-17.8537,0.879899,-38.6067,-8.80477,-14.1421,37.8229,-36.0984,33.4594,0.908313
-4.83289,16.3997,15.8061,216.145,-5.35727,-179.809,6.09951,4.86333,8.19865,-0.830988,6.68253,6.09445,-4.05982,2.88857,1.19638,-10.6115,-10.9323,-14.686,17.8095,-15.7204,11.5425,9.43567,-7.52327,4.29896,-3.18055e-15,-4.45278e-14,21.7107,-0.294385,-50.8786,23.6669,24.4615,-29.0151,-57.9913,7.12502,-2.36627,-87.9579,-3.18055e-15,-4.45278e-14,1.15855,16.1359,-16.5053,32.3903,14.1534,-42.3941,-46.1121,7.12502,-15.2748,-16.6961,-74.5065,-3.19288,23.1956,46.8284,-8.85603,-17.1837,1.0337,-40.081,-9.47813,-13.7607,37.8222,-37.2409,34.4941,1.89527
-4.79478,16.3781,15.713,216.494,-5.23255,-180.29,6.55472,4.6766,8.04298,-0.813051,6.47932,6.19789,-4.33477,2.78269,1.36859,-9.90569,-10.7764,-14.7186,17.4065,-15.569,11.6033,9.1536,-7.48567,4.38736,9.85972e-14,6.99722e-14,21.7681,-0.116062,-50.9694,23.5301,24.6435,-29.4153,-57.3577,7.12502,-2.75282,-87.3197,9.85972e-14,6.99722e-14,3.75636,15.3179,-16.5332,31.7481,14.2432,-41.9979,-44.8949,7.12502,-14.8931,-15.4502,-74.8217,-3.22569,22.7697,47.3698,-9.14683,-17.1502,1.81777,-39.9634,-9.92344,-13.983,37.6506,-37.5772,34.8173,1.67124
-4.7632,16.3515,15.6293,217.349,-4.91298,-180.3,6.6756,4.62059,8.17581,-0.614127,6.38414,6.36451,-4.19953,2.72774,1.47751,-10.806,-10.8376,-14.6553,17.5497,-15.5084,11.5726,9.35159,-7.40443,4.33165,-6.67916e-14,-9.54166e-14,22.4715,-0.0718591,-51.1259,23.4754,24.5202,-29.9567,-57.3025,7.12502,-3.27569,-87.2571,-6.67916e-14,-9.54166e-14,5.08295,15.2044,-16.7369,31.8126,14.1689,-42.7079,-43.9781,7.12502,-15.5771,-14.5854,-75.7288,-3.05255,22.8986,47.8347,-9.46499,-16.7415,2.83587,-40.5354,-10.4055,-13.6476,37.6477,-38.2385,35.5028,1.56047
-4.73168,16.3218,15.5446,218.151,-4.54399,-180.252,6.9614,4.61162,8.36949,-0.514596,6.38826,6.49371,-4.24841,2.71195,1.49084,-11.1994,-10.863,-14.6271,17.4229,-15.4616,11.6497,9.37842,-7.34829,4.34282,-3.18055e-14,3.49861e-14,22.8579,0.161229,-51.177,23.5917,23.8957,-30.391,-57.5517,7.12502,-3.69502,-87.4994,-3.18055e-14,3.49861e-14,6.87693,15.1718,-16.7989,31.4532,13.7711,-43.682,-45.106,7.12502,-16.5151,-15.7888,-76.6257,-2.91576,23.1763,48.3439,-9.79169,-16.2397,3.42201,-41.0007,-10.8451,-13.2808,37.5775,-39.0362,36.0972,1.86663
-4.69311,16.2883,15.4589,218.988,-4.1916,-180.268,7.27284,4.61243,8.39554,-0.470109,6.40484,6.65706,-4.39217,2.70328,1.62542,-11.3266,-10.8466,-14.5563,17.0227,-15.3163,11.5759,9.23165,-7.26807,4.326,3.18055e-14,3.49861e-14,23.1778,0.434495,-51.0924,23.745,23.303,-30.5762,-58.0849,7.12502,-3.87393,-88.0295,3.18055e-14,3.49861e-14,8.42749,15.2696,-16.7094,31.3488,13.2493,-43.636,-47.3644,7.12502,-16.4708,-18.0436,-77.5733,-2.66977,23.2595,48.8562,-10.194,-15.8484,4.69685,-41.5235,-11.16,-12.9767,37.5666,-39.7715,36.5424,2.25404
-4.65539,16.2434,15.3787,220.028,-3.8996,-180.119,7.41664,4.63686,8.55848,-0.46872,6.43305,6.88127,-4.47794,2.69162,1.76156,-11.6043,-10.8109,-14.5833,16.6694,-15.123,11.5794,9.13739,-7.15798,4.35103,-3.49861e-14,-5.40694e-14,23.7172,0.443169,-51.1276,23.8281,23.767,-29.5127,-59.1969,7.12502,-2.84685,-89.1576,-3.49861e-14,-5.40694e-14,9.33732,15.5638,-16.5381,31.8184,12.5038,-43.2083,-48.7966,7.12502,-16.059,-19.4421,-78.8293,-2.23733,23.3937,49.4661,-10.3857,-15.6161,5.53248,-42.3344,-11.648,-12.3311,37.5842,-40.5812,37.1582,2.53287
-4.61442,16.2085,15.2947,220.926,-3.47242,-180.247,7.7926,4.59157,8.39583,-0.43615,6.39236,7.03184,-4.69236,2.66152,1.98554,-11.7285,-10.7226,-14.6023,16.1896,-14.8956,11.7268,8.97954,-7.02726,4.43736,-6.04305e-14,6.99722e-14,24.3425,0.701955,-51.1358,23.8043,23.6547,-29.4923,-59.2939,7.12502,-2.82715,-89.2549,-6.04305e-14,6.99722e-14,11.075,15.4871,-16.618,31.4656,11.8259,-42.8491,-49.5421,7.12502,-15.713,-20.16,-79.9571,-1.99479,23.3314,50.0931,-10.4271,-15.3986,5.82258,-42.9357,-12.3382,-11.981,37.5864,-41.639,37.7162,2.92779
-4.56956,16.1512,15.2081,222.156,-2.55913,-180.858,7.83002,4.61047,7.40646,-0.393576,6.36417,7.01671,-4.77825,2.68845,2.50287,-11.8934,-10.6598,-14.5183,15.6287,-14.6899,11.822,8.79288,-6.90179,4.48453,4.29375e-14,1.01778e-13,24.9836,0.990674,-51.0172,23.8209,23.0478,-30.027,-58.2884,7.12502,-3.34356,-88.2419,4.29375e-14,1.01778e-13,12.5772,15.44,-16.6728,31.2551,10.8935,-42.4695,-49.8642,7.12502,-15.3474,-20.4538,-81.578,-1.60822,22.3848,50.8522,-10.4521,-15.4297,6.37318,-43.7004,-11.8805,-12.7864,37.4802,-42.1433,37.319,3.25647
-4.54023,16.1242,15.132,223.033,-2.65484,-180.504,8.24443,4.57613,8.1622,-0.284248,6.36042,7.31598,-4.84517,2.63219,2.38799,-12.4301,-10.6522,-14.3583,15.3273,-14.5128,11.6924,8.74022,-6.7876,4.42148,-4.77083e-14,2.22639e-14,25.5848,0.895597,-51.0402,23.9836,22.8184,-30.3866,-57.9132,7.12502,-3.69081,-87.861,-4.77083e-14,2.22639e-14,13.8491,15.3751,-16.8099,31.3496,10.2997,-42.2008,-49.2869,7.12502,-15.0886,-19.8568,-82.6683,-1.51874,23.1454,51.453,-10.6768,-15.0814,7.5994,-44.3292,-11.4815,-12.2023,37.4361,-42.1913,37.2669,3.15109
-4.49002,16.1205,15.0245,222.88,-2.92782,-180.589,9.66446,4.28699,8.65755,0.054366,6.12479,7.64502,-5.27229,2.46455,2.41465,-12.8847,-10.6164,-14.2795,15.0765,-14.3083,11.5524,8.69164,-6.67232,4.37575,1.27222e-14,-2.38542e-14,26.21,0.685007,-51.2586,24.1666,23.1072,-30.5189,-58.7377,7.12502,-3.81857,-88.6833,1.27222e-14,-2.38542e-14,15.4374,15.3044,-16.9946,31.1307,9.76697,-42.0154,-48.8618,7.12502,-14.91,-19.4184,-82.4921,-1.57426,23.3246,52.0982,-11.3084,-15.1418,9.25928,-43.7304,-11.6122,-12.0037,37.3181,-41.9844,37.5785,2.28584
-4.46185,16.0815,14.935,223.559,-2.61247,-180.06,10.2318,4.36072,9.29309,0.176258,6.29153,7.86624,-5.41189,2.49111,2.2565,-12.8015,-10.5294,-14.2286,14.6427,-14.1363,11.5886,8.50731,-6.58584,4.41306,-3.18055e-14,3.49861e-14,26.7918,0.795591,-51.2625,24.2069,23.1063,-30.6453,-59.2689,7.12502,-3.9406,-89.2122,-3.18055e-14,3.49861e-14,17.0173,15.3301,-17.0199,30.9685,8.77988,-41.9916,-49.0648,7.12502,-14.887,-19.6197,-83.2419,-1.22854,24.2366,52.5564,-11.2758,-14.7527,8.58447,-44.1092,-11.9946,-11.144,37.4065,-43.2118,37.9734,2.94411
-4.42258,16.0545,14.835,223.94,-2.6973,-179.916,11.0547,4.27517,9.87707,0.506761,6.26039,8.10497,-5.48128,2.42877,2.1604,-13.5727,-10.6092,-13.9828,14.443,-14.0935,11.4724,8.54406,-6.52008,4.31094,-2.22639e-14,4.92986e-14,27.67,0.672064,-51.1394,24.2098,22.8465,-30.6478,-59.18,7.12502,-3.94306,-89.1232,-2.22639e-14,4.92986e-14,18.7639,15.9253,-16.8533,30.6454,7.55435,-42.0974,-48.513,7.12502,-14.9889,-19.0755,-83.5716,-1.18703,24.8804,53.0753,-11.3343,-14.7973,7.22154,-44.1071,-11.7286,-10.8575,37.426,-43.2717,37.8018,2.42583
-4.37524,16.0135,14.7537,225.025,-2.5141,-180.015,11.3326,4.21422,9.87297,0.558275,6.19005,8.27966,-5.60375,2.37779,2.34555,-13.4231,-10.5456,-14.1067,13.6605,-13.9162,11.7467,8.26551,-6.42183,4.45971,-1.59028e-14,2.70347e-14,28.4202,0.999401,-50.9562,24.3318,22.249,-30.0778,-60.2924,7.12502,-3.39262,90.2451,-1.59028e-14,2.70347e-14,20.3519,15.8864,-17.0776,30.3778,7.03791,-42.3275,-48.6149,7.12502,-15.2107,-19.194,-84.8022,-0.907538,24.9151,53.5817,-11.4189,-14.9049,6.67087,-45.0344,-11.3231,-10.7722,37.655,-43.5356,37.4303,2.24353
-4.326,15.9718,14.6643,225.951,-2.13474,-180.132,11.8994,4.24486,9.73363,0.73648,6.26053,8.35615,-5.75269,2.40406,2.46266,-13.6136,-10.5917,-14.0028,12.755,-13.8786,12.1161,8.01834,-6.35435,4.5689,1.145e-13,1.22451e-13,29.1806,1.08945,-50.699,24.4394,21.8062,-30.1686,-61.3836,7.12502,-3.48027,91.335,1.145e-13,1.22451e-13,22.0981,16.0217,-17.3643,30.1643,6.86661,-42.7223,-50.25,7.12502,-15.5909,-20.8584,-85.8371,-0.43641,24.6111,54.1432,-11.8116,-15.1007,6.86752,-45.5922,-10.8425,-10.8972,37.742,-44.0547,36.6305,2.50734
-4.29292,15.9232,14.5893,227.015,-2.19212,-180.277,12.2234,4.09389,10.3378,0.959611,6.12456,8.3412,-5.62619,2.315,2.12893,-14.0796,-10.5896,-13.6822,11.9122,-13.762,12.3602,7.80497,-6.24188,4.60375,-3.81667e-14,-8.11041e-14,30.2359,0.952684,-50.6156,24.4386,21.7669,-31.0087,-61.0852,7.12502,-4.29158,91.0217,-3.81667e-14,-8.11041e-14,23.7526,16.5858,-17.6854,29.9588,6.1055,-42.8651,-50.6477,7.12502,-15.7284,-21.2669,-87.0442,-0.36166,24.6085,54.6915,-12.1869,-15.22,7.28021,-46.4869,-10.6824,-10.7114,37.8824,-44.4347,35.7051,3.00215
-4.26158,15.9101,14.4804,226.751,-1.83694,-180.139,14.0666,4.00698,10.7659,1.46297,6.21476,8.52644,-6.07808,2.29357,1.9947,-14.5649,-10.5634,-13.495,11.3225,-13.5729,12.2682,7.65022,-6.13048,4.55705,-1.49486e-13,-1.33583e-13,31.2724,1.23366,-50.0041,24.5529,21.2102,-30.6352,-61.2206,7.12502,-3.93085,91.164,-1.49486e-13,-1.33583e-13,25.1529,16.9067,-17.6827,29.8764,4.88649,-42.727,-50.1971,7.12502,-15.5954,-20.8059,-86.6733,-0.024788,24.5877,55.216,-12.8859,-15.0219,8.25338,-45.5447,-10.3102,-10.9372,37.8903,-45.4987,34.2606,4.32507
-4.22381,15.8814,14.3938,227.731,-1.54672,-180.327,14.7281,3.92267,10.8129,1.58984,6.17639,8.61085,-6.31342,2.25253,2.03634,-14.9169,-10.5052,-13.3666,10.7433,-13.3879,12.3427,7.49492,-6.01889,4.57962,-2.8625e-14,-9.22361e-14,32.2499,1.51494,-49.6017,24.7173,20.6513,-30.0418,-61.9141,7.12502,-3.35781,91.8674,-2.8625e-14,-9.22361e-14,26.522,17.2537,-17.5813,29.7913,3.41022,-42.727,-50.933,7.12502,-15.5954,-21.5417,-87.8008,0.244265,24.186,55.7078,-13.387,-14.8797,9.30154,-46.2432,-9.98097,-11.0563,37.9283,-45.7987,33.375,4.81752
-4.18884,15.8613,14.2883,227.873,-1.36911,-180.302,16.591,3.68558,11.3432,1.71472,6.1942,8.66326,-7.15671,2.17905,1.72062,-15.0791,-10.4057,-13.2953,10.2287,-13.2038,12.5756,7.34579,-5.90784,4.67007,-1.08139e-13,-7.4743e-14,32.9223,2.02341,-49.2402,24.8626,20.1279,-30.713,-62.0259,7.12502,-4.006,91.968,-1.08139e-13,-7.4743e-14,28.0112,17.3798,-17.6085,29.7172,2.15348,-42.5181,-53.033,7.12502,-15.3942,-23.6262,-87.8874,0.469939,24.1933,56.2183,-13.9159,-14.8736,9.5217,-45.8757,-9.70969,-11.1256,37.8893,-45.797,32.953,4.32076
-4.15173,15.8256,14.1863,228.327,-1.19408,-180.342,18.793,3.48666,11.717,1.35201,6.43329,8.68216,-8.73826,2.1799,1.39412,-15.3662,-10.304,-12.9962,10.1941,-13.0424,12.3489,7.3238,-5.82534,4.5636,-5.08889e-14,-9.54166e-15,32.7936,2.54929,-49.0296,25.2194,19.8808,-31.9791,-61.1785,7.12502,-5.22857,91.094,-5.08889e-14,-9.54166e-15,29.8385,16.9139,-17.5631,29.7144,1.31071,-42.1942,-55.0159,7.12502,-15.0823,-25.5853,-88.3865,0.676495,24.177,56.777,-14.1873,-15.0229,8.33247,-45.9021,-9.43382,-11.1957,37.9204,-45.7521,32.6829,3.59166
-4.11011,15.7763,14.0905,229.248,-0.839532,-180.623,19.6585,3.38083,11.7909,1.45983,6.43438,8.60556,-9.08003,2.15572,1.23296,-15.8015,-10.2371,-12.5293,9.70848,-12.8926,12.1608,7.17542,-5.73758,4.43939,1.90833e-14,-2.22639e-14,33.0427,2.06133,-49.4759,25.7111,20.49,-32.3835,-61.4202,7.12502,-5.61898,91.3257,1.90833e-14,-2.22639e-14,31.4721,17.1346,-17.6124,29.7508,0.719624,-42.1996,-54.1044,7.12502,-15.0875,-24.6743,-89.4852,0.913687,23.7181,57.3829,-14.3031,-15.2665,6.15534,-46.4645,-9.15741,-11.5009,37.8926,-45.7251,32.4496,3.36809
-4.06732,15.7274,13.9956,230.322,-0.744781,-180.932,19.7894,3.29715,12.0598,1.89739,6.28554,8.6323,-8.63312,2.08734,1.14953,-16.3348,-10.2818,-12.2258,8.84835,-12.855,12.2499,6.96997,-5.69179,4.41362,2.54444e-14,7.95139e-15,33.6543,1.21265,-49.8843,26.2415,21.3845,-31.3884,-63.1041,7.12502,-4.6582,93.0329,2.54444e-14,7.95139e-15,33.158,17.9562,-17.5072,29.6313,0.374474,-41.9488,-52.4967,7.12502,-14.8458,-23.0485,-90.7044,1.0519,23.2923,58.0153,-14.6985,-15.5139,5.4645,-47.2787,-9.0372,-11.589,37.8621,-45.3932,32.4874,2.64742
-4.03175,15.6977,13.8723,230.582,-0.875695,-180.992,20.8946,2.94144,12.8507,2.44056,5.99208,8.79436,-8.56384,1.88346,0.9427,-16.796,-10.2043,-12.1948,8.03029,-12.6311,12.4444,6.76923,-5.56716,4.49469,3.18055e-15,-6.36111e-15,35.311,1.48973,-49.3624,26.0902,21.1145,-31.8848,-62.8743,7.12502,-5.1375,92.792,3.18055e-15,-6.36111e-15,34.4055,18.3071,-17.8509,29.5434,0.381389,-41.6151,-51.9192,7.12502,-14.5243,-22.4476,-90.8627,1.15402,23.2634,58.6644,-15.4247,-15.6922,5.28818,-47.0346,-9.01211,-11.4862,37.8219,-45.1853,32.3467,1.45331
-3.99397,15.6575,13.7534,231.251,-0.85184,-181.182,22.2279,2.6801,13.3466,2.47193,5.96906,8.84917,-9.20616,1.79436,0.705314,-17.3496,-10.1085,-11.9028,7.65583,-12.5134,12.365,6.69976,-5.55801,4.41849,7.63333e-14,7.39479e-14,36.1891,1.8583,-48.7515,26.094,20.6426,-33.2272,-61.9208,7.12502,-6.4336,91.8031,7.63333e-14,7.39479e-14,35.9242,18.0444,-18.1676,29.7907,0.532864,-41.5575,-49.7978,7.12502,-14.4688,-20.3222,-91.5559,1.31718,22.8838,59.3227,-16.1624,-15.8157,6.88941,-47.2593,-8.92301,-11.5187,37.7589,-44.672,32.4623,0.100309
-3.95095,15.5908,13.6429,232.507,-0.358873,-181.667,22.6825,2.6813,12.7155,2.60169,5.86751,9.20913,-9.4227,1.75149,1.46704,-17.7341,-10.0139,-12.2499,6.98167,-12.171,12.2831,6.51825,-5.39478,4.49005,-1.27222e-14,-2.8625e-14,37.5401,2.38583,-47.6274,26.4147,20.1091,-31.5672,-63.6089,7.12502,-4.83082,93.5338,-1.27222e-14,-2.8625e-14,37.012,18.7589,-16.581,30.213,-0.763196,-41.0662,-47.2953,7.12502,-13.9954,-17.7864,-92.9789,1.55577,21.9218,59.985,-16.5604,-16.1822,7.12474,-48.2377,-8.72406,-12.0343,37.8778,-44.1808,32.5459,-0.391381
-3.91037,15.5452,13.4989,232.65,0.244635,-181.964,24.4705,2.67393,12.4684,2.94779,5.99324,9.44777,-10.0347,1.75406,1.79324,-18.3369,-10.0336,-12.3233,6.36977,-12.0217,12.1845,6.39687,-5.30515,4.47885,1.27222e-14,-8.11041e-14,38.6952,2.29312,-46.7654,26.6393,19.7672,-33.513,-62.4232,7.12502,-6.70945,92.2969,1.27222e-14,-8.11041e-14,38.7316,19.3451,-15.6954,30.3781,-0.854638,-40.4904,-48.2947,7.12502,-13.4405,-18.7483,-92.9573,1.83479,21.3636,60.655,-16.8248,-16.8541,3.55031,-47.7217,-8.51976,-12.7197,37.9293,-44.5538,31.702,0.79559
-3.85429,15.4639,13.4202,235.415,0.123516,-182.572,23.3427,2.80228,12.0569,2.73435,5.93291,9.83804,-9.77161,1.77377,2.50729,-19.2702,-10.0256,-12.2641,5.85098,-11.8294,12.0965,6.34448,-5.17261,4.44794,4.13472e-14,2.06736e-14,40.0262,1.96364,-46.1334,26.9446,19.4221,-34.1406,-62.4181,7.12502,-7.31531,92.2717,4.13472e-14,2.06736e-14,40.5272,20.3587,-14.0059,30.3933,-2.03595,-40.786,-51.9559,7.12502,-13.7254,-22.4286,-96.0396,1.61915,20.9517,61.2728,-17.0861,-17.2081,4.36286,-50.7293,-8.49163,-12.4594,38.1936,-43.7378,31.5518,0.704312
-3.81199,15.4318,13.2632,235.586,0.341862,-183.045,24.9361,2.59978,12.2406,3.16247,5.83651,10.0867,-10.1396,1.66528,2.69286,-20.3224,-10.0115,-12.0782,5.43816,-11.6319,11.8774,6.32473,-5.03668,4.35337,-6.36111e-15,-7.55382e-14,41.3586,1.43041,-45.6063,27.4853,19.2234,-33.0708,-63.8116,7.12502,-6.2826,93.6984,-6.36111e-15,-7.55382e-14,42.0811,21.1292,-13.0197,30.3148,-2.99625,-41.3437,-53.4868,7.12502,-14.2628,-23.9966,-96.0459,1.51911,20.4284,61.9886,-18.2518,-17.2272,6.98278,-50.3366,-8.66943,-12.9051,38.2302,-43.2201,31.4892,0.238428
-3.76846,15.363,13.1297,236.98,0.718592,-183.448,25.2686,2.66385,12.0145,3.29437,5.87081,10.3755,-10.2212,1.67596,3.13425,-21.0931,-10.0213,-12.1783,4.82085,-11.4332,11.8858,6.22737,-4.8993,4.38856,-3.81667e-14,-1.26825e-13,42.7128,0.969176,-45.0192,27.8976,18.9949,-32.1002,-65.5595,7.12502,-5.34546,95.4721,-3.81667e-14,-1.26825e-13,43.7165,21.9061,-11.7078,30.2447,-4.45909,-42.0361,-54.3423,7.12502,-14.9299,-24.9004,-97.4533,1.54439,19.8531,62.6669,-19.0037,-17.3054,7.29194,-51.4896,-8.53339,-13.2242,38.4279,-42.3807,31.6556,-0.457729
-3.72733,15.3342,12.9656,237.222,0.774572,-183.943,26.9587,2.39778,12.4372,3.55922,5.80762,10.6896,-10.7928,1.55922,3.27853,-21.311,-9.98652,-12.4556,3.53651,-11.1475,12.1253,5.84891,-4.72175,4.56178,-4.45278e-14,-9.38264e-14,44.0831,0.446259,-44.607,28.2686,18.8232,-32.1018,-66.481,7.12502,-5.34702,96.3935,-4.45278e-14,-9.38264e-14,45.0891,22.2638,-11.1353,30.4546,-5.16609,-43.0939,-54.5124,7.12502,-15.9488,-25.1491,-97.3859,1.26472,19.652,63.3095,-20.0476,-17.3302,7.66912,-51.2138,-8.80635,-13.4998,38.3896,-41.1282,31.8036,-1.72094
-3.68552,15.2819,12.8306,238.313,0.636624,-184.546,27.7955,2.18356,12.9583,3.2719,5.81207,11.1435,-10.8727,1.4392,3.19946,-22.493,-10.0416,-12.2429,3.53368,-11.0304,11.6607,5.96271,-4.63304,4.36856,-2.54444e-14,-8.82604e-14,45.3044,-0.345761,-44.3329,28.7263,18.8599,-31.1728,-67.9335,7.12502,-4.45001,97.8668,-2.54444e-14,-8.82604e-14,46.291,22.1579,-11.2257,31.0559,-4.88756,-44.1896,-51.6735,7.12502,-17.0037,-22.3977,-98.3476,0.772738,19.6089,63.8931,-20.7832,-17.3662,7.31656,-51.6335,-9.09006,-13.4289,38.4286,-42.9159,26.5334,5.27375
-3.63325,15.2447,12.6793,239.72,0.866503,-185.091,28.1629,2.24368,12.9788,3.30131,5.94824,11.3988,-11.0375,1.48164,3.41633,-23.3121,-10.0589,-11.9406,3.02261,-10.9049,11.3665,5.86608,-4.53798,4.23429,6.36111e-15,6.87795e-14,46.5205,-1.34279,-44.0477,28.9826,18.9739,-30.1943,-69.4535,7.12502,-3.50508,99.4044,6.36111e-15,6.87795e-14,48.1959,22.8851,-9.80465,31.2796,-5.14037,-45.1464,-56.0626,7.12502,-17.9245,-26.8686,-99.4903,0.365457,19.5929,64.2645,-21.3531,-17.2103,6.45962,-52.9795,-9.1278,-13.6045,38.3409,-38.4742,30.8346,-4.40902
-3.58004,15.21,12.5099,240.618,1.05287,-185.887,29.1303,1.98405,13.029,3.51814,5.71571,11.7778,-11.2729,1.33513,3.87543,-24.4132,-10.0266,-12.1915,2.33781,-10.5307,11.536,5.78756,-4.27277,4.37181,1.20861e-13,1.27123e-13,48.5462,-1.91884,-43.6468,29.1456,18.912,-30.3057,-69.9316,7.12502,-3.61266,99.8808,1.20861e-13,1.27123e-13,49.9987,24.228,-7.75585,30.886,-6.19767,-45.1495,-54.7195,7.12502,-17.9275,-25.5258,-100.025,-0.153386,19.2433,64.6491,-21.6782,-17.7483,3.97702,-53.2621,-9.49763,-13.9562,38.1652,-35.8643,32.4966,-7.41065
-3.52727,15.1793,12.3472,241.715,0.930486,-186.516,29.8333,1.79425,13.5103,3.6263,5.67334,12.1863,-11.4478,1.25379,4.09626,-25.2159,-10.1481,-12.6644,1.6054,-10.3798,12.1054,5.71392,-4.10055,4.64982,6.04305e-14,-6.16605e-14,50.2008,-2.68979,-43.1641,29.5468,18.7043,-30.5713,-70.0498,7.12502,-3.86917,99.9944,6.04305e-14,-6.16605e-14,52.4336,25.478,-4.94081,30.2543,-8.48473,-45.8329,-56.5229,7.12502,-18.5849,-27.3907,-100.75,-0.660836,19.2345,65.0375,-22.3153,-17.9245,3.18726,-53.5484,-9.74128,-13.7829,37.8156,-33.8367,32.0293,-5.60882
-3.47893,15.1611,12.1752,242.439,0.919133,-187.2,30.8771,1.60695,14.2494,3.79642,5.76175,12.4205,-11.6306,1.21125,3.95457,-25.9545,-10.342,-12.813,0.729905,-10.3866,12.5216,5.57504,-4.0091,4.80825,-6.36111e-14,-1.26328e-13,51.5591,-3.96275,-42.8508,29.9745,18.7138,-31.025,-69.9279,7.12502,-4.30729,99.8641,-6.36111e-14,-1.26328e-13,55.0517,26.4117,-2.53948,30.1496,-9.85912,-46.5188,-56.2632,7.12502,-19.2446,-27.1954,-101.108,-1.2076,18.9303,65.5335,-23.5993,-17.3442,6.11401,-53.1413,-10.0624,-13.8195,37.2946,-31.2644,31.0627,-3.14061
-3.43089,15.142,11.9841,242.617,1.24825,-188.04,32.4445,1.3193,14.8537,4.07103,5.77006,12.5042,-11.8991,1.13099,3.7495,-26.4719,-10.2998,-12.2187,-0.602124,-10.1755,12.1384,5.1361,-3.85901,4.63335,2.22639e-13,1.65786e-13,52.9434,-5.31657,-42.7385,30.3209,18.8984,-31.2492,-70.2934,7.12502,-4.52378,100.225,2.22639e-13,1.65786e-13,57.392,27.2089,-1.03303,30.1561,-10.1488,-46.2149,-54.1085,7.12502,-18.9524,-25.0119,-100.832,-1.70057,18.1665,66.0705,-24.6703,-17.1903,7.26724,-51.8441,-10.5154,-14.4419,36.7567,-28.4903,30.2183,-3.56837
-3.3802,15.1026,11.8001,243.312,1.79687,-189.059,33.3896,1.08913,15.1575,4.21017,5.728,12.4714,-12.0796,1.07984,3.58393,-28.2097,-10.243,-11.1175,-0.086355,-10.1093,11.0498,5.38969,-3.81739,4.08633,1.27222e-14,1.10127e-13,54.1492,-6.67839,-42.8967,30.7746,18.9745,-30.3278,-71.9351,7.12502,-3.634,101.884,1.27222e-14,1.10127e-13,61.2469,27.7355,3.14935,29.8359,-12.6562,-45.7273,-50.4487,7.12502,-18.4833,-21.3068,-101.151,-2.23399,17.096,66.5932,-25.4252,-17.43,6.53224,-50.916,-11.0155,-15.3117,36.1784,-26.0861,29.1251,-4.68955
-3.32303,15.0257,11.6566,245.297,2.50967,-190.235,32.8435,1.1118,15.0246,4.20298,5.66967,12.4449,-11.8846,1.11381,3.63027,-30.9999,-10.1838,-10.0555,1.49693,-9.96904,9.60589,6.07674,-3.75013,3.42482,-4.45278e-14,-9.14409e-15,55.5188,-8.15089,-43.4336,31.2483,18.9701,-29.7548,-72.8519,7.12502,-3.08064,102.809,-4.45278e-14,-9.14409e-15,64.1609,28.0751,5.45386,29.6418,-13.6517,-46.4792,-53.3238,7.12502,-19.2065,-24.2522,-103.038,-2.89055,15.8674,67.0609,-25.6229,-18.0018,4.3346,-51.3584,-11.4839,-16.1346,35.6457,-23.859,28.0109,-5.26312
-3.27171,14.9637,11.4841,246.353,3.09122,-191.129,33.2344,0.9149,15.4804,4.26984,5.63391,12.4584,-11.9026,1.07624,3.43893,-31.2076,-10.2557,-10.3302,0.41556,-9.82984,10.0776,5.77712,-3.59748,3.66078,8.5875e-14,1.10524e-13,57.0101,-9.41407,-44.0546,31.7215,18.8755,-30.4169,-72.7789,7.12502,-3.72005,102.726,8.5875e-14,1.10524e-13,67.0558,28.575,7.9037,29.0018,-15.3317,-46.7076,-65.7139,7.12502,-19.4262,-36.6643,-103.725,-3.33325,14.9645,67.4859,-25.7388,-18.9106,1.3933,-50.3592,-11.9363,-16.9385,35.0683,-20.3575,25.6676,1.42513
-3.22101,14.9076,11.3093,247.35,3.61731,-191.986,33.5745,0.668973,16.1175,4.34583,5.57474,12.5139,-11.8652,1.01879,3.21954,-31.0409,-10.4846,-10.9305,-0.839322,-9.8898,11.0875,5.47427,-3.51676,4.08378,-6.67916e-14,-2.06736e-14,58.6642,-10.5083,-44.6287,32.0973,18.6954,-30.7229,-73.9166,7.12502,-4.01552,103.859,-6.67916e-14,-2.06736e-14,69.6865,28.9518,10.0628,28.4514,-16.9142,-46.4242,-72.9093,7.12502,-19.1537,-43.8325,-104.289,-3.76336,13.9943,67.885,-26.0546,-19.6888,0.363115,-48.9834,-12.4392,-17.722,34.3558,-21.0515,24.3345,-9.51043
-3.17057,14.854,11.1391,248.468,4.43634,-192.958,33.7197,0.445109,16.5375,4.38224,5.46789,12.4974,-11.8207,0.966424,3.04167,-31.5309,-10.4514,-11.0264,-1.32752,-9.59134,10.7653,5.29732,-3.34572,4.05708,-5.08889e-14,2.62396e-14,60.3792,-11.4164,-45.2677,32.4024,18.3838,-30.5258,-75.3368,7.12502,-3.8252,105.282,-5.08889e-14,2.62396e-14,71.3053,29.0247,10.6747,28.4721,-16.5448,-45.7462,-74.2811,7.12502,-18.5016,-45.141,-105.01,-4.2587,12.5848,68.2542,-26.5177,-20.1873,0.266293,-47.4626,-13.0188,-18.8029,33.4949,-20.1993,22.9025,-11.0946
-3.12398,14.8199,10.9446,248.953,5.26775,-193.94,34.5161,0.0220573,17.206,4.42959,5.31594,12.4758,-11.9869,0.851881,2.7735,-32.1433,-10.5022,-11.1962,-1.62274,-9.42134,10.6754,5.25563,-3.22113,4.07844,-9.54166e-14,-2.10712e-13,61.9807,-12.081,-45.8108,32.8559,18.092,-29.7211,-76.695,7.12502,-3.04815,106.653,-9.54166e-14,-2.10712e-13,72.4812,28.8506,10.6784,29.0237,-14.6508,-44.2712,-71.171,7.12502,-17.0822,-41.902,-104.907,-4.74831,11.1379,68.5803,-27.1468,-20.4819,-0.00635043,-44.895,-13.6868,-20.0693,32.5039,-19.2737,22.8472,-14.9156
-3.08295,14.7706,10.7774,250.347,6.08059,-194.694,34.1438,-0.0356202,17.552,4.426,5.29212,12.6252,-11.8127,0.851934,2.77786,-33.3518,-10.4926,-10.893,-1.11662,-9.32202,10.1554,5.50443,-3.16976,3.85569,1.65389e-13,1.11319e-13,63.4589,-12.5973,-46.2769,33.2808,18.0403,-28.8466,-78.3705,7.12502,-2.20355,108.339,1.65389e-13,1.11319e-13,73.6,28.6309,10.8905,29.1221,-14.3293,-44.3896,-73.2079,7.12502,-17.1962,-43.9488,-105.793,-5.24344,9.92426,68.7544,-27.6021,-20.5714,-0.332282,-42.964,-12.0735,-22.0776,31.4825,-17.222,20.7567,-16.1986
-3.04581,14.7231,10.6132,251.806,6.9022,-195.467,33.7795,-0.1136,17.9129,4.29183,5.29893,12.7782,-11.7928,0.857473,2.77088,-33.7275,-10.3528,-10.7781,-1.35926,-9.04382,9.83625,5.4131,-3.03417,3.77478,-1.27222e-13,-1.07344e-13,64.9296,-12.9199,-46.8601,33.4724,17.8576,-28.5582,-79.3663,7.12502,-1.92506,109.337,-1.27222e-13,-1.07344e-13,74.5668,28.4427,11.2448,29.0607,-14.7334,-44.978,-73.3624,7.12502,-17.7625,-44.1537,-106.696,-5.80046,8.68226,68.8,-27.8123,-20.9961,-1.74757,-40.9539,-10.4853,-23.9882,30.5155,-15.9645,19.384,-21.2918
-3.01052,14.6937,10.4285,252.699,7.53249,-196.204,34.0807,-0.428569,18.7052,4.10861,5.30315,12.9166,-12.0306,0.803964,2.56823,-33.869,-10.2686,-10.9908,-1.57777,-8.80159,9.85821,5.34315,-2.9036,3.85418,-1.65389e-13,-1.00983e-13,66.308,-12.9678,-47.4192,33.6451,17.2662,-28.1726,-80.1732,7.12502,-1.55258,110.147,-1.65389e-13,-1.00983e-13,73.6952,28.57,9.15347,29.8668,-13.3534,-46.0291,-74.7208,7.12502,-18.7737,-45.6068,-106.802,-6.28971,7.6161,68.7434,-28.0703,-21.4917,-3.24062,-38.2152,-8.80341,-25.6498,29.7193,-14.8755,17.7767,-25.4389
-2.97722,14.6816,10.2361,253.628,7.72873,-196.663,34.386,-0.820288,20.0521,3.85587,5.39274,12.9767,-12.1612,0.754539,2.11322,-34.3366,-10.0005,-10.7091,-1.57255,-8.44939,9.54843,5.3349,-2.73983,3.75812,1.46306e-13,8.18993e-14,67.305,-12.9154,-47.8954,33.954,16.6885,-28.1188,-80.8085,7.12502,-1.50064,110.783,1.46306e-13,8.18993e-14,71.278,29.3875,5.00548,31.6134,-9.67871,-44.4144,-77.1014,7.12502,-17.2201,-47.8444,-106.727,-6.63126,7.03052,68.5895,-28.5737,-21.5615,-3.6894,-35.4836,-7.48445,-26.3183,29.0009,-13.7379,15.8157,-26.5118
-2.94631,14.6801,10.0345,254.673,7.90747,-196.953,34.5532,-1.01187,21.3129,3.68353,5.63453,13.4543,-12.2822,0.75781,2.01025,-34.1909,-9.96154,-11.4479,-1.94062,-8.0528,9.42005,5.17315,-2.5483,3.89316,-8.42847e-14,7.95139e-16,68.9871,-12.605,-47.4451,33.6347,15.7944,-28.4184,-80.6926,7.12502,-1.79002,110.665,-8.42847e-14,7.95139e-16,72.1328,29.4771,6.16594,31.2829,-11.0938,-43.8679,-80.8121,7.12502,-16.694,-51.5099,-106.665,-6.88357,6.48326,68.375,-29.3602,-21.0242,-3.57209,-32.782,-6.57605,-26.5022,28.3717,-12.842,13.5601,-27.4399
-2.9137,14.6659,9.85107,256.07,8.98134,-197.811,34.1756,-1.21589,21.6055,3.29993,5.58516,13.2323,-12.5321,0.738287,1.65051,-34.4712,-9.34892,-10.272,-1.83776,-7.65617,8.83732,5.13199,-2.41379,3.57299,-2.98972e-13,-2.79889e-13,69.2343,-12.3951,-47.9449,34.2694,15.0269,-29.1459,-81.0508,7.12502,-2.49266,111.016,-2.98972e-13,-2.79889e-13,76.3492,28.1871,9.73202,29.6596,-15.4825,-45.1037,-80.8115,7.12502,-17.8835,-51.6138,-107.103,-7.7466,4.88974,68.1337,-30.1578,-19.8538,-1.78437,-30.4639,-5.94255,-27.5829,27.9331,-11.9371,11.124,-29.7666
-2.88213,14.6458,9.66489,257.233,10.3752,-198.835,33.798,-1.16235,21.3441,3.07575,5.57195,13.6734,-12.7548,0.752285,2.25992,-34.1052,-9.31968,-11.3188,-2.12343,-7.24042,8.98364,4.99739,-2.20662,3.84897,-1.47896e-13,-1.95604e-13,70.6195,-11.8052,-46.9638,34.1886,14.4784,-31.694,-82.046,7.12502,-4.95325,111.968,-1.47896e-13,-1.95604e-13,73.0944,29.4405,6.3302,31.3659,-11.5296,-44.0929,-80.8452,7.12502,-16.9106,-51.5614,-107.301,-8.74937,2.98992,67.8025,-30.2563,-19.3232,-2.08443,-27.8002,-5.52551,-28.8439,27.5951,-11.4673,8.89699,-31.1838
-2.8534,14.6515,9.4504,258.447,11.027,-199.465,33.4489,-1.25781,21.9101,2.64058,5.70492,14.0136,-13.0915,0.755538,2.3531,-33.7284,-9.03216,-11.7115,-2.15306,-6.78145,8.92483,4.90998,-2.01461,3.95769,-6.83819e-14,-5.96354e-14,71.0418,-10.9088,-46.6031,34.3541,15.5124,-28.7863,-84.219,7.12502,-2.14533,114.188,-6.83819e-14,-5.96354e-14,74.0386,29.0702,7.26367,30.8989,-12.851,-45.0134,-79.1677,7.12502,-17.7965,-49.9621,-107.273,-9.48367,2.13603,67.2499,-29.5792,-19.905,-4.63434,-25.195,-5.51591,-28.9844,27.4478,-9.66858,7.01192,-25.6804
-2.8199,14.6716,9.23022,260.141,11.4634,-200.114,32.4636,-1.08436,22.2266,2.2105,5.91114,14.6273,-13.3088,0.81492,2.7006,-33.5019,-8.53185,-11.4872,-2.09799,-6.21662,8.3148,4.81185,-1.81399,3.79664,4.45278e-14,1.11319e-13,71.0824,-9.90906,-45.9053,35.0521,17.9251,-29.9082,-86.2028,7.12502,-3.22877,116.158,4.45278e-14,1.11319e-13,74.6877,28.7173,7.98232,30.7359,-13.8667,-45.842,-77.9384,7.12502,-18.5937,-48.807,-107.754,-10.4081,1.7263,66.6211,-28.4612,-20.7835,-7.6758,-23.0308,-5.80673,-28.7083,27.2666,-8.51975,5.82806,-24.953
-2.79551,14.6368,9.04306,261.524,12.464,-200.821,31.8445,-1.01084,22.3731,1.82305,6.02167,14.9937,-13.5432,0.851163,3.00728,-33.2452,-8.18442,-11.5802,-2.13406,-5.72207,7.76657,4.70049,-1.63337,3.69473,1.74931e-14,2.52059e-13,71.371,-9.02813,-45.0626,35.9986,20.5529,-30.033,-88.5721,7.12502,-3.34936,118.526,1.74931e-14,2.52059e-13,73.8876,29.1876,7.77176,31.2544,-13.2466,-46.568,-76.5887,7.12502,-19.2919,-47.5256,-107.923,-11.3203,0.459086,66.0985,-28.6431,-20.1494,-6.94734,-20.4024,-6.21731,-28.9337,27.4572,-7.47178,5.64593,-27.0959
-2.75178,14.6511,8.82615,263.342,13.7379,-201.726,31.023,-1.1136,22.6218,1.15317,6.04461,14.7665,-13.9407,0.846314,2.63768,-32.5754,-7.89884,-11.5797,-2.32591,-5.47637,7.76049,4.53925,-1.54665,3.72942,-1.35174e-13,-6.75868e-14,71.4608,-8.37294,-45.1305,36.8958,21.9706,-29.1232,91.1787,7.12502,-2.4707,121.144,-1.35174e-13,-6.75868e-14,76.0501,30.4352,11.3749,30.6849,-11.3511,-37.1979,95.3469,7.12502,-10.2656,-65.6174,-109.025,-12.4549,-1.20532,65.5268,-27.2356,-21.1297,-9.20483,-18.5574,-6.61215,-29.3868,27.9979,-6.1267,5.32029,-27.7441
-2.70412,14.669,8.61708,265.036,14.6026,-202.313,30.3304,-1.07962,22.9357,0.617052,6.20447,14.7147,-14.2265,0.885122,2.38885,-31.8679,-7.47483,-11.1798,-2.62742,-5.18154,7.58624,4.31799,-1.44749,3.65255,2.00375e-13,3.65764e-14,71.4696,-7.85476,-44.8219,37.9447,21.9386,-29.5591,94.9873,7.12502,-2.8917,124.947,2.00375e-13,3.65764e-14,74.2199,30.1689,8.12424,30.7893,-13.4952,-48.1945,-80.5224,7.12502,-20.8553,-51.6234,-109.168,-13.3288,-2.12816,64.5696,-26.8403,-20.9156,-8.2053,-16.9204,-6.54515,-29.3116,29.1942,-4.5926,4.95769,-26.5271
-2.65353,14.6874,8.39894,266.309,15.1377,-203.085,29.9296,-1.02592,23.3527,0.232868,6.41132,15.1924,-14.5135,0.92719,2.68476,-31.4353,-7.06814,-10.9544,-3.00461,-4.73203,6.98723,4.07688,-1.27913,3.47885,6.20208e-14,3.65764e-14,71.781,-7.34039,-43.3278,39.1479,21.5107,-31.0709,99.3273,7.12502,-4.35158,129.263,6.20208e-14,3.65764e-14,74.943,30.8331,9.75769,30.6037,-12.3438,-46.6504,-77.8452,7.12502,-19.3712,-48.79,-108.416,-14.1333,-3.01069,63.3651,-26.3499,-20.9211,-6.94634,-15.0686,-5.55893,-28.8055,30.8331,-3.75469,3.9368,-28.6461
-2.5985,14.7076,8.18924,267.834,15.5032,-203.894,29.2738,-0.859491,23.8823,-0.182653,6.69542,15.8614,-14.7276,0.997172,3.12768,-30.715,-6.71614,-11.0763,-3.82017,-4.22992,6.33853,3.66359,-1.06497,3.35189,-9.85972e-14,-4.85035e-14,72.237,-6.84397,-41.6233,40.3806,21.6344,-34.07,104.529,7.12502,-7.24718,134.385,-9.85972e-14,-4.85035e-14,75.5674,31.5554,11.5102,31.1231,-9.60677,-45.2495,-70.0732,7.12502,-18.0237,-40.8883,-107.911,-15.0545,-3.72609,61.9432,-25.7912,-21.1561,-7.84333,-13.7672,-5.15094,-27.9102,33.1434,-3.19001,4.29183,-26.0135
-2.53269,14.7466,7.96683,269.521,16.0984,-204.744,28.5899,-0.75529,24.3477,-0.764491,6.95934,16.1885,-15.0961,1.05154,3.22847,-29.6098,-6.23398,-11.0179,-4.79084,-3.71493,5.95205,3.16674,-0.831675,3.28598,-1.25632e-13,1.59028e-15,72.2872,-6.43894,-40.7849,41.9105,22.3562,-37.655,113.909,7.12502,-10.7065,143.616,-1.25632e-13,1.59028e-15,76.4227,32.5418,13.6868,29.0363,-12.794,-45.7858,-81.7754,7.12502,-18.5397,-52.6389,-107.307,-16.0732,-4.73176,60.2724,-25.6393,-21.3622,-9.76934,-12.8733,-4.43974,-27.0527,35.7356,-3.306,4.17496,-28.9084
-2.46158,14.7905,7.74037,271.189,17.0158,-205.742,27.765,-0.684642,24.6079,-1.40775,7.11065,16.366,-15.4927,1.07758,3.29032,-28.5411,-5.90953,-11.602,-5.38409,-3.26663,6.29499,2.83276,-0.59694,3.54596,7.95139e-16,5.725e-14,72.0655,-6.06256,-40.3232,43.7622,23.3123,-39.1306,116.465,7.12502,-12.1296,146.093,7.95139e-16,5.725e-14,76.4112,33.1762,14.0709,28.4719,-12.4067,-45.9415,-79.871,7.12502,-18.6894,-50.7488,-106.548,-17.2442,-6.2402,58.4674,-25.3207,-21.8111,-10.6197,-12.1386,-3.80425,-26.377,38.4822,-2.68135,4.00244,-29.5973
-2.38957,14.8451,7.49577,272.665,17.7801,-206.814,26.9187,-0.532385,25.0072,-1.95851,7.31082,16.9847,-15.8084,1.12167,3.79168,-27.4855,-6.10864,-14.0831,-5.57261,-2.98981,7.59212,2.71594,-0.387632,4.38799,-1.09729e-13,-8.5875e-14,72.3987,-5.51837,-38.7291,45.5801,22.8742,-39.8528,116.834,7.12502,-12.8259,146.42,-1.09729e-13,-8.5875e-14,74.1498,33.6314,12.1535,30.3507,-7.37594,-45.8859,-64.3877,7.12502,-18.636,-35.2603,-105.429,-18.371,-7.73338,56.5002,-24.6286,-22.5945,-11.3716,-11.2544,-3.14696,-25.4045,41.1491,-1.7208,3.68597,-27.7998
-2.31254,14.9136,7.24147,274.155,18.4976,-207.799,26.2074,-0.190488,25.2922,-2.46212,7.70352,18.0143,-16.2171,1.25628,4.76783,-26.222,-6.47673,-17.2825,-5.70791,-2.79813,8.64391,2.55047,-0.232419,5.25703,8.66701e-14,-1.70955e-14,73.3552,-4.89316,-35.6311,46.4815,22.1047,-40.7111,116.464,7.12502,-13.6532,145.996,8.66701e-14,-1.70955e-14,72.0728,34.4621,12.4846,30.6216,-6.90631,-46.3457,-62.0164,7.12502,-19.0781,-32.9321,-104.187,-19.3658,-9.27196,54.3478,-23.8166,-23.5314,-12.1634,-10.5106,-2.45427,-24.2072,43.9871,-0.692384,3.32358,-27.3621
-2.23208,14.9929,6.97872,275.808,19.3595,-208.698,25.4623,-0.448348,25.8538,-3.3469,7.6949,17.0642,-16.7089,1.14044,3.47378,-24.5725,-4.93229,-12.7719,-6.37492,-2.36114,6.69688,2.0069,-0.242744,3.957,9.14409e-14,1.11319e-14,71.0416,-5.05485,-35.1507,48.472,21.0603,-40.4311,115.146,7.12502,-13.3833,144.697,9.14409e-14,1.11319e-14,75.4254,35.0183,15.8184,28.5578,-10.6844,-46.2478,-70.0501,7.12502,-18.9841,-40.9565,-102.872,-20.3522,-11.0786,51.9396,-23.1607,-24.49,-12.1782,-9.91041,-1.90431,-23.0333,46.7548,0.0495319,2.9273,-27.1001
-2.15433,15.0796,6.70686,277.433,20.363,-209.599,24.4648,-0.419427,26.3758,-3.84701,7.7097,16.9912,-16.7389,1.10387,3.19446,-22.5877,-4.48331,-12.144,-7.28662,-2.25763,6.52188,1.4521,-0.253199,3.81815,3.81667e-14,1.54654e-13,71.1289,-5.09119,-33.0532,49.159,20.1968,-39.1776,113.693,7.12502,-12.1749,143.319,3.81667e-14,1.54654e-13,72.9641,35.783,14.0626,30.4829,-7.51187,-44.7477,-65.9289,7.12502,-17.5409,-36.7003,-101.124,-21.3778,-13.1797,49.1524,-22.5155,-25.4316,-12.3142,-9.51565,-1.43561,-21.9365,49.8088,0.10115,2.48488,-25.8388
-2.07575,15.1747,6.44241,278.988,21.7852,-210.507,23.3693,-0.0958431,26.4927,-4.26877,7.88995,17.0294,-16.6677,1.17968,3.15562,-21.662,-4.35901,-12.4021,-7.52683,-2.18827,6.17266,1.24117,-0.251558,3.75664,-1.30403e-13,7.35503e-14,71.2958,-5.51291,-30.6902,49.5072,20.0185,-37.8462,111.445,7.12502,-10.8909,141.143,-1.30403e-13,7.35503e-14,73.7372,36.6596,16.5341,29.9236,-7.30745,-42.6624,-63.9161,7.12502,-15.5332,-34.52,-98.9147,-22.4876,-15.9434,45.9589,-21.845,-26.369,-12.784,-9.35649,-0.861311,-21.2397,52.9854,0.0696091,1.8854,-29.0232
-1.99461,15.2796,6.18241,280.663,23.6317,-211.254,22.1939,0.348454,26.2448,-4.57115,8.05733,17.0353,-16.4363,1.30344,3.23155,-21.2181,-4.49059,-13.0216,-7.46521,-2.32591,6.41265,1.22151,-0.328131,3.92119,-4.53229e-14,-1.18078e-13,71.8986,-6.12439,-28.6864,49.5659,20.0475,-36.6917,108.34,7.12502,-9.77722,138.093,-4.53229e-14,-1.18078e-13,73.8037,37.1648,17.7377,29.1333,-7.96606,-44.2262,-62.5871,7.12502,-17.039,-33.3143,-96.4538,-23.6492,-19.2199,42.3352,-20.8433,-27.5921,-13.9237,-9.35262,-0.385941,-20.8695,56.3885,0.099392,1.59564,-29.3316
-1.91483,15.3891,5.92313,282.362,25.4207,-211.864,21.081,0.846005,26.1579,-4.79013,8.3051,17.099,-16.0946,1.45235,3.29054,-20.5945,-4.32914,-14.1237,-8.23922,-1.90798,5.72422,0.847603,-0.0749689,3.91461,4.37326e-14,-7.27552e-14,72.8559,-6.80638,-26.571,49.3152,19.7064,-33.8039,103.789,7.12502,-6.99025,133.654,4.37326e-14,-7.27552e-14,72.4597,37.4766,17.3265,29.066,-7.57842,-44.3982,-57.9421,7.12502,-17.2045,-28.6838,-93.7781,-24.7418,-22.3319,38.3321,-19.1253,-29.1629,-15.9476,-9.4406,0.0663988,-20.3447,59.9278,0.0927164,1.61131,-27.5654
-1.83121,15.5,5.67004,284.104,27.5447,-212.495,19.5449,1.49287,25.6322,-4.8347,8.42081,17.2156,-15.3737,1.6335,3.64149,-20.3817,-4.30422,-14.9366,-8.71717,-1.71464,5.57151,0.650826,0.0647686,4.01133,1.83478e-13,3.97569e-15,74.0493,-7.81809,-24.1311,48.7461,19.0418,-33.574,102.618,7.12502,-6.76837,132.49,1.83478e-13,3.97569e-15,64.0455,38.5987,10.1877,31.7305,-2.74326,-45.5233,-54.4242,7.12502,-18.2871,-25.2638,-90.7347,-26.0179,-25.8067,33.9281,-16.4792,-30.792,-17.0159,-9.64904,0.368701,-20.0375,63.5067,0.0748867,1.81908,-25.8582
-1.74383,15.6107,5.43027,286.015,30.1234,-212.985,17.9153,2.065,24.6178,-4.94995,8.39767,16.966,-14.6987,1.7884,3.83648,-20.8486,-4.56204,-15.3497,-8.33962,-1.90879,5.90846,0.855052,-0.0329311,4.16558,-1.80298e-13,6.83819e-14,74.8043,-8.91003,-22.0819,48.5495,18.2197,-33.9001,103.065,7.12502,-7.08313,132.927,-1.80298e-13,6.83819e-14,64.7901,38.865,12.2553,29.7288,-7.14304,-47.0143,-58.9099,7.12502,-19.7211,-29.8903,-87.2899,-27.4648,-29.9548,29.0888,-13.199,-32.3292,-15.6948,-10.0246,0.74993,-20.0711,67.0847,0.104095,1.99787,-26.132
-1.6567,15.7281,5.18561,287.896,32.4341,-213.327,16.2676,2.68974,23.8886,-4.92723,8.44645,16.7314,-13.7776,1.95774,3.92952,-21.0598,-4.30711,-15.3139,-8.60815,-1.52483,5.37947,0.749935,0.170607,4.01942,-4.41302e-14,-1.13307e-13,75.2292,-10.2948,-19.7553,48.7966,17.2728,-33.9129,103.7,7.12502,-7.09547,133.561,-4.41302e-14,-1.13307e-13,65.2523,39.1715,13.8661,28.47,-9.09906,-45.7077,-55.9581,7.12502,-18.4646,-26.8144,-83.3099,-28.6918,-34.101,23.6745,-10.2962,-34.0689,-13.3995,-10.3739,1.23522,-19.7281,70.6803,0.319129,2.01677,-28.5156
-1.56495,15.8528,4.93079,289.524,34.3003,-213.745,14.9619,3.22792,23.8096,-4.90983,8.62153,16.5366,-12.9537,2.10773,3.76478,-21.4302,-4.30938,-15.8161,-8.60759,-1.33726,5.35871,0.778511,0.288544,4.1035,-2.49972e-14,-5.3324e-14,75.7292,-11.7124,-17.5045,48.4171,16.7811,-35.2076,104.089,7.12502,-8.34512,133.904,-2.49972e-14,-5.3324e-14,63.538,39.1891,13.2257,28.4386,-6.40859,-47.4726,-66.8426,7.12502,-20.1616,-37.8689,-78.4109,-29.5634,-38.1566,17.2729,-7.68568,-36.4821,-10.902,-10.625,1.72209,-18.7152,74.2591,0.353914,2.32945,-29.7912
-1.4677,15.9751,4.68033,291.116,36.327,-214.09,13.7145,3.79117,23.4109,-4.85627,8.80299,16.3385,-12.1682,2.28845,3.74859,-22.0679,-4.45067,-16.2615,-8.4106,-1.29931,5.5122,0.920043,0.325624,4.22247,1.94163e-13,1.83056e-13,76.5005,-13.1822,-15.8875,47.3243,17.1141,-36.918,104.021,7.12502,-9.99552,133.763,1.94163e-13,1.83056e-13,63.5873,39.4955,14.7079,29.8021,0.0632456,-47.1939,-57.6436,7.12502,-19.8937,-28.6418,-73.2157,-31.0679,-39.6491,8.12322,-3.06199,-37.2663,-7.00065,-10.9093,2.2798,-17.6447,77.7787,-0.0755969,3.34997,-27.2484
-1.36498,16.0907,4.44331,292.921,38.9338,-214.242,12.314,4.24928,22.401,-4.54433,8.71951,15.7046,-11.5725,2.48721,4.07453,-22.8233,-4.49489,-16.269,-8.30742,-1.2139,5.7223,1.04547,0.383619,4.29678,-1.26526e-13,-1.54853e-13,77.5811,-14.6446,-14.988,46.0513,17.3188,-37.1927,103.448,7.12502,-10.2606,133.177,-1.26526e-13,-1.54853e-13,64.4544,40.3919,17.5662,29.5909,1.76638,-47.9371,-56.0395,7.12502,-20.608,-27.1134,-68.3835,-33.1615,-41.8722,-4.77083e-15,1.92447,-38.6772,-1.87672,-11.3324,2.68026,-17.0339,81.1263,-0.559386,4.41034,-24.9875
-1.2587,16.2077,4.20448,294.457,40.9944,-214.511,11.1082,4.75149,21.7161,-4.42982,8.83161,15.6435,-10.7443,2.65676,4.3496,-23.4289,-4.64831,-17.0154,-8.51059,-1.07927,5.68338,1.04068,0.507247,4.41093,-1.17084e-13,-5.56597e-14,78.5942,-16.1008,-13.5469,44.8247,16.8148,-36.5183,103.174,7.12502,-9.60994,132.935,-1.17084e-13,-5.56597e-14,65.4732,41.3675,21.1493,29.6147,1.90485,-47.8987,-55.9837,7.12502,-20.5711,-27.0537,-67.8604,-34.7412,-43.5028,-3.18055e-14,1.37553,-40.0327,4.57593,-11.6203,3.11422,-15.5653,84.2973,-0.957864,5.02965,-23.8849
-1.1523,16.3264,3.95957,295.708,42.4221,-214.867,10.2176,5.27503,21.6542,-4.30103,9.12093,15.7049,-10.029,2.84302,4.4488,-23.9613,-4.90536,-17.9836,-8.664,-1.03294,5.85712,1.05222,0.593994,4.62097,-2.41722e-13,-1.98785e-15,79.3402,-17.535,-11.8582,43.7866,16.277,-35.7656,103.244,7.12502,-8.8836,133.037,-2.41722e-13,-1.98785e-15,65.779,42.0038,23.8027,29.9751,1.71992,-48.0165,-59.7124,7.12502,-20.6842,-30.7946,-67.2886,-35.9079,-44.4426,9.54166e-15,-1.63784,-41.7021,12.8351,-11.7688,3.76362,-13.1984,87.2334,-1.73866,5.31575,-22.3024
-1.04379,16.4357,3.74144,297.302,44.494,-214.971,9.2621,5.77675,20.7921,-4.39006,9.3857,15.5049,-9.61019,3.04764,4.65267,-24.4271,-4.77157,-18.9735,-8.6587,-0.441602,5.48135,1.02945,0.934952,4.69484,1.12512e-13,-3.97569e-15,79.8098,-18.7348,-10.3666,42.7999,16.1216,-35.4623,103.186,7.12502,-8.59093,132.991,1.12512e-13,-3.97569e-15,65.8753,42.2447,25.6968,30.0983,1.73489,-48.2322,-62.1109,7.12502,-20.8916,-33.2159,-66.4647,-37.2026,-46.0449,-2.22639e-14,-3.37827,-43.6525,16.4961,-12.1622,4.16286,-11.4526,89.778,-2.74057,6.0378,-21.8951
-0.934034,16.5398,3.53735,298.789,46.6444,-215.203,8.14018,6.14494,19.8169,-4.44889,9.455,15.2489,-9.08222,3.18488,4.89182,-24.8341,-4.82788,-19.6194,-8.90989,-0.215698,5.4321,0.966738,1.10508,4.79562,-1.03766e-13,1.20464e-13,80.387,-19.9181,-9.35283,41.767,16.248,-35.373,102.963,7.12502,-8.50475,132.771,-1.03766e-13,1.20464e-13,66.2652,42.6384,27.5037,29.8579,1.69038,-48.4164,-63.9723,7.12502,-21.0685,-35.0968,-65.1878,-38.2251,-47.6551,1.17681e-13,-8.41599,-45.7478,18.0047,-12.6221,4.21599,-9.63396,91.8831,-3.7619,7.55042,-24.3142
-0.821076,16.6341,3.34091,299.43,47.8574,-216.006,7.39607,6.41688,19.8373,-4.41323,9.56773,15.1291,-8.55611,3.27283,4.78463,-25.3465,-5.26911,-20.1479,-9.08127,-0.531394,6.2052,1.02202,1.01202,5.10929,5.80451e-14,-8.78628e-14,80.7626,-21.1346,-8.84355,40.854,16.7583,-35.5612,102.875,7.12502,-8.68641,132.676,5.80451e-14,-8.78628e-14,66.8661,42.9491,28.961,29.4954,1.98167,-49.0199,-64.5708,7.12502,-21.6481,-35.761,-63.7657,-38.4081,-48.1133,-5.08889e-14,-11.8589,-48.9066,22.7241,-12.7637,4.26351,-6.48413,93.5119,-5.11173,8.63258,-11.8889
-0.706904,16.7215,3.14784,299.877,48.8976,-216.846,6.79071,6.70279,19.9211,-4.36132,9.73574,15.0114,-8.08341,3.37705,4.64114,-25.7964,-5.79642,-19.856,-9.18509,-1.26095,7.33644,1.16465,0.67262,5.3838,-1.59028e-13,-7.95139e-16,80.9686,-22.3218,-8.70476,39.9235,17.7864,-34.7441,102.231,7.12502,-7.89776,132.064,-1.59028e-13,-7.95139e-16,66.7889,42.9905,29.259,29.3868,3.20495,-49.9049,-63.6648,7.12502,-22.4979,-34.9554,-62.3285,-38.1553,-48.2314,-1.27222e-14,-8.55583,-51.719,18.8438,-12.9995,4.24397,-3.32983,94.6354,-6.4266,9.38344,-6.77286
-0.592612,16.8042,2.95672,300.296,50.1107,-217.708,6.27404,6.79715,19.8451,-4.41302,9.73864,14.8382,-7.81438,3.41026,4.52064,-26.1249,-5.77475,-19.7537,-9.59752,-1.16817,7.37468,1.06528,0.760018,5.39285,3.10104e-13,-9.54166e-15,81.5555,-23.1416,-9.0355,39.0247,18.7329,-33.5051,101.292,7.12502,-6.70179,131.166,3.10104e-13,-9.54166e-15,65.0404,42.8646,27.7392,30.158,5.12072,-50.6197,-62.6491,7.12502,-23.1837,-34.0243,-68.4111,-37.3846,-49.0629,15.0378,-10.8198,-51.8521,15.0493,-13.4975,4.02692,-0.577369,95.2384,-7.70192,10.2152,-3.87933
-0.474905,16.8798,2.76662,300.187,50.9729,-218.93,5.89943,6.97065,19.7601,-4.48171,9.85005,14.9635,-7.70506,3.48359,4.73403,-26.5741,-5.91094,-19.8168,-9.71759,-1.21836,7.25108,1.08134,0.755781,5.35806,2.74323e-14,3.89618e-14,81.9331,-23.8119,-8.9255,38.5079,19.4507,-35.3689,102.496,7.12502,-8.50083,132.305,2.74323e-14,3.89618e-14,63.594,42.6694,27.0444,31.1334,6.40647,-51.4774,-61.44,7.12502,-24.0065,-32.9212,-75.8412,-39.1235,-42.2978,25.1181,-6.27634,-47.0356,14.6013,-13.9399,3.66661,2.52,95.2725,-9.10441,10.8178,-0.871801
-0.353763,16.9497,2.55526,299.999,51.7969,-220.094,5.69085,7.07902,19.8869,-4.54209,9.95422,14.9757,-7.63165,3.53725,4.69988,-27.3025,-6.26871,-20.2706,-9.5317,-1.37881,7.61321,1.25069,0.712518,5.53436,-1.25632e-13,1.33583e-13,82.3293,-24.3719,-9.19772,38.0895,20.0927,-38.7822,105.084,7.12502,-11.7936,134.732,-1.25632e-13,1.33583e-13,61.865,42.4521,25.9391,32.356,7.64399,-52.0166,-65.4674,7.12502,-24.5234,-37.0177,-82.0998,-40.2063,-35.7235,33.6514,-0.642048,-42.7188,10.1771,-14.476,3.2666,5.20322,94.7463,-10.3859,11.3527,0.947019
-0.229842,17.0038,2.35082,299.76,52.7116,-221.187,5.49575,7.26312,19.8037,-4.5954,10.1249,15.1232,-7.61361,3.63203,4.91946,-28.0305,-6.78281,-21.2913,-9.20656,-1.55308,7.99319,1.46097,0.674854,5.80001,-3.77691e-14,-1.90833e-14,82.6777,-24.8177,-9.15846,37.7695,20.7535,-34.9152,102.682,7.12502,-8.06292,132.508,-3.77691e-14,-1.90833e-14,59.2083,41.9941,24.5032,34.3932,9.16482,-51.5537,-75.0157,7.12502,-24.0796,-46.5065,-86.8068,-40.5987,-30.4977,41.2828,0.176536,-39.4915,12.9665,-15.0871,2.94842,7.58086,93.7118,-11.5119,11.4982,1.67858
-0.106134,17.0421,2.15134,299.205,53.5752,-222.406,5.38949,7.39717,19.7613,-4.62923,10.2562,15.3422,-7.63927,3.70875,5.19665,-28.6503,-7.41057,-22.6667,-8.86735,-1.7617,8.41185,1.63123,0.632635,6.1263,2.50469e-14,2.06736e-14,83.1531,-25.1145,-9.21027,37.4383,21.9052,-37.5805,104.924,7.12502,-10.6346,134.635,2.50469e-14,2.06736e-14,58.1265,41.6298,24.3353,34.4925,9.64924,-51.4141,-81.952,7.12502,-23.9458,-53.4252,-90.2663,-40.4748,-25.9997,48.0956,-0.0789711,-37.0467,13.385,-15.7203,2.72808,9.83906,92.2587,-11.8795,11.7529,1.43379
0.0126094,17.0716,1.95159,298.961,54.7693,-223.295,5.24316,7.55421,19.5189,-4.7377,10.4139,15.504,-7.74873,3.80112,5.50785,-28.7683,-8.1314,-24.5555,-8.7505,-2.05228,9.08602,1.7319,0.57283,6.61007,-1.86062e-13,-3.18055e-14,83.738,-25.1468,-9.11996,37.0934,23.2698,-34.3397,102.758,7.12502,-7.50744,132.605,-1.86062e-13,-3.18055e-14,56.846,41.1218,24.6208,35.1469,9.85087,-51.4801,-85.9461,7.12502,-24.009,-57.4277,-92.7723,-40.2102,-22.2792,53.8515,0.358294,-35.7881,16.7363,-16.5153,2.66508,11.3685,90.4161,-12.8041,10.975,-0.76905
0.127311,17.1018,1.74787,299.231,56.1358,-223.692,5.14115,7.76786,19.2453,-4.87823,10.6682,15.5007,-7.88835,3.92871,5.63209,-28.8501,-8.59432,-25.8834,-8.64343,-2.18983,9.39211,1.79586,0.554154,6.89631,-2.21844e-13,-4.92986e-14,83.8984,-25.2029,-8.66704,37.1518,24.3729,-36.13,103.58,7.12502,-9.23521,133.357,-2.21844e-13,-4.92986e-14,55.8377,40.5621,25.0841,35.6013,10.0097,-51.028,90.8839,7.12502,-23.5754,-62.3089,-94.5255,-39.7491,-19.1293,58.5871,-1.32917,-34.5561,16.8844,-17.4411,2.84369,12.3252,88.3262,-13.7881,10.0508,-0.738649
0.254757,17.1047,1.49353,299.741,57.4221,-223.752,5.16874,7.97542,19.0369,-4.96687,10.9539,15.393,-8.00958,4.06464,5.58582,-29.3373,-8.78773,-26.5045,-8.2864,-2.06455,9.25793,1.93311,0.619246,6.94804,1.95604e-13,1.19271e-13,83.5228,-25.4261,-7.88646,37.5836,24.8762,-37.8896,104.564,7.12502,-10.9328,134.26,1.95604e-13,1.19271e-13,54.2902,39.8579,24.8732,37.1298,10.7886,-50.5558,94.7318,7.12502,-23.1224,-66.0994,-95.0975,-38.7608,-16.5939,62.2555,-2.19019,-33.8055,17.7888,-18.4213,3.35988,12.7438,85.9972,-14.5412,9.60722,0.375499
0.37422,17.0952,1.25186,300.462,58.8713,-223.606,5.08635,8.12516,18.6254,-5.12416,11.1524,15.184,-8.16105,4.16846,5.53708,-29.7875,-9.00345,-26.918,-7.9218,-2.0814,9.58738,2.11237,0.615949,7.12087,-1.62208e-13,8.11041e-14,82.7035,-25.5367,-6.73966,38.3082,24.8351,-37.6062,104.676,7.12502,-10.6595,134.386,-1.62208e-13,8.11041e-14,53.1053,39.0161,24.7199,38.4394,11.5238,-50.4319,99.2296,7.12502,-23.0036,-70.5823,-95.4169,-37.9407,-14.1717,65.172,-3.19858,-32.0307,14.8496,-19.4136,4.4135,12.8802,83.4719,-15.0438,9.6738,1.43899
0.47958,17.0785,1.02631,300.983,60.1544,-223.695,4.8656,8.2068,18.5247,-5.35873,11.2612,14.848,-8.23902,4.20519,5.21612,-30.1232,-8.87203,-26.6745,-7.59042,-1.91131,9.64982,2.23484,0.670761,7.12538,-1.1609e-13,-3.65764e-14,81.4373,-25.5618,-5.41487,39.1011,24.314,-35.7209,103.545,7.12502,-8.84044,133.34,-1.1609e-13,-3.65764e-14,52.4458,38.0891,24.7741,39.661,11.9379,-50.5238,104.393,7.12502,-23.0918,-75.7563,-95.2102,-37.1155,-11.8775,67.5562,-3.82087,-30.605,13.4897,-20.3663,5.97875,13.2663,80.8427,-15.6109,9.89623,1.7812
0.569898,17.0647,0.819546,301.94,61.9272,-223.455,4.29813,8.25033,17.8762,-5.65589,11.2204,14.4251,-8.26202,4.21273,5.10999,-30.4127,-8.87829,-26.8799,-7.22271,-1.78523,10.0298,2.37942,0.729553,7.30488,-7.55382e-14,-1.11319e-14,80.1347,-25.4403,-3.683,39.7311,23.4018,-34.7602,102.506,7.12502,-7.9133,132.338,-7.55382e-14,-1.11319e-14,51.7912,37.1855,25.1537,40.8919,12.1228,-50.3791,107.182,7.12502,-22.9529,-78.5286,-94.7222,-36.675,-10.143,69.2725,-4.03948,-29.3122,12.5603,-21.5556,7.86558,12.8986,78.1178,-16.1111,10.4967,0.617747
0.624425,17.0934,0.66761,303.658,64.4878,-222.622,3.26112,8.2295,16.248,-6.025,10.9711,13.8556,-8.22664,4.19587,5.38456,-30.7074,-8.99258,-27.2331,-6.8184,-1.7515,10.4999,2.55334,0.748843,7.52947,-3.13285e-13,1.06549e-13,78.9281,-25.209,-1.76241,40.2465,22.4303,-36.9406,103.978,7.12502,-10.0174,133.72,-3.13285e-13,1.06549e-13,50.8659,36.2555,25.4692,42.3896,12.3298,-50.1394,107.532,7.12502,-22.7229,-78.8499,-93.0639,-35.7203,-11.45,70.6917,-5.078,-29.6922,14.8254,-23.1293,9.95539,11.6071,75.5368,-16.77,11.2794,-0.542009
0.741953,16.9994,0.409038,304.869,66.1473,-222.117,2.64179,8.19622,15.8142,-6.37044,10.8589,13.2004,-8.18124,4.1481,4.93141,-31.0523,-8.87967,-26.7671,-6.38029,-1.71178,10.7475,2.74288,0.736114,7.55687,3.69739e-13,3.81667e-14,77.6377,-24.9686,-0.459133,40.5434,21.6469,-37.5041,105.046,7.12502,-10.5609,134.761,3.69739e-13,3.81667e-14,50.2476,35.2488,25.3951,43.9374,12.4653,-49.9943,106.93,7.12502,-22.5836,-78.2312,-92.3645,-35.9062,-8.44513,71.1487,-8.24896,-26.0153,5.72261,-24.3294,12.1364,10.5491,72.4767,-17.1937,12.5874,0.136892
0.830505,16.9641,0.200811,305.787,67.2062,-221.754,2.39853,8.20228,16.1565,-6.69789,10.9005,12.5897,-8.21577,4.10795,4.10336,-31.2964,-8.88564,-26.6339,-5.92297,-1.76302,11.3605,2.95515,0.704151,7.75641,1.04163e-13,-1.43125e-14,76.4843,-24.633,0.55608,40.6317,20.969,-34.5517,103.263,7.12502,-7.71208,133.103,1.04163e-13,-1.43125e-14,49.6478,34.2114,25.1564,45.2855,12.666,-49.5314,105.893,7.12502,-22.1393,-77.1408,-90.8945,-34.9585,-6.56998,71.4375,-6.62337,-26.9094,11.0672,-25.481,14.872,10.428,69.7435,-17.6809,13.5329,0.393801
0.890801,16.966,0.0430563,307.248,68.8127,-220.86,1.86245,8.17062,15.4718,-7.02037,10.7895,12.0543,-8.26488,4.07932,3.90842,-31.4102,-9.06077,-27.07,-5.4845,-1.88016,12.2338,3.16575,0.667117,8.1294,1.31993e-13,1.04958e-13,75.6417,-24.2276,1.73594,40.481,20.2063,-32.5524,101.279,7.12502,-5.78205,131.181,1.31993e-13,1.04958e-13,48.7285,33.1156,24.6503,46.3794,13.2721,-49.5107,109.271,7.12502,-22.1194,-80.5166,-89.0244,-33.8682,-6.34379,71.6066,-9.10649,-26.6072,6.90581,-26.9275,17.7436,9.76546,67.2001,-17.9786,14.217,-0.738895
0.96497,16.9192,-0.120019,309.165,70.6109,-219.529,1.07753,8.08938,14.2685,-7.33289,10.5474,11.5425,-8.24814,4.03638,4.03588,-31.5528,-9.16267,-27.3398,-4.97427,-1.94685,12.847,3.38597,0.63397,8.39056,-1.31198e-13,-9.22361e-14,74.9368,-23.7938,2.95361,40.2687,19.3634,-33.8899,101.528,7.12502,-7.07324,131.39,-1.31198e-13,-9.22361e-14,47.6837,31.8869,23.6462,47.1541,14.1983,-50.2163,116.894,7.12502,-22.7967,-88.2215,-87.2404,-33.3716,-5.65135,71.4405,-9.67153,-26.5494,8.82047,-28.4844,20.3717,8.61923,64.6528,-18.3532,14.6954,-1.33202
1.01059,16.9065,-0.261732,311.027,72.1672,-218.312,0.24061,8.00279,13.5723,-7.62511,10.3044,10.9539,-8.07642,3.95939,3.83761,-31.7418,-9.16496,-27.3494,-4.49517,-1.94959,13.2263,3.58181,0.621784,8.53602,3.31573e-13,6.83819e-14,74.3213,-23.4373,3.94858,40.0072,18.4499,-35.5931,103.302,7.12502,-8.71719,133.102,3.31573e-13,6.83819e-14,46.855,30.6665,22.4589,47.6934,15.1304,-50.2668,118.753,7.12502,-22.8451,90.0861,-85.0183,-32.1538,-5.8666,71.2428,-12.2427,-25.8871,6.75368,-30.2917,22.8582,7.85224,62.4277,-18.8142,14.837,-2.0154
1.06076,16.8825,-0.41222,312.979,73.7314,-217.05,-0.682231,7.8984,13.0226,-7.84901,10.0254,10.2998,-7.74199,3.86334,3.50797,-31.9449,-9.37394,-27.7911,-4.20122,-2.06309,13.9909,3.75539,0.606804,8.8803,-3.10104e-14,9.70069e-14,73.9613,-23.2743,4.59386,39.4336,17.646,-34.7535,103.591,7.12502,-7.90684,133.423,-3.10104e-14,9.70069e-14,46.4733,29.781,21.7233,48.054,15.7328,-49.6684,115.633,7.12502,-22.2708,-86.8959,-82.7045,-31.0164,-6.07547,70.8079,-13.4816,-26.1889,4.95183,-32.352,24.9546,6.96857,60.2711,-18.9857,15.125,-3.77452
1.11675,16.8553,-0.550677,314.561,75.2466,-216.115,-1.61343,7.74255,12.3013,-8.00112,9.67986,9.84141,-7.3941,3.76051,3.48258,-32.15,-9.90083,-29.0265,-4.0178,-2.30811,15.2916,3.94478,0.586791,9.53873,9.85972e-14,-1.90833e-14,73.8392,-23.2468,5.11094,38.8313,17.1359,-33.2828,102.843,7.12502,-6.48722,132.723,9.85972e-14,-1.90833e-14,46.3487,29.2417,21.5208,47.7882,15.7228,-49.0511,114.512,7.12502,-21.6781,-85.7053,-80.3108,-29.8412,-6.24169,70.3901,-13.9242,-26.8335,7.0257,-34.5656,26.5906,6.34492,58.354,-19.1846,15.1233,-4.78206
1.17017,16.8414,-0.658848,316.512,76.8976,-214.703,-2.42062,5.81397,11.1094,-7.85185,9.67011,9.62512,-7.12455,4.92724,3.74647,-32.3534,-10.2872,-29.8953,-3.79768,-2.50827,16.4177,4.13859,0.56857,10.0901,-1.03368e-13,3.02153e-14,73.7724,-23.2052,5.3474,38.277,16.8859,-32.9813,102.399,7.12502,-6.19621,132.288,-1.03368e-13,3.02153e-14,46.4109,28.7459,21.4207,46.9259,15.0038,-47.9101,114.317,7.12502,-20.5821,-85.3884,-77.9385,-28.5873,-6.68867,70.0085,-15.5767,-27.1859,7.19873,-36.797,27.8522,5.84721,56.6283,-19.4842,14.7758,-5.30142
1.20429,16.8647,-0.760442,317.149,79.8097,-215.339,-4.16071,5.3561,9.1844,-8.3456,8.62181,8.83158,-6.73691,4.48045,4.10885,-32.6831,-10.3889,-29.7716,-3.58184,-2.64639,16.9212,4.3063,0.531635,10.2587,-1.59028e-14,4.77083e-15,73.7318,-23.2618,5.16603,37.6488,16.9587,-34.2651,102.857,7.12502,-7.43541,132.706,-1.59028e-14,4.77083e-15,46.8259,28.5154,21.6584,47.238,15.1262,-47.6418,113.59,7.12502,-20.3242,-84.6332,-75.7752,-28.7421,-7.92639,69.7378,-17.4548,-27.8106,7.74896,-40.8079,27.7653,4.23973,55.2005,-19.6888,14.73,-6.72429
1.2501,16.8931,-0.895539,318.007,82.1086,-215.376,-5.06854,5.04574,8.15949,-8.64723,7.96119,8.09072,-6.51556,4.16047,3.95457,-33.1905,-10.3704,-29.2561,-3.41946,-2.67876,16.989,4.42973,0.528972,10.2109,-2.94201e-13,-9.22361e-14,73.7235,-23.5472,4.89961,37.111,17.3028,-36.9339,104.293,7.12502,-10.0109,134.035,-2.94201e-13,-9.22361e-14,47.3786,28.4708,22.0504,46.7857,14.5088,-47.38,113.184,7.12502,-20.0725,-84.2012,-73.474,-28.268,-8.75099,69.2277,-18.7406,-28.6032,9.06751,-44.2545,27.2355,3.46932,53.9412,-19.9387,15.3614,-8.78965
1.29789,16.9264,-1.03038,315.189,83.778,-219.043,-5.7662,4.81289,7.86551,-8.88074,7.48145,7.60661,-6.31292,3.90113,3.65905,-34.5978,-10.7421,-29.0865,-2.42505,-2.79437,17.3354,4.55269,0.543685,10.1422,-3.20441e-13,-9.70069e-14,73.9231,-23.9588,4.67027,36.3061,17.5922,-38.3051,104.987,7.12502,-11.3335,134.661,-3.20441e-13,-9.70069e-14,48.1076,28.5835,22.5856,47.0664,15.0704,-48.2706,114.523,7.12502,-20.9284,-85.6317,-71.3618,-27.4497,-8.67658,68.7147,-19.8684,-29.4802,10.7242,-47.4947,26.6366,3.95362,52.7521,-20.0966,16.2711,-10.4772
1.35037,16.9635,-1.1614,307.895,85.0428,-227.021,-6.11517,4.61065,7.9354,-9.06155,7.10712,7.29214,-6.24862,3.67621,3.31263,-35.4866,-11.3754,-29.8341,-2.12692,-3.06107,18.0319,4.8102,0.51288,10.5073,2.14687e-14,-3.97569e-14,74.3539,-24.4386,4.40052,35.318,17.8427,-38.5633,104.908,7.12502,-11.5826,134.568,2.14687e-14,-3.97569e-14,48.2876,28.5716,22.7831,46.5653,14.4431,-47.7777,113.79,7.12502,-20.4548,-84.8472,-69.3943,-26.5713,-7.95697,68.1692,-21.9195,-29.7647,10.3563,-50.3609,25.9228,5.37091,51.482,-20.28,17.4278,-10.599
1.40469,17.0049,-1.29667,293.681,85.9896,-241.696,-6.04106,4.36957,8.23954,-9.22703,6.73514,7.05176,-6.40219,3.4292,2.87933,-36.3477,-11.8197,-30.3485,-1.96574,-3.13973,18.5645,4.9751,0.572872,10.8032,-1.78906e-13,-3.65764e-14,74.6262,-24.974,4.08387,34.7734,18.1242,-38.204,104.586,7.12502,-11.236,134.265,-1.78906e-13,-3.65764e-14,48.4116,28.7165,23.0277,47.0939,14.9868,-47.9001,114.326,7.12502,-20.5724,-85.3966,-67.3166,-25.7902,-6.97643,67.6321,-23.3567,-29.9436,13.2169,-52.914,25.0936,7.354,50.0735,-20.5455,18.5095,-10.0843
1.45308,17.0521,-1.43444,272.197,86.6538,-263.397,-5.66332,4.10294,8.44088,-9.34546,6.36528,6.79518,-6.69016,3.1814,2.46198,-37.1373,-11.986,-30.3513,-1.90546,-3.06679,18.7867,5.0578,0.68042,10.9228,1.47101e-13,-1.90833e-14,74.7084,-25.5815,3.86049,34.4638,18.4387,-35.1057,102.793,7.12502,-8.24678,132.612,1.47101e-13,-1.90833e-14,48.5504,28.8282,23.2122,46.7536,14.4979,-47.6788,115.041,7.12502,-20.3597,-86.0887,-65.0888,-25.1731,-6.08797,67.0751,-24.9155,-29.6137,14.6024,-55.2187,24.3582,9.37713,48.5168,-20.736,19.4179,-9.89089
1.49606,17.1026,-1.56905,247.504,86.8777,-288.268,-5.2657,3.89622,8.40661,-9.39932,6.09226,6.59544,-6.95093,3.0074,2.23628,-37.9568,-12.2381,-30.4161,-1.85222,-3.05809,18.9412,5.14756,0.753881,11.0157,-7.15625e-15,-1.59028e-15,74.843,-26.2824,3.91492,34.0012,18.719,-36.8803,103.719,7.12502,-9.95918,133.463,-7.15625e-15,-1.59028e-15,48.9937,29.1052,23.5612,47.461,15.8209,-48.9547,116.4,7.12502,-21.5855,-87.5826,-63.2008,-24.6403,-5.01882,66.5358,-25.7495,-29.4455,14.8305,-57.3399,23.877,11.4189,46.7671,-20.4798,20.6422,-10.6521
1.54153,17.1535,-1.70805,222.335,86.8434,-313.534,-4.65766,3.74231,8.18037,-9.44034,5.92127,6.33803,-7.3271,2.89471,2.04066,-38.5718,-12.7398,-31.1152,-1.96691,-3.15924,19.4784,5.1958,0.817086,11.3366,-1.59028e-13,7.95139e-15,75.3759,-26.9991,3.71347,33.2085,19.2519,-34.6736,101.253,7.12502,-7.82979,131.088,-1.59028e-13,7.95139e-15,48.7725,29.0662,23.0575,46.8127,16.0615,-48.5838,117.096,7.12502,-21.2293,-88.2385,-61.5654,-24.212,-3.98219,65.9411,-25.8053,-29.5625,13.1553,-59.0973,23.3735,13.4969,44.905,-20.2587,21.977,-12.1104
1.6015,17.1995,-1.83312,198.476,86.3369,-336.989,-3.2242,3.5281,7.67351,-9.46873,5.77168,6.13687,-8.19835,2.79758,2.00336,-38.5485,-13.4855,-32.5346,-2.48159,-3.50823,20.6498,5.14183,0.811167,11.9749,1.19271e-13,6.04305e-14,76.2653,-27.5901,3.314,32.282,20.1833,-33.57,99.12,7.12502,-6.76446,128.992,1.19271e-13,6.04305e-14,48.2272,28.9655,22.5294,47.3944,17.3902,-49.0803,118.63,7.12502,-21.7062,-89.8264,-59.5118,-23.907,-3.04718,65.2747,-25.6716,-29.6345,9.29977,-60.3003,22.9845,15.4995,42.9582,-20.0853,22.8358,-12.6365
1.64943,17.2391,-1.96943,182.127,85.5637,-352.941,-1.98204,3.36907,7.27264,-9.41824,5.63803,5.80353,-8.85434,2.70458,1.79042,-39.4577,-13.7603,-32.6159,-2.04731,-3.48053,20.6207,5.34591,0.857786,12.0052,7.4743e-14,8.26944e-14,76.5675,-28.2496,3.18186,31.621,20.9177,-34.4179,98.6298,7.12502,-7.58293,128.474,7.4743e-14,8.26944e-14,48.1149,28.9303,22.0943,47.1402,17.7654,-48.7225,119.629,7.12502,-21.3625,-269.213,-57.4756,-23.8355,-2.00516,64.3856,-25.468,-29.5098,6.07668,-61.3251,22.6264,17.6467,41.0269,-19.4994,23.9872,-11.1869
1.688,17.2776,-2.11494,168.277,84.8446,-366.102,-0.57907,3.27472,6.84945,-9.12548,5.54024,5.17147,-9.3031,2.62128,1.26748,-40.7054,-13.8134,-31.4941,-1.7989,-3.63713,20.4672,5.57292,0.823902,11.794,1.4233e-13,-4.77083e-15,76.3592,-29.1947,2.86813,30.9161,21.3819,-33.786,97.9363,7.12502,-6.97295,127.801,1.4233e-13,-4.77083e-15,48.7997,29.1692,21.4363,46.7686,18.5125,-48.9891,120.647,7.12502,-21.6186,-268.166,-55.2102,-23.7579,-1.14659,63.2817,-24.8414,-29.4003,6.40139,-61.6676,22.223,20.0735,39.3372,-19.3411,24.9447,-8.08542
1.71593,17.3219,-2.26828,155.316,84.0718,-377.991,1.11613,3.25956,6.31846,-8.66785,5.55599,4.61781,-9.76512,2.60952,0.865208,-41.3708,-13.9258,-30.8108,-1.94801,-3.86265,20.3749,5.62833,0.755148,11.6386,4.85035e-14,1.43125e-14,76.4255,-30.1288,2.6743,30.0773,21.4561,-33.1654,98.0683,7.12502,-6.3739,127.952,4.85035e-14,1.43125e-14,49.1411,29.2714,20.7318,45.8751,18.2612,-48.1422,119.394,7.12502,-20.805,-269.511,-52.5898,-23.7044,-0.553442,62.0334,-23.8456,-29.1745,6.20879,-61.5551,22.4861,22.0127,37.7403,-22.7612,23.1083,-4.52148
1.76169,17.3349,-2.40447,146.69,82.9827,-385.701,2.56903,3.22012,5.60757,-8.33564,5.51908,4.33522,-10.2815,2.60324,0.869424,-41.532,-13.994,-30.6957,-2.08336,-3.94429,20.3644,5.61243,0.730901,11.6071,-8.82604e-14,4.6118e-14,77.0621,-30.8609,2.36886,29.2826,22.0952,-32.8459,97.7797,7.12502,-6.06544,127.673,-8.82604e-14,4.6118e-14,49.6553,29.6549,21.2506,46.6484,19.4918,-48.7581,120.025,7.12502,-21.3967,-268.813,-49.952,-23.779,0.174189,60.5204,-22.9296,-28.9899,6.6045,-62.1345,22.8677,23.4073,36.4037,-21.8511,24.4791,-5.61943
1.78524,17.3667,-2.54377,141.48,81.5437,-390.164,3.93103,3.09505,4.64713,-8.15383,5.33029,4.17065,-10.9569,2.54757,1.16294,-41.6953,-13.9508,-30.6569,-1.91529,-3.87451,20.3599,5.66584,0.757343,11.6171,-1.27222e-14,6.04305e-14,77.9841,-31.4245,2.04903,28.397,22.9956,-31.8845,96.5632,7.12502,-5.13721,126.481,-1.27222e-14,6.04305e-14,49.6992,29.701,21.5625,45.436,18.7337,-47.6828,120.683,7.12502,-20.3636,-268.269,-47.3361,-24.085,0.648142,58.9021,-22.6918,-28.6344,8.11842,-62.8534,23.1631,24.8284,35.1101,-20.1086,26.5229,-9.89787
