JuanDHNZ/ProyectoFinalCD/preprocessing/sports_trials_csv/49_01.csv
root1,root2,root3,root4,root5,root6,lowerback1,lowerback2,lowerback3,upperback1,upperback2,upperback3,thorax1,thorax2,thorax3,lowerneck1,lowerneck2,lowerneck3,upperneck1,upperneck2,upperneck3,head1,head2,head3,rclavicle1,rclavicle2,rhumerus1,rhumerus2,rhumerus3,rradius1,rwrist1,rhand1,rhand2,rfingers1,rthumb1,rthumb2,lclavicle1,lclavicle2,lhumerus1,lhumerus2,lhumerus3,lradius1,lwrist1,lhand1,lhand2,lfingers1,lthumb1,lthumb2,rfemur1,rfemur2,rfemur3,rtibia1,rfoot1,rfoot2,rtoes1,lfemur1,lfemur2,lfemur3,ltibia1,lfoot1,lfoot2,ltoes1
3.22142,17.3849,-45.2819,13.5554,-1.18946,1.72331,-4.35395,-2.31769,-2.09274,-2.5224,-3.02058,1.08868,0.0133429,-1.48759,2.15595,-17.0287,-2.79379,-6.94345,19.1419,-3.02668,4.54236,8.99055,-1.44012,2.31707,2.74323e-14,-1.03368e-14,-39.1105,5.3055,-87.0647,32.3423,1.36748,-27.1652,-41.1793,7.12502,-0.579602,-71.1583,2.74323e-14,-1.03368e-14,-30.0612,-14.8215,93.7897,32.619,9.35583,-33.1027,-25.595,7.12502,-6.31338,4.2909,-46.4631,7.94739,13.2523,26.9049,-9.26041,-16.6065,-7.89018,-7.2535,-5.5827,-28.3591,16.9832,-21.6804,10.5891,4.91762
3.20752,17.3849,-45.1919,13.486,-1.25701,1.80336,-3.81688,-2.09825,-2.26849,-2.69057,-2.73387,0.999482,-0.470507,-1.3349,2.20155,-17.34,-2.99606,-6.75282,19.3809,-3.32396,4.45512,9.14351,-1.57194,2.2165,-1.32937e-14,-1.51076e-14,-39.4915,4.58779,-86.8136,32.3543,1.52791,-26.3577,-43.625,7.12502,0.200221,-73.6047,-1.32937e-14,-1.51076e-14,-30.126,-15.3639,93.933,32.678,9.42807,-33.3501,-26.0271,7.12502,-6.55224,3.8515,-46.3843,8.79971,12.5059,25.9788,-8.76149,-16.9829,-10.1656,-6.3802,-5.40301,-28.4435,16.1126,-21.4819,10.4421,4.14219
3.19896,17.3797,-45.1166,13.8044,-1.3513,1.87347,-4.02281,-2.06978,-2.32013,-3.06642,-2.69246,0.970647,-0.743709,-1.30644,2.20365,-16.269,-2.93802,-6.88019,19.1672,-3.29955,4.54421,8.8776,-1.57296,2.27694,3.95085e-15,-1.39149e-15,-40.1526,4.55366,-86.8191,32.3655,1.47679,-26.7744,-42.6507,7.12502,-0.202242,-72.6303,3.95085e-15,-1.39149e-15,-30.5764,-15.1735,93.9441,32.7507,9.27571,-33.5769,-26.0187,7.12502,-6.77114,3.853,-46.7472,9.23418,11.9551,25.1798,-8.13488,-17.1794,-11.6701,-6.13078,-5.40722,-28.5088,15.4788,-21.278,10.4915,3.99335
3.18659,17.3788,-45.0293,13.7678,-1.07215,1.90054,-4.18841,-2.16214,-2.31069,-3.18854,-2.81295,0.957532,-0.771578,-1.36549,2.17672,-15.3295,-2.92134,-6.94191,18.963,-3.34076,4.62864,8.64257,-1.59912,2.31578,-1.19022e-14,-9.34288e-15,-40.6133,4.50035,-86.8276,32.403,1.61435,-26.675,-42.8825,7.12502,-0.10623,-72.8622,-1.19022e-14,-9.34288e-15,-30.8366,-14.9051,93.82,32.7649,9.02558,-33.5646,-26.0119,7.12502,-6.75927,3.86018,-46.5754,9.5887,11.5334,24.4277,-7.60602,-17.5715,-11.8507,-5.41821,-5.49559,-28.4492,14.812,-21.1356,10.3463,2.81951
3.17131,17.3584,-44.9442,14.0993,-0.679728,1.91544,-4.31554,-2.30289,-2.18523,-2.92697,-3.00016,0.969477,-0.426858,-1.46794,2.09884,-17.2718,-3.03489,-6.93526,19.5975,-3.39145,4.67992,9.21765,-1.59468,2.31798,9.93923e-15,-8.34896e-15,-39.8235,4.57832,-86.8201,32.3951,1.70331,-26.61,-43.1507,7.12502,-0.0434557,-73.1305,9.93923e-15,-8.34896e-15,-29.7889,-14.8273,93.4067,32.6635,9.18065,-33.4417,-26.4961,7.12502,-6.64059,3.37975,-46.7743,9.61734,11.2724,23.619,-5.8181,-17.7755,-12.2363,-5.31017,-5.51225,-28.2939,14.517,-21.1164,9.98575,3.23164
3.16347,17.3552,-44.8701,14.1522,-1.2741,1.78669,-4.55649,-2.08448,-2.27066,-3.23126,-2.70275,1.01878,-0.615454,-1.31212,2.20842,-15.436,-2.89243,-7.00296,19.0028,-3.29633,4.70785,8.67488,-1.57318,2.35803,1.01629e-14,-1.39149e-14,-40.6718,4.6724,-86.7636,32.5161,1.67034,-26.6855,-43.7312,7.12502,-0.116327,-73.7109,1.01629e-14,-1.39149e-14,-30.4808,-14.6872,93.6074,32.7804,9.32248,-33.6801,-27.1412,7.12502,-6.87076,2.72727,-46.8308,10.2612,10.9226,22.911,-6.96697,-16.7589,-9.85431,-4.98248,-5.29115,-28.3209,14.2332,-21.0655,10.2718,3.24914
3.1434,17.3306,-44.7784,14.2709,-1.18077,1.79527,-4.80258,-2.09445,-2.22673,-3.50177,-2.71401,0.935144,-0.76241,-1.31473,2.0946,-14.145,-2.85075,-7.01228,18.612,-3.34244,4.82544,8.31398,-1.5989,2.39974,-1.2598e-14,-1.59028e-15,-41.3209,4.41694,-86.8175,32.4412,1.72079,-27.1868,-43.2083,7.12502,-0.600519,-73.1872,-1.2598e-14,-1.59028e-15,-30.9862,-14.5678,93.4909,32.725,9.04823,-33.9565,-27.8789,7.12502,-7.13762,1.98076,-46.7552,9.9724,11.2708,22.2705,-4.60047,-16.5561,-17.0643,-4.71224,-5.32597,-28.2481,14.0692,-20.9498,10.2261,3.31871
3.12353,17.3183,-44.6834,14.3227,-1.11543,1.81125,-3.65864,-2.10002,-2.14265,-3.05242,-2.74551,0.997477,-0.935993,-1.33316,2.14396,-18.8268,-3.18994,-7.19805,20.3726,-3.48226,4.84826,9.78877,-1.62172,2.40577,2.54693e-14,5.76476e-15,-39.6241,4.43527,-86.6313,32.0459,1.62838,-28.3464,-41.4904,7.12502,-1.72046,-71.4632,2.54693e-14,5.76476e-15,-29.0739,-14.2665,92.9626,32.4001,8.76542,-34.2144,-27.7572,7.12502,-7.38649,2.09386,-46.7934,9.87998,11.4033,22.0792,-3.98665,-16.3829,-18.9197,-4.1519,-5.20146,-28.1895,13.5736,-20.809,9.9575,2.57304
3.10571,17.3218,-44.5851,14.3664,-0.999819,1.88577,-4.72027,-2.12923,-2.25052,-2.76869,-2.7564,0.945297,-0.0497784,-1.35142,2.10148,-17.7617,-3.15454,-7.35726,19.7711,-3.51035,5.11331,9.39158,-1.62812,2.52156,2.05991e-14,-1.47101e-14,-39.3778,4.23676,-86.5817,31.833,1.77504,-28.5616,-41.2854,7.12502,-1.92827,-71.2564,2.05991e-14,-1.47101e-14,-28.7488,-14.0906,92.7118,32.2342,8.52497,-33.5653,-27.3187,7.12502,-6.75995,2.55343,-46.7672,10.1266,11.0696,22.0624,-4.69618,-16.546,-16.6271,-3.51202,-5.06571,-28.1775,13.0529,-20.6996,9.52015,2.15162
3.08221,17.3428,-44.4852,14.357,-0.496581,1.99971,-4.32491,-2.2932,-2.50401,-3.35864,-2.97968,1.02287,-0.849103,-1.44261,2.34389,-16.443,-3.1008,-7.40662,19.8537,-3.50953,5.03947,9.17834,-1.65927,2.51331,1.56543e-15,5.96354e-15,-40.4889,4.34572,-86.5319,31.841,1.83216,-26.6291,-43.6882,7.12502,-0.0618428,-73.6679,1.56543e-15,5.96354e-15,-29.7595,-13.6501,92.8505,32.3166,8.51348,-32.9005,-26.7896,7.12502,-6.11813,3.10207,-46.6062,10.9145,10.086,22.2712,-7.63329,-16.9913,-7.14158,-2.93667,-5.00843,-28.0575,12.7033,-20.5176,9.08339,0.246099
3.05334,17.3438,-44.381,14.0611,0.0247965,1.98443,-3.94022,-2.45296,-2.575,-3.62029,-3.20232,1.05707,-1.31465,-1.54271,2.43482,-15.4295,-3.07562,-7.30167,19.7793,-3.54946,4.91971,8.96544,-1.69697,2.45562,-4.26145e-14,-6.16232e-15,-41.2626,4.37688,-86.6075,31.8494,1.80485,-27.1368,-43.1858,7.12502,-0.552186,-73.1648,-4.26145e-14,-6.16232e-15,-30.4472,-13.3627,92.831,32.3015,8.32747,-32.8371,-26.9588,7.12502,-6.05697,2.93461,-46.1498,10.9875,10.1696,22.5856,-8.2718,-17.9743,-7.28555,-1.97908,-4.92223,-27.8062,12.2229,-20.2628,8.78196,-1.65591
3.03946,17.3214,-44.3014,14.8155,-0.929215,1.78118,-5.14035,-2.13774,-2.43403,-3.31462,-2.75467,1.00024,-0.367466,-1.33844,2.25768,-16.2996,-3.17269,-7.18894,19.7504,-3.65118,4.93908,9.11975,-1.7212,2.42384,-7.92654e-15,9.93923e-16,-40.2312,4.04879,-86.5323,31.5716,1.91788,-27.5138,-43.1856,7.12502,-0.916351,-73.1634,-7.92654e-15,9.93923e-16,-29.4094,-13.2909,92.3745,32.1934,8.31268,-33.0333,-27.2074,7.12502,-6.2464,2.68052,-47.335,10.7752,10.7044,22.9799,-7.90538,-16.6661,-7.0848,-2.38304,-4.56916,-27.788,11.9211,-19.719,9.25485,-2.98488
3.00906,17.3178,-44.1783,14.3517,0.127579,2.00198,-4.57726,-2.48695,-2.74329,-3.71386,-3.22647,1.06389,-1.04593,-1.55475,2.50813,-14.7,-3.07831,-7.23293,19.565,-3.61764,4.91948,8.76173,-1.73288,2.43924,8.59744e-15,1.88845e-14,-41.1529,3.83428,-86.3417,31.3505,2.07705,-27.4509,-43.3937,7.12502,-0.855614,-73.3717,8.59744e-15,1.88845e-14,-30.4103,-12.9848,92.5154,32.2659,8.4101,-33.0883,-27.5446,7.12502,-6.29945,2.34173,-46.5201,10.6226,10.5872,23.3577,-7.57756,-17.4388,-7.86225,-1.28294,-4.93377,-27.6171,11.6427,-19.5647,8.4986,-4.13429
2.98312,17.3031,-44.0592,14.4885,0.0309415,1.97713,-4.30334,-2.4447,-2.62933,-2.87635,-3.17439,1.08101,-0.343434,-1.55052,2.45264,-19.6101,-3.43558,-7.25481,21.0951,-3.79419,4.93091,10.2161,-1.75375,2.40177,3.23025e-15,-9.74045e-15,-38.767,3.65019,-86.1338,30.8513,2.19824,-27.0824,-43.5529,7.12502,-0.499674,-73.532,3.23025e-15,-9.74045e-15,-27.9723,-12.8319,91.8265,31.9333,8.74777,-32.8452,-27.3511,7.12502,-6.06473,2.54209,-46.4509,10.1338,11.1653,23.6579,-7.06461,-16.7028,-8.17589,-1.20763,-4.63206,-27.4916,12.0492,-19.8237,8.29066,-4.92969
2.95135,17.301,-43.9355,14.1565,0.410253,2.09439,-4.33932,-2.54563,-2.78425,-3.04554,-3.30392,0.995918,-0.486237,-1.60981,2.44908,-18.0388,-3.38135,-7.29347,20.6505,-3.84934,5.08462,9.77345,-1.78487,2.4612,5.89894e-14,1.90833e-14,-39.6811,3.52008,-86.2193,31.1113,2.23726,-27.8473,-41.4519,7.12502,-1.23841,-71.428,5.89894e-14,1.90833e-14,-28.6817,-12.7558,91.7769,31.8822,9.00443,-32.7343,-27.0001,7.12502,-5.95771,2.89614,-45.8324,10.0987,11.29,24.1776,-6.70943,-16.962,-7.48387,-0.22574,-4.53241,-27.404,11.8261,-19.7909,7.96648,-6.27632
2.93625,17.2729,-43.8479,14.7799,-1.02686,1.92933,-4.69593,-2.02238,-2.82044,-3.77177,-2.60252,0.92587,-1.08233,-1.24083,2.43274,-16.3522,-3.33573,-7.33007,20.3597,-3.89924,5.1096,9.36414,-1.83189,2.47919,1.16289e-14,1.59028e-15,-40.9193,3.50108,-86.2465,31.4731,2.14008,-26.7501,-43.7609,7.12502,-0.178717,-73.7406,1.16289e-14,1.59028e-15,-29.8027,-12.6392,91.9316,32.0102,9.09989,-32.9098,-27.3724,7.12502,-6.12712,2.51903,-46.8524,9.84696,12.0583,24.7624,-5.76128,-15.0965,-7.59823,-0.534199,-3.93542,-27.6218,11.7973,-19.4902,8.58621,-6.77764
2.89493,17.2866,-43.7235,14.502,-0.143066,2.1586,-5.2592,-2.48454,-3.16256,-3.63354,-3.1866,1.0387,-0.566827,-1.53665,2.68496,-14.8913,-3.19726,-7.78663,19.7575,-3.74049,5.36716,8.89095,-1.78376,2.67024,1.81888e-14,9.93923e-15,-41.0076,3.88191,-86.2949,31.3297,2.09497,-27.2817,-42.4217,7.12502,-0.692118,-72.4003,1.81888e-14,9.93923e-15,-30.0945,-11.9216,91.7472,32.1482,9.04164,-32.941,-27.9341,7.12502,-6.15721,1.95637,-46.2651,9.68329,12.0348,25.3795,-5.06721,-16.3341,-6.14187,0.197403,-4.13723,-27.4074,11.7787,-19.1986,7.7027,-8.3633
2.86232,17.2933,-43.6053,14.5791,-0.131106,2.13947,-5.10209,-2.24616,-3.32074,-3.42674,-2.86499,0.974224,-0.4593,-1.37801,2.72566,-16.4654,-3.57799,-7.50193,20.3516,-4.2109,5.23289,9.41116,-1.97476,2.50796,1.20513e-14,9.54166e-15,-40.26,2.92227,-85.9266,30.9217,2.38134,-27.3717,-42.3576,7.12502,-0.779061,-72.3359,1.20513e-14,9.54166e-15,-29.4762,-12.4878,91.6981,32.0407,9.06825,-32.4917,-28.2504,7.12502,-5.72352,1.65232,-46.3182,9.62244,12.3201,25.9002,-4.14545,-16.4697,-5.15698,0.204003,-4.25123,-27.2545,12.3242,-19.1119,7.67328,-9.71425
2.83879,17.2936,-43.4872,14.6615,-0.772767,1.92095,-4.15632,-2.07567,-3.05427,-3.86904,-2.68339,1.02109,-1.46431,-1.26782,2.6813,-17.69,-3.55797,-7.53113,21.3689,-4.07534,5.05521,9.98511,-1.92142,2.46833,1.16041e-14,-2.98177e-15,-40.4739,3.1288,-85.9553,30.7382,2.54523,-27.4346,-42.3511,7.12502,-0.839873,-72.3291,1.16041e-14,-2.98177e-15,-30.0092,-11.8082,91.5459,32.1617,8.76801,-32.8044,-28.6006,7.12502,-6.0254,1.29374,-46.613,9.54015,12.9912,26.5301,-3.31049,-15.694,-4.4486,0.532475,-4.06845,-27.14,12.2831,-18.7334,7.89023,-11.2974
2.81133,17.2958,-43.3821,15.0948,-1.18724,1.71078,-5.2032,-1.84671,-2.92099,-3.57949,-2.34739,0.948423,-0.613239,-1.12067,2.50212,-17.9314,-3.63138,-7.28967,21.0832,-4.21744,5.05459,9.93237,-1.9619,2.40279,2.9271e-14,3.97569e-15,-39.7495,2.67933,-85.9559,30.6644,2.40509,-27.3232,-42.429,7.12502,-0.732267,-72.4074,2.9271e-14,3.97569e-15,-29.4274,-11.9786,91.2541,32.1213,8.6149,-33.0039,-28.2198,7.12502,-6.218,1.66896,-47.282,9.75236,13.3223,27.1371,-2.76254,-15.5338,-2.91248,0.343327,-3.95375,-26.9056,12.3765,-18.2768,7.6876,-12.1033
2.76975,17.3188,-43.2509,14.8932,-0.660999,1.75141,-5.41871,-2.02518,-3.01367,-3.45878,-2.57329,0.955109,-0.350387,-1.23804,2.5387,-17.3117,-3.6772,-7.474,20.8601,-4.30953,5.22402,9.75286,-2.00851,2.48375,2.71341e-14,1.59028e-14,-39.7063,2.65088,-86.0504,30.6205,2.11376,-27.016,-43.156,7.12502,-0.435526,-73.1353,2.71341e-14,1.59028e-14,-29.5107,-11.8128,91.074,32.1223,8.78147,-32.7236,-28.3768,7.12502,-5.94737,1.51978,-46.838,10.055,13.2988,27.7071,-2.27312,-16.317,-2.63362,0.811403,-3.98771,-26.5766,12.7091,-17.9651,6.80062,-17.4847
2.72973,17.3381,-43.1085,14.7542,-0.15106,1.73981,-5.43055,-2.19859,-3.14927,-4.11249,-2.8054,1.0241,-0.994379,-1.33209,2.68851,-14.9197,-3.46807,-7.58015,20.4288,-4.18236,5.32338,9.15381,-1.98286,2.57129,2.74447e-14,2.18663e-14,-41.3059,2.66341,-86.0838,30.7645,2.13282,-26.1733,-45.1119,7.12502,0.378324,-75.0913,2.74447e-14,2.18663e-14,-31.1593,-11.4541,91.2258,32.1023,8.80693,-33.0929,-28.9737,7.12502,-6.30385,0.912538,-46.3934,10.3466,13.3498,28.3163,-2.55854,-17.0916,-1.08413,1.26008,-3.96384,-26.1908,13.0215,-17.4155,6.09073,-14.5119
2.70483,17.3397,-42.9838,14.6513,-0.538566,1.26506,-5.62567,-1.98425,-2.64512,-3.42425,-2.52918,1.10089,-0.210952,-1.22245,2.47659,-17.3494,-3.61263,-7.53144,20.9675,-4.23185,5.33575,9.79599,-1.96443,2.54446,6.28657e-15,-2.78299e-15,-39.8873,2.6469,-86.1069,30.7455,2.38164,-26.9907,-44.6236,7.12502,-0.411071,-74.603,6.28657e-15,-2.78299e-15,-29.711,-11.2325,90.7802,31.8596,8.95597,-33.1086,-29.0917,7.12502,-6.31909,0.794052,-46.2433,10.4653,14.2063,28.9324,-2.91606,-16.5179,-0.483263,1.66412,-3.6062,-25.718,13.2318,-16.793,6.15882,-16.2675
2.66465,17.3545,-42.8331,14.4649,0.0227676,0.957662,-5.0479,-2.06764,-2.28391,-3.79993,-2.67121,1.16616,-0.922629,-1.2846,2.36386,-17.2924,-3.62355,-7.48859,21.5461,-4.2592,5.22196,9.98944,-1.99049,2.49973,1.40392e-15,4.77083e-15,-40.5424,2.81478,-86.3607,30.8746,2.38282,-27.6066,-44.9564,7.12502,-1.00599,-74.9337,1.40392e-15,4.77083e-15,-30.6079,-10.9571,90.7251,32.0463,8.7925,-33.0467,-29.1104,7.12502,-6.25928,0.777081,-45.6389,10.4806,14.8156,29.3757,-2.95892,-16.5854,-0.550759,1.72414,-3.73968,-25.0252,14.3896,-16.7825,5.69264,-17.7484
2.62873,17.3679,-42.6871,14.3956,0.35356,0.741326,-4.87123,-2.19527,-2.08594,-4.21123,-2.85294,1.29467,-1.43779,-1.36726,2.39482,-16.7618,-3.45613,-7.51255,21.8843,-4.03299,5.06397,9.9912,-1.91657,2.48764,2.84262e-14,5.96354e-15,-41.2275,3.23549,-86.5891,30.9038,2.2324,-27.7019,-45.6191,7.12502,-1.09804,-75.5961,2.84262e-14,5.96354e-15,-31.771,-10.3176,90.6947,32.4751,8.58747,-33.1556,-26.6911,7.12502,-6.36446,3.1933,-45.2352,10.5669,15.2683,29.7908,-2.65289,-16.3908,-1.61667,1.70617,-3.76661,-24.4722,15.3854,-16.4931,4.85999,-18.1097
2.60548,17.3512,-42.6003,15.154,-1.33976,0.133595,-6.21738,-1.41495,-1.58928,-4.10422,-1.81173,1.08823,-0.658938,-0.867972,1.90882,-16.136,-3.60491,-7.20158,21.4046,-4.37712,5.15295,9.72171,-2.04681,2.42054,5.60324e-15,-1.39149e-15,-40.818,2.26209,-86.5877,31.2094,3.3611,-26.7106,-46.827,7.12502,-0.140551,-76.8067,5.60324e-15,-1.39149e-15,-31.6217,-10.8802,90.3907,32.8058,8.73589,-33.9149,-26.4714,7.12502,-7.09741,3.38959,-46.2364,10.8817,16.1577,30.0153,-1.93049,-14.3043,-2.50399,0.379496,-2.68258,-24.21,16.8955,-16.1196,4.71276,-17.8849
2.55163,17.3845,-42.4253,14.375,0.41952,0.194058,-5.84718,-2.35746,-1.66578,-4.00459,-3.06909,1.52965,-0.678485,-1.49287,2.34403,-16.1924,-3.28453,-7.86368,21.8434,-3.75397,5.11918,9.85845,-1.81913,2.60846,-1.33558e-14,7.7526e-15,-40.7971,3.70497,-86.674,31.1468,3.96084,-27.4125,-43.5943,7.12502,-0.818464,-73.5724,-1.33558e-14,7.7526e-15,-32.2789,-9.27806,90.2135,32.9716,8.71673,-33.9027,-27.491,7.12502,-7.0856,2.37042,-44.5752,10.6319,16.4277,30.252,-2.54824,-15.4311,-1.14636,0.871747,-3.45157,-23.3938,18.3981,-15.9491,3.22762,-19.2211
2.53403,17.3734,-42.3103,15.1971,-1.62791,-0.427493,-6.69761,-1.54183,-1.20573,-4.69301,-1.99494,1.45606,-0.993099,-0.956218,2.05941,-14.5397,-3.19942,-7.80129,21.7278,-3.78724,5.13771,9.50801,-1.85105,2.61136,-2.60905e-15,-8.94531e-15,-41.9058,3.79688,-86.9881,31.4193,3.22618,-27.6442,-43.2505,7.12502,-1.04226,-73.2277,-2.60905e-15,-8.94531e-15,-33.4688,-9.40744,90.2488,33.0964,8.9274,-34.0752,-27.6348,7.12502,-7.25219,2.22093,-45.4942,11.0679,17.3443,30.407,-2.11855,-13.4439,-1.60154,-0.453569,-1.93031,-23.2671,19.9266,-15.3355,3.33328,-20.1211
2.49872,17.3896,-42.1606,15.2383,-1.50322,-0.565421,-7.51245,-1.49875,-1.04577,-4.42489,-1.94193,1.41046,-0.274684,-0.94092,1.89935,-14.8656,-3.25304,-7.63686,21.8865,-3.86114,5.0488,9.62502,-1.87766,2.54217,8.55395e-15,-4.77083e-15,-41.6035,4.09878,-87.4608,31.4265,1.88367,-25.8437,-47.3365,7.12502,0.696737,-77.3151,8.55395e-15,-4.77083e-15,-33.2325,-9.44418,90.0016,33.1733,9.1173,-33.7068,-27.0836,7.12502,-6.89654,2.78409,-45.0948,11.0873,17.7288,30.6996,-2.42921,-13.491,-0.95289,-0.78639,-1.61334,-22.8329,21.2144,-14.6874,2.36421,-21.5922
2.45416,17.415,-42.0014,14.8365,-0.485512,-0.563719,-6.88151,-1.85445,-0.988826,-4.55677,-2.42127,1.52212,-0.737343,-1.1765,1.97088,-15.5331,-3.29742,-7.84302,22.7188,-3.83936,5.02116,10.05,-1.88497,2.57408,3.10104e-14,3.97569e-16,-41.7197,4.61356,-87.7703,31.3577,1.40484,-27.9463,-45.55,7.12502,-1.33402,-75.5256,3.10104e-14,3.97569e-16,-33.7231,-9.10657,89.9168,33.2842,9.36079,-32.5546,-28.1905,7.12502,-5.78419,1.71055,-44.0083,10.9596,18.0212,30.9724,-2.95157,-14.349,0.263286,-0.819649,-1.82217,-22.1723,22.7968,-14.1346,0.965576,-21.9737
2.42887,17.4196,-41.8783,14.9288,-0.943394,-0.898954,-7.09107,-1.56062,-0.568107,-4.53845,-2.05269,1.45842,-0.634143,-1.00169,1.68668,-15.89,-3.34755,-7.84703,23.1405,-3.91445,5.09932,10.277,-1.90886,2.59483,8.83349e-15,-4.57205e-15,-41.4256,4.42908,-87.8809,31.3774,1.36748,-28.0068,-45.0451,7.12502,-1.3925,-75.0203,8.83349e-15,-4.57205e-15,-33.737,-9.44178,89.822,33.2448,9.84326,-33.0152,-27.8718,7.12502,-6.22885,2.01661,-43.8678,10.8948,18.7207,31.3008,-3.26115,-13.6827,0.488589,-1.43184,-1.05141,-21.7489,24.2699,-13.0628,0.226795,-23.1698
2.38515,17.44,-41.7243,14.6293,-0.0157221,-0.821574,-7.33848,-1.90885,-0.609438,-4.54952,-2.51316,1.48605,-0.490906,-1.23191,1.69933,-15.4038,-3.22046,-7.9451,23.4235,-3.75599,5.08632,10.2762,-1.85591,2.63608,3.34642e-14,1.19271e-15,-41.7136,4.84155,-88.1915,31.6013,1.1535,-28.2548,-44.1787,7.12502,-1.632,-74.1522,3.34642e-14,1.19271e-15,-34.2652,-9.36849,89.7071,33.3417,10.0953,-33.2238,-28.0572,7.12502,-6.43023,1.8252,-42.9866,10.6095,18.9723,31.59,-4.07236,-14.1716,0.631773,-1.82836,-1.04692,-21.1937,26.1338,-12.0256,-1.00216,-24.4142
2.3445,17.4542,-41.5824,14.4186,0.489747,-0.842714,-7.33293,-2.01556,-0.480859,-4.06675,-2.66603,1.42722,0.00162381,-1.31573,1.54459,-17.3256,-3.33255,-7.83363,23.8732,-3.81458,5.13805,10.8143,-1.84184,2.62061,-3.32964e-15,-1.42131e-14,-40.6703,4.98614,-88.3866,31.7279,1.41669,-29.3238,-42.6616,7.12502,-2.66446,-72.6247,-3.32964e-15,-1.42131e-14,-33.5749,-9.31977,89.2987,33.6027,9.98103,-32.9841,-27.796,7.12502,-6.1989,2.09326,-42.3206,10.509,19.2855,31.8748,-4.67052,-14.4212,2.09514,-2.42039,-0.73192,-20.6842,28.1016,-10.8101,-2.04389,-24.8071
2.31567,17.4407,-41.4869,15.2575,-1.42904,-1.3182,-8.02321,-1.23387,-0.141658,-4.33159,-1.64733,1.2985,0.0638982,-0.811508,1.28555,-17.4544,-3.382,-7.69532,24.0608,-3.92162,5.13713,10.9135,-1.87746,2.58292,2.54848e-14,1.39149e-15,-40.5395,4.74085,-88.4702,32.0861,2.36937,-29.8522,-42.2824,7.12502,-3.17475,-72.2385,2.54848e-14,1.39149e-15,-33.9212,-9.31737,89.0096,34.153,9.86051,-32.5379,-27.5782,7.12502,-5.76806,2.32329,-43.2607,10.9931,19.917,32.1025,-4.31522,-12.7432,1.27591,-4.1392,1.35795,-20.5779,30.0139,-9.1391,-2.33721,-23.4618
2.26335,17.4674,-41.3345,14.7792,0.165526,-0.996416,-6.96866,-1.68364,-0.449062,-5.29225,-2.21685,1.22023,-1.49023,-1.08202,1.38398,-15.6736,-3.25768,-7.50451,24.5511,-3.90958,4.94299,10.7384,-1.90812,2.50161,6.91941e-15,1.15295e-14,-42.4501,4.51353,-88.6626,32.6219,2.84402,-28.7084,-43.3762,7.12502,-2.07005,-73.3459,6.91941e-15,1.15295e-14,-36.2458,-9.58615,89.2015,34.697,10.0504,-32.5898,-27.41,7.12502,-5.81815,2.49013,-42.0755,10.4713,19.9764,32.3688,-5.10413,-13.7391,2.46874,-4.60853,0.878032,-20.0082,31.979,-7.25391,-3.5295,-21.1792
2.25637,17.4661,-41.1689,14.0411,-1.43304,-1.45287,-7.37107,-1.09761,0.102252,-4.90379,-1.47141,1.14663,-0.901123,-0.726095,1.02749,-15.1289,-3.10641,-7.4919,24.4861,-3.72203,4.88316,10.593,-1.83559,2.50755,1.46627e-14,-1.03865e-14,-42.3517,5.21096,-89.253,32.6159,1.27911,-27.5507,-42.8838,7.12502,-0.951949,-72.8615,1.46627e-14,-1.03865e-14,-36.4449,-9.41149,89.0119,34.7548,10.2987,-32.6714,-27.3501,7.12502,-5.89699,2.54788,-40.8296,10.9645,20.8435,32.5934,-5.8121,-12.2482,3.69948,-4.25989,2.54902,-19.8605,33.9007,-5.79149,-3.40324,-19.806
2.22537,17.458,-41.0479,14.1574,-1.9642,-1.67669,-7.65161,-0.96813,0.33646,-4.07795,-1.32498,1.23526,0.101447,-0.658381,0.981367,-18.6056,-3.18355,-7.5521,25.452,-3.53433,4.76779,11.6254,-1.72996,2.49496,1.33993e-14,-9.93923e-16,-40.1835,6.13022,-89.5556,32.5295,0.587607,-28.3451,-43.6552,7.12502,-1.71917,-73.628,1.33993e-14,-9.93923e-16,-34.5511,-8.79861,88.4632,34.5634,10.3934,-32.6184,-28.2111,7.12502,-5.84576,1.68822,-40.6983,11.1029,21.2956,32.9053,-6.19173,-11.7947,4.78477,-5.20538,3.48975,-19.5918,35.9985,-4.27356,-3.5397,-17.9379
2.20079,17.4618,-40.8857,13.6229,-2.24014,-1.88617,-7.76649,-0.695078,0.581448,-4.2774,-0.975851,1.15542,-0.0518752,-0.487883,0.788629,-16.9695,-3.09588,-7.37596,25.3287,-3.54012,4.59139,11.2474,-1.75815,2.40661,5.25848e-15,4.12478e-15,-41.0664,6.05257,-89.7024,33.0569,1.13098,-27.233,-45.5749,7.12502,-0.645147,-75.5536,5.25848e-15,4.12478e-15,-35.6997,-8.83975,88.4327,34.6796,10.4049,-31.6127,-28.204,7.12502,-4.87481,1.71992,-39.5023,11.0411,21.9413,33.0539,-6.76418,-11.439,4.62794,-5.36268,4.29766,-19.243,38.1691,-3.03718,-3.71849,-17.3931
2.15333,17.4763,-40.8009,13.889,-1.06697,-1.74755,-7.48487,-1.00077,0.340506,-4.60823,-1.35974,1.19504,-0.538841,-0.674972,0.944919,-16.7642,-3.18638,-7.3617,25.4842,-3.6484,4.43015,11.2705,-1.82966,2.33186,-1.61745e-14,-1.19271e-15,-40.9182,5.73679,-89.3689,33.3631,3.06176,-26.7955,-45.1985,7.12502,-0.222564,-75.1781,-1.61745e-14,-1.19271e-15,-36.0163,-8.86909,88.3887,34.8605,10.3798,-31.455,-28.3315,7.12502,-4.72247,1.5959,-39.3698,10.1848,22.1775,33.1083,-7.15092,-11.759,4.72704,-7.21697,3.89945,-18.8165,40.6347,-1.42726,-4.35357,-15.2736
2.12817,17.4976,-40.6553,13.6034,-0.761912,-2.01976,-7.29694,-0.970609,0.766618,-5.35394,-1.33235,1.18155,-1.42541,-0.67133,0.70765,-14.0348,-3.06709,-7.46457,25.2647,-3.65447,4.40607,10.6529,-1.87945,2.35803,2.53567e-15,-8.59744e-15,-42.7611,6.41078,-90.1759,33.9451,0.99557,-26.2055,-46.274,7.12502,0.347264,-76.2535,2.53567e-15,-8.59744e-15,-37.9612,-8.96954,88.5606,35.2037,10.3416,-31.9628,-27.89,7.12502,-5.2128,2.0259,-38.3198,9.82871,22.8527,32.967,-7.82012,-11.705,5.39294,-8.1703,4.10909,-18.2016,43.1677,0.513619,-4.75187,-8.40618
2.08922,17.5267,-40.5086,12.8857,0.485999,-2.29878,-7.21723,-1.62964,0.996519,-4.69527,-2.22999,1.66593,-0.771675,-1.11828,1.01221,-15.5159,-2.87706,-7.98634,25.6794,-3.09269,4.26895,11.0698,-1.67652,2.47034,3.26349e-14,1.59028e-15,-41.8253,8.28448,-90.5351,34.4281,-0.105896,-27.6365,-45.3663,7.12502,-1.03485,-75.3436,3.26349e-14,1.59028e-15,-37.2556,-7.62295,88.315,35.3137,10.3154,-32.6611,-26.1387,7.12502,-5.88698,3.75952,-36.6539,9.40971,23.5995,32.7244,-8.52324,-12.4805,5.57584,-8.9283,3.7269,-17.1641,45.8744,1.86289,-5.4114,-3.88514
2.06783,17.5307,-40.4313,13.5455,0.00589348,-2.87564,-6.57722,-0.998111,1.89155,-5.15923,-1.4119,1.34549,-1.64587,-0.738798,0.253878,-16.6991,-3.16225,-7.24975,26.4255,-3.59194,4.12305,11.605,-1.84083,2.21994,-5.22751e-15,2.80783e-15,-41.7299,7.11162,-90.5474,34.7413,0.887329,-28.0419,-44.9553,7.12502,-1.42634,-74.9303,-5.22751e-15,2.80783e-15,-37.2879,-8.76341,88.1565,35.3722,10.3156,-32.7246,-28.4906,7.12502,-5.94831,1.40589,-36.9378,9.22946,24.3841,32.3821,-8.34812,-11.6291,5.793,-11.4103,4.54674,-16.6386,48.6302,2.69335,-5.12389,-8.31471
2.02762,17.5308,-40.3537,14.0424,-0.217184,-3.31461,-7.08868,-1.0068,1.99077,-5.78281,-1.42729,1.69996,-2.00528,-0.748309,0.561918,-14.2098,-2.80963,-7.70073,25.6372,-3.16841,4.21481,10.7941,-1.70404,2.39889,7.29912e-17,-9.98893e-15,-42.6104,7.44868,-90.222,35.2252,3.01549,-27.7499,-43.1516,7.12502,-1.14441,-73.1283,7.29912e-17,-9.98893e-15,-38.5525,-7.83209,88.1529,35.691,10.2157,-33.2867,-27.4499,7.12502,-6.49097,2.43062,-37.0054,9.19447,25.0569,32.0475,-8.29956,-11.174,6.04906,-13.7083,5.06608,-16.1347,51.3565,3.22836,-4.63126,-4.54353
2.01258,17.5341,-40.222,13.6728,-0.562933,-3.86421,-7.17276,-0.766538,2.68498,-4.93273,-1.16893,1.81314,-1.08836,-0.624695,0.290205,-16.5244,-2.98924,-7.70704,26.017,-3.20058,4.09205,11.3971,-1.71113,2.34082,1.63143e-15,1.8487e-14,-41.0699,8.2928,-90.4131,35.6185,1.52618,-25.8101,-46.4953,7.12502,0.729193,-76.4738,1.63143e-15,1.8487e-14,-37.1211,-7.47791,87.858,35.7385,10.504,-33.8146,-26.7838,7.12502,-7.00063,3.08047,-35.8756,9.14633,25.9338,31.7436,-8.69491,-10.6511,6.21258,-14.6209,5.49872,-15.5611,54.012,3.26409,-3.89528,-1.67804
2.0047,17.5328,-40.0971,13.4069,-0.970368,-4.51467,-7.47416,-0.351556,3.54308,-4.95781,-0.678276,1.80453,-0.954927,-0.397524,-0.171713,-15.1966,-3.00274,-7.61548,25.6691,-3.33431,4.04531,11.0086,-1.77921,2.29307,8.24626e-15,-9.0447e-15,-41.3187,7.81279,-90.1549,36.1949,2.78201,-28.5666,-41.9652,7.12502,-1.93312,-71.9362,8.24626e-15,-9.0447e-15,-37.6787,-7.49398,87.8133,35.8999,10.5139,-34.1524,-26.672,7.12502,-7.32663,3.18111,-34.9362,9.12681,26.8553,31.5672,-9.08413,-10.1223,6.70808,-15.6296,5.94259,-14.9704,56.5105,2.14951,-3.15098,-6.89543
2.00147,17.516,-40.0147,13.9928,-2.06981,-5.32781,-7.58423,0.248157,4.47275,-5.05223,0.060794,1.92337,-0.9763,-0.0489866,-0.520606,-15.6851,-3.05876,-7.77776,25.7833,-3.3542,4.13354,11.155,-1.78841,2.34811,6.29511e-15,-1.78906e-15,-40.7554,7.73606,-89.7838,36.6131,3.69117,-27.9689,-42.5395,7.12502,-1.35588,-72.5149,6.29511e-15,-1.78906e-15,-37.4111,-7.10455,87.6962,35.9218,10.3633,-34.3906,-26.3119,7.12502,-7.55656,3.53307,-35.1594,9.27168,27.7682,31.4349,-9.1626,-8.92682,6.66447,-17.7888,7.14034,-14.5944,58.9965,1.21988,-2.46456,-2.44431
1.95605,17.5112,-39.9278,13.7364,-0.723084,-5.44919,-6.80188,-0.139789,4.53248,-5.8937,-0.371608,2.00149,-2.30477,-0.29869,-0.490124,-13.189,-2.86458,-7.76006,25.3903,-3.28868,4.15232,10.5118,-1.77957,2.37418,-1.57382e-14,3.4191e-14,-42.3293,7.91311,-90.1523,37.2173,3.40342,-26.9618,-44.4717,7.12502,-0.383164,-74.4511,-1.57382e-14,3.4191e-14,-39.1649,-7.09442,87.7148,36.2311,10.4665,-34.3941,-25.6541,7.12502,-7.55996,4.19078,-34.4741,8.85266,28.222,31.357,-9.42582,-9.8206,6.30359,-19.4166,6.24313,-13.984,61.2094,0.388748,-2.40525,-13.2048
1.93301,17.5044,-39.8241,13.4302,-0.24284,-5.7701,-6.91651,-0.086015,5.03778,-5.23453,-0.359881,1.96331,-1.56038,-0.285606,-0.816959,-14.4396,-3.07129,-7.59626,25.4314,-3.51411,4.13229,10.784,-1.85388,2.29946,3.16619e-15,7.55382e-15,-41.0252,8.00662,-90.2275,37.392,2.80605,-24.0268,-48.1964,7.12502,2.45144,-78.1621,3.16619e-15,7.55382e-15,-38.0797,-7.27998,87.4619,36.2662,10.7663,-34.2537,-28.1734,7.12502,-7.42442,1.67635,-33.6751,8.71878,28.7926,31.267,-9.80833,-10.1519,6.37377,-20.7165,5.88443,-13.4774,63.2079,-0.248207,-1.98299,-7.43665
1.92954,17.5042,-39.7042,13.0973,-0.758985,-6.17437,-6.47943,0.0981155,5.61293,-4.61025,-0.140884,2.12477,-1.14722,-0.169818,-0.961485,-16.8283,-3.13809,-7.84097,26.0422,-3.35987,4.15262,11.4831,-1.78341,2.36078,-8.88785e-15,1.57537e-14,-39.5344,8.76258,-90.067,37.3617,2.4685,-15.6268,-58.4611,7.12502,10.5601,-88.1758,-8.88785e-15,1.57537e-14,-36.9418,-6.37676,87.1456,36.1631,10.995,-35.4799,-29.1752,7.12502,-8.60793,0.629365,-32.7748,8.89521,29.3385,31.2522,-10.1556,-9.85104,6.40549,-21.5177,6.30815,-13.2371,64.7991,-2.62167,-0.877527,-12.137
1.93445,17.4977,-39.6038,13.1284,-2.15734,-6.71362,-6.50465,0.803092,6.32323,-4.84833,0.770971,2.04354,-1.32517,0.259693,-1.39126,-15.263,-3.06652,-7.77503,25.5666,-3.41044,4.20085,10.9949,-1.80629,2.36484,-8.12047e-15,-7.90169e-15,-39.9558,8.51812,-89.9828,38.1057,1.89841,-26.9199,-45.833,7.12502,-0.342772,-75.8125,-8.12047e-15,-7.90169e-15,-37.6608,-6.19278,87.0182,36.2343,11.1602,-33.2714,-27.2082,7.12502,-6.47623,2.67279,-32.3189,9.22243,29.9237,31.2364,-10.2704,-8.75441,6.34695,-22.6014,7.53919,-13.2006,66.2336,-3.10485,-0.326449,-13.766
1.89341,17.4933,-39.5165,12.3417,-0.426902,-6.52475,-5.83914,0.208844,6.0879,-4.44957,0.0288029,2.15314,-1.32976,-0.0965846,-1.18805,-16.0229,-3.14411,-7.73167,25.662,-3.42324,4.03445,11.1788,-1.8199,2.29008,-6.6391e-15,-1.09332e-14,-39.0584,8.73258,-89.7966,38.4606,1.52501,-21.9147,-52.7518,7.12502,4.49113,-82.6842,-6.6391e-15,-1.09332e-14,-37.2209,-5.71751,86.8209,36.3244,11.3364,-34.0835,-26.843,7.12502,-7.26021,3.01246,-31.2049,8.62547,30.1362,31.3483,-10.7124,-10.0318,6.69426,-23.5255,5.91859,-12.8535,67.4179,-3.60953,-0.426784,-3.9203
1.88078,17.4736,-39.4296,12.2495,-0.851126,-6.77186,-5.94513,0.558212,6.37141,-4.56798,0.478459,2.0956,-1.36479,0.117921,-1.38358,-14.5333,-3.17768,-7.60774,25.0788,-3.59442,3.96611,10.6756,-1.90453,2.22547,-1.15963e-14,-2.83268e-15,-39.2673,8.54882,-89.7484,37.7664,3.19453,-23.1543,-49.5565,7.12502,3.29406,-79.5108,-1.15963e-14,-2.83268e-15,-37.7145,-5.90068,86.8284,36.3838,11.612,-35.2403,-25.9246,7.12502,-8.37668,3.88929,-30.8463,8.78893,30.4942,31.524,-10.9235,-9.83882,6.64767,-24.7636,6.14767,-12.7793,68.4577,-4.41682,-0.00739844,-6.28736
1.84892,17.4666,-39.3397,11.8529,0.0621857,-6.59289,-4.69866,0.165259,6.19151,-4.6413,0.0739332,2.15854,-2.16322,-0.100317,-1.23707,-15.8581,-3.17843,-7.70342,25.8166,-3.48303,3.98577,11.2074,-1.85335,2.26184,8.01622e-15,1.00883e-14,-38.6686,8.87504,-89.6668,38.4031,1.61507,-23.3224,-50.8988,7.12502,3.1317,-80.8556,8.01622e-15,1.00883e-14,-37.603,-5.38356,86.6375,36.19,11.6388,-35.8188,-26.4565,7.12502,-8.93496,3.33426,-30.2884,8.70122,30.5165,31.9051,-11.5852,-10.7722,7.24772,-25.8945,5.11767,-12.8016,69.2402,-5.20921,0.426926,-10.6483
1.84609,17.4661,-39.2177,11.5786,-0.593717,-6.59749,-5.4049,0.658651,6.37522,-4.59086,0.659234,1.91241,-1.67447,0.197281,-1.57081,-13.7171,-3.13692,-7.4824,25.0704,-3.68473,4.15722,10.5185,-1.9204,2.26852,1.72944e-14,-2.64135e-14,-38.5519,8.23425,-89.5183,38.9183,-0.437646,-19.2148,-57.105,7.12502,7.09779,-86.966,1.72944e-14,-2.64135e-14,-38.0999,-5.85623,86.6952,36.0854,11.7744,-36.0305,-27.3822,7.12502,-9.13928,2.39972,-29.6668,8.77786,30.6198,32.292,-12.0742,-10.3428,6.79048,-26.4896,5.33471,-13.1307,69.7221,-6.16847,1.25248,-8.3116
1.84263,17.4474,-39.1333,11.7509,-1.15434,-6.53561,-5.13812,0.591549,6.45468,-3.97376,0.557004,2.08524,-1.18993,0.170814,-1.44224,-16.8721,-3.03802,-7.87997,25.8411,-3.19055,4.15323,11.4038,-1.70563,2.39057,-2.10277e-15,-6.16232e-15,-36.5068,9.69568,-89.4262,38.1079,0.778788,-20.9206,-55.0427,7.12502,5.45101,-84.9526,-2.10277e-15,-6.16232e-15,-36.6799,-4.45573,86.413,35.9715,11.7376,-36.1473,-27.1619,7.12502,-9.25196,2.61512,-29.7582,8.64067,30.6031,32.6901,-12.3483,-9.71113,6.6021,-27.9065,5.31387,-13.5744,70.2703,-7.00929,2.06133,-10.9391
1.8221,17.4394,-39.0044,11.0933,-0.605504,-6.2212,-4.88558,0.551942,6.26064,-3.92179,0.529792,1.86191,-1.27683,0.15748,-1.56747,-16.3392,-3.06097,-7.59251,25.8093,-3.33814,4.10789,11.2887,-1.75481,2.30623,-7.93819e-15,-2.43511e-15,-36.6189,9.26394,-89.4595,37.1293,2.8957,-23.848,-50.3649,7.12502,2.62413,-80.3285,-7.93819e-15,-2.43511e-15,-37.2832,-4.94669,86.4373,36.0417,11.8069,-36.4748,-27.1975,7.12502,-9.56795,2.56524,-28.7152,8.50186,30.5173,33.0314,-12.8108,-10.2768,7.09312,-28.3238,4.19845,-13.8421,70.5502,-8.36871,2.80505,-4.34556
1.79762,17.4469,-38.9406,11.4446,-0.259798,-6.07104,-5.33265,0.611997,5.95979,-4.16483,0.596867,1.84063,-1.27565,0.193071,-1.41627,-14.8429,-3.05143,-7.55463,25.2131,-3.43185,4.07581,10.7748,-1.8079,2.27831,4.02228e-16,-3.38431e-14,-36.5825,8.82711,-89.1792,37.7494,1.71488,-21.9893,-53.6764,7.12502,4.41914,-83.6103,4.02228e-16,-3.38431e-14,-37.7117,-5.28241,86.6369,35.9667,11.9382,-36.6823,-27.3661,7.12502,-9.76812,2.38731,-29.0358,8.41066,30.4362,33.3477,-13.3199,-10.392,8.48508,-30.4571,3.67881,-14.059,70.871,-9.51614,3.55696,-2.57347
1.79066,17.4365,-38.8773,12.0602,-1.36017,-6.23303,-4.42597,1.07437,6.1565,-4.38348,1.28947,1.73366,-1.95679,0.511726,-1.62322,-16.848,-3.23987,-7.45065,26.0973,-3.56783,3.99859,11.5108,-1.85439,2.20716,-8.96861e-16,1.23246e-14,-35.6811,8.59319,-88.9673,38.1783,0.709514,-20.4644,-57.082,7.12502,5.89148,-86.9801,-8.96861e-16,1.23246e-14,-37.2619,-5.3658,86.568,35.9805,12.1561,-35.7163,-26.8853,7.12502,-8.83605,2.90966,-29.5702,8.72884,30.4956,33.5575,-13.437,-9.57192,8.61654,-32.528,4.38416,-14.371,70.9926,-10.3779,4.19987,0.758701
1.77834,17.4325,-38.7658,11.8196,-1.27788,-6.15698,-5.32508,1.1642,6.07773,-4.5263,1.34504,1.74571,-1.60125,0.548502,-1.54979,-13.7262,-3.1047,-7.61933,25.0126,-3.58199,4.1022,10.4948,-1.89007,2.2853,-8.97045e-15,-3.52843e-15,-36.4617,8.62712,-88.9416,37.6857,1.84819,-22.4283,-53.4279,7.12502,3.9952,-83.3702,-8.97045e-15,-3.52843e-15,-38.5213,-5.38546,86.7835,36.2502,12.3069,-34.8933,-27.1709,7.12502,-8.04177,2.65609,-28.9359,8.62339,30.5578,33.7118,-13.9374,-9.63217,8.94765,-33.2717,3.87313,-14.5314,70.7098,-11.4614,4.85503,2.09692
1.77025,17.4269,-38.6458,11.5118,-1.32017,-6.2543,-5.01564,1.06129,6.37858,-3.99657,1.19604,1.82353,-1.23136,0.487439,-1.6446,-15.9408,-3.14656,-7.83902,25.7464,-3.41825,4.10856,11.1979,-1.81792,2.33853,-9.86624e-15,-1.08338e-14,-35.0611,9.31486,-88.8893,36.7701,3.18578,-27.0946,-45.9146,7.12502,-0.511467,-75.8938,-9.86624e-15,-1.08338e-14,-37.895,-4.63485,86.5449,36.1789,12.2258,-35.2433,-28.0037,7.12502,-8.37955,1.81013,-28.1646,8.43414,30.8262,33.8585,-14.476,-9.48446,8.91125,-33.7519,3.45199,-14.5034,70.216,-12.3447,5.31893,-12.838
1.75502,17.4181,-38.5513,11.4593,-0.99653,-6.35397,-4.95777,1.02886,6.60565,-4.05546,1.15314,1.79863,-1.32517,0.457226,-1.79966,-15.6696,-3.13089,-7.84051,25.7865,-3.43352,4.15987,11.1611,-1.82205,2.35807,4.00209e-15,-1.49089e-15,-34.6852,9.06312,-88.764,37.5192,1.27206,-21.7073,-54.9971,7.12502,4.69142,-84.9252,4.00209e-15,-1.49089e-15,-38.3006,-4.73779,86.5431,36.2225,12.1713,-35.4608,-27.646,7.12502,-8.58943,2.15925,-27.8085,8.1636,31.1003,34.016,-14.9181,-9.57875,8.49358,-34.7711,2.7272,-14.3899,69.5981,-13.4844,6.03276,3.48144
1.74099,17.4123,-38.4581,11.4794,-0.845784,-6.45739,-4.97503,1.14285,6.70766,-3.59423,1.27498,1.7924,-0.824988,0.539587,-1.85369,-17.2641,-3.33876,-7.74007,26.0598,-3.62921,4.15652,11.5942,-1.88452,2.302,-1.19488e-14,-1.72446e-14,-33.3565,8.89966,-88.4856,37.5079,1.41214,-21.7146,-53.0221,7.12502,4.68431,-82.9503,-1.19488e-14,-1.72446e-14,-37.3466,-5.09263,86.6811,36.0617,12.1426,-35.1755,-26.6884,7.12502,-8.3141,3.12797,-27.499,8.10306,31.3222,34.1169,-15.2858,-9.73039,7.80778,-35.8171,2.15521,-14.3162,68.8219,-13.2681,6.2635,-9.91422
1.72878,17.4012,-38.3669,11.6277,-0.724141,-6.55177,-5.19778,1.25714,6.9207,-4.15181,1.42934,1.71853,-1.26315,0.587565,-2.04205,-14.8357,-3.21099,-7.69958,25.447,-3.66808,4.242,10.8832,-1.91032,2.3333,-1.21251e-14,-1.27719e-14,-34.3624,8.65447,-88.5962,37.9319,1.13892,-21.4386,-53.8133,7.12502,4.95088,-83.7355,-1.21251e-14,-1.27719e-14,-38.7664,-5.43656,86.8278,36.1758,12.0288,-35.0164,-26.6362,7.12502,-8.16056,3.18621,-27.3513,8.01868,31.5243,34.1986,-15.5323,-9.93643,6.88191,-36.9904,1.65797,-14.244,67.9942,-13.5852,6.5264,-5.67487
1.72695,17.3927,-38.2472,11.3353,-1.29622,-6.79967,-4.86114,1.50748,7.21857,-3.64217,1.754,1.76846,-0.887874,0.76667,-2.14296,-16.8513,-3.39003,-7.60804,26.1822,-3.73537,4.00775,11.5604,-1.94337,2.21291,1.03073e-14,-4.47266e-15,-33.1311,8.76715,-88.3645,37.3824,1.9268,-22.5957,-51.8779,7.12502,3.83348,-81.8232,1.03073e-14,-4.47266e-15,-38.2611,-5.47435,86.9273,36.4036,12.0164,-34.8003,-26.7855,7.12502,-7.95205,3.04493,-26.5348,8.05433,31.8655,34.2909,-16.0797,-9.66674,6.10245,-37.1903,1.71586,-14.1176,66.923,-14.0644,6.70334,-3.42748
1.70868,17.391,-38.1659,11.4823,-1.06274,-6.90961,-4.78943,1.57322,7.43403,-4.00618,1.86156,1.65634,-1.28891,0.794123,-2.38007,-15.7871,-3.3915,-7.40538,26.0784,-3.8617,3.94492,11.3103,-1.99937,2.14508,-2.25939e-14,1.36664e-14,-33.519,8.56067,-88.6052,37.7721,1.70974,-22.1658,-54.4057,7.12502,4.24867,-84.3431,-2.25939e-14,1.36664e-14,-38.9097,-5.91912,86.988,36.1159,11.9265,-34.5298,-27.3236,7.12502,-7.69092,2.51655,-26.3918,8.0547,32.0814,34.3418,-16.4868,-9.93982,5.84542,-38.6121,1.18841,-13.9689,65.8913,-10.0511,6.78516,13.2257
1.69348,17.3673,-38.0796,11.6705,-0.931179,-6.95962,-4.4684,1.41441,7.3206,-3.58187,1.66198,1.91256,-1.05482,0.716615,-2.06365,-18.5219,-3.46277,-7.8004,26.794,-3.63742,3.95662,12.1323,-1.91248,2.23522,-9.88643e-15,-2.42517e-14,-31.9848,9.30605,-88.2934,37.1089,3.22544,-23.4919,-51.0518,7.12502,2.96809,-81.0109,-9.88643e-15,-2.42517e-14,-37.8818,-5.28018,87.0866,35.8432,11.6428,-34.4316,-28.5395,7.12502,-7.59621,1.30411,-26.3818,8.07354,32.2312,34.4962,-16.7609,-10.2605,5.44567,-39.6124,0.699113,-13.8934,64.601,-15.1051,8.04707,-6.78879
1.68887,17.3583,-37.9643,11.3807,-1.49842,-7.08992,-4.12743,1.6604,7.54763,-4.46291,2.06829,1.84653,-2.12018,0.859437,-2.26317,-14.9196,-3.15747,-7.92393,26.1999,-3.51272,4.14133,11.176,-1.87999,2.36541,8.0236e-15,5.51627e-14,-33.9383,8.94147,-88.4743,38.318,1.34215,-20.4041,-56.0766,7.12502,5.94971,-85.9731,8.0236e-15,5.51627e-14,-40.4697,-5.35574,87.1267,35.389,11.2173,-33.2287,-33.5046,7.12502,-6.43499,-3.62231,-25.6252,8.0606,32.4424,34.5981,-17.2401,-10.0168,5.26965,-39.6255,0.671424,-13.8497,63.1377,-15.552,8.20927,-8.11412
1.67218,17.3393,-37.8882,11.6449,-1.18491,-7.04624,-3.59609,1.53956,7.62387,-4.17924,1.94116,1.7668,-2.12888,0.798959,-2.40237,-17.7142,-3.3316,-7.76451,27.0536,-3.56105,4.03841,12.0652,-1.87607,2.28233,2.35901e-15,-6.11263e-15,-32.4482,9.15866,-88.4888,37.5311,2.28386,-21.7588,-53.8533,7.12502,4.64164,-83.7825,2.35901e-15,-6.11263e-15,-39.5941,-5.30915,86.9076,35.1828,11.1973,-33.1733,-33.6198,7.12502,-6.38147,-3.73596,-25.6897,7.5627,32.5466,34.738,-17.6416,-9.97356,5.80715,-40.7335,0.115263,-13.7955,61.6796,-15.4922,7.99728,-8.36848
1.66728,17.3337,-37.782,11.6569,-1.51345,-7.02833,-3.83172,1.77139,7.63079,-4.64169,2.2529,1.71088,-2.44812,0.932124,-2.45576,-15.4135,-3.26418,-7.66878,26.4685,-3.63058,3.89789,11.3748,-1.93474,2.21424,-1.66886e-14,-2.78299e-14,-33.6233,9.22107,-88.7128,38.0526,1.15756,-21.8962,-55.5989,7.12502,4.50905,-85.5309,-1.66886e-14,-2.78299e-14,-41.0193,-5.70239,87.2362,35.332,11.3149,-33.5246,-31.8923,7.12502,-6.72062,-2.019,-25.1769,6.97187,32.6196,34.6234,-17.9438,-9.45825,5.71997,-41.1639,0.0752634,-13.9037,60.0898,-15.4521,8.37735,-10.3442
1.6537,17.3311,-37.693,11.7491,-1.35311,-6.90358,-4.20377,1.71277,7.52543,-4.03922,2.10449,1.7248,-1.62749,0.902463,-2.36724,-16.9706,-3.39409,-7.67563,26.4956,-3.65917,3.81349,11.6986,-1.94148,2.16616,1.44259e-14,-3.57812e-15,-31.9421,9.2321,-88.3884,38.8036,0.204284,-18.188,-61.7426,7.12502,8.08891,91.5678,1.44259e-14,-3.57812e-15,-39.968,-5.60255,87.2567,35.2602,11.5459,-33.8852,-30.5988,7.12502,-7.06873,-0.736868,-24.8205,6.45166,32.6326,34.4551,-18.2178,-9.4623,5.13646,-41.9325,-0.324846,-13.9633,58.4779,-15.2452,8.27952,-10.4392
1.64994,17.3386,-37.5844,11.716,-1.61845,-6.95802,-3.99523,1.91161,7.6634,-4.50397,2.41316,1.64082,-2.1927,1.02216,-2.53433,-15.4579,-3.31755,-7.5949,26.2871,-3.70425,3.8489,11.317,-1.96379,2.17039,-2.66247e-14,-5.91384e-15,-32.8526,9.02584,-88.5238,39.4919,-0.324051,-16.4343,-65.3066,7.12502,9.78119,95.0595,-2.66247e-14,-5.91384e-15,-41.3818,-6.01902,87.5121,35.6959,11.7573,-34.0245,-29.3533,7.12502,-7.20324,0.504082,-24.0352,6.34585,32.7255,33.972,-18.2608,-9.46199,3.54951,-42.3245,-0.395492,-13.9034,56.7597,-15.4559,8.22008,-9.63064
1.64116,17.3492,-37.4897,11.9207,-1.6928,-6.96492,-4.67419,2.05056,7.64213,-4.28292,2.51736,1.64854,-1.57265,1.1013,-2.48333,-15.2495,-3.30163,-7.60248,25.949,-3.70665,3.91888,11.1488,-1.9554,2.19545,-2.51199e-14,-2.40529e-14,-32.3908,9.13258,-88.4227,39.5033,-0.395008,-16.6076,-64.9568,7.12502,9.61392,94.7175,-2.51199e-14,-2.40529e-14,-41.3244,-6.11656,87.682,35.8532,11.7932,-33.9042,-28.2485,7.12502,-7.08711,1.61287,-23.6535,6.31249,32.7661,33.4446,-18.3133,-9.21043,4.21197,-42.9644,-0.489101,-13.8879,54.9826,-14.8135,8.25754,-10.9088
1.64148,17.3739,-37.3526,11.625,-2.59191,-7.24951,-4.66633,2.33503,7.99536,-4.18695,2.8791,1.71288,-1.43121,1.28134,-2.59458,-14.8709,-3.20768,-7.73085,25.8329,-3.57721,3.95934,11.0251,-1.90744,2.25271,6.78663e-15,-3.18055e-15,-32.6019,9.62631,-88.5529,38.8945,0.805341,-18.7182,-60.4844,7.12502,7.57712,90.3286,6.78663e-15,-3.18055e-15,-41.8614,-5.7891,87.7425,35.9333,11.87,-33.9442,-27.4329,7.12502,-7.12573,2.42716,-22.4241,6.66541,32.9906,32.8263,-18.5304,-8.81795,3.38517,-42.5718,-0.0197572,-13.7313,53.1598,-14.8006,8.53787,-13.9153
1.62257,17.3861,-37.2778,11.8315,-2.2333,-7.25737,-4.61585,2.15353,7.91669,-3.9541,2.63221,1.81587,-1.24902,1.17311,-2.45306,-15.9869,-3.22341,-7.8616,25.8689,-3.48061,3.99889,11.2572,-1.85949,2.29446,1.98909e-14,-2.38542e-15,-31.5988,10.0782,-88.4944,40.2525,-1.13306,-15.0746,-67.41,7.12502,11.0928,97.0968,1.98909e-14,-2.38542e-15,-41.3359,-5.26908,87.633,35.875,12.0111,-33.8764,-26.3657,7.12502,-7.06021,3.49651,-22.0441,6.68502,33.0964,32.2934,-18.7815,-8.73777,4.85424,-43.3043,-0.280649,-13.6328,51.3333,-14.5584,8.31067,-11.6203
1.60976,17.3882,-37.194,12.1564,-2.10042,-7.32373,-4.19946,2.1109,8.14705,-4.48332,2.64497,1.69081,-2.02047,1.13191,-2.73514,-15.6045,-3.11096,-7.7535,26.0457,-3.42117,4.11536,11.2425,-1.81404,2.33318,7.60973e-15,3.55825e-14,-32.2004,10.1924,-88.944,39.2562,0.450286,-19.4953,-60.2374,7.12502,6.82705,90.1074,7.60973e-15,3.55825e-14,-42.3706,-5.18079,87.4044,36.2536,12.1282,-33.4338,-24.7505,7.12502,-6.63298,5.12562,-21.6526,6.7011,33.224,31.5767,-18.9876,-8.78517,5.95606,-44.059,-0.438638,-13.5012,49.5374,-14.3486,8.31075,-10.7763
1.6064,17.4013,-37.0879,12.1839,-2.33546,-7.5797,-4.77039,2.24813,8.31993,-3.9384,2.72712,1.85212,-1.1244,1.21723,-2.62774,-16.477,-3.13626,-7.77419,25.9056,-3.35698,4.05806,11.3582,-1.78237,2.31682,-5.25413e-14,-2.65378e-14,-31.1619,10.4434,-88.6444,39.7692,0.14175,-19.4444,-61.0499,7.12502,6.87618,90.9183,-5.25413e-14,-2.65378e-14,-41.8248,-4.86321,87.4637,36.4148,12.1599,-32.9812,-23.2492,7.12502,-6.19609,6.64014,-20.9648,6.67371,33.5141,30.9004,-18.6775,-8.86877,4.81635,-44.1936,-0.372945,-13.2242,47.7507,-14.4286,8.30006,-9.27712
1.61378,17.4108,-36.9553,12.0245,-3.08365,-7.91341,-5.10277,2.62027,8.84088,-3.72908,3.15019,1.81586,-0.651401,1.44097,-2.91076,-16.182,-3.16389,-7.64945,25.7048,-3.44046,4.01736,11.2256,-1.81377,2.26796,-1.89529e-14,1.2921e-14,-31.1155,10.4341,-88.7264,39.3585,0.338571,-21.9852,-55.6477,7.12502,4.42311,-85.5815,-1.89529e-14,1.2921e-14,-42.0871,-4.97606,87.5471,36.4848,12.4033,-33.0863,-21.4408,7.12502,-6.29757,8.44556,-19.6237,6.76866,33.7728,30.0839,-18.7972,-8.23271,5.19159,-43.9254,-0.000444032,-12.951,46.0299,-14.7264,8.51655,-8.24942
1.61466,17.4198,-36.8397,12.1425,-3.44581,-8.08406,-4.84405,2.75778,9.11355,-4.09781,3.37766,1.79608,-1.1421,1.51928,-3.09023,-15.7455,-3.17712,-7.65384,25.9057,-3.48755,3.97421,11.2178,-1.84809,2.25169,1.61994e-14,3.13086e-14,-31.6392,10.3782,-88.8791,39.1786,1.88962,-22.1595,-54.112,7.12502,4.25471,-84.0493,1.61994e-14,3.13086e-14,-43.0445,-4.90479,87.6486,36.41,12.5388,-33.6699,-21.4333,7.12502,-6.86096,8.43556,-18.8212,6.86107,33.8775,29.143,-18.8822,-7.91799,5.42045,-44.1133,0.146795,-12.8051,44.3228,-14.6109,8.98318,-10.4049
1.60976,17.4257,-36.7429,12.4082,-3.4546,-8.16641,-5.24052,2.70001,9.21519,-3.6986,3.22199,1.88656,-0.522203,1.47659,-3.03228,-16.9972,-3.21707,-7.80637,25.9895,-3.40623,4.00691,11.4976,-1.80953,2.29309,1.11475e-14,1.20265e-14,-30.417,11.0505,-88.8639,39.5896,0.965809,-21.0991,-56.2006,7.12502,5.27867,-86.1148,1.11475e-14,1.20265e-14,-42.3946,-4.38985,87.6015,35.5032,11.9933,-34.0619,-26.4211,7.12502,-7.23935,3.43503,-18.0899,6.70393,33.9742,28.1564,-19.0856,-7.49155,6.91197,-44.5399,0.0118274,-12.6594,42.664,-14.1899,9.32876,-12.9536
1.61546,17.4404,-36.6152,12.2131,-4.13182,-8.33823,-5.09492,3.17509,9.55802,-4.39466,3.90485,1.6664,-1.21874,1.75901,-3.43427,-13.9556,-3.12621,-7.54788,25.3226,-3.6321,4.18227,10.6567,-1.89319,2.29759,1.53825e-14,1.56046e-14,-32.2233,10.3478,-89.2225,40.0082,0.784342,-20.8929,-55.5915,7.12502,5.47778,-85.5007,1.53825e-14,1.56046e-14,-44.425,-5.12743,87.78,35.3505,11.9917,-33.2643,-28.4418,7.12502,-6.46936,1.43939,-16.7625,6.60844,34.055,27.1913,-19.05,-6.92072,6.49605,-44.0993,0.087574,-12.4318,40.997,-13.9846,9.60509,-12.6954
1.60728,17.4441,-36.5182,12.4917,-4.12901,-8.50144,-5.78832,3.22762,9.63229,-4.08948,3.86373,1.76509,-0.520317,1.77661,-3.32715,-14.305,-3.09155,-7.52889,25.0013,-3.54952,4.17727,10.6003,-1.84685,2.29719,-2.79355e-14,-9.24349e-15,-31.5753,10.5298,-89.1292,40.1936,0.656261,-21.5719,-54.2197,7.12502,4.82213,-84.1448,-2.79355e-14,-9.24349e-15,-44.081,-4.83223,87.8145,35.2658,12.0405,-32.9187,-27.9739,7.12502,-6.13568,1.91725,-16.1907,6.61336,34.2564,26.288,-18.8988,-6.71424,7.19771,-44.5138,-0.213483,-12.0364,39.3229,-14.0513,9.34569,-9.78238
1.60873,17.4575,-36.3959,12.4492,-4.52164,-8.79983,-5.82819,3.46887,10.0065,-4.23511,4.17141,1.75673,-0.590057,1.91524,-3.52073,-13.5806,-3.12187,-7.39151,24.8732,-3.65299,4.07261,10.4141,-1.90085,2.22722,-1.23231e-15,-1.12313e-14,-32.0548,10.3504,-89.2501,40.1161,0.956207,-22.8923,-51.4725,7.12502,3.54706,-81.4227,-1.23231e-15,-1.12313e-14,-44.7965,-4.85894,87.873,35.123,11.9495,-33.2612,-27.5702,7.12502,-6.46633,2.31113,-15.1489,6.58489,34.525,25.4533,-18.7449,-6.40926,6.35241,-44.3201,-0.447425,-11.4842,37.6265,-13.2077,9.62744,-10.1353
1.59828,17.4615,-36.3051,12.8118,-4.41877,-8.9157,-5.47292,3.3167,9.89596,-4.02039,4.00514,1.93855,-0.60291,1.84244,-3.29735,-16.1773,-3.22836,-7.53512,25.729,-3.55173,3.96595,11.2379,-1.85944,2.21359,1.73005e-15,2.68359e-14,-30.9311,10.8592,-89.1011,39.8317,1.16204,-23.6732,-49.0718,7.12502,2.79296,-79.0333,1.73005e-15,2.68359e-14,-44.0126,-4.12872,87.7497,34.803,11.6717,-33.242,-27.4596,7.12502,-6.44787,2.42223,-14.8884,6.5631,34.6754,24.8845,-18.8447,-6.14876,7.4586,-44.7548,-0.777878,-11.1083,35.9047,-12.4323,9.58947,-11.6029
1.58412,17.4615,-36.2264,13.1992,-4.25477,-8.845,-5.05462,3.10516,9.70038,-4.15268,3.79619,1.999,-1.01595,1.72123,-3.16899,-17.4512,-3.12109,-7.65151,26.1213,-3.28131,4.01062,11.626,-1.73369,2.28614,1.86454e-14,1.69961e-14,-30.5953,11.2553,-89.2508,40.2472,0.493361,-22.0235,-52.9019,7.12502,4.38606,-82.8365,1.86454e-14,1.69961e-14,-43.8912,-3.50357,87.5665,34.475,11.5003,-33.0309,-27.44,7.12502,-6.24403,2.44802,-14.6996,6.71516,34.6503,24.2502,-18.1789,-6.52305,4.98469,-45.2797,-1.0801,-10.9623,34.2295,-11.3441,9.10713,-10.874
1.57286,17.4661,-36.1382,13.6386,-3.95142,-8.79106,-5.70072,3.02142,9.5691,-4.27677,3.6181,2.02786,-0.817027,1.64014,-3.04788,-16.7367,-3.00892,-7.62989,25.6487,-3.17908,4.02103,11.2954,-1.68653,2.30022,2.16986e-14,1.65985e-14,-30.6737,11.2145,-89.34,40.6866,-0.364272,-21.115,-54.6489,7.12502,5.26333,-84.5635,2.16986e-14,1.65985e-14,-44.1039,-3.26054,87.5633,34.1143,11.5006,-33.4272,-26.4807,7.12502,-6.62664,3.39558,-14.5789,6.53152,34.6734,23.6564,-18.0214,-6.34854,5.64344,-45.8756,-1.45116,-10.8109,32.6477,-10.2105,8.58949,-11.2699
1.57819,17.4788,-36.0082,13.7857,-4.38726,-9.0326,-5.78454,3.215,9.91599,-4.68859,3.87888,2.01099,-1.15313,1.73552,-3.24577,-15.5609,-2.97386,-7.62618,25.5405,-3.22914,4.03304,11.0255,-1.71919,2.30301,-1.80863e-14,-3.93594e-14,-31.5862,11.1408,-89.6612,40.6767,-0.303215,-22.0416,-53.3013,7.12502,4.36862,-83.2362,-1.80863e-14,-3.93594e-14,-45.2314,-3.18005,87.579,33.9602,11.6368,-33.5731,-26.2022,7.12502,-6.76745,3.66969,-13.8928,6.32398,34.8261,22.9828,-17.8993,-5.69566,5.82155,-45.7743,-1.69399,-10.2581,31.1541,-9.65053,8.62726,-11.4628
1.57932,17.4819,-35.8882,13.8878,-4.63395,-9.22962,-5.57741,3.34826,10.1619,-4.80461,4.08116,1.97112,-1.34898,1.81765,-3.42372,-15.845,-3.05278,-7.55225,25.6768,-3.35589,4.07906,11.1406,-1.76233,2.28879,5.08376e-14,3.69739e-14,-31.6599,10.8495,-89.7712,39.9766,0.739082,-22.2193,-52.8066,7.12502,4.19698,-82.745,5.08376e-14,3.69739e-14,-45.5427,-3.151,87.5332,33.6219,11.8232,-32.2481,-18.0537,7.12502,-5.48829,11.8553,-13.1505,6.16494,34.9768,22.2591,-17.9514,-5.18261,6.91771,-45.6945,-1.95601,-9.7567,29.7223,-9.37187,8.63829,-10.9486
1.57685,17.4869,-35.7744,13.8663,-4.86647,-9.24435,-5.89019,3.42202,10.1343,-4.47169,4.1129,1.97294,-0.821254,1.8679,-3.37514,-16.2981,-3.05161,-7.50021,25.4918,-3.3375,4.11397,11.1584,-1.73758,2.28999,-2.49304e-14,-5.42682e-14,-31.0701,10.7458,-89.7175,39.8837,0.495076,-21.2188,-53.5428,7.12502,5.16309,-83.4599,-2.49304e-14,-5.42682e-14,-45.1189,-2.69146,87.3106,33.2069,11.1584,-31.9465,-14.7145,7.12502,-5.19703,15.2017,-12.2452,6.18944,34.9555,21.4395,-17.8005,-5.04461,6.36254,-45.5388,-2.18371,-9.52516,28.4334,-9.17035,8.79912,-12.1011
1.5754,17.4925,-35.6604,13.8929,-5.01436,-9.15767,-6.31349,3.50166,10.0521,-4.13369,4.14128,1.90155,-0.225901,1.91939,-3.3652,-16.8671,-3.0789,-7.37652,25.4326,-3.36905,4.12771,11.2479,-1.73098,2.26483,-8.95773e-15,-3.86636e-14,-30.5004,10.634,-89.7293,39.7106,0.227593,-20.1036,-56.3644,7.12502,6.23977,-86.2525,-8.95773e-15,-3.86636e-14,-44.6409,-2.53008,87.1919,32.7933,11.2247,-31.9379,-14.3438,7.12502,-5.18881,15.5727,-11.4546,6.08762,34.825,20.7224,-17.7325,-4.65105,6.17749,-45.4618,-2.48401,-9.41407,27.2614,-9.27707,8.8935,-9.16437
1.57437,17.4928,-35.5468,14.0288,-5.15283,-9.23365,-6.86765,3.50704,10.1065,-4.03125,4.06348,2.00975,0.174189,1.9005,-3.25302,-16.4063,-2.99445,-7.55074,25.1132,-3.23175,4.14432,11.0317,-1.68564,2.31958,-1.03368e-14,-2.97183e-14,-30.5152,10.9859,-89.8343,39.2708,0.350544,-19.2826,-59.4146,7.12502,7.03237,-89.2778,-1.03368e-14,-2.97183e-14,-44.8181,-1.95213,87.1045,32.6279,11.1086,-32.113,-14.0178,7.12502,-5.35786,15.8944,-10.7654,5.89389,34.8542,20.0389,-17.6628,-4.04962,6.5936,-45.4865,-2.76169,-9.0907,26.2405,-9.32523,9.13987,-9.6804
1.57908,17.4886,-35.4328,14.2117,-5.0421,-9.34004,-7.28311,3.54673,10.4322,-4.32728,4.06307,1.93374,0.115566,1.88218,-3.49637,-14.9426,-2.91414,-7.45274,24.6287,-3.26151,4.18322,10.5658,-1.69713,2.31667,-1.58639e-14,-2.33572e-14,-31.1771,10.5817,-90.0783,39.5906,-0.558092,-17.6295,-63.2372,7.12502,8.62788,-266.959,-1.58639e-14,-2.33572e-14,-45.7789,-1.94113,87.0056,32.5982,11.1941,-31.762,-15.4106,7.12502,-5.01894,14.51,-10.1816,5.70089,34.9624,19.3475,-17.5124,-3.81617,6.899,-45.6874,-3.17335,-8.7217,25.4198,-9.10563,9.4101,-10.9006
1.57879,17.4867,-35.3114,14.2939,-5.40013,-9.54227,-6.90826,3.61204,10.4136,-4.27969,4.19708,2.05659,-0.0335082,1.94534,-3.36643,-16.2447,-2.95312,-7.44708,25.1295,-3.21096,4.12296,11.0018,-1.67108,2.29851,-4.53446e-14,-1.85864e-14,-30.9424,10.565,-90.0809,38.7157,1.0545,-20.1313,-58.5274,7.12502,6.21308,-88.4163,-4.53446e-14,-1.85864e-14,-45.6478,-1.73226,87.1,32.2216,11.513,-31.278,-17.1613,7.12502,-4.55154,12.7698,-9.38149,5.84326,35.0798,18.6878,-17.4901,-3.5444,6.68165,-45.6551,-3.2051,-8.31696,24.7795,-8.70463,9.79414,-10.6128
1.5802,17.4831,-35.1848,14.3834,-5.6224,-9.67143,-7.03183,3.73058,10.6299,-4.52724,4.34342,1.98566,-0.18866,1.99847,-3.54615,-15.4188,-2.84107,-7.45992,25.0073,-3.15947,4.29849,10.7929,-1.63578,2.37575,-7.16401e-15,-9.93923e-15,-31.5868,10.2153,-90.3868,38.3077,1.52117,-21.3504,-55.6728,7.12502,5.03602,-85.593,-7.16401e-15,-9.93923e-15,-46.2433,-1.66332,86.9012,31.9756,10.9725,-31.2096,-16.8321,7.12502,-4.48551,13.1004,-8.62171,5.84682,35.1429,18.0973,-17.5925,-3.29356,6.40793,-45.654,-3.48236,-7.90106,24.2473,-9.06322,10.2949,-8.91295
1.58268,17.4804,-35.0573,14.506,-5.90401,-9.50501,-7.02127,3.78651,10.3957,-4.67344,4.4438,1.94848,-0.346009,2.0408,-3.45358,-15.5139,-2.83774,-7.50984,25.1688,-3.14613,4.32827,10.8722,-1.63151,2.39857,1.36991e-14,3.08116e-15,-31.8818,10.2419,-90.5421,37.3584,2.56572,-23.5721,-50.7581,7.12502,2.89063,-80.7183,1.36991e-14,3.08116e-15,-46.5382,-1.39826,86.831,31.7578,10.5044,-31.6727,-17.3079,7.12502,-4.93271,12.6146,-7.98357,6.00108,34.8839,17.5282,-17.4707,-3.29872,5.33463,-45.6926,-3.91416,-7.73846,23.8165,-9.34805,10.9634,-9.08462
1.59168,17.4798,-34.932,14.6764,-6.03504,-9.44609,-6.76309,3.89142,10.5303,-5.10381,4.64359,1.75195,-0.892426,2.0965,-3.74664,-15.0482,-2.90654,-7.28373,25.164,-3.34133,4.32137,10.7872,-1.70539,2.33307,4.94322e-15,2.32578e-14,-32.6168,9.60558,-90.7309,37.5233,1.71659,-22.7758,-51.7731,7.12502,3.65965,-81.7215,4.94322e-15,2.32578e-14,-47.2945,-1.57989,86.668,31.5962,10.4442,-31.5551,-18.291,7.12502,-4.81919,11.6342,-7.42229,5.90823,34.7138,16.9875,-17.2006,-3.20658,3.41948,-45.7901,-4.15957,-7.6613,23.4868,-9.31205,11.2519,-8.11793
1.58971,17.4733,-34.8109,14.7986,-6.31564,-9.59421,-6.75745,4.02646,10.6939,-5.24527,4.82502,1.66944,-1.00247,2.17196,-3.91191,-14.6792,-2.91438,-7.15624,24.9017,-3.42884,4.3986,10.622,-1.72656,2.32654,2.30092e-15,-2.31087e-15,-33.0105,9.14648,-90.9612,37.1427,2.41285,-22.9765,-51.1142,7.12502,3.46581,-81.0658,2.30092e-15,-2.31087e-15,-47.6539,-1.6776,86.5218,31.3234,10.5372,-31.6323,-19.4302,7.12502,-4.89371,10.4933,-6.8545,6.46447,34.8068,16.629,-16.9127,-3.47666,2.40276,-45.7664,-4.19338,-7.33075,23.2041,-8.50814,11.5268,-8.9637
1.60102,17.4731,-34.6732,14.9115,-6.53033,-9.54589,-7.50682,4.07948,10.7558,-4.90912,4.76108,1.67626,-0.238215,2.18536,-3.87984,-15.0308,-2.83737,-7.26189,24.7232,-3.28204,4.48088,10.6183,-1.65392,2.38983,3.78429e-15,1.61016e-14,-32.5439,8.91897,-90.8844,36.5903,2.47039,-22.5906,-52.112,7.12502,3.83841,-82.0571,3.78429e-15,1.61016e-14,-47.2663,-1.13095,86.2999,30.8882,10.3275,-31.3517,-19.6612,7.12502,-4.62271,10.2684,-6.23607,6.31617,34.5914,16.2804,-17.0399,-2.98296,2.54248,-45.7142,-4.29159,-7.36303,23.1005,-8.83207,11.6822,-6.95773
1.60746,17.4668,-34.5464,15.0196,-6.63814,-9.37691,-7.94702,4.14566,10.5951,-4.56749,4.77364,1.60111,0.363747,2.23295,-3.82496,-15.9283,-2.89915,-7.22005,24.7919,-3.3258,4.52098,10.8218,-1.65455,2.38657,2.86149e-14,-1.19519e-14,-31.893,8.45602,-90.7656,37.3648,0.171712,-19.2476,-59.9944,7.12502,7.06614,-89.8565,2.86149e-14,-1.19519e-14,-46.5825,-0.805421,86.0755,30.5602,10.0299,-31.2381,-19.1174,7.12502,-4.51303,10.8145,-5.79325,6.37497,34.3204,16.0877,-17.1736,-2.76482,3.08285,-45.7346,-4.13329,-7.73029,23.0893,-8.73193,11.4298,-4.88241
1.61658,17.4563,-34.407,15.1728,-6.66919,-9.31846,-8.0216,4.20567,10.6954,-5.25329,4.88669,1.51033,-0.290649,2.23294,-3.98527,-13.88,-2.77318,-7.35273,24.4556,-3.30549,4.69918,10.3031,-1.65988,2.48431,5.43552e-16,-9.64106e-15,-33.543,8.07562,-91.0776,36.8289,0.979328,-21.3531,-55.7051,7.12502,5.03346,-85.6253,5.43552e-16,-9.64106e-15,-48.0823,-0.748698,85.8892,30.525,10.008,-31.3795,-18.5936,7.12502,-4.64958,11.3354,-5.34986,6.4088,34.1659,15.9322,-17.1939,-2.74764,3.03022,-45.7631,-3.94677,-8.03922,23.185,-8.57192,11.2125,-3.79468
1.61805,17.4402,-34.289,15.5207,-7.08534,-9.43732,-7.75517,4.18176,10.5641,-4.90238,4.87347,1.64513,-0.0876679,2.25175,-3.77858,-16.6711,-2.87058,-7.42943,25.1412,-3.19669,4.58422,11.0945,-1.60242,2.46464,2.63607e-14,-8.94531e-15,-32.4218,8.33357,-90.9969,35.9583,1.00555,-21.663,-54.3511,7.12502,4.73419,-84.2782,2.63607e-14,-8.94531e-15,-46.9219,0.0374481,85.7002,30.1218,9.95862,-31.3521,-18.6845,7.12502,-4.62317,11.245,-5.20042,7.10462,34.1317,15.8574,-16.9015,-2.87002,1.42757,-45.9998,-3.66273,-7.95377,23.4505,-8.2265,11.5864,-3.99695
1.63016,17.4315,-34.1355,15.4461,-7.08532,-9.32954,-7.76784,4.12447,10.5429,-4.97515,4.80219,1.66655,-0.170983,2.21044,-3.75428,-16.7681,-2.8809,-7.49058,25.2458,-3.16152,4.48529,11.1505,-1.60462,2.44472,5.39281e-15,-4.76089e-14,-32.926,7.92624,-90.9086,35.3956,2.23836,-21.6752,-52.6007,7.12502,4.72241,-82.5281,5.39281e-15,-4.76089e-14,-47.1318,0.334717,85.6408,29.8705,9.8181,-31.4824,-19.2464,7.12502,-4.74895,10.6804,-4.54082,7.07766,33.9484,15.7918,-16.8397,-2.90964,0.608109,-45.7874,-3.63367,-8.3421,23.8806,-8.21071,11.6596,-4.01903
1.63694,17.4234,-33.9901,15.4297,-7.62783,-9.38958,-7.78041,4.28977,10.535,-4.9612,5.01798,1.65943,-0.118664,2.32069,-3.73317,-16.8607,-2.92023,-7.55317,25.2782,-3.21558,4.56488,11.1874,-1.62471,2.47664,-1.56923e-14,5.31749e-15,-33.2594,7.56924,-90.912,34.698,3.41286,-22.8724,-49.7072,7.12502,3.5663,-79.6571,-1.56923e-14,5.31749e-15,-47.207,0.452069,85.581,29.7256,9.71414,-31.8419,-19.3636,7.12502,-5.0961,10.5551,-3.96078,7.37978,33.7952,15.8936,-16.9786,-2.60817,-0.691535,-45.4152,-3.09344,-8.65991,24.3376,-8.53081,11.6529,-2.52858
1.64191,17.4123,-33.8528,15.5612,-7.97932,-9.30636,-8.85027,4.44943,10.4755,-4.68456,5.06655,1.62015,0.768456,2.39303,-3.64658,-16.0258,-2.86328,-7.65722,24.5542,-3.19776,4.73284,10.7564,-1.60938,2.55182,-1.78844e-14,-1.31198e-14,-33.1967,7.5145,-91.0255,34.656,1.67833,-22.3288,-52.5057,7.12502,4.09131,-82.4462,-1.78844e-14,-1.31198e-14,-47.0692,0.869882,85.2184,29.3609,9.65509,-30.4891,-22.7764,7.12502,-3.78981,7.16967,-3.63103,7.67104,33.5347,16.0082,-16.8179,-2.51412,-0.951892,-45.2808,-2.74498,-9.03927,24.8231,-8.63692,11.6164,-1.3373
1.64729,17.4021,-33.7121,15.6166,-8.29645,-9.18663,-9.05574,4.45865,10.3444,-4.59189,5.05469,1.59375,0.97072,2.40016,-3.58493,-16.3197,-2.78332,-7.63442,24.4685,-3.05779,4.70669,10.7709,-1.54226,2.55569,4.0945e-14,1.55549e-14,-33.2187,7.49028,-91.1135,33.2913,3.67829,-24.0825,-49.1294,7.12502,2.39772,-79.0957,4.0945e-14,1.55549e-14,-46.935,1.27196,84.9485,29.1148,9.58431,-30.1121,-24.3476,7.12502,-3.42575,5.60462,-2.93266,7.85831,33.2607,15.5298,-16.6482,-2.32755,-2.34628,-45.1357,-2.4538,-9.46908,25.525,-8.37456,11.6211,-1.46006
1.65878,17.3922,-33.5629,15.6488,-8.28701,-8.98113,-8.66224,4.36271,10.1776,-5.00514,5.02333,1.52933,0.307552,2.34508,-3.61139,-16.3152,-2.6315,-7.5217,24.6396,-2.87783,4.69866,10.8175,-1.45248,2.56217,1.0213e-14,6.55989e-15,-33.9978,7.24522,-91.2549,33.6569,2.47233,-21.9254,-52.3746,7.12502,4.48076,-82.3072,1.0213e-14,6.55989e-15,-47.5005,1.36344,84.7823,29.001,9.49465,-30.7545,-23.9936,7.12502,-4.04611,5.94775,-2.48361,7.82939,32.9712,15.4513,-16.412,-2.44331,-2.86496,-45.009,-2.24863,-10.1024,26.1164,-7.48562,11.1596,-1.55944
1.6924,17.4117,-33.3204,14.8984,-10.2427,-9.23865,-8.81624,5.02896,10.7377,-4.80874,5.82286,1.46154,0.761797,2.75802,-3.86667,-15.1988,-2.59444,-7.52928,24.5341,-2.88228,4.59767,10.5603,-1.47985,2.52882,-4.48325e-14,1.10822e-14,-35.1257,7.09044,-91.3967,33.4222,2.83597,-21.9782,-52.309,7.12502,4.42985,-82.2427,-4.48325e-14,1.10822e-14,-48.2803,1.35374,84.7265,29.0784,9.52613,-30.6513,-23.6429,7.12502,-3.9464,6.30033,-0.530648,8.37142,32.465,15.0942,-16.414,-0.897407,-4.07533,-43.1876,-1.92471,-10.0466,26.815,-6.86741,12.3364,-0.64825
1.68311,17.4039,-33.2431,15.6253,-9.48208,-9.07339,-8.15594,4.71202,10.2567,-5.7599,5.59836,1.4306,-0.67537,2.5609,-3.76485,-14.7849,-2.66559,-7.25204,24.6038,-3.00021,4.25319,10.5041,-1.55474,2.34415,4.72463e-14,7.85696e-14,-36.3672,6.76137,-91.5911,33.5486,2.9114,-21.8229,-52.6549,7.12502,4.57977,-82.5854,4.72463e-14,7.85696e-14,-49.1004,1.11787,84.6793,29.2446,9.79301,-30.2439,-23.1672,7.12502,-3.55296,6.78291,-0.818894,8.72891,32.4776,14.6038,-15.6335,-1.66796,-6.85514,-44.5379,-1.75713,-10.426,27.5211,-5.42771,10.9003,-1.17441
1.69344,17.4147,-33.0789,15.6074,-10.4349,-9.03324,-9.51285,5.09393,10.3567,-4.98788,5.85989,1.29709,0.94385,2.78239,-3.77699,-14.7143,-2.74296,-7.01679,23.7076,-3.09517,4.03024,10.1634,-1.5954,2.20137,-2.74946e-14,-1.76918e-14,-35.8105,6.42484,-91.5052,33.5974,2.94861,-21.4601,-52.6914,7.12502,4.93009,-82.614,-2.74946e-14,-1.76918e-14,-48.0424,1.09914,84.6965,29.0839,10.0947,-30.6607,-22.2978,7.12502,-3.95547,7.64521,0.0745066,9.64569,32.0616,14.1356,-14.9521,-0.936203,-5.47499,-44.2651,-1.59864,-10.4765,28.171,-5.11982,10.795,-0.978661
1.70391,17.4221,-32.9074,15.8044,-10.8761,-8.94887,-10.1358,5.26004,10.3604,-5.15619,6.00664,1.20718,1.13558,2.85581,-3.80809,-13.9279,-2.67575,-6.9233,23.4436,-3.06432,3.98391,9.91345,-1.58485,2.17571,-4.89748e-14,-4.21672e-14,-36.7039,5.96003,-91.5295,33.1133,4.06069,-22.5057,-50.6367,7.12502,3.92048,-80.5804,-4.89748e-14,-4.21672e-14,-48.4371,0.982,84.6378,29.0412,10.2799,-31.2513,-22.3226,7.12502,-4.52579,7.60901,0.27287,9.94602,31.6655,14.4709,-14.8244,-0.325215,-5.22119,-44.216,-1.379,-10.7741,28.666,-4.61479,10.0549,-0.214787
1.70614,17.4192,-32.762,15.239,-9.08507,-8.02661,-8.98137,4.42581,9.49573,-5.52023,5.15333,1.11716,-0.0550881,2.38689,-3.65122,-15.1816,-2.70936,-6.777,24.3768,-3.05901,3.89402,10.4875,-1.57401,2.12123,-6.61689e-14,-2.34814e-14,-37.3637,5.61299,-91.5329,32.5458,4.84389,-23.4627,-49.0189,7.12502,2.99626,-78.9776,-6.61689e-14,-2.34814e-14,-48.8582,0.900993,84.5872,29.1837,10.1735,-31.4153,-22.5949,7.12502,-4.6842,7.33331,1.04694,9.19337,31.4289,14.7339,-14.497,-1.98347,-10.7481,-44.0883,-2.21347,-12.0254,29.2027,-3.85302,8.0755,0.133662
1.70914,17.4208,-32.6042,14.9423,-8.7659,-7.51273,-8.75856,4.23793,8.96848,-5.29455,4.95958,0.968848,0.0127519,2.31,-3.54454,-16.692,-2.85396,-6.65097,24.9528,-3.20575,3.892,11.0016,-1.61756,2.07476,5.52089e-14,-5.61567e-15,-37.0434,5.27946,-91.5432,32.0142,5.20691,-23.9492,-48.6581,7.12502,2.52641,-78.6228,5.52089e-14,-5.61567e-15,-48.243,0.992085,84.3654,29.026,9.76564,-30.8673,-22.4428,7.12502,-4.15498,7.49638,1.47882,9.33527,31.0353,15.207,-14.0689,-2.37584,-12.7656,-43.7163,-2.25307,-12.8871,29.755,-3.54587,7.10728,1.39511
1.70961,17.4171,-32.4648,15.1468,-8.80829,-7.11096,-9.32132,4.16563,8.50558,-5.54595,4.84997,0.917213,0.0151579,2.2566,-3.32794,-15.5282,-2.82929,-6.92983,24.6859,-3.20889,4.03266,10.6832,-1.63963,2.17728,-5.57141e-16,2.41026e-14,-37.7912,5.20295,-91.5962,31.6786,5.31587,-24.1114,-49.3041,7.12502,2.36974,-79.2707,-5.57141e-16,2.41026e-14,-48.4198,1.41892,84.0198,28.5928,9.27106,-30.1627,-22.6353,7.12502,-3.47462,7.31608,1.1933,9.64491,30.5378,16.1557,-13.9471,-2.34015,-13.6684,-43.8468,-1.78395,-13.732,30.2412,-3.28046,6.28172,3.04024
1.72582,17.4238,-32.2819,14.73,-9.09923,-6.55122,-9.87729,4.26157,8.26156,-5.57767,4.94052,0.638171,0.303213,2.31249,-3.43562,-14.0511,-2.73758,-6.94498,24.2863,-3.22949,4.24468,10.2545,-1.63966,2.25873,9.63446e-16,6.12505e-15,-38.777,4.80553,-91.7174,31.6458,5.11971,-23.7674,-49.7361,7.12502,2.70203,-79.6988,9.63446e-16,6.12505e-15,-48.8416,1.00869,83.9865,28.5913,9.37842,-30.4648,-21.5227,7.12502,-3.76632,8.42381,1.45673,9.80409,29.7737,17.2775,-13.8346,-1.73972,-12.2651,-43.0912,-1.59196,-14.7362,30.7759,-3.46315,6.08607,4.2839
1.7291,17.427,-32.1286,14.8004,-8.81125,-5.88426,-10.13,3.99592,7.4398,-5.35021,4.62603,0.572144,0.5947,2.18628,-3.06393,-15.6566,-2.71792,-6.91151,24.6917,-3.10357,4.2404,10.7056,-1.56355,2.2636,2.35808e-14,2.63762e-14,-38.3683,5.03925,-91.7301,31.4808,4.60226,-23.466,-50.3753,7.12502,2.9931,-80.3341,2.35808e-14,2.63762e-14,-48.0797,0.970324,84.2037,28.7529,9.68401,-31.1073,-19.3244,7.12502,-4.38677,10.6101,0.882318,9.77142,29.0849,18.7561,-13.7016,-1.66105,-13.0185,-43.0252,-1.50893,-15.7834,31.1658,-3.52967,5.4423,5.16566
1.72631,17.4296,-31.982,14.6265,-8.29118,-5.30273,-10.2711,3.72859,6.77621,-5.65536,4.33268,0.504697,0.283862,2.0349,-2.80599,-14.5256,-2.64705,-6.95602,24.4521,-3.08454,4.30293,10.398,-1.56314,2.29985,-1.09755e-14,-1.02995e-14,-39.4253,4.91196,-91.8172,31.7719,3.64144,-22.0878,-52.8602,7.12502,4.32403,-82.7961,-1.09755e-14,-1.02995e-14,-48.6311,0.707963,84.2915,28.8811,9.78216,-31.0352,-18.3322,7.12502,-4.31711,11.6038,0.61577,9.66702,28.6756,20.1532,-13.0062,-2.13824,-16.9184,-42.7218,-1.54276,-16.6874,31.6006,-3.80562,4.68786,5.68869
1.73794,17.45,-31.8012,14.2682,-8.07741,-4.81679,-10.7885,3.57695,6.39544,-5.36921,4.11347,0.414391,0.828092,1.95258,-2.67522,-14.8128,-2.65114,-6.95479,24.5654,-3.09093,4.36847,10.4963,-1.55589,2.32214,-3.48409e-14,8.03835e-15,-39.7292,4.75126,-91.7357,31.1352,4.61668,-23.4518,-50.3692,7.12502,3.00679,-80.3278,-3.48409e-14,8.03835e-15,-48.2967,0.702908,84.2732,28.911,9.62732,-30.6975,-18.4883,7.12502,-3.99104,11.4541,0.382627,9.46801,28.1905,21.8504,-12.532,-1.98896,-20.3558,-41.9247,-1.73072,-17.4355,31.9736,-4.37633,4.40909,6.25385
1.74338,17.4213,-31.6654,14.5539,-7.70396,-4.37606,-11.6396,3.34917,5.93335,-5.1212,3.78433,0.370835,1.49672,1.81626,-2.45305,-15.4811,-2.66267,-7.07742,24.5619,-3.05918,4.49433,10.6272,-1.52989,2.3891,4.27853e-16,-3.01159e-14,-39.5789,4.83653,-91.6623,30.5585,5.38252,-24.8355,-47.7022,7.12502,1.67044,-77.6754,4.27853e-16,-3.01159e-14,-47.4802,0.960654,84.1746,28.7799,9.47012,-30.3285,-19.81,7.12502,-3.6347,10.1388,-0.331619,9.41986,27.6409,23.5121,-12.0023,-1.49104,-19.3114,-42.1911,-1.72701,-18.1511,32.4681,-4.62418,3.81415,6.80525
1.74869,17.4119,-31.5226,14.624,-7.41113,-3.93253,-11.6336,3.23373,5.40618,-5.5949,3.70576,0.259697,0.968808,1.76219,-2.30141,-14.473,-2.69599,-7.1105,24.4504,-3.19465,4.5862,10.4014,-1.59605,2.41318,1.58911e-14,-9.26834e-15,-40.773,4.40779,-91.5819,30.3981,5.59244,-25.3355,-46.253,7.12502,1.18756,-76.2294,1.58911e-14,-9.26834e-15,-48.026,0.598261,84.2055,28.7731,9.42701,-30.1618,-20.2899,7.12502,-3.47367,9.66156,-1.05107,9.03584,27.0919,25.2955,-11.3378,-0.786909,-20.7039,-42.1359,-1.71758,-18.8554,32.9183,-4.9891,3.38414,6.9417
1.75763,17.4038,-31.3767,14.4724,-7.25923,-3.64548,-11.5902,3.05661,5.10972,-5.55184,3.50386,0.266028,0.959022,1.66691,-2.15744,-14.8441,-2.70105,-7.27147,24.6253,-3.16039,4.67116,10.5397,-1.58237,2.47607,-1.45905e-14,1.12313e-14,-40.9494,4.49503,-91.5591,30.4309,4.96352,-24.6799,-46.7681,7.12502,1.82073,-76.7401,-1.45905e-14,1.12313e-14,-47.803,0.591314,84.2707,28.9613,9.22702,-30.7146,-18.4936,7.12502,-4.00753,11.4485,-1.48098,8.54689,26.6332,26.9338,-10.357,0.176022,-22.3454,-41.8456,-1.59519,-19.4125,33.5248,-5.74069,2.98889,7.28545
1.77074,17.4126,-31.2215,14.2637,-7.25803,-3.53815,-11.9805,3.04127,5.11689,-5.41609,3.45358,0.236116,1.31065,1.65071,-2.17661,-14.4688,-2.69466,-7.24566,24.471,-3.18334,4.67469,10.4114,-1.59372,2.46967,-1.82074e-14,1.63003e-14,-41.3105,4.57459,-91.6775,31.043,3.70103,-23.1204,-49.0644,7.12502,3.32684,-79.0182,-1.82074e-14,1.63003e-14,-47.6132,0.287675,84.4341,29.1887,9.21563,-31.4776,-16.4611,7.12502,-4.74434,13.4658,-2.11866,8.05528,26.2395,28.7571,-9.15953,1.52779,-23.2209,-41.2808,-1.41451,-19.7711,33.9838,-6.59459,2.64696,8.5068
1.77866,17.4018,-31.0724,14.0822,-7.18889,-3.43992,-12.4911,3.00109,5.16,-5.21509,3.35822,0.161455,1.7964,1.61519,-2.26243,-14.0347,-2.68231,-7.16669,24.1659,-3.22615,4.73645,10.2184,-1.60239,2.47094,-8.46388e-15,3.72721e-15,-41.6237,4.55976,-91.7548,30.8657,4.31149,-25.6092,-45.4895,7.12502,0.92319,-75.4672,-8.46388e-15,3.72721e-15,-47.1983,-0.0287994,84.4985,29.2382,9.5532,-31.6275,-15.8674,7.12502,-4.88904,14.0562,-2.57149,7.64514,25.8945,30.5909,-8.08194,2.701,-24.8279,-40.8388,-1.35447,-20.0439,34.4884,-7.36248,2.3929,9.41245
1.79223,17.3979,-30.9345,13.7663,-6.66716,-3.21085,-11.991,2.76644,4.95676,-5.25386,3.10527,0.149686,1.45742,1.48448,-2.22056,-14.4987,-2.75972,-7.13603,24.4937,-3.32211,4.74208,10.4337,-1.63959,2.45666,-1.36913e-14,-2.85753e-15,-42.0444,4.50303,-91.6686,30.7525,5.05249,-25.1817,-46.5459,7.12502,1.33609,-76.5215,-1.36913e-14,-2.85753e-15,-46.8918,-0.285859,84.5754,29.2842,9.83088,-31.2585,-16.3697,7.12502,-4.53274,13.5618,-3.15085,6.89163,25.5602,32.5686,-6.50592,3.85166,-25.2808,-40.2979,-1.62881,-20.4162,34.8813,-8.02241,2.12513,8.98025
1.80284,17.398,-30.7938,13.7509,-6.99379,-3.20497,-12.3812,2.84165,4.95341,-4.96983,3.17276,0.142629,1.97137,1.53302,-2.19201,-15.0233,-2.80751,-7.12907,24.5207,-3.37111,4.80446,10.5498,-1.64745,2.46851,4.60901e-14,1.89839e-14,-41.7611,4.56958,-91.6683,31.1282,4.35986,-23.8788,-47.8749,7.12502,2.5944,-77.8389,4.60901e-14,1.89839e-14,-46.148,-0.588575,84.7385,29.5795,9.90838,-31.5038,-15.2169,7.12502,-4.76959,14.7094,-4.18016,6.68031,25.1022,34.794,-5.1039,5.2707,-26.5887,-39.8902,-1.25478,-20.6869,35.2121,-8.75317,2.14984,8.30616
1.80573,17.3986,-30.6566,13.4758,-6.72816,-2.96459,-11.8912,2.59267,4.54594,-5.00307,2.91789,0.229228,1.63048,1.40419,-1.93178,-15.6592,-2.81283,-7.22689,24.9472,-3.32318,4.81841,10.8304,-1.62804,2.49945,5.14977e-15,1.81888e-14,-41.9823,4.8447,-91.6531,31.0834,4.2462,-23.582,-48.1845,7.12502,2.88105,-78.1448,5.14977e-15,1.81888e-14,-45.8787,-0.779154,84.9399,29.6669,9.962,-31.334,-15.815,7.12502,-4.60565,14.1149,-4.97521,6.10469,24.6867,37.107,-4.1171,6.22446,-26.3616,-39.1887,-1.27666,-21.0924,35.3693,-9.38625,1.84445,8.27345
1.8258,17.4038,-30.538,13.5009,-6.83206,-2.69883,-12.7344,2.47405,4.45658,-4.66606,2.71294,0.263373,2.4207,1.32168,-1.83539,-15.231,-2.63787,-7.42147,24.4601,-3.0438,4.83818,10.5512,-1.51787,2.57343,-5.21189e-15,2.08724e-15,-41.8829,5.48057,-91.6746,31.2747,3.96552,-23.1296,-49.1853,7.12502,3.31798,-79.1393,-5.21189e-15,2.08724e-15,-45.1317,-0.6891,85.1113,29.6859,10.0293,-31.8252,-19.7311,7.12502,-5.07996,10.188,-6.47784,5.6375,23.9811,39.4393,-1.61966,7.28722,-26.6891,-38.8626,-1.18622,-21.5821,35.4794,-9.8552,1.67966,8.82722
1.82604,17.3951,-30.4029,12.9088,-6.00578,-2.11044,-12.1682,2.13875,3.85737,-4.81283,2.37995,0.0898656,1.92505,1.14977,-1.75178,-14.918,-2.63894,-7.04713,24.7019,-3.12312,4.63619,10.5742,-1.54925,2.43104,-2.55873e-14,-1.23246e-14,-42.8822,5.28826,-91.776,31.8392,3.59407,-22.5367,-48.9071,7.12502,3.8905,-78.8514,-2.55873e-14,-1.23246e-14,-45.2721,-1.51274,85.328,30.2966,10.3941,-32.9742,-27.4535,7.12502,-6.18933,2.43606,-6.93998,4.8333,23.4441,41.8237,-1.28585,7.9716,-28.0157,-37.8438,-1.66369,-22.2412,35.5109,-10.3362,1.10929,9.41063
1.8571,17.4053,-30.2065,12.0394,-7.92738,-2.15991,-11.1993,2.69501,4.29012,-4.8888,3.12084,-0.0482732,1.39183,1.50316,-2.07502,-15.2174,-2.56428,-6.99918,25.3911,-3.02166,4.60263,10.8792,-1.50478,2.4334,2.02543e-14,2.18663e-14,-43.9152,5.73728,-92.1184,31.7596,3.99633,-23.5978,-46.6244,7.12502,2.86582,-76.5849,2.02543e-14,2.18663e-14,-45.6905,-1.67009,85.2847,30.6417,10.2345,-33.2829,-27.4474,7.12502,-6.48737,2.43324,-7.09679,6.01969,22.5832,44.114,0.812037,9.30128,-25.8287,-35.9345,-1.00553,-22.4811,35.4624,-11.2119,2.39365,9.56147
1.85638,17.4002,-30.1202,12.6747,-7.24434,-1.64259,-10.7769,2.39131,3.4267,-5.77212,2.84191,-0.104764,0.188298,1.34525,-1.72436,-14.475,-2.58511,-6.96371,25.5836,-3.1268,4.61816,10.8111,-1.55869,2.42477,-3.54085e-15,2.48481e-16,-44.9899,5.5266,-92.0799,32.3933,3.14408,-22.3854,-49.7693,7.12502,4.03663,-79.7108,-3.54085e-15,2.48481e-16,-46.2322,-2.20091,85.4918,30.8725,10.1483,-33.4264,-27.7624,7.12502,-6.62585,2.1139,-9.42174,5.31048,21.9182,46.7136,2.71076,10.0394,-24.855,-36.4131,-1.34245,-23.0852,35.4363,-11.3942,1.93105,9.3919
1.85867,17.4008,-29.9806,11.8468,-6.6037,-0.94657,-10.5824,2.04748,2.81802,-5.42391,2.44879,-0.301958,0.410633,1.16569,-1.63083,-14.32,-2.54674,-6.86623,25.4623,-3.14066,4.74534,10.7359,-1.54161,2.45152,-2.54382e-14,-1.46107e-14,-45.079,5.38875,-92.119,32.243,4.10658,-23.5008,-47.1564,7.12502,2.95943,-77.1156,-2.54382e-14,-1.46107e-14,-45.7103,-2.63634,85.4869,31.0085,10.1644,-33.3961,-28.3679,7.12502,-6.59658,1.50935,-9.89947,4.61716,21.2226,49.2657,4.40087,10.3198,-20.5883,-34.9575,-1.73477,-23.8933,35.2966,-11.8971,1.64318,9.35293
1.87534,17.3983,-29.8514,12.1059,-8.03815,-0.823625,-11.3782,2.46532,2.78382,-5.40698,2.97767,-0.424519,0.890432,1.43396,-1.6463,-13.4873,-2.41536,-6.80839,25.0293,-3.01571,4.75348,10.4035,-1.48584,2.45885,1.07344e-14,4.07509e-15,-45.2953,5.62368,-92.3034,33.4592,2.22128,-22.1607,-50.2788,7.12502,4.25357,-80.2161,1.07344e-14,4.07509e-15,-45.2778,-2.85337,85.4793,31.1095,10.1486,-33.3413,-29.5154,7.12502,-6.54371,0.363506,-12.1788,5.60218,20.3537,52.1862,6.5083,10.8181,-19.799,-34.6611,-1.12333,-24.2791,35.1603,-12.3305,2.39632,9.61647
1.86918,17.3984,-29.7527,12.1494,-7.20037,-0.0566997,-11.5755,1.93946,1.79173,-5.09502,2.37845,-0.45841,1.25775,1.1555,-1.18633,-14.4049,-2.39944,-6.77197,24.996,-2.90305,4.62773,10.5608,-1.43347,2.41777,2.7423e-14,9.44227e-15,-44.639,5.95252,-92.1943,32.5668,3.91494,-22.5135,-51.5512,7.12502,3.91287,-81.495,2.7423e-14,9.44227e-15,-43.9184,-3.00108,85.5889,31.0237,10.2389,-33.6162,-29.867,7.12502,-6.80906,0.00355143,-13.9427,4.71338,19.6428,54.8899,7.62072,10.5724,-22.1098,-34.3145,-1.63419,-25.0823,34.9269,-12.4538,1.95983,8.81397
1.86658,17.3895,-29.6689,12.2916,-7.28956,0.595973,-10.4787,1.76972,0.978885,-5.72806,2.25326,-0.616472,-0.0234174,1.09347,-0.955675,-14.5162,-2.30664,-6.72002,25.3797,-2.7919,4.63493,10.7154,-1.37876,2.432,1.52195e-14,1.88348e-14,-45.3477,5.98691,-92.2861,32.8461,3.78997,-22.4092,-49.7301,7.12502,4.01367,-79.672,1.52195e-14,1.88348e-14,-44.1512,-3.54798,85.7245,31.2381,10.2852,-34.2212,-28.4804,7.12502,-7.39306,1.37038,-16.0934,4.48461,18.7525,57.6551,8.41714,10.0307,-23.0858,-34.1306,-1.58649,-25.8996,34.7644,-12.485,1.94184,7.06268
1.87622,17.3859,-29.5253,11.7226,-7.48876,1.11956,-10.3729,1.71662,0.407721,-4.96159,2.23957,-0.692914,0.697692,1.10203,-0.703866,-16.4897,-2.43344,-6.65059,25.6873,-2.84773,4.57894,11.2223,-1.3822,2.38996,-7.18731e-15,2.38542e-15,-44.2323,6.14091,-92.0948,33.5797,2.94074,-20.9539,-51.395,7.12502,5.41888,-81.3057,-7.18731e-15,2.38542e-15,-42.3952,-3.75159,85.8275,31.0649,10.0695,-34.4568,-27.6348,7.12502,-7.62046,2.20788,-17.0481,4.35826,18.0301,60.0399,8.7306,8.56312,-22.4375,-32.8504,-1.70477,-26.564,34.4942,-12.899,2.22276,7.49698
1.88002,17.3795,-29.4051,11.4285,-7.34889,1.62577,-9.39592,1.50915,-0.11401,-5.79404,2.00243,-0.762145,-0.718793,0.989202,-0.550652,-14.729,-2.24948,-6.76732,25.7977,-2.69875,4.63933,10.9073,-1.34171,2.46038,-1.38528e-15,-2.17669e-14,-46.0906,6.07971,-92.1923,33.5856,4.22424,-22.7464,-48.5414,7.12502,3.68796,-78.4892,-1.38528e-15,-2.17669e-14,-43.4348,-3.87414,85.8979,31.1546,9.83757,-34.3497,-27.9208,7.12502,-7.51711,1.92559,-18.3722,3.91701,17.4515,62.3768,6.00712,6.93174,-29.901,-32.0013,-2.09369,-27.1336,34.2754,-13.3823,2.33747,9.47094
1.88997,17.3762,-29.2813,11.0273,-7.19704,2.21346,-9.9319,1.33158,-0.54581,-5.2915,1.8114,-0.922904,0.0860452,0.900612,-0.468961,-14.4818,-2.20395,-6.75039,25.3278,-2.65119,4.67421,10.6807,-1.31335,2.46979,-1.09332e-15,4.57205e-15,-45.6694,6.01194,-92.0698,33.7399,4.019,-22.7786,-48.7812,7.12502,3.65693,-78.7296,-1.09332e-15,4.57205e-15,-42.4453,-4.12681,85.9002,31.2759,9.73241,-34.592,-27.749,7.12502,-7.751,2.0889,-19.528,3.35048,16.7515,64.5206,5.2146,5.12764,-27.8542,-31.0142,-2.46404,-27.8464,34.1059,-13.8189,2.60407,9.14143
1.89778,17.3682,-29.177,10.9298,-7.69382,2.70803,-10.1312,1.37245,-1.0144,-5.09747,1.91249,-1.06016,0.38564,0.956762,-0.329439,-14.3862,-2.16958,-6.73289,24.9752,-2.59939,4.66075,10.5281,-1.28793,2.46356,1.84e-14,6.26172e-15,-45.4208,6.11845,-92.1209,33.3967,3.73833,-25.2279,-47.8373,7.12502,1.29147,-77.8131,1.84e-14,6.26172e-15,-41.6338,-4.55747,85.9951,31.3116,9.79495,-34.6938,-26.7931,7.12502,-7.8492,3.04117,-21.3424,3.3706,15.9755,66.6721,4.32073,3.41452,-27.4564,-30.502,-2.21186,-28.583,34.0177,-14.0233,2.93533,7.96998
1.88753,17.3564,-29.0923,10.9257,-8.06686,2.74979,-10.4315,1.40285,-1.26863,-4.75319,1.98655,-1.04613,0.897229,0.994679,-0.150637,-14.3841,-2.15017,-6.65692,24.4472,-2.57842,4.67127,10.3322,-1.26572,2.44903,1.39305e-14,1.2424e-14,-44.6842,6.08507,-92.09,33.4263,2.33303,-26.2417,-47.6286,7.12502,0.312263,-77.6081,1.39305e-14,1.2424e-14,-40.3183,-5.01473,86.0116,31.0402,9.8026,-34.0117,-26.7563,7.12502,-7.1909,3.10151,-23.3367,3.69567,15.9451,68.7166,3.61366,1.31144,-26.8688,-30.2527,-2.0404,-28.681,34.0419,-14.2146,3.19084,8.33242
1.88349,17.3436,-29.0114,10.992,-8.14409,3.00019,-10.0736,1.24191,-1.77457,-4.56244,1.81476,-0.970927,0.881867,0.915855,0.186118,-15.5908,-2.15774,-6.71273,24.7,-2.47606,4.59035,10.653,-1.22117,2.44423,-2.18912e-14,1.54058e-14,-43.8381,6.01894,-91.673,33.392,2.62197,-24.3353,-47.4121,7.12502,2.15355,-77.3809,-2.18912e-14,1.54058e-14,-38.9863,-5.05923,86.0246,30.7623,9.58689,-33.5077,-29.6196,7.12502,-6.70437,0.254253,-25.3056,3.68639,15.6801,70.4376,3.79302,-0.44263,-22.1253,-30.044,-2.42033,-28.9381,34.0032,-14.4328,3.68398,8.49778
1.8729,17.326,-28.9488,11.1678,-7.32398,3.34813,-9.06844,0.880634,-2.47531,-4.81644,1.36075,-0.925595,0.0560371,0.709653,0.555808,-16.4593,-2.20827,-6.59304,25.1867,-2.49627,4.44936,11.0019,-1.23023,2.37555,-8.9391e-15,4.57205e-15,-43.6537,5.70463,-91.3185,33.4191,3.03568,-22.891,-49.8154,7.12502,3.54836,-79.7656,-8.9391e-15,4.57205e-15,-38.3017,-5.45747,86.1503,30.7198,9.42648,-33.5449,-27.5251,7.12502,-6.74021,2.34758,-27.2473,2.90968,15.5491,71.9479,3.57634,-2.1465,-18.2905,-30.0512,-3.10707,-29.2065,34.0748,-14.6209,3.60704,8.12708
1.88841,17.3385,-28.7754,9.79428,-6.67472,3.3131,-9.27812,0.61462,-1.96402,-4.04357,0.99032,-0.914696,0.991727,0.504385,0.257975,-15.5051,-2.07288,-6.63719,24.5702,-2.3413,4.45015,10.5771,-1.16926,2.39734,2.88051e-14,4.17448e-15,-43.4989,5.87138,-91.3621,33.4385,2.53423,-22.3865,-51.875,7.12502,4.03551,-81.8165,2.88051e-14,4.17448e-15,-37.7338,-5.6452,86.1477,30.8504,9.29504,-33.8241,-26.9512,7.12502,-7.00978,2.91273,-26.5266,2.5079,15.776,72.7587,1.08261,-3.71834,-21.5079,-27.8081,-3.94412,-29.1998,34.1489,-15.4279,4.16447,8.40386
1.90371,17.3285,-28.6473,9.51532,-7.98963,2.96164,-8.07885,1.04019,-1.46954,-4.61606,1.47679,-0.863459,-0.256445,0.751947,0.048788,-15.53,-2.01574,-6.56299,25.2635,-2.24855,4.26477,10.8292,-1.14896,2.34091,3.24889e-15,-1.80894e-14,-44.4445,5.74486,-91.3632,33.5898,2.18777,-23.2911,-51.2956,7.12502,3.16195,-81.2519,3.24889e-15,-1.80894e-14,-38.1264,-6.11031,86.3928,30.9565,9.15204,-34.3564,-25.7439,7.12502,-7.52363,4.1023,-27.9354,3.84286,15.8822,73.7596,1.38354,-4.65083,-16.4842,-27.1451,-3.55827,-29.0591,34.3701,-16.0322,5.26985,8.50363
1.8874,17.3046,-28.6178,10.0906,-7.546,3.0031,-7.77042,0.766345,-1.90507,-4.99728,1.12665,-0.735387,-0.829104,0.592726,0.388757,-15.0778,-1.88425,-6.48037,25.1067,-2.09059,4.18751,10.6703,-1.08158,2.31881,-1.73937e-16,-1.8487e-14,-44.413,5.36176,-91.0184,33.7159,3.07087,-24.2422,-49.1615,7.12502,2.2435,-79.1295,-1.73937e-16,-1.8487e-14,-37.542,-6.6138,86.5869,30.8234,9.14099,-34.5077,-25.1916,7.12502,-7.66959,4.64937,-30.5221,3.54201,16.0237,74.8199,1.33314,-5.72962,-12.84,-27.7625,-3.65363,-29.0525,34.5323,-15.9774,4.93741,7.92005
1.88587,17.2887,-28.5413,10.3188,-7.71983,2.8982,-7.79024,0.776722,-1.86199,-5.13981,1.13524,-0.715296,-0.965602,0.597902,0.384577,-14.4267,-1.75084,-6.36785,24.8105,-1.96415,4.17235,10.4245,-1.01871,2.3074,-1.61078e-14,1.54058e-14,-44.4906,5.13983,-91.0009,33.7491,2.52255,-26.0956,-47.5676,7.12502,0.453374,-77.5469,-1.61078e-14,1.54058e-14,-37.0273,-7.23715,86.7082,30.6726,9.24034,-34.5678,-26.5074,7.12502,-7.72761,3.33137,-32.478,3.82341,16.1209,75.6085,0.968926,-6.58444,-9.58688,-27.8391,-3.67209,-28.9992,34.7254,-16.2867,5.21208,7.84063
1.88604,17.2887,-28.4245,9.71147,-6.86492,2.9853,-7.72927,0.429954,-1.7695,-4.62723,0.677528,-0.73284,-0.457429,0.360765,0.287172,-14.7256,-1.669,-6.24564,24.6856,-1.83882,4.10488,10.4271,-0.953318,2.27695,2.95692e-15,9.44227e-15,-43.9203,5.20353,-91.0926,33.6496,1.54362,-24.2544,-50.6724,7.12502,2.23164,-80.6404,2.95692e-15,9.44227e-15,-35.8727,-7.65864,86.6786,30.4484,9.2596,-34.5121,-27.0186,7.12502,-7.67386,2.82213,-32.8672,3.23006,16.2952,75.9618,-1.14925,-7.53391,-11.3794,-26.7839,-4.16916,-29.0933,34.8114,-16.6166,5.08884,7.64376
1.89053,17.2884,-28.2899,9.10061,-6.53992,3.10809,-7.16,0.218474,-1.68264,-4.65694,0.377399,-0.750559,-0.795934,0.211033,0.195767,-14.6333,-1.52043,-6.28572,25.0524,-1.6366,4.11746,10.5314,-0.867855,2.32091,-5.71506e-15,1.39149e-15,-44.0736,5.02752,-90.8674,33.4062,2.44339,-26.2372,-48.0553,7.12502,0.316666,-78.0348,-5.71506e-15,1.39149e-15,-35.7353,-7.80969,86.6824,30.4609,9.20136,-34.0198,-27.1386,7.12502,-7.19864,2.71892,-33.2672,3.0644,16.3158,76.0098,-2.37197,-8.47421,-11.8714,-25.5888,-4.2017,-29.3377,34.8523,-17.1625,4.95718,7.79772
1.88986,17.2764,-28.205,9.25772,-6.80281,3.23071,-7.05957,0.264846,-2.02747,-4.5056,0.458744,-0.701519,-0.700199,0.258186,0.444643,-15.5323,-1.6236,-6.35387,25.3474,-1.71695,4.13967,10.8226,-0.902695,2.33498,-4.45402e-15,-7.95139e-15,-43.3421,5.08987,-90.7822,33.1933,1.6232,-26.2332,-47.1189,7.12502,0.320488,-77.0984,-4.45402e-15,-7.95139e-15,-34.5209,-8.28588,86.825,30.4312,9.23094,-33.6305,-27.4257,7.12502,-6.82288,2.44435,-35.0803,3.38303,16.1993,76.0462,-2.7867,-9.26881,-12.1159,-25.4765,-4.21799,-29.5397,34.9359,-17.5472,5.22051,7.60287
1.88193,17.2572,-28.1311,9.57014,-6.86145,3.31668,-6.84681,0.245737,-2.39456,-4.77865,0.441369,-0.659032,-1.10436,0.26335,0.690086,-15.223,-1.67477,-6.228,25.2862,-1.80525,3.99706,10.7424,-0.950784,2.24846,-1.35422e-15,-9.74045e-15,-43.3388,4.4914,-90.2947,33.3238,2.85136,-25.9013,-48.0314,7.12502,0.641074,-78.0102,-1.35422e-15,-9.74045e-15,-34.0674,-8.90554,87.029,30.5065,9.11541,-33.4617,-27.6215,7.12502,-6.6599,2.25378,-37.088,3.59857,16.1741,76.0148,-3.22898,-10.0267,-11.6087,-25.6852,-4.05645,-29.6746,35.1432,-17.9781,5.11771,7.24284
1.87669,17.2408,-28.0453,9.8493,-7.04848,3.34225,-7.43818,0.238923,-2.53612,-4.43994,0.466238,-0.65345,-0.429615,0.269205,0.782539,-15.8294,-1.69866,-6.02153,25.2008,-1.80733,3.82688,10.8263,-0.945763,2.14975,1.11071e-14,-1.39149e-14,-42.4812,4.68146,-90.4644,33.4386,1.91592,-26.7303,-47.9819,7.12502,-0.159608,-77.9616,1.11071e-14,-1.39149e-14,-32.7181,-9.37245,86.9811,30.5719,9.02451,-33.4073,-28.071,7.12502,-6.60743,1.80595,-38.9128,3.91902,16.1587,75.8234,-3.7754,-10.6836,-10.5743,-25.8251,-3.77496,-29.7863,35.398,-18.4621,5.02911,7.26349
1.87902,17.2249,-27.9451,9.88974,-7.77952,3.28705,-7.48562,0.395671,-2.61765,-4.08344,0.688173,-0.548081,-0.0446187,0.375687,0.954773,-17.4264,-1.6991,-5.95291,25.8241,-1.67933,3.6225,11.3665,-0.898261,2.09049,-1.46293e-14,-1.53064e-14,-41.4415,4.57883,-90.0253,33.3591,3.11688,-25.797,-48.032,7.12502,0.741787,-78.0105,-1.46293e-14,-1.53064e-14,-31.368,-9.65763,87.073,30.6926,9.12567,-33.6122,-27.7228,7.12502,-6.80525,2.14786,-40.348,4.74899,16.0912,75.3725,-4.78794,-11.2115,-8.75824,-25.5565,-3.51445,-29.8842,35.4748,-18.8365,5.52154,7.71799
1.87999,17.2102,-27.8475,9.96139,-7.96561,3.42056,-7.53558,0.346312,-2.86563,-4.54862,0.628314,-0.468782,-0.500725,0.360153,1.1685,-15.5459,-1.55121,-5.94635,25.4713,-1.53393,3.43065,10.8527,-0.867965,2.0348,-1.41448e-14,4.96962e-15,-42.4421,4.91284,-90.119,33.7028,2.85056,-26.3962,-47.7062,7.12502,0.163077,-77.6858,-1.41448e-14,4.96962e-15,-31.9285,-9.94252,87.4395,30.9157,9.0309,-33.7744,-27.4303,7.12502,-6.96182,2.43517,-41.6137,5.05996,15.8913,74.7837,-6.06201,-11.6906,-7.75059,-25.2618,-3.4997,-30.1497,35.5282,-19.276,5.75541,7.57268
1.87289,17.2203,-27.7149,9.34952,-6.23213,3.68609,-7.77494,-0.339843,-2.98786,-4.03269,-0.25403,-0.469194,0.201083,-0.0928239,1.17419,-15.061,-1.49814,-5.95712,24.9274,-1.48578,3.45982,10.5542,-0.841498,2.04637,-2.74944e-14,-2.20651e-14,-42.0367,5.0227,-90.1504,33.9173,3.05863,-24.8763,-49.4954,7.12502,1.63101,-79.4689,-2.74944e-14,-2.20651e-14,-31.1653,-10.24,87.4118,31.045,8.82358,-33.6812,-27.9886,7.12502,-6.87182,1.87984,-41.2718,3.84166,16.0787,73.7638,-7.34078,-12.3606,-5.54353,-23.8705,-4.32533,-30.3206,35.4266,-20.1726,5.38166,5.42498
1.86931,17.2016,-27.6194,9.63957,-6.81789,3.63659,-7.75762,-0.251787,-3.00571,-4.34907,-0.144792,-0.444419,-0.140379,-0.0304779,1.21841,-14.651,-1.30373,-5.94734,24.9175,-1.25836,3.52853,10.4577,-0.731587,2.09946,-1.62258e-14,-7.95139e-15,-42.3635,5.61485,-90.6627,33.9772,1.5092,-25.0176,-49.9532,7.12502,1.4946,-79.9277,-1.62258e-14,-7.95139e-15,-31.1511,-10.5076,87.4805,31.5271,8.63771,-33.7738,-28.7173,7.12502,-6.9612,1.14823,-42.7994,4.50915,16.0557,72.7492,-8.27957,-12.7014,-1.54588,-23.8679,-3.97624,-30.4149,35.4477,-20.7159,5.6504,4.75632
1.86339,17.2005,-27.5284,9.491,-6.58401,3.5518,-7.15481,-0.380698,-2.92138,-4.41205,-0.34489,-0.428796,-0.529596,-0.126047,1.17502,-14.8699,-1.19435,-5.77047,25.0749,-1.11099,3.42439,10.5479,-0.659854,2.0541,7.79609e-15,1.53064e-14,-42.3056,5.89797,-90.8994,34.1246,0.994131,-26.4669,-47.9043,7.12502,0.0947849,-77.884,7.79609e-15,1.53064e-14,-30.7612,-10.9529,87.4948,32.0663,8.70556,-33.4124,-27.1216,7.12502,-6.6123,2.75515,-43.658,4.58914,16.3207,71.4062,-9.54995,-13.3149,-4.46798,-23.2932,-4.1165,-30.3402,35.3238,-20.9619,5.57145,4.95534
1.86394,17.18,-27.4251,9.50788,-7.36357,3.62202,-7.23877,-0.170494,-3.07633,-4.28447,-0.0507884,-0.424219,-0.364142,0.0204467,1.28596,-15.123,-1.22556,-5.72334,25.0308,-1.1071,3.26173,10.5805,-0.670714,1.98776,-9.38015e-15,-5.76476e-15,-41.9564,6.00898,-90.782,34.3452,0.951163,-27.0174,-46.8554,7.12502,-0.436906,-76.8347,-9.38015e-15,-5.76476e-15,-29.8264,-11.4398,87.6227,32.3197,9.18261,-33.2067,-26.1354,7.12502,-6.41375,3.74752,-44.6283,5.37904,16.0888,70.0586,-8.49557,-13.5571,-4.65562,-22.9715,-3.43304,-30.6688,35.3646,-21.3304,5.91681,4.71179
1.8545,17.1826,-27.2979,9.32943,-6.05614,3.96511,-7.16341,-0.599256,-3.43936,-4.11624,-0.596774,-0.484301,-0.20598,-0.250876,1.39018,-15.5264,-1.29596,-5.66171,25.1433,-1.21025,3.29857,10.7057,-0.705749,1.9786,7.81472e-15,-4.77083e-15,-41.7742,5.79818,-90.7446,34.5187,1.07816,-26.8075,-46.5541,7.12502,-0.234195,-76.5337,7.81472e-15,-4.77083e-15,-28.9705,-12.3802,87.8586,31.9926,9.12657,-33.4841,-27.225,7.12502,-6.6816,2.64957,-44.669,4.5301,16.0139,68.4897,-9.6811,-13.7606,-6.49982,-22.1577,-3.82762,-30.9391,35.3031,-21.524,5.53102,4.72612
1.84775,17.1722,-27.2034,9.41127,-6.62469,4.0241,-6.69391,-0.413347,-3.7388,-4.28535,-0.358486,-0.469806,-0.652037,-0.117038,1.59187,-15.9013,-1.30338,-5.60565,25.4039,-1.23031,3.34407,10.8765,-0.703976,1.98685,-8.07563e-16,2.50469e-14,-41.9107,5.78969,-90.7803,34.776,1.31598,-26.8532,-45.9977,7.12502,-0.278333,-75.9773,-8.07563e-16,2.50469e-14,-28.5937,-12.9923,88.0863,32.2617,9.30366,-33.6225,-27.9638,7.12502,-6.81516,1.90652,-45.5977,5.18736,15.897,66.7982,-9.72522,-13.6906,-9.31758,-21.8831,-3.46355,-31.14,35.2277,-21.5872,6.02593,4.97663
1.84211,17.1575,-27.1137,9.61273,-7.35446,3.89183,-6.01518,-0.239919,-3.77502,-4.69997,-0.169097,-0.387973,-1.4683,-0.00139768,1.70901,-16.0233,-1.26719,-5.62724,25.7311,-1.17231,3.3455,11.0198,-0.682692,2.00396,-1.21259e-14,-1.63003e-14,-42.3395,5.99711,-90.8226,35.2555,1.98297,-26.2885,-47.2351,7.12502,0.267144,-77.2147,-1.21259e-14,-1.63003e-14,-28.7189,-13.1611,88.2481,32.9099,9.2124,-34.0939,-28.2049,7.12502,-7.27017,1.65021,-46.5477,5.99598,15.927,64.866,-9.73836,-13.6396,-9.2155,-21.6444,-3.20354,-31.1498,34.9612,-21.6741,6.5712,5.01453
1.83792,17.1587,-27.0011,9.41882,-6.69836,3.94077,-5.94399,-0.495281,-3.85064,-4.40179,-0.499976,-0.333579,-1.17913,-0.173086,1.79144,-16.5204,-1.34904,-5.66358,25.7547,-1.25224,3.36005,11.1319,-0.717349,2.0051,-1.84124e-14,-1.98785e-16,-41.3959,5.86447,-90.4986,35.5887,3.37327,-22.3605,-52.6986,7.12502,4.06064,-82.6396,-1.84124e-14,-1.98785e-16,-27.901,-13.5898,88.327,33.3638,9.16499,-34.4738,-27.5911,7.12502,-7.63688,2.25098,-46.5346,5.74366,15.9991,62.7276,-10.532,-13.8866,-10.5716,-20.7112,-3.76679,-31.1625,34.555,-21.8724,6.70262,4.65881
1.83091,17.1751,-26.8788,9.12633,-6.0597,4.06997,-6.0824,-0.828291,-4.03136,-4.28932,-0.924748,-0.252373,-0.957742,-0.386295,1.95271,-15.8347,-1.24899,-5.75987,25.4681,-1.12032,3.35616,10.8829,-0.669401,2.03346,-7.95139e-16,-1.0138e-14,-41.581,6.68593,-90.8824,35.395,2.11469,-24.0974,-50.3884,7.12502,2.38327,-80.3548,-7.95139e-16,-1.0138e-14,-27.7234,-13.7814,88.4842,33.8417,9.22593,-34.4613,-27.1046,7.12502,-7.62485,2.73795,-46.3481,5.56862,15.9711,60.4458,-10.7137,-14.278,-9.41876,-19.5064,-4.4268,-31.2598,33.9296,-22.0356,6.96977,4.01561
1.8303,17.1868,-26.7649,9.08169,-6.22172,4.15471,-6.37051,-0.812145,-4.11578,-4.02998,-0.877759,-0.295898,-0.532368,-0.373322,1.95255,-15.9746,-1.31967,-5.6899,25.2552,-1.20906,3.28678,10.8353,-0.708098,1.98112,-1.14612e-14,-3.97569e-16,-41.0865,6.62107,-90.7443,35.2572,2.5416,-26.8351,-46.4244,7.12502,-0.260823,-76.404,-1.14612e-14,-3.97569e-16,-26.8922,-14.1028,88.4345,34.1886,9.19455,-34.3755,-27.615,7.12502,-7.54199,2.23054,-46.5925,5.86134,15.8399,58.039,-10.2303,-14.4364,-10.5405,-18.5724,-4.93635,-31.4432,33.1291,-21.9906,7.6218,3.91522
1.8205,17.1967,-26.6455,8.89057,-5.93737,4.28933,-6.69399,-0.966866,-4.31092,-3.63789,-1.04471,-0.323908,0.0650261,-0.471149,2.01513,-16.2066,-1.20402,-5.70083,25.2265,-1.07295,3.45627,10.8629,-0.623952,2.06361,-1.47225e-14,-6.95746e-15,-40.4329,6.51827,-90.6583,35.7762,3.50786,-24.0026,-49.8237,7.12502,2.47488,-79.7891,-1.47225e-14,-6.95746e-15,-25.9784,-14.3704,88.3249,34.6833,9.51344,-34.3792,-28.142,7.12502,-7.5456,1.70343,-46.4887,5.79796,15.7664,55.5328,-10.4748,-14.4818,-10.3282,-17.4293,-5.01869,-31.5904,32.2675,-21.9466,7.40908,4.21541
1.81268,17.2082,-26.5365,8.89323,-6.09224,4.27279,-7.10335,-0.933438,-4.3767,-3.25235,-0.963099,-0.33587,0.685487,-0.447629,2.03698,-16.6525,-1.22099,-5.71482,25.0166,-1.09886,3.59393,10.8739,-0.614004,2.11026,-2.68251e-14,4.57205e-15,-39.9718,7.27056,-91.2631,35.786,0.794762,-25.515,-48.1446,7.12502,1.01417,-78.1219,-2.68251e-14,4.57205e-15,-24.9733,-14.9764,88.2676,35.2004,10.2401,-34.3231,-28.1583,7.12502,-7.49144,1.68903,-46.6974,6.10104,15.7453,52.926,-10.2254,-14.4199,-10.5378,-16.6186,-5.05391,-31.6256,31.5224,-21.9204,7.56834,4.38688
1.80844,17.2213,-26.4272,9.05516,-6.12742,4.28271,-6.72835,-0.917504,-4.42297,-3.63836,-0.970904,-0.33486,0.0797229,-0.433186,2.07127,-16.3849,-1.20505,-5.59664,25.0916,-1.09574,3.47471,10.848,-0.619062,2.0478,-1.66109e-14,1.19271e-15,-40.3596,6.83916,-90.9579,36.2696,2.47628,-25.1227,-49.0155,7.12502,1.39309,-78.9907,-1.66109e-14,1.19271e-15,-25.1879,-15.6715,88.5933,35.5159,10.8546,-34.2987,-28.5987,7.12502,-7.46787,1.24947,-46.9816,6.36738,15.6197,50.2787,-10.0056,-14.3738,-12.8758,-16.0071,-5.16929,-31.6732,30.8307,-21.9792,7.64343,4.45163
1.80264,17.2157,-26.3213,9.09383,-6.91575,4.34072,-6.29222,-0.630548,-4.53572,-3.92599,-0.615996,-0.44563,-0.484497,-0.239262,2.04933,-16.243,-1.21869,-5.27585,25.203,-1.16083,3.26841,10.8617,-0.645744,1.91055,2.54693e-15,5.56597e-15,-40.5081,6.44575,-90.9396,36.7415,2.43819,-23.7932,-52.3249,7.12502,2.67707,-82.2878,2.54693e-15,5.56597e-15,-25.3089,-16.2515,88.7385,35.9561,11.0516,-34.3737,-28.8289,7.12502,-7.54032,1.01665,-47.1444,7.06223,15.4098,47.6018,-10.1252,-13.8659,-8.9712,-15.3736,-4.75013,-31.9111,30.1807,-22.0617,8.00669,4.56751
1.79403,17.213,-26.1998,9.06142,-6.81605,4.48165,-6.68635,-0.717472,-4.78466,-3.75922,-0.690448,-0.427157,-0.0866867,-0.283554,2.19908,-15.8615,-1.19358,-5.33486,24.8644,-1.1382,3.3178,10.6611,-0.634411,1.93644,-3.64956e-15,1.72943e-14,-40.2749,6.4314,-90.8653,36.2352,3.10929,-24.561,-50.5627,7.12502,1.93551,-80.5336,-3.64956e-15,1.72943e-14,-24.9023,-16.1644,88.724,36.5771,10.606,-34.1484,-28.4594,7.12502,-7.32279,1.39392,-46.89,7.11905,15.2213,44.9336,-10.7278,-13.4868,-6.8353,-14.5035,-4.70964,-32.0894,29.4811,-22.129,7.9928,4.58366
1.78586,17.218,-26.0811,9.07867,-6.61611,4.5862,-6.18477,-0.847589,-4.97845,-4.09388,-0.894566,-0.343833,-0.693607,-0.362365,2.38817,-15.8376,-1.12952,-5.48167,25.2104,-1.01152,3.308,10.7791,-0.595938,1.98004,1.20513e-14,4.57205e-15,-40.847,6.78028,-90.9701,36.211,3.02234,-25.6701,-49.2458,7.12502,0.864387,-79.2238,1.20513e-14,4.57205e-15,-25.0625,-15.9334,88.9138,37.0614,10.3302,-33.5259,-28.1958,7.12502,-6.72188,1.67746,-46.7087,7.10562,15.0367,42.2821,-10.1875,-13.1872,-8.30397,-13.6654,-4.70802,-32.206,28.7505,-22.1981,7.81553,4.51755
1.77663,17.2236,-25.9671,9.14743,-6.44026,4.75071,-6.74655,-0.934848,-5.18125,-3.75204,-0.953118,-0.402789,-0.0223523,-0.410604,2.42799,-16.1656,-1.19803,-5.29366,25.1148,-1.08843,3.11924,10.8101,-0.632553,1.86824,-6.41391e-15,9.93923e-16,-40.2252,6.65067,-90.8934,36.0774,3.29346,-26.3347,-48.1078,7.12502,0.222475,-78.0875,-6.41391e-15,9.93923e-16,-24.0721,-16.3575,88.8307,37.21,10.4294,-33.1942,-27.3591,7.12502,-6.40172,2.52413,-46.6467,7.0669,14.7673,39.7009,-9.72896,-12.9013,-8.6795,-12.8518,-4.75732,-32.3806,27.8999,-22.1176,7.61926,4.16634
1.76777,17.2268,-25.8526,9.20434,-6.15392,4.91435,-5.99146,-1.11482,-5.44996,-4.14934,-1.24169,-0.302029,-0.824165,-0.522357,2.67909,-16.4551,-1.186,-5.4267,25.6774,-0.985577,2.97714,11.0731,-0.621193,1.86139,3.721e-15,-1.15295e-14,-40.6151,7.04397,-90.935,35.9855,3.49063,-26.0553,-48.0556,7.12502,0.492356,-78.0347,3.721e-15,-1.15295e-14,-24.2122,-16.3388,89.1487,37.4236,10.4631,-34.5426,-30.4051,7.12502,-7.70328,-0.56537,-46.5071,6.94531,14.5299,37.1808,-9.32792,-12.7579,-9.27719,-11.9888,-4.61966,-32.5198,26.9889,-21.9895,7.16727,3.86047
1.75878,17.2361,-25.7319,9.2531,-5.45243,5.07709,-6.56722,-1.45497,-5.58808,-4.20187,-1.65053,-0.276814,-0.520747,-0.73097,2.74693,-15.0106,-1.07621,-5.6455,25.0766,-0.880043,3.08409,10.5626,-0.583542,1.94125,-2.82647e-15,1.09332e-14,-41.0486,7.42697,-91.0866,35.8488,3.02507,-25.8057,-47.9055,7.12502,0.733363,-77.884,-2.82647e-15,1.09332e-14,-24.3867,-16.5357,89.3948,37.8635,11.0338,-34.7698,-29.0374,7.12502,-7.92257,0.794131,-46.2142,6.64609,14.2449,34.7385,-9.3755,-12.6956,-8.70496,-11.1086,-4.5155,-32.5606,26.1519,-21.9917,6.319,3.99465
1.74988,17.2428,-25.6156,9.16013,-5.2603,5.12469,-6.88005,-1.47872,-5.55657,-3.76025,-1.64546,-0.393474,0.106541,-0.754418,2.59608,-15.5239,-1.12864,-5.53214,24.8319,-0.979654,3.19826,10.5769,-0.597689,1.94737,6.17475e-15,2.70347e-14,-40.2687,6.79599,-90.7054,35.5354,3.28974,-27.7276,-45.1235,7.12502,-1.12287,-75.1002,6.17475e-15,2.70347e-14,-23.377,-17.0787,89.1919,37.9844,10.9803,-34.4947,-28.9744,7.12502,-7.6571,0.867023,-45.8355,6.74796,14.0193,32.3908,-9.6682,-12.4136,-6.15853,-10.1905,-4.35776,-32.5934,25.394,-22.0675,5.90816,4.34943
1.73673,17.2424,-25.5018,9.4744,-5.3835,5.00494,-7.41555,-1.39048,-5.48334,-3.5219,-1.48717,-0.454134,0.633568,-0.694271,2.49023,-16.2102,-1.19226,-5.35078,24.8517,-1.10504,3.29416,10.7229,-0.621031,1.9355,1.57133e-14,2.0276e-14,-39.5691,6.35034,-90.5993,35.8989,4.48184,-24.3948,-49.3495,7.12502,2.09606,-79.319,1.57133e-14,2.0276e-14,-22.4196,-17.4144,88.9645,38.2339,10.754,-34.0776,-28.4428,7.12502,-7.25449,1.41285,-45.9576,7.38904,13.751,30.1009,-8.57029,-12.6482,-7.01795,-9.77526,-4.25598,-32.469,24.6909,-22.0329,5.83577,4.40011
1.71898,17.2453,-25.3739,9.71877,-4.91695,4.8727,-7.49846,-1.51071,-5.30514,-3.6342,-1.65674,-0.49028,0.572119,-0.777551,2.33861,-16.4586,-1.22297,-5.26973,25.1113,-1.16974,3.32193,10.8704,-0.640244,1.92672,-2.31662e-14,-9.34288e-15,-39.6324,6.32493,-90.8352,35.4035,3.21868,-25.2057,-48.7104,7.12502,1.31289,-78.6861,-2.31662e-14,-9.34288e-15,-22.2762,-17.6437,88.9385,38.5454,10.7635,-33.7222,-28.2277,7.12502,-6.9114,1.63952,-45.8336,7.97979,13.3638,27.9255,-7.6576,-13.5506,-8.57959,-9.16678,-4.35404,-32.2027,24.0155,-21.9568,5.53526,3.85955
1.71375,17.2355,-25.2486,9.45576,-4.89116,4.85805,-7.41589,-1.45821,-5.28555,-3.48608,-1.58822,-0.482031,0.67442,-0.748374,2.34175,-16.3375,-1.30092,-5.26441,25.0613,-1.23985,3.14888,10.8313,-0.693318,1.8523,-7.07704e-15,1.21259e-14,-39.5829,5.93359,-90.4704,35.1103,3.7347,-26.9701,-46.7192,7.12502,-0.391254,-76.6986,-7.07704e-15,1.21259e-14,-21.9639,-17.639,89.0517,38.6792,10.1654,-33.6258,-28.6628,7.12502,-6.81835,1.20745,-45.2962,8.22209,13.1928,25.9537,-6.42658,-13.6417,-11.4949,-8.06596,-4.15881,-32.2562,23.3896,-21.943,5.48564,3.19133
1.7082,17.2279,-25.1178,9.39707,-4.68107,5.00484,-7.61289,-1.43531,-5.32894,-3.31169,-1.53317,-0.629642,0.95681,-0.730974,2.21166,-16.5063,-1.38544,-5.14254,25.0438,-1.40034,3.20658,10.8649,-0.745963,1.82987,-2.924e-14,-1.27222e-14,-39.3144,5.40503,-90.3268,35.0702,3.81239,-26.0417,-49.0839,7.12502,0.505474,-79.063,-2.924e-14,-1.27222e-14,-21.3977,-18.0013,89.0266,38.5998,9.60842,-33.9094,-29.1358,7.12502,-7.09209,0.725346,-44.9983,8.25126,12.807,24.2588,-5.46447,-13.6624,-12.0108,-7.15606,-4.21104,-32.4297,22.7429,-21.8958,5.37137,2.78061
1.69432,17.2277,-24.9916,9.4042,-4.50223,5.0114,-7.29905,-1.47332,-5.47941,-3.28851,-1.5945,-0.556318,0.817249,-0.756961,2.3729,-17.2984,-1.43502,-5.33027,25.3453,-1.43749,3.4271,11.138,-0.749818,1.94124,-1.0625e-14,-1.09332e-14,-39.0513,5.41486,-90.1821,34.8052,3.24063,-25.6793,-49.2675,7.12502,0.855456,-79.2456,-1.0625e-14,-1.09332e-14,-20.8295,-18.4032,89.1802,38.4106,9.77238,-34.1432,-29.1069,7.12502,-7.31776,0.746509,-44.7662,8.63174,12.4244,22.7922,-5.74045,-13.6767,-8.57042,-6.35944,-4.30422,-32.4141,22.1289,-21.8283,5.31535,2.42146
1.68373,17.2203,-24.869,9.3899,-4.23612,5.01514,-6.58038,-1.61668,-5.58291,-3.8019,-1.84845,-0.391831,-0.0844833,-0.849501,2.6057,-16.7103,-1.31731,-5.60069,25.6118,-1.21355,3.36704,11.1129,-0.68988,2.00067,4.89197e-15,6.55989e-15,-39.8032,5.51263,-89.8796,34.6647,3.88664,-25.4406,-49.5316,7.12502,1.08601,-79.5086,4.89197e-15,6.55989e-15,-21.6504,-17.8353,89.6632,38.6678,9.37268,-34.3336,-28.7675,7.12502,-7.50162,1.07945,-44.5229,8.72399,12.1916,21.6024,-4.8656,-13.1752,-8.35634,-5.56675,-4.3031,-32.3832,21.579,-21.7791,5.05447,1.91472
1.67588,17.2116,-24.7451,9.35698,-3.68931,5.08821,-7.18653,-1.83935,-5.52811,-3.54075,-2.09603,-0.421233,0.54055,-0.994672,2.50485,-16.0022,-1.29072,-5.68082,25.0424,-1.19071,3.38196,10.7607,-0.684367,2.01375,-4.07974e-15,1.21259e-14,-39.4961,5.38501,-89.751,34.4129,3.83897,-25.8627,-48.9981,7.12502,0.678368,-78.9767,-4.07974e-15,1.21259e-14,-21.226,-17.6113,89.6404,38.589,9.01208,-34.4952,-28.7746,7.12502,-7.65752,1.06674,-44.3148,8.49099,11.963,20.746,-3.16482,-12.6703,-12.6918,-4.75825,-4.37618,-32.3676,21.0475,-21.6085,4.56089,1.33374
1.66184,17.2075,-24.6155,9.30128,-3.2586,5.09791,-6.85891,-1.9627,-5.64768,-3.83569,-2.2866,-0.318756,0.0772377,-1.07032,2.67794,-15.2415,-1.2832,-5.82674,25.001,-1.17814,3.3474,10.5976,-0.702238,2.02619,2.5724e-14,2.36554e-14,-40.1773,5.36344,-89.5889,34.1814,2.71167,-27.2868,-46.6476,7.12502,-0.697069,-76.6262,2.5724e-14,2.36554e-14,-21.6439,-17.6725,90.1477,38.4043,9.56025,-34.0904,-29.2993,7.12502,-7.26681,0.555912,-44.2009,8.69641,11.6122,20.1967,-4.10243,-12.8639,-10.5683,-3.9533,-4.41356,-32.28,20.5591,-21.4214,4.16961,0.712574
1.64817,17.2008,-24.4711,9.15366,-3.11264,5.17828,-8.11887,-2.01794,-5.67797,-3.06211,-2.23985,-0.434962,1.56922,-1.09948,2.52415,-15.1376,-1.32984,-5.80539,24.3531,-1.27353,3.45616,10.3455,-0.723936,2.03988,-3.00421e-14,-1.66979e-14,-39.265,4.89428,-89.3117,33.8408,2.65292,-26.4939,-45.5877,7.12502,0.0686864,-75.5674,-3.00421e-14,-1.66979e-14,-20.4773,-17.9537,89.8488,38.1331,9.27343,-34.0535,-29.4749,7.12502,-7.23125,0.381576,-44.0389,9.13276,11.1657,19.9715,-3.49606,-12.8656,-11.7698,-2.98388,-4.29971,-32.345,20.1216,-21.4173,3.92976,0.123784
1.6335,17.1909,-24.3269,9.05879,-2.78276,5.23656,-7.39738,-2.0363,-5.77827,-3.4221,-2.32106,-0.444123,0.806635,-1.11333,2.59312,-15.2274,-1.35145,-5.78217,24.7787,-1.31636,3.47062,10.5205,-0.743669,2.04132,-1.46231e-14,-3.598e-14,-40.0772,5.0739,-89.483,33.7716,0.459158,-26.6131,-45.0896,7.12502,-0.0464207,-75.0693,-1.46231e-14,-3.598e-14,-20.9726,-17.9485,90.1981,38.364,9.66629,-34.1349,-29.1179,7.12502,-7.3098,0.735816,-43.8992,9.41761,10.7823,20.0604,-3.38467,-12.9867,-11.1716,-2.1162,-4.35252,-32.3441,19.7844,-21.3401,3.70843,-0.769319
1.61752,17.1896,-24.1906,8.95289,-2.42129,5.00779,-7.71797,-2.08677,-5.63095,-3.16328,-2.3669,-0.37388,1.25436,-1.15297,2.56351,-15.1864,-1.38019,-5.8276,24.6262,-1.3702,3.56869,10.4604,-0.759284,2.07493,8.85524e-15,-1.37161e-14,-39.816,4.95197,-89.3542,33.5344,0.102321,-27.4069,-44.5015,7.12502,-0.813096,-74.4797,8.85524e-15,-1.37161e-14,-20.6717,-18.1743,90.3843,38.0159,9.72645,-33.8492,-29.3938,7.12502,-7.03397,0.469353,-43.6706,9.98711,10.5718,20.2789,-3.87468,-13.3112,-8.21903,-1.40712,-4.52754,-32.0172,19.6131,-21.1332,3.57603,-2.00202
1.59879,17.1874,-24.0596,9.02966,-2.39396,4.78305,-6.523,-2.04304,-5.62788,-3.89781,-2.41982,-0.138947,-0.154623,-1.12801,2.85505,-15.4163,-1.39525,-6.01614,25.5453,-1.30923,3.44594,10.8428,-0.773202,2.08418,3.12837e-14,1.5704e-14,-40.7807,5.02193,-89.0211,33.4352,0.783395,-26.4525,-45.5811,7.12502,0.108709,-75.5608,3.12837e-14,1.5704e-14,-21.6544,-17.6849,91.0381,37.7924,8.99093,-33.4334,-29.3258,7.12502,-6.63262,0.55033,-43.7804,10.7337,10.291,20.733,-4.64942,-13.4749,-6.14084,-1.01623,-4.4697,-31.7334,19.619,-20.9784,3.40247,-3.05735
1.5762,17.171,-23.9171,9.01544,-2.09768,4.76396,-6.61472,-1.97911,-5.724,-3.30943,-2.30158,-0.189889,0.496806,-1.09652,2.85019,-17.4945,-1.64487,-5.80636,26.0121,-1.58109,3.39198,11.4431,-0.870699,1.99747,2.31817e-14,1.76918e-14,-39.7031,4.33974,-88.5821,33.365,1.50448,-26.1523,-45.3639,7.12502,0.398654,-75.3433,2.31817e-14,1.76918e-14,-20.1736,-17.7588,90.741,37.297,7.54102,-33.3024,-29.3103,7.12502,-6.50619,0.569749,-43.803,11.1354,9.95446,21.3183,-4.89268,-13.8042,-7.71843,-0.477022,-4.48862,-31.5991,19.6489,-20.8645,2.98157,-3.61243
