JuanDHNZ/ProyectoFinalCD/preprocessing/sports_trials_csv/49_06.csv
root1,root2,root3,root4,root5,root6,lowerback1,lowerback2,lowerback3,upperback1,upperback2,upperback3,thorax1,thorax2,thorax3,lowerneck1,lowerneck2,lowerneck3,upperneck1,upperneck2,upperneck3,head1,head2,head3,rclavicle1,rclavicle2,rhumerus1,rhumerus2,rhumerus3,rradius1,rwrist1,rhand1,rhand2,rfingers1,rthumb1,rthumb2,lclavicle1,lclavicle2,lhumerus1,lhumerus2,lhumerus3,lradius1,lwrist1,lhand1,lhand2,lfingers1,lthumb1,lthumb2,rfemur1,rfemur2,rfemur3,rtibia1,rfoot1,rfoot2,rtoes1,lfemur1,lfemur2,lfemur3,ltibia1,lfoot1,lfoot2,ltoes1
-2.45098,16.5423,42.9005,-165.356,-6.5192,-175.266,-12.2872,0.870843,3.81425,-5.3307,0.0120154,2.04682,1.32137,-0.310446,-0.0251937,-16.3169,-2.01655,-8.20049,35.4001,-5.44418,4.97543,15.5409,-3.81455,2.28194,-1.29707e-14,1.98785e-14,-37.1215,11.752,-95.936,30.6069,12.2361,-23.3397,-46.2457,7.12502,3.11508,-76.2027,-1.29707e-14,1.98785e-14,-37.0511,-13.0726,95.0555,32.1333,6.8259,-31.3049,-29.5465,7.12502,-4.57759,0.38403,-32.6048,6.80479,26.8812,41.5967,-20.1777,-16.6222,-1.93532,-32.5959,-10.512,-14.1789,43.4573,-24.539,19.6099,5.11115
-2.46293,16.5414,42.8881,-165.571,-6.13316,-175.279,-12.344,0.985704,3.86945,-5.11787,0.173144,2.02763,1.57854,-0.214143,-0.0549498,-16.4791,-2.02833,-8.18947,35.4604,-5.42547,4.91774,15.605,-3.80764,2.25768,2.2208e-14,-8.34896e-15,-37.0203,11.7897,-95.8554,30.7067,12.1014,-23.0855,-46.6005,7.12502,3.36049,-76.5537,2.2208e-14,-8.34896e-15,-36.8445,-12.8973,94.9387,32.1273,6.73736,-30.4933,-29.5904,7.12502,-3.79387,0.355616,-32.3431,6.79214,26.8195,41.6333,-20.1816,-16.3785,-1.86077,-32.2059,-10.7065,-14.3291,43.4531,-24.6326,20.0946,5.15882
-2.44293,16.5448,42.9283,-165.001,-7.15779,-175.357,-11.2833,0.678778,3.75907,-6.07215,-0.22213,2.02776,-0.00156739,-0.482457,-0.035659,-16.2421,-1.88393,-8.10679,35.9264,-5.43116,4.88878,15.7729,-3.86841,2.22408,-3.95085e-15,5.10877e-14,-37.9942,11.6068,-96.1328,31.2512,11.1722,-21.5887,-48.4992,7.12502,4.80588,-78.4247,-3.95085e-15,5.10877e-14,-37.7758,-12.7493,94.9454,32.2082,6.67454,-29.8882,-29.9055,7.12502,-3.20953,0.0500424,-33.1138,6.79584,26.8211,41.6072,-19.9111,-17.219,-1.51668,-33.3024,-10.367,-14.0935,43.4806,-24.1584,18.9855,4.7482
-2.44858,16.5445,42.9152,-165.255,-7.0842,-175.225,-11.4225,0.713627,3.86946,-5.86035,-0.181057,2.08689,0.295613,-0.447494,-0.0339951,-16.1169,-1.906,-8.15396,35.7938,-5.43975,4.90461,15.6804,-3.86991,2.23996,-5.96354e-15,-2.32578e-14,-37.9023,11.5552,-95.9673,30.6133,12.6531,-22.9292,-46.235,7.12502,3.51147,-76.1858,-5.96354e-15,-2.32578e-14,-37.6508,-12.7618,94.9784,32.2188,6.74703,-30.1444,-30.2276,7.12502,-3.45694,-0.27586,-32.7683,6.92903,26.9568,41.5899,-19.9792,-17.2989,-2.08918,-32.9538,-10.3663,-14.0363,43.495,-24.3002,19.1637,4.68449
-2.46306,16.5425,42.8715,-165.765,-6.60037,-175.191,-11.7119,0.913187,3.94489,-5.54073,0.0849513,2.01247,0.793025,-0.290771,-0.124404,-15.7165,-1.95856,-8.14142,35.6171,-5.58144,4.95553,15.5128,-3.92802,2.23747,2.85753e-15,1.11319e-14,-37.9246,11.5007,-96.0317,30.9532,11.849,-21.9833,-47.626,7.12502,4.42488,-77.5598,2.85753e-15,1.11319e-14,-37.7053,-12.9943,95.0439,32.2556,6.80207,-30.6376,-30.0202,7.12502,-3.93317,-0.0767514,-31.9738,7.06155,26.9852,41.5618,-20.2153,-17.1291,-2.33162,-32.0322,-10.4661,-14.2271,43.4959,-24.7839,19.5051,5.39528
-2.45411,16.5448,42.9094,-165.177,-7.01118,-175.308,-11.631,0.70816,3.76606,-5.73431,-0.18238,2.09417,0.540366,-0.43609,0.0296818,-16.0719,-1.96806,-8.26663,35.6409,-5.47551,4.94289,15.6038,-3.88219,2.27168,1.88162e-14,-1.59028e-14,-37.6642,11.9215,-96.0582,30.9789,11.4158,-22.2562,-47.696,7.12502,4.1614,-77.6351,1.88162e-14,-1.59028e-14,-37.4236,-12.7741,94.9572,32.2519,6.79513,-30.558,-29.7876,7.12502,-3.85633,0.15725,-32.7994,6.94125,26.8321,41.5786,-19.9887,-17.2738,-1.9089,-32.9605,-10.4158,-14.1423,43.5003,-24.396,19.2306,4.78997
-2.46769,16.5436,42.8912,-165.255,-6.31342,-175.173,-11.7702,0.933786,3.97571,-5.58618,0.0900681,2.09383,0.777499,-0.295347,-0.0563523,-16.2946,-1.95638,-8.32081,35.6704,-5.39264,4.93552,15.6654,-3.84463,2.29227,9.33667e-15,1.59028e-15,-37.5461,12.1043,-96.0735,30.8788,11.205,-22.412,-47.476,7.12502,4.01092,-77.418,9.33667e-15,1.59028e-15,-37.2874,-12.6529,94.888,32.2461,6.81055,-30.5773,-30.0544,7.12502,-3.87499,-0.109914,-32.6936,7.14016,26.8429,41.5794,-20.0063,-16.8265,-2.13462,-32.6411,-10.7123,-14.1217,43.4778,-24.6408,20.1005,5.03941
-2.45421,16.5456,42.9117,-164.951,-6.98576,-175.355,-11.8143,0.662045,3.63524,-5.69193,-0.244405,2.15586,0.683118,-0.462229,0.158645,-16.3147,-1.94418,-8.3472,35.6237,-5.33485,4.91605,15.642,-3.81983,2.29993,-5.66536e-15,-2.22639e-14,-37.4648,12.1711,-96.0399,30.7828,11.2001,-22.3908,-47.3755,7.12502,4.0314,-77.3171,-5.66536e-15,-2.22639e-14,-37.1328,-12.5805,94.8422,32.28,6.84832,-30.8909,-30.2549,7.12502,-4.17781,-0.316116,-33.1056,7.32113,26.6815,41.6354,-19.9438,-17.529,-1.83448,-33.2056,-10.5583,-14.1101,43.4468,-24.4239,19.3172,4.83084
-2.46151,16.5433,42.8908,-165.222,-6.98415,-175.358,-12.1033,0.738018,3.62256,-5.44316,-0.135858,2.09315,1.10107,-0.3878,0.111862,-16.1361,-2.01872,-8.20435,35.4711,-5.47309,4.88229,15.5319,-3.85598,2.23779,-7.53829e-15,3.35946e-14,-37.3394,11.8455,-95.9207,30.6874,11.3207,-22.6156,-47.0236,7.12502,3.81429,-76.9692,-7.53829e-15,3.35946e-14,-37.0543,-13.008,94.9086,32.4674,6.98716,-31.0839,-29.7622,7.12502,-4.36415,0.172861,-32.6943,7.39623,26.7004,41.6474,-20.0599,-17.6603,-1.62942,-32.7479,-10.7015,-14.1897,43.3999,-24.5848,19.3146,5.31905
-2.46191,16.5424,42.88,-165.374,-7.32605,-175.467,-12.1987,0.584413,3.48973,-5.22611,-0.305501,2.09779,1.37545,-0.450986,0.167812,-16.4431,-2.08643,-8.15281,35.4655,-5.48586,4.79242,15.5993,-3.84484,2.18684,1.34801e-14,1.19271e-14,-37.0263,11.8414,-95.8268,30.5787,11.3983,-22.5525,-47.1344,7.12502,3.87529,-77.0789,1.34801e-14,1.19271e-14,-36.8173,-13.1642,94.8706,32.6203,7.01575,-31.1806,-28.8602,7.12502,-4.4575,1.07288,-32.4602,7.45676,26.641,41.6791,-20.116,-18.0755,-1.54416,-32.5488,-10.792,-14.2929,43.3524,-24.3979,19.2467,4.95402
-2.46076,16.543,42.883,-165.217,-7.39325,-175.538,-12.8105,0.490529,3.26168,-4.92289,-0.427492,2.19963,2.02245,-0.488898,0.381082,-16.5629,-2.1383,-8.21639,35.2227,-5.40179,4.70344,15.5015,-3.79659,2.17835,2.9445e-15,9.14409e-15,-36.4326,12.1188,-95.633,30.4469,11.3701,-22.2881,-47.565,7.12502,4.13059,-77.5047,2.9445e-15,9.14409e-15,-36.2199,-13.0823,94.8123,32.4996,6.94549,-31.5223,-28.9782,7.12502,-4.78745,0.947725,-32.6403,7.46439,26.5512,41.6891,-20.1351,-18.1004,-1.64811,-32.756,-10.8213,-14.3127,43.3255,-24.2991,19.1806,5.1992
-2.46056,16.5453,42.8848,-165.049,-7.48502,-175.587,-13.0752,0.451968,3.15559,-4.85086,-0.478397,2.20758,2.2408,-0.508915,0.440111,-16.5932,-2.141,-8.13472,35.113,-5.35821,4.62405,15.446,-3.76396,2.13974,1.45012e-14,-6.16232e-15,-36.1054,12.0963,-95.5517,30.2864,11.3823,-22.034,-47.809,7.12502,4.37593,-77.7437,1.45012e-14,-6.16232e-15,-35.9948,-13.2845,94.8484,32.4409,6.9608,-32.2825,-29.3971,7.12502,-5.5215,0.510974,-32.8223,7.34972,26.5065,41.698,-20.4517,-17.9146,-0.892556,-32.9907,-10.7964,-14.3134,43.3229,-24.3388,18.95,5.68347
-2.46187,16.5473,42.8831,-164.99,-7.52817,-175.592,-13.1201,0.428353,3.15595,-4.82425,-0.51044,2.20981,2.29243,-0.522984,0.437164,-16.6934,-2.13593,-8.11009,35.128,-5.31832,4.56915,15.4707,-3.74603,2.11886,-2.19346e-14,-2.14687e-14,-35.9003,12.0782,-95.5497,30.1342,11.3511,-21.9635,-47.6364,7.12502,4.44405,-77.5698,-2.19346e-14,-2.14687e-14,-35.9097,-13.3768,94.8364,32.4329,6.92812,-32.2526,-29.335,7.12502,-5.49266,0.573774,-32.8804,7.30118,26.5029,41.6896,-20.179,-18.0679,-1.7027,-33.0664,-10.7691,-14.3063,43.3456,-24.3178,18.9324,5.4563
-2.46922,16.547,42.8871,-164.893,-7.136,-175.465,-13.0266,0.588156,3.34958,-4.89654,-0.327884,2.20531,2.16813,-0.441074,0.351066,-16.7277,-2.14295,-8.17185,35.196,-5.32733,4.57847,15.5152,-3.76192,2.13082,-3.9555e-15,-1.47101e-14,-35.9288,12.0833,-95.5814,30.1361,11.3735,-22.1898,-47.1906,7.12502,4.22548,-77.1284,-3.9555e-15,-1.47101e-14,-35.9392,-13.3055,94.8051,32.6203,7.06715,-32.2806,-28.9458,7.12502,-5.51962,0.962315,-33.0523,7.27514,26.5496,41.6631,-20.3028,-17.5148,-0.996629,-33.1409,-10.702,-14.2407,43.3889,-24.4102,19.2503,5.51561
-2.47585,16.5462,42.8891,-164.903,-6.7396,-175.29,-12.7902,0.773923,3.5754,-5.00149,-0.105476,2.19509,1.93432,-0.341826,0.246196,-16.6573,-2.156,-8.22646,35.2549,-5.38611,4.63073,15.5362,-3.7977,2.15122,3.17007e-14,2.54444e-14,-36.1138,11.885,-95.5668,30.4197,11.2093,-21.687,-48.034,7.12502,4.71105,-77.9616,3.17007e-14,2.54444e-14,-36.0494,-13.1778,94.7543,32.6895,7.15224,-32.1974,-28.8408,7.12502,-5.43929,1.06937,-33.074,7.28321,26.6619,41.6216,-20.0435,-17.2345,-1.72881,-33.0985,-10.509,-14.1679,43.43,-24.5457,19.3702,5.9197
-2.48137,16.5454,42.8845,-164.95,-6.68963,-175.165,-12.762,0.841608,3.75631,-4.99709,-0.0373632,2.19238,1.92506,-0.310291,0.151427,-16.6422,-2.18278,-8.26445,35.271,-5.44533,4.6862,15.5494,-3.82259,2.17051,5.51317e-17,2.24627e-14,-36.0897,11.6668,-95.5275,30.9694,9.99165,-20.0421,-50.4572,7.12502,6.29917,-80.3436,5.51317e-17,2.24627e-14,-36.0556,-13.1744,94.7243,32.6645,7.21963,-32.0675,-28.8253,7.12502,-5.31394,1.08804,-32.9982,7.2321,26.7943,41.5815,-19.957,-17.206,-2.09172,-33.042,-10.3968,-14.0867,43.4546,-24.467,19.4649,5.35262
-2.48801,16.5454,42.8697,-165.095,-6.92571,-175.153,-12.8764,0.735701,3.85061,-4.86619,-0.187675,2.22037,2.1198,-0.375632,0.105848,-16.7719,-2.16918,-8.29039,35.2821,-5.38484,4.67565,15.5806,-3.79537,2.18107,6.09787e-15,5.36719e-15,-35.9487,11.6856,-95.5157,30.8612,9.96565,-20.1782,-49.387,7.12502,6.16782,-79.2772,6.09787e-15,5.36719e-15,-35.9825,-13.1278,94.7089,32.6382,7.21726,-31.7974,-28.8801,7.12502,-5.05315,1.03965,-32.7532,7.17157,26.8572,41.5585,-20.0512,-17.4295,-2.14742,-32.8476,-10.5002,-14.0786,43.4457,-24.6185,19.256,5.78941
-2.49446,16.5451,42.8572,-165.286,-6.98719,-175.226,-12.6326,0.656009,3.85191,-4.88506,-0.271817,2.21043,1.96583,-0.417124,0.0832882,-16.8156,-2.10607,-8.31276,35.4034,-5.30863,4.67234,15.6435,-3.7777,2.19587,1.03772e-14,-4.17448e-15,-36.0146,11.7553,-95.6242,31.4346,8.45524,-18.8384,-50.5737,7.12502,7.46115,-80.4221,1.03772e-14,-4.17448e-15,-36.1288,-13.0401,94.7205,32.6211,7.17733,-31.472,-28.6963,7.12502,-4.73889,1.23068,-32.4717,7.23121,26.7846,41.557,-20.3501,-17.4284,-1.21467,-32.5451,-10.5916,-14.2022,43.3957,-24.6857,19.2229,6.00744
-2.50165,16.5437,42.8527,-165.352,-6.69615,-175.313,-11.951,0.753818,3.84105,-5.27402,-0.113717,2.11361,1.19492,-0.366728,0.0127816,-16.5029,-2.00496,-8.31498,35.6489,-5.33277,4.73618,15.6926,-3.82662,2.21677,3.0998e-15,-1.11319e-14,-36.6867,11.7129,-95.9145,31.8108,7.77753,-18.7471,-51.4751,7.12502,7.54926,-81.3204,3.0998e-15,-1.11319e-14,-36.7701,-13.0677,94.8235,32.667,7.2073,-31.4426,-28.3971,7.12502,-4.71047,1.53057,-32.3912,7.23592,26.6345,41.5719,-20.1078,-17.3055,-1.90181,-32.35,-10.4428,-14.4193,43.3361,-24.7176,19.2897,5.84167
-2.50825,16.5428,42.8345,-165.58,-6.80466,-175.448,-12.0346,0.692049,3.77674,-5.15596,-0.176891,2.04785,1.36137,-0.386132,-0.0282444,-16.3193,-1.98277,-8.2558,35.5544,-5.33481,4.74665,15.6004,-3.82018,2.21234,-2.61899e-14,-1.63003e-14,-36.7261,11.7375,-96.0517,32.0577,7.29962,-18.1677,-53.4862,7.12502,8.10853,-83.3106,-2.61899e-14,-1.63003e-14,-36.7798,-13.1456,94.8074,32.6726,7.25849,-31.4969,-28.5234,7.12502,-4.76296,1.40304,-32.0138,7.20972,26.5291,41.5759,-20.204,-17.4703,-1.81064,-31.9747,-10.2971,-14.6609,43.2672,-24.8532,19.1568,5.3164
-2.50683,16.544,42.8315,-165.622,-7.23795,-175.508,-12.0496,0.51321,3.71453,-5.16567,-0.406393,2.06471,1.35361,-0.498984,-0.00553594,-16.2175,-1.92555,-8.13902,35.4847,-5.24724,4.65115,15.5263,-3.77983,2.16831,2.47922e-14,-2.52457e-14,-37.0315,12.1331,-96.392,30.6222,11.2428,-21.9368,-46.0923,7.12502,4.46976,-76.0252,2.47922e-14,-2.52457e-14,-36.8142,-13.0704,94.7734,32.6745,7.20567,-31.2873,-28.7892,7.12502,-4.56054,1.1417,-31.9031,7.3104,26.5162,41.5736,-20.3204,-17.9197,-1.38183,-31.9812,-10.165,-14.6779,43.2463,-24.7815,18.5941,5.36741
-2.5091,16.544,42.8176,-165.961,-7.46478,-175.522,-11.9125,0.376896,3.69799,-5.07189,-0.563362,2.08696,1.37311,-0.567622,0.00687613,-16.1625,-1.8502,-8.02792,35.4867,-5.13777,4.54273,15.4963,-3.73739,2.12262,-6.70898e-15,-1.45113e-14,-37.0679,12.0337,-96.3924,30.8065,10.7106,-21.0328,-47.4787,7.12502,5.34265,-77.3914,-6.70898e-15,-1.45113e-14,-36.8737,-12.8456,94.7046,32.6706,7.0355,-31.2637,-28.7069,7.12502,-4.5378,1.22451,-31.4343,7.46513,26.5654,41.5516,-20.7141,-18.1851,-0.571698,-31.5665,-10.1443,-14.7325,43.2457,-24.7928,18.3727,5.42739
-2.52085,16.5451,42.8297,-165.489,-6.97246,-175.371,-12.1434,0.619422,3.96837,-5.26833,-0.317037,2.04973,1.29839,-0.46928,-0.151695,-16.0716,-1.81201,-7.9546,35.5001,-5.10819,4.48958,15.474,-3.72943,2.09253,-8.14085e-15,2.90226e-14,-37.1647,12.0419,-96.4908,30.7864,10.8524,-21.388,-47.4157,7.12502,4.99967,-77.3368,-8.14085e-15,2.90226e-14,-36.8949,-12.6555,94.6112,32.5974,6.85429,-31.174,-28.8501,7.12502,-4.45115,1.08308,-32.0978,7.36004,26.5636,41.5428,-20.2114,-17.7649,-2.25959,-32.1013,-10.1321,-14.5885,43.2893,-24.7666,18.8065,5.90502
-2.5352,16.5427,42.8295,-165.204,-6.368,-175.193,-12.4249,0.923089,4.2732,-5.32895,0.0131483,1.99836,1.39762,-0.319152,-0.332783,-15.9879,-1.80976,-7.918,35.4835,-5.13148,4.49308,15.4469,-3.7368,2.08404,1.36664e-16,1.78906e-15,-37.1738,11.9666,-96.5254,30.6811,11.028,-21.943,-46.777,7.12502,4.46378,-76.71,1.36664e-16,1.78906e-15,-36.8393,-12.7011,94.5848,32.4933,6.84397,-31.0407,-29.0976,7.12502,-4.32246,0.83827,-32.4586,7.39425,26.5836,41.523,-20.4514,-16.9864,-1.38829,-32.3279,-10.1692,-14.479,43.3347,-25.0563,19.2938,6.38377
-2.54142,16.539,42.8315,-165.152,-6.15099,-175.154,-11.6878,1.07337,4.38406,-5.82322,0.219957,1.91658,0.491145,-0.26053,-0.452427,-15.7617,-1.71888,-7.80354,35.8063,-5.173,4.46052,15.5483,-3.79139,2.03829,-5.82688e-15,1.61016e-14,-37.8326,11.4779,-96.5932,30.8238,10.8007,-21.3828,-46.7004,7.12502,5.00477,-76.6213,-5.82688e-15,1.61016e-14,-37.5355,-12.8798,94.7597,32.5365,6.90216,-31.534,-29.0416,7.12502,-4.79873,0.884064,-32.531,7.39932,26.5635,41.5324,-20.1913,-16.92,-2.14909,-32.3617,-10.1787,-14.4871,43.3784,-24.8503,19.7079,5.14434
-2.55159,16.537,42.8189,-165.232,-5.68295,-175.032,-12.1228,1.31456,4.44983,-5.53764,0.517695,1.90395,1.03666,-0.0904301,-0.464199,-15.799,-1.81035,-7.70587,35.6642,-5.26871,4.4135,15.4919,-3.80434,1.98635,-1.83938e-14,-1.27222e-14,-37.7617,11.5912,-96.6818,29.5433,14.8909,-25.667,-43.4911,7.12502,0.867376,-73.4691,-1.83938e-14,-1.27222e-14,-37.2006,-13.1801,94.8369,32.4956,6.97863,-31.6516,-28.8467,7.12502,-4.91236,1.07632,-32.4217,7.35668,26.6451,41.5411,-20.4368,-16.4108,-1.74102,-32.1342,-10.2789,-14.4612,43.401,-25.0918,20.1182,5.9177
-2.54924,16.5395,42.8362,-164.954,-5.89544,-175.108,-12.4768,1.25007,4.21855,-5.46067,0.432568,1.96129,1.30322,-0.123063,-0.283994,-15.8449,-1.86476,-7.74449,35.5578,-5.29741,4.42352,15.4556,-3.80479,1.99409,-4.00675e-16,3.37934e-14,-37.3378,11.5941,-96.5258,30.0536,13.3185,-23.8595,-45.7644,7.12502,2.61302,-75.7282,-4.00675e-16,3.37934e-14,-36.8687,-13.1973,94.8612,32.461,6.98684,-31.3592,-28.7772,7.12502,-4.63,1.15224,-32.8182,7.26619,26.5585,41.572,-20.0358,-16.6857,-2.91877,-32.5801,-10.2568,-14.4387,43.4129,-24.9777,19.8919,6.14348
-2.55282,16.5381,42.8389,-164.81,-5.78752,-175.146,-12.5322,1.26361,4.19378,-5.5174,0.442391,1.94593,1.27425,-0.123493,-0.284429,-15.8654,-1.80323,-7.75993,35.6256,-5.22805,4.45551,15.4886,-3.7797,2.0219,1.28278e-14,4.57205e-14,-37.3048,11.8133,-96.6981,30.3861,12.5319,-22.8861,-46.7145,7.12502,3.55305,-76.6646,1.28278e-14,4.57205e-14,-36.9244,-13.0896,94.8291,32.5267,6.99235,-31.4842,-28.8819,7.12502,-4.75071,1.04481,-33.0219,7.3317,26.4626,41.5929,-19.9492,-16.6909,-3.17376,-32.7239,-10.3102,-14.482,43.4183,-24.7612,20.203,5.46276
-2.55452,16.5366,42.8358,-164.802,-5.78567,-175.093,-12.5843,1.24819,4.23258,-5.5005,0.412046,1.96925,1.31913,-0.138443,-0.285744,-15.8721,-1.74665,-7.74436,35.616,-5.13751,4.45047,15.4765,-3.73895,2.03369,2.92897e-15,-8.74653e-15,-37.224,11.9097,-96.7837,30.585,12.0765,-22.4199,-47.1951,7.12502,4.00331,-77.1372,2.92897e-15,-8.74653e-15,-36.9255,-12.977,94.7696,32.5705,6.98241,-31.2952,-29.164,7.12502,-4.5682,0.766772,-33.054,7.47057,26.5106,41.6094,-19.7735,-16.9968,-3.80539,-32.7283,-10.2844,-14.4362,43.4169,-24.8862,20.1409,5.94158
-2.55921,16.5374,42.8268,-164.922,-5.78389,-175.092,-12.6795,1.22239,4.2413,-5.37133,0.380385,1.98809,1.50416,-0.143206,-0.274861,-15.9022,-1.72499,-7.78249,35.5664,-5.07199,4.46415,15.4554,-3.70754,2.05891,-8.04146e-15,1.61016e-14,-37.0677,11.7927,-96.6768,30.7696,11.7283,-21.8213,-47.5771,7.12502,4.58134,-77.5076,-8.04146e-15,1.61016e-14,-36.7963,-12.8362,94.6911,32.5498,6.90346,-30.6864,-29.6227,7.12502,-3.98028,0.319901,-32.8873,7.45972,26.5308,41.6172,-19.9796,-16.9879,-3.20423,-32.5468,-10.3562,-14.4642,43.4081,-24.937,20.1725,5.91672
-2.5664,16.538,42.8163,-165.17,-5.76026,-175.169,-12.7299,1.18258,4.18979,-5.13601,0.354084,1.99679,1.7757,-0.134375,-0.240199,-16.0163,-1.75536,-7.85044,35.4875,-5.04302,4.46264,15.4442,-3.68897,2.07637,4.79879e-15,2.98177e-15,-36.8531,11.749,-96.57,31.0267,11.2261,-21.2066,-48.1982,7.12502,5.17483,-78.115,4.79879e-15,2.98177e-15,-36.5304,-12.7506,94.6521,32.4675,6.82901,-30.5458,-29.8355,7.12502,-3.84449,0.10954,-32.5341,7.35619,26.4777,41.6012,-19.8351,-17.0349,-3.74276,-32.1771,-10.3963,-14.6273,43.3966,-24.9808,20.2288,5.55484
-2.56274,16.5408,42.8305,-164.827,-6.27677,-175.217,-12.9273,1.0231,4.11551,-5.22347,0.126276,2.03077,1.78308,-0.254328,-0.194658,-16.0781,-1.78515,-7.86575,35.4442,-5.05245,4.45415,15.4393,-3.68748,2.07418,-1.14767e-14,2.60408e-14,-36.7666,11.8138,-96.6171,31.0732,11.2363,-21.4254,-48.4044,7.12502,4.9636,-78.3263,-1.14767e-14,2.60408e-14,-36.3716,-12.7332,94.6254,32.3899,6.80711,-30.8501,-29.8473,7.12502,-4.13837,0.0922624,-32.9395,7.37759,26.4317,41.6002,-19.981,-17.2951,-2.58472,-32.7292,-10.2692,-14.5311,43.3921,-24.8136,19.7006,5.35103
-2.56821,16.5392,42.8185,-165.004,-5.97925,-175.044,-12.9171,1.14365,4.30082,-5.14392,0.266218,2.05028,1.86593,-0.181799,-0.258387,-16.073,-1.77847,-7.86523,35.4712,-5.05026,4.44873,15.4507,-3.69029,2.07182,-7.2867e-15,-1.72943e-14,-36.8978,11.9501,-96.7662,30.6545,12.7341,-23.1373,-47.149,7.12502,3.3105,-77.1031,-7.2867e-15,-1.72943e-14,-36.4363,-12.7575,94.6418,32.4518,6.8591,-31.1108,-29.7354,7.12502,-4.39011,0.19911,-32.682,7.50449,26.5895,41.5766,-20.1185,-17.1296,-2.52282,-32.4061,-10.234,-14.4462,43.3697,-24.9392,19.9238,5.73181
-2.56571,16.5398,42.8268,-164.873,-6.26858,-175.055,-11.3704,1.06566,4.31178,-6.23906,0.193229,2.04535,-0.11591,-0.310785,-0.279501,-15.5525,-1.56809,-7.90674,36.1098,-5.03298,4.41687,15.6359,-3.79742,2.0595,-2.22515e-14,3.71727e-14,-38.3734,11.6013,-97.023,30.9537,12.2701,-22.2987,-47.034,7.12502,4.12038,-76.9739,-2.22515e-14,3.71727e-14,-38.0636,-12.5383,94.9042,32.6943,6.77334,-31.187,-29.6078,7.12502,-4.46372,0.325188,-32.8665,7.49718,26.5963,41.5692,-20.0471,-17.4001,-2.72735,-32.6693,-10.3129,-14.3448,43.3657,-24.8915,19.666,6.12143
-2.58553,16.535,42.7892,-165.549,-5.60104,-174.981,-11.3016,1.27905,4.54039,-5.90125,0.496333,1.96549,0.211912,-0.134247,-0.458104,-15.3651,-1.57752,-7.94924,36.0218,-5.07939,4.49257,15.5555,-3.81556,2.09303,-1.49089e-15,1.2921e-14,-38.3335,11.5838,-97.0813,30.7136,12.7618,-22.4417,-46.4945,7.12502,3.98227,-76.4371,-1.49089e-15,1.2921e-14,-38.0684,-12.5358,94.8431,32.7143,6.73932,-31.0517,-29.8327,7.12502,-4.33301,0.102957,-31.9669,7.53552,26.6468,41.539,-20.1866,-17.0221,-3.35159,-31.5644,-10.7206,-14.5433,43.3317,-25.5124,20.3712,7.10564
-2.59321,16.5337,42.7938,-165.385,-5.2387,-174.964,-12.5585,1.41043,4.44929,-5.179,0.628387,2.00824,1.64995,-0.00716245,-0.33675,-15.6087,-1.73381,-7.97113,35.4979,-5.10041,4.54175,15.3638,-3.74636,2.12201,-6.83322e-16,9.93923e-15,-37.0932,11.7796,-96.7768,30.5705,12.6624,-21.9136,-46.7372,7.12502,4.4922,-76.6696,-6.83322e-16,9.93923e-15,-36.8905,-12.6886,94.7236,32.6597,6.88047,-30.962,-29.9602,7.12502,-4.24646,-0.0228127,-32.185,7.51482,26.5571,41.5402,-20.1951,-16.5951,-3.51749,-31.7043,-10.6729,-14.5915,43.324,-25.276,20.8009,6.33883
-2.58514,16.5352,42.7967,-165.351,-5.882,-175.138,-11.7581,1.1539,4.2117,-5.73369,0.342451,1.99351,0.62628,-0.188807,-0.261414,-15.4395,-1.60066,-7.87013,35.9155,-5.09196,4.50057,15.5201,-3.79146,2.08202,6.24308e-15,3.57812e-15,-37.7853,11.5929,-96.9702,30.825,12.0781,-21.3798,-47.2083,7.12502,5.00766,-77.1291,6.24308e-15,3.57812e-15,-37.7342,-12.6967,94.8595,32.8147,7.01266,-30.9897,-29.7315,7.12502,-4.27315,0.2054,-32.1721,7.73738,26.4182,41.5681,-20.2945,-17.3063,-2.96502,-31.8696,-10.572,-14.6497,43.2926,-25.0963,20.1324,5.97875
-2.59266,16.5332,42.8012,-165.212,-5.63527,-175.098,-12.2539,1.27821,4.18221,-5.49042,0.485614,2.02395,1.15282,-0.098814,-0.192848,-15.5858,-1.69189,-7.7825,35.7696,-5.12554,4.37036,15.4803,-3.78336,2.00721,3.85766e-15,-5.76476e-15,-37.4629,11.8083,-96.9239,30.347,13.5617,-23.0904,-45.4284,7.12502,3.35577,-75.3818,3.85766e-15,-5.76476e-15,-37.2628,-12.8275,94.9161,32.6995,7.06402,-30.8711,-29.5182,7.12502,-4.15869,0.420989,-32.3914,7.71321,26.3895,41.6101,-20.1867,-17.1518,-3.24018,-31.9895,-10.5061,-14.6534,43.2891,-25.2913,20.2112,6.27014
-2.58639,16.536,42.8259,-164.639,-6.13717,-175.285,-12.9391,1.15571,3.86447,-5.40363,0.313812,2.02169,1.60621,-0.173443,-0.0364457,-15.7351,-1.81316,-7.64728,35.5413,-5.19344,4.24125,15.4029,-3.77429,1.91994,2.68515e-14,-2.127e-14,-36.9497,11.8228,-96.7988,30.4622,13.2786,-22.2294,-46.998,7.12502,4.18729,-76.9366,2.68515e-14,-2.127e-14,-36.6849,-13.0028,94.8921,32.5543,7.05092,-30.5844,-29.5623,7.12502,-3.88182,0.382114,-33.1577,7.65673,26.1733,41.6635,-19.9558,-17.5771,-3.32149,-32.8301,-10.3811,-14.6515,43.2473,-24.9333,19.7192,5.85317
-2.59704,16.5361,42.8127,-164.826,-5.58649,-175.241,-12.7061,1.35009,4.04843,-5.40214,0.573662,1.90373,1.49211,-0.0460779,-0.227576,-15.78,-1.79722,-7.53541,35.6276,-5.21596,4.21714,15.4525,-3.77856,1.88402,1.17159e-14,-1.2921e-14,-37.0565,11.7682,-96.9591,30.669,12.8122,-21.3995,-48.473,7.12502,4.98861,-78.3943,1.17159e-14,-1.2921e-14,-36.8225,-13.0201,94.7989,32.5451,7.05173,-30.3523,-29.679,7.12502,-3.65764,0.269359,-32.917,7.66874,26.1569,41.6925,-20.0155,-17.1158,-3.47144,-32.4294,-10.4085,-14.775,43.2265,-25.07,20.1724,6.40595
-2.602,16.5365,42.7894,-165.418,-5.94906,-175.335,-12.7123,1.1107,3.93402,-4.97617,0.315452,1.9627,1.9304,-0.134229,-0.13752,-16.0103,-1.80241,-7.54843,35.5259,-5.14619,4.24573,15.4535,-3.72264,1.9118,1.18153e-14,9.93923e-16,-36.7645,12.0169,-96.9144,30.3858,13.3376,-22.6216,-46.8645,7.12502,3.80854,-76.8103,1.18153e-14,9.93923e-16,-36.5035,-12.8404,94.7223,32.5227,7.01763,-30.3044,-29.6167,7.12502,-3.61146,0.332437,-32.0901,7.77354,26.1612,41.6982,-20.3008,-17.5326,-2.97043,-31.6862,-10.6122,-14.9407,43.1719,-25.1687,19.9352,6.65016
-2.59778,16.5372,42.8094,-165.126,-6.27209,-175.306,-13.1986,0.978524,3.7268,-4.79271,0.13298,2.12042,2.37871,-0.211188,0.118784,-16.1502,-1.84972,-7.61668,35.2735,-5.09537,4.28168,15.3641,-3.67018,1.95213,1.12639e-14,-1.13307e-14,-36.1411,12.246,-96.6873,31.2651,10.5863,-20.2584,-49.767,7.12502,6.09034,-79.6595,1.12639e-14,-1.13307e-14,-35.9798,-12.6839,94.7237,32.4687,7.00182,-30.3194,-29.727,7.12502,-3.62586,0.221878,-32.5043,7.7364,26.1915,41.6945,-20.2172,-17.7223,-2.70305,-32.188,-10.3597,-14.8021,43.1652,-25.0813,19.4621,6.58829
-2.60283,16.5341,42.782,-165.595,-6.30058,-175.277,-12.086,1.02016,3.805,-5.32259,0.228777,2.03823,1.22676,-0.200875,-0.000980409,-15.625,-1.73259,-7.5641,35.707,-5.22381,4.35766,15.46,-3.78625,1.94673,1.70893e-14,-4.96962e-15,-37.3601,11.9424,-96.984,31.1549,11.319,-21.2933,-48.7151,7.12502,5.09114,-78.6339,1.70893e-14,-4.96962e-15,-37.1793,-12.7156,94.8969,32.5457,6.98513,-30.2716,-29.9385,7.12502,-3.57973,0.0111689,-31.8414,7.92876,26.2797,41.6865,-20.5758,-17.9111,-1.95562,-31.5192,-10.4821,-14.8684,43.149,-25.1914,19.6509,5.84485
-2.59924,16.5351,42.7963,-165.204,-6.66857,-175.282,-12.561,0.989218,3.78217,-5.30928,0.15489,2.00214,1.49566,-0.237806,-0.0340932,-15.553,-1.83006,-7.50597,35.5232,-5.36934,4.41013,15.3665,-3.81685,1.93623,9.88643e-15,2.54444e-14,-37.1199,11.846,-96.9273,31.1523,11.3028,-21.5374,-48.1601,7.12502,4.85542,-78.0845,9.88643e-15,2.54444e-14,-36.9162,-12.9766,94.8764,32.4634,6.97181,-30.5822,-29.7418,7.12502,-3.87972,0.202587,-32.3474,8.02677,26.2361,41.701,-20.6272,-18.1638,-1.40608,-32.1376,-10.3987,-14.7245,43.1875,-25.0149,19.2758,5.5921
-2.60093,16.5355,42.803,-164.99,-6.68762,-175.226,-12.3171,1.0351,3.87933,-5.61929,0.193298,1.97507,1.04193,-0.24604,-0.111542,-15.3671,-1.79471,-7.46922,35.611,-5.39351,4.39885,15.365,-3.84507,1.91998,-1.39802e-14,1.0138e-14,-37.4927,11.796,-97.0286,31.0902,11.6358,-21.823,-47.5428,7.12502,4.57967,-77.4733,-1.39802e-14,1.0138e-14,-37.2609,-12.9716,94.9283,32.4423,6.87476,-31.0703,-29.5034,7.12502,-4.35105,0.431927,-32.6342,8.13236,26.2353,41.7032,-20.3591,-18.3632,-2.19256,-32.4345,-10.2818,-14.6383,43.2133,-24.9782,19.1178,5.94262
-2.60815,16.5349,42.8008,-164.985,-6.47057,-175.215,-12.3403,1.07982,3.95456,-5.6034,0.24132,1.97166,1.07276,-0.223152,-0.150998,-15.3366,-1.76879,-7.49505,35.5778,-5.32257,4.34985,15.3347,-3.82447,1.91703,-3.35449e-16,-1.98785e-15,-37.5049,11.9326,-97.0459,30.9638,12.0188,-21.8194,-47.6164,7.12502,4.58319,-77.5468,-3.35449e-16,-1.98785e-15,-37.2441,-12.7579,94.8797,32.4172,6.78617,-31.0342,-29.7002,7.12502,-4.31613,0.235792,-32.6453,8.10519,26.2034,41.7198,-20.294,-18.2175,-2.64167,-32.4057,-10.2355,-14.6972,43.2396,-25.2497,19.2227,6.44328
-2.61722,16.5327,42.7957,-165.069,-6.29816,-175.269,-12.3102,1.09574,3.98771,-5.56227,0.266585,1.94199,1.10046,-0.207538,-0.197316,-15.2916,-1.76584,-7.52235,35.5676,-5.30036,4.3013,15.3165,-3.82811,1.90534,4.3422e-15,1.78906e-15,-37.4937,12.0013,-97.0407,30.9163,12.0185,-21.699,-47.9151,7.12502,4.69947,-77.843,4.3422e-15,1.78906e-15,-37.2663,-12.603,94.8445,32.4305,6.78883,-31.3174,-29.7765,7.12502,-4.58963,0.153756,-32.5365,7.97533,26.1243,41.7301,-20.4436,-17.9322,-2.53695,-32.254,-10.3032,-14.824,43.24,-25.572,19.3318,6.76833
-2.62117,16.5332,42.7973,-165.077,-6.40159,-175.345,-12.2941,1.02309,3.93709,-5.53179,0.182956,1.93529,1.12072,-0.244825,-0.18693,-15.2813,-1.76038,-7.52505,35.5447,-5.27717,4.27422,15.3002,-3.82101,1.89884,7.39541e-15,1.45113e-14,-37.4191,12.0273,-97.005,30.89,11.9697,-21.4529,-48.1944,7.12502,4.93702,-78.1169,7.39541e-15,1.45113e-14,-37.2003,-12.5834,94.8383,32.3982,6.88109,-32.1385,-29.3995,7.12502,-5.38244,0.512109,-32.5316,7.88079,26.0449,41.7443,-20.6626,-17.7958,-1.62814,-32.2565,-10.3326,-14.898,43.2248,-25.5569,19.3569,6.33948
-2.62987,16.5327,42.7867,-165.229,-6.25333,-175.29,-12.3395,1.03643,4.04859,-5.38175,0.196251,1.95688,1.30239,-0.227907,-0.225517,-15.3903,-1.71393,-7.54579,35.5553,-5.17203,4.26143,15.3224,-3.77542,1.91524,-5.65604e-15,-2.38542e-14,-37.3173,12.1493,-96.9745,30.9107,11.9948,-21.4271,-48.2527,7.12502,4.96201,-78.1746,-5.65604e-15,-2.38542e-14,-37.0626,-12.4543,94.7928,32.3852,6.93491,-32.5536,-29.0674,7.12502,-5.78322,0.833665,-32.3306,7.86659,26.083,41.7487,-20.6627,-17.6736,-1.63382,-31.9931,-10.3703,-14.9241,43.2056,-25.9614,19.3594,7.38696
-2.63386,16.5308,42.7806,-165.346,-6.34502,-175.265,-12.2183,0.997689,4.16363,-5.33776,0.149644,1.92638,1.28137,-0.247928,-0.328227,-15.4962,-1.68692,-7.54039,35.6221,-5.1402,4.28789,15.3776,-3.75791,1.92966,1.24862e-14,-1.8487e-14,-37.2949,12.0782,-96.9785,30.9191,12.1657,-21.646,-48.0982,7.12502,4.75057,-78.0249,1.24862e-14,-1.8487e-14,-37.0282,-12.3855,94.6905,32.3859,6.9668,-32.3476,-29.0383,7.12502,-5.58437,0.868071,-32.1684,7.88291,26.1245,41.7376,-20.7132,-17.773,-1.7355,-31.8483,-10.2589,-14.939,43.1856,-25.9265,19.2212,7.15954
-2.63492,16.5298,42.7731,-165.512,-6.71278,-175.344,-12.5377,0.863864,3.98412,-5.00031,0.000790137,1.96741,1.80086,-0.2901,-0.205306,-15.6135,-1.77666,-7.54708,35.4153,-5.17732,4.28413,15.3094,-3.74403,1.92601,7.05064e-16,-9.93923e-15,-36.8592,11.9463,-96.7205,30.8843,12.3297,-21.3799,-48.4241,7.12502,5.00753,-78.345,7.05064e-16,-9.93923e-15,-36.565,-12.4624,94.6777,32.3108,7.06691,-32.0495,-28.9919,7.12502,-5.29648,0.921887,-31.8771,7.93588,26.0938,41.7092,-21.052,-18.0273,-1.09585,-31.7027,-10.159,-15.0215,43.2144,-25.9679,18.7595,7.09773
-2.64445,16.5266,42.7463,-166.058,-6.79322,-175.351,-12.604,0.855017,4.01282,-4.63216,0.0199821,1.92324,2.22119,-0.248831,-0.265003,-15.6355,-1.81552,-7.43496,35.2513,-5.22056,4.30913,15.2366,-3.72416,1.91217,-2.91965e-15,-3.77691e-15,-36.321,11.2056,-96.2614,32.5908,7.46768,-15.3876,-55.2491,7.12502,10.7909,-84.9519,-2.91965e-15,-3.77691e-15,-36.4043,-12.6121,94.6769,32.361,7.17357,-32.2413,-28.6838,7.12502,-5.48172,1.22525,-31.0645,8.00029,26.1442,41.6508,-21.3482,-18.0941,-0.745169,-30.9823,-10.2701,-15.1567,43.2669,-26.1174,18.8128,6.58782
-2.65874,16.5253,42.7629,-165.684,-6.10712,-175.076,-12.7017,1.19395,4.42895,-4.73064,0.392079,1.89324,2.18655,-0.0798035,-0.476156,-15.7744,-1.79928,-7.39144,35.2628,-5.19236,4.34088,15.2721,-3.69389,1.92242,-4.6528e-15,2.22639e-14,-36.2872,11.2779,-96.2756,31.8127,9.15053,-18.2483,-51.5006,7.12502,8.03069,-81.328,-4.6528e-15,2.22639e-14,-36.3544,-12.5071,94.6125,32.4515,7.13845,-32.3083,-28.2876,7.12502,-5.5464,1.6198,-31.6302,7.73093,26.2537,41.6119,-21.2771,-17.0714,-0.454609,-31.4648,-10.0755,-14.9632,43.3964,-26.307,19.1909,7.29685
-2.67114,16.5228,42.7488,-165.815,-5.56717,-174.865,-12.8675,1.3602,4.6792,-4.52404,0.572639,1.95183,2.50121,0.0220377,-0.526984,-15.9272,-1.80615,-7.51009,35.2576,-5.14829,4.38548,15.3075,-3.67587,1.96936,8.58035e-16,1.98785e-14,-36.0579,11.4344,-96.1724,32.5287,7.41049,-16.441,-54.7903,7.12502,9.77466,-84.5434,8.58035e-16,1.98785e-14,-36.1816,-12.0948,94.4493,32.4417,7.01139,-31.7087,-28.2,7.12502,-4.96747,1.72175,-31.456,7.80493,26.3837,41.5838,-21.2316,-16.6511,-0.299465,-31.2558,-9.99997,-14.9022,43.5406,-26.5202,19.5985,7.87476
-2.67882,16.5198,42.763,-165.547,-5.28851,-174.749,-12.4588,1.48001,4.87231,-4.89275,0.710407,1.9337,1.90303,0.0551716,-0.639786,-15.7421,-1.77832,-7.62375,35.3637,-5.18832,4.48644,15.325,-3.7193,2.02354,1.46138e-15,-1.39149e-15,-36.4568,11.4009,-96.2468,32.5336,7.51578,-16.542,-54.6262,7.12502,9.67722,-84.3839,1.46138e-15,-1.39149e-15,-36.5744,-11.7247,94.3314,32.4349,6.94665,-31.073,-28.7673,7.12502,-4.35366,1.16798,-31.877,7.71818,26.3989,41.6209,-20.9539,-16.3707,-0.897537,-31.6472,-9.80185,-14.8203,43.6781,-26.5232,19.7382,7.91644
-2.69172,16.5161,42.7748,-165.093,-4.75112,-174.62,-12.3132,1.75311,5.0757,-5.2546,1.02404,1.88526,1.46513,0.172426,-0.76422,-15.6159,-1.786,-7.71544,35.4903,-5.26489,4.54423,15.3679,-3.77785,2.04882,1.60643e-14,1.51076e-14,-36.7874,11.3364,-96.2861,31.6757,9.33677,-18.747,-51.1064,7.12502,7.54935,-80.9517,1.60643e-14,1.51076e-14,-36.8844,-11.5702,94.3207,32.4909,6.9869,-30.678,-29.2591,7.12502,-3.97224,0.683588,-32.5376,7.50524,26.3749,41.6654,-20.8731,-15.6721,-1.03212,-32.1826,-9.46283,-14.7787,43.7975,-26.6169,19.91,8.14479
-2.67784,16.5175,42.7764,-165.18,-5.91506,-174.971,-11.8813,1.26746,4.50247,-5.46043,0.478268,1.96195,0.984643,-0.102629,-0.440024,-15.5792,-1.78299,-7.78569,35.636,-5.28149,4.51361,15.4327,-3.81579,2.04302,1.06909e-14,9.93923e-16,-37.0133,11.266,-96.2081,31.525,9.42728,-18.8405,-50.9706,7.12502,7.45913,-80.8191,1.06909e-14,9.93923e-16,-37.142,-11.3401,94.3556,32.58,7.02394,-30.3527,-29.245,7.12502,-3.65808,0.703353,-32.3931,7.5942,26.1686,41.7462,-21.0231,-16.8471,-0.500393,-32.3736,-9.26476,-14.9776,43.8795,-26.3219,18.9383,7.20601
-2.69284,16.5129,42.7722,-165.139,-5.2292,-174.809,-11.7134,1.51273,4.64724,-5.57553,0.780507,2.01675,0.786775,0.0316581,-0.427847,-15.4813,-1.75001,-7.88195,35.6576,-5.22151,4.49794,15.4172,-3.81483,2.06408,1.83006e-14,1.5704e-14,-37.2529,11.2611,-96.0837,30.5937,11.6037,-21.4407,-47.8638,7.12502,4.94883,-77.786,1.83006e-14,1.5704e-14,-37.3026,-10.9532,94.3638,32.5547,7.02435,-30.1001,-29.4033,7.12502,-3.41411,0.549111,-32.4959,7.5777,26.202,41.7786,-20.997,-16.1901,-0.854421,-32.3464,-9.1144,-14.9881,43.978,-26.4762,19.4911,7.33029
-2.69087,16.5112,42.7919,-164.818,-5.63885,-174.756,-11.6498,1.38173,4.66565,-5.77043,0.587637,2.09398,0.540719,-0.0829763,-0.382054,-15.4664,-1.73069,-7.95548,35.66,-5.17173,4.49701,15.4128,-3.80561,2.08555,4.51614e-15,-2.98177e-14,-37.2504,11.2021,-95.966,30.3717,12.148,-22.1014,-47.0713,7.12502,4.31085,-77.0075,4.51614e-15,-2.98177e-14,-37.3244,-10.6025,94.2808,32.5709,7.05574,-30.1325,-29.527,7.12502,-3.44543,0.424869,-32.9696,7.55796,26.2529,41.8488,-20.9962,-16.428,-0.71893,-32.9485,-9.01866,-14.8021,44.0481,-26.3095,19.0562,7.60358
-2.70826,16.5076,42.7649,-165.217,-5.40719,-174.69,-11.5843,1.50127,4.91619,-5.5729,0.748906,2.01028,0.721127,0.0112301,-0.590159,-15.498,-1.77998,-7.91963,35.7007,-5.26159,4.48612,15.4469,-3.84123,2.05777,-6.26793e-15,4.96962e-15,-37.291,10.9192,-95.8555,29.9891,13.3609,-23.3671,-45.3154,7.12502,3.08858,-75.2728,-6.26793e-15,4.96962e-15,-37.3497,-10.4808,94.1433,32.6608,7.17458,-30.658,-29.2972,7.12502,-3.95287,0.645847,-32.4248,7.64954,26.2904,41.8752,-20.9235,-16.5106,-1.4618,-32.3627,-9.05072,-14.9135,44.1331,-26.6084,19.2177,8.1318
-2.70345,16.5055,42.7685,-165.124,-6.37631,-174.994,-11.4319,1.29515,4.62561,-5.77302,0.52427,1.83426,0.418735,-0.107116,-0.63827,-15.2442,-1.88968,-7.70928,35.6584,-5.56058,4.53643,15.3872,-3.94133,1.99066,-2.46555e-14,6.36111e-15,-37.5226,10.1844,-95.7549,29.8973,13.8139,-23.5004,-44.9952,7.12502,2.95985,-74.9544,-2.46555e-14,6.36111e-15,-37.5503,-10.7799,94.0597,32.6587,7.32756,-31.3059,-29.3653,7.12502,-4.57854,0.565237,-32.5241,7.79353,26.0473,41.9848,-20.9734,-17.5638,-1.13027,-32.6788,-9.13255,-15.054,44.1909,-26.4584,18.457,7.52341
-2.72101,16.4991,42.7555,-165.101,-5.4987,-174.771,-12.0852,1.77106,4.65026,-5.43691,1.11388,1.85407,1.14908,0.211839,-0.550847,-15.0235,-2.09203,-7.59732,35.2222,-5.78194,4.47648,15.1393,-3.99293,1.9158,8.07563e-16,-2.36554e-14,-37.1763,9.77888,-95.3187,29.5854,14.5302,-24.2827,-44.1543,7.12502,2.20436,-74.1226,8.07563e-16,-2.36554e-14,-37.0952,-10.8247,94.0779,32.5496,7.2938,-31.4848,-29.7231,7.12502,-4.75126,0.203596,-32.5878,7.98917,26.084,42.0591,-21.0401,-16.8556,-1.32267,-32.5154,-8.84245,-15.0687,44.2623,-26.7211,18.939,7.552
-2.71475,16.4979,42.7612,-164.799,-6.48989,-174.965,-12.2695,1.44462,4.45587,-5.54438,0.685743,1.82702,1.11633,-0.0049776,-0.52446,-14.9593,-2.12097,-7.55844,35.0816,-5.81565,4.50173,15.0598,-3.9889,1.91649,1.26166e-14,1.33186e-14,-36.9386,9.28476,-95.0524,30.5793,11.255,-20.9861,-47.1874,7.12502,5.38775,-77.0989,1.26166e-14,1.33186e-14,-37.0347,-10.4219,93.758,32.5171,7.17577,-31.4169,-30.1065,7.12502,-4.6857,-0.178311,-32.9209,8.0786,25.9408,42.1605,-21.3083,-17.5347,-0.4852,-33.1264,-8.87835,-15.0442,44.343,-26.4838,18.1394,7.11522
-2.72599,16.4943,42.7553,-164.775,-6.35816,-174.965,-12.3836,1.46834,4.52525,-5.41892,0.710189,1.82139,1.31074,0.0166415,-0.56465,-15.0993,-2.14226,-7.69646,34.9726,-5.76869,4.58457,15.0452,-3.95686,1.9845,7.42336e-16,-2.62396e-14,-36.7328,9.21777,-94.8668,30.8233,10.5614,-20.6683,-47.7714,7.12502,5.69463,-77.6748,7.42336e-16,-2.62396e-14,-36.835,-9.91489,93.4626,32.5056,7.14468,-31.7258,-30.367,7.12502,-4.98397,-0.445575,-32.948,8.1123,25.8726,42.1781,-21.3459,-17.4456,-0.478164,-33.1682,-8.88385,-15.1095,44.4601,-26.5675,18.2584,7.35086
-2.74306,16.4889,42.7469,-164.825,-5.90097,-174.777,-12.5473,1.68986,4.80209,-5.22651,0.969053,1.80938,1.61529,0.156434,-0.694206,-15.1288,-2.22097,-7.8256,34.7959,-5.82119,4.68491,14.9821,-3.96278,2.04257,2.91965e-16,-1.64991e-14,-36.524,8.98769,-94.6146,30.8803,10.5961,-20.7878,-47.7211,7.12502,5.57921,-77.6277,2.91965e-16,-1.64991e-14,-36.6485,-9.70812,93.2751,32.6096,7.33124,-32.0053,-30.049,7.12502,-5.25389,-0.13411,-32.8899,8.23771,25.954,42.166,-21.4233,-17.2185,-0.360456,-33.0607,-8.76062,-15.0754,44.578,-26.7364,18.5317,8.02223
-2.76043,16.4837,42.7246,-165.109,-5.5606,-174.539,-12.5976,1.86866,5.18445,-4.98236,1.17295,1.80045,1.91397,0.273987,-0.886357,-15.1738,-2.30278,-7.90656,34.6466,-5.88602,4.74903,14.934,-3.97443,2.07399,-6.51408e-15,-1.94809e-14,-36.4387,8.82743,-94.4723,30.1239,12.5822,-23.0442,-45.8267,7.12502,3.40038,-75.7794,-6.51408e-15,-1.94809e-14,-36.464,-9.44539,93.0296,32.5982,7.52579,-31.867,-30.0591,7.12502,-5.12027,-0.141,-32.4633,8.47402,26.1356,42.1244,-21.5693,-17.2493,-0.570199,-32.6389,-8.59797,-15.0191,44.6938,-27.0201,18.7388,8.3664
-2.77861,16.4783,42.698,-165.41,-5.33634,-174.438,-11.7452,1.98065,5.50415,-5.36271,1.3392,1.72604,1.07185,0.316443,-1.1372,-14.8578,-2.25699,-8.01127,34.9189,-5.97243,4.81711,15.0027,-4.06535,2.10345,4.7522e-15,-1.03368e-14,-36.9971,8.04132,-94.1229,30.9946,9.70148,-19.3035,-49.3375,7.12502,7.01222,-79.2013,4.7522e-15,-1.03368e-14,-37.2189,-8.86122,92.7237,32.4932,7.47828,-31.8828,-30.9883,7.12502,-5.13556,-1.07058,-31.9881,8.54796,26.2161,42.0972,-21.6638,-17.4258,-1.63001,-32.1802,-8.52484,-15.0893,44.787,-27.2839,18.8832,8.61492
-2.79057,16.4743,42.6905,-165.403,-5.46312,-174.445,-10.6983,1.98165,5.63803,-6.06394,1.37443,1.66297,-0.222123,0.261421,-1.29498,-14.3987,-2.18243,-8.15899,35.2654,-6.07142,4.90733,15.0773,-4.18317,2.14748,5.32991e-15,2.20651e-14,-38.1445,7.92257,-94.1571,30.5836,11.001,-20.4496,-48.6509,7.12502,5.90574,-78.5486,5.32991e-15,2.20651e-14,-38.3314,-8.21242,92.4291,32.6747,7.6539,-31.4473,-30.7113,7.12502,-4.7151,-0.783778,-31.9638,8.49659,26.1962,42.1122,-21.8712,-17.6701,-1.82854,-32.22,-8.4277,-15.1415,44.8533,-27.3192,18.6799,8.72704
-2.80122,16.4709,42.6821,-165.433,-5.7309,-174.487,-10.6743,1.89259,5.59196,-6.02352,1.26666,1.71735,-0.201786,0.213694,-1.22467,-14.4399,-2.24729,-8.3567,35.1398,-6.09444,5.00702,15.0416,-4.19052,2.2216,1.60767e-14,-1.96797e-14,-38.1017,8.00987,-93.8888,30.0316,12.2127,-21.3832,-48.0822,7.12502,5.00439,-78.0031,1.60767e-14,-1.96797e-14,-38.3414,-7.54964,92.1106,32.7915,7.96675,-30.7822,-30.705,7.12502,-4.07279,-0.764205,-31.9121,8.50651,26.1532,42.1555,-21.9762,-17.9993,-1.82023,-32.2208,-8.46216,-15.1894,44.8856,-27.3843,18.4372,8.91795
-2.81196,16.4664,42.6719,-165.449,-6.02325,-174.528,-11.0651,1.84641,5.46173,-5.74708,1.20324,1.77646,0.291836,0.213784,-1.09083,-14.5201,-2.3857,-8.49052,34.9249,-6.2036,5.09053,14.9785,-4.21369,2.26378,-1.23433e-14,-1.8487e-14,-37.6184,7.68384,-93.3395,29.9249,12.2356,-20.6351,-48.7045,7.12502,5.72662,-78.6071,-1.23433e-14,-1.8487e-14,-37.8997,-6.98142,91.7896,32.6663,8.21372,-31.1664,-30.2014,7.12502,-4.44386,-0.267975,-31.8785,8.45618,26.1273,42.2532,-22.1041,-18.256,-1.89911,-32.2347,-8.59266,-15.208,44.912,-27.4511,18.2278,8.99531
-2.82565,16.4623,42.6566,-165.468,-6.01398,-174.512,-11.8351,1.93408,5.32776,-5.27767,1.29305,1.84377,1.20063,0.305659,-0.92004,-14.6047,-2.56792,-8.55608,34.6549,-6.35355,5.10023,14.8898,-4.24765,2.25654,-1.08089e-15,-3.77691e-14,-36.961,7.28734,-92.6871,29.735,12.6043,-20.684,-48.3023,7.12502,5.67944,-78.2062,-1.08089e-15,-3.77691e-14,-37.2188,-6.52042,91.5383,32.4429,8.33952,-32.7922,-29.398,7.12502,-6.0136,0.496636,-31.8263,8.41177,26.1201,42.3345,-22.2066,-18.2693,-2.04857,-32.1637,-8.55884,-15.2457,44.9168,-27.5737,18.1237,8.95952
-2.81833,16.4598,42.6748,-165.007,-7.06176,-174.776,-12.4282,1.55035,4.72987,-5.11785,0.807241,2.02558,1.65275,0.0882922,-0.452083,-14.8834,-2.70832,-8.74136,34.4025,-6.35343,5.08799,14.8448,-4.22701,2.2851,-2.46571e-14,1.88845e-14,-36.2642,7.44456,-92.1576,29.2546,12.9622,-21.8144,-46.8113,7.12502,4.58801,-76.7416,-2.46571e-14,1.88845e-14,-36.5776,-5.73988,91.2791,32.2268,8.439,-33.5276,-29.128,7.12502,-6.72355,0.74529,-32.4078,8.3526,25.9064,42.4326,-22.2689,-19.0827,-1.42343,-32.9842,-8.67564,-15.2456,44.9276,-27.1444,17.4133,8.32391
-2.83305,16.4546,42.6508,-165.212,-7.10142,-174.793,-12.0361,1.57294,4.89361,-5.22636,0.85414,1.92434,1.33251,0.101982,-0.647723,-14.845,-2.69734,-8.84112,34.511,-6.41191,5.25303,14.9031,-4.25728,2.36013,4.263e-15,-8.54774e-15,-36.179,7.16988,-91.877,29.5864,10.717,-19.2578,-49.8247,7.12502,7.05629,-79.687,4.263e-15,-8.54774e-15,-36.9018,-5.07577,90.7397,32.119,8.46677,-33.5568,-28.9283,7.12502,-6.75177,0.944047,-32.062,8.34428,25.8951,42.4618,-22.5805,-19.1082,-0.913722,-32.6194,-8.70178,-15.3491,44.9157,-27.157,17.335,8.32077
-2.85276,16.4477,42.6179,-165.493,-6.94451,-174.715,-10.5575,1.80651,5.30575,-6.09462,1.20263,1.62975,-0.346761,0.188081,-1.16458,-14.1683,-2.59697,-8.7302,35.0516,-6.70021,5.4198,15.03,-4.44532,2.35868,3.90115e-15,8.94531e-15,-37.5323,6.60996,-91.906,29.2533,11.4275,-19.3575,-50.7819,7.12502,6.96008,-80.6475,3.90115e-15,8.94531e-15,-38.545,-4.85957,90.1471,32.22,8.43557,-33.4582,-29.1918,7.12502,-6.65654,0.683552,-31.6181,8.31109,25.9742,42.5409,-22.9169,-18.9806,-0.694404,-32.116,-8.66989,-15.4109,44.9377,-27.3637,17.3017,8.35846
-2.87455,16.4424,42.5766,-165.88,-6.74974,-174.683,-10.703,1.999,5.34133,-5.83874,1.46972,1.54686,0.0174304,0.346763,-1.23861,-13.9556,-2.76675,-8.59838,34.8674,-6.98057,5.40415,14.9156,-4.54215,2.28458,6.0971e-15,-2.48481e-15,-37.4417,6.26055,-91.4389,27.7946,14.9717,-22.5715,-47.7675,7.12502,3.85685,-77.7123,6.0971e-15,-2.48481e-15,-38.5693,-4.4829,89.6434,32.1558,8.42683,-33.044,-29.8407,7.12502,-6.25673,0.0468961,-30.9689,8.37562,26.0063,42.5244,-23.0546,-19.0323,-0.971538,-31.4666,-8.56103,-15.566,44.9885,-27.6049,17.3557,7.87871
-2.8614,16.4409,42.6038,-164.902,-8.49874,-175.056,-11.9496,1.45483,4.54451,-5.68298,0.726896,1.7315,0.80193,0.00975009,-0.671024,-14.1372,-3.00682,-8.6488,34.4277,-7.10681,5.32371,14.7644,-4.5524,2.24233,-1.59494e-14,-1.94809e-14,-36.037,5.60301,-90.2539,27.734,13.2466,-19.0766,-50.4444,7.12502,7.23125,-80.3008,-1.59494e-14,-1.94809e-14,-37.7035,-3.57742,89.1627,31.9598,8.61585,-32.1766,-30.4692,7.12502,-5.4192,-0.55847,-32.1272,8.22055,25.7213,42.6324,-23.0953,-20.3095,-0.435785,-33.131,-8.89254,-15.4201,45.1445,-27.1667,16.2281,6.82643
-2.92291,16.4323,42.5661,-164.96,-5.90969,-174.349,-13.3682,2.52441,5.26992,-4.72102,1.96365,1.89208,2.64481,0.68596,-0.698455,-14.4672,-3.26309,-8.90113,33.8667,-7.14753,5.30928,14.5978,-4.52325,2.27726,2.66085e-14,3.97569e-15,-34.4619,5.49159,-89.1211,26.2815,15.5748,-20.3918,-48.795,7.12502,5.96155,-78.6911,2.66085e-14,3.97569e-15,-36.5448,-2.44249,88.7885,31.797,9.05355,-31.0213,-31.0352,7.12502,-4.30369,-1.09898,-32.1648,8.02208,25.9657,42.6602,-22.8583,-17.9808,-1.6911,-32.5385,-8.07256,-15.4382,45.2861,-27.8333,17.6512,7.62387
-2.93279,16.4218,42.5935,-164.166,-6.07327,-174.27,-13.0036,2.55776,5.41424,-5.35323,1.96775,1.87112,1.79195,0.626274,-0.820452,-14.409,-3.2004,-9.03064,34.0047,-7.11743,5.43535,14.6564,-4.5288,2.35616,5.14899e-15,3.77691e-15,-34.3598,4.7062,-88.2291,24.985,17.9564,-21.7343,-45.8619,7.12502,4.6653,-75.7905,5.14899e-15,3.77691e-15,-37.1901,-1.54484,88.0941,32.0308,9.31949,-30.5507,-30.9782,7.12502,-3.84926,-1.03319,-33.2784,7.78019,25.9192,42.7992,-22.8391,-17.7787,-1.53807,-33.7405,-7.89232,-15.261,45.4749,-27.4567,17.2496,7.51113
-2.94913,16.4158,42.5547,-164.863,-7.00023,-174.555,-12.2617,2.12822,5.25174,-5.37166,1.50707,1.88837,1.34228,0.404921,-0.79528,-14.3033,-3.12427,-9.15094,34.1681,-7.07591,5.52124,14.7123,-4.53953,2.41929,-2.3351e-14,-3.79679e-14,-34.2972,4.84351,-87.8756,25.8992,14.4195,-17.766,-51.1547,7.12502,8.49613,-80.9638,-2.3351e-14,-3.79679e-14,-37.9804,-0.733408,87.4848,32.3347,9.29542,-30.9776,-30.3385,7.12502,-4.26146,-0.401403,-32.2411,7.48724,25.865,42.8822,-23.3132,-18.5234,-1.45369,-32.9281,-8.42957,-15.5111,45.5214,-27.6178,16.7319,7.61011
-2.97397,16.4081,42.535,-164.952,-7.0641,-174.364,-11.6953,2.24483,5.59069,-5.69345,1.65514,1.82689,0.717433,0.442019,-1.04399,-14.0131,-3.14673,-9.12,34.3837,-7.27772,5.55967,14.7665,-4.65674,2.39522,7.11587e-15,-9.14409e-15,-34.4706,4.35532,-87.2467,25.6829,14.2078,-17.6297,-51.1993,7.12502,8.62765,-81.003,7.11587e-15,-9.14409e-15,-38.8767,-0.628171,87.0549,32.6921,9.57062,-32.1732,-29.3102,7.12502,-5.41599,0.600561,-32.1372,7.04384,26.082,43.0392,-23.3377,-18.3564,-2.1982,-32.7801,-8.5417,-15.3761,45.5828,-27.8029,16.7242,7.77749
-2.98869,16.3983,42.5046,-165.084,-6.70391,-174.468,-12.3396,2.38778,5.29033,-5.1742,1.86051,1.81244,1.61217,0.599331,-0.842984,-14.1345,-3.35526,-9.11399,34.1343,-7.47955,5.53977,14.6994,-4.7088,2.35218,-3.19344e-14,3.57812e-14,-33.3819,3.85199,-86.3683,25.4794,13.6661,-17.9806,-52.1615,7.12502,8.28906,-81.9789,-3.19344e-14,3.57812e-14,-38.5565,-0.277254,86.6475,32.7572,9.80931,-32.9836,-28.7323,7.12502,-6.19836,1.15697,-31.9838,7.40415,25.8711,43.2182,-23.4213,-18.5072,-2.52995,-32.4127,-8.50458,-15.6238,45.5647,-27.8967,16.9245,7.7371
-3.00859,16.3888,42.4803,-165.253,-6.43587,-174.483,-13.6568,2.4069,4.93719,-4.05839,1.8696,2.087,3.47404,0.697333,-0.303482,-14.7931,-3.68174,-9.40917,33.5316,-7.5287,5.52604,14.5944,-4.66405,2.38734,-1.09953e-14,9.74045e-15,-31.3428,3.58817,-85.0629,24.2887,15.3347,-22.1278,-48.738,7.12502,4.28536,-78.6746,-1.09953e-14,9.74045e-15,-37.2373,1.04237,86.2112,32.3923,9.83518,-32.2472,-29.7082,7.12502,-5.48739,0.200768,-31.8191,7.599,25.7912,43.4299,-23.435,-18.6648,-3.30303,-32.0948,-8.35565,-15.8014,45.6314,-27.9417,16.9162,7.71364
-3.03182,16.3805,42.4643,-165.283,-6.44011,-174.495,-13.4126,2.40108,4.99958,-4.02375,1.87917,2.09629,3.37983,0.705514,-0.33343,-15.0106,-3.7773,-9.5812,33.5353,-7.63371,5.67932,14.6735,-4.69762,2.45815,2.02947e-14,2.0276e-14,-30.584,2.998,-84.153,24.4136,13.8979,-21.0044,-49.5263,7.12502,5.37007,-79.4382,2.02947e-14,2.0276e-14,-37.4322,2.02492,85.3746,32.1633,10.1951,-30.8096,-31.1261,7.12502,-4.0993,-1.18578,-31.8517,7.35065,25.769,43.7047,-23.4251,-18.6495,-4.10232,-32.0371,-8.30438,-15.9061,45.7315,-28.0049,16.752,7.56717
-3.05276,16.3687,42.4548,-165.301,-6.5079,-174.509,-13.161,2.47259,5.049,-4.07921,1.99606,2.01586,3.19433,0.761418,-0.434461,-14.8728,-3.88326,-9.49073,33.4375,-7.84738,5.73537,14.6181,-4.76987,2.43023,-2.14315e-14,-6.95746e-15,-30.115,2.37043,-83.3521,23.789,14.841,-21.3101,-48.2834,7.12502,5.07498,-78.2026,-2.14315e-14,-6.95746e-15,-37.8343,2.15272,84.8364,32.1297,10.2585,-31.6699,-31.3137,7.12502,-4.93001,-1.39108,-31.9129,7.14433,25.7279,44.0272,-23.8269,-18.3177,-3.38261,-32.0602,-8.32136,-15.9709,45.8896,-28.218,16.4313,7.89607
-3.07086,16.3532,42.4474,-165.322,-6.55376,-174.475,-12.7854,2.56738,5.08799,-4.21613,2.15015,1.94457,2.85789,0.828771,-0.52055,-14.6131,-4.0185,-9.34513,33.417,-8.13013,5.66686,14.5681,-4.89495,2.33043,-7.39852e-15,-1.59028e-15,-29.8474,1.89102,-82.5926,23.4779,15.1455,-21.1477,-48.1415,7.12502,5.23173,-78.057,-7.39852e-15,-1.59028e-15,-38.3996,2.21345,84.2273,32.1521,10.3522,-31.9105,-31.3368,7.12502,-5.16233,-1.41965,-32.0413,7.1837,25.7062,44.4287,-24.2525,-18.1527,-2.56763,-32.1007,-8.20422,-15.9888,46.0827,-28.5604,15.9411,8.59658
-3.08934,16.3376,42.4382,-165.328,-6.63482,-174.47,-12.4319,2.57081,5.09557,-4.36542,2.17819,1.94254,2.51141,0.831149,-0.536877,-14.3586,-4.07036,-9.38363,33.4578,-8.28111,5.68113,14.5472,-4.98308,2.31965,2.66496e-15,-1.27222e-14,-29.5753,1.24805,-81.6309,23.3445,15.7049,-20.5206,-48.9564,7.12502,5.83721,-78.856,2.66496e-15,-1.27222e-14,-39.0701,2.62249,83.533,32.2318,10.3675,-31.7711,-30.8541,7.12502,-5.02768,-0.933793,-32.2716,6.99967,25.6893,44.9041,-24.3695,-18.18,-3.15919,-32.161,-8.06722,-16.048,46.293,-28.8322,15.6361,8.73414
-3.10812,16.3199,42.4331,-165.347,-6.7423,-174.596,-12.1787,2.57062,5.06171,-4.46758,2.20843,1.85625,2.27053,0.840624,-0.613383,-13.9706,-4.06537,-9.43746,33.3582,-8.38619,5.86117,14.4367,-5.0306,2.39232,1.75769e-14,-1.43125e-14,-29.1914,0.237934,-80.5533,23.3075,16.3281,-20.1642,-50.3796,7.12502,6.18132,-80.2694,1.75769e-14,-1.43125e-14,-39.6321,3.05782,82.7326,32.1299,10.3169,-31.6674,-30.699,7.12502,-4.92761,-0.776247,-32.4971,6.61615,25.5483,45.4676,-24.6244,-17.9311,-3.29165,-32.2349,-8.06434,-16.2489,46.5227,-29.1483,14.9534,10.0578
-3.13096,16.2998,42.4214,-165.374,-6.44852,-174.716,-11.9726,2.7837,5.08504,-4.54609,2.51761,1.65132,2.10115,0.990825,-0.803628,-13.4248,-4.11232,-9.38653,33.1841,-8.62712,6.07694,14.2685,-5.12364,2.44154,6.03498e-15,1.92821e-14,-28.8611,-0.714613,-79.608,23.1858,16.8348,-21.006,-50.4238,7.12502,5.36853,-80.3358,6.03498e-15,1.92821e-14,-40.1694,3.11185,81.9357,31.9999,10.4872,-31.2427,-31.357,7.12502,-4.51751,-1.42515,-32.7336,6.61661,25.3131,46.1151,-24.8862,-17.4081,-2.84088,-32.2127,-7.93428,-16.5451,46.7639,-29.3626,15.2818,9.23899
-3.15187,16.2804,42.4144,-165.351,-6.33372,-174.837,-11.2859,2.39847,4.96931,-4.20468,2.09219,1.9484,2.04612,0.806485,-0.505385,-15.3861,-4.12029,-9.91251,33.6301,-8.1254,5.96964,14.891,-4.89493,2.53897,2.20216e-14,-1.27222e-14,-27.0137,0.225725,-78.9034,22.6913,17.7982,-22.8747,-48.6651,7.12502,3.56415,-78.615,2.20216e-14,-1.27222e-14,-39.9491,5.10071,81.0715,31.9083,10.4406,-31.0153,-31.3145,7.12502,-4.29796,-1.37814,-33.1678,6.57961,25.1076,46.8763,-25.2203,-17.0001,-2.47531,-32.3145,-7.78914,-16.7949,47.0049,-29.6356,14.9639,9.79936
-3.17383,16.2627,42.4061,-165.332,-6.36211,-174.937,-10.9445,2.69994,4.96405,-4.57918,2.52257,1.62863,1.50318,0.99558,-0.796473,-14.0258,-4.26907,-9.60007,33.3136,-8.74563,6.15608,14.4938,-5.16076,2.47631,-7.84889e-15,-9.93923e-15,-27.3399,-1.19611,-77.9438,23.4655,16.5438,-21.5508,-50.2263,7.12502,4.84252,-80.1509,-7.84889e-15,-9.93923e-15,-40.9446,4.45292,80.2621,31.8375,10.4969,-31.2612,-30.9078,7.12502,-4.53535,-0.976396,-33.6665,6.35316,24.9639,47.7481,-24.9347,-16.9389,-4.07448,-32.413,-7.64203,-17.0059,47.2351,-29.7727,14.4579,10.4627
-3.19491,16.2473,42.398,-165.365,-6.2576,-175.068,-10.5915,2.78457,4.92667,-4.75381,2.66701,1.51353,1.14004,1.05546,-0.893384,-13.2661,-4.27432,-9.65457,33.0806,-8.89663,6.29976,14.2434,-5.24836,2.53491,-2.71155e-15,3.97569e-15,-26.9695,-1.50652,-77.2124,25.3297,12.3891,-16.9028,-57.9587,7.12502,9.32912,-87.7323,-2.71155e-15,3.97569e-15,-41.8101,4.60316,79.3826,31.804,10.5365,-32.0789,-30.4455,7.12502,-5.32493,-0.532354,-34.1772,6.1843,24.7808,48.7502,-24.7299,-16.8821,-5.41768,-32.4158,-7.4011,-17.3003,47.4335,-29.957,14.0629,10.7482
-3.21582,16.2325,42.3926,-165.412,-6.09601,-175.148,-9.97153,2.76811,4.88883,-4.4057,2.7377,1.49794,1.16535,1.1228,-0.896395,-14.7089,-4.53665,-9.6205,33.2327,-8.98076,6.19918,14.6437,-5.2018,2.44252,1.56791e-14,1.78906e-14,-25.3386,-2.01109,-76.3898,25.1589,13.1089,-17.9499,-56.429,7.12502,8.31869,-86.2452,1.56791e-14,1.78906e-14,-41.489,5.18987,78.6299,31.7029,10.7311,-33.5006,-29.2532,7.12502,-6.69746,0.620869,-34.788,6.11738,24.6258,49.9008,-24.4796,-16.7754,-6.56052,-32.4137,-7.04595,-17.5549,47.5959,-29.9422,13.9486,10.2586
-3.23845,16.2162,42.3865,-165.405,-6.08189,-175.302,-9.78435,3.31776,5.06283,-5.22909,3.43369,0.945787,0.285926,1.40092,-1.51307,-11.2318,-4.51673,-9.34026,32.4388,-9.7632,6.70409,13.6055,-5.62753,2.5483,1.38982e-14,5.1684e-15,-26.9773,-3.46453,-75.3992,25.4983,13.6351,-18.7846,-55.4948,7.12502,7.5131,-85.3414,1.38982e-14,5.1684e-15,-43.507,3.38917,77.8194,31.8671,11.3008,-34.0029,-28.7262,7.12502,-7.18235,1.13192,-35.5574,5.85369,24.4255,51.2248,-24.0929,-16.6695,-8.02328,-32.4449,-6.73686,-17.8612,47.7123,-29.943,13.6939,10.2341
-3.26185,16.1988,42.3755,-165.428,-6.12779,-175.654,-9.10414,3.0021,4.72366,-4.88079,3.13554,1.05528,0.233582,1.29136,-1.265,-13.1635,-4.6809,-9.50852,32.9601,-9.60552,6.44399,14.2455,-5.51064,2.44731,-5.14231e-14,-1.2921e-14,-25.1262,-3.0424,-74.7313,25.494,13.6044,-19.0619,-56.0927,7.12502,7.24537,-85.9487,-5.14231e-14,-1.2921e-14,-43.4098,4.64187,76.9045,31.8036,11.3529,-33.8676,-28.7578,7.12502,-7.0518,1.10474,-36.3721,5.38464,24.0529,52.7525,-23.2127,-16.8314,-11.2009,-32.3661,-6.7153,-18.3642,47.8135,-30.1292,13.5013,10.5751
-3.28296,16.1837,42.3618,-165.525,-6.02955,-176,-8.6175,3.14559,4.55094,-5.25964,3.36434,0.799445,-0.407683,1.37929,-1.44177,-11.62,-4.67465,-9.45635,32.699,-9.91085,6.50902,13.8174,-5.71895,2.45251,-3.11533e-14,3.97569e-15,-25.3906,-3.27631,-73.9462,25.8642,13.5386,-19.3832,-57.0864,7.12502,6.9352,-86.9528,-3.11533e-14,3.97569e-15,-44.7119,4.3706,75.8621,31.7766,11.4208,-33.4372,-29.3757,7.12502,-6.63625,0.500283,-37.1778,5.1059,23.6431,54.4141,-22.7999,-16.6788,-12.858,-32.1522,-6.78416,-18.8777,47.8874,-30.2979,13.5507,10.8206
-3.30008,16.1619,42.3516,-165.497,-5.80619,-176.249,-7.88532,2.75596,4.10621,-4.44497,2.99664,1.10753,-0.0251768,1.27203,-0.922886,-15.2546,-4.98157,-9.65943,33.495,-9.57611,6.06199,14.9515,-5.45551,2.26667,-6.09523e-14,-1.98785e-15,-22.0999,-2.60001,-73.3604,25.7061,13.3405,-19.878,-57.671,7.12502,6.45761,-87.5526,-6.09523e-14,-1.98785e-15,-43.7122,6.74295,74.765,31.3354,11.0147,-32.4699,-31.0041,7.12502,-5.70239,-1.10087,-38.2452,5.05021,23.2889,56.1726,-21.568,-16.6826,-15.6162,-32.1232,-6.6834,-19.2829,47.971,-30.4066,13.5814,11.0373
-3.31665,16.1472,42.3398,-165.363,-5.61538,-176.439,-7.61217,2.77293,3.96309,-4.63096,3.03863,1.06645,-0.370936,1.28236,-0.897856,-14.6238,-4.86025,-9.8708,33.3869,-9.52375,6.27441,14.7766,-5.47028,2.41611,-2.7805e-14,-1.88845e-14,-21.5163,-2.52548,-72.623,25.9719,13.1934,-20.2827,-57.7515,7.12502,6.0669,-87.6446,-2.7805e-14,-1.88845e-14,-44.7497,7.19447,73.6326,31.2627,11.0111,-30.4724,-25.2587,7.12502,-3.77361,4.68764,-39.4516,5.05568,22.9821,57.9057,-20.4226,-16.6237,-17.2798,-32.2075,-6.41538,-19.606,48.0215,-30.5637,13.3887,11.5342
-3.33659,16.1352,42.3247,-165.331,-5.50796,-176.64,-7.3267,3.17012,4.0496,-5.28011,3.5477,0.593979,-1.14397,1.48516,-1.42236,-11.9432,-4.82103,-9.59253,32.7336,-10.1137,6.67552,13.9468,-5.78276,2.49872,-8.22782e-15,1.15295e-14,-22.5712,-3.47946,-71.8339,26.6343,13.2181,-20.5011,-58.0267,7.12502,5.85599,-87.9258,-8.22782e-15,1.15295e-14,-46.3861,5.8493,72.5243,31.3457,11.4039,-29.4464,-25.8508,7.12502,-2.78281,4.11082,-40.5429,5.02102,22.6676,59.6365,-19.6039,-16.4298,-18.0259,-32.1593,-6.04698,-19.9684,48.0615,-30.805,13.0692,11.9385
-3.35935,16.1248,42.3072,-165.338,-5.45422,-176.884,-6.79091,3.31311,4.04747,-5.447,3.77448,0.320999,-1.58302,1.58568,-1.71838,-11.4489,-4.93797,-9.38496,32.5807,-10.4375,6.74018,13.7963,-5.91438,2.44889,2.02667e-14,1.87852e-14,-22.1957,-3.92437,-71.1285,27.0436,13.1064,-20.6483,-58.7676,7.12502,5.71394,-88.6706,2.02667e-14,1.87852e-14,-47.0879,5.62934,71.3863,31.1845,11.4662,-28.7042,-28.5496,7.12502,-2.06603,1.42018,-41.5689,4.84652,22.3411,61.3379,-18.8095,-16.1351,-18.1613,-32.0377,-5.80931,-20.3867,48.0584,-30.9664,12.9875,11.5339
-3.38094,16.1141,42.2882,-165.276,-5.42164,-177.098,-6.35417,3.52998,4.15423,-5.88728,4.05746,0.0120815,-2.23736,1.68442,-2.11491,-9.92656,-4.84713,-9.27897,32.2886,-10.6682,6.98934,13.3686,-6.06642,2.53839,-3.26756e-14,1.09332e-15,-22.4607,-4.13648,-70.3481,27.5016,12.7502,-20.7504,-59.0676,7.12502,5.61531,-88.9732,-3.26756e-14,1.09332e-15,-48.2953,4.9799,70.264,31.0324,11.6934,-29.4277,-30.2607,7.12502,-2.7648,-0.298854,-42.7278,4.56542,22.1182,63.0206,-17.5807,-16.3157,-18.6541,-31.9779,-5.70427,-20.7455,48.0384,-31.0224,13.0205,10.9816
-3.40064,16.1091,42.2691,-165.224,-5.47387,-177.212,-5.62373,2.83901,3.74301,-4.99855,3.28036,0.6015,-1.82586,1.38566,-1.33428,-14.0589,-4.95398,-9.55509,33.1701,-9.85819,6.33787,14.5687,-5.58798,2.34256,-2.86001e-14,-1.96797e-14,-18.7399,-2.76681,-69.8926,27.5341,12.2217,-20.8074,-58.7086,7.12502,5.56029,-88.6157,-2.86001e-14,-1.96797e-14,-47.6679,8.30479,68.7503,30.5679,10.5843,-31.5201,-31.0698,7.12502,-4.78536,-1.14384,-43.9417,4.2124,22.0811,64.6658,-16.6415,-16.6162,-17.851,-31.9197,-5.66567,-20.9473,48.0306,-31.1083,12.8933,10.9988
-3.41958,16.1053,42.2487,-165.242,-5.58033,-177.236,-5.13552,3.04402,3.96466,-5.28033,3.56464,0.327379,-2.34615,1.49849,-1.75701,-12.9355,-5.06131,-9.27377,32.8449,-10.3022,6.45824,14.2054,-5.78388,2.2967,-4.12975e-14,-2.40529e-14,-18.8424,-3.32101,-69.1893,28.1545,12.0358,-20.9786,-58.7341,7.12502,5.39496,-88.6454,-4.12975e-14,-2.40529e-14,-48.4886,7.60373,67.6057,30.4494,11.1857,-27.3329,-32.4345,7.12502,-0.741639,-2.45605,-45.0715,3.81288,22.1962,66.2306,-15.5639,-17.1622,-16.887,-31.822,-5.69144,-21.0343,48.0283,-31.1775,12.8536,10.7874
-3.43862,16.0888,42.2245,-165.252,-5.62735,-177.242,-4.57382,2.62948,3.98299,-5.1027,3.0619,0.688908,-2.52285,1.26098,-1.43478,-13.7222,-4.93998,-9.94281,33.0173,-9.79202,6.4212,14.4453,-5.60994,2.46438,1.43249e-14,-2.18663e-14,-17.1224,-1.99293,-68.6534,28.5424,11.5679,-21.2053,-59.7496,7.12502,5.17608,-89.6664,1.43249e-14,-2.18663e-14,-49.3268,9.50446,66.1024,30.2647,11.5523,-25.1577,-33.7364,7.12502,1.3593,-3.76101,-46.2126,3.49378,22.3476,67.7124,-14.9498,-18.1712,-17.5977,-31.7051,-5.66207,-21.1374,47.9852,-31.2099,12.9553,10.3663
-3.45892,16.0801,42.1969,-165.189,-5.65001,-177.325,-4.15906,3.30231,4.49333,-6.01822,3.91164,-0.0655467,-3.58229,1.58386,-2.515,-10.1563,-5.00524,-9.49532,32.2237,-10.8368,7.08865,13.4311,-6.13118,2.58042,-2.06006e-14,-1.88845e-15,-19.1372,-3.2548,-67.8397,29.3857,11.3474,-21.0574,-61.2966,7.12502,5.31897,-268.79,-2.06006e-14,-1.88845e-15,-50.6207,6.99235,64.821,30.0687,11.9154,-24.042,-34.9594,7.12502,2.43677,-4.99353,-47.4036,3.16426,22.4202,69.0525,-15.2722,-18.6997,-14.3566,-31.5803,-5.62246,-21.32,47.8524,-31.2678,12.9185,10.547
-3.48125,16.1008,42.1618,-165.107,-5.70883,-177.408,-3.62487,2.69578,4.19045,-5.03559,3.22686,0.465517,-2.95264,1.34014,-1.81638,-14.3567,-5.22079,-9.80655,33.1067,-10.2137,6.57333,14.6809,-5.71436,2.40945,-2.5842e-14,1.09332e-14,-15.2456,-2.21634,-67.3799,29.3207,11.076,-20.8054,-62.6779,7.12502,5.56226,-267.415,-2.5842e-14,1.09332e-14,-49.9005,10.1793,63.396,29.5308,10.3815,-25.069,-34.9041,7.12502,1.4449,-4.9292,-48.4906,2.58544,22.5605,70.1434,-15.0646,-19.3855,-12.7906,-31.3677,-5.63842,-21.4746,47.5987,-31.2109,13.0414,10.3868
-3.50241,16.1179,42.1236,-165.035,-5.82011,-177.409,-3.38641,2.85534,4.52521,-5.20106,3.44298,0.234116,-3.2141,1.42106,-2.25194,-13.5356,-5.30751,-9.69686,32.904,-10.5835,6.7686,14.4498,-5.87819,2.4265,-3.79679e-14,-9.93923e-15,-15.0249,-2.52641,-66.7453,29.7484,10.6652,-20.8664,-64.1595,7.12502,5.50337,-265.932,-3.79679e-14,-9.93923e-15,-50.4742,9.82938,61.9734,29.1356,9.18348,-31.3247,-29.6832,7.12502,-4.59672,0.24695,-49.5441,1.83246,22.8646,71.0591,-14.8778,-20.0685,-11.8337,-31.1297,-5.62116,-21.5329,47.2988,-31.1676,13.0821,10.4527
-3.521,16.1213,42.0869,-165.026,-5.92034,-177.375,-2.92605,2.80891,4.79412,-5.34225,3.40495,0.229665,-3.6091,1.37752,-2.43197,-13.1085,-5.25362,-9.83016,32.8869,-10.5849,6.82815,14.3583,-5.9181,2.48492,5.00689e-15,3.97569e-16,-14.544,-1.98726,-66.1484,30.192,9.67278,-20.7737,-65.7694,7.12502,5.59282,-264.324,5.00689e-15,3.97569e-16,-51.3779,9.66929,60.8633,28.9847,10.1054,-31.0536,-30.799,7.12502,-4.3349,-0.863359,-50.5535,1.23654,23.1752,71.8325,-14.9308,-20.4161,-9.76509,-30.86,-5.52182,-21.5706,46.9913,-31.0961,13.1715,10.162
-3.54012,16.1282,42.0442,-165.041,-5.95476,-177.334,-2.40716,3.13813,5.2718,-5.90152,3.84538,-0.13738,-4.4035,1.51986,-3.11614,-11.1057,-5.20046,-9.6515,32.6025,-11.0731,7.19907,13.852,-6.1934,2.57839,-1.81018e-14,-1.55052e-14,-15.4504,-2.112,-65.4535,30.7936,8.86776,-21.3701,-65.7078,7.12502,5.01701,-264.372,-1.81018e-14,-1.55052e-14,-52.4581,7.82367,59.9667,29.0222,11.4397,-30.8664,-31.4673,7.12502,-4.15408,-1.52811,-51.5432,0.817429,23.4789,72.4382,-13.5137,-20.5114,-9.67769,-30.5243,-5.44587,-21.611,46.6976,-30.928,13.2771,10.2349
-3.56028,16.1402,41.9962,-164.954,-6.05453,-177.313,-1.81704,2.76875,5.14946,-5.2799,3.44851,0.215249,-4.1483,1.38413,-2.6972,-14.2558,-5.42517,-9.70173,33.4554,-10.7807,6.70205,14.8864,-5.9574,2.33717,9.01985e-15,4.57205e-15,-12.7015,-1.50173,-64.8388,30.8344,8.34902,-24.7336,-61.9523,7.12502,1.76882,-268.075,9.01985e-15,4.57205e-15,-52.2066,9.36432,59.1389,28.9491,11.0986,-31.7603,-30.2889,7.12502,-5.01726,-0.368328,-52.6311,0.336995,23.817,72.864,-11.9104,-20.9703,-11.0227,-30.2648,-5.44788,-21.6378,46.4125,-30.82,13.0636,11.225
-3.58204,16.154,41.9499,-164.827,-6.25917,-177.298,-1.47652,2.82166,5.49335,-5.57813,3.53163,0.0905117,-4.62271,1.37962,-3.04238,-13.4465,-5.39706,-9.67812,33.4089,-10.9648,6.80355,14.7056,-6.07691,2.3639,4.45029e-14,7.95139e-15,-12.555,-1.50616,-64.1597,31.7851,9.75017,-26.9012,-60.5942,7.12502,-0.324698,-269.426,4.45029e-14,7.95139e-15,-52.9933,8.95143,57.8015,28.6371,11.0346,-30.9616,-30.9151,7.12502,-4.24607,-0.977642,-53.6566,-0.242054,24.1594,73.117,-11.0709,-21.2149,-11.3702,-30.0744,-5.44071,-21.6534,46.1291,-30.9698,12.7565,11.3194
-3.60677,16.1623,41.9018,-164.743,-6.47592,-177.226,-1.15798,2.87301,5.93841,-5.74641,3.62293,-0.0401755,-4.94225,1.38432,-3.44744,-12.8827,-5.40287,-9.61244,33.3401,-11.1805,6.98439,14.579,-6.17705,2.40435,1.73937e-16,-2.18663e-15,-12.1807,-1.6115,-63.5045,31.3313,8.20985,-27.0357,-48.67,7.12502,-0.454593,-438.649,1.73937e-16,-2.18663e-15,-53.5894,8.2608,56.8713,28.548,10.7767,-31.902,-30.3476,7.12502,-5.15411,-0.430256,-54.5557,-0.79044,24.5322,73.2424,-11.3003,-20.985,-9.7791,-29.8733,-5.50483,-21.6282,45.8898,-31.2176,12.7458,9.70871
-3.62934,16.1615,41.8504,-164.645,-6.65465,-177.138,-0.736552,3.21328,6.66835,-6.36948,4.08461,-0.50394,-5.7238,1.50142,-4.38769,-10.7888,-5.35874,-9.35755,33.0529,-11.7711,7.47181,14.0635,-6.48703,2.52135,2.81964e-14,-5.96354e-15,-13.2054,-2.10569,-62.8536,31.7986,8.40415,-24.5185,-58.8061,7.12502,1.97662,-448.777,2.81964e-14,-5.96354e-15,-54.3727,6.42924,55.6227,28.42,10.9981,-31.7423,-30.4981,7.12502,-4.99988,-0.577066,-55.4824,-1.17557,24.896,73.2485,-11.631,-20.7567,-7.98619,-29.6984,-5.71011,-21.566,45.6958,-31.5701,12.9106,7.58022
-3.64741,16.161,41.8008,-164.526,-6.90559,-177.054,-0.232025,3.2786,7.0953,-6.60572,4.21757,-0.648235,-6.2161,1.50781,-4.8193,-10.4042,-5.45309,-9.3471,33.1888,-12.1614,7.67975,14.1011,-6.67252,2.54569,-2.40405e-14,-8.84592e-15,-13.1954,-2.17742,-62.1178,32.301,8.85404,-26.9373,-57.0713,7.12502,-0.359493,-447.051,-2.40405e-14,-8.84592e-15,-54.7242,6.1089,54.0933,28.0362,10.9142,-30.865,-31.3782,7.12502,-4.15278,-1.43896,-56.4461,-1.57646,25.2824,73.1144,-11.8948,-20.5741,-6.5926,-29.5577,-5.9385,-21.456,45.5091,-32.0161,13.0087,5.85169
-3.66566,16.1688,41.7514,-164.461,-7.18613,-176.938,-4.58941,2.7082,4.73753,-2.85065,3.21045,1.74718,-0.200658,1.46691,-0.709827,-14.7565,-6.37811,-10.8134,31.9274,-11.199,6.58021,14.4259,-6.10335,2.40397,-2.96189e-14,-4.29375e-14,-5.7393,-0.530335,-59.0742,32.2651,6.94117,-27.6041,-58.713,7.12502,-1.00358,-448.69,-2.96189e-14,-4.29375e-14,-52.0646,13.1709,54.9649,27.2223,8.83279,-31.2778,-30.4653,7.12502,-4.55142,-0.53424,-57.2956,-2.05934,25.7364,72.7896,-11.9601,-20.3905,-6.3657,-29.3475,-6.11903,-21.3164,45.3011,-31.5194,14.0924,7.10237
-3.68596,16.174,41.6947,-164.371,-7.31014,-176.931,-3.78546,2.89572,4.90792,-3.43841,3.50896,1.63159,-1.22406,1.57308,-0.96357,-13.7484,-6.41155,-10.678,32.0479,-11.5896,6.59659,14.2901,-6.33103,2.34529,-4.96962e-15,1.43125e-14,-6.42325,-0.0387594,-58.1833,32.6528,6.41065,-28.4167,-56.933,7.12502,-1.78841,-446.905,-4.96962e-15,1.43125e-14,-53.0401,11.948,53.8713,27.266,9.10178,-30.8898,-30.8917,7.12502,-4.17672,-0.952949,-58.1004,-2.50169,26.0758,72.3109,-11.5867,-20.2355,-7.5323,-29.0805,-6.2264,-21.3539,45.0939,-31.6898,14.2533,6.59073
-3.70392,16.174,41.6335,-164.16,-7.46405,-176.976,-3.86726,3.05578,5.03673,-3.61323,3.70704,1.56615,-1.3367,1.65792,-1.0952,-12.6926,-6.43993,-10.7467,31.7543,-11.8686,6.85335,13.9823,-6.48173,2.44842,3.08116e-15,-1.03368e-14,-6.25767,-0.102277,-57.2886,32.7084,6.52557,-28.6069,-55.5249,7.12502,-1.97206,-445.496,3.08116e-15,-1.03368e-14,-53.5522,11.3715,52.7099,27.1882,9.33317,-30.5203,-31.6744,7.12502,-3.81986,-1.72887,-58.9846,-2.91772,26.3857,71.7119,-11.1547,-20.0894,-8.81209,-28.9521,-6.22185,-21.4231,44.9115,-31.9527,14.3309,5.95993
-3.71686,16.171,41.5754,-163.909,-7.72081,-176.897,-3.94331,3.04894,5.08195,-3.68682,3.68352,1.65186,-1.37437,1.63913,-1.03112,-12.1905,-6.38075,-10.648,31.6532,-11.9264,6.92926,13.8315,-6.51595,2.471,3.98563e-14,5.24792e-14,-5.43603,-0.21056,-56.5923,32.6677,7.36207,-27.6968,-56.7205,7.12502,-1.09304,-446.697,3.98563e-14,5.24792e-14,-54.0137,11.3693,51.3798,27.0262,9.3879,-30.4709,-31.9661,7.12502,-3.77225,-2.01973,-59.839,-3.21235,26.8172,70.9903,-11.0371,-19.9071,-8.49824,-28.9761,-6.10532,-21.3062,44.7606,-32.0297,14.082,5.72783
-3.73256,16.1673,41.5163,-163.718,-8.03645,-176.898,-2.89812,3.04329,5.43621,-4.13669,3.75268,1.4754,-2.38856,1.62722,-1.47254,-12.3999,-6.41189,-10.336,32.1919,-12.17,6.82281,14.1113,-6.61986,2.31765,-3.37934e-14,-4.6118e-14,-4.94809,-0.637774,-56.2125,32.52,8.28289,-27.0108,-58.5703,7.12502,-0.430473,-448.55,-3.37934e-14,-4.6118e-14,-54.5021,10.824,49.9185,26.8864,9.52783,-30.7454,-31.693,7.12502,-4.03728,-1.75147,-60.5848,-3.62922,27.1611,70.2046,-10.9291,-19.5525,-8.7259,-28.931,-6.1122,-21.2799,44.6146,-32.0722,13.8866,5.24952
-3.75152,16.1686,41.4544,-163.55,-8.38563,-177.056,-3.35344,2.99363,5.19798,-3.65749,3.65972,1.6792,-1.67008,1.6238,-1.09786,-12.7149,-6.65405,-10.2368,31.9326,-12.3192,6.61283,14.0592,-6.64872,2.18397,-4.37326e-15,-2.54444e-14,-3.43252,-1.06941,-55.2598,32.3203,7.83757,-28.4096,-59.3803,7.12502,-1.78153,-449.353,-4.37326e-15,-2.54444e-14,-54.2823,11.5528,48.9134,26.6262,9.2408,-30.5096,-31.802,7.12502,-3.80955,-1.85627,-61.3138,-4.20785,27.3121,69.3727,-10.9887,-18.8933,-10.3456,-28.7838,-6.23806,-21.4383,44.4113,-32.0073,13.8042,5.00621
-3.76721,16.1667,41.3911,-163.413,-8.66022,-177.163,-3.92888,3.0557,5.0363,-3.5125,3.6944,1.82328,-1.21567,1.65597,-0.825835,-11.3266,-6.71958,-10.357,31.1629,-12.5061,6.77331,13.463,-6.77099,2.29982,9.59136e-14,3.02153e-14,-3.00354,-1.19332,-54.2406,32.3559,7.64093,-29.925,-59.9714,7.12502,-3.24501,-449.926,9.59136e-14,3.02153e-14,-54.5005,11.5407,47.7977,26.4375,8.9929,-29.0615,-32.5363,7.12502,-2.41109,-2.57015,-61.9653,-4.61487,27.4488,68.458,-10.8642,-18.122,-10.9248,-28.5605,-6.30496,-21.555,44.1326,-31.9246,13.914,4.85682
-3.78428,16.1662,41.3183,-163.344,-9.14296,-177.273,-3.1616,2.54209,4.9503,-2.92015,3.07667,2.21409,-1.09011,1.37881,-0.420276,-14.437,-6.96382,-10.586,31.931,-12.1921,6.36168,14.4366,-6.53372,2.10145,7.35503e-15,2.94201e-14,-0.258834,-1.20898,-53.6452,32.1196,8.52075,-29.6301,-61.7326,7.12502,-2.96023,-628.308,7.35503e-15,2.94201e-14,-54.5572,13.8436,46.1021,26.0577,8.34639,-29.5492,-31.6157,7.12502,-2.88207,-1.65541,-62.4458,-5.16572,27.6273,67.4555,-10.6219,-17.4649,-10.8665,-28.1904,-6.4342,-21.6281,43.7775,-31.9491,13.9904,4.57459
-3.80075,16.174,41.2403,-163.266,-9.87012,-177.455,-3.01947,2.27541,5.01927,-3.1367,2.72586,2.32409,-1.4103,1.18764,-0.364862,-13.4293,-6.79859,-10.8345,31.7529,-12.113,6.51095,14.1543,-6.57205,2.25662,2.64384e-14,2.3059e-14,-0.0932929,-0.191781,-52.8937,32.329,7.58178,-29.7905,-60.0335,7.12502,-3.1151,-449.99,2.64384e-14,2.3059e-14,-55.3543,13.8012,44.4672,25.768,7.99156,-29.7102,-31.3193,7.12502,-3.03756,-1.36114,-62.9048,-5.90335,27.7814,66.3634,-10.3255,-16.9883,-11.9007,-27.8128,-6.65503,-21.6996,43.407,-31.9734,13.8039,4.24135
-3.80866,16.1818,41.1665,-163.229,-10.4499,-177.57,-2.29461,2.34223,5.3818,-3.74778,2.87743,1.9602,-2.40758,1.21511,-0.975978,-11.859,-6.75794,-10.5121,31.6515,-12.6311,6.8596,13.8244,-6.82719,2.30791,-4.87022e-15,4.13472e-14,-1.12276,-0.249031,-52.4709,32.5154,7.55301,-21.4566,-70.1108,7.12502,4.93346,-619.967,-4.87022e-15,4.13472e-14,-55.5502,12.0558,43.1163,25.6651,8.22139,-29.525,-31.6872,7.12502,-2.85873,-1.72663,-63.3258,-6.42075,27.9452,65.1796,-9.83135,-16.5769,-12.8844,-27.4292,-6.77399,-21.7104,43.0775,-31.9723,13.6856,3.74081
-3.81458,16.181,41.0983,-163.186,-10.6275,-177.572,-2.3063,2.71401,5.27234,-3.91399,3.36956,1.92677,-2.54992,1.45237,-0.948007,-10.1617,-6.99297,-10.4935,31.0344,-13.3123,7.20513,13.2961,-7.16211,2.39953,1.87852e-14,2.70347e-14,-1.71747,-0.759973,-51.3685,32.6343,7.52441,-31.5924,-57.6482,7.12502,-4.85514,-447.573,1.87852e-14,2.70347e-14,-55.0734,10.7365,42.513,25.51,8.36399,-29.3057,-31.631,7.12502,-2.6469,-1.66771,-63.7704,-6.59592,28.0979,63.9702,-9.2671,-15.9591,-12.9305,-27.0685,-6.67174,-21.7255,42.794,-31.9005,13.9292,3.01567
-3.82531,16.1706,41.0327,-162.997,-10.4718,-177.542,-2.19256,2.70506,5.09299,-3.91104,3.36079,2.17176,-2.63515,1.44997,-0.602421,-9.86781,-6.90211,-10.6291,30.8814,-13.1507,7.17622,13.1573,-7.12165,2.45337,-4.27387e-14,-2.22639e-14,-0.918648,-0.288312,-50.6598,32.7538,7.6741,-30.8236,-60.0443,7.12502,-4.11282,-449.984,-4.27387e-14,-2.22639e-14,-55.4639,10.6882,41.4347,25.4667,8.56353,-29.3001,-30.9522,7.12502,-2.64151,-0.988857,-64.3643,-6.50367,28.1779,62.7558,-9.45926,-15.067,-10.4058,-26.8794,-6.55622,-21.7966,42.5632,-31.8373,14.3292,2.3216
-3.83422,16.1633,40.9611,-162.786,-10.4942,-177.629,-2.68306,2.39191,4.65351,-2.8654,2.90053,2.75291,-1.35054,1.28958,0.273469,-12.3273,-7.07639,-10.972,31.0016,-12.6198,6.77914,13.6751,-6.79254,2.34722,-1.15295e-14,-1.90833e-14,2.18828,-0.327341,-49.8357,32.5248,7.97851,-30.1171,-61.4613,7.12502,-3.43055,-628.587,-1.15295e-14,-1.90833e-14,-55.248,13.074,40.2483,25.0849,8.14637,-29.4715,-31.4076,7.12502,-2.80709,-1.44637,-64.8998,-6.52786,28.1581,61.5088,-8.47274,-14.3772,-11.1179,-26.6738,-6.54861,-21.9044,42.3046,-31.9351,14.2839,2.40432
-3.83876,16.1621,40.8833,-162.649,-10.7477,-177.801,-2.06093,2.48188,4.63177,-3.27278,3.07837,2.58959,-2.10696,1.35696,0.0864321,-11.573,-7.07793,-10.652,31.0797,-12.9188,6.77104,13.552,-6.94616,2.26765,2.14687e-14,-8.74653e-15,1.71051,-0.251825,-49.3213,32.6671,7.94648,-30.5443,-62.107,7.12502,-3.8431,-627.948,2.14687e-14,-8.74653e-15,-55.108,12.0068,39.0037,24.9541,8.28036,-29.3401,-30.6256,7.12502,-2.68021,-0.662695,-65.2915,-6.72168,28.072,60.2387,-7.15317,-13.889,-12.8447,-26.3421,-6.55371,-22.0212,41.9839,-32.117,13.9141,2.98809
-3.84335,16.1689,40.8006,-162.575,-11.0465,-177.894,-1.64709,2.53966,4.74659,-3.70695,3.18864,2.45688,-2.77213,1.38316,-0.139001,-10.092,-7.01426,-10.5457,30.9369,-13.2399,6.96678,13.215,-7.15356,2.33476,1.13307e-14,-1.51076e-14,1.08969,0.0173953,-48.883,32.8294,7.9607,-30.952,-59.2244,7.12502,-4.23678,-449.162,1.13307e-14,-1.51076e-14,-55.1481,10.7697,37.7061,24.8644,8.48056,-28.3955,-32.3115,7.12502,-1.76785,-2.33909,-65.5756,-6.98857,28.0606,58.9701,-6.32625,-13.327,-12.9414,-25.8942,-6.55704,-22.0557,41.606,-32.2917,13.7538,2.77915
-3.8476,16.1757,40.7158,-162.462,-11.4634,-177.95,-1.16539,2.15997,4.80392,-3.01341,2.72213,2.71769,-2.35234,1.18392,0.0909643,-12.9508,-7.35996,-10.68,31.4946,-13.1649,6.73112,14.0625,-6.98245,2.14765,3.65764e-14,-4.92986e-14,3.7157,-0.848145,-48.6937,32.7212,10.111,-28.3122,-60.6139,7.12502,-1.68748,-269.413,3.65764e-14,-4.92986e-14,-54.7452,12.4391,36.3375,24.6819,8.19843,-26.7975,-35.4882,7.12502,-0.22446,-5.5086,-65.911,-7.35143,28.1093,57.7578,-5.70392,-12.7067,-12.4128,-25.4817,-6.60025,-22.0056,41.2039,-32.4401,13.6607,2.13232
-3.85244,16.1674,40.6295,-162.292,-11.9349,-178.11,-1.26259,2.34879,4.94496,-3.41922,2.97317,2.44612,-2.68844,1.28639,-0.270259,-10.5133,-7.38902,-10.4509,30.6101,-13.7289,7.23148,13.2394,-7.27102,2.32392,1.37161e-14,5.56597e-15,2.71919,-0.971148,-48.2568,32.607,9.70896,-21.8928,-71.514,7.12502,4.51232,-258.554,1.37161e-14,5.56597e-15,-54.0647,10.8636,35.2518,24.4654,7.95538,-29.8142,-28.0149,7.12502,-3.13802,1.94176,-66.316,-7.66217,27.9745,56.6137,-4.8788,-12.2368,-12.7178,-25.1492,-6.72596,-22.0349,40.8304,-32.5609,13.4145,1.94429
-3.85655,16.1575,40.5399,-162.14,-12.4371,-178.327,-0.685041,2.2169,4.92839,-3.66953,2.84753,2.4318,-3.27903,1.2069,-0.301149,-10.3189,-7.39408,-10.4125,30.7181,-13.851,7.26219,13.257,-7.3381,2.31506,-3.47873e-14,-3.18055e-14,2.71446,-0.466947,-47.8006,32.5006,9.01616,-21.6376,-72.5707,7.12502,4.75875,-257.503,-3.47873e-14,-3.18055e-14,-53.7859,10.46,33.9158,24.171,7.48109,-28.918,-30.2407,7.12502,-2.27256,-0.27303,-66.6195,-7.79402,27.6052,55.5023,-4.16771,-12.1355,-13.2101,-24.7805,-6.92105,-22.0938,40.4617,-32.8523,13.0714,2.26441
-3.85656,16.1536,40.4507,-161.937,-12.9071,-178.535,-1.37014,2.26791,4.47565,-3.49788,2.8553,2.63487,-2.74495,1.23724,0.187128,-9.17138,-7.51417,-10.5008,30.0982,-14.1086,7.39882,12.8028,-7.48901,2.40168,-8.94531e-15,-1.82882e-14,2.92943,-0.621817,-46.9217,32.3869,9.19177,-24.1078,-69.5938,7.12502,2.37321,-260.44,-8.94531e-15,-1.82882e-14,-52.9872,10.2438,33.1395,23.8633,7.10488,-28.6836,-30.9989,7.12502,-2.04617,-1.02894,-66.925,-7.80272,27.1775,54.4161,-3.65278,-12.3079,-13.3972,-24.4775,-7.14028,-22.1075,40.0951,-32.872,12.6349,2.25263
-3.85664,16.1507,40.3603,-161.628,-13.2835,-178.799,-1.28746,1.75209,4.17611,-2.44473,2.16589,3.06911,-1.75052,0.947742,0.813179,-13.0363,-7.85905,-10.8099,30.8028,-13.7432,6.9957,13.8817,-7.15464,2.17411,2.3059e-14,1.74931e-14,6.60945,-1.1431,-46.7667,31.701,10.0344,-29.039,-64.9679,7.12502,-2.38933,-265.066,2.3059e-14,1.74931e-14,-52.5338,13.1521,31.5967,23.4935,6.36141,-28.3708,-31.5909,7.12502,-1.74403,-1.61828,-67.3305,-7.91367,26.792,53.3223,-3.14806,-12.3145,-13.5448,-24.3132,-7.23811,-22.2103,39.8655,-33.0565,12.3722,1.82761
-3.85651,16.1484,40.2653,-161.258,-13.5915,-179.039,-1.53612,1.89015,3.99196,-2.57378,2.3373,3.0099,-1.7458,1.03405,0.860796,-12.0414,-7.99581,-10.7828,30.4033,-14.1474,7.23274,13.5601,-7.34553,2.23877,1.05356e-14,1.59028e-14,6.10652,-1.13006,-46.1114,31.7521,9.52674,-26.7031,-66.14,7.12502,-0.133316,-263.88,1.05356e-14,1.59028e-14,-51.5228,12.7258,30.4936,23.1509,5.79047,-28.1244,-32.2936,7.12502,-1.50603,-2.3192,-67.7833,-7.96185,26.4067,52.2731,-2.80155,-12.2337,-13.1604,-24.1725,-7.21657,-22.3241,39.5654,-33.139,12.4625,0.823246
-3.86871,16.1162,40.2001,-160.43,-12.9446,-178.925,-1.68837,2.21548,4.1241,-2.93378,2.75438,2.9499,-2.0169,1.22197,0.727049,-11.3789,-7.9921,-10.8213,30.2129,-14.3036,7.42548,13.3757,-7.4347,2.32461,-3.4191e-14,1.43125e-14,6.42412,-1.23831,-45.8858,31.7542,11.0001,-28.6319,-63.1937,7.12502,-1.99625,-266.836,-3.4191e-14,1.43125e-14,-50.9395,12.484,29.2015,22.8895,5.27036,-28.2274,-33.4645,7.12502,-1.60551,-3.49083,-68.9734,-7.2789,26.3229,51.1596,-2.03318,-11.8108,-13.0161,-24.8181,-7.2717,-22.4016,39.4194,-32.9084,13.6115,-0.14226
-3.86729,16.1234,40.0932,-160.323,-13.6726,-179.226,-1.69686,2.18216,4.05087,-3.18958,2.71541,2.86174,-2.27589,1.19493,0.673188,-9.75926,-8.01093,-10.8175,29.6989,-14.6756,7.7928,12.8932,-7.64955,2.48383,3.71727e-14,-1.59028e-15,5.97275,-0.931657,-45.5167,31.2742,10.0535,-26.2357,-68.1877,7.12502,0.318065,-261.833,3.71727e-14,-1.59028e-15,-49.9157,10.9794,28.7469,22.9706,5.94238,-28.1553,-33.4285,7.12502,-1.53591,-3.45431,-68.9443,-7.57279,25.8163,50.1221,-1.77811,-12.1571,-13.0683,-24.4116,-6.97791,-22.4878,39.1547,-33.0522,13.0709,-0.924803
-3.87815,16.1087,39.9941,-159.987,-13.4551,-179.293,-1.46159,1.92362,4.06228,-2.3542,2.37498,3.16773,-1.56481,1.0561,0.984894,-13.3063,-8.31419,-11.0752,30.5067,-14.3792,7.40849,13.9512,-7.36332,2.25102,-6.08281e-14,-3.02153e-14,8.67788,-1.07035,-45.3253,30.9452,10.1141,-28.6153,-70.7772,7.12502,-1.98015,-259.252,-6.08281e-14,-3.02153e-14,-49.3256,12.3726,28.4433,23.3263,7.38913,-28.9987,-31.707,7.12502,-2.35042,-1.7402,-69.3581,-7.48942,25.6996,49.062,-1.26507,-11.793,-13.4292,-24.2719,-6.15017,-22.688,38.9495,-33.3094,12.8184,-0.96221
-3.86631,16.0972,39.9055,-159.294,-14.2382,-179.671,-1.97816,1.82155,3.75809,-2.74908,2.20884,3.18787,-1.69564,0.966494,1.18475,-11.4732,-8.25246,-11.1662,29.9571,-14.6131,7.67956,13.3803,-7.54852,2.42125,6.75868e-15,2.8625e-14,8.14881,-0.586494,-44.8261,31.0113,9.97747,-26.5014,-66.8844,7.12502,0.0614563,-263.136,6.75868e-15,2.8625e-14,-48.4433,11.7298,27.2917,23.0896,5.99948,-28.79,-31.7281,7.12502,-2.14886,-1.75917,-70.0682,-7.80074,25.205,48.116,-0.829535,-12.1248,-13.2486,-24.5245,-5.98595,-22.7393,38.6135,-33.3542,12.2352,-1.29943
-3.86605,16.0897,39.794,-159.197,-14.5264,-179.811,-1.82702,1.66682,3.76515,-2.38611,2.00702,3.33024,-1.41281,0.877589,1.32573,-12.4358,-8.44608,-11.2641,30.1142,-14.6805,7.58995,13.6639,-7.53029,2.34175,-2.5842e-14,4.13472e-14,9.45626,-0.884576,-44.7108,30.698,11.3626,-27.3336,-66.0593,7.12502,-0.742267,-263.962,-2.5842e-14,4.13472e-14,-47.4299,12.1792,26.5772,23.0032,6.02073,-28.2355,-33.3644,7.12502,-1.61334,-3.39071,-70.0693,-7.71405,24.7214,47.2603,-0.562201,-12.3931,-12.5104,-24.006,-6.14666,-22.7629,38.3045,-33.6694,12.2873,-1.28437
-3.86457,16.0797,39.7004,-158.751,-14.8653,-179.949,-1.79533,1.82413,3.83724,-2.86874,2.22388,3.21334,-1.91969,0.966693,1.16019,-10.9504,-8.44035,-11.045,29.8314,-15.009,7.6505,13.2497,-7.73661,2.34716,-1.47101e-14,-1.27222e-14,8.61912,-0.943479,-44.4903,30.7553,12.5575,-29.353,-64.1339,7.12502,-2.69262,-265.903,-1.47101e-14,-1.27222e-14,-46.1032,10.6016,26.2203,23.152,6.49273,-29.032,-32.4742,7.12502,-2.3826,-2.50777,-70.5354,-7.7102,24.347,46.5249,-0.229046,-12.7806,-11.233,-23.9924,-6.35226,-22.7278,37.9627,-33.5111,12.492,-2.15908
-3.8576,16.0656,39.6083,-158.24,-15.3527,-180.297,-1.60409,1.77449,3.68632,-3.02787,2.17693,3.19518,-2.19643,0.941511,1.21802,-10.9238,-8.53728,-10.9499,29.8233,-15.1815,7.64088,13.2518,-7.80073,2.29925,4.53229e-14,-5.88403e-14,8.50711,-1.01063,-44.2122,30.8248,12.8248,-30.5886,-55.421,7.12502,-3.88584,-445.365,4.53229e-14,-5.88403e-14,-44.7641,10.1702,25.6761,23.1942,6.30522,-29.2814,-32.1114,7.12502,-2.62346,-2.14781,-71.0633,-7.84088,23.7537,45.9056,0.339772,-13.3444,-10.8431,-23.9501,-6.70355,-22.8091,37.516,-33.3342,12.4595,-2.62436
-3.84369,16.0564,39.5014,-157.949,-15.966,-180.797,-1.83224,1.36448,3.10279,-2.20339,1.60875,3.5955,-1.24938,0.696344,1.9671,-12.8054,-8.83245,-11.3069,29.7701,-15.0399,7.55994,13.642,-7.63547,2.25782,2.14687e-14,3.33958e-14,10.8095,-1.48903,-43.9002,30.4407,13.3228,-27.632,-69.8238,7.12502,-1.03053,-620.199,2.14687e-14,3.33958e-14,-43.6863,11.8154,25.1654,23.164,5.9114,-28.8856,-32.1497,7.12502,-2.2412,-2.18176,-71.232,-8.03357,22.926,45.385,0.636541,-14.0528,-10.7003,-23.518,-6.87983,-22.9834,37.039,-33.3767,12.2261,-3.41809
-3.83544,16.0535,39.386,-157.902,-16.4694,-181.116,-1.53706,1.31751,2.9437,-2.42611,1.57268,3.58717,-1.64789,0.676612,2.03937,-11.3157,-8.83019,-11.36,29.2481,-15.2925,7.8079,13.1632,-7.8061,2.39697,-5.84427e-14,1.59028e-14,10.5162,-1.21408,-43.6675,30.2366,13.3096,-28.2164,-68.5678,7.12502,-1.59491,-621.458,-5.84427e-14,1.59028e-14,-42.416,10.5155,24.8194,23.3696,6.06952,-29.2126,-32.4436,7.12502,-2.55708,-2.47918,-71.1183,-8.18868,22.3182,44.9442,0.387434,-14.7225,-9.66352,-22.8251,-6.86954,-23.0483,36.5603,-33.4993,11.9407,-4.11408
-3.83551,16.0422,39.2743,-157.857,-16.8205,-181.23,-1.18489,1.20477,3.13378,-2.20264,1.4359,3.69895,-1.61198,0.608617,2.04301,-11.7015,-8.96862,-11.4942,29.1039,-15.35,7.86825,13.211,-7.79906,2.41304,2.18663e-14,-4.77083e-15,11.2476,-1.11749,-43.5104,29.7767,12.6037,-30.3219,-69.1876,7.12502,-3.62832,-620.864,2.18663e-14,-4.77083e-15,-41.1198,10.5132,24.4034,23.4771,5.83549,-30.5231,-33.218,7.12502,-3.82265,-3.27256,-71.1451,-8.32899,22.0701,44.5881,0.382013,-15.1765,-9.84803,-22.2397,-6.99216,-22.9733,36.1291,-33.6351,11.6162,-3.70307
-3.83642,16.0229,39.1682,-157.643,-17.0645,-181.259,-0.941089,1.16346,3.35481,-2.36877,1.39104,3.79801,-1.91686,0.574287,2.01711,-10.9268,-8.8707,-11.6545,28.7754,-15.2819,8.00406,12.9306,-7.81187,2.54665,-4.73108e-14,7.31528e-14,11.4547,-0.824568,-43.4433,29.3329,12.6125,-32.0181,-58.8546,7.12502,-5.26618,-448.769,-4.73108e-14,7.31528e-14,-39.9789,9.7846,24.0158,23.5914,5.75197,-31.3766,-34.0451,7.12502,-4.6468,-4.11604,-71.4463,-8.40674,21.9934,44.2948,0.364887,-15.4914,-10.2105,-21.9518,-7.23603,-22.8287,35.8353,-33.8854,11.533,-3.19605
-3.83837,15.9981,39.0627,-157.343,-17.1495,-181.388,-0.661425,1.14745,3.50002,-2.2925,1.38513,3.83146,-1.99296,0.569031,1.96623,-11.3027,-8.93484,-11.5864,28.7105,-15.2793,7.99148,12.9751,-7.77258,2.51394,3.45885e-14,1.00187e-13,12.0681,-1.0611,-43.5278,28.934,13.179,-29.5562,-63.4971,7.12502,-2.88883,-626.543,3.45885e-14,1.00187e-13,-38.4894,9.69245,23.6413,23.6313,5.61646,-31.4056,-34.8825,7.12502,-4.6748,-4.95405,-71.8439,-8.51749,21.9148,44.0413,-0.0522261,-15.5648,-9.68015,-21.7769,-7.46919,-22.8565,35.7357,-33.9729,11.7353,-3.83483
-3.84181,15.9637,38.9594,-156.956,-17.1477,-181.522,-0.503706,1.2049,3.81523,-2.20583,1.47464,3.71199,-1.98211,0.610352,1.66359,-11.4826,-9.10546,-11.4841,28.465,-15.5098,8.17883,12.9496,-7.81627,2.52092,3.97569e-16,-6.36111e-15,12.4998,-1.27261,-43.6334,28.6186,13.2999,-26.4348,-70.7965,7.12502,0.125788,-619.224,3.97569e-16,-6.36111e-15,-36.7431,9.10278,23.473,23.864,5.77721,-31.6198,-35.4877,7.12502,-4.88158,-5.56393,-72.4506,-8.70828,21.9997,43.9211,-0.258292,-15.3154,-9.93248,-21.6507,-7.55042,-22.9403,35.5498,-34.0677,12.0345,-4.37391
-3.84533,15.9279,38.8564,-156.469,-17.0882,-181.469,-0.252223,1.37304,4.1633,-2.446,1.71868,3.68379,-2.36107,0.713268,1.43144,-11.145,-9.22014,-11.5085,28.3476,-15.7701,8.30205,12.8778,-7.93647,2.54259,-1.27222e-14,-7.79236e-14,12.3491,-0.979377,-43.4443,28.5502,13.0888,-26.8008,-68.7033,7.12502,-0.227691,-621.317,-1.27222e-14,-7.79236e-14,-35.159,7.50645,23.609,24.2732,6.24444,-32.244,-36.6322,7.12502,-5.48428,-6.72313,-73.2352,-8.75661,22.2796,43.8579,-0.320336,-15.0319,-9.86313,-21.7297,-7.5049,-22.8524,35.3463,-34.256,12.1718,-4.06215
-3.82651,15.9312,38.7104,-156.807,-17.8866,-181.829,0.50669,0.906841,4.02925,-2.18,1.14403,3.9488,-2.52535,0.434876,1.78044,-11.7985,-9.18059,-11.7303,28.5886,-15.5292,8.14375,13.0895,-7.8317,2.5247,1.19271e-14,-3.49861e-14,13.1032,-0.377479,-43.4336,28.4563,13.162,-26.5208,-68.5914,7.12502,0.0426991,-621.429,1.19271e-14,-3.49861e-14,-34.2667,6.72107,23.4537,24.7296,6.66766,-32.6306,-37.3663,7.12502,-5.85762,-7.46727,-72.5958,-9.09764,21.7507,43.8998,-0.95043,-15.6354,-9.678,-20.6395,-7.21324,-22.8303,35.1008,-34.5602,11.2562,-3.74811
-3.81642,15.9084,38.5867,-156.642,-18.1941,-182.047,-0.384335,1.0913,3.58301,-1.75849,1.30021,4.16944,-1.60416,0.532115,2.26757,-10.28,-9.38088,-11.6045,27.3503,-15.848,8.31753,12.3158,-7.98882,2.61061,-4.77083e-14,2.8625e-14,13.1095,-0.871772,-42.9077,28.1984,13.5989,-28.6099,-64.2521,7.12502,-1.97498,-625.777,-4.77083e-14,2.8625e-14,-31.9541,6.2914,23.7984,24.9263,6.45855,-32.6323,-37.1397,7.12502,-5.85919,-7.24071,-72.8221,-9.34674,21.7039,43.9248,-0.768064,-15.6119,-10.5598,-20.2397,-6.84506,-22.8781,34.9569,-34.6154,11.594,-5.03415
-3.81762,15.8622,38.4851,-155.949,-18.0009,-181.981,0.186152,1.01513,4.21176,-2.11005,1.25132,4.09989,-2.27218,0.482704,1.83666,-10.5931,-9.25162,-11.7175,27.5533,-15.6607,8.39662,12.4562,-7.89822,2.671,-2.8625e-14,-9.54166e-15,13.7689,-0.369225,-43.3789,27.8738,13.6696,-30.2876,-60.1505,7.12502,-3.59516,-629.9,-2.8625e-14,-9.54166e-15,-31.0126,5.47282,23.2129,25.2952,6.36335,-33.0415,-37.105,7.12502,-6.25424,-7.2173,-73.9377,-9.3606,22.151,43.9663,-0.266046,-15.1599,-10.6049,-20.5417,-6.69442,-22.8671,34.8195,-34.571,12.4516,-5.84129
-3.81349,15.8256,38.3721,-155.497,-18.0472,-182.092,-0.309578,1.19676,4.12007,-1.87578,1.43644,4.24531,-1.75754,0.581546,2.04347,-10.0684,-9.38615,-11.7072,26.8548,-15.8036,8.56357,12.1045,-7.94585,2.74339,-5.80451e-14,-8.11041e-14,13.9709,-0.41804,-42.891,27.7528,13.4038,-29.5899,-61.748,7.12502,-2.92141,-628.292,-5.80451e-14,-8.11041e-14,-28.934,5.02086,23.4596,25.361,5.81496,-33.976,-37.4229,7.12502,-7.15637,-7.56387,-74.5681,-9.45633,22.2786,44.0408,-0.233447,-15.0473,-10.1829,-20.5546,-6.66863,-22.9174,34.764,-34.8678,12.3527,-4.93884
-3.80501,15.7953,38.2492,-155.116,-18.1872,-182.376,0.999866,0.97141,4.54314,-2.12898,1.26387,4.05692,-2.74309,0.477155,1.59683,-11.4597,-9.33482,-11.4252,27.5546,-15.6345,8.33587,12.5992,-7.79997,2.56345,-4.6118e-14,-4.6118e-14,14.3502,-0.0388137,-43.4118,27.667,13.2534,-28.9222,-62.9847,7.12502,-2.27653,-627.048,-4.6118e-14,-4.6118e-14,-27.6745,4.22856,22.8073,25.6774,5.7334,-34.5383,-37.8134,7.12502,-7.69911,-7.97355,-75.0432,-9.6371,22.2341,44.2084,-0.198039,-15.0104,-10.6057,-20.3895,-6.56599,-23.0693,34.6463,-34.7856,12.9137,-6.95856
-3.7971,15.775,38.1141,-154.95,-18.5627,-182.689,0.552014,0.742643,4.15244,-1.39701,0.867008,4.56464,-1.7503,0.301084,2.35473,-11.859,-9.44482,-11.8661,26.8636,-15.383,8.3932,12.4209,-7.66304,2.68717,-3.89618e-14,-7.95139e-15,15.8147,-0.00159763,-42.9624,27.4551,13.3089,-29.5419,-62.179,7.12502,-2.87501,-627.861,-3.89618e-14,-7.95139e-15,-26.2422,5.00916,23.0195,25.9746,5.48492,-34.6731,-37.7629,7.12502,-7.82924,-7.92787,-75.2192,-10.0257,22.1875,44.4513,-0.270416,-14.9823,-10.6809,-19.8764,-6.70815,-23.1439,34.4987,-34.9673,13.1562,-7.6162
-3.7869,15.7557,37.9737,-154.968,-19.134,-183.038,0.731664,0.472881,4.0183,-0.848015,0.47606,4.89092,-1.28536,0.111284,2.77353,-12.1638,-9.62356,-12.1502,26.2922,-15.3831,8.55039,12.2986,-7.62501,2.78028,2.46493e-14,1.59028e-14,17.0447,-0.152668,-42.8789,26.9753,13.8689,-30.5989,-61.0567,7.12502,-3.89579,-628.999,2.46493e-14,1.59028e-14,-24.644,5.20082,23.1593,26.2795,5.19148,-35.2799,-36.7118,7.12502,-8.41487,-6.89942,-75.159,-10.5927,22.1466,44.7672,-0.651844,-15.0005,-9.48509,-19.1045,-7.05616,-23.1493,34.3116,-35.266,13.0339,-6.81683
-3.78371,15.7027,37.8648,-154.131,-18.7422,-183.147,0.292391,0.810046,3.97657,-1.12598,0.906684,4.8177,-1.3322,0.323452,2.71709,-10.3003,-9.65107,-11.9864,25.2926,-15.6593,8.79647,11.5763,-7.79618,2.90352,1.19271e-14,-2.22639e-14,16.6699,-0.31964,-42.9591,26.8559,13.787,-32.446,-57.4866,7.12502,-5.67936,-807.39,1.19271e-14,-2.22639e-14,-22.6094,3.71653,23.3022,26.3774,4.15506,-36.6579,-38.7239,7.12502,-9.74457,-8.96929,-76.4606,-10.6378,22.6613,45.0272,-0.576381,-14.4094,-9.05599,-19.5242,-7.06415,-23.3112,34.249,-35.1953,13.7985,-7.10379
-3.77957,15.6634,37.7427,-153.509,-18.6503,-183.307,1.12998,0.933147,4.43723,-1.80349,1.18601,4.51896,-2.49236,0.440524,2.13561,-9.31818,-9.59321,-11.6007,25.2172,-15.863,8.79694,11.341,-7.92109,2.86394,-3.97569e-15,-2.22639e-14,15.8432,-0.0675291,-43.4607,26.8058,13.8759,-33.3753,-58.033,7.12502,-6.57651,-807.911,-3.97569e-15,-2.22639e-14,-20.8119,1.83099,22.8675,27.2796,4.6013,-35.5869,-38.0403,7.12502,-8.71121,-8.24006,-77.3535,-10.7622,23.002,45.3546,-0.523808,-14.1871,-9.60482,-19.6904,-6.90803,-23.3717,34.2038,-35.2262,14.0542,-9.01194
-3.77548,15.6318,37.612,-153.111,-18.8468,-183.383,1.13913,0.679803,4.72798,-1.10202,0.795957,4.86119,-1.77172,0.249448,2.33843,-11.3699,-9.76053,-11.8267,25.3517,-15.5821,8.60867,11.7713,-7.69275,2.7684,1.59028e-14,1.1291e-13,17.7962,-0.273879,-43.6051,26.2839,14.772,-33.2616,-59.0779,7.12502,-6.46673,-808.959,1.59028e-14,1.1291e-13,-19.499,2.96735,22.689,25.9642,2.03929,-36.8825,-50.1997,7.12502,-9.96128,-20.4554,-77.8853,-10.9774,23.3914,45.7081,-0.455921,-14.1231,-10.0267,-19.6618,-6.77748,-23.1894,34.255,-35.3748,13.9207,-9.99956
-3.76816,15.5999,37.474,-152.84,-19.151,-183.622,1.18883,0.569301,4.87344,-0.660163,0.614899,5.03404,-1.34266,0.161563,2.43984,-11.9137,-9.87687,-11.8163,25.0015,-15.5138,8.57203,11.7333,-7.61274,2.74199,-2.70347e-14,-1.59028e-15,18.7474,-0.611925,-43.7171,26.1534,14.8593,-30.4771,-61.3293,7.12502,-3.77824,-988.724,-2.70347e-14,-1.59028e-15,-17.523,2.40243,22.8812,27.1836,3.41891,-37.5669,-43.9776,7.12502,-10.6215,-14.266,-78.2711,-11.4015,23.7416,46.1552,-0.671641,-13.9883,-10.2957,-19.3596,-6.64287,-23.0859,34.269,-35.5948,13.4044,-10.3313
-3.75705,15.5632,37.3355,-152.507,-19.3208,-183.974,1.09179,0.660891,4.5895,-0.572487,0.713384,5.15993,-1.20364,0.213273,2.72734,-10.495,-9.87061,-11.5943,23.9539,-15.5747,8.65673,11.0516,-7.67027,2.81529,6.20208e-14,-2.54444e-14,18.5469,-0.677262,-43.5372,26.1799,14.8625,-34.5829,-50.6166,7.12502,-7.74223,-1160.45,6.20208e-14,-2.54444e-14,-15.3783,1.63217,23.0085,26.9628,2.28683,-38.3534,-45.6786,7.12502,-11.3801,-16.0074,-78.7484,-11.8142,24.044,46.6436,-1.22083,-13.7493,-10.7862,-19.1143,-6.5434,-23.1155,34.3214,-35.8227,12.8149,-10.6379
-3.7473,15.5181,37.2077,-151.953,-19.2867,-184.174,1.84255,0.449164,4.88013,-0.524361,0.487557,5.25172,-1.57108,0.0901461,2.66383,-11.3936,-9.78478,-11.6664,24.0342,-15.2468,8.59992,11.2203,-7.47941,2.81409,6.36111e-15,2.38542e-14,19.6004,-0.229486,-43.8775,25.9848,14.8942,-31.5894,-58.5529,7.12502,-4.8523,-1168.48,6.36111e-15,2.38542e-14,-14.0691,1.71555,22.6837,27.4352,2.08057,-38.6696,-41.3254,7.12502,-11.685,-11.6713,-79.5408,-11.9409,24.4742,47.1716,-1.59149,-13.3786,-11.0741,-19.2435,-6.42303,-23.0703,34.3874,-35.8225,12.648,-12.0988
-3.7378,15.4705,37.0752,-151.378,-19.2473,-184.379,2.16795,0.4257,4.99191,-0.492145,0.474508,5.36431,-1.72052,0.0762215,2.71894,-11.3445,-9.81828,-11.9192,23.713,-15.235,8.84035,11.1334,-7.46229,2.94652,-4.77083e-15,1.27222e-14,20.156,-0.00854753,-43.9879,25.7766,15.1147,-31.381,-58.3497,7.12502,-4.65099,-1168.28,-4.77083e-15,1.27222e-14,-12.2475,1.51396,22.626,27.7247,2.05674,-38.6982,-38.1621,7.12502,-11.7127,-8.50957,-80.3988,-12.0304,24.9408,47.7878,-1.49391,-12.7815,-12.0792,-19.3317,-6.08034,-23.0354,34.391,-35.7275,12.5396,-14.3438
-3.72247,15.4298,36.9266,-150.889,-19.2884,-184.85,2.3024,0.638946,4.81614,-0.638315,0.790902,5.19754,-1.9512,0.23868,2.63178,-9.81266,-9.93871,-11.6331,22.8734,-15.6709,9.19946,10.5857,-7.67273,3.04577,6.20208e-14,1.57437e-13,19.3768,-0.335871,-44.1458,25.7162,15.4671,-31.9982,-56.3557,7.12502,-5.24697,-1166.27,6.20208e-14,1.57437e-13,-9.73081,-0.345956,22.6137,27.589,1.29957,-39.5956,-39.9238,7.12502,-12.5779,-10.3224,-81.1058,-12.3366,25.2812,48.467,-1.1907,-11.9393,-14.9579,-19.1917,-5.59513,-23.1941,34.4133,-35.8185,11.9107,-15.8331
-3.70147,15.4006,36.7711,-150.415,-19.4077,-185.444,2.87051,0.298441,4.65359,-0.325597,0.35696,5.31962,-1.94523,0.0258989,2.86567,-10.867,-9.93049,-11.8229,22.813,-15.3759,9.18562,10.7478,-7.48466,3.06413,-2.38542e-14,-3.81667e-14,20.6923,0.0321102,-44.4213,25.7227,15.0882,-31.0715,-59.4569,7.12502,-4.3522,-1169.39,-2.38542e-14,-3.81667e-14,-8.43391,-0.391857,22.3819,28.3151,1.63271,-39.4367,-39.1073,7.12502,-12.4248,-9.4966,-81.7432,-12.7435,25.5526,49.2225,-1.06336,-11.0878,-17.3123,-18.9873,-5.22169,-23.3939,34.4197,-35.8631,11.0631,-16.6225
-3.69642,15.3543,36.638,-149.546,-19.2051,-185.751,3.12751,0.210019,4.87793,-0.114029,0.246118,5.35094,-1.86806,-0.0328727,2.77734,-11.8732,-10.0047,-11.7569,22.6722,-15.2082,9.0468,10.8532,-7.34773,2.98406,6.36111e-15,1.27222e-14,21.6895,0.0821965,-44.7058,25.5695,15.5596,-30.3143,-61.3989,7.12502,-3.62097,-1348.65,6.36111e-15,1.27222e-14,-6.73602,-0.0882706,22.2052,28.6598,1.09453,-39.5703,-39.834,7.12502,-12.5535,-10.2311,-82.9997,-12.8543,26.1844,50.0307,-0.830341,-10.0335,-17.1686,-19.3115,-5.10888,-23.5312,34.3125,-35.604,10.709,-17.2924
-3.68963,15.3024,36.499,-148.806,-19.065,-186.012,3.13341,0.437729,4.9934,-0.273433,0.572826,5.20951,-2.03769,0.128791,2.55108,-10.3915,-10.0396,-11.2445,21.6981,-15.4258,9.11941,10.203,-7.46632,2.98229,-2.8625e-14,-7.63333e-14,21.1416,-0.113351,-44.9021,25.4592,15.8886,-29.2118,-62.5363,7.12502,-2.55623,-1347.5,-2.8625e-14,-7.63333e-14,-4.28186,-1.02892,22.0884,29.0443,0.509112,-39.5136,-39.5364,7.12502,-12.4989,-9.93017,-83.9848,-12.8854,26.7632,50.8424,-0.345281,-9.20066,-15.5689,-19.5082,-5.03712,-23.5871,34.2498,-35.8563,9.91171,-16.5148
-3.66548,15.2789,36.3248,-148.782,-19.6274,-186.761,3.88761,0.0054197,4.79032,0.0937306,0.0196405,5.40605,-2.07807,-0.146289,2.8985,-10.2819,-9.98096,-11.4616,21.108,-15.2024,9.27388,9.97842,-7.35779,3.11616,-1.11319e-14,-6.20208e-14,22.2531,0.527669,-44.82,25.1794,15.621,-27.8851,-63.1422,7.12502,-1.27497,-1346.88,-1.11319e-14,-6.20208e-14,-2.79522,-0.809383,21.9971,29.218,-0.579701,-39.8169,-40.5445,7.12502,-12.7913,-10.9563,-83.8524,-13.5368,26.757,51.7765,-0.143941,-8.97569,-8.13153,-18.6314,-4.93876,-23.6652,34.1186,-35.7797,8.95867,-17.4836
-3.65276,15.2392,36.178,-147.865,-19.5508,-187.192,3.83805,-0.0302397,4.72258,0.377819,-0.0697555,5.55509,-1.75446,-0.191769,3.09343,-10.5913,-10.0897,-11.529,20.4828,-15.1407,9.33971,9.82083,-7.29242,3.14953,-2.70347e-14,-4.13472e-14,23.4426,0.490906,-44.7308,25.0535,15.3103,-27.4726,-63.5005,7.12502,-0.876553,-1346.52,-2.70347e-14,-4.13472e-14,-0.809225,-0.474791,22.1137,29.3146,-1.49352,-40.3352,-41.743,7.12502,-13.2908,-12.1868,-85.0596,-13.6538,27.3711,52.6629,0.00252575,-8.61514,-1.89525,-18.9055,-4.72989,-23.8138,33.9387,-35.4003,8.46196,-18.3449
-3.64001,15.2081,36.0214,-147.094,-19.4616,-187.421,3.93563,-0.0354003,4.77156,0.591417,-0.106386,5.78275,-1.58644,-0.218828,3.30492,-10.68,-10.1401,-11.5377,19.8313,-15.0126,9.26845,9.58955,-7.21978,3.14908,-5.08889e-14,-9.22361e-14,24.1625,0.770214,-44.5936,24.965,15.9787,-27.7594,-63.0513,7.12502,-1.15354,-1346.97,-5.08889e-14,-9.22361e-14,0.964451,-0.722679,22.1471,29.5471,-2.24001,-40.849,-43.2893,7.12502,-13.7861,-13.766,-86.0322,-13.5898,28.0597,53.5124,-0.271118,-9.14401,2.51358,-19.0864,-4.44958,-23.7873,33.8106,-35.0969,8.0765,-19.3344
-3.62364,15.1796,35.8526,-146.55,-19.482,-187.722,4.61376,-0.126427,4.88708,0.582152,-0.177158,5.93813,-1.9743,-0.265945,3.41552,-10.6224,-10.1269,-11.5596,19.4851,-14.9042,9.21044,9.44307,-7.17222,3.15625,-5.88403e-14,-9.54166e-15,24.5328,1.06403,-44.7326,25.0152,15.9788,-26.963,-63.8362,7.12502,-0.384333,-1346.18,-5.88403e-14,-9.54166e-15,2.51208,-1.65461,21.9521,29.4381,-3.90953,-42.1642,-46.6352,7.12502,-15.0533,-17.2025,-86.5746,-13.5064,28.3871,54.3342,-0.941434,-10.5113,6.53871,-18.9747,-4.17726,-23.7662,33.7807,-34.8658,7.81383,-20.575
-3.6216,15.1223,35.7217,-145.186,-18.8018,-187.664,4.41313,0.0936154,5.19678,0.556861,0.100532,5.9885,-1.89254,-0.135525,3.27628,-10.7899,-10.1749,-11.6065,18.9663,-14.8388,9.32158,9.30086,-7.11425,3.20824,-1.04958e-13,-8.26944e-14,25.2862,0.800953,-45.0587,24.9935,15.9483,-27.4127,-63.6521,7.12502,-0.818671,-1346.37,-1.04958e-13,-8.26944e-14,4.38717,-1.97864,21.84,29.3213,-5.59281,-43.2232,-48.6038,7.12502,-16.0733,-19.2504,-88.2695,-12.6371,28.9165,55.021,-1.34157,-11.3926,9.32387,-20.0306,-3.79287,-23.9113,33.8978,-34.3317,8.47244,-22.566
-3.6067,15.0907,35.5647,-144.496,-18.5544,-187.798,5.1111,0.091873,5.48551,0.579905,0.162934,6.0463,-2.26001,-0.117708,3.17795,-10.8315,-10.184,-11.5007,18.4239,-14.7553,9.37737,9.10921,-7.0514,3.22767,-4.29375e-14,-4.77083e-14,25.9755,0.655055,-45.5281,24.9255,16.0757,-28.373,-62.0441,7.12502,-1.74621,-1347.98,-4.29375e-14,-4.77083e-14,6.1787,-2.53468,21.5658,29.8142,-5.88557,-42.4447,-47.9627,7.12502,-15.3236,-18.5504,-89.0207,-12.0189,28.8333,55.887,-1.91129,-12.4691,10.7557,-20.176,-3.30392,-23.9219,33.8939,-33.8764,8.38954,-24.2074
-3.59015,15.0612,35.4162,-143.631,-18.222,-187.805,5.00775,0.229503,5.39503,0.987103,0.25084,6.42462,-1.78128,-0.0866557,3.61528,-10.8757,-10.2442,-11.4845,17.4878,-14.6132,9.3031,8.77613,-6.972,3.22995,-3.33958e-14,1.59028e-15,27.2566,0.43084,-45.4183,24.8818,15.8897,-28.4227,-61.1129,7.12502,-1.79415,-1348.91,-3.33958e-14,1.59028e-15,8.07568,-2.74981,21.6171,30.3987,-5.63684,-40.8659,-47.5658,7.12502,-13.8024,-18.0437,-89.978,-11.2766,28.8147,56.7492,-2.49585,-13.2762,12.1257,-20.6927,-2.83115,-23.8433,34.0476,-33.4735,7.81877,-24.8027
-3.57226,15.0428,35.2433,-143.022,-18.4413,-188.083,5.79532,0.00201841,5.86922,1.03704,0.0275495,6.53601,-2.1631,-0.214943,3.49124,-10.9564,-10.1472,-11.292,17.0727,-14.3996,9.25449,8.60819,-6.85524,3.21751,4.45278e-14,1.11319e-14,28.0546,0.561202,-45.925,24.8009,15.8478,-27.9151,-61.353,7.12502,-1.30389,-1348.67,4.45278e-14,1.11319e-14,9.62348,-3.94206,20.9147,31.1474,-5.12845,-40.2329,-47.8054,7.12502,-13.1923,-18.2428,-90.423,-10.9571,28.3147,57.8225,-3.55087,-14.181,13.354,-20.6993,-2.9484,-23.6126,34.0706,-33.0886,6.92691,-24.7314
-3.5608,15.0087,35.0879,-142.243,-18.0498,-187.97,6.36868,0.0894052,6.328,1.28632,0.174609,6.6364,-2.223,-0.160139,3.3336,-11.4316,-10.1703,-11.0244,16.4034,-14.276,9.29503,8.43901,-6.74545,3.19383,6.04305e-14,6.52014e-14,29.0659,0.28521,-46.3694,24.8059,16.0437,-26.9149,-62.9085,7.12502,-0.337939,-1347.11,6.04305e-14,6.52014e-14,11.549,-4.60581,20.328,31.587,-4.93828,-40.2688,-47.7891,7.12502,-13.2269,-18.2287,-91.167,-9.98309,27.8156,58.8404,-4.44443,-14.6989,13.6858,-21.1406,-2.8046,-23.4611,34.2489,-32.7677,6.39598,-24.2122
-3.54943,14.969,34.9289,-141.386,-17.5412,-187.879,6.73691,0.172574,6.57496,1.42142,0.301141,6.75415,-2.28669,-0.111834,3.31238,-11.1281,-10.0452,-10.9415,15.493,-14.0196,9.45368,8.06125,-6.61399,3.29522,-5.88403e-14,-6.99722e-14,29.8592,0.367441,-46.7108,25.016,16.0765,-26.7097,-63.6398,7.12502,-0.139717,-1346.38,-5.88403e-14,-6.99722e-14,13.3217,-5.527,19.6743,31.8878,-4.80142,-40.2538,-48.1312,7.12502,-13.2125,-18.5699,-92.0043,-8.94786,27.1706,59.8796,-5.56187,-15.1501,15.1721,-21.6805,-2.54978,-23.4018,34.4769,-32.1609,6.43563,-25.413
-3.53882,14.9289,34.767,-140.436,-17.2056,-187.831,7.51558,0.179,6.98701,1.4411,0.392529,6.93472,-2.69768,-0.0928652,3.27472,-11.7802,-9.99875,-10.8639,15.2731,-13.7869,9.26163,8.05895,-6.48322,3.2261,3.97569e-14,-4.77083e-15,30.7737,0.58678,-46.8999,25.281,15.8269,-27.358,-63.067,7.12502,-0.765847,-1346.95,3.97569e-14,-4.77083e-15,15.0098,-6.02853,19.3089,32.2635,-5.05507,-40.6139,-48.9618,7.12502,-13.5595,-19.4234,-92.9192,-8.07538,26.5655,60.8816,-6.58785,-15.5696,16.2247,-22.3562,-2.45057,-23.2601,34.8043,-31.6425,6.19232,-26.1853
-3.52779,14.8883,34.609,-139.467,-16.8999,-187.826,7.90297,0.158151,7.35034,1.81493,0.347109,7.16401,-2.51669,-0.135711,3.32021,-12.6398,-9.97195,-10.7967,14.7593,-13.506,9.09335,7.99404,-6.31848,3.16825,-4.45278e-14,-2.8625e-14,32.1968,0.421019,-47.2534,25.5105,15.9233,-27.5306,-62.9976,7.12502,-0.932558,-1347.02,-4.45278e-14,-2.8625e-14,16.6898,-5.39187,19.3746,32.6922,-5.91985,-40.7615,-49.7885,7.12502,-13.7018,-20.2596,-93.8855,-7.27462,25.9694,61.8793,-7.32846,-16.0085,15.1168,-23.0412,-2.40615,-23.1331,35.1004,-30.8854,6.36951,-28.0646
-3.51411,14.8497,34.4472,-138.662,-16.4316,-187.89,8.67762,0.284659,7.53666,1.7473,0.623428,7.16236,-3.01792,-0.0159513,3.1962,-11.6233,-9.8475,-10.4284,13.7532,-13.3831,9.08013,7.44731,-6.28248,3.18323,9.54166e-15,8.11041e-14,32.4041,0.440173,-47.5747,25.749,16.0502,-28.1218,-62.7099,7.12502,-1.50356,-1347.32,9.54166e-15,8.11041e-14,20.3004,-8.05707,16.6737,32.6846,-3.05887,-40.045,-50.147,7.12502,-13.0112,-20.5728,-94.6861,-6.44768,25.2635,62.8502,-8.28136,-16.5167,15.0335,-23.4907,-2.30553,-23.1491,35.3523,-29.9633,6.44578,-29.4641
-3.50106,14.8151,34.2811,-137.85,-15.8764,-188.002,9.24525,0.427217,7.54411,2.05042,0.817834,7.2406,-3.01507,0.0680643,3.25462,-11.464,-9.81494,-10.103,12.8194,-13.2658,9.05034,7.08158,-6.21671,3.15985,7.63333e-14,9.38264e-14,33.3364,0.448103,-47.4938,25.9094,15.8678,-28.6294,-62.467,7.12502,-1.99376,-1347.56,7.63333e-14,9.38264e-14,22.7135,-8.19003,16.121,32.9659,-2.99282,-39.4808,-50.9273,7.12502,-12.4673,-21.3192,-95.4792,-5.67623,24.6172,63.7469,-9.27588,-17.0133,16.0952,-23.8962,-2.17721,-23.2517,35.5393,-29.0232,6.11744,-29.9162
-3.48916,14.7832,34.1153,-136.914,-15.3878,-188.165,10.3794,0.42996,7.56646,2.07984,0.933565,7.40598,-3.61669,0.0984523,3.41537,-11.7611,-9.78977,-10.0638,12.2757,-13.1106,9.00153,6.93652,-6.13186,3.15284,3.18055e-15,-7.4743e-14,34.2462,0.886728,-47.3624,26.1811,15.8492,-28.017,-63.0834,7.12502,-1.40234,-1346.94,3.18055e-15,-7.4743e-14,24.468,-8.42276,15.7489,33.3428,-3.38808,-39.4858,-50.9861,7.12502,-12.4721,-21.3782,-96.357,-5.06159,24.1183,64.5433,-10.0109,-17.4884,16.6271,-24.4097,-2.17032,-23.3482,35.6752,-28.1204,5.40452,-29.8919
-3.47737,14.7639,33.9402,-136.075,-15.1205,-188.292,11.0499,0.312636,7.84149,2.58055,0.769026,7.6242,-3.45193,-0.00775882,3.51925,-12.7009,-9.7534,-10.053,11.6087,-12.8526,9.02944,6.85936,-5.97011,3.16211,3.49861e-14,4.92986e-14,35.8076,0.650547,-47.8097,26.3912,16.7941,-27.7456,-63.1889,7.12502,-1.14019,-1346.83,3.49861e-14,4.92986e-14,26.3204,-7.60761,15.4978,33.5456,-4.28883,-39.9925,-51.6506,7.12502,-12.9605,-22.0731,-97.005,-4.62102,23.8679,65.2457,-10.6852,-17.9596,16.4935,-24.7853,-2.2208,-23.2489,35.7629,-27.2894,4.1945,-28.9284
-3.46599,14.7535,33.7651,-135.219,-14.9274,-188.296,11.9523,0.218656,8.23629,2.59364,0.770221,7.80041,-3.92943,-0.039368,3.50377,-12.2859,-9.53194,-9.88949,10.9004,-12.5069,8.83458,6.50515,-5.83086,3.14695,-3.49861e-14,-8.42847e-14,36.4857,0.758942,-48.2732,26.6579,18.12,-27.7638,-62.9049,7.12502,-1.15779,-1347.12,-3.49861e-14,-8.42847e-14,28.4318,-7.93552,14.6649,33.7914,-4.64207,-40.3001,-52.9142,7.12502,-13.257,-23.3558,-97.5933,-4.11852,23.7581,65.8608,-11.3537,-18.4426,16.1109,-25.1737,-2.1413,-22.9955,35.7495,-26.2458,3.19528,-28.2293
