JuanDHNZ/ProyectoFinalCD/preprocessing/sports_trials_csv/49_03.csv
root1,root2,root3,root4,root5,root6,lowerback1,lowerback2,lowerback3,upperback1,upperback2,upperback3,thorax1,thorax2,thorax3,lowerneck1,lowerneck2,lowerneck3,upperneck1,upperneck2,upperneck3,head1,head2,head3,rclavicle1,rclavicle2,rhumerus1,rhumerus2,rhumerus3,rradius1,rwrist1,rhand1,rhand2,rfingers1,rthumb1,rthumb2,lclavicle1,lclavicle2,lhumerus1,lhumerus2,lhumerus3,lradius1,lwrist1,lhand1,lhand2,lfingers1,lthumb1,lthumb2,rfemur1,rfemur2,rfemur3,rtibia1,rfoot1,rfoot2,rtoes1,lfemur1,lfemur2,lfemur3,ltibia1,lfoot1,lfoot2,ltoes1
0.00496818,17.5051,5.7718,15.2882,-6.59936,-2.97851,-10.5203,-0.655378,3.02732,-5.37442,-1.18408,1.49706,0.273481,-0.638383,-0.276924,-14.1435,-7.00116,-9.66084,26.5264,-8.95062,4.87537,11.6811,-4.46147,2.11232,-2.77879e-14,1.72943e-14,-38.8916,5.86038,-88.7609,34.0568,9.73226,-23.607,-45.7526,7.12502,2.85694,-75.7132,-2.77879e-14,1.72943e-14,-38.4765,-4.66127,88.4634,32.4137,6.23956,-32.0383,-31.4006,7.12502,-5.28567,-1.4865,-19.3537,13.2223,16.1828,22.3302,-12.5761,-17.7327,-9.69921,-16.4791,-13.1901,-12.7305,20.8571,-13.9981,25.7647,-5.55427
0.00506797,17.5057,5.77122,15.2793,-6.52675,-2.93649,-10.3363,-0.669549,2.97131,-5.55574,-1.18575,1.54907,-0.013064,-0.64252,-0.186827,-14.0636,-6.75773,-9.51373,26.7002,-8.59358,4.66163,11.6825,-4.31487,2.06876,3.12309e-14,-4.17448e-15,-39.1725,5.81927,-88.6321,34.1887,10.4113,-22.6958,-46.8126,7.12502,3.73682,-76.7596,3.12309e-14,-4.17448e-15,-38.8452,-4.65386,88.6072,32.4345,6.27999,-32.148,-31.1653,7.12502,-5.39167,-1.25391,-19.3505,13.1667,16.1607,22.3393,-12.6411,-17.7554,-9.61925,-16.5045,-13.2636,-12.7412,20.8044,-13.0862,25.9177,-7.53342
0.00543975,17.5059,5.77272,15.2788,-6.4734,-2.87954,-10.2814,-0.67011,2.92768,-5.63649,-1.17834,1.57132,-0.125364,-0.639561,-0.136791,-13.9299,-6.53245,-9.46526,26.64,-8.30059,4.69551,11.6059,-4.17661,2.12382,4.05676e-14,-3.29983e-14,-39.3425,5.90656,-88.6285,34.2169,10.5011,-22.9578,-46.7746,7.12502,3.48387,-76.7258,4.05676e-14,-3.29983e-14,-39.046,-4.61486,88.6765,32.4523,6.30403,-32.1858,-31.2059,7.12502,-5.42809,-1.29543,-19.3572,13.1011,16.1192,22.3453,-12.5872,-17.811,-10.0645,-16.522,-13.3667,-12.776,20.7696,-12.6496,26.0055,-8.34063
0.0052585,17.5057,5.77374,15.303,-6.44146,-2.86285,-10.3431,-0.643912,2.93522,-5.62186,-1.14708,1.56922,-0.0760705,-0.623345,-0.141244,-13.8522,-6.28362,-9.40194,26.4859,-8.00492,4.86314,11.5093,-4.01741,2.22388,-2.91716e-14,1.49089e-14,-39.3307,6.00036,-88.7177,33.934,10.1221,-24.6435,-45.5354,7.12502,1.85591,-75.507,-2.91716e-14,1.49089e-14,-38.9628,-4.68421,88.6753,32.2375,6.21943,-32.3053,-31.757,7.12502,-5.54347,-1.84949,-19.3712,13.1129,16.1017,22.3309,-12.5708,-17.8698,-10.1204,-16.5446,-13.3788,-12.7802,20.7556,-12.685,25.9872,-8.29322
0.00444604,17.5057,5.77273,15.3196,-6.39506,-2.93036,-10.3621,-0.618621,3.02227,-5.62124,-1.12208,1.58445,-0.0662309,-0.612287,-0.172081,-14.1391,-6.0989,-9.09023,26.7302,-7.73306,4.61898,11.611,-3.88847,2.1176,-8.7341e-15,1.94809e-14,-39.2862,5.85005,-88.6248,33.9475,10.5541,-23.6551,-46.0334,7.12502,2.81045,-75.9946,-8.7341e-15,1.94809e-14,-38.9255,-4.79403,88.678,31.8796,5.98313,-32.6924,-33.0129,7.12502,-5.91727,-3.11552,-19.3721,13.1767,16.1769,22.3104,-12.5407,-17.9222,-9.81982,-16.577,-13.3964,-12.6828,20.7565,-12.7081,25.9949,-8.3302
0.00241461,17.5055,5.77457,15.3171,-6.35915,-2.99817,-10.3931,-0.581544,3.11834,-5.63783,-1.08229,1.59593,-0.067695,-0.594363,-0.210314,-14.5988,-5.97746,-8.71634,27.1746,-7.51452,4.20614,11.8222,-3.79619,1.92556,2.46307e-14,-1.90833e-14,-39.2908,5.65601,-88.5017,34.0179,11.2525,-22.37,-46.7279,7.12502,4.05152,-76.6691,2.46307e-14,-1.90833e-14,-39.0021,-4.80078,88.6439,32.1621,6.46575,-32.1923,-31.6394,7.12502,-5.43442,-1.72908,-19.3375,13.2453,16.258,22.2881,-12.4987,-17.9847,-9.69596,-16.5815,-13.4286,-12.5923,20.7639,-12.7119,26.0179,-8.32435
0.00172618,17.5052,5.77728,15.3642,-6.27351,-2.96931,-10.5022,-0.584022,3.12829,-5.64237,-1.09112,1.60079,-0.0134545,-0.598258,-0.213282,-14.7613,-5.77131,-8.57187,27.2584,-7.22295,4.13673,11.8549,-3.65633,1.91799,2.48698e-14,1.64991e-14,-39.2492,5.67092,-88.4866,34.0836,11.1935,-21.9033,-47.3604,7.12502,4.50214,-77.2926,2.48698e-14,1.64991e-14,-38.9705,-4.702,88.5601,32.1963,6.44329,-31.6832,-30.7305,7.12502,-4.9428,-0.808194,-19.3388,13.1666,16.2424,22.2611,-12.5128,-18.0397,-9.71617,-16.6458,-13.3833,-12.6094,20.7762,-12.6283,25.9324,-8.49949
0.00351256,17.5047,5.77983,15.4202,-6.21547,-2.95133,-10.6039,-0.588687,3.15965,-5.61724,-1.10536,1.60323,0.0670102,-0.604751,-0.231551,-14.6559,-5.51059,-8.53966,27.0771,-6.89035,4.25763,11.7399,-3.48923,2.01221,-1.04983e-15,3.77691e-15,-39.1221,5.76135,-88.5231,34.0307,11.0065,-21.7274,-48.2612,7.12502,4.67198,-78.1897,-1.04983e-15,3.77691e-15,-38.8606,-4.63345,88.4804,32.1318,6.37315,-31.4313,-30.2267,7.12502,-4.69957,-0.298825,-19.3659,13.0084,16.2293,22.2432,-12.5031,-18.003,-9.98777,-16.7013,-13.4168,-12.6204,20.791,-12.5914,25.9211,-8.5253
0.00143876,17.5045,5.78201,15.4277,-6.27464,-2.98583,-10.6044,-0.535381,3.18567,-5.60323,-1.03743,1.60083,0.083056,-0.570958,-0.241796,-14.7239,-5.25351,-8.15219,27.0613,-6.54226,4.00523,11.6941,-3.32262,1.9063,-2.14408e-14,-1.51076e-14,-39.0669,5.74309,-88.5449,33.7419,11.3086,-22.457,-47.7537,7.12502,3.96743,-77.6965,-2.14408e-14,-1.51076e-14,-38.8387,-4.78101,88.5175,32.0266,6.46235,-31.7592,-31.0682,7.12502,-5.01623,-1.14759,-19.3779,13.102,16.2434,22.242,-12.5018,-17.9878,-10.0818,-16.6866,-13.492,-12.5759,20.7977,-12.78,25.9949,-8.18784
-0.00166856,17.504,5.78001,15.4292,-6.33272,-2.99171,-10.5584,-0.479495,3.16804,-5.60167,-0.959753,1.61014,0.0622948,-0.531788,-0.213728,-14.9448,-4.98276,-7.54069,27.1511,-6.12692,3.40944,11.6977,-3.14357,1.64229,4.16827e-15,-1.37161e-14,-39.1073,5.79717,-88.5623,34.0125,10.7001,-22.1481,-48.0601,7.12502,4.26572,-77.9971,4.16827e-15,-1.37161e-14,-38.7876,-4.91842,88.6234,31.6967,6.15736,-32.4677,-32.881,7.12502,-5.70028,-2.97771,-19.3933,13.2658,16.2274,22.2491,-12.563,-18.0115,-9.76099,-16.6956,-13.4481,-12.5602,20.7932,-12.8733,25.9817,-7.95772
-0.00512555,17.5038,5.77594,15.4477,-6.34597,-3.00947,-10.5252,-0.458908,3.14737,-5.60427,-0.929335,1.63938,0.0432326,-0.515972,-0.168362,-15.0531,-4.75285,-7.23067,27.163,-5.78123,3.10416,11.6795,-2.9924,1.52794,3.36909e-14,1.35174e-14,-39.1355,5.89471,-88.5806,34.0802,10.5608,-22.3131,-47.802,7.12502,4.10638,-77.7421,3.36909e-14,1.35174e-14,-38.6609,-4.50794,88.3736,32.0515,6.08995,-31.3153,-30.5221,7.12502,-4.58762,-0.591752,-19.44,13.4175,16.2344,22.2437,-12.5312,-18.111,-9.47979,-16.7327,-13.3731,-12.5215,20.806,-12.8077,25.9272,-7.94122
-0.00930287,17.5045,5.77216,15.4919,-6.35531,-3.01253,-10.49,-0.467584,3.08454,-5.64655,-0.932791,1.66629,-0.0183388,-0.517179,-0.104834,-15.0812,-4.55136,-7.10148,27.1278,-5.5151,3.07841,11.6491,-2.86179,1.53684,-1.79217e-15,2.50469e-14,-39.1491,5.97678,-88.6173,34.0272,10.5474,-22.3648,-47.6149,7.12502,4.05653,-77.556,-1.79217e-15,2.50469e-14,-38.6834,-4.0463,88.0602,32.312,5.05579,-30.791,-28.9642,7.12502,-4.08129,0.976443,-19.5309,13.6014,16.2119,22.2416,-12.4249,-18.2707,-9.47971,-16.8027,-13.3451,-12.4843,20.8203,-12.7132,25.9145,-8.18139
-0.00950713,17.504,5.76969,15.5428,-6.28064,-3.04215,-10.529,-0.474215,3.13711,-5.65213,-0.947878,1.67246,-0.00427876,-0.525608,-0.12985,-15.1827,-4.38846,-6.89778,27.1428,-5.2948,2.96211,11.6509,-2.75475,1.49121,2.85504e-14,-4.29375e-14,-39.0915,6.05772,-88.6617,33.9769,10.5507,-22.3369,-47.7072,7.12502,4.08341,-77.6478,2.85504e-14,-4.29375e-14,-38.6816,-3.93727,87.9255,32.4211,4.57669,-30.7583,-28.992,7.12502,-4.04971,0.949306,-19.5569,13.5781,16.2515,22.2431,-12.4309,-18.3312,-9.53811,-16.8991,-13.3261,-12.4174,20.8243,-12.5985,25.8829,-8.49979
-0.00862544,17.5038,5.76892,15.5716,-6.18883,-3.01605,-10.6174,-0.465764,3.16885,-5.611,-0.944188,1.64566,0.0856276,-0.523211,-0.176482,-15.4328,-4.28745,-6.6661,27.2796,-5.13544,2.74787,11.7309,-2.68347,1.39264,3.43525e-15,1.96797e-14,-39.0113,6.08928,-88.6971,33.8307,10.9147,-22.8995,-47.4969,7.12502,3.54011,-77.4472,3.43525e-15,1.96797e-14,-38.6204,-4.03593,87.9077,32.442,4.76399,-30.4545,-29.3566,7.12502,-3.7564,0.590076,-19.5383,13.4322,16.253,22.2266,-12.4087,-18.3356,-9.78077,-16.9775,-13.3963,-12.4138,20.8488,-12.5721,25.8851,-8.51753
-0.00987209,17.5037,5.76872,15.5957,-6.17821,-2.98341,-10.6567,-0.45203,3.14992,-5.57495,-0.92694,1.64228,0.145353,-0.513128,-0.168423,-15.7047,-4.18823,-6.49472,27.4328,-4.96042,2.53219,11.8241,-2.61181,1.30558,6.55989e-15,1.59028e-15,-38.9739,6.1771,-88.7674,34.0094,10.1961,-22.8268,-47.8239,7.12502,3.61036,-77.7731,6.55989e-15,1.59028e-15,-38.5899,-4.15749,87.99,32.3862,5.37474,-30.3865,-30.2513,7.12502,-3.69072,-0.303497,-19.5696,13.4287,16.2147,22.2171,-12.3931,-18.3502,-9.87769,-17.0187,-13.415,-12.4349,20.8703,-12.5759,25.8801,-8.40718
-0.0137819,17.5028,5.76805,15.6582,-6.16558,-3.11219,-10.6957,-0.408125,3.26345,-5.56727,-0.881784,1.68833,0.174206,-0.491721,-0.180195,-15.7738,-4.08481,-6.47696,27.4506,-4.80081,2.49965,11.8349,-2.54144,1.31386,-1.89311e-14,1.59028e-15,-38.9685,6.22118,-88.792,34.0254,9.8378,-22.9869,-47.804,7.12502,3.45571,-77.7558,-1.89311e-14,1.59028e-15,-38.6395,-4.50033,88.2548,32.2766,6.20962,-31.2423,-31.4592,7.12502,-4.51708,-1.52738,-19.66,13.5782,16.3384,22.2356,-12.4077,-18.4451,-9.59655,-17.0719,-13.2925,-12.2697,20.8533,-12.5245,25.8051,-8.49165
-0.0161437,17.5034,5.76885,15.7143,-6.16377,-3.11544,-10.7559,-0.371121,3.24933,-5.62711,-0.83267,1.70641,0.146346,-0.467522,-0.148523,-15.5492,-3.9893,-6.61057,27.3634,-4.67897,2.6366,11.7565,-2.48492,1.40977,1.14985e-14,-5.1684e-15,-39.0897,6.23365,-88.7491,34.1017,9.90562,-22.5793,-47.7962,7.12502,3.84938,-77.7412,1.14985e-14,-5.1684e-15,-38.7875,-4.7975,88.5192,32.0708,6.20623,-32.4952,-32.4293,7.12502,-5.72687,-2.52667,-19.7665,13.6656,16.3213,22.2934,-12.3993,-18.5304,-9.51715,-17.1009,-13.2848,-12.2424,20.7903,-12.4756,25.8092,-8.46978
-0.0163875,17.5042,5.7704,15.7083,-6.18288,-3.02967,-10.8167,-0.352936,3.16789,-5.6593,-0.802661,1.69317,0.147866,-0.451301,-0.113764,-15.3441,-3.92846,-6.66086,27.3425,-4.59069,2.63401,11.7036,-2.45285,1.43395,-9.24659e-15,7.95139e-16,-39.2607,6.26108,-88.7259,34.2295,9.99512,-22.5011,-47.4957,7.12502,3.92491,-77.4393,-9.24659e-15,7.95139e-16,-38.7872,-4.61422,88.4196,32.2686,6.45047,-31.6693,-31.0654,7.12502,-4.92945,-1.14274,-19.8062,13.6953,16.2156,22.3683,-12.4095,-18.5628,-9.6731,-17.0486,-13.3763,-12.334,20.714,-12.4964,25.8695,-8.33281
-0.016359,17.5045,5.76914,15.7166,-6.22392,-2.84575,-10.8791,-0.33989,2.99246,-5.65127,-0.771085,1.63156,0.193204,-0.432146,-0.0765215,-15.3639,-3.87817,-6.55122,27.4215,-4.51037,2.50258,11.7272,-2.42222,1.37859,1.09829e-14,-2.98177e-15,-39.2852,6.14425,-88.6646,34.6911,10.0519,-20.9697,-49.2752,7.12502,5.40365,-79.1863,1.09829e-14,-2.98177e-15,-38.7165,-4.56874,88.3607,32.2724,6.37058,-31.3769,-30.7536,7.12502,-4.64711,-0.824607,-19.8794,13.6703,15.9951,22.4235,-12.4172,-18.5394,-9.6183,-17.0526,-13.4557,-12.5289,20.6576,-12.5167,25.925,-8.41913
-0.0169542,17.5054,5.76541,15.764,-6.21303,-2.72313,-10.8806,-0.338149,2.86444,-5.64618,-0.756393,1.59944,0.201453,-0.422467,-0.0364757,-15.4549,-3.77631,-6.47618,27.4805,-4.36554,2.45839,11.7573,-2.3541,1.37017,2.61526e-15,-8.15017e-15,-39.2653,6.30942,-88.8052,34.6266,9.26301,-22.2221,-47.84,7.12502,4.19429,-77.7784,2.61526e-15,-8.15017e-15,-38.6254,-4.62272,88.3818,32.1808,6.30448,-31.6103,-31.4245,7.12502,-4.87246,-1.50054,-19.9741,13.6357,15.8434,22.4293,-12.5067,-18.5012,-9.21482,-17.1483,-13.4989,-12.633,20.6519,-12.4882,25.9439,-8.68812
-0.0188017,17.5062,5.76254,15.7743,-6.07304,-2.93823,-10.7893,-0.327878,3.09238,-5.63632,-0.760905,1.65495,0.158793,-0.428856,-0.106508,-15.4282,-3.66912,-6.5003,27.4576,-4.22698,2.53374,11.7376,-2.28457,1.42371,1.24209e-14,-2.98177e-15,-39.165,6.07398,-88.6422,34.6327,10.4407,-20.8902,-48.582,7.12502,5.48037,-78.4911,1.24209e-14,-2.98177e-15,-38.5385,-4.65689,88.3663,32.1574,6.34081,-31.6509,-31.4955,7.12502,-4.91168,-1.57246,-19.9226,13.6539,16.1178,22.3778,-12.5359,-18.5744,-9.09202,-17.199,-13.4814,-12.355,20.7083,-12.551,25.8551,-8.7413
-0.0171845,17.5057,5.76292,15.7289,-5.94671,-3.09202,-10.6886,-0.317909,3.32433,-5.60815,-0.765089,1.65797,0.129239,-0.435582,-0.233068,-15.446,-3.55174,-6.45497,27.4777,-4.09117,2.60746,11.7416,-2.2092,1.46393,1.11506e-15,-4.77083e-15,-39.1317,6.19703,-88.8346,34.3367,9.84521,-22.7069,-46.5652,7.12502,3.72612,-76.5124,1.11506e-15,-4.77083e-15,-38.4585,-4.76976,88.3618,32.1209,6.39814,-32.0783,-31.533,7.12502,-5.32433,-1.61991,-19.764,13.5123,16.3494,22.2978,-12.4956,-18.5559,-9.2965,-17.1805,-13.4759,-12.184,20.7886,-12.6873,25.7593,-8.59548
-0.0152469,17.5053,5.76431,15.6923,-5.89245,-3.1415,-10.6157,-0.29125,3.44898,-5.57952,-0.737814,1.61949,0.117493,-0.424735,-0.339415,-15.5484,-3.40994,-6.22565,27.5248,-3.9126,2.49807,11.762,-2.11788,1.41021,9.50129e-15,3.57812e-15,-39.0478,5.99227,-88.7888,34.3835,10.7482,-21.7644,-47.484,7.12502,4.63629,-77.4132,9.50129e-15,3.57812e-15,-38.4114,-4.95322,88.3812,32.1539,6.49017,-32.5753,-31.8042,7.12502,-5.80418,-1.90374,-19.6439,13.3956,16.4272,22.2071,-12.504,-18.4747,-9.30707,-17.1897,-13.4127,-12.1544,20.8919,-12.7615,25.6877,-8.73854
-0.0167331,17.5063,5.76629,15.6938,-5.87899,-3.12021,-10.6263,-0.271452,3.43442,-5.59584,-0.709939,1.60208,0.107089,-0.41099,-0.346351,-15.4421,-3.31563,-6.07073,27.5063,-3.76841,2.30067,11.7178,-2.06256,1.33347,9.0447e-15,2.38542e-14,-39.1392,5.8256,-88.7057,34.6147,11.3443,-20.8025,-48.469,7.12502,5.56501,-78.3759,9.0447e-15,2.38542e-14,-38.4454,-5.07924,88.4227,32.2337,6.55241,-32.6109,-31.7949,7.12502,-5.83853,-1.89531,-19.6234,13.447,16.3902,22.139,-12.4515,-18.5187,-9.27991,-17.2644,-13.412,-12.1779,21.0175,-12.8096,25.7109,-8.78457
-0.0191272,17.5082,5.76253,15.9063,-6.12918,-3.17483,-10.7679,-0.174104,3.41593,-5.63899,-0.585472,1.61942,0.143316,-0.348229,-0.305852,-15.4724,-3.29953,-6.07532,27.5807,-3.71504,2.20716,11.7487,-2.05123,1.30722,9.74355e-15,1.76918e-14,-39.1436,5.86946,-88.7308,34.7104,11.2679,-21.2549,-48.6173,7.12502,5.12822,-78.5353,9.74355e-15,1.76918e-14,-38.3581,-5.04171,88.4012,32.248,6.51985,-32.3816,-31.5805,7.12502,-5.61715,-1.67494,-19.9083,13.5027,16.3362,22.0848,-12.3201,-18.3595,-9.50321,-17.5383,-13.5286,-12.095,21.1668,-12.9063,26.0635,-8.33599
-0.0222326,17.5082,5.75293,16.3165,-6.60971,-3.45255,-10.8915,0.0519694,3.56979,-5.77021,-0.303682,1.65591,0.0803522,-0.212452,-0.324287,-15.7002,-3.33121,-6.05336,27.7871,-3.74517,2.17356,11.876,-2.06655,1.28395,4.53664e-14,-5.56597e-15,-39.2105,6.35974,-89.1858,34.4422,8.96747,-25.3772,-46.1341,7.12502,1.14726,-76.1108,4.53664e-14,-5.56597e-15,-38.2944,-4.98428,88.2959,32.3838,6.37527,-31.8403,-30.8279,7.12502,-5.09457,-0.909126,-20.4434,13.5633,16.4386,22.0305,-12.168,-17.9392,-9.8895,-17.9504,-13.4578,-11.7814,21.2959,-12.9523,26.4897,-7.98142
-0.0249552,17.5071,5.74897,16.578,-6.79377,-3.68187,-10.9477,0.187507,3.75016,-5.90511,-0.14023,1.67625,-0.026445,-0.137393,-0.386438,-15.8665,-3.35328,-6.02269,28.0154,-3.78063,2.17773,12.0006,-2.07925,1.27327,-2.98674e-14,6.55989e-15,-39.1825,5.84755,-88.8522,34.611,11.0166,-22.3989,-48.3296,7.12502,4.02361,-78.2714,-2.98674e-14,6.55989e-15,-38.3223,-5.02404,88.2182,32.5533,6.22576,-31.3648,-30.4864,7.12502,-4.63544,-0.557165,-20.7398,13.605,16.5934,21.9824,-12.0614,-17.7481,-10.0208,-18.1892,-13.2298,-11.5213,21.3248,-12.9199,26.5161,-8.0428
-0.0249375,17.5062,5.75865,16.3977,-6.45731,-3.64089,-10.8808,0.0913384,3.80188,-5.83688,-0.270137,1.65099,0.00345608,-0.202439,-0.4555,-16.0391,-3.36603,-5.99708,28.1509,-3.80389,2.19857,12.0903,-2.08382,1.27126,2.62489e-14,-1.70955e-14,-39.4069,6.95771,-89.793,34.1041,6.22642,-29.5696,-42.1661,7.12502,-2.90182,-72.1261,2.62489e-14,-1.70955e-14,-38.21,-5.03902,88.1363,32.6515,6.2632,-31.227,-31.135,7.12502,-4.5023,-1.2028,-20.3895,13.5461,16.677,21.9316,-12.2657,-17.9272,-9.40077,-18.0166,-13.18,-11.5584,21.3031,-12.8715,26.1927,-8.50156
-0.0214543,17.5044,5.78349,15.7237,-5.65514,-3.23279,-10.617,-0.225278,3.60935,-5.61767,-0.662392,1.55399,0.0771994,-0.391822,-0.488925,-16.0944,-3.39047,-5.9746,28.2152,-3.83531,2.17148,12.1275,-2.09903,1.25178,-9.47954e-15,-2.18663e-15,-39.138,5.94275,-88.9914,34.5321,10.8836,-22.7426,-47.9348,7.12502,3.69171,-77.8825,-9.47954e-15,-2.18663e-15,-38.17,-4.95645,88.0511,32.8191,6.32395,-31.0556,-31.5007,7.12502,-4.33683,-1.56515,-19.3529,13.3148,16.5967,21.9015,-12.66,-18.4777,-8.65779,-17.3762,-13.5305,-12.0035,21.251,-12.7919,25.7101,-9.07959
-0.0182419,17.5057,5.79085,15.6784,-5.46649,-3.14006,-10.6455,-0.281301,3.60151,-5.636,-0.736097,1.52107,0.0707345,-0.429193,-0.526321,-16.3311,-3.27885,-5.90104,28.5973,-3.70912,2.23832,12.3212,-2.02731,1.28229,-1.26228e-14,1.0138e-14,-39.3602,7.02063,-89.8632,33.8925,6.70105,-29.3968,-42.7225,7.12502,-2.73489,-72.6847,-1.26228e-14,1.0138e-14,-38.2272,-4.89159,88.0101,32.9281,6.32149,-30.8786,-31.3216,7.12502,-4.16588,-1.38258,-19.2548,13.1194,16.5617,21.8955,-12.5098,-18.5865,-9.13648,-17.2877,-13.6708,-12.082,21.1196,-12.6889,25.6478,-9.05607
-0.0200308,17.5083,5.78151,16.1521,-5.95611,-3.38308,-10.906,-0.0551677,3.73366,-5.77313,-0.459052,1.55415,0.0772018,-0.294681,-0.538072,-17.043,-2.95529,-5.83465,29.4169,-3.36221,2.65428,12.7888,-1.81129,1.48232,-1.26508e-14,-1.98785e-15,-39.0919,6.18363,-89.2316,34.6219,9.54685,-22.8497,-48.4329,7.12502,3.58827,-78.3824,-1.26508e-14,-1.98785e-15,-38.1819,-4.95596,88.0301,32.9017,6.35822,-31.0314,-31.3044,7.12502,-4.31343,-1.36831,-19.9214,13.1361,16.6077,21.8849,-12.1484,-18.1855,-9.96484,-17.7024,-13.4146,-11.8235,21.1162,-12.7378,25.9207,-8.76051
-0.0194365,17.5063,5.79052,15.7019,-5.40935,-3.21817,-10.6916,-0.237135,3.68498,-5.58267,-0.688935,1.51928,0.151582,-0.405403,-0.57089,-16.4564,-3.27438,-5.71168,28.6204,-3.66072,1.94976,12.3436,-2.02159,1.14663,7.40783e-15,-8.74653e-15,-38.9204,5.76899,-88.898,34.7345,12.4652,-19.7705,-49.9958,7.12502,6.56138,-79.8741,7.40783e-15,-8.74653e-15,-38.0786,-5.03608,88.079,32.8063,6.28349,-31.6229,-32.3564,7.12502,-4.88465,-2.4327,-19.2513,13.1004,16.6725,21.8601,-12.2475,-18.6739,-9.8275,-17.3577,-13.6091,-11.9814,21.2033,-12.8185,25.5428,-8.97466
-0.021982,17.507,5.778,16.4118,-6.21621,-3.56328,-11.1565,0.105104,3.83136,-5.74667,-0.270904,1.58379,0.246627,-0.199418,-0.542892,-16.561,-3.2969,-5.77807,28.7002,-3.6784,1.98529,12.4007,-2.03169,1.1674,-8.05544e-15,6.95746e-15,-38.874,5.87533,-88.9662,34.4143,11.4526,-22.2252,-47.8399,7.12502,4.19126,-77.7784,-8.05544e-15,6.95746e-15,-37.9933,-5.02081,88.0923,32.7413,6.14756,-32.0637,-33.844,7.12502,-5.31026,-3.93052,-20.2497,13.2146,16.6782,21.8534,-11.931,-18.0236,-10.1906,-17.9711,-13.3562,-11.6208,21.2419,-12.8546,26.1571,-8.54994
-0.0214005,17.5058,5.78084,16.4247,-6.22173,-3.54402,-11.2178,0.130089,3.81467,-5.73532,-0.239608,1.57274,0.292977,-0.182705,-0.541712,-16.9859,-3.15808,-5.927,29.2861,-3.56198,2.44952,12.7332,-1.93628,1.38633,5.85483e-15,-1.39149e-14,-38.8489,5.85313,-88.9579,34.2568,11.1958,-22.9152,-47.3894,7.12502,3.52501,-77.34,5.85483e-15,-1.39149e-14,-37.9261,-5.02273,88.1141,32.7459,6.13496,-32.159,-34.1839,7.12502,-5.4022,-4.2728,-20.2519,13.1741,16.6503,21.869,-12.1011,-17.9616,-9.68144,-17.9637,-13.3559,-11.648,21.2233,-12.8366,26.1871,-8.69169
-0.0174542,17.5039,5.79981,15.7981,-5.4291,-3.10537,-10.9826,-0.156595,3.60153,-5.54199,-0.589262,1.45865,0.35637,-0.351132,-0.57895,-16.7991,-3.16566,-6.04319,29.2219,-3.596,2.60125,12.6755,-1.94517,1.46089,-5.81135e-15,9.93923e-15,-38.8859,5.76121,-88.9265,34.2269,11.2495,-22.9877,-47.2402,7.12502,3.45497,-77.192,-5.81135e-15,9.93923e-15,-37.8566,-5.11073,88.1603,32.7356,6.1574,-32.302,-34.1035,7.12502,-5.54035,-4.19588,-19.3204,12.9357,16.5195,21.882,-12.6057,-18.48,-8.77364,-17.42,-13.6972,-12.0981,21.1702,-12.7768,25.6695,-9.04249
-0.0177969,17.5063,5.79729,16.2299,-6.00643,-3.23426,-11.3139,0.089247,3.62857,-5.6528,-0.280467,1.4549,0.431137,-0.197787,-0.564698,-16.4295,-3.18321,-5.99398,28.8418,-3.59665,2.42656,12.4399,-1.96292,1.38758,1.21507e-14,-1.74931e-14,-39.1686,6.8174,-89.8081,33.6078,6.67148,-30.3381,-40.6459,7.12502,-3.64393,-70.5945,1.21507e-14,-1.74931e-14,-37.7439,-5.16017,88.1866,32.6551,6.15416,-32.4918,-34.4315,7.12502,-5.72353,-4.52876,-19.9607,12.8892,16.4248,21.9018,-12.3661,-17.955,-9.43633,-17.7335,-13.6365,-11.9935,21.1201,-12.6939,26.1737,-8.7186
-0.0178891,17.5061,5.8101,15.8207,-5.43567,-3.1122,-11.1191,-0.10255,3.61121,-5.53575,-0.525309,1.44637,0.439,-0.318147,-0.591037,-16.5718,-3.04297,-5.94081,29.0899,-3.42921,2.50395,12.5608,-1.87328,1.43456,1.08866e-14,5.56597e-15,-39.005,6.05133,-89.1941,34.1349,9.70417,-25.1055,-46.2509,7.12502,1.40967,-76.2259,1.08866e-14,5.56597e-15,-37.7017,-5.15083,88.1983,32.6301,6.12626,-32.6,-34.6369,7.12502,-5.82806,-4.73703,-19.3736,12.8982,16.5232,21.9245,-12.368,-18.5495,-9.76423,-17.3552,-13.9461,-12.076,21.0707,-12.5856,25.8911,-9.06867
-0.0195527,17.5069,5.80181,16.4242,-6.28419,-3.39636,-11.4691,0.247036,3.72284,-5.771,-0.0862503,1.48615,0.397981,-0.104078,-0.562809,-16.661,-2.94583,-6.02235,29.4284,-3.32482,2.69319,12.7168,-1.8134,1.53941,2.24254e-14,-1.49089e-14,-39.063,5.75177,-88.9487,34.2261,10.8781,-23.318,-46.9559,7.12502,3.13603,-76.9126,2.24254e-14,-1.49089e-14,-37.8142,-5.15264,88.2272,32.7373,6.01755,-32.6809,-34.4192,7.12502,-5.90615,-4.52148,-20.2358,12.9891,16.4818,21.9025,-12.1263,-17.8285,-10.2729,-17.862,-13.7196,-11.8323,21.1686,-12.8299,26.5179,-8.38277
-0.0202422,17.5064,5.80251,16.6485,-6.51946,-3.464,-11.6154,0.369294,3.73535,-5.88606,0.0698003,1.4876,0.362469,-0.0282772,-0.549895,-16.6189,-2.96068,-6.0747,29.5644,-3.34139,2.70906,12.7663,-1.82622,1.55324,-3.09048e-15,1.59028e-14,-39.1834,5.663,-88.9159,34.2024,10.8887,-23.126,-46.9135,7.12502,3.32144,-76.8674,-3.09048e-15,1.59028e-14,-37.9025,-5.15563,88.2444,32.8524,5.79906,-32.915,-33.806,7.12502,-6.13211,-3.91476,-20.4904,12.9503,16.4496,21.8527,-12.133,-17.5367,-9.99641,-18.0623,-13.5742,-11.7831,21.2238,-13.0539,26.6284,-8.19343
-0.0210616,17.5057,5.80429,16.6582,-6.43558,-3.57341,-11.6176,0.394629,3.8681,-5.88583,0.0898529,1.49497,0.363966,-0.0207206,-0.614337,-16.7124,-2.98066,-6.10003,29.7087,-3.36842,2.73738,12.848,-1.83765,1.56442,-3.62161e-15,3.77691e-15,-39.1929,5.59598,-88.9269,34.1691,10.8709,-23.2115,-46.8965,7.12502,3.23882,-76.8517,-3.62161e-15,3.77691e-15,-37.8746,-5.12831,88.2105,32.9656,5.66625,-32.8679,-32.7793,7.12502,-6.08665,-2.88669,-20.4383,12.9512,16.5884,21.8078,-12.1665,-17.5564,-9.75126,-18.0815,-13.5179,-11.6484,21.2592,-13.1338,26.528,-8.34109
-0.0200348,17.505,5.80909,16.3999,-6.08864,-3.55776,-11.4935,0.299547,3.96823,-5.78823,-0.0414596,1.47668,0.393068,-0.0867012,-0.704983,-16.7746,-3.00045,-6.17264,29.8009,-3.40068,2.82508,12.9044,-1.84867,1.60583,1.2834e-14,-9.54166e-15,-39.1941,5.5688,-88.9596,34.2217,10.7721,-23.2242,-46.7586,7.12502,3.22654,-76.714,1.2834e-14,-9.54166e-15,-37.7707,-5.09556,88.1755,33.0203,5.7881,-32.469,-31.9935,7.12502,-5.70159,-2.09024,-20.0323,12.8844,16.7201,21.7739,-12.2423,-17.794,-9.88985,-17.8597,-13.5872,-11.6516,21.2668,-13.1079,26.2666,-8.4504
-0.0178738,17.5027,5.82445,15.6963,-5.23402,-3.24272,-11.15,-0.0279653,3.84898,-5.56363,-0.449417,1.42065,0.425951,-0.285196,-0.742514,-16.7444,-3.0141,-6.27589,29.8191,-3.43291,2.95482,12.9123,-1.85776,1.66917,-4.29872e-15,-1.05356e-14,-39.2259,5.55797,-88.9636,34.3057,10.654,-22.8132,-46.9028,7.12502,3.62348,-76.8517,-4.29872e-15,-1.05356e-14,-37.6657,-5.03731,88.1618,33.0078,5.87394,-32.3438,-32.0181,7.12502,-5.58065,-2.11157,-19.0023,12.701,16.7633,21.7545,-12.5211,-18.4454,-9.46602,-17.2185,-13.8092,-11.9797,21.1808,-12.9277,25.6231,-8.99003
-0.0188739,17.5037,5.81796,16.1568,-5.8236,-3.40069,-11.4738,0.21177,3.87787,-5.66223,-0.150194,1.43476,0.510356,-0.136215,-0.710694,-16.7329,-3.03124,-6.37541,29.7875,-3.47457,3.10328,12.9044,-1.8673,1.73705,1.70831e-15,-1.45113e-14,-39.1429,5.57285,-88.9795,34.2379,10.5308,-22.6855,-46.8567,7.12502,3.74678,-76.8035,1.70831e-15,-1.45113e-14,-37.5774,-5.02667,88.1786,33.0047,5.85515,-32.4349,-32.2639,7.12502,-5.66866,-2.35968,-19.6702,12.7063,16.6944,21.7552,-12.3447,-17.9242,-9.49038,-17.5994,-13.6156,-11.843,21.1789,-12.8477,26.0451,-8.73843
-0.0195494,17.5017,5.82624,15.7124,-5.30924,-3.19421,-11.2419,0.0398719,3.75235,-5.48445,-0.35642,1.37432,0.563069,-0.234346,-0.72671,-16.7628,-3.08399,-6.38443,29.7974,-3.56285,3.15353,12.9213,-1.90011,1.74365,1.92262e-15,-6.16232e-15,-39.0607,5.48938,-89.0062,34.1672,10.4792,-22.8837,-46.7953,7.12502,3.55542,-76.7454,1.92262e-15,-6.16232e-15,-37.4922,-5.12047,88.1983,33.0323,5.81227,-32.4193,-32.1898,7.12502,-5.65356,-2.28522,-19.0486,12.7161,16.6987,21.7745,-12.5007,-18.4496,-9.25104,-17.2095,-13.9072,-12.0299,21.163,-12.8907,25.7654,-8.72389
-0.021073,17.5045,5.80976,16.3864,-6.06706,-3.54262,-11.5981,0.376289,3.9319,-5.67721,0.0560208,1.41401,0.569916,-0.0336853,-0.738268,-16.693,-3.11877,-6.36198,29.7663,-3.62096,3.14211,12.8964,-1.92504,1.72627,-2.11783e-14,-1.98785e-16,-39.027,5.42211,-89.019,34.098,10.4873,-22.8725,-46.8909,7.12502,3.56623,-76.8408,-2.11783e-14,-1.98785e-16,-37.4529,-5.18686,88.2226,33.0409,5.84947,-32.3994,-32.112,7.12502,-5.63431,-2.20692,-20.0435,12.795,16.7374,21.7844,-12.1501,-17.8439,-10.1208,-17.8012,-13.704,-11.6497,21.1765,-13.0084,26.3298,-8.13162
-0.0211572,17.505,5.80881,16.3318,-6.01388,-3.56622,-11.4716,0.365637,3.96943,-5.71196,0.0461988,1.41569,0.464479,-0.0413342,-0.758881,-16.4906,-3.08944,-6.37558,29.6608,-3.59715,3.17856,12.8096,-1.91241,1.74755,-1.3623e-14,3.12092e-14,-39.0883,5.43909,-89.0585,34.0346,10.4074,-22.9306,-47.0841,7.12502,3.51015,-77.0349,-1.3623e-14,3.12092e-14,-37.4831,-5.17061,88.2471,33.0084,5.96795,-32.3387,-32.3393,7.12502,-5.57572,-2.43269,-19.9902,12.7553,16.7984,21.7822,-12.1281,-17.8815,-10.3729,-17.7568,-13.6614,-11.6277,21.1794,-13.0025,26.2291,-8.11913
-0.0191357,17.5021,5.82735,15.7202,-5.21194,-3.28482,-11.138,0.0746615,3.89926,-5.57943,-0.3157,1.34431,0.407251,-0.220558,-0.834726,-16.2355,-3.04974,-6.41085,29.5323,-3.57421,3.27615,12.7043,-1.89487,1.7962,-5.34544e-15,1.21259e-14,-39.2298,5.38501,-89.0961,34.05,10.3812,-22.852,-47.3173,7.12502,3.58602,-77.2669,-5.34544e-15,1.21259e-14,-37.5526,-5.02813,88.1843,33.0939,5.80644,-32.0842,-32.0202,7.12502,-5.33007,-2.10724,-19.0612,12.6159,16.8298,21.7798,-12.4716,-18.4908,-9.74443,-17.2283,-13.8677,-11.9098,21.1756,-12.9772,25.6127,-8.4973
-0.0189673,17.5026,5.82272,16.1858,-5.83344,-3.49073,-11.4012,0.336886,4.01432,-5.75802,0.0103944,1.3508,0.376383,-0.0628252,-0.855496,-16.0491,-3.0308,-6.48266,29.4502,-3.57208,3.39023,12.6353,-1.88822,1.85374,-1.38839e-15,-3.97569e-15,-39.2609,5.29211,-89.0806,33.8943,10.478,-22.5501,-47.073,7.12502,3.87759,-77.0175,-1.38839e-15,-3.97569e-15,-37.6002,-4.90785,88.1431,33.1774,5.7002,-31.9571,-31.6117,7.12502,-5.20735,-1.69566,-19.7287,12.6296,16.7918,21.7987,-12.3276,-17.8984,-9.95058,-17.5728,-13.7195,-11.7347,21.1577,-13.0164,26.1144,-8.24136
-0.0190148,17.5004,5.83003,15.7668,-5.2682,-3.2354,-11.1161,0.104527,3.84576,-5.67097,-0.266636,1.31794,0.302299,-0.198173,-0.826149,-16.0476,-3.01488,-6.50752,29.528,-3.54962,3.4086,12.6663,-1.87943,1.86952,-1.1865e-15,-3.57812e-15,-39.3146,5.28293,-89.0724,33.7879,10.5392,-22.6391,-46.6339,7.12502,3.79161,-76.5799,-1.1865e-15,-3.57812e-15,-37.6492,-4.86897,88.1786,33.2275,5.9597,-31.9872,-31.8202,7.12502,-5.23636,-1.90491,-19.1317,12.5462,16.7576,21.8473,-12.5225,-18.3592,-9.60643,-17.1986,-13.9669,-11.9618,21.0548,-12.9495,25.773,-8.57064
-0.022031,17.5001,5.82101,16.1529,-5.83234,-3.35647,-11.3626,0.308174,3.8114,-5.76276,-0.00495455,1.33604,0.351218,-0.0671044,-0.758803,-16.158,-3.03853,-6.4499,29.6133,-3.56448,3.30968,12.7222,-1.89213,1.81896,-4.30493e-15,1.09332e-14,-39.3805,5.35786,-89.1268,33.9315,10.4048,-22.5967,-46.9288,7.12502,3.83256,-76.8741,-4.30493e-15,1.09332e-14,-37.6817,-4.77394,88.1716,33.4089,6.14586,-31.8488,-31.6399,7.12502,-5.10271,-1.72134,-19.7335,12.5468,16.6831,21.914,-12.3537,-17.8492,-9.97842,-17.4956,-13.7719,-11.8643,21.0305,-13.0085,26.1286,-8.22638
-0.0209471,17.4987,5.83235,15.785,-5.3445,-3.10585,-11.2298,0.117329,3.68338,-5.63865,-0.240052,1.27461,0.400279,-0.180402,-0.777496,-16.2081,-3.06751,-6.39963,29.6667,-3.59048,3.21756,12.7534,-1.9101,1.77059,5.57218e-15,-2.98177e-15,-39.3968,5.39168,-89.1815,33.959,10.3825,-22.3328,-47.2787,7.12502,4.08736,-77.2193,5.57218e-15,-2.98177e-15,-37.7111,-4.77508,88.1863,33.4714,6.14839,-31.7999,-31.3243,7.12502,-5.05553,-1.40461,-19.2374,12.3938,16.6221,21.9993,-12.5781,-18.2179,-9.9792,-17.1354,-13.9134,-12.1173,20.9235,-12.9147,25.7546,-8.48672
-0.0217588,17.4974,5.83705,15.7195,-5.33237,-3.05004,-11.1391,0.115918,3.64627,-5.70894,-0.231253,1.2464,0.278298,-0.178294,-0.784419,-16.0352,-3.05888,-6.41933,29.6888,-3.5857,3.21922,12.7263,-1.91219,1.77719,-1.34832e-14,1.19271e-14,-39.5894,5.37116,-89.2081,33.9319,10.5337,-22.324,-47.1852,7.12502,4.09586,-77.1256,-1.34832e-14,1.19271e-14,-37.8529,-4.88244,88.2703,33.3832,6.22261,-31.8437,-31.3984,7.12502,-5.09784,-1.47972,-19.1802,12.345,16.5886,22.0725,-12.7308,-18.2006,-10.066,-17.0339,-13.7895,-12.206,20.8819,-12.9007,25.6027,-8.5107
-0.0227026,17.4972,5.83914,15.7259,-5.3041,-3.05419,-11.0877,0.129684,3.66524,-5.78733,-0.20976,1.23233,0.169139,-0.170662,-0.806844,-15.853,-3.0664,-6.45081,29.6549,-3.61087,3.25504,12.6771,-1.92387,1.79381,7.56935e-15,2.5842e-15,-39.7799,5.32092,-89.2241,33.9799,10.4924,-22.5076,-47.0545,7.12502,3.91864,-76.9982,7.56935e-15,2.5842e-15,-37.9065,-4.93872,88.3117,33.261,6.33605,-31.6625,-31.6774,7.12502,-4.9229,-1.75462,-19.2041,12.2942,16.6124,22.109,-12.7249,-18.1804,-9.97339,-17.0041,-13.6639,-12.1979,20.8256,-13.0012,25.4114,-8.46034
-0.023424,17.4979,5.83984,15.7682,-5.2689,-3.07446,-11.223,0.135086,3.69947,-5.69833,-0.214993,1.22098,0.334866,-0.170506,-0.839046,-15.9333,-3.06893,-6.44878,29.5927,-3.62025,3.29657,12.6697,-1.92064,1.80668,4.34841e-17,-5.56597e-15,-39.6608,5.32954,-89.2526,34.0271,10.3492,-22.7299,-47.1401,7.12502,3.70395,-77.0877,4.34841e-17,-5.56597e-15,-37.6378,-5.02082,88.32,33.0862,6.43137,-31.6096,-31.9409,7.12502,-4.87177,-2.0169,-19.2513,12.2267,16.6466,22.1144,-12.7059,-18.1492,-9.69791,-17.0578,-13.5912,-12.1613,20.8514,-13.1115,25.3098,-8.58337
-0.0261906,17.4973,5.83843,15.7843,-5.22142,-3.1445,-11.3442,0.122534,3.75028,-5.57634,-0.246534,1.23941,0.52627,-0.182542,-0.852798,-16.0635,-3.06212,-6.43615,29.5143,-3.59883,3.28742,12.6632,-1.90857,1.80242,-2.15557e-15,5.86415e-15,-39.4758,5.38918,-89.2872,33.983,10.3911,-22.8013,-47.254,7.12502,3.63496,-77.2027,-2.15557e-15,5.86415e-15,-37.4169,-5.08637,88.346,33.0904,6.58258,-31.6687,-31.543,7.12502,-4.92885,-1.62034,-19.2619,12.2832,16.7321,22.1227,-12.8278,-18.1845,-9.32271,-17.1112,-13.4697,-12.0664,20.8965,-13.105,25.2125,-8.82816
-0.0299267,17.496,5.8362,15.7892,-5.20611,-3.18527,-11.2714,0.107264,3.7293,-5.58503,-0.261105,1.2631,0.477435,-0.189994,-0.817884,-16.1756,-3.11619,-6.3835,29.5321,-3.64735,3.16553,12.6935,-1.93922,1.73766,1.4387e-14,-1.44119e-14,-39.4412,5.44067,-89.3273,33.8609,10.5132,-22.9273,-46.9764,7.12502,3.51328,-76.9272,1.4387e-14,-1.44119e-14,-37.4528,-5.05582,88.3626,33.225,6.62871,-31.5929,-30.7862,7.12502,-4.8556,-0.861866,-19.2864,12.3745,16.7798,22.149,-12.9861,-18.2213,-8.97692,-17.1572,-13.3593,-12.0048,20.9431,-13.0988,25.129,-8.75143
-0.031405,17.4949,5.83367,15.7957,-5.13836,-3.15873,-11.1797,0.0937831,3.68584,-5.58457,-0.269629,1.2467,0.428192,-0.194322,-0.81117,-16.2776,-3.20529,-6.3225,29.4963,-3.76841,3.10522,12.7049,-1.99241,1.6832,2.05463e-15,-8.94531e-15,-39.4774,5.46957,-89.3904,34.059,10.3537,-22.8876,-47.2898,7.12502,3.55161,-77.24,2.05463e-15,-8.94531e-15,-37.4319,-5.07359,88.3736,33.3001,6.64059,-31.6055,-30.4652,7.12502,-4.86784,-0.541129,-19.3068,12.3011,16.7774,22.1813,-13.0295,-18.2035,-8.84697,-17.2315,-13.2507,-12.0105,20.9986,-13.0965,24.9619,-8.65685
-0.032632,17.4928,5.83395,15.7513,-5.06406,-3.13297,-11.1742,0.0887538,3.67625,-5.50678,-0.276661,1.21955,0.506117,-0.195779,-0.835002,-16.2117,-3.23329,-6.37775,29.3272,-3.81961,3.19367,12.6283,-2.00863,1.71788,-5.10628e-15,7.95139e-15,-39.4645,5.35963,-89.3637,34.1278,10.5401,-22.9798,-46.9076,7.12502,3.46261,-76.8592,-5.10628e-15,7.95139e-15,-37.3203,-5.06543,88.3616,33.362,6.72784,-31.5751,-30.1151,7.12502,-4.83842,-0.190345,-19.2692,12.2013,16.793,22.2407,-13.013,-18.1916,-9.00848,-17.2303,-13.1973,-12.027,21.0496,-13.1342,24.8039,-8.6737
-0.0355601,17.4905,5.83457,15.721,-5.09201,-3.17378,-11.165,0.100471,3.68356,-5.46921,-0.262697,1.23193,0.540855,-0.187788,-0.824797,-16.097,-3.23789,-6.49195,29.2177,-3.81905,3.26574,12.5644,-2.01194,1.76545,-1.57397e-14,-1.68967e-15,-39.399,5.38679,-89.4274,34.1931,10.2729,-22.7733,-47.8334,7.12502,3.66205,-77.7817,-1.57397e-14,-1.68967e-15,-37.2685,-5.02499,88.3557,33.3431,6.81161,-31.3587,-29.7934,7.12502,-4.62954,0.135972,-19.2919,12.2902,16.8408,22.3334,-13.0417,-18.2755,-9.18966,-17.223,-13.1486,-11.9829,21.1068,-13.2045,24.7528,-8.68298
-0.0378762,17.4883,5.83442,15.7116,-5.14015,-3.17857,-11.0755,0.133387,3.65409,-5.47258,-0.211422,1.21985,0.491072,-0.16253,-0.81474,-16.1638,-3.27879,-6.52484,29.2382,-3.87343,3.29522,12.5916,-2.03516,1.77327,9.99359e-15,-7.85199e-15,-39.3318,5.31759,-89.4527,34.1905,10.1013,-22.648,-48.028,7.12502,3.783,-77.9742,9.99359e-15,-7.85199e-15,-37.2672,-5.09236,88.3943,33.2801,6.72569,-31.3422,-29.8648,7.12502,-4.61356,0.0649487,-19.3531,12.3523,16.8409,22.4322,-13.1423,-18.3151,-9.03236,-17.2597,-12.9326,-11.9948,21.1765,-13.2861,24.6004,-8.69675
-0.0416731,17.4852,5.83268,15.7121,-5.12192,-3.16392,-10.9712,0.162166,3.60782,-5.50194,-0.162339,1.19957,0.406127,-0.138911,-0.80402,-16.0785,-3.27862,-6.57444,29.1716,-3.89162,3.38984,12.551,-2.03648,1.8156,-3.82816e-15,2.04748e-14,-39.3925,5.16305,-89.422,34.2259,10.1356,-22.6228,-47.6453,7.12502,3.80732,-77.591,-3.82816e-15,2.04748e-14,-37.3012,-5.15174,88.4405,33.2338,6.44894,-31.5153,-29.6799,7.12502,-4.78072,0.246187,-19.4029,12.3133,16.8488,22.5201,-13.2304,-18.2799,-8.91231,-17.3323,-12.6288,-12.0107,21.2543,-13.3641,24.3223,-8.65645
-0.04712,17.4834,5.82987,15.7371,-5.05374,-3.19833,-10.8954,0.151628,3.59973,-5.56552,-0.17012,1.21436,0.298423,-0.144751,-0.784691,-15.7988,-3.25105,-6.67062,29.0196,-3.87065,3.49278,12.4345,-2.02628,1.87627,2.24642e-14,-3.04141e-14,-39.5766,5.10728,-89.4344,34.2342,10.1421,-22.8065,-47.2327,7.12502,3.62996,-77.1815,2.24642e-14,-3.04141e-14,-37.4185,-5.16852,88.4845,33.2224,6.4413,-31.57,-29.4971,7.12502,-4.83353,0.427718,-19.4761,12.3081,16.9172,22.6011,-13.2508,-18.3111,-8.93655,-17.4444,-12.418,-11.9408,21.3557,-13.384,24.1062,-8.63805
-0.0509165,17.4813,5.8313,15.7219,-5.03298,-3.22124,-10.828,0.139484,3.60452,-5.59512,-0.182569,1.21879,0.230418,-0.152362,-0.7839,-15.7232,-3.23622,-6.69748,28.9953,-3.85378,3.5176,12.4091,-2.01926,1.89352,-1.83565e-15,1.72943e-14,-39.7287,5.04772,-89.4514,34.2693,10.1201,-22.861,-47.1818,7.12502,3.57731,-77.1315,-1.83565e-15,1.72943e-14,-37.5502,-5.19379,88.5293,33.2244,6.68347,-31.6974,-30.0018,7.12502,-4.95658,-0.0797563,-19.49,12.4026,16.9527,22.6864,-13.3406,-18.4028,-8.63287,-17.5034,-12.3424,-11.9012,21.4905,-13.4455,24.0076,-8.5694
-0.0548217,17.4781,5.82949,15.6926,-5.03265,-3.31311,-10.6955,0.156906,3.66268,-5.64455,-0.157289,1.25053,0.107462,-0.142842,-0.780533,-15.5508,-3.21675,-6.77326,28.9148,-3.83061,3.57332,12.3425,-2.01134,1.93228,-3.17978e-14,1.49089e-14,-39.8819,4.94403,-89.4159,34.3407,10.2039,-23.0172,-47.2423,7.12502,3.42651,-77.1945,-3.17978e-14,1.49089e-14,-37.7024,-5.15926,88.5689,33.1602,6.66859,-31.815,-30.9324,7.12502,-5.07013,-1.01303,-19.5228,12.6069,17.0507,22.8073,-13.4118,-18.5692,-8.44172,-17.5737,-12.2977,-11.7705,21.6407,-13.6477,23.9,-8.27622
-0.0580131,17.4742,5.82358,15.674,-4.97862,-3.45141,-10.5377,0.15382,3.7605,-5.68591,-0.161654,1.30682,-0.0224003,-0.148717,-0.777111,-15.3292,-3.20051,-6.86427,28.7753,-3.8137,3.64117,12.2433,-2.00635,1.97702,3.08427e-15,-2.31584e-14,-39.9896,4.96404,-89.4469,34.5567,9.99576,-22.7766,-48.1176,7.12502,3.65883,-78.0659,3.08427e-15,-2.31584e-14,-37.8155,-5.00221,88.5463,33.0159,6.29316,-31.9464,-31.878,7.12502,-5.197,-1.96177,-19.6294,12.6732,17.2249,22.9997,-13.4525,-18.6486,-8.54246,-17.6844,-12.0566,-11.5972,21.7968,-13.7595,23.6555,-8.2542
-0.0597607,17.4681,5.82057,15.6422,-4.96176,-3.42423,-10.4448,0.126527,3.70467,-5.66064,-0.188845,1.3087,-0.047081,-0.161164,-0.746538,-15.2971,-3.18254,-6.8766,28.6804,-3.79072,3.66488,12.1979,-1.99384,1.99096,-1.13214e-15,-3.97569e-14,-40.0036,4.91064,-89.4128,34.5229,10.2601,-22.91,-47.8287,7.12502,3.53005,-77.7792,-1.13214e-15,-3.97569e-14,-37.8232,-4.7789,88.4615,33.17,6.26958,-31.9374,-31.3615,7.12502,-5.18827,-1.44501,-19.7631,12.5621,17.2274,23.2646,-13.5726,-18.5829,-8.56281,-17.7763,-11.5675,-11.6683,21.9787,-13.8086,23.2212,-8.53508
-0.0636292,17.4609,5.81372,15.5867,-5.04693,-3.26428,-10.2611,0.122043,3.48451,-5.65366,-0.166081,1.26296,-0.137129,-0.146872,-0.667829,-15.1977,-3.17363,-6.92335,28.5106,-3.78726,3.73335,12.1121,-1.98808,2.02457,1.00837e-14,-1.69961e-14,-40.0381,4.78383,-89.3757,34.6023,10.4057,-22.7815,-47.6674,7.12502,3.65406,-77.6159,1.00837e-14,-1.69961e-14,-37.8921,-4.55026,88.3532,33.2946,6.0902,-31.9044,-31.6239,7.12502,-5.15639,-1.70662,-19.945,12.6075,17.0516,23.5945,-13.6928,-18.5967,-8.53154,-17.8655,-11.0365,-11.8963,22.172,-13.8765,22.7863,-8.80484
-0.0690511,17.4529,5.8096,15.5183,-5.11835,-3.17612,-10.057,0.136994,3.33567,-5.67451,-0.122994,1.23188,-0.267415,-0.124418,-0.611949,-15.0775,-3.19417,-6.98928,28.4013,-3.82299,3.7966,12.0494,-2.00349,2.05428,6.41702e-15,1.73937e-14,-40.1291,4.61945,-89.3445,34.6734,10.4966,-22.8231,-47.5693,7.12502,3.61392,-77.5184,6.41702e-15,1.73937e-14,-38.0192,-4.41128,88.292,33.3593,5.94818,-31.7434,-31.7334,7.12502,-5.00096,-1.81244,-20.1126,12.7113,16.9582,23.9691,-13.8375,-18.6591,-8.70382,-17.9142,-10.5277,-12.0412,22.3728,-14.3583,22.3055,-7.89652
-0.0731346,17.4437,5.81447,15.4527,-5.10249,-3.15787,-9.9908,0.157213,3.30477,-5.66279,-0.0905347,1.21382,-0.289952,-0.107819,-0.610159,-15.0294,-3.24292,-7.05006,28.3825,-3.88814,3.82646,12.0387,-2.03571,2.06635,8.86611e-15,1.53064e-14,-40.1874,4.46331,-89.3036,34.705,10.4935,-22.9988,-47.3062,7.12502,3.44424,-77.2581,8.86611e-15,1.53064e-14,-38.0824,-4.48849,88.3538,33.353,6.09586,-31.6941,-31.3769,7.12502,-4.95339,-1.45478,-20.2147,12.6284,16.9801,24.3408,-14.0481,-18.6366,-8.85496,-17.944,-10.068,-12.1068,22.6226,-15.6601,21.5467,-4.75811
-0.0766412,17.4341,5.81522,15.4498,-5.02339,-3.1603,-9.98043,0.15412,3.29548,-5.64248,-0.0937271,1.21284,-0.274494,-0.108719,-0.606321,-14.9595,-3.25636,-7.07142,28.3051,-3.9076,3.83861,11.9959,-2.04513,2.07148,8.0601e-16,-8.15017e-15,-40.1842,4.35521,-89.2608,34.7545,10.3282,-23.0105,-47.4423,7.12502,3.43298,-77.3944,8.0601e-16,-8.15017e-15,-38.0669,-4.53481,88.4106,33.2614,6.22853,-31.8607,-31.7724,7.12502,-5.11424,-1.85416,-20.3931,12.4637,17.0275,24.7046,-14.1976,-18.5886,-8.88854,-18.1451,-9.65304,-12.1089,22.9311,-14.9198,21.4377,-8.18754
-0.0796551,17.4252,5.81231,15.4779,-4.92935,-3.1903,-9.88127,0.119948,3.28987,-5.63561,-0.13438,1.24292,-0.322683,-0.129022,-0.575795,-15.0235,-3.23611,-7.02823,28.2503,-3.87581,3.81341,11.9836,-2.02799,2.05818,-2.87306e-15,9.74045e-15,-40.1652,4.30011,-89.218,34.8056,10.1745,-22.8463,-47.6043,7.12502,3.59149,-77.5538,-2.87306e-15,9.74045e-15,-38.0713,-4.41605,88.3844,33.2375,6.18794,-32.0039,-32.6718,7.12502,-5.25254,-2.75692,-20.6505,12.2791,17.0953,25.1015,-14.3169,-18.5338,-9.06213,-18.4349,-9.28719,-12.0647,23.3043,-14.7505,21.1725,-9.56043
-0.0787692,17.4151,5.81587,15.4771,-4.82032,-3.13756,-9.82602,0.090581,3.27937,-5.51933,-0.172612,1.21472,-0.232994,-0.14585,-0.602908,-15.4597,-3.28311,-6.97575,28.264,-3.92519,3.81347,12.0805,-2.03887,2.03766,-8.30858e-15,7.65321e-15,-39.9674,4.18814,-89.182,34.8342,10.1659,-22.8069,-47.3826,7.12502,3.62958,-77.3314,-8.30858e-15,7.65321e-15,-37.8973,-4.39467,88.3323,33.2957,6.15895,-32.0417,-32.8497,7.12502,-5.289,-2.93573,-20.8584,11.8822,17.0902,25.5562,-14.5935,-18.3157,-9.20034,-18.7004,-8.96642,-12.1436,23.7666,-15.0648,20.769,-9.46508
-0.0764597,17.4039,5.81649,15.4997,-4.65231,-3.05646,-9.80436,0.0500643,3.28233,-5.35371,-0.229181,1.15843,-0.074611,-0.171035,-0.668586,-16.0268,-3.35648,-6.87884,28.2765,-4.00819,3.78703,12.2046,-2.06156,1.99279,1.39233e-14,-1.96797e-14,-39.6144,4.02449,-89.1409,34.8115,10.2757,-22.9562,-47.0729,7.12502,3.48542,-77.0242,1.39233e-14,-1.96797e-14,-37.5713,-4.45664,88.2714,33.3382,6.17535,-31.8893,-32.2754,7.12502,-5.14181,-2.3578,-21.1108,11.4135,17.0683,26.0878,-14.9274,-18.0927,-9.32262,-19.0991,-8.48516,-12.2511,24.3164,-15.4025,20.1784,-9.4334
-0.0771314,17.3893,5.81004,15.5324,-4.51476,-3.01843,-9.61964,-0.000613338,3.25962,-5.29936,-0.287315,1.13705,-0.120911,-0.19992,-0.68296,-16.4104,-3.39584,-6.77669,28.2831,-4.0517,3.73784,12.2853,-2.07135,1.94599,-1.22959e-15,-2.68359e-15,-39.4684,3.88732,-89.1129,34.8433,10.3359,-23.0827,-46.8644,7.12502,3.36326,-76.8176,-1.22959e-15,-2.68359e-15,-37.5297,-4.47453,88.2226,33.5215,6.22607,-31.4552,-31.31,7.12502,-4.72266,-1.38265,-21.4589,11.142,17.0747,26.726,-15.306,-17.9838,-9.17275,-19.5807,-7.82197,-12.3118,24.96,-15.7279,19.4791,-9.61565
-0.0773213,17.3688,5.80628,15.6051,-4.43372,-2.93921,-9.48334,-0.0462464,3.21605,-5.31363,-0.337576,1.09719,-0.211819,-0.226061,-0.703635,-16.5818,-3.40309,-6.76859,28.2083,-4.06999,3.80455,12.2931,-2.06717,1.96462,1.5023e-14,1.5207e-14,-39.5098,3.8046,-89.1281,34.9561,10.2307,-22.8284,-47.0413,7.12502,3.6088,-76.9905,1.5023e-14,1.5207e-14,-37.6816,-4.40948,88.1598,33.7749,6.29373,-31.1617,-30.5729,7.12502,-4.43927,-0.639414,-21.9523,10.813,17.0135,27.502,-15.7146,-17.812,-9.0247,-20.1027,-7.15574,-12.4479,25.7013,-16.0381,18.914,-10.0943
-0.0780791,17.345,5.79506,15.6947,-4.27866,-2.86355,-9.31926,-0.105194,3.17751,-5.36594,-0.404102,1.08389,-0.357983,-0.261155,-0.700547,-16.5055,-3.3726,-6.83584,27.9888,-4.03807,3.91776,12.192,-2.04459,2.02264,5.1816e-15,9.0447e-15,-39.4774,3.69344,-89.0588,34.8975,10.2881,-22.4519,-47.3027,7.12502,3.97239,-77.2454,5.1816e-15,9.0447e-15,-37.788,-4.34579,88.1516,33.8974,6.36973,-31.2661,-30.455,7.12502,-4.54008,-0.523687,-22.5909,10.3592,16.9847,28.4132,-16.0263,-17.6598,-9.19706,-20.7414,-6.47863,-12.5541,26.5306,-16.3774,18.2766,-10.384
-0.0835275,17.3183,5.77566,15.7506,-4.0925,-2.73513,-9.07993,-0.171451,2.97686,-5.39785,-0.465802,1.10091,-0.521588,-0.289607,-0.574159,-16.4311,-3.39474,-6.89952,27.7445,-4.0467,3.91626,12.0825,-2.0541,2.02962,2.56246e-17,-1.45113e-14,-39.3523,3.55359,-88.9032,34.7672,10.5002,-22.4102,-47.5262,7.12502,4.01269,-77.4682,2.56246e-17,-1.45113e-14,-37.7729,-4.38124,88.2271,33.8534,6.39422,-31.465,-30.8262,7.12502,-4.73214,-0.899044,-23.2654,9.96011,16.9308,29.4182,-16.3154,-17.595,-9.44019,-21.4509,-5.78164,-12.6811,27.4503,-16.7668,17.5452,-10.4266
-0.0899128,17.289,5.7565,15.8308,-3.94925,-2.60433,-8.921,-0.242179,2.73502,-5.30867,-0.537508,1.10457,-0.514842,-0.319047,-0.440268,-16.6644,-3.48294,-6.75738,27.482,-4.12581,3.70605,12.0237,-2.09615,1.9085,7.66719e-15,-9.83984e-15,-39.0061,3.49143,-88.8338,34.7584,10.4934,-22.1583,-47.9528,7.12502,4.2559,-77.89,7.66719e-15,-9.83984e-15,-37.5286,-4.38692,88.2041,33.7893,6.33623,-31.6463,-31.3583,7.12502,-4.90722,-1.43514,-23.9971,9.66329,16.8535,30.5158,-16.7904,-17.5214,-9.5115,-22.2297,-5.11651,-12.8146,28.4732,-17.2366,16.9147,-10.4961
-0.0940996,17.2588,5.7355,15.8844,-3.74876,-2.63934,-8.61713,-0.289583,2.7361,-5.2703,-0.589647,1.0986,-0.643139,-0.346223,-0.449027,-16.7077,-3.54267,-6.59773,27.1254,-4.23381,3.67054,11.8941,-2.12904,1.84761,-2.2531e-14,2.04748e-14,-38.8153,3.38097,-88.8302,34.8704,10.4513,-21.7949,-48.0745,7.12502,4.60678,-78.0044,-2.2531e-14,2.04748e-14,-37.4527,-4.45692,88.1264,33.9124,6.25443,-31.9242,-31.4823,7.12502,-5.1755,-1.56553,-24.7624,9.37751,16.9628,31.7125,-17.2814,-17.5063,-9.70804,-23.0621,-4.44691,-12.7659,29.6125,-17.8205,16.2107,-10.6174
-0.0947658,17.2241,5.71994,15.9029,-3.50411,-2.58106,-8.23114,-0.332402,2.74521,-5.4043,-0.629141,1.04693,-0.996211,-0.371909,-0.505903,-16.0751,-3.65469,-6.72307,26.5,-4.42066,3.80082,11.5427,-2.21346,1.89112,-5.40446e-15,4.32357e-15,-39.0973,3.30276,-88.8304,35.0377,10.4235,-21.9553,-47.6267,7.12502,4.45194,-77.5599,-5.40446e-15,4.32357e-15,-37.776,-4.6432,88.1286,34.0793,6.17308,-32.1612,-31.6212,7.12502,-5.40437,-1.71013,-25.543,8.87722,16.995,33.0394,-17.6877,-17.4796,-10.4756,-23.9617,-3.74909,-12.847,30.9539,-18.509,15.4136,-10.8697
-0.093306,17.1795,5.70817,15.95,-3.29158,-2.40422,-8.02564,-0.425352,2.62512,-5.43998,-0.736631,1.01144,-1.14783,-0.425174,-0.480305,-15.8244,-3.77032,-6.82876,26.0255,-4.54944,3.77227,11.3223,-2.28604,1.87856,7.06462e-15,-5.81445e-15,-39.2016,3.44522,-88.8496,35.1505,10.2403,-22.5456,-47.0448,7.12502,3.88189,-76.9892,7.06462e-15,-5.81445e-15,-37.961,-4.64154,88.0874,34.2962,6.19638,-32.0792,-31.9287,7.12502,-5.32522,-2.01565,-26.357,8.26374,16.886,34.4549,-18.2635,-17.3173,-10.9977,-24.9427,-3.10441,-13.0822,32.4493,-19.246,14.7013,-11.339
-0.0974735,17.1174,5.69211,16.0735,-3.15726,-2.46802,-7.99541,-0.463593,2.61063,-5.28706,-0.788658,1.07208,-1.0059,-0.447117,-0.414306,-16.7777,-3.62393,-6.84121,26.4,-4.39633,4.17815,11.6555,-2.15629,2.04636,8.2185e-15,-1.04362e-15,-38.9411,3.54817,-88.7879,35.3543,10.4163,-22.3799,-47.0408,7.12502,4.04196,-76.9822,8.2185e-15,-1.04362e-15,-37.7756,-4.57012,88.0008,34.7892,6.41933,-31.6087,-30.8524,7.12502,-4.87087,-0.928382,-27.3701,7.96984,16.9969,36.0051,-18.9826,-17.2196,-10.8385,-26.115,-2.43238,-13.0227,34.11,-20.0021,14.0996,-11.6933
-0.106848,17.0606,5.67224,16.2346,-3.08057,-2.53174,-7.86027,-0.454879,2.50779,-5.20911,-0.76741,1.14434,-0.996016,-0.432042,-0.280074,-16.4121,-3.95909,-6.96757,25.3817,-4.73267,3.84932,11.2131,-2.36022,1.89061,-1.22222e-14,2.26615e-14,-38.7901,3.65445,-88.7169,35.7707,10.4057,-21.2663,-47.8627,7.12502,5.11727,-77.7809,-1.22222e-14,2.26615e-14,-37.5344,-4.63526,87.9874,35.1766,6.63943,-31.2086,-29.3774,7.12502,-4.48456,0.555121,-28.4778,7.84298,17.0894,37.5703,-19.5744,-17.214,-10.6736,-27.4166,-1.67833,-12.9644,35.8565,-20.7039,13.5459,-11.8697
-0.110068,16.999,5.64783,16.3499,-2.82492,-2.43783,-7.5211,-0.543097,2.36684,-5.20883,-0.864461,1.1707,-1.18183,-0.478429,-0.176317,-16.3062,-4.0461,-6.9767,24.8001,-4.79537,3.68713,10.9746,-2.40695,1.82154,-1.88845e-15,-1.92821e-14,-38.6929,3.80349,-88.6766,36.0264,10.1955,-21.4162,-47.9514,7.12502,4.97252,-77.873,-1.88845e-15,-1.92821e-14,-37.3628,-4.70531,87.9644,35.3379,6.83574,-31.3431,-29.626,7.12502,-4.61443,0.303701,-29.5097,7.33457,17.061,39.1183,-20.1449,-17.1041,-10.6371,-28.7798,-1.07126,-13.0822,37.6873,-21.3253,13.0125,-12.4723
-0.106294,16.9367,5.63571,16.4582,-2.51026,-2.55931,-7.46963,-0.597693,2.59693,-5.00371,-0.95289,1.20973,-1.0032,-0.524437,-0.271903,-16.7929,-4.04287,-6.96557,24.5538,-4.75991,3.73291,10.9764,-2.37564,1.83351,-3.89804e-15,8.84592e-15,-38.3557,3.89685,-88.6119,36.3814,9.97118,-21.8257,-47.2359,7.12502,4.57708,-77.1665,-3.89804e-15,8.84592e-15,-37.0609,-4.79322,87.9137,35.6877,7.03963,-31.6199,-30.1814,7.12502,-4.88172,-0.25767,-30.4367,6.66224,17.2808,40.6556,-20.9355,-16.8518,-10.6525,-30.0539,-0.543786,-12.9846,39.5276,-22.009,12.532,-13.0686
-0.104443,16.8715,5.63086,16.5448,-2.38737,-2.86889,-7.53874,-0.531571,2.96434,-4.74442,-0.895616,1.28649,-0.700838,-0.497286,-0.398387,-17.1788,-4.08921,-7.15128,24.2224,-4.80559,4.01061,10.9436,-2.37193,1.95163,-2.31274e-14,2.56432e-14,-38.1449,4.07557,-88.5605,36.9036,9.35068,-21.8153,-46.8134,7.12502,4.58712,-76.7438,-2.31274e-14,2.56432e-14,-36.7802,-5.01888,87.9426,36.1505,7.15955,-31.6689,-30.0857,7.12502,-4.92907,-0.162997,-31.3854,6.2252,17.6697,42.2928,-21.706,-16.6824,-11.064,-31.2453,0.0580895,-12.7007,41.4411,-22.8366,12.0971,-13.0856
-0.107227,16.7945,5.60416,16.7318,-2.17262,-2.95568,-7.18843,-0.550236,3.00455,-4.83996,-0.905502,1.35988,-0.993097,-0.506284,-0.340445,-17.0676,-4.10146,-7.38732,23.8503,-4.83434,4.32424,10.801,-2.36773,2.09971,-3.72721e-17,6.85807e-15,-38.4113,4.32202,-88.512,37.4795,8.8335,-21.6802,-47.0074,7.12502,4.71762,-76.9349,-3.72721e-17,6.85807e-15,-36.9465,-5.32715,88.0504,36.5926,7.46475,-31.4471,-29.859,7.12502,-4.71489,0.0685272,-32.6523,5.72455,17.8474,44.0454,-22.1453,-16.6873,-11.8767,-32.7218,0.457577,-12.5773,43.4014,-23.6484,11.6143,-12.8828
-0.115131,16.7004,5.55319,17.0524,-1.82143,-3.0099,-6.4924,-0.648428,2.93753,-5.1583,-0.994356,1.47128,-1.70747,-0.558106,-0.179737,-16.8493,-4.07546,-7.56149,23.4873,-4.80448,4.52316,10.6333,-2.34689,2.20526,-5.8393e-15,5.1684e-15,-38.8003,4.4438,-88.3718,38.0311,8.77195,-21.6587,-46.9481,7.12502,4.73832,-76.8751,-5.8393e-15,5.1684e-15,-37.3586,-5.49404,88.1113,37.1419,7.67256,-30.9713,-29.3464,7.12502,-4.25541,0.590832,-34.2433,5.1908,18.0257,45.9017,-22.434,-16.7162,-12.6022,-34.4984,0.669517,-12.3925,45.3852,-24.3437,11.1064,-12.7889
-0.121355,16.6088,5.51041,17.1725,-1.6308,-3.22846,-5.80393,-0.659236,3.02778,-5.19801,-0.980651,1.59231,-2.13036,-0.556496,-0.0942338,-17.1673,-4.17123,-7.55313,23.2063,-4.89722,4.49286,10.597,-2.38542,2.17294,-1.72011e-14,2.62396e-14,-38.8621,4.57549,-88.229,38.6311,8.64629,-21.7929,-46.9582,7.12502,4.60879,-76.8881,-1.72011e-14,2.62396e-14,-37.3935,-5.63122,88.1043,37.7587,7.52905,-30.6753,-28.9313,7.12502,-3.96963,1.01146,-35.5595,4.84264,18.3589,47.7712,-22.9745,-16.5587,-12.7829,-35.9587,0.935194,-12.0607,47.3529,-24.9328,10.7865,-12.9995
-0.120062,16.5282,5.48868,17.1925,-1.53964,-3.39177,-5.40513,-0.631101,3.1537,-5.0108,-0.934237,1.67419,-2.15787,-0.534083,-0.0752016,-17.8871,-4.3225,-7.47835,22.9976,-5.03781,4.38708,10.6632,-2.4434,2.09017,1.84746e-14,-4.27387e-15,-38.6585,4.98824,-88.1885,39.2762,8.31996,-21.9071,-47.3242,7.12502,4.4985,-77.2565,1.84746e-14,-4.27387e-15,-37.1946,-5.87442,88.1383,38.4459,7.52656,-30.7761,-29.0271,7.12502,-4.06691,0.913797,-36.6431,4.46367,18.5934,49.5826,-23.5231,-16.3703,-13.2684,-37.1639,1.26538,-11.8772,49.2719,-25.4917,10.5634,-13.3799
-0.115979,16.4445,5.46333,17.2918,-1.36517,-3.56183,-4.7548,-0.643303,3.34255,-5.10402,-0.921294,1.76133,-2.61975,-0.537756,-0.0798116,-18.1298,-4.28862,-7.35798,22.6485,-4.98277,4.34844,10.573,-2.40679,2.05913,1.82012e-14,-5.96354e-15,-38.8093,5.59827,-88.251,39.834,7.82661,-22.3822,-46.9758,7.12502,4.03968,-76.9173,1.82012e-14,-5.96354e-15,-37.39,-6.14596,88.207,39.1673,7.77027,-31.0254,-29.6539,7.12502,-4.30767,0.28232,-37.826,4.00319,18.8335,51.355,-23.8156,-16.3866,-14.4152,-38.4507,1.61633,-11.6954,51.1736,-26.0759,10.2103,-13.8348
-0.105879,16.3547,5.43424,17.3365,-1.0834,-3.6988,-4.39401,-0.644013,3.66003,-4.95505,-0.916362,1.76598,-2.67306,-0.544235,-0.248679,-17.885,-4.18558,-7.22667,21.6566,-4.90634,4.53682,10.1627,-2.33703,2.11356,-1.03741e-14,2.00773e-14,-38.7002,5.98628,-88.2781,40.8354,7.06778,-21.689,-47.9863,7.12502,4.7091,-77.9139,-1.03741e-14,2.00773e-14,-37.1372,-6.55923,88.1952,39.7385,8.05853,-31.1552,-30.7509,7.12502,-4.43301,-0.817263,-38.9242,3.35981,19.0621,53.1453,-24.3614,-16.3128,-15.1484,-39.6551,1.79018,-11.5329,53.0397,-26.712,9.90801,-14.1958
-0.0973809,16.2573,5.41619,17.3082,-0.884587,-3.80817,-3.77865,-0.652285,3.8739,-4.97343,-0.896854,1.80684,-3.04035,-0.545596,-0.316092,-15.2293,-3.59047,-8.43629,18.7118,-4.31524,6.54767,8.67914,-1.96679,3.09857,-1.81391e-15,-1.08338e-14,-39.0111,6.20656,-88.1372,41.6085,7.43287,-21.7416,-47.6329,7.12502,4.65832,-77.5617,-1.81391e-15,-1.08338e-14,-37.3281,-6.9233,88.296,40.4251,8.37851,-31.1607,-31.3213,7.12502,-4.43831,-1.38783,-39.9553,2.7749,19.2538,54.9828,-25.1193,-16.1417,-15.3556,-40.6724,1.90958,-11.4002,54.8605,-27.3285,9.82163,-14.7358
-0.0992593,16.1698,5.3999,17.2385,-0.758532,-4.09991,-3.53043,-0.623447,4.11031,-4.60563,-0.85911,1.91119,-2.79886,-0.524591,-0.341536,-15.1614,-3.50419,-8.87111,17.534,-4.18832,7.2484,8.28376,-1.86344,3.41264,1.95057e-15,-2.60408e-14,-38.6648,6.50369,-87.9929,42.304,7.60998,-22.1756,-47.0092,7.12502,4.23916,-76.9468,1.95057e-15,-2.60408e-14,-36.9338,-7.3122,88.3208,41.1751,8.77166,-31.172,-30.873,7.12502,-4.44926,-0.939776,-41.1381,2.5043,19.6387,56.847,-25.6925,-15.8228,-15.0387,-41.6098,2.16708,-11.033,56.6068,-27.7966,9.83361,-15.9135
-0.101348,16.0982,5.38059,17.1607,-0.666684,-4.36639,-2.9639,-0.60877,4.26406,-4.43586,-0.811535,2.03538,-2.94007,-0.50335,-0.293332,-15.9306,-3.57503,-8.78118,17.4476,-4.21061,7.12081,8.39012,-1.86503,3.34501,9.80257e-15,-5.56597e-15,-38.5844,7.04993,-87.9214,43.0257,7.60011,-22.4739,-46.7673,7.12502,3.95114,-76.7104,9.80257e-15,-5.56597e-15,-36.8181,-7.60375,88.3477,41.9348,8.95657,-31.2515,-30.6214,7.12502,-4.52598,-0.689783,-42.3567,2.31975,19.9629,58.6881,-26.3102,-15.2058,-14.1169,-42.5777,2.39605,-10.6831,58.3032,-28.1513,9.7437,-16.7305
-0.0998371,16.0115,5.3548,17.0637,-0.694352,-4.28298,-2.3055,-0.579479,4.08538,-4.32991,-0.735915,2.04065,-3.19404,-0.462309,-0.181003,-16.4561,-3.68719,-8.68691,17.2249,-4.31182,7.01821,8.41377,-1.9057,3.27504,7.77745e-15,-3.06128e-14,-38.5512,7.53781,-87.8441,43.7799,7.59241,-22.1392,-47.514,7.12502,4.27432,-77.4509,7.77745e-15,-3.06128e-14,-36.7428,-8.00297,88.409,42.5556,8.98082,-31.4022,-31.1733,7.12502,-4.67147,-1.24477,-43.4296,2.01615,19.8802,60.5057,-26.7759,-14.6725,-14.0175,-43.6031,2.45071,-10.723,60.0795,-28.4895,9.49012,-16.4225
-0.0902262,15.8969,5.31973,16.9731,-0.55053,-4.01228,-1.58385,-0.622092,3.9193,-4.26869,-0.755974,1.9526,-3.53599,-0.472531,-0.169949,-16.9343,-3.80471,-8.5194,16.9947,-4.4445,6.91737,8.42661,-1.9574,3.1896,-8.44835e-16,3.77691e-15,-38.5593,7.85868,-87.7549,44.5982,7.805,-21.9683,-47.9917,7.12502,4.43942,-77.9252,-8.44835e-16,3.77691e-15,-36.6786,-8.45422,88.4229,43.1878,9.02986,-31.3808,-31.7118,7.12502,-4.65086,-1.78282,-44.3251,1.27811,19.6553,62.2897,-26.8445,-14.4738,-14.9247,-44.7354,2.26647,-10.9583,61.9082,-28.7968,9.41221,-16.4271
-0.0903536,15.7551,5.30075,17.0456,-0.651062,-3.61457,-1.26754,-0.605404,3.43427,-4.18001,-0.726502,1.85184,-3.61377,-0.443703,-0.000775162,-17.4987,-3.88383,-8.40927,16.8341,-4.51603,6.86165,8.47475,-1.97824,3.13694,7.50412e-15,-7.95139e-16,-38.5451,8.2811,-87.6579,45.3984,7.92552,-22.522,-47.405,7.12502,3.90471,-77.3489,7.50412e-15,-7.95139e-16,-36.5555,-8.87331,88.3899,43.8549,9.15312,-31.2305,-31.4094,7.12502,-4.50574,-1.47736,-45.1421,0.813551,19.2357,64.0475,-26.9261,-14.6069,-15.3738,-45.9849,2.34489,-11.3922,63.826,-29.0685,9.74016,-17.8812
-0.0782269,15.6707,5.29482,17.1346,-0.550915,-3.39241,-1.02898,-0.625064,3.37111,-4.12013,-0.744871,1.80438,-3.68623,-0.451884,-0.0115963,-17.8478,-3.99148,-8.40392,16.5543,-4.60308,6.7654,8.44693,-2.02137,3.08592,-1.49585e-14,-1.98785e-15,-38.6187,8.8383,-87.506,46.2721,7.7496,-23.0677,-46.9218,7.12502,3.37768,-76.8748,-1.49585e-14,-1.98785e-15,-36.4835,-9.29286,88.4212,44.4048,9.13844,-31.3675,-31.0147,7.12502,-4.63797,-1.08551,-46.2227,0.222991,18.9542,65.7602,-27.2463,-13.9918,-14.5484,-46.9496,2.27726,-11.6667,65.4819,-29.0931,9.79163,-18.1084
-0.0729535,15.5733,5.28639,17.2883,-0.537775,-3.17859,-0.779953,-0.617995,3.15345,-4.15739,-0.725843,1.77979,-3.86196,-0.437647,0.0879238,-17.7954,-4.10348,-8.49227,16.045,-4.72421,6.81762,8.27999,-2.07872,3.09799,-8.59744e-15,3.18055e-14,-38.7815,9.2394,-87.3061,47.1879,7.6712,-23.2438,-46.6639,7.12502,3.20762,-76.6195,-8.59744e-15,3.18055e-14,-36.5667,-9.70058,88.4422,44.8565,8.88019,-31.6168,-31.6033,7.12502,-4.8787,-1.67947,-47.3526,-0.202747,18.6755,67.4387,-27.6506,-14.014,-15.8039,-48.0336,2.32592,-11.9216,67.1121,-28.9751,9.21643,-15.8118
-0.079682,15.4733,5.27918,17.5457,-0.625112,-2.93907,-0.729681,-0.586722,2.6906,-4.09559,-0.691269,1.75958,-3.81794,-0.404169,0.324414,-17.8837,-4.20375,-8.54474,15.3942,-4.84122,6.97863,8.09288,-2.11837,3.1397,6.03808e-15,-1.78906e-15,-38.579,9.55047,-87.0929,47.9454,7.65292,-23.2418,-46.9161,7.12502,3.20957,-76.8717,6.03808e-15,-1.78906e-15,-36.4268,-10.0231,88.3032,45.3741,8.52986,-31.5306,-32.6043,7.12502,-4.79553,-2.67857,-48.6456,-0.382434,18.3759,69.0779,-28.1406,-14.0429,-16.8003,-49.2259,2.52443,-12.2056,68.6073,-29.153,9.07096,-14.9642
-0.0899039,15.3704,5.26496,17.849,-0.63203,-2.7821,-0.741888,-0.594085,2.27953,-4.0037,-0.709636,1.78074,-3.70896,-0.397971,0.575005,-18.3258,-4.27689,-8.37176,15.0202,-4.90363,6.83201,8.04143,-2.14295,3.04644,1.86361e-15,-4.17448e-15,-38.2957,9.90661,-86.8802,48.6555,7.81971,-23.0166,-47.8733,7.12502,3.42703,-77.8255,1.86361e-15,-4.17448e-15,-36.2456,-10.274,88.0813,46.0646,8.21993,-31.3367,-33.6422,7.12502,-4.60828,-3.71236,-49.9811,-0.476237,18.1906,70.6229,-28.6569,-13.8081,-16.6729,-50.5133,2.75725,-12.3748,70.0394,-29.6719,9.44109,-16.1085
-0.0944325,15.2651,5.25069,18.1298,-0.78304,-2.71016,-0.818343,-0.542575,2.00415,-3.96741,-0.64826,1.7792,-3.62371,-0.357751,0.724409,-18.6408,-4.299,-8.12914,14.8718,-4.91407,6.56284,8.03332,-2.15413,2.91018,-1.46604e-15,9.93923e-16,-38.3225,10.087,-86.6355,49.479,8.33625,-22.9656,-47.6916,7.12502,3.47627,-77.643,-1.46604e-15,9.93923e-16,-36.2049,-10.6718,87.9026,46.6797,7.98625,-31.5128,-34.486,7.12502,-4.77828,-4.55985,-51.1861,-0.461233,18.0456,71.9797,-29.067,-13.753,-16.6548,-51.6045,3.13703,-12.5192,71.3318,-30.2105,9.69993,-16.699
-0.092031,15.1762,5.24366,18.3283,-0.980413,-2.87282,-0.865251,-0.422778,2.04676,-3.94984,-0.488519,1.81068,-3.57877,-0.278444,0.728533,-18.6931,-4.32586,-8.08714,14.6382,-4.94318,6.5428,7.96496,-2.1663,2.89078,-1.98785e-15,7.95139e-16,-38.4593,10.1278,-86.3175,50.437,8.47516,-22.975,-47.2912,7.12502,3.46729,-77.2428,-1.98785e-15,7.95139e-16,-36.2778,-11.1052,87.7963,47.2521,7.66292,-31.8221,-34.7909,7.12502,-5.07693,-4.87174,-52.0442,-0.348613,18.1311,72.9928,-29.5027,-13.7632,-16.6843,-52.3642,3.57338,-12.4432,72.3948,-30.6106,9.52766,-16.4315
-0.0955884,15.1153,5.24913,18.5442,-1.10886,-3.18627,-0.981738,-0.329701,2.13635,-3.96412,-0.362613,1.94984,-3.52759,-0.215715,0.818077,-18.7155,-4.34214,-8.1131,14.3775,-4.94571,6.54991,7.88304,-2.16767,2.89532,-3.97569e-16,-5.76476e-15,-38.5651,10.3166,-85.9936,51.5213,7.92537,-22.6256,-48.5235,7.12502,3.80465,-78.4693,-3.97569e-16,-5.76476e-15,-36.4032,-11.4084,87.7325,47.7177,7.21321,-32.0347,-35.7746,7.12502,-5.28226,-5.86041,-52.6488,-0.0949157,18.4298,73.6406,-29.9096,-13.9277,-16.5518,-52.9716,4.02989,-12.1606,73.1584,-31.0553,9.13944,-15.6622
-0.0774405,15.0803,5.25474,18.6531,-0.851101,-3.4645,-1.0458,-0.398861,2.65348,-3.88419,-0.451774,2.04689,-3.41356,-0.273819,0.629436,-18.7942,-4.3078,-8.01079,13.9733,-4.87324,6.40006,7.74971,-2.14038,2.83461,4.57205e-15,-1.47101e-14,-38.4956,10.5291,-85.6537,52.2633,8.30419,-22.9977,-48.0879,7.12502,3.44532,-78.0398,4.57205e-15,-1.47101e-14,-36.2675,-11.6633,87.5583,48.0253,6.46628,-32.3895,-37.0882,7.12502,-5.62483,-7.1829,-52.7912,-0.418005,18.7689,73.9419,-30.2036,-14.2577,-16.7774,-53.3133,4.02833,-11.9329,73.6241,-31.9524,9.64268,-16.7569
-0.0693922,15.035,5.25803,18.6223,-1.00892,-3.41382,-0.966425,-0.393882,2.59127,-3.72996,-0.447567,2.03908,-3.29763,-0.268303,0.655181,-18.9773,-4.30863,-7.9807,13.6577,-4.8437,6.34641,7.6716,-2.12624,2.81213,-3.37934e-15,-1.39149e-15,-38.4046,10.4747,-85.2854,53.2872,8.72599,-23.0431,-48.145,7.12502,3.40149,-78.0976,-3.37934e-15,-1.39149e-15,-36.2158,-11.7737,87.2445,48.7243,5.42499,-32.6715,-37.1896,7.12502,-5.89705,-7.29165,-52.932,-0.368497,18.7018,74.1836,-30.2892,-14.6373,-16.9342,-53.32,4.22143,-12.1281,73.8799,-32.8737,10.3675,-18.791
-0.061466,15.0052,5.25973,18.628,-1.1843,-3.36083,-0.780389,-0.380975,2.53449,-3.71138,-0.424181,2.02841,-3.38267,-0.255612,0.676963,-19.2186,-4.34965,-8.07324,13.6759,-4.85935,6.36615,7.72259,-2.13233,2.82941,-8.00108e-15,8.94531e-15,-38.5145,10.2666,-84.9308,54.2,9.28567,-23.4344,-47.5719,7.12502,3.02362,-77.5302,-8.00108e-15,8.94531e-15,-36.4737,-11.7537,86.9623,49.5025,4.24833,-33.0601,-37.4052,7.12502,-6.2722,-7.51808,-53.0222,-0.308093,18.6783,74.2526,-30.3254,-14.9617,-17.0389,-53.2313,4.38136,-12.3253,73.9116,-33.4407,10.7303,-19.3811
-0.0538483,14.9954,5.271,18.7014,-1.33865,-3.59678,-0.847306,-0.331728,2.77061,-3.67745,-0.357762,2.09529,-3.31113,-0.22773,0.611544,-19.3247,-4.34519,-8.1664,13.5852,-4.82187,6.40376,7.71093,-2.1138,2.86053,-5.96354e-16,-2.62396e-14,-38.5558,10.0913,-84.5939,54.8755,10.0687,-23.7741,-47.4,7.12502,2.69556,-77.3627,-5.96354e-16,-2.62396e-14,-36.6352,-11.845,86.7261,49.9879,2.91623,-33.4922,-38.3259,7.12502,-6.68934,-8.45151,-52.952,-0.121527,18.9833,74.0953,-30.3773,-15.6771,-17.5368,-53.1034,4.62869,-12.1987,73.7786,-34.0117,11.177,-19.1783
-0.0536651,15.0004,5.29049,18.7445,-1.48066,-3.79809,-1.06961,-0.283026,2.89282,-3.59594,-0.302511,2.16589,-3.1014,-0.200364,0.61242,-19.2976,-4.33957,-8.26256,13.3808,-4.79628,6.48728,7.64136,-2.09887,2.90674,-5.31749e-15,0,-38.6862,9.87324,-84.2709,55.6139,11.0077,-24.2964,-47.3689,7.12502,2.19113,-77.3374,-5.31749e-15,0,-36.786,-11.9934,86.489,50.5737,1.96114,-33.2422,-38.4052,7.12502,-6.44808,-8.52332,-52.6812,0.256376,19.1937,73.7424,-30.6105,-16.2608,-17.3853,-52.8427,4.80166,-12.0467,73.4891,-34.3283,11.63,-19.1093
-0.0533411,15.0203,5.30229,18.8344,-1.47924,-3.85623,-1.17268,-0.307506,2.90071,-3.66601,-0.33571,2.24311,-3.116,-0.216549,0.687955,-19.2024,-4.35937,-8.30103,13.3587,-4.80483,6.40688,7.61737,-2.1144,2.88562,-3.8266e-15,-4.57205e-15,-38.9498,9.67395,-83.937,56.5255,10.9805,-24.247,-47.6163,7.12502,2.23882,-77.5843,-3.8266e-15,-4.57205e-15,-37.1731,-12.129,86.3783,51.1419,1.47769,-32.8762,-38.1139,7.12502,-6.09468,-8.22154,-52.403,0.6218,19.2019,73.2498,-30.9075,-16.1609,-16.0503,-52.6561,4.69663,-11.9793,73.0575,-34.1922,11.9334,-19.2835
-0.0477518,15.0584,5.31031,18.8948,-1.54115,-3.92416,-1.11993,-0.322062,2.94257,-3.87876,-0.342716,2.32885,-3.36666,-0.223277,0.755622,-18.6441,-4.28104,-8.32064,13.2526,-4.70559,6.24477,7.47663,-2.09343,2.85203,7.90169e-15,5.36719e-15,-39.3042,9.64905,-83.6873,57.101,11.1603,-24.3392,-47.8423,7.12502,2.14973,-77.8112,7.90169e-15,5.36719e-15,-37.8759,-12.3823,86.4425,51.6317,0.963105,-32.9191,-38.4144,7.12502,-6.13607,-8.52331,-52.0894,1.04395,19.182,72.5922,-30.8541,-16.0689,-15.125,-52.379,4.54476,-11.9053,72.474,-33.9825,11.9835,-19.1611
-0.0417397,15.1237,5.33251,18.8264,-1.59611,-4.09886,-1.09907,-0.318963,3.12518,-4.03564,-0.327572,2.42052,-3.54281,-0.222383,0.749745,-18.0289,-4.18365,-8.31515,13.1396,-4.58913,6.06336,7.32192,-2.06497,2.81068,2.73329e-15,-7.95139e-15,-39.7943,9.59383,-83.5124,57.6736,11.4575,-24.456,-48.3002,7.12502,2.03695,-78.2702,2.73329e-15,-7.95139e-15,-38.6558,-12.6946,86.5309,52.2012,0.581935,-32.8445,-38.8225,7.12502,-6.06407,-8.92929,-51.5007,1.41937,19.323,71.6751,-30.2546,-16.5511,-15.4628,-51.748,4.3374,-11.6889,71.6817,-33.7808,11.849,-18.5446
-0.0349723,15.2144,5.37463,18.7129,-1.56177,-4.24741,-1.21624,-0.338632,3.33859,-4.08426,-0.353499,2.51094,-3.52931,-0.240851,0.723951,-17.9864,-4.20964,-8.25902,13.3053,-4.60409,5.81071,7.3625,-2.09396,2.71669,1.05853e-14,1.51076e-14,-40.2805,9.43887,-83.3036,58.2825,11.5678,-24.5259,-49.2215,7.12502,1.96948,-79.1921,1.05853e-14,1.51076e-14,-39.2976,-12.9271,86.6222,52.6529,0.212557,-32.7853,-38.8182,7.12502,-6.00694,-8.92331,-50.5723,1.62624,19.4706,70.4803,-29.3548,-17.1878,-16.5049,-50.8446,3.99393,-11.4867,70.6283,-33.4067,11.8798,-18.1425
-0.0227474,15.3151,5.4144,18.5729,-1.58734,-4.38389,-1.28136,-0.357393,3.58618,-4.11996,-0.376089,2.60103,-3.53232,-0.258897,0.679045,-18.1766,-4.21617,-8.27692,13.6947,-4.57415,5.63033,7.51663,-2.09612,2.66251,-7.55382e-15,2.62396e-14,-40.717,9.34888,-83.0712,58.8089,11.6323,-24.8559,-49.2644,7.12502,1.65072,-79.2378,-7.55382e-15,2.62396e-14,-39.941,-13.1046,86.7723,52.9995,-0.214816,-33.0692,-38.6653,7.12502,-6.28098,-8.77841,-49.4451,1.81257,19.5558,69.0519,-28.594,-17.3263,-17.3003,-49.8112,3.69374,-11.3461,69.3304,-32.8266,12.0174,-18.28
-0.00766182,15.4358,5.44286,18.4595,-1.68018,-4.53205,-1.40171,-0.313104,3.89435,-4.13682,-0.319162,2.65958,-3.48415,-0.239008,0.565744,-18.3694,-4.18275,-8.32693,14.1852,-4.48635,5.4682,7.7025,-2.07199,2.62716,-1.44616e-14,2.10712e-14,-41.1239,9.15866,-82.8165,59.3807,11.6409,-25.0742,-48.7312,7.12502,1.43986,-78.706,-1.44616e-14,2.10712e-14,-40.4912,-13.47,87.0037,53.3006,-0.298724,-33.4308,-38.8307,7.12502,-6.63015,-8.9545,-48.3211,1.9866,19.6494,67.3827,-27.7566,-16.931,-17.4927,-48.6983,3.42899,-11.2046,67.7178,-31.9918,12.1018,-18.7188
0.00425355,15.5925,5.48479,18.3843,-1.85173,-4.55296,-1.76585,-0.202482,4.03472,-4.13379,-0.193114,2.65734,-3.27426,-0.177867,0.480673,-18.1982,-4.15885,-8.41003,14.3421,-4.44036,5.40642,7.72256,-2.06434,2.62807,1.08338e-14,-1.07344e-14,-41.5888,8.86621,-82.5864,59.8546,11.3424,-24.8694,-48.9141,7.12502,1.6377,-78.8875,1.08338e-14,-1.07344e-14,-40.8601,-14.0748,87.3162,53.3918,-0.139816,-33.6054,-39.1071,7.12502,-6.79869,-9.23623,-47.0466,2.13572,19.6047,65.4065,-26.4612,-16.4187,-17.9797,-47.3244,3.17738,-11.2192,65.7196,-30.9389,12.0916,-18.8877
0.0151074,15.7707,5.53579,18.2071,-2.0286,-4.49031,-2.16596,-0.14012,4.03563,-4.11436,-0.135536,2.66333,-3.02727,-0.145648,0.483403,-17.5221,-4.10441,-8.4735,14.0874,-4.39656,5.38588,7.52078,-2.05783,2.64295,-8.94531e-16,2.82274e-14,-42.0916,8.75778,-82.4591,60.1063,10.9779,-24.7876,-49.3841,7.12502,1.7167,-79.357,-8.94531e-16,2.82274e-14,-41.3002,-14.6068,87.671,53.4314,0.141606,-33.4664,-39.1135,7.12502,-6.66446,-9.23841,-45.4636,2.2111,19.4632,63.1393,-24.8409,-16.0185,-19.1464,-45.5635,2.92785,-11.338,63.3783,-29.7051,11.66,-18.392
0.0286116,15.967,5.58346,17.8958,-2.23756,-4.52728,-2.45208,-0.0822691,4.16727,-4.04078,-0.079413,2.70668,-2.7895,-0.11692,0.452645,-17.2167,-4.07216,-8.47795,14.281,-4.35703,5.23486,7.52624,-2.05947,2.60208,1.12313e-14,-2.54444e-14,-42.5903,8.7139,-82.3303,60.4348,10.6737,-24.9059,-49.6596,7.12502,1.60244,-79.6333,1.12313e-14,-2.54444e-14,-41.9456,-14.976,88.1001,53.6664,0.597841,-33.2038,-38.8108,7.12502,-6.41096,-8.92783,-43.6236,2.29112,19.4012,60.5988,-23.1991,-15.1793,-19.5822,-43.5009,2.72031,-11.3392,60.7346,-28.1795,10.8299,-17.5996
0.0447462,16.1881,5.64208,17.5546,-2.59343,-4.65126,-2.79131,0.0611343,4.44965,-3.90322,0.0810275,2.7194,-2.45368,-0.0380987,0.307045,-17.5818,-4.05544,-8.49261,15.0976,-4.3042,5.12965,7.85359,-2.04591,2.57523,1.2921e-15,3.26007e-14,-42.9857,8.53913,-82.1507,60.7082,10.3395,-24.9351,-49.6347,7.12502,1.57425,-79.6086,1.2921e-15,3.26007e-14,-42.5975,-15.2848,88.5124,54.0194,1.09616,-33.058,-38.405,7.12502,-6.27024,-8.51777,-41.5875,2.46771,19.3489,57.859,-21.3863,-13.8765,-19.7827,-41.2626,2.62717,-11.2789,57.8483,-26.1947,10.0486,-16.2634
0.0622116,16.4288,5.70593,17.3771,-2.96096,-4.60912,-3.19103,0.186714,4.60578,-3.92396,0.219059,2.65738,-2.24711,0.0289065,0.157658,-17.5965,-3.94093,-8.50028,15.6854,-4.1677,5.15458,8.04293,-1.98364,2.60491,-3.47873e-15,2.34566e-14,-43.4427,8.37862,-82.0824,60.6965,9.99444,-24.9187,-49.5151,7.12502,1.5901,-79.4889,-3.47873e-15,2.34566e-14,-43.4028,-15.4935,88.8696,54.3706,1.38046,-32.8577,-37.9968,7.12502,-6.07681,-8.1039,-39.7134,2.56055,19.0723,55.0339,-19.0652,-12.6128,-21.4144,-39.1253,2.49484,-11.4285,54.7669,-23.9531,9.46341,-16.1783
0.0732843,16.6757,5.74193,17.5928,-2.91372,-4.31488,-3.44975,0.126823,4.46394,-4.32837,0.142284,2.61953,-2.52355,-0.0151078,0.198995,-17.1401,-3.78243,-8.50437,16.0741,-4.00298,5.15651,8.08136,-1.91567,2.63367,1.68967e-15,-2.06736e-14,-44.0986,8.36859,-82.1079,60.4095,9.68866,-25.2186,-49.1711,7.12502,1.30045,-79.1469,1.68967e-15,-2.06736e-14,-44.4339,-15.5815,89.3081,54.6022,1.50023,-32.6456,-37.8647,7.12502,-5.87203,-7.96603,-38.4554,2.43155,18.5755,52.2221,-16.3687,-11.1834,-24.7106,-37.6268,2.03752,-11.7044,51.5739,-21.9704,8.93464,-20.7334
0.0874323,16.9395,5.79861,17.6585,-3.15309,-4.16498,-4.00242,0.154747,4.42957,-4.47715,0.149902,2.6323,-2.36818,-0.00946304,0.23238,-16.9896,-3.69439,-8.41498,16.5722,-3.88684,4.92209,8.20687,-1.8851,2.55882,6.01324e-15,-1.15295e-14,-44.4332,8.43198,-82.061,59.9222,9.41014,-25.2916,-48.9727,7.12502,1.22993,-78.9489,6.01324e-15,-1.15295e-14,-45.1255,-15.5719,89.7449,54.5578,1.67256,-32.739,-38.2293,7.12502,-5.96219,-8.33316,-36.9691,2.71556,18.0742,49.3274,-13.5896,-9.38699,-29.3352,-35.7151,1.72688,-11.8587,48.2982,-17.8978,8.48543,-19.7546
0.101218,17.224,5.87379,17.5458,-3.61449,-4.29217,-4.79916,0.274584,4.65435,-4.41074,0.24614,2.68643,-1.852,0.0421669,0.166294,-16.6654,-3.59793,-8.3163,16.8714,-3.7639,4.66109,8.23452,-1.8542,2.47445,1.49089e-15,3.97569e-16,-44.681,8.46303,-82.0199,59.4936,9.07641,-24.8332,-49.2507,7.12502,1.67262,-79.2239,1.49089e-15,3.97569e-16,-45.63,-15.5169,90.1258,54.3847,2.15936,-32.7994,-38.4858,7.12502,-6.02058,-8.59137,-35.2222,3.35206,17.7964,46.3342,-10.5369,-7.27334,-31.8604,-33.5387,1.52203,-11.7331,45.1076,-14.5486,7.94775,-23.9066
0.110429,17.5189,5.93994,17.4851,-4.26341,-4.51322,-5.29597,0.473583,4.86315,-4.56363,0.476086,2.73518,-1.72694,0.152698,0.110803,-15.808,-3.47491,-8.39081,17.0666,-3.66705,4.70624,8.14394,-1.82218,2.52283,1.28713e-14,5.56597e-15,-45.2803,8.37051,-82.0549,59.0475,8.73951,-24.7161,-49.0122,7.12502,1.78574,-78.9845,1.28713e-14,5.56597e-15,-46.4192,-15.4269,90.4898,54.3243,2.87362,-32.3563,-38.2413,7.12502,-5.59275,-8.33507,-33.6645,4.26404,17.5728,43.2391,-5.79348,-4.96363,-33.8341,-31.6456,1.36861,-11.4878,42.1375,-11.1752,6.62772,-28.1437
0.123053,17.8213,5.99587,17.6707,-4.78972,-4.51027,-5.72389,0.638386,4.88176,-4.85933,0.677735,2.72427,-1.78933,0.248113,0.100691,-15.2132,-3.35839,-8.46677,17.4173,-3.57118,4.80348,8.15194,-1.78388,2.58737,1.03368e-14,-3.33958e-14,-45.7767,8.15945,-82.0357,58.4511,8.16293,-25.1483,-48.5994,7.12502,1.3683,-78.5747,1.03368e-14,-3.33958e-14,-47.1935,-15.2603,90.7962,54.2847,3.37535,-31.9327,-37.7036,7.12502,-5.18372,-7.78698,-32.4935,4.78404,17.1588,40.1296,-0.61195,-2.3184,-35.462,-30.3748,1.00667,-11.4434,39.4088,-6.59672,4.78196,-27.2947
0.140273,18.1243,6.04576,18.2697,-5.58434,-4.58325,-6.47391,0.909826,4.96575,-5.1674,0.99438,2.70923,-1.68202,0.401839,0.0613141,-15.1393,-3.25176,-8.23502,17.9213,-3.43428,4.48426,8.28819,-1.74173,2.46202,1.31695e-14,-7.95139e-16,-46.0039,8.04728,-82.0006,57.8443,7.36902,-25.3846,-48.7404,7.12502,1.1401,-78.7171,1.31695e-14,-7.95139e-16,-47.7345,-14.9997,91.0199,54.101,3.86221,-32.0778,-37.6096,7.12502,-5.32382,-7.69651,-32.0064,5.15679,16.7581,37.1683,4.40247,0.558767,-37.4169,-29.7629,0.952788,-11.4506,36.9131,-1.02434,3.85036,-23.9953
0.154361,18.4273,6.09483,18.5035,-5.97386,-4.56334,-7.15534,1.01744,5.098,-5.3095,1.08564,2.66266,-1.44736,0.445242,-0.0456489,-14.9408,-3.13068,-8.00497,18.4001,-3.30275,4.24998,8.39646,-1.69513,2.36564,4.77083e-15,4.37326e-15,-46.1412,7.97,-82.059,57.1951,6.63144,-25.4101,-47.8431,7.12502,1.11553,-77.8199,4.77083e-15,4.37326e-15,-48.1975,-14.6796,91.0914,53.8572,4.65219,-32.2515,-38.2568,7.12502,-5.49158,-8.34792,-31.2987,5.53688,16.3457,34.5091,9.34147,2.38304,-36.1554,-28.9895,0.698744,-11.4487,34.5288,4.49338,3.71517,-21.5341
0.167394,18.7312,6.12375,18.6287,-5.94879,-4.22298,-7.70887,0.975641,5.02871,-5.4247,0.997337,2.51031,-1.26287,0.402181,-0.16206,-14.5916,-2.99853,-7.87929,18.7532,-3.19031,4.25773,8.44247,-1.64055,2.36644,-2.9768e-14,3.57812e-15,-46.1818,7.64924,-82.0342,56.3909,5.92927,-25.2869,-46.919,7.12502,1.23448,-76.8952,-2.9768e-14,3.57812e-15,-48.6311,-14.4799,91.0942,53.7159,5.66977,-32.2121,-38.4351,7.12502,-5.45353,-8.5253,-30.6464,5.69532,15.6688,32.1436,14.0851,2.68821,-32.1175,-28.3623,0.192094,-11.6598,32.3329,9.32676,3.83632,-19.1534
0.149494,19.0227,6.14999,18.7093,-6.48924,-3.95474,-8.07101,1.08656,4.41434,-5.45968,1.15801,2.44969,-1.09971,0.500098,0.134354,-14.6303,-2.98765,-7.6337,19.1962,-3.19213,4.02953,8.59156,-1.65139,2.251,5.11871e-15,-1.15295e-14,-46.0631,7.22751,-81.8455,55.3975,5.44602,-24.8581,-47.7744,7.12502,1.64859,-77.7478,5.11871e-15,-1.15295e-14,-48.9543,-14.4426,91.1461,53.678,6.87382,-32.0766,-37.658,7.12502,-5.32272,-7.7448,-30.332,7.0392,14.8961,30.2574,18.1926,2.34017,-29.2552,-27.6661,0.100598,-11.7786,30.4011,13.3636,4.03851,-17.3366
0.185318,19.3125,6.17879,18.6804,-6.14078,-4.10778,-8.22274,1.04878,5.25063,-5.45161,1.04269,2.40803,-1.00205,0.421824,-0.38045,-14.7663,-2.99417,-7.62428,19.6627,-3.19501,3.99107,8.77461,-1.6596,2.23826,-1.02126e-14,-1.15295e-14,-45.9164,6.93594,-81.687,54.569,5.05399,-24.742,-47.8335,7.12502,1.76079,-77.806,-1.02126e-14,-1.15295e-14,-49.1373,-14.3337,91.1538,53.6275,8.14349,-31.7958,-36.7529,7.12502,-5.0516,-6.83313,-29.7254,6.27611,15.0234,28.9859,21.1277,3.4024,-25.9684,-26.9857,-0.208927,-11.5876,28.911,16.1896,3.79413,-16.2387
0.181669,19.5624,6.20124,19.2584,-6.12115,-4.08779,-9.20496,1.03989,5.19775,-5.5057,0.961788,2.45263,-0.524176,0.391462,-0.296713,-14.5276,-2.86516,-7.80555,19.7517,-3.04076,4.20117,8.75744,-1.58253,2.36161,-6.11263e-15,1.90833e-14,-45.9685,6.91864,-81.7784,53.9488,3.00417,-27.8369,-41.9198,7.12502,-1.22838,-71.896,-6.11263e-15,1.90833e-14,-49.078,-14.2301,91.1664,53.3183,9.3954,-31.9333,-36.523,7.12502,-5.18428,-6.60646,-30.2109,6.56911,14.7993,28.4256,23.67,3.16637,-22.6414,-27.2524,0.170873,-11.6166,28.1196,17.5988,4.28596,-14.8837
0.174735,19.774,6.19443,19.3351,-6.5003,-3.46543,-9.46111,1.04087,4.35828,-5.44347,1.00831,2.31507,-0.322584,0.436138,0.0377616,-14.2205,-2.77781,-7.8636,19.6673,-2.95774,4.32987,8.66953,-1.53707,2.42664,-2.47735e-14,7.15625e-15,-45.8581,6.44819,-81.4386,53.7941,3.66347,-25.3937,-46.6369,7.12502,1.1313,-76.6136,-2.47735e-14,7.15625e-15,-48.8813,-14.3892,91.3036,52.8176,10.913,-32.4875,-36.9265,7.12502,-5.71938,-7.0237,-30.6247,7.18921,13.8955,28.5597,23.3648,1.73701,-23.0878,-27.3016,0.800125,-12.5165,28.1053,18.1709,5.43867,-16.115
0.175889,19.9541,6.18113,19.4424,-6.6227,-3.19477,-9.67502,1.03785,4.10444,-5.42984,1.0113,2.21844,-0.192261,0.443859,0.0834325,-13.8756,-2.75545,-7.9814,19.6296,-2.98747,4.60295,8.60101,-1.53558,2.53782,2.11209e-15,-5.56597e-15,-45.6981,6.4106,-81.5656,53.0318,2.33272,-26.1303,-46.1562,7.12502,0.4199,-76.1356,2.11209e-15,-5.56597e-15,-48.8605,-14.6593,91.4552,52.4109,12.5528,-32.6565,-36.9109,7.12502,-5.88258,-7.01259,-31.1797,7.57679,13.5041,29.3217,23.3412,0.724865,-22.8128,-27.5716,1.62877,-13.1391,28.7226,18.5721,6.42019,-15.7187
0.183396,20.1124,6.15609,19.5457,-6.60484,-3.00311,-9.52839,0.971688,4.04896,-5.53686,0.941685,2.15022,-0.385215,0.405326,0.0344324,-13.7918,-2.76216,-8.05342,19.8425,-3.02165,4.73122,8.66322,-1.54742,2.59229,3.19546e-14,2.22639e-14,-45.4743,6.43927,-81.6704,52.1623,1.71006,-26.1196,-46.2137,7.12502,0.430265,-76.193,3.19546e-14,2.22639e-14,-48.8357,-14.7835,91.4942,52.0292,13.7183,-32.6579,-36.845,7.12502,-5.88395,-6.94666,-31.8498,7.7252,13.2943,30.4484,23.5437,-0.341774,-22.3466,-28.1855,2.49278,-13.7191,29.8964,19.0208,7.17803,-14.8355
0.196533,20.2691,6.15972,19.5278,-6.51093,-2.7882,-9.6313,0.885627,4.03034,-5.51356,0.82197,2.11422,-0.307663,0.346537,-0.00183667,-14.0261,-2.77386,-7.94992,20.2529,-3.01051,4.53792,8.84123,-1.55593,2.51289,-1.44119e-15,-2.62396e-14,-45.26,6.3714,-81.6099,51.4407,1.55821,-25.8017,-46.7851,7.12502,0.737285,-76.7636,-1.44119e-15,-2.62396e-14,-48.5734,-14.7061,91.4412,51.5908,14.0912,-32.68,-37.0189,7.12502,-5.90529,-7.12119,-32.2651,7.24187,13.2514,31.6979,23.289,-0.429791,-23.0918,-28.7316,3.42903,-14.3807,31.4569,19.2376,7.26674,-14.1881
0.204086,20.408,6.15142,19.4765,-6.41729,-2.8997,-9.70837,0.859186,4.20347,-5.46243,0.76518,2.19916,-0.213959,0.317335,-0.0148217,-13.8132,-2.66799,-8.02249,20.3422,-2.89083,4.64537,8.82662,-1.49777,2.57855,2.10215e-14,7.15625e-15,-45.0996,6.21919,-81.4767,50.8784,1.56988,-24.8888,-47.7841,7.12502,1.61892,-77.7577,2.10215e-14,7.15625e-15,-48.1999,-14.5826,91.4033,50.9627,13.8566,-32.6203,-36.9652,7.12502,-5.84767,-7.06594,-32.6767,6.90976,13.6073,32.9683,22.8814,0.356567,-24.2087,-29.3198,4.31907,-14.5581,33.255,19.248,6.61249,-13.8321
0.204003,20.5312,6.13049,19.3665,-6.46844,-2.8884,-9.61758,0.858128,4.1066,-5.43367,0.775777,2.24509,-0.23461,0.325401,0.0867791,-13.2837,-2.55905,-8.24482,20.2753,-2.80282,4.96287,8.70716,-1.44665,2.73711,-1.39149e-15,-3.02153e-14,-44.8705,6.04524,-81.3734,50.161,1.51764,-23.8826,-48.3952,7.12502,2.59072,-78.3592,-1.39149e-15,-3.02153e-14,-47.7571,-14.4508,91.313,50.2393,13.1581,-32.5126,-36.9793,7.12502,-5.74365,-7.07713,-33.1069,6.90503,13.7497,34.1624,22.5517,0.933549,-24.274,-29.9225,4.9637,-14.7478,35.111,19.1067,5.35616,-14.0673
0.202044,20.645,6.10403,19.3544,-6.49045,-3.08661,-9.39318,0.874887,4.17727,-5.47386,0.80729,2.34208,-0.399295,0.338182,0.147389,-12.9138,-2.56596,-8.29901,20.4434,-2.84427,4.99388,8.70073,-1.47394,2.75584,9.54166e-15,9.54166e-15,-44.544,5.81269,-81.2908,49.2376,1.51121,-23.2958,-48.783,7.12502,3.15745,-78.7394,9.54166e-15,9.54166e-15,-47.2509,-14.079,90.9945,49.6995,11.4982,-32.1152,-36.145,7.12502,-5.35992,-6.23278,-33.6102,7.12699,14.0578,35.2581,22.2503,0.917249,-23.4536,-30.6282,5.37804,-14.6081,36.9557,18.8259,3.78214,-14.1573
0.205354,20.7524,6.07607,19.2172,-6.4638,-3.48874,-8.90321,0.882715,4.55659,-5.59828,0.825984,2.4642,-0.796078,0.332796,0.0565826,-13.6361,-2.79113,-7.71575,21.8037,-3.0818,4.18201,9.30029,-1.63075,2.36033,9.49197e-15,-3.02153e-14,-44.5312,5.61702,-81.3063,48.4279,1.67592,-22.5515,-49.6494,7.12502,3.87619,-79.5939,9.49197e-15,-3.02153e-14,-47.158,-13.9913,91.0498,48.9329,11.6629,-31.8667,-36.6705,7.12502,-5.12001,-6.75239,-33.8163,7.27133,14.6218,36.1834,21.7349,1.07642,-23.2438,-31.0937,5.66245,-14.2214,38.6384,18.4583,2.55941,-14.1888
0.206078,20.8552,6.04804,18.8479,-6.45005,-3.74987,-8.09528,0.835652,4.77711,-5.7978,0.814207,2.53414,-1.44841,0.3088,-0.00560173,-15.6841,-3.34275,-6.52403,24.3982,-3.61501,2.42162,10.5988,-1.98171,1.46592,2.11706e-14,3.33958e-14,-44.9009,5.46159,-81.4161,47.9311,1.83167,-21.6866,-50.5607,7.12502,4.71135,-80.4884,2.11706e-14,3.33958e-14,-47.1688,-13.6736,90.7787,48.3065,10.0622,-31.5228,-35.7198,7.12502,-4.78796,-5.79389,-33.6705,7.36222,15.0887,36.8742,21.2716,1.04947,-22.918,-31.3096,5.79309,-13.9089,40.0761,17.9774,1.66695,-14.5355
0.208314,20.9537,6.03502,18.4114,-6.30051,-4.17734,-7.34618,0.760336,5.24467,-5.92082,0.74942,2.61629,-1.99198,0.252016,-0.193433,-15.2786,-3.37529,-6.4531,24.8481,-3.70747,2.37065,10.6878,-2.03242,1.4288,1.19768e-14,-3.57812e-14,-45.1161,5.24852,-81.576,47.4274,1.7923,-21.2465,-51.5125,7.12502,5.13639,-81.4303,1.19768e-14,-3.57812e-14,-47.2483,-13.602,90.6667,47.5302,9.65177,-31.5498,-36.3546,7.12502,-4.81399,-6.42927,-33.1987,7.2372,15.824,37.3262,20.722,1.01903,-22.7737,-31.2779,5.73066,-13.2881,41.1757,17.155,0.848406,-15.289
0.217987,21.045,6.03525,18.021,-6.07089,-4.87956,-6.76773,0.691658,6.13548,-5.96467,0.665749,2.74292,-2.36291,0.174511,-0.56701,-15.0261,-3.35251,-6.29652,25.2764,-3.73171,2.31648,10.7931,-2.04241,1.38375,-2.71838e-14,-1.66979e-14,-45.2423,5.04659,-81.7116,46.7262,1.96844,-21.1883,-51.5813,7.12502,5.19252,-81.4976,-2.71838e-14,-1.66979e-14,-47.2526,-13.4379,90.4684,46.8167,9.19893,-31.7777,-36.4797,7.12502,-5.03413,-6.55947,-32.5504,6.88786,16.8571,37.613,20.122,0.746816,-22.194,-30.9726,5.62025,-12.3665,41.8598,16.2768,0.594198,-15.6944
0.224536,21.1292,6.03555,17.6378,-6.04337,-5.41916,-6.27341,0.636314,6.76039,-5.9585,0.611684,2.85218,-2.63672,0.121237,-0.806462,-14.7606,-3.24625,-6.17683,25.4965,-3.66303,2.4066,10.8175,-1.99392,1.40973,-5.56597e-15,-2.14687e-14,-45.4995,4.9298,-81.8492,46.4994,2.0532,-20.7471,-52.4412,7.12502,5.61855,-82.3468,-5.56597e-15,-2.14687e-14,-47.2135,-13.2277,90.2542,46.2502,8.92358,-31.8571,-35.4817,7.12502,-5.11078,-5.56334,-32.0395,6.75671,17.6005,37.8282,19.743,-0.557683,-19.6489,-30.5526,5.50016,-11.6488,42.1168,15.8012,1.29555,-15.1795
0.225312,21.2015,6.03959,17.0615,-6.15576,-5.62043,-5.88773,0.565046,6.93119,-5.76484,0.536243,2.89971,-2.65382,0.0816894,-0.857891,-14.5257,-3.18227,-6.13877,25.6587,-3.63392,2.51582,10.8308,-1.96805,1.45022,1.84373e-14,-1.39149e-14,-45.4541,4.71557,-81.9029,46.1156,2.2151,-20.181,-53.1494,7.12502,6.16505,-83.0397,1.84373e-14,-1.39149e-14,-47.0301,-12.968,89.9798,45.7512,8.56724,-31.9974,-34.8941,7.12502,-5.24624,-4.979,-31.4637,6.87686,17.9222,38.0605,19.3334,-1.80932,-17.1675,-29.8351,5.20091,-11.2485,41.9595,15.6956,2.60614,-13.9738
0.228227,21.257,6.04452,16.2545,-5.95846,-5.52078,-5.53991,0.394234,6.92553,-5.44802,0.323371,2.86384,-2.52868,-0.0154899,-0.902339,-14.1814,-3.14094,-6.13239,25.7529,-3.63314,2.62185,10.7995,-1.95881,1.49202,-1.19271e-15,5.1684e-15,-45.1218,4.39063,-81.8646,45.3272,2.51981,-19.6089,-53.2318,7.12502,6.71734,-83.1052,-1.19271e-15,5.1684e-15,-46.7385,-12.7792,89.6944,45.25,8.1873,-32.2483,-34.9442,7.12502,-5.48844,-5.03532,-30.5034,6.68012,18.0571,38.259,18.6036,-2.19068,-17.0624,-28.7841,4.51972,-11.0829,41.4746,15.689,3.55787,-13.2147
0.233809,21.3056,6.04796,15.4634,-5.56842,-5.26943,-5.02009,0.140106,6.80472,-5.27085,0.0280561,2.80841,-2.65141,-0.159727,-0.9029,-13.8886,-3.11999,-6.16314,25.9163,-3.65503,2.7451,10.8065,-1.96185,1.54282,7.56624e-15,-4.33351e-14,-45.0315,4.12076,-81.8378,44.7659,2.84474,-19.5049,-53.2171,7.12502,6.81778,-83.0874,7.56624e-15,-4.33351e-14,-46.633,-12.6659,89.5228,44.7894,8.10925,-32.4527,-34.9353,7.12502,-5.68578,-5.03156,-29.4261,6.13301,18.1334,38.4493,17.3906,-2.31711,-18.5696,-27.7162,3.6671,-11.0778,40.8109,15.5938,3.86007,-14.4947
0.235068,21.3503,6.0547,15.1749,-5.66022,-5.29104,-4.58639,0.0340262,6.72868,-5.34779,-0.064868,2.84913,-2.98007,-0.212978,-0.81869,-14.1544,-3.00721,-6.11161,26.6546,-3.53696,2.84048,11.1299,-1.89612,1.5858,-3.37934e-15,1.35174e-14,-45.1983,3.9636,-81.8614,44.1158,3.06624,-20.7538,-51.383,7.12502,5.61205,-81.2887,-3.37934e-15,1.35174e-14,-46.7437,-12.4965,89.4103,44.3926,8.35138,-32.5478,-35.2006,7.12502,-5.7776,-5.29933,-29.1951,6.15022,18.1926,38.5547,16.4467,-3.69606,-16.1967,-27.0016,3.32933,-10.9348,40.0639,15.5371,3.91354,-17.0095
0.230133,21.3771,6.0604,15.3736,-6.16577,-5.42305,-4.6794,0.108813,6.65613,-5.50672,0.0365454,2.86711,-3.08753,-0.165605,-0.756676,-14.5816,-2.80117,-5.95797,27.6005,-3.31143,2.94552,11.5625,-1.77015,1.63231,1.46604e-15,-2.0276e-14,-45.4357,3.83058,-82.0108,43.6045,2.48042,-22.4352,-49.0722,7.12502,3.9885,-79.0146,1.46604e-15,-2.0276e-14,-46.9027,-12.305,89.1434,44.2067,8.32569,-32.2688,-34.5627,7.12502,-5.50823,-4.65425,-29.5116,6.40598,18.2586,38.6489,15.8436,-4.01536,-15.3346,-26.7286,3.43036,-10.7695,39.2898,15.617,4.40282,-18.5659
0.223249,21.3916,6.06575,15.4566,-6.41088,-5.27473,-4.96613,0.102428,6.42743,-5.56643,0.00856829,2.7879,-2.98845,-0.172024,-0.712629,-14.543,-2.69596,-5.93404,28.0385,-3.22672,3.09267,11.7214,-1.71601,1.69904,-1.08462e-14,3.97569e-16,-45.573,3.56902,-82.1208,43.1411,2.23753,-23.2524,-47.6487,7.12502,3.19939,-77.6045,-1.08462e-14,3.97569e-16,-47.0236,-12.0976,88.7541,44.1664,7.65015,-31.9781,-33.481,7.12502,-5.22763,-3.56545,-29.6314,6.45906,18.1155,38.7158,15.1795,-3.94719,-15.9601,-26.4818,3.30778,-10.8117,38.4919,15.6683,5.2911,-18.7538
0.216627,21.3916,6.07305,15.3355,-6.4383,-4.98128,-5.1045,-0.00482733,6.11226,-5.58834,-0.138592,2.70562,-2.93844,-0.235518,-0.626619,-14.3508,-2.62641,-5.93825,28.2671,-3.15565,3.12424,11.7678,-1.68529,1.72539,1.4971e-14,-7.15625e-15,-45.6279,3.23902,-82.1013,42.6182,2.46933,-22.7877,-47.8406,7.12502,3.64814,-77.7891,1.4971e-14,-7.15625e-15,-47.0914,-11.9584,88.4909,43.9888,7.12192,-32.1718,-33.4651,7.12502,-5.41463,-3.55428,-29.5306,6.39075,17.8926,38.8395,14.5555,-5.15568,-14.4754,-26.0752,3.08132,-10.9651,37.7028,15.913,5.19723,-19.2602
0.211696,21.3769,6.08382,15.3543,-6.49245,-4.66215,-5.23835,-0.0982163,5.76457,-5.78833,-0.255107,2.65952,-3.0747,-0.288922,-0.482567,-14.2087,-2.52962,-5.92419,28.747,-3.00154,2.98353,11.9163,-1.63915,1.69797,-5.39203e-15,-3.57812e-14,-45.9847,3.01552,-81.9815,42.2352,2.82821,-22.314,-47.9034,7.12502,4.10558,-77.8436,-5.39203e-15,-3.57812e-14,-47.3032,-11.9199,88.46,43.675,7.1842,-32.3003,-33.7004,7.12502,-5.53871,-3.79276,-29.5769,6.28178,17.6148,38.967,13.6541,-5.06309,-15.0116,-25.8159,2.97049,-11.1859,36.9328,16.3983,4.16345,-20.6451
0.209098,21.3539,6.09663,15.5947,-6.51003,-4.31133,-5.47576,-0.193805,5.374,-6.15132,-0.372585,2.65003,-3.32263,-0.344236,-0.275358,-13.9094,-2.42692,-5.98085,29.2028,-2.81631,2.80437,12.024,-1.59363,1.67338,-1.64572e-14,2.06736e-14,-46.5867,2.6858,-81.6959,42.2236,3.39636,-21.2747,-48.5252,7.12502,5.10911,-78.4436,-1.64572e-14,2.06736e-14,-47.6167,-11.8649,88.5074,43.3353,7.13768,-32.1369,-33.8778,7.12502,-5.38094,-3.96617,-29.7892,6.03707,17.2774,38.985,13.0575,-5.05604,-15.0976,-25.8239,2.86828,-11.4482,36.1778,16.7198,3.34828,-22.1022
0.200906,21.3182,6.10302,15.8895,-6.63207,-4.01571,-5.80175,-0.242688,4.91037,-6.3426,-0.439886,2.63577,-3.33639,-0.363299,-0.0343072,-13.8108,-2.36513,-5.88124,29.3718,-2.6895,2.55728,12.0592,-1.56057,1.58347,-2.24607e-14,1.31198e-14,-46.8291,2.02674,-81.4134,41.9587,3.13381,-22.1406,-47.6138,7.12502,4.273,-77.5507,-2.24607e-14,1.31198e-14,-47.6236,-11.8662,88.4261,43.1232,6.84146,-31.9198,-33.5387,7.12502,-5.17131,-3.62184,-30.1267,6.00568,16.9633,38.9428,12.6646,-4.6826,-16.4584,-25.8856,2.87013,-11.6443,35.4625,16.8917,3.27557,-22.5213
0.193822,21.2801,6.14237,16.331,-6.69836,-4.0476,-6.89967,-0.193141,4.90692,-6.30838,-0.455265,2.63402,-2.68992,-0.35975,-0.0446622,-13.9838,-2.39463,-5.74975,29.5213,-2.69984,2.36251,12.1505,-1.57586,1.48549,-3.11261e-15,7.95139e-16,-46.8045,1.35393,-81.1772,41.5821,2.94966,-23.1395,-45.6479,7.12502,3.3084,-75.6019,-3.11261e-15,7.95139e-16,-47.4288,-12.0307,88.3195,42.9347,6.68394,-31.8242,-33.6945,7.12502,-5.07895,-3.77536,-30.3692,5.91596,16.9771,38.777,11.9701,-4.94807,-15.7515,-25.9529,3.01579,-11.5303,34.8063,17.0236,3.85415,-20.7103
0.186958,21.2276,6.1714,16.766,-6.69003,-3.92517,-7.86826,-0.188356,4.73826,-6.34846,-0.508173,2.6106,-2.19518,-0.373238,0.0149087,-14.1539,-2.43343,-5.81726,29.789,-2.73689,2.37772,12.297,-1.6,1.49792,1.23697e-14,-2.50469e-14,-46.9118,0.973464,-81.0128,41.3345,2.67208,-23.7615,-44.8164,7.12502,2.70772,-74.7789,1.23697e-14,-2.50469e-14,-47.2641,-12.1991,88.2313,42.6301,6.56592,-31.8967,-34.6998,7.12502,-5.14902,-4.7824,-30.6628,5.86768,16.8069,38.5965,11.3852,-5.35735,-14.8913,-26.1772,3.04764,-11.5536,34.2373,17.3793,4.19221,-18.5743
0.187409,21.1616,6.19532,17.1803,-6.47106,-3.96383,-8.72259,-0.230034,4.87612,-6.35543,-0.632107,2.6219,-1.73915,-0.432225,-0.0653059,-14.3295,-2.45039,-5.84465,29.934,-2.73599,2.3486,12.3927,-1.60692,1.49129,4.62174e-15,-6.75868e-15,-46.992,0.556898,-80.8287,41.2951,2.57603,-23.6933,-45.407,7.12502,2.77356,-75.3687,4.62174e-15,-6.75868e-15,-47.0212,-12.325,88.0975,42.391,6.46018,-32.0358,-35.1732,7.12502,-5.28331,-5.25911,-30.9196,5.67146,16.8536,38.4477,11.0776,-5.41104,-14.6349,-26.3639,2.93433,-11.3582,33.7311,17.5753,3.39287,-19.4079
0.192662,21.0788,6.22095,17.5869,-6.22528,-4.03198,-9.59075,-0.252347,5.17042,-6.40567,-0.743591,2.60964,-1.32698,-0.490865,-0.258132,-14.2039,-2.42629,-5.71179,29.8552,-2.67689,2.13155,12.3263,-1.5938,1.39495,4.395e-14,-3.18055e-15,-47.2024,0.147932,-80.6586,41.3753,2.578,-23.6696,-45.5407,7.12502,2.79649,-75.5021,4.395e-14,-3.18055e-15,-46.9211,-12.3923,87.9387,42.3233,6.39445,-32.017,-35.3014,7.12502,-5.2651,-5.38682,-31.205,5.39094,16.9279,38.4678,10.1844,-5.32265,-16.392,-26.5289,2.69913,-11.1018,33.3159,17.3349,2.35351,-21.6329
0.192849,20.9758,6.23649,17.9613,-6.09163,-3.70406,-10.4673,-0.308368,5.01794,-6.44524,-0.867835,2.4702,-0.894095,-0.543753,-0.337568,-14.0787,-2.38804,-5.62915,29.7647,-2.63534,2.08102,12.2592,-1.57249,1.36815,3.30619e-14,-8.34896e-15,-47.3709,-0.241003,-80.5477,41.3833,2.63516,-23.4688,-45.2872,7.12502,2.99041,-75.246,3.30619e-14,-8.34896e-15,-46.8038,-12.3804,87.6569,42.3378,6.46854,-31.644,-35.1724,7.12502,-4.90495,-5.24917,-31.6157,5.21727,16.5425,38.6197,9.49486,-5.54093,-16.892,-26.8017,2.25894,-11.2268,32.9877,16.9323,2.01791,-22.8156
0.187064,20.8522,6.23548,18.3108,-6.00158,-3.30797,-10.466,-0.403653,4.66574,-6.85431,-0.94644,2.32784,-1.32129,-0.589043,-0.290356,-14.1194,-2.36624,-5.65461,30.0191,-2.64174,2.21265,12.3726,-1.56462,1.42283,-1.36167e-14,1.94809e-14,-48.0308,-0.617668,-80.3968,41.4347,2.93567,-22.6833,-45.769,7.12502,3.74895,-75.7157,-1.36167e-14,1.94809e-14,-47.1195,-12.4547,87.4897,42.3709,6.74078,-31.3401,-34.9568,7.12502,-4.61156,-5.02703,-32.1437,5.24069,16.0758,38.8531,9.09453,-5.78885,-17.5237,-27.1197,1.67436,-11.3524,32.6449,16.4388,2.3819,-22.1974
0.183596,20.719,6.23562,18.528,-5.67606,-3.16041,-10.3757,-0.558434,4.53283,-7.14418,-1.12277,2.33318,-1.67843,-0.683023,-0.220213,-14.2221,-2.36137,-5.70286,30.1261,-2.62928,2.25005,12.4384,-1.56067,1.44712,2.63887e-14,-3.18055e-15,-48.6048,-0.813007,-80.2223,41.5777,3.06321,-21.9815,-46.7476,7.12502,4.42663,-76.6813,2.63887e-14,-3.18055e-15,-47.2826,-12.4538,87.3912,42.3375,6.87854,-31.3502,-34.6257,7.12502,-4.62131,-4.69607,-32.4381,5.16135,15.9495,39.0789,8.66566,-5.86067,-17.9482,-27.3232,0.871563,-11.0939,32.2553,15.7471,3.15899,-20.0905
0.184392,20.5864,6.25272,18.591,-5.23066,-2.95551,-10.9522,-0.68848,4.55791,-6.91263,-1.34313,2.24323,-1.13274,-0.783538,-0.361107,-14.6609,-2.46153,-5.70534,29.9909,-2.72561,2.20185,12.48,-1.60465,1.41029,1.6465e-14,-3.85642e-14,-48.4752,-1.13204,-80.1444,41.7174,3.0145,-21.8215,-46.8619,7.12502,4.58111,-76.7924,1.6465e-14,-3.85642e-14,-46.81,-12.5503,87.1392,42.2862,6.92624,-31.4807,-34.2099,7.12502,-4.74732,-4.28304,-32.4203,4.81515,15.8136,39.2074,8.08662,-5.80759,-18.0923,-27.3719,-0.0602256,-10.8819,31.9317,14.7858,3.43127,-18.4784
0.189324,20.4453,6.27669,18.7368,-5.13258,-2.87649,-11.412,-0.748323,4.63146,-6.89049,-1.45999,2.24691,-0.867492,-0.839485,-0.419036,-14.9351,-2.48767,-5.81753,30.0666,-2.70051,2.158,12.5695,-1.61112,1.41474,2.72708e-15,2.38542e-15,-48.618,-1.215,-79.9871,41.8607,3.27761,-21.8472,-46.2839,7.12502,4.55635,-76.2149,2.72708e-15,2.38542e-15,-46.7378,-12.4515,87.017,42.2722,6.99259,-31.7486,-34.4483,7.12502,-5.00602,-4.52744,-32.4695,4.56164,15.6988,39.2442,7.65024,-5.28955,-19.1279,-27.3946,-0.654478,-10.6958,31.7279,13.5419,3.28823,-18.1048
0.194424,20.2858,6.28664,19.0027,-5.14611,-3.31006,-11.7356,-0.64533,5.19886,-6.95068,-1.39814,2.34139,-0.770261,-0.822727,-0.636248,-15.1945,-2.47116,-5.93565,30.2375,-2.66249,2.26851,12.6962,-1.59355,1.48256,1.04548e-14,1.78906e-14,-48.8186,-1.46103,-79.7505,41.7709,3.55335,-21.8491,-46.4879,7.12502,4.55452,-76.4189,1.04548e-14,1.78906e-14,-46.6287,-12.5047,86.9415,42.2042,7.01577,-32.0823,-34.9654,7.12502,-5.32821,-5.05243,-32.7054,4.58959,16.0704,39.3029,7.25957,-4.67245,-20.0982,-27.5096,-0.790051,-10.0514,31.6438,12.0784,3.17877,-18.2281
0.19558,20.1078,6.27774,19.0685,-5.03712,-3.68187,-11.9577,-0.590554,5.63537,-6.76649,-1.3944,2.4189,-0.469183,-0.822149,-0.805973,-15.3187,-2.42469,-5.88077,29.924,-2.58408,2.2372,12.5883,-1.55107,1.47016,-3.66199e-15,3.1408e-14,-48.6532,-1.67054,-79.6549,41.7313,3.45735,-21.6726,-47.3096,7.12502,4.7249,-77.2369,-3.66199e-15,3.1408e-14,-46.1749,-12.5817,86.7397,42.2573,6.8998,-32.4178,-35.4219,7.12502,-5.65215,-5.51724,-32.8694,4.71992,16.4246,39.4707,6.64372,-4.45088,-20.6419,-27.6117,-0.904796,-9.44948,31.7304,10.7221,2.99335,-18.3777
0.194351,19.9138,6.25558,18.8812,-5.04696,-3.55745,-12.0664,-0.630787,5.37812,-6.33506,-1.45044,2.44318,0.0502245,-0.824373,-0.65296,-15.4958,-2.42142,-5.76166,29.2093,-2.51184,2.00224,12.3273,-1.52485,1.36522,-8.59744e-15,-1.90833e-14,-48.4559,-1.43824,-79.7747,42.6042,3.10384,-21.1626,-48.4648,7.12502,5.21737,-78.3806,-8.59744e-15,-1.90833e-14,-45.4427,-12.4074,86.4315,42.4414,6.48394,-32.6094,-35.8369,7.12502,-5.83712,-5.93732,-32.9412,4.82078,16.2698,39.7248,5.95646,-4.23745,-21.9073,-27.6804,-1.16583,-9.39504,32.0087,9.66989,2.87709,-19.1943
0.19511,19.7102,6.23236,18.6279,-5.10718,-3.4111,-10.9503,-0.658679,5.26997,-6.55177,-1.38284,2.36785,-0.776424,-0.80991,-0.638775,-15.8957,-2.45261,-5.6187,29.2633,-2.498,1.76506,12.4265,-1.53182,1.24959,4.23815e-15,-1.31198e-14,-48.4677,-1.88253,-79.489,42.0568,3.72135,-20.398,-49.3465,7.12502,5.95559,-79.2428,4.23815e-15,-1.31198e-14,-45.6264,-12.2897,86.2022,42.6401,6.05274,-32.4287,-35.7243,7.12502,-5.66268,-5.82,-33.0036,4.75022,16.1298,40.0536,5.34352,-3.85681,-22.5121,-27.7238,-1.35612,-9.42379,32.4185,8.8069,2.7459,-20.0112
0.199691,19.5047,6.22134,18.4531,-5.10611,-3.60935,-10.3035,-0.648048,5.58443,-6.58523,-1.34542,2.39462,-1.17124,-0.808671,-0.769614,-16.2959,-2.39722,-5.66564,29.2012,-2.37967,1.78363,12.4805,-1.47844,1.27974,1.80086e-14,-2.34566e-14,-48.5593,-1.89521,-79.4377,41.9063,3.72445,-20.4059,-49.6345,7.12502,5.94798,-79.531,1.80086e-14,-2.34566e-14,-45.5556,-12.1904,85.9678,42.8127,6.01099,-32.1699,-35.3547,7.12502,-5.41274,-5.44381,-33.0794,4.51012,16.3863,40.4659,4.80152,-3.5197,-21.6353,-27.7615,-1.33942,-9.14414,32.9629,8.28909,2.44893,-19
0.202841,19.2886,6.20945,18.3577,-5.16499,-3.77892,-9.88503,-0.67089,5.77247,-6.52835,-1.36096,2.47712,-1.34489,-0.823509,-0.782845,-16.5339,-2.37609,-5.7143,28.7586,-2.26961,1.65354,12.3466,-1.44445,1.2517,4.82985e-15,-5.56597e-15,-48.4626,-1.59008,-79.56,41.9855,3.44764,-21.4756,-49.1051,7.12502,4.91517,-79.0281,4.82985e-15,-5.56597e-15,-45.4222,-11.9758,85.7157,43.1238,5.90115,-31.9889,-35.1376,7.12502,-5.238,-5.22233,-33.3113,4.32825,16.5853,40.9937,4.3936,-3.5609,-20.7543,-27.9138,-1.15361,-8.943,33.6808,8.1045,2.01831,-17.8164
0.205662,19.05,6.18346,18.1194,-5.11939,-3.66615,-9.36611,-0.760655,5.66512,-6.21063,-1.44616,2.48296,-1.29561,-0.856016,-0.719252,-17.2308,-2.58597,-5.52176,28.0308,-2.40437,1.10617,12.1972,-1.54124,0.982396,9.02607e-15,4.77083e-15,-47.8859,-1.449,-79.6565,42.4065,3.40516,-22.3373,-48.9553,7.12502,4.08307,-78.8959,9.02607e-15,4.77083e-15,-44.7538,-11.7419,85.3357,43.4015,5.65911,-31.7072,-34.9455,7.12502,-4.96606,-5.02365,-33.5524,4.10685,16.5415,41.7174,4.17882,-3.84963,-21.0462,-28.1781,-1.0427,-9.0254,34.6548,7.85604,1.38457,-18.0211
0.216591,18.7986,6.15916,17.6559,-4.55051,-3.39625,-9.13811,-0.977491,5.66096,-5.5482,-1.74671,2.40631,-0.745263,-0.983337,-0.827208,-18.1555,-2.712,-5.44874,27.2084,-2.4772,0.918282,12.0602,-1.5738,0.878632,4.38196e-14,-3.18055e-15,-46.8745,-1.47343,-79.7318,42.5343,2.8484,-21.6522,-48.9782,7.12502,4.74459,-78.9051,4.38196e-14,-3.18055e-15,-43.6157,-11.4911,84.8434,43.6948,5.54111,-31.5902,-34.9793,7.12502,-4.85309,-5.05483,-33.5313,3.3427,16.5142,42.7031,3.76123,-3.98935,-22.7086,-28.5064,-1.18258,-9.18871,35.937,7.43175,0.393755,-17.9707
0.227953,18.5332,6.12992,17.6708,-4.39342,-3.36208,-8.43177,-1.04847,5.73232,-5.62415,-1.78658,2.44979,-1.21628,-1.01621,-0.805185,-18.7559,-2.6344,-5.63095,27.021,-2.30793,1.07082,12.1066,-1.49117,0.988048,5.91384e-15,3.97569e-16,-46.7132,-1.21025,-79.6943,42.4198,2.08898,-23.0768,-47.09,7.12502,3.36894,-77.0432,5.91384e-15,3.97569e-16,-43.5659,-11.1946,84.6421,44.197,5.27325,-31.8603,-35.6681,7.12502,-5.11387,-5.7498,-34.2491,2.73673,16.5817,43.992,3.0382,-3.87006,-23.6197,-29.3586,-0.837843,-9.22102,37.6462,6.42503,-0.511531,-17.9642
0.237969,18.2434,6.08851,17.8954,-4.41256,-3.49086,-7.67935,-1.04972,5.92375,-5.82515,-1.72924,2.51429,-1.84384,-1.0096,-0.817172,-19.2118,-2.58273,-5.72562,26.7423,-2.18836,1.14174,12.0865,-1.43175,1.04568,-1.91827e-14,1.51076e-14,-46.6473,-1.10131,-79.5914,42.704,2.49394,-23.3908,-48.1246,7.12502,3.06565,-78.0824,-1.91827e-14,1.51076e-14,-43.5974,-10.9942,84.4238,44.7681,5.06409,-32.0279,-36.329,7.12502,-5.27569,-6.41463,-35.4529,2.41044,16.7431,45.5558,2.47472,-3.74093,-23.5131,-30.5538,-0.408572,-9.10004,39.801,3.60284,-1.08871,-20.0376
0.242112,17.9276,6.03209,18.4307,-4.9672,-3.79365,-7.08726,-0.822661,6.052,-6.05248,-1.37327,2.593,-2.39186,-0.850846,-0.770317,-19.5417,-2.60619,-5.79339,26.1848,-2.17681,1.16274,11.9354,-1.42047,1.06316,2.36057e-14,-1.59028e-15,-46.603,-1.16247,-79.4357,43.3117,3.4624,-22.4634,-50.2354,7.12502,3.96133,-80.1783,2.36057e-14,-1.59028e-15,-43.5057,-10.9324,84.2011,45.4352,5.09515,-31.8287,-36.2873,7.12502,-5.08332,-6.36829,-37.3357,2.70755,16.8842,47.4108,1.96243,-3.36714,-25.3286,-32.1154,0.711949,-8.97953,42.4785,-1.37515,-1.32902,-24.3359
0.245408,17.6109,5.97837,18.7215,-5.1547,-3.8688,-6.57308,-0.754065,6.01969,-6.02015,-1.23863,2.63147,-2.63353,-0.786399,-0.697034,-20.2091,-2.5835,-5.59875,25.5815,-2.09997,0.970845,11.8253,-1.37963,0.964881,4.29126e-14,-3.26007e-14,-46.2296,-1.13402,-79.399,43.8029,3.73851,-22.3385,-50.6317,7.12502,4.08188,-80.5724,4.29126e-14,-3.26007e-14,-43.166,-10.9027,83.927,46.2302,5.08928,-31.8293,-36.1716,7.12502,-5.08387,-6.25254,-38.966,2.76775,16.8884,49.6679,-0.869583,-1.84904,-28.0325,-33.6171,1.8496,-9.08863,45.5603,-6.6563,-1.02892,-28.8978
0.242424,17.2975,5.91499,18.9874,-5.2186,-3.86428,-5.78152,-0.802178,5.86966,-6.0439,-1.22952,2.66194,-3.09325,-0.786211,-0.565506,-21.0663,-2.40874,-5.10917,25.048,-1.84415,0.584528,11.7673,-1.25717,0.77347,2.63141e-14,-1.59028e-15,-45.9118,-0.918232,-79.5504,44.4806,3.58195,-22.8809,-50.3978,7.12502,3.55809,-80.3479,2.63141e-14,-1.59028e-15,-42.9778,-10.8804,83.5941,47.1752,4.95787,-31.9784,-36.1778,7.12502,-5.22784,-6.26227,-40.6368,2.68771,16.9531,52.2367,-4.66607,-2.97703,-34.1036,-35.4313,3.0191,-9.24099,48.951,-11.0228,-0.198926,-30.4002
0.234466,16.9878,5.83606,19.2297,-5.2073,-3.72968,-4.59134,-0.934069,5.52514,-6.20027,-1.29289,2.66277,-3.91632,-0.823353,-0.345553,-21.5578,-2.29176,-4.94536,24.1801,-1.70688,0.602773,11.5227,-1.16341,0.771895,1.95306e-14,-6.36111e-15,-45.7683,-0.724787,-79.7277,45.4414,3.96989,-22.3948,-51.1802,7.12502,4.02752,-81.1218,1.95306e-14,-6.36111e-15,-42.9702,-10.854,83.2397,48.2436,4.80044,-32.0357,-36.2499,7.12502,-5.28316,-6.33574,-42.1068,2.35415,17.0199,55.1917,-8.42192,-4.95518,-35.4333,-37.6657,4.11017,-9.48141,52.499,-14.7348,0.405329,-29.3554
0.227927,16.6954,5.76247,19.4881,-5.08404,-3.55492,-3.5627,-1.06793,5.19764,-6.30326,-1.38393,2.66261,-4.59807,-0.868105,-0.137096,-20.9915,-2.22633,-5.48939,22.4105,-1.67877,1.39206,10.7619,-1.07436,1.15616,2.46493e-14,-8.34896e-15,-45.556,-0.59639,-79.8496,46.3506,4.18985,-22.0584,-52.3012,7.12502,4.35234,-82.2364,2.46493e-14,-8.34896e-15,-42.8803,-10.6954,82.8917,49.44,4.45355,-32.1711,-36.8698,7.12502,-5.41396,-6.95896,-43.7764,1.84985,17.0664,58.2658,-11.8953,-7.1896,-36.7383,-40.1166,5.18808,-9.78295,56.0981,-17.7823,0.714668,-28.8774
0.220923,16.4217,5.69555,19.8325,-5.00706,-3.5395,-2.79933,-1.10739,5.11973,-6.40237,-1.37632,2.63064,-5.13395,-0.871525,-0.105229,-19.4797,-2.02299,-6.34935,19.9392,-1.52019,2.62253,9.60112,-0.895098,1.75141,-1.13307e-14,-3.97569e-15,-45.5008,-0.51502,-80.0744,47.473,4.13675,-22.2345,-53.1248,7.12502,4.18235,-83.0635,-1.13307e-14,-3.97569e-15,-42.8018,-10.6238,82.5176,50.6366,3.9739,-32.1345,-37.4693,7.12502,-5.37863,-7.55753,-45.8432,1.60067,17.125,61.3757,-15.4551,-8.35054,-35.4326,-42.6378,6.36516,-9.95366,59.6941,-20.2474,0.744807,-28.5195
0.216521,16.1457,5.62297,20.1984,-4.92722,-3.43911,-2.06214,-1.12495,5.05634,-6.57618,-1.34435,2.48585,-5.7394,-0.868455,-0.197744,-18.3238,-1.91424,-6.60263,17.8027,-1.48462,3.1917,8.65627,-0.812327,1.97963,-1.00883e-14,-1.19271e-14,-45.6559,-0.439938,-80.4363,48.801,4.3144,-22.2243,-53.8592,7.12502,4.19219,-83.7976,-1.00883e-14,-1.19271e-14,-42.7797,-10.9018,82.1616,51.6432,3.68999,-32.0794,-37.9516,7.12502,-5.32544,-8.03854,-48.1883,1.18806,17.1029,64.4751,-18.7652,-8.94424,-34.0828,-45.2315,7.32913,-10.1977,63.2921,-22.5834,0.618128,-27.8329
0.213615,15.8662,5.5451,20.6215,-4.90514,-3.20477,-1.39503,-1.10058,4.7816,-6.42078,-1.28073,2.37309,-5.946,-0.826141,-0.15235,-19.261,-2.13758,-6.44241,16.7221,-1.72842,3.06864,8.46391,-0.908782,1.86988,-2.03754e-14,0,-44.8484,-0.4876,-80.6188,49.6175,4.53028,-22.5066,-54.2729,7.12502,3.91961,-84.2166,-2.03754e-14,0,-41.8453,-11.12,81.8124,52.4507,3.28989,-32.0563,-38.7352,7.12502,-5.30305,-8.82157,-50.694,0.465507,17.0624,67.6251,-21.1601,-9.29057,-31.9192,-47.9271,8.07739,-10.5794,66.8258,-24.6458,0.726574,-27.7911
