JuanDHNZ/ProyectoFinalCD/preprocessing/sports_trials_csv/49_08.csv
root1,root2,root3,root4,root5,root6,lowerback1,lowerback2,lowerback3,upperback1,upperback2,upperback3,thorax1,thorax2,thorax3,lowerneck1,lowerneck2,lowerneck3,upperneck1,upperneck2,upperneck3,head1,head2,head3,rclavicle1,rclavicle2,rhumerus1,rhumerus2,rhumerus3,rradius1,rwrist1,rhand1,rhand2,rfingers1,rthumb1,rthumb2,lclavicle1,lclavicle2,lhumerus1,lhumerus2,lhumerus3,lradius1,lwrist1,lhand1,lhand2,lfingers1,lthumb1,lthumb2,rfemur1,rfemur2,rfemur3,rtibia1,rfoot1,rfoot2,rtoes1,lfemur1,lfemur2,lfemur3,ltibia1,lfoot1,lfoot2,ltoes1
2.56364,14.9658,-43.5285,42.7839,10.7394,6.27287,15.4562,-0.580729,3.67707,4.80227,0.194608,7.29402,-3.57146,0.0877662,5.63037,-14.985,-7.72811,-8.44019,9.34009,-9.98648,9.94633,6.21754,-4.44184,3.50521,4.29375e-14,-7.95139e-16,29.6696,7.80993,-64.0733,25.182,13.381,-29.7696,-63.5408,7.12502,176.905,-86.502,4.29375e-14,-7.95139e-16,34.3551,-15.0748,36.4701,31.8885,-4.65959,-41.3969,-51.692,7.12502,-14.3141,-22.2054,-98.2196,-0.225857,25.6179,66.1392,-10.5763,-19.6324,19.0443,-20.4709,0.436039,-28.6375,31.9988,-31.8277,17.2688,-25.718
2.58525,14.9233,-43.3456,43.7429,9.91542,5.8639,16.3879,0.0450154,3.76371,4.47885,1.12168,7.29854,-4.48209,0.540371,5.42855,-14.015,-7.86369,-7.48556,8.47411,-10.3203,9.69446,5.75073,-4.63437,3.27208,4.77083e-15,-1.43125e-14,29.8814,7.2621,-63.1349,25.167,12.6514,-30.7139,-63.4291,7.12502,175.993,-86.6288,4.77083e-15,-1.43125e-14,39.0174,-17.1195,33.3844,31.4164,-3.59599,-41.3895,-52.8313,7.12502,-14.307,-23.3442,-99.0988,0.625217,25.6475,66.8654,-10.8363,-19.5145,17.9884,-21.1874,1.02801,-28.698,32.5105,-31.3007,16.6109,-26.1626
2.61262,14.8718,-43.1773,45.7534,9.11015,5.31491,15.6805,0.896144,3.59009,4.26763,2.17496,7.61817,-4.41676,1.05562,5.66383,-13.2397,-7.98053,-6.6603,7.23448,-10.5197,9.18415,5.17892,-4.7906,3.00171,-3.18055e-14,-2.06736e-14,30.518,6.34962,-61.6936,25.1406,12.5829,-30.9861,-62.7511,7.12502,175.73,-87.3119,-3.18055e-14,-2.06736e-14,41.7411,-17.4022,34.1886,31.3652,-5.43183,-43.7768,-50.2892,7.12502,-16.6063,-20.9797,-101.027,1.59163,25.7732,67.309,-11.6517,-19.1492,19.8964,-23.1978,1.2012,-28.7413,33.1047,-30.3959,16.1823,-26.1213
2.63735,14.8307,-42.9953,47.628,8.62443,5.0749,15.3226,1.62271,3.48414,4.027,3.11578,7.94039,-4.57393,1.51788,5.89484,-12.4419,-8.24229,-5.89564,5.92034,-10.9121,8.84348,4.61061,-5.03744,2.78672,6.36111e-15,3.81667e-14,30.8871,4.88986,-60.6215,25.2667,13.4473,-30.4071,-63.8104,7.12502,176.289,-86.2422,6.36111e-15,3.81667e-14,45.4755,-18.3094,32.887,31.5281,-5.16907,-40.2088,-54.6771,7.12502,-13.1691,-25.113,-102.723,2.22083,25.6489,67.7962,-12.7234,-18.9046,21.6655,-24.8898,0.979918,-28.7106,33.5035,-29.1384,15.6653,-26.04
2.66528,14.799,-42.8112,49.333,8.19539,4.94292,15.4314,2.337,3.44699,3.73984,4.09708,8.23957,-5.04446,1.99931,6.04487,-12.0327,-8.51565,-4.99702,5.05473,-11.3164,8.15828,4.21318,-5.28741,2.43599,3.49861e-14,1.90833e-14,30.0861,3.13969,-59.8107,26.3475,14.295,-29.9001,-66.0999,7.12502,176.779,-83.9447,3.49861e-14,1.90833e-14,50.6769,-19.3551,29.5774,31.3869,-2.9505,-38.5359,-56.07,7.12502,-11.5561,-26.4086,-104.115,2.72533,25.3477,68.1659,-13.1716,-18.8959,20.6626,-26.3348,0.480543,-28.7133,33.8161,-27.9299,15.4647,-26.3666
2.6942,14.7853,-42.6141,50.8196,7.96415,4.70394,15.7618,3.06126,3.63398,3.48486,5.15208,8.60976,-5.60724,2.51179,6.11323,-11.1849,-8.83768,-4.13826,3.64714,-11.7698,7.57948,3.58769,-5.58309,2.1603,5.08889e-14,1.11319e-14,30.449,2.34096,-57.5661,26.5744,13.4404,-29.449,-67.7737,7.12502,177.215,-82.2647,5.08889e-14,1.11319e-14,53.7268,-19.5931,30.6439,30.9621,-5.13981,-44.6662,-50.7946,7.12502,-17.4625,-21.5589,-105.117,3.15911,25.2794,68.4826,-13.8681,-18.7729,20.6895,-27.3912,0.18069,-28.5012,33.9157,-26.8801,14.7628,-26.2102
2.72464,14.7805,-42.4098,52.4153,7.87359,4.42967,16.0194,3.81695,3.9727,3.17623,6.28371,9.01507,-6.19135,3.05635,6.10609,-10.0598,-9.26133,-3.30442,1.85509,-12.3382,6.83963,3.07039,-5.96455,2.04664,3.18055e-15,-4.45278e-14,30.7768,1.19759,-55.5005,26.6311,13.2477,-29.4082,-68.2986,7.12502,177.254,-81.7393,3.18055e-15,-4.45278e-14,57.9536,-20.8102,28.523,30.809,-4.59819,-43.4122,-54.3355,7.12502,-16.2553,-24.997,-106.146,3.54506,25.3162,68.709,-14.0092,-18.7889,18.6763,-28.5422,-0.385132,-28.0486,33.9288,-25.9726,13.3353,-27.8608
2.74435,14.7654,-42.2004,54.3573,7.47077,4.31823,15.9851,4.71674,3.84551,2.83214,7.50706,9.30604,-6.70983,3.65493,6.21806,-9.24785,-9.71815,-2.24611,0.467884,-12.9838,6.05552,2.32776,-6.35638,1.64272,9.85972e-14,1.00187e-13,30.7746,-0.363211,-53.6815,27.0191,13.195,-29.4236,-69.16,7.12502,177.239,-80.8781,9.85972e-14,1.00187e-13,61.9897,-20.68,28.6999,30.4054,-5.46472,-41.6836,-55.9599,7.12502,-14.5903,-26.4931,-107.513,4.08216,24.8219,68.8466,-15.4702,-18.6583,21.0503,-30.0692,-1.00902,-27.8689,33.9516,-26.0911,10.934,-21.1663
2.76488,14.7424,-41.9905,56.5238,6.94088,4.3114,15.872,5.67319,3.59033,2.40811,8.78752,9.4983,-7.29842,4.28405,6.27155,-8.75544,-10.2786,-1.10735,-0.715208,-13.786,5.2121,1.71296,-6.81915,1.21314,-9.54166e-15,3.18055e-14,30.3255,-2.0868,-51.8264,27.7568,13.0496,-29.0721,-70.2137,7.12502,177.579,-79.8203,-9.54166e-15,3.18055e-14,66.6815,-20.4871,26.9645,30.2982,-4.64616,-40.9153,-55.7262,7.12502,-13.85,-26.2074,-109.098,4.58807,24.0677,68.9177,-15.5128,-19.0529,18.9694,-31.8589,-1.51,-27.9075,34.0213,-25.8656,9.43345,-12.8484
2.79113,14.7221,-41.7836,58.6794,6.65967,4.24297,15.9961,6.60508,3.54328,1.839,10.1338,9.78843,-8.19081,4.93738,6.26168,-8.53463,-10.8592,0.119304,-1.57348,-14.6407,4.10786,1.22227,-7.30311,0.700516,5.08889e-14,6.83819e-14,29.7478,-3.33515,-49.2538,28.4426,12.431,-28.7125,-70.9522,7.12502,177.926,-79.0781,5.08889e-14,6.83819e-14,70.2687,-20.3698,27.6977,29.8705,-6.63845,-41.3409,-55.8786,7.12502,-14.2601,-26.3882,-110.628,4.97791,23.5478,68.9519,-16.1576,-19.3148,18.8451,-33.6973,-2.05112,-27.6693,34.1242,-20.2714,13.3824,-28.0247
2.81658,14.7019,-41.5736,60.9997,6.35875,4.22495,15.9857,7.5969,3.2513,1.19527,11.5525,10.1777,-9.19578,5.64141,6.46616,-8.74417,-11.375,1.43554,-1.99642,-15.4504,2.47839,0.884732,-7.76038,0.017119,3.81667e-14,-1.27222e-14,28.6554,-4.64692,-46.7063,29.4814,12.1521,-28.7114,-71.5539,7.12502,177.927,-78.4765,3.81667e-14,-1.27222e-14,73.6987,-20.5622,28.5589,29.4104,-7.91426,-41.4602,-55.7429,7.12502,-14.375,-26.2606,-112.298,5.32402,22.8903,68.9457,-16.4342,-19.7958,17.748,-35.7225,-2.83836,-27.3311,34.2659,-18.9717,12.2559,-25.1297
2.84273,14.676,-41.3583,63.5711,5.87229,4.35746,15.4094,8.62279,2.84211,0.659829,12.9295,10.3799,-9.77437,6.33627,6.58897,-8.18033,-12.009,2.5837,-3.35604,-16.3949,1.60949,0.195882,-8.29907,-0.306811,-1.20861e-13,-5.24792e-14,27.8439,-6.32383,-44.2211,30.2806,12.0232,-29.2568,-71.4977,7.12502,177.4,-78.5384,-1.20861e-13,-5.24792e-14,79.0672,-19.507,25.394,29.4118,-4.88889,-40.1457,-57.7924,7.12502,-13.1083,-28.2244,-114.224,5.55284,21.8427,68.9067,-16.8913,-20.2046,17.0132,-38.0326,-3.54247,-27.2615,34.4677,-17.5948,11.5799,-23.534
2.87281,14.6486,-41.1419,66.144,5.56087,4.46672,14.745,9.61276,2.73487,0.169493,14.306,10.5432,-10.1974,7.01576,6.51861,-7.72308,-12.6035,3.96547,-4.77427,-17.3395,0.406072,-0.550021,-8.84264,-0.744588,3.18055e-14,-2.22639e-14,27.6457,-7.92501,-41.3919,30.4427,11.8457,-29.4013,-71.256,7.12502,177.261,-78.7818,3.18055e-14,-2.22639e-14,82.961,-19.0078,25.8594,28.8626,-6.06263,-40.626,-57.1919,7.12502,-13.5712,-27.6542,-116.077,5.64208,20.9212,68.8602,-17.2786,-20.4512,16.4514,-40.3316,-3.90426,-27.1849,34.7273,-16.1817,11.0323,-23.4546
2.90776,14.6367,-40.9215,68.555,5.76371,4.45108,14.261,10.6136,3.28602,-0.242825,15.8387,10.8846,-10.5485,7.73097,6.24218,-8.16692,-13.2082,5.33842,-5.61946,-18.396,-1.21319,-1.06208,-9.43541,-1.3935,9.85972e-14,-2.06736e-14,26.748,-9.69752,-38.215,31.1731,11.7729,-28.9863,-71.5649,7.12502,177.662,-78.4682,9.85972e-14,-2.06736e-14,86.9077,-18.5262,27.4782,27.7848,-8.049,-40.6508,-58.4964,7.12502,-13.595,-28.9603,-117.611,5.62211,20.6234,68.765,-17.5478,-20.7538,15.4309,-42.3697,-4.33304,-26.5671,35.037,-14.1167,11.0776,-21.5609
2.92733,14.6026,-40.6942,71.53,4.88727,4.75712,13.1651,11.7786,2.39823,-0.725741,17.3268,10.9064,-10.94,8.51912,6.46313,-8.9358,-13.7512,6.43282,-6.13434,-19.3995,-2.67831,-1.41812,-9.99673,-2.00424,2.38542e-13,8.82604e-14,25.8327,-11.8053,-35.2517,31.8293,12.0135,-29.4906,-71.5636,7.12502,177.174,-78.4754,2.38542e-13,8.82604e-14,87.8579,-21.8508,39.1459,24.7309,-19.528,-38.586,-64.5681,7.12502,-11.6044,-34.9094,-119.844,5.58646,19.0287,68.6956,-17.9529,-21.1107,14.7913,-44.7345,-4.75362,-27.0804,35.2205,-13.2407,10.7752,-20.5442
2.95488,14.5717,-40.4713,74.3716,4.05867,5.10095,11.5829,12.8623,1.48441,-1.08511,18.6982,11.0199,-10.9895,9.28359,6.93785,-8.56583,-14.2152,7.97583,-7.46896,-20.338,-4.1856,-2.33195,-10.5349,-2.55301,-6.67916e-14,-9.54166e-15,25.1399,-14.5045,-32.7488,32.1856,13.0726,-30.3451,-71.2218,7.12502,176.349,-78.8297,-6.67916e-14,-9.54166e-15,87.6839,-25.3233,51.3219,22.199,-30.6294,-45.7959,-57.9742,7.12502,-18.5494,-28.8386,-121.929,5.33299,17.6354,68.6569,-18.5917,-21.3535,14.6238,-46.6946,-4.96994,-27.7708,35.2803,-13.4786,9.75319,-20.4382
2.98548,14.498,-40.2657,77.0943,3.33572,5.41063,10.4607,13.6302,0.928916,-1.57884,19.7486,10.9806,-11.2651,9.85722,7.06847,-8.05167,-14.4855,9.43633,-8.85734,-21.0399,-5.76073,-2.99422,-10.9163,-2.80674,-5.08889e-14,-1.90833e-14,24.6349,-15.7898,-30.1049,32.7293,13.1373,-30.3573,-72.0652,7.12502,176.337,-77.9865,-5.08889e-14,-1.90833e-14,86.131,-28.2653,62.7101,20.2542,-41.1216,-45.6766,-62.3604,7.12502,-18.4346,-33.2139,-124.175,5.00048,16.5503,68.8263,-18.9422,-21.6478,13.7241,-48.0478,-4.96695,-28.5425,35.0793,-14.0566,8.95063,-21.3595
3.01324,14.4438,-40.0518,79.7339,2.67243,5.71664,9.35405,14.3664,0.346492,-2.03187,20.7984,11.0719,-11.5965,10.446,7.35431,-8.64891,-14.733,10.4585,-8.73098,-21.7263,-7.43506,-3.20387,-11.292,-3.39858,9.85972e-14,-3.57812e-15,24.2599,-17.1805,-27.5122,33.2485,13.6908,-30.1639,-72.6513,7.12502,176.524,-77.3973,9.85972e-14,-3.57812e-15,84.4961,-30.7045,72.5058,18.7342,-50.0164,-45.4999,-60.818,7.12502,-18.2646,-31.6555,-126.137,4.57408,15.4988,68.9165,-19.541,-21.8757,13.4034,-49.0227,-4.87979,-29.3476,34.7853,-11.7356,9.19519,-30.148
3.0372,14.4019,-39.8341,82.217,1.92958,6.04461,8.08996,14.9559,-0.607869,-2.40351,21.6781,11.4611,-12.0308,11.0211,8.219,-8.0376,-15.013,11.1031,-9.22337,-22.3745,-8.93679,-3.74192,-11.6055,-3.76027,-1.24042e-13,-1.80024e-14,24.2585,-17.822,-24.6375,33.5757,13.6249,-30.1072,-73.6189,7.12502,176.579,-76.4288,-1.24042e-13,-1.80024e-14,78.2854,-32.1967,89.1435,17.4034,-64.0359,-47.6428,-67.4953,7.12502,-20.3252,-38.5389,-127.882,4.06728,14.4894,68.9739,-20.0683,-22.063,13.3191,-49.5026,-4.83347,-30.2569,34.3827,-10.5253,9.64444,-33.7477
3.05939,14.371,-39.608,84.5607,1.37167,6.37373,7.05599,15.6788,-0.908167,-2.63742,22.7307,11.5204,-12.0929,11.587,8.35321,-8.89928,-15.2392,12.4676,-9.25601,-23.1805,-10.6794,-4.05508,-12.0668,-4.40676,0,5.1684e-15,23.872,-19.612,-22.087,34.3759,13.4932,-29.5979,-75.8822,7.12502,177.071,-74.1582,0,5.1684e-15,73.7166,-33.1567,102.622,16.5729,-74.807,-47.2258,-72.6022,7.12502,-19.9244,-43.6036,-129.372,3.532,13.7932,68.9575,-20.2258,-22.4228,12.0687,-49.6614,-4.42329,-31.2106,34.113,-10.8856,9.32927,-34.894
3.07923,14.3559,-39.3675,86.8174,0.991033,6.77039,6.00415,16.2834,-1.06495,-2.88535,23.6611,11.6743,-12.1434,12.0965,8.57425,-9.81652,-15.432,13.6878,-8.88988,-23.9694,-12.6542,-4.27272,-12.5196,-5.12256,-3.49861e-14,2.70347e-14,23.9765,-21.3888,-19.8279,34.8386,13.4445,-28.9413,-77.8945,7.12502,177.705,-72.1381,-3.49861e-14,2.70347e-14,70.8008,-33.9887,112.018,16.1806,-81.7664,-46.6783,-74.1724,7.12502,-19.3979,-45.12,-130.524,2.90234,13.4312,68.8453,-20.5079,-22.6626,10.333,-49.496,-3.57296,-32.2664,33.8289,-11.3393,8.06175,-34.2436
3.09377,14.3298,-39.1277,88.9871,0.260546,7.23604,5.04487,16.844,-1.58154,-3.09256,24.5075,11.7437,-12.3077,12.5872,8.866,-10.5291,-15.4576,14.7993,-9.13224,-24.5476,-14.2325,-4.64328,-12.8753,-5.69295,2.29e-13,5.08889e-14,24.2048,-23.1794,-17.7381,35.2044,13.4277,-28.5225,-79.1219,7.12502,178.109,-70.9067,2.29e-13,5.08889e-14,69.1214,-34.9789,118.66,16.0025,-86.492,-46.597,-74.6739,7.12502,-19.3198,-45.6136,-131.652,2.12486,12.5175,68.7746,-20.4231,-23.0792,7.45833,-48.9891,-2.80844,-33.6153,33.6065,-11.697,7.37957,-34.0929
3.1049,14.3252,-38.8728,90.9344,-0.591024,7.73029,4.9515,16.8221,-1.75811,-3.83799,24.543,11.0551,-12.8556,12.5909,8.14558,-10.1371,-14.9531,17.8689,-9.57848,-24.372,-15.7557,-5.37541,-12.833,-6.45235,-2.22639e-14,-7.95139e-15,24.0189,-24.1617,-17.7269,36.0147,13.4017,-29.1906,-79.3596,7.12502,177.464,-70.6757,-2.22639e-14,-7.95139e-15,69.1817,-35.7711,120.237,15.8154,-89.1202,-46.2266,-77.3598,7.12502,-18.9637,-48.2643,-132.421,1.26639,11.4349,68.6152,-21.5251,-22.876,8.26885,-48.0379,-2.17024,-34.9131,33.4005,-11.9094,6.26733,-32.7242
3.11341,14.3284,-38.6089,92.5551,-1.05963,8.27903,5.16068,16.7711,-1.37895,-4.51765,24.5783,10.5168,-13.3387,12.5377,7.27789,-9.83762,-14.5839,20.4611,-9.93142,-24.2549,-16.8169,-5.96539,-12.8204,-7.05349,8.5875e-14,1.02573e-13,24.5757,-25.2738,-18.2145,36.1511,13.8728,-31.8099,-78.1569,7.12502,174.935,-71.9237,8.5875e-14,1.02573e-13,69.8362,-36.6122,121.103,15.5536,-90.4503,-44.0844,-86.0667,7.12502,-16.9025,-56.7822,-132.727,0.437264,10.7595,68.3896,-22.2662,-22.9087,8.1373,-46.6445,-1.50372,-35.6547,33.3119,-11.5729,5.73888,-33.1972
3.1236,14.324,-38.3509,94.4663,-1.52853,8.96057,4.89598,16.6458,-1.23444,-5.27204,24.5009,9.96252,-13.7171,12.4776,6.6566,-10.3046,-14.0575,23.551,-9.87187,-24.1444,-18.329,-6.43024,-12.8723,-7.96715,1.27222e-13,1.35174e-14,24.9945,-26.3516,-18.7372,36.6549,13.5063,-35.1862,-76.4856,7.12502,171.675,-73.6984,1.27222e-13,1.35174e-14,72.2812,-37.8598,119.021,15.1931,-89.8119,-45.2573,-85.0965,7.12502,-18.0312,-55.9123,-133.21,-0.611304,9.99083,68.031,-22.5918,-23.2467,6.4012,-45.4321,-1.22955,-36.1366,33.3595,-11.8058,4.74656,-34.0885
3.12853,14.3149,-38.1083,97.0472,-2.44036,9.62712,3.93977,16.4841,-1.78587,-6.1881,24.3257,9.19591,-14.0706,12.4635,6.30725,-11.0309,-13.405,26.6264,-9.47333,-23.9425,-20.056,-6.7562,-12.8983,-9.03503,2.51264e-13,5.08889e-14,25.5031,-27.3526,-19.3688,37.44,11.9384,-36.1423,-77.2119,7.12502,170.753,-73.0109,2.51264e-13,5.08889e-14,74.045,-38.5753,118.677,14.9306,-89.1917,-45.0547,-75.6387,7.12502,-17.8363,-46.4366,-134.328,-1.94006,8.64779,67.5433,-23.2846,-23.7351,2.55681,-44.8501,-0.920904,-37.0493,33.5889,-12.185,3.12587,-33.7093
3.13201,14.3059,-37.8673,99.8023,-3.15476,10.4281,2.91923,16.2732,-1.65471,-7.19734,24.11,8.37042,-14.1628,12.3664,5.64893,-11.026,-13.2563,27.4924,-9.08655,-23.7736,-20.2583,-6.7281,-12.8231,-9.24554,5.725e-14,-5.40694e-14,26.7602,-28.1422,-20.0157,37.9504,8.80948,-33.637,-81.8226,7.12502,173.171,-68.3075,5.725e-14,-5.40694e-14,78.7658,-39.6043,113.436,14.7459,-86.0831,-46.0119,-73.1168,7.12502,-18.7571,-44.0011,-135.497,-3.50384,7.4866,67.0397,-23.8528,-23.9063,2.25764,-44.2701,-1.0375,-37.4071,33.8035,-11.1828,1.52681,-34.3268
3.14219,14.2987,-37.6243,102.54,-3.62082,11.5387,1.54502,15.9364,-1.58437,-8.20377,23.7295,7.71091,-14.1427,12.2326,5.32392,-11.583,-12.943,28.768,-8.43618,-23.5316,-20.4704,-6.55643,-12.7517,-9.58219,4.13472e-14,-4.92986e-14,27.2723,-28.2891,-20.2597,38.073,7.05716,-31.5639,-85.6153,7.12502,175.172,-64.4597,4.13472e-14,-4.92986e-14,85.5741,-40.0152,105.149,14.6065,-80.9973,-45.5397,-59.5105,7.12502,-18.3029,-30.3516,-136.447,-5.41672,6.63475,66.4319,-24.3138,-23.863,3.2193,-43.6075,-1.45344,-37.2091,34.3095,-7.96555,0.376975,-28.3554
3.13454,14.2913,-37.3755,104.632,-4.39404,12.267,0.751872,15.7227,-1.75571,-8.92707,23.4858,7.14306,-14.3,12.1534,5.00916,-12.1361,-12.6668,30.0409,-7.7005,-23.4376,-21.093,-6.45022,-12.7483,-10.037,-1.49486e-13,-5.725e-14,27.4106,-28.5851,-20.6426,38.546,4.25116,-29.9661,-87.9261,7.12502,176.715,-62.1195,-1.49486e-13,-5.725e-14,94.153,-39.0471,93.9896,14.8011,-72.6436,-45.2402,-63.6246,7.12502,-18.0147,-34.4389,-136.835,-6.92526,5.28012,65.8361,-24.689,-24.2957,3.12796,-42.2177,-0.983433,-37.3394,34.9486,-7.57456,-0.105684,-30.0596
3.13025,14.2947,-37.1386,107.7,-5.10652,13.1934,-1.04746,15.3867,-2.04662,-9.96358,23.0973,6.43007,-14.2146,12.0724,4.87762,-13.1757,-12.235,31.4396,-6.62191,-23.2761,-21.8226,-6.16904,-12.7345,-10.6141,1.39944e-13,9.70069e-14,28.0069,-28.8018,-21.2783,39.1926,3.41781,-29.0175,-86.402,7.12502,177.631,-63.6314,1.39944e-13,9.70069e-14,102.435,-36.3007,82.5118,15.2776,-62.623,-44.4408,95.0897,7.12502,-17.2455,-65.8349,-137.874,-8.93836,4.09404,65.0024,-24.5891,-25.0287,1.66134,-42.1432,-0.665911,-37.4021,35.8943,-6.4488,-0.826097,-29.5756
3.1323,14.295,-36.8956,110.678,-5.57456,14.3245,-2.77341,15.0093,-2.03572,-11.0107,22.6779,5.82529,-14.1225,11.9484,4.7021,-14.5099,-11.5834,32.8001,-5.49023,-22.8925,-22.4292,-5.73974,-12.6253,-11.2233,8.5875e-14,-2.22639e-14,28.3856,-28.5763,-21.74,39.3089,4.32361,-28.2097,91.7414,7.12502,178.412,-58.2847,8.5875e-14,-2.22639e-14,108.509,-32.5294,73.7561,15.7387,-54.1995,-44.909,94.7543,7.12502,-17.6961,-65.5395,-138.759,-11.0843,3.30338,64.1779,-24.8857,-25.6047,1.28077,-41.9446,-0.614471,-36.8763,37.0272,-5.40571,-1.22908,-32.5781
3.13126,14.3136,-36.6357,113.585,-6.16683,15.3947,-4.3998,14.6438,-2.08252,-12.0185,22.2729,5.22559,-14.0853,11.8291,4.51052,-15.8504,-10.8441,33.9563,-4.37771,-22.4232,-23.1691,-5.28156,-12.4742,-11.882,-6.99722e-14,-8.11041e-14,29.061,-28.4003,-22.431,38.7063,7.16793,-31.1661,90.3252,7.12502,175.556,-59.7414,-6.99722e-14,-8.11041e-14,113.372,-27.5663,65.7168,16.4414,-45.2276,-45.8642,-81.8147,7.12502,-18.6151,-52.6854,-139.368,-13.2152,2.4867,63.1249,-24.4454,-26.4352,0.124954,-41.7169,-2.08779,-35.6947,38.4261,-4.5277,0.0383035,-30.0711
3.11815,14.3352,-36.3712,115.945,-6.68775,16.2574,-5.45907,14.3784,-2.00177,-12.8384,22.0041,4.76324,-14.196,11.7348,4.23135,-17.0845,-10.1843,35.0129,-3.25783,-22.0646,-23.9742,-4.86532,-12.3673,-12.5286,-8.5875e-14,-7.31528e-14,29.3712,-28.6508,-23.616,39.1646,10.8447,-32.9155,90.59,7.12502,173.867,-59.5188,-8.5875e-14,-7.31528e-14,116.591,-22.4245,59.3062,17.3435,-36.3683,-45.5186,-67.8066,7.12502,-18.2826,-38.6458,-139.424,-14.9458,1.61453,61.9996,-23.8141,-27.6166,-2.26724,-41.1591,-1.44047,-35.0514,40.0441,-3.24525,-0.331537,-31.7111
3.10159,14.3799,-36.0735,117.726,-7.49928,16.8866,-5.88643,14.1665,-2.09435,-13.4491,21.7877,4.33505,-14.5118,11.6485,3.88866,-18.2942,-9.69034,35.8827,-2.10919,-21.8861,-24.4422,-4.433,-12.3219,-12.9892,1.01778e-13,1.59028e-15,29.8175,-28.9373,-24.9459,39.7993,13.6613,-34.7299,93.3527,7.12502,172.116,-56.8143,1.01778e-13,1.59028e-15,118.347,-18.1764,55.064,18.3489,-29.1355,-45.1438,-63.2576,7.12502,-17.922,-34.0633,-138.641,-16.4619,0.364176,60.6244,-23.7711,-28.2926,-2.09998,-39.9542,-0.650617,-34.67,41.56,-2.53686,-0.403462,-32.4208
3.08799,14.4057,-35.8347,120.688,-9.18713,17.1531,-7.61396,13.7534,-3.48775,-14.2645,21.3243,3.56559,-14.6647,11.6489,4.09816,-19.953,-9.0547,36.8475,-0.702386,-21.7144,-24.9711,-3.87624,-12.2936,-13.5414,-2.09917e-13,-7.95139e-14,30.2581,-29.0633,-26.2304,40.5819,15.2652,-30.1475,96.5561,7.12502,176.54,-53.4922,-2.09917e-13,-7.95139e-14,118.618,-16.6044,55.6182,18.1138,-26.9186,-44.3507,-67.5447,7.12502,-17.1587,-38.2824,-139.103,-18.6297,-1.19684,59.129,-23.7564,-28.5407,-3.80574,-39.9866,-0.532258,-35.1103,43.4327,-1.95642,-0.123307,-33.4594
3.07923,14.4659,-35.521,122.261,-10.7135,17.557,-7.82181,13.4985,-3.88694,-14.735,20.9942,2.97745,-14.9612,11.5162,3.6853,-20.3803,-8.66426,37.6169,-0.471671,-21.4955,-25.0873,-3.76978,-12.2066,-13.779,-5.08889e-14,-1.59028e-15,30.8066,-29.2268,-27.552,41.4561,16.4573,-22.491,100.509,7.12502,183.935,-49.548,-5.08889e-14,-1.59028e-15,119.663,-9.10238,47.7666,20.6037,-14.1131,-43.9955,-57.8487,7.12502,-16.8169,-28.5569,-137.674,-20.4216,-3.0387,57.4437,-23.8811,-28.83,-3.25593,-38.5411,-0.129117,-35.2341,45.1885,-0.847347,0.07136,-29.3928
3.0631,14.5103,-35.2321,123.516,-11.5463,18.0744,-7.70247,13.3657,-3.59554,-15.1693,20.8391,2.6205,-15.2742,11.3831,3.11133,-20.9819,-8.35336,38.5674,0.42354,-21.5027,-25.8126,-3.61291,-12.2303,-14.2688,-5.40694e-14,-3.49861e-14,30.6067,-29.2213,-28.3907,43.4405,17.6034,-36.5378,102.967,7.12502,170.371,-47.2729,-5.40694e-14,-3.49861e-14,118.968,-12.2714,54.2974,18.81,-19.4855,-43.6441,-65.9918,7.12502,-16.4785,-36.6716,-135.943,-21.9095,-4.76607,55.6617,-23.98,-29.9319,-6.15453,-37.0545,0.184496,-34.3932,47.342,-0.070317,0.272866,-32.6898
3.04572,14.5644,-34.9434,125.009,-12.5694,18.498,-7.91592,13.1808,-3.56282,-15.6244,20.6168,2.20759,-15.4937,11.2615,2.68431,-21.7875,-7.65315,40.052,0.997668,-21.241,-26.5331,-3.48699,-12.162,-14.9109,5.40694e-14,3.65764e-14,30.7572,-29.9511,-29.8089,44.7488,21.0503,-39.1895,100.405,7.12502,167.814,-49.9696,5.40694e-14,3.65764e-14,118.81,-10.99,54.436,19.0591,-17.0482,-42.4689,-69.8442,7.12502,-15.3468,-40.4337,-134.423,-23.434,-6.16614,53.6145,-23.096,-30.3656,-5.47688,-35.8086,0.435373,-33.7044,49.4831,0.186945,0.114694,-36.9678
3.02816,14.6356,-34.6296,126.887,-14.2179,18.5117,-8.51468,12.9061,-4.29921,-16.0742,20.2746,1.60663,-15.6839,11.1861,2.50075,-22.3579,-6.96971,41.4995,1.47134,-20.9133,-27.1563,-3.38209,-12.0427,-15.5063,-1.46306e-13,-2.70347e-14,29.6131,-30.0713,-30.3196,47.967,22.0731,-39.1636,100.872,7.12502,167.839,-49.5019,-1.46306e-13,-2.70347e-14,118.613,-9.99546,54.6106,19.3276,-14.9425,-43.3305,-52.3544,7.12502,-16.1767,-23.0094,-132.611,-25.3133,-8.52524,51.2099,-23.0488,-31.0089,-5.54812,-35.1621,0.629852,-33.8278,52.0089,1.2563,0.0775491,-32.3936
3.00977,14.6978,-34.342,129.028,-16.0637,18.107,-9.16926,12.6643,-5.25213,-16.5306,19.9912,0.883903,-15.8935,11.1634,2.28259,-23.0764,-6.43331,42.1007,2.29019,-20.5548,-27.6424,-3.04236,-11.8535,-15.3431,3.81667e-14,1.43125e-14,28.3086,-30.1364,-30.8503,51.5331,22.0679,-38.9377,100.726,7.12502,168.056,-49.6348,3.81667e-14,1.43125e-14,118.259,-9.39158,55.1259,19.3812,-13.4623,-41.8312,-54.0854,7.12502,-14.7325,-24.629,-130.818,-27.2104,-11.1437,48.499,-22.2761,-31.7565,-5.99635,-34.5671,0.722136,-34.197,54.6427,0.848997,-0.0326808,-32.0371
2.99411,14.7765,-34.0388,130.389,-16.8215,18.1835,-9.19531,12.6336,-4.90035,-16.8905,19.9657,0.540216,-16.0489,11.0879,1.7283,-24.0244,-5.40363,43.7091,2.80519,-19.9981,-28.2309,-2.78924,-11.6377,-15.9709,1.49486e-13,6.83819e-14,26.6587,-29.8127,-30.8859,54.5061,22.2418,-40.2218,96.8438,7.12502,166.818,-53.5929,1.49486e-13,6.83819e-14,117.68,-7.00135,53.1664,20.4202,-9.263,-40.8006,-54.0552,7.12502,-13.7394,-24.5288,-127.963,-28.4409,-13.3289,45.451,-21.8767,-32.4449,-5.08503,-33.6148,1.1784,-33.2852,57.516,0.880615,-0.0127295,-32.8051
2.98358,14.8763,-33.724,131.761,-17.8701,18.7331,-9.29821,12.447,-4.44593,-17.3186,19.6986,0.137633,-16.1517,10.8777,1.10908,-24.5448,-4.58781,45.5834,3.03091,-19.6904,-28.66,-2.76215,-11.5162,-16.4664,3.49861e-14,6.36111e-15,24.9983,-28.7163,-29.9151,56.3876,21.6049,-38.0819,100.639,7.12502,168.882,-49.6753,3.49861e-14,6.36111e-15,117.49,-7.88439,55.0843,19.0952,-10.377,-42.3696,-51.9225,7.12502,-15.2512,-22.5047,-124.696,-30.3183,-15.6829,42.1808,-21.4071,-33.2117,-3.57498,-32.9066,1.12148,-32.364,60.4637,1.01026,-0.0250535,-33.4719
2.96949,14.9732,-33.4077,133.36,-19.3511,18.4912,-9.22549,12.3522,-4.47729,-17.6894,19.5532,-0.482048,-16.3953,10.7648,0.410485,-24.4008,-4.30273,46.694,3.29793,-19.5251,-28.9082,-2.76757,-11.3974,-16.7165,-3.11694e-13,-5.40694e-14,24.3135,-27.6292,-29.0341,56.8444,20.8464,-36.8434,102.584,7.12502,170.076,-47.6697,-3.11694e-13,-5.40694e-14,116.533,-4.02408,50.5458,20.6882,-5.5405,-43.1597,-48.8483,7.12502,-16.0122,-19.4901,-121.284,-32.0409,-18.9793,38.674,-19.7456,-34.5672,-4.71257,-32.178,1.22398,-32.2245,63.4495,0.943679,0.200769,-32.0863
2.95764,15.0802,-33.0851,134.44,-20.8904,18.2629,-8.67986,12.3281,-4.15874,-17.9014,19.4386,-1.08173,-16.5881,10.5897,-0.508754,-23.2323,-4.75023,47.6173,3.22696,-19.7743,-28.7681,-3.09558,-11.3938,-16.5915,-2.35361e-13,-4.77083e-14,24.1271,-26.7482,-28.345,56.9592,20.6281,-38.0056,101.53,7.12502,168.955,-48.7802,-2.35361e-13,-4.77083e-14,115.702,-2.69654,49.3516,20.5936,-5.16917,-42.9512,-49.4244,7.12502,-15.8114,-20.0501,-117.156,-33.415,-22.5019,34.9844,-17.8056,-35.9088,-7.41451,-30.7724,1.25506,-31.9978,66.2299,0.767418,0.678503,-30.4457
2.94666,15.1831,-32.7734,135.398,-23.0489,17.8511,-8.23548,12.161,-4.39442,-17.9517,19.0788,-1.75161,-16.6694,10.3677,-1.18427,-22.4303,-4.22006,49.8211,2.6254,-19.3415,-29.5353,-3.51339,-11.2196,-17.1755,9.54166e-15,6.52014e-14,24.3156,-25.9429,-27.7855,56.7023,20.4603,-39.4847,100.111,7.12502,167.529,-50.2811,9.54166e-15,6.52014e-14,115.139,-2.77757,49.5776,19.4616,-6.46861,-44.3089,-53.022,7.12502,-17.1186,-23.7561,-112.849,-34.846,-26.0908,31.0852,-15.2573,-36.696,-5.21321,-29.1,1.25224,-32.4472,69.4552,0.246335,1.54671,-32.9598
2.92897,15.2997,-32.4345,136.083,-24.0029,17.7881,-7.46465,12.2399,-3.46276,-18.0819,19.1134,-2.13391,-16.7883,10.1862,-2.19308,-21.8143,-3.20843,53.4033,1.83048,-18.8373,-31.1938,-4.15841,-11.1283,-18.3834,-1.55847e-13,-6.83819e-14,24.5788,-25.149,-27.3795,56.2926,20.281,-39.6773,100.236,7.12502,167.343,-50.1676,-1.55847e-13,-6.83819e-14,113.772,-0.317751,45.8544,20.8071,-0.323618,-44.3728,-53.5532,7.12502,-17.18,-24.2927,-107.59,-35.5151,-30.2834,26.9132,-12.8666,-38.7714,-8.89992,-27.8863,1.54583,-31.3711,72.6449,0.684133,2.37901,-29.9255
2.92221,15.4246,-32.0796,137.235,-24.9615,18.1057,-7.3207,12.2387,-2.18309,-18.398,19.0642,-2.60883,-16.6157,9.94672,-3.28925,-21.0725,-3.31847,53.8865,1.63649,-18.4863,-29.9953,-4.04024,-10.7844,-17.8593,2.00375e-13,6.67916e-14,25.3194,-24.3384,-26.7987,55.1243,20.1907,-40.2541,100.317,7.12502,166.787,-50.1215,2.00375e-13,6.67916e-14,113.018,-0.22665,44.9124,21.4244,3.43565,-44.9243,-54.6955,7.12502,-17.7108,-25.4821,-102.271,-36.655,-34.1656,22.3512,-11.5444,-41.1954,-6.2516,-27.5085,1.79095,-30.1614,76.0438,0.677449,3.01954,-29.8291
2.91578,15.5484,-31.7768,138.626,-27.671,17.4582,-6.96646,11.9683,-2.50291,-18.5038,18.5334,-3.52743,-16.6824,9.64493,-4.16861,-19.686,-3.66847,54.3485,0.68905,-18.1524,-28.7492,-4.25553,-10.4974,-17.2669,4.45278e-14,9.54166e-15,25.7651,-23.444,-26.1496,54.1436,19.6244,-41.0546,100.448,7.12502,166.016,-50.0421,4.45278e-14,9.54166e-15,111.705,1.1215,42.8618,23.2709,8.0905,-37.7648,-66.9171,7.12502,-10.8124,-37.2154,-96.6698,-38.3224,-38.801,17.0639,-7.1921,-43.0784,-6.36594,-26.4851,1.19873,-30.7756,79.1888,1.12845,3.59168,-32.4807
2.87945,15.6732,-31.4434,139.683,-28.5077,17.2602,-6.17366,12.083,-1.2265,-18.7588,18.6747,-4.01411,-16.8587,9.45947,-5.48407,-18.3001,-3.68685,55.6112,-0.374643,-17.6417,-28.4909,-4.63402,-10.2324,-17.2658,-2.22639e-14,-1.84472e-13,25.9195,-22.435,-25.3741,53.6363,18.1129,-39.2378,102.041,7.12502,167.767,-48.3363,-2.22639e-14,-1.84472e-13,110.898,1.20377,42.594,24.1526,9.25372,-37.9507,-70.2572,7.12502,-10.9917,-40.565,-90.1287,-38.6108,-43.1776,10.442,-4.58299,-46.3881,-3.75655,-25.837,2.07319,-29.31,82.5633,-0.338244,5.70586,-24.3103
2.84451,15.802,-31.1023,140.757,-29.5974,16.9225,-5.52092,12.101,-0.367939,-18.9381,18.6771,-4.49308,-17.009,9.26851,-6.56042,-16.6327,-3.87169,57.0283,-1.94761,-17.1901,-27.9241,-5.21385,-10.0258,-17.1037,1.27222e-13,6.99722e-14,25.8323,-21.3013,-24.3277,53.2545,16.7548,-35.4644,105.481,7.12502,171.407,-44.7136,1.27222e-13,6.99722e-14,110.572,0.764874,43.2927,23.9633,9.36361,-45.0417,-68.5543,7.12502,-17.8237,-39.3511,-83.7034,-39.1969,-43.9238,6.36111e-15,-0.543535,-47.2071,12.1068,-25.0053,2.87556,-27.9678,85.654,-0.776533,6.41083,-23.8779
2.81079,15.9269,-30.7779,141.548,-30.7722,16.9169,-4.70507,12.0379,0.704691,-19.0882,18.5753,-4.93003,-17.1865,8.98414,-7.72757,-14.7191,-4.46265,58.0762,-4.11866,-16.9684,-26.4923,-6.00469,-9.95537,-16.437,-1.90833e-14,5.40694e-14,25.8006,-20.1062,-23.0637,52.3324,16.3781,-34.5074,105.386,7.12502,172.331,-44.773,-1.90833e-14,5.40694e-14,110.284,0.670523,43.2222,23.7663,9.45447,-45.5035,-71.4192,7.12502,-18.2681,-42.257,-82.537,-39.893,-44.7361,-1.74931e-14,-2.32,-47.0036,18.6893,-24.311,3.61477,-26.2589,88.5865,-1.22842,7.05529,-25.3093
2.78816,16.0461,-30.4774,143.857,-32.6383,16.2897,-5.41239,11.8147,0.633712,-19.4532,18.193,-5.67443,-17.0038,8.79451,-8.33642,-12.8077,-4.82665,58.6468,-5.90849,-16.3034,-25.7467,-6.56638,-9.68929,-16.1682,5.725e-14,8.5875e-14,26.0807,-19.0361,-21.819,51.1683,15.6174,-35.0266,104.967,7.12502,171.83,-45.2112,5.725e-14,8.5875e-14,111.444,-3.18993,49.1356,20.0407,0.859203,-49.726,-75.3817,7.12502,-22.3261,-46.6516,-81.6051,-41.8906,-46.1645,9.38264e-14,-1.84803,-46.7637,20.3398,-24.5467,3.64964,-25.382,91.1238,-2.31588,7.88767,-24.0033
2.7551,16.1566,-30.1671,144.72,-33.7699,16.7881,-5.18396,11.6816,2.02333,-19.6751,18.0009,-6.05576,-16.8816,8.45897,-9.44198,-10.9449,-5.19973,58.9784,-7.5842,-15.5806,-24.8979,-7.05312,-9.39424,-15.8526,1.08139e-13,1.59028e-14,26.4036,-18.0844,-20.6627,50.1055,14.8797,-34.4555,104.142,7.12502,172.381,-46.0154,1.08139e-13,1.59028e-14,111.068,-2.82977,48.7281,19.8539,1.1148,-49.6785,-78.9139,7.12502,-22.2805,-50.1783,-80.0536,-42.8392,-46.6619,-1.27222e-14,-1.36461,-47.9225,22.1404,-24.3136,4.27089,-22.8734,93.427,-3.6391,8.97635,-17.7834
2.71388,16.2637,-29.8658,145.211,-34.9662,17.3313,-4.68546,11.4741,3.19304,-19.7862,17.7121,-6.31719,-16.9357,8.08806,-10.4008,-9.45603,-5.30237,59.8256,-8.96849,-14.8562,-24.7744,-7.50333,-9.13898,-15.9571,-2.16278e-13,-1.27222e-14,27.0089,-16.5295,-18.824,48.1772,13.0936,-33.0929,103.373,7.12502,173.696,-46.7408,-2.16278e-13,-1.27222e-14,109.881,-0.119488,44.6953,21.3678,5.63578,-49.1969,-81.3671,7.12502,-21.8181,-52.577,-77.7827,-43.0037,-47.2493,-6.99722e-14,-1.34599,-49.3678,31.7517,-23.4547,4.76977,-20.0716,95.1611,-6.5048,9.55831,-9.34661
2.66253,16.3585,-29.6002,146.017,-36.3671,17.4441,-4.12236,11.3015,4.33603,-19.9089,17.4795,-6.74945,-17.0119,7.73079,-11.5743,-7.49617,-5.70348,60.2042,-10.8079,-14.2093,-24.7851,-8.20212,-8.95175,-16.0839,-6.36111e-15,1.04958e-13,27.5325,-15.7007,-17.884,47.2291,12.3256,-31.9814,103.331,7.12502,174.769,-46.7536,-6.36111e-15,1.04958e-13,109.39,-0.000365869,43.569,21.6707,6.49473,-49.1104,-85.519,7.12502,-21.7351,-56.7192,-75.6808,-43.2381,-48.1507,-3.81667e-14,-4.05657,-51.9104,29.4227,-23.0692,5.71215,-17.8003,96.2339,-7.34764,11.4482,-11.4096
2.61003,16.4566,-29.3178,146.945,-37.8028,17.4416,-3.61992,11.1094,5.36142,-20.0383,17.2308,-7.1838,-17.1249,7.37699,-12.7069,-5.76479,-6.18756,57.6546,-11.9758,-13.1935,-22.3841,-8.12536,-8.39943,-14.8371,9.54166e-15,-9.54166e-15,28.4932,-15.4019,-17.6502,45.8932,12.1249,-30.7475,103.588,7.12502,175.961,-46.4707,9.54166e-15,-9.54166e-15,107.628,2.98033,39.0954,23.7896,11.8937,-48.7817,-86.8394,7.12502,-21.4193,-58.0034,-73.4453,-43.3899,-49.0305,2.54444e-14,-0.869744,-53.9785,25.8912,-22.6718,6.33734,-15.7658,96.5926,-8.58318,13.1907,-9.00378
2.55886,16.5489,-29.0396,147.554,-39.222,17.827,-3.1338,10.8852,6.75102,-20.1359,16.9619,-7.55982,-17.1436,6.96275,-13.9536,-3.86881,-6.68282,57.5241,-13.8844,-12.7206,-22.2568,-8.89909,-8.30822,-14.8395,-2.54444e-13,-6.36111e-14,29.7688,-15.6755,-18.1977,44.3507,12.4552,-29.5165,103.381,7.12502,177.149,-46.658,-2.54444e-13,-6.36111e-14,107.028,3.6766,37.4912,24.1177,13.6663,-39.016,-87.0494,7.12502,-12.0191,-57.4146,-70.9018,-43.3505,-49.694,-4.77083e-14,-0.192231,-55.7885,18.9053,-22.2418,6.80901,-13.4139,96.1935,-9.87671,14.7111,-5.31284
2.52211,16.6521,-28.6943,147.557,-40.5578,18.7601,-2.12401,10.5563,8.5129,-20.6762,16.6689,-7.89465,-17.0368,6.48638,-15.2797,-2.69682,-6.77394,55.0874,-14.5739,-11.7396,-20.3255,-8.68943,-7.78608,-13.8516,5.08889e-14,-1.11319e-13,30.9055,-15.6085,-18.3034,43.3631,11.5579,-28.639,104.625,7.12502,177.997,-45.4048,5.08889e-14,-1.11319e-13,104.916,6.41965,32.7012,26.339,18.8601,-35.3225,-86.9372,7.12502,-8.45599,-57.1265,-73.1614,-42.6339,-50.4697,10.4193,-8.12191,-55.3802,17.6034,-21.979,6.54923,-11.3652,95.1825,-11.6366,15.9529,-2.18349
2.47775,16.7384,-28.3894,147.94,-42.6605,19.0504,-1.52736,10.1137,9.46562,-20.6479,16.068,-8.32053,-17.1633,5.9438,-16.4361,-1.49004,-6.72691,54.4305,-15.962,-10.9193,-19.8828,-9.0194,-7.50182,-13.7311,-4.45278e-14,5.40694e-14,31.7348,-15.462,-18.3571,42.432,11.6077,-29.4408,103.642,7.12502,177.223,-46.3962,-4.45278e-14,5.40694e-14,103.684,7.76614,28.9581,27.7293,21.6023,-36.444,-87.1203,7.12502,-9.5382,-57.3561,-78.5954,-44.2534,-45.1417,18.5178,-5.3801,-50.4329,16.4629,-21.7391,5.81987,-10.3249,93.3485,-12.8238,17.0495,-2.28188
2.4435,16.819,-28.0522,148.176,-44.3622,19.5491,-0.965983,9.7228,10.6487,-20.6545,15.6044,-8.61004,-17.294,5.43483,-17.5716,-1.21121,-6.55533,53.4351,-16.1181,-10.3825,-19.0311,-8.82922,-7.23173,-13.3235,1.11319e-13,6.04305e-14,32.5548,-15.5434,-18.6374,41.8582,11.5289,-29.6521,103.229,7.12502,177.019,-46.8117,1.11319e-13,6.04305e-14,102.622,8.75192,25.9888,28.7329,23.5147,-52.7911,-266.385,7.12502,-25.2657,-65.2683,-83.3329,-45.5056,-39.5223,25.4899,-3.87369,-45.6449,10.0612,-21.6394,5.407,-9.22719,90.9446,-13.5561,17.852,-5.37625
2.41445,16.8836,-27.7182,148.288,-45.7501,20.0014,-0.367566,9.37004,11.7725,-20.6275,15.2289,-8.77052,-17.4641,4.97965,-18.549,-1.16345,-6.16116,52.3453,-16.1611,-9.74154,-18.4472,-8.53892,-6.90313,-13.0549,8.26944e-14,4.77083e-14,33.4995,-15.8224,-19.1754,41.5273,11.2042,-28.7184,102.404,7.12502,177.92,-47.6263,8.26944e-14,4.77083e-14,101.754,9.45809,23.7969,29.2217,25.0552,-52.6795,-263.526,7.12502,-25.1587,-68.1119,-88.4123,-46.4496,-33.3636,32.5586,-1.59857,-40.4005,-1.40952,-21.2254,5.24941,-8.02284,87.9116,-14.8372,17.7447,-5.28472
2.38908,16.9249,-27.4021,148.952,-47.1506,20.0001,-0.206596,9.08445,12.4848,-20.6425,14.8601,-8.98599,-17.5039,4.62407,-19.2648,-1.15858,-5.82872,50.7774,-16.1326,-9.109,-17.1993,-8.1846,-6.56798,-12.4337,-2.09917e-13,-4.13472e-14,34.5358,-16.1862,-19.8486,41.031,11.1993,-28.1551,100.921,7.12502,178.464,-49.1049,-2.09917e-13,-4.13472e-14,100.619,10.3219,21.292,30.0936,27.165,-51.0486,-261.421,7.12502,-23.5952,-70.0063,-92.4905,-47.1374,-28.8124,39.5272,-3.82992,-36.2548,-5.85617,-21.0184,5.30292,-7.25266,84.3276,-16.0307,17.2346,-2.64486
2.36136,16.9521,-27.1247,149.756,-48.3322,19.9525,-0.276791,8.86464,13.1254,-20.6969,14.5619,-9.14614,-17.4616,4.33845,-19.8168,-1.50516,-5.27688,49.1262,-15.7405,-8.41728,-16.1935,-7.64613,-6.16477,-11.9273,-2.09917e-13,-1.27222e-14,35.5902,-16.7119,-20.7435,40.3605,11.7665,-38.9389,104.629,7.12502,168.055,-45.7322,-2.09917e-13,-1.27222e-14,99.6302,10.8892,19.3472,30.9485,28.7003,-49.2256,-261.402,7.12502,-21.8456,-69.8113,-96.3673,-47.6209,-24.3546,46.2481,-5.77849,-32.4509,-8.25336,-20.8676,5.77571,-6.34706,80.3137,-16.4174,17.0101,-8.75547
2.32539,16.9791,-26.8868,150.049,-49.0657,20.1514,0.13383,8.65795,14.1004,-20.7101,14.4227,-9.13215,-17.6066,4.04574,-20.4742,-1.07512,-4.9323,48.2056,-16.4687,-7.70559,-15.8473,-7.6881,-5.87258,-11.7869,-8.26944e-14,9.22361e-14,36.8405,-17.4764,-22.0268,39.7173,12.3658,-31.927,102.112,7.12502,174.822,-47.9713,-8.26944e-14,9.22361e-14,98.6264,11.4226,17.4766,31.8239,30.069,-48.3041,-262.623,7.12502,-20.9606,-68.4899,-98.607,-47.2554,-21.0476,52.3458,-10.4286,-29.3499,-2.47908,-20.2501,6.51892,-4.93114,75.9821,-16.6635,16.8374,-7.53833
2.29496,16.9984,-26.6151,151.665,-50.3371,18.9557,0.573855,8.54822,14.0201,-20.8238,14.3499,-9.23268,-18.0809,3.89942,-20.7551,-0.925381,-4.75034,45.8582,-16.6084,-7.30236,-14.9051,-7.49108,-5.60923,-11.2004,-1.145e-13,-6.67916e-14,37.9797,-18.0176,-22.7666,39.1963,13.3554,-30.0573,101.968,7.12502,176.627,-48.0785,-1.145e-13,-6.67916e-14,96.855,12.2379,15.1546,33.4253,32.9966,-48.9559,-261.466,7.12502,-21.5866,-69.717,-100.688,-47.1579,-18.6717,57.908,-12.4976,-26.879,-1.79682,-19.9323,6.71171,-5.21192,71.385,-17.5386,16.3625,-4.51786
2.26095,17.0071,-26.3407,152.502,-51.1535,18.3215,0.72304,8.57221,13.8162,-20.7209,14.4058,-8.9135,-18.1557,3.97709,-20.2574,-0.960779,-4.683,44.1372,-16.767,-7.10917,-14.1101,-7.34648,-5.52709,-11.204,1.90833e-14,-3.18055e-14,38.7482,-18.3499,-22.6837,39.0403,14.4781,-30.1484,101.387,7.12502,176.539,-48.6611,1.90833e-14,-3.18055e-14,96.4769,12.1297,15.8809,33.0382,33.6842,-50.3706,-258.411,7.12502,-22.9448,-72.9348,-101.41,-46.3581,-16.7189,62.7634,-14.3746,-25.2821,-2.81242,-19.1712,6.97555,-4.73756,66.7067,-19.057,14.87,-1.27228
2.23129,17.0406,-26.1198,154.142,-51.8413,17.1969,0.936745,8.54124,13.8504,-20.8251,14.4326,-8.89652,-18.43,3.91839,-20.3602,-0.981507,-4.54621,42.0729,-16.94,-6.87781,-13.2202,-7.20661,-5.36411,-10.5938,1.145e-13,4.13472e-14,40.1805,-18.8297,-23.578,37.8753,15.6111,-31.4524,100.189,7.12502,175.28,-49.8836,1.145e-13,4.13472e-14,95.3627,12.6782,14.3534,33.7592,35.2642,-50.1526,-259.578,7.12502,-22.7355,-71.7419,-102.517,-45.5773,-14.8126,67.0531,-16.2477,-23.8149,-2.06665,-19.1791,7.95827,-4.4265,62.3133,-19.2178,14.5684,-4.79194
2.20366,17.0522,-25.8737,156.536,-52.5435,15.506,0.610257,8.61103,13.2696,-20.9715,14.446,-8.91338,-18.5245,4.0112,-20.0084,-0.985389,-4.43132,40.4518,-17.1795,-6.72249,-12.7364,-7.1471,-5.25127,-10.2057,2.22639e-14,6.67916e-14,41.3943,-18.9609,-23.9048,37.0343,16.118,-32.6013,98.7602,7.12502,174.171,-51.34,2.22639e-14,6.67916e-14,94.4845,12.9596,13.473,34.3597,35.9847,-49.144,-260.87,7.12502,-21.7673,-70.3338,-103.98,-44.8713,-12.5508,70.5587,-16.3366,-23.5139,-7.97693,-19.3911,8.71622,-4.68082,57.8809,-19.6949,14.2738,-1.76179
2.17813,17.0944,-25.6513,158.956,-53.1907,13.7841,0.446431,8.63847,13.085,-21.1158,14.4563,-9.04375,-18.6079,4.01634,-20.0628,-0.872288,-4.33669,39.1697,-17.4881,-6.52499,-12.2341,-7.14207,-5.13998,-9.85751,3.72125e-13,5.725e-14,42.5245,-19.1123,-24.2713,36.2792,17.0247,-32.2713,97.9007,7.12502,174.489,-52.1909,3.72125e-13,5.725e-14,93.9618,13.0578,13.07,34.6061,36.1164,-48.8042,-260.282,7.12502,-21.4409,-70.8846,-104.31,-43.9968,-11.0847,73.1059,-17.7905,-22.969,-10.9114,-19.6457,9.16814,-4.87721,53.6787,-20.1482,14.6078,-3.81788
2.15679,17.1351,-25.4278,161.306,-53.7181,12.2369,0.22913,8.67269,13.0675,-21.2646,14.4908,-9.13924,-18.6231,4.0193,-20.143,-0.983871,-4.10501,37.405,-17.5024,-6.21838,-11.545,-6.94703,-4.92877,-9.37576,-5.40694e-14,-1.11319e-13,43.4405,-19.3999,-24.3585,35.6618,18.2493,-30.5232,97.2838,7.12502,176.177,-52.7707,-5.40694e-14,-1.11319e-13,93.0613,13.5418,11.8581,35.2618,37.008,-48.9245,-260.174,7.12502,-21.5565,-71.0052,-103.521,-42.8228,-10.3845,74.6001,-19.4572,-22.8778,-9.53998,-20.1628,9.27833,-4.82482,49.535,-20.8152,14.8111,-0.0118137
2.13844,17.1627,-25.2025,163.402,-54.5222,10.9074,-0.266858,8.59059,12.685,-21.2971,14.2336,-9.14321,-18.5248,3.97935,-19.8078,-1.32749,-3.64605,36.4248,-17.4025,-5.772,-11.5261,-6.68914,-4.65876,-9.27793,-1.97194e-13,-1.36764e-13,44.3995,-19.6167,-24.2993,35.0574,18.661,-29.6027,97.4344,7.12502,177.066,-52.6061,-1.97194e-13,-1.36764e-13,92.269,14.1457,10.608,35.7094,37.971,-49.097,-259.832,7.12502,-21.7222,-71.367,-102.107,-41.8568,-10.0537,75.2374,-20.0618,-23.448,-12.6352,-21.0152,9.52689,-4.96604,45.5475,-18.736,17.9489,-9.12351
2.12278,17.1972,-24.9807,165.613,-55.2651,9.48773,-0.638411,8.54655,12.4674,-21.3271,14.0823,-9.12788,-18.4296,3.96102,-19.5694,-1.28251,-3.32229,34.789,-17.6664,-5.30398,-11.1057,-6.58779,-4.38074,-8.93125,-1.68569e-13,-8.90555e-14,45.5061,-19.609,-23.9505,34.286,18.6505,-30.6374,98.5922,7.12502,176.067,-51.4644,-1.68569e-13,-8.90555e-14,91.55,14.4938,10.512,35.8553,38.0351,-49.032,-259.242,7.12502,-21.6597,-71.9491,-99.9884,-40.673,-10.2172,74.9816,-20.8398,-24.1885,-14.351,-21.5947,8.62567,-4.61469,41.5339,-20.2535,17.944,-7.67979
2.10446,17.2128,-24.7537,168.324,-56.0004,7.74462,-1.24254,8.51698,12.1357,-21.4133,13.9061,-9.1927,-18.264,3.95731,-19.3133,-1.36851,-3.10248,33.1611,-17.7037,-4.98695,-10.4303,-6.43502,-4.16991,-8.46843,1.55847e-13,6.52014e-14,46.7442,-19.6401,-23.7181,33.221,19.0469,-31.6933,98.8287,7.12502,175.047,-51.2492,1.55847e-13,6.52014e-14,91.3227,14.7509,10.6907,35.5248,37.7798,-48.9023,-258.413,7.12502,-21.5351,-72.7639,-97.3219,-39.3249,-10.8875,73.7515,-21.9175,-24.9217,-15.794,-22.833,7.56269,-4.47515,37.8268,-20.51,19.482,-6.85165
2.06637,17.2405,-24.6591,170.641,-56.0417,6.42439,-2.26188,8.42346,10.4751,-21.4555,13.5198,-8.78304,-18.2642,4.1209,-17.6533,-1.32373,-2.91384,31.5756,-17.8581,-4.66671,-9.78976,-6.35212,-3.96424,-8.02643,1.66979e-13,9.85972e-14,48.1155,-19.8599,-23.7957,32.0084,19.5529,-31.8709,98.4916,7.12502,174.876,-51.5904,1.66979e-13,9.85972e-14,90.9186,15.2184,10.3004,35.2656,37.9069,-48.7791,-257.707,7.12502,-21.4169,-73.4572,-94.577,-36.247,-12.2713,72.2324,-22.9378,-26.9308,-14.0597,-23.7087,7.14207,-3.27827,34.1347,-20.697,20.9644,-7.52276
2.08008,17.281,-24.3771,172.103,-57.2471,5.89335,-2.30252,8.30106,11.9114,-21.4817,13.3995,-8.96867,-17.9627,3.80719,-18.6404,-1.40403,-2.71361,29.8767,-17.9658,-4.3601,-9.02575,-6.23885,-3.76395,-7.52197,-3.33958e-14,-9.85972e-14,49.5432,-20.1567,-23.9044,30.7659,20.0771,-31.8564,98.6975,7.12502,174.89,-51.3841,-3.33958e-14,-9.85972e-14,90.2545,15.8811,9.55147,35.0496,38.4572,-48.5767,-257.587,7.12502,-21.2225,-73.5552,-90.6489,-35.3679,-13.1094,69.8368,-23.2694,-27.7784,-10.6304,-24.9879,5.65306,-2.28112,30.854,-20.9314,22.4494,-8.85325
2.05874,17.2937,-24.1779,173.59,-57.9117,5.21306,-2.63256,8.11368,11.7517,-21.4602,13.0548,-8.75695,-17.9432,3.67576,-18.216,-1.81494,-2.34443,28.3155,-17.7646,-3.94113,-8.41859,-5.96041,-3.48787,-7.10046,-1.7175e-13,-6.52014e-14,50.9692,-20.3788,-23.8397,29.4529,20.48,-31.0783,99.1213,7.12502,175.641,-50.9435,-1.7175e-13,-6.52014e-14,89.9952,16.4496,9.00405,34.2602,38.7512,-47.8328,-258.818,7.12502,-20.5077,-72.2448,-87.461,-33.1572,-14.01,67.6492,-23.2011,-29.6659,-9.16221,-26.1191,4.98625,-0.90523,27.8709,-20.8285,24.1692,-11.5189
2.04315,17.3214,-23.9962,175.352,-58.5889,4.33465,-2.79244,8.00623,11.8594,-21.4915,12.8933,-8.57301,-17.9717,3.5737,-18.0218,-2.02366,-2.17544,25.6541,-17.7248,-3.6754,-7.32633,-5.76851,-3.25196,-6.33347,-6.67916e-14,-4.29375e-14,52.4311,-20.5732,-23.3888,28.3252,20.6415,-33.7699,99.6142,7.12502,173.043,-50.5202,-6.67916e-14,-4.29375e-14,88.998,17.2877,7.41018,34.5036,40.198,-46.7811,-261.431,7.12502,-19.4968,-69.5266,-84.5026,-30.9041,-14.9851,65.3547,-23.6064,-31.1866,-4.77131,-27.6921,4.91792,0.331189,25.5029,-19.0884,26.8779,-13.8755
2.02818,17.3477,-23.8302,177.532,-59.2453,2.98236,-3.19069,7.84442,11.422,-21.4706,12.5561,-8.40434,-17.9395,3.49751,-17.4822,-1.95747,-1.93272,23.4824,-18.1141,-3.29876,-6.8008,-5.76784,-2.98576,-5.84757,3.26007e-13,6.52014e-14,54.0049,-21.0002,-23.3996,27.2897,21.3318,-29.8338,97.9403,7.12502,176.843,-52.1034,3.26007e-13,6.52014e-14,88.3271,17.9873,6.67928,34.5659,40.9758,-46.3444,-263.257,7.12502,-19.077,-67.6585,-81.7322,-28.6549,-16.0225,63.1751,-25.2133,-31.7655,1.20588,-29.1986,4.55396,1.80001,23.4989,-20.3797,27.775,-11.1555
2.01774,17.3854,-23.6809,179.432,-59.8749,1.72603,-3.54478,9.74709,10.6715,-21.1513,11.1967,-8.5392,-17.5694,2.22088,-16.7168,-1.94656,-1.78271,21.2322,-18.4775,-2.9769,-5.67383,-5.77157,-2.77421,-5.13752,0,4.92986e-14,55.4003,-21.4133,-23.3521,26.4793,22.0382,-30.4694,97.7084,7.12502,176.229,-52.3452,0,4.92986e-14,86.9067,18.7736,6.263,35.3687,41.6399,-46.3491,-264.192,7.12502,-19.0815,-66.7242,-79.072,-26.5013,-16.7176,61.088,-27.3542,-31.4379,7.04413,-30.646,4.10249,3.59008,22.0731,-21.6721,28.9712,-10.3143
2.00029,17.4102,-23.5316,180.79,-60.5152,0.811563,-3.6612,9.39415,10.1994,-21.0093,10.7903,-8.16484,-17.6432,2.1764,-15.9897,-1.9282,-1.46029,19.8384,-18.9051,-2.53043,-5.44778,-5.80954,-2.50334,-4.87222,-2.71937e-13,-1.46306e-13,56.6162,-21.794,-23.1593,25.8471,22.4751,-33.4105,97.2649,7.12502,173.39,-52.8583,-2.71937e-13,-1.46306e-13,85.586,19.4768,6.0143,36.1601,42.1618,-46.254,-264.876,7.12502,-18.99,-66.0313,-76.4075,-24.2455,-17.0264,59.108,-28.9426,-31.2882,11.5859,-32.0495,3.8293,5.66272,21.2125,-23.3699,29.9297,-9.96744
1.979,17.4286,-23.384,181.835,-61.119,-0.0565721,-3.52243,9.03142,9.77896,-20.7746,10.4184,-7.70984,-17.7467,2.14557,-15.2313,-1.99768,-1.41468,17.8688,-19.1373,-2.3663,-4.33216,-5.80506,-2.37695,-4.19963,-1.74931e-14,3.65764e-14,58.1186,-22.3663,-23.3277,25.0155,23.4129,-30.0971,96.478,7.12502,176.589,-53.5695,-1.74931e-14,3.65764e-14,85.1532,19.9639,6.49479,36.1564,41.9576,-46.5176,-264.959,7.12502,-19.2435,-65.9735,-73.7697,-21.8374,-17.116,57.2335,-29.7193,-31.7268,12.1656,-33.2908,3.65898,7.83762,20.6994,-24.8056,31.2193,-9.00595
1.95976,17.4554,-23.2395,183.65,-62.5141,-1.16253,-4.21762,8.46455,8.967,-20.6137,9.6824,-7.27936,-17.5693,2.06246,-14.1356,-2.32823,-1.12331,15.8507,-19.3035,-2.02651,-3.97399,-5.71499,-2.1057,-3.77985,1.59028e-14,-3.97569e-14,59.7236,-22.9376,-23.4901,24.3,23.9069,-31.227,96.164,7.12502,175.498,-53.9038,1.59028e-14,-3.97569e-14,85.6408,20.3036,7.96231,35.1301,40.8743,-47.1839,-264.722,7.12502,-19.8841,-66.2747,-71.3517,-20.4966,-17.0819,55.4739,-29.8741,-32.3975,9.72676,-35.6088,3.61313,9.78669,20.3069,-24.9028,32.7635,-8.86642
1.94156,17.4767,-23.0737,183.736,-63.8216,-0.467696,-4.61725,7.98409,9.3278,-20.5044,9.21698,-6.68566,-17.3828,1.94258,-13.571,-3.1077,-0.931408,13.8842,-18.9454,-1.77726,-2.92234,-5.40981,-1.90442,-3.1335,3.09309e-13,1.81292e-13,60.3448,-23.2286,-22.611,24.2608,22.5611,-32.8052,97.224,7.12502,173.974,-52.8817,3.09309e-13,1.81292e-13,85.0876,20.9089,9.10225,34.8768,40.2266,-47.5551,-264.809,7.12502,-20.2409,-66.2256,-68.9514,-19.1119,-15.8512,53.6009,-29.0592,-33.2897,7.98176,-37.9064,4.16482,12.4098,20.1001,-22.8867,34.8514,-11.6763
1.91985,17.5076,-22.9127,183.645,-65.3982,-0.311979,-4.29285,7.31997,9.48366,-20.2435,8.5824,-6.10363,-17.5533,1.72145,-13.0273,-3.66396,-0.841211,11.8409,-18.7778,-1.59489,-1.78955,-5.21463,-1.74242,-2.44851,7.79236e-14,1.66979e-14,60.3214,-23.7519,-21.7872,24.9236,22.1224,-32.3824,96.2356,7.12502,174.382,-53.8588,7.79236e-14,1.66979e-14,85.3915,21.1181,10.6047,34.0258,39.1009,-47.5145,-265.077,7.12502,-20.2018,-65.9539,-65.7337,-17.7648,-14.9887,51.4364,-28.505,-33.9463,5.66906,-39.6626,2.89771,15.7903,20.7732,-28.8642,33.7401,-2.87502
1.89182,17.5341,-22.7636,182.062,-67.0819,1.10741,-3.56387,6.61528,10.0217,-19.9407,7.99955,-5.30364,-17.899,1.47283,-12.4972,-3.33642,-0.983201,9.76955,-19.7999,-1.71698,-1.35084,-5.56011,-1.73838,-1.96467,2.62396e-14,2.3059e-14,62.5157,-24.2408,-22.4259,24.0159,23.1852,-31.6747,96.0358,7.12502,175.065,-54.0417,2.62396e-14,2.3059e-14,85.6258,21.3318,12.2048,33.144,38.0304,-47.3394,-265.179,7.12502,-20.0335,-65.8338,-62.1913,-16.1356,-13.645,49.2151,-28.98,-34.2944,2.92746,-41.3537,3.18822,18.7319,21.183,-30.1358,33.6632,-1.03231
1.86508,17.5645,-22.4505,179.317,-68.4843,3.41406,-1.45865,6.23576,13.3229,-19.7198,8.26934,-4.90177,-18.6066,1.05546,-14.2332,-4.96376,-0.149145,9.78364,-18.4009,-0.796545,-1.67373,-4.79904,-1.20822,-2.10649,3.03743e-13,1.79701e-13,64.3559,-24.5247,-22.2688,23.0647,23.6861,-30.9867,96.6806,7.12502,175.73,-53.3825,3.03743e-13,1.79701e-13,85.6774,21.6399,13.7164,32.3933,37.2017,-47.0571,-265.555,7.12502,-19.7621,-65.43,-58.6119,-16.3394,-11.0031,46.5858,-27.5189,-33.4681,-2.88991,-43.2252,5.20945,20.4206,21.8064,-27.0883,34.2925,-5.52681
1.87464,17.5801,-22.4329,188.009,-69.4875,-5.26186,-3.13306,5.72066,8.36325,-18.9695,6.9219,-4.70862,-18.5019,1.29972,-10.9192,-6.05107,0.149204,7.34714,-17.9581,-0.32897,-0.749298,-4.44193,-0.849826,-1.42835,2.48083e-13,1.27222e-13,65.7169,-24.7321,-21.8747,22.4445,23.7335,-30.9279,96.9287,7.12502,175.786,-53.1333,2.48083e-13,1.27222e-13,85.332,22.0408,14.5245,32.0167,36.9041,-46.7097,-266.163,7.12502,-19.4282,-64.7875,-56.3086,-14.5307,-13.5082,44.3404,-28.7098,-33.9485,-4.22758,-45.036,5.61066,19.7045,22.5023,-27.4514,35.6528,-5.2354
1.86934,17.6042,-22.2979,187.853,-70.683,-5.87106,-2.16535,5.26122,8.5264,-18.552,6.58189,-4.06834,-18.7254,1.21127,-10.3093,-7.11434,0.212266,4.69186,-17.1608,-0.0925984,0.489032,-4.45134,-0.606102,-0.628418,-1.86858e-14,-7.91163e-14,66.696,-24.9497,-21.1668,22.2577,23.5716,-31.6264,95.5681,7.12502,175.112,-54.5083,-1.86858e-14,-7.91163e-14,84.7183,22.4705,15.0759,31.7961,36.9617,-46.4577,-266.34,7.12502,-19.1859,-64.5868,-52.8298,-13.1561,-12.3107,41.9584,-28.4366,-34.2313,-5.859,-46.1467,7.10941,21.1831,23.4036,-27.4489,34.5698,-3.80416
1.86951,17.6262,-22.1364,192.094,-71.458,-10.9936,-1.28509,4.88587,7.50949,-18.1703,6.14444,-3.90517,-18.9828,1.17755,-9.58185,-7.92005,0.295839,2.64163,-16.8768,0.164471,1.31848,-4.18008,-0.374854,0.00204924,3.51849e-14,2.74323e-14,68.4288,-24.9817,-21.052,21.7233,22.9372,-35.9123,96.5627,7.12502,170.975,-53.6504,3.51849e-14,2.74323e-14,83.8164,22.9394,14.8882,31.883,37.6122,-46.2924,-266.396,7.12502,-19.0269,-64.5143,-49.9008,-12.7302,-12.1974,39.8975,-27.6481,-34.2625,-7.58131,-46.6813,6.36252,22.4685,23.7763,-28.2461,35.51,-1.62915
1.87129,17.6457,-22.01,193.972,-72.0991,-13.9051,-0.341278,4.52037,6.85857,-17.718,5.77913,-3.4741,-19.1646,1.16746,-8.73559,-8.69034,0.433445,1.00685,-16.5772,0.490146,1.97418,-3.93268,-0.127102,0.496413,-1.85367e-13,-7.86193e-14,69.8095,-24.8169,-20.5952,21.5045,20.4451,-32.9747,97.0084,7.12502,173.81,-53.102,-1.85367e-13,-7.86193e-14,84.0198,23.0109,15.6812,31.0149,37.1509,-46.2566,-266.365,7.12502,-18.9925,-64.5427,-46.7279,-11.4901,-11.3544,37.739,-27.8196,-34.7517,-7.31029,-47.3632,8.21114,23.0186,24.505,-26.2357,34.7947,-3.87271
1.8821,17.6649,-21.8702,196.188,-72.5653,-17.076,0.484963,4.25251,6.47817,-17.2746,5.53446,-3.144,-19.2203,1.16506,-8.15365,-9.17242,0.123682,-1.65935,-16.8426,0.350011,3.20958,-3.96323,-0.0910694,1.37625,1.95057e-14,-3.99557e-14,71.2549,-24.6605,-20.4019,21.5641,18.5362,-33.2321,97.1742,7.12502,173.562,-52.9436,1.95057e-14,-3.99557e-14,84.1968,23.3739,16.5113,29.7641,36.7691,-47.2214,-264.19,7.12502,-19.9201,-66.811,-43.6569,-10.4635,-10.4981,35.4922,-27.3363,-35.7897,-10.4333,-47.889,9.28906,24.1347,25.178,-25.3657,34.5221,-5.2103
1.90077,17.6781,-21.7212,198.973,-72.8474,-20.8177,1.18689,4.03065,5.9999,-16.8,5.30845,-2.8836,-19.1403,1.18428,-7.58083,-9.92609,0.112188,-2.88455,-16.8656,0.440228,3.45539,-3.85415,0.0180592,1.67259,-1.86957e-13,-1.25632e-13,72.396,-24.4274,-19.8003,21.5579,15.5017,-32.3912,96.9155,7.12502,174.374,-53.1792,-1.86957e-13,-1.25632e-13,84.0379,23.8233,16.9407,28.9435,36.6396,-49.0346,-260.353,7.12502,-21.6622,-70.8392,-40.6267,-9.79467,-9.67003,33.1374,-26.1186,-37.0695,-9.49433,-48.24,10.2023,25.2647,25.7038,-25.4789,34.0305,-5.02312
1.91527,17.6803,-21.5758,203.267,-72.6814,-26.2907,2.0366,3.84843,4.96675,-16.2796,5.02737,-2.82779,-19.125,1.22035,-6.9386,-10.6262,0.108155,-3.63064,-16.9564,0.488674,3.43156,-3.77479,0.0832543,1.79566,2.27012e-13,1.1291e-13,73.8169,-24.3861,-20.112,21.4817,13.6734,-31.268,96.9833,7.12502,175.458,-53.0854,2.27012e-13,1.1291e-13,83.5388,24.2006,16.4733,28.7492,36.5371,-51.0146,-255.616,7.12502,-23.5626,-75.8076,-37.3116,-8.14701,-9.84929,30.5384,-27.2816,-38.0111,-6.90383,-48.2356,10.6944,26.0796,26.1384,-25.9853,33.8462,-3.81037
1.92844,17.6762,-21.4374,208.592,-71.9942,-32.8752,2.86414,3.70935,3.32056,-15.7605,4.66799,-2.95874,-19.1351,1.27973,-6.1535,-11.19,0.176148,-3.52546,-17.1583,0.512152,2.92024,-3.74647,0.0938082,1.60402,-9.02482e-14,-4.29375e-14,74.9676,-24.4223,-20.3065,21.4526,12.5732,-31.6806,97.3645,7.12502,175.06,-52.7131,-9.02482e-14,-4.29375e-14,83.6418,24.4967,16.4687,28.0243,36.6845,-49.6357,-258.435,7.12502,-22.2394,-72.8245,-33.9706,-6.32745,-10.6121,27.7211,-29.3112,-38.3507,-1.28373,-47.9602,10.7099,26.7055,26.3824,-25.4284,35.1424,-4.1101
1.94662,17.665,-21.2991,212.98,-71.2403,-38.3032,3.35471,3.58013,1.72639,-15.2889,4.30734,-3.03649,-18.9797,1.34773,-5.30141,-12.1866,0.258424,-3.534,-16.92,0.607615,2.68088,-3.49137,0.145083,1.51885,1.08536e-13,9.18385e-14,75.7084,-24.2971,-19.4274,21.4184,10.8893,-32.8793,97.4008,7.12502,173.902,-52.707,1.08536e-13,9.18385e-14,82.3677,25.0683,15.1249,28.289,37.4448,-47.8008,-260.417,7.12502,-20.477,-70.6423,-30.6334,-4.35876,-11.1021,24.5895,-29.7028,-39.551,1.83389,-47.7425,10.6801,27.7411,26.5368,-25.3673,36.5253,-4.53689
1.97345,17.6532,-21.1607,216.015,-70.6019,-42.1446,3.71504,3.56334,0.907592,-14.8466,4.2119,-2.96051,-18.7031,1.44331,-4.73467,-13.2522,0.0764927,-5.34431,-16.5565,0.650228,3.40479,-3.21361,0.260565,2.07999,-8.62725e-14,-1.27222e-14,75.8015,-24.3387,-17.4702,21.7933,8.31053,-32.8018,97.1628,7.12502,173.977,-52.9428,-8.62725e-14,-1.27222e-14,80.9408,25.5759,14.4102,28.8339,38.0251,-45.4452,-263.761,7.12502,-18.212,-67.0713,-27.3212,-1.95262,-11.1409,21.219,-29.9532,-41.0112,2.74128,-47.4679,10.6944,29.4612,26.6192,-27.3962,37.02,-2.86737
2.00493,17.6434,-20.9993,216.466,-70.4478,-43.4608,4.31809,3.50699,1.39161,-14.3631,4.26662,-2.76972,-18.4373,1.43341,-4.80157,-14.7027,0.0385021,-6.74028,-15.7511,0.917318,4.20572,-2.73168,0.47256,2.60393,-3.89618e-14,0,76.135,-24.5998,-16.2892,22.1397,6.17874,-31.8567,97.0253,7.12502,174.89,-53.0563,-3.89618e-14,0,79.5457,26.0609,13.3704,29.4495,39.1994,-45.7246,-263.357,7.12502,-18.4808,-67.501,-23.7426,0.598686,-10.0959,17.6249,-29.9736,-42.1823,4.10283,-47.2474,11.541,31.6925,26.7003,-28.5085,37.1698,-1.84264
2.03801,17.6249,-20.8635,220.841,-69.2123,-48.3246,4.15759,3.48139,-0.152706,-14.021,3.99929,-3.01703,-17.9931,1.51532,-4.13908,-16.5355,0.0258125,-8.13673,-14.3363,1.30891,5.30825,-1.99754,0.757862,3.2578,9.22361e-14,7.55382e-14,76.7425,-24.8384,-15.2773,22.4079,4.62096,-31.2495,96.8415,7.12502,175.476,-53.2268,9.22361e-14,7.55382e-14,78.3784,26.4253,12.0965,29.7821,40.4832,-49.7872,-254.389,7.12502,-22.3849,-76.8877,-20.6292,2.59537,-10.7029,13.647,-28.2599,-43.3116,3.85831,-47.2461,11.8016,32.6326,26.8381,-30.2568,38.4489,-0.398272
2.07774,17.6176,-20.7145,223.085,-68.263,-51.1245,4.26688,3.47572,-0.868571,-13.6721,3.89768,-3.11852,-17.6626,1.56376,-3.81957,-18.4184,-0.0353428,-9.23135,-12.9415,1.62892,6.32229,-1.14851,0.986822,3.53622,1.82882e-13,5.96354e-14,76.6694,-25.2274,-13.7574,22.4179,3.82082,-33.4285,98.9913,7.12502,173.372,-51.1324,1.82882e-13,5.96354e-14,78.5869,26.477,10.3546,29.0879,41.8279,-45.7277,-261.221,7.12502,-18.4838,-69.6373,-17.0877,2.91149,-9.94839,9.1087,-25.0899,-42.3581,3.14575,-47.1081,12.483,34.1885,27.1861,-31.6413,39.395,0.157438
2.11721,17.6035,-20.5617,226.419,-67.3369,-55.1045,4.37251,3.33207,-1.94358,-13.2971,3.56454,-3.31262,-17.3319,1.54482,-3.36409,-20.0118,-0.125103,-9.97643,-11.6672,1.79297,6.90161,-0.565413,1.12982,3.85689,-2.57625e-13,-1.06549e-13,76.9152,-25.5976,-12.6333,22.845,2.34337,-33.5551,93.7268,7.12502,173.25,-56.4008,-2.57625e-13,-1.06549e-13,76.7587,27.013,9.09643,29.9242,42.7605,-44.8186,-262.032,7.12502,-17.6091,-68.7457,-12.9825,2.64818,-9.68029,3.92367,-21.5767,-40.9897,3.51256,-47.4214,12.8873,35.204,27.4423,-31.7909,41.001,-0.189347
2.16608,17.597,-20.39,226.694,-66.5921,-55.8258,4.4438,3.44945,-1.74613,-12.9377,3.76778,-3.25224,-16.8932,1.62462,-3.41367,-20.7165,0.150953,-9.51239,-11.1773,2.10073,6.41962,-0.344247,1.27216,3.65009,-1.4551e-13,-1.59028e-13,77.0693,-26.1347,-11.7769,23.2714,1.53635,-34.1472,92.0247,7.12502,172.678,-58.122,-1.4551e-13,-1.59028e-13,74.8224,27.5754,8.2497,30.8873,43.544,-44.9559,-261.718,7.12502,-17.7412,-69.0711,-9.9266,2.96542,-8.2888,0,-17.9755,-39.8339,3.16661,-47.2679,14.9636,36.8385,27.7639,-31.1442,41.4812,-0.713432
2.22306,17.6046,-20.2534,227.934,-65.7372,-57.5775,4.36456,3.47806,-2.44637,-12.5665,3.74518,-3.18701,-16.4285,1.7173,-2.9115,-21.2633,0.227344,-9.61364,-10.8681,2.26523,6.49924,-0.192169,1.3651,3.70605,-7.79236e-14,-4.6118e-14,77.4464,-26.7468,-11.291,23.6306,1.29911,-33.6709,91.3931,7.12502,173.138,-58.7381,-7.79236e-14,-4.6118e-14,74.2718,27.9099,7.75272,30.7625,44.0208,-45.1722,-261.728,7.12502,-17.9494,-69.08,-8.83766,3.12857,-7.08324,-2.8625e-14,-16.9984,-38.6,2.85269,-47.116,16.7357,38.2377,27.9518,-32.2084,40.9867,-0.0509893
2.28062,17.5961,-20.0774,230.049,-65.0144,-60.6008,4.79125,3.34261,-2.74406,-12.1229,3.52358,-3.35702,-16.165,1.64047,-2.89648,-21.9767,0.279764,-9.62717,-10.4564,2.38713,6.66683,0.0174975,1.43439,3.77654,-8.5875e-14,-7.63333e-14,77.7172,-27.5372,-11,24.0154,0.952119,-32.5725,90.0179,7.12502,174.198,-60.0815,-8.5875e-14,-7.63333e-14,74.1142,28.2367,7.26706,30.3045,44.6951,-46.2052,-260.313,7.12502,-18.943,-70.5892,-7.22251,2.83672,-6.27728,-3.18055e-14,-14.5774,-37.987,0.389032,-47.2837,17.2562,39.5627,28.042,-33.341,41.0807,0.961549
2.33671,17.5915,-19.8984,231.321,-64.6632,-62.7622,5.41359,3.207,-2.5967,-11.68,3.37476,-3.33825,-16.0077,1.5585,-2.94132,-22.9035,0.0881174,-10.3978,-9.8667,2.38894,7.41955,0.308511,1.48624,4.15353,4.21423e-14,9.85972e-14,78.0022,-28.3884,-10.4568,24.1071,0.869015,-32.5461,-88.0606,7.12502,174.224,-62.0381,4.21423e-14,9.85972e-14,73.3041,28.7605,7.0641,30.3199,45.6328,-47.4758,-257.449,7.12502,-20.1647,-73.5777,-5.59821,2.50792,-4.85781,-1.59028e-15,-12.5637,-37.4266,-1.11378,-47.3745,17.9626,41.4009,27.7875,-32.5907,41.872,2.92268
2.39322,17.5839,-19.7086,232.19,-64.4745,-64.467,6.14534,3.0718,-2.031,-11.2656,3.28285,-3.28771,-15.9306,1.45496,-3.2023,-23.7166,0.427024,-9.89035,-9.35952,2.76968,7.02443,0.542235,1.66296,3.98085,-5.00937e-14,-4.77083e-15,78.3884,-29.3538,-10.61,24.2861,1.78395,-32.6735,-85.7044,7.12502,174.101,-64.3977,-5.00937e-14,-4.77083e-15,72.2544,29.3637,6.88983,30.438,46.3077,-47.9233,-256.051,7.12502,-20.5947,-75.022,-4.00161,2.12829,-3.1431,-3.33958e-14,-11.9125,-36.8835,-0.229751,-47.4821,18.8705,43.4362,27.3458,-32.2675,41.9922,1.01758
2.44529,17.5905,-19.5201,234.147,-64.111,-66.9017,6.65676,2.85641,-1.94992,-11.0059,3.01022,-3.3433,-15.9416,1.31896,-3.27571,-24.6172,0.644962,-9.52048,-8.91162,3.01736,6.97307,0.780029,1.78042,3.93621,3.49861e-14,-4.6118e-14,77.7349,-30.4178,-8.96963,24.7783,0.436214,-32.0866,-83.0532,7.12502,174.668,-67.0338,3.49861e-14,-4.6118e-14,71.3529,29.8777,6.34497,30.4449,46.923,-47.8341,-256.297,7.12502,-20.509,-74.7666,-5.7593,1.80828,-1.6806,5.51886,-13.9064,-37.0723,-0.0426068,-47.7049,19.6308,45.3469,26.5402,-31.2865,43.4349,3.22631
2.48381,17.5769,-19.3471,236.238,-63.4259,-69.6109,7.25532,2.68083,-2.22422,-10.707,2.72338,-3.45848,-15.9826,1.21023,-3.21629,-25.6455,0.555134,-9.68564,-8.443,2.98945,7.51435,1.0532,1.79024,4.15355,-9.38264e-14,-1.59028e-14,77.6639,-31.6019,-8.40354,25.2237,0.131887,-31.2217,-79.2987,7.12502,175.503,-70.769,-9.38264e-14,-1.59028e-14,70.7495,30.4311,6.44836,30.4645,46.8432,-46.8393,-258.335,7.12502,-19.5528,-72.6287,-6.85046,1.50958,-0.587235,9.88939,-14.8126,-37.2209,-0.690365,-47.6126,20.0748,46.9684,25.3863,-31.5881,44.0871,2.77487
2.53472,17.5617,-19.1695,238.121,-62.6415,-72.1332,7.7718,2.52815,-2.5229,-10.3952,2.45987,-3.59076,-15.9526,1.11469,-3.15741,-26.4943,0.325336,-10.3279,-8.18688,2.90198,8.4301,1.23679,1.79677,4.56308,4.77083e-14,4.45278e-14,77.3012,-32.8406,-7.40145,25.5392,0.0397467,-30.8601,-75.4604,7.12502,175.852,-74.6002,4.77083e-14,4.45278e-14,71.0162,30.9895,7.42464,30.1711,45.7201,-45.1828,-261.792,7.12502,-17.9595,-69.0169,-7.49817,1.2127,0.415418,13.47,-15.4403,-37.1131,-0.689462,-47.3537,20.6021,48.5143,24.0904,-32.0354,45.3485,5.05756
2.59388,17.5478,-18.9938,239.793,-61.8984,-74.4242,8.1926,2.36244,-2.96488,-10.0881,2.16395,-3.68258,-15.8747,1.02569,-2.95777,-26.9569,0.193424,-10.3385,-8.25488,2.72257,9.3303,1.29618,1.72214,4.8529,1.51076e-13,4.77083e-14,77.0934,-34.3448,-9.26734,27.254,3.05794,-29.6917,-70.8974,7.12502,176.98,-79.1442,1.51076e-13,4.77083e-14,71.6664,31.5486,8.40334,29.6624,44.6027,-44.77,-263.261,7.12502,-17.5624,-67.5118,-7.81298,0.205238,1.67409,16.4101,-15.2068,-36.61,-1.47132,-47.0715,21.5101,49.8935,22.6862,-33.0125,46.0593,7.94369
2.65408,17.5171,-18.804,241.239,-60.9116,-76.6346,8.65205,2.22377,-3.49972,-9.73129,1.87089,-3.88035,-15.7596,0.937968,-2.82289,-28.4251,0.918571,-8.8289,-6.9891,3.30406,8.1451,1.83347,1.96463,4.30426,-3.97569e-14,-1.43125e-14,76.0975,-35.8149,-7.61929,27.105,4.02451,-27.5739,-67.1483,7.12502,179.026,-82.8742,-3.97569e-14,-1.43125e-14,70.5361,32.4234,8.93713,30.3832,44.101,-46.7609,-260.08,7.12502,-19.4774,-70.8759,-7.90922,-0.771246,2.67345,19.0946,-14.2454,-36.0428,-3.58256,-46.7987,22.0305,51.1981,21.7094,-34.22,47.1079,10.2496
2.72891,17.4965,-18.606,241.459,-60.5807,-77.6536,9.1638,2.18292,-2.50105,-9.33011,1.9768,-3.83541,-15.5476,0.878943,-3.35343,-28.0445,1.38944,-7.80157,-7.14763,3.59658,7.29492,1.7344,2.03769,3.87855,8.26944e-14,-2.54444e-14,71.9282,-36.9142,-1.32931,27.2669,1.53664,-26.7473,-65.5748,7.12502,179.824,-84.4455,8.26944e-14,-2.54444e-14,71.8084,32.8234,10.3258,29.4861,43.2365,-49.75,-253.582,7.12502,-22.3491,-77.6904,-7.83178,-1.17574,4.62037,21.6962,-12.8193,-35.6125,-6.06689,-46.5476,23.163,53.0625,20.8901,-33.8714,48.373,11.285
2.76396,17.4398,-18.4712,244.625,-57.2557,-82.0659,9.79928,2.23016,-5.58702,-8.89602,1.41582,-4.64202,-15.563,0.894309,-2.42845,-29.4466,0.751178,-10.0664,-6.00877,3.50557,8.98388,2.21979,2.16022,4.82493,-1.92424e-13,-1.27222e-13,69.1855,-37.9312,1.54382,27.8055,1.32067,-26.7973,-65.5883,7.12502,179.776,-84.432,-1.92424e-13,-1.27222e-13,70.619,33.8542,11.3366,30.1661,43.4114,-49.4983,-253.687,7.12502,-22.1075,-77.5566,-7.79945,-2.14427,2.90192,24.3031,-10.8401,-35.0192,-9.33832,-46.0443,21.551,52.4312,20.3741,-37.5395,50.8741,14.4557
2.83264,17.4021,-18.2712,245.716,-56.1953,-83.9273,10.262,2.10871,-5.66385,-8.54231,1.20496,-4.88657,-15.4258,0.788043,-2.61376,-29.7267,1.1145,-8.85513,-5.66119,3.56653,8.69363,2.38063,2.14352,4.54996,2.54444e-14,3.18055e-15,66.2478,-38.8048,4.35171,28.0453,0.923541,-26.9484,-66.9644,7.12502,179.63,-83.0561,2.54444e-14,3.18055e-15,70.4193,34.4392,11.4192,30.0297,43.3833,-50.053,-253.643,7.12502,-22.6399,-77.6647,-8.00255,-2.99428,4.03066,27.0193,-9.9159,-34.6353,-11.0193,-46.1047,22.2849,53.3249,19.8621,-37.8488,51.7314,15.8249
2.90808,17.3612,-18.0737,246.719,-55.1392,-85.657,10.5688,1.97408,-5.86434,-8.19664,0.971526,-5.12663,-15.205,0.686668,-2.71098,-30.1247,1.58705,-7.06981,-5.05769,3.53913,8.51956,2.65491,2.07806,4.21995,-1.39944e-13,-5.40694e-14,63.7551,-39.6889,6.08227,27.9664,0.762307,-27.3404,-68.9755,7.12502,179.251,-81.046,-1.39944e-13,-5.40694e-14,70.978,34.9173,12.2254,29.5909,42.5214,-49.4858,-255.318,7.12502,-22.0955,-75.9243,-8.33569,-3.50288,5.2147,29.8403,-11.2029,-34.1606,-9.38558,-46.2534,23.383,53.9309,19.5336,-38.3449,51.5088,17.4724
2.98385,17.314,-17.885,247.681,-53.7696,-87.4074,10.8025,1.73423,-6.44076,-7.89099,0.555631,-5.30438,-14.998,0.549926,-2.48495,-30.3709,1.7125,-6.33758,-4.89716,3.41491,8.52019,2.75802,1.99177,4.09837,-7.15625e-14,-1.04958e-13,62.591,-40.6755,5.99557,27.7064,0.541401,-27.7333,-71.0425,7.12502,178.872,-78.9808,-7.15625e-14,-1.04958e-13,71.8466,35.2933,13.2517,28.6987,41.1299,-47.3473,-261.896,7.12502,-20.0411,-69.1172,-8.70689,-3.98366,6.14826,32.6965,-13.1198,-33.5926,-6.72259,-46.11,24.1034,54.4046,19.0142,-38.7706,51.5574,19.0267
3.06428,17.2618,-17.6961,248.682,-52.1012,-89.277,11.0159,1.58014,-7.39383,-7.66419,0.163488,-5.66384,-14.8817,0.44827,-2.26686,-30.0204,1.64641,-6.15726,-4.92927,3.21208,8.94144,2.72653,1.89302,4.17972,-1.39944e-13,-3.18055e-15,61.0834,-41.477,5.89713,27.507,-0.56938,-27.5899,-72.7974,7.12502,179.01,-77.2252,-1.39944e-13,-3.18055e-15,68.9942,35.8331,11.7535,30.1153,42.1562,-45.4255,-86.3257,7.12502,-18.1931,-57.1565,-9.03687,-4.64667,6.81329,35.4551,-15.181,-33.1013,-3.63764,-45.959,24.5737,54.5875,18.6081,-39.2182,51.8364,20.9508
3.15294,17.2049,-17.4966,249.569,-50.5832,-91.0218,11.1749,1.35282,-8.07394,-7.40994,-0.251897,-5.90805,-14.6816,0.315802,-2.05945,-30.363,2.09241,-6.596,-3.69859,3.90251,9.77885,3.09211,2.34052,4.6174,-2.05146e-13,-7.63333e-14,59.9848,-42.5032,4.95946,27.5467,-0.952871,-27.0075,-74.1644,7.12502,179.573,-75.8563,-2.05146e-13,-7.63333e-14,68.3041,36.1416,11.2013,29.9304,42.7687,-48.4805,-264.832,7.12502,-21.13,-66.2995,-9.36244,-5.36708,7.69135,38.0365,-15.3923,-32.7442,-3.61366,-46.1193,25.4989,54.4718,18.4041,-38.6928,51.7792,22.2365
3.24466,17.1409,-17.2915,250.293,-49.2967,-92.5462,11.2522,1.08223,-8.43161,-7.12338,-0.646141,-6.08604,-14.3793,0.162298,-1.95482,-30.4182,2.97255,-4.99094,-3.38779,4.52186,8.93036,3.18261,2.57941,4.14872,8.26944e-14,4.13472e-14,57.0689,-42.9768,6.2114,27.4152,-2.38547,-27.5082,-75.1963,7.12502,179.089,-74.8259,8.26944e-14,4.13472e-14,67.1672,36.536,10.4264,29.9203,43.2854,-48.9492,-262.415,7.12502,-21.5802,-68.767,-9.69133,-6.00174,8.9058,40.4327,-16.7265,-32.2974,-1.47555,-46.583,26.6939,54.368,18.4428,-37.0038,51.9136,21.9838
3.33507,17.0655,-17.0858,251.079,-47.8682,-94.153,11.3191,0.783637,-8.87859,-6.82473,-1.08994,-6.3281,-14.0554,-0.0102428,-1.86255,-30.7878,3.24334,-5.08921,-2.75744,4.80899,9.88107,3.39781,2.7907,4.5272,-1.44715e-13,-9.54166e-14,53.5317,-43.1617,7.99293,27.3575,-3.83635,-28.857,-75.3855,7.12502,177.786,-74.6463,-1.44715e-13,-9.54166e-14,65.8103,36.8835,9.38235,30.0118,43.7217,-48.5335,-262.538,7.12502,-21.1809,-68.5995,-10.0046,-6.71895,9.99083,42.6464,-18.1747,-31.7465,1.10448,-47.1799,27.677,54.1179,18.6764,-36.1645,51.9046,22.0549
3.42866,16.9807,-16.8782,251.896,-46.2382,-95.8442,11.3972,0.599413,-9.39304,-6.57193,-1.41645,-6.75278,-13.8051,-0.134957,-1.97221,-30.7773,3.66119,-4.13417,-2.37524,4.93811,10.0896,3.52898,2.84835,4.4641,-9.70069e-14,-8.26944e-14,49.4176,-43.0723,10.0503,27.4833,-4.32155,-29.5248,-75.1402,7.12502,177.141,-74.8992,-9.70069e-14,-8.26944e-14,65.1384,36.9882,8.91686,30.0592,43.8873,-47.844,-263.285,7.12502,-20.5185,-67.7789,-10.2922,-7.59932,10.9075,44.657,-19.0407,-31.2155,2.76225,-47.9409,28.7187,53.3788,19.0672,-36.1142,51.2515,22.8855
3.52963,16.8876,-16.6647,252.605,-44.6637,-97.4469,11.4359,0.387689,-9.81919,-6.36502,-1.75554,-7.17781,-13.5849,-0.271343,-2.1317,-31.4733,3.74391,-4.31732,-1.51148,4.98331,10.8124,3.87696,2.9477,4.77812,-7.31528e-14,6.36111e-15,45.2717,-42.6965,11.9605,27.7562,-4.21543,-29.0039,-75.3354,7.12502,177.644,-74.6979,-7.31528e-14,6.36111e-15,64.2726,36.9867,8.31179,30.2828,43.6389,-47.9964,-263.273,7.12502,-20.665,-67.8068,-10.5211,-8.33908,11.957,46.4191,-18.5362,-31.0805,1.79287,-49.0324,30.0774,52.2514,19.6991,-35.7731,50.1503,23.6977
3.63665,16.7847,-16.4432,253.12,-43.3121,-98.9036,11.4672,0.113749,-10.0353,-6.1289,-2.12025,-7.45539,-13.319,-0.431358,-2.23225,-31.4055,3.79492,-3.99177,-2.12074,5.01637,10.0114,3.68341,2.88586,4.44835,4.77083e-14,-3.18055e-15,41.1983,-41.995,13.9362,27.838,-4.21262,-28.5601,-75.702,7.12502,178.073,-74.327,4.77083e-14,-3.18055e-15,63.0805,37.1945,7.81735,30.3661,44.1469,-47.2519,-267.989,7.12502,-19.9494,-63.0146,-10.6233,-8.90844,13.3181,47.8959,-17.0082,-31.2638,-1.15259,-50.4199,31.5515,51.0896,20.619,-34.9441,49.0195,24.028
3.74588,16.6725,-16.2205,253.543,-41.7876,-100.39,11.535,-0.0546894,-10.4265,-5.85376,-2.38081,-7.80831,-13.0369,-0.535232,-2.34482,-30.7482,4.40476,-1.92349,-2.28743,5.035,9.6208,3.60055,2.79939,3.97058,-8.90555e-14,-3.81667e-14,36.8852,-41.1136,15.8833,28.0046,-3.59282,-28.3624,-76.5345,7.12502,178.264,-73.4929,-8.90555e-14,-3.81667e-14,62.4007,37.1819,7.60453,30.2804,44.0457,-48.4215,-268.25,7.12502,-21.0733,-62.8754,-10.5806,-9.51395,14.5189,49.0708,-15.2649,-31.468,-4.45722,-51.9118,32.8373,49.6514,21.6753,-33.6332,48.067,23.6619
3.8525,16.5531,-16.0084,254.074,-39.6385,-102.113,11.5689,-0.625979,-11.4848,-5.56646,-3.21801,-7.97514,-12.6558,-0.827705,-1.75996,-31.1961,5.25869,-1.09369,-1.62097,5.7799,9.52061,3.84017,3.17197,3.91518,-2.43312e-13,-1.36764e-13,34.2425,-40.336,16.5263,27.7816,-3.17563,-27.344,-77.0155,7.12502,179.248,-73.0061,-2.43312e-13,-1.36764e-13,59.6467,37.3639,5.41896,30.3614,44.7627,-48.8726,-267.081,7.12502,-21.5067,-64.0929,-10.5128,-9.96566,15.0562,49.9504,-13.9405,-31.4804,-7.12996,-53.3855,33.693,47.6002,22.7873,-32.7444,47.1768,23.6412
3.96631,16.4172,-15.7635,254.371,-38.2917,-103.446,11.4883,-1.02856,-11.2655,-5.29089,-3.64231,-8.31923,-12.2926,-1.05833,-2.16396,-31.5637,5.00448,1.11799,-0.728762,6.29537,9.12885,4.20709,4.27187,3.60098,3.49861e-14,-8.5875e-14,30.5258,-39.2152,17.5741,27.7195,-2.69627,-28.0446,-79.0536,7.12502,178.571,-70.9714,3.49861e-14,-8.5875e-14,57.8921,37.2633,3.73918,30.4536,45.9643,-48.9448,-266.237,7.12502,-21.576,-64.9454,-10.5836,-10.1563,16.5188,50.6981,-13.8049,-31.2954,-7.99357,-54.9142,34.7631,46.3547,23.7992,-31.722,45.9411,23.5176
4.08741,16.272,-15.5088,254.629,-37.0679,-104.763,11.3707,-1.48834,-10.9097,-5.0139,-4.10804,-8.59119,-11.9157,-1.31468,-2.55535,-32.179,5.44369,1.9731,-0.56905,6.59195,8.57234,4.32173,4.39881,3.36315,1.08139e-13,1.24042e-13,27.0184,-38.1987,18.1796,27.6901,-2.63672,-29.076,-80.5856,7.12502,177.575,-69.4485,1.08139e-13,1.24042e-13,55.7096,37.123,1.90191,30.6387,47.0554,-49.0823,-266.205,7.12502,-21.708,-64.9926,-10.5683,-10.4157,18.1447,51.228,-13.0206,-31.2408,-9.90236,-56.1825,35.4272,45.6638,24.7104,-30.6468,45.0574,22.7353
4.2087,16.1244,-15.2737,254.897,-35.6606,-106.169,11.2845,-1.42257,-10.955,-4.82768,-3.97923,-8.4407,-11.6331,-1.25669,-2.37833,-32.0769,5.49068,2.03474,-0.129077,6.60884,8.38213,4.45826,4.38499,3.30091,6.99722e-14,-4.77083e-14,22.719,-36.0704,21.0665,27.8608,-3.81668,-29.8791,-80.6733,7.12502,176.799,-69.371,6.99722e-14,-4.77083e-14,54.8119,36.8457,2.71903,30.4396,47.4288,-49.1814,-266.272,7.12502,-21.8032,-64.936,-10.7666,-10.4097,19.61,51.8316,-13.9415,-30.2288,-8.2646,-57.3367,35.6927,44.973,25.6891,-29.0614,43.4352,19.3199
4.33195,15.96,-15.0231,254.998,-34.2604,-107.474,11.3124,-1.78796,-10.5965,-4.91922,-4.39491,-8.60576,-11.7764,-1.46143,-2.68247,-31.2082,6.27655,3.42184,0.451649,7.1671,7.94531,4.56697,4.61345,2.9976,-1.59028e-14,-2.00375e-13,20.2749,-34.6981,20.8077,27.8504,-3.87522,-30.2744,-77.2629,7.12502,176.418,-72.7875,-1.59028e-14,-2.00375e-13,52.1372,35.7293,0.782382,30.7613,49.006,-49.4184,-265.957,7.12502,-22.0308,-65.2776,-10.8966,-10.2805,21.1679,52.3728,-12.8416,-29.863,-9.69986,-58.6995,35.829,44.2276,27.0845,-28.7162,40.5644,9.43162
4.46203,15.7907,-14.7567,255.191,-32.928,-108.822,11.1244,-1.63606,-10.1456,-4.59176,-4.05763,-8.20774,-11.2798,-1.35416,-2.53342,-32.5009,5.77607,1.49708,1.3654,6.99859,8.13371,4.97475,4.52561,3.40181,1.90833e-14,-6.67916e-14,16.6416,-33.5236,23.1851,28.0089,-5.11957,-30.0497,-79.836,7.12502,176.635,-70.2108,1.90833e-14,-6.67916e-14,51.0735,35.6062,2.21565,30.5387,49.6445,-49.5934,-265.163,7.12502,-22.1988,-66.0915,-11.2624,-10.1157,22.873,53.0512,-11.0865,-29.8006,-12.7529,-61.7535,37.0793,41.1815,29.2102,-27.2553,38.538,6.79501
4.58909,15.6267,-14.4974,255.583,-31.3623,-110.378,10.9493,-1.52872,-10.0913,-4.37083,-3.84925,-8.05061,-10.9144,-1.27193,-2.41996,-33.3688,4.98516,-0.0115046,1.91896,6.40851,8.91951,5.2368,4.31917,3.87321,-7.31528e-14,-7.31528e-14,12.2928,-31.301,25.7617,28.5165,-6.68172,-29.053,-77.7658,7.12502,177.597,-72.268,-7.31528e-14,-7.31528e-14,50.2913,35.3059,3.48587,30.3122,50.2743,-49.6865,-264.17,7.12502,-22.2882,-67.0951,-11.9334,-9.99197,24.3523,53.7776,-10.6825,-29.1662,-13.6732,-65.9492,38.3776,36.4619,32.102,-25.885,37.9673,-0.715946
4.70271,15.4865,-14.2774,255.843,-29.2742,-111.976,11.2001,-1.78524,-10.9615,-4.64967,-4.35147,-8.34996,-11.3454,-1.40856,-2.19635,-30.7553,5.94519,2.86369,1.25653,6.88662,7.91517,4.77135,4.45751,3.0433,1.59028e-13,6.99722e-14,9.46845,-29.2875,25.558,28.8162,-7.0747,-28.8325,-75.5792,7.12502,177.81,-74.4523,1.59028e-13,6.99722e-14,47.7056,33.7732,1.64959,30.7129,52.145,-49.844,-263.872,7.12502,-22.4394,-67.4119,-12.6914,-9.64662,25.4793,54.5236,-11.1067,-28.1938,-10.744,-69.6221,38.5205,31.945,35.6636,-30.4472,35.9067,2.53268
4.80169,15.3782,-14.0501,256.125,-28.6966,-113.541,11.7132,-1.8529,-10.1955,-4.57571,-4.39978,-7.73502,-11.5555,-1.46961,-1.90224,-31.8784,5.27299,0.760008,2.36092,6.49809,9.14336,5.23315,4.37709,3.78708,-6.67916e-14,-8.5875e-14,7.69096,-31.2701,25.6006,27.8488,-3.58355,-29.7535,-79.3116,7.12502,176.921,-70.7309,-6.67916e-14,-8.5875e-14,46.1161,33.4279,2.59614,30.6838,52.9541,-50.0115,-264.511,7.12502,-22.6002,-66.7917,-13.7738,-9.27963,28.5199,55.2973,-12.3203,-28.1092,-10.7834,-73.0491,37.6484,30.0618,39.4675,-35.7418,33.6693,12.1933
4.88476,15.3341,-13.8623,256.987,-27.9053,-115.596,12.2112,-2.42968,-9.85673,-4.88776,-5.1865,-7.63731,-12.2025,-1.81112,-1.81712,-31.1552,6.54908,2.93114,3.60898,7.40321,7.83551,5.58477,4.70274,3.158,8.90555e-14,1.43125e-13,5.72844,-31.0477,24.9147,27.3172,-2.40809,-29.6829,-81.7411,7.12502,176.989,-68.3004,8.90555e-14,1.43125e-13,43.9616,32.4789,1.7796,30.9041,53.9703,-50.1648,-264.9,7.12502,-22.7473,-66.421,-15.6538,-8.82217,31.7048,56.0443,-13.61,-27.6579,-7.5773,-76.3122,35.787,28.8373,43.2667,-39.3279,33.0413,16.8546
4.98946,15.2882,-13.6177,257.73,-26.4513,-118.147,13.2992,-2.79269,-11.2425,-4.9906,-6.03404,-7.38487,-12.7978,-2.02567,-0.569888,-29.8444,6.34382,2.22305,2.45694,7.51244,8.17501,5.02001,4.74202,3.28184,8.5875e-14,7.95139e-14,2.94404,-31.4584,25.1413,27.2329,-1.54213,-29.0048,-81.3383,7.12502,177.644,-68.695,8.5875e-14,7.95139e-14,42.191,31.8733,1.66521,30.9214,54.8805,-50.0653,-267.022,7.12502,-22.6517,-64.2873,-17.5566,-8.64526,34.0532,56.9948,-13.8434,-27.1843,-4.39002,-80.1905,34.0293,26.5929,46.7524,-40.4367,32.8848,18.0041
5.09021,15.2714,-13.4141,258.31,-24.1409,-120.957,14.5179,-2.42523,-15.1886,-4.75189,-6.38194,-6.42174,-12.7555,-1.81173,2.749,-31.1927,6.16274,1.68494,3.70422,7.3169,7.65457,5.58979,4.59668,3.27207,5.08889e-14,3.18055e-15,-0.0609686,-31.964,27.4088,26.8525,-1.02431,-28.6638,-80.2389,7.12502,177.973,-69.791,5.08889e-14,3.18055e-15,41.4566,32.2851,4.17317,30.5055,55.195,-49.717,-446.417,7.12502,-22.3174,-57.6859,-19.3894,-8.71316,35.566,57.6822,-13.6432,-27.4054,-9.72866,-83.8096,31.9526,24.1435,49.8161,-39.0043,34.9914,15.0408
5.18713,15.2519,-13.2242,258.812,-20.9503,-123.823,15.6223,-2.20212,-18.8369,-4.44287,-6.92935,-6.72479,-12.6803,-1.74908,4.48253,-30.9062,5.53952,0.750209,3.83085,6.72401,9.8991,5.56522,4.56418,4.07694,-1.08139e-13,4.77083e-14,-4.17449,-31.3185,28.7459,26.6299,-1.34336,-28.2173,-77.5669,7.12502,178.404,-72.4593,-1.08139e-13,4.77083e-14,42.0525,33.0026,6.21277,29.9503,54.463,-52.674,-621.938,7.12502,-25.1535,-69.6988,-21.3183,-9.02951,35.9955,58.0666,-12.3562,-26.9729,-9.7568,-86.6057,30.1868,19.2003,52.2084,-40.9312,32.8337,17.2661
5.27829,15.1786,-12.9651,259.402,-20.6183,-125.888,16.0608,-2.14765,-18.3066,-4.10853,-6.81976,-6.83111,-12.6231,-1.7667,4.09511,-31.3721,5.12272,0.641077,4.25375,6.16184,10.3766,5.78935,4.3777,4.22458,2.16278e-13,1.90833e-13,-8.99384,-30.2331,30.2929,26.4925,-2.44918,-30.6656,-73.4418,7.12502,176.04,-76.6153,2.16278e-13,1.90833e-13,43.8032,33.8266,8.98645,29.4072,52.4566,-53.8702,-619.209,7.12502,-26.2991,-72.5941,-23.6083,-9.00693,39.4757,57.8564,-12.1658,-26.8552,-14.2456,-90.0242,29.2804,17.1759,53.9822,-40.4071,31.9693,16.8193
5.3442,15.1763,-12.8057,259.646,-19.5556,-128.128,16.8775,-2.33428,-18.8887,-3.63567,-7.2756,-6.68811,-12.3668,-1.95382,4.71176,-32.9912,5.1421,-0.317636,5.98011,6.25924,11.0478,6.53307,4.51833,4.74652,-1.55847e-13,-1.01778e-13,-12.1791,-30.4776,30.7694,26.4749,-3.89947,-28.0769,-78.3119,7.12502,178.54,-71.7134,-1.55847e-13,-1.01778e-13,43.1448,34.8843,9.9394,29.2808,51.3505,-54.3876,-624.81,7.12502,-26.7943,-67.0674,-25.4744,-9.57317,42.1394,56.9446,-11.4212,-25.9687,-16.7388,-92.5046,28.0743,14.2242,54.9521,-39.4116,31.5386,15.3901
5.40531,15.1895,-12.6469,259.822,-18.3104,-130.731,18.1037,-2.5516,-19.5008,-3.16696,-7.8884,-6.73063,-12.3325,-2.18725,5.19726,-31.2644,5.72794,2.55527,4.80738,6.36108,8.76279,6.02969,4.34826,3.43237,-1.43125e-13,-7.95139e-14,-15.3446,-30.407,31.0759,26.636,-5.52647,-24.7529,-81.934,7.12502,181.75,-68.0934,-1.43125e-13,-7.95139e-14,42.576,35.53,10.5595,28.9986,51.2586,-53.7535,-804.659,7.12502,-26.1874,-56.4457,-27.2324,-10.6006,44.4159,55.5623,-10.6623,-25.254,-18.007,-95.0182,26.6637,10.4173,55.5411,-38.3485,30.4372,14.214
5.4577,15.2114,-12.4775,260.144,-17.2891,-133.573,19.6202,-3.02201,-19.1213,-3.0371,-8.76792,-6.96825,-12.9614,-2.53217,5.05281,-30.3132,4.76552,0.769216,3.32125,5.83048,9.48352,5.37931,4.08439,3.78962,4.77083e-14,2.22639e-14,-18.283,-29.123,30.8703,27.0497,-7.55554,-22.467,-83.4753,7.12502,183.958,-66.5817,4.77083e-14,2.22639e-14,42.1456,35.5133,10.9978,28.2899,51.1312,-52.787,-794.839,7.12502,-25.2617,-46.4914,-29.2648,-12.4493,46.7564,53.8807,-9.98443,-24.0165,-19.7203,-97.6362,25.0857,6.4118,55.7863,-37.2563,28.7649,13.239
5.50625,15.2424,-12.3313,259.382,-16.0794,-135.317,21.0778,-3.13941,-19.172,-2.65633,-9.23017,-7.203,-13.2903,-2.70192,5.04221,-27.7989,3.82208,-0.909894,1.41502,5.27245,11.92,4.39755,3.9548,4.63732,1.59028e-14,3.18055e-14,-20.8546,-28.0205,30.0692,27.388,-9.10913,-21.2371,-82.9396,7.12502,185.145,-67.1429,1.59028e-14,3.18055e-14,41.6012,35.8578,11.4131,27.6399,50.1331,-52.5818,-787.411,7.12502,-25.0651,-39.0356,-30.1907,-14.11,48.6702,52.0934,-8.28579,-21.4285,-18.3552,-98.5162,23.9736,3.47943,56.1129,-36.4154,27.3046,12.2146
5.5514,15.2668,-12.1687,258.85,-14.8968,-136.945,21.8535,-3.38136,-18.2087,-1.96074,-9.37735,-8.038,-13.1476,-2.88897,3.69096,-28.253,3.80415,-0.0310706,1.69749,4.98261,11.387,4.59355,3.80701,4.3224,6.36111e-15,6.67916e-14,-24.3634,-26.6131,29.163,27.6132,-10.0345,-20.6068,-81.4431,7.12502,185.754,-68.6551,6.36111e-15,6.67916e-14,42.3436,36.4224,12.5074,27.3329,48.6484,-52.5492,-782.374,7.12502,-25.0338,-33.9943,-31.5467,-15.5148,50.4507,50.5321,-8.38195,-19.9806,-28.5377,-99.2747,22.7937,1.25634,56.4337,-35.4626,26.4339,11.0051
5.59006,15.2954,-12.0059,258.2,-13.1623,-138.336,22.4913,-3.76334,-17.9149,-1.67498,-9.88167,-8.6093,-13.2319,-3.12484,3.06817,-28.1533,4.1894,0.445432,2.64423,5.2265,10.9955,4.88141,3.88993,4.16742,-7.95139e-14,-8.26944e-14,-25.9187,-24.7292,27.2113,27.8801,-10.7885,-20.5999,-80.2781,7.12502,185.761,-69.8202,-7.95139e-14,-8.26944e-14,40.7338,36.0477,11.948,27.2102,47.1469,-53.0982,-779.988,7.12502,-25.5598,-31.6833,-32.8626,-16.502,51.3745,49.2688,-8.29767,-17.3623,-32.484,-99.3625,21.5121,-0.505452,56.8574,-35.063,25.9876,10.8487
5.62113,15.3459,-11.8627,257.106,-10.6215,-139.263,23.2535,-3.77943,-18.8667,-1.9225,-10.3039,-9.17293,-13.0422,-3.16946,3.08563,-26.7504,4.38592,0.47282,2.6053,5.48481,11.3591,4.65619,4.00218,4.25041,9.54166e-15,-6.36111e-14,-26.9825,-22.7603,24.9652,28.2783,-11.1215,-21.4939,-79.232,7.12502,184.897,-70.8446,9.54166e-15,-6.36111e-14,38.2248,34.5235,10.307,27.158,45.3468,-54.1458,-775.877,7.12502,-26.5629,-27.7192,-33.668,-16.9344,51.1452,48.3427,-7.97115,-14.7995,-31.7341,-98.3571,20.3574,-1.99147,57.3161,-35.447,25.8822,12.3111
5.64449,15.3932,-11.7093,256.044,-8.4287,-139.707,23.6675,-3.71709,-18.8877,-1.74318,-10.2875,-9.82211,-13.1768,-3.13971,2.41389,-26.3563,4.2321,0.107042,2.78859,5.34757,11.5046,4.65807,3.92079,4.32897,1.27222e-14,7.31528e-14,-28.4179,-21.4793,23.0293,28.4854,-11.0105,-23.9174,-76.6833,7.12502,182.557,-73.3523,1.27222e-14,7.31528e-14,35.8634,32.1987,8.45262,28.1869,47.0777,-54.7679,-771.244,7.12502,-27.1582,-23.178,-34.4103,-16.8521,51.1481,47.6667,-7.68167,-13.071,-31.9125,-97.3028,19.5478,-2.65658,57.8,-35.7136,26.2014,13.5449
5.65927,15.4223,-11.5411,255.371,-6.73447,-139.675,23.3421,-4.05461,-17.8323,-1.71322,-10.3784,-10.5408,-13.3187,-3.25403,1.15735,-25.9429,4.41873,0.233585,2.87505,5.55689,11.0859,4.6214,3.96162,4.17761,-1.11319e-13,-2.16278e-13,-29.023,-20.903,20.5105,28.3967,-10.6643,-27.2275,-72.602,7.12502,179.36,-77.4192,-1.11319e-13,-2.16278e-13,33.1443,29.852,6.40186,29.5727,49.1367,-54.5144,-762.098,7.12502,-26.9156,-13.9947,-35.3403,-16.2916,51.6603,47.1595,-7.00177,-12.2813,-30.1037,-96.7363,19.1894,-2.64986,58.3344,-35.2984,26.9788,13.6335
5.66341,15.459,-11.3843,254.669,-4.63865,-139.125,22.856,-3.38997,-17.9028,-1.34002,-9.39442,-10.4268,-13.4688,-2.89859,0.832869,-26.7775,4.84925,1.04554,4.53544,5.74995,9.20191,5.30911,3.90271,3.53672,3.18055e-14,1.78111e-13,-30.1977,-20.4557,19.887,28.3974,-10.4624,-30.8197,-68.6119,7.12502,175.891,-81.448,3.18055e-14,1.78111e-13,31.9899,28.2072,7.56224,30.5773,50.343,-55.542,-757.305,7.12502,-27.8984,-9.35691,-35.9053,-15.1356,51.6262,46.8691,-6.01249,-12.3959,-27.0308,-95.887,19.2507,-2.56786,59.0125,-34.7797,28.1011,13.2629
5.65593,15.5047,-11.2332,253.743,-2.44248,-138.157,22.4059,-3.16236,-17.7984,-1.35583,-8.97774,-10.7263,-13.3539,-2.74639,0.281748,-25.1322,4.7374,0.3932,3.19797,5.92589,10.0858,4.6051,4.00565,3.83803,5.08889e-14,-2.8625e-14,-30.2915,-20.9476,17.6748,28.5038,-10.1365,-31.1003,-65.3166,7.12502,175.62,-84.7487,5.08889e-14,-2.8625e-14,29.1183,26.1392,6.31117,31.8577,53.3221,-53.9929,-755.121,7.12502,-26.4165,-6.94172,-35.9719,-13.718,51.3751,46.7332,-5.08591,-13.1536,-24.0677,-94.6189,19.6345,-2.286,59.8406,-34.216,29.2086,12.5872
5.64585,15.5182,-11.0702,252.779,-0.247127,-137.035,21.9169,-2.62018,-17.9315,-1.34104,-8.20811,-10.71,-13.1264,-2.43123,0.124253,-25.2237,5.25601,0.756864,3.93274,6.45839,9.37393,4.84614,4.20537,3.62922,3.18055e-15,-1.00187e-13,-29.7741,-20.883,15.928,28.3523,-10.7069,-30.0877,-67.3494,7.12502,176.598,-82.698,3.18055e-15,-1.00187e-13,26.5756,23.8167,5.94876,32.7688,54.1119,-54.3012,-753.227,7.12502,-26.7116,-5.09235,-35.8344,-12.4623,51.0859,46.8257,-4.69188,-14.0661,-21.8239,-93.2902,20.0372,-1.65801,60.9567,-34.0143,29.9187,12.7666
5.6282,15.5437,-10.9265,251.777,2.27224,-135.904,21.4788,-2.1402,-17.9899,-1.3769,-7.51604,-11.013,-13.0437,-2.14167,-0.421066,-24.9385,5.65567,0.988394,4.34617,6.89992,9.30124,4.923,4.416,3.61562,-7.31528e-14,1.31993e-13,-29.3317,-20.3355,13.7435,28.3503,-11.1043,-29.7587,-67.5935,7.12502,176.916,-82.449,-7.31528e-14,1.31993e-13,24.1196,21.1535,5.35922,33.1248,53.6981,-51.4771,-749.74,7.12502,-24.0061,-1.2215,-35.3769,-11.3069,50.4163,46.9867,-4.80782,-14.732,-20.1149,-91.6759,20.4197,-1.13566,62.1659,-34.4767,30.2029,14.4934
5.59931,15.5696,-10.7818,250.84,4.65658,-134.79,21.0449,-1.75636,-17.6914,-1.40396,-6.87121,-11.2861,-12.9733,-1.90116,-1.09636,-24.57,5.99223,1.07636,4.7713,7.28873,9.57132,4.98142,4.63285,3.72632,1.59028e-14,8.42847e-14,-28.9013,-19.8405,11.4727,28.5704,-11.1296,-30.5015,-66.4345,7.12502,176.198,-83.6196,1.59028e-14,8.42847e-14,21.7755,19.0321,5.057,33.2163,53.8154,-49.4618,-750.053,7.12502,-22.0725,-1.29308,-34.9126,-10.342,49.8986,47.2486,-4.53721,-14.9407,-19.3761,-90.1026,20.7271,-0.418114,63.4406,-34.6938,30.5279,15.5301
5.56319,15.582,-10.63,250.013,6.70194,-133.72,20.6761,-1.30466,-17.0213,-1.43721,-6.09197,-11.3421,-12.9549,-1.62819,-1.74325,-24.6124,6.18352,0.917536,5.84945,7.46358,9.95761,5.30728,4.76522,3.93231,5.40694e-14,2.38542e-14,-28.1583,-19.0202,9.66691,28.5853,-11.0705,-29.921,-65.763,7.12502,176.759,-84.2819,5.40694e-14,2.38542e-14,19.6812,17.0986,5.49177,33.3866,53.2533,-47.9538,-748.571,7.12502,-20.624,0.353332,-34.5444,-9.76633,49.8012,47.5157,-3.62081,-14.6238,-20.4232,-88.7075,20.9908,0.466203,64.6966,-34.5346,30.7029,14.4009
5.52557,15.5872,-10.482,249.159,8.8087,-132.763,20.4836,-0.559437,-16.9198,-1.47477,-5.11224,-10.9545,-12.9459,-1.21535,-1.62783,-23.9704,6.27904,0.645929,5.92533,7.69254,9.17391,5.2366,4.75424,3.71304,3.81667e-14,1.60618e-13,-27.7962,-18.068,8.59771,29.1478,-10.7097,-28.6634,-65.8463,7.12502,177.973,-84.1836,3.81667e-14,1.60618e-13,17.9669,16.4276,7.61461,33.5908,51.5404,-47.3129,-745.346,7.12502,-20.0081,3.64394,-33.9522,-9.25531,49.5249,47.775,-3.53119,-14.0658,-20.9484,-87.2276,21.1531,1.16367,65.9405,-34.8785,30.4632,13.868
5.48671,15.5759,-10.339,248.501,10.6969,-131.897,20.0734,-0.169097,-16.1175,-1.47566,-4.36616,-10.8488,-12.8216,-0.966119,-2.14094,-24.0332,6.48229,0.711905,6.64306,7.897,8.81181,5.47922,4.81954,3.6344,1.145e-13,7.39479e-14,-27.1963,-17.1332,6.99001,29.6216,-10.0422,-28.5059,-65.2529,7.12502,178.125,-84.7756,1.145e-13,7.39479e-14,16.2453,16.1383,9.28427,33.855,50.1219,-47.334,-741.36,7.12502,-20.0283,7.62789,-33.286,-8.59441,49.2904,47.8961,-4.38958,-13.4182,-18.7848,-86.0571,21.3068,1.74044,67.097,-34.8422,30.566,13.259
5.44648,15.5407,-10.1971,248.212,11.8888,-131.08,19.4376,0.0805376,-14.5727,-1.49553,-3.61013,-10.5438,-12.5934,-0.769998,-2.81278,-23.3969,6.14677,-0.179195,6.49543,7.65908,9.48784,5.29433,4.72273,3.92777,-8.26944e-14,-1.16885e-13,-26.5619,-16.522,5.83215,30.0263,-8.92482,-28.1906,-64.5823,7.12502,178.43,-85.4437,-8.26944e-14,-1.16885e-13,14.4154,15.2037,10.8795,34.2547,49.1856,-46.8243,-733.796,7.12502,-19.5384,15.2421,-33.001,-8.34686,49.8291,47.9464,-4.6595,-12.5714,-17.7983,-85.6148,21.5585,2.45433,68.1226,-34.3233,30.5719,14.2523
5.40296,15.5337,-10.0687,247.768,12.9064,-130.437,19.1634,0.0788294,-12.8882,-1.51361,-3.23631,-10.102,-12.5265,-0.738981,-3.30385,-23.596,6.12472,-0.896712,7.36781,7.71527,9.63391,5.56688,4.73838,4.12883,-1.59028e-14,3.83654e-14,-25.2267,-16.4348,4.49382,30.3758,-7.38937,-27.5273,-64.1055,7.12502,179.071,-85.9167,-1.59028e-14,3.83654e-14,11.7259,13.6957,11.9663,34.8098,49.0744,-47.573,-733.626,7.12502,-20.2581,15.3376,-32.5929,-8.62923,50.5712,47.7916,-4.31143,-11.5085,-19.7152,-84.7019,21.286,3.44149,68.6762,-34.5786,30.443,15.552
5.36498,15.5199,-9.94008,247.127,14.4556,-130.196,19.1289,0.163695,-11.8913,-1.38953,-2.90338,-9.91739,-12.403,-0.671974,-3.71756,-24.0579,5.98319,-1.62979,8.11146,7.61893,10.0591,5.83929,4.7164,4.4186,6.67916e-14,1.31695e-13,-24.364,-16.4909,3.20081,30.74,-5.87254,-28.3098,-61.9119,7.12502,178.315,-88.115,6.67916e-14,1.31695e-13,9.87242,13.3512,13.4955,35.1971,49.1296,-47.1674,-738.496,7.12502,-19.8682,10.5083,-32.1582,-8.96987,50.6092,47.6535,-3.74703,-10.4724,-20.678,-83.8127,21.0404,3.16708,68.9436,-34.6109,30.9573,15.0884
5.33159,15.5438,-9.8291,246.758,16.2838,-130.381,18.6721,0.0402086,-11.4909,-1.22202,-2.86965,-9.75057,-11.9448,-0.699199,-3.72544,-24.7596,5.91735,-2.57442,8.78471,7.69775,10.4827,6.10536,4.77129,4.76934,-1.145e-13,-7.91163e-14,-23.0972,-16.9855,1.79487,31.1338,-4.35025,-29.7215,-59.1817,7.12502,176.951,90.8603,-1.145e-13,-7.91163e-14,7.95763,13.5937,14.9438,35.3722,49.3105,-46.3539,-742.765,7.12502,-19.086,6.31837,-32.2185,-9.36362,50.3358,47.5521,-3.09688,-9.73575,-19.6941,-83.1042,20.5991,2.25969,68.7742,-34.6581,31.6714,15.0377
5.30008,15.5797,-9.74017,245.964,18.0056,-131.293,18.5346,0.220218,-11.0472,-0.929252,-2.46313,-10.0774,-11.5645,-0.555534,-4.44165,-24.5108,5.73813,-1.57867,9.06957,7.19838,9.79683,6.25693,4.49519,4.33957,7.63333e-14,1.47101e-13,-24.1881,-17.3056,1.132,31.9668,-3.26572,-29.3163,-58.8235,7.12502,177.343,91.2133,7.63333e-14,1.47101e-13,8.39627,13.4963,16.9282,35.3168,48.5043,-46.1871,-735.019,7.12502,-18.9256,14.0808,-32.3494,-10.6663,49.8641,47.6052,-2.93265,-9.05133,-18.1131,-82.3721,19.5677,0.996173,68.4153,-34.6761,31.7577,17.8056
5.27391,15.6016,-9.62682,246.765,20.529,-131.542,16.9868,0.335092,-11.4727,-1.21476,-2.16412,-10.1898,-10.9879,-0.403546,-4.38622,-24.2895,5.54867,-2.06052,9.00322,7.04815,10.1611,6.18307,4.43466,4.50491,-1.17681e-13,-2.22639e-14,-23.7172,-16.2497,0.128448,32.5766,-3.92436,-28.1394,-60.0263,7.12502,178.479,270.001,-1.17681e-13,-2.22639e-14,7.65223,13.5256,18.6487,35.1548,48.2899,-46.1413,-733.044,7.12502,-18.8816,16.06,-33.8291,-10.6277,49.2745,47.9586,-2.39686,-8.25997,-18.8495,-82.8814,19.742,-0.981136,68.0635,-34.0491,32.3013,20.0208
5.2433,15.6379,-9.53161,246.436,23.3313,-132.552,16.4243,0.368787,-12.4314,-1.31908,-2.18878,-10.3755,-10.757,-0.350782,-4.05935,-24.2863,5.54217,-2.37163,9.67443,7.05916,10.2547,6.38447,4.43528,4.61069,-6.36111e-15,2.62396e-14,-23.0464,-14.863,-0.924105,32.9618,-4.39162,-28.1477,-60.553,7.12502,178.471,270.527,-6.36111e-15,2.62396e-14,6.76505,13.6554,20.3134,35.0793,47.7304,-46.2613,-736.287,7.12502,-18.997,12.8053,-34.6771,-11.3828,47.9692,48.4933,-2.2776,-7.6834,-20.7339,-82.5455,19.1772,-3.48905,67.6831,-33.5967,32.8914,19.1099
5.21512,15.6441,-9.41793,246.283,25.4398,-133.235,15.7022,0.411943,-12.6297,-1.39434,-2.03523,-10.3698,-10.4188,-0.274611,-3.96358,-24.4339,5.36147,-2.90218,10.5274,6.86208,10.5905,6.66992,4.35618,4.82511,-1.90833e-14,2.24229e-13,-22.5474,-13.908,-1.62051,33.2953,-4.39993,-28.6922,-60.1402,7.12502,177.946,270.11,-1.90833e-14,2.24229e-13,6.13751,13.7477,21.9872,34.982,46.8162,-45.9335,-738.51,7.12502,-18.6817,10.6129,-35.5664,-11.8677,47.3882,49.2814,-2.8359,-7.52548,-20.588,-82.708,18.9452,-5.30707,67.5931,-33.0706,32.9472,18.65
5.19007,15.6349,-9.3043,246.273,27.2264,-133.752,14.8153,0.291651,-12.5585,-1.46092,-2.01317,-10.3991,-9.98018,-0.279719,-4.01499,-25.0679,5.46889,-2.40412,11.8324,6.79403,10.2857,7.23155,4.33158,4.724,6.99722e-14,2.19458e-13,-21.8568,-13.4562,-2.65275,33.5044,-4.31923,-29.1176,-59.3747,7.12502,177.535,90.6598,6.99722e-14,2.19458e-13,5.39816,13.8128,23.0059,34.8962,46.1464,-44.9577,-736.256,7.12502,-17.743,12.9547,-36.4839,-12.2811,47.216,50.2114,-3.65974,-7.72947,-20.4252,-83.1298,18.9419,-6.87918,67.6626,-32.2249,32.852,18.7504
5.16232,15.6229,-9.19078,246.174,28.9389,-134.213,14.0203,0.232689,-12.4429,-1.47447,-1.91992,-10.3233,-9.53307,-0.256777,-3.9865,-25.8968,5.59919,-1.89075,13.177,6.79443,9.60267,7.85219,4.29314,4.51049,-9.22361e-14,-1.55847e-13,-21.1884,-13.2423,-3.41674,33.6382,-4.01161,-30.2123,-58.7642,7.12502,176.478,91.2852,-9.22361e-14,-1.55847e-13,5.02989,13.3085,23.8579,34.7467,45.5122,-44.6488,-726.495,7.12502,-17.4456,22.7425,-37.3078,-12.8025,47.1866,51.2914,-4.34543,-8.21383,-21.446,-83.3647,18.9411,-8.29406,67.7883,-30.9878,32.9423,16.9716
5.12982,15.6049,-9.07238,245.827,30.5289,-134.695,13.4428,0.00831897,-12.2689,-1.37148,-2.05152,-10.3679,-9.08254,-0.341107,-4.07861,-25.9741,5.72989,-1.45039,13.2896,6.83721,9.474,7.92097,4.32585,4.41307,2.22639e-14,-1.43125e-14,-20.2707,-13.5164,-4.6783,33.6883,-3.26354,-30.7442,-58.6257,7.12502,175.964,91.4328,2.22639e-14,-1.43125e-14,4.1089,13.5294,24.5082,34.8283,44.0447,-44.8389,-727.043,7.12502,-17.6286,22.178,-37.8666,-13.3019,47.1484,52.4624,-5.06262,-8.8354,-20.5322,-83.3553,18.8569,-9.49855,67.8881,-29.7961,32.858,14.8516
5.09407,15.5913,-8.95768,245.269,31.931,-135.079,13.1945,0.183807,-11.7591,-1.36693,-1.7172,-10.1857,-8.94635,-0.222189,-4.21102,-25.695,5.25307,-2.23254,13.6323,6.37139,9.69306,7.98796,4.0771,4.55279,-5.40694e-14,2.06736e-14,-20.186,-12.9709,-4.87953,33.9348,-3.26588,-30.0884,-58.7622,7.12502,176.597,91.2853,-5.40694e-14,2.06736e-14,3.8069,13.8777,26.247,35.1003,42.3305,-44.5539,-734.594,7.12502,-17.3543,14.6514,-38.0527,-13.7404,47.2524,53.6115,-5.48752,-9.8728,-20.1931,-83.1271,18.8624,-10.5197,67.9285,-29.5321,32.252,14.9572
5.05352,15.5917,-8.8462,244.861,33.3971,-135.226,12.8955,0.158282,-11.4364,-1.39222,-1.66429,-10.062,-8.80533,-0.222076,-4.24983,-24.5948,5.47101,-2.12844,13.2701,6.75544,8.90237,7.68871,4.14302,4.24662,-2.54444e-14,4.77083e-15,-19.553,-12.7756,-5.80495,34.1608,-2.87429,-30.8431,-58.1049,7.12502,175.868,91.9554,-2.54444e-14,4.77083e-15,2.75752,13.5395,26.9649,35.3249,40.9938,-44.6306,-743.206,7.12502,-17.4282,6.03231,-38.0748,-13.7314,47.3852,54.6767,-5.29602,-11.3333,-21.3709,-82.9033,19.095,-11.5305,67.9306,-29.7756,31.8156,16.1094
5.01002,15.5938,-8.7393,244.541,34.8739,-135.257,12.4234,-0.0634134,-11.0336,-1.06601,-1.76442,-10.0348,-8.17484,-0.311956,-4.38535,-26.1986,5.33173,-2.22612,13.7341,6.45056,9.74116,8.09648,4.12621,4.60526,7.63333e-14,6.36111e-14,-18.2567,-13.852,-7.08187,34.1977,-1.23566,-30.9734,-57.7694,7.12502,175.743,92.2934,7.63333e-14,6.36111e-14,1.90308,13.9909,27.087,35.7478,39.9883,-44.754,-743.513,7.12502,-17.5469,5.71546,-37.8624,-13.3723,47.4003,55.5396,-5.03525,-12.4651,-21.0997,-82.7146,19.4485,-12.5856,67.8934,-29.7519,31.8426,16.615
4.96626,15.5755,-8.63547,244.072,36.1554,-135.283,12.2884,0.390519,-9.8825,-1.31612,-1.06498,-9.75703,-8.39122,-0.0450729,-4.85278,-23.7602,4.94495,-3.07397,13.223,6.33221,8.64491,7.53865,3.83362,4.21708,4.45278e-14,-1.90833e-14,-18.6492,-11.8551,-6.50576,34.718,-3.09304,-31.4081,-57.1465,7.12502,175.323,92.9251,4.45278e-14,-1.90833e-14,1.75355,12.7618,28.7923,36.042,38.8248,-44.9871,-742.296,7.12502,-17.7712,6.9118,-37.3593,-13.0726,47.4332,56.1998,-4.78703,-12.8712,-20.9667,-82.5169,19.9522,-13.6954,67.8795,-29.4035,31.8005,16.4369
4.92227,15.5832,-8.53753,243.601,37.3862,-135.292,12.1825,0.0900066,-9.01552,-1.15782,-1.30226,-9.99838,-8.18182,-0.206243,-5.54671,-24.543,5.15133,-1.85912,13.9788,6.22483,8.53486,7.97445,3.85908,4.043,0,-2.8625e-14,-17.6918,-11.9731,-8.28845,35.0252,-3.2331,-30.2506,-56.8904,7.12502,176.441,93.1595,0,-2.8625e-14,1.21456,12.7829,28.2669,36.1822,37.6771,-45.2823,-742.5,7.12502,-18.0553,6.68239,-36.6682,-12.842,47.4978,56.4502,-4.26042,-12.5001,-22.146,-81.9576,20.1209,-14.2526,67.6802,-29.1814,31.9348,17.2754
4.8807,15.6076,-8.44587,243.132,38.6933,-135.372,12.1858,-0.126136,-8.67064,-1.12568,-1.54679,-9.87744,-8.15988,-0.344099,-5.55334,-26.2582,5.18552,-2.207,16.1813,6.18024,9.1636,8.98235,3.92757,4.48207,-1.33583e-13,5.40694e-14,-16.6017,-11.9836,-9.59473,35.4823,-2.69434,-29.8322,-56.2344,7.12502,176.845,93.8092,-1.33583e-13,5.40694e-14,0.285569,12.85,28.2579,36.1322,35.9286,-45.5034,-743.298,7.12502,-18.268,5.86406,-35.9092,-12.6439,47.4358,56.3886,-4.23103,-12.0546,-24.0489,-81.381,20.2993,-14.8741,67.4181,-28.9012,31.9514,19.1328
4.84196,15.6381,-8.356,242.65,40.1433,-135.509,12.0888,-0.0786814,-8.50985,-1.05666,-1.45428,-9.5794,-8.01855,-0.315958,-5.31767,-26.2703,5.43222,-1.42908,16.2105,6.62164,6.87913,9.06838,3.87223,3.62108,4.77083e-14,-3.18055e-14,-15.9947,-11.9844,-10.0316,36.1237,-1.7424,-28.8354,-55.655,7.12502,177.807,94.3766,4.77083e-14,-3.18055e-14,-0.19683,12.9857,29.0615,36.2504,34.2481,-45.5786,-741.638,7.12502,-18.3403,7.51695,-35.0097,-12.2746,47.2385,55.9689,-5.23055,-12.5107,-26.1493,-80.6207,20.4264,-15.6146,67.0261,-28.6714,32.1129,19.2974
4.8086,15.6385,-8.25972,242.289,41.6274,-135.632,11.7507,0.234115,-7.96757,-1.31729,-0.972529,-9.50946,-8.10318,-0.116623,-5.63756,-24.5971,4.59409,-2.87144,16.1214,5.73432,8.14048,8.71933,3.5102,4.09465,-6.36111e-15,0,-16.6586,-10.9681,-10.0037,36.9344,-1.31903,-28.0501,-55.0112,7.12502,178.566,95.0139,-6.36111e-15,0,-0.307883,11.593,29.9955,36.4433,33.6299,-45.0372,-741.772,7.12502,-17.8195,7.43144,-34.1384,-11.9119,47.0646,55.3021,-5.83595,-16.714,-26.9452,-80.2318,20.8691,-16.7549,66.731,-28.1163,32.1265,17.7941
4.77788,15.6608,-8.17364,241.776,43.1806,-136.083,11.468,0.490672,-7.78329,-1.44002,-0.598657,-9.31439,-8.05857,0.0486337,-5.58778,-25.1761,4.01992,-3.71905,17.7912,5.12534,8.41502,9.40496,3.20658,4.34152,-6.04305e-14,-6.04305e-14,-16.7977,-10.1481,-9.80116,37.4724,-1.18928,-28.3192,-54.2012,7.12502,178.306,95.8257,-6.04305e-14,-6.04305e-14,-0.394408,10.5474,31.1625,36.5211,33.143,-44.6313,-744.079,7.12502,-17.4288,5.15932,-33.353,-11.91,46.685,54.3892,-11.0396,-20.2027,-21.8904,-79.8026,21.1582,-18.126,66.3024,-27.0444,32.2334,17.3006
4.75202,15.6803,-8.08399,240.966,44.889,-136.921,11.3524,0.896861,-8.0276,-1.78966,-0.137074,-8.91115,-8.35517,0.281229,-5.10234,-23.7256,3.48861,-5.25296,17.9705,4.92927,8.06211,9.19303,2.93807,4.38837,-1.59028e-14,-5.40694e-14,-17.0822,-8.90617,-8.91965,38.1439,-0.931595,-28.6833,-53.9495,7.12502,177.954,96.0805,-1.59028e-14,-5.40694e-14,-0.664013,9.14067,32.9475,36.4589,32.2207,-44.4728,-746.905,7.12502,-17.2763,2.34682,-32.5758,-11.475,45.5734,53.2298,-21.4516,-17.575,-1.61025,-79.3729,21.4442,-19.9315,65.8285,-26.5555,32.261,17.922
4.73066,15.7029,-7.99072,240.353,46.5687,-137.721,10.8866,0.723483,-8.34411,-1.74435,-0.327059,-9.00165,-8.04036,0.206227,-4.9689,-23.4012,3.28683,-5.98247,17.4841,4.72571,8.86894,8.94232,2.89028,4.72996,1.55847e-13,1.52667e-13,-16.3885,-9.13296,-10.0726,38.6764,-0.48635,-28.5018,-54.5594,7.12502,178.129,95.4691,1.55847e-13,1.52667e-13,-1.05174,8.7853,33.1282,36.5658,31.3071,-44.6756,-749.08,7.12502,-17.4715,0.155283,-31.8892,-10.8485,44.4658,52.0582,-12.6712,-26.1277,-27.4295,-79.124,21.8622,-21.754,65.2884,-25.7417,32.1173,17.107
4.71162,15.7348,-7.90345,240.067,48.1655,-138.423,9.97492,0.256665,-8.56983,-1.62204,-0.800973,-9.36508,-7.39364,-0.0117038,-5.12562,-24.8634,3.52067,-4.90887,18.5857,4.6841,9.02366,9.61249,2.98643,4.71452,4.77083e-14,9.22361e-14,-15.3447,-9.66702,-12.292,39.1518,-0.209078,-28.8273,-54.9358,7.12502,177.815,95.0956,4.77083e-14,9.22361e-14,-1.58164,9.3103,32.4183,37.2766,31.4722,-44.4815,-749.286,7.12502,-17.2847,-0.0342973,-31.4117,-9.96447,43.4311,50.8711,-15.1177,-27.6595,-25.525,-79.135,22.3159,-23.3918,64.744,-25.3297,31.3258,18.2039
4.6905,15.7725,-7.82164,239.602,49.5834,-139.239,9.3246,0.269866,-8.5958,-1.78408,-0.710634,-9.36112,-7.19171,0.0315836,-5.10881,-24.7857,3.07079,-5.47254,19.0358,4.07909,9.79765,9.7781,2.76586,5.02297,1.11319e-13,7.31528e-14,-15.5605,-9.32623,-12.9557,40.068,-0.175496,-29.4042,-54.8016,7.12502,177.258,95.2363,1.11319e-13,7.31528e-14,-1.82744,8.59154,32.964,37.99,31.8484,-44.2607,-749.649,7.12502,-17.0721,-0.379468,-31.026,-9.23807,42.4122,49.7808,-16.7859,-29.0651,-23.9426,-79.0138,22.6472,-24.7435,64.2173,-25.3092,30.2834,15.7134
4.66865,15.8223,-7.74659,238.993,50.8009,-140.184,8.76097,0.25298,-8.43745,-1.95866,-0.654663,-9.39371,-7.0562,0.0511968,-5.23287,-24.1803,2.86333,-5.61502,19.3361,3.83001,9.7009,9.79846,2.61976,4.96988,2.22639e-14,3.81667e-14,-16.0295,-8.90407,-13.691,41.1519,0.129249,-29.3454,-54.8109,7.12502,177.315,95.2263,2.22639e-14,3.81667e-14,-2.00442,7.82772,33.4188,38.7024,31.2051,-44.6123,-748.777,7.12502,-17.4105,0.462882,-30.7147,-8.64229,41.3782,48.761,-18.4195,-30.1304,-21.7063,-78.7645,22.6856,-25.6338,63.7092,-24.6432,29.2277,17.8029
4.64735,15.8716,-7.67437,238.511,51.9889,-141.075,7.99223,0.171337,-8.19042,-2.09483,-0.637772,-9.51503,-6.7628,0.047359,-5.49037,-23.5158,2.77586,-5.55663,19.2981,3.68772,9.60427,9.683,2.53847,4.88018,1.62208e-13,3.81667e-14,-16.427,-8.3285,-14.7031,42.1055,0.543939,-29.5545,-54.5647,7.12502,177.113,95.4751,1.62208e-13,3.81667e-14,-2.24069,6.91426,33.6765,39.3805,31.3663,-44.7499,-750.811,7.12502,-17.5429,-1.58274,-30.5628,-7.70901,40.2621,47.9588,-20.5603,-30.5837,-18.5976,-78.5808,22.7045,-26.6041,63.2858,-23.2036,28.1706,16.998
4.62258,15.9094,-7.60204,238.118,52.9142,-141.704,7.49346,0.0905238,-7.88303,-2.25114,-0.670935,-9.41254,-6.64539,0.0146545,-5.53679,-23.1916,2.57637,-5.82801,19.4807,3.43005,9.85837,9.70194,2.4276,4.97989,3.18055e-15,1.30403e-13,-16.6528,-7.57345,-15.6615,43.0776,0.995103,-29.6255,-53.9879,7.12502,177.044,96.0528,3.18055e-15,1.30403e-13,-2.62244,6.22566,33.9022,40.079,30.5816,-45.174,-751.96,7.12502,-17.951,-2.76837,-30.4279,-7.01649,39.3835,47.3548,-22.3473,-30.3292,-15.9331,-78.3747,22.7826,-27.214,62.8974,-21.903,27.058,16.0912
4.59306,15.9217,-7.53004,237.719,53.7132,-142.275,7.25074,0.0445167,-7.63356,-2.43631,-0.710605,-9.18143,-6.70444,-0.0185208,-5.41774,-23.6115,2.10092,-6.58194,20.4511,2.8569,10.5487,10.1518,2.2006,5.34543,-1.90833e-14,8.5875e-14,-16.9337,-7.00957,-16.4878,44.2197,1.78219,-29.1572,-53.4783,7.12502,177.496,96.5566,-1.90833e-14,8.5875e-14,-3.06201,5.59095,34.3605,40.8179,29.9297,-45.1169,-750.173,7.12502,-17.8962,-0.975927,-30.4667,-6.68331,38.6226,46.9925,-23.6053,-29.8357,-13.627,-78.406,23.0667,-27.9325,62.6218,-20.8317,25.8532,15.6823
4.55976,15.9566,-7.45728,237.289,54.6939,-142.797,7.07607,-0.418448,-7.56138,-2.47624,-1.29472,-9.22058,-6.67052,-0.304248,-5.42414,-24.1429,2.55283,-5.45462,20.8853,3.24507,9.92451,10.4017,2.39893,5.02435,1.11319e-14,1.81292e-13,-16.1334,-6.86715,-18.6516,45.1454,2.68274,-29.0934,-52.8713,7.12502,177.558,97.163,1.11319e-14,1.81292e-13,-4.03362,5.87914,33.7598,41.6812,29.4156,-44.9983,-749.5,7.12502,-17.782,-0.293301,-30.5281,-6.21781,37.7567,46.7422,-24.0578,-29.8356,-12.5331,-77.9742,22.9672,-28.2867,62.2135,-19.8169,25.4417,15.8834
4.52934,15.9885,-7.38563,237.606,55.1073,-142.321,6.9737,0.0242583,-6.65598,-2.75778,-0.686435,-8.60023,-6.88756,-0.0620783,-5.33557,-23.0074,1.7734,-7.05476,20.8109,2.56121,10.3383,10.1949,1.98688,5.30441,9.54166e-15,-2.54444e-14,-17.1922,-6.00732,-18.3666,46.3601,3.12937,-28.6469,-52.5617,7.12502,177.989,97.468,9.54166e-15,-2.54444e-14,-4.14553,4.79052,35.4568,42.324,28.9405,-44.771,-750.631,7.12502,-17.5632,-1.40411,-30.5409,-6.10092,37.8625,46.5158,-23.0292,-30.4341,-13.173,-77.7335,23.2063,-27.9214,61.9171,-18.7071,25.1403,15.3362
