JuanDHNZ/ProyectoFinalCD/preprocessing/sports_trials_csv/49_02.csv
root1,root2,root3,root4,root5,root6,lowerback1,lowerback2,lowerback3,upperback1,upperback2,upperback3,thorax1,thorax2,thorax3,lowerneck1,lowerneck2,lowerneck3,upperneck1,upperneck2,upperneck3,head1,head2,head3,rclavicle1,rclavicle2,rhumerus1,rhumerus2,rhumerus3,rradius1,rwrist1,rhand1,rhand2,rfingers1,rthumb1,rthumb2,lclavicle1,lclavicle2,lhumerus1,lhumerus2,lhumerus3,lradius1,lwrist1,lhand1,lhand2,lfingers1,lthumb1,lthumb2,rfemur1,rfemur2,rfemur3,rtibia1,rfoot1,rfoot2,rtoes1,lfemur1,lfemur2,lfemur3,ltibia1,lfoot1,lfoot2,ltoes1
-0.712909,17.5379,0.920988,14.4554,-5.92739,-3.96943,-12.4902,-0.579419,2.73925,-5.17584,-1.13994,1.55478,1.55765,-0.593708,-0.0816649,-10.861,-9.19275,-11.8148,26.3998,-12.2817,5.92126,11.5137,-6.13631,2.42687,6.20697e-15,-1.80086e-14,-37.6754,7.7702,-93.3711,31.8954,7.23161,-20.542,-51.9408,7.12502,5.81657,-81.841,6.20697e-15,-1.80086e-14,-38.2748,-8.30476,91.9023,29.142,8.93527,-32.6129,-26.4633,7.12502,-5.84051,3.43616,-22.7436,13.2989,20.3332,26.2033,-12.7394,-11.7257,-4.21869,-21.1481,-9.94367,-14.8981,26.832,-16.4262,17.599,-2.8722
-0.712618,17.5377,0.920102,14.4692,-5.91152,-4.02443,-12.4137,-0.572099,2.79887,-5.17263,-1.13501,1.58971,1.51909,-0.592022,-0.0771903,-10.8833,-9.02732,-11.7438,26.3238,-12.0515,5.93481,11.4596,-6.02319,2.45769,1.13874e-15,4.72114e-16,-37.6628,7.71033,-93.2918,31.8905,7.50765,-20.3292,-51.4818,7.12502,6.02202,-81.3762,1.13874e-15,4.72114e-16,-38.2504,-8.47394,92.0255,29.1219,9.36741,-32.7146,-26.3832,7.12502,-5.93865,3.51357,-22.7749,13.2783,20.395,26.2368,-12.7539,-11.7138,-4.11726,-21.1853,-9.84443,-14.8378,26.8242,-16.3527,17.5543,-2.81463
-0.713549,17.5381,0.919427,14.493,-5.85516,-3.97415,-12.32,-0.607757,2.7192,-5.24275,-1.16815,1.61678,1.39698,-0.609237,-0.00671138,-11.0344,-8.89117,-11.5976,26.4936,-11.8308,5.76067,11.5087,-5.92541,2.39968,-3.47097e-15,1.635e-14,-37.8447,7.75572,-93.2946,31.9622,7.51098,-19.9101,-51.5403,7.12502,6.42656,-81.4228,-3.47097e-15,1.635e-14,-38.3383,-8.44397,92.0596,29.138,9.37279,-32.7193,-26.2514,7.12502,-5.94317,3.64525,-22.82,13.2332,20.354,26.2745,-12.8007,-11.7454,-3.94504,-21.2367,-9.85115,-14.8641,26.7939,-16.2128,17.4765,-2.70438
-0.716114,17.5387,0.919008,14.5292,-5.85333,-3.92398,-12.3112,-0.613214,2.61956,-5.30151,-1.16275,1.63588,1.33365,-0.606191,0.0705065,-11.2983,-8.79318,-11.4183,26.7974,-11.641,5.48986,11.6275,-5.84681,2.29036,8.0601e-16,-1.58034e-14,-38.0339,7.7772,-93.3135,31.9669,7.58657,-20.1453,-51.5882,7.12502,6.19953,-81.4775,8.0601e-16,-1.58034e-14,-38.497,-8.38886,92.0806,29.2288,9.21421,-32.8838,-26.5592,7.12502,-6.10199,3.33297,-22.8901,13.3194,20.2884,26.3057,-12.7494,-11.8438,-3.84221,-21.2718,-9.90467,-14.8899,26.7768,-16.1398,17.5196,-2.58258
-0.719453,17.5376,0.918328,14.5634,-5.91877,-3.9346,-12.3328,-0.589458,2.57679,-5.29693,-1.12809,1.6566,1.35209,-0.587934,0.120219,-11.6415,-8.63188,-11.2456,27.0373,-11.3889,5.37535,11.7433,-5.72091,2.24666,-1.9439e-14,-3.42904e-15,-38.089,7.76746,-93.3206,31.97,7.69087,-20.9042,-51.0388,7.12502,5.46688,-80.9483,-1.9439e-14,-3.42904e-15,-38.5094,-8.36206,92.0664,29.304,9.04184,-32.9299,-26.7587,7.12502,-6.14653,3.13211,-22.9713,13.5128,20.265,26.3356,-12.6349,-11.9695,-3.99802,-21.2885,-9.92541,-14.8601,26.7606,-16.1548,17.6159,-2.71364
-0.720227,17.5367,0.919137,14.6225,-5.98239,-3.89719,-12.3484,-0.574683,2.51557,-5.28819,-1.10282,1.6665,1.37155,-0.574216,0.167918,-12.1691,-8.3929,-11.0441,27.3532,-11.0366,5.33251,11.9199,-5.53446,2.23419,1.04797e-14,-8.69683e-15,-38.0307,7.71124,-93.2525,32.0998,7.83827,-21.1334,-50.5518,7.12502,5.24555,-80.4669,1.04797e-14,-8.69683e-15,-38.4372,-8.30998,92.0472,29.3739,8.93393,-32.8725,-26.631,7.12502,-6.09109,3.26141,-23.0574,13.5832,20.1906,26.3493,-12.6224,-11.9953,-4.13277,-21.3377,-9.82839,-14.9098,26.7573,-16.183,17.5654,-2.77039
-0.720005,17.5384,0.919506,14.685,-6.0067,-3.85978,-12.349,-0.557277,2.4716,-5.32212,-1.07418,1.673,1.33792,-0.559847,0.203449,-12.389,-8.139,-10.9044,27.5037,-10.6957,5.36633,11.9814,-5.3584,2.2721,-6.3813e-15,-1.2424e-14,-38.0476,7.70075,-93.22,32.2992,7.82258,-21.1934,-50.7581,7.12502,5.18766,-80.6746,-6.3813e-15,-1.2424e-14,-38.4588,-8.29453,92.0767,29.4488,8.89514,-32.8085,-26.4072,7.12502,-6.02936,3.48704,-23.1401,13.5953,20.1248,26.347,-12.6312,-11.9903,-3.92419,-21.3949,-9.72556,-14.9613,26.7656,-16.2133,17.4701,-2.67184
-0.718694,17.5382,0.923789,14.6511,-6.05575,-3.89753,-12.3681,-0.516982,2.53543,-5.29551,-1.02976,1.68308,1.3755,-0.537868,0.183424,-12.3428,-7.92391,-10.7896,27.4557,-10.4197,5.39313,11.9191,-5.22098,2.31109,-4.3158e-15,-2.05245e-14,-38.0985,7.80702,-93.2696,32.4337,7.60042,-21.3514,-51.1172,7.12502,5.03505,-81.0374,-4.3158e-15,-2.05245e-14,-38.4814,-8.32312,92.1152,29.5021,8.84675,-32.6964,-25.9279,7.12502,-5.92108,3.96939,-23.0949,13.6675,20.1545,26.3449,-12.6443,-11.9936,-3.67526,-21.3201,-9.85256,-14.932,26.7751,-16.3407,17.6737,-2.83402
-0.716687,17.5371,0.927172,14.6148,-6.10391,-3.94509,-12.3526,-0.473782,2.61563,-5.28852,-0.981669,1.69885,1.37384,-0.51472,0.161201,-12.4738,-7.7421,-10.6012,27.5902,-10.1506,5.24495,11.9504,-5.09588,2.26461,2.37128e-14,-1.14301e-15,-38.1615,7.89006,-93.2859,32.4983,7.4764,-21.4894,-51.3384,7.12502,4.9018,-81.2617,2.37128e-14,-1.14301e-15,-38.5085,-8.44349,92.2274,29.4699,8.84999,-32.8671,-25.8707,7.12502,-6.08593,4.02186,-23.0254,13.7311,20.1958,26.3164,-12.6497,-11.9903,-3.66675,-21.2665,-10.0068,-14.8856,26.787,-16.3974,17.9107,-3.00118
-0.718565,17.5378,0.91955,14.7033,-6.00117,-3.93814,-12.2863,-0.494605,2.58461,-5.40463,-1.00035,1.71536,1.21737,-0.52578,0.195084,-12.4294,-7.53541,-10.4852,27.6255,-9.88363,5.23863,11.9211,-4.96656,2.28861,3.45078e-15,5.36719e-15,-38.2562,7.89667,-93.2938,32.4571,7.48087,-21.0259,-51.3601,7.12502,5.34937,-81.2726,3.45078e-15,5.36719e-15,-38.6144,-8.58278,92.3446,29.4988,8.97023,-33.0797,-26.1334,7.12502,-6.29113,3.75315,-23.131,13.7662,20.1781,26.2954,-12.5926,-12.1395,-3.84863,-21.4366,-9.94085,-14.841,26.7903,-16.2929,17.7292,-2.80577
-0.714123,17.5353,0.933503,14.6417,-6.31682,-4.03756,-12.377,-0.357331,2.74835,-5.34484,-0.842577,1.706,1.32803,-0.447975,0.112574,-12.1996,-7.30122,-10.4645,27.393,-9.61991,5.44773,11.7675,-4.82599,2.41346,-3.65267e-15,-6.65929e-15,-38.2318,7.8569,-93.2631,32.356,7.59779,-20.6298,-50.8173,7.12502,5.73176,-80.7197,-3.65267e-15,-6.65929e-15,-38.6064,-8.60332,92.3639,29.5525,8.99083,-33.0945,-26.7854,7.12502,-6.30543,3.10077,-23.0315,13.8926,20.2318,26.2831,-12.6715,-11.9619,-3.97442,-21.2277,-10.0405,-14.822,26.7714,-16.3355,18.0789,-2.33275
-0.716692,17.5363,0.927312,14.7127,-6.14583,-3.96405,-12.3219,-0.412646,2.64311,-5.38102,-0.90071,1.71807,1.26167,-0.476269,0.177416,-12.3162,-7.0985,-10.2954,27.4585,-9.34093,5.3939,11.7759,-4.68695,2.40658,-7.69359e-15,6.80837e-15,-38.2072,7.77863,-93.1843,32.3262,7.77726,-20.6835,-50.5872,7.12502,5.67994,-80.4911,-7.69359e-15,6.80837e-15,-38.5425,-8.64124,92.4136,29.5497,8.95437,-33.066,-27.4212,7.12502,-6.2779,2.46579,-23.1362,13.8866,20.1589,26.2945,-12.6749,-12.1041,-3.83165,-21.3661,-9.99471,-14.8448,26.7403,-16.271,17.8638,-2.47113
-0.71712,17.5379,0.92826,14.7489,-6.12094,-3.85499,-12.3422,-0.407892,2.54757,-5.41749,-0.882515,1.67982,1.23596,-0.466706,0.193821,-12.673,-6.90388,-9.98274,27.8376,-9.04352,5.13595,11.9362,-4.54525,2.29593,4.31735e-16,-1.18277e-14,-38.2854,7.77555,-93.2145,32.3245,7.72942,-20.6478,-50.8411,7.12502,5.71444,-80.744,4.31735e-16,-1.18277e-14,-38.5455,-8.80857,92.5001,29.5469,9.0634,-32.9993,-27.4475,7.12502,-6.21358,2.4414,-23.2027,13.8614,20.0336,26.3045,-12.6067,-12.1746,-3.94805,-21.4001,-10.0595,-14.9444,26.7134,-16.2852,17.8384,-2.49345
-0.718241,17.5385,0.931717,14.7666,-6.19724,-3.81497,-12.4044,-0.360707,2.51485,-5.40638,-0.81801,1.63397,1.28197,-0.43401,0.172375,-12.9437,-6.67941,-9.67261,28.0544,-8.73779,4.99745,12.0231,-4.38734,2.23417,3.04902e-14,-3.51352e-14,-38.2791,7.79328,-93.2865,32.2795,7.67973,-20.7615,-50.7547,7.12502,5.60463,-80.6606,3.04902e-14,-3.51352e-14,-38.4803,-9.04564,92.5663,29.4838,9.26004,-33.1217,-27.5713,7.12502,-6.3317,2.31402,-23.2385,13.8394,19.9856,26.3296,-12.5861,-12.1503,-4.15848,-21.3885,-10.1241,-14.991,26.6943,-16.2707,17.9642,-2.69342
-0.719147,17.5382,0.934398,14.7602,-6.23107,-3.87104,-12.4263,-0.308889,2.57231,-5.32837,-0.7587,1.63306,1.37519,-0.403709,0.146261,-13.3155,-6.45356,-9.3966,28.1626,-8.42401,4.92187,12.094,-4.21882,2.19988,-1.37674e-14,-5.36719e-15,-38.0734,7.80771,-93.275,32.1982,7.76872,-20.7239,-50.718,7.12502,5.64097,-80.6229,-1.37674e-14,-5.36719e-15,-38.3068,-9.27579,92.6714,29.4095,9.6731,-33.4966,-28.4246,7.12502,-6.69358,1.44958,-23.1981,13.8114,20.0663,26.343,-12.6654,-12.0976,-4.16556,-21.3534,-10.168,-14.934,26.6777,-16.1797,18.1006,-2.9219
-0.719782,17.5384,0.933527,14.7904,-6.17984,-3.907,-12.4152,-0.294923,2.60574,-5.31031,-0.744564,1.65856,1.38811,-0.396521,0.155815,-13.7239,-6.23185,-9.15079,28.344,-8.09674,4.79871,12.2016,-4.05323,2.15447,-1.00386e-14,8.10048e-15,-37.9053,7.85003,-93.2391,32.1536,7.78109,-20.4124,-51.2786,7.12502,5.94166,-81.1753,-1.00386e-14,8.10048e-15,-38.1435,-9.02306,92.4933,29.6015,8.53878,-33.1491,-26.6525,7.12502,-6.35812,3.23209,-23.2224,13.8034,20.1114,26.3588,-12.6732,-12.1163,-4.03333,-21.388,-10.2669,-14.864,26.6617,-16.1095,18.1543,-2.61618
-0.720793,17.5388,0.932727,14.7942,-6.10415,-3.87068,-12.3523,-0.311905,2.55675,-5.35359,-0.758066,1.67131,1.30967,-0.403476,0.195573,-13.8644,-6.03773,-8.94625,28.453,-7.816,4.65485,12.2323,-3.92135,2.10784,-1.51698e-14,-5.61567e-15,-37.9329,7.88188,-93.2269,32.2111,7.70952,-20.2172,-51.768,7.12502,6.13008,-81.6593,-1.51698e-14,-5.61567e-15,-38.1759,-8.96217,92.4899,29.7292,8.1845,-33.0848,-26.2017,7.12502,-6.29603,3.68477,-23.2612,13.8176,20.0712,26.394,-12.6535,-12.1734,-3.83126,-21.3992,-10.3569,-14.8693,26.6259,-16.1709,18.1616,-2.25804
-0.721071,17.5389,0.933852,14.7546,-6.06768,-3.77343,-12.2659,-0.305813,2.47973,-5.35608,-0.736924,1.63582,1.26142,-0.392602,0.205476,-13.9125,-5.88541,-8.86353,28.5063,-7.61157,4.64908,12.2414,-3.82097,2.12377,-7.9048e-15,-2.05245e-14,-37.9428,7.90041,-93.2407,32.2345,7.63552,-20.2352,-51.6953,7.12502,6.11272,-81.5871,-7.9048e-15,-2.05245e-14,-38.1295,-9.19582,92.6171,29.771,8.49126,-33.2181,-26.8174,7.12502,-6.42477,3.0652,-23.2417,13.7917,19.9801,26.4336,-12.6745,-12.2301,-3.87996,-21.3476,-10.3149,-14.9799,26.58,-16.2501,18.0666,-2.15596
-0.720648,17.5395,0.935926,14.7286,-6.07117,-3.63099,-12.2578,-0.287484,2.39382,-5.32174,-0.701684,1.56211,1.29377,-0.373996,0.18167,-14.0213,-5.68212,-8.76243,28.5795,-7.35122,4.70229,12.268,-3.68516,2.16664,-8.62384e-15,4.02539e-15,-37.9289,7.85508,-93.2556,32.3087,7.74232,-20.4177,-51.3875,7.12502,5.93651,-81.2843,-8.62384e-15,4.02539e-15,-38.0612,-9.4797,92.7311,29.8769,8.97159,-33.1744,-28.0012,7.12502,-6.38261,1.88266,-23.2175,13.6973,19.8484,26.4621,-12.6651,-12.262,-4.31891,-21.3066,-10.2584,-15.1551,26.5478,-16.2414,17.9819,-2.19008
-0.720217,17.5392,0.938613,14.7415,-6.08531,-3.64105,-12.3386,-0.261078,2.45089,-5.26186,-0.676943,1.53789,1.39918,-0.361276,0.12675,-14.2633,-5.4334,-8.26528,28.6094,-6.99833,4.36547,12.2629,-3.51143,2.00627,-4.83451e-15,-1.2275e-14,-37.8513,7.80205,-93.2558,32.3775,7.88275,-20.6816,-51.0291,7.12502,5.68181,-80.9329,-4.83451e-15,-1.2275e-14,-38.0171,-9.55988,92.7242,30.0686,9.08133,-32.9766,-28.586,7.12502,-6.19161,1.30354,-23.2291,13.6337,19.8707,26.4974,-12.6413,-12.2449,-4.48366,-21.2829,-10.2318,-15.1577,26.5195,-16.2367,17.9638,-2.34365
-0.720475,17.5389,0.940286,14.7812,-6.04237,-3.76493,-12.414,-0.240866,2.60325,-5.21281,-0.672256,1.56627,1.48932,-0.359339,0.0704019,-14.5158,-5.21233,-7.54336,28.5699,-6.64499,3.69975,12.2136,-3.35469,1.68311,6.90311e-15,-1.02871e-14,-37.6962,7.81439,-93.2491,32.2858,7.88278,-20.9376,-50.666,7.12502,5.43461,-80.5763,6.90311e-15,-1.02871e-14,-37.9558,-9.55848,92.6931,30.274,8.81268,-32.8462,-27.7972,7.12502,-6.06573,2.09595,-23.2594,13.6316,20.0085,26.5256,-12.6412,-12.2729,-4.38778,-21.2961,-10.1672,-15.0187,26.4926,-16.2327,17.8801,-2.57723
-0.72046,17.5393,0.942338,14.7841,-5.93848,-3.68983,-12.4586,-0.283294,2.54561,-5.19347,-0.723928,1.5701,1.53367,-0.383761,0.0994247,-14.6383,-4.99919,-7.18543,28.591,-6.31736,3.35284,12.1965,-3.21157,1.54085,1.74868e-14,-8.54774e-15,-37.6214,7.92844,-93.2537,32.1779,7.80167,-21.3968,-50.1287,7.12502,4.9912,-80.0499,1.74868e-14,-8.54774e-15,-37.9005,-9.58407,92.739,30.4165,8.63112,-32.9414,-26.9383,7.12502,-6.1576,2.95219,-23.235,13.5522,19.9502,26.5144,-12.6916,-12.3163,-4.32179,-21.3243,-10.1385,-15.0883,26.4877,-16.1728,17.7777,-2.71953
-0.720262,17.5387,0.944928,14.745,-5.82146,-3.56647,-12.4547,-0.33907,2.44639,-5.17246,-0.786206,1.55963,1.55399,-0.413342,0.13585,-14.6775,-4.80331,-7.161,28.6311,-6.05211,3.40187,12.2037,-3.08363,1.59616,-2.03956e-14,1.52567e-14,-37.594,8.00146,-93.2435,32.1298,7.79233,-21.9289,-49.5672,7.12502,4.47739,-79.4999,-2.03956e-14,1.52567e-14,-37.8183,-9.62281,92.7913,30.4468,8.53658,-32.9114,-26.7467,7.12502,-6.12866,3.14466,-23.1531,13.472,19.8504,26.4735,-12.734,-12.3537,-4.0793,-21.3231,-10.2473,-15.1981,26.5068,-16.1341,17.7629,-2.69291
-0.719322,17.5389,0.946746,14.7046,-5.65876,-3.63006,-12.3892,-0.354383,2.56843,-5.16659,-0.818125,1.57179,1.52237,-0.430725,0.0761531,-14.6696,-4.67193,-7.11427,28.6538,-5.87926,3.41635,12.1982,-2.99953,1.6211,-1.29163e-14,1.90833e-14,-37.6546,7.92497,-93.2045,32.2082,7.90426,-22.0867,-49.2274,7.12502,4.32501,-79.1632,-1.29163e-14,1.90833e-14,-37.7356,-9.67869,92.8128,30.485,8.36778,-32.707,-26.64,7.12502,-5.93137,3.25695,-23.0595,13.4321,19.9579,26.4397,-12.7222,-12.4219,-3.92414,-21.3043,-10.3668,-15.0994,26.5296,-16.1189,17.7322,-2.58434
-0.717634,17.5406,0.947768,14.68,-5.49116,-3.75347,-12.3195,-0.352531,2.75073,-5.16165,-0.834289,1.60366,1.48685,-0.440855,0.00528068,-14.694,-4.53504,-7.06078,28.6967,-5.68449,3.38663,12.2045,-2.91004,1.63095,7.3395e-15,2.33572e-15,-37.7119,7.85516,-93.1558,32.3009,7.99748,-22.0676,-49,7.12502,4.34345,-78.9354,7.3395e-15,2.33572e-15,-37.6765,-9.87868,92.9471,30.576,8.67665,-32.8486,-27.8159,7.12502,-6.06809,2.07715,-22.969,13.3482,20.1355,26.4146,-12.7234,-12.4623,-4.06397,-21.299,-10.3165,-14.9617,26.5605,-16.1042,17.5589,-2.28312
-0.717785,17.5415,0.949169,14.6513,-5.47278,-3.78572,-12.2621,-0.321834,2.79172,-5.14312,-0.796797,1.62174,1.47546,-0.422386,0.00637686,-14.6765,-4.34516,-7.05118,28.6598,-5.41139,3.39429,12.1682,-2.78554,1.67495,-1.29241e-14,-3.47873e-15,-37.7212,7.78128,-93.0823,32.3505,8.12036,-22.0591,-49.0094,7.12502,4.35169,-78.9447,-1.29241e-14,-3.47873e-15,-37.6037,-9.99601,93.0515,30.6793,8.80987,-32.7694,-28.4469,7.12502,-5.99161,1.44835,-22.9004,13.4076,20.1761,26.3897,-12.7422,-12.5218,-4.12848,-21.2758,-10.1963,-14.9488,26.6076,-16.1915,17.3966,-2.02683
-0.719669,17.5414,0.949323,14.6617,-5.56054,-3.71135,-12.234,-0.272013,2.69738,-5.18477,-0.717645,1.60659,1.41958,-0.38279,0.054542,-14.4979,-4.16061,-7.0153,28.5804,-5.14109,3.32509,12.079,-2.6711,1.68719,-2.1183e-15,9.83984e-15,-37.8633,7.68165,-93.021,32.4382,8.20449,-21.9144,-49.2038,7.12502,4.49142,-79.1362,-2.1183e-15,9.83984e-15,-37.5468,-9.91348,93.0251,30.775,8.30097,-32.3874,-27.1169,7.12502,-5.62279,2.7885,-22.9555,13.5837,20.0535,26.3954,-12.6996,-12.6529,-4.15004,-21.294,-10.1198,-15.0448,26.6445,-16.3169,17.3657,-2.3638
-0.721825,17.5406,0.947865,14.7332,-5.55775,-3.66453,-12.2516,-0.259772,2.64681,-5.26529,-0.694253,1.60247,1.34614,-0.37185,0.0820856,-14.3646,-4.00479,-6.97798,28.5886,-4.91203,3.25091,12.0369,-2.57554,1.69009,-9.92992e-15,3.43897e-14,-38.0557,7.61658,-92.9949,32.5504,8.16317,-21.6211,-49.5012,7.12502,4.77461,-79.4274,-9.92992e-15,3.43897e-14,-37.5497,-9.78099,92.9916,30.9534,7.89962,-32.5572,-26.3629,7.12502,-5.78674,3.53805,-23.0871,13.6975,19.9688,26.4309,-12.6287,-12.8222,-4.24223,-21.3981,-10.0912,-15.0705,26.6569,-16.3856,17.318,-2.6685
-0.723046,17.5398,0.949703,14.7802,-5.49026,-3.64785,-12.3452,-0.266576,2.65491,-5.23533,-0.708449,1.59904,1.42759,-0.377991,0.0712348,-14.5306,-3.89325,-6.96,28.6592,-4.74691,3.26217,12.0881,-2.4963,1.71427,-1.36261e-14,7.35503e-15,-38.001,7.58573,-92.9761,32.5433,8.16186,-21.4348,-49.7221,7.12502,4.95453,-79.6442,-1.36261e-14,7.35503e-15,-37.4595,-9.73484,93.0214,31.1098,8.18257,-33.0243,-27.2659,7.12502,-6.23763,2.62223,-23.1278,13.6699,19.9572,26.4468,-12.6596,-12.8586,-4.21344,-21.4762,-10.0531,-15.0647,26.6762,-16.4178,17.1905,-2.4067
-0.723286,17.5398,0.954381,14.7758,-5.45002,-3.63422,-12.4978,-0.253745,2.69469,-5.11538,-0.704517,1.57682,1.63452,-0.373639,0.0244995,-14.8028,-3.84492,-6.90393,28.6543,-4.66361,3.24181,12.1346,-2.45154,1.70576,-7.3923e-15,7.45443e-15,-37.755,7.59608,-92.9823,32.3852,8.15179,-21.4274,-49.7037,7.12502,4.96169,-79.6256,-7.3923e-15,7.45443e-15,-37.3094,-10.0294,93.243,31.0431,9.27135,-33.6514,-29.5714,7.12502,-6.84306,0.297965,-23.0757,13.5698,19.9674,26.4196,-12.7009,-12.7983,-4.13002,-21.4872,-9.97971,-15.0904,26.7217,-16.3859,17.1107,-2.37119
-0.723045,17.5393,0.958941,14.7717,-5.38314,-3.73545,-12.5724,-0.22345,2.84629,-5.03572,-0.687504,1.59133,1.75632,-0.364643,-0.0442848,-15.0879,-3.84305,-6.79194,28.6956,-4.625,3.09255,12.2003,-2.43753,1.63221,2.92291e-14,-1.81888e-14,-37.566,7.60617,-92.9821,32.2531,8.01231,-21.4233,-49.8488,7.12502,4.96559,-79.7707,2.92291e-14,-1.81888e-14,-37.1816,-10.536,93.5729,30.8755,10.2017,-34.5304,-31.028,7.12502,-7.69156,-1.18786,-23.0098,13.5458,20.0946,26.3759,-12.6915,-12.8181,-4.07798,-21.4819,-9.90072,-14.9933,26.7632,-16.3732,17.027,-2.62527
-0.722096,17.5387,0.963163,14.7739,-5.28641,-3.8275,-12.549,-0.208349,2.97018,-5.01889,-0.68224,1.62502,1.75987,-0.362731,-0.0780912,-15.4375,-3.7816,-6.68024,28.9439,-4.49408,2.91876,12.3566,-2.3868,1.56367,-1.54213e-14,1.39149e-14,-37.5224,7.60021,-92.9499,32.25,7.86325,-21.3482,-50.3064,7.12502,5.03819,-80.2265,-1.54213e-14,1.39149e-14,-37.069,-10.8997,93.816,30.8519,10.6134,-35.1108,-30.7515,7.12502,-8.25173,-0.932689,-22.9523,13.544,20.2066,26.3287,-12.7081,-12.8761,-4.19442,-21.4849,-9.87205,-14.893,26.7926,-16.3945,16.9429,-2.64361
-0.721857,17.5388,0.966507,14.7794,-5.25336,-3.8015,-12.4714,-0.205423,2.963,-5.08186,-0.672209,1.62193,1.65243,-0.359415,-0.0750234,-15.7754,-3.53902,-6.60476,29.4489,-4.17808,2.99997,12.6116,-2.22769,1.63013,1.14456e-14,3.97569e-16,-37.6769,7.54908,-92.9481,32.3038,7.81436,-21.3313,-50.5196,7.12502,5.05449,-80.4393,1.14456e-14,3.97569e-16,-37.1183,-11.0696,93.9542,30.9831,10.8264,-35.1218,-30.7924,7.12502,-8.26233,-0.974014,-22.934,13.5852,20.1697,26.2832,-12.6993,-12.9762,-4.33915,-21.5035,-9.96475,-14.9097,26.8211,-16.3742,17.0184,-2.45894
-0.724232,17.5377,0.968829,14.7555,-5.29086,-3.84837,-12.4155,-0.172088,3.01237,-5.09093,-0.63087,1.61305,1.61285,-0.339951,-0.10599,-16.1692,-3.16926,-6.5897,30.0495,-3.78895,3.4898,12.9258,-1.98979,1.88087,4.10615e-15,-1.2921e-15,-37.7338,7.52102,-93.0046,32.2557,7.74944,-21.4872,-50.2242,7.12502,4.90391,-80.1475,4.10615e-15,-1.2921e-15,-37.0902,-11.2112,93.9932,31.0806,10.865,-34.9056,-31.5285,7.12502,-8.05368,-1.70196,-22.9021,13.7305,20.2099,26.2726,-12.6743,-13.0914,-4.11489,-21.4764,-10.0529,-14.8452,26.823,-16.3608,17.1469,-2.33987
-0.727098,17.5353,0.972016,14.6918,-5.38152,-3.89564,-12.3973,-0.110014,3.05346,-5.03489,-0.554091,1.60558,1.66271,-0.301093,-0.126653,-15.6554,-3.31002,-6.38602,29.4516,-3.8906,2.91809,12.5618,-2.08718,1.60853,-1.03026e-14,3.08116e-15,-37.6611,7.50057,-93.0259,32.1856,7.69622,-21.541,-49.8541,7.12502,4.85202,-79.7785,-1.03026e-14,3.08116e-15,-37.0277,-11.3676,94.0581,31.286,11.0495,-34.8571,-32.1246,7.12502,-8.00682,-2.2963,-22.8256,13.8294,20.2715,26.2912,-12.6827,-13.1025,-4.03889,-21.3726,-10.0552,-14.8076,26.8038,-16.3839,17.2268,-2.34258
-0.728545,17.5349,0.975868,14.6833,-5.42535,-3.79437,-12.3258,-0.0746508,2.93817,-5.08679,-0.48865,1.57585,1.57246,-0.268896,-0.0834167,-16.1016,-3.14946,-6.47131,30.0482,-3.72268,3.25369,12.8991,-1.97858,1.78002,-2.05742e-14,2.64384e-14,-37.7483,7.39944,-93.0012,32.191,7.70733,-21.3772,-49.7001,7.12502,5.0101,-79.6208,-2.05742e-14,2.64384e-14,-37.131,-11.4664,94.1956,31.5191,11.2736,-34.9075,-31.965,7.12502,-8.05547,-2.13857,-22.8261,13.8238,20.1652,26.3113,-12.6747,-13.1165,-4.44508,-21.3433,-10.0878,-14.9267,26.7914,-16.4296,17.273,-2.46021
-0.731023,17.5354,0.978724,14.7005,-5.35801,-3.78287,-12.2458,-0.0781828,2.90534,-5.13683,-0.484681,1.57753,1.47746,-0.267923,-0.0621478,-15.7469,-3.24643,-6.36181,29.6011,-3.77751,2.84425,12.6333,-2.04395,1.59393,-1.13059e-15,-8.94531e-16,-37.891,7.34429,-93.0169,32.3499,7.61641,-21.0381,-50.0423,7.12502,5.33756,-79.955,-1.13059e-15,-8.94531e-16,-37.1313,-11.4741,94.2484,31.5586,11.2007,-34.8211,-31.4428,7.12502,-7.97215,-1.6131,-22.8474,13.9035,20.1539,26.3325,-12.6177,-13.2553,-4.70327,-21.3605,-10.0369,-14.9253,26.7675,-16.4544,17.1899,-2.69933
-0.733399,17.5352,0.984393,14.6995,-5.34892,-3.84358,-12.2513,-0.0600927,2.93625,-5.12342,-0.465646,1.61056,1.49474,-0.25816,-0.0427692,-15.9066,-3.0403,-6.37139,29.754,-3.53611,3.06543,12.7191,-1.90831,1.71894,2.57799e-15,-1.68967e-15,-37.9594,7.33144,-93.0096,32.5369,7.49499,-20.8245,-50.6117,7.12502,5.54382,-80.5192,2.57799e-15,-1.68967e-15,-37.0059,-11.5086,94.3064,31.5552,11.2338,-34.6819,-31.3049,7.12502,-7.83779,-1.4702,-22.8417,13.9798,20.2182,26.3647,-12.6286,-13.2907,-4.46827,-21.3012,-9.88635,-14.8753,26.7184,-16.4435,17.0738,-2.84228
-0.734111,17.536,0.991117,14.687,-5.43712,-3.78718,-12.389,-0.0123125,2.87962,-5.03788,-0.403722,1.58904,1.66029,-0.224318,-0.0258101,-16.1704,-2.85516,-6.32385,29.9867,-3.30763,3.19428,12.8574,-1.78383,1.79741,4.48819e-15,-8.74653e-15,-37.8293,7.22091,-92.9373,32.4519,7.58723,-20.9813,-50.4231,7.12502,5.39241,-80.3345,4.48819e-15,-8.74653e-15,-36.7755,-11.6343,94.3625,31.6268,11.4854,-34.5865,-30.9578,7.12502,-7.74567,-1.11964,-22.8421,13.9804,20.1488,26.4082,-12.7326,-13.261,-4.39818,-21.2047,-9.91199,-14.9618,26.6582,-16.4119,17.1208,-2.66124
-0.734997,17.5366,0.995818,14.6861,-5.48425,-3.68365,-12.5649,0.0109063,2.80444,-4.95082,-0.372364,1.53103,1.84737,-0.205706,-0.0402955,-16.2467,-2.76098,-6.25992,30.0566,-3.17872,3.17528,12.8926,-1.72171,1.79999,-7.25564e-15,-1.88845e-15,-37.6706,7.10305,-92.9025,32.3234,7.76614,-21.1293,-49.9655,7.12502,5.24947,-79.8805,-7.25564e-15,-1.88845e-15,-36.6258,-11.6475,94.3223,31.8158,11.53,-34.4991,-30.5139,7.12502,-7.66137,-0.67268,-22.8595,13.9416,20.0451,26.4693,-12.815,-13.2917,-4.70319,-21.148,-10.0504,-15.0703,26.5813,-16.3853,17.2308,-2.44108
-0.735322,17.536,1.00164,14.738,-5.41711,-3.56514,-12.6413,-0.0155394,2.69373,-5.00564,-0.39516,1.50636,1.83184,-0.216754,-0.00692134,-16.1725,-2.70939,-6.32599,30.172,-3.10228,3.21085,12.9221,-1.69276,1.83936,9.77617e-15,-1.68967e-14,-37.7651,7.04024,-92.8714,32.4144,7.88008,-20.8935,-50.1818,7.12502,5.4772,-80.091,9.77617e-15,-1.68967e-14,-36.7385,-11.5306,94.342,32.044,11.361,-34.4737,-30.7045,7.12502,-7.63683,-0.862347,-22.9168,13.7482,19.9469,26.5422,-12.8135,-13.2648,-4.91876,-21.1585,-10.0901,-15.1852,26.4795,-16.3658,17.1612,-2.42137
-0.734635,17.5355,1.01077,14.7529,-5.33702,-3.45631,-12.6601,-0.0460523,2.5843,-5.08106,-0.421388,1.50929,1.76383,-0.229883,0.054179,-16.0924,-2.68531,-6.37434,30.3004,-3.03964,3.14589,12.955,-1.68157,1.83445,3.12465e-15,6.16232e-15,-37.9392,7.01082,-92.8154,32.5262,7.92802,-20.6007,-50.3864,7.12502,5.75983,-80.2881,3.12465e-15,6.16232e-15,-36.9039,-11.4817,94.4586,32.2089,11.1938,-34.5337,-31.2441,7.12502,-7.6947,-1.40408,-22.9097,13.5279,19.8657,26.5945,-12.8518,-13.1617,-4.90792,-21.1175,-10.1701,-15.2951,26.3851,-16.3178,17.1006,-2.36015
-0.73359,17.5363,1.02403,14.7067,-5.30563,-3.39905,-12.7405,-0.0480361,2.57213,-5.07341,-0.425255,1.49117,1.81514,-0.231262,0.0413457,-16.0839,-2.63026,-6.31188,30.3923,-2.94637,3.04115,12.9828,-1.64821,1.79891,-1.78285e-15,-1.56046e-14,-38.0369,7.01385,-92.8189,32.5745,7.88672,-20.7155,-50.049,7.12502,5.64902,-79.9537,-1.78285e-15,-1.56046e-14,-36.8918,-11.4997,94.482,32.3619,11.0076,-34.2721,-30.7767,7.12502,-7.44217,-0.927623,-22.8249,13.4623,19.82,26.6168,-13.0016,-13.0856,-4.54334,-20.9815,-10.311,-15.3642,26.3113,-16.3077,17.2149,-2.38788
-0.7341,17.5372,1.03215,14.6993,-5.19375,-3.40665,-12.871,-0.0576584,2.63283,-5.02219,-0.450779,1.47135,1.93791,-0.243077,-0.0176233,-16.161,-2.59397,-6.2432,30.4472,-2.89172,2.98701,13.0166,-1.62309,1.77488,-2.17762e-14,1.51076e-14,-38.0111,6.9355,-92.8121,32.6022,7.96327,-20.8623,-49.8228,7.12502,5.50734,-79.7312,-2.17762e-14,1.51076e-14,-36.7198,-11.4149,94.3361,32.6493,10.7769,-33.5822,-29.045,7.12502,-6.77629,0.826524,-22.7776,13.5103,19.8358,26.605,-13.0759,-13.2046,-4.2816,-20.9317,-10.3655,-15.3403,26.2615,-16.3092,17.2405,-2.70412
-0.735009,17.5367,1.03587,14.7647,-5.04033,-3.42847,-12.993,-0.0839343,2.68093,-5.0052,-0.496764,1.48515,2.02021,-0.265269,-0.0374389,-16.2445,-2.5936,-6.30557,30.5179,-2.87346,3.00732,13.0646,-1.6195,1.79682,-1.48374e-14,2.98177e-16,-37.9306,6.87999,-92.7649,32.566,8.13623,-20.7999,-50.0918,7.12502,5.56751,-79.9986,-1.48374e-14,2.98177e-16,-36.632,-11.3755,94.3055,32.8904,10.7218,-33.2194,-28.2518,7.12502,-6.42605,1.63072,-22.7829,13.4416,19.884,26.5665,-13.0919,-13.3342,-4.55971,-21.012,-10.3752,-15.2774,26.2358,-16.2265,17.1511,-2.97564
-0.734115,17.5362,1.04546,14.8237,-4.98398,-3.45817,-13.0336,-0.0813261,2.7584,-5.05828,-0.503583,1.505,1.98574,-0.26996,-0.0613312,-16.3471,-2.57522,-6.3241,30.687,-2.80849,2.92211,13.1531,-1.60562,1.7784,-6.71519e-15,-1.31198e-14,-38.0311,6.86558,-92.7246,32.5911,8.22239,-20.7396,-50.4273,7.12502,5.62576,-80.3326,-6.71519e-15,-1.31198e-14,-36.7043,-11.4577,94.4443,32.9876,10.8733,-33.3013,-28.5641,7.12502,-6.50508,1.31603,-22.7616,13.2632,19.9396,26.5216,-13.1425,-13.2718,-4.68799,-21.0445,-10.411,-15.2386,26.2296,-16.1754,17.1669,-2.88916
-0.734971,17.5366,1.05637,14.8529,-5.00292,-3.47921,-12.9846,-0.0598419,2.78866,-5.15135,-0.474865,1.51883,1.86229,-0.257889,-0.0593227,-16.4453,-2.50293,-6.20748,30.8805,-2.66967,2.72426,13.2427,-1.55913,1.70464,-1.50331e-14,4.77083e-15,-38.2757,6.77978,-92.6795,32.7119,8.20947,-20.6498,-50.78,7.12502,5.71249,-80.683,-1.50331e-14,4.77083e-15,-36.8713,-11.4729,94.5479,33.1819,10.9413,-33.3811,-28.1297,7.12502,-6.5821,1.74804,-22.7304,13.1749,19.9719,26.4877,-13.192,-13.1461,-4.4192,-21.021,-10.4507,-15.2212,26.2341,-16.2848,17.2039,-2.62151
-0.737614,17.5365,1.05981,14.8853,-5.01884,-3.45662,-12.913,-0.0644231,2.72498,-5.23231,-0.46881,1.53806,1.73998,-0.255956,-0.00207622,-16.4168,-2.42369,-6.18865,30.9691,-2.53646,2.64652,13.2651,-1.51029,1.69364,-6.15611e-15,6.75868e-15,-38.373,6.80511,-92.6675,32.7006,8.07979,-20.5981,-51.0342,7.12502,5.76235,-80.9359,-6.15611e-15,6.75868e-15,-37.0578,-11.6125,94.7175,33.3459,11.1452,-33.6946,-27.8943,7.12502,-6.88473,1.97377,-22.7377,13.183,19.9474,26.4575,-13.1843,-13.1518,-4.49879,-21.0382,-10.4599,-15.2328,26.2447,-16.4427,17.1175,-2.4474
-0.736934,17.5364,1.05826,14.9256,-4.97297,-3.4483,-12.9229,-0.0877928,2.74259,-5.22577,-0.502864,1.55537,1.75149,-0.272803,0.00116697,-16.4558,-2.37313,-6.21876,30.9952,-2.43517,2.60325,13.279,-1.47527,1.69839,3.23025e-15,-2.90226e-14,-38.2945,6.98408,-92.6927,32.6475,7.94536,-20.8798,-50.6915,7.12502,5.49037,-80.6003,3.23025e-15,-2.90226e-14,-37.0838,-11.9094,94.9611,33.3563,11.7972,-34.124,-28.3497,7.12502,-7.2993,1.5044,-22.7606,13.1133,19.9377,26.4196,-13.1634,-13.1808,-4.64228,-21.0983,-10.4923,-15.2264,26.2664,-16.4517,17.0916,-2.67924
-0.734946,17.5365,1.06035,14.9534,-4.95329,-3.49119,-12.9831,-0.0797477,2.83586,-5.18215,-0.507546,1.57071,1.8285,-0.274843,-0.0364039,-16.5118,-2.34769,-6.21753,30.971,-2.37356,2.54518,13.2769,-1.45506,1.6848,3.21783e-15,-1.72943e-14,-38.2587,7.15933,-92.7185,32.7026,7.85557,-21.3467,-50.0506,7.12502,5.03959,-79.9706,3.21783e-15,-1.72943e-14,-36.9476,-11.9346,94.9918,33.4057,11.9699,-34.028,-27.7858,7.12502,-7.20657,2.0715,-22.7579,13.0437,19.979,26.3804,-13.1734,-13.1035,-4.54593,-21.1302,-10.5319,-15.1855,26.3018,-16.3794,17.2086,-3.03313
-0.737593,17.5347,1.0621,14.9509,-4.99071,-3.57995,-12.9519,-0.0495781,2.89851,-5.17732,-0.474749,1.59318,1.81684,-0.259055,-0.0434852,-16.5506,-2.34808,-6.1876,30.9808,-2.35735,2.47565,13.2872,-1.45363,1.65477,2.53295e-14,2.48481e-15,-38.1494,7.25915,-92.7568,32.4831,7.74786,-21.5335,-49.7961,7.12502,4.8592,-79.7203,2.53295e-14,2.48481e-15,-36.8302,-11.7266,94.83,33.515,11.4472,-33.4571,-26.831,7.12502,-6.65553,3.04445,-22.7342,13.1556,20.0698,26.3374,-13.1159,-13.1024,-4.51734,-21.1414,-10.5321,-15.0843,26.3611,-16.3234,17.3554,-3.11572
-0.738587,17.5337,1.063,14.9494,-4.97885,-3.64336,-13.0416,-0.0305713,2.97194,-5.09202,-0.46485,1.59664,1.9539,-0.252563,-0.0803846,-16.8095,-2.35767,-6.07479,31.0479,-2.34161,2.33388,13.3672,-1.45156,1.58121,8.13464e-15,-8.84592e-15,-37.8207,7.2668,-92.7591,32.0684,7.70379,-21.7245,-49.7083,7.12502,4.67481,-79.6367,8.13464e-15,-8.84592e-15,-36.6628,-11.6003,94.6921,33.6387,11.1218,-33.1527,-26.6657,7.12502,-6.36166,3.21876,-22.7031,13.1414,20.1506,26.292,-13.0895,-13.0857,-4.51746,-21.1723,-10.5434,-15.0064,26.4318,-16.3583,17.4296,-3.0889
-0.738203,17.5339,1.0664,14.9651,-4.99299,-3.70636,-13.1315,-0.00934909,3.05607,-5.05518,-0.452545,1.60845,2.04034,-0.245816,-0.114052,-16.8689,-2.30949,-6.03914,31.0272,-2.27169,2.31784,13.3665,-1.41804,1.57979,-2.21148e-15,-8.15017e-15,-37.7973,7.24355,-92.7382,32.0597,7.77305,-22.1045,-49.3976,7.12502,4.30791,-79.3337,-2.21148e-15,-8.15017e-15,-36.6177,-11.4839,94.6469,33.7846,11.044,-33.3428,-26.4883,7.12502,-6.54518,3.39057,-22.6728,13.0628,20.2294,26.2586,-13.1004,-13.033,-4.62069,-21.1894,-10.5655,-14.9426,26.4855,-16.4767,17.4629,-2.90832
-0.74157,17.5331,1.06808,14.963,-4.98706,-3.78539,-12.9948,-0.00276256,3.09143,-5.15565,-0.440089,1.6405,1.86161,-0.242661,-0.0980028,-16.5852,-2.24989,-6.08145,30.9252,-2.20594,2.36755,13.2597,-1.38794,1.61793,-5.84551e-15,4.37326e-14,-38.1008,7.17863,-92.7122,32.3218,7.93442,-22.0682,-49.4196,7.12502,4.34294,-79.3551,-5.84551e-15,4.37326e-14,-36.782,-11.3853,94.6859,33.8647,10.9646,-33.4833,-26.5651,7.12502,-6.68075,3.30955,-22.623,13.1835,20.3245,26.2194,-13.0413,-13.1537,-4.72779,-21.2063,-10.6129,-14.8336,26.5381,-16.5969,17.4878,-2.6133
-0.74232,17.5332,1.06954,14.8948,-4.86579,-3.75649,-12.8571,-0.0210794,3.08684,-5.16606,-0.456314,1.61983,1.77593,-0.251851,-0.118695,-16.5442,-2.25661,-6.04593,30.9187,-2.20941,2.30758,13.2471,-1.39342,1.5878,-1.97853e-15,1.78906e-15,-38.1014,7.03916,-92.6505,32.2925,8.15048,-21.7199,-49.7608,7.12502,4.67921,-79.6892,-1.97853e-15,1.78906e-15,-36.8059,-11.3789,94.7007,33.8493,10.8365,-33.4016,-27.2167,7.12502,-6.60193,2.66034,-22.5112,13.2268,20.3177,26.1734,-13.0795,-13.2638,-4.60321,-21.1822,-10.6937,-14.8477,26.599,-16.6852,17.3984,-2.34316
-0.742045,17.5376,1.07221,14.884,-4.73887,-3.75455,-12.7417,-0.0329497,3.15088,-5.18201,-0.472747,1.58827,1.69556,-0.262013,-0.189303,-16.6931,-2.24967,-6.00426,31.0158,-2.19908,2.29698,13.3188,-1.38561,1.57837,-9.6628e-15,7.55382e-15,-37.9705,6.89455,-92.6252,32.0366,8.33856,-21.5082,-49.8803,7.12502,4.88361,-79.804,-9.6628e-15,7.55382e-15,-36.818,-11.3756,94.6734,33.8501,10.724,-33.4167,-27.8021,7.12502,-6.6165,2.07451,-22.475,13.1758,20.3305,26.1535,-13.1719,-13.287,-4.47805,-21.2314,-10.7227,-14.8297,26.6405,-16.6876,17.2583,-1.57092
-0.744508,17.5397,1.07396,14.9795,-4.66285,-3.82976,-12.6297,-0.0400814,3.22383,-5.30787,-0.482093,1.5998,1.50241,-0.27095,-0.218612,-16.6456,-2.21583,-6.06152,31.0554,-2.17644,2.42073,13.3262,-1.36654,1.64147,-2.03444e-15,1.20265e-14,-38.0423,6.83677,-92.6463,31.8622,8.44809,-21.4597,-49.7806,7.12502,4.93049,-79.7033,-2.03444e-15,1.20265e-14,-37.0108,-11.3775,94.7025,33.8806,10.6346,-33.5959,-28.1587,7.12502,-6.78952,1.71241,-22.556,13.217,20.4048,26.1542,-13.1814,-13.36,-4.44849,-21.3985,-10.6381,-14.7083,26.6693,-16.6501,17.2096,0.184037
-0.748839,17.5344,1.07329,15.0252,-4.6725,-3.83733,-12.5384,-0.0447507,3.15932,-5.38715,-0.474755,1.61731,1.37141,-0.268635,-0.162448,-16.516,-2.20483,-6.17791,30.9855,-2.18426,2.57831,13.2724,-1.36227,1.72227,-4.72114e-16,-1.91827e-14,-38.146,6.89266,-92.6723,31.8627,8.3563,-21.2582,-49.9953,7.12502,5.125,-79.9133,-4.72114e-16,-1.91827e-14,-37.113,-11.4402,94.7572,33.8554,10.6364,-33.6253,-28.0277,7.12502,-6.81784,1.84257,-22.6323,13.3806,20.3915,26.1709,-13.1918,-13.4604,-4.23526,-21.4561,-10.4635,-14.692,26.6977,-16.6252,17.1588,-1.95603
-0.751749,17.5298,1.07405,14.9999,-4.66025,-3.83528,-12.4477,-0.0421565,3.12857,-5.35119,-0.46451,1.61228,1.36064,-0.262923,-0.1488,-16.6387,-2.21318,-6.21229,30.9476,-2.19819,2.64637,13.2848,-1.3616,1.75187,7.9607e-15,-8.05078e-15,-38.1509,6.91009,-92.6769,32.0363,8.26123,-21.0301,-50.3438,7.12502,5.34527,-80.2564,7.9607e-15,-8.05078e-15,-37.0091,-11.5681,94.7694,33.8297,10.7552,-33.4899,-28.0957,7.12502,-6.68713,1.77874,-22.6473,13.4098,20.4046,26.2287,-13.2312,-13.493,-4.15441,-21.3904,-10.3594,-14.7018,26.6965,-16.6328,16.9962,-2.65585
-0.751656,17.5289,1.07646,14.9804,-4.6306,-3.7972,-12.4237,-0.0406059,3.11905,-5.30781,-0.460682,1.58242,1.39298,-0.26036,-0.17404,-16.7359,-2.19655,-6.17263,30.9539,-2.17773,2.64305,13.3064,-1.34757,1.7468,-1.10791e-14,1.08338e-14,-38.1695,6.86476,-92.667,32.2072,8.32797,-21.1225,-50.2613,7.12502,5.25604,-80.1761,-1.10791e-14,1.08338e-14,-36.9877,-11.7606,94.8667,33.7243,10.9139,-33.8011,-29.2244,7.12502,-6.9876,0.640282,-22.6778,13.3163,20.386,26.3376,-13.2654,-13.4611,-4.17485,-21.3293,-10.3911,-14.7456,26.6517,-16.6203,16.9095,-2.64488
-0.753276,17.5291,1.07502,14.9845,-4.68463,-3.70107,-12.4073,-0.0423186,2.99002,-5.33076,-0.446516,1.56422,1.36184,-0.252367,-0.118416,-16.6388,-2.16186,-6.13323,30.9355,-2.13064,2.59725,13.2738,-1.32887,1.7298,-1.41945e-15,-7.95139e-15,-38.2879,6.91072,-92.6813,32.3453,8.26558,-21.0025,-50.3579,7.12502,5.37189,-80.2698,-1.41945e-15,-7.95139e-15,-37.142,-11.9415,95.0627,33.5593,11.2397,-34.2727,-30.4152,7.12502,-7.44281,-0.566178,-22.7803,13.4275,20.2542,26.4546,-13.2819,-13.5314,-3.96279,-21.3251,-10.4834,-14.8367,26.6086,-16.5638,17.0006,-2.50249
-0.754488,17.529,1.07514,14.9799,-4.72211,-3.57977,-12.3948,-0.0475935,2.83682,-5.30704,-0.435553,1.53692,1.38162,-0.244733,-0.0592863,-16.6489,-2.16373,-6.08773,30.8685,-2.12315,2.52947,13.2459,-1.32825,1.69565,-2.13197e-14,-2.98177e-15,-38.2886,6.94848,-92.6776,32.4,8.24413,-20.9042,-50.5256,7.12502,5.46689,-80.4351,-2.13197e-14,-2.98177e-15,-37.1171,-12.0604,95.143,33.4453,11.545,-34.3049,-30.6433,7.12502,-7.47389,-0.795305,-22.8317,13.382,20.1284,26.5515,-13.3502,-13.5452,-4.09089,-21.3263,-10.5296,-14.9692,26.593,-16.493,17.084,-2.69183
-0.755355,17.5286,1.07402,15.0398,-4.76396,-3.51109,-12.4162,-0.035876,2.74589,-5.24776,-0.411496,1.50992,1.45642,-0.230575,-0.03332,-16.7134,-2.18913,-6.07695,30.7234,-2.15518,2.52574,13.2001,-1.33884,1.68523,-8.10358e-15,8.94531e-16,-38.108,6.91948,-92.6499,32.341,8.36535,-21.0962,-50.4789,7.12502,5.28146,-80.3931,-8.10358e-15,8.94531e-16,-36.9071,-12.1452,95.1082,33.3699,11.636,-34.2302,-30.202,7.12502,-7.40175,-0.35147,-22.9327,13.2746,20.0567,26.615,-13.3573,-13.4804,-4.3103,-21.4288,-10.4383,-15.0459,26.6202,-16.451,17.0805,-2.95329
-0.757556,17.5314,1.06967,15.0844,-4.78974,-3.53398,-12.3379,-0.0123701,2.74294,-5.25161,-0.376598,1.50258,1.41076,-0.213681,-0.0343791,-16.6533,-2.21196,-6.15005,30.6128,-2.2086,2.64906,13.146,-1.35294,1.73661,-3.85145e-15,-9.74045e-15,-38.0736,6.88011,-92.6458,32.3905,8.37616,-21.0872,-50.6451,7.12502,5.29012,-80.5591,-3.85145e-15,-9.74045e-15,-36.9137,-12.2064,95.0997,33.4133,11.65,-34.2215,-29.7729,7.12502,-7.39334,0.0779513,-23.0308,13.3857,20.0637,26.6494,-13.257,-13.5286,-4.07011,-21.5775,-10.3582,-14.9952,26.685,-16.4456,16.9925,-2.09986
-0.758895,17.535,1.06958,15.0509,-4.7466,-3.5346,-12.2678,0.0109846,2.77411,-5.25344,-0.345123,1.46213,1.37105,-0.199109,-0.0895433,-16.4815,-2.25649,-6.2489,30.5047,-2.31313,2.83101,13.0733,-1.38559,1.80755,-1.95213e-15,-1.23246e-14,-38.1513,6.85612,-92.6882,32.4539,8.32975,-21.0966,-50.6077,7.12502,5.28112,-80.5219,-1.95213e-15,-1.23246e-14,-37.0331,-12.1738,95.0195,33.5641,11.4172,-33.8567,-28.7299,7.12502,-7.04125,1.13298,-23.0122,13.4162,20.0821,26.6851,-13.223,-13.5999,-3.97798,-21.6389,-10.4178,-14.9711,26.7406,-16.4339,16.9229,-0.739604
-0.761107,17.5333,1.06996,15.0519,-4.72231,-3.52582,-12.2266,0.025754,2.76403,-5.23109,-0.322607,1.43693,1.37251,-0.187735,-0.10705,-16.4386,-2.31683,-6.33206,30.3876,-2.42206,2.97052,13.0246,-1.42312,1.85768,7.3892e-15,-1.65985e-14,-38.106,6.94467,-92.7562,32.3632,8.21273,-21.2294,-50.3354,7.12502,5.1529,-80.2527,7.3892e-15,-1.65985e-14,-36.9813,-11.9651,94.8114,33.7193,10.9444,-33.0945,-27.1056,7.12502,-6.30542,2.78053,-23.0346,13.4513,20.0777,26.7164,-13.223,-13.648,-4.03004,-21.6488,-10.4512,-14.9702,26.7792,-16.4633,16.9327,-1.14663
-0.763568,17.5286,1.06755,15.0512,-4.7609,-3.52356,-12.0802,0.0231764,2.70555,-5.25036,-0.31349,1.44834,1.27404,-0.183479,-0.0607546,-16.4109,-2.33681,-6.42587,30.3106,-2.46585,3.10232,12.9924,-1.43486,1.91745,3.10601e-18,-1.98785e-16,-38.0618,7.08799,-92.8229,32.262,7.98667,-21.4128,-50.2735,7.12502,4.97573,-80.1951,3.10601e-18,-1.98785e-16,-36.9685,-11.9413,94.7885,33.6752,11.0153,-32.9236,-26.7907,7.12502,-6.14045,3.10034,-23.0782,13.5625,20.0639,26.7393,-13.2024,-13.6323,-3.74841,-21.6013,-10.4038,-14.9789,26.8106,-16.4887,16.9618,-2.65742
-0.76412,17.5291,1.07061,15.0707,-4.86219,-3.49914,-12.0487,0.0484689,2.66447,-5.27766,-0.273293,1.43039,1.22953,-0.163743,-0.0510068,-16.2688,-2.32834,-6.52046,30.2349,-2.48822,3.27072,12.9355,-1.43342,1.9955,7.32242e-15,1.78906e-14,-38.0968,7.19868,-92.9019,32.2383,7.78731,-21.7099,-50.1909,7.12502,4.68892,-80.119,7.32242e-15,1.78906e-14,-37.0677,-12.0602,94.8716,33.5521,11.2414,-33.2776,-26.8504,7.12502,-6.48217,3.03036,-23.1214,13.5485,20.0202,26.7535,-13.2337,-13.527,-3.76614,-21.619,-10.3755,-15.0256,26.8339,-16.4507,17.0505,-2.74839
-0.762424,17.5323,1.08096,15.1371,-4.87786,-3.53856,-12.1338,0.0693665,2.74975,-5.31492,-0.257498,1.42889,1.2363,-0.157305,-0.0985132,-16.2333,-2.30414,-6.54163,30.2739,-2.46892,3.32924,12.9439,-1.42039,2.02581,3.36847e-15,-1.2921e-14,-38.186,7.26778,-92.9419,32.2517,7.78482,-21.8014,-50.2418,7.12502,4.60051,-80.1719,3.36847e-15,-1.2921e-14,-37.1091,-11.7222,94.6805,33.5424,10.1777,-33.1548,-25.7309,7.12502,-6.36363,4.15352,-23.1558,13.369,20.0589,26.746,-13.309,-13.4165,-4.24134,-21.6951,-10.3774,-14.9985,26.8626,-16.4387,17.074,-2.13886
-0.760973,17.5349,1.08725,15.1744,-4.73605,-3.60149,-12.1248,0.0207936,2.86111,-5.3548,-0.333567,1.47313,1.18739,-0.197204,-0.124819,-16.2744,-2.26581,-6.50824,30.3437,-2.387,3.22341,12.9749,-1.39517,1.99263,2.95692e-15,-5.36719e-15,-38.2878,7.33355,-92.9309,32.3196,7.84057,-21.6741,-50.432,7.12502,4.72344,-80.3593,2.95692e-15,-5.36719e-15,-37.3578,-11.9831,94.9986,33.4102,11.345,-33.7429,-27.5388,7.12502,-6.93137,2.32776,-23.1485,13.2358,20.1491,26.737,-13.3716,-13.4059,-4.38767,-21.7626,-10.4217,-14.9077,26.9026,-16.4333,16.9642,-1.81927
-0.763613,17.5364,1.08794,15.2128,-4.66918,-3.61237,-12.0945,0.0136137,2.85705,-5.34408,-0.341571,1.47631,1.18206,-0.201019,-0.120213,-16.3203,-2.28084,-6.45316,30.2994,-2.39688,3.14863,12.9651,-1.402,1.95155,5.57684e-15,-2.48481e-14,-38.29,7.24063,-92.8985,32.3768,7.84559,-21.5854,-50.3965,7.12502,4.80913,-80.322,5.57684e-15,-2.48481e-14,-37.44,-12.2724,95.1625,33.3077,11.6983,-34.0653,-28.2635,7.12502,-7.24263,1.59255,-23.2132,13.3353,20.1515,26.7615,-13.4149,-13.482,-4.13153,-21.8464,-10.4326,-14.8567,26.9273,-16.4073,16.9345,-0.593997
-0.768551,17.5318,1.08729,15.2622,-4.72086,-3.59619,-12.041,0.0579542,2.77976,-5.35097,-0.271279,1.44482,1.14802,-0.165518,-0.100354,-16.3856,-2.34931,-6.29431,30.2681,-2.49711,3.01437,12.9676,-1.44463,1.855,-9.49197e-15,-6.16232e-15,-38.2889,7.03255,-92.8636,32.4078,7.9413,-21.493,-50.371,7.12502,4.89834,-80.2944,-9.49197e-15,-6.16232e-15,-37.4241,-12.532,95.199,33.242,11.8971,-33.9682,-28.2797,7.12502,-7.14885,1.57954,-23.3483,13.5278,20.097,26.8312,-13.432,-13.5758,-3.90913,-21.8661,-10.3679,-14.8613,26.9172,-16.4253,16.9906,-2.75706
-0.77023,17.5279,1.08772,15.2376,-4.6747,-3.56189,-11.9166,0.0253941,2.72903,-5.37885,-0.303099,1.4459,1.05139,-0.181846,-0.0744112,-16.4611,-2.39922,-6.15502,30.2803,-2.5433,2.81352,12.9867,-1.47546,1.74488,3.06563e-15,-1.68967e-15,-38.3725,7.00648,-92.8567,32.4853,8.0471,-21.4895,-50.3625,7.12502,4.90169,-80.2858,3.06563e-15,-1.68967e-15,-37.4399,-12.5077,95.1574,33.2113,11.9841,-33.9656,-28.3997,7.12502,-7.14635,1.45964,-23.3727,13.5932,20.0637,26.9317,-13.4994,-13.6598,-3.60421,-21.8015,-10.3072,-14.9017,26.889,-16.4403,16.9426,-3.42902
-0.768347,17.5275,1.089,15.1955,-4.52985,-3.56199,-11.7968,-0.0359743,2.78615,-5.40226,-0.38495,1.45116,0.959903,-0.224638,-0.110767,-16.3848,-2.39939,-6.19032,30.2021,-2.54756,2.84647,12.9392,-1.4768,1.76261,2.28447e-15,5.76476e-15,-38.4083,7.1046,-92.9065,32.4536,8.05386,-21.4807,-50.4479,7.12502,4.9102,-80.371,2.28447e-15,5.76476e-15,-37.4958,-12.2852,95.0083,33.2849,11.6537,-33.9416,-28.1451,7.12502,-7.12316,1.71502,-23.3364,13.5158,20.0957,27.0336,-13.6163,-13.7002,-3.25211,-21.7481,-10.2158,-14.9099,26.8679,-16.4407,16.7132,-3.17957
-0.767174,17.525,1.09367,15.1865,-4.47297,-3.58123,-11.7839,-0.0490835,2.85878,-5.40553,-0.409067,1.43918,0.948104,-0.238085,-0.166874,-16.1086,-2.36228,-6.29874,30.0256,-2.52605,3.00066,12.81,-1.4593,1.84402,6.89224e-15,1.26228e-14,-38.4044,7.20475,-92.9722,32.4023,7.92122,-21.1781,-50.7888,7.12502,5.20235,-80.705,6.89224e-15,1.26228e-14,-37.5183,-11.9908,94.7709,33.4075,11.073,-33.5218,-27.4126,7.12502,-6.718,2.46081,-23.3227,13.3939,20.1412,27.0992,-13.6832,-13.697,-3.34763,-21.7051,-10.1126,-14.9144,26.8734,-16.5138,16.4896,-3.01695
-0.767168,17.5218,1.10294,15.1712,-4.49203,-3.5699,-11.8806,-0.0481233,2.87286,-5.34748,-0.414586,1.42588,1.06062,-0.239497,-0.189886,-16.0033,-2.32713,-6.2784,29.9343,-2.47639,2.96956,12.7465,-1.43882,1.8357,-3.45233e-15,4.57205e-15,-38.3932,7.24218,-92.9915,32.554,7.69541,-20.6829,-51.367,7.12502,5.68055,-81.2709,-3.45233e-15,4.57205e-15,-37.5266,-11.847,94.6643,33.443,10.9688,-33.3764,-27.5868,7.12502,-6.5776,2.29107,-23.2922,13.3028,20.1443,27.1415,-13.7487,-13.6617,-3.62083,-21.6467,-10.0749,-14.9557,26.903,-16.6409,16.4288,-2.96351
-0.768374,17.5206,1.10878,15.1565,-4.50409,-3.56245,-11.9518,-0.056944,2.86612,-5.23107,-0.431351,1.41677,1.22025,-0.245131,-0.198427,-16.2554,-2.34023,-6.18158,29.9612,-2.47915,2.88142,12.8082,-1.43888,1.78352,-2.03754e-15,-9.0447e-15,-38.2182,7.26546,-93.0066,32.4611,7.98694,-20.9315,-50.7953,7.12502,5.44051,-80.7055,-2.03754e-15,-9.0447e-15,-37.503,-11.9533,94.7152,33.3414,11.3861,-33.6832,-28.9877,7.12502,-6.87376,0.880668,-23.2945,13.2876,20.1419,27.1922,-13.8085,-13.6276,-3.6804,-21.6269,-10.1018,-14.9651,26.9419,-16.6849,16.5115,-2.98928
-0.77226,17.5197,1.10724,15.1576,-4.52653,-3.56746,-11.9119,-0.0708845,2.81587,-5.12483,-0.445805,1.4295,1.30984,-0.249705,-0.159065,-16.5103,-2.38064,-6.17294,29.9113,-2.51595,2.86421,12.8434,-1.45366,1.76763,-1.28899e-16,-2.03754e-15,-37.9659,7.31593,-92.9906,32.3787,8.0797,-21.0337,-50.4591,7.12502,5.34183,-80.3717,-1.28899e-16,-2.03754e-15,-37.385,-12.0121,94.7101,33.2467,11.5499,-33.9991,-30.0386,7.12502,-7.1787,-0.180393,-23.3512,13.3435,20.1537,27.2449,-13.8033,-13.6161,-3.54941,-21.6782,-10.1145,-14.938,26.995,-16.6308,16.6224,-3.25721
-0.774054,17.5178,1.10435,15.1835,-4.52948,-3.5653,-11.8674,-0.0573873,2.80889,-5.07359,-0.426298,1.41499,1.33963,-0.239247,-0.167715,-16.547,-2.43328,-6.20954,29.7824,-2.58499,2.89273,12.8031,-1.48249,1.7723,-1.32324e-14,2.01766e-14,-37.8845,7.27716,-92.9523,32.3941,8.15751,-20.9896,-50.4514,7.12502,5.38435,-80.363,-1.32324e-14,2.01766e-14,-37.2824,-12.0254,94.6419,33.2032,11.3838,-34.2028,-30.0561,7.12502,-7.37531,-0.204683,-23.4203,13.3107,20.158,27.2966,-13.8104,-13.5464,-3.31214,-21.7595,-10.0785,-14.9306,27.0686,-16.5971,16.61,-3.41498
-0.772484,17.5158,1.10446,15.2315,-4.54411,-3.57617,-11.9154,-0.00971413,2.89461,-5.06388,-0.373601,1.3696,1.37576,-0.21392,-0.256482,-16.4521,-2.45951,-6.28285,29.7077,-2.64854,3.02656,12.759,-1.50086,1.82633,-8.40176e-16,-1.97791e-14,-37.9092,7.1827,-92.9431,32.4138,8.23343,-21.2543,-50.0804,7.12502,5.12883,-79.9984,-8.40176e-16,-1.97791e-14,-37.3254,-12.0475,94.5838,33.1157,11.1117,-34.1694,-29.781,7.12502,-7.34313,0.0715239,-23.491,13.1619,20.1662,27.3439,-13.8821,-13.3835,-3.27709,-21.8494,-9.95388,-14.9428,27.1677,-16.6378,16.489,-3.40076
-0.774439,17.5147,1.10274,15.2594,-4.54956,-3.59181,-11.9232,0.00309821,2.90769,-5.07761,-0.358072,1.37123,1.36592,-0.20654,-0.260133,-16.283,-2.43179,-6.41544,29.6078,-2.63436,3.20528,12.6863,-1.48609,1.92022,1.32549e-15,1.799e-14,-37.9143,7.1731,-92.9353,32.4035,8.22859,-21.6285,-49.5951,7.12502,4.76752,-79.5214,1.32549e-15,1.799e-14,-37.4896,-11.9778,94.551,33.0197,10.8598,-33.9992,-29.7282,7.12502,-7.17879,0.13004,-23.5513,13.1513,20.1869,27.3807,-13.8522,-13.4083,-3.64034,-21.9623,-9.79468,-14.927,27.2833,-16.6962,16.2982,-3.42709
-0.781414,17.5135,1.10204,15.2776,-4.5609,-3.66036,-11.9925,0.0146424,2.87537,-5.00081,-0.344988,1.40621,1.48449,-0.197303,-0.204416,-16.3237,-2.43712,-6.43649,29.4961,-2.63983,3.23717,12.6503,-1.48473,1.9337,7.13218e-15,-9.93923e-15,-37.7149,7.15571,-92.9049,32.3839,8.06088,-21.4896,-50.0183,7.12502,4.90165,-79.9416,7.13218e-15,-9.93923e-15,-37.5492,-11.973,94.514,32.999,10.748,-34.0258,-29.3856,7.12502,-7.20451,0.471755,-23.596,13.3799,20.2632,27.398,-13.6866,-13.6594,-3.7086,-22.069,-9.75636,-14.811,27.399,-16.7599,16.2308,-3.32853
-0.786691,17.5114,1.10574,15.2774,-4.6283,-3.75443,-12.113,0.0547477,2.89766,-4.88046,-0.30321,1.42764,1.67626,-0.173382,-0.189817,-16.4868,-2.47493,-6.3416,29.4434,-2.67173,3.11534,12.6617,-1.50202,1.86381,2.3535e-14,-2.53947e-14,-37.4685,7.12536,-92.8727,32.3395,7.92179,-21.2555,-50.567,7.12502,5.12769,-80.485,2.3535e-14,-2.53947e-14,-37.4429,-11.8564,94.341,33.038,10.528,-33.7606,-28.3094,7.12502,-6.94851,1.55657,-23.6058,13.6123,20.353,27.4083,-13.6354,-13.7947,-3.43297,-22.1046,-9.7915,-14.6902,27.497,-16.8465,16.3493,-3.12572
-0.788195,17.5133,1.11029,15.2387,-4.62984,-3.73044,-12.084,0.0348327,2.85956,-4.83712,-0.3254,1.43384,1.70564,-0.183341,-0.164936,-16.5249,-2.52116,-6.35541,29.4154,-2.71349,3.0587,12.6605,-1.529,1.83709,7.43501e-17,-8.10048e-15,-37.3892,7.2246,-92.8774,32.2538,7.96186,-21.2968,-50.4764,7.12502,5.08777,-80.3953,7.43501e-17,-8.10048e-15,-37.3426,-11.4071,94.0351,33.1354,10.1692,-33.0564,-27.1567,7.12502,-6.26866,2.7305,-23.5734,13.6692,20.3326,27.4364,-13.6869,-13.8277,-3.44011,-22.1045,-9.8554,-14.7073,27.5589,-16.9225,16.4193,-2.31518
-0.786932,17.5157,1.11464,15.2033,-4.5703,-3.64577,-11.9245,0.00861714,2.80644,-4.85119,-0.346191,1.39924,1.60424,-0.194624,-0.173279,-16.6141,-2.57785,-6.37747,29.436,-2.79012,3.07983,12.6931,-1.56209,1.83655,-6.65832e-15,-1.59028e-15,-37.4358,7.27249,-92.9148,32.2235,7.93769,-21.5062,-50.18,7.12502,4.8856,-80.1036,-6.65832e-15,-1.59028e-15,-37.3676,-11.1996,93.8699,33.217,10.0895,-32.7764,-26.6792,7.12502,-5.99834,3.21591,-23.5375,13.5993,20.2523,27.4945,-13.7818,-13.8107,-3.23152,-22.1018,-9.88599,-14.8021,27.6018,-16.9937,16.395,-0.337709
-0.784473,17.5109,1.11154,15.1479,-4.48927,-3.58693,-11.6086,-0.00682082,2.79738,-4.91249,-0.349958,1.35425,1.36867,-0.199754,-0.214223,-16.6663,-2.61416,-6.3299,29.4445,-2.84684,3.05674,12.7096,-1.5845,1.81019,1.93415e-14,-2.55935e-14,-37.5923,7.23857,-92.9506,32.2655,7.85687,-21.6751,-49.9948,7.12502,4.72252,-79.9221,1.93415e-14,-2.55935e-14,-37.4905,-11.4987,93.9882,33.0551,10.3865,-33.2002,-27.577,7.12502,-6.40751,2.30607,-23.5043,13.528,20.2064,27.5832,-13.921,-13.8318,-3.09855,-22.0683,-9.85123,-14.8836,27.6557,-17.048,16.3459,-2.3178
-0.785638,17.5049,1.1022,15.1034,-4.41144,-3.57781,-11.356,-0.0367674,2.7928,-4.9236,-0.378295,1.34235,1.21928,-0.215608,-0.226558,-16.5963,-2.63416,-6.30986,29.3602,-2.873,3.01835,12.6611,-1.5986,1.78725,2.63331e-15,-2.34317e-14,-37.6786,7.18053,-92.9572,32.3285,7.92666,-21.8527,-49.7736,7.12502,4.55104,-79.7047,2.63331e-15,-2.34317e-14,-37.5702,-11.8439,94.1548,32.7809,10.6683,-33.9843,-29.2187,7.12502,-7.16441,0.640023,-23.5379,13.5272,20.2295,27.6994,-13.9766,-13.9532,-3.4858,-22.1107,-9.7552,-14.8841,27.7399,-17.0504,16.2892,-3.10997
-0.786224,17.5008,1.1027,15.0975,-4.37414,-3.61296,-11.3374,-0.0264652,2.85858,-4.85136,-0.371924,1.31898,1.28376,-0.212078,-0.287122,-16.6684,-2.63078,-6.19723,29.3049,-2.86856,2.93191,12.6497,-1.594,1.73428,-9.41446e-15,1.46604e-15,-37.6269,7.06056,-92.9523,32.3808,7.99182,-21.9852,-49.6371,7.12502,4.42306,-79.5709,-9.41446e-15,1.46604e-15,-37.5482,-11.9797,94.1417,32.6448,10.7263,-34.4666,-30.059,7.12502,-7.62995,-0.216601,-23.6014,13.4299,20.2947,27.8274,-14.0384,-13.9163,-3.83957,-22.1892,-9.60221,-14.8575,27.8657,-17.1177,16.1897,-3.2098
-0.78466,17.497,1.11072,15.0688,-4.34262,-3.56281,-11.3159,-0.0433565,2.85424,-4.79905,-0.393604,1.29102,1.32584,-0.222159,-0.31638,-16.8612,-2.61467,-6.09827,29.3262,-2.83918,2.85825,12.694,-1.57811,1.69254,-9.50522e-15,-4.37326e-15,-37.5839,7.01503,-92.9499,32.4432,8.09674,-21.7409,-49.974,7.12502,4.65894,-79.9027,-9.50522e-15,-4.37326e-15,-37.5464,-11.9088,94.0359,32.6849,10.6922,-34.5063,-29.7922,7.12502,-7.66825,0.0487587,-23.5944,13.2564,20.2601,27.9444,-14.2222,-13.8241,-4.00987,-22.26,-9.42551,-14.9594,28.0513,-17.2347,16.0071,-2.77072
-0.787596,17.4946,1.11389,15.0514,-4.35258,-3.47482,-11.2124,-0.0692474,2.7387,-4.78969,-0.411678,1.27328,1.2799,-0.230437,-0.271656,-16.9967,-2.64365,-6.1554,29.3631,-2.86995,2.90552,12.7412,-1.59109,1.7151,-9.89465e-15,6.63444e-15,-37.5647,6.97522,-92.9491,32.5522,8.214,-21.5343,-50.3427,7.12502,4.85841,-80.267,-9.89465e-15,6.63444e-15,-37.6042,-11.8492,93.9754,32.7538,10.6904,-34.4688,-28.9019,7.12502,-7.63207,0.940344,-23.6325,13.3041,20.1603,28.0861,-14.4171,-13.8823,-3.77916,-22.4248,-9.17847,-15.0783,28.2595,-17.3005,15.7675,-1.56996
-0.795028,17.4882,1.11345,15.0409,-4.41918,-3.54955,-11.1777,-0.0248714,2.74615,-4.74264,-0.353379,1.27035,1.31133,-0.200702,-0.271894,-17.0307,-2.70435,-6.23683,29.3511,-2.96402,3.01234,12.7522,-1.62706,1.75487,1.10649e-14,-1.87603e-14,-37.5164,6.99046,-92.9995,32.6055,8.0276,-21.7377,-50.2435,7.12502,4.66201,-80.1722,1.10649e-14,-1.87603e-14,-37.6121,-11.9659,93.9435,32.6641,10.7318,-34.4549,-29.1275,7.12502,-7.61865,0.715253,-23.739,13.645,20.2198,28.2855,-14.5177,-14.038,-3.22443,-22.586,-8.88468,-14.9923,28.4905,-17.3646,15.6229,-1.08436
-0.792297,17.478,1.10922,15.0021,-4.23536,-3.52378,-11.1984,-0.0535605,2.83561,-4.65268,-0.402526,1.23478,1.41384,-0.224509,-0.365293,-16.9716,-2.72008,-6.33107,29.2096,-2.99578,3.13219,12.6876,-1.63451,1.81116,9.91259e-15,-6.94504e-15,-37.4052,7.07413,-93.0175,32.6221,7.79468,-21.8349,-50.134,7.12502,4.5682,-80.0648,9.91259e-15,-6.94504e-15,-37.5644,-12.0085,93.8872,32.6552,10.8657,-34.3168,-29.9604,7.12502,-7.48538,-0.112802,-23.817,13.3805,20.2466,28.5594,-14.694,-13.9224,-2.93495,-22.6965,-8.70088,-15.04,28.7153,-17.4299,15.3968,-2.20329
-0.802952,17.4621,1.1011,15.036,-4.34592,-3.59762,-11.1708,-0.0232581,2.73447,-4.60552,-0.354,1.31371,1.45065,-0.197839,-0.220871,-16.9697,-2.71017,-6.47844,29.064,-2.96185,3.22939,12.6305,-1.62117,1.87776,-1.28239e-15,-6.5102e-15,-37.3132,7.0652,-92.919,32.6988,7.80701,-21.5785,-50.2136,7.12502,4.81577,-80.1389,-1.28239e-15,-6.5102e-15,-37.5371,-11.8356,93.8344,32.8187,11.102,-34.1245,-29.5293,7.12502,-7.29977,0.324744,-24.1246,13.7064,20.2944,28.9218,-14.7344,-14.1446,-2.94706,-22.8473,-8.38038,-14.9534,28.9617,-17.5973,15.2722,-3.59302
-0.796046,17.4535,1.08937,15.0742,-4.15691,-3.55302,-10.8538,-0.0903748,2.80869,-4.71895,-0.435228,1.3314,1.15747,-0.243105,-0.252202,-17.0011,-2.71301,-6.5724,29.0641,-2.94228,3.25504,12.6385,-1.61928,1.90667,1.56116e-14,-1.30452e-14,-37.482,7.02513,-92.8534,32.86,7.8223,-21.4234,-50.3857,7.12502,4.96552,-80.3075,1.56116e-14,-1.30452e-14,-37.7211,-11.5822,93.8102,32.9596,11.2561,-34.149,-29.0195,7.12502,-7.3234,0.833794,-24.4166,13.2403,20.2826,29.3512,-14.9716,-13.9355,-3.02939,-23.0641,-8.20728,-15.0284,29.2391,-17.759,15.0079,-4.30395
-0.798672,17.4406,1.085,15.1034,-4.2036,-3.48741,-10.5065,-0.112,2.70681,-4.87,-0.436593,1.33067,0.812247,-0.247428,-0.193649,-16.9909,-2.68748,-6.53189,29.0799,-2.90227,3.20122,12.6387,-1.60462,1.8856,-8.03098e-15,9.93923e-15,-37.7589,7.04419,-92.907,33.0417,7.67841,-21.4136,-50.7596,7.12502,4.97504,-80.6812,-8.03098e-15,9.93923e-15,-37.9984,-11.3109,93.7021,33.0469,11.0391,-34.0495,-28.9605,7.12502,-7.22736,0.896096,-24.733,13.2143,20.2034,29.7956,-15.2354,-13.8398,-2.49332,-23.3162,-7.85435,-15.1301,29.5757,-17.8894,14.7463,-4.26473
-0.807579,17.4235,1.08629,15.1528,-4.40057,-3.53168,-10.3707,-0.0479539,2.62765,-4.89161,-0.338544,1.32257,0.718664,-0.198523,-0.146337,-17.0105,-2.65621,-6.49196,28.9674,-2.88331,3.25907,12.5956,-1.58249,1.9027,3.4499e-15,-4.29872e-15,-37.7744,7.00613,-92.9576,33.1136,7.73882,-21.2263,-50.9796,7.12502,5.15589,-80.8969,3.4499e-15,-4.29872e-15,-37.9555,-11.1445,93.4557,33.0045,10.3747,-33.628,-28.6792,7.12502,-6.82048,1.1909,-25.0578,13.5482,20.2074,30.2342,-15.4009,-13.9928,-2.37802,-23.5631,-7.3774,-15.1147,29.9452,-18.0329,14.5109,-4.27597
-0.809605,17.4091,1.08949,15.1642,-4.38048,-3.58335,-10.3049,-0.0140712,2.69562,-4.85617,-0.297567,1.29259,0.719737,-0.178997,-0.210998,-16.9456,-2.68192,-6.54853,28.7114,-2.95888,3.44224,12.4867,-1.59557,1.96808,-7.71533e-15,-2.01269e-15,-37.7074,6.93655,-92.9685,33.0683,7.98806,-21.0401,-50.8363,7.12502,5.33566,-80.7492,-7.71533e-15,-2.01269e-15,-37.8223,-11.0879,93.2548,32.9328,9.70201,-33.5278,-28.2665,7.12502,-6.72378,1.60676,-25.2663,13.5112,20.291,30.6874,-15.6161,-14.095,-2.87922,-23.7849,-6.99639,-15.0942,30.3618,-18.2366,14.2116,-4.52841
-0.80845,17.3944,1.09196,15.1629,-4.23309,-3.60963,-10.1481,-0.054313,2.76352,-4.90786,-0.349816,1.30936,0.578723,-0.207812,-0.23654,-16.718,-2.68478,-6.5795,28.4192,-2.97724,3.48847,12.3244,-1.60011,1.98584,2.07598e-15,1.04859e-14,-37.9046,7.03218,-92.9909,33.1229,8.0599,-21.1473,-50.5969,7.12502,5.23209,-80.5123,2.07598e-15,1.04859e-14,-37.9474,-10.9672,93.2074,33.0397,9.50284,-33.311,-27.1174,7.12502,-6.51446,2.7624,-25.4615,13.1582,20.4044,31.1819,-15.8652,-14.0726,-3.48148,-24.0337,-6.67768,-15.0943,30.8236,-18.5754,13.8244,-4.48092
-0.811765,17.3763,1.09234,15.1824,-4.2821,-3.60442,-10.0046,-0.063586,2.68897,-4.97892,-0.348815,1.35089,0.427591,-0.207842,-0.150888,-16.4917,-2.62306,-6.58441,28.2072,-2.88664,3.45306,12.1871,-1.56478,1.98598,1.32574e-14,-9.0944e-15,-38.2155,7.17488,-93.0114,33.3227,7.98491,-21.3692,-50.4346,7.12502,5.01789,-80.3552,1.32574e-14,-9.0944e-15,-38.1596,-10.7705,93.1855,33.2398,9.61061,-32.1041,-24.8398,7.12502,-5.34927,5.07271,-25.7834,13.0481,20.4275,31.7331,-16.0659,-14.0783,-4.10959,-24.3277,-6.30337,-15.136,31.3322,-18.9197,13.5374,-4.06762
-0.816763,17.3551,1.08772,15.1948,-4.4271,-3.52425,-9.89173,-0.0360925,2.53072,-4.97832,-0.29427,1.34317,0.369057,-0.178605,-0.0642383,-16.4271,-2.58264,-6.57237,28.0049,-2.82,3.41682,12.0888,-1.5366,1.97835,2.19626e-14,2.80783e-15,-38.3118,7.30892,-93.0617,33.5619,7.52125,-21.3121,-50.7834,7.12502,5.07299,-80.7026,2.19626e-14,2.80783e-15,-38.2568,-10.6707,93.1554,33.3342,9.84856,-33.2576,-27.8258,7.12502,-6.46289,2.05561,-26.2064,13.0306,20.3323,32.3736,-16.373,-13.9839,-4.32604,-24.6772,-5.93037,-15.2602,31.9053,-19.2119,13.3747,-4.03663
-0.822427,17.3308,1.08184,15.1985,-4.53128,-3.55235,-9.73201,-0.0111318,2.49287,-4.93056,-0.253324,1.35198,0.332508,-0.157397,-0.0295938,-16.5536,-2.54615,-6.49378,27.8413,-2.75613,3.34745,12.0437,-1.50536,1.94586,-2.23159e-14,-5.73991e-15,-38.2,7.39296,-93.11,33.374,7.76634,-22.046,-50.0979,7.12502,4.36437,-80.0329,-2.23159e-14,-5.73991e-15,-38.2703,-10.7362,93.1857,33.2157,10.0139,-32.475,-24.1705,7.12502,-5.70732,5.73259,-26.6676,12.9995,20.3723,33.1114,-16.7249,-13.8537,-4.30402,-25.0631,-5.57721,-15.2527,32.5681,-19.5047,13.2459,-4.40319
-0.825227,17.3045,1.07765,15.3444,-4.64113,-3.52985,-9.67228,0.016557,2.44132,-4.93118,-0.209813,1.327,0.300292,-0.135375,-0.0221078,-16.766,-2.5229,-6.41823,27.7272,-2.72489,3.34018,12.0385,-1.48084,1.93258,-1.49001e-14,6.93262e-15,-38.0452,7.30107,-93.114,33.3449,7.83485,-21.9733,-50.1051,7.12502,4.43453,-80.0387,-1.49001e-14,6.93262e-15,-38.2954,-10.8643,93.2095,33.0714,9.86769,-33.9627,-30.2901,7.12502,-7.14352,-0.430659,-27.3177,12.8537,20.3244,33.9226,-17.096,-13.638,-4.28549,-25.6338,-5.16357,-15.3165,33.3183,-19.8315,13.0637,-4.71762
-0.823873,17.2726,1.07001,15.4599,-4.73135,-3.42043,-9.57699,0.0658714,2.37464,-4.91837,-0.134485,1.23519,0.262991,-0.0978063,-0.0721312,-16.915,-2.58255,-6.30788,27.5292,-2.82015,3.31119,11.994,-1.51181,1.88502,8.9557e-15,-2.168e-14,-38.002,7.13722,-93.1097,33.5428,7.79285,-21.6152,-50.5285,7.12502,4.78037,-80.4545,8.9557e-15,-2.168e-14,-38.2813,-11.0595,93.1717,33.138,10.1041,-33.7651,-28.0067,7.12502,-6.95282,1.85912,-27.9632,12.5711,20.1878,34.7874,-17.5045,-13.4497,-4.73049,-26.2304,-4.71324,-15.5012,34.1394,-20.261,12.7756,-5.06982
-0.823612,17.2366,1.06116,15.385,-4.69714,-3.41564,-9.296,0.0784632,2.42837,-4.85123,-0.113111,1.19426,0.178936,-0.088691,-0.142397,-16.8869,-2.61463,-6.24958,27.2087,-2.87123,3.28896,11.8643,-1.52825,1.85552,-2.38895e-14,1.1177e-14,-37.9401,7.18614,-93.1412,33.6885,7.66556,-21.613,-50.5513,7.12502,4.7825,-80.4773,-2.38895e-14,1.1177e-14,-38.2019,-11.1554,93.0961,33.2586,10.7417,-32.2671,-22.549,7.12502,-5.50664,7.35943,-28.4093,12.3289,20.2367,35.7536,-17.9313,-13.5248,-5.64414,-26.6942,-4.246,-15.5626,35.0768,-20.7523,12.3668,-5.41777
-0.823647,17.2003,1.05604,15.3406,-4.58594,-3.41571,-9.11666,0.0357587,2.48436,-4.80616,-0.168903,1.20657,0.126027,-0.117562,-0.166067,-16.7284,-2.57554,-6.30397,26.8491,-2.81544,3.33832,11.691,-1.50029,1.88884,-1.04176e-14,1.21134e-16,-37.7704,7.50613,-93.2176,33.6554,7.4075,-21.6283,-50.3741,7.12502,4.76769,-80.3005,-1.04176e-14,1.21134e-16,-38.1902,-11.0873,93.0401,33.3577,10.9939,-31.226,-19.6023,7.12502,-4.50136,10.3299,-28.8882,11.9711,20.3117,36.7623,-18.4758,-13.4929,-5.97181,-27.2173,-3.77701,-15.6129,36.0782,-21.2088,11.9257,-5.63228
-0.822804,17.1512,1.04497,15.3558,-4.44881,-3.39948,-8.90805,-0.02523,2.51951,-4.85686,-0.244075,1.22983,-0.0426466,-0.157489,-0.167808,-16.507,-2.54256,-6.38661,26.5144,-2.77525,3.42025,11.5178,-1.47894,1.93702,-1.12166e-15,-6.49777e-15,-37.7783,7.8261,-93.311,33.6491,7.06752,-21.3922,-50.4454,7.12502,4.99565,-80.3665,-1.12166e-15,-6.49777e-15,-38.391,-11.0236,93.0194,33.5277,10.9167,-31.371,-20.1313,7.12502,-4.64139,9.7979,-29.5114,11.5145,20.3665,37.8358,-19.1026,-13.2777,-5.79674,-27.917,-3.39774,-15.6556,37.1795,-21.6186,11.5272,-5.73453
-0.825313,17.1093,1.03097,15.3668,-4.27538,-3.4136,-8.71627,-0.0965722,2.5571,-4.89177,-0.333932,1.25548,-0.186154,-0.204476,-0.169261,-16.3722,-2.51864,-6.48046,26.219,-2.75676,3.56077,11.3802,-1.46065,2.00515,1.86058e-14,-2.50841e-14,-37.9359,8.10067,-93.4381,33.8009,6.64479,-21.3167,-50.2092,7.12502,5.06858,-80.1286,1.86058e-14,-2.50841e-14,-38.5574,-11.0418,92.9912,33.652,10.969,-31.6875,-20.5722,7.12502,-4.94699,9.35001,-30.1527,11.1886,20.4632,38.945,-19.6558,-13.1503,-5.55181,-28.6806,-3.10241,-15.6176,38.3394,-22.0245,11.1982,-5.85185
-0.827142,17.0638,1.02175,15.3843,-4.07522,-3.41711,-8.85649,-0.123481,2.65751,-4.63567,-0.387711,1.20645,0.153784,-0.228268,-0.282431,-16.8061,-2.5805,-6.33404,25.943,-2.82695,3.48057,11.3619,-1.48039,1.93483,-3.42132e-15,2.58886e-15,-37.6869,8.11605,-93.4632,34.146,6.55825,-21.4262,-49.9598,7.12502,4.96286,-79.8817,-3.42132e-15,2.58886e-15,-38.2434,-11.3007,92.8997,33.7706,11.2591,-31.6459,-20.7544,7.12502,-4.90679,9.16875,-30.8221,10.8873,20.5443,40.1372,-20.2091,-12.9742,-5.03098,-29.4776,-2.80688,-15.6011,39.5851,-22.4935,10.8817,-6.08012
-0.825065,17.0092,1.01516,15.4322,-3.93014,-3.41666,-8.5515,-0.14904,2.71541,-4.62853,-0.414244,1.19324,-0.00763121,-0.244233,-0.329219,-17.2816,-2.65344,-6.09161,25.8169,-2.88534,3.19507,11.4034,-1.5127,1.77537,1.70402e-14,-9.63174e-15,-37.7675,8.02169,-93.4076,34.6198,6.75257,-21.1307,-50.5666,7.12502,5.24812,-80.4816,1.70402e-14,-9.63174e-15,-38.3692,-11.6109,93.0059,33.954,11.508,-31.7767,-21.4419,7.12502,-5.03315,8.47837,-31.5528,10.5603,20.5924,41.3755,-20.7228,-12.7199,-4.37785,-30.3017,-2.45191,-15.6373,40.8595,-22.9709,10.5657,-6.60383
-0.824652,16.9488,1.00927,15.4638,-3.90534,-3.40816,-8.33641,-0.128207,2.75812,-4.58477,-0.382178,1.18402,-0.0802067,-0.229386,-0.359118,-17.4206,-2.74987,-6.14487,25.4461,-2.99796,3.22896,11.298,-1.55967,1.77564,-1.91699e-17,-2.59041e-15,-37.8596,8.016,-93.356,35.0838,6.74458,-20.8519,-51.0067,7.12502,5.51736,-80.9149,-1.91699e-17,-2.59041e-15,-38.5277,-12.1061,93.2331,34.0472,11.3925,-33.0499,-24.0566,7.12502,-6.26243,5.83085,-32.3333,10.2701,20.6267,42.7071,-21.264,-12.6621,-4.59395,-31.1221,-2.02862,-15.7093,42.2153,-23.5887,10.2864,-6.86081
-0.825351,16.8909,0.999717,15.4762,-3.84699,-3.31664,-8.0625,-0.141598,2.70315,-4.59197,-0.385382,1.18916,-0.237846,-0.231637,-0.321845,-17.2428,-2.77737,-6.26993,24.9134,-3.01739,3.29506,11.0671,-1.56906,1.81468,-2.12797e-14,-1.30452e-14,-38.0889,8.13924,-93.3225,35.5709,6.62435,-21.0489,-50.6463,7.12502,5.32715,-80.5593,-2.12797e-14,-1.30452e-14,-38.6034,-12.066,93.1579,34.7749,11.7221,-33.2533,-25.2841,7.12502,-6.45878,4.59738,-33.1433,9.93555,20.5904,44.1219,-21.9353,-12.8101,-5.47331,-31.9707,-1.65506,-15.8537,43.6424,-24.2797,9.90012,-6.3715
-0.827857,16.8233,0.983167,15.5423,-3.79017,-3.3159,-7.80914,-0.156589,2.67733,-4.53022,-0.395557,1.22619,-0.313175,-0.236066,-0.268995,-17.3422,-2.73564,-6.26204,24.3795,-2.93766,3.28545,10.8825,-1.52713,1.81637,8.84204e-15,-1.05853e-14,-38.0537,8.26665,-93.2716,36.0007,6.49643,-20.8587,-50.6645,7.12502,5.51082,-80.5728,8.84204e-15,-1.05853e-14,-38.46,-11.9968,92.9966,35.3413,11.7767,-33.2685,-26.7098,7.12502,-6.47339,3.17124,-34.0652,9.78771,20.6251,45.6029,-22.5847,-13.0022,-5.8238,-32.9399,-1.27033,-15.8791,45.1152,-24.8239,9.53174,-6.23999
-0.832518,16.7447,0.965118,15.6165,-3.81323,-3.39311,-7.77291,-0.134919,2.67686,-4.26295,-0.371992,1.26341,-0.0557879,-0.219054,-0.229737,-17.647,-2.70234,-6.22802,23.7245,-2.8899,3.38212,10.6971,-1.48112,1.84518,6.91476e-15,-2.08724e-15,-37.6318,8.39771,-93.2153,36.3818,6.341,-20.7903,-50.7052,7.12502,5.57681,-80.6118,6.91476e-15,-2.08724e-15,-38.0434,-12.2989,92.94,35.6953,11.9661,-33.3611,-27.2866,7.12502,-6.56286,2.59169,-35.0535,9.84503,20.7135,47.1395,-23.1682,-13.1452,-5.82021,-33.9134,-0.873407,-15.8227,46.6115,-25.3533,9.40147,-6.94075
-0.833597,16.6707,0.951118,15.6224,-3.75844,-3.25492,-7.18732,-0.145779,2.56412,-4.41716,-0.353327,1.20865,-0.537253,-0.214257,-0.21812,-16.9879,-2.62821,-6.51326,22.8942,-2.858,3.87542,10.2776,-1.43228,2.07098,1.87984e-14,-1.68097e-14,-37.9986,8.47964,-93.2897,36.8278,6.2374,-21.4361,-50.2715,7.12502,4.95324,-80.1936,1.87984e-14,-1.68097e-14,-38.4888,-12.7356,93.1447,35.9503,12.0109,-33.166,-25.8358,7.12502,-6.37451,4.04825,-36.004,9.72165,20.5889,48.7136,-23.7624,-13.1556,-5.67943,-34.8003,-0.614377,-16.0076,48.1149,-25.98,9.36016,-7.67134
-0.835122,16.5962,0.93625,15.5732,-3.67841,-3.04432,-6.6018,-0.174509,2.34207,-4.536,-0.355869,1.17197,-0.982103,-0.216316,-0.128166,-16.1461,-2.56051,-7.02857,21.8115,-2.82371,4.5587,9.74663,-1.38178,2.39654,1.02949e-14,2.33572e-15,-38.347,8.71359,-93.3555,37.3126,6.11165,-21.5738,-50.4383,7.12502,4.82027,-80.3634,1.02949e-14,2.33572e-15,-38.7876,-12.8845,93.2131,36.4654,12.5157,-31.8168,-22.1898,7.12502,-5.0718,7.72948,-36.9186,9.53417,20.4107,50.3161,-24.2789,-13.1409,-5.54494,-35.6562,-0.363201,-16.2686,49.6453,-26.5653,9.20428,-8.01725
-0.83955,16.5143,0.915467,15.5642,-3.62099,-3.1279,-6.02562,-0.167284,2.33266,-4.57839,-0.324833,1.24802,-1.34413,-0.202792,-0.0400434,-16.1517,-2.57595,-7.028,21.1876,-2.81819,4.52406,9.52722,-1.37766,2.37762,1.56854e-14,7.95139e-15,-38.4796,9.0383,-93.3713,37.8047,5.89278,-20.9964,-51.0118,7.12502,5.37783,-80.9236,1.56854e-14,7.95139e-15,-38.8427,-13.0534,93.3022,36.7556,12.6204,-32.7708,-27.7947,7.12502,-5.99298,2.10051,-37.8889,9.50924,20.554,51.9159,-24.6936,-13.2538,-5.76185,-36.5925,-0.0536885,-16.188,51.2379,-27.027,9.03825,-8.30198
-0.842148,16.4287,0.89602,15.6902,-3.51127,-3.34264,-5.70301,-0.151701,2.50119,-4.52867,-0.30014,1.35252,-1.47225,-0.193656,-0.0245775,-16.4809,-2.66893,-6.89136,20.7184,-2.89313,4.29933,9.42391,-1.41869,2.25972,2.05928e-15,2.68359e-15,-38.3546,9.40091,-93.3559,38.1939,5.54079,-20.7243,-51.0686,7.12502,5.6405,-80.9736,2.05928e-15,2.68359e-15,-38.7865,-13.3065,93.4222,37.0153,12.6994,-33.5018,-28.3714,7.12502,-6.69862,1.50264,-38.9746,9.48417,20.8186,53.4809,-25.1312,-13.4251,-6.09659,-37.7164,0.179888,-15.9484,52.887,-27.5123,8.93951,-8.58067
-0.842185,16.342,0.88342,15.8366,-3.42749,-3.48329,-5.52322,-0.114413,2.6402,-4.4468,-0.250617,1.41701,-1.48736,-0.170739,-0.0336531,-16.5216,-2.80303,-7.07584,20.0528,-3.04501,4.45395,9.21507,-1.48084,2.31749,-2.01891e-16,-5.96354e-16,-38.3425,9.71502,-93.3265,38.8183,5.24597,-20.9105,-50.9064,7.12502,5.46072,-80.8161,-2.01891e-16,-5.96354e-16,-38.7445,-13.3948,93.4335,37.5485,12.8381,-33.6871,-28.7869,7.12502,-6.87752,1.08142,-40.0192,9.45726,20.976,55.0098,-25.6222,-13.5698,-6.46919,-38.8796,0.381622,-15.8067,54.5542,-28.0889,8.75657,-8.33139
-0.838646,16.261,0.876531,15.8496,-3.27037,-3.5986,-5.21189,-0.125206,2.8113,-4.39703,-0.259589,1.48184,-1.61034,-0.179191,-0.062052,-16.6708,-2.8813,-7.08367,19.6424,-3.10998,4.37233,9.10372,-1.51553,2.27732,6.77731e-15,-1.74434e-14,-38.6003,9.97684,-93.2877,39.6807,5.16586,-21.0786,-50.9793,7.12502,5.29845,-80.8931,6.77731e-15,-1.74434e-14,-38.7533,-13.2425,93.332,38.3394,13.2614,-33.0723,-27.8426,7.12502,-6.28398,2.04423,-40.8192,9.31364,21.1486,56.4751,-26.1754,-13.6833,-6.78119,-39.9013,0.536454,-15.7055,56.218,-28.7372,8.66115,-8.20338
-0.832065,16.1771,0.862763,15.8475,-3.0335,-3.49682,-4.74709,-0.216096,2.84607,-4.38237,-0.362954,1.48139,-1.85667,-0.234184,-0.0831022,-17.005,-2.9155,-6.78816,19.2697,-3.11502,3.99021,9.02535,-1.53046,2.09063,1.81826e-14,-6.55989e-15,-38.8074,10.3365,-93.2941,40.3854,5.1248,-21.135,-51.0299,7.12502,5.24397,-80.945,1.81826e-14,-6.55989e-15,-38.8255,-13.4793,93.4746,38.2734,12.5911,-33.9904,-30.6653,7.12502,-7.17027,-0.806738,-41.6066,8.86669,21.1332,57.9308,-26.7251,-13.8282,-7.95815,-40.9174,0.558262,-15.8575,57.8277,-29.3048,8.88743,-9.15945
-0.842655,16.0735,0.848259,15.7587,-3.20536,-3.75721,-4.24023,-0.11574,2.92655,-4.23328,-0.213089,1.56108,-1.98223,-0.160057,-0.0405822,-17.4549,-3.03191,-6.45384,18.7082,-3.24304,3.64317,8.90938,-1.59433,1.89262,-1.41261e-14,-1.49089e-15,-38.7764,10.6426,-93.2889,40.978,5.04531,-21.1369,-50.906,7.12502,5.24219,-80.8211,-1.41261e-14,-1.49089e-15,-38.5494,-13.8132,93.4402,38.6671,13.1007,-33.954,-31.2637,7.12502,-7.13514,-1.40399,-42.3781,9.18227,21.4801,59.3688,-27.0033,-14.2525,-9.53391,-41.8266,1.02264,-15.6005,59.4749,-29.8458,9.01352,-9.90134
-0.843749,15.981,0.842414,15.7135,-3.19574,-3.88549,-3.83408,-0.0708105,3.06126,-4.11503,-0.141457,1.58325,-2.08609,-0.127388,-0.0907602,-17.9337,-3.13785,-6.26721,18.2657,-3.35656,3.45892,8.84304,-1.64591,1.7779,-5.7896e-15,1.39149e-14,-38.7411,10.8825,-93.2841,41.5962,4.89814,-21.2323,-50.6271,7.12502,5.15009,-80.5445,-5.7896e-15,1.39149e-14,-38.4454,-14.1105,93.439,39.0974,13.2477,-33.8748,-30.7895,7.12502,-7.05875,-0.927184,-43.1118,9.22389,21.6863,60.7883,-27.372,-14.4584,-9.84113,-42.6599,1.18224,-15.4722,61.0262,-30.4573,9.06114,-9.91428
-0.842077,15.8975,0.836402,15.7945,-3.10745,-3.90399,-3.42326,-0.0806219,3.12793,-4.15047,-0.13619,1.57449,-2.35306,-0.129879,-0.135455,-18.0523,-3.15659,-6.23796,17.7179,-3.38896,3.54732,8.67944,-1.64478,1.79603,-8.53532e-15,-1.35174e-14,-38.9638,11.1839,-93.3894,42.3565,4.66096,-21.3427,-50.4157,7.12502,5.04346,-80.3357,-8.53532e-15,-1.35174e-14,-38.623,-14.0913,93.358,39.7412,13.222,-33.7782,-29.7606,7.12502,-6.96545,0.104833,-43.9757,9.11719,21.7545,62.2031,-27.8874,-14.7852,-9.92687,-43.6014,1.23415,-15.454,62.5268,-31.051,9.06829,-10.1363
-0.838136,15.8096,0.824278,15.9072,-3.0595,-3.73351,-3.06781,-0.080024,3.02644,-4.18531,-0.117862,1.51723,-2.58739,-0.12166,-0.136139,-18.1739,-3.18551,-6.14993,17.2299,-3.42543,3.51033,8.53444,-1.65565,1.76161,3.87009e-15,3.77691e-15,-39.2163,11.5226,-93.4468,43.1942,4.46987,-21.4302,-50.3424,7.12502,4.95896,-80.2644,3.87009e-15,3.77691e-15,-38.6539,-14.1278,93.3076,40.2486,13.3422,-33.7905,-30.0079,7.12502,-6.97732,-0.142936,-44.9696,8.91755,21.5861,63.6776,-28.472,-15.2287,-10.5265,-44.6203,1.23278,-15.6627,64.0151,-31.5646,9.14485,-10.8207
-0.831236,15.7078,0.811051,16.089,-2.88062,-3.6268,-2.92024,-0.0970493,3.03908,-4.14235,-0.135216,1.52244,-2.62618,-0.130627,-0.137712,-18.5122,-3.25466,-6.00159,16.8404,-3.47679,3.25611,8.45703,-1.69099,1.64036,5.01931e-15,8.94531e-15,-39.2349,11.8378,-93.3504,43.8664,4.38379,-21.7256,-50.1615,7.12502,4.6737,-80.0899,5.01931e-15,8.94531e-15,-38.4976,-14.1643,93.3194,40.5985,13.302,-33.8675,-30.4346,7.12502,-7.05169,-0.572037,-46.0849,8.61226,21.4825,65.2391,-29.0911,-15.4405,-10.7635,-45.72,1.07074,-15.7819,65.5699,-32.0462,9.4366,-11.6844
-0.82858,15.592,0.79404,16.4396,-2.72765,-3.74934,-2.83957,-0.0876271,3.19287,-4.14814,-0.118706,1.6011,-2.67795,-0.126063,-0.142369,-18.6668,-3.32062,-6.04492,16.2068,-3.54036,3.30067,8.27456,-1.7138,1.65172,1.30949e-14,-2.57426e-14,-39.1437,12.0208,-93.2072,44.4712,4.40781,-21.8006,-50.292,7.12502,4.60129,-80.222,1.30949e-14,-2.57426e-14,-38.3485,-13.9745,93.2375,41.0181,13.0192,-33.8911,-30.2945,7.12502,-7.07443,-0.432724,-47.4309,8.50419,21.5976,66.8682,-29.6669,-15.543,-10.5592,-47.0638,0.988772,-15.6261,67.2127,-32.4402,9.75159,-12.2584
-0.827629,15.4767,0.781647,16.7503,-2.69152,-3.81269,-2.614,-0.0819284,3.23594,-4.19594,-0.0984594,1.64467,-2.85395,-0.11892,-0.120563,-18.9516,-3.37625,-6.0207,15.7414,-3.59379,3.29759,8.16919,-1.73229,1.6365,-1.49089e-16,2.45499e-14,-39.1776,12.1041,-93.0973,45.3138,4.55495,-21.2446,-51.0556,7.12502,5.13822,-80.9734,-1.49089e-16,2.45499e-14,-38.2352,-13.6155,93.0517,41.52,12.8251,-33.6703,-29.5827,7.12502,-6.86133,0.286141,-48.7239,8.49764,21.6472,68.5473,-30.243,-15.9189,-10.9111,-48.3702,0.994465,-15.5596,68.8632,-32.8471,10.0624,-12.4135
-0.825457,15.3701,0.774673,17.0086,-2.58423,-3.76778,-2.37217,-0.107213,3.21445,-4.23732,-0.119246,1.64987,-3.0333,-0.130998,-0.102112,-19.545,-3.41379,-5.62642,15.5333,-3.62223,2.8387,8.18586,-1.76225,1.40828,-1.47101e-14,1.18277e-14,-39.3686,12.2015,-93.0192,46.2988,4.77914,-20.6158,-51.4559,7.12502,5.74525,-81.358,-1.47101e-14,1.18277e-14,-38.1724,-13.2773,92.8375,42.0636,12.5558,-33.2454,-28.5965,7.12502,-6.45112,1.28521,-49.9193,8.41992,21.6053,70.247,-30.837,-16.5689,-11.9812,-49.5705,0.861001,-15.601,70.5042,-33.4158,10.385,-12.0824
-0.830762,15.2525,0.749563,17.4936,-2.24596,-3.60509,-2.14378,-0.208447,3.02167,-4.39142,-0.238658,1.65811,-3.32337,-0.188892,0.0168772,-20.1958,-3.38505,-5.17127,15.2735,-3.57863,2.37882,8.18965,-1.75515,1.17888,8.80865e-15,-9.83984e-15,-39.4476,12.4254,-92.9766,47.0302,4.85617,-20.4826,-51.1116,7.12502,5.87385,-81.0102,8.80865e-15,-9.83984e-15,-38.1757,-12.9941,92.6277,42.5529,12.0945,-32.9397,-28.7059,7.12502,-6.15596,1.18462,-51.5765,8.24105,21.4665,72.0501,-31.3023,-17.0331,-12.3642,-51.244,0.529532,-15.6551,72.2356,-33.7763,10.695,-12.3525
-0.842279,15.1157,0.712029,18.1827,-1.85598,-3.38653,-1.96175,-0.355483,2.68051,-4.63259,-0.419974,1.69678,-3.67691,-0.272334,0.252671,-20.7034,-3.35632,-4.86675,14.8911,-3.53849,2.09767,8.13375,-1.74172,1.03575,5.65294e-15,1.39149e-15,-39.3478,12.753,-92.9369,47.656,4.73972,-20.3235,-51.2009,7.12502,6.02753,-81.0952,5.65294e-15,1.39149e-15,-38.107,-12.6676,92.4296,42.9983,11.967,-33.0339,-29.0422,7.12502,-6.24695,0.845694,-53.6489,8.02539,21.2737,73.9508,-31.6002,-17.3198,-12.2231,-53.3849,0.205578,-15.7233,74.0922,-33.8575,11.0365,-13.4637
-0.849467,14.976,0.680608,18.7532,-1.80732,-3.4204,-1.80803,-0.366135,2.54346,-4.76196,-0.422927,1.77005,-3.8967,-0.269979,0.407485,-20.4204,-3.2827,-5.01989,13.834,-3.45924,2.44243,7.73765,-1.67465,1.19202,6.43565e-15,1.03368e-14,-39.1718,12.9836,-92.8272,48.3541,4.64845,-20.246,-51.0699,7.12502,6.10233,-80.962,6.43565e-15,1.03368e-14,-37.8725,-12.3776,92.2362,43.4953,12.1588,-33.0567,-27.5551,7.12502,-6.26896,2.33219,-55.5322,8.10948,21.2726,75.7632,-31.82,-17.6286,-12.418,-55.3748,0.215832,-15.6345,76.0081,-34.0436,11.2464,-14.0336
-0.854256,14.8479,0.658459,19.1236,-1.92967,-3.47166,-1.59418,-0.297886,2.42689,-4.76236,-0.323052,1.80201,-4.01564,-0.21591,0.505528,-18.7636,-2.99901,-6.11133,11.3843,-3.12678,4.18663,6.69213,-1.41053,1.99831,-7.40473e-15,5.56597e-15,-39.0164,13.0136,-92.6478,49.0532,4.75257,-20.7717,-50.0174,7.12502,5.59473,-79.9235,-7.40473e-15,5.56597e-15,-37.6013,-12.1844,92.0378,44.091,12.0515,-32.9976,-26.4411,7.12502,-6.21193,3.44787,-57.0706,8.29914,21.2861,77.4421,-32.0626,-17.962,-12.7679,-56.9264,0.354233,-15.5825,77.8012,-34.2936,11.4148,-14.1957
-0.856561,14.7357,0.647721,19.4308,-1.87649,-3.37699,-1.44294,-0.26995,2.29099,-4.74397,-0.281412,1.80743,-4.08048,-0.190156,0.587138,-18.4581,-2.99972,-6.47,10.243,-3.1075,4.71786,6.28749,-1.37028,2.2312,2.50966e-15,1.2921e-15,-39.1103,12.8895,-92.3609,50.0693,5.08606,-21.0328,-49.6201,7.12502,5.34271,-79.5328,2.50966e-15,1.2921e-15,-37.4308,-12.0475,91.9226,44.7241,11.7627,-33.5193,-27.5895,7.12502,-6.71551,2.28403,-58.3309,8.20961,21.2313,79.0032,-32.4225,-18.3194,-13.0053,-58.1996,0.268322,-15.6514,79.3964,-34.5094,11.6251,-14.3279
-0.856295,14.6263,0.640267,19.7081,-1.84019,-3.23043,-1.37518,-0.258647,2.14937,-4.67002,-0.267456,1.79996,-4.04042,-0.177432,0.658059,-18.6801,-3.07832,-6.56092,9.58096,-3.17332,4.82842,6.11797,-1.3914,2.27183,1.46604e-14,-1.5704e-14,-39.0037,12.8388,-92.0536,51.0492,5.33469,-20.7487,-50.0979,7.12502,5.61702,-80.0035,1.46604e-14,-1.5704e-14,-37.1518,-11.8604,91.7762,45.2421,11.6731,-33.7661,-28.9363,7.12502,-6.95383,0.929493,-59.4796,8.09627,21.1048,80.5097,-32.8511,-18.6866,-13.2433,-59.3834,0.120641,-15.8035,80.8719,-34.647,11.9806,-14.956
-0.856458,14.5181,0.632412,19.9924,-1.9005,-3.05202,-1.20789,-0.267673,1.91483,-4.64898,-0.277935,1.77685,-4.11147,-0.174691,0.766586,-18.9236,-3.13638,-6.54501,8.95336,-3.22985,4.88878,5.96006,-1.4081,2.28022,-1.25234e-14,2.20651e-14,-38.6791,12.8609,-91.822,51.6465,5.69207,-20.6435,-50.0517,7.12502,5.71854,-79.9545,-1.25234e-14,2.20651e-14,-36.8725,-11.5414,91.5433,45.6083,11.5554,-33.451,-29.9102,7.12502,-6.64957,-0.0346256,-60.8064,8.13772,20.8804,81.9919,-33.1927,-18.9034,-13.2014,-60.5527,0.0694288,-16.0293,82.2404,-34.7458,12.2803,-15.4282
-0.850775,14.4223,0.628189,20.3205,-1.84292,-2.92299,-0.932565,-0.334675,1.81596,-4.72859,-0.358344,1.77996,-4.34995,-0.212309,0.830189,-19.0955,-3.13705,-6.56907,8.34432,-3.21183,5.00712,5.7943,-1.38669,2.32256,1.07592e-14,-4.57205e-15,-38.599,12.8953,-91.6125,52.3673,6.3855,-20.7619,-49.4424,7.12502,5.60423,-79.3483,1.07592e-14,-4.57205e-15,-36.7716,-11.0811,91.2895,46.0289,11.0465,-33.3957,-29.8644,7.12502,-6.59626,0.0128683,-62.2677,8.06825,20.728,83.4399,-33.2956,-19.0776,-13.1761,-61.7392,-0.0847408,-16.1878,83.5724,-34.838,12.4969,-15.2312
-0.84181,14.3614,0.622079,20.6368,-1.76793,-2.76146,-0.703516,-0.427944,1.72965,-4.75482,-0.477842,1.76559,-4.50651,-0.269593,0.869781,-19.3474,-3.04864,-6.36708,7.73499,-3.0973,4.90735,5.62793,-1.32742,2.26837,1.54058e-15,-1.55052e-14,-38.4537,13.0274,-91.4399,53.4208,6.43133,-20.3931,-50.6898,7.12502,5.96032,-80.5859,1.54058e-15,-1.55052e-14,-36.6208,-10.6256,90.9707,46.6244,10.5248,-33.4313,-29.133,7.12502,-6.63055,0.743239,-63.1674,7.89485,20.5568,84.5097,-33.1633,-19.5047,-12.9528,-62.7143,-0.329353,-16.3899,84.6815,-34.8039,12.9026,-15.6426
-0.838898,14.2448,0.60297,21.0382,-1.74622,-2.57938,-0.553682,-0.472235,1.53077,-4.75122,-0.538049,1.73795,-4.58567,-0.292558,0.956104,-19.6615,-2.99159,-6.0853,7.04442,-3.03353,4.74932,5.44635,-1.29449,2.17728,-7.28049e-15,-2.38542e-15,-37.9502,13.1237,-91.2399,54.8973,4.95752,-18.6045,-54.2817,7.12502,7.6869,-84.122,-7.28049e-15,-2.38542e-15,-36.2457,-10.4213,90.6865,47.2122,10.4735,-33.4266,-29.176,7.12502,-6.62602,0.70036,-64.1006,7.80131,20.3284,85.6807,-33.1763,-19.8672,-11.4807,-64.1281,-0.457216,-16.6023,86.0617,-34.8396,13.161,-16.307
-0.839726,14.1287,0.582517,21.505,-1.71293,-2.43319,-0.262388,-0.506867,1.33565,-4.9147,-0.577419,1.74871,-4.92027,-0.304774,1.08345,-19.9362,-2.99169,-5.94691,6.58145,-3.02901,4.66083,5.3377,-1.2908,2.12579,-2.26366e-14,1.86858e-14,-37.6867,13.1743,-90.9954,55.7984,4.52823,-18.3021,-55.1993,7.12502,7.97878,-85.0287,-2.26366e-14,1.86858e-14,-36.057,-10.1034,90.4488,47.7704,10.3661,-33.2862,-29.6028,7.12502,-6.49053,0.277735,-65.2665,7.78927,20.1395,86.84,-33.3938,-20.0978,-10.1897,-65.5792,-0.499543,-16.7478,87.3625,-34.9702,13.3458,-16.9122
-0.839468,14.0297,0.570373,21.9579,-1.78687,-2.29522,-0.0279525,-0.538144,1.11086,-5.17684,-0.614245,1.76247,-5.32663,-0.31345,1.23174,-19.4373,-2.91671,-5.84321,5.6948,-2.95248,4.59031,4.9729,-1.26078,2.09816,-3.8763e-15,-6.55989e-15,-37.8299,13.1649,-90.7694,56.5445,4.92604,-18.5817,-54.5425,7.12502,7.7089,-84.382,-3.8763e-15,-6.55989e-15,-36.1239,-9.52506,90.1254,48.3966,9.95643,-32.7235,-29.6407,7.12502,-5.9473,0.255826,-66.4902,7.92769,19.9285,87.9472,-33.6251,-20.5733,-10.1563,-66.7701,-0.468664,-16.9173,88.5095,-35.1263,13.6252,-17.5161
-0.839743,13.9434,0.561837,22.3578,-1.85738,-2.18898,-0.0207701,-0.562184,0.912307,-5.1596,-0.653484,1.7452,-5.30973,-0.32454,1.32665,-19.2121,-2.79441,-5.72701,4.57142,-2.81046,4.67612,4.57748,-1.18392,2.12344,1.0461e-14,-1.25234e-14,-37.4801,12.9582,-90.4083,57.2677,5.63248,-18.5974,-53.9054,7.12502,7.69377,-83.7455,1.0461e-14,-1.25234e-14,-35.6589,-9.14184,89.665,48.9764,9.6387,-32.328,-29.269,7.12502,-5.56541,0.637872,-67.5339,8.08971,19.7443,88.9182,-33.8986,-21.0368,-10.2576,-67.7808,-0.452929,-17.0282,89.5028,-35.3242,13.6404,-17.4086
-0.841998,13.8657,0.541064,22.6119,-1.75428,-2.18832,0.240957,-0.612812,0.880651,-5.19454,-0.715985,1.75857,-5.49477,-0.353606,1.36557,-19.2409,-2.70733,-5.63019,3.98347,-2.71122,4.78459,4.39334,-1.12527,2.15241,1.99282e-14,-1.5704e-14,-37.1712,12.6691,-90.0237,58.0204,6.28561,-18.2074,-53.9772,7.12502,8.07014,-83.8031,1.99282e-14,-1.5704e-14,-35.3414,-8.88911,89.2397,49.5091,9.33759,-32.149,-29.9633,7.12502,-5.39262,-0.0518705,-68.3579,8.17009,19.7585,89.7181,-34.06,-21.5267,-10.1241,-68.664,-0.46542,-16.9578,90.3898,-35.3723,13.5211,-17.4757
-0.851149,13.7916,0.525788,23.0068,-1.97907,-2.00937,0.364777,-0.611144,0.426568,-5.33987,-0.725074,1.75469,-5.71324,-0.336186,1.62051,-19.2179,-2.65603,-5.4709,3.49542,-2.66347,4.72413,4.23171,-1.10312,2.11321,1.39398e-14,-2.66371e-14,-36.966,12.5045,-89.6716,58.7266,7.00993,-18.5402,-53.213,7.12502,7.74895,-83.051,1.39398e-14,-2.66371e-14,-35.2497,-8.48537,88.7753,50.2642,9.04427,-31.4971,-31.3561,7.12502,-4.76313,-1.42965,-69.3389,8.53014,19.4654,90.4745,-34.1964,-22.2066,-10.0357,-69.58,-0.202145,-17.1854,91.0968,-34.9891,13.7486,-18.7222
-0.745505,13.7693,0.483262,23.1255,-0.602771,-2.6704,1.28212,-0.963597,3.24096,-5.58772,-1.04998,1.7214,-6.55875,-0.642933,0.0543183,-19.1292,-2.56884,-5.4413,3.076,-2.5488,4.73062,4.08147,-1.0469,2.12216,1.26725e-15,-6.4605e-15,-36.9366,12.405,-89.3262,59.4745,7.86232,-19.1431,-51.9407,7.12502,7.16704,-81.7993,1.26725e-15,-6.4605e-15,-35.3236,-8.08448,88.2972,51.3643,8.85452,-30.6801,-31.7794,7.12502,-3.97425,-1.83673,-69.1732,6.79229,20.2898,90.8522,-35.031,-22.2988,-10.5074,-70.2254,-1.89767,-16.4697,91.7679,-35.3755,14.4363,-17.9375
-0.858852,13.6878,0.494054,23.6353,-2.49409,-1.93522,0.835436,-0.539462,-0.0504008,-5.68304,-0.636372,1.77446,-6.34522,-0.263379,1.91599,-19.2567,-2.49807,-5.46682,2.92009,-2.44682,4.83119,4.04903,-0.989199,2.16689,1.08835e-14,-2.43511e-14,-36.8225,12.1977,-88.9348,60.2392,8.72813,-19.1555,-51.9225,7.12502,7.155,-81.7815,1.08835e-14,-2.43511e-14,-35.2772,-7.9171,87.8212,52.4785,8.53003,-30.3255,-31.5218,7.12502,-3.63175,-1.57299,-71.0288,9.44244,19.0513,91.6321,-34.984,-23.0034,-9.68952,-70.9235,0.392556,-17.4223,92.0443,-35.5309,13.7579,-19.0214
-0.86764,13.6243,0.44218,24.0476,-3.11099,-1.45663,1.36705,-0.429906,-0.965041,-5.94243,-0.534101,1.65606,-6.92783,-0.160017,2.31038,-19.1948,-2.48373,-5.50347,2.50602,-2.42011,4.93674,3.91179,-0.970944,2.20912,6.03808e-15,1.42131e-14,-36.6365,12.0135,-88.5002,61.1174,9.1848,-19.1456,-52.0268,7.12502,7.16461,-81.8855,6.03808e-15,1.42131e-14,-35.182,-7.89705,87.3982,53.6569,8.08385,-30.2705,-30.8307,7.12502,-3.57865,-0.881033,-72.4793,9.92606,18.2267,92.266,-35.1693,-23.4057,-11.2882,-71.8087,0.806462,-18.1202,92.3121,-36.4493,13.6358,-17.3345
-0.872156,13.5912,0.426621,24.3401,-3.23485,-1.35206,1.54588,-0.446778,-1.2425,-6.12638,-0.568613,1.69857,-7.22586,-0.155039,2.51887,-18.9465,-2.48101,-5.55812,2.04009,-2.40809,4.98556,3.7308,-0.966164,2.23583,-1.58531e-14,2.70347e-14,-36.6001,12.0595,-88.0774,62.3028,9.13958,-18.9339,-51.4702,7.12502,7.369,-81.3218,-1.58531e-14,2.70347e-14,-35.1643,-7.8903,87.0214,54.882,7.76937,-30.1574,-30.341,7.12502,-3.46947,-0.389503,-73.1205,10.2336,17.9722,92.6219,-35.6912,-23.6401,-11.4058,-72.1537,0.908124,-18.2813,92.3392,-36.6771,14.1065,-17.2234
-0.87131,13.5968,0.437367,24.5658,-3.07626,-1.32117,1.45123,-0.540485,-1.2245,-6.24289,-0.688431,1.77492,-7.28931,-0.211371,2.59857,-18.7989,-2.49472,-5.61428,1.78815,-2.41359,4.97211,3.63126,-0.972289,2.24108,1.66482e-15,6.55989e-15,-36.6333,12.2011,-87.6506,63.5186,9.27686,-19.3689,-50.2854,7.12502,6.94902,-80.1513,1.66482e-15,6.55989e-15,-34.9634,-8.1014,86.6635,55.8644,7.69549,-30.1704,-30.9045,7.12502,-3.48198,-0.953202,-73.2284,10.3377,17.8842,92.674,-36.0691,-23.7615,-10.6185,-72.0899,0.712586,-18.308,92.148,-36.2432,15.0194,-18.9958
-0.873864,13.6088,0.447718,24.8703,-2.81846,-1.2448,1.14164,-0.646967,-1.17951,-6.32603,-0.826646,1.79749,-7.19127,-0.282692,2.60321,-18.6403,-2.53464,-5.60335,1.53779,-2.46935,4.9531,3.53254,-1.00289,2.22972,-4.94477e-15,1.03368e-14,-36.6058,12.1769,-87.2547,64.5559,9.70481,-20.6907,-48.4498,7.12502,5.67296,-78.3539,-4.94477e-15,1.03368e-14,-34.5849,-8.66337,86.2572,56.827,7.636,-30.6609,-32.7845,7.12502,-3.95572,-2.8415,-73.3808,10.3327,17.7775,92.5915,-36.0955,-24.028,-10.3994,-72.2382,0.44259,-18.3651,91.851,-37.0016,15.1471,-17.6595
-0.885129,13.6248,0.454557,25.1933,-2.40426,-1.20867,0.713579,-0.779268,-1.06353,-6.36212,-0.997729,1.7988,-6.97355,-0.377182,2.54337,-18.3413,-2.56676,-5.56519,1.08353,-2.52696,4.99815,3.35114,-1.03252,2.2352,9.91439e-15,-9.74045e-15,-36.4153,11.9941,-86.9179,65.4924,10.1391,-21.2479,-48.0253,7.12502,5.13503,-77.943,9.91439e-15,-9.74045e-15,-34.1197,-9.4105,85.7468,57.9669,7.47617,-31.244,-33.9426,7.12502,-4.51874,-4.01078,-73.5317,10.3355,17.77,92.3677,-35.872,-24.5064,-10.4903,-72.5269,0.120402,-18.27,91.4731,-36.8812,15.3968,-17.427
-0.895612,13.6574,0.452456,25.4284,-2.16967,-1.10333,0.525421,-0.86902,-1.12227,-6.42,-1.12015,1.80361,-6.91923,-0.434893,2.58637,-18.2248,-2.56265,-5.51776,0.825674,-2.52694,4.93761,3.25261,-1.03694,2.21,-2.31833e-14,2.24627e-14,-36.2674,11.9159,-86.5517,66.5566,10.3948,-20.9815,-48.8435,7.12502,5.39222,-78.7549,-2.31833e-14,2.24627e-14,-33.6282,-10.1142,85.2744,59.0273,7.37618,-31.1503,-32.1705,7.12502,-4.42824,-2.23682,-73.6111,10.4591,17.6023,91.9885,-35.4396,-24.9801,-10.976,-72.622,-0.130535,-18.2634,90.9659,-36.5968,15.3736,-17.2637
-0.897385,13.709,0.451096,25.4948,-2.00885,-1.02345,0.648962,-0.937268,-1.12272,-6.55654,-1.2102,1.83471,-7.13244,-0.474729,2.63097,-18.1381,-2.55955,-5.37317,0.948688,-2.54294,4.64886,3.2712,-1.06006,2.09579,5.59082e-15,-1.39149e-15,-36.4064,12.055,-86.1704,67.7211,10.4312,-21.083,-48.7085,7.12502,5.29419,-78.6224,5.59082e-15,-1.39149e-15,-33.2214,-10.7216,84.8594,59.922,7.19753,-31.032,-30.5817,7.12502,-4.31406,-0.645645,-73.371,10.5637,17.4306,91.4158,-34.9939,-25.2334,-11.4209,-72.3424,-0.403797,-18.2562,90.3174,-36.4984,15.3175,-17.0014
-0.88924,13.7805,0.463708,25.3516,-1.76159,-1.09247,0.764223,-0.986374,-0.786648,-6.5851,-1.25938,1.85618,-7.23313,-0.51694,2.47174,-18.0712,-2.59497,-5.31398,1.19171,-2.60154,4.49256,3.33531,-1.09773,2.03251,1.66482e-15,-1.39149e-15,-36.5573,12.2277,-85.7953,68.6601,10.5226,-21.9799,-47.938,7.12502,4.42816,-77.8717,1.66482e-15,-1.39149e-15,-32.6328,-11.4054,84.4127,60.7646,7.11937,-31.4798,-31.6896,7.12502,-4.7464,-1.76277,-72.6282,10.5803,17.4802,90.5935,-34.5925,-25.3872,-11.7848,-71.6599,-0.768311,-18.0796,89.5265,-36.3541,15.3596,-16.8005
-0.875486,13.8705,0.48772,25.1578,-1.46708,-1.24483,0.726655,-1.0132,-0.285614,-6.54624,-1.27033,1.88719,-7.17793,-0.552028,2.22217,-18.4502,-2.66989,-5.318,1.80331,-2.69428,4.48035,3.58515,-1.14008,2.01754,-1.91827e-14,9.54166e-15,-36.6581,12.3808,-85.3957,69.9259,9.62482,-21.4765,-49.4143,7.12502,4.91424,-79.3373,-1.91827e-14,9.54166e-15,-31.9768,-12.1596,84.0193,61.6345,7.15117,-31.6583,-32.6379,7.12502,-4.91877,-2.71498,-71.6272,10.5241,17.649,89.5533,-34.2284,-25.4772,-12.0316,-70.8026,-1.18237,-17.802,88.5659,-36.0782,15.3937,-16.5584
-0.864722,13.9735,0.513745,25.0994,-1.06038,-1.44906,0.567198,-1.07001,0.248239,-6.60711,-1.31775,1.97496,-7.15869,-0.60442,2.01564,-17.8799,-2.59229,-5.84754,1.77117,-2.54486,5.02721,3.49878,-1.04826,2.28842,-1.2921e-14,-1.2921e-14,-36.8043,12.5627,-84.994,70.6468,9.69779,-21.192,-48.5219,7.12502,5.18894,-78.4384,-1.2921e-14,-1.2921e-14,-31.3604,-12.9311,83.6685,62.4175,7.10723,-31.9086,-32.523,7.12502,-5.16051,-2.6058,-70.6596,10.415,17.9033,88.3453,-33.8138,-25.5408,-12.2962,-70.0502,-1.58295,-17.4191,87.4551,-35.6336,15.4155,-16.498
-0.853509,14.0905,0.537298,24.9777,-0.646176,-1.45855,0.319325,-1.15054,0.640675,-6.51925,-1.41336,1.98692,-6.92667,-0.676321,1.80582,-18.2063,-2.63903,-6.0046,2.47977,-2.58445,5.16833,3.77365,-1.05779,2.35142,2.08724e-15,-9.34288e-15,-36.6705,12.7809,-84.6385,71.1994,9.70194,-21.3505,-48.36,7.12502,5.03588,-78.2801,2.08724e-15,-9.34288e-15,-30.2865,-13.8059,83.2177,62.9591,7.30995,-32.2711,-32.4772,7.12502,-5.51046,-2.56889,-69.5133,10.1837,17.9808,86.9841,-33.3086,-25.5768,-12.848,-69.1298,-2.04103,-17.2356,86.1684,-35.1389,15.0052,-16.1308
-0.835951,14.2225,0.559965,24.781,-0.322565,-1.30031,0.0444006,-1.21328,0.944301,-6.33908,-1.49811,1.91021,-6.58238,-0.739868,1.5488,-18.8526,-2.71527,-5.96099,3.46351,-2.68154,5.10857,4.18072,-1.10054,2.31268,-4.37326e-15,-1.59028e-15,-36.4275,13.1091,-84.3129,71.6236,9.75532,-21.8301,-48.5066,7.12502,4.57286,-78.4373,-4.37326e-15,-1.59028e-15,-29.108,-14.7023,82.7438,63.4902,7.52566,-32.5254,-32.6969,7.12502,-5.75602,-2.79503,-68.2248,9.82637,17.8435,85.4704,-32.9178,-25.3398,-13.0956,-67.9957,-2.51974,-17.306,84.6796,-34.6676,14.3515,-15.3438
-0.814673,14.3719,0.585249,24.6184,0.15505,-1.3062,-0.192552,-1.2911,1.51876,-6.3009,-1.59023,1.87268,-6.42128,-0.818879,1.1863,-18.8192,-2.80162,-5.86116,4.06259,-2.82772,4.99226,4.36711,-1.17883,2.24588,-2.09718e-14,7.55382e-15,-36.4826,13.477,-84.0432,72.0281,10.0379,-21.8128,-49.1919,7.12502,4.58952,-79.1222,-2.09718e-14,7.55382e-15,-28.3414,-15.6624,82.3843,64.1796,7.58675,-33.1725,-32.4409,7.12502,-6.38073,-2.55702,-66.8245,9.32968,17.9283,83.7466,-32.6867,-24.8033,-12.7379,-66.8066,-2.94207,-17.2294,83.0007,-34.1135,13.9578,-14.9314
-0.815847,14.5364,0.626501,24.3808,0.544513,-1.47124,-0.558796,-1.30461,1.85577,-6.21568,-1.60756,1.91231,-6.12894,-0.844085,1.02757,-18.6934,-2.89678,-5.73275,4.58742,-2.99897,4.91729,4.51803,-1.26707,2.18548,-7.10655e-15,7.95139e-15,-36.6233,13.8944,-83.8149,72.3336,10.2908,-21.9114,-49.5796,7.12502,4.49432,-79.5119,-7.10655e-15,7.95139e-15,-27.5834,-16.8281,82.0636,64.8215,7.80952,-33.7778,-32.024,7.12502,-6.96506,-2.15854,-65.1788,9.18014,18.2281,81.7899,-32.1725,-24.4123,-12.6067,-65.3506,-2.97123,-16.96,81.0943,-33.5122,13.1665,-14.7497
-0.864132,14.7029,0.691261,24.0649,0.263856,-1.81668,-1.15388,-1.13065,1.33395,-6.03927,-1.39826,2.11535,-5.58207,-0.706804,1.50017,-18.9919,-2.94345,-5.74815,5.56007,-3.07654,4.98589,4.87512,-1.29659,2.19917,1.35671e-14,-1.23246e-14,-36.8425,14.493,-83.6092,72.5424,10.4648,-22.2999,-49.3491,7.12502,4.11914,-79.289,1.35671e-14,-1.23246e-14,-26.7757,-17.9908,81.7394,65.3212,8.15351,-33.9489,-32.1332,7.12502,-7.13021,-2.27333,-63.516,10.0967,18.5597,79.6213,-31.205,-24.2761,-12.8409,-63.6338,-2.07495,-16.5815,79.0179,-32.9315,11.8947,-14.6481
-0.868029,14.897,0.748193,23.7946,0.063478,-1.50362,-1.71277,-1.06231,0.912664,-6.19623,-1.32485,2.10103,-5.42011,-0.650173,1.708,-18.5003,-3.02844,-6.10392,6.45366,-3.1708,5.08421,5.09271,-1.35162,2.2803,1.98785e-15,4.77083e-15,-37.8851,15.118,-83.4547,72.9564,10.6733,-22.5439,-49.4285,7.12502,3.88357,-79.3729,1.98785e-15,4.77083e-15,-26.7398,-18.9457,81.7822,65.9673,8.38032,-34.3009,-32.3824,7.12502,-7.47,-2.53427,-61.7228,10.0824,18.1889,77.3123,-30.3426,-23.7108,-13.1381,-61.7443,-1.85354,-17.0255,76.6454,-32.0678,11.2173,-14.8012
-0.870755,15.1015,0.800861,23.281,-0.0687358,-1.31993,-2.06818,-0.996511,0.611192,-6.19977,-1.24606,2.12887,-5.21582,-0.595928,1.89515,-17.9947,-3.11401,-6.27223,7.1046,-3.28643,5.00747,5.22621,-1.426,2.27427,-1.68967e-15,1.03368e-14,-38.6694,15.6706,-83.3159,73.2407,10.7417,-22.8209,-49.802,7.12502,3.61609,-79.751,-1.68967e-15,1.03368e-14,-26.6096,-19.7977,81.8179,66.6975,8.47377,-34.8676,-32.3655,7.12502,-8.01694,-2.53758,-59.5678,10.0604,18.0502,74.8438,-29.393,-23.121,-13.1029,-59.6072,-1.54809,-17.3179,74.1202,-30.9106,10.3031,-14.9128
-0.865097,15.3338,0.859436,22.7303,-0.0982927,-1.20323,-2.52597,-0.884512,0.573099,-6.08916,-1.10853,2.05489,-4.84306,-0.528872,1.82479,-17.7086,-3.17387,-6.24827,7.88833,-3.40528,4.94287,5.43355,-1.49294,2.23963,1.14798e-14,-3.97569e-15,-39.0768,16.0031,-83.2366,73.1682,10.7718,-23.2295,-49.679,7.12502,3.22149,-79.6344,1.14798e-14,-3.97569e-15,-26.2586,-20.9495,81.7609,67.2943,8.59243,-35.4126,-32.1195,7.12502,-8.54296,-2.3123,-57.3471,9.86431,18.003,72.2344,-28.165,-22.2802,-13.3284,-57.2806,-1.30037,-17.5241,71.383,-29.4798,9.09984,-15.1406
-0.851914,15.5921,0.93753,22.3461,-0.00819125,-1.09387,-3.38557,-0.803201,0.786779,-6.09452,-1.01913,1.92206,-4.37031,-0.498509,1.55045,-17.0976,-3.22578,-6.24048,8.7546,-3.53199,4.87709,5.61558,-1.56888,2.20907,4.96962e-16,1.70955e-14,-39.7384,16.3025,-83.3539,72.9024,11.0962,-23.4457,-48.9601,7.12502,3.01271,-78.9186,4.96962e-16,1.70955e-14,-26.2401,-22.2157,81.8103,67.7794,8.89207,-35.8259,-31.9856,7.12502,-8.94179,-2.19506,-55.1947,9.42934,17.9638,69.4776,-26.4776,-21.1965,-14.1542,-54.9046,-1.20156,-17.6902,68.4984,-27.8844,7.8383,-15.7649
-0.839188,15.8437,1.00893,22.0738,0.131313,-0.999647,-4.16345,-0.746501,1.04931,-6.2806,-0.96025,1.82506,-4.13467,-0.483058,1.29299,-16.072,-3.26722,-6.36714,9.44144,-3.63797,4.83294,5.67398,-1.64354,2.21335,1.30204e-14,-1.59028e-15,-40.7922,16.6006,-83.5797,72.651,11.7988,-23.4178,-48.1874,7.12502,3.03962,-78.1455,1.30204e-14,-1.59028e-15,-26.6315,-23.266,82.06,68.3695,9.3355,-35.7615,-31.9137,7.12502,-8.87967,-2.12052,-53.0427,8.93758,17.966,66.657,-24.3362,-20.1024,-15.6037,-52.8053,-1.11833,-17.7964,65.6665,-25.9179,6.41487,-16.1466
-0.832684,16.0889,1.06465,21.7721,0.12228,-0.834226,-4.6489,-0.628863,1.03897,-6.41914,-0.81259,1.72502,-4.01062,-0.410887,1.19123,-15.3309,-3.3141,-6.40532,10.0771,-3.74372,4.72282,5.75804,-1.71622,2.18067,-9.14409e-15,5.96354e-15,-41.6439,16.6604,-83.7357,72.4182,12.3325,-23.4813,-47.9855,7.12502,2.97834,-77.9444,-9.14409e-15,5.96354e-15,-26.9702,-23.8985,82.2959,69.2161,9.57213,-35.5304,-31.9945,7.12502,-8.6566,-2.19198,-50.83,8.67488,17.827,63.7416,-21.8412,-19.0928,-17.4223,-50.853,-0.917384,-17.983,62.876,-23.4456,5.03602,-17.4883
-0.827456,16.3424,1.11316,21.5198,-0.0086779,-0.644681,-5.02183,-0.531095,0.929562,-6.52511,-0.68748,1.63328,-3.9139,-0.345565,1.15586,-15.0916,-3.33158,-6.27033,10.9186,-3.79776,4.45586,5.98016,-1.76284,2.07032,-1.39149e-15,-7.55382e-15,-42.1897,16.866,-83.9493,71.9543,12.7291,-23.7926,-47.93,7.12502,2.67762,-77.8929,-1.39149e-15,-7.55382e-15,-26.7309,-24.8646,82.3655,69.423,10.2805,-35.6169,-32.3984,7.12502,-8.74011,-2.5994,-48.8193,8.58632,17.5375,60.7957,-19.0246,-17.8837,-19.6074,-49.0179,-0.663483,-18.1984,60.1096,-20.6318,3.72193,-20.1369
-0.80877,16.6407,1.1827,20.8049,-0.463565,-0.715775,-5.15494,-0.329017,1.23184,-6.46219,-0.430349,1.54207,-3.77984,-0.231687,0.894649,-14.8066,-3.31554,-6.33188,11.7698,-3.80354,4.44418,6.20464,-1.77541,2.07885,1.3418e-15,-5.96354e-15,-42.8175,17.1761,-84.2529,71.3851,13.3049,-24.1482,-47.4658,7.12502,2.33427,-77.4328,1.3418e-15,-5.96354e-15,-27.1315,-25.1641,82.5214,70.1528,10.6792,-35.3661,-32.5616,7.12502,-8.4981,-2.75264,-46.2465,8.84655,17.4051,57.6654,-15.8525,-16.1772,-22.5152,-46.4657,-0.230365,-18.217,57.2152,-17.6561,1.97146,-21.673
-0.799464,16.9526,1.23786,20.6007,-0.378016,-0.692535,-5.65012,-0.274398,1.45428,-6.63564,-0.372491,1.48645,-3.68776,-0.213474,0.711907,-13.9635,-3.25171,-6.53923,12.2898,-3.77698,4.66414,6.23521,-1.76731,2.19488,8.99501e-15,-1.70955e-14,-43.6026,17.2416,-84.5922,70.7693,13.8772,-24.2763,-47.3909,7.12502,2.2105,-77.3592,8.99501e-15,-1.70955e-14,-27.781,-25.4406,82.8591,70.8953,11.2136,-35.1894,-33.0962,7.12502,-8.32757,-3.28033,-44.3531,8.81646,17.2363,54.5285,-11.7899,-14.3513,-26.0572,-44.7128,-0.285033,-18.0519,54.1883,-13.9442,-0.287853,-23.3092
-0.796177,17.2845,1.29522,20.5266,-0.335879,-0.59331,-6.19871,-0.227952,1.4607,-6.85876,-0.320899,1.4303,-3.6167,-0.189408,0.650077,-13.1227,-3.18506,-6.47832,12.6801,-3.75467,4.59793,6.213,-1.77138,2.17505,1.73937e-16,-3.18055e-15,-44.3217,17.1814,-84.9729,69.9394,14.5299,-24.0133,-48.0986,7.12502,2.46453,-78.0641,1.73937e-16,-3.18055e-15,-28.4656,-25.7634,83.2224,71.4901,12.0275,-35.2248,-34.0082,7.12502,-8.36174,-4.19366,-42.6223,8.92977,16.9471,51.3032,-7.06662,-12.3859,-29.3871,-43.1522,-0.460972,-17.879,50.977,-9.40733,-2.57226,-24.1798
-0.786743,17.639,1.36984,20.2364,-0.709298,-0.514578,-6.58674,-0.0793783,1.43573,-6.90172,-0.131675,1.37793,-3.44598,-0.0942046,0.614547,-13.1706,-3.2237,-6.25753,13.5624,-3.81128,4.20799,6.49377,-1.82148,2.00848,6.4605e-16,4.77083e-15,-44.83,17.2137,-85.2901,69.0203,15.1175,-23.9393,-48.6484,7.12502,2.53598,-78.6131,6.4605e-16,4.77083e-15,-29.0292,-25.9096,83.5782,71.8856,13.0089,-35.4167,-34.807,7.12502,-8.54693,-5,-40.6677,9.27591,16.607,48.0309,-2.19114,-9.91074,-31.817,-41.2011,-0.520384,-17.767,47.6845,-4.21489,-4.40856,-22.1693
-0.775107,17.9815,1.44566,20.0558,-0.975089,-0.526635,-7.14831,0.0597781,1.56386,-6.89988,0.0342839,1.36781,-3.1328,-0.0152676,0.537877,-15.3434,-3.62803,-5.16571,16.4042,-4.21154,2.37965,7.75262,-2.10241,1.16006,-2.48481e-16,5.1684e-15,-45.2638,17.2569,-85.5448,68.1771,15.416,-24.4659,-47.9676,7.12502,2.0274,-77.9377,-2.48481e-16,5.1684e-15,-29.5026,-25.9405,83.9622,72.1701,14.2911,-35.5194,-35.6871,7.12502,-8.64603,-5.8841,-38.9516,9.45754,16.374,44.7988,2.61372,-7.25462,-32.4856,-39.456,-0.699928,-17.5047,44.5323,0.843849,-5.81005,-18.023
-0.758685,18.3198,1.50426,20.0546,-1.03903,-0.51047,-7.85352,0.167894,1.83041,-6.90342,0.144972,1.28126,-2.74643,0.0295636,0.305084,-15.9111,-3.75337,-4.74977,17.6255,-4.35498,1.78044,8.24219,-2.20313,0.862229,-5.69021e-15,-6.75868e-15,-45.671,17.0544,-85.8041,67.4339,15.5205,-24.7936,-46.9185,7.12502,1.7109,-76.8914,-5.69021e-15,-6.75868e-15,-30.0926,-25.9247,84.2657,72.6239,15.8182,-35.6764,-36.7817,7.12502,-8.79753,-6.98509,-37.5689,9.35357,16.0816,41.558,7.24452,-5.25061,-30.2635,-38.1353,-1.30774,-17.1389,41.6312,4.96131,-6.49302,-14.2054
-0.739956,18.653,1.54716,20.1487,-1.23306,-0.494446,-8.52515,0.311487,2.09513,-6.80911,0.297432,1.1604,-2.27568,0.0968919,0.0426875,-16.0656,-3.76641,-4.49847,17.9777,-4.3976,1.60828,8.37932,-2.22389,0.754072,-8.05078e-15,-3.57812e-15,-45.7973,16.7569,-86.0317,66.6818,15.4798,-24.7085,-46.8304,7.12502,1.79311,-76.8026,-8.05078e-15,-3.57812e-15,-30.4638,-25.8336,84.4341,72.9861,17.4085,-36.1519,-37.8544,7.12502,-9.25639,-8.07757,-36.5507,9.20659,15.7326,38.5676,11.8947,-4.06242,-26.2982,-37.0896,-1.98518,-16.7848,39.1582,7.81024,-5.70604,-13.1132
-0.717797,18.9815,1.61216,19.988,-1.96834,-0.788403,-9.07063,0.624556,2.54805,-6.58944,0.660073,1.14874,-1.73846,0.268517,-0.194043,-16.4663,-3.74631,-4.51735,18.4693,-4.36538,1.66581,8.61822,-2.20242,0.770966,-1.16786e-15,6.75868e-15,-45.8876,16.7503,-86.262,65.911,15.344,-24.5707,-47.1069,7.12502,1.92614,-77.0779,-1.16786e-15,6.75868e-15,-30.9177,-25.4791,84.687,73.2415,18.8315,-36.7329,-38.987,7.12502,-9.81693,-9.2358,-35.4104,9.40449,15.6667,35.8763,16.3643,-2.81964,-23.2317,-35.6095,-2.13613,-16.4018,37.1305,9.16693,-2.96365,-13.7072
-0.707123,19.2772,1.6416,20.2899,-2.04701,-0.8128,-9.45799,0.651986,2.65941,-6.77879,0.678642,1.19275,-1.7245,0.273699,-0.20637,-16.5475,-3.74078,-4.59726,18.9084,-4.3517,1.71561,8.78534,-2.19725,0.798815,7.70291e-15,1.86858e-14,-46.3214,16.9042,-86.5383,65.2903,14.9901,-24.591,-46.9636,7.12502,1.90654,-76.9348,7.70291e-15,1.86858e-14,-31.9631,-24.9356,85.1198,73.6636,19.991,-36.9944,-39.8952,7.12502,-10.0692,-10.1561,-35.1389,9.08892,15.4667,33.7956,20.2906,-2.11325,-21.5378,-35.0549,-2.41097,-16.2418,35.6585,9.99452,0.224527,-13.6582
-0.694566,19.5476,1.67167,20.391,-2.50021,-0.937474,-9.78102,0.819217,2.81505,-6.82072,0.876981,1.20694,-1.58659,0.369205,-0.259439,-16.5161,-3.73204,-4.34593,19.1139,-4.3423,1.40758,8.83624,-2.20872,0.653936,3.97569e-15,3.97569e-15,-46.7129,16.9338,-86.7475,64.8166,14.4787,-24.8155,-46.3642,7.12502,1.68976,-76.3372,3.97569e-15,3.97569e-15,-32.8646,-24.4333,85.4356,73.9644,21.0752,-36.7283,-40.1511,7.12502,-9.81254,-10.3997,-34.9368,8.85159,15.4192,32.3645,23.2054,-1.223,-21.4828,-34.3719,-2.18012,-16.1667,34.7464,10.8736,3.20397,-11.7017
-0.685454,19.7823,1.66978,21.0922,-2.38839,-0.984299,-10.4862,0.781518,2.96223,-6.90069,0.787769,1.25997,-1.28878,0.323156,-0.286659,-16.8157,-3.66821,-4.07961,19.1873,-4.24731,1.12388,8.89953,-2.17351,0.520841,-1.11816e-15,3.57812e-15,-46.665,16.9774,-86.8353,64.3304,14.0824,-24.4119,-46.0193,7.12502,2.07958,-75.9889,-1.11816e-15,3.57812e-15,-33.1763,-23.795,85.5111,74.0138,21.9832,-36.648,-40.1369,7.12502,-9.735,-10.3819,-35.6651,8.4097,15.3108,31.6639,23.8789,-1.0968,-20.2463,-34.8329,-2.29615,-15.9841,34.3935,11.863,5.3903,-13.9649
-0.678282,19.9897,1.67302,21.6818,-2.41111,-1.08961,-11.1915,0.766899,3.10187,-6.80835,0.72209,1.32266,-0.811459,0.293053,-0.298143,-17.2616,-3.57321,-3.76285,19.0238,-4.13003,0.909599,8.90798,-2.11529,0.405253,3.57812e-15,8.74653e-15,-46.1544,17.0704,-86.9593,63.5158,13.6479,-23.9817,-45.7928,7.12502,2.49508,-75.7579,3.57812e-15,8.74653e-15,-33.2935,-23.0088,85.4961,73.9611,22.4273,-36.9418,-40.1387,7.12502,-10.0185,-10.3972,-36.4069,8.21699,15.2487,31.5255,23.3725,-0.350542,-21.0263,-35.2822,-2.1209,-15.8592,34.4882,12.1816,6.38601,-14.4121
-0.667893,20.1847,1.69842,21.5786,-2.99767,-1.37994,-11.364,0.950109,3.37468,-6.68839,0.926797,1.33678,-0.584555,0.391524,-0.412111,-16.3186,-3.32694,-3.5902,18.0779,-3.91328,1.13957,8.41192,-1.9801,0.503799,-5.46658e-15,-7.55382e-15,-46.0354,17.0911,-87.3485,62.5271,13.3216,-25.1053,-44.8636,7.12502,1.40986,-74.8387,-5.46658e-15,-7.55382e-15,-33.9955,-22.3045,85.6249,73.7968,22.5321,-36.8015,-40.2101,7.12502,-9.88313,-10.4621,-36.4977,8.50411,15.3622,31.829,22.6879,0.507829,-21.8928,-34.8764,-1.43047,-15.7861,34.927,11.9799,6.55973,-13.1935
-0.665169,20.3659,1.68578,21.8877,-3.40754,-1.42611,-11.2903,0.978148,3.30234,-7.13546,0.986121,1.33708,-1.09274,0.412317,-0.36874,-13.8119,-2.86324,-3.99557,16.4198,-3.47737,2.23347,7.4333,-1.70654,1.02369,1.11071e-14,-5.1684e-15,-46.8361,17.0561,-87.9287,61.9828,13.261,-25.9474,-44.2817,7.12502,0.596573,-74.2606,1.11071e-14,-5.1684e-15,-35.34,-21.5978,85.9115,73.4265,22.599,-36.278,-40.1842,7.12502,-9.37805,-10.4128,-37.2761,8.82838,15.1562,32.4411,22.8126,0.91744,-22.5769,-35.2679,-0.898964,-15.8492,35.6183,11.4912,6.03738,-12.6094
