JuanDHNZ/ProyectoFinalCD/preprocessing/sports_trials_csv/49_19.csv
root1,root2,root3,root4,root5,root6,lowerback1,lowerback2,lowerback3,upperback1,upperback2,upperback3,thorax1,thorax2,thorax3,lowerneck1,lowerneck2,lowerneck3,upperneck1,upperneck2,upperneck3,head1,head2,head3,rclavicle1,rclavicle2,rhumerus1,rhumerus2,rhumerus3,rradius1,rwrist1,rhand1,rhand2,rfingers1,rthumb1,rthumb2,lclavicle1,lclavicle2,lhumerus1,lhumerus2,lhumerus3,lradius1,lwrist1,lhand1,lhand2,lfingers1,lthumb1,lthumb2,rfemur1,rfemur2,rfemur3,rtibia1,rfoot1,rfoot2,rtoes1,lfemur1,lfemur2,lfemur3,ltibia1,lfoot1,lfoot2,ltoes1
4.14202,17.564,3.95801,20.3165,-12.2008,-4.06848,-7.86178,-0.918663,7.21276,-13.4236,-1.2512,3.31515,-10.1084,-1.18833,-0.412067,-4.31778,17.3901,12.5059,13.7538,21.5859,5.63065,5.60678,11.4859,1.38642,1.70955e-14,3.89618e-14,-10.4707,-21.2555,24.4236,121.354,-57.5213,-2.19839,-45.1872,7.12502,23.4831,-73.7739,1.70955e-14,3.89618e-14,31.1028,33.023,-12.2528,31.17,39.9025,-26.5156,-17.871,7.12502,0.0477361,12.1088,-2.07652,12.1495,-1.99339,2.02339,24.9675,-10.0752,-35.6713,-23.1863,-3.68934,-22.9205,20.9649,-15.247,14.6815,11.1059
4.14084,17.5664,3.95886,20.5198,-12.5611,-4.28566,-7.97214,-0.742738,7.27212,-13.3951,-1.02933,3.33231,-9.99858,-1.08068,-0.433893,-4.64054,17.3796,12.524,13.878,21.5138,5.6392,5.69781,11.4565,1.42004,1.05356e-14,1.82882e-14,-10.6103,-21.285,24.4607,121.351,-57.4129,-2.42525,-45.2656,7.12502,23.2655,-73.8801,1.05356e-14,1.82882e-14,31.5663,33.5918,-11.6373,31.0064,39.2288,-26.3014,-18.0519,7.12502,0.25468,11.9277,-2.0876,12.4729,-1.99479,1.40173,25.2897,-10.1369,-35.6723,-23.4025,-3.49805,-22.7977,21.1414,-15.2791,14.9395,10.8479
4.14385,17.5643,3.96516,20.488,-12.5196,-4.29331,-8.07502,-0.737763,7.37856,-13.3466,-1.03878,3.31327,-9.88844,-1.09341,-0.517733,-4.70823,17.3683,12.5117,13.9916,21.486,5.63848,5.74347,11.4467,1.43251,4.09496e-14,6.36111e-15,-10.57,-21.3316,24.4117,121.333,-57.3947,-2.56082,-45.1902,7.12502,23.1354,-73.821,4.09496e-14,6.36111e-15,31.316,33.3741,-11.9618,31.1183,39.5866,-26.8793,-18.2627,7.12502,-0.303533,11.7168,-2.10553,12.4515,-1.96439,1.6348,25.153,-10.1236,-35.775,-23.3403,-3.46727,-22.8217,21.1608,-15.2445,14.912,10.3925
4.14565,17.565,3.96159,20.5703,-12.6113,-4.32665,-8.1254,-0.694739,7.40826,-13.3494,-0.987571,3.30945,-9.86058,-1.07084,-0.539845,-4.72773,17.3529,12.6049,14.0782,21.4656,5.52484,5.79716,11.4366,1.39805,-4.33351e-14,6.59965e-14,-10.558,-21.3819,24.3803,121.337,-57.3639,-2.64047,-45.1845,7.12502,23.059,-73.8249,-4.33351e-14,6.59965e-14,30.9501,33.0074,-12.4753,31.2629,40.0798,-28.0588,-18.5014,7.12502,-1.44275,11.4735,-2.38901,12.5125,-1.99462,1.84456,25.1251,-10.1365,-35.8782,-23.4675,-3.44869,-22.8053,21.1992,-15.2842,14.9875,10.4152
4.1451,17.5649,3.96329,20.2509,-12.1602,-4.08625,-7.96439,-0.890302,7.31445,-13.2688,-1.23613,3.2576,-9.87268,-1.18537,-0.540902,-4.75928,17.3846,12.6753,14.1169,21.4976,5.50109,5.82617,11.4547,1.39355,-3.598e-14,-4.77083e-15,-10.5713,-21.4987,24.3519,121.338,-57.3315,-2.42671,-45.3006,7.12502,23.2641,-73.9153,-3.598e-14,-4.77083e-15,30.9106,32.9982,-12.5354,31.2413,40.1354,-28.5735,-18.7274,7.12502,-1.93979,11.2436,-1.96157,12.1471,-1.92928,2.04198,24.914,-10.1281,-35.9183,-23.2017,-3.52599,-22.9714,21.1933,-15.3515,14.5814,10.4468
4.14192,17.5672,3.96464,20.5119,-12.6633,-4.25869,-8.13758,-0.751481,7.24423,-13.3368,-1.0614,3.33866,-9.83438,-1.08932,-0.418864,-4.65993,17.4686,12.5953,14.1813,21.6027,5.71828,5.80095,11.5185,1.46561,-9.14409e-15,-1.11319e-14,-10.3997,-21.5234,24.2392,121.319,-57.2482,-2.27126,-45.3195,7.12502,23.4132,-73.9152,-9.14409e-15,-1.11319e-14,30.7996,32.8653,-12.6285,31.2107,40.1047,-28.5706,-18.6081,7.12502,-1.937,11.3629,-2.67131,12.553,-2.04642,2.40734,24.7733,-10.1534,-36.0629,-23.3785,-3.39017,-22.8847,21.1548,-15.3127,14.9286,10.5511
4.14327,17.5662,3.9648,20.5267,-12.6107,-4.28101,-8.16708,-0.770814,7.30323,-13.368,-1.08915,3.35209,-9.8588,-1.10936,-0.435685,-4.68613,17.4835,12.5415,14.3706,21.5962,5.87797,5.8428,11.5304,1.52934,-3.12092e-14,1.03368e-14,-10.3055,-21.4321,24.1622,121.321,-57.1625,-2.36651,-45.2893,7.12502,23.3218,-73.8966,-3.12092e-14,1.03368e-14,30.7064,32.6694,-12.7713,31.1796,40.1061,-28.4691,-18.4958,7.12502,-1.83893,11.476,-2.89248,12.5108,-1.99633,2.8397,24.4869,-10.1566,-36.2149,-23.3778,-3.51398,-22.8232,21.1127,-15.2056,15.0014,10.5666
4.14168,17.5652,3.96344,20.3072,-12.1994,-4.10014,-8.0393,-0.913443,7.24266,-13.3235,-1.26892,3.30151,-9.89056,-1.19421,-0.453519,-4.86445,17.4329,12.5891,14.52,21.4986,5.81765,5.92971,11.4868,1.52647,4.63168e-14,1.11319e-14,-10.3918,-21.4097,24.1903,121.332,-57.1334,-2.52853,-45.3428,7.12502,23.1664,-73.9698,4.63168e-14,1.11319e-14,30.6627,32.5682,-12.8786,31.1877,40.1645,-28.7023,-18.7579,7.12502,-2.06422,11.2118,-2.62462,12.1676,-1.89483,3.13257,24.2382,-10.1516,-36.2047,-23.2139,-3.70954,-22.8918,21.1127,-15.1901,14.7567,10.6608
4.13653,17.5676,3.96237,20.5522,-12.6748,-4.2138,-8.1821,-0.744732,7.11191,-13.3227,-1.05581,3.32401,-9.78488,-1.07326,-0.364224,-5.21885,17.4597,12.5369,14.6986,21.4698,5.88423,6.03089,11.481,1.59378,-1.74931e-14,-7.95139e-15,-10.4752,-21.5021,24.2135,121.305,-57.0972,-2.53556,-45.3119,7.12502,23.1596,-73.9397,-1.74931e-14,-7.95139e-15,30.6091,32.6344,-12.9096,31.2713,40.2372,-29.2511,-18.9938,7.12502,-2.59419,10.9702,-3.2325,12.534,-2.03649,3.36293,24.223,-10.1529,-36.0435,-23.4095,-3.62989,-22.8438,21.1053,-15.177,15.1372,10.8114
4.14047,17.5656,3.96672,20.5591,-12.6727,-4.16978,-8.24058,-0.755067,7.15682,-13.3366,-1.07704,3.30986,-9.77131,-1.08933,-0.40476,-5.274,17.5292,12.3844,14.8007,21.5398,6.09229,6.03435,11.5259,1.68485,-2.78299e-14,1.59028e-15,-10.4058,-21.4811,24.1381,121.316,-57.0548,-2.60858,-45.2556,7.12502,23.0896,-73.8921,-2.78299e-14,1.59028e-15,30.3054,32.4172,-13.2077,31.4417,40.5597,-29.8347,-19.1078,7.12502,-3.15784,10.8486,-3.43283,12.5098,-2.0937,3.73607,24.0841,-10.1346,-35.782,-23.4142,-3.70312,-22.8971,21.0882,-15.1853,15.1805,11.1654
4.14059,17.5651,3.96611,20.5469,-12.6741,-4.1329,-8.20107,-0.777573,7.12319,-13.397,-1.09886,3.3241,-9.86448,-1.0995,-0.366725,-5.11974,17.5687,12.2801,14.8003,21.6082,6.24207,5.98241,11.5647,1.72727,5.22804e-14,-9.54166e-15,-10.339,-21.379,24.1025,121.402,-57.0836,-2.88742,-45.3521,7.12502,22.822,-74.0219,5.22804e-14,-9.54166e-15,30.0842,32.1777,-13.4035,31.549,40.7648,-30.2794,-19.0535,7.12502,-3.58726,10.896,-3.50937,12.5005,-2.12776,3.88386,24.0883,-10.174,-35.6933,-23.4225,-3.6118,-22.954,21.0979,-15.2944,15.0342,11.7296
4.13652,17.5665,3.9626,20.5547,-12.6715,-4.13732,-8.12562,-0.769104,7.04281,-13.4105,-1.07743,3.32168,-9.9185,-1.0823,-0.322789,-5.08717,17.541,12.3355,14.6822,21.5832,6.17087,5.95238,11.546,1.6888,9.14409e-15,1.51076e-14,-10.4184,-21.345,24.1302,121.421,-57.0144,-3.10566,-45.3847,7.12502,22.6126,-74.0802,9.14409e-15,1.51076e-14,30.3968,32.4644,-12.9903,31.4486,40.5366,-30.5749,-19.3441,7.12502,-3.87266,10.6005,-3.49844,12.4999,-2.09472,3.85702,24.1224,-10.2032,-35.7435,-23.4546,-3.4939,-22.9516,21.1388,-15.3932,14.8816,11.8599
4.14042,17.5649,3.9652,20.3373,-12.2123,-4.01268,-8.04279,-0.882721,7.13799,-13.304,-1.23099,3.23302,-9.85862,-1.1681,-0.471507,-5.14569,17.4763,12.5022,14.5144,21.5059,5.9345,5.95044,11.4937,1.59484,1.19271e-15,1.82882e-14,-10.6413,-21.3766,24.246,121.453,-57.036,-3.2385,-45.3008,7.12502,22.4851,-74.0118,1.19271e-15,1.82882e-14,30.6762,32.7605,-12.7229,31.36,40.4393,-30.7244,-19.8163,7.12502,-4.01699,10.1256,-3.05446,12.1356,-1.94444,3.90962,23.998,-10.1962,-35.7125,-23.2904,-3.65141,-22.9941,21.1678,-15.3732,14.5843,11.5338
4.13992,17.5653,3.96585,20.6072,-12.6645,-4.20292,-8.25854,-0.717064,7.16735,-13.3378,-1.0296,3.27885,-9.7603,-1.06826,-0.444725,-5.07783,17.4452,12.6476,14.5072,21.4862,5.74213,5.97438,11.4775,1.5189,-2.127e-14,-3.33958e-14,-10.6929,-21.3352,24.3147,121.582,-57.3634,-3.2295,-45.2989,7.12502,22.4937,-74.0088,-2.127e-14,-3.33958e-14,30.452,32.5725,-13.0296,31.4168,40.579,-30.7068,-19.8213,7.12502,-3.99998,10.1209,-3.60074,12.5001,-2.04099,4.01809,24.0318,-10.2038,-35.8083,-23.512,-3.50888,-22.8987,21.1792,-15.2997,14.9626,11.1727
4.13993,17.5625,3.97034,20.5428,-12.6869,-4.12235,-8.29188,-0.775339,7.11772,-13.3772,-1.10744,3.30399,-9.78919,-1.10264,-0.38885,-4.64909,17.4264,12.7404,14.3362,21.5539,5.53868,5.8846,11.4955,1.40708,-2.0276e-14,-3.10104e-14,-10.467,-21.1943,24.1477,121.66,-57.5118,-3.0362,-45.3089,7.12502,22.6792,-73.9962,-2.0276e-14,-3.10104e-14,30.2126,32.3752,-13.2354,31.4364,40.5481,-30.9205,-19.9251,7.12502,-4.20641,10.0131,-3.5631,12.5106,-2.12174,4.09165,23.9651,-10.1941,-35.9243,-23.4172,-3.423,-23.0262,21.1508,-15.2734,14.9455,10.7674
4.13721,17.5622,3.97082,20.463,-12.6746,-4.03502,-8.28123,-0.815092,7.01372,-13.3744,-1.15759,3.30502,-9.78971,-1.1174,-0.330237,-4.42378,17.4261,12.6232,14.1245,21.6003,5.59237,5.76174,11.509,1.40118,6.67916e-14,1.98785e-14,-10.4114,-21.1332,24.0756,121.712,-57.537,-2.70862,-45.1243,7.12502,22.9936,-73.7728,6.67916e-14,1.98785e-14,30.3031,32.5091,-13.0609,31.3716,40.4118,-31.2506,-20.0979,7.12502,-4.52514,9.8338,-3.5634,12.4958,-2.17254,4.25507,23.8581,-10.1446,-35.78,-23.3316,-3.3616,-23.1238,21.128,-15.3397,14.8352,10.7997
4.13549,17.563,3.96857,20.3407,-12.4728,-3.95044,-8.18333,-0.870805,6.96053,-13.3452,-1.22283,3.2798,-9.81387,-1.14518,-0.326302,-4.72021,17.4599,12.4254,14.3013,21.5703,5.90824,5.80859,11.5125,1.54478,-4.17448e-15,7.95139e-16,-10.5793,-21.1368,24.2237,121.78,-57.6451,-2.21522,-44.7113,7.12502,23.467,-73.3001,-4.17448e-15,7.95139e-16,30.5844,32.7953,-12.6825,31.2701,40.1441,-31.249,-20.2147,7.12502,-4.52356,9.71702,-3.41742,12.3355,-2.11232,4.37589,23.7254,-10.0781,-35.6727,-23.2478,-3.47882,-23.1355,21.1151,-15.3459,14.7018,10.9545
4.13797,17.5628,3.96813,20.293,-12.3018,-3.91667,-8.18677,-0.882784,7.00578,-13.2881,-1.24449,3.23082,-9.74999,-1.16006,-0.406514,-5.05177,17.4748,12.4247,14.4725,21.5192,6.00126,5.9059,11.4998,1.60979,1.5704e-14,3.57812e-14,-10.7551,-21.167,24.3017,121.771,-57.5947,-1.90504,-44.358,7.12502,23.7645,-72.9085,1.5704e-14,3.57812e-14,31.1102,33.3962,-12.0002,31.0656,39.3754,-30.8933,-20.3405,7.12502,-4.1801,9.59823,-3.29426,12.192,-2.05704,4.39059,23.6843,-10.0594,-35.6945,-23.2238,-3.57916,-23.1266,21.105,-15.2478,14.6432,10.6317
4.14032,17.5633,3.96753,20.6043,-12.7139,-4.12114,-8.41578,-0.682883,7.08665,-13.3061,-1.00213,3.23691,-9.62684,-1.046,-0.451542,-4.97042,17.4215,12.5513,14.2645,21.4853,5.76861,5.86428,11.4659,1.5084,5.50634e-14,2.14687e-14,-10.8091,-21.1993,24.2235,121.719,-57.489,-1.85544,-44.2537,7.12502,23.812,-72.798,5.50634e-14,2.14687e-14,31.3985,33.7331,-11.6774,30.9417,38.9098,-30.5078,-20.3167,7.12502,-3.80783,9.62906,-3.81528,12.5096,-2.1494,4.38883,23.8223,-10.0691,-35.682,-23.4841,-3.48005,-23.0087,21.1031,-15.2063,14.9863,10.5164
4.13892,17.5612,3.97169,20.4517,-12.6427,-4.04443,-8.34139,-0.723489,7.03206,-13.2847,-1.04927,3.22026,-9.64536,-1.06472,-0.438306,-4.7368,17.3869,12.617,14.0248,21.5,5.59716,5.77558,11.4563,1.4175,-7.95139e-15,1.82882e-14,-10.7791,-21.2369,24.1701,121.698,-57.5536,-1.82831,-44.2672,7.12502,23.8381,-72.8081,-7.95139e-15,1.82882e-14,31.2432,33.5824,-11.9129,30.9851,39.1851,-29.9244,-20.215,7.12502,-3.24444,9.74003,-3.65926,12.475,-2.15569,4.511,23.7338,-10.0821,-35.7767,-23.3117,-3.42591,-23.1029,21.0971,-15.2404,14.8792,10.4438
4.13653,17.5595,3.97241,20.3691,-12.6388,-3.97082,-8.31251,-0.743722,6.9337,-13.2685,-1.07263,3.20908,-9.63971,-1.06696,-0.396271,-4.65597,17.4124,12.6215,13.9242,21.5481,5.60766,5.73058,11.4767,1.40997,3.12092e-14,4.77083e-15,-10.7823,-21.3433,24.1819,121.683,-57.742,-2.04104,-44.4231,7.12502,23.634,-72.9904,3.12092e-14,4.77083e-15,31.161,33.538,-12.0058,31.0328,39.4637,-29.4393,-20.1349,7.12502,-2.77597,9.82681,-3.66486,12.4731,-2.20785,4.68709,23.6219,-10.0906,-35.8189,-23.2039,-3.35417,-23.1997,21.063,-15.2529,14.8155,10.3649
4.13387,17.5617,3.96561,20.4163,-12.6681,-3.97638,-8.28443,-0.740345,6.86975,-13.2871,-1.06272,3.21752,-9.6736,-1.05654,-0.35059,-4.67555,17.3967,12.7093,13.9102,21.5279,5.51241,5.74901,11.464,1.37453,-6.55989e-14,7.95139e-16,-10.763,-21.4132,24.124,121.654,-57.8461,-2.38391,-44.5953,7.12502,23.3051,-73.2047,-6.55989e-14,7.95139e-16,31.2577,33.6677,-11.8524,31.0221,39.5233,-29.3318,-20.1702,7.12502,-2.67212,9.79284,-3.85664,12.4835,-2.21404,4.85436,23.5798,-10.0492,-35.7069,-23.2501,-3.32228,-23.1858,21.0258,-15.2073,14.8238,10.4007
4.13644,17.5626,3.96218,20.2318,-12.2691,-3.82059,-8.13742,-0.903782,6.88221,-13.282,-1.26707,3.20051,-9.76666,-1.16115,-0.370047,-4.79419,17.3842,12.7208,14.1039,21.4879,5.49617,5.83293,11.4512,1.38952,5.06901e-14,-6.36111e-15,-10.6701,-21.4233,24.0477,121.635,-57.8415,-2.3151,-44.618,7.12502,23.3711,-73.2191,5.06901e-14,-6.36111e-15,31.2425,33.726,-11.82,30.991,39.618,-28.8958,-20.2638,7.12502,-2.25112,9.70405,-3.58433,12.1466,-2.13367,5.00175,23.4552,-10.0034,-35.7092,-23.0962,-3.40975,-23.271,20.9649,-15.1127,14.5043,10.2213
4.13588,17.5649,3.95828,20.4924,-12.6634,-4.02211,-8.28528,-0.775959,6.93933,-13.3305,-1.10675,3.28142,-9.72911,-1.08376,-0.317621,-4.80799,17.3999,12.6481,14.2254,21.5051,5.54345,5.86171,11.464,1.42048,-1.72943e-14,2.38542e-15,-10.5816,-21.4609,23.9976,121.659,-57.8834,-2.15582,-44.698,7.12502,23.5239,-73.2796,-1.72943e-14,2.38542e-15,31.0372,33.6521,-12.0185,31.0096,39.8139,-28.5228,-20.303,7.12502,-1.89085,9.66835,-4.19075,12.4666,-2.19946,5.21054,23.4339,-9.97855,-35.7561,-23.3158,-3.29627,-23.1358,20.9451,-15.1078,14.766,10.3954
4.13488,17.5617,3.96157,20.1607,-12.2373,-3.83146,-8.14257,-0.942256,6.92222,-13.2425,-1.32062,3.22191,-9.72257,-1.18858,-0.370552,-4.79784,17.3959,12.6759,14.2109,21.5006,5.52889,5.86,11.4614,1.41145,-5.08889e-14,6.36111e-15,-10.6509,-21.4461,24.0033,121.689,-57.8347,-2.46306,-44.7966,7.12502,23.2292,-73.4157,-5.08889e-14,6.36111e-15,31.022,33.6561,-12.0588,31.055,40.0531,-28.5733,-20.055,7.12502,-1.93965,9.91596,-3.70315,12.1489,-2.10087,5.37304,23.2208,-9.94384,-35.7625,-23.0045,-3.56692,-23.2094,20.8939,-15.0647,14.5646,10.4524
4.12925,17.5637,3.95286,20.3367,-12.646,-3.95969,-8.09832,-0.781107,6.78973,-13.2962,-1.09617,3.22994,-9.78964,-1.06685,-0.287544,-4.92484,17.3786,12.7262,14.2633,21.443,5.57439,5.89661,11.4404,1.42963,4.21423e-14,-3.57812e-14,-10.7781,-21.4102,24.0512,121.644,-57.5891,-2.31828,-44.6921,7.12502,23.3681,-73.2936,4.21423e-14,-3.57812e-14,31.239,33.7083,-11.8669,31.0391,40.0622,-28.7539,-19.8251,7.12502,-2.11403,10.1442,-4.08057,12.4871,-2.20022,5.31619,23.3707,-9.99044,-35.8272,-23.1972,-3.48527,-23.1204,20.9225,-15.0626,14.8838,10.7774
4.12828,17.5659,3.93983,20.1046,-12.2153,-3.75873,-7.76385,-0.950225,6.67161,-13.3066,-1.28856,3.18561,-10.0026,-1.15636,-0.257787,-5.00519,17.3576,12.7367,14.2952,21.3958,5.59925,5.9171,11.4207,1.44088,-4.63168e-14,3.26007e-14,-10.7544,-21.4557,24.0008,121.561,-57.4344,-2.02036,-44.6898,7.12502,23.6539,-73.2546,-4.63168e-14,3.26007e-14,31.4315,33.8124,-11.6512,30.9669,39.7453,-28.9817,-20.0932,7.12502,-2.334,9.87382,-3.84645,12.1255,-2.1088,5.58654,23.2563,-10.0082,-35.9625,-23.0413,-3.44117,-23.2495,20.8417,-14.9656,14.4225,10.8106
4.13008,17.5607,3.96323,20.279,-12.7084,-3.85189,-8.23956,-0.742686,6.72756,-13.2459,-1.06405,3.15467,-9.64524,-1.04565,-0.340858,-4.98098,17.3598,12.7447,14.2517,21.4031,5.59787,5.90031,11.4229,1.43521,-2.38542e-15,-3.10104e-14,-10.7042,-21.4891,23.9048,121.518,-57.3723,-2.3659,-44.8718,7.12502,23.3224,-73.479,-2.38542e-15,-3.10104e-14,31.6725,34.1369,-11.33,30.8842,39.3493,-29.3084,-20.5312,7.12502,-2.64954,9.4321,-4.19564,12.5185,-2.33057,5.6805,23.156,-9.98838,-36.0828,-23.0316,-3.15314,-23.368,20.8489,-15.1544,14.6641,10.7128
4.12639,17.5657,3.9376,20.1047,-12.2634,-3.70426,-7.8669,-0.919376,6.62166,-13.2569,-1.26159,3.13632,-9.88096,-1.13791,-0.289416,-4.99652,17.3499,12.8561,14.2039,21.3967,5.45363,5.91534,11.4132,1.38242,-4.11484e-14,3.57812e-14,-10.7338,-21.5293,23.847,121.523,-57.3628,-2.65135,-45.0086,7.12502,23.0485,-73.6503,-4.11484e-14,3.57812e-14,31.9559,34.5264,-10.9469,30.8066,38.9636,-29.715,-20.5812,7.12502,-3.04222,9.37681,-3.95163,12.1465,-2.17156,5.71686,23.1997,-9.99417,-35.9961,-23.0359,-3.37552,-23.332,20.8237,-14.9812,14.4316,10.564
4.12738,17.5637,3.95163,20.1647,-12.4272,-3.82776,-8.08394,-0.85277,6.74849,-13.2128,-1.19625,3.16991,-9.70551,-1.11207,-0.332126,-5.20057,17.3674,12.8432,14.4116,21.3822,5.46351,6.01287,11.4136,1.41853,8.15017e-15,-1.82882e-14,-10.676,-21.5899,23.763,121.544,-57.3499,-2.84362,-45.0713,7.12502,22.864,-73.736,8.15017e-15,-1.82882e-14,31.9524,34.622,-10.8813,30.7972,38.8412,-29.9003,-20.4217,7.12502,-3.22122,9.53368,-4.03703,12.3123,-2.1641,5.73074,23.1315,-9.97489,-35.8948,-22.989,-3.42687,-23.2554,20.8356,-15.0376,14.7003,10.4557
4.12407,17.5643,3.9498,20.263,-12.6542,-3.8204,-8.13016,-0.830586,6.61648,-13.2752,-1.16333,3.23195,-9.74154,-1.08221,-0.191718,-5.24346,17.3941,12.6821,14.6212,21.4029,5.61632,6.05379,11.4346,1.49638,3.95581e-14,-4.77083e-15,-10.5393,-21.5503,23.7151,121.628,-57.3232,-2.87555,-44.9868,7.12502,22.8334,-73.6553,3.95581e-14,-4.77083e-15,31.7031,34.4238,-11.0831,30.8235,38.8678,-30.0459,-20.5702,7.12502,-3.36178,9.38304,-4.35733,12.4678,-2.30037,5.92192,23.0664,-9.95455,-35.9242,-23.0781,-3.51711,-23.2613,20.8011,-15.0263,14.9511,10.4983
4.1213,17.5655,3.94332,20.3098,-12.6517,-3.77996,-8.08261,-0.847851,6.50513,-13.3468,-1.17553,3.25034,-9.84761,-1.0799,-0.10595,-5.19745,17.3637,12.663,14.7342,21.3645,5.64401,6.07713,11.4214,1.50516,5.54609e-14,-3.97569e-14,-10.5581,-21.3872,23.7415,121.804,-57.5263,-3.1974,-44.9981,7.12502,22.5245,-73.7043,5.54609e-14,-3.97569e-14,31.8044,34.4441,-10.8942,30.7496,38.5206,-29.9485,-20.6015,7.12502,-3.26774,9.35318,-4.40155,12.433,-2.33447,5.86498,23.1305,-9.95786,-35.933,-23.1979,-3.55254,-23.2648,20.8246,-14.9285,14.9836,10.2709
4.12019,17.5654,3.94177,20.3007,-12.646,-3.83884,-8.04245,-0.808828,6.54208,-13.3398,-1.12178,3.22011,-9.86217,-1.05838,-0.158479,-5.3114,17.3306,12.7258,14.8568,21.2857,5.67564,6.13723,11.3925,1.51954,-5.66536e-14,-2.38542e-14,-10.7577,-21.2259,23.8103,121.955,-57.6712,-3.79765,-45.1172,7.12502,21.9483,-73.8921,-5.66536e-14,-2.38542e-14,32.1826,34.706,-10.4759,30.6419,38.0777,-29.8023,-20.5514,7.12502,-3.12655,9.4054,-4.49142,12.4566,-2.25515,6.05043,23.0557,-9.96439,-35.9238,-23.161,-3.54517,-23.1998,20.8173,-14.9005,15.0248,10.0648
4.11885,17.5656,3.94011,20.3352,-12.6874,-3.84566,-8.10227,-0.775386,6.53525,-13.3156,-1.0859,3.18361,-9.7973,-1.04047,-0.197152,-5.33938,17.343,12.7695,14.7788,21.295,5.67216,6.12178,11.3957,1.51289,-1.53064e-14,7.95139e-16,-10.9121,-21.2512,23.9019,121.966,-57.4986,-3.45677,-44.9794,7.12502,22.2755,-73.7155,-1.53064e-14,7.95139e-16,32.3142,34.8269,-10.3976,30.5953,37.8974,-30.0098,-20.7962,7.12502,-3.32689,9.15763,-4.59257,12.4828,-2.26537,6.12863,23.0729,-9.99367,-36.0232,-23.1913,-3.52562,-23.1964,20.8246,-15.0401,14.9993,10.3937
4.11718,17.5673,3.93838,20.406,-12.6828,-3.87603,-8.21697,-0.75951,6.55831,-13.2986,-1.0773,3.17457,-9.71185,-1.0372,-0.223535,-5.25294,17.3676,12.8001,14.551,21.3539,5.6104,6.04512,11.413,1.47503,3.67752e-14,1.59028e-15,-10.9782,-21.3761,23.9466,121.906,-57.3746,-2.65474,-44.7505,7.12502,23.0453,-73.3926,3.67752e-14,1.59028e-15,32.6465,35.2056,-9.99446,30.4489,37.3973,-30.0043,-20.9579,7.12502,-3.32158,8.996,-4.61096,12.4654,-2.23766,6.04073,23.1321,-9.99111,-36.0247,-23.308,-3.4062,-23.1711,20.8617,-15.0533,14.8888,10.5671
4.11776,17.5676,3.93966,20.3953,-12.6213,-3.93754,-8.29238,-0.736978,6.68835,-13.2432,-1.06069,3.14719,-9.60943,-1.0397,-0.329022,-5.36087,17.3713,12.7763,14.552,21.3403,5.63767,6.05675,11.407,1.49408,1.55052e-14,2.54444e-14,-11.0672,-21.4495,23.9548,121.856,-57.3516,-2.33735,-44.6721,7.12502,23.3498,-73.2758,1.55052e-14,2.54444e-14,32.8986,35.498,-9.70555,30.405,37.1466,-29.9158,-20.985,7.12502,-3.23615,8.97022,-4.48732,12.4409,-2.14952,5.94322,23.0939,-9.97601,-35.8894,-23.2875,-3.32781,-23.1215,20.8884,-15.0258,14.8061,10.4923
4.11836,17.5662,3.94069,20.3766,-12.5655,-3.95514,-8.3609,-0.74492,6.7797,-13.2022,-1.08219,3.13865,-9.52814,-1.05708,-0.391894,-5.62624,17.3727,12.7823,14.8783,21.2839,5.67779,6.20108,11.394,1.54671,-1.98785e-16,-2.94201e-14,-11.0629,-21.4346,23.9045,121.872,-57.4559,-3.02573,-44.8305,7.12502,22.6893,-73.5166,-1.98785e-16,-2.94201e-14,32.8324,35.5068,-9.76925,30.454,37.1424,-29.945,-21.1746,7.12502,-3.26438,8.78017,-4.33513,12.4063,-2.11044,5.78669,23.1539,-10.0155,-35.9492,-23.2498,-3.38029,-23.0945,20.9085,-15.0947,14.791,10.5914
4.11727,17.5669,3.94065,20.3774,-12.5202,-3.95023,-8.40578,-0.799782,6.78806,-13.2039,-1.15778,3.1846,-9.50852,-1.09267,-0.34796,-5.63752,17.4059,12.7918,14.9987,21.3283,5.64375,6.24825,11.4178,1.54997,4.29375e-14,3.4191e-14,-10.9186,-21.3808,23.7917,121.946,-57.5788,-3.72027,-44.9928,7.12502,22.0226,-73.759,4.29375e-14,3.4191e-14,32.8194,35.6333,-9.65425,30.3918,36.7925,-29.7238,-21.3046,7.12502,-3.05073,8.65335,-4.19358,12.3654,-2.09233,5.56154,23.2976,-10.0349,-36.0346,-23.2657,-3.39622,-23.0843,20.9292,-15.138,14.7568,10.6389
4.11656,17.5691,3.94113,20.3571,-12.4913,-3.97612,-8.37748,-0.836527,6.81019,-13.2117,-1.20242,3.22119,-9.5371,-1.1156,-0.319419,-5.58533,17.4667,12.6969,14.9758,21.4177,5.73592,6.2137,11.4624,1.58702,-3.29983e-14,-2.78299e-14,-10.8143,-21.4002,23.7279,121.904,-57.3545,-3.03715,-44.749,7.12502,22.6783,-73.4364,-3.29983e-14,-2.78299e-14,32.7611,35.6801,-9.65266,30.3734,36.675,-29.3542,-21.2387,7.12502,-2.69377,8.72401,-4.12188,12.3588,-2.04583,5.45961,23.3248,-10.0032,-35.9774,-23.2471,-3.32357,-23.0705,20.9289,-15.1169,14.7235,10.4479
4.11434,17.5707,3.94048,20.33,-12.5776,-4.03732,-8.30023,-0.809194,6.81678,-13.2195,-1.15707,3.24188,-9.58793,-1.09357,-0.29847,-5.55701,17.4917,12.5868,14.9714,21.454,5.84316,6.18424,11.4824,1.62779,-9.14409e-15,-1.90833e-14,-10.8058,-21.3926,23.768,121.842,-57.1882,-2.34636,-44.4958,7.12502,23.3412,-73.1007,-9.14409e-15,-1.90833e-14,32.7325,35.6641,-9.69856,30.394,36.7888,-28.992,-20.9057,7.12502,-2.34399,9.0612,-4.16894,12.4694,-2.00726,5.49466,23.2884,-10.0016,-36.0005,-23.2037,-3.29474,-23.013,20.9168,-15.1015,14.8191,10.4534
4.11047,17.5703,3.93707,20.3385,-12.7121,-4.00308,-8.32116,-0.778994,6.70687,-13.2121,-1.1174,3.23746,-9.55915,-1.06318,-0.244135,-5.47231,17.4937,12.5129,14.8684,21.4799,5.85872,6.12734,11.4892,1.62628,3.24019e-14,1.82882e-14,-10.7703,-21.423,23.7308,121.805,-57.1483,-2.35496,-44.5326,7.12502,23.3329,-73.1385,3.24019e-14,1.82882e-14,32.5902,35.5718,-9.92454,30.426,37.0377,-28.6612,-20.3894,7.12502,-2.02447,9.58077,-4.28163,12.5697,-2.09497,5.56215,23.2384,-10.0284,-36.2807,-23.2217,-3.25456,-23.0509,20.9021,-15.1315,14.8343,10.8558
4.10787,17.5691,3.93132,20.3539,-12.744,-3.96626,-8.3749,-0.77619,6.63664,-13.1686,-1.1206,3.21754,-9.47436,-1.05683,-0.230528,-5.62786,17.4934,12.5745,14.9622,21.4521,5.80726,6.19511,11.4778,1.62506,4.37326e-15,-7.15625e-15,-10.6804,-21.5971,23.5572,121.649,-56.9675,-2.36529,-44.6454,7.12502,23.323,-73.2525,4.37326e-15,-7.15625e-15,32.1446,35.2009,-10.5604,30.5909,37.7023,-28.8331,-20.3732,7.12502,-2.19055,9.59527,-4.40497,12.5769,-2.14432,5.72436,23.1104,-10.0365,-36.5347,-23.2536,-3.21988,-23.0862,20.8717,-15.1358,14.7762,11.1367
4.10688,17.5678,3.92791,20.3115,-12.7665,-3.92549,-8.35078,-0.774485,6.58481,-13.1346,-1.11761,3.19591,-9.44617,-1.05035,-0.226227,-5.76503,17.4848,12.6688,15.0637,21.4211,5.69793,6.27248,11.4627,1.60292,2.18663e-14,-5.56597e-15,-10.672,-21.7215,23.5081,121.564,-56.9561,-2.0752,-44.6029,7.12502,23.6013,-73.1745,2.18663e-14,-5.56597e-15,31.8343,34.9009,-11.0013,30.7109,38.1425,-29.043,-20.6682,7.12502,-2.39328,9.29813,-4.5046,12.5947,-2.19623,5.95372,22.979,-10.043,-36.4864,-23.2035,-3.23566,-23.13,20.8375,-15.1522,14.7856,11.2068
4.10511,17.567,3.92714,20.2725,-12.8077,-3.83207,-8.30722,-0.790286,6.46949,-13.1813,-1.13045,3.19196,-9.52072,-1.04855,-0.163744,-5.51909,17.4493,12.7221,14.9462,21.4327,5.54741,6.21722,11.457,1.52507,-6.1822e-14,-2.70347e-14,-10.6594,-21.6748,23.5738,121.615,-57.0843,-1.71683,-44.3687,7.12502,23.945,-72.8956,-6.1822e-14,-2.70347e-14,32.19,35.2341,-10.4916,30.4888,37.412,-28.7068,-20.7581,7.12502,-2.06853,9.21165,-4.55718,12.6069,-2.30336,6.06062,22.9377,-10.0379,-36.4085,-23.1708,-3.24271,-23.2277,20.8238,-15.2017,14.7959,11.1236
4.10253,17.5689,3.9223,20.2903,-12.8255,-3.87562,-8.2525,-0.782259,6.47276,-13.2228,-1.11151,3.21411,-9.59953,-1.0404,-0.138422,-5.33511,17.4043,12.7953,14.8998,21.4134,5.41979,6.19421,11.4412,1.45955,-7.31528e-14,-9.54166e-15,-10.6251,-21.6204,23.5824,121.629,-57.1253,-1.74362,-44.2417,7.12502,23.9193,-72.7719,-7.31528e-14,-9.54166e-15,32.6172,35.6431,-9.86994,30.3049,36.6526,-28.4671,-20.6843,7.12502,-1.837,9.28753,-4.64053,12.6361,-2.24056,6.11724,22.9182,-10.0455,-36.328,-23.2071,-3.20905,-23.1641,20.8114,-15.158,14.8145,10.9784
4.10234,17.5713,3.92365,20.2895,-12.8876,-3.97743,-8.3592,-0.724283,6.60377,-13.1382,-1.05196,3.19405,-9.44274,-1.01973,-0.238925,-5.44823,17.3993,12.8043,14.9577,21.3883,5.40355,6.23351,11.4299,1.46649,2.74323e-14,-3.10104e-14,-10.6933,-21.6703,23.5436,121.652,-57.2422,-2.01454,-44.333,7.12502,23.6595,-72.8971,2.74323e-14,-3.10104e-14,32.2498,35.3349,-10.391,30.5289,37.2724,-28.4118,-20.4623,7.12502,-1.78366,9.50995,-4.81789,12.7328,-2.14878,6.38832,22.7719,-10.0529,-36.198,-23.1461,-3.1419,-23.0807,20.7674,-15.0825,14.8664,10.8805
4.10323,17.5719,3.92593,20.2687,-12.8792,-3.97731,-8.49303,-0.735449,6.67211,-13.0793,-1.08527,3.17866,-9.3027,-1.03992,-0.299075,-5.50814,17.4276,12.7348,15.0321,21.412,5.47924,6.25198,11.4458,1.5074,-1.15295e-14,-5.56597e-15,-10.6394,-21.7335,23.4421,121.648,-57.2213,-2.04046,-44.3262,7.12502,23.6346,-72.8935,-1.15295e-14,-5.56597e-15,30.6557,33.7111,-12.5604,31.2434,39.6416,-28.7033,-20.074,7.12502,-2.06517,9.89571,-4.86393,12.7325,-2.14778,6.51848,22.6517,-10.0327,-36.2107,-23.0846,-3.06602,-23.113,20.7438,-15.1079,14.7986,10.8897
4.09852,17.5735,3.90865,20.2581,-12.8798,-3.87296,-8.3283,-0.790621,6.46893,-13.137,-1.13544,3.19296,-9.45707,-1.04905,-0.164967,-5.48091,17.4409,12.6799,15.1065,21.4268,5.56155,6.25709,11.4588,1.53938,3.10104e-14,1.35174e-14,-10.5474,-21.7841,23.389,121.586,-56.9978,-1.71735,-44.0887,7.12502,23.9445,-72.6156,3.10104e-14,1.35174e-14,29.6165,32.5013,-13.9551,31.734,41.2316,-29.0358,-19.8043,7.12502,-2.38631,10.1621,-4.91571,12.6964,-2.23428,6.50109,22.7091,-10.0478,-36.1994,-23.1815,-3.07898,-23.1752,20.7416,-15.079,14.7633,11.0665
4.09665,17.5695,3.91615,20.2242,-12.9656,-3.82398,-8.4061,-0.755807,6.41915,-13.1546,-1.09599,3.16557,-9.42854,-1.0264,-0.168476,-5.29906,17.4013,12.7047,15.0574,21.4023,5.54994,6.21517,11.4463,1.51027,1.19271e-15,4.85035e-14,-10.5729,-21.6954,23.4179,121.631,-57.0868,-1.81331,-43.9837,7.12502,23.8524,-72.5227,1.19271e-15,4.85035e-14,29.786,32.561,-13.7186,31.7014,41.0507,-29.0357,-19.7796,7.12502,-2.38617,10.1868,-4.95918,12.7627,-2.32459,6.68139,22.6086,-10.0379,-36.1227,-23.0866,-3.12664,-23.2429,20.7015,-15.1238,14.857,11.2495
4.09768,17.5684,3.91442,20.1425,-12.9176,-3.87663,-8.26383,-0.755757,6.53475,-13.1985,-1.08383,3.14986,-9.56722,-1.03535,-0.242938,-4.99671,17.3498,12.7866,14.9005,21.3875,5.47048,6.13276,11.4328,1.43895,-2.50469e-14,3.10104e-14,-10.5816,-21.5436,23.4005,121.705,-57.3711,-2.16823,-44.0853,7.12502,23.512,-72.6684,-2.50469e-14,3.10104e-14,29.8879,32.5263,-13.6268,31.699,40.9841,-29.0815,-19.6786,7.12502,-2.43039,10.2873,-4.90808,12.7733,-2.23265,6.81246,22.512,-10.0258,-36.1939,-22.9696,-3.2326,-23.1651,20.6887,-15.14,14.9161,11.4659
4.09036,17.5688,3.91201,20.0971,-13.0607,-3.76872,-8.25503,-0.73927,6.32265,-13.1522,-1.06204,3.0979,-9.50751,-1.0055,-0.184227,-5.07634,17.345,12.8595,14.8959,21.3622,5.45031,6.15387,11.4219,1.43137,-2.00773e-14,3.73715e-14,-10.6386,-21.6068,23.3358,121.689,-57.3971,-2.15529,-44.1553,7.12502,23.5244,-72.7368,-2.00773e-14,3.73715e-14,29.9256,32.628,-13.6693,31.716,41.0651,-28.9008,-19.4528,7.12502,-2.25586,10.5151,-4.86758,12.8746,-2.36218,6.63813,22.6249,-10.0933,-36.3638,-22.97,-3.33236,-23.245,20.7315,-15.1601,15.1185,11.6264
4.0874,17.5701,3.91166,20.0634,-12.9969,-3.86293,-8.29776,-0.728771,6.43006,-13.0647,-1.05763,3.09671,-9.38602,-1.00913,-0.249579,-5.32262,17.3538,12.7873,15.0074,21.3265,5.53873,6.21124,11.4107,1.49068,-3.22031e-14,-1.74931e-14,-10.7019,-21.7763,23.2534,121.61,-57.3006,-2.13741,-44.2296,7.12502,23.5416,-72.8089,-3.22031e-14,-1.74931e-14,30.0255,32.818,-13.5698,31.7055,41.0533,-28.7196,-19.5092,7.12502,-2.08095,10.4604,-4.71042,12.8729,-2.20474,6.49149,22.697,-10.1717,-36.44,-22.937,-3.28923,-23.14,20.79,-15.2069,15.0751,11.6009
4.08721,17.5698,3.91119,20.0316,-12.8895,-3.96872,-8.33158,-0.701639,6.61287,-13.0389,-1.02873,3.09851,-9.34374,-1.00999,-0.350193,-5.40043,17.3344,12.596,15.0178,21.29,5.67743,6.18938,11.3945,1.55209,-2.5842e-14,-4.77083e-15,-10.7234,-21.8822,23.2225,121.478,-57.2636,-2.06659,-44.3404,7.12502,23.6095,-72.911,-2.5842e-14,-4.77083e-15,30.1615,32.8829,-13.3926,31.6961,41.0192,-28.729,-19.5983,7.12502,-2.08999,10.3712,-4.59664,12.835,-2.03362,6.48833,22.6121,-10.1998,-36.4344,-22.8876,-3.25301,-23.0261,20.8077,-15.1581,15.0297,11.1789
4.08684,17.5677,3.91054,19.9686,-12.8664,-3.97612,-8.27634,-0.678011,6.65168,-13.0078,-0.995851,3.05926,-9.34002,-0.998376,-0.413643,-5.51363,17.3323,12.55,15.0328,21.2637,5.74735,6.19907,11.3849,1.58539,6.65929e-14,1.51076e-14,-10.7995,-21.9655,23.2512,121.388,-57.2679,-1.95407,-44.4561,7.12502,23.7174,-73.0127,6.65929e-14,1.51076e-14,30.3105,33.0586,-13.2688,31.6807,40.9986,-28.2688,-19.2916,7.12502,-1.64555,10.6818,-4.45818,12.8413,-2.00629,6.41183,22.5746,-10.2278,-36.4632,-22.8289,-3.26582,-23.0187,20.8266,-15.0682,15.1052,10.688
4.08424,17.5679,3.9101,19.9365,-12.8673,-3.93046,-8.30292,-0.690202,6.60775,-12.997,-1.01546,3.03896,-9.3115,-1.00447,-0.412343,-5.44707,17.3561,12.5588,15.0389,21.3046,5.75438,6.19155,11.4059,1.58451,-2.70347e-14,-2.06736e-14,-10.7847,-22.0011,23.2493,121.392,-57.3678,-2.03909,-44.5652,7.12502,23.6359,-73.1323,-2.70347e-14,-2.06736e-14,30.4041,33.2043,-13.1544,31.6307,40.9089,-27.8361,-19.151,7.12502,-1.22758,10.8252,-4.46904,12.837,-2.0334,6.49089,22.5383,-10.227,-36.4526,-22.7967,-3.30335,-23.0439,20.7937,-15.0214,15.1178,10.613
4.07982,17.5708,3.90589,19.9332,-12.8467,-3.86844,-8.34365,-0.733999,6.51223,-13.0426,-1.07154,3.07943,-9.33905,-1.02289,-0.315434,-5.15846,17.3579,12.426,14.9411,21.3662,5.79222,6.0953,11.4295,1.57891,1.74931e-14,2.54444e-14,-10.6086,-21.9256,23.1849,121.432,-57.4131,-2.20428,-44.5772,7.12502,23.4774,-73.1647,1.74931e-14,2.54444e-14,30.4855,33.2966,-12.9179,31.5538,40.6813,-27.8762,-19.1319,7.12502,-1.26634,10.8441,-4.63929,12.7986,-2.0539,6.77485,22.4692,-10.1736,-36.3166,-22.7903,-3.33663,-23.0601,20.6941,-14.962,15.0419,10.8083
4.07397,17.572,3.897,19.8518,-12.8209,-3.75109,-8.18434,-0.787696,6.30458,-13.0876,-1.12088,3.09723,-9.47556,-1.03009,-0.175842,-4.991,17.3435,12.3231,14.8918,21.3806,5.83292,6.03646,11.4333,1.58165,4.69132e-14,-5.56597e-14,-10.5228,-21.8429,23.1584,121.466,-57.4594,-2.21444,-44.5233,7.12502,23.4677,-73.112,4.69132e-14,-5.56597e-14,30.8152,33.6411,-12.3963,31.3899,40.089,-27.8022,-18.8939,7.12502,-1.19492,11.0825,-4.73207,12.7636,-2.10627,7.05521,22.404,-10.1591,-36.2558,-22.7232,-3.31472,-23.1472,20.5917,-14.8949,14.9561,10.9438
4.0705,17.5698,3.89406,19.7688,-12.8328,-3.53256,-8.18673,-0.81941,6.06432,-13.0631,-1.16337,3.03194,-9.4373,-1.03123,-0.114777,-5.03476,17.3847,12.2516,14.9478,21.4216,5.93455,6.04341,11.4587,1.62858,-7.95139e-15,1.90833e-14,-10.5251,-21.8924,23.1327,121.461,-57.496,-1.92304,-44.4904,7.12502,23.7472,-73.0431,-7.95139e-15,1.90833e-14,31.1009,33.9698,-12.0177,31.2643,39.6871,-27.76,-18.6737,7.12502,-1.15413,11.3029,-4.71485,12.7188,-2.31135,7.16605,22.2691,-10.1739,-36.4404,-22.6598,-3.25581,-23.3908,20.5509,-14.9024,14.8532,10.8764
4.07063,17.5675,3.89785,19.7868,-12.843,-3.45527,-8.38753,-0.81983,6.04139,-13.005,-1.18573,2.99652,-9.2548,-1.0384,-0.148142,-4.93317,17.4266,12.1439,14.766,21.5067,5.968,5.95373,11.4908,1.6338,0,-2.22639e-14,-10.4832,-21.9675,23.022,121.46,-57.36,-2.00762,-44.5957,7.12502,23.6661,-73.1589,0,-2.22639e-14,30.9671,33.9306,-12.192,31.3009,39.8929,-27.7023,-18.4776,7.12502,-1.09836,11.4993,-4.68643,12.6886,-2.41368,7.14046,22.1639,-10.1563,-36.5664,-22.6696,-3.15816,-23.5135,20.5667,-14.9873,14.7202,10.816
4.06931,17.5696,3.90049,19.7993,-12.7846,-3.65144,-8.38253,-0.826178,6.22799,-12.9875,-1.19421,3.07692,-9.24551,-1.05471,-0.165276,-4.59884,17.3984,12.0848,14.3934,21.559,5.81725,5.79003,11.4908,1.54479,-8.94531e-15,-3.97569e-15,-10.3948,-21.9704,22.9305,121.466,-57.3248,-2.41653,-44.7404,7.12502,23.2738,-73.3538,-8.94531e-15,-3.97569e-15,30.9399,33.9588,-12.1452,31.2674,39.7506,-27.5577,-18.3095,7.12502,-0.958711,11.6681,-4.55933,12.7142,-2.16088,6.98411,22.3023,-10.1649,-36.4988,-22.6483,-3.07848,-23.3077,20.6146,-15.0452,14.6595,10.7582
4.06688,17.5723,3.90087,19.7933,-12.7338,-3.79128,-8.37312,-0.847522,6.33262,-12.9425,-1.22227,3.14735,-9.20412,-1.07255,-0.149111,-4.47735,17.3768,12.0791,14.1821,21.5809,5.63493,5.72202,11.482,1.47119,2.64384e-14,-1.03368e-14,-10.3202,-22.0206,22.8697,121.421,-57.37,-2.53606,-44.7739,7.12502,23.1592,-73.4017,2.64384e-14,-1.03368e-14,31.0604,34.221,-11.8789,31.161,39.3509,-27.342,-18.2262,7.12502,-0.750368,11.7523,-4.32611,12.731,-1.96201,6.62084,22.5947,-10.212,-36.3282,-22.6546,-3.04255,-23.1443,20.7061,-15.0722,14.6449,10.7698
4.06436,17.571,3.90498,19.8018,-12.7503,-3.77391,-8.50211,-0.841417,6.31119,-12.8863,-1.22877,3.13248,-9.06448,-1.07119,-0.159484,-4.56683,17.3658,12.0863,14.1725,21.5601,5.57557,5.74009,11.468,1.46034,2.92213e-14,-4.69132e-14,-10.3563,-22.0919,22.831,121.386,-57.3898,-2.36882,-44.763,7.12502,23.3196,-73.3706,2.92213e-14,-4.69132e-14,31.0607,34.3255,-11.8795,31.1357,39.2909,-26.9745,-18.0985,7.12502,-0.395475,11.8809,-4.05286,12.7357,-1.98447,6.15474,22.7885,-10.2343,-36.1863,-22.7027,-3.02774,-23.1671,20.82,-15.1232,14.639,10.9257
4.06052,17.5692,3.91377,19.7969,-12.7442,-3.84197,-8.61604,-0.821461,6.38041,-12.8605,-1.21542,3.13257,-8.97213,-1.06872,-0.201771,-4.69958,17.3281,12.0789,14.3708,21.4764,5.63211,5.81664,11.4376,1.49496,-2.66371e-14,-2.22639e-14,-10.453,-22.0526,22.8816,121.458,-57.409,-2.49017,-44.7796,7.12502,23.2032,-73.4019,-2.66371e-14,-2.22639e-14,30.959,34.2152,-12.0306,31.2093,39.5699,-27.0419,-17.8638,7.12502,-0.460547,12.1154,-3.79372,12.7611,-1.89147,5.81552,22.8553,-10.2408,-36.2053,-22.6804,-2.99151,-23.0967,20.8964,-15.2506,14.5916,11.3445
4.05792,17.57,3.91885,19.8,-12.726,-4.02495,-8.68912,-0.793341,6.56016,-12.8053,-1.18973,3.17356,-8.87331,-1.06682,-0.261125,-4.87331,17.2844,12.0175,14.5586,21.3883,5.66192,5.89326,11.4007,1.53017,4.81059e-14,7.95139e-16,-10.5169,-21.9744,22.9774,121.574,-57.3332,-2.99957,-44.8276,7.12502,22.7144,-73.5106,4.81059e-14,7.95139e-16,30.9109,34.2168,-12.0482,31.2632,39.7955,-27.3407,-17.7437,7.12502,-0.749162,12.2348,-3.66304,12.8187,-1.67384,5.6454,22.8722,-10.2638,-36.1592,-22.6395,-2.98607,-22.8894,20.9348,-15.3433,14.6214,11.7348
4.05609,17.571,3.91517,19.7869,-12.7388,-4.09547,-8.6522,-0.783191,6.59989,-12.7967,-1.17279,3.19864,-8.88513,-1.0605,-0.255447,-4.83464,17.2513,11.9587,14.5347,21.3601,5.63952,5.87443,11.3823,1.52159,4.57205e-15,1.59028e-14,-10.4518,-21.9161,22.9546,121.614,-57.2882,-3.03513,-44.8423,7.12502,22.6802,-73.5295,4.57205e-15,1.59028e-14,31.0888,34.3976,-11.7333,31.1965,39.4812,-27.4672,-17.8766,7.12502,-0.871335,12.1013,-3.63537,12.8632,-1.59789,5.55341,22.9271,-10.3264,-36.1127,-22.6646,-3.02266,-22.791,20.9794,-15.2443,14.73,11.5284
4.05371,17.5715,3.90821,19.7849,-12.7254,-4.0017,-8.57167,-0.813093,6.48262,-12.8767,-1.19925,3.18304,-9.0195,-1.06819,-0.201952,-4.73051,17.2073,12.0161,14.6369,21.313,5.60318,5.90025,11.3636,1.49831,-5.52621e-14,9.54166e-15,-10.3178,-21.8331,22.8005,121.617,-57.2921,-3.31509,-45.0088,7.12502,22.4115,-73.7287,-5.52621e-14,9.54166e-15,31.1337,34.3449,-11.6148,31.228,39.2804,-27.7458,-18.0111,7.12502,-1.14036,11.9656,-3.66494,12.8149,-1.68974,5.54605,22.9916,-10.3873,-36.2916,-22.76,-2.95248,-22.8867,21.0297,-15.1562,14.6299,11.3608
4.05182,17.5733,3.90365,19.791,-12.6714,-3.94221,-8.5072,-0.826671,6.43245,-12.9212,-1.2105,3.13521,-9.10709,-1.0743,-0.221732,-4.93782,17.1469,12.1934,15.0095,21.1823,5.52416,6.08039,11.3155,1.49159,7.95139e-16,-9.54166e-15,-10.3356,-21.7896,22.6888,121.628,-57.1856,-3.67182,-45.1884,7.12502,22.0691,-73.949,7.95139e-16,-9.54166e-15,30.8475,33.9163,-12.0485,31.4621,39.737,-28.3053,-18.1223,7.12502,-1.68073,11.8509,-3.72365,12.7428,-1.72008,5.6603,23.0791,-10.3888,-36.1046,-22.8019,-2.79837,-22.9733,21.0634,-15.1901,14.4231,11.3405
4.05013,17.5752,3.90082,19.7585,-12.6027,-4.02698,-8.41474,-0.793078,6.53302,-12.9358,-1.16071,3.08773,-9.1803,-1.06261,-0.32456,-4.95914,17.0351,12.459,15.1171,21.0304,5.28796,6.17049,11.242,1.39429,5.60573e-14,3.49861e-14,-10.516,-21.6908,22.7225,121.651,-56.9784,-3.32664,-45.1417,7.12502,22.4005,-73.8629,5.60573e-14,3.49861e-14,30.7915,33.5835,-12.2759,31.5989,40.0423,-29.4277,-18.4493,7.12502,-2.76474,11.5125,-3.76488,12.7305,-1.57194,5.84627,23.1679,-10.3707,-35.5302,-22.7682,-2.70426,-22.8854,21.092,-15.1973,14.3171,11.0173
4.04873,17.5758,3.89985,19.7496,-12.5781,-4.12853,-8.37539,-0.736221,6.63803,-12.9913,-1.08219,3.055,-9.26857,-1.0377,-0.413893,-4.77917,16.9147,12.6254,15.1414,20.894,5.16962,6.17688,11.1774,1.31582,-4.07509e-14,0,-10.662,-21.4946,22.7861,121.672,-56.8069,-3.02426,-45.0533,7.12502,22.6907,-73.7392,-4.07509e-14,0,31.084,33.5607,-12.0068,31.5465,39.8517,-29.892,-18.5848,7.12502,-3.2132,11.3707,-3.85319,12.7542,-1.43469,6.02852,23.0936,-10.3762,-35.2983,-22.7656,-2.6685,-22.7709,21.127,-15.1794,14.3031,10.7743
4.04613,17.5774,3.89409,19.788,-12.5752,-4.12693,-8.36994,-0.720272,6.59399,-13.0411,-1.05715,3.04959,-9.326,-1.02361,-0.393262,-4.94531,16.886,12.6123,15.4975,20.8027,5.29846,6.30257,11.1536,1.38308,-1.03368e-14,0,-10.7073,-21.4171,22.7996,121.681,-56.7954,-2.92211,-44.8779,7.12502,22.7887,-73.5518,-1.03368e-14,0,31.3837,33.7831,-11.618,31.4294,39.5065,-29.1802,-18.2606,7.12502,-2.52578,11.7042,-4.05401,12.7391,-1.42186,6.25847,23.0176,-10.4107,-35.429,-22.8386,-2.64501,-22.7592,21.1404,-15.1374,14.3031,10.5997
4.04299,17.5795,3.88449,19.8321,-12.5771,-4.10964,-8.27384,-0.759284,6.51104,-13.0982,-1.09326,3.09996,-9.44496,-1.03448,-0.2885,-5.09777,16.915,12.5672,15.7995,20.8071,5.36278,6.41457,11.168,1.44023,2.38542e-14,-1.51076e-14,-10.6129,-21.462,22.7675,121.696,-56.8851,-2.94381,-44.7303,7.12502,22.7679,-73.4068,2.38542e-14,-1.51076e-14,31.2983,33.8006,-11.6165,31.4154,39.4161,-28.9157,-17.9364,7.12502,-2.27028,12.0312,-4.29203,12.7196,-1.4326,6.53831,22.9045,-10.4441,-35.7564,-22.9387,-2.644,-22.7452,21.1273,-15.0708,14.2994,10.5195
4.04122,17.5792,3.8798,19.8697,-12.6042,-4.06986,-8.21102,-0.80918,6.43614,-13.1679,-1.14724,3.15105,-9.5607,-1.0552,-0.187346,-5.00734,16.953,12.4844,15.9047,20.8759,5.39568,6.42339,11.2035,1.46272,-1.31198e-14,-5.56597e-15,-10.4055,-21.5045,22.6562,121.674,-56.9412,-2.96107,-44.7381,7.12502,22.7513,-73.4166,-1.31198e-14,-5.56597e-15,30.8848,33.5067,-12.0211,31.5315,39.6649,-28.7169,-17.5916,7.12502,-2.0783,12.378,-4.49347,12.7138,-1.49352,6.76819,22.8085,-10.4632,-35.8686,-23.014,-2.67086,-22.7666,21.1173,-15.0333,14.3139,10.7252
4.04042,17.5778,3.87946,19.8448,-12.5679,-3.9883,-8.27186,-0.843708,6.38314,-13.1603,-1.19933,3.1357,-9.51728,-1.07619,-0.17649,-4.95639,16.9517,12.3981,15.9968,20.8736,5.49859,6.42452,11.2087,1.50103,-1.66979e-14,-1.90833e-14,-10.3179,-21.5926,22.571,121.614,-57.002,-2.66835,-44.7285,7.12502,23.0322,-73.3723,-1.66979e-14,-1.90833e-14,30.7562,33.4557,-12.1485,31.589,39.8707,-28.2561,-17.2524,7.12502,-1.63325,12.7211,-4.5412,12.6584,-1.56314,6.93019,22.907,-10.4764,-35.4506,-23.0029,-2.63646,-22.8626,21.1153,-14.9893,14.2469,10.5691
4.04011,17.5779,3.8792,19.7641,-12.507,-4.02379,-8.29662,-0.841225,6.45612,-13.1023,-1.20306,3.11646,-9.43971,-1.08315,-0.240577,-4.88452,16.8993,12.3838,15.9871,20.8085,5.53623,6.4023,11.1791,1.49899,6.77856e-14,-1.35174e-14,-10.3125,-21.7215,22.4944,121.534,-57.0325,-2.58574,-44.8294,7.12502,23.1115,-73.4632,6.77856e-14,-1.35174e-14,30.9767,33.7164,-11.8451,31.5433,39.7305,-28.1451,-17.5468,7.12502,-1.52606,12.4275,-4.49744,12.6492,-1.48026,7.06843,22.9394,-10.4716,-35.0698,-22.9115,-2.51786,-22.8504,21.1194,-14.9127,14.1519,9.9146
4.04065,17.5789,3.87684,19.7327,-12.5142,-4.07217,-8.27381,-0.81947,6.50095,-13.0821,-1.1736,3.11404,-9.4301,-1.07206,-0.268205,-4.81248,16.83,12.3615,15.9562,20.7326,5.50955,6.37879,11.1387,1.47718,5.36719e-14,-5.56597e-15,-10.2595,-21.7686,22.3849,121.454,-56.9352,-3.07757,-45.0748,7.12502,22.6395,-73.767,5.36719e-14,-5.56597e-15,31.2449,34.0187,-11.4517,31.4549,39.3116,-28.0194,-17.9607,7.12502,-1.40468,12.0144,-4.55736,12.6862,-1.42764,7.19176,22.8525,-10.4843,-35.0042,-22.8827,-2.46595,-22.8143,21.136,-14.9428,14.122,10.062
4.04076,17.5798,3.87044,19.6982,-12.5094,-4.02762,-8.15966,-0.835214,6.42858,-13.0918,-1.18209,3.11159,-9.50413,-1.07095,-0.227405,-4.9636,16.7756,12.2713,16.2151,20.6278,5.58401,6.46762,11.0976,1.52792,2.98177e-15,1.43125e-14,-10.1887,-21.7875,22.3071,121.402,-56.799,-3.25141,-45.1742,7.12502,22.4727,-73.8867,2.98177e-15,1.43125e-14,31.3274,34.1163,-11.3104,31.3958,39.0368,-27.7827,-17.9618,7.12502,-1.17606,12.0147,-4.65716,12.6772,-1.46342,7.37847,22.7164,-10.5257,-35.0604,-22.8826,-2.46099,-22.857,21.1466,-15.0448,14.0483,10.9801
4.03908,17.5821,3.86493,19.6905,-12.4845,-4.0792,-8.07309,-0.853381,6.43127,-13.1093,-1.19573,3.14326,-9.57475,-1.07761,-0.191546,-5.06851,16.7447,12.2291,16.4994,20.5579,5.64734,6.56502,11.0757,1.57159,-9.93923e-16,7.15625e-15,-10.0846,-21.8321,22.2074,121.351,-56.7355,-2.88618,-45.0836,7.12502,22.8232,-73.7532,-9.93923e-16,7.15625e-15,31.9859,34.8458,-10.353,31.0627,37.8605,-27.4592,-18.2698,7.12502,-0.863568,11.7082,-4.85004,12.6833,-1.37438,7.69478,22.504,-10.5551,-35.3047,-22.8894,-2.39748,-22.7888,21.1347,-15.0431,13.9612,11.2997
4.03602,17.5843,3.85995,19.7198,-12.5045,-4.16752,-8.03516,-0.840303,6.44027,-13.137,-1.17129,3.18228,-9.62742,-1.06548,-0.152458,-5.04768,16.7403,12.2522,16.6442,20.5486,5.65194,6.61119,11.0777,1.57717,-3.00165e-14,1.66979e-14,-9.98617,-21.8424,22.0992,121.337,-56.7632,-2.57492,-44.9411,7.12502,23.1219,-73.5737,-3.00165e-14,1.66979e-14,34.5165,37.3542,-6.85642,30.0101,34.0271,-26.4884,-18.7929,7.12502,0.0740686,11.1868,-5.14609,12.7279,-1.27282,8.04087,22.3917,-10.5368,-35.7111,-22.9277,-2.30464,-22.6846,21.1068,-14.9317,13.9146,10.8311
4.0336,17.5857,3.85226,19.6992,-12.4948,-4.16888,-7.91097,-0.826414,6.37757,-13.1444,-1.13981,3.17138,-9.70328,-1.04556,-0.126206,-5.09606,16.73,12.2723,16.7084,20.5179,5.68436,6.63836,11.0683,1.59014,-2.76311e-14,1.43125e-14,-10.009,-21.8194,22.0485,121.37,-56.8248,-2.87986,-45.0383,7.12502,22.8293,-73.7072,-2.76311e-14,1.43125e-14,32.9282,35.6282,-9.04963,30.6989,36.5206,-26.7093,-18.4372,7.12502,-0.13935,11.5425,-5.37423,12.7288,-1.25112,8.38381,22.3733,-10.4604,-35.7954,-22.9245,-2.24851,-22.6704,21.0606,-14.7559,13.8606,10.1838
4.03428,17.5865,3.84975,19.6737,-12.4792,-4.10538,-7.95477,-0.788737,6.32886,-13.0717,-1.09993,3.08981,-9.58996,-1.02209,-0.191976,-5.00057,16.6151,12.3043,16.4558,20.3949,5.57257,6.55174,10.9943,1.51722,2.127e-14,3.73715e-14,-10.1607,-21.8458,22.072,121.365,-56.8596,-3.43386,-45.2915,7.12502,22.2975,-74.0251,2.127e-14,3.73715e-14,33.9532,36.5737,-7.80489,30.3361,35.3022,-26.2769,-18.6702,7.12502,0.278345,11.3094,-5.50769,12.6982,-1.31332,8.65791,22.2895,-10.4106,-35.38,-22.8923,-2.33394,-22.7236,21.0172,-14.6582,13.9205,9.93131
4.03508,17.5866,3.84394,19.6528,-12.4654,-4.01098,-8.01296,-0.758289,6.2536,-12.997,-1.07062,3.00613,-9.46561,-1.00129,-0.245503,-4.85207,16.4381,12.3078,16.1848,20.2114,5.38681,6.45316,10.8839,1.41423,1.58034e-14,3.81667e-14,-10.3249,-21.8466,22.133,121.367,-56.8193,-3.82367,-45.3929,7.12502,21.9233,-74.1708,1.58034e-14,3.81667e-14,34.7844,37.3301,-6.8263,30.0455,34.3803,-25.3301,-18.5599,7.12502,1.19278,11.4165,-5.58762,12.6552,-1.41153,8.80572,22.2173,-10.4296,-35.2911,-22.9122,-2.45427,-22.7942,20.994,-14.619,13.9779,10.0938
4.03603,17.5865,3.83492,19.6441,-12.3179,-4.0536,-7.95182,-0.778311,6.32903,-12.9862,-1.09354,2.99668,-9.49352,-1.02012,-0.295777,-4.87122,16.3163,12.3604,16.257,20.0567,5.24985,6.4956,10.8047,1.36069,-1.86858e-14,-7.15625e-15,-10.3964,-21.7748,22.1129,121.457,-56.7826,-4.21349,-45.4564,7.12502,21.5489,-74.2776,-1.86858e-14,-7.15625e-15,34.7804,37.2609,-6.89414,30.0612,34.5206,-24.9567,-18.4798,7.12502,1.55339,11.4943,-5.63042,12.5462,-1.30197,8.97376,22.1321,-10.4408,-35.5764,-22.9503,-2.43726,-22.7138,20.956,-14.6122,13.7778,10.6513
4.03886,17.5853,3.83045,19.5747,-12.1659,-4.08958,-7.89211,-0.819465,6.42573,-12.9487,-1.14549,3.00385,-9.49214,-1.05335,-0.340816,-5.1862,16.2565,12.3897,16.6949,19.9147,5.24174,6.69149,10.7508,1.39763,-3.67752e-15,-1.90833e-14,-10.3508,-21.7853,21.9951,121.559,-56.8756,-4.48603,-45.5728,7.12502,21.2872,-74.4237,-3.67752e-15,-1.90833e-14,35.0729,37.6017,-6.47458,29.9602,34.0855,-25.0688,-18.688,7.12502,1.4451,11.2869,-5.60602,12.4514,-1.19374,9.19891,21.9954,-10.4019,-35.4961,-22.8913,-2.35554,-22.6753,20.9066,-14.6006,13.5256,10.8981
4.04021,17.5841,3.8247,19.5,-12.1776,-3.87257,-7.85491,-0.859253,6.2107,-12.9499,-1.19387,2.96527,-9.50784,-1.05978,-0.262504,-5.32547,16.1884,12.3268,17.0734,19.7954,5.27032,6.82623,10.7043,1.43658,4.77083e-15,2.22639e-14,-10.1871,-21.8175,21.8325,121.573,-57.0712,-4.86532,-45.7319,7.12502,20.9228,-74.6236,4.77083e-15,2.22639e-14,35.0243,37.6361,-6.48604,29.9521,33.9576,-24.9539,-18.631,7.12502,1.55612,11.3431,-5.60922,12.4021,-1.42426,9.27376,22.0673,-10.386,-34.9653,-22.8981,-2.23923,-22.9449,20.9195,-14.5709,13.3528,10.6883
4.04008,17.5841,3.82047,19.5089,-12.1987,-3.72558,-7.84889,-0.811713,6.03491,-12.932,-1.13372,2.84729,-9.48088,-1.0191,-0.293455,-5.44909,16.0476,12.4499,17.2096,19.583,5.1662,6.90971,10.6049,1.39138,-4.96962e-15,-4.45278e-14,-10.3262,-21.8877,21.7653,121.505,-57.1237,-4.94386,-45.8006,7.12502,20.8474,-74.7005,-4.96962e-15,-4.45278e-14,35.0632,37.4649,-6.66367,30.0185,34.2974,-25.3938,-18.797,7.12502,1.13121,11.1798,-5.65773,12.3592,-1.59275,9.24554,22.2374,-10.4303,-34.5784,-22.9892,-2.15226,-23.128,20.9765,-14.5673,13.2566,10.5486
4.04357,17.586,3.81889,19.5161,-12.0789,-3.91405,-7.76967,-0.637097,6.24431,-12.8187,-0.907056,2.70256,-9.39452,-0.928838,-0.568388,-6.29336,15.8534,12.5275,17.6991,19.1368,5.31836,7.19344,10.4201,1.48714,9.44227e-15,-1.66979e-14,-10.9348,-21.9721,22.0108,121.431,-57.0637,-4.67206,-45.7479,7.12502,21.1085,-74.6189,9.44227e-15,-1.66979e-14,35.6577,37.5324,-6.31499,30.0461,34.6176,-26.3548,-19.1588,7.12502,0.203027,10.8208,-5.64159,12.3253,-1.349,9.31702,22.3262,-10.4983,-34.4774,-22.9731,-2.13326,-22.9278,21.0077,-14.4965,13.2402,9.98062
4.0488,17.5889,3.81628,19.5356,-11.9608,-4.10793,-7.74957,-0.514636,6.51909,-12.923,-0.737322,2.73499,-9.52846,-0.872346,-0.682022,-6.12401,15.6227,12.1384,17.9426,18.8583,5.53401,7.17547,10.2921,1.56116,3.48867e-14,-1.11319e-14,-11.0427,-21.7098,22.3467,121.406,-57.1497,-4.35675,-45.6485,7.12502,21.4113,-74.4853,3.48867e-14,-1.11319e-14,35.4418,36.8198,-6.55356,30.2159,35.275,-27.3911,-19.4988,7.12502,-0.797824,10.4794,-5.62775,12.2891,-1.114,9.34378,22.3659,-10.5281,-34.4368,-22.9942,-2.10568,-22.725,21.0538,-14.4582,13.1901,9.60972
4.05014,17.5885,3.81307,19.5664,-11.9685,-4.06175,-7.75518,-0.676564,6.43118,-12.8701,-0.95308,2.8112,-9.47223,-0.965505,-0.552017,-6.30811,15.6932,12.1274,18.2294,18.934,5.46409,7.30958,10.3296,1.58419,1.30204e-14,-8.74653e-15,-10.6205,-21.9548,21.8826,121.342,-57.1558,-4.01539,-45.5165,7.12502,21.7392,-74.3158,1.30204e-14,-8.74653e-15,34.2653,36.3056,-7.97842,30.492,36.1513,-28.0023,-19.636,7.12502,-1.38809,10.3392,-5.64046,12.2657,-1.18146,9.241,22.3613,-10.5443,-34.5857,-23.1219,-2.19108,-22.75,21.1352,-14.5368,13.2034,10.2077
4.05086,17.5866,3.81191,19.5814,-11.9882,-4.0166,-7.76614,-0.695118,6.37641,-12.8556,-0.980743,2.78296,-9.44862,-0.975176,-0.552711,-6.82137,15.6525,12.1576,18.9024,18.7648,5.55317,7.61223,10.2766,1.67717,2.42517e-14,1.90833e-14,-10.5265,-21.9871,21.6814,121.302,-57.2439,-4.31076,-45.5224,7.12502,21.4555,-74.3543,2.42517e-14,1.90833e-14,33.9466,36.072,-8.43792,30.6303,36.5813,-28.0014,-19.5502,7.12502,-1.38725,10.425,-5.66738,12.2592,-1.24605,9.22576,22.3622,-10.5795,-34.8125,-23.1952,-2.25676,-22.7836,21.1894,-14.595,13.2132,10.6375
4.05313,17.5869,3.81125,19.5949,-12.0114,-4.07181,-7.83352,-0.642992,6.46242,-12.835,-0.921159,2.75115,-9.38665,-0.953692,-0.637041,-7.24406,15.5967,12.0026,19.5164,18.5832,5.81824,7.84459,10.2206,1.82955,3.598e-14,-1.82882e-14,-10.4921,-21.9637,21.5831,121.226,-57.2571,-4.79652,-45.5204,7.12502,20.9889,-74.4047,3.598e-14,-1.82882e-14,34.005,36.0608,-8.39633,30.6656,36.4822,-27.9414,-19.2996,7.12502,-1.32928,10.676,-5.75567,12.2951,-1.21216,9.33786,22.2721,-10.5578,-34.9877,-23.2001,-2.0813,-22.7864,21.2121,-14.5202,13.1443,9.98393
4.05583,17.5877,3.80734,19.5946,-12.0545,-4.16249,-7.85203,-0.51585,6.54608,-12.7042,-0.764758,2.64882,-9.21941,-0.88248,-0.799188,-7.59954,15.4644,12.0325,19.5766,18.3537,5.74674,7.93023,10.1075,1.81422,-3.19049e-14,6.36111e-15,-10.887,-22.02,21.7671,121.239,-57.2083,-4.67548,-45.4057,7.12502,21.1052,-74.2771,-3.19049e-14,6.36111e-15,34.4937,36.4298,-7.99643,30.6036,36.2491,-28.2532,-19.3359,7.12502,-1.63048,10.6376,-5.81252,12.3669,-1.15174,9.36173,22.2499,-10.533,-34.9315,-23.2149,-1.95036,-22.7333,21.2643,-14.5053,13.1177,9.62542
4.0589,17.5864,3.80482,19.5494,-12.0382,-4.19984,-7.8892,-0.426731,6.59985,-12.5123,-0.663004,2.54608,-8.97321,-0.832092,-0.946722,-7.96772,15.324,12.1201,19.6025,18.1275,5.54562,8.02475,9.98666,1.75173,-4.56211e-14,1.47101e-14,-11.4067,-22.1165,22.0467,121.381,-57.2643,-4.29953,-45.3171,7.12502,21.4663,-74.1478,-4.56211e-14,1.47101e-14,34.992,36.9244,-7.57216,30.4777,36.0084,-28.8283,-20.0197,7.12502,-2.1859,9.9488,-5.75524,12.3814,-1.11644,9.34297,22.2329,-10.5677,-34.9512,-23.2001,-1.96305,-22.6914,21.3217,-14.6152,13.0653,9.92559
4.06125,17.586,3.80575,19.4748,-11.9887,-4.17659,-7.9819,-0.426694,6.60887,-12.3808,-0.678278,2.52262,-8.77035,-0.834037,-0.982922,-8.22452,15.2545,11.9864,19.9145,17.9943,5.61202,8.15133,9.92877,1.81285,-1.69961e-14,3.22031e-14,-11.52,-22.1539,22.0446,121.445,-57.2444,-3.99844,-45.1542,7.12502,21.7555,-73.9516,-1.69961e-14,3.22031e-14,35.3072,37.3238,-7.16245,30.3285,35.5653,-29.063,-20.5483,7.12502,-2.41251,9.41777,-5.70758,12.3551,-1.11144,9.45144,22.053,-10.5961,-35.3244,-23.1277,-1.9358,-22.732,21.325,-14.6179,13.0045,9.78983
4.06249,17.5858,3.80138,19.3981,-11.9591,-4.09094,-7.9473,-0.420525,6.50138,-12.3761,-0.663951,2.52139,-8.77946,-0.81721,-0.924613,-8.18877,15.1312,11.8558,20.1233,17.8544,5.58205,8.20179,9.85786,1.81115,-4.25399e-14,1.03368e-14,-11.4357,-22.1071,21.9999,121.403,-57.2244,-3.57554,-45.0268,7.12502,22.1615,-73.7765,-4.25399e-14,1.03368e-14,35.7926,37.5735,-6.44141,30.1448,34.9452,-29.0026,-20.7917,7.12502,-2.35422,9.17509,-5.74171,12.3236,-1.17106,9.63603,21.841,-10.5856,-35.8042,-23.0727,-1.86413,-22.8466,21.2871,-14.5142,12.9497,9.54974
4.06459,17.5849,3.78796,19.3596,-11.9042,-3.92463,-7.81666,-0.372956,6.34601,-12.536,-0.578263,2.49725,-9.02675,-0.770258,-0.857474,-7.65866,14.8798,11.665,20.1003,17.6434,5.46983,8.08706,9.73833,1.72534,-8.84592e-15,-6.79844e-14,-11.386,-21.9858,22.1351,121.345,-57.3355,-2.98835,-45.055,7.12502,22.7251,-73.7367,-8.84592e-15,-6.79844e-14,36.1868,37.4143,-5.78764,30.0663,34.53,-28.7897,-20.9255,7.12502,-2.14862,9.04345,-5.81469,12.2238,-1.32286,9.78156,21.7611,-10.607,-35.9861,-23.1214,-1.75193,-23.0385,21.2537,-14.4563,12.7439,9.53193
4.06689,17.5845,3.77629,19.3317,-11.8533,-3.79476,-7.62576,-0.537748,6.13841,-12.4171,-0.78478,2.48772,-9.00487,-0.852039,-0.752495,-8.32931,14.957,11.8382,20.5549,17.6205,5.42319,8.38092,9.74243,1.77517,5.78463e-14,-1.82882e-14,-11.1474,-22.48,21.5426,121.215,-57.1381,-2.64228,-45.1138,7.12502,23.0572,-73.7544,5.78463e-14,-1.82882e-14,35.5901,37.5505,-6.52593,30.2556,34.6826,-28.4615,-20.6291,7.12502,-1.83164,9.34283,-5.83864,12.1388,-1.43268,9.8236,21.786,-10.6263,-35.7851,-23.1801,-1.62802,-23.1914,21.2595,-14.5153,12.4898,9.65557
4.06946,17.5819,3.77476,19.2279,-11.798,-3.76424,-7.56089,-0.415891,6.18951,-12.5435,-0.610471,2.47113,-9.17922,-0.776196,-0.794259,-7.92472,14.6878,11.5767,20.7174,17.3512,5.42816,8.33126,9.60626,1.74858,3.22031e-14,9.54166e-15,-11.1656,-22.0612,21.7515,121.156,-56.8861,-2.78549,-45.1323,7.12502,22.9198,-73.79,3.22031e-14,9.54166e-15,35.5976,37.0156,-6.3917,30.4404,35.208,-28.4018,-20.3883,7.12502,-1.77394,9.58403,-5.64987,12.1171,-1.41383,9.75728,21.5746,-10.5919,-36.0343,-23.0989,-1.6231,-23.2302,21.3024,-14.6334,12.3907,10.2212
4.07581,17.5792,3.78016,19.115,-11.6078,-3.87433,-7.6389,-0.558779,6.38396,-12.1911,-0.827438,2.47072,-8.75147,-0.884964,-0.913812,-8.62289,14.7566,11.7604,20.9813,17.3505,5.21157,8.58278,9.59911,1.7367,-4.74101e-14,-4.77083e-15,-11.0035,-22.5482,21.1858,121.001,-56.6246,-3.23299,-45.0335,7.12502,22.4903,-73.7438,-4.74101e-14,-4.77083e-15,35.3484,37.5899,-6.8049,30.4538,35.2311,-28.4801,-20.3888,7.12502,-1.84963,9.5829,-5.29328,12.0329,-1.20128,9.59623,21.3764,-10.6101,-36.4205,-22.9768,-1.67163,-23.1078,21.3725,-14.7496,12.2918,10.784
4.08358,17.5772,3.78718,18.9937,-11.3801,-3.90947,-7.89282,-0.460254,6.63099,-12.1916,-0.721552,2.46547,-8.60965,-0.850194,-1.06093,-7.86394,14.3887,11.3954,20.8419,17.052,5.05008,8.37001,9.42038,1.61883,2.3556e-14,-1.47101e-14,-11.0745,-22.2813,21.4812,120.941,-56.662,-3.5243,-44.9665,7.12502,22.2107,-73.7104,2.3556e-14,-1.47101e-14,35.8643,37.5973,-6.03297,30.2858,34.704,-28.3587,-20.4215,7.12502,-1.73233,9.55122,-4.87061,11.8879,-1.06371,9.30592,21.3834,-10.6404,-36.4406,-22.8811,-1.67829,-23.0763,21.4786,-14.8729,12.1033,10.8768
4.08763,17.5755,3.7882,18.8849,-11.2026,-3.84308,-8.00152,-0.62721,6.57701,-11.9004,-0.966672,2.46391,-8.2305,-0.952643,-1.04511,-8.69733,14.424,11.426,21.4264,16.981,4.98031,8.72518,9.39022,1.68971,-1.59028e-15,2.5842e-14,-10.973,-22.7025,21.097,120.883,-56.5603,-3.71069,-44.9332,7.12502,22.0318,-73.6983,-1.59028e-15,2.5842e-14,35.8227,38.3013,-6.07968,30.1455,34.0582,-27.7216,-20.0421,7.12502,-1.11699,9.93469,-4.49222,11.7451,-1.04348,8.97874,21.4164,-10.6142,-36.3835,-22.8431,-1.67104,-23.1444,21.5917,-14.9366,11.9264,10.7476
4.08963,17.5752,3.78254,18.8894,-11.0038,-3.89995,-8.03957,-0.703079,6.63982,-11.7669,-1.07789,2.47717,-8.06792,-1.00566,-1.07153,-9.24,14.4207,11.3,21.8936,16.8856,5.11079,8.95645,9.35614,1.80718,-3.65764e-14,2.78299e-15,-11.0861,-22.6918,21.1057,121.071,-56.704,-4.03811,-45.0585,7.12502,21.7174,-73.8603,-3.65764e-14,2.78299e-15,35.9857,38.7875,-5.85682,30.0798,33.5856,-26.8305,-19.189,7.12502,-0.256403,10.7906,-4.36883,11.5908,-0.888863,8.92635,21.4681,-10.6242,-36.0768,-22.9036,-1.65042,-23.0594,21.6441,-14.9552,11.7255,10.6602
4.09178,17.5749,3.77607,18.9021,-10.9194,-3.98006,-8.03313,-0.669357,6.73011,-11.791,-1.03159,2.49911,-8.09943,-0.989853,-1.09684,-9.23722,14.2841,11.0665,22.1432,16.7007,5.26761,9.00044,9.27458,1.87525,2.3059e-14,-2.26615e-14,-10.9412,-22.72,21.0301,120.962,-56.8961,-3.8059,-45.3166,7.12502,21.9403,-74.0924,2.3059e-14,-2.26615e-14,35.905,38.6023,-5.92405,30.1619,33.8075,-26.719,-18.8249,7.12502,-0.148734,11.1548,-4.45904,11.5421,-0.768534,9.12111,21.424,-10.6539,-35.8021,-22.944,-1.62987,-22.9674,21.6535,-14.9767,11.6275,10.7667
4.09135,17.575,3.76771,18.9058,-11.1544,-3.91549,-7.95781,-0.56659,6.55841,-11.873,-0.880056,2.48551,-8.21703,-0.905257,-1.01174,-9.05541,14.0286,11.0739,22.3502,16.4131,5.06355,9.05201,9.12614,1.7706,-4.80065e-14,1.15295e-14,-10.8588,-22.5411,21.0037,120.9,-56.9528,-3.6933,-45.294,7.12502,22.0485,-74.0572,-4.80065e-14,1.15295e-14,35.7468,38.2296,-6.07271,30.2924,34.3838,-27.0144,-19.3276,7.12502,-0.43403,10.6517,-4.72744,11.7227,-0.948159,9.32004,21.2919,-10.6335,-36.0236,-22.9981,-1.58524,-23.0728,21.6676,-14.9342,11.7784,10.9418
4.09124,17.5763,3.75791,18.9426,-11.4185,-3.84324,-7.88869,-0.480603,6.35425,-11.8907,-0.755089,2.45657,-8.25975,-0.828769,-0.927655,-8.92496,13.8326,11.1745,22.4962,16.2084,4.75642,9.11104,9.01069,1.63266,-1.77912e-14,-1.66979e-14,-10.8146,-22.4545,20.8752,120.833,-56.8347,-3.77334,-45.1959,7.12502,21.9716,-73.9681,-1.77912e-14,-1.66979e-14,35.7009,38.2031,-6.10132,30.3489,34.6052,-26.7615,-19.8826,7.12502,-0.189777,10.0971,-5.07919,11.9129,-1.16195,9.59931,21.2035,-10.6071,-36.2131,-23.0703,-1.52487,-23.1953,21.6586,-14.8845,11.9309,11.143
4.09751,17.5777,3.74721,18.9239,-11.2533,-3.84209,-7.76976,-0.480199,6.44392,-11.9723,-0.742665,2.43391,-8.42386,-0.836218,-0.99635,-8.56823,13.6622,11.0036,22.5967,16.0523,4.75041,9.06111,8.92926,1.60818,-2.38542e-15,-1.90833e-14,-10.8142,-22.1703,20.8375,120.834,-56.6997,-4.36004,-45.3045,7.12502,21.4082,-74.1417,-2.38542e-15,-1.90833e-14,35.6948,38.0038,-6.08968,30.3831,34.5881,-26.161,-19.754,7.12502,0.390242,10.2254,-5.22968,11.7725,-1.10458,9.97586,21.1215,-10.6281,-36.2794,-23.0757,-1.64293,-23.1665,21.6305,-14.86,11.8849,11.2129
4.10648,17.5776,3.73111,18.7925,-10.845,-3.78173,-7.48418,-0.581967,6.58422,-12.0382,-0.853626,2.39196,-8.67753,-0.911889,-1.11022,-8.57852,13.5175,10.7418,22.8879,15.8654,4.87351,9.12318,8.8411,1.6732,2.55438e-14,-2.82274e-14,-10.8859,-21.9194,20.8555,120.908,-56.6267,-4.45077,-45.5237,7.12502,21.321,-74.3709,2.55438e-14,-2.82274e-14,36.012,38.0889,-5.63632,30.3158,34.0937,-26.01,-19.4444,7.12502,0.536075,10.5346,-5.09643,11.4372,-0.97399,10.2251,21.0042,-10.6339,-36.3647,-23.0519,-1.96851,-23.1225,21.6483,-14.789,11.7855,11.0997
4.11188,17.5769,3.71361,18.6896,-10.6282,-3.75608,-7.19248,-0.702059,6.57405,-11.9615,-0.989595,2.40867,-8.76699,-0.977379,-1.08204,-8.97311,13.4408,10.6953,23.1741,15.7406,4.74325,9.29783,8.7687,1.66932,1.83876e-14,-1.86858e-14,-10.8645,-22.1107,20.708,120.935,-56.7232,-3.28578,-45.5821,7.12502,22.4397,-74.2985,1.83876e-14,-1.86858e-14,36.445,38.7606,-4.97447,30.1252,33.2148,-26.3483,-19.5472,7.12502,0.209375,10.4324,-4.99493,11.3445,-0.900589,10.3061,21.0026,-10.6817,-36.0765,-23.0865,-2.12568,-23.0842,21.7159,-14.7135,11.7309,11.0024
4.11551,17.577,3.70483,18.7406,-10.5446,-3.79823,-7.18443,-0.766638,6.54924,-11.875,-1.07597,2.45855,-8.6769,-1.01158,-1.01735,-9.13073,13.3797,10.7126,23.2736,15.6788,4.53139,9.37901,8.7194,1.60911,-2.47487e-14,-2.10712e-14,-10.7546,-22.3666,20.5018,120.916,-56.8791,-2.5982,-45.5852,7.12502,23.0995,-74.2206,-2.47487e-14,-2.10712e-14,36.343,39.0475,-5.02838,30.1101,33.1007,-26.9085,-19.877,7.12502,-0.331691,10.1024,-5.07474,11.2429,-0.84363,10.3289,21.0445,-10.7101,-36.0535,-23.2164,-2.06344,-23.0446,21.7962,-14.7105,11.6324,10.878
4.11992,17.5769,3.70448,18.7947,-10.4645,-3.85981,-7.33636,-0.748498,6.64696,-11.8369,-1.068,2.46527,-8.55005,-1.01193,-1.06913,-9.13762,13.2721,10.58,23.4506,15.5676,4.46363,9.43205,8.6534,1.59959,2.79292e-14,-2.18663e-14,-10.7044,-22.4276,20.4281,120.852,-56.9132,-2.63473,-45.5722,7.12502,23.0645,-74.2119,2.79292e-14,-2.18663e-14,35.8263,38.6335,-5.69296,30.3225,33.8695,-27.8341,-20.1591,7.12502,-1.2257,9.81717,-5.08569,11.097,-0.769324,10.3141,20.9518,-10.7226,-36.3525,-23.2927,-2.08127,-22.9893,21.8851,-14.7429,11.624,10.8893
4.12402,17.5767,3.70249,18.7801,-10.3983,-3.93322,-7.39421,-0.694816,6.77706,-11.8468,-1.00187,2.47703,-8.5292,-0.988925,-1.12973,-9.099,13.0488,10.4114,23.7345,15.3183,4.34967,9.51134,8.51794,1.56409,-3.71727e-14,2.34566e-14,-10.628,-22.353,20.3653,120.718,-56.7805,-2.85971,-45.4774,7.12502,22.8486,-74.144,-3.71727e-14,2.34566e-14,35.5922,38.2239,-5.99186,30.4277,34.302,-28.364,-20.0997,7.12502,-1.73746,9.87296,-4.98482,11.0191,-0.679044,10.2184,20.912,-10.7091,-36.3715,-23.3111,-2.11776,-22.921,21.9875,-14.7923,11.6508,10.9898
4.12541,17.5776,3.69717,18.77,-10.3162,-3.96781,-7.37614,-0.695273,6.79068,-11.8477,-0.999846,2.48735,-8.54094,-0.988546,-1.12585,-9.01122,12.8487,10.3569,23.8509,15.0953,4.19583,9.53741,8.39637,1.49157,-2.08724e-15,-3.89618e-14,-10.5391,-22.3015,20.2269,120.619,-56.6793,-3.14163,-45.3075,7.12502,22.578,-74.0072,-2.08724e-15,-3.89618e-14,35.3972,37.9853,-6.30991,30.4285,34.372,-28.1625,-19.992,7.12502,-1.5429,9.98213,-4.86205,11.0083,-0.611226,10.0206,21.049,-10.7492,-36.1972,-23.3837,-2.12631,-22.8724,22.1016,-14.8162,11.6024,10.5366
4.12615,17.5772,3.69878,18.7791,-10.3864,-4.03529,-7.43823,-0.65705,6.78329,-11.8178,-0.956058,2.48359,-8.46758,-0.96398,-1.12849,-8.92006,12.765,10.2782,24.0337,14.9861,4.26246,9.56987,8.3499,1.51203,-9.54166e-15,-2.42517e-14,-10.5169,-22.2137,20.1724,120.634,-56.7395,-3.37994,-45.0814,7.12502,22.3493,-73.8087,-9.54166e-15,-2.42517e-14,34.9013,37.5929,-7.03968,30.5557,34.8432,-28.6231,-20.2471,7.12502,-1.98775,9.72335,-4.79625,11.0811,-0.583337,9.82448,21.2462,-10.738,-36.0557,-23.4148,-2.13214,-22.8157,22.2101,-14.8718,11.6774,10.2189
4.12881,17.5768,3.7058,18.8353,-10.5592,-4.18516,-7.62298,-0.527202,6.85603,-11.8134,-0.800402,2.50272,-8.3479,-0.888867,-1.15278,-8.94887,12.7087,9.85678,24.511,14.8602,4.74959,9.6627,8.31699,1.73718,1.08338e-14,-8.74653e-15,-10.5694,-22.0063,20.2739,120.679,-56.8391,-3.8341,-44.9342,7.12502,21.9133,-73.7132,1.08338e-14,-8.74653e-15,34.7563,37.3517,-7.20965,30.6675,35.2408,-28.8769,-20.0988,7.12502,-2.23278,9.86925,-4.86241,11.2562,-0.5488,9.74713,21.286,-10.7365,-36.0705,-23.4272,-1.95991,-22.7482,22.3057,-14.9903,11.7169,10.3631
4.13038,17.578,3.70315,18.8621,-10.612,-4.27325,-7.66578,-0.449222,6.86487,-11.8027,-0.699168,2.52496,-8.30373,-0.836521,-1.13532,-9.23595,12.5857,9.4469,25.0373,14.6457,5.07562,9.83425,8.22567,1.92129,5.54609e-14,-1.94809e-14,-10.5915,-21.916,20.3107,120.666,-56.9708,-4.14439,-45.0203,7.12502,21.6153,-73.8339,5.54609e-14,-1.94809e-14,34.6768,37.1607,-7.29415,30.7696,35.6345,-28.0064,-19.3161,7.12502,-1.39213,10.6591,-4.96095,11.3153,-0.494595,9.80742,21.1823,-10.7246,-36.109,-23.4841,-1.78544,-22.7083,22.373,-14.97,11.6649,10.1321
4.13225,17.5795,3.6844,18.8062,-10.4576,-4.28898,-7.42012,-0.494716,6.85544,-11.7888,-0.734963,2.54816,-8.43066,-0.854409,-1.10125,-9.52824,12.3548,9.47409,25.3882,14.3613,4.74268,10.0384,8.06309,1.81321,-1.48095e-14,1.59028e-15,-10.4639,-21.9302,20.135,120.548,-56.9619,-4.09593,-45.0079,7.12502,21.6618,-73.8161,-1.48095e-14,1.59028e-15,34.1987,36.7764,-7.89167,30.9759,36.3681,-28.0194,-19.2298,7.12502,-1.40466,10.7453,-5.01287,11.1961,-0.382183,9.98112,21.1922,-10.7329,-35.9856,-23.5454,-1.8299,-22.6374,22.4034,-14.88,11.5671,10.2452
4.13462,17.5807,3.66161,18.7596,-10.2398,-4.25626,-7.13317,-0.565393,6.84577,-11.8518,-0.798449,2.54389,-8.67194,-0.89188,-1.09229,-9.41856,12.1301,9.56009,25.4803,14.1235,4.41302,10.0794,7.92614,1.65791,2.43511e-14,-8.74653e-15,-10.3583,-21.7304,19.947,120.405,-56.6527,-4.1033,-44.7881,7.12502,21.6548,-73.5971,2.43511e-14,-8.74653e-15,33.955,36.4861,-8.16501,31.0991,36.7618,-28.3874,-19.7022,7.12502,-1.7601,10.2702,-5.13129,11,-0.287369,10.2696,21.1855,-10.7461,-35.858,-23.6351,-2.0019,-22.5728,22.4102,-14.8084,11.4901,10.8554
4.13625,17.5804,3.64881,18.7871,-10.1312,-4.20972,-7.10704,-0.558071,6.83117,-11.8827,-0.787823,2.473,-8.72207,-0.890659,-1.1583,-9.19032,11.9816,9.60314,25.5369,13.9617,4.29487,10.0664,7.84442,1.5778,1.78906e-15,-1.11319e-14,-10.5126,-21.4556,19.9027,120.389,-56.3635,-4.40321,-44.7449,7.12502,21.3667,-73.5868,1.78906e-15,-1.11319e-14,34.2998,36.6476,-7.7551,31.0047,36.3027,-27.6352,-19.6241,7.12502,-1.03356,10.3532,-5.37612,10.9952,-0.293406,10.659,20.9476,-10.8646,-36.1081,-23.7507,-2.10642,-22.5708,22.3969,-14.7224,11.4794,10.9795
4.13998,17.5796,3.64294,18.8831,-10.0491,-4.21924,-7.27869,-0.514178,6.88371,-11.8028,-0.752386,2.41542,-8.53253,-0.873993,-1.25489,-9.12277,11.88,9.63226,25.5732,13.864,4.12234,10.08,7.78328,1.50035,3.37934e-15,1.98785e-15,-10.7665,-21.4259,19.9441,120.448,-56.3211,-4.15085,-44.7577,7.12502,21.6091,-73.572,3.37934e-15,1.98785e-15,34.7934,37.1595,-7.14899,30.835,35.5387,-26.8014,-19.3509,7.12502,-0.228296,10.6287,-5.67197,10.852,-0.281393,11.0679,20.7561,-10.8564,-36.3436,-23.8754,-2.13159,-22.56,22.3656,-14.6569,11.4539,10.6582
4.14239,17.5793,3.63431,18.9332,-10.1023,-4.16024,-7.32072,-0.493702,6.75864,-11.7298,-0.730046,2.41388,-8.41809,-0.847898,-1.19091,-9.27895,11.8681,9.38265,25.7685,13.856,4.20504,10.1504,7.76806,1.58153,-1.20265e-14,-4.37326e-15,-10.7602,-21.5308,19.8777,120.401,-56.3305,-3.5865,-44.6987,7.12502,22.151,-73.4497,-1.20265e-14,-4.37326e-15,34.9675,37.494,-6.85492,30.7391,35.1379,-26.6507,-19.3606,7.12502,-0.0827614,10.6191,-5.98137,10.7462,-0.386239,11.4149,20.6827,-10.7809,-36.1721,-23.9571,-2.20344,-22.6285,22.3359,-14.5924,11.583,10.4074
4.1419,17.5795,3.62388,18.9233,-10.1969,-4.10841,-7.27411,-0.503038,6.58448,-11.6997,-0.735925,2.42945,-8.4036,-0.834425,-1.07842,-9.42234,11.8458,9.1755,26.0677,13.8375,4.24985,10.2633,7.74871,1.64786,1.98785e-16,-1.98785e-14,-10.5174,-21.6608,19.6177,120.181,-56.244,-3.34093,-44.6965,7.12502,22.3867,-73.4193,1.98785e-16,-1.98785e-14,35.4141,37.9767,-6.17054,30.5344,34.3273,-26.444,-19.5578,7.12502,0.116883,10.4219,-6.27855,10.791,-0.471504,11.7501,20.6001,-10.7915,-36.0887,-23.9878,-2.25881,-22.6762,22.3196,-14.5397,11.726,10.4894
4.14312,17.58,3.61469,18.9122,-10.1893,-4.11996,-7.31284,-0.531972,6.53847,-11.6073,-0.781911,2.42523,-8.27782,-0.84882,-1.061,-9.57157,11.7494,9.12697,26.276,13.7303,4.10663,10.3716,7.67949,1.61363,-2.82274e-14,-3.97569e-15,-10.2931,-21.9214,19.2809,119.925,-56.2343,-3.48403,-44.8721,7.12502,22.2494,-73.6114,-2.82274e-14,-3.97569e-15,36.1089,38.7226,-5.20826,30.2746,33.1048,-26.1324,-19.8791,7.12502,0.417852,10.1002,-6.52428,10.7766,-0.446182,12.0952,20.5716,-10.7607,-35.9362,-24.0127,-2.26464,-22.6571,22.3122,-14.4928,11.7368,10.6625
4.1438,17.5809,3.60059,18.8759,-10.2029,-4.12179,-7.25924,-0.562883,6.43616,-11.4979,-0.821138,2.43214,-8.18302,-0.854926,-0.999554,-9.88572,11.6914,8.94029,26.6315,13.623,4.20489,10.5352,7.62523,1.69908,-2.38542e-14,3.26007e-14,-10.181,-22.0465,19.0166,119.897,-56.2986,-4.10916,-45.1215,7.12502,21.6491,-73.9311,-2.38542e-14,3.26007e-14,35.7381,38.6261,-5.65622,30.4053,33.1809,-26.1133,-19.7591,7.12502,0.436309,10.2202,-6.70554,10.8159,-0.438997,12.369,20.5712,-10.7422,-35.5391,-24.0425,-2.25626,-22.6495,22.326,-14.4306,11.7393,10.4863
4.14436,17.5824,3.58486,18.8248,-10.142,-4.18732,-7.07636,-0.595623,6.39818,-11.4782,-0.846023,2.47819,-8.26493,-0.862867,-0.926605,-10.1116,11.6123,8.68919,27.1209,13.4866,4.39194,10.7203,7.56428,1.82102,4.48259e-14,-1.70955e-14,-10.1438,-21.8485,18.8907,120.051,-56.3373,-4.60542,-45.3021,7.12502,21.1725,-74.1659,4.48259e-14,-1.70955e-14,34.8477,37.954,-6.75514,30.7367,34.0779,-26.4642,-19.2854,7.12502,0.0974538,10.6943,-6.7626,10.8937,-0.327182,12.5474,20.4162,-10.8414,-35.4801,-24.0671,-2.23809,-22.5596,22.3637,-14.3841,11.6718,10.3037
4.14763,17.5826,3.5722,18.7575,-9.96622,-4.25683,-6.84065,-0.651713,6.43029,-11.4964,-0.896063,2.5312,-8.42496,-0.891026,-0.882134,-10.2329,11.4511,8.61165,27.4872,13.2748,4.33473,10.8739,7.4559,1.81183,-1.80894e-14,2.66371e-14,-9.99993,-21.717,18.7384,120.018,-56.4014,-4.68893,-45.4999,7.12502,21.0923,-74.3727,-1.80894e-14,2.66371e-14,34.6655,37.7951,-6.89902,30.749,34.0723,-27.1904,-19.4437,7.12502,-0.604013,10.5352,-6.67014,10.786,-0.162245,12.6309,20.2552,-10.8485,-35.7777,-24.0692,-2.29267,-22.4539,22.414,-14.3312,11.5886,10.2805
4.15038,17.5816,3.56521,18.6761,-9.82198,-4.26701,-6.64963,-0.698106,6.38608,-11.4808,-0.938903,2.55912,-8.51783,-0.908297,-0.824017,-10.3876,11.3043,8.67866,27.7175,13.0893,4.13354,11.0081,7.35459,1.73118,1.68967e-14,-1.19271e-14,-9.78253,-21.8419,18.5181,119.76,-56.3945,-4.27486,-45.6458,7.12502,21.49,-74.4738,1.68967e-14,-1.19271e-14,34.4693,37.5026,-7.10527,30.7319,34.2604,-27.5956,-19.8014,7.12502,-0.995288,10.176,-6.52374,10.6107,-0.0715568,12.6151,20.2549,-10.8147,-35.9991,-24.0578,-2.3433,-22.4271,22.4898,-14.2833,11.5391,10.0132
4.15195,17.5813,3.56532,18.5815,-9.74735,-4.27412,-6.65557,-0.697941,6.3722,-11.3666,-0.945104,2.5313,-8.38521,-0.906047,-0.849937,-10.6709,11.2052,8.65308,27.9989,12.949,4.04149,11.1715,7.27698,1.71802,3.11098e-14,3.57812e-15,-9.71038,-22.0163,18.3119,119.562,-56.2467,-3.84475,-45.6862,7.12502,21.903,-74.4664,3.11098e-14,3.57812e-15,33.914,36.9345,-7.87288,30.9327,35.3226,-27.2338,-19.8906,7.12502,-0.645914,10.0882,-6.36082,10.5213,-0.00873701,12.5457,20.3656,-10.8181,-35.861,-24.0075,-2.28971,-22.4381,22.5836,-14.3423,11.4646,9.80486
4.15417,17.5807,3.56326,18.536,-9.72264,-4.33748,-6.73927,-0.668909,6.45748,-11.2374,-0.922489,2.49232,-8.19391,-0.896681,-0.944706,-10.8843,11.1152,8.52979,28.283,12.8112,4.08696,11.3045,7.20784,1.76146,4.67641e-14,-2.42517e-14,-9.73118,-21.9672,18.1652,119.568,-56.1141,-3.53259,-45.7078,7.12502,22.2027,-74.4526,4.67641e-14,-2.42517e-14,33.9203,37.0016,-7.88889,30.9545,35.5642,-26.6078,-20.0788,7.12502,-0.0412497,9.90096,-6.25072,10.4655,0.0914809,12.4565,20.4852,-10.8184,-35.7523,-23.9973,-2.25603,-22.3894,22.6781,-14.4372,11.4534,9.95621
4.15674,17.5797,3.55969,18.5624,-9.73447,-4.42435,-6.79078,-0.631575,6.52494,-11.1668,-0.880797,2.4996,-8.08447,-0.876988,-0.977936,-11.1231,11.0247,8.29937,28.6338,12.6734,4.21013,11.4538,7.1379,1.85256,-8.54774e-15,-1.23246e-14,-9.73852,-21.7753,18.1239,119.631,-56.0742,-3.27197,-45.7252,7.12502,22.4529,-74.44,-8.54774e-15,-1.23246e-14,33.9775,37.1441,-7.75049,30.9037,35.2881,-26.6167,-20.2592,7.12502,-0.0499156,9.72057,-6.22457,10.4054,0.191333,12.3728,20.4401,-10.829,-35.896,-24.0695,-2.31319,-22.2923,22.7752,-14.4604,11.5269,10.2299
4.16021,17.5796,3.55713,18.5386,-9.61596,-4.44287,-6.85325,-0.649448,6.53586,-11.0925,-0.91188,2.52771,-7.96718,-0.887506,-0.957741,-11.2401,10.8986,8.10392,28.8728,12.5478,4.13665,11.5545,7.05267,1.85683,-3.32964e-15,-5.56597e-14,-9.61567,-21.7539,18.0163,119.541,-56.0917,-3.39927,-45.7658,7.12502,22.3307,-74.4954,-3.32964e-15,-5.56597e-14,33.7326,37.0433,-7.94681,30.9197,35.1077,-26.9772,-20.2016,7.12502,-0.398108,9.77779,-6.10326,10.2806,0.269146,12.3168,20.3604,-10.9104,-36.0398,-24.1085,-2.41013,-22.2475,22.8697,-14.4953,11.4986,10.3148
4.16613,17.5806,3.54927,18.4996,-9.33545,-4.42904,-6.88653,-0.727685,6.57879,-11.0385,-1.02114,2.54246,-7.8966,-0.941491,-0.967731,-11.0116,10.7416,8.12909,28.8233,12.4408,3.78802,11.5146,6.96501,1.69614,-7.25564e-15,2.62396e-14,-9.36379,-21.889,17.78,119.377,-56.1693,-3.71677,-45.871,7.12502,22.0259,-74.6368,-7.25564e-15,2.62396e-14,33.8916,37.2625,-7.59854,30.8303,34.4869,-27.0875,-19.7812,7.12502,-0.504563,10.1979,-5.91272,10.0407,0.367635,12.2422,20.4826,-11.023,-35.7893,-24.1661,-2.49678,-22.2299,22.9501,-14.4997,11.3467,10.2561
4.17201,17.5841,3.53849,18.4507,-9.12754,-4.52212,-6.7815,-0.773647,6.71462,-10.9974,-1.07551,2.56084,-7.92028,-0.977589,-1.02174,-10.9332,10.6379,8.1211,28.9158,12.3495,3.62303,11.5439,6.90341,1.6251,3.23522e-14,-1.07344e-14,-9.16358,-22.0117,17.587,119.251,-56.3359,-3.78979,-45.984,7.12502,21.9558,-74.758,3.23522e-14,-1.07344e-14,33.9319,37.3318,-7.40709,30.8761,34.3676,-27.4345,-19.6248,7.12502,-0.839737,10.3533,-5.74751,9.8893,0.5621,12.138,20.7459,-11.0615,-35.1648,-24.193,-2.5508,-22.1053,23.0175,-14.4769,11.2686,10.3862
4.17813,17.5856,3.5325,18.318,-9.02644,-4.63214,-6.67653,-0.762565,6.88067,-10.8919,-1.05759,2.56499,-7.86822,-0.977403,-1.11009,-10.9878,10.5631,7.949,29.088,12.2653,3.6622,11.6017,6.85282,1.66364,2.43511e-15,-1.55052e-14,-9.07535,-22.1175,17.4882,119.094,-56.3948,-3.74413,-46.0958,7.12502,21.9997,-74.8646,2.43511e-15,-1.55052e-14,33.5112,36.9397,-7.83285,31.0878,35.0665,-27.8293,-20.026,7.12502,-1.22109,9.95024,-5.49517,9.77906,0.741191,11.9717,20.8688,-10.9865,-34.9131,-24.1085,-2.56283,-21.993,23.1213,-14.5322,11.2213,10.3882
4.18717,17.5831,3.53136,18.2573,-8.92141,-4.6429,-6.80981,-0.742728,6.98929,-10.7423,-1.05262,2.55626,-7.62899,-0.974271,-1.18737,-11.0089,10.4453,7.70483,29.1672,12.1619,3.62311,11.6154,6.77601,1.67492,-1.80894e-14,8.74653e-15,-8.99844,-22.2306,17.367,118.905,-56.1853,-4.15691,-46.1077,7.12502,21.6033,-74.9227,-1.80894e-14,8.74653e-15,33.019,36.5526,-8.34089,31.2457,35.718,-27.6989,-20.1804,7.12502,-1.09512,9.79654,-5.41704,9.509,0.769126,12.0173,20.6944,-10.8149,-35.1481,-24.0774,-2.54201,-22.021,23.1899,-14.5788,11.0831,10.136
4.19664,17.5812,3.53399,18.3211,-8.84252,-4.78414,-7.12423,-0.714561,7.19415,-10.5565,-1.0563,2.6076,-7.25077,-0.975445,-1.25933,-11.1336,10.3533,7.45912,29.2892,12.1013,3.53545,11.6708,6.71099,1.68439,-1.28216e-14,-1.82882e-14,-8.82667,-22.4636,17.1098,118.675,-55.9306,-4.68715,-46.175,7.12502,21.094,-75.0476,-1.28216e-14,-1.82882e-14,32.7359,36.5843,-8.54413,31.2597,35.927,-27.1293,-19.8702,7.12502,-0.544984,10.1089,-5.45789,9.29388,0.900153,12.0713,20.5972,-10.6855,-35.2701,-24.1418,-2.51191,-21.9163,23.2658,-14.6571,11.0122,10.2574
4.19565,17.5815,3.50671,18.2152,-8.91171,-4.60557,-6.83752,-0.746137,6.83164,-10.4432,-1.06884,2.60329,-7.27226,-0.952582,-1.06136,-11.3816,10.263,7.39888,29.423,12.043,3.27154,11.7845,6.64267,1.61325,1.3418e-14,-2.98177e-14,-8.70692,-22.7234,16.8356,118.479,-55.8097,-5.18801,-46.5458,7.12502,20.6128,-75.4714,1.3418e-14,-2.98177e-14,32.8905,37.0272,-8.22572,31.0931,35.618,-26.4768,-19.5353,7.12502,0.0852833,10.4445,-5.59391,9.50404,0.712284,12.2588,20.6642,-10.9207,-35.1746,-24.1903,-2.57883,-22.0712,23.3036,-14.5996,11.0717,10.6763
4.20221,17.5804,3.5061,18.2302,-8.86292,-4.61456,-6.91235,-0.793339,6.9026,-10.5646,-1.13271,2.64589,-7.37201,-0.993208,-1.05312,-10.888,10.1104,7.42048,29.5867,11.9562,2.96363,11.7714,6.57247,1.46316,2.80783e-14,-1.82882e-14,-8.37494,-22.3556,16.6183,118.48,-55.8798,-5.4528,-46.5751,7.12502,20.3583,-75.528,2.80783e-14,-1.82882e-14,32.9606,37.01,-7.91249,30.9132,34.9983,-26.5156,-19.5134,7.12502,0.0477621,10.4663,-5.73819,9.39753,0.715601,12.5781,20.5981,-10.9014,-34.9712,-24.2222,-2.5828,-22.0865,23.3438,-14.6304,11.0412,10.617
4.20618,17.5802,3.49495,18.2989,-8.83075,-4.60194,-6.95123,-1.0491,6.92716,-11.1605,-1.43908,2.89391,-8.03526,-1.16638,-0.781603,-8.33312,10.0814,7.21338,29.3576,12.2316,2.76648,11.1772,6.67767,1.28592,3.18055e-15,-8.34896e-15,-7.09569,-21.2158,16.0913,118.564,-56.0158,-4.80042,-45.8631,7.12502,20.9852,-74.7478,3.18055e-15,-8.34896e-15,32.0125,35.786,-8.44811,30.9623,34.7237,-27.174,-19.505,7.12502,-0.588143,10.4739,-6.07825,9.37059,0.695332,13.0479,20.4356,-10.9821,-34.7517,-24.3694,-2.52256,-22.1139,23.3536,-14.5452,10.9454,10.2539
4.20941,17.5791,3.47422,18.31,-8.85858,-4.57056,-6.77567,-1.08274,6.82696,-11.2196,-1.46309,2.89427,-8.19903,-1.17511,-0.718181,-8.0975,10.0032,7.14965,29.4999,12.1748,2.68597,11.1844,6.63756,1.25062,-4.21423e-14,-1.31198e-14,-6.83057,-21.1069,15.8103,118.459,-55.9455,-3.94155,-45.4167,7.12502,21.8101,-74.2077,-4.21423e-14,-1.31198e-14,32.0832,35.7937,-8.22497,30.911,34.48,-27.4768,-19.6235,7.12502,-0.880568,10.3544,-6.34069,9.38575,0.644745,13.3341,20.3678,-11.067,-34.7948,-24.5205,-2.42069,-22.1692,23.4224,-14.4428,10.8537,10.1908
4.21469,17.5802,3.44743,18.2523,-8.82725,-4.58871,-6.44784,-1.06372,6.80166,-11.2167,-1.40755,2.85997,-8.38023,-1.15024,-0.731585,-8.33005,9.80233,6.9831,29.7883,11.9012,2.68858,11.3206,6.49355,1.26745,1.68967e-15,4.77083e-15,-6.70529,-21.1387,15.545,118.253,-55.8016,-3.89418,-45.7994,7.12502,21.8556,-74.5851,1.68967e-15,4.77083e-15,32.0262,35.5757,-8.28907,30.9703,34.7407,-27.1186,-19.8486,7.12502,-0.534594,10.1304,-6.60768,9.35492,0.686352,13.7081,20.4938,-11.0899,-34.5118,-24.6159,-2.31868,-22.16,23.4868,-14.364,10.6899,10.4393
4.22251,17.5838,3.42729,18.2283,-8.74427,-4.7391,-6.28764,-0.944615,6.94423,-11.071,-1.24458,2.77471,-8.30596,-1.07915,-0.904227,-8.9992,9.58911,6.81461,30.173,11.5237,2.87216,11.5686,6.32014,1.36608,-5.47652e-14,-8.34896e-15,-7.00971,-21.2271,15.5463,118.095,-55.5955,-4.43362,-46.1207,7.12502,21.3375,-74.9659,-5.47652e-14,-8.34896e-15,32.15,35.4813,-8.31132,31.0737,35.1436,-26.4718,-19.8296,7.12502,0.0900946,10.1501,-6.88739,9.29345,0.880421,14.1407,20.5395,-11.0722,-34.0491,-24.706,-2.21689,-22.0119,23.5416,-14.333,10.5235,10.5643
4.22743,17.5869,3.41348,18.2894,-8.79787,-4.82829,-6.34398,-0.808165,6.96406,-10.9076,-1.07929,2.69327,-8.07983,-0.993141,-1.01145,-9.51106,9.4699,6.58094,30.4788,11.2814,3.14345,11.7495,6.21389,1.51061,3.65764e-14,-1.66979e-14,-7.41823,-21.3142,15.6557,118.066,-55.5368,-4.63694,-45.9352,7.12502,21.1422,-74.8024,3.65764e-14,-1.66979e-14,32.3144,35.5407,-8.23021,31.1247,35.2562,-25.857,-19.6848,7.12502,0.683903,10.2938,-7.25331,9.31449,0.937867,14.5163,20.2988,-11.174,-34.4589,-24.8591,-2.00945,-21.9728,23.5965,-14.2887,10.4352,10.3456
4.23044,17.5864,3.39754,18.3401,-8.89462,-4.7261,-6.34197,-0.759719,6.77624,-10.8702,-1.0174,2.62674,-8.02703,-0.948558,-0.980599,-9.41738,9.31372,6.41666,30.511,11.0834,3.18448,11.7236,6.112,1.51843,-2.23633e-15,-2.62396e-14,-7.57257,-21.1764,15.6712,118.121,-55.6276,-4.45726,-45.7647,7.12502,21.3148,-74.6126,-2.23633e-15,-2.62396e-14,32.6702,35.8403,-7.71175,31.011,34.6631,-25.737,-19.6751,7.12502,0.799768,10.3032,-7.61317,9.3122,0.776026,14.8262,20.1468,-11.3369,-35.1178,-25.0341,-1.90287,-22.1271,23.6599,-14.2525,10.4354,10.2339
4.2349,17.5851,3.37891,18.3273,-8.87416,-4.68264,-6.24614,-0.762005,6.69592,-10.8584,-1.01306,2.58769,-8.06568,-0.942323,-0.975973,-8.98251,9.14361,6.31344,30.2897,10.9045,3.12498,11.5413,6.01547,1.45205,-3.45388e-14,9.14409e-15,-7.45498,-20.9887,15.4359,117.984,-55.4272,-4.15603,-45.6125,7.12502,21.6041,-74.4273,-3.45388e-14,9.14409e-15,32.8358,35.9425,-7.44665,30.9404,34.3019,-25.9878,-19.4145,7.12502,0.557561,10.5646,-7.84219,9.21903,0.747661,15.104,20.2633,-11.3777,-35.1977,-25.1431,-1.97901,-22.1621,23.7282,-14.2719,10.4627,10.5552
4.23842,17.5861,3.36545,18.3242,-8.86735,-4.80914,-6.21257,-0.749735,6.76762,-10.7707,-0.997216,2.61048,-7.98808,-0.935141,-0.99375,-8.83986,9.07513,6.06074,30.1973,10.8266,3.25629,11.4468,5.96928,1.51383,1.86361e-14,1.78906e-14,-7.18899,-21.0758,15.0528,117.677,-55.1956,-3.46558,-45.3773,7.12502,22.2671,-74.1144,1.86361e-14,1.78906e-14,32.3136,35.559,-8.08026,31.1363,35.0444,-25.6062,-19.0746,7.12502,0.926084,10.9031,-7.98838,9.18334,0.914142,15.291,20.3564,-11.3704,-35.0698,-25.2268,-2.00122,-22.0124,23.8081,-14.2893,10.5017,10.6803
4.24459,17.5885,3.36405,18.3468,-8.81841,-4.97417,-6.25353,-0.770175,6.92312,-10.6662,-1.03299,2.65949,-7.85587,-0.957358,-1.03157,-9.00339,9.05997,5.84535,30.3576,10.8088,3.35435,11.5185,5.94779,1.59577,-1.75924e-14,4.13472e-14,-6.92749,-21.2258,14.7472,117.485,-55.2707,-2.72464,-45.2543,7.12502,22.9782,-73.9048,-1.75924e-14,4.13472e-14,31.6895,35.188,-8.7424,31.3186,35.6406,-25.5479,-19.4116,7.12502,0.982405,10.5659,-8.05812,9.08406,1.12057,15.4084,20.1271,-11.3147,-34.9813,-25.3069,-1.95306,-21.8517,23.9121,-14.3166,10.4541,10.6157
4.2539,17.5891,3.36191,18.3352,-8.65422,-5.04677,-6.2375,-0.8566,6.99931,-10.5868,-1.14869,2.72304,-7.78693,-1.01432,-1.00732,-9.23734,9.02187,5.70108,30.5842,10.7662,3.36176,11.6421,5.91091,1.6388,-2.127e-14,-3.29983e-14,-6.6182,-21.2212,14.4451,117.367,-55.343,-2.64966,-45.2446,7.12502,23.0502,-73.8861,-2.127e-14,-3.29983e-14,30.9611,34.6566,-9.48974,31.4519,36.0992,-26.2296,-19.8131,7.12502,0.323983,10.1664,-8.08356,8.80271,1.25588,15.5772,19.8651,-11.169,-34.7998,-25.3558,-1.95037,-21.7894,24.0121,-14.3618,10.2938,10.9156
4.26213,17.5865,3.35063,18.2454,-8.50353,-5.00992,-6.04065,-0.914366,6.90412,-10.5432,-1.20535,2.76437,-7.84987,-1.03323,-0.907041,-9.52418,8.87114,5.549,30.8591,10.5686,3.34135,11.7958,5.79951,1.65788,3.03644e-14,-1.94809e-14,-6.40828,-21.1569,14.2261,117.242,-55.4446,-3.0139,-45.4162,7.12502,22.7006,-74.1009,3.03644e-14,-1.94809e-14,30.3505,33.9581,-10.1375,31.6251,36.8091,-26.7064,-19.5495,7.12502,-0.136473,10.4302,-8.07985,8.50616,1.27714,15.8248,20.1708,-10.3201,-35.9781,-25.3376,-1.92213,-21.8526,24.0827,-14.349,10.0896,10.9893
4.26807,17.5832,3.33833,18.1438,-8.44335,-4.90469,-5.8808,-0.904307,6.72257,-10.4319,-1.18144,2.73149,-7.80775,-1.00494,-0.842165,-10.0156,8.62785,5.48408,31.2222,10.2407,3.20689,12.0407,5.62278,1.61971,4.52235e-15,5.56597e-15,-6.3399,-21.2639,14.0335,117.003,-55.3606,-3.10248,-45.5503,7.12502,22.6156,-74.2454,4.52235e-15,5.56597e-15,30.8775,34.4166,-9.29558,31.4201,35.8986,-26.6715,-18.987,7.12502,-0.10277,10.9927,-8.13404,8.31179,1.19563,16.1568,19.696,-10.9677,-34.8049,-25.3235,-1.78022,-22.02,24.1467,-14.3131,9.86098,10.719
4.27421,17.5803,3.32583,18.0679,-8.42606,-4.77298,-5.86532,-0.893962,6.52861,-10.2209,-1.17724,2.67238,-7.57335,-0.980899,-0.804861,-10.4998,8.40525,5.43543,31.4335,9.95465,3.01961,12.2298,5.45981,1.55563,-1.52567e-14,1.66979e-14,-6.26705,-21.422,13.7773,116.723,-55.0107,-3.19129,-45.4505,7.12502,22.5304,-74.1559,-1.52567e-14,1.66979e-14,31.5855,35.2879,-8.1745,31.1497,34.611,-26.7585,-19.0474,7.12502,-0.186881,10.9322,-8.32752,8.1631,1.05927,16.5987,19.3551,-11.4354,-33.9958,-25.3649,-1.6428,-22.2181,24.2155,-14.2827,9.70252,10.5205
4.28168,17.5787,3.30535,18.0214,-8.38924,-4.76137,-5.72273,-0.894529,6.46807,-10.077,-1.17271,2.64102,-7.49268,-0.970404,-0.805978,-10.6858,8.2343,5.38494,31.4659,9.74782,2.87834,12.2833,5.34087,1.49377,-2.23633e-14,1.07344e-14,-6.34196,-21.3798,13.6887,116.68,-54.9665,-3.98971,-45.378,7.12502,21.7638,-74.1744,-2.23633e-14,1.07344e-14,31.6428,35.4841,-7.97219,31.1102,34.3221,-27.022,-19.7778,7.12502,-0.441313,10.2015,-8.61465,8.08071,1.04858,17.0786,19.1696,-11.9221,-32.7046,-25.4634,-1.54467,-22.2616,24.2923,-14.2111,9.56962,10.5013
4.28581,17.5778,3.27932,18.0109,-8.44476,-4.79265,-5.5339,-0.858193,6.39344,-9.99331,-1.11174,2.61356,-7.50148,-0.933908,-0.792837,-10.6972,8.11979,5.28974,31.4991,9.61622,2.832,12.2932,5.26435,1.47473,2.22639e-14,-3.97569e-15,-6.45343,-21.3103,13.6626,116.661,-55.1463,-4.55767,-45.5647,7.12502,21.2184,-74.4234,2.22639e-14,-3.97569e-15,31.7161,35.573,-7.844,31.032,33.9684,-26.6816,-20.1117,7.12502,-0.112596,9.86801,-8.9423,8.19173,1.06016,17.491,18.8555,-12.4962,-31.5336,-25.6394,-1.45351,-22.2379,24.4058,-14.1445,9.47575,10.8202
4.2898,17.5753,3.26028,17.9647,-8.51205,-4.76818,-5.47037,-0.828853,6.25336,-9.90798,-1.06978,2.61189,-7.43472,-0.899542,-0.719252,-10.4838,8.0509,5.07093,31.449,9.56998,2.86124,12.2104,5.22388,1.49938,3.63279e-14,7.95139e-15,-6.34076,-21.2633,13.5142,116.506,-55.2241,-3.76184,-45.5611,7.12502,21.9826,-74.3319,3.63279e-14,7.95139e-15,31.7568,35.5632,-7.67608,30.9815,33.8596,-26.3018,-19.9851,7.12502,0.254233,9.99453,-9.17333,8.30313,1.01704,17.8197,18.2866,-13.0245,-30.8098,-25.7854,-1.46565,-22.2639,24.5785,-14.1336,9.50003,11.1121
4.29938,17.5731,3.24904,17.9155,-8.42536,-4.88158,-5.48428,-0.843925,6.35516,-9.84763,-1.09217,2.65914,-7.36464,-0.91319,-0.727601,-9.98442,7.9615,5.04004,31.2694,9.51177,2.7347,12.0394,5.18211,1.41541,-2.74323e-14,4.77083e-14,-6.15958,-21.0214,13.3042,116.393,-55.0945,-3.03728,-45.1479,7.12502,22.6782,-73.8354,-2.74323e-14,4.77083e-14,31.5801,35.3452,-7.73004,31.0316,34.1645,-25.9043,-19.5942,7.12502,0.638138,10.3846,-9.31924,8.20029,1.16442,18.135,18.063,-13.5037,-29.226,-25.8718,-1.49015,-22.1541,24.7704,-14.2102,9.48347,11.0619
4.31077,17.5737,3.2398,17.9326,-8.33078,-5.1387,-5.55243,-0.821883,6.63632,-9.78191,-1.07233,2.69542,-7.26276,-0.918208,-0.848441,-9.67373,7.8124,5.23727,31.2383,9.34998,2.4623,11.9905,5.09926,1.24501,-5.41191e-14,2.22639e-14,-6.0554,-20.8045,13.0653,116.207,-54.8149,-3.35947,-45.086,7.12502,22.3689,-73.8109,-5.41191e-14,2.22639e-14,31.1341,34.85,-8.24864,31.2431,34.8706,-25.2066,-18.8355,7.12502,1.31199,11.1402,-9.54562,8.03936,1.45071,18.4873,17.7013,-13.7961,-27.9783,-25.981,-1.41906,-21.92,24.9564,-14.3459,9.40766,11.0255
4.31704,17.5752,3.22603,18.0062,-8.37645,-5.3429,-5.58165,-0.775965,6.70218,-9.68671,-1.01555,2.76687,-7.13837,-0.88671,-0.81397,-9.94679,7.70326,5.16004,31.5494,9.19958,2.44271,12.1657,5.01689,1.2552,1.20762e-14,-2.70347e-14,-5.83132,-20.8946,12.782,115.873,-54.6019,-3.63657,-45.3046,7.12502,22.1029,-74.0612,1.20762e-14,-2.70347e-14,30.5979,34.3657,-8.84171,31.4193,35.5178,-24.7339,-18.7482,7.12502,1.76854,11.2242,-9.92386,8.10426,1.63417,18.8423,18.3326,-12.7396,-30.5879,-26.1878,-1.37754,-21.7183,25.1521,-14.3769,9.45199,11.2478
4.3204,17.5744,3.19892,18.0827,-8.42308,-5.41462,-5.40909,-0.80354,6.55866,-9.67848,-1.03066,2.8726,-7.22128,-0.881319,-0.619664,-10.1673,7.62307,4.7857,31.8648,9.11317,2.5844,12.3046,4.9495,1.37814,-4.05024e-14,1.47101e-14,-5.57046,-20.8376,12.5627,115.727,-54.5412,-3.66881,-45.2673,7.12502,22.072,-74.0277,-4.05024e-14,1.47101e-14,30.0962,33.8927,-9.29521,31.4366,35.8031,-25.0567,-19.231,7.12502,1.45683,10.7438,-10.3893,8.24379,1.68978,19.2075,18.7159,-12.4794,-31.2994,-26.4969,-1.43268,-21.6045,25.3426,-14.2938,9.53538,11.4953
4.32878,17.5728,3.17436,18.046,-8.29294,-5.46949,-5.10221,-0.885795,6.58049,-9.73239,-1.10647,2.9332,-7.46175,-0.924001,-0.557383,-10.0818,7.47888,4.45274,32.0291,8.98535,2.58204,12.3299,4.85247,1.41432,2.94698e-14,-7.15625e-15,-5.42515,-20.5067,12.443,115.737,-54.5843,-3.80571,-45.166,7.12502,21.9405,-73.9418,2.94698e-14,-7.15625e-15,29.647,33.2775,-9.66406,31.5002,36.0179,-25.9197,-19.0803,7.12502,0.623258,10.8986,-10.6528,8.13749,1.79323,19.5897,19.3701,-11.4486,-33.3028,-26.6614,-1.48694,-21.528,25.51,-14.2924,9.46556,11.68
4.33904,17.5705,3.16857,17.9391,-8.17697,-5.56178,-4.98813,-0.932754,6.71628,-9.67085,-1.1603,2.96841,-7.46785,-0.957651,-0.593233,-10.177,7.37515,4.24955,32.261,8.89433,2.53126,12.4332,4.77878,1.42895,1.93318e-14,-5.56597e-15,-5.18344,-20.2856,12.1988,115.582,-54.5481,-4.36295,-45.2906,7.12502,21.4054,-74.1282,1.93318e-14,-5.56597e-15,29.3598,32.9043,-9.77505,31.5808,35.9585,-26.8273,-19.0057,7.12502,-0.253309,10.9739,-10.6987,7.99747,1.91388,19.9048,19.5469,-10.2781,-35.1724,-26.6375,-1.41015,-21.4826,25.6682,-14.4026,9.32898,11.6009
4.34939,17.5657,3.17097,17.8372,-8.15518,-5.59241,-5.09797,-0.935276,6.77244,-9.50132,-1.18269,2.9796,-7.22088,-0.963302,-0.62078,-10.4475,7.31348,4.16589,32.5186,8.84522,2.4337,12.5958,4.72994,1.42244,2.33324e-14,-1.43125e-14,-4.85064,-20.2693,11.8347,115.294,-54.3993,-4.80419,-45.4975,7.12502,20.9815,-74.3826,2.33324e-14,-1.43125e-14,29.4513,33.1324,-9.36318,31.5304,35.5392,-27.2573,-19.3993,7.12502,-0.668613,10.5794,-10.6823,7.91151,1.91758,20.1091,19.5585,-9.58017,-36.0922,-26.5909,-1.32934,-21.5231,25.8411,-14.5424,9.25608,11.4336
4.36396,17.5619,3.17033,17.793,-8.05326,-5.60778,-5.2982,-0.963076,6.85043,-9.26513,-1.2523,2.97742,-6.85399,-0.990176,-0.678434,-10.9191,7.25152,4.08141,32.7694,8.76108,2.41399,12.7947,4.67317,1.44966,2.77802e-14,-1.23246e-14,-4.53819,-20.4775,11.418,114.983,-54.1362,-4.1095,-45.4337,7.12502,21.6488,-74.2434,2.77802e-14,-1.23246e-14,29.4654,33.5314,-9.07836,31.5197,35.4608,-27.2247,-19.5286,7.12502,-0.637139,10.4502,-10.7117,7.70017,1.90802,20.2949,19.6854,-9.29963,-36.1729,-26.6349,-1.40395,-21.5456,26.0285,-14.6373,9.25092,11.6247
4.37891,17.5591,3.16371,17.8314,-7.91828,-5.73288,-5.44765,-0.994667,7.00341,-9.05038,-1.32121,3.0016,-6.54408,-1.02186,-0.747926,-11.3954,7.20264,3.94872,33.0172,8.66854,2.51445,12.9854,4.6223,1.52888,2.02263e-14,-1.86858e-14,-4.25703,-20.6613,10.9868,114.685,-53.9316,-3.21823,-45.1591,7.12502,22.5045,-73.8678,2.02263e-14,-1.86858e-14,28.8111,33.0988,-9.81403,31.7144,36.284,-27.9582,-19.8517,7.12502,-1.34551,10.1238,-10.8997,7.47093,2.01019,20.6178,19.4823,-9.57298,-35.3538,-26.8325,-1.46215,-21.4391,26.2847,-14.7127,9.23951,11.8007
4.38891,17.555,3.14903,17.718,-7.8619,-5.95294,-5.19197,-0.968558,7.18405,-8.94855,-1.26705,3.02447,-6.58245,-1.00388,-0.820577,-11.4791,7.04573,3.78018,33.1313,8.45625,2.57512,13.036,4.51389,1.5567,-4.27387e-14,3.18055e-14,-4.13124,-20.6157,10.7597,114.444,-54.1012,-3.0015,-45.0246,7.12502,22.7125,-73.7079,-4.27387e-14,3.18055e-14,28.5626,32.4955,-10.1511,31.7652,36.756,-28.2302,-19.9037,7.12502,-1.60825,10.07,-11.0163,7.5171,2.23138,20.9849,19.1484,-10.0611,-34.2898,-26.9042,-1.40475,-21.2292,26.5698,-14.821,9.21986,11.6943
4.39328,17.542,3.12702,17.5139,-7.78266,-6.05602,-4.87151,-0.962693,7.23727,-8.87381,-1.23094,3.02366,-6.68367,-0.989568,-0.845372,-11.2581,6.8306,3.42969,33.1407,8.17034,2.76927,12.9588,4.37168,1.63549,-2.17918e-14,-7.95139e-15,-4.14421,-20.4546,10.7417,114.334,-54.3707,-3.59179,-45.1354,7.12502,22.1459,-73.887,-2.17918e-14,-7.95139e-15,29.3615,33.0105,-9.02299,31.4228,35.7774,-27.2839,-19.3153,7.12502,-0.694315,10.6633,-11.1243,7.71572,2.35756,21.426,18.9884,-10.2918,-33.9768,-26.9418,-1.34372,-21.1248,26.8967,-14.933,9.16717,11.6009
4.40091,17.5395,3.10478,17.5289,-7.66955,-6.12528,-4.82121,-1.00223,7.23264,-8.86394,-1.27618,3.0875,-6.70327,-1.00946,-0.774079,-10.8886,6.72565,3.08534,33.1537,8.05869,2.93305,12.8552,4.30366,1.72046,-3.00413e-14,2.50469e-14,-4.00043,-20.245,10.6698,114.24,-54.324,-4.0445,-45.1726,7.12502,21.7112,-73.9751,-3.00413e-14,2.50469e-14,29.5624,33.1358,-8.53075,31.3093,35.2435,-27.7833,-19.6977,7.12502,-1.17659,10.2788,-11.4635,7.83246,2.4166,21.877,19.2248,-9.58407,-35.2153,-27.1969,-1.32966,-21.0524,27.173,-15.0067,9.06795,11.7862
4.4104,17.5371,3.08493,17.5695,-7.65483,-6.22553,-4.68333,-1.01782,7.23549,-8.89945,-1.27699,3.1742,-6.81946,-1.01021,-0.679545,-10.7385,6.64369,2.95717,33.3039,8.00044,2.85551,12.883,4.25112,1.70254,-4.92241e-14,1.98785e-14,-3.7381,-20.0938,10.4614,114.029,-54.109,-3.46414,-44.9713,7.12502,22.2685,-73.7083,-4.92241e-14,1.98785e-14,28.8142,32.1422,-9.30734,31.5916,36.0175,-28.5552,-20.2219,7.12502,-1.92209,9.74917,-11.8536,8.00701,2.4387,22.2857,19.5076,-8.72578,-36.0707,-27.4547,-1.27295,-20.9739,27.4171,-15.0686,8.99033,12.0096
4.42151,17.5343,3.07692,17.4945,-7.6556,-6.15935,-4.62853,-1.027,7.14667,-8.85141,-1.28651,3.16536,-6.79499,-1.00772,-0.640054,-10.9917,6.52758,2.70898,33.6654,7.85927,2.93548,13.0722,4.16294,1.78021,2.03257e-14,-1.55052e-14,-3.5768,-19.8875,10.2057,113.844,-53.9337,-3.33877,-44.8073,7.12502,22.3888,-73.5299,2.03257e-14,-1.55052e-14,28.5739,31.7522,-9.46499,31.6643,36.2596,-27.1954,-19.5367,7.12502,-0.608851,10.4422,-12.0129,8.16701,2.26542,22.5645,19.5605,-8.61912,-35.2408,-27.5069,-1.29308,-21.0927,27.5958,-15.1483,9.01472,11.9207
4.43168,17.53,3.07134,17.5046,-7.59725,-6.2127,-4.72698,-1.03245,7.21326,-8.80634,-1.30678,3.16083,-6.69373,-1.01894,-0.685367,-11.2475,6.47024,2.45946,34.0585,7.7723,3.11784,13.2724,4.11135,1.9072,-5.36719e-15,8.34896e-15,-3.36919,-19.6196,9.84751,113.603,-53.5702,-3.87716,-44.766,7.12502,21.8719,-73.5498,-5.36719e-15,8.34896e-15,28.7763,31.9666,-9.05135,31.558,35.7676,-25.9848,-19.0119,7.12502,0.560416,10.9671,-12.2096,8.3392,2.21825,22.828,19.4291,-9.39647,-32.6925,-27.6246,-1.36614,-21.0544,27.764,-15.2505,9.07165,11.6018
4.43867,17.5268,3.06021,17.5749,-7.52012,-6.52819,-4.69926,-1.01113,7.46046,-8.76808,-1.27604,3.21905,-6.67562,-1.01597,-0.761235,-11.6129,6.43272,2.55513,34.4902,7.69743,3.08238,13.5489,4.07786,1.90265,-8.84592e-15,-3.1408e-14,-3.12764,-19.5839,9.46999,113.241,-53.1916,-3.78278,-44.7785,7.12502,21.9625,-73.5517,-8.84592e-15,-3.1408e-14,29.0978,32.1794,-8.54722,31.4465,35.2106,-26.0638,-18.938,7.12502,0.484079,11.0412,-12.5182,8.69509,2.45484,23.1073,19.0318,-10.6095,-29.6788,-27.8221,-1.28192,-20.7186,27.9203,-15.3188,8.98257,11.4782
4.44253,17.5265,3.0463,17.5773,-7.4964,-6.76157,-4.51745,-0.986709,7.51958,-8.71838,-1.22468,3.27528,-6.72317,-0.991867,-0.732488,-11.9175,6.3419,2.5225,34.7708,7.55586,3.10751,13.7378,4.00938,1.92334,2.98177e-16,-1.98785e-15,-3.08344,-19.5012,9.2996,113.095,-53.1576,-3.54612,-45.0273,7.12502,22.1898,-73.7737,2.98177e-16,-1.98785e-15,29.0508,31.7408,-8.57253,31.5317,35.4655,-26.1758,-18.665,7.12502,0.375986,11.3144,-12.7918,9.03335,2.63504,23.3949,18.7366,-10.785,-29.4071,-27.949,-1.15942,-20.47,28.07,-15.3778,8.85655,11.825
4.44601,17.5248,3.03069,17.5185,-7.54812,-6.78446,-4.32936,-0.976768,7.36291,-8.71042,-1.19096,3.29232,-6.81263,-0.966144,-0.624501,-11.561,6.21885,2.22711,34.6088,7.42066,3.21575,13.5654,3.93088,1.97066,-3.3048e-15,4.77083e-15,-3.08689,-19.1042,9.2163,113.121,-53.1323,-3.76779,-45.2135,7.12502,21.9769,-73.9851,-3.3048e-15,4.77083e-15,28.4829,30.6478,-9.25847,31.8391,36.3662,-26.2429,-18.9811,7.12502,0.311138,10.9984,-13.0203,9.1671,2.6085,23.6958,18.6924,-10.3227,-30.6718,-28.0055,-1.06068,-20.4651,28.1713,-15.4117,8.76834,12.1362
4.45393,17.5206,3.0264,17.3291,-7.47327,-6.65366,-4.29145,-1.03555,7.19771,-8.65595,-1.26982,3.26806,-6.77322,-0.993291,-0.558383,-11.0742,6.11756,2.03058,34.5153,7.33304,3.20671,13.4077,3.86949,1.96036,-4.70126e-14,3.61788e-14,-2.86694,-18.7529,8.95319,112.996,-52.9529,-3.60466,-45.0048,7.12502,22.1336,-73.7579,-4.70126e-14,3.61788e-14,28.2774,30.1812,-9.32101,31.918,36.2939,-25.9493,-19.6162,7.12502,0.594683,10.3627,-13.0271,9.07331,2.48942,24.0861,18.8365,-9.70316,-31.6502,-27.9052,-1.03131,-20.6461,28.2878,-15.4918,8.68856,11.9027
4.46089,17.5179,3.0302,16.9269,-7.0806,-6.44637,-4.18172,-1.20962,7.06325,-8.50214,-1.50178,3.22552,-6.67805,-1.09557,-0.526375,-11.1136,6.01131,1.85598,34.7685,7.19896,3.26617,13.5161,3.79217,2.00573,1.73937e-15,-5.96354e-15,-2.63704,-18.5887,8.62435,112.8,-52.7997,-3.43707,-44.8825,7.12502,22.2944,-73.6164,1.73937e-15,-5.96354e-15,28.4053,30.2188,-8.96298,31.7973,35.7489,-25.1791,-19.4964,7.12502,1.33862,10.4792,-12.6208,8.91115,2.47143,24.4923,19.0676,-9.1871,-31.6403,-27.5576,-1.20128,-20.8441,28.4221,-15.6517,8.53129,11.5731
4.46994,17.5139,3.0079,17.3722,-7.43733,-6.67641,-4.35613,-1.03527,7.13209,-8.58137,-1.28115,3.24999,-6.65273,-0.99097,-0.545489,-11.4319,5.86033,1.69517,35.1009,6.96694,3.39184,13.7214,3.67999,2.07686,-5.05907e-14,4.65156e-14,-2.57075,-18.4191,8.38341,112.622,-52.5946,-3.94215,-45.0206,7.12502,21.8095,-73.8117,-5.05907e-14,4.65156e-14,28.4107,30.0582,-8.92056,31.7895,35.7262,-25.5251,-19.348,7.12502,1.00442,10.6294,-13.5956,9.09191,2.45054,24.9175,19.5237,-8.86916,-30.8711,-28.1874,-0.98937,-20.6974,28.6201,-15.6682,8.72378,11.5225
4.47683,17.5097,2.99023,17.5271,-7.44982,-6.8843,-4.36835,-0.985334,7.26259,-8.57906,-1.21487,3.27408,-6.64406,-0.965167,-0.593713,-11.8106,5.66708,1.54056,35.5154,6.66555,3.52624,13.9819,3.53832,2.14668,2.13694e-15,-2.26615e-14,-2.52537,-18.2732,8.16639,112.46,-52.4644,-4.41203,-45.1441,7.12502,21.3582,-73.987,2.13694e-15,-2.26615e-14,28.3196,29.7609,-8.96208,31.9179,35.9342,-26.2951,-19.2676,7.12502,0.260758,10.712,-14.125,9.33352,2.60368,25.3723,19.8181,-8.75567,-31.0315,-28.5481,-0.969129,-20.4774,28.8497,-15.7347,8.78095,11.4576
4.48064,17.5043,2.98224,17.4854,-7.36616,-7.03739,-4.40721,-1.00131,7.32901,-8.4426,-1.24716,3.3052,-6.47723,-0.977155,-0.602792,-12.2455,5.50197,1.20673,35.9427,6.39722,3.81963,14.2483,3.40877,2.31854,-3.90736e-14,1.19271e-14,-2.42214,-18.2965,7.92146,112.298,-52.5551,-4.66966,-45.2827,7.12502,21.1108,-74.1535,-3.90736e-14,1.19271e-14,27.9791,29.3032,-9.3023,32.1502,36.5183,-26.0529,-18.977,7.12502,0.494671,11.0022,-14.3825,9.50318,2.78638,25.842,20.1298,-8.03167,-32.458,-28.6878,-0.980016,-20.2953,29.1224,-15.8493,8.78486,11.584
4.4832,17.4965,2.97095,17.4328,-7.30526,-7.09286,-4.46592,-1.02287,7.27159,-8.26897,-1.29194,3.31383,-6.25481,-0.986356,-0.569057,-12.4814,5.39459,0.879401,36.1301,6.23466,4.06626,14.3635,3.32389,2.46775,-5.82688e-15,2.34566e-14,-2.30594,-18.3866,7.69389,112.07,-52.6455,-4.33488,-45.3113,7.12502,21.4323,-74.1458,-5.82688e-15,2.34566e-14,27.5348,28.7997,-9.8318,32.3015,36.9295,-25.5893,-19.0977,7.12502,0.942373,10.88,-14.5735,9.53871,2.84864,26.2039,20.2547,-7.59777,-33.0623,-28.7913,-1.03374,-20.212,29.3352,-15.8575,8.85329,11.9582
4.49172,17.4908,2.96221,17.4143,-7.29376,-7.11671,-4.55859,-1.01502,7.23742,-8.13054,-1.29964,3.30155,-6.0508,-0.980637,-0.570291,-12.5961,5.2915,0.825119,36.1691,6.10508,4.03229,14.41,3.25407,2.4503,1.52319e-14,4.01545e-14,-2.20506,-18.3368,7.46161,111.855,-52.5774,-3.49301,-45.1309,7.12502,22.2407,-73.8712,1.52319e-14,4.01545e-14,27.286,28.5261,-10.0619,32.3157,36.8236,-25.0433,-19.2652,7.12502,1.46976,10.7095,-14.7921,9.52217,2.82043,26.5156,20.3048,-7.52271,-32.74,-28.8775,-1.13887,-20.1885,29.4996,-15.878,9.03452,12.2114
4.50555,17.4908,2.95931,17.4029,-7.2867,-7.20187,-4.62656,-1.02797,7.34049,-8.04132,-1.32951,3.32177,-5.9214,-0.995839,-0.610295,-12.5857,5.23576,0.898151,36.1951,6.081,3.80696,14.4344,3.22094,2.34353,3.29983e-14,-2.98177e-14,-2.00744,-18.0704,7.14645,111.704,-52.2558,-3.18874,-44.8739,7.12502,22.5328,-73.5791,3.29983e-14,-2.98177e-14,27.175,28.5265,-9.93487,32.2831,36.4307,-25.1033,-19.1667,7.12502,1.41182,10.8084,-15.0382,9.55578,2.84182,26.8285,20.3876,-7.27435,-32.6111,-28.9141,-1.17848,-20.1453,29.6438,-15.9754,9.08813,12.2777
4.51755,17.4905,2.94653,17.38,-7.1557,-7.238,-4.50447,-1.10956,7.41679,-8.06349,-1.42299,3.37143,-6.02366,-1.0481,-0.594842,-12.1483,5.24706,0.895965,36.0873,6.20135,3.53238,14.2945,3.23746,2.22737,-4.29499e-14,1.78906e-14,-1.73796,-17.6802,6.86207,111.57,-51.8795,-3.00746,-44.5181,7.12502,22.7068,-73.2021,-4.29499e-14,1.78906e-14,27.1969,28.6337,-9.52475,32.1554,35.7237,-25.597,-19.0928,7.12502,0.934986,10.8849,-15.2547,9.55861,2.86423,27.1546,20.3838,-7.01477,-33.0145,-29.0028,-1.1974,-20.1385,29.7887,-16.038,8.93283,12.3249
4.52587,17.4847,2.92951,17.3302,-7.04779,-7.23443,-4.26833,-1.16664,7.40654,-8.12173,-1.47014,3.3851,-6.22413,-1.07646,-0.565082,-11.7283,5.21826,0.836194,36.0587,6.22994,3.38674,14.1894,3.22369,2.16407,9.30561e-15,6.75868e-15,-1.52618,-17.3501,6.63473,111.359,-51.5932,-2.47973,-44.2431,7.12502,23.2132,-72.8642,9.30561e-15,6.75868e-15,27.372,28.7325,-9.0324,32.0092,35.2855,-24.9541,-19.1634,7.12502,1.55594,10.8107,-15.4821,9.55062,2.84314,27.5249,20.4592,-6.7207,-33.4198,-29.1054,-1.20918,-20.1644,29.9452,-15.9967,8.89113,12.4309
4.53175,17.4765,2.92064,17.2831,-7.02187,-7.27022,-4.13788,-1.1575,7.39916,-8.10812,-1.44695,3.33671,-6.28324,-1.0671,-0.60878,-11.5883,5.09673,0.698914,36.1128,6.05743,3.46374,14.1761,3.14014,2.1891,1.54928e-14,-2.06736e-14,-1.53666,-17.1412,6.47079,111.189,-51.4221,-2.6678,-44.3198,7.12502,23.0328,-72.9635,1.54928e-14,-2.06736e-14,27.6086,28.723,-8.68755,31.8888,35.129,-24.0725,-19.3299,7.12502,2.40737,10.6363,-15.723,9.61336,2.84007,27.9427,20.532,-6.55873,-33.1122,-29.1732,-1.22833,-20.1447,30.1041,-15.9637,8.97225,12.5136
4.5356,17.4696,2.91392,17.2336,-6.96068,-7.28168,-4.15624,-1.15681,7.35615,-8.00775,-1.45672,3.26773,-6.1641,-1.06653,-0.661361,-11.6354,4.95898,0.55098,36.1212,5.83396,3.61781,14.1818,3.04332,2.24531,5.15598e-15,-8.15017e-15,-1.67566,-17.0328,6.33058,111.156,-51.5522,-3.46704,-44.7928,7.12502,22.2657,-73.5301,5.15598e-15,-8.15017e-15,27.9815,28.9737,-8.2045,31.6707,34.4904,-24.3958,-19.3668,7.12502,2.09513,10.6027,-15.8905,9.67752,2.84641,28.363,20.5584,-6.34839,-32.8523,-29.2416,-1.22665,-20.1407,30.2572,-16.0198,8.94321,12.5267
4.53922,17.4658,2.908,17.1078,-6.91976,-7.23059,-4.18538,-1.1873,7.20766,-7.83104,-1.51257,3.21981,-5.95407,-1.07823,-0.635987,-11.9369,4.88989,0.692867,36.2411,5.73826,3.48052,14.3206,2.99838,2.16869,-2.98301e-14,1.96797e-14,-1.75165,-17.0105,6.17839,111.129,-51.7478,-3.37285,-45.0942,7.12502,22.3561,-73.8207,-2.98301e-14,1.96797e-14,28.3991,29.5379,-7.54366,31.4566,33.6926,-24.5188,-19.0572,7.12502,1.97627,10.9134,-16.0062,9.68151,2.81657,28.8099,20.5929,-6.10508,-32.5648,-29.2048,-1.16024,-20.221,30.369,-16.0772,8.90221,12.5882
4.53915,17.4638,2.90089,16.9014,-6.80539,-7.24451,-4.01799,-1.26057,7.05606,-7.68889,-1.60067,3.23861,-5.89406,-1.10808,-0.531351,-11.9484,4.82738,0.981483,36.2209,5.73098,3.01885,14.3476,2.97019,1.93104,-4.00613e-14,2.44505e-14,-1.85509,-16.8329,6.09875,111.151,-51.6267,-3.42829,-45.1316,7.12502,22.3029,-73.8645,-4.00613e-14,2.44505e-14,28.22,29.3258,-7.61255,31.5313,33.7215,-23.5814,-19.127,7.12502,2.88167,10.8333,-16.0629,9.67759,2.92995,29.3054,20.3145,-6.88756,-30.6999,-29.0522,-1.17911,-20.1836,30.4417,-16.1001,8.93187,12.4116
