JuanDHNZ/ProyectoFinalCD/preprocessing/sports_trials_csv/49_17.csv
root1,root2,root3,root4,root5,root6,lowerback1,lowerback2,lowerback3,upperback1,upperback2,upperback3,thorax1,thorax2,thorax3,lowerneck1,lowerneck2,lowerneck3,upperneck1,upperneck2,upperneck3,head1,head2,head3,rclavicle1,rclavicle2,rhumerus1,rhumerus2,rhumerus3,rradius1,rwrist1,rhand1,rhand2,rfingers1,rthumb1,rthumb2,lclavicle1,lclavicle2,lhumerus1,lhumerus2,lhumerus3,lradius1,lwrist1,lhand1,lhand2,lfingers1,lthumb1,lthumb2,rfemur1,rfemur2,rfemur3,rtibia1,rfoot1,rfoot2,rtoes1,lfemur1,lfemur2,lfemur3,ltibia1,lfoot1,lfoot2,ltoes1
3.77051,17.4971,4.31549,22.317,-16.2773,0.608419,-13.7682,3.90839,2.75235,-14.597,4.85917,0.175396,-7.77585,2.15199,-0.9996,-2.23847,18.3232,13.7791,8.99972,23.1856,6.53528,4.23805,12.1352,1.21516,-4.01545e-14,-3.33958e-14,-2.23063,-25.1206,20.6283,121.755,-64.6457,-6.27583,-47.5817,7.12502,19.5672,-76.617,-4.01545e-14,-3.33958e-14,29.252,23.6901,-23.6405,31.7398,33.7205,-24.945,-19.5382,7.12502,1.5647,10.4358,-1.36932,3.40118,-7.65435,0,-31.0489,-18.5885,55.037,-22.2069,-1.24699,-28.8136,15.4432,-13.3696,11.2099,8.3499
3.77044,17.4945,4.31829,22.2823,-16.2737,0.566458,-13.7626,3.91901,2.81911,-14.5956,4.8674,0.160665,-7.77066,2.14914,-1.05153,-2.16317,18.3097,13.9312,9.02147,23.1768,6.44564,4.26597,12.1324,1.16754,5.76476e-14,6.44062e-14,-2.138,-24.8804,20.2517,121.712,-64.2068,-6.34385,-47.5289,7.12502,19.5018,-76.5708,5.76476e-14,6.44062e-14,29.2296,23.5697,-23.7603,31.7245,33.8021,-24.6733,-19.599,7.12502,1.82712,10.3729,-1.3001,3.43484,-7.60217,1.90833e-14,-31.1167,-18.3954,55.0369,-22.2435,-1.17157,-28.7995,15.638,-13.4892,11.1934,8.19053
3.77037,17.4897,4.32537,22.249,-16.3834,0.552929,-13.8178,3.95949,2.83889,-14.5821,4.91453,0.135045,-7.71978,2.17036,-1.08163,-2.18152,18.3347,14.0576,9.13214,23.1932,6.43647,4.33073,12.1494,1.16606,1.86858e-14,-9.54166e-15,-2.27666,-25.0046,20.5849,121.755,-64.5458,-6.73,-47.7263,7.12502,19.1305,-76.8054,1.86858e-14,-9.54166e-15,29.1989,23.4774,-23.8601,31.752,34.0718,-24.6602,-19.6034,7.12502,1.83972,10.3684,-1.2767,3.54621,-7.63694,1.59028e-14,-31.7071,-17.4155,55.2351,-22.26,-1.25,-28.795,15.8011,-13.589,11.4018,8.07614
3.77055,17.488,4.33318,22.2551,-16.4523,0.463396,-13.9051,4.00399,2.92926,-14.5326,4.96102,0.145698,-7.60824,2.18858,-1.10823,-2.35856,18.3716,14.0996,9.62088,23.1809,6.52647,4.08874,12.1776,1.14374,-2.14687e-14,-1.59028e-14,-2.15866,-24.9191,20.2482,121.703,-64.272,-6.964,-47.8516,7.12502,18.9054,-76.9529,-2.14687e-14,-1.59028e-14,29.097,23.3782,-23.9901,31.8649,34.6636,-24.0644,-19.5188,7.12502,2.4152,10.4473,-1.27605,3.64133,-7.57867,1.59028e-14,-32.0489,-16.901,55.3561,-22.2916,-1.26057,-28.7148,15.9546,-13.7083,11.5175,8.01223
3.77151,17.4894,4.33594,22.279,-16.37,0.367408,-13.9555,4.01012,3.05133,-14.5129,4.9574,0.160793,-7.55088,2.17796,-1.1552,-2.43733,18.3718,14.0129,9.62738,23.1625,6.6402,4.07932,12.1716,1.18788,4.87022e-14,5.48646e-14,-2.37859,-25.2446,20.7443,121.754,-64.8324,-6.9634,-47.8399,7.12502,18.906,-76.9411,4.87022e-14,5.48646e-14,29.0312,23.2794,-24.0559,31.9843,35.0942,-23.0028,-19.3594,7.12502,3.44036,10.5926,-1.24299,3.60894,-7.43487,0,-31.8646,-17.2848,55.2965,-22.34,-1.2101,-28.6185,16.0787,-13.7948,11.4421,8.11162
3.77267,17.4914,4.33592,22.2978,-16.2782,0.231391,-13.9173,4.0193,3.21086,-14.5449,4.96058,0.183271,-7.59918,2.16514,-1.22263,-2.2426,18.3406,13.8928,9.05924,23.1868,6.6552,4.25996,12.1465,1.24434,-1.98785e-14,-3.10104e-14,-2.40931,-25.3038,20.8408,121.732,-65.0222,-6.86162,-47.7273,7.12502,19.0039,-76.8189,-1.98785e-14,-3.10104e-14,29.0002,23.1208,-24.1096,32.0723,35.3663,-22.3723,-19.4522,7.12502,4.0493,10.4891,-1.20033,3.58995,-7.2427,-4.13472e-14,-31.6472,-17.6533,55.1895,-22.353,-1.23884,-28.4562,16.1427,-13.8386,11.4407,8.42363
3.77243,17.4908,4.33687,22.285,-16.3087,0.186731,-13.8783,4.05668,3.25479,-14.5656,5.0085,0.168334,-7.63776,2.18346,-1.26234,-2.05929,18.3161,13.884,8.86381,23.2013,6.62324,4.15588,12.1409,1.1989,1.76918e-14,1.19271e-14,-2.39416,-25.3182,20.765,121.692,-65.0643,-6.68889,-47.7703,7.12502,19.17,-76.8455,1.76918e-14,1.19271e-14,29.1023,23.0845,-24.0393,32.0534,35.4764,-22.1581,-19.7982,7.12502,4.25611,10.139,-1.18012,3.64277,-7.19992,0,-31.6817,-17.5241,55.1634,-22.3278,-1.28513,-28.4011,16.1474,-13.8432,11.52,9.44605
3.77074,17.489,4.33678,22.2504,-16.4045,0.297547,-13.9069,4.07044,3.10332,-14.525,5.0353,0.138336,-7.58232,2.21075,-1.20523,-2.12818,18.3439,13.8316,8.89147,23.224,6.67339,4.16533,12.1543,1.23037,2.54444e-14,1.11319e-14,-2.36491,-25.4646,20.6913,121.631,-64.9409,-6.49267,-47.7785,7.12502,19.3587,-76.8349,2.54444e-14,1.11319e-14,29.206,23.2131,-23.8888,31.9924,35.5471,-22.1715,-20.0838,7.12502,4.24318,9.85371,-1.1962,3.68674,-7.34116,6.36111e-15,-31.5329,-17.6518,55.09,-22.3066,-1.34779,-28.5074,16.1066,-13.8645,11.5787,10.5326
3.77056,17.4895,4.33262,22.1614,-16.3896,0.371012,-13.81,4.03529,3.01566,-14.4895,5.00047,0.136546,-7.60098,2.20121,-1.16697,-2.19197,18.3572,13.9196,9.0073,23.224,6.59735,4.24407,12.1602,1.21793,1.86858e-14,1.51076e-14,-2.28911,-25.5321,20.6001,121.573,-64.7383,-6.56048,-47.7019,7.12502,19.2935,-76.7649,1.86858e-14,1.51076e-14,28.9859,22.9401,-24.1817,32.1202,36.0251,-22.9824,-19.9322,7.12502,3.46005,10.0195,-1.11346,3.68263,-7.39184,-9.54166e-15,-31.2935,-18.0939,54.9539,-22.2063,-1.42836,-28.5513,16.0204,-13.832,11.6079,9.90416
3.77153,17.4903,4.32563,22.082,-16.3642,0.442734,-13.6629,4.00355,2.94125,-14.4946,4.9716,0.1201,-7.69109,2.19085,-1.15616,-2.14252,18.3083,14.1092,9.04819,23.1731,6.35324,4.31045,12.1332,1.12373,-1.05356e-14,-1.51076e-14,-2.26977,-25.5407,20.5927,121.569,-64.7953,-6.91846,-47.6082,7.12502,18.9492,-76.7052,-1.05356e-14,-1.51076e-14,28.6583,22.5215,-24.6254,32.3104,36.2757,-23.9458,-19.6294,7.12502,2.52973,10.3354,-1.02635,3.66637,-7.43833,-1.27222e-14,-31.5091,-17.8276,55.0528,-22.1086,-1.44255,-28.6219,15.9185,-13.6917,11.6161,8.7737
3.77188,17.49,4.32181,22.0516,-16.3797,0.544929,-13.6341,3.98706,2.82322,-14.4811,4.95944,0.0982513,-7.69804,2.19438,-1.1169,-2.09622,18.2607,14.1685,9.0249,23.1301,6.18014,4.32488,12.1059,1.05745,-2.28602e-14,-1.19271e-14,-2.14034,-25.5621,20.3356,121.472,-64.6518,-6.86144,-47.3593,7.12502,19.0041,-76.4509,-2.28602e-14,-1.19271e-14,28.6082,22.5484,-24.6136,32.2924,36.0288,-24.3481,-19.6871,7.12502,2.14114,10.2819,-0.995975,3.64694,-7.53785,0,-31.8197,-17.1615,55.2911,-22.0635,-1.40379,-28.7507,15.8443,-13.659,11.5526,8.48189
3.77195,17.4904,4.32235,22.0258,-16.3531,0.583148,-13.6481,3.97392,2.79324,-14.4587,4.943,0.0857959,-7.66602,2.18905,-1.11295,-2.03839,18.243,14.122,8.95874,23.1252,6.16243,4.28487,12.098,1.0441,1.23246e-14,2.94201e-14,-1.93665,-25.359,19.7369,121.363,-63.974,-6.4878,-47.1648,7.12502,19.3634,-76.2207,1.23246e-14,2.94201e-14,28.6847,22.642,-24.4848,32.226,36.0089,-24.5387,-19.7638,7.12502,1.9571,10.207,-0.947076,3.6204,-7.55573,1.59028e-14,-32.0569,-16.7619,55.4267,-22.0119,-1.39727,-28.7887,15.8031,-13.7083,11.4706,8.72477
3.77193,17.4917,4.32307,22.0415,-16.3422,0.545488,-13.6615,3.98246,2.83362,-14.4424,4.95005,0.0772106,-7.63591,2.18923,-1.14204,-1.756,18.1976,14.1729,8.57375,23.1486,5.95602,4.12528,12.0818,0.9172,7.95139e-16,-1.74931e-14,-2.14759,-25.6292,20.2426,121.408,-64.4475,-6.59295,-47.2499,7.12502,19.2623,-76.316,7.95139e-16,-1.74931e-14,28.6275,22.5344,-24.6019,32.2657,36.2578,-24.6377,-19.6088,7.12502,1.86146,10.3628,-0.957328,3.62205,-7.50876,3.49861e-14,-32.0933,-16.848,55.3805,-22.0039,-1.42365,-28.7358,15.7751,-13.6599,11.49,9.0305
3.77297,17.4928,4.32332,22.02,-16.2904,0.495114,-13.6194,3.97771,2.89753,-14.4072,4.94098,0.082277,-7.61411,2.1801,-1.17379,-1.66278,18.1461,14.2541,8.3461,23.1218,5.71937,4.06757,12.0502,0.81001,-4.8901e-14,-3.4191e-14,-2.22071,-25.8426,20.3509,121.406,-64.6608,-6.74353,-47.2331,7.12502,19.1175,-76.3135,-4.8901e-14,-3.4191e-14,28.535,22.4127,-24.7469,32.3282,36.5054,-24.8978,-19.4799,7.12502,1.61026,10.4937,-0.914836,3.6127,-7.43364,3.18055e-15,-31.7507,-17.5163,55.1993,-21.9499,-1.44887,-28.6718,15.7529,-13.6069,11.5081,8.85528
3.77353,17.4938,4.32244,21.9801,-16.23,0.506101,-13.6477,3.9512,2.89167,-14.3445,4.90474,0.0928972,-7.52907,2.16539,-1.15747,-1.82751,18.1538,14.2638,8.46381,23.1006,5.66167,4.15129,12.0447,0.819105,2.18663e-15,2.38542e-15,-2.20248,-26.0102,20.2644,121.385,-64.6825,-6.41928,-47.1194,7.12502,19.4293,-76.1687,2.18663e-15,2.38542e-15,28.6544,22.7416,-24.4447,32.2418,36.234,-24.9389,-19.4452,7.12502,1.57057,10.5288,-0.873722,3.57696,-7.40956,-9.54166e-15,-31.3391,-18.2952,55.0022,-21.8997,-1.46743,-28.6666,15.7274,-13.6344,11.4551,8.70984
3.77377,17.4953,4.32014,22.0052,-16.223,0.504109,-13.74,3.95911,2.87494,-14.2938,4.91125,0.0872877,-7.42114,2.17261,-1.14529,-1.86091,18.1775,14.3036,8.44015,23.1316,5.57742,4.16768,12.0568,0.795583,2.42517e-14,1.27222e-14,-2.25619,-26.0452,20.2507,121.401,-64.6848,-5.96528,-47.0388,7.12502,19.8657,-76.0435,2.42517e-14,1.27222e-14,28.9694,23.3764,-23.8528,32.0366,35.6135,-24.4873,-19.3298,7.12502,2.00675,10.6405,-0.91647,3.56141,-7.39591,-1.27222e-14,-31.2328,-18.5643,54.9404,-21.9305,-1.44416,-28.6651,15.7018,-13.6311,11.4094,8.74824
3.77405,17.4945,4.32135,21.9976,-16.2763,0.490844,-13.7466,3.98987,2.86915,-14.2876,4.95117,0.0682023,-7.40766,2.19253,-1.15847,-1.82387,18.2249,14.2834,8.38667,23.1978,5.67043,4.12689,12.089,0.821156,7.25564e-14,5.725e-14,-2.34117,-25.932,20.2823,121.451,-64.7131,-6.14318,-47.0855,7.12502,19.6947,-76.1078,7.25564e-14,5.725e-14,29.0179,23.3912,-23.8314,32.0324,35.7016,-24.2408,-19.0525,7.12502,2.24477,10.9154,-0.929947,3.6147,-7.40532,0,-31.3019,-18.5205,54.9342,-21.9077,-1.44865,-28.668,15.6882,-13.6054,11.5046,8.69757
3.77346,17.4921,4.32711,21.9285,-16.4124,0.484411,-13.7633,4.03937,2.86394,-14.2551,5.01415,0.0453543,-7.35716,2.22454,-1.17221,-1.73276,18.2911,14.2261,8.27711,23.3025,5.78784,4.04771,12.1368,0.849502,3.00165e-14,2.94201e-14,-2.38588,-25.8864,20.3106,121.483,-64.7892,-6.75499,-47.1528,7.12502,19.1065,-76.2344,3.00165e-14,2.94201e-14,28.8115,22.9837,-24.235,32.1822,36.2069,-24.6429,-18.7534,7.12502,1.85644,11.2182,-0.919343,3.76097,-7.4562,3.49861e-14,-31.5,-18.1958,55.0255,-21.8136,-1.49815,-28.6787,15.7031,-13.7623,11.7154,8.95933
3.77403,17.4909,4.33267,21.8977,-16.4996,0.455075,-13.8749,4.09878,2.90107,-14.1775,5.08178,0.0177632,-7.19996,2.25762,-1.20503,-1.73349,18.3318,14.1837,8.12232,23.3684,5.77214,3.98902,12.1594,0.841761,-5.34731e-14,-1.35174e-14,-2.4781,-25.919,20.3761,121.479,-64.7734,-6.75421,-47.1372,7.12502,19.1072,-76.2187,-5.34731e-14,-1.35174e-14,28.8074,22.9655,-24.2714,32.181,36.2026,-25.3228,-18.5133,7.12502,1.19977,11.4631,-0.913589,3.85986,-7.46667,3.18055e-15,-31.749,-17.7753,55.1697,-21.771,-1.44839,-28.6787,15.7444,-13.9314,11.76,9.24203
3.77583,17.4898,4.33574,21.9221,-16.4273,0.438927,-14.0037,4.0827,2.92909,-14.1199,5.05165,0.0295577,-7.06482,2.24389,-1.19885,-1.87543,18.3467,14.1407,8.11973,23.3676,5.7468,4.01222,12.1574,0.854517,-4.94974e-14,-3.73715e-14,-2.48137,-25.9619,20.3708,121.468,-64.7131,-6.35555,-47.162,7.12502,19.4905,-76.2051,-4.94974e-14,-3.73715e-14,28.8877,23.178,-24.0934,32.0531,35.8325,-25.3121,-18.3448,7.12502,1.21015,11.6315,-0.890697,3.79557,-7.43302,3.18055e-15,-31.5895,-18.0192,55.0967,-21.8029,-1.30208,-28.6963,15.7842,-13.9422,11.5674,8.96513
3.77709,17.4894,4.3349,21.9343,-16.3183,0.438303,-14.0236,4.02977,2.93907,-14.1179,4.98113,0.0592704,-7.05656,2.20927,-1.17742,-1.94204,18.3301,14.1341,8.20312,23.3322,5.71618,4.05795,12.1435,0.85804,1.72943e-14,1.98785e-14,-2.3955,-25.9543,20.3021,121.489,-64.7677,-6.37363,-47.2683,7.12502,19.4731,-76.3132,1.72943e-14,1.98785e-14,28.8034,23.1031,-24.1864,32.0019,35.6408,-24.5933,-18.384,7.12502,1.90441,11.5873,-0.842168,3.69974,-7.39878,-2.8625e-14,-31.2763,-18.4895,54.941,-21.8228,-1.19665,-28.7121,15.7949,-13.9098,11.3824,8.8219
3.77792,17.4909,4.33098,21.9152,-16.2976,0.47175,-13.9545,4.01325,2.91795,-14.1871,4.96447,0.035959,-7.17292,2.19844,-1.19961,-1.91247,18.3052,14.1763,8.38786,23.2844,5.82157,4.11009,12.1345,0.892059,-1.01977e-13,-5.56597e-14,-2.42439,-25.7501,20.3469,121.568,-64.8445,-6.46396,-47.1746,7.12502,19.3863,-76.2282,-1.01977e-13,-5.56597e-14,28.7771,22.9013,-24.3264,32.0091,35.5898,-24.0993,-18.4975,7.12502,2.38147,11.469,-0.817674,3.67581,-7.42676,-1.27222e-14,-31.3334,-18.4146,54.9473,-21.8041,-1.28068,-28.7216,15.7623,-13.8852,11.4115,9.22779
3.77856,17.4921,4.32563,21.9136,-16.2727,0.559228,-13.9329,3.98073,2.83755,-14.2531,4.92825,-0.00540875,-7.2636,2.18248,-1.20653,-1.98643,18.3009,14.2417,8.66341,23.2367,5.95371,4.2153,12.1323,0.951123,-1.21259e-14,-1.43125e-14,-2.42639,-25.5442,20.2708,121.61,-64.7277,-6.33492,-46.9722,7.12502,19.5104,-76.0133,-1.21259e-14,-1.43125e-14,28.8624,22.9434,-24.2644,31.9771,35.4025,-24.087,-18.4759,7.12502,2.39331,11.4904,-0.828041,3.61584,-7.50534,9.54166e-15,-31.5937,-17.8912,55.1109,-21.8181,-1.44143,-28.7645,15.7063,-13.8733,11.4706,9.34584
3.77782,17.4926,4.32019,21.9441,-16.2508,0.632683,-13.9558,3.93779,2.73519,-14.2525,4.87825,-0.0170711,-7.25869,2.16578,-1.16514,-2.24902,18.3125,14.2079,8.92016,23.1893,6.01651,4.34582,12.1249,1.02032,-1.05753e-13,-8.90555e-14,-2.34711,-25.5717,20.0985,121.574,-64.5896,-6.37691,-47.0015,7.12502,19.47,-76.0467,-1.05753e-13,-8.90555e-14,28.8698,23.103,-24.2052,31.9433,35.2282,-24.1102,-18.4332,7.12502,2.37089,11.5334,-0.868958,3.55034,-7.56822,-4.13472e-14,-31.8107,-17.4757,55.2625,-21.8677,-1.50036,-28.811,15.6307,-13.7128,11.4478,9.06664
3.77642,17.4933,4.31747,21.9375,-16.2964,0.627266,-13.9443,3.92763,2.67281,-14.1929,4.87033,0.000807338,-7.20273,2.16992,-1.11082,-2.39839,18.3443,14.2288,9.27099,23.1971,5.96507,4.06424,12.1477,0.966793,3.37934e-15,-1.59028e-14,-2.28765,-25.77,19.9992,121.516,-64.5808,-6.7048,-47.1503,7.12502,19.1547,-76.2271,3.37934e-15,-1.59028e-14,28.7811,23.2385,-24.2626,31.935,35.1413,-23.7382,-18.4432,7.12502,2.73023,11.5191,-0.898182,3.59408,-7.57171,0,-31.9574,-17.3142,55.3578,-21.8295,-1.48609,-28.8004,15.5338,-13.5557,11.4771,8.84633
3.77671,17.4936,4.31519,21.8863,-16.3347,0.638027,-13.9136,3.9284,2.61771,-14.1056,4.87653,0.00239097,-7.12294,2.18042,-1.07668,-2.51571,18.3716,14.0278,8.68875,23.2498,5.94854,4.29594,12.1359,1.03409,1.96797e-14,1.66979e-14,-2.30421,-25.9842,19.9592,121.48,-64.5717,-6.8816,-47.1718,7.12502,18.9847,-76.2653,1.96797e-14,1.66979e-14,28.7935,23.5743,-24.1365,31.8706,34.6857,-23.3542,-18.5764,7.12502,3.10104,11.3808,-0.878767,3.64437,-7.59392,1.90833e-14,-31.856,-17.4348,55.3239,-21.7335,-1.50369,-28.812,15.4453,-13.5955,11.5538,8.71427
3.77872,17.4935,4.31101,21.8601,-16.3331,0.713749,-13.9171,3.91423,2.54255,-14.0429,4.86226,-0.0288061,-7.05212,2.18008,-1.06657,-2.37091,18.3417,14.1207,8.32022,23.2711,5.65377,4.18727,12.1184,0.894861,3.06128e-14,3.33958e-14,-2.40781,-26.0806,20.0756,121.503,-64.5551,-6.91918,-47.1723,7.12502,18.9485,-76.2693,3.06128e-14,3.33958e-14,28.9108,23.9845,-23.8872,31.7582,34.1853,-23.258,-18.7132,7.12502,3.1939,11.2426,-0.870839,3.61976,-7.67589,3.18055e-15,-31.5765,-17.7932,55.146,-21.7073,-1.58362,-28.8789,15.3883,-13.6025,11.6115,9.45943
3.78027,17.4931,4.30893,21.8333,-16.3135,0.744853,-13.9179,3.90452,2.52872,-14.0214,4.84982,-0.0443554,-7.02701,2.17485,-1.07542,-2.52969,18.3325,14.132,8.42742,23.2259,5.63615,4.25993,12.1019,0.911909,1.19271e-14,5.56597e-15,-2.48224,-26.0336,20.2318,121.552,-64.5751,-7.00612,-47.2749,7.12502,18.8649,-76.3801,1.19271e-14,5.56597e-15,29.1242,24.3465,-23.5435,31.6189,33.7779,-23.0592,-18.7812,7.12502,3.38588,11.1717,-0.845606,3.60178,-7.69848,-1.27222e-14,-31.6968,-17.6574,55.1735,-21.6688,-1.61113,-28.9116,15.3495,-13.4307,11.6313,10.8283
3.78111,17.4931,4.30865,21.8095,-16.2818,0.699101,-13.8886,3.91932,2.59493,-14.038,4.86563,-0.0446132,-7.05643,2.17651,-1.11348,-2.58216,18.316,14.2642,8.95344,23.1699,5.60743,4.03639,12.1049,0.8646,4.77083e-15,5.56597e-15,-2.50818,-25.973,20.3149,121.573,-64.5995,-6.97755,-47.318,7.12502,18.8924,-76.4205,4.77083e-15,5.56597e-15,29.3569,24.5464,-23.2162,31.527,33.3804,-23.1569,-18.8585,7.12502,3.29159,11.0958,-0.818325,3.60836,-7.63023,9.54166e-15,-31.9882,-17.4425,55.2218,-21.6337,-1.62104,-28.8593,15.334,-13.1977,11.7261,9.63541
3.78163,17.4939,4.30742,21.8402,-16.2497,0.670206,-13.9017,3.92776,2.61357,-14.0529,4.87505,-0.0485502,-7.06444,2.1793,-1.12689,-2.69506,18.3107,14.1807,9.07291,23.1303,5.75502,4.06398,12.0959,0.926792,-1.37161e-14,-1.19271e-14,-2.55495,-25.9379,20.3574,121.599,-64.6142,-7.03982,-47.2184,7.12502,18.8325,-76.3267,-1.37161e-14,-1.19271e-14,29.3988,24.4659,-23.2246,31.5324,33.3692,-23.621,-18.8478,7.12502,2.84335,11.113,-0.843381,3.58102,-7.58682,-1.27222e-14,-31.9468,-17.6264,55.1395,-21.689,-1.58037,-28.8287,15.3458,-13.1392,11.7194,7.06824
3.78227,17.494,4.30737,21.8473,-16.2561,0.64929,-13.9201,3.93064,2.61596,-14.0376,4.87792,-0.0409507,-7.03744,2.1816,-1.11803,-2.9689,18.3329,13.9652,9.24701,23.0923,6.05652,4.10101,12.094,1.06089,5.75482e-14,3.33958e-14,-2.53954,-25.9176,20.287,121.628,-64.605,-7.39137,-47.1222,7.12502,18.4944,-76.263,5.75482e-14,3.33958e-14,29.3002,24.2807,-23.4234,31.5972,33.665,-23.9199,-18.8102,7.12502,2.55473,11.1543,-0.852063,3.592,-7.57485,2.22639e-14,-31.8429,-17.7325,55.1852,-21.6851,-1.50359,-28.8337,15.3566,-13.3756,11.5757,7.4481
3.78239,17.4942,4.3071,21.8075,-16.3019,0.617522,-13.8765,3.94634,2.63818,-14.0666,4.89913,-0.0310032,-7.09275,2.18947,-1.1222,-2.95483,18.3117,13.9155,9.33451,23.0553,6.17931,4.10589,12.0844,1.09905,2.8625e-14,1.11319e-14,-2.43744,-25.8426,20.176,121.628,-64.5963,-7.79569,-47.1079,7.12502,18.1054,-76.2853,2.8625e-14,1.11319e-14,29.2206,24.0134,-23.6195,31.6856,33.9709,-24.1382,-18.8176,7.12502,2.34389,11.1492,-0.849767,3.66267,-7.55674,2.54444e-14,-31.8609,-17.8206,55.1986,-21.6274,-1.53209,-28.7999,15.3581,-13.6851,11.5707,9.90424
3.78136,17.4956,4.30471,21.8084,-16.3237,0.630806,-13.8697,3.94089,2.58172,-14.1029,4.89767,-0.0160554,-7.14373,2.19315,-1.07758,-2.81043,18.2718,13.9255,9.31627,23.0298,6.16065,4.08056,12.0699,1.07542,-2.60408e-14,-3.02153e-14,-2.31796,-25.7628,20.0698,121.608,-64.5743,-7.75899,-47.1518,7.12502,18.1407,-76.3259,-2.60408e-14,-3.02153e-14,29.0324,23.622,-23.9444,31.8246,34.4612,-24.2639,-18.7459,7.12502,2.22252,11.2223,-0.875118,3.67539,-7.5645,-3.18055e-15,-31.9985,-17.7036,55.2129,-21.6452,-1.54083,-28.8013,15.3571,-13.7874,11.5827,11.0477
3.78002,17.4968,4.30269,21.8294,-16.3341,0.633037,-13.9305,3.92398,2.52488,-14.0585,4.87769,0.0112202,-7.06753,2.19125,-1.01313,-3.00861,18.2748,13.8311,9.4725,22.9907,6.2415,4.13993,12.0605,1.13245,3.1408e-14,3.4191e-14,-2.21241,-25.8295,19.9222,121.583,-64.5372,-7.65565,-47.3044,7.12502,18.2402,-76.4692,3.1408e-14,3.4191e-14,28.787,23.3731,-24.2394,31.9667,34.8644,-24.4124,-18.5866,7.12502,2.07904,11.383,-0.903282,3.67413,-7.56159,3.18055e-15,-32.2055,-17.3508,55.359,-21.6601,-1.54026,-28.8001,15.3493,-13.646,11.6147,9.75614
3.77941,17.4973,4.30219,21.8245,-16.3426,0.600847,-13.9706,3.91782,2.53025,-14.03,4.86753,0.0330913,-7.01526,2.1879,-0.989869,-3.17049,18.2948,13.7546,9.65678,22.9736,6.37533,4.19909,12.0659,1.20196,-6.55989e-15,-3.18055e-15,-2.17122,-25.8558,19.8546,121.61,-64.5056,-7.87023,-47.4875,7.12502,18.0337,-76.6714,-6.55989e-15,-3.18055e-15,28.8641,23.4976,-24.076,31.9132,34.6378,-24.6699,-18.5145,7.12502,1.83039,11.4574,-0.906608,3.69819,-7.53022,1.90833e-14,-32.2091,-17.4285,55.3678,-21.636,-1.52845,-28.7694,15.3401,-13.556,11.6504,8.5334
3.78085,17.4959,4.30294,21.7755,-16.3633,0.578683,-13.9303,3.92222,2.56728,-14.0345,4.8718,0.0337554,-7.03928,2.18628,-1.01204,-3.10656,18.2894,13.7306,9.63089,22.9773,6.41597,4.17364,12.0673,1.20675,-6.83819e-14,-3.33958e-14,-2.21389,-25.7768,19.8837,121.68,-64.4215,-7.97157,-47.4727,7.12502,17.9362,-76.6656,-6.83819e-14,-3.33958e-14,29.043,23.6852,-23.858,31.7892,34.4354,-24.6017,-18.6001,7.12502,1.89626,11.3712,-0.86176,3.74721,-7.52249,-3.18055e-15,-32.3931,-17.2804,55.4282,-21.5805,-1.4854,-28.7667,15.3458,-13.7126,11.6386,8.78188
3.78193,17.4933,4.30461,21.7083,-16.4733,0.547355,-13.8725,3.97153,2.61119,-14.0193,4.93433,0.00706278,-7.04515,2.21246,-1.06244,-2.9704,18.2531,13.8049,9.53209,22.9574,6.35439,4.13616,12.0512,1.16199,2.34566e-14,3.57812e-14,-2.28358,-25.7548,19.9238,121.701,-64.3323,-7.70329,-47.3622,7.12502,18.1943,-76.5312,2.34566e-14,3.57812e-14,29.1389,23.7789,-23.7992,31.749,34.3714,-24.5211,-18.6416,7.12502,1.97408,11.329,-0.844103,3.88244,-7.53846,1.90833e-14,-32.6969,-16.7865,55.5874,-21.5112,-1.55388,-28.737,15.3499,-13.7754,11.7995,9.1168
3.78158,17.4934,4.30609,21.6815,-16.562,0.511691,-13.8938,4.0182,2.63272,-13.9859,4.99206,-0.00785886,-6.99073,2.24013,-1.08232,-2.96884,18.2681,13.81,9.5486,22.9731,6.39284,4.13765,12.0615,1.17387,1.30204e-14,1.27222e-14,-2.32013,-25.8047,19.9293,121.699,-64.2813,-7.53825,-47.3727,7.12502,18.3531,-76.5269,1.30204e-14,1.27222e-14,29.2352,23.9788,-23.6146,31.7459,34.1355,-24.5054,-18.598,7.12502,1.98927,11.3725,-0.868217,3.98478,-7.52871,-3.18055e-15,-32.5999,-16.8679,55.5816,-21.4822,-1.62286,-28.6888,15.3386,-13.7434,11.9353,9.30543
3.78341,17.4945,4.30546,21.6656,-16.5715,0.570932,-13.9492,4.00771,2.57593,-13.9389,4.97979,-0.00891874,-6.91165,2.2406,-1.04736,-2.94768,18.2858,13.7303,9.42399,23.0141,6.37776,4.08844,12.0722,1.16925,-6.06293e-15,2.46493e-14,-2.35355,-25.8428,19.9757,121.738,-64.314,-7.58074,-47.3588,7.12502,18.3122,-76.5168,-6.06293e-15,2.46493e-14,29.2037,24.1206,-23.5215,31.7723,34.1552,-24.4339,-18.6526,7.12502,2.05826,11.3173,-0.877637,3.97263,-7.59416,1.27222e-14,-32.4195,-17.3194,55.4125,-21.4573,-1.60998,-28.769,15.314,-13.7782,11.9198,9.41444
3.78651,17.4945,4.30287,21.657,-16.5711,0.635794,-13.9673,3.99426,2.51553,-13.926,4.9661,-0.0113872,-6.89195,2.2392,-1.01614,-2.78277,18.2265,13.6031,8.81102,23.0076,6.26865,4.27893,12.0259,1.18707,7.05686e-15,-1.43125e-14,-2.38561,-25.8351,20.0701,121.737,-64.3081,-7.06869,-47.2292,7.12502,18.8048,-76.3402,7.05686e-15,-1.43125e-14,29.0886,24.033,-23.639,31.8448,34.4914,-24.1702,-18.8548,7.12502,2.31302,11.1124,-0.887849,3.94515,-7.67424,-3.81667e-14,-32.5347,-17.3153,55.3784,-21.4362,-1.67229,-28.8457,15.289,-13.717,11.9946,9.24357
3.7881,17.495,4.29827,21.6665,-16.5678,0.625712,-13.9163,3.99555,2.51134,-13.9555,4.97094,-0.010522,-6.95338,2.2408,-1.01736,-2.57653,18.1605,13.6558,8.62954,22.9746,6.10788,4.20117,11.995,1.09401,-2.61402e-14,-5.56597e-15,-2.367,-25.8245,20.0998,121.683,-64.1595,-6.62801,-47.2242,7.12502,19.2286,-76.2937,-2.61402e-14,-5.56597e-15,29.1605,24.0763,-23.5476,31.8444,34.5382,-23.8936,-19.0917,7.12502,2.58012,10.8725,-0.910188,3.94264,-7.6622,-1.59028e-14,-33.0744,-16.3803,55.7187,-21.4625,-1.68754,-28.833,15.2818,-13.6035,12.0267,9.72076
3.78849,17.4976,4.29163,21.7026,-16.5433,0.603216,-13.8435,3.98824,2.50657,-14.0068,4.96545,-0.0180411,-7.05091,2.23602,-1.03043,-2.55021,18.1416,13.7046,8.65998,22.9491,6.1068,4.21373,11.9853,1.0864,7.40473e-14,5.08889e-14,-2.30383,-25.7918,20.0454,121.596,-63.9911,-6.93797,-47.3088,7.12502,18.9305,-76.4076,7.40473e-14,5.08889e-14,29.3498,24.2026,-23.3642,31.7498,34.2951,-23.9264,-19.3231,7.12502,2.54841,10.6414,-0.950637,3.91692,-7.61978,-9.54166e-15,-33.5803,-15.4968,55.9571,-21.5479,-1.53693,-28.8226,15.2874,-13.4904,11.8313,10.3085
3.78856,17.4993,4.29103,21.7455,-16.4946,0.545385,-13.8549,3.99933,2.55154,-14.0338,4.9758,-0.0388784,-7.07006,2.23584,-1.0767,-2.53599,18.1439,13.7192,8.67257,22.9428,6.22841,4.20026,11.9876,1.11869,-3.11098e-14,-3.49861e-14,-2.33285,-25.7175,20.0424,121.542,-63.9636,-7.17464,-47.2469,7.12502,18.7029,-76.3678,-3.11098e-14,-3.49861e-14,29.498,24.2834,-23.2862,31.704,34.164,-23.7697,-19.4484,7.12502,2.69974,10.5143,-0.95301,3.8836,-7.54317,-2.8625e-14,-33.557,-15.629,55.8556,-21.5857,-1.4961,-28.754,15.2777,-13.4563,11.7294,9.55813
3.7889,17.4989,4.29287,21.7704,-16.4904,0.509978,-13.8989,4.03648,2.57802,-14.04,5.02001,-0.0718166,-7.0469,2.25463,-1.11964,-2.51089,18.1259,13.7388,8.63186,22.9193,6.28416,4.17439,11.9765,1.12441,-5.46658e-15,-3.18055e-15,-2.48382,-25.6818,20.1459,121.597,-64.0927,-6.83573,-47.2064,7.12502,19.0288,-76.2955,-5.46658e-15,-3.18055e-15,29.6306,24.3366,-23.1823,31.7353,34.3316,-23.9958,-19.3688,7.12502,2.48144,10.5965,-0.960298,3.88437,-7.51274,-9.54166e-15,-33.4074,-15.8931,55.7984,-21.5781,-1.61303,-28.694,15.2489,-13.5497,11.8439,9.09351
3.78907,17.5008,4.2853,21.7805,-16.5198,0.528934,-13.8487,4.05378,2.52174,-14.05,5.04959,-0.0906442,-7.08689,2.27284,-1.11021,-2.48195,18.0861,13.8086,8.60817,22.8744,6.19964,4.18038,11.9518,1.08434,2.15681e-14,1.19271e-14,-2.5935,-25.7533,20.2243,121.662,-64.2809,-6.51394,-47.3768,7.12502,19.3382,-76.4353,2.15681e-14,1.19271e-14,29.6465,24.2484,-23.2058,31.7942,34.6981,-24.5094,-19.3654,7.12502,1.98539,10.6051,-1.02796,3.89544,-7.53844,1.27222e-14,-33.333,-16.13,55.7725,-21.6298,-1.71138,-28.6823,15.2487,-13.5978,11.9529,9.43406
3.78964,17.5032,4.27797,21.7662,-16.5019,0.529512,-13.7494,4.04703,2.50264,-14.0746,5.04776,-0.0779922,-7.17122,2.27273,-1.09463,-2.37484,18.0543,13.7896,8.57165,22.858,6.15712,4.14935,11.9394,1.05745,5.15846e-14,1.82882e-14,-2.59286,-25.7673,20.2485,121.68,-64.4374,-6.43396,-47.5633,7.12502,19.4151,-76.614,5.15846e-14,1.82882e-14,29.5355,23.9604,-23.414,31.889,35.1036,-24.2955,-19.4514,7.12502,2.19198,10.517,-1.05247,3.8875,-7.52216,1.90833e-14,-32.9182,-17.074,55.5301,-21.6608,-1.64704,-28.6855,15.2617,-13.4651,11.9182,9.01594
3.79236,17.5031,4.27712,21.7614,-16.3851,0.451358,-13.6548,4.03617,2.61958,-14.1279,5.03045,-0.0540506,-7.27737,2.25285,-1.14393,-2.26215,18.0328,13.7419,8.57207,22.8487,6.21044,4.11374,11.9354,1.06397,4.27387e-15,-7.55382e-15,-2.52423,-25.6843,20.2183,121.657,-64.5242,-6.26405,-47.6399,7.12502,19.5785,-76.6741,4.27387e-15,-7.55382e-15,29.4641,23.6625,-23.5894,31.9877,35.4238,-23.8019,-19.5178,7.12502,2.66868,10.4452,-0.9773,3.82908,-7.39833,-3.18055e-15,-32.6294,-17.5187,55.3832,-21.6345,-1.5014,-28.6336,15.2529,-13.2903,11.7529,8.20341
3.79558,17.5031,4.27404,21.7128,-16.2656,0.401317,-13.4992,4.01887,2.70324,-14.1401,5.00963,-0.0455574,-7.37047,2.23396,-1.19389,-2.47925,18.0529,13.6601,8.78178,22.8159,6.4081,4.19277,11.9364,1.16831,-4.86029e-14,-4.09496e-14,-2.47939,-25.7299,20.1969,121.629,-64.6522,-5.94693,-47.7381,7.12502,19.8834,-76.7409,-4.86029e-14,-4.09496e-14,29.6504,23.8528,-23.3351,31.8901,35.1213,-23.3984,-19.6989,7.12502,3.05834,10.259,-0.858248,3.77579,-7.29654,2.54444e-14,-32.9446,-16.832,55.5251,-21.5897,-1.48679,-28.571,15.2718,-13.3038,11.6269,9.07161
3.79682,17.5044,4.26809,21.6091,-16.2392,0.432309,-13.3085,4.00193,2.65139,-14.1155,5.00047,-0.0449271,-7.4496,2.23308,-1.17768,-2.79896,18.1041,13.5238,9.04264,22.8046,6.64377,4.29871,11.9514,1.30741,2.87244e-14,1.82882e-14,-2.50853,-25.812,20.2812,121.678,-64.7976,-5.67692,-47.8402,7.12502,20.1429,-76.8159,2.87244e-14,1.82882e-14,29.8524,24.1257,-23.0378,31.7418,34.7717,-23.1759,-19.7995,7.12502,3.27319,10.1551,-0.775834,3.78912,-7.29226,9.54166e-15,-33.3884,-16.0623,55.7151,-21.5354,-1.51702,-28.5842,15.3205,-13.4389,11.5986,10.4656
3.79839,17.5053,4.26611,21.5849,-16.2395,0.423244,-13.2838,4.00412,2.6556,-14.0816,5.00422,-0.0381629,-7.42422,2.23587,-1.17277,-2.81676,18.1167,13.471,9.02112,22.8218,6.663,4.28445,11.9581,1.31965,8.94531e-15,3.18055e-15,-2.50222,-25.8855,20.2757,121.696,-64.8212,-5.54864,-47.9268,7.12502,20.2662,-76.8895,8.94531e-15,3.18055e-15,29.7515,24.0118,-23.2022,31.7875,35.0814,-23.2562,-19.6491,7.12502,3.19566,10.3067,-0.770892,3.8056,-7.26882,9.54166e-15,-33.5897,-15.7374,55.8114,-21.5229,-1.55434,-28.5694,15.3399,-13.5091,11.6383,9.2832
3.80134,17.5052,4.26681,21.5534,-16.261,0.441195,-13.3184,4.01675,2.68496,-14.0556,5.01589,-0.0546036,-7.37133,2.23937,-1.20177,-2.50657,18.0777,13.5656,8.79337,22.8441,6.48299,4.17943,11.9512,1.2054,-4.47266e-14,-3.57812e-15,-2.44173,-25.9877,20.1781,121.628,-64.859,-5.3764,-48.0504,7.12502,20.4317,-76.9955,-4.47266e-14,-3.57812e-15,29.6518,23.834,-23.3944,31.8562,35.3946,-23.1388,-19.6186,7.12502,3.30907,10.3355,-0.75559,3.82915,-7.29948,-2.8625e-14,-33.5056,-15.9608,55.7963,-21.4942,-1.5279,-28.6112,15.3422,-13.524,11.6176,10.6299
3.80403,17.5038,4.26512,21.4238,-16.2984,0.503859,-13.1981,4.01882,2.67154,-14.0655,5.02375,-0.0857983,-7.44552,2.24117,-1.23561,-2.27174,18.0565,13.6849,8.75849,22.8566,6.40981,4.14915,11.9548,1.14418,3.68746e-14,-1.07344e-14,-2.39179,-25.9493,20.1382,121.581,-64.9073,-5.29698,-48.1792,7.12502,20.508,-77.116,3.68746e-14,-1.07344e-14,29.7428,23.8119,-23.331,31.8146,35.2667,-22.8595,-19.9243,7.12502,3.57881,10.0254,-0.657807,3.89115,-7.37201,3.18055e-14,-33.6164,-15.731,55.8925,-21.3825,-1.46418,-28.7045,15.3515,-13.5656,11.5605,9.16394
3.80683,17.5027,4.26638,21.3665,-16.3269,0.485161,-13.1407,4.03654,2.73184,-14.0653,5.0444,-0.104091,-7.46929,2.24464,-1.2905,-2.26316,18.0584,13.7489,8.80425,22.853,6.41909,4.17205,11.9574,1.14324,1.33186e-14,3.18055e-15,-2.39172,-25.8521,20.1265,121.573,-64.7861,-5.31709,-48.2088,7.12502,20.4887,-77.1477,1.33186e-14,3.18055e-15,29.8453,23.8819,-23.2223,31.7724,35.0565,-22.8741,-20.1618,7.12502,3.56464,9.78818,-0.60596,3.94949,-7.36151,-1.59028e-14,-33.7414,-15.3063,55.9732,-21.295,-1.59406,-28.6703,15.3389,-13.5458,11.7013,11.5919
3.81038,17.5034,4.27131,21.4011,-16.4011,0.437905,-13.2159,4.07323,2.82414,-14.063,5.08106,-0.122017,-7.41583,2.25467,-1.35191,-2.04636,18.0428,13.8799,8.61714,22.8828,6.27658,4.1006,11.9592,1.05162,2.3059e-14,2.66371e-14,-2.42058,-25.8011,20.0772,121.606,-64.6134,-5.19745,-48.0999,7.12502,20.6037,-77.0264,2.3059e-14,2.66371e-14,29.8386,23.8138,-23.2918,31.8081,35.1643,-22.8269,-20.1882,7.12502,3.61022,9.76101,-0.676749,4.01537,-7.35293,-2.8625e-14,-33.1067,-16.5122,55.6103,-21.2826,-1.65786,-28.6392,15.3119,-13.4682,11.8349,11.6834
3.81459,17.5038,4.27306,21.4122,-16.4909,0.440553,-13.2414,4.10162,2.86595,-14.0864,5.1129,-0.143662,-7.42243,2.26505,-1.39456,-1.73835,18.0416,14.004,8.43474,22.9466,6.16488,4.00996,11.9784,0.962757,0,-2.70347e-14,-2.39796,-25.7256,19.9371,121.645,-64.4996,-5.06074,-47.9756,7.12502,20.7351,-76.8879,0,-2.70347e-14,29.8953,23.8292,-23.2316,31.7995,35.0982,-22.4248,-20.3321,7.12502,3.99859,9.61013,-0.765463,4.08222,-7.40073,9.54166e-15,-32.5266,-17.8223,55.1965,-21.2712,-1.5377,-28.7069,15.2733,-13.4287,11.8014,10.0079
3.81865,17.5042,4.27188,21.4143,-16.5158,0.436906,-13.2358,4.11508,2.91875,-14.1021,5.12643,-0.155927,-7.43772,2.26585,-1.43656,-1.69935,18.0659,14.0049,8.47684,22.979,6.2245,4.01097,11.9984,0.981431,-3.26007e-14,-1.98785e-14,-2.38594,-25.6846,19.8588,121.688,-64.5044,-5.06532,-47.8669,7.12502,20.7307,-76.7797,-3.26007e-14,-1.98785e-14,29.9895,23.9776,-23.0455,31.7478,34.7314,-22.3281,-20.5189,7.12502,4.09199,9.42159,-0.829724,4.10273,-7.41076,1.59028e-14,-32.5741,-18.0383,55.2275,-21.2378,-1.53088,-28.7233,15.1947,-13.4022,11.8209,9.14995
3.82054,17.5057,4.27072,21.4323,-16.5051,0.442022,-13.2599,4.10139,2.9182,-14.1097,5.1072,-0.15282,-7.43445,2.25626,-1.43302,-1.81851,18.0964,13.9576,8.65287,22.9823,6.3466,4.07494,12.0131,1.04944,-4.96962e-15,3.97569e-15,-2.31129,-25.6958,19.7475,121.665,-64.4682,-5.06767,-47.8565,7.12502,20.7284,-76.7695,-4.96962e-15,3.97569e-15,29.9414,23.9388,-23.104,31.7589,34.7113,-22.2939,-20.6043,7.12502,4.12495,9.33546,-0.903099,4.08352,-7.4049,4.13472e-14,-32.2873,-18.74,55.1731,-21.2256,-1.57661,-28.7174,15.1107,-13.3675,11.8456,9.09557
3.8224,17.5063,4.2692,21.4345,-16.4792,0.508264,-13.2866,4.06913,2.84284,-14.0978,5.06835,-0.161451,-7.41268,2.24348,-1.40127,-1.89162,18.1225,13.9453,8.73062,22.997,6.39037,4.11017,12.0261,1.07925,4.08502e-14,-5.56597e-15,-2.15058,-25.7496,19.5205,121.545,-64.316,-5.13708,-47.8971,7.12502,20.6617,-76.8173,4.08502e-14,-5.56597e-15,29.8464,23.7918,-23.2638,31.792,34.8706,-22.7028,-20.7189,7.12502,3.73012,9.22821,-0.936019,4.03113,-7.45878,3.18055e-15,-32.0056,-19.4518,55.0104,-21.2182,-1.57475,-28.7903,15.0389,-13.2813,11.7923,8.6929
3.82733,17.5068,4.26633,21.4496,-16.4255,0.528993,-13.2375,4.0529,2.85563,-14.12,5.04848,-0.17147,-7.46362,2.23063,-1.42484,-1.90324,18.1004,14.0248,8.79371,22.9621,6.32452,4.15525,12.0121,1.05658,1.74931e-14,5.1684e-15,-2.07528,-25.7805,19.4427,121.475,-64.2675,-5.27961,-47.9335,7.12502,20.5247,-76.8686,1.74931e-14,5.1684e-15,29.8331,23.6481,-23.3117,31.7892,34.821,-23.3425,-20.8301,7.12502,3.11237,9.12694,-0.945536,3.96944,-7.46941,-6.36111e-15,-31.6907,-20.0641,54.7972,-21.2094,-1.4847,-28.8475,14.9688,-13.2077,11.669,8.29917
3.83147,17.5075,4.26429,21.4729,-16.3499,0.546015,-13.1779,4.03515,2.87172,-14.1814,5.02764,-0.176893,-7.56574,2.21579,-1.44795,-1.86605,18.0451,14.1994,8.97505,22.8875,6.16616,4.26058,11.9841,0.999209,-2.82274e-14,1.11319e-14,-2.08537,-25.7327,19.495,121.496,-64.3463,-5.58683,-48.0061,7.12502,20.2295,-76.9727,-2.82274e-14,1.11319e-14,29.8806,23.5687,-23.27,31.7632,34.7564,-23.361,-20.906,7.12502,3.09446,9.0513,-0.94581,3.888,-7.46318,-3.18055e-15,-31.1998,-20.7706,54.4398,-21.2169,-1.3876,-28.892,14.9146,-13.3324,11.4993,8.66316
3.83338,17.5075,4.2634,21.4803,-16.2589,0.576561,-13.1896,4.00145,2.86351,-14.1917,4.9838,-0.170714,-7.57427,2.19461,-1.43975,-1.84385,18.0371,14.2247,9.1172,22.8763,6.11923,4.31956,11.9852,0.991934,-7.45443e-15,-1.74931e-14,-2.09654,-25.7262,19.537,121.533,-64.4592,-5.87685,-47.9805,7.12502,19.9507,-76.9763,-7.45443e-15,-1.74931e-14,29.8216,23.4907,-23.3339,31.761,34.7239,-23.436,-20.9657,7.12502,3.02201,8.9926,-0.917655,3.79594,-7.45543,9.54166e-15,-31.2552,-20.7879,54.3763,-21.2243,-1.46274,-28.8945,14.8697,-13.4331,11.4396,9.3476
3.83419,17.5081,4.26071,21.4985,-16.244,0.538493,-13.1905,3.99853,2.87481,-14.1881,4.98042,-0.140776,-7.5718,2.19372,-1.41432,-1.91078,18.0691,14.033,9.21835,22.8993,6.30403,4.31765,12.0038,1.08204,-4.85035e-14,-9.93923e-15,-2.07201,-25.7724,19.5392,121.511,-64.4517,-5.56791,-47.9049,7.12502,20.2477,-76.8695,-4.85035e-14,-9.93923e-15,29.7403,23.4125,-23.4063,31.7701,34.6924,-23.425,-20.778,7.12502,3.03269,9.18016,-0.94165,3.79272,-7.40777,-3.18055e-15,-31.7104,-20.2906,54.6039,-21.2392,-1.54083,-28.8284,14.8334,-13.2776,11.4927,9.38681
3.83378,17.5083,4.25772,21.5081,-16.298,0.576209,-13.2055,4.00149,2.77599,-14.1747,4.99066,-0.142119,-7.55506,2.20818,-1.35916,-2.10154,18.097,13.8634,9.31143,22.8958,6.4646,4.34209,12.0093,1.17421,4.57205e-14,2.78299e-15,-2.04927,-25.8632,19.4759,121.458,-64.3698,-5.56174,-47.8498,7.12502,20.2536,-76.8139,4.57205e-14,2.78299e-15,29.6767,23.3715,-23.4731,31.8225,34.8278,-23.2509,-20.5374,7.12502,3.20076,9.41836,-1.0022,3.81655,-7.45789,1.90833e-14,-32.3094,-19.4788,54.867,-21.2772,-1.50729,-28.8797,14.8299,-13.1237,11.5082,9.8047
3.83479,17.5079,4.25564,21.49,-16.2309,0.644944,-13.2183,3.95728,2.7204,-14.1058,4.9343,-0.162677,-7.47294,2.18611,-1.35048,-2.35056,18.1175,13.8806,9.70231,22.8655,6.44778,4.09042,12.0187,1.12211,5.94366e-14,6.12257e-14,-2.09638,-26.0271,19.4537,121.463,-64.4963,-6.41008,-47.8318,7.12502,19.4381,-76.8802,5.94366e-14,6.12257e-14,29.5784,23.4512,-23.579,31.8627,34.8686,-22.6541,-20.4804,7.12502,3.7771,9.46586,-0.957581,3.7397,-7.48642,-1.90833e-14,-32.5687,-18.9837,55.0639,-21.3005,-1.46422,-28.9579,14.8666,-13.1751,11.4012,10.5084
3.83623,17.5087,4.25367,21.4811,-16.0893,0.577165,-13.2321,3.9145,2.82646,-14.0337,4.86946,-0.143209,-7.37922,2.14787,-1.38874,-2.57013,18.1117,13.8679,9.79472,22.8168,6.42345,4.15399,11.9991,1.14142,-1.09332e-14,-1.98785e-14,-2.13216,-26.1496,19.4488,121.469,-64.6436,-6.73918,-47.8674,7.12502,19.1217,-76.9474,-1.09332e-14,-1.98785e-14,29.6164,23.7313,-23.4623,31.7703,34.545,-21.8288,-20.5226,7.12502,4.57404,9.40799,-0.860864,3.65896,-7.34547,-6.36111e-15,-32.0308,-19.6868,54.9277,-21.3198,-1.42135,-28.8739,14.9251,-13.1177,11.3347,8.66731
3.83573,17.5106,4.2527,21.5157,-16.0828,0.452113,-13.2637,3.90704,2.90586,-14.0419,4.85393,-0.0886042,-7.37161,2.13589,-1.374,-2.45899,18.0781,13.9821,9.81098,22.7897,6.33764,4.16407,11.9857,1.09672,-2.67365e-14,-2.06736e-14,-2.03923,-26.1197,19.3455,121.428,-64.5701,-6.0382,-47.9338,7.12502,19.7956,-76.9457,-2.67365e-14,-2.06736e-14,29.6266,23.7415,-23.3989,31.7348,34.3286,-21.8217,-20.6205,7.12502,4.5809,9.31001,-0.888487,3.69581,-7.19807,-3.49861e-14,-31.8618,-20.0499,54.8314,-21.38,-1.34403,-28.7495,14.997,-13.0082,11.3651,6.81277
3.83587,17.511,4.25173,21.5839,-16.154,0.405849,-13.2855,3.90634,2.88905,-14.0794,4.85414,-0.0596331,-7.40676,2.13765,-1.33425,-2.31899,18.0885,14.0013,9.72428,22.8322,6.32802,4.11914,12.0014,1.07589,-9.19379e-14,-3.4191e-14,-1.90869,-26.0712,19.1892,121.4,-64.5408,-5.50269,-48.0406,7.12502,20.3104,-76.9986,-9.19379e-14,-3.4191e-14,29.5371,23.5821,-23.4997,31.7876,34.3839,-22.1007,-20.6543,7.12502,4.3115,9.28177,-0.996067,3.74436,-7.18274,9.54166e-15,-32.1321,-19.7944,54.9017,-21.4768,-1.28634,-28.7235,15.0626,-13.1569,11.2963,7.9847
3.83722,17.509,4.25066,21.6379,-16.1917,0.428604,-13.3218,3.91061,2.8347,-14.0837,4.86201,-0.0629669,-7.39535,2.14641,-1.30509,-2.38491,18.1006,13.792,9.30575,22.8591,6.4118,4.39044,11.9878,1.19477,-2.19657e-14,-6.36111e-15,-1.85721,-26.0773,19.0988,121.398,-64.6658,-5.67281,-48.217,7.12502,20.1469,-77.1923,-2.19657e-14,-6.36111e-15,29.7326,23.9372,-23.1181,31.678,33.9813,-22.0472,-20.792,7.12502,4.36318,9.14305,-1.06096,3.73937,-7.23604,-6.36111e-15,-32.5237,-19.1372,55.0557,-21.5991,-1.32517,-28.7425,15.1223,-13.0935,11.331,7.99004
3.83758,17.5071,4.25096,21.622,-16.2189,0.470002,-13.3075,3.91317,2.75936,-14.0774,4.87178,-0.0645883,-7.40085,2.15798,-1.26542,-2.41648,18.0573,13.886,9.67436,22.7831,6.34,4.10275,11.9725,1.09158,4.85035e-14,-1.70955e-14,-1.88079,-26.0306,19.1254,121.408,-64.7133,-5.90904,-48.3178,7.12502,19.9198,-77.3169,4.85035e-14,-1.70955e-14,30.0974,24.529,-22.4462,31.5016,33.2193,-21.972,-20.9342,7.12502,4.43576,8.99935,-1.0512,3.75007,-7.29204,6.36111e-15,-33.0688,-18.1895,55.2961,-21.6301,-1.42995,-28.7652,15.1612,-12.9228,11.524,6.86043
3.8388,17.5073,4.25128,21.6039,-16.2154,0.479353,-13.2517,3.9069,2.74064,-14.0855,4.86748,-0.070383,-7.44126,2.15636,-1.26572,-2.53351,18.0315,13.8515,9.76063,22.72,6.40453,4.13548,11.9484,1.12428,-6.67916e-14,-2.14687e-14,-1.91388,-26.0058,19.1478,121.422,-64.6768,-5.84805,-48.2401,7.12502,19.9784,-77.2331,-6.67916e-14,-2.14687e-14,30.2695,24.8191,-22.1597,31.4322,32.8867,-21.6799,-21.1237,7.12502,4.71781,8.8038,-1.01019,3.75061,-7.30773,3.18055e-15,-33.1845,-17.9421,55.3725,-21.5883,-1.40941,-28.7887,15.1589,-13.1319,11.4344,7.94519
3.84144,17.5081,4.24983,21.5968,-16.1509,0.498273,-13.1727,3.87031,2.74065,-14.1256,4.82296,-0.0779089,-7.5312,2.13139,-1.28397,-2.40607,18.0499,13.858,9.69727,22.7672,6.43638,4.0938,11.9692,1.11868,-1.78906e-14,-2.14687e-14,-1.85346,-26.0225,19.076,121.422,-64.6637,-5.64306,-48.2242,7.12502,20.1755,-77.1965,-1.78906e-14,-2.14687e-14,30.3315,24.8654,-22.0996,31.4212,32.7784,-21.6145,-21.3084,7.12502,4.78098,8.61766,-0.945879,3.69178,-7.30691,-1.27222e-14,-33.0945,-18.0777,55.3746,-21.5768,-1.22428,-28.8528,15.1567,-13.339,11.1099,8.99527
3.84286,17.5089,4.24894,21.5547,-16.0709,0.525411,-13.06,3.83031,2.7298,-14.1793,4.77645,-0.0868849,-7.65581,2.10556,-1.30064,-2.4367,18.1071,13.8983,9.91124,22.8144,6.55222,4.15902,12.0099,1.16714,-1.56046e-14,-1.35174e-14,-1.79289,-25.94,19.0065,121.433,-64.6372,-5.79967,-48.2759,7.12502,20.0249,-77.264,-1.56046e-14,-1.35174e-14,30.3133,24.6707,-22.1959,31.5181,32.9748,-22.218,-21.1209,7.12502,4.19829,8.81752,-0.857513,3.63316,-7.29712,2.54444e-14,-32.973,-18.4859,55.3007,-21.5501,-1.06786,-28.9103,15.1747,-13.2577,10.8955,8.65379
3.84355,17.5085,4.24812,21.5414,-16.0557,0.532191,-13.0545,3.84624,2.73808,-14.1682,4.79579,-0.125852,-7.64109,2.11297,-1.34498,-2.59495,18.1093,13.9358,10.1119,22.7679,6.63934,4.24058,12.0033,1.21297,5.48646e-14,1.86858e-14,-1.94821,-25.8736,19.0818,121.527,-64.658,-6.21154,-48.307,7.12502,19.629,-77.3361,5.48646e-14,1.86858e-14,30.1817,24.4164,-22.4879,31.6843,33.6028,-22.6699,-20.9436,7.12502,3.76192,9.00289,-0.825873,3.62334,-7.30215,3.49861e-14,-32.8765,-18.5714,55.2571,-21.55,-1.02771,-28.9271,15.1934,-13.1235,10.8522,8.25045
3.84497,17.5063,4.24666,21.5405,-16.0832,0.563641,-13.0875,3.86176,2.71288,-14.1288,4.81471,-0.163625,-7.57536,2.12442,-1.36585,-2.48542,18.0454,14.0066,9.89893,22.7181,6.51718,4.17642,11.9637,1.14499,-5.46658e-15,1.03368e-14,-2.09814,-25.8405,19.1497,121.637,-64.6596,-6.22005,-48.2876,7.12502,19.6208,-77.3174,-5.46658e-15,1.03368e-14,30.0823,24.3272,-22.6805,31.7384,33.9844,-22.7866,-20.8045,7.12502,3.64914,9.144,-0.833359,3.63157,-7.35283,1.59028e-14,-32.5182,-18.7436,55.1019,-21.5644,-1.04983,-28.9658,15.1957,-13.1906,10.8794,8.2927
3.84796,17.5062,4.2481,21.5444,-16.0435,0.533145,-13.0445,3.83801,2.76103,-14.132,4.78195,-0.156632,-7.6008,2.1034,-1.3902,-2.29187,17.9969,13.9807,9.16277,22.738,6.32265,4.35422,11.9223,1.11731,-2.22639e-14,-3.97569e-16,-2.05748,-25.7317,19.0588,121.675,-64.5344,-6.32462,-48.167,7.12502,19.5203,-77.2071,-2.22639e-14,-3.97569e-16,29.9928,24.2569,-22.8248,31.7461,34.205,-22.9521,-20.4325,7.12502,3.48935,9.51867,-0.813025,3.61008,-7.31405,1.90833e-14,-31.7427,-19.8143,54.6537,-21.5584,-1.07231,-28.9367,15.2076,-13.2817,10.8725,8.44733
3.84887,17.5071,4.25015,21.5597,-16.06,0.503263,-13.0645,3.82685,2.77362,-14.0984,4.76435,-0.160938,-7.55064,2.09438,-1.40009,-2.20283,17.9762,14.0709,8.82395,22.7579,6.07729,4.25821,11.9069,1.0004,3.71727e-14,5.36719e-14,-2.06407,-25.7271,18.9428,121.69,-64.3622,-6.75781,-48.0863,7.12502,19.1037,-77.1681,3.71727e-14,5.36719e-14,29.7402,24.0319,-23.2101,31.8986,34.6545,-23.3654,-19.9444,7.12502,3.09026,10.0129,-0.834471,3.63028,-7.29026,1.90833e-14,-31.1236,-20.8511,54.2865,-21.582,-0.995792,-28.9321,15.2528,-13.2945,10.8285,8.51711
3.84762,17.5082,4.24992,21.576,-16.145,0.486579,-13.0834,3.83912,2.73559,-14.0806,4.78127,-0.173147,-7.52081,2.10624,-1.38886,-2.24395,17.9678,14.0843,8.70027,22.7518,5.992,4.23349,11.8949,0.968176,2.74323e-14,2.94201e-14,-2.08952,-25.78,18.8422,121.691,-64.158,-6.92771,-48.0566,7.12502,18.9403,-77.1544,2.74323e-14,2.94201e-14,29.545,23.7751,-23.5444,32.0473,35.0448,-23.8774,-19.6138,7.12502,2.59579,10.3502,-0.905316,3.70129,-7.29802,0,-30.6132,-21.6938,54.0107,-21.6219,-0.871202,-28.9501,15.2977,-13.3206,10.7728,8.70547
3.84939,17.5092,4.25074,21.6065,-16.1724,0.387938,-13.0866,3.86289,2.84001,-14.0882,4.80588,-0.147054,-7.52183,2.11052,-1.41697,-2.21989,17.9513,14.048,8.69989,22.7442,5.91141,4.23489,11.8874,0.945233,-4.54223e-14,-2.74323e-14,-2.05267,-25.7656,18.7797,121.713,-64.0262,-7.02748,-48.0612,7.12502,18.8444,-77.1684,-4.54223e-14,-2.74323e-14,29.4817,23.6657,-23.6527,32.0814,35.4196,-24.3937,-19.367,7.12502,2.0971,10.6025,-0.943436,3.7542,-7.2134,-3.18055e-15,-29.5832,-22.9093,53.4237,-21.643,-0.871319,-28.8535,15.322,-13.3712,10.7839,9.10923
3.85239,17.5083,4.25177,21.6342,-16.1779,0.336373,-13.1828,3.89402,2.92275,-14.0881,4.83693,-0.132903,-7.46377,2.12066,-1.43875,-2.19872,17.9249,14.0573,8.90101,22.7074,5.86122,4.31333,11.8784,0.941226,-1.78906e-15,-1.74931e-14,-2.08133,-25.733,18.838,121.787,-64.1709,-7.35651,-48.0574,7.12502,18.5279,-77.195,-1.78906e-15,-1.74931e-14,29.4689,23.6198,-23.6357,32.1134,35.7179,-24.7957,-19.2452,7.12502,1.70884,10.7277,-0.952394,3.76874,-7.17412,1.27222e-14,-28.9729,-23.4609,53.1187,-21.6794,-0.988859,-28.7822,15.3566,-13.4374,10.8822,9.55121
3.85557,17.5076,4.24991,21.6789,-16.1256,0.345586,-13.2377,3.90257,2.9349,-14.1696,4.84566,-0.141105,-7.52596,2.12141,-1.45336,-2.00468,17.8866,14.2505,9.45814,22.6606,5.83522,4.06569,11.8894,0.861259,4.47266e-14,3.65764e-14,-2.0663,-25.625,18.7995,121.816,-64.342,-7.6303,-48.0709,7.12502,18.2645,-77.2335,4.47266e-14,3.65764e-14,29.631,23.6227,-23.3859,32.1129,35.6902,-25.0163,-19.42,7.12502,1.49585,10.5545,-0.956276,3.70046,-7.17118,2.54444e-14,-29.363,-22.9895,53.4139,-21.7654,-1.02154,-28.7906,15.4127,-13.3619,10.8563,10.3346
3.85737,17.509,4.24851,21.6845,-16.1153,0.356792,-13.1991,3.88639,2.91708,-14.2225,4.8279,-0.14133,-7.60983,2.11167,-1.45,-1.99115,17.8912,14.2511,9.63296,22.6482,5.9763,4.10284,11.8982,0.907913,7.25564e-15,3.22031e-14,-1.97838,-25.5295,18.5989,121.807,-64.2523,-7.74706,-48.1244,7.12502,18.1522,-77.2974,7.25564e-15,3.22031e-14,29.6105,23.5654,-23.3747,32.2048,35.9619,-25.326,-19.3972,7.12502,1.19669,10.5792,-0.970915,3.68534,-7.16641,-3.18055e-15,-29.5964,-22.8584,53.496,-21.8,-0.785149,-28.8687,15.4484,-13.2513,10.6325,10.8311
3.85658,17.5096,4.2467,21.6623,-16.1879,0.350201,-13.1501,3.88966,2.88321,-14.2231,4.83661,-0.14057,-7.6392,2.11838,-1.43327,-1.92735,17.9036,14.2159,9.60975,22.6735,6.04445,4.07458,11.9108,0.923075,-1.13307e-14,1.19271e-15,-1.98831,-25.5348,18.5349,121.846,-64.1885,-7.76192,-48.1518,7.12502,18.1379,-77.3261,-1.13307e-14,1.19271e-15,29.4072,23.3571,-23.6744,32.3609,36.5313,-25.6156,-19.3177,7.12502,0.917037,10.6601,-1.02526,3.7603,-7.16408,2.22639e-14,-30.0204,-22.5654,53.6358,-21.8091,-0.660817,-28.8953,15.468,-13.0956,10.6531,8.66761
3.85605,17.5086,4.24348,21.6955,-16.247,0.309639,-13.1474,3.93005,2.88191,-14.279,4.89072,-0.147109,-7.70251,2.14351,-1.43831,-1.67703,17.8468,14.1456,9.15025,22.6664,6.01775,4.29623,11.8782,0.936721,1.15295e-14,-1.31198e-14,-2.0596,-25.468,18.5348,121.912,-64.2383,-7.77535,-48.0715,7.12502,18.125,-77.247,1.15295e-14,-1.31198e-14,29.3891,23.0932,-23.8193,32.4297,37.0003,-25.3402,-19.4509,7.12502,1.18296,10.5256,-1.13771,3.81333,-7.13423,1.90833e-14,-30.4479,-22.2136,53.8134,-21.8951,-0.717376,-28.8377,15.4929,-12.8364,10.8809,5.58984
3.85628,17.508,4.24196,21.7171,-16.2868,0.283932,-13.2148,3.96287,2.87853,-14.2823,4.93084,-0.155584,-7.66751,2.16425,-1.43812,-1.32774,17.7518,14.3051,8.94708,22.6261,5.74081,4.21402,11.841,0.781773,-5.10877e-14,-1.23246e-14,-2.04821,-25.427,18.3479,121.935,-64.1365,-7.64207,-47.9158,7.12502,18.2532,-77.0794,-5.10877e-14,-1.23246e-14,29.3271,22.9202,-23.9376,32.5235,37.3248,-24.3405,-19.6599,7.12502,2.14848,10.3091,-1.20963,3.84882,-7.11497,2.22639e-14,-30.8023,-21.8114,53.9845,-21.9674,-0.614485,-28.8403,15.5284,-12.7929,10.8797,4.72122
3.85848,17.5081,4.24047,21.6565,-16.2532,0.22942,-13.1686,3.97711,2.95016,-14.2655,4.94692,-0.153672,-7.66755,2.16632,-1.47669,-1.34351,17.745,14.2974,9.06244,22.6047,5.7951,4.25055,11.8384,0.807676,-1.42131e-14,2.26615e-14,-1.952,-25.3993,18.121,121.923,-63.9689,-7.45962,-47.7804,7.12502,18.4287,-76.9275,-1.42131e-14,2.26615e-14,29.3121,22.9523,-23.876,32.6148,37.1595,-23.4597,-19.8102,7.12502,2.99913,10.1485,-1.12854,3.87398,-7.0362,0,-31.1713,-21.3499,54.162,-21.9175,-0.554167,-28.7974,15.5783,-12.8899,10.8448,4.78587
3.86185,17.5113,4.23591,21.5875,-16.1715,0.105125,-13.0289,3.97523,3.10611,-14.278,4.94225,-0.117824,-7.75037,2.15007,-1.53483,-1.50842,17.8205,14.136,9.38567,22.6404,6.14508,4.33219,11.882,0.973291,-3.73715e-14,-1.66979e-14,-1.8704,-25.2795,18.0278,121.958,-63.9508,-7.58093,-47.6152,7.12502,18.312,-76.7733,-3.73715e-14,-1.66979e-14,29.5405,23.29,-23.4057,32.5172,36.4842,-23.1512,-19.7445,7.12502,3.29713,10.2098,-1.03964,3.89562,-6.85291,1.90833e-14,-30.7829,-22.0691,53.8553,-21.832,-0.592996,-28.6487,15.635,-12.9486,10.8421,5.45745
3.86424,17.5152,4.22967,21.5528,-16.1101,0.0286448,-12.9684,3.94744,3.18549,-14.2232,4.90412,-0.074273,-7.72006,2.12746,-1.53666,-1.72862,17.9073,13.9263,9.56599,22.6967,6.42547,4.37475,11.9243,1.11988,7.35503e-15,-5.1684e-15,-1.78184,-25.376,17.9148,121.92,-63.9923,-7.50201,-47.5655,7.12502,18.388,-76.7165,7.35503e-15,-5.1684e-15,29.6636,23.6387,-23.0613,32.34,35.8548,-23.6477,-19.6292,7.12502,2.81762,10.3319,-1.01575,3.89675,-6.72434,-3.18055e-15,-30.3807,-22.8007,53.5362,-21.7943,-0.534214,-28.5764,15.6861,-13.1599,10.6453,7.26914
3.8673,17.5162,4.22631,21.5214,-16.0744,0.0259098,-12.8948,3.94911,3.20178,-14.2059,4.90897,-0.082495,-7.73799,2.12803,-1.55826,-1.96334,17.8998,13.7198,9.72969,22.6317,6.64107,4.41987,11.9046,1.23794,8.05078e-15,1.63003e-14,-1.71037,-25.5428,17.7649,121.789,-63.9951,-6.93557,-47.6111,7.12502,18.9328,-76.7097,8.05078e-15,1.63003e-14,29.743,23.6828,-22.9284,32.2776,35.5392,-24.0864,-19.6226,7.12502,2.39395,10.3437,-0.984918,3.88239,-6.70566,-1.59028e-14,-30.7815,-22.3622,53.8081,-21.7611,-0.362129,-28.6171,15.6843,-13.342,10.3687,8.22271
3.87006,17.5165,4.22236,21.4881,-16.0706,0.0812139,-12.8239,3.96861,3.15597,-14.2317,4.94096,-0.122652,-7.8045,2.14458,-1.57949,-1.97431,17.7898,13.8153,10.2675,22.46,6.59193,4.17886,11.8533,1.13572,-2.79292e-14,-1.35174e-14,-1.64373,-25.6297,17.6319,121.676,-63.9563,-6.07768,-47.6555,7.12502,19.7577,-76.6713,-2.79292e-14,-1.35174e-14,30.0364,23.8885,-22.5323,32.1827,35.0991,-23.5017,-19.6604,7.12502,2.95855,10.2989,-0.970662,3.86855,-6.76556,9.54166e-15,-30.911,-22.1308,53.95,-21.7559,-0.209612,-28.7108,15.6596,-13.3154,10.1924,8.18601
3.87167,17.5184,4.21155,21.4476,-16.0897,0.240324,-12.7025,3.93838,2.93922,-14.2335,4.9208,-0.158087,-7.88583,2.15071,-1.50791,-2.03006,17.723,13.9343,10.4368,22.3596,6.42762,4.27096,11.8099,1.09082,6.34123e-14,5.28767e-14,-1.52647,-25.7387,17.4401,121.595,-63.8841,-5.804,-47.7138,7.12502,20.0208,-76.7024,6.34123e-14,5.28767e-14,30.343,24.3484,-22.0127,32.0052,34.5582,-23.3546,-19.4955,7.12502,3.10065,10.4617,-0.995802,3.8307,-6.93539,-1.27222e-14,-30.5285,-22.7131,53.6804,-21.8059,-0.144203,-28.8834,15.6381,-13.2325,10.0524,8.47757
3.87511,17.5208,4.20447,21.4523,-16.049,0.22391,-12.5807,3.92645,2.90884,-14.1936,4.9134,-0.156225,-7.90898,2.15027,-1.4964,-2.30393,17.7392,13.9188,10.5749,22.3229,6.46316,4.35091,11.8013,1.13517,-4.52235e-14,-4.37326e-15,-1.55937,-25.7947,17.33,121.605,-63.7751,-6.33789,-47.7102,7.12502,19.5075,-76.7516,-4.52235e-14,-4.37326e-15,30.5036,24.6838,-21.7096,31.8986,34.4548,-24.0932,-19.2359,7.12502,2.38732,10.7304,-1.01518,3.80179,-6.90487,1.90833e-14,-30.1641,-23.3381,53.5079,-21.8203,-0.0587018,-28.8802,15.6011,-13.1897,9.89861,8.8643
3.87721,17.5221,4.20025,21.4709,-15.9848,0.0885456,-12.5424,3.94548,3.00588,-14.1307,4.93503,-0.137077,-7.85117,2.15579,-1.52787,-2.53317,17.7893,13.8147,10.5997,22.3423,6.59803,4.3681,11.8157,1.20622,-4.80065e-14,-2.74323e-14,-1.66193,-25.822,17.235,121.581,-63.582,-6.56129,-47.6764,7.12502,19.2927,-76.7394,-4.80065e-14,-2.74323e-14,30.5912,24.8439,-21.575,31.8719,34.6026,-25.1146,-18.91,7.12502,1.40089,11.0652,-1.00944,3.80125,-6.73691,2.8625e-14,-30.4203,-22.9722,53.7597,-21.8171,0.00832456,-28.7473,15.6086,-13.179,9.84647,8.82245
3.87732,17.5232,4.19221,21.4419,-15.9744,0.0397177,-12.504,3.94465,2.97586,-14.0653,4.93887,-0.105038,-7.80187,2.16432,-1.47704,-2.37801,17.8155,13.8004,10.3507,22.4285,6.49144,4.27702,11.8388,1.15366,-1.72943e-14,-1.23246e-14,-1.68002,-25.9019,17.1357,121.521,-63.4882,-6.81319,-47.6235,7.12502,19.0505,-76.7105,-1.72943e-14,-1.23246e-14,30.6335,25.0107,-21.4151,31.8374,34.5795,-25.6229,-18.6832,7.12502,0.909946,11.2946,-1.00591,3.828,-6.67308,3.18055e-15,-31.0056,-22.126,54.0789,-21.8385,-0.0141843,-28.6754,15.66,-13.1513,9.91859,8.56441
3.8797,17.5265,4.1882,21.4409,-15.9175,-0.135376,-12.5259,3.96163,3.10291,-13.96,4.95449,-0.0250227,-7.66642,2.16958,-1.45499,-2.25379,17.7634,13.809,10.1238,22.4113,6.27165,4.21088,11.8085,1.06561,-3.93594e-14,-1.70955e-14,-1.67049,-26.0407,17.1313,121.485,-63.457,-7.57717,-47.6544,7.12502,18.3156,-76.8121,-3.93594e-14,-1.70955e-14,30.6225,25.2348,-21.2681,31.7881,34.6699,-24.9003,-18.7137,7.12502,1.6079,11.26,-0.995036,3.85975,-6.46818,-3.81667e-14,-31.3038,-21.643,54.3048,-21.823,-0.0930331,-28.4525,15.6664,-13.1331,9.99538,8.76043
3.88256,17.5296,4.17992,21.4212,-15.8327,-0.15363,-12.472,3.94478,3.08951,-13.9351,4.93765,0.00548295,-7.67182,2.16455,-1.41918,-2.17873,17.683,13.8011,10.0596,22.3298,6.16922,4.18744,11.7603,1.02108,-2.60408e-14,-2.34566e-14,-1.57611,-26.0756,17.027,121.43,-63.4053,-8.12585,-47.7611,7.12502,17.7877,-76.9676,-2.60408e-14,-2.34566e-14,30.7055,25.3655,-21.0977,31.6888,34.6408,-24.5016,-18.8311,7.12502,1.99296,11.1394,-0.964036,3.80595,-6.41418,-1.90833e-14,-31.8177,-20.8792,54.643,-21.8165,-0.210004,-28.3846,15.6281,-13.0543,10.0078,8.96782
3.88626,17.5309,4.16807,21.3728,-15.7384,0.030976,-12.4083,3.8855,2.90188,-13.9337,4.87369,-0.0349891,-7.71726,2.14635,-1.36745,-2.12468,17.6478,13.8283,10.0474,22.2987,6.08664,4.18671,11.7414,0.988163,-4.06515e-14,-9.54166e-15,-1.49084,-26.028,16.864,121.384,-63.4011,-8.36252,-47.7986,7.12502,17.56,-77.0255,-4.06515e-14,-9.54166e-15,30.7409,25.3304,-21.0273,31.6446,34.5652,-25.1563,-19.3531,7.12502,1.36058,10.6224,-0.923476,3.6655,-6.57273,-3.18055e-15,-31.9085,-20.8879,54.6023,-21.8352,-0.305856,-28.5453,15.5831,-13.0383,9.94491,8.97314
3.88999,17.5318,4.16133,21.3905,-15.6874,0.0785633,-12.4818,3.87905,2.8773,-13.8673,4.86087,-0.0789996,-7.59888,2.14303,-1.3934,-2.24565,17.627,13.9611,10.1256,22.2493,5.94518,4.25965,11.7194,0.951786,-1.45113e-14,-3.22031e-14,-1.43663,-26.0434,16.6403,121.277,-63.3091,-8.35895,-47.7788,7.12502,17.5634,-77.0055,-1.45113e-14,-3.22031e-14,30.4697,25.0462,-21.4273,31.8486,35.202,-25.6778,-19.6646,7.12502,0.856959,10.3134,-0.949234,3.59234,-6.61801,1.59028e-14,-31.6,-21.4151,54.3833,-21.8481,-0.318929,-28.597,15.5031,-13.036,9.89896,8.95531
3.89316,17.5317,4.15634,21.4157,-15.6815,0.117124,-12.5067,3.8752,2.85123,-13.8501,4.85444,-0.119828,-7.56387,2.14082,-1.4202,-2.36748,17.6267,14.0711,10.2759,22.2165,5.90014,4.3428,11.7126,0.949161,5.46658e-15,5.1684e-15,-1.38789,-26.1505,16.4337,121.182,-63.2825,-7.90613,-47.7776,7.12502,17.9992,-76.9648,5.46658e-15,5.1684e-15,30.3382,24.9375,-21.6364,31.9861,35.5301,-25.7479,-19.5442,7.12502,0.789247,10.4341,-0.993696,3.55708,-6.67577,-2.22639e-14,-31.48,-21.5398,54.3463,-21.8649,-0.239774,-28.6707,15.4244,-12.9644,9.80668,8.86885
3.89733,17.5319,4.15321,21.4565,-15.5704,0.152171,-12.506,3.83266,2.85671,-13.8639,4.79732,-0.140931,-7.57996,2.11009,-1.44989,-2.47491,17.6924,13.9784,10.385,22.2692,6.08613,4.36462,11.7497,1.02918,2.72335e-14,-3.57812e-15,-1.39687,-26.3258,16.3557,121.178,-63.492,-7.43677,-47.9272,7.12502,18.4507,-77.0722,2.72335e-14,-3.57812e-15,30.4039,25.1091,-21.4905,31.9532,35.1782,-25.6409,-19.7627,7.12502,0.892607,10.2152,-0.989652,3.42843,-6.69576,-1.90833e-14,-30.8261,-22.3694,54.0429,-21.9025,-0.171347,-28.7266,15.3738,-12.9727,9.60785,8.97695
3.90015,17.5343,4.14579,21.5425,-15.5496,0.095169,-12.4701,3.82503,2.90877,-13.8705,4.78567,-0.139734,-7.60411,2.09916,-1.48067,-2.84471,17.8014,13.7225,10.6981,22.3141,6.4993,4.44826,11.7999,1.22341,2.25621e-14,3.97569e-15,-1.38409,-26.3869,16.2313,121.198,-63.6006,-7.38523,-48.0657,7.12502,18.5003,-77.206,2.25621e-14,3.97569e-15,30.1957,25.016,-21.7649,32.0471,35.3571,-25.3155,-19.9804,7.12502,1.20689,9.99592,-1.0982,3.39669,-6.64481,9.54166e-15,-30.2494,-23.1791,53.6391,-21.986,-0.152304,-28.6685,15.3118,-12.9093,9.55458,9.1592
3.90139,17.5371,4.13196,21.5648,-15.6957,0.082449,-12.3058,3.8517,2.81379,-13.8613,4.83486,-0.142393,-7.68786,2.13068,-1.43888,-3.19802,17.8099,13.5785,10.9644,22.2511,6.61696,4.55773,11.7852,1.31568,7.40473e-14,5.92378e-14,-1.34095,-26.3313,16.1088,121.18,-63.4508,-7.5071,-48.0634,7.12502,18.3831,-77.2147,7.40473e-14,5.92378e-14,30.0084,24.9018,-22.0298,32.1637,35.86,-25.006,-19.8532,7.12502,1.50573,10.1212,-1.27107,3.51332,-6.68849,6.36111e-15,-30.068,-23.5729,53.3421,-22.0571,-0.121636,-28.6697,15.2741,-12.8382,9.64864,9.31848
3.90388,17.5367,4.12356,21.502,-15.7587,0.171317,-12.2251,3.842,2.65879,-13.8277,4.83574,-0.135331,-7.70517,2.14541,-1.35029,-2.97926,17.7615,13.5118,10.6637,22.2661,6.4054,4.44428,11.7645,1.2243,2.37548e-14,-2.06736e-14,-1.2258,-26.2594,16.0302,121.131,-63.3343,-7.14025,-48.0619,7.12502,18.7359,-77.1796,2.37548e-14,-2.06736e-14,30.0106,24.9685,-21.8965,32.2084,36.0995,-25.3856,-19.5496,7.12502,1.13911,10.4271,-1.28678,3.55255,-6.8142,9.54166e-15,-30.1402,-23.5453,53.3451,-22.0594,-0.112969,-28.776,15.2917,-12.9573,9.66705,9.44123
3.90849,17.5346,4.12224,21.4737,-15.7481,0.176373,-12.2427,3.81963,2.65298,-13.8431,4.80748,-0.0898957,-7.71899,2.13359,-1.30028,-2.50747,17.778,13.4371,10.3509,22.3989,6.32385,4.27522,11.806,1.15204,1.87852e-14,-1.63003e-14,-0.971258,-26.1781,15.8137,121.06,-63.2312,-6.35389,-48.1023,7.12502,19.4921,-77.1452,1.87852e-14,-1.63003e-14,30.1071,25.1227,-21.5627,32.151,35.7318,-25.9361,-19.5239,7.12502,0.607461,10.455,-1.25273,3.55249,-6.83287,-3.18055e-15,-30.623,-22.8897,53.7292,-22.072,-0.0606654,-28.814,15.3587,-13.1153,9.60934,9.45606
3.91452,17.5353,4.11664,21.4893,-15.6562,0.0587787,-12.1666,3.80825,2.79627,-13.8684,4.78853,-0.0624561,-7.78267,2.11133,-1.35732,-2.34048,17.7926,13.4606,10.4274,22.4374,6.37131,4.27183,11.8307,1.15413,-3.56818e-14,-1.31198e-14,-0.814371,-26.2605,15.6247,120.971,-63.1976,-6.0246,-48.1235,7.12502,19.8087,-77.1341,-3.56818e-14,-1.31198e-14,30.1955,25.2559,-21.3962,32.0704,35.2461,-25.8317,-19.9433,7.12502,0.708334,10.0352,-1.22889,3.52085,-6.68632,0,-30.5813,-22.8282,53.7387,-22.1484,0.00157237,-28.715,15.4963,-13.0798,9.53607,9.15172
3.92123,17.5369,4.10865,21.5148,-15.4958,-0.0516891,-12.0957,3.78045,2.961,-13.8501,4.74522,-0.0581396,-7.79113,2.07532,-1.44977,-2.58407,17.8259,13.3904,10.7629,22.4032,6.63273,4.37841,11.8413,1.27401,1.54058e-14,2.74323e-14,-0.866713,-26.4235,15.7006,121.004,-63.4437,-6.30526,-48.157,7.12502,19.5389,-77.1952,1.54058e-14,2.74323e-14,30.223,25.4246,-21.3555,32.0561,35.1382,-25.3285,-20.3994,7.12502,1.19427,9.57697,-1.18539,3.42424,-6.52413,2.22639e-14,-30.4574,-22.9118,53.6286,-22.2675,-0.0196599,-28.5928,15.6819,-13.0568,9.47486,8.90424
3.92582,17.5381,4.10578,21.5743,-15.4088,-0.177508,-12.1196,3.77257,3.08686,-13.8261,4.72694,-0.02857,-7.74523,2.05786,-1.48616,-3.00277,17.8714,13.2971,11.1922,22.3522,6.89108,4.53998,11.8491,1.41811,-3.49861e-14,-3.57812e-15,-0.927471,-26.3607,15.7468,121.103,-63.61,-6.86964,-48.1924,7.12502,18.9962,-77.2847,-3.49861e-14,-3.57812e-15,30.3155,25.7056,-21.1319,32.0326,34.9195,-25.2118,-20.4555,7.12502,1.307,9.52022,-1.19929,3.38053,-6.37414,3.18055e-15,-30.4602,-22.9871,53.6314,-22.3951,0.0126155,-28.4734,15.8399,-13.2517,9.39832,9.36909
3.92899,17.5385,4.10324,21.5639,-15.3147,-0.21719,-12.1118,3.75412,3.11606,-13.7691,4.7012,-0.018901,-7.68391,2.0451,-1.4917,-3.33168,17.8914,13.2931,11.4578,22.3041,6.94309,4.6691,11.8426,1.47963,3.88624e-14,2.34566e-14,-0.907332,-26.2104,15.6035,121.096,-63.4052,-7.0687,-48.0941,7.12502,18.8048,-77.2051,3.88624e-14,2.34566e-14,30.2719,25.6993,-21.167,32.0896,34.987,-25.873,-20.0619,7.12502,0.668415,9.91683,-1.13521,3.32418,-6.29967,1.90833e-14,-29.9233,-23.7389,53.3062,-22.4348,0.0253291,-28.4335,15.9315,-13.3809,9.31974,9.78004
3.93177,17.5361,4.09958,21.4948,-15.2606,-0.10016,-12.0742,3.71742,3.00615,-13.7487,4.65999,-0.0495337,-7.68762,2.03278,-1.46781,-3.33032,17.8767,13.2555,11.5215,22.2817,6.97472,4.68107,11.8352,1.49387,2.6339e-14,3.29983e-14,-0.821012,-26.1049,15.4696,121.039,-63.2109,-6.94453,-47.9985,7.12502,18.9242,-77.0979,2.6339e-14,3.29983e-14,29.8697,25.0322,-21.8385,32.3848,35.9883,-25.7835,-19.7731,7.12502,0.75486,10.2053,-1.02669,3.25718,-6.40289,-1.27222e-14,-30.0094,-23.4888,53.3795,-22.4334,0.00411583,-28.5606,15.9848,-13.3572,9.28647,9.5422
3.93222,17.5344,4.09592,21.5083,-15.328,-0.0219593,-12.0855,3.72846,2.88033,-13.7897,4.68176,-0.0673383,-7.7346,2.05253,-1.41716,-3.19875,17.7916,13.2688,11.6001,22.1924,6.91278,4.69242,11.7924,1.46118,3.10104e-14,3.4191e-14,-0.701384,-26.0658,15.3557,120.988,-63.1411,-7.06352,-48.1204,7.12502,18.8097,-77.2309,3.10104e-14,3.4191e-14,29.6753,24.5714,-22.1675,32.5471,36.5789,-24.4912,-19.6039,7.12502,2.00298,10.3665,-1.08823,3.27314,-6.50212,-6.36111e-15,-30.8187,-22.3922,53.8835,-22.4985,-0.00133213,-28.6558,16.0092,-13.323,9.32506,9.40935
3.93204,17.5359,4.09269,21.6073,-15.4025,-0.113268,-12.1765,3.78235,2.89474,-13.7757,4.74849,-0.0565452,-7.66594,2.08708,-1.40306,-2.86137,17.6162,13.5402,11.3595,22.0578,6.40425,4.647,11.6973,1.23981,-3.00165e-14,-3.97569e-15,-0.591999,-26.1332,15.1758,120.907,-62.952,-6.93618,-48.0731,7.12502,18.9322,-77.1717,-3.00165e-14,-3.97569e-15,30.1463,25.2548,-21.3681,32.233,35.4317,-23.8482,-19.4,7.12502,2.62398,10.5636,-1.25281,3.33346,-6.42001,2.8625e-14,-31.2944,-22.0067,54.1346,-22.6151,-0.0050283,-28.5597,16.0197,-13.238,9.40027,9.39568
3.93267,17.5366,4.09283,21.6746,-15.4778,-0.209089,-12.2915,3.85723,2.94766,-13.7291,4.83708,-0.0877222,-7.53948,2.12856,-1.44984,-2.08492,17.3889,14.0006,10.5925,21.9731,5.56493,4.42269,11.5914,0.839339,-5.62561e-14,-4.05521e-14,-0.589067,-26.1135,14.9885,120.845,-62.7081,-6.28634,-47.7108,7.12502,19.5571,-76.7471,-5.62561e-14,-4.05521e-14,30.5186,25.8022,-20.7916,32.0792,34.6187,-24.1779,-19.4003,7.12502,2.30555,10.567,-1.35813,3.41061,-6.3378,2.8625e-14,-31.3974,-22.0883,54.1277,-22.6859,0.00527578,-28.4688,16.0279,-13.1542,9.4848,9.2721
3.93504,17.5364,4.09471,21.6368,-15.509,-0.203614,-12.311,3.91032,2.96242,-13.6884,4.90238,-0.158893,-7.47172,2.1584,-1.52577,-1.85236,17.2866,14.155,10.3663,21.9019,5.30432,4.35784,11.5383,0.712324,-3.42904e-14,-1.19271e-14,-0.664182,-26.0738,14.818,120.833,-62.5093,-5.71366,-47.656,7.12502,20.1076,-76.6355,-3.42904e-14,-1.19271e-14,30.5136,25.6779,-20.899,32.2222,35,-24.6677,-19.6112,7.12502,1.83254,10.3606,-1.33346,3.45298,-6.33159,2.54444e-14,-31.0247,-22.6225,53.9051,-22.6434,-0.0108514,-28.4824,16.0256,-13.2341,9.49793,9.50089
3.93748,17.5358,4.09393,21.5947,-15.495,-0.120539,-12.3497,3.91935,2.90244,-13.6411,4.91407,-0.211749,-7.39538,2.16902,-1.54309,-2.25647,17.2852,14.0148,10.8473,21.7951,5.54592,4.52897,11.517,0.851334,-3.17062e-14,-4.77083e-15,-0.69825,-26.1783,14.683,120.864,-62.5013,-5.78693,-47.9136,7.12502,20.0372,-76.9005,-3.17062e-14,-4.77083e-15,30.4775,25.6128,-20.9635,32.3283,35.415,-24.9837,-19.705,7.12502,1.52729,10.2693,-1.2906,3.4252,-6.38357,-1.27222e-14,-30.5325,-23.239,53.6348,-22.6161,0.00600258,-28.5832,16.0151,-13.3357,9.41335,9.80336
3.93846,17.5347,4.08995,21.6261,-15.5184,-0.0316104,-12.4361,3.92805,2.79892,-13.59,4.92623,-0.260027,-7.29239,2.18438,-1.52809,-2.66186,17.2629,13.9298,11.3058,21.6679,5.67734,4.71152,11.4815,0.952762,-1.07344e-14,-1.90833e-14,-0.712757,-26.3063,14.6013,120.933,-62.6562,-6.31402,-48.146,7.12502,19.5305,-77.185,-1.07344e-14,-1.90833e-14,30.4791,25.7883,-20.9038,32.377,35.6414,-25.3394,-19.555,7.12502,1.18378,10.4215,-1.33853,3.39244,-6.46841,3.49861e-14,-30.6492,-23.1245,53.5181,-22.6823,0.0741795,-28.7096,15.9994,-13.2151,9.35824,9.68839
3.94057,17.5348,4.08601,21.6343,-15.5822,-0.0439112,-12.4056,3.95751,2.79212,-13.5264,4.96463,-0.306735,-7.23088,2.2039,-1.57019,-2.91945,17.2966,13.8583,11.5288,21.6444,5.8586,4.795,11.4875,1.04581,-1.50082e-14,-1.31198e-14,-0.735643,-26.3409,14.5104,121.013,-62.7518,-6.67369,-48.2865,7.12502,19.1846,-77.3602,-1.50082e-14,-1.31198e-14,30.5444,26.0453,-20.8047,32.3808,35.6385,-26.3644,-19.4831,7.12502,0.193749,10.4966,-1.36868,3.44787,-6.47633,9.54166e-15,-30.7599,-22.9918,53.419,-22.7015,0.130504,-28.7328,15.9977,-13.1114,9.38034,9.52617
3.94187,17.5355,4.08205,21.6304,-15.6946,-0.0950223,-12.3551,4.01835,2.79269,-13.5302,5.04597,-0.346092,-7.25551,2.24229,-1.61023,-2.76352,17.3271,13.826,11.5337,21.6977,6.02015,4.75234,11.5203,1.08231,-8.0309e-14,-6.55989e-14,-0.760892,-26.2691,14.4394,121.074,-62.7274,-6.58898,-48.2953,7.12502,19.2661,-77.361,-8.0309e-14,-6.55989e-14,30.4452,25.7526,-21.0623,32.5856,36.2049,-27.61,-19.5694,7.12502,-1.00928,10.408,-1.42166,3.56619,-6.46579,-3.81667e-14,-30.5795,-23.193,53.3482,-22.7237,0.185602,-28.7159,16.0551,-13.2411,9.45874,9.56652
3.94319,17.5369,4.07642,21.6956,-15.7104,-0.164966,-12.3942,4.06241,2.81978,-13.5765,5.10146,-0.351416,-7.2821,2.26676,-1.62641,-2.54534,17.2767,13.8418,11.5797,21.6673,6.00667,4.73526,11.5072,1.05656,3.30976e-14,-3.97569e-15,-0.720539,-26.2502,14.3915,121.056,-62.5902,-6.16658,-48.2976,7.12502,19.6722,-77.3222,3.30976e-14,-3.97569e-15,30.2956,25.3264,-21.3575,32.8349,36.9984,-27.5875,-19.6481,7.12502,-0.987471,10.3293,-1.53507,3.58356,-6.38216,-3.18055e-15,-30.5301,-23.3722,53.3024,-22.8504,0.230092,-28.6642,16.1729,-13.3577,9.48203,9.50865
3.94627,17.5386,4.07021,21.7772,-15.578,-0.265636,-12.4439,4.04255,2.93823,-13.5756,5.06652,-0.320344,-7.24961,2.24149,-1.65746,-2.60302,17.2312,13.768,11.8152,21.5862,6.05919,4.80373,11.4793,1.09178,-3.42904e-14,1.47101e-14,-0.593724,-26.2907,14.2404,121.009,-62.3967,-5.84169,-48.1949,7.12502,19.9845,-77.1872,-3.42904e-14,1.47101e-14,30.2345,25.2738,-21.36,32.8985,37.1391,-27.0146,-19.6745,7.12502,-0.434154,10.3048,-1.58997,3.48567,-6.19589,-3.49861e-14,-31.0517,-22.8557,53.5351,-22.9919,0.226295,-28.543,16.3026,-13.4119,9.3797,9.66813
3.94912,17.5395,4.06469,21.7917,-15.4183,-0.326286,-12.3677,3.99273,3.04684,-13.6216,4.9988,-0.293909,-7.34132,2.19703,-1.70133,-2.64344,17.1916,13.6443,12.1793,21.4986,6.25661,4.88947,11.46,1.17725,1.26228e-14,1.27222e-14,-0.378486,-26.1785,13.9409,121.009,-62.2217,-5.99576,-48.0133,7.12502,19.8364,-77.0211,1.26228e-14,1.27222e-14,30.4056,25.4795,-20.9909,32.8011,36.63,-26.6703,-19.51,7.12502,-0.101643,10.4698,-1.55481,3.37521,-6.05251,-3.18055e-15,-30.575,-23.5504,53.2492,-23.0905,0.207447,-28.4487,16.4521,-13.4882,9.23071,10.0133
3.95305,17.54,4.0588,21.7594,-15.2843,-0.351107,-12.1918,3.93949,3.13787,-13.7,4.93261,-0.281568,-7.52469,2.1515,-1.7585,-2.55174,17.1293,13.6091,12.4255,21.4158,6.32432,4.94069,11.4338,1.19931,-1.63997e-14,2.38542e-15,-0.156774,-26.0426,13.6741,121.058,-62.124,-6.51641,-48.0658,7.12502,19.3359,-77.1245,-1.63997e-14,2.38542e-15,30.8507,26.0389,-20.214,32.5447,35.7017,-25.83,-19.3472,7.12502,0.709916,10.6313,-1.48081,3.28854,-5.97282,-1.90833e-14,-29.0578,-25.3534,52.295,-23.1595,0.176361,-28.404,16.6112,-13.4548,9.15148,9.82042
3.95656,17.5386,4.05039,21.7319,-15.2368,-0.356199,-12.0462,3.9076,3.17365,-13.7223,4.89576,-0.278434,-7.62952,2.12735,-1.78821,-2.43848,17.0613,13.5707,12.4041,21.3571,6.24617,4.91861,11.3984,1.16442,7.04692e-14,1.90833e-14,-0.135298,-25.9727,13.6504,121.183,-62.2587,-7.12079,-48.1706,7.12502,18.7546,-77.2865,7.04692e-14,1.90833e-14,31.1326,26.4885,-19.6773,32.354,35.0518,-25.6133,-19.5849,7.12502,0.919245,10.3929,-1.42784,3.26335,-5.94681,-9.54166e-15,-30.1951,-23.9073,52.9438,-23.2116,0.194132,-28.4069,16.7128,-13.398,9.1204,9.45026
3.95747,17.5364,4.04115,21.689,-15.2651,-0.347025,-11.9596,3.90472,3.1275,-13.6942,4.89871,-0.28116,-7.64771,2.13276,-1.77027,-2.34858,16.992,13.5374,12.2776,21.3029,6.11095,4.8733,11.3575,1.10937,-3.97569e-15,-2.78299e-15,-0.229486,-25.8573,13.7243,121.322,-62.446,-7.72008,-48.0646,7.12502,18.1782,-77.2352,-3.97569e-15,-2.78299e-15,31.0947,26.5716,-19.6361,32.3625,34.9464,-26.2263,-19.7777,7.12502,0.327191,10.2018,-1.41961,3.3027,-5.95279,1.59028e-14,-31.5843,-22.0135,53.727,-23.2263,0.275629,-28.4388,16.7626,-13.4796,9.08929,9.57569
3.95718,17.5378,4.02963,21.6632,-15.3094,-0.311434,-11.9287,3.91263,3.0313,-13.6566,4.91524,-0.306728,-7.62522,2.14929,-1.74389,-2.38452,16.9632,13.5316,12.3376,21.2574,6.09753,4.89777,11.3373,1.10979,8.64713e-15,1.47101e-14,-0.170361,-25.792,13.5809,121.314,-62.3719,-8.13452,-47.8813,7.12502,17.7794,-77.0885,8.64713e-15,1.47101e-14,30.898,26.4581,-19.8891,32.5153,35.3309,-26.5139,-19.7223,7.12502,0.0494458,10.2575,-1.47439,3.33657,-5.98573,-4.45278e-14,-31.6005,-22.1032,53.7098,-23.2711,0.313756,-28.4774,16.793,-13.4895,9.08103,9.714
3.95754,17.5407,4.01641,21.6823,-15.324,-0.297563,-11.8872,3.90387,2.96051,-13.6547,4.91003,-0.308294,-7.651,2.15238,-1.7098,-2.43903,16.9531,13.4625,12.6052,21.2136,6.22847,4.96948,11.333,1.17091,1.86858e-14,2.38542e-15,0.137683,-25.9124,13.224,121.145,-62.2904,-8.05039,-47.7743,7.12502,17.8604,-76.9741,1.86858e-14,2.38542e-15,30.6317,26.1685,-20.2669,32.7061,35.9492,-26.9125,-19.717,7.12502,-0.335593,10.2625,-1.53985,3.33564,-5.98905,1.90833e-14,-32.4112,-21.1707,54.0856,-23.3446,0.26621,-28.4629,16.7677,-13.144,9.12319,9.02817
3.9594,17.5437,4.00492,21.7033,-15.3146,-0.367112,-11.8123,3.88985,2.99682,-13.6583,4.89405,-0.279816,-7.69712,2.14162,-1.70595,-2.37593,16.9118,13.4574,12.852,21.153,6.27291,5.03189,11.3169,1.18845,-2.13694e-14,-1.78906e-14,0.349774,-26.1222,13.0413,121.033,-62.4535,-7.57305,-47.6483,7.12502,18.3196,-76.8057,-2.13694e-14,-1.78906e-14,30.4946,25.9872,-20.4214,32.8493,36.3759,-27.686,-19.794,7.12502,-1.08265,10.183,-1.59059,3.35141,-5.89518,-2.54444e-14,-33.1717,-20.3246,54.3969,-23.3555,0.203512,-28.3588,16.6681,-13.2414,9.17626,9.45696
3.96197,17.5465,3.99065,21.6911,-15.3573,-0.346261,-11.7288,3.88366,2.96198,-13.6404,4.89076,-0.296483,-7.72349,2.14172,-1.70955,-2.21712,16.8611,13.462,12.8998,21.1094,6.2668,5.02212,11.2971,1.17064,3.27001e-14,3.97569e-15,0.300981,-26.2492,13.065,121.076,-62.6609,-7.25964,-47.4932,7.12502,18.6211,-76.6219,3.27001e-14,3.97569e-15,30.6155,26.1885,-20.1566,32.8639,36.3243,-28.0276,-20.021,7.12502,-1.41255,9.95406,-1.67369,3.38428,-5.91606,2.22639e-14,-33.7131,-19.9224,54.5177,-23.3439,0.186657,-28.3742,16.5415,-13.0566,9.20714,9.34499
3.96385,17.5469,3.97621,21.6044,-15.4473,-0.151282,-11.6155,3.85937,2.73193,-13.6016,4.87433,-0.348047,-7.75397,2.15078,-1.64467,-1.99262,16.768,13.5467,12.8026,21.0461,6.0384,4.98724,11.2521,1.06722,-1.39149e-14,-1.59028e-14,0.377636,-26.2479,12.8707,121.113,-62.7858,-7.50188,-47.6498,7.12502,18.3881,-76.8007,-1.39149e-14,-1.59028e-14,31.0706,26.9061,-19.3319,32.6395,35.4595,-28.2153,-20.0748,7.12502,-1.59386,9.89902,-1.69773,3.41087,-6.13633,6.36111e-15,-34.5677,-18.9155,54.713,-23.3177,0.227718,-28.5963,16.4482,-12.937,9.15033,9.20704
3.96767,17.5468,3.96636,21.4731,-15.5068,-0.00125139,-11.4336,3.83869,2.56124,-13.5629,4.86253,-0.383978,-7.81943,2.15711,-1.60032,-2.22654,16.6817,13.6113,13.2584,20.8778,5.9475,5.1828,11.1898,1.07301,2.80286e-14,1.86858e-14,0.611017,-26.1461,12.5137,121.074,-62.7285,-7.80416,-47.8783,7.12502,18.0973,-77.0564,2.80286e-14,1.86858e-14,31.6446,27.7426,-18.3361,32.3961,34.561,-28.7814,-19.9141,7.12502,-2.14064,10.0549,-1.61965,3.45168,-6.30385,-6.36111e-15,-34.657,-18.8699,54.6425,-23.2369,0.26363,-28.7804,16.4168,-13.016,9.11664,9.19333
3.97372,17.5478,3.9581,21.4299,-15.5669,-0.078644,-11.2852,3.88133,2.64559,-13.524,4.92042,-0.38932,-7.84775,2.17837,-1.65776,-2.71694,16.6131,13.4721,13.9456,20.6572,6.17981,5.43683,11.1224,1.22159,-3.75703e-14,-2.62396e-14,0.648392,-26.0491,12.3828,121.061,-62.4543,-7.91078,-47.7469,7.12502,17.9947,-76.9345,-3.75703e-14,-2.62396e-14,31.8312,27.9772,-18.0236,32.4029,34.591,-29.1161,-19.921,7.12502,-2.46388,10.0446,-1.62634,3.55504,-6.24913,-2.22639e-14,-34.0509,-19.9714,54.3851,-23.2203,0.35855,-28.746,16.4592,-13.0723,9.12065,9.39965
3.97597,17.5484,3.94987,21.4177,-15.6126,-0.245845,-11.2588,3.94248,2.80443,-13.4346,4.99363,-0.383372,-7.74556,2.20476,-1.73247,-2.83082,16.494,13.4582,14.1316,20.4748,6.14368,5.5124,11.0396,1.21932,-8.74653e-15,0,0.585407,-26.0824,12.3516,121.041,-62.1981,-7.92056,-47.5754,7.12502,17.9853,-76.7639,-8.74653e-15,0,31.8232,28.002,-18.052,32.4587,34.7639,-28.5914,-19.9487,7.12502,-1.95714,10.0221,-1.65135,3.67374,-6.08637,-3.18055e-15,-33.5977,-20.6324,54.2303,-23.2762,0.443154,-28.5848,16.5881,-13.0999,9.12628,9.60053
3.97584,17.5488,3.94348,21.3606,-15.5789,-0.381268,-11.3133,3.95106,2.92041,-13.2654,4.99552,-0.352175,-7.51662,2.20427,-1.75128,-2.93271,16.399,13.5325,14.197,20.3497,5.91239,5.57829,10.9711,1.14989,-1.799e-14,-2.18663e-14,0.708537,-26.3046,12.1254,120.973,-62.0483,-7.98919,-47.5291,7.12502,17.9192,-76.7235,-1.799e-14,-2.18663e-14,31.7144,28.2084,-18.1134,32.4573,34.7224,-27.7492,-20.1801,7.12502,-1.14365,9.79654,-1.56343,3.73256,-5.9135,-9.54166e-15,-33.7827,-20.2132,54.3472,-23.3113,0.395427,-28.4046,16.7827,-13.1686,9.18589,9.71606
3.97838,17.5496,3.94147,21.3845,-15.5548,-0.529292,-11.4906,3.97638,3.06957,-13.101,5.01112,-0.325065,-7.22306,2.20923,-1.78344,-3.19415,16.3162,13.4941,14.3883,20.2033,5.80602,5.68472,10.9004,1.14675,4.17448e-15,1.59028e-15,0.833076,-26.4385,11.8949,120.956,-61.9837,-8.4465,-47.4283,7.12502,17.4792,-76.6624,4.17448e-15,1.59028e-15,31.2559,27.9312,-18.7183,32.6521,35.2701,-27.6219,-20.5207,7.12502,-1.02071,9.45656,-1.55723,3.7689,-5.74115,0,-34.133,-19.7324,54.4802,-23.3856,0.362362,-28.2432,16.9528,-13.0468,9.27564,9.48177
3.98232,17.5503,3.93751,21.4514,-15.5797,-0.634163,-11.5984,4.01688,3.18608,-13.0429,5.0518,-0.322834,-7.08767,2.22377,-1.83216,-3.32502,16.1997,13.3867,14.5749,20.0261,5.8102,5.74901,10.8181,1.16596,6.80837e-15,5.1684e-15,0.923531,-26.3016,11.7531,120.938,-61.8779,-8.4561,-47.3959,7.12502,17.4699,-76.6309,6.80837e-15,5.1684e-15,30.7784,27.3273,-19.4557,32.9456,36.0898,-28.0509,-20.3044,7.12502,-1.43509,9.67054,-1.64848,3.80787,-5.64115,1.27222e-14,-33.9367,-20.0838,54.3384,-23.4987,0.368854,-28.1491,17.0571,-13.3323,9.32023,9.99581
3.9866,17.553,3.92182,21.4128,-15.6082,-0.629423,-11.4559,4.00981,3.18378,-12.9714,5.04852,-0.329546,-7.08451,2.223,-1.84496,-3.28614,16.1139,13.2787,14.5131,19.9337,5.76663,5.71269,10.7629,1.14859,-2.81777e-14,1.19271e-14,1.10911,-26.3345,11.4993,120.843,-61.6621,-7.63626,-47.4876,7.12502,18.2588,-76.6506,-2.81777e-14,1.19271e-14,30.4584,27.163,-19.8334,33.1323,36.6043,-28.4663,-19.794,7.12502,-1.83626,10.1779,-1.6891,3.84819,-5.63305,-1.27222e-14,-33.6453,-20.614,54.1829,-23.5838,0.468706,-28.1734,17.1467,-13.4145,9.22946,10.0609
3.99238,17.5544,3.91152,21.3314,-15.631,-0.620107,-11.431,4.01619,3.22598,-12.7753,5.05224,-0.350006,-6.87121,2.22771,-1.88195,-3.34793,16.0637,13.155,14.3592,19.884,5.66919,5.66786,10.7202,1.12519,-3.37437e-14,-7.95139e-15,1.28926,-26.5817,11.1383,120.722,-61.5194,-7.30843,-47.5022,7.12502,18.5742,-76.6354,-3.37437e-14,-7.95139e-15,30.152,27.2775,-20.0699,33.3213,37.0401,-28.4624,-19.7207,7.12502,-1.83254,10.2512,-1.65813,3.89993,-5.62899,-1.59028e-14,-33.8473,-20.5593,54.2652,-23.5786,0.569035,-28.2139,17.2139,-13.398,9.14269,9.95596
3.99779,17.5521,3.91939,21.3591,-15.679,-0.741696,-11.7061,4.069,3.39456,-12.5901,5.09547,-0.328591,-6.4999,2.24757,-1.92081,-3.7341,16.0393,12.7948,14.5919,19.7855,5.87674,5.74349,10.679,1.26072,2.3556e-14,-1.59028e-15,1.4598,-26.6708,10.8373,120.63,-61.5341,-7.74365,-47.5337,7.12502,18.1555,-76.7063,2.3556e-14,-1.59028e-15,29.9697,27.3612,-20.1352,33.4613,37.3696,-28.3943,-20.1078,7.12502,-1.76672,9.86462,-1.66064,3.98164,-5.53256,1.59028e-14,-34.0976,-20.3471,54.2925,-23.5438,0.603758,-28.1342,17.2278,-13.3926,9.19814,9.67962
3.99935,17.5525,3.92053,21.4219,-15.764,-0.84756,-11.8954,4.11925,3.45209,-12.5084,5.14789,-0.299429,-6.30102,2.27628,-1.90064,-4.07255,16.018,12.4099,14.9652,19.6792,6.227,5.84049,10.6479,1.44328,-1.74931e-14,-6.36111e-15,1.58799,-26.6732,10.6725,120.572,-61.5739,-7.82854,-47.6188,7.12502,18.0738,-76.7991,-1.74931e-14,-6.36111e-15,30.3734,27.91,-19.399,33.3085,36.891,-28.5038,-20.4651,7.12502,-1.87247,9.50643,-1.75509,4.07399,-5.45226,3.18055e-15,-34.2188,-20.2671,54.2156,-23.5865,0.668019,-28.0565,17.2304,-13.3528,9.22264,9.69646
3.99658,17.5556,3.90571,21.3651,-15.8817,-0.823857,-11.7638,4.13474,3.32424,-12.506,5.18318,-0.315507,-6.37598,2.30165,-1.85418,-3.96728,15.9436,12.4179,15.1644,19.5809,6.26754,5.88257,10.6112,1.44788,3.77691e-15,0,1.68996,-26.6258,10.4776,120.545,-61.537,-7.3769,-47.6895,7.12502,18.5083,-76.829,3.77691e-15,0,31.1564,28.7693,-18.1788,33.0232,35.8717,-28.1095,-20.4911,7.12502,-1.49165,9.4834,-1.83944,4.19013,-5.48167,-1.90833e-14,-34.6416,-19.8327,54.3365,-23.6051,0.64511,-28.0504,17.2401,-13.3006,9.28945,10.1001
3.99359,17.5577,3.89027,21.2921,-15.9383,-0.811189,-11.5446,4.11393,3.22297,-12.5748,5.17376,-0.321982,-6.58023,2.29914,-1.82529,-3.82948,15.8392,12.4279,15.5443,19.4226,6.42829,5.96513,10.561,1.48938,3.28492e-14,2.14687e-14,1.89771,-26.5367,10.1227,120.525,-61.494,-6.97426,-47.9076,7.12502,18.8956,-77.0098,3.28492e-14,2.14687e-14,31.26,28.7558,-18.0297,33.0832,35.9922,-27.4146,-20.2376,7.12502,-0.820564,9.74053,-1.87175,4.26704,-5.47231,1.90833e-14,-34.7439,-19.9402,54.3198,-23.5871,0.586735,-28.0192,17.2312,-13.2446,9.37057,10.3116
3.99305,17.5598,3.88016,21.2965,-15.9173,-0.864717,-11.4566,4.0875,3.22394,-12.6408,5.14446,-0.302621,-6.70577,2.28159,-1.81697,-3.87712,15.6934,12.3556,16.0521,19.1821,6.58676,6.10962,10.4731,1.5563,-1.83876e-15,9.54166e-15,2.18719,-26.4683,9.73725,120.442,-61.4297,-6.87919,-48.0483,7.12502,18.987,-77.1416,-1.83876e-15,9.54166e-15,30.8835,28.1893,-18.5898,33.3548,36.8993,-27.1447,-20.2154,7.12502,-0.559813,9.76362,-1.90134,4.27409,-5.37866,-2.22639e-14,-34.1318,-21.0743,53.8689,-23.6405,0.628669,-27.9534,17.2645,-13.1612,9.35301,10.3131
3.99368,17.5606,3.87458,21.2769,-15.9546,-0.899235,-11.4707,4.07996,3.21848,-12.6258,5.13441,-0.276841,-6.68457,2.27867,-1.78584,-3.67604,15.4996,12.5437,16.1736,18.9858,6.19424,6.16959,10.3659,1.39563,-6.81831e-14,-4.37326e-14,2.47601,-26.2967,9.42097,120.323,-61.3383,-7.08569,-48.0221,7.12502,18.7884,-77.1348,-6.81831e-14,-4.37326e-14,30.6674,27.879,-18.8199,33.5189,37.2884,-27.7666,-20.5468,7.12502,-1.16048,9.42977,-1.91588,4.33074,-5.34023,-2.22639e-14,-33.8227,-21.5824,53.6339,-23.6947,0.706758,-27.9409,17.3921,-13.1859,9.36823,10.2371
3.99631,17.5611,3.87259,21.3193,-16.0333,-1.07407,-11.548,4.13027,3.35822,-12.5734,5.18906,-0.22875,-6.57482,2.30031,-1.80036,-3.52867,15.3526,12.5874,16.2222,18.8359,5.97539,6.18287,10.2826,1.30406,-5.27276e-14,-3.89618e-14,2.61586,-26.0528,9.23252,120.291,-61.3614,-7.46371,-48.1137,7.12502,18.4248,-77.2611,-5.27276e-14,-3.89618e-14,30.6862,27.9595,-18.6966,33.5357,37.1418,-28.0984,-20.7909,7.12502,-1.48093,9.18375,-1.98627,4.45653,-5.19701,-1.59028e-14,-33.9259,-21.4822,53.7136,-23.7666,0.819302,-27.811,17.5549,-13.3178,9.40125,9.99357
4.00072,17.5622,3.87099,21.4423,-16.1121,-1.35769,-11.5996,4.23844,3.62459,-12.5586,5.31355,-0.201999,-6.50597,2.34509,-1.90538,-3.63328,15.2193,12.4225,16.4507,18.6237,6.12381,6.23768,10.1911,1.36776,-3.38928e-14,1.39149e-14,2.59812,-25.8826,9.09173,120.284,-61.2689,-7.83867,-48.2447,7.12502,18.0641,-77.4259,-3.38928e-14,1.39149e-14,31.0536,28.4256,-18.1477,33.4429,36.8416,-27.2391,-20.7702,7.12502,-0.651038,9.20857,-2.14622,4.59766,-4.94419,6.36111e-15,-33.9491,-21.7092,53.6983,-23.9165,0.871705,-27.5491,17.7342,-13.4142,9.49904,9.8036
4.00411,17.5607,3.86596,21.4442,-16.1662,-1.37483,-11.5489,4.26562,3.66056,-12.5897,5.34935,-0.232956,-6.56076,2.35702,-1.96036,-3.49032,15.0754,12.3598,16.5693,18.4495,6.1421,6.24009,10.1098,1.35838,-3.38431e-14,-2.06736e-14,2.72283,-25.7931,8.78301,120.193,-61.006,-8.35551,-48.2663,7.12502,17.5667,-77.4926,-3.38431e-14,-2.06736e-14,31.3149,28.6343,-17.7332,33.4654,36.9445,-26.5168,-20.5863,7.12502,0.0465948,9.39339,-2.22138,4.65182,-4.93084,0,-34.2978,-21.5181,53.8417,-24.0281,0.819389,-27.5339,17.9243,-13.4767,9.59886,9.74015
4.00785,17.5601,3.85866,21.3881,-16.1121,-1.35748,-11.3858,4.18357,3.66578,-12.67,5.25087,-0.208463,-6.74773,2.30226,-1.96008,-3.24637,15.0142,12.3952,16.892,18.3862,6.16303,6.30536,10.0952,1.35275,-7.65321e-15,-1.90833e-14,3.0807,-25.6417,8.28806,120.088,-60.8653,-8.78659,-48.2481,7.12502,17.1519,-77.5111,-7.65321e-15,-1.90833e-14,31.1636,28.4383,-17.7887,33.6823,37.4963,-26.0041,-20.6079,7.12502,0.541783,9.37115,-2.17298,4.62313,-4.91135,9.54166e-15,-34.9058,-20.7626,54.2089,-24.0558,0.822207,-27.5604,18.0609,-13.5521,9.55818,9.55619
4.01141,17.5636,3.84989,21.363,-16.0622,-1.48656,-11.1491,4.1208,3.7726,-12.7501,5.17784,-0.148028,-6.96992,2.25297,-1.9809,-3.56647,15.0175,12.1288,17.7753,18.25,6.70357,6.56673,10.0892,1.60743,-4.74598e-14,-2.62396e-14,3.3621,-25.4305,7.88248,120.05,-60.8893,-8.95719,-48.1982,7.12502,16.9876,-77.4754,-4.74598e-14,-2.62396e-14,31.1948,28.5012,-17.5564,33.8206,37.5535,-25.5963,-20.8322,7.12502,0.935671,9.14547,-2.15595,4.64993,-4.74908,-3.18055e-15,-35.1083,-20.5889,54.3903,-24.0465,0.771895,-27.4044,18.1124,-13.5602,9.60918,9.56412
4.01265,17.5657,3.83995,21.3269,-16.1086,-1.49712,-11.0089,4.11768,3.75253,-12.7802,5.18205,-0.176132,-7.0794,2.25215,-2.01077,-4.0989,14.9409,11.5527,18.6218,17.9578,7.51878,6.79329,10.0115,1.98132,4.33848e-14,1.39149e-14,3.38209,-25.2963,7.77087,120.092,-61.042,-8.96855,-48.1304,7.12502,16.9767,-77.4085,4.33848e-14,1.39149e-14,31.8636,29.111,-16.5675,33.588,36.5441,-25.8006,-21.1538,7.12502,0.738304,8.8247,-2.22571,4.70959,-4.74611,-3.18055e-15,-34.6805,-21.4739,54.1138,-24.0529,0.678504,-27.365,18.1352,-13.5141,9.74933,9.72893
4.01194,17.5647,3.82774,21.2962,-16.1529,-1.37943,-10.8984,4.10549,3.59339,-12.8769,5.18027,-0.229828,-7.25641,2.25605,-1.9927,-3.86346,14.7407,11.4308,18.8631,17.7006,7.64647,6.8052,9.89966,2.00356,-1.20265e-14,1.59028e-15,3.4117,-25.1203,7.66025,120.138,-61.1823,-8.7729,-48.0549,7.12502,17.165,-77.3167,-1.20265e-14,1.59028e-15,32.6957,29.7365,-15.3922,33.2584,35.3481,-25.4552,-21.3837,7.12502,1.0719,8.59335,-2.28951,4.70836,-4.87265,-1.59028e-14,-34.4708,-21.8743,53.9164,-24.1023,0.630243,-27.4735,18.1589,-13.4597,9.82926,9.67009
4.01022,17.5653,3.81127,21.3036,-16.213,-1.35147,-10.6862,4.09102,3.46904,-13.0353,5.18224,-0.219521,-7.56361,2.25835,-1.93666,-3.39057,14.5558,11.6099,18.9816,17.5371,7.39639,6.80349,9.81621,1.86163,2.90723e-14,1.70955e-14,3.56213,-24.8511,7.42738,120.165,-61.2096,-8.46949,-48.0182,7.12502,17.457,-77.2544,2.90723e-14,1.70955e-14,32.8841,29.7333,-15.0092,33.3176,35.18,-25.329,-21.1659,7.12502,1.19379,8.81055,-2.38102,4.74523,-4.90758,1.27222e-14,-34.9001,-21.284,54.1097,-24.1886,0.522976,-27.4582,18.1774,-13.3492,9.99912,9.57324
4.00984,17.5681,3.79895,21.297,-16.3152,-1.47761,-10.4428,4.09954,3.50132,-13.1146,5.20829,-0.172836,-7.7897,2.26424,-1.92557,-3.21914,14.4395,11.704,19.2052,17.4212,7.18809,6.87484,9.75903,1.77798,-7.65321e-15,-1.27222e-14,3.71152,-24.6363,7.21741,120.211,-61.1701,-8.28292,-48.2194,7.12502,17.6366,-77.4395,-7.65321e-15,-1.27222e-14,32.5097,29.2811,-15.4244,33.6457,36.0449,-26.4673,-20.745,7.12502,0.0943896,9.23472,-2.46149,4.8918,-4.80692,-1.27222e-14,-35.3881,-20.7041,54.4151,-24.2131,0.445054,-27.294,18.2143,-13.0384,10.2354,8.84283
4.01165,17.5696,3.79384,21.2342,-16.3379,-1.56845,-10.2833,4.0687,3.58186,-13.0914,5.17269,-0.140402,-7.85102,2.23949,-1.94774,-2.98274,14.3387,11.8645,19.2423,17.373,6.77418,6.89952,9.71484,1.61477,3.80673e-14,1.59028e-14,3.9053,-24.5198,6.96092,120.207,-61.0899,-8.44895,-48.3593,7.12502,17.4768,-77.5937,3.80673e-14,1.59028e-14,32.1749,29.0048,-15.7879,33.9031,36.9359,-27.3143,-20.606,7.12502,-0.72367,9.37248,-2.41688,4.9778,-4.71843,-6.36111e-15,-35.6516,-20.353,54.6446,-24.1689,0.464358,-27.2039,18.2883,-13.3408,10.2766,9.55304
4.01552,17.5695,3.78727,21.1832,-16.2626,-1.59045,-10.3685,4.03276,3.68727,-12.9175,5.11145,-0.144105,-7.60085,2.20807,-1.99791,-2.75726,14.2321,11.9698,19.0379,17.3398,6.29225,6.84633,9.65991,1.42555,-4.83544e-14,-5.32743e-14,4.15091,-24.6558,6.61101,120.111,-61.0586,-8.64701,-48.2623,7.12502,17.2862,-77.5136,-4.83544e-14,-5.32743e-14,32.1439,29.3244,-15.6335,33.9753,37.0071,-27.3343,-20.7015,7.12502,-0.742973,9.27699,-2.34781,4.94446,-4.66862,-2.54444e-14,-35.4269,-20.6845,54.5006,-24.1662,0.481818,-27.185,18.3692,-13.3743,10.2156,9.55049
4.02016,17.5704,3.77745,21.2154,-16.2825,-1.68091,-10.5454,4.06971,3.82942,-12.7263,5.13958,-0.147513,-7.27374,2.22112,-2.05636,-2.55373,14.1027,11.9771,18.7986,17.2561,5.95353,6.76119,9.58476,1.28567,-2.28105e-14,-3.49861e-14,4.40174,-24.9301,6.25901,120.007,-61.1707,-8.54571,-48.2886,7.12502,17.3837,-77.5312,-2.28105e-14,-3.49861e-14,32.2489,29.8773,-15.2435,34.0049,36.5559,-27.1494,-20.7564,7.12502,-0.564397,9.22257,-2.42676,4.98685,-4.59765,-2.54444e-14,-35.05,-21.4028,54.216,-24.2224,0.46804,-27.0968,18.3803,-13.3493,10.2384,9.54064
4.02184,17.5717,3.7626,21.1563,-16.4139,-1.68331,-10.427,4.10008,3.77159,-12.6468,5.18828,-0.146776,-7.25075,2.25214,-2.02629,-2.25414,13.9439,12.0147,18.6176,17.1296,5.68248,6.67502,9.499,1.1546,6.60959e-15,5.1684e-15,4.62462,-25.0706,5.96403,119.91,-61.1927,-7.949,-48.4723,7.12502,17.9579,-77.6633,6.60959e-15,5.1684e-15,32.0462,29.8711,-15.3221,34.2887,36.9913,-27.414,-20.7418,7.12502,-0.819977,9.23639,-2.49557,5.12365,-4.64478,1.27222e-14,-35.1035,-21.4786,54.2192,-24.1796,0.454631,-27.0941,18.3107,-13.283,10.3294,9.75491
4.01918,17.5733,3.7371,20.9094,-16.466,-1.47246,-10.0096,4.03734,3.44927,-12.5563,5.14068,-0.184892,-7.40266,2.25073,-1.91833,-2.0682,13.8092,12.0416,18.4441,17.0169,5.42767,6.60801,9.42101,1.04105,3.32964e-15,5.96354e-15,4.76057,-25.1419,5.74292,119.859,-61.0928,-7.27275,-48.5482,7.12502,18.6085,-77.6782,3.32964e-15,5.96354e-15,31.6468,29.5131,-15.8134,34.7264,38.5765,-27.7025,-20.6337,7.12502,-1.09857,9.34319,-3.72403,5.18815,-4.74946,2.45165,-34.5947,-20.4952,54.2332,-24.0248,0.402614,-27.257,18.2158,-13.1064,10.3487,10.0809
4.01614,17.5753,3.71234,20.7432,-16.45,-1.28401,-9.69145,3.9656,3.15131,-12.4842,5.07168,-0.237582,-7.51911,2.23668,-1.83311,-1.95688,13.7019,12.0499,18.3629,16.9107,5.2835,6.57253,9.35655,0.974393,4.64162e-14,5.1684e-15,4.84317,-25.0579,5.58333,119.863,-60.9881,-7.31021,-48.3801,7.12502,18.5725,-77.5135,4.64162e-14,5.1684e-15,31.6185,29.4857,-15.8826,34.9682,39.8695,-27.8103,-20.6337,7.12502,-1.20266,9.34263,-4.64422,5.17114,-4.8319,4.22633,-33.7869,-20.5559,54.0197,-23.9642,0.358515,-27.3904,18.1179,-12.9202,10.3175,10.1211
4.0165,17.5759,3.70226,20.7097,-16.4547,-1.24633,-9.71604,3.95776,3.06067,-12.374,5.06122,-0.266567,-7.38551,2.24204,-1.80735,-1.87718,13.5223,12.147,18.3,16.7115,5.02423,6.56348,9.24526,0.85841,7.95139e-15,-2.50469e-14,5.01938,-25.0468,5.32668,119.798,-60.8303,-7.52138,-48.3184,7.12502,18.3693,-77.4711,7.95139e-15,-2.50469e-14,31.857,29.8707,-15.5245,34.9776,40.1436,-28.1693,-20.9136,7.12502,-1.5494,9.06054,-5.37447,5.17793,-4.82779,5.51357,-32.8331,-21.253,53.572,-23.9345,0.37236,-27.4249,18.015,-12.8358,10.3064,9.89781
4.01808,17.5769,3.69557,20.6997,-16.5452,-1.27888,-9.8511,3.98792,3.04858,-12.1867,5.09211,-0.27962,-7.09791,2.26658,-1.79448,-2.58917,13.3188,11.9039,18.8896,16.3065,5.16931,6.82781,9.06664,0.980138,-4.10987e-14,-2.04748e-14,5.29949,-25.2882,4.9251,119.655,-60.7141,-7.41172,-48.417,7.12502,18.4748,-77.5597,-4.10987e-14,-2.04748e-14,32.0937,30.4683,-15.0681,34.9101,39.9196,-28.2416,-21.1675,7.12502,-1.61926,8.80605,-5.86192,5.27452,-4.82165,6.29299,-32.3098,-21.591,53.2746,-23.9309,0.444822,-27.421,17.9947,-12.8284,10.3213,9.88072
4.01896,17.579,3.68218,20.6993,-16.675,-1.28434,-9.89958,4.02186,2.99121,-12.0709,5.13461,-0.31041,-6.94057,2.29585,-1.78427,-4.14661,13.2319,11.0275,20.4598,15.8071,6.28372,7.42548,8.91355,1.58217,6.36111e-15,1.64991e-14,5.47369,-25.3998,4.59512,119.538,-60.6396,-7.56832,-48.2714,7.12502,18.3242,-77.4283,6.36111e-15,1.64991e-14,32.4616,31.1166,-14.3929,34.8389,39.4839,-28.0201,-21.2491,7.12502,-1.40529,8.72604,-6.13082,5.38624,-4.87568,6.55396,-32.4016,-21.4592,53.3615,-24.0577,0.571852,-27.4524,18.1305,-12.8902,10.2913,10.0787
4.02387,17.5799,3.67091,20.7153,-16.6326,-1.41682,-9.96735,4.02999,3.16484,-11.9703,5.13261,-0.305855,-6.77772,2.28627,-1.86508,-5.06811,13.224,10.3182,21.5579,15.5465,7.17958,7.80847,8.85515,2.0539,-9.44227e-15,-6.36111e-15,5.51821,-25.3872,4.45026,119.535,-60.5717,-7.86527,-48.0775,7.12502,18.0385,-77.2611,-9.44227e-15,-6.36111e-15,32.765,31.6256,-13.8329,34.7755,39.1859,-27.9538,-21.3986,7.12502,-1.34132,8.57696,-6.22845,5.39978,-4.74412,6.62485,-32.1557,-22.0946,53.1443,-24.1858,0.711485,-27.3542,18.3337,-12.9346,10.1781,10.069
4.03196,17.579,3.66126,20.7519,-16.5103,-1.66547,-10.0304,4.0195,3.51664,-11.8554,5.09805,-0.258349,-6.59463,2.24956,-2.00019,-5.02778,13.1534,10.1861,21.7805,15.4561,7.20891,7.86019,8.81163,2.07999,2.36057e-14,-9.93923e-15,5.75486,-25.4602,4.17398,119.513,-60.4578,-8.06494,-48.1016,7.12502,17.8464,-77.3027,2.36057e-14,-9.93923e-15,32.6493,31.6401,-13.9168,34.8463,39.622,-28.433,-21.6488,7.12502,-1.80409,8.32331,-6.20493,5.38657,-4.47534,6.59343,-32.1236,-22.2664,53.1038,-24.2912,0.870374,-27.1375,18.5263,-12.9794,9.99077,10.1189
4.03626,17.5753,3.65409,20.7565,-16.524,-1.66269,-10.0908,4.0081,3.55966,-11.8074,5.07551,-0.277743,-6.50396,2.23671,-2.03869,-5.00071,13.0478,10.1753,22.0238,15.3241,7.11744,7.9425,8.74721,2.05222,7.10655e-15,-1.43125e-14,6.16888,-25.4421,3.68425,119.362,-60.2273,-8.53021,-48.0416,7.12502,17.3986,-77.283,7.10655e-15,-1.43125e-14,32.6286,31.5631,-13.9023,34.9218,39.9073,-29.0117,-21.5885,7.12502,-2.36298,8.37813,-6.43393,5.39157,-4.5112,7.02723,-33.1224,-20.3153,53.869,-24.3627,0.927465,-27.1699,18.5969,-13.0132,9.91723,10.1007
4.03882,17.5697,3.66292,20.7386,-16.5865,-1.50731,-10.3286,3.99784,3.45524,-11.7732,5.05102,-0.343614,-6.33771,2.23336,-2.0329,-4.89453,12.9831,10.1982,22.1796,15.2628,7.0078,7.98691,8.71448,2.01001,1.87355e-14,1.49089e-14,6.51734,-25.2256,3.23558,119.178,-59.9257,-8.70723,-47.9216,7.12502,17.2282,-77.1779,1.87355e-14,1.49089e-14,33.004,31.8407,-13.299,34.8995,39.5929,-28.628,-21.0776,7.12502,-1.99244,8.89283,-6.61795,5.37747,-4.73723,7.38419,-33.0729,-20.1274,53.8128,-24.3669,0.926938,-27.3844,18.6504,-13.0759,9.95453,9.80288
4.03369,17.572,3.62178,20.4751,-16.8203,-1.11338,-9.70905,3.91667,2.82306,-11.8462,5.00279,-0.401762,-6.80519,2.24343,-1.79677,-4.53371,12.8384,10.2546,22.1875,15.1529,6.7578,7.94974,8.64339,1.88656,-5.07398e-14,-6.36111e-15,6.78504,-25.0253,2.89798,119.051,-59.7252,-8.48872,-47.8569,7.12502,17.4385,-77.0946,-5.07398e-14,-6.36111e-15,32.9897,31.7906,-13.1885,35.0907,39.9606,-28.2024,-20.6561,7.12502,-1.58136,9.31776,-6.94667,5.52234,-5.13643,7.75895,-32.5068,-21.1734,53.3219,-24.4007,0.944982,-27.7525,18.6521,-12.8991,10.0225,9.812
4.03663,17.5705,3.62152,20.4506,-16.8786,-1.13853,-9.7928,3.92128,2.8296,-11.8114,5.00522,-0.373522,-6.72204,2.24735,-1.76306,-4.31843,12.5757,10.229,22.3221,14.8571,6.54738,7.96665,8.48598,1.78625,4.89507e-14,2.34566e-14,7.00833,-24.9781,2.66115,118.993,-59.6917,-8.47701,-47.6439,7.12502,17.4498,-76.8807,4.89507e-14,2.34566e-14,32.8853,31.7031,-13.1215,35.2901,40.2992,-28.4457,-20.642,7.12502,-1.81633,9.33006,-7.21022,5.59108,-5.14613,8.22802,-31.9484,-21.6852,52.9993,-24.3707,1.06006,-27.7805,18.6594,-12.9398,9.98796,9.94739
4.04264,17.5712,3.61797,20.5629,-16.9085,-1.35702,-9.92052,3.98386,3.04572,-11.7546,5.07399,-0.315934,-6.57385,2.27183,-1.8063,-4.42703,12.3557,10.0431,22.5684,14.5583,6.51611,8.04913,8.33498,1.79259,6.31141e-15,2.24627e-14,7.29732,-25.1173,2.35654,118.909,-59.6763,-8.15809,-47.629,7.12502,17.7567,-76.8383,6.31141e-15,2.24627e-14,33.4455,32.3675,-12.0455,35.2258,39.4816,-28.2287,-20.6492,7.12502,-1.60677,9.3245,-7.5672,5.66175,-4.97212,8.67777,-31.4141,-22.2074,52.6647,-24.4709,1.10158,-27.588,18.7264,-12.9749,10.0286,10.189
4.0488,17.5744,3.59682,20.5851,-16.9018,-1.4991,-9.69361,4.01477,3.16915,-11.723,5.12132,-0.291911,-6.65484,2.28623,-1.86165,-4.98445,12.2401,9.52123,23.1709,14.2906,6.92223,8.27014,8.22426,2.03624,2.44505e-14,-6.55989e-15,7.62044,-25.2738,1.97752,118.851,-59.7584,-7.53212,-47.996,7.12502,18.359,-77.1496,2.44505e-14,-6.55989e-15,34.175,33.1379,-10.8151,35.1262,38.5558,-27.9246,-20.8151,7.12502,-1.3131,9.16063,-7.62774,5.71041,-4.82296,8.58879,-30.8334,-23.3918,52.2037,-24.6788,1.09885,-27.4223,18.9644,-12.9995,10.0311,10.4518
4.05567,17.5747,3.59121,20.5788,-16.7672,-1.61917,-9.69745,4.0152,3.38783,-11.62,5.11009,-0.29742,-6.52168,2.26835,-1.98286,-5.5455,12.0884,8.99914,23.7641,13.9721,7.34178,8.49141,8.09042,2.28136,-2.75814e-14,2.38542e-15,7.7575,-25.3514,1.76126,118.918,-60.1044,-7.53513,-48.2755,7.12502,18.3561,-77.4294,-2.75814e-14,2.38542e-15,34.2998,33.207,-10.5849,35.2746,38.8154,-28.5936,-21.1333,7.12502,-1.95923,8.83748,-7.6176,5.65142,-4.6503,8.62061,-29.4584,-25.3313,51.2051,-24.758,1.10942,-27.3033,19.1763,-13.0667,9.95929,10.3983
4.05995,17.5732,3.59055,20.6376,-16.7011,-1.7614,-9.90095,4.02799,3.58884,-11.5122,5.10506,-0.291305,-6.27543,2.25833,-2.06727,-5.64275,11.8853,8.72992,23.9967,13.6896,7.41571,8.55721,7.94874,2.33272,-5.54112e-14,-2.76311e-14,7.8395,-25.3467,1.62045,118.973,-60.3278,-7.87076,-48.2454,7.12502,18.0332,-77.4294,-5.54112e-14,-2.76311e-14,33.9047,32.8446,-11.058,35.7066,39.9726,-29.2655,-21.161,7.12502,-2.60813,8.80284,-7.75685,5.63226,-4.49483,8.82602,-28.8949,-25.928,50.7609,-24.8444,1.12095,-27.1777,19.3386,-13.1463,9.97018,10.145
4.06035,17.573,3.57205,20.5947,-16.7359,-1.73343,-9.75923,4.00054,3.49056,-11.5249,5.08111,-0.288076,-6.37665,2.25112,-2.02204,-5.4885,11.6837,8.62843,24.1898,13.4542,7.31935,8.59268,7.82448,2.29169,-8.11787e-14,-4.1546e-14,8.07639,-25.1537,1.31827,118.934,-60.1002,-8.1373,-48.0754,7.12502,17.7767,-77.2828,-8.11787e-14,-4.1546e-14,33.6913,32.6742,-11.1825,36.125,40.8462,-29.3641,-21.2782,7.12502,-2.7033,8.68438,-7.88462,5.67016,-4.51391,8.96483,-29.6663,-25.1263,51.3645,-24.9852,1.08686,-27.1811,19.5232,-13.1579,10.0291,10.193
4.06338,17.5721,3.54999,20.5097,-16.6873,-1.67865,-9.4963,3.96367,3.4371,-11.5671,5.04768,-0.323263,-6.57158,2.23177,-2.05206,-5.48684,11.498,8.70057,24.5436,13.2183,7.11465,8.73504,7.70873,2.21302,-5.01931e-15,3.18055e-15,8.32177,-24.9513,0.947457,118.805,-59.8175,-8.54315,-47.9195,7.12502,17.3862,-77.1619,-5.01931e-15,3.18055e-15,33.6072,32.503,-11.2068,36.519,41.6187,-29.6314,-21.7657,7.12502,-2.96154,8.19344,-7.95502,5.64212,-4.52806,9.17287,-30.6669,-23.8878,52.1123,-25.1078,1.0122,-27.1912,19.7123,-13.1755,10.0039,10.7918
4.0699,17.5704,3.53501,20.4984,-16.6259,-1.81677,-9.36508,3.97723,3.64266,-11.5565,5.063,-0.333863,-6.61567,2.22269,-2.18429,-5.42581,11.3957,8.32812,24.5863,13.048,7.48936,8.67843,7.63482,2.36464,1.01132e-14,7.15625e-15,8.5746,-24.8892,0.618092,118.648,-59.8243,-8.81217,-47.9977,7.12502,17.1272,-77.2628,1.01132e-14,7.15625e-15,33.6813,32.3988,-11.0659,36.776,41.7672,-29.6207,-21.9562,7.12502,-2.95119,8.00308,-8.07952,5.65399,-4.3709,9.47998,-31.3692,-22.7028,52.5506,-25.2173,1.00671,-27.0384,19.8984,-13.2575,9.99192,10.9262
4.07514,17.5691,3.52378,20.4773,-16.6985,-1.96855,-9.28737,4.01694,3.78095,-11.4838,5.11406,-0.300368,-6.568,2.24162,-2.22507,-5.98846,10.906,8.6616,25.2381,12.4425,6.55322,9.09825,7.30361,2.02982,-1.9953e-14,-2.78299e-14,8.83042,-24.8504,0.32006,118.589,-59.8593,-8.99313,-48.0965,7.12502,16.953,-77.3766,-1.9953e-14,-2.78299e-14,34.038,32.6115,-10.4453,36.8161,41.0613,-29.02,-21.6767,7.12502,-2.37104,8.28984,-8.24758,5.78798,-4.26582,9.70979,-31.0006,-23.1332,52.1816,-25.3229,1.0574,-26.9025,20.1211,-13.3437,10.093,10.505
4.07979,17.5657,3.516,20.3959,-16.7862,-2.00609,-9.2228,4.03204,3.78514,-11.353,5.13632,-0.271303,-6.45959,2.25837,-2.19454,-6.39945,10.6657,8.53532,25.6743,12.1167,6.33299,9.3285,7.12822,1.99117,3.98315e-14,3.3197e-14,9.16782,-24.8159,-0.101166,118.486,-59.5765,-9.14951,-47.877,7.12502,16.8025,-77.17,3.98315e-14,3.3197e-14,33.8884,32.4929,-10.4817,37.0872,41.2656,-28.8512,-21.5572,7.12502,-2.20798,8.41116,-8.33762,5.9072,-4.29205,9.89872,-31.1524,-22.8324,52.202,-25.3782,1.07784,-26.8908,20.3541,-13.3894,10.1977,10.5667
4.08394,17.5624,3.50796,20.3128,-16.786,-2.05447,-9.16792,4.0054,3.82779,-11.2146,5.10046,-0.243344,-6.33843,2.24344,-2.18802,-6.57392,10.6087,8.12155,25.8723,12.0079,6.61636,9.37664,7.07407,2.15287,2.20651e-14,1.8487e-14,9.8589,-24.9551,-0.948155,118.213,-59.0656,-8.9781,-47.7536,7.12502,16.9675,-77.0324,2.20651e-14,1.8487e-14,33.4898,32.2823,-10.8458,37.5301,42.0543,-29.0986,-21.455,7.12502,-2.44692,8.51072,-8.38623,5.96048,-4.24801,10.1145,-31.137,-22.6412,52.1463,-25.3951,1.07525,-26.8485,20.5462,-13.4106,10.2586,10.8481
4.08853,17.5617,3.49597,20.3151,-16.7642,-2.11017,-9.17491,3.97,3.87084,-11.1296,5.0502,-0.218271,-6.2428,2.2197,-2.18349,-6.56373,10.5375,7.84689,26.0029,11.9206,6.72916,9.38999,7.02251,2.22539,2.90723e-14,-1.53064e-14,10.0099,-24.887,-1.12778,118.193,-58.9561,-9.08225,-47.3738,7.12502,16.8673,-76.6612,2.90723e-14,-1.53064e-14,33.4709,32.3743,-10.6659,37.8137,42.2895,-29.1227,-21.3571,7.12502,-2.47018,8.60836,-8.55358,5.81614,-4.16227,10.3409,-29.5257,-24.4996,51.0481,-25.5126,1.08144,-26.792,20.7034,-13.4458,10.2466,10.8696
4.09535,17.5633,3.47923,20.3137,-16.7239,-2.10889,-9.12086,3.94017,3.85712,-11.0741,5.0142,-0.195383,-6.21675,2.20511,-2.15517,-6.49442,10.4331,7.68378,26.114,11.81,6.69936,9.40421,6.95465,2.22781,2.48481e-16,1.76918e-14,10.3072,-25.0592,-1.3996,118.159,-59.1323,-9.00871,-47.5285,7.12502,16.9381,-76.8099,2.48481e-16,1.76918e-14,33.4841,32.323,-10.48,38.0025,42.3733,-28.8375,-21.408,7.12502,-2.19477,8.56045,-8.8098,5.57579,-4.13744,10.7042,-28.729,-25.11,50.633,-25.6509,1.00401,-26.7721,20.8064,-13.4428,10.2207,10.89
4.10094,17.5639,3.45914,20.1847,-16.7575,-2.0167,-8.95116,3.90902,3.71398,-10.9573,4.98652,-0.192479,-6.19414,2.20393,-2.08162,-6.61078,10.431,7.42022,26.2933,11.7894,6.87312,9.45635,6.94282,2.33787,-9.96408e-15,-7.55382e-15,10.7175,-25.2865,-1.80046,118.118,-59.517,-8.94252,-47.8715,7.12502,17.0018,-77.1475,-9.96408e-15,-7.55382e-15,33.5123,32.3386,-10.3077,38.1596,42.4733,-29.0503,-21.1853,7.12502,-2.40029,8.78089,-9.10024,5.43766,-4.2288,11.2926,-29.2995,-23.9539,51.289,-25.6342,0.89909,-26.8422,20.8315,-13.3766,10.2801,11.116
4.10215,17.5608,3.43426,20.0043,-16.9277,-1.81875,-8.73479,3.88611,3.37955,-10.8445,4.97808,-0.224066,-6.21178,2.22331,-1.94146,-6.925,10.4664,7.05508,26.6592,11.7825,7.18095,9.59534,6.94655,2.53285,-3.35449e-14,-3.67752e-14,10.9577,-25.38,-2.07099,118.097,-59.7674,-8.9482,-47.8014,7.12502,16.9963,-77.0779,-3.35449e-14,-3.67752e-14,33.4276,32.2249,-10.3112,38.4407,42.9146,-30.3524,-20.8244,7.12502,-3.65778,9.12401,-9.4798,5.58469,-4.48083,11.9551,-29.8524,-22.8266,51.6805,-25.5918,0.940408,-27.0637,20.828,-13.2565,10.3496,11.052
4.10044,17.5601,3.40285,19.8942,-17.1184,-1.68999,-8.47456,3.9157,3.09243,-10.8132,5.03958,-0.266232,-6.33644,2.27064,-1.84245,-6.85099,10.3316,6.80628,26.8009,11.6187,7.25156,9.60733,6.85692,2.57727,6.34372e-14,1.80894e-14,11.0531,-25.392,-2.225,118.068,-59.9748,-8.7027,-47.6549,7.12502,17.2326,-76.9108,6.34372e-14,1.80894e-14,32.9881,31.5676,-10.8772,38.9658,43.9758,-31.1307,-20.557,7.12502,-4.4093,9.37712,-9.96901,5.94729,-4.665,12.5752,-30.3517,-21.9632,51.726,-25.6781,1.01154,-27.1855,20.8467,-13.1129,10.4112,10.9178
4.10315,17.5611,3.38307,19.9235,-17.2309,-1.70554,-8.4333,3.98552,3.03623,-10.7844,5.13562,-0.294343,-6.32466,2.3225,-1.8389,-6.37413,10.1333,6.59079,26.5611,11.4319,7.21879,9.41698,6.73962,2.53189,-3.44643e-14,-2.80286e-14,11.3063,-25.4211,-2.55124,117.956,-60.1178,-8.10127,-47.7123,7.12502,17.8114,-76.9166,-3.44643e-14,-2.80286e-14,33.1269,31.5143,-10.6487,39.1908,44.1084,-29.8795,-20.2352,7.12502,-3.20105,9.7205,-10.4219,6.04096,-4.68512,13.0753,-30.8047,-21.1853,51.9732,-25.8651,1.07193,-27.1727,20.9307,-13.1914,10.3914,11.3341
4.1129,17.5579,3.37381,20.011,-17.1829,-1.70976,-8.56297,3.99054,3.06672,-10.7456,5.13517,-0.287993,-6.20799,2.32349,-1.83766,-6.01112,10.0404,6.16453,26.3945,11.3537,7.4284,9.24218,6.6807,2.62103,-4.35835e-14,-6.95746e-15,11.7864,-25.4204,-3.09737,117.773,-60.0346,-7.73252,-47.8743,7.12502,18.1662,-77.046,-4.35835e-14,-6.95746e-15,33.8349,32.1267,-9.50184,39.0862,43.3189,-28.3386,-20.2382,7.12502,-1.71295,9.7347,-10.6544,5.67965,-4.67604,13.3685,-31.2322,-20.2151,52.5889,-26.0922,1.10787,-27.2167,21.1098,-13.3608,10.2803,11.5341
4.12372,17.555,3.36354,20.0282,-17.0322,-1.81879,-8.55364,3.96049,3.25828,-10.6756,5.08897,-0.244219,-6.12806,2.29136,-1.89656,-5.96625,9.97662,5.6794,26.4735,11.2681,7.72406,9.20449,6.62773,2.78166,-3.47873e-16,1.0138e-14,12.2059,-25.3242,-3.58986,117.636,-59.7822,-8.17997,-48.0788,7.12502,17.7357,-77.29,-3.47873e-16,1.0138e-14,33.9475,32.1266,-9.17522,39.2755,43.4309,-28.0208,-20.8,7.12502,-1.40599,9.17516,-10.6939,5.3467,-4.51386,13.5454,-31.1491,-19.8889,52.7175,-26.2284,1.06616,-27.111,21.3388,-13.3401,10.2309,11.4339
4.1316,17.5534,3.35387,19.969,-16.9763,-2.02989,-8.40468,3.96515,3.52096,-10.5716,5.09265,-0.195831,-6.08119,2.27934,-1.99634,-5.75909,9.94748,5.37102,26.3363,11.2793,7.79071,9.08794,6.60723,2.82738,2.3382e-14,2.82274e-14,12.459,-25.1561,-3.90742,117.552,-59.4448,-8.64757,-48.0881,7.12502,17.2857,-77.3393,2.3382e-14,2.82274e-14,33.6948,31.722,-9.46568,39.6388,44.111,-28.4371,-21.2456,7.12502,-1.80808,8.72646,-10.7072,5.27676,-4.27638,13.7186,-30.6943,-20.3613,52.3589,-26.2616,1.07133,-26.8861,21.5679,-13.3492,10.2504,11.4496
