JuanDHNZ/ProyectoFinalCD/preprocessing/sports_trials_csv/49_14.csv
root1,root2,root3,root4,root5,root6,lowerback1,lowerback2,lowerback3,upperback1,upperback2,upperback3,thorax1,thorax2,thorax3,lowerneck1,lowerneck2,lowerneck3,upperneck1,upperneck2,upperneck3,head1,head2,head3,rclavicle1,rclavicle2,rhumerus1,rhumerus2,rhumerus3,rradius1,rwrist1,rhand1,rhand2,rfingers1,rthumb1,rthumb2,lclavicle1,lclavicle2,lhumerus1,lhumerus2,lhumerus3,lradius1,lwrist1,lhand1,lhand2,lfingers1,lthumb1,lthumb2,rfemur1,rfemur2,rfemur3,rtibia1,rfoot1,rfoot2,rtoes1,lfemur1,lfemur2,lfemur3,ltibia1,lfoot1,lfoot2,ltoes1
3.57601,17.6241,3.48123,18.6506,-17.7604,-1.37782,-9.83225,3.93126,3.79992,-12.5393,4.9748,-0.181217,-7.46601,2.12946,-2.12506,-3.25987,17.0561,12.6452,15.4175,21.4318,4.75506,6.0841,11.4338,1.12249,-8.5378e-14,-2.78299e-14,5.49727,-22.0342,12.8728,119.48,-58.6999,-8.59903,-45.8506,7.12502,17.3324,-75.0978,-8.5378e-14,-2.78299e-14,27.2775,21.5036,-24.082,32.5869,32.8848,-25.8663,-24.9733,7.12502,0.674908,5.00533,0.485464,2.59261,-3.92163,6.36111e-15,-34.2108,-17.6352,54.3339,-21.1271,-2.55921,-25.0385,17.0847,-11.9601,14.701,9.40053
3.57559,17.6247,3.47431,18.6467,-17.7204,-1.42355,-9.76297,3.91887,3.83643,-12.522,4.96122,-0.168851,-7.48446,2.12012,-2.13682,-3.1392,17.0154,12.6787,15.3109,21.4078,4.65572,6.04387,11.4141,1.07085,-4.36332e-14,-4.37326e-15,5.54597,-22.1093,12.766,119.465,-58.7124,-8.80172,-45.8178,7.12502,17.1373,-75.082,-4.36332e-14,-4.37326e-15,27.2374,21.4592,-24.1322,32.5996,32.9724,-26.4454,-25.0313,7.12502,0.11555,4.94845,0.483893,2.57846,-3.85406,-9.54166e-15,-33.8012,-18.426,54.0142,-21.1317,-2.57695,-24.9719,17.083,-11.9938,14.7105,9.61324
3.57554,17.6254,3.47033,18.6532,-17.6632,-1.42891,-9.66074,3.90247,3.83364,-12.5477,4.94622,-0.170513,-7.57142,2.11027,-2.14602,-3.22768,16.9806,12.6516,15.4192,21.3476,4.65864,6.08801,11.3873,1.0839,-3.36443e-14,-1.80894e-14,5.54278,-22.1814,12.7354,119.457,-58.7984,-8.30741,-45.8481,7.12502,17.613,-75.0703,-3.36443e-14,-1.80894e-14,27.2239,21.3351,-24.1759,32.6258,33.0357,-26.493,-25.1136,7.12502,0.0695939,4.8661,0.470733,2.5285,-3.82739,-1.59028e-14,-33.795,-18.3273,54.2543,-21.1523,-2.67414,-24.9221,17.0547,-11.8998,14.7091,9.60903
3.57447,17.6267,3.46901,18.6546,-17.6544,-1.41122,-9.53204,3.89736,3.78133,-12.6072,4.94979,-0.181167,-7.71327,2.11146,-2.14011,-3.23724,16.9417,12.6895,15.4532,21.2978,4.60483,6.10915,11.3628,1.06352,-6.60959e-15,3.37934e-15,5.51534,-22.1591,12.7233,119.477,-58.849,-7.84329,-45.9505,7.12502,18.0596,-75.1321,-6.60959e-15,3.37934e-15,27.3421,21.4108,-23.9925,32.5852,32.7335,-26.1796,-25.3202,7.12502,0.372265,4.65924,0.444874,2.51327,-3.83703,9.54166e-15,-34.2287,-17.8182,54.3944,-21.1675,-2.95532,-24.8628,17.0437,-11.7905,14.9292,9.63232
3.5738,17.6291,3.46803,18.6766,-17.6716,-1.4397,-9.53492,3.92276,3.79037,-12.5852,4.98242,-0.192939,-7.68302,2.12773,-2.15502,-3.27679,16.9082,12.6755,15.4036,21.2499,4.59133,6.09764,11.3362,1.05708,-9.44227e-16,-1.94809e-14,5.43962,-22.2194,12.748,119.479,-58.8373,-8.24353,-45.9102,7.12502,17.6745,-75.1269,-9.44227e-16,-1.94809e-14,27.6029,21.9105,-23.5227,32.4322,32.0972,-26.1303,-25.4879,7.12502,0.419863,4.49141,0.417404,2.53139,-3.80732,-3.18055e-15,-34.4375,-17.4687,54.5281,-21.1848,-3.18287,-24.7767,17.0419,-11.8226,15.1599,10.0731
3.57442,17.63,3.46675,18.6938,-17.6678,-1.46949,-9.61088,3.93516,3.83195,-12.5294,4.9921,-0.19039,-7.57405,2.13296,-2.16686,-3.33933,16.8924,12.5447,15.3837,21.2186,4.67219,6.07658,11.3192,1.09398,-5.11374e-14,-3.37934e-14,5.41234,-22.3252,12.7547,119.444,-58.8886,-8.73964,-45.7459,7.12502,17.1971,-75.0049,-5.11374e-14,-3.37934e-14,27.8612,22.5353,-22.99,32.2298,31.3781,-26.0202,-25.6096,7.12502,0.526202,4.36948,0.406099,2.53337,-3.77461,-1.27222e-14,-34.7024,-16.7196,55.0644,-21.1878,-3.18805,-24.7447,17.0188,-11.8841,15.1707,10.2428
3.57524,17.6293,3.46616,18.6735,-17.6614,-1.43232,-9.57757,3.89844,3.77743,-12.5755,4.94898,-0.165879,-7.65356,2.1142,-2.11729,-3.01977,16.8571,12.5683,15.2125,21.2362,4.56516,5.98419,11.3177,1.02214,5.92875e-14,-6.55989e-15,5.52221,-22.2534,12.6678,119.427,-58.8849,-8.29479,-45.7128,7.12502,17.6252,-74.934,5.92875e-14,-6.55989e-15,27.846,22.5518,-22.9156,32.1823,31.2096,-25.4822,-25.8284,7.12502,1.04586,4.14879,0.406593,2.52103,-3.8065,9.54166e-15,-35.1383,-15.9365,55.4847,-21.1644,-3.22905,-24.7829,16.9929,-11.8749,15.1988,10.0278
3.57544,17.6296,3.46621,18.6263,-17.6752,-1.36675,-9.42696,3.8647,3.66625,-12.6686,4.919,-0.152946,-7.85415,2.1026,-2.05848,-2.69739,16.8174,12.7026,15.0918,21.25,4.37729,5.92908,11.3163,0.919807,6.28657e-14,3.08116e-14,5.57245,-22.0941,12.598,119.457,-58.8825,-7.75038,-45.78,7.12502,18.149,-74.9533,6.28657e-14,3.08116e-14,27.6656,22.1108,-23.1947,32.3123,31.584,-24.6795,-25.9941,7.12502,1.82115,3.97785,0.414113,2.52592,-3.86416,3.18055e-15,-35.1981,-16.1512,55.3976,-21.1355,-3.32986,-24.832,16.9958,-11.9074,15.2765,10.1887
3.57548,17.6306,3.46641,18.6043,-17.6855,-1.40849,-9.32742,3.87395,3.68987,-12.683,4.93681,-0.144511,-7.92446,2.10797,-2.06957,-2.7158,16.7865,12.7061,15.1407,21.2118,4.32817,5.95229,11.2966,0.906969,-3.98563e-14,1.39149e-15,5.56556,-22.0456,12.521,119.457,-58.9303,-7.87532,-45.6842,7.12502,18.0288,-74.8686,-3.98563e-14,1.39149e-15,27.5874,21.9936,-23.2945,32.3708,31.6742,-23.9835,-26.1622,7.12502,2.49325,3.803,0.40822,2.56171,-3.80635,9.54166e-15,-34.8942,-17.116,55.0278,-21.0956,-3.19329,-24.8193,16.995,-11.9127,15.1897,10.1364
3.57653,17.6317,3.46519,18.6245,-17.6727,-1.51218,-9.32869,3.89451,3.79489,-12.6538,4.96107,-0.120936,-7.88406,2.11389,-2.10013,-2.80011,16.7614,12.6066,15.2249,21.1628,4.39087,5.97349,11.2747,0.942752,-3.67255e-14,-2.38542e-14,5.63808,-22.1055,12.3744,119.42,-58.9144,-7.62038,-45.6925,7.12502,18.2741,-74.8542,-3.67255e-14,-2.38542e-14,27.5591,22.0597,-23.2951,32.3379,31.5862,-23.8486,-26.281,7.12502,2.62357,3.68256,0.384343,2.58511,-3.68778,9.54166e-15,-34.8876,-17.2448,55.0423,-21.075,-2.96495,-24.7661,16.9757,-11.8786,15.0086,9.98089
3.5783,17.6311,3.4645,18.6218,-17.681,-1.47928,-9.35054,3.90607,3.76943,-12.6635,4.97578,-0.1341,-7.88248,2.12271,-2.0984,-2.80827,16.7452,12.5798,15.382,21.1255,4.48636,6.01129,11.2667,0.979061,4.47266e-15,7.95139e-16,5.70965,-22.1645,12.2349,119.431,-58.9224,-6.89232,-45.9365,7.12502,18.9744,-75.031,4.47266e-15,7.95139e-16,27.7013,22.1331,-23.0893,32.2535,31.4151,-24.2021,-26.2218,7.12502,2.28217,3.74577,0.399895,2.57908,-3.74084,1.59028e-14,-35.2917,-16.502,55.2869,-21.0799,-2.90492,-24.8264,16.9742,-11.8734,14.94,10.0378
3.57889,17.6304,3.46549,18.659,-17.7734,-1.42048,-9.41552,3.93669,3.68994,-12.6898,5.01441,-0.169026,-7.87601,2.1468,-2.08675,-2.91302,16.752,12.577,15.6378,21.0934,4.63194,6.09438,11.2686,1.04299,-1.74434e-14,4.17448e-15,5.74781,-22.2255,12.1321,119.462,-58.9884,-6.42972,-46.0924,7.12502,19.4192,-75.1427,-1.74434e-14,4.17448e-15,27.8219,22.1173,-22.9351,32.2247,31.3335,-25.0578,-26.0778,7.12502,1.45576,3.89696,0.296787,2.61996,-3.83583,6.36111e-15,-35.4689,-16.3401,55.3304,-21.1382,-2.85876,-24.9147,16.9814,-11.8665,14.9634,9.97664
3.57912,17.6312,3.46541,18.7275,-17.8665,-1.45259,-9.50376,3.97206,3.67711,-12.6646,5.05667,-0.16455,-7.79688,2.17166,-2.06596,-3.12088,16.7849,12.5009,15.8538,21.0865,4.78492,6.17311,11.2778,1.12604,-3.75703e-14,-1.45113e-14,5.85892,-22.4263,11.9661,119.389,-58.9953,-6.39325,-46.1928,7.12502,19.4543,-75.2396,-3.75703e-14,-1.45113e-14,27.6981,22.0459,-23.0261,32.3357,31.6172,-26.2575,-25.638,7.12502,0.297089,4.34152,0.141036,2.68681,-3.82368,2.54444e-14,-35.0066,-17.161,55.2779,-21.1643,-2.75077,-24.9135,16.9058,-11.8283,14.9343,9.99212
3.57981,17.6319,3.46264,18.6727,-17.8688,-1.50518,-9.48079,3.97145,3.68345,-12.5721,5.05744,-0.124467,-7.70808,2.17726,-2.02469,-3.18877,16.8166,12.483,15.8219,21.1258,4.75205,6.17645,11.292,1.12681,-4.79071e-14,-7.95139e-16,6.05037,-22.7666,11.6776,119.238,-58.9137,-6.3836,-46.4223,7.12502,19.4636,-75.4682,-4.79071e-14,-7.95139e-16,27.6424,22.3152,-22.8975,32.397,31.7548,-27.0794,-24.9367,7.12502,-0.496745,5.04246,0.180064,2.73292,-3.75937,-2.22639e-14,-34.5953,-17.8834,55.1166,-21.0223,-2.67971,-24.8724,16.7488,-11.7289,14.8877,9.97196
3.58184,17.6307,3.46138,18.5434,-17.872,-1.30424,-9.45203,3.94682,3.46999,-12.5002,5.03125,-0.177361,-7.65466,2.18195,-1.96308,-3.10439,16.8064,12.5726,15.6113,21.1448,4.58233,6.12325,11.2874,1.05102,4.54223e-14,4.25399e-14,6.12169,-23.0147,11.47,119.187,-58.8905,-6.14777,-46.6949,7.12502,19.6903,-75.7177,4.54223e-14,4.25399e-14,27.7294,22.6181,-22.6926,32.3964,31.8307,-27.3874,-24.5687,7.12502,-0.794254,5.40957,0.23016,2.70632,-3.95063,-1.90833e-14,-34.4026,-18.5037,54.9031,-20.8991,-2.71753,-25.0886,16.639,-11.6431,14.8912,9.9072
3.58641,17.6283,3.46291,18.5038,-17.8798,-0.954293,-9.56594,3.92146,3.17839,-12.5041,4.9979,-0.294351,-7.60746,2.18493,-1.91941,-2.87173,16.7335,12.713,15.4086,21.1069,4.34486,6.05985,11.2547,0.9324,6.11263e-15,1.59028e-14,6.06492,-22.9562,11.4169,119.235,-58.8931,-6.31571,-46.6462,7.12502,19.5288,-75.6854,6.11263e-15,1.59028e-14,27.9101,22.7882,-22.4371,32.3207,31.8042,-27.4024,-24.5926,7.12502,-0.808717,5.38558,0.186932,2.58522,-4.32571,-1.59028e-14,-33.4453,-20.3037,54.3562,-20.9262,-2.76017,-25.4785,16.5924,-11.6366,14.8169,9.8393
3.59284,17.6283,3.46536,18.5747,-17.8294,-1.01883,-9.69559,3.92986,3.31677,-12.4917,4.99655,-0.294636,-7.511,2.17512,-1.98584,-2.74613,16.7031,12.7779,15.3989,21.094,4.24442,6.05406,11.2453,0.884206,-7.45443e-16,4.37326e-15,6.04338,-22.785,11.3717,119.237,-58.7563,-6.51048,-46.2687,7.12502,19.3416,-75.3268,-7.45443e-16,4.37326e-15,27.7664,22.5397,-22.6926,32.3743,32.2662,-26.9007,-24.6619,7.12502,-0.324192,5.31763,0.161471,2.53807,-4.2591,-9.54166e-15,-32.2344,-22.3057,53.3707,-20.963,-2.72056,-25.4408,16.5872,-11.662,14.7202,9.84813
3.60014,17.6278,3.47141,18.6353,-17.8188,-1.19941,-9.82072,3.95964,3.58423,-12.4334,5.01768,-0.274058,-7.35693,2.16902,-2.09846,-2.78654,16.7421,12.7789,15.5121,21.1267,4.32261,6.09036,11.2694,0.92001,-2.30093e-14,-1.09332e-14,6.13909,-22.7355,11.1978,119.121,-58.5871,-6.11063,-46.0378,7.12502,19.726,-75.0569,-2.30093e-14,-1.09332e-14,27.3026,21.9146,-23.4726,32.6327,33.2984,-26.2937,-24.5651,7.12502,0.262049,5.41446,0.158552,2.57799,-4.07581,2.8625e-14,-31.7091,-23.3307,52.6125,-20.9863,-2.69627,-25.2922,16.6786,-11.7345,14.7493,10.0519
3.60619,17.6262,3.4756,18.6382,-17.7886,-1.24872,-9.85877,3.95931,3.73257,-12.4045,5.00684,-0.294616,-7.2913,2.15236,-2.19791,-2.95546,16.7626,12.7498,15.7609,21.1014,4.49231,6.17634,11.274,0.999551,6.07784e-14,2.28602e-14,6.20509,-22.6939,11.0301,119.044,-58.4373,-5.60078,-46.0391,7.12502,20.2161,-75.0072,6.07784e-14,2.28602e-14,27.0868,21.6266,-23.8336,32.78,33.8194,-26.0017,-24.4091,7.12502,0.544113,5.56996,0.207222,2.57071,-4.01995,3.49861e-14,-31.8532,-23.277,52.4891,-21.0502,-2.72956,-25.2595,16.8596,-11.7149,14.7433,10.2776
3.61297,17.6273,3.47291,18.5817,-17.6595,-1.32385,-9.72718,3.92531,3.89838,-12.3887,4.96177,-0.292641,-7.33806,2.11537,-2.29755,-3.30845,16.7838,12.6045,16.1748,21.0346,4.80697,6.31624,11.2677,1.15539,-1.9133e-14,-3.97569e-15,6.22945,-22.657,10.9295,119.027,-58.332,-5.31032,-46.0156,7.12502,20.4952,-74.9538,-1.9133e-14,-3.97569e-15,27.2004,21.9329,-23.5377,32.731,33.4688,-25.7587,-24.3819,7.12502,0.778812,5.59641,0.31884,2.51297,-3.89081,-3.18055e-15,-31.774,-23.5195,52.1935,-21.0863,-2.67387,-25.1914,17.0357,-11.9271,14.5768,10.2414
3.62191,17.6311,3.46444,18.5116,-17.5399,-1.46994,-9.53018,3.89636,4.10233,-12.3421,4.92843,-0.233828,-7.38888,2.0843,-2.36097,-3.53797,16.8234,12.4936,16.4322,21.0368,4.9548,6.40937,11.2806,1.24646,9.39258e-15,-6.36111e-15,6.39599,-22.7243,10.7381,118.922,-58.2598,-5.33864,-45.9425,7.12502,20.468,-74.8836,9.39258e-15,-6.36111e-15,27.417,22.5446,-22.9134,32.5833,32.7298,-26.0857,-24.5633,7.12502,0.462982,5.41596,0.411185,2.49763,-3.68288,-1.59028e-14,-31.6603,-23.9007,51.9588,-21.0767,-2.48094,-25.083,17.1689,-11.9867,14.3463,10.0176
3.62831,17.6345,3.4555,18.5135,-17.4513,-1.71701,-9.41736,3.88878,4.36301,-12.2587,4.91744,-0.142693,-7.34922,2.0645,-2.41303,-3.64116,16.8306,12.5156,16.4677,21.048,4.82444,6.45471,11.2783,1.22086,-2.41523e-14,-1.78906e-15,6.45299,-22.7561,10.685,118.905,-58.1724,-5.56929,-45.9036,7.12502,20.2464,-74.8684,-2.41523e-14,-1.78906e-15,27.4102,22.8222,-22.7038,32.5568,32.6949,-26.8365,-24.8373,7.12502,-0.262185,5.14233,0.456363,2.52062,-3.38159,1.27222e-14,-32.3026,-23.0745,52.4279,-21.1003,-2.30058,-24.8592,17.2708,-11.9376,14.1937,9.87833
3.63058,17.6359,3.45107,18.566,-17.5029,-1.8571,-9.3858,3.9021,4.43163,-12.2584,4.937,-0.0815698,-7.36616,2.07109,-2.3878,-3.55563,16.79,12.5691,16.4104,21.0226,4.68709,6.44209,11.2577,1.16251,-3.22528e-14,-2.56432e-14,6.23376,-22.5098,10.9732,119.109,-58.2552,-5.92881,-45.787,7.12502,19.9008,-74.788,-3.22528e-14,-2.56432e-14,27.3691,22.8699,-22.6875,32.5692,32.7758,-26.8163,-24.9904,7.12502,-0.242687,4.98916,0.386396,2.60196,-3.24629,-2.22639e-14,-32.0025,-23.3343,52.4232,-21.1532,-2.238,-24.7316,17.3041,-11.8974,14.2158,9.96362
3.63166,17.6368,3.4483,18.62,-17.6659,-1.86459,-9.38244,3.93229,4.29451,-12.3156,4.98587,-0.0370384,-7.44262,2.10572,-2.26636,-3.46993,16.7888,12.4786,16.4167,21.0311,4.76377,6.41187,11.2635,1.18602,5.01931e-15,-5.56597e-15,7.04974,-23.007,10.0384,118.612,-57.9364,-5.63454,-46.4602,7.12502,20.1836,-75.4316,5.01931e-15,-5.56597e-15,27.4368,23.0131,-22.4672,32.5057,32.5044,-26.6191,-25.255,7.12502,-0.0521586,4.72472,0.235949,2.72602,-3.2863,-6.36111e-15,-31.3696,-23.917,52.4049,-21.1976,-2.26141,-24.7322,17.2649,-11.9333,14.337,10.2651
3.63529,17.6344,3.44604,18.5993,-17.8101,-1.64425,-9.5062,3.96362,4.03218,-12.2643,5.02685,-0.096758,-7.32569,2.14889,-2.17242,-3.44395,16.784,12.3549,16.277,21.0381,4.79088,6.34503,11.2581,1.19498,2.03754e-14,1.88845e-14,6.73794,-22.9121,10.3901,118.855,-58.2814,-6.10781,-46.4487,7.12502,19.7287,-75.4676,2.03754e-14,1.88845e-14,27.4367,23.1588,-22.3318,32.4932,32.4225,-27.1221,-25.5249,7.12502,-0.538031,4.45414,0.148467,2.76948,-3.5675,9.54166e-15,-32.1419,-22.7659,53.0031,-21.2089,-2.26322,-24.9889,17.166,-11.8869,14.3721,10.3624
3.64087,17.6306,3.44679,18.5663,-17.9882,-1.38074,-9.63972,4.01101,3.7932,-12.2492,5.08722,-0.195059,-7.23834,2.19625,-2.13161,-2.93911,16.6492,12.4895,15.8306,20.9787,4.43574,6.16874,11.2003,1.00005,4.17448e-15,1.68967e-14,6.61311,-22.9406,10.4797,118.983,-58.6261,-6.23725,-46.5366,7.12502,19.6043,-75.5682,4.17448e-15,1.68967e-14,27.4397,23.1875,-22.2541,32.5283,32.4177,-27.1815,-25.315,7.12502,-0.595346,4.66396,0.0595386,2.8281,-3.91978,-6.36111e-15,-32.8461,-21.8856,53.2144,-21.165,-2.11428,-25.3567,17.0137,-11.7342,14.3482,9.91548
3.64432,17.6309,3.44923,18.6077,-18.1719,-1.3622,-9.67194,4.05511,3.72461,-12.3298,5.14802,-0.186962,-7.31341,2.22924,-2.08415,-2.37343,16.5027,12.6214,15.5685,20.8994,4.15388,6.03402,11.1447,0.830915,-8.46326e-14,-3.18055e-14,6.74755,-22.8527,10.3862,118.976,-58.7119,-6.50951,-46.5845,7.12502,19.3425,-75.6425,-8.46326e-14,-3.18055e-14,27.4175,23.0921,-22.234,32.5572,32.5543,-26.6797,-25.063,7.12502,-0.11069,4.91667,-0.0788969,2.9629,-4.00035,2.22639e-14,-32.9921,-21.8006,53.1928,-21.0964,-1.8637,-25.4769,16.8248,-11.4542,14.2857,9.09188
3.64389,17.6368,3.43233,18.6281,-18.2603,-1.38058,-9.43068,4.03692,3.58909,-12.4351,5.14704,-0.135405,-7.58183,2.23407,-1.97831,-2.25929,16.4413,12.5354,15.7372,20.8278,4.2227,6.05081,11.1166,0.8516,-4.01048e-14,-2.78299e-15,6.87815,-22.7513,10.2582,118.955,-58.684,-6.67086,-46.6048,7.12502,19.1874,-75.6783,-4.01048e-14,-2.78299e-15,27.5396,23.3017,-21.9675,32.4144,32.2376,-26.8498,-25.1789,7.12502,-0.275037,4.80062,-0.22555,3.04184,-3.95974,3.18055e-15,-33.6512,-20.986,53.5203,-21.115,-1.74435,-25.4389,16.6283,-11.5181,14.1798,9.62777
3.64185,17.6432,3.39554,18.6155,-18.2768,-1.34785,-8.91583,3.98003,3.32246,-12.5461,5.11398,-0.0869633,-8.02291,2.2304,-1.82532,-2.28817,16.4038,12.5009,15.9521,20.7714,4.23179,6.1185,11.0951,0.86809,-3.37934e-15,-9.54166e-15,6.91801,-22.6692,10.1339,118.974,-58.6482,-7.02635,-46.6715,7.12502,18.8455,-75.7786,-3.37934e-15,-9.54166e-15,27.5886,23.4656,-21.7817,32.311,31.8659,-27.338,-25.1214,7.12502,-0.746572,4.85708,-0.384095,3.05191,-3.93117,1.59028e-14,-34.5606,-19.7694,53.8764,-21.22,-1.70811,-25.385,16.4427,-11.2917,14.0602,9.99252
3.64283,17.6432,3.37354,18.5763,-18.2963,-1.22068,-8.54305,3.92213,3.03859,-12.6086,5.06645,-0.0798884,-8.32895,2.22367,-1.69371,-2.47897,16.4233,12.4222,16.1385,20.7514,4.37474,6.1855,11.0959,0.943545,-3.67255e-14,9.54166e-15,6.95329,-22.5507,10.0306,118.985,-58.566,-7.28756,-46.7496,7.12502,18.5942,-75.8809,-3.67255e-14,9.54166e-15,27.265,23.1127,-22.1502,32.4929,32.2183,-27.5064,-24.9725,7.12502,-0.909148,5.00529,-0.458719,3.03332,-4.04866,2.54444e-14,-35.1095,-18.9481,54.17,-21.2403,-1.6941,-25.4929,16.2835,-11.0844,14.0115,9.96673
3.64712,17.6408,3.37277,18.5176,-18.2701,-1.02879,-8.52235,3.86421,2.83871,-12.5724,4.99346,-0.11368,-8.31446,2.20363,-1.62119,-3.13149,16.5234,12.1328,16.6493,20.7336,4.8621,6.37359,11.1187,1.2013,5.32246e-14,1.55052e-14,7.05367,-22.547,9.86689,118.935,-58.3538,-6.84867,-46.756,7.12502,19.0164,-75.8464,5.32246e-14,1.55052e-14,26.9399,22.8014,-22.4853,32.7345,32.7934,-27.8234,-24.9098,7.12502,-1.2154,5.06645,-0.412313,2.95457,-4.24864,6.36111e-15,-35.3739,-18.4565,54.3708,-21.1878,-1.72093,-25.7108,16.1874,-10.9259,13.9622,9.59862
3.65187,17.6395,3.38055,18.498,-18.2022,-0.987893,-8.7042,3.84289,2.84723,-12.4698,4.95508,-0.110954,-8.09631,2.18991,-1.60622,-3.61842,16.5877,11.8626,17.0605,20.7195,5.17751,6.52329,11.1307,1.38828,-1.66482e-14,-1.94809e-14,7.20133,-22.6363,9.68738,118.851,-58.2254,-6.38521,-46.6285,7.12502,19.462,-75.6744,-1.66482e-14,-1.94809e-14,26.8807,22.9117,-22.3567,32.8614,33.1899,-28.6956,-24.7776,7.12502,-2.05771,5.19223,-0.338448,2.88639,-4.27951,-1.90833e-14,-35.0959,-18.8742,54.1652,-21.1539,-1.74115,-25.77,16.1815,-10.8914,13.8737,9.49769
3.65722,17.6384,3.38738,18.4796,-18.1912,-1.05469,-8.7816,3.86047,2.97006,-12.3838,4.96992,-0.108172,-7.94558,2.19135,-1.66088,-3.55445,16.5825,11.8187,16.936,20.7462,5.06512,6.47966,11.1295,1.34934,-1.88845e-14,-2.34566e-14,7.30097,-22.6926,9.54387,118.837,-58.4028,-6.25134,-46.5415,7.12502,19.5907,-75.5745,-1.88845e-14,-2.34566e-14,27.2189,23.6008,-21.686,32.7021,32.795,-28.7932,-24.8498,7.12502,-2.152,5.11912,-0.293207,2.91098,-4.22013,6.36111e-15,-34.4751,-19.9812,53.7808,-21.1373,-1.77322,-25.7208,16.2557,-10.9517,13.9167,9.42726
3.66372,17.6358,3.39566,18.4663,-18.2335,-1.06504,-8.85439,3.86855,3.02404,-12.2714,4.97207,-0.136871,-7.77057,2.19163,-1.71031,-3.59004,16.5996,11.9909,16.7766,20.8044,4.723,6.49096,11.1366,1.23438,1.98785e-15,-1.23246e-14,7.42538,-22.8692,9.28972,118.785,-58.4941,-6.22235,-46.5786,7.12502,19.6186,-75.6087,1.98785e-15,-1.23246e-14,27.5596,24.33,-21.0772,32.4525,32.2515,-27.3804,-25.3342,7.12502,-0.787457,4.64407,-0.27098,2.95583,-4.24535,-3.18055e-15,-34.3824,-20.2145,53.6336,-21.1592,-1.72048,-25.7676,16.3826,-11.0565,13.9274,9.4081
3.6721,17.6285,3.41008,18.4147,-18.2848,-0.919772,-9.0424,3.87014,2.93785,-12.1579,4.9643,-0.180965,-7.53969,2.1991,-1.69104,-3.79946,16.5947,12.0903,16.9304,20.7812,4.56155,6.6035,11.122,1.20604,-1.04362e-14,2.78299e-15,7.5278,-23,9.09175,118.695,-58.3563,-6.19597,-46.6119,7.12502,19.644,-75.6394,-1.04362e-14,2.78299e-15,27.2824,24.0077,-21.4251,32.6409,33.2077,-26.7156,-25.801,7.12502,-0.145429,4.17869,-0.199415,2.95868,-4.45942,-6.36111e-15,-34.6858,-19.747,53.6219,-21.1712,-1.5589,-26.0343,16.5625,-11.3118,13.7962,9.66146
3.68236,17.6216,3.41885,18.3188,-18.2994,-0.766444,-9.10611,3.89528,2.88801,-12.1202,4.99303,-0.250597,-7.45746,2.21648,-1.72951,-3.88755,16.5298,12.0739,17.1592,20.6698,4.61592,6.68204,11.0778,1.2347,-1.18774e-14,1.07344e-14,7.4286,-22.8254,9.14548,118.729,-58.2679,-6.47123,-46.5197,7.12502,19.3793,-75.574,-1.18774e-14,1.07344e-14,26.9629,23.4358,-21.9386,32.885,34.1643,-27.3182,-25.9723,7.12502,-0.727379,4.00619,-0.0938818,2.94466,-4.67529,6.36111e-15,-35.1457,-19.0473,53.7268,-21.1769,-1.42413,-26.3002,16.7807,-11.5651,13.6703,9.78456
3.6934,17.6205,3.41832,18.3259,-18.1871,-0.944907,-8.98039,3.91548,3.17656,-12.1296,5.01535,-0.260852,-7.51478,2.20236,-1.90728,-3.74264,16.4692,12.1786,17.0992,20.6135,4.5208,6.65868,11.0484,1.174,6.35614e-14,1.72943e-14,7.37873,-22.5544,9.11816,118.721,-58.0958,-7.03341,-46.2417,7.12502,18.8387,-75.3495,6.35614e-14,1.72943e-14,27.0557,23.6492,-21.7786,32.7273,33.5126,-27.7165,-25.8136,7.12502,-1.11206,4.16327,-0.0164602,2.91585,-4.48588,1.59028e-14,-35.3994,-18.6137,53.8843,-21.2211,-1.35247,-26.1523,16.9452,-11.6175,13.5479,9.66101
3.70429,17.6219,3.41271,18.3779,-18.0262,-1.22307,-8.76469,3.90848,3.5344,-12.1524,5.00708,-0.227226,-7.63889,2.1673,-2.08514,-3.51724,16.3849,12.2976,16.8947,20.5525,4.32809,6.5862,11.0067,1.06713,-2.84262e-14,-2.32578e-14,7.40204,-22.4025,9.00929,118.67,-57.8112,-7.35264,-45.8712,7.12502,18.5316,-75.0085,-2.84262e-14,-2.32578e-14,27.2501,24.1624,-21.3742,32.5459,32.7849,-27.5895,-25.1968,7.12502,-0.989402,4.78061,0.0348663,2.86757,-4.1662,9.54166e-15,-35.2507,-18.9028,53.8897,-21.2847,-1.27359,-25.8793,17.0426,-11.5468,13.4057,9.33395
3.71068,17.623,3.40394,18.3382,-18.0104,-1.19016,-8.57674,3.88062,3.46478,-12.1633,4.98293,-0.221639,-7.76382,2.15804,-2.05578,-3.46743,16.2924,12.2916,16.9046,20.4532,4.20931,6.58961,10.9508,1.01983,4.58696e-14,1.55052e-14,7.34683,-22.3565,9.04841,118.739,-57.7152,-7.4198,-45.6146,7.12502,18.467,-74.758,4.58696e-14,1.55052e-14,27.2756,24.3493,-21.2347,32.5684,32.9692,-27.3618,-24.7332,7.12502,-0.769515,5.2452,0.0453052,2.85616,-4.20167,-2.22639e-14,-35.0776,-19.2915,53.7745,-21.3465,-1.22124,-25.9321,17.1295,-11.592,13.335,9.53644
3.71434,17.624,3.39628,18.2914,-18.0431,-1.09581,-8.47697,3.84783,3.29116,-12.1992,4.95103,-0.204002,-7.87661,2.15411,-1.9516,-3.44101,16.2208,12.2435,17.1244,20.3665,4.18565,6.65148,10.9116,1.02016,-2.88735e-14,-7.55382e-15,7.42101,-22.2908,9.01931,118.785,-57.816,-7.33153,-45.5329,7.12502,18.5519,-74.6683,-2.88735e-14,-7.55382e-15,27.1491,24.0577,-21.3461,32.7045,33.473,-27.2361,-24.9058,7.12502,-0.648103,5.07298,0.0383065,2.86542,-4.30415,2.8625e-14,-35.0833,-19.2262,53.7648,-21.3682,-1.22,-26.0407,17.1603,-11.6677,13.2992,9.93015
3.71857,17.6242,3.39517,18.3239,-18.0553,-1.14463,-8.50747,3.84787,3.32369,-12.243,4.94917,-0.198383,-7.90713,2.14927,-1.96338,-3.58416,16.1583,12.2012,17.5715,20.2379,4.32192,6.79893,10.8696,1.09107,2.94698e-14,1.59028e-15,7.54249,-22.1416,8.85194,118.778,-57.9776,-7.2195,-45.5213,7.12502,18.6597,-74.6463,2.94698e-14,1.59028e-15,27.0862,23.8134,-21.3681,32.8206,33.7077,-26.6194,-25.4155,7.12502,-0.0525001,4.56421,0.00937649,2.88246,-4.25881,-1.59028e-14,-35.2457,-18.9036,53.7224,-21.3879,-1.24445,-26.0064,17.1573,-11.6723,13.3286,9.83476
3.72293,17.6234,3.39791,18.3597,-18.1736,-1.16663,-8.64678,3.89333,3.32055,-12.1764,4.99938,-0.238067,-7.74729,2.17741,-1.98899,-4.03083,16.1336,12.1614,18.021,20.1129,4.46889,6.99755,10.828,1.19369,-3.63776e-14,-2.74323e-14,7.5524,-22.0756,8.67324,118.772,-58.0133,-7.1616,-45.5983,7.12502,18.7154,-74.718,-3.63776e-14,-2.74323e-14,27.0161,23.9001,-21.3639,32.9026,33.7781,-26.1204,-25.7051,7.12502,0.42944,4.2742,-0.0746826,2.97808,-4.29244,3.18055e-15,-34.8407,-19.8498,53.2623,-21.4509,-1.19983,-26.0335,17.2271,-11.7542,13.4064,9.88548
3.72898,17.6245,3.39456,18.4306,-18.2862,-1.28025,-8.73701,3.97688,3.39191,-12.1266,5.10262,-0.250138,-7.6284,2.22634,-2.02888,-4.14405,16.0604,12.146,18.2064,19.9904,4.49531,7.06936,10.7748,1.21202,-2.23633e-14,-1.78906e-14,7.51794,-22.0631,8.54662,118.737,-57.8889,-7.14692,-45.6233,7.12502,18.7295,-74.7417,-2.23633e-14,-1.78906e-14,27.0897,24.112,-21.1958,32.9155,33.7255,-27.2842,-25.4804,7.12502,-0.694558,4.49819,-0.207153,3.0917,-4.23221,6.36111e-15,-34.2128,-21.0538,52.9595,-21.5729,-1.16478,-25.9499,17.3497,-11.8383,13.4889,10.2621
3.73398,17.6276,3.38795,18.5673,-18.3024,-1.48712,-8.79132,4.03685,3.53352,-12.1544,5.17805,-0.202843,-7.61903,2.25479,-2.05178,-3.91481,15.9299,12.1687,18.229,19.8647,4.36799,7.05002,10.7084,1.13978,-4.22914e-14,-2.20651e-14,7.53519,-22.0399,8.4321,118.702,-57.801,-7.33534,-45.6129,7.12502,18.5483,-74.7486,-4.22914e-14,-2.20651e-14,27.2282,24.2922,-20.9252,32.835,33.6055,-28.5654,-25.0088,7.12502,-1.93199,4.96217,-0.364492,3.13505,-4.02513,-6.36111e-15,-34.5549,-20.6052,53.1387,-21.749,-1.14698,-25.7389,17.4618,-11.8394,13.5344,10.369
3.73744,17.6293,3.38463,18.6451,-18.2657,-1.58497,-8.8196,4.03457,3.56033,-12.1596,5.17518,-0.156493,-7.6116,2.25365,-2.01607,-3.88268,15.8426,12.097,18.2494,19.7786,4.24942,7.0524,10.6549,1.10206,-1.35671e-14,-1.47101e-14,7.64367,-22.0599,8.25799,118.676,-57.7317,-7.35666,-45.7623,7.12502,18.5278,-74.8999,-1.35671e-14,-1.47101e-14,27.1166,24.2482,-20.9346,32.8951,33.972,-28.4961,-24.5349,7.12502,-1.86506,5.43665,-0.475617,3.1132,-3.89471,-3.18055e-15,-34.5623,-20.9567,52.9322,-21.8864,-1.00045,-25.6689,17.5757,-11.858,13.3936,10.1067
3.74217,17.6319,3.38156,18.7477,-18.1314,-1.65081,-8.77297,3.99754,3.58922,-12.252,5.1305,-0.135104,-7.74454,2.22544,-2.01862,-3.90983,15.7812,11.9428,18.4503,19.6867,4.36135,7.09187,10.6163,1.15579,3.8763e-14,1.27222e-14,7.73506,-21.9516,8.06852,118.693,-57.623,-7.12583,-45.918,7.12502,18.7498,-75.0344,3.8763e-14,1.27222e-14,27.0125,24.0235,-21.0209,33.0568,34.5015,-28.1092,-24.4514,7.12502,-1.49142,5.52318,-0.570703,2.98354,-3.76891,1.59028e-14,-33.372,-23.0831,52.3451,-22.0434,-0.902491,-25.6129,17.6646,-11.9306,13.1656,10.0717
3.74862,17.6366,3.37483,18.9555,-17.9126,-1.75245,-8.73729,3.92413,3.66581,-12.4037,5.03699,-0.101056,-7.9393,2.1669,-2.03713,-3.90747,15.7457,11.8421,18.7904,19.615,4.54069,7.17276,10.5995,1.23159,-4.30369e-14,-2.36554e-14,7.854,-21.7894,7.84832,118.725,-57.5519,-7.27673,-45.9946,7.12502,18.6047,-75.1249,-4.30369e-14,-2.36554e-14,27.121,24.0997,-20.7943,33.0398,34.4779,-27.2954,-24.9156,7.12502,-0.705355,5.06302,-0.687896,2.75295,-3.59214,4.13472e-14,-32.7885,-24.0354,52.0233,-22.3,-0.840174,-25.4977,17.7028,-11.9545,12.9002,10.1512
3.75626,17.6366,3.3684,18.9225,-17.8592,-1.76019,-8.72873,3.87261,3.68715,-12.2998,4.96775,-0.0674521,-7.83194,2.1363,-2.01147,-4.069,15.7127,11.674,18.9456,19.5532,4.59151,7.22554,10.5666,1.28188,4.57702e-14,1.19271e-14,8.06955,-21.8873,7.61076,118.684,-57.4782,-7.71163,-46.0421,7.12502,18.1863,-75.212,4.57702e-14,1.19271e-14,27.1917,24.6268,-20.4009,32.8771,34.0492,-26.294,-25.4909,7.12502,0.261785,4.48868,-0.635768,2.72252,-3.57204,3.18055e-15,-33.5295,-23.1911,52.3029,-22.3039,-0.804731,-25.5107,17.7166,-11.9284,12.8375,10.1793
3.76135,17.6338,3.3653,18.7817,-18.0083,-1.71163,-8.83666,3.90392,3.62849,-12.0396,4.99985,-0.0791291,-7.47895,2.16923,-1.97133,-4.21588,15.6127,11.5747,18.8373,19.4334,4.43067,7.21535,10.4861,1.23963,-3.29486e-14,3.57812e-15,8.15457,-22.1207,7.50251,118.636,-57.4486,-7.71351,-45.8951,7.12502,18.1845,-75.0651,-3.29486e-14,3.57812e-15,27.0945,24.9974,-20.3144,32.7846,33.8411,-25.9802,-25.8992,7.12502,0.564893,4.07981,-0.588648,2.88776,-3.67192,2.8625e-14,-34.6086,-21.7667,53.0245,-22.1835,-0.782661,-25.6068,17.7291,-11.9252,12.9616,10.2689
3.76345,17.6375,3.35416,18.9343,-18.0601,-1.73802,-8.99407,3.9453,3.55722,-11.9905,5.04621,-0.127306,-7.33364,2.20049,-1.96771,-4.16204,15.515,11.6996,18.71,19.33,4.22139,7.19526,10.4241,1.14172,-6.51517e-14,-2.62396e-14,7.96997,-22.2063,7.52821,118.683,-57.605,-7.16264,-45.6636,7.12502,18.7144,-74.7834,-6.51517e-14,-2.62396e-14,26.9819,24.9177,-20.4994,32.9005,34.1178,-26.8327,-25.5662,7.12502,-0.258527,4.4134,-0.842071,2.88438,-3.63612,-6.36111e-15,-34.8931,-21.5607,53.1008,-22.4096,-0.66271,-25.5993,17.7473,-11.8759,12.8796,10.3507
3.76795,17.6417,3.34732,19.1193,-18.0259,-1.81454,-9.12028,3.95813,3.60099,-12.0217,5.05381,-0.163614,-7.29117,2.19981,-2.02185,-4.01766,15.4594,11.8442,18.6458,19.2898,4.04511,7.18173,10.3986,1.05356,-1.62506e-14,-9.54166e-15,7.79051,-22.2519,7.50919,118.771,-57.8327,-6.70641,-45.7667,7.12502,19.1532,-74.8436,-1.62506e-14,-9.54166e-15,26.7961,24.7013,-20.7536,33.1083,34.414,-28.0309,-24.8749,7.12502,-1.41573,5.10016,-1.05753,2.81378,-3.5357,-9.54166e-15,-34.2067,-22.7882,52.7831,-22.6372,-0.59803,-25.5312,17.777,-11.7758,12.7771,10.2274
3.77476,17.6415,3.35057,19.1739,-18.0507,-1.88051,-9.16706,3.96615,3.66351,-12.0874,5.06112,-0.142944,-7.33583,2.19716,-2.03377,-4.35,15.418,11.5489,19.3216,19.1477,4.42189,7.38823,10.3584,1.25096,-2.21148e-14,-1.33186e-14,7.83881,-22.1566,7.39649,118.823,-57.9291,-6.71127,-45.9506,7.12502,19.1485,-75.028,-2.21148e-14,-1.33186e-14,26.5606,24.324,-20.9719,33.2968,34.6539,-28.2723,-24.7539,7.12502,-1.64892,5.21946,-1.10438,2.8389,-3.50702,-1.27222e-14,-33.5606,-23.7949,52.5242,-22.6798,-0.565681,-25.5065,17.8143,-11.752,12.7663,10.0217
3.78007,17.6404,3.34623,19.1775,-18.1189,-1.89178,-9.0485,3.97281,3.57981,-12.2085,5.08344,-0.105012,-7.54705,2.20991,-1.96133,-5.26397,15.4256,10.7512,20.7178,18.9024,5.56366,7.80468,10.3174,1.8185,3.69739e-14,-9.93923e-15,8.01938,-21.9627,7.20425,118.811,-57.9735,-6.79791,-45.9279,7.12502,19.0652,-75.0135,3.69739e-14,-9.93923e-15,26.5577,24.1983,-20.8173,33.4445,34.9498,-27.4331,-25.0377,7.12502,-0.83835,4.94035,-1.1713,2.90042,-3.52922,2.8625e-14,-33.4134,-24.1691,52.4246,-22.7255,-0.492074,-25.5374,17.8527,-11.7582,12.7526,9.84865
3.7838,17.6375,3.33818,18.9603,-18.2601,-1.85466,-8.75651,4.00501,3.46932,-12.1881,5.14574,-0.107114,-7.69244,2.2468,-1.92135,-5.71963,15.386,10.3294,21.4407,18.7215,6.13426,8.02095,10.2698,2.10421,-1.0143e-13,-2.14687e-14,8.20012,-21.9732,6.9503,118.73,-58.106,-6.69087,-45.9445,7.12502,19.1681,-75.02,-1.0143e-13,-2.14687e-14,26.7897,24.6278,-20.2683,33.4609,34.8202,-26.4901,-25.4873,7.12502,0.0724029,4.4924,-1.114,3.09532,-3.58511,1.90833e-14,-33.6247,-24.1419,52.549,-22.5462,-0.545538,-25.583,17.8784,-11.7469,12.9454,9.71802
3.78853,17.6341,3.33551,18.6109,-18.4159,-1.83302,-8.44955,4.05571,3.44203,-12.0415,5.22762,-0.119097,-7.69638,2.29128,-1.93256,-5.72001,15.3174,10.3557,21.5544,18.6466,6.01088,8.07346,10.2272,2.06382,5.46658e-15,-1.33186e-14,8.3536,-22.0756,6.68367,118.648,-58.0751,-6.84213,-46.0821,7.12502,19.0227,-75.1719,5.46658e-15,-1.33186e-14,26.9174,24.9564,-19.8672,33.4449,34.5344,-27.2696,-25.5266,7.12502,-0.680477,4.45205,-0.92429,3.36255,-3.62458,3.81667e-14,-33.5788,-24.486,52.3928,-22.1744,-0.768649,-25.5848,17.8809,-11.8662,13.3286,10.2207
3.79311,17.635,3.33138,18.5315,-18.4024,-1.85181,-8.37383,4.04178,3.38944,-11.9012,5.21402,-0.0936274,-7.5883,2.29475,-1.87654,-5.81625,15.316,10.3505,21.6135,18.6642,5.85295,8.12536,10.2207,2.03131,-6.20705e-14,-4.49253e-14,8.44535,-22.1808,6.53003,118.656,-57.9033,-7.37213,-46.2,7.12502,18.5129,-75.3391,-6.20705e-14,-4.49253e-14,26.8111,25.1919,-19.7471,33.5482,34.6084,-28.5479,-24.9922,7.12502,-1.91504,4.97895,-1.8158,3.39386,-3.51178,1.71243,-32.9122,-24.117,51.9445,-22.1089,-0.830546,-25.5504,17.8741,-11.9079,13.3811,10.6346
3.79586,17.6377,3.31715,18.6399,-18.3042,-1.84356,-8.29673,3.97361,3.22531,-11.9071,5.13435,-0.0625601,-7.65795,2.2683,-1.76224,-5.51507,15.2381,10.4681,21.3534,18.6505,5.51149,8.03113,10.1863,1.87001,1.05356e-14,4.57205e-15,8.44279,-22.1297,6.53858,118.755,-57.9036,-7.47841,-46.2072,7.12502,18.4107,-75.356,1.05356e-14,4.57205e-15,26.7903,25.4504,-19.5244,33.6687,34.6481,-28.6557,-24.5898,7.12502,-2.01918,5.38038,-2.62824,3.2674,-3.40748,2.9945,-33.0673,-22.8377,52.2096,-22.316,-0.664092,-25.5589,17.8827,-11.7162,13.0917,10.3677
3.79993,17.637,3.30526,18.6521,-18.27,-1.76821,-8.1293,3.92159,3.06535,-11.9792,5.07819,-0.0813929,-7.8467,2.24722,-1.71128,-4.95535,15.0764,10.7242,20.9866,18.5595,5.0586,7.88076,10.115,1.62283,6.36111e-15,-7.95139e-16,8.46803,-21.9456,6.4299,118.798,-57.887,-7.19547,-46.2157,7.12502,18.6828,-75.3386,6.36111e-15,-7.95139e-16,27.0735,25.7977,-19.0049,33.6375,34.3969,-28.6846,-24.5079,7.12502,-2.04713,5.46206,-3.01981,3.20403,-3.43923,3.62751,-33.804,-21.1649,53.0722,-22.4275,-0.568958,-25.6452,17.9431,-11.6448,12.877,10.4056
3.80768,17.6346,3.30421,18.6463,-18.1885,-1.69885,-8.11257,3.87786,3.04242,-11.9529,5.01883,-0.121838,-7.8271,2.21824,-1.74246,-4.78244,14.9718,10.9277,20.8969,18.5006,4.61993,7.88377,10.0609,1.44142,-7.30534e-14,-3.99557e-14,8.57305,-22.007,6.15374,118.769,-57.8759,-7.0608,-46.3088,7.12502,18.8123,-75.4191,-7.30534e-14,-3.99557e-14,27.5501,26.6664,-18.1553,33.4434,33.6716,-28.9621,-24.9116,7.12502,-2.31515,5.05554,-3.23047,3.10492,-3.49814,4.0764,-34.1514,-20.1271,53.5672,-22.4899,-0.566593,-25.7432,18.0571,-11.8392,12.7306,10.9163
3.81842,17.6323,3.30148,18.7155,-18.0469,-1.70635,-8.20481,3.85755,3.14558,-11.9008,4.98377,-0.128051,-7.70971,2.19548,-1.79736,-4.76488,14.8807,10.9211,20.947,18.4345,4.33795,7.92197,10.0055,1.35153,-7.34509e-14,-3.57812e-14,8.64332,-22.2248,6.00762,118.8,-58.0509,-7.00647,-46.3967,7.12502,18.8646,-75.5019,-7.34509e-14,-3.57812e-14,27.8819,27.4033,-17.3929,33.3335,32.9559,-28.6884,-25.608,7.12502,-2.05072,4.36193,-3.36828,2.95286,-3.491,4.32985,-34.3221,-19.7852,53.6789,-22.6511,-0.542987,-25.7823,18.1988,-11.9991,12.6037,11.0758
3.82598,17.6305,3.29012,18.7313,-17.9942,-1.75036,-8.17606,3.84595,3.20174,-11.8474,4.96947,-0.091681,-7.66591,2.18729,-1.79003,-4.66875,14.7535,10.8945,20.978,18.328,4.07005,7.93515,9.93088,1.2555,-5.43179e-14,-8.74653e-15,8.67107,-22.2416,6.01261,118.862,-58.1445,-7.12957,-46.395,7.12502,18.7462,-75.5117,-5.43179e-14,-8.74653e-15,27.591,27.2402,-17.5133,33.6171,33.4894,-28.1769,-25.8416,7.12502,-1.55676,4.13246,-3.45046,2.91671,-3.45027,4.43543,-34.6161,-19.424,53.9615,-22.8021,-0.369034,-25.7904,18.3546,-12.0201,12.4456,10.7982
3.83002,17.6293,3.28103,18.626,-18.066,-1.78369,-8.07136,3.8437,3.20748,-11.7202,4.97025,-0.0731485,-7.58333,2.19151,-1.77552,-4.67095,14.625,11.0191,21.0546,18.2089,3.69749,8.00629,9.85116,1.12013,2.10215e-14,1.33186e-14,8.75279,-22.1698,5.87038,118.859,-58.0179,-7.27696,-46.3171,7.12502,18.6044,-75.4474,2.10215e-14,1.33186e-14,27.0582,26.9085,-18.0263,34.0612,34.6992,-27.5826,-25.7105,7.12502,-0.982812,4.26694,-3.60165,3.03552,-3.42238,4.7461,-34.9654,-18.9111,54.3185,-22.8077,-0.181002,-25.8053,18.5182,-12.0759,12.3592,10.6734
3.83611,17.6291,3.27747,18.5778,-18.1595,-1.88737,-8.02633,3.89506,3.29942,-11.5863,5.03575,-0.0853753,-7.44735,2.2213,-1.83441,-4.97928,14.534,11.0103,21.2998,18.0692,3.57358,8.1486,9.77476,1.10808,5.01931e-15,7.95139e-16,8.8579,-22.2262,5.61433,118.792,-57.7588,-6.90094,-46.2016,7.12502,18.9661,-75.297,5.01931e-15,7.95139e-16,26.9864,27.0895,-17.9935,34.2045,35.1947,-26.8912,-25.7575,7.12502,-0.314962,4.22203,-3.95186,3.17871,-3.33786,5.34683,-35.0825,-18.3274,54.242,-22.815,-0.0781797,-25.7489,18.6689,-12.1745,12.372,10.8049
3.84084,17.631,3.26512,18.5995,-18.1703,-2.06272,-7.76948,3.93063,3.40416,-11.6119,5.09441,-0.0906314,-7.6097,2.23797,-1.9159,-5.1229,14.4354,11.0017,21.4604,17.9187,3.55692,8.22353,9.70306,1.10817,3.59055e-14,8.34896e-15,8.94068,-22.1785,5.42078,118.722,-57.5713,-6.2359,-46.1285,7.12502,19.6056,-75.1599,3.59055e-14,8.34896e-15,27.0625,27.0402,-17.9233,34.2963,35.5345,-27.5043,-25.7425,7.12502,-0.907164,4.23529,-4.32089,3.25564,-3.11941,5.92013,-35.2488,-17.8403,53.779,-22.916,0.12815,-25.5972,18.7811,-12.2137,12.2353,10.827
3.8441,17.6313,3.25301,18.61,-18.2412,-2.15964,-7.49809,3.95716,3.42317,-11.7366,5.14445,-0.117508,-7.89675,2.2513,-1.97933,-4.83243,14.292,11.107,21.5195,17.7596,3.48244,8.20573,9.63261,1.03382,-3.09359e-14,-4.77083e-15,8.99109,-21.9591,5.2055,118.72,-57.6812,-6.28579,-46.2421,7.12502,19.5576,-75.2784,-3.09359e-14,-4.77083e-15,27.0127,26.5852,-18.1038,34.5499,36.2338,-28.0403,-25.4088,7.12502,-1.42482,4.56617,-4.67689,3.35843,-2.99264,6.42372,-35.4021,-17.6398,53.6001,-23.0026,0.302676,-25.5205,18.8458,-12.2197,12.1708,10.7167
3.85116,17.6281,3.25519,18.5918,-18.3401,-2.08201,-7.55091,3.97808,3.35935,-11.7553,5.16763,-0.178622,-7.88553,2.26505,-2.00502,-4.50543,14.1614,11.2,21.5726,17.6412,3.32901,8.18661,9.57348,0.937959,-8.29181e-14,-3.53837e-14,9.02058,-21.8393,4.99193,118.759,-57.8246,-6.98156,-46.4046,7.12502,18.8886,-75.5075,-8.29181e-14,-3.53837e-14,26.966,26.4002,-18.1437,34.7115,36.6179,-27.3011,-25.1662,7.12502,-0.710903,4.81238,-5.03815,3.41832,-3.11381,6.93711,-34.863,-18.3418,53.5303,-23.0037,0.181268,-25.6214,18.8781,-12.251,12.3408,10.9343
3.85987,17.6268,3.25299,18.504,-18.29,-1.95364,-7.53775,3.95573,3.29001,-11.7517,5.13646,-0.243643,-7.8897,2.25199,-2.0366,-4.17547,14.0054,11.4217,21.5531,17.5126,2.98521,8.1722,9.50071,0.763352,-7.98866e-14,-2.68359e-14,9.0229,-21.7625,4.8932,118.804,-57.8198,-7.33485,-46.3362,7.12502,18.5488,-75.4718,-7.98866e-14,-2.68359e-14,26.7593,26.0355,-18.3934,34.9017,37.0606,-27.4235,-25.2708,7.12502,-0.829098,4.70734,-5.26703,3.3548,-3.23186,7.40901,-34.521,-19.442,53.409,-22.9451,-0.0337982,-25.745,18.8834,-12.2348,12.4285,11.3767
3.86725,17.6277,3.24617,18.3814,-18.3179,-1.94567,-7.39025,3.99469,3.33527,-11.7651,5.1917,-0.312003,-7.97547,2.27022,-2.14398,-3.81261,13.8386,11.649,21.477,17.3723,2.6493,8.13124,9.42345,0.58353,4.51241e-14,-3.97569e-16,8.95456,-21.6385,4.88341,118.842,-57.8779,-7.19918,-46.1159,7.12502,18.6792,-75.239,4.51241e-14,-3.97569e-16,26.7297,25.7831,-18.4838,35.02,37.2407,-27.9316,-25.3536,7.12502,-1.31982,4.62206,-5.43061,3.42494,-3.23286,7.84788,-34.7404,-20.9875,52.8227,-22.8315,-0.161581,-25.7535,18.885,-12.2218,12.5511,11.6187
3.87319,17.6262,3.2412,18.2039,-18.4976,-1.95653,-7.20658,4.058,3.36738,-11.7031,5.28122,-0.358015,-7.99789,2.3101,-2.2195,-3.49544,13.7142,11.6803,21.3663,17.2761,2.4601,8.0542,9.36477,0.479359,2.5842e-14,-6.4605e-15,8.98852,-21.5574,4.76525,118.805,-57.7933,-7.1433,-45.9526,7.12502,18.733,-75.0706,2.5842e-14,-6.4605e-15,26.8925,26.0606,-18.1477,34.9702,36.9292,-28.1556,-25.2582,7.12502,-1.5362,4.71606,-5.59047,3.65395,-3.27251,8.30979,-34.463,-20.8426,52.9245,-22.6708,-0.234925,-25.7673,18.9293,-12.224,12.8154,11.5584
3.87702,17.6254,3.228,18.1243,-18.552,-1.99682,-7.03684,4.05628,3.36171,-11.6281,5.28707,-0.346797,-8.01127,2.31463,-2.21391,-3.20316,13.569,11.6208,21.1901,17.1602,2.24726,7.95083,9.28677,0.375891,-3.75703e-14,-1.20265e-14,9.07591,-21.4976,4.59192,118.791,-57.641,-7.4408,-45.9966,7.12502,18.4468,-75.142,-3.75703e-14,-1.20265e-14,26.8863,26.2736,-17.9426,34.9971,36.9052,-28.7454,-25.0482,7.12502,-2.1058,4.92111,-5.82085,3.75391,-3.20876,8.78795,-34.6165,-20.0953,53.0321,-22.6917,-0.0457263,-25.7637,19.0224,-12.1805,12.7199,11.4423
3.87969,17.6273,3.21497,18.2187,-18.5329,-2.11993,-7.01569,4.07498,3.41821,-11.593,5.31284,-0.334442,-7.97912,2.32501,-2.2315,-2.91158,13.4203,11.6192,20.9609,17.0446,1.97384,7.84095,9.20729,0.245186,9.93923e-17,0,9.12024,-21.4675,4.42738,118.806,-57.6629,-7.47792,-46.1986,7.12502,18.4111,-75.3473,9.93923e-17,0,27.0801,26.6862,-17.508,34.9515,36.4473,-29.1207,-25.0785,7.12502,-2.46826,4.88694,-6.17618,3.75934,-3.01259,9.21363,-35.2223,-19.0668,53.1632,-22.9076,0.259023,-25.6746,19.148,-12.1345,12.4254,11.2259
3.88328,17.6274,3.2083,18.2985,-18.6467,-2.19473,-6.97102,4.11751,3.37561,-11.6037,5.3745,-0.308428,-8.01912,2.35942,-2.18422,-3.19791,13.3566,11.3317,21.4313,16.9005,2.23188,7.99093,9.14619,0.388674,9.54166e-15,-1.48095e-14,9.43732,-21.4876,4.06618,118.693,-57.6418,-7.09358,-46.2811,7.12502,18.7808,-75.3945,9.54166e-15,-1.48095e-14,27.461,27.2891,-16.7546,34.814,35.6187,-29.0011,-25.6273,7.12502,-2.35274,4.33949,-6.5229,3.86452,-2.93117,9.47589,-35.4568,-18.9876,53.0797,-23.0991,0.353112,-25.622,19.3172,-12.1807,12.4327,11.0455
3.88942,17.6239,3.20538,18.2971,-18.7666,-2.24971,-6.93048,4.12048,3.32364,-11.5252,5.38309,-0.248528,-7.96365,2.3732,-2.09212,-4.35777,13.3829,10.6946,22.6522,16.7112,2.99895,8.47058,9.08739,0.835554,1.43373e-14,7.55382e-15,9.83299,-21.5872,3.71561,118.59,-57.525,-6.89952,-46.2208,7.12502,18.9675,-75.316,1.43373e-14,7.55382e-15,27.5548,27.6476,-16.354,34.7954,35.4367,-28.7499,-25.9846,7.12502,-2.1102,3.98473,-6.71517,3.99462,-2.89994,9.52971,-35.355,-19.7545,52.8356,-23.1833,0.317768,-25.5864,19.5139,-12.3049,12.5749,11.3493
3.89798,17.6219,3.20634,18.3308,-18.7305,-2.4614,-7.02527,4.11458,3.528,-11.353,5.36715,-0.182936,-7.70759,2.36082,-2.11949,-5.63388,13.3683,10.1018,23.7577,16.4779,3.63861,8.95522,8.99735,1.24269,-5.73742e-14,-2.98177e-15,9.97343,-21.7066,3.56845,118.578,-57.3719,-7.0823,-46.139,7.12502,18.7917,-75.2514,-5.73742e-14,-2.98177e-15,27.2478,27.6138,-16.5572,35.0063,35.975,-28.1955,-25.919,7.12502,-1.57476,4.0549,-6.74092,4.03677,-2.67801,9.48164,-35.8749,-19.6368,53.0664,-23.2412,0.297818,-25.3859,19.6888,-12.3491,12.6318,11.5659
3.90639,17.6246,3.20756,18.4232,-18.666,-2.77393,-7.17696,4.15661,3.84383,-11.2038,5.40907,-0.125258,-7.43303,2.36915,-2.21212,-6.30428,13.2188,9.73698,24.2519,16.1849,3.89239,9.18034,8.85679,1.41471,2.75317e-14,3.13086e-14,9.98976,-21.7947,3.49335,118.545,-57.2684,-7.04133,-45.9989,7.12502,18.8311,-75.1074,2.75317e-14,3.13086e-14,27.2454,27.9497,-16.3509,35.1051,36.0361,-26.926,-25.8206,7.12502,-0.348592,4.15887,-6.73039,4.07333,-2.34614,9.42975,-35.9356,-20.1337,52.9795,-23.3363,0.269988,-25.0629,19.8393,-12.351,12.6918,11.4391
3.91312,17.6269,3.20305,18.486,-18.6303,-2.85315,-7.32729,4.16366,3.88556,-11.0913,5.4073,-0.116159,-7.2204,2.37307,-2.2083,-6.3013,13.0909,9.65112,24.223,16.03,3.83255,9.16139,8.77038,1.38608,-1.94809e-14,2.48481e-15,10.0233,-21.8446,3.3729,118.523,-57.1582,-6.92599,-45.8647,7.12502,18.942,-74.9624,-1.94809e-14,2.48481e-15,27.5826,28.742,-15.6484,35.0263,35.4,-26.4313,-25.5819,7.12502,0.129187,4.39778,-6.82185,4.05111,-2.25514,9.47704,-34.6427,-22.4632,51.8046,-23.4642,0.251238,-24.9785,19.9419,-12.391,12.6684,11.3647
3.91779,17.6258,3.19221,18.5188,-18.5237,-2.72115,-7.37729,4.06713,3.67773,-11.0923,5.2801,-0.124538,-7.21631,2.32511,-2.10235,-6.27418,13.0968,9.52197,24.5052,16.0207,4.00464,9.22792,8.77646,1.46928,-6.14742e-14,1.98785e-15,10.1639,-21.7124,3.1417,118.524,-57.0925,-7.33867,-45.8926,7.12502,18.5451,-75.0286,-6.14742e-14,1.98785e-15,27.1307,28.3204,-16.0963,35.4112,36.0031,-27.4513,-25.2258,7.12502,-0.856004,4.75221,-6.94817,3.89028,-2.35795,9.66322,-34.2936,-22.9102,51.5737,-23.6136,0.340073,-25.1351,19.9974,-12.4069,12.4383,11.157
3.92254,17.6236,3.18479,18.4809,-18.5119,-2.56733,-7.2996,4.0329,3.46059,-11.1523,5.24161,-0.188787,-7.33973,2.31578,-2.06014,-6.38244,13.0227,9.50678,24.9823,15.8855,4.10414,9.40307,8.72767,1.52216,4.65032e-14,1.8487e-14,10.196,-21.483,2.99,118.517,-57.1432,-7.70776,-45.9745,7.12502,18.19,-75.1439,4.65032e-14,1.8487e-14,26.7001,27.4737,-16.7317,35.9089,37.1931,-28.2417,-25.21,7.12502,-1.61939,4.76362,-7.08488,3.82877,-2.52516,9.93926,-34.8603,-21.9606,52.0795,-23.6826,0.490851,-25.3475,20.0597,-12.4404,12.2419,11.1327
3.93215,17.6209,3.18377,18.4313,-18.5909,-2.49822,-7.23577,4.10695,3.43009,-11.1621,5.33892,-0.311964,-7.37163,2.36051,-2.1757,-6.27559,12.8086,9.6326,25.0368,15.6217,3.91591,9.42447,8.59757,1.40875,-2.42517e-14,1.0138e-14,10.103,-21.3059,2.88681,118.452,-56.9754,-7.84107,-45.8084,7.12502,18.0618,-74.9897,-2.42517e-14,1.0138e-14,27.0088,27.5098,-16.4319,36.0625,37.4348,-28.9513,-25.4344,7.12502,-2.30469,4.5329,-7.27403,3.88076,-2.67984,10.2837,-34.7612,-21.9921,51.9254,-23.6919,0.662187,-25.512,20.1347,-12.4752,12.1257,11.3086
3.94239,17.6173,3.17726,18.4398,-18.5861,-2.56583,-7.17918,4.15375,3.55747,-11.1346,5.39888,-0.366571,-7.35386,2.3792,-2.30441,-6.31417,12.6649,9.46235,25.2045,15.4084,4.04799,9.45711,8.49923,1.45976,3.68994e-14,1.75924e-14,10.1333,-21.2185,2.69969,118.34,-56.781,-8.34397,-45.4895,7.12502,17.5778,-74.7148,3.68994e-14,1.75924e-14,27.0716,27.4998,-16.2903,36.3299,37.5919,-30.0209,-25.4039,7.12502,-3.33763,4.5497,-7.43014,3.54502,-2.62267,10.587,-34.222,-22.1836,51.7815,-23.7468,0.830979,-25.5194,20.2213,-12.4978,11.9719,11.3623
3.94771,17.6152,3.16765,18.3743,-18.586,-2.58453,-7.05111,4.13902,3.5532,-11.0702,5.38541,-0.359117,-7.3565,2.37397,-2.30136,-6.59738,12.5947,9.25719,25.5826,15.2705,4.21015,9.60654,8.43669,1.56479,2.72956e-14,1.21756e-14,10.3538,-21.1748,2.464,118.213,-56.7123,-9.03776,-45.3854,7.12502,16.9101,-74.6693,2.72956e-14,1.21756e-14,27.0731,27.7131,-15.9871,36.5869,37.6167,-30.2641,-25.3715,7.12502,-3.57252,4.57829,-7.51657,3.39909,-2.56682,10.7993,-33.7729,-22.6544,51.3741,-23.7848,0.935495,-25.5204,20.3439,-12.5268,11.8449,11.3848
3.9525,17.6143,3.16575,18.2684,-18.7153,-2.62082,-6.93467,4.14908,3.55697,-10.9576,5.40299,-0.351134,-7.29652,2.38581,-2.29822,-6.83132,12.4714,9.22577,25.7884,15.1099,4.06814,9.72789,8.34424,1.53238,-4.00178e-14,-2.73329e-14,10.6351,-21.1646,2.18273,118.115,-56.4713,-9.04756,-45.3586,7.12502,16.9007,-74.6432,-4.00178e-14,-2.73329e-14,27.3603,28.442,-15.2598,36.6782,37.53,-29.8654,-25.783,7.12502,-3.18744,4.17294,-7.64221,3.40842,-2.52754,11.0273,-33.2899,-23.3855,50.6966,-23.7491,0.970644,-25.5021,20.4889,-12.5275,11.9316,11.1729
3.95761,17.6149,3.16153,18.3347,-18.957,-2.76978,-6.93941,4.23815,3.64011,-10.8955,5.51882,-0.348856,-7.2113,2.44056,-2.33564,-6.88032,12.2836,9.12184,25.9139,14.8992,3.89427,9.78026,8.21933,1.47358,-1.36664e-16,-9.39258e-15,10.7391,-21.1831,2.00415,118.148,-56.2406,-8.62546,-45.266,7.12502,17.3069,-74.5154,-1.36664e-16,-9.39258e-15,27.6578,28.9045,-14.6709,36.8019,37.7331,-29.3506,-26.1106,7.12502,-2.69034,3.85215,-8.01544,3.42202,-2.42845,11.308,-33.3413,-23.3326,50.6531,-23.8591,0.979773,-25.386,20.6233,-12.5342,12.2212,10.8281
3.96469,17.616,3.15091,18.4483,-19.0541,-2.93608,-6.86453,4.30514,3.76215,-10.9388,5.61123,-0.34419,-7.28646,2.47506,-2.40407,-6.728,12.1094,8.85318,26.0196,14.7096,3.91091,9.75737,8.11193,1.48526,2.71155e-14,-3.926e-15,10.7643,-21.0838,1.86996,118.249,-56.1703,-8.54776,-45.3193,7.12502,17.3817,-74.5621,2.71155e-14,-3.926e-15,27.8626,28.881,-14.3186,36.9485,37.9749,-28.9748,-26.2227,7.12502,-2.32742,3.74431,-8.37345,3.31493,-2.25736,11.5623,-33.3972,-23.2356,50.8571,-24.0499,1.02115,-25.246,20.7618,-12.5857,12.3397,10.7785
3.97565,17.6153,3.1399,18.4633,-18.9431,-3.09747,-6.50667,4.28433,3.93455,-11.0725,5.60487,-0.323419,-7.62689,2.44775,-2.51293,-6.74957,11.9623,8.68871,26.3721,14.4825,4.08904,9.85326,8.01511,1.55874,6.41702e-15,1.90336e-14,10.8068,-20.8514,1.6785,118.38,-56.2578,-8.6115,-45.4679,7.12502,17.3204,-74.7161,6.41702e-15,1.90336e-14,27.6566,28.3279,-14.5824,37.251,38.7964,-29.0217,-26.4399,7.12502,-2.37271,3.52666,-8.53978,3.13906,-2.01759,11.8134,-32.9053,-23.8985,50.5686,-24.1409,1.03673,-25.087,20.8899,-12.6421,12.2508,10.9274
3.9855,17.6136,3.13051,18.4425,-18.9852,-3.15955,-6.19026,4.27729,3.9374,-11.1924,5.61702,-0.306521,-7.94217,2.44305,-2.52886,-6.72771,11.8076,8.63366,26.7056,14.2551,4.16667,9.95381,7.91725,1.58064,6.43006e-14,2.75317e-14,10.9473,-20.6795,1.44804,118.397,-56.3218,-8.30186,-45.5367,7.12502,17.6184,-74.7585,6.43006e-14,2.75317e-14,27.407,27.932,-14.8492,37.503,39.4338,-28.633,-26.2155,7.12502,-1.99725,3.75487,-8.73467,3.11324,-1.95036,12.0494,-32.4962,-24.4776,50.2019,-24.2146,1.01641,-25.0362,20.9924,-12.6567,12.3006,11.0898
3.99362,17.6116,3.12541,18.3389,-19.1151,-3.0631,-6.17419,4.28051,3.80931,-11.1415,5.62069,-0.32909,-7.90235,2.45584,-2.48111,-6.46751,11.713,8.53042,26.6724,14.1852,4.08245,9.88808,7.86753,1.53708,-3.99744e-14,-1.89839e-14,11.2378,-20.7162,1.14596,118.3,-56.2862,-8.05203,-45.5906,7.12502,17.8588,-74.7906,-3.99744e-14,-1.89839e-14,27.3823,28.01,-14.7503,37.5325,39.388,-28.4934,-25.6427,7.12502,-1.86242,4.32891,-8.81976,3.09823,-2.09117,12.1841,-32.5167,-24.4954,50.1977,-24.2222,0.947616,-25.1561,21.1073,-12.6709,12.4519,11.3414
4.00124,17.6085,3.12381,18.2086,-19.0758,-2.95004,-6.30511,4.24788,3.72312,-11.0032,5.56608,-0.361085,-7.68029,2.44237,-2.44999,-6.54624,11.6864,8.43473,26.8504,14.1609,4.06184,9.95931,7.84588,1.55517,3.18055e-14,1.39646e-14,11.4533,-20.8177,0.890505,118.323,-56.4773,-8.31961,-45.8495,7.12502,17.6013,-75.0728,3.18055e-14,1.39646e-14,27.1741,27.8193,-14.9095,37.735,39.8447,-29.6739,-25.5734,7.12502,-3.00255,4.3852,-8.76003,2.96765,-2.19787,12.3256,-33.4505,-23.2937,50.9764,-24.1742,0.826688,-25.267,21.1984,-12.7067,12.4982,11.4493
4.00674,17.6039,3.11802,18.1565,-19.081,-2.96906,-6.30624,4.25829,3.68709,-10.9089,5.57872,-0.364207,-7.57632,2.4558,-2.42844,-6.88588,11.6289,8.33151,27.2147,14.0521,4.10746,10.1403,7.79152,1.6153,-5.57964e-14,-7.23079e-15,11.5713,-20.9237,0.703535,118.338,-56.8044,-8.33502,-46.1534,7.12502,17.5865,-75.378,-5.57964e-14,-7.23079e-15,27.1011,27.7267,-14.8844,37.94,40.2324,-30.4014,-25.6809,7.12502,-3.70506,4.26662,-8.77925,2.97166,-2.1781,12.488,-34.9798,-20.9947,52.2112,-24.1923,0.77642,-25.243,21.2795,-12.7389,12.5368,11.4986
4.01118,17.6054,3.11067,18.1582,-19.2418,-3.04615,-6.17012,4.32981,3.63126,-10.8567,5.68157,-0.368965,-7.59347,2.51167,-2.41041,-7.08417,11.4196,8.16632,27.3557,13.7626,4.10333,10.2079,7.6414,1.62297,-9.15962e-15,7.25564e-15,11.6207,-21.0645,0.597203,118.275,-57.0717,-7.69791,-45.9646,7.12502,18.1995,-75.1332,-9.15962e-15,7.25564e-15,27.3894,28.0577,-14.4208,37.8869,40.0369,-30.0772,-25.3956,7.12502,-3.39204,4.5572,-9.07294,3.00589,-2.09351,12.6831,-33.8136,-23.2239,51.1705,-24.2485,0.794878,-25.1764,21.358,-12.7918,12.6373,11.8121
4.01455,17.6057,3.10497,18.1644,-19.373,-3.07837,-6.08663,4.38025,3.55835,-10.8521,5.75394,-0.376679,-7.6369,2.55202,-2.38482,-7.14922,11.1438,7.77646,27.5011,13.3609,4.3587,10.2105,7.44837,1.72592,-9.24659e-15,-5.59082e-16,11.6704,-21.0334,0.535441,118.236,-57.241,-7.29638,-45.5912,7.12502,18.5858,-74.7233,-9.24659e-15,-5.59082e-16,27.1502,27.6892,-14.7134,38.1094,40.6768,-30.1477,-25.1759,7.12502,-3.46005,4.77574,-9.27758,3.07754,-2.0788,12.8981,-34.2821,-22.684,51.4496,-24.3249,0.780354,-25.1497,21.4507,-12.8006,12.7585,12.2144
4.01829,17.6071,3.0969,18.216,-19.27,-3.07926,-6.01308,4.32541,3.49649,-10.9506,5.68835,-0.350333,-7.80075,2.5194,-2.3354,-7.11482,10.9937,7.3712,27.7505,13.1333,4.68599,10.231,7.34391,1.87591,-2.93891e-14,-1.0461e-14,11.8512,-20.8054,0.375652,118.201,-57.2697,-7.39215,-45.736,7.12502,18.4936,-74.8769,-2.93891e-14,-1.0461e-14,26.5401,26.748,-15.5158,38.4967,41.6951,-30.6532,-25.0942,7.12502,-3.94822,4.84901,-9.45588,2.93853,-2.013,13.1465,-34.7014,-22.0769,51.663,-24.4672,0.778205,-25.1413,21.5148,-12.7085,12.6933,12.2283
4.02279,17.6095,3.0907,18.2682,-19.0586,-3.14006,-5.94558,4.23708,3.49808,-10.9981,5.57839,-0.285978,-7.90559,2.46391,-2.2775,-7.1801,10.951,7.12302,27.9476,13.083,4.79036,10.2852,7.30985,1.95487,1.48964e-14,-1.53313e-14,12.1493,-20.6964,0.100929,118.151,-57.1968,-7.09748,-46.0834,7.12502,18.7771,-75.1971,1.48964e-14,-1.53313e-14,26.4332,26.4947,-15.5603,38.5538,41.8001,-30.9134,-24.9796,7.12502,-4.19956,4.95876,-9.56604,2.70745,-1.83807,13.331,-34.035,-23.2389,50.9357,-24.5837,0.773506,-25.0576,21.5939,-12.7221,12.5362,12.25
4.02789,17.61,3.08689,18.2603,-18.9808,-3.26473,-5.96696,4.19854,3.55809,-10.8576,5.52672,-0.212136,-7.74211,2.4432,-2.22431,-7.43237,10.9443,6.81013,28.0785,13.0626,4.95232,10.3408,7.28725,2.0756,-3.27933e-14,8.22472e-15,12.5318,-20.854,-0.245661,118.129,-57.152,-6.7345,-46.2425,7.12502,19.1262,-75.322,-3.27933e-14,8.22472e-15,26.4237,26.739,-15.3234,38.5864,41.7006,-31.0508,-25.1052,7.12502,-4.33221,4.8305,-9.61586,2.68001,-1.65669,13.405,-32.9315,-24.9587,49.7814,-24.612,0.687783,-24.9048,21.7085,-12.7932,12.5843,12.3871
4.03378,17.608,3.08567,18.2178,-18.9839,-3.39306,-5.98436,4.1774,3.65481,-10.7031,5.49553,-0.170182,-7.55813,2.42904,-2.2243,-7.43607,10.9204,6.69213,28.0854,13.0442,4.96156,10.3324,7.26724,2.09343,1.7872e-14,2.48232e-14,12.7787,-20.9866,-0.466763,118.167,-57.1354,-6.90732,-46.2726,7.12502,18.96,-75.3685,1.7872e-14,2.48232e-14,26.3402,26.9216,-15.1784,38.7259,41.819,-30.4653,-25.2901,7.12502,-3.76677,4.65637,-9.5844,2.66968,-1.51267,13.3798,-33.3082,-24.5318,50.0706,-24.6037,0.652115,-24.7832,21.8599,-12.8705,12.7072,12.1249
4.04266,17.6076,3.09097,18.1279,-18.9114,-3.53571,-5.94814,4.15892,3.89379,-10.6497,5.46793,-0.189433,-7.49983,2.39832,-2.37552,-7.15954,10.8719,6.81155,28.1419,13.0114,4.82908,10.321,7.24987,2.01156,-1.93194e-14,2.22266e-14,12.8487,-20.8778,-0.663243,118.15,-56.9486,-6.89235,-46.1969,7.12502,18.9743,-75.2915,-1.93194e-14,2.22266e-14,26.3903,26.8515,-15.0593,38.9038,42.0492,-29.3783,-25.1422,7.12502,-2.71708,4.82026,-9.45567,2.45616,-1.3371,13.4406,-33.8663,-23.6348,50.6826,-24.5152,0.60896,-24.6484,22.0062,-13.0151,12.7453,12.1279
4.05455,17.6046,3.09506,18.0734,-18.7518,-3.54382,-5.95651,4.12909,4.06238,-10.6755,5.42371,-0.239908,-7.5081,2.3605,-2.5215,-7.06065,10.8018,6.77392,28.4203,12.9297,4.82094,10.402,7.21002,2.01279,4.12684e-14,2.36523e-14,12.936,-20.7228,-0.967045,118.116,-56.8549,-6.8126,-46.1736,7.12502,19.051,-75.2605,4.12684e-14,2.36523e-14,26.6505,26.9022,-14.6366,39.0142,41.796,-28.9767,-24.9063,7.12502,-2.32919,5.0607,-9.42961,2.03262,-1.30169,13.6623,-33.8967,-23.1741,50.9632,-24.5169,0.466601,-24.6381,22.1324,-13.0966,12.7017,12.4326
4.06514,17.597,3.08725,18.0371,-18.7177,-3.34351,-5.92863,4.10827,3.87805,-10.6868,5.39803,-0.273294,-7.5496,2.35908,-2.45847,-7.11691,10.7051,6.46157,28.5905,12.8092,4.94445,10.4378,7.13862,2.09782,1.51993e-14,-5.36097e-15,13.0345,-20.684,-1.15832,118.171,-56.9293,-7.15533,-46.1981,7.12502,18.7214,-75.3172,1.51993e-14,-5.36097e-15,27.0897,27.4353,-13.7086,38.9682,40.872,-29.0751,-25.058,7.12502,-2.42419,4.90798,-9.57968,1.73507,-1.53223,13.9043,-34.0917,-22.4414,51.376,-24.6676,0.407689,-24.8678,22.2592,-13.0818,12.6489,12.507
4.07249,17.5931,3.07352,17.9766,-18.8293,-3.23569,-5.84288,4.14127,3.67684,-10.5956,5.44646,-0.290831,-7.50833,2.40051,-2.36862,-7.51146,10.5807,6.41295,28.9295,12.6539,4.78161,10.6468,7.04274,2.07703,2.21078e-14,8.4732e-15,13.1774,-20.7812,-1.31068,118.159,-56.8632,-7.32504,-46.1551,7.12502,18.5582,-75.2898,2.21078e-14,8.4732e-15,27.2261,27.7299,-13.2671,39.0768,40.5946,-29.504,-25.485,7.12502,-2.83849,4.47584,-9.8026,1.827,-1.69744,14.1594,-33.7986,-22.6465,51.3546,-24.7948,0.486857,-25.0091,22.3803,-13.0717,12.6325,12.4234
4.07968,17.5924,3.07416,18.0331,-18.9339,-3.41854,-5.90619,4.22589,3.82394,-10.497,5.5532,-0.288727,-7.34431,2.44895,-2.43603,-8.21244,10.389,6.94827,29.6785,12.4251,4.07495,11.165,6.90712,1.81674,5.36719e-15,-1.90119e-14,13.3108,-20.88,-1.47431,118.106,-56.8329,-7.21285,-46.092,7.12502,18.6661,-75.2165,5.36719e-15,-1.90119e-14,27.4546,28.0318,-12.8562,39.2217,40.6649,-29.7902,-25.716,7.12502,-3.11489,4.24104,-10.0538,1.87314,-1.56971,14.4242,-32.8391,-23.7796,50.858,-24.8661,0.616579,-24.8754,22.4874,-13.1151,12.6302,12.4398
4.08741,17.5894,3.08495,18.1375,-19.0697,-3.60072,-6.08632,4.3212,4.00705,-10.4577,5.66733,-0.289451,-7.17567,2.49775,-2.51888,-8.54662,10.1279,7.06583,30.0818,12.1088,3.70178,11.4191,6.72916,1.67089,-2.75907e-14,4.72114e-16,13.3364,-20.8434,-1.54711,118.148,-56.929,-7.21075,-46.1123,7.12502,18.6681,-75.2365,-2.75907e-14,4.72114e-16,27.8321,28.4632,-12.1892,39.372,40.5627,-29.4261,-25.6805,7.12502,-2.76326,4.28133,-10.3493,1.69719,-1.46064,14.6881,-31.6953,-25.0547,50.1262,-24.9196,0.732502,-24.7813,22.5861,-13.1789,12.6935,12.517
4.09553,17.5871,3.09395,18.0585,-19.2513,-3.70219,-6.08852,4.39655,4.15001,-10.4043,5.76315,-0.314576,-7.09412,2.53706,-2.61886,-8.30563,9.91299,7.02745,30.0446,11.8716,3.53845,11.3605,6.59932,1.56979,-7.96412e-14,-1.15544e-14,13.3965,-20.7318,-1.71699,118.194,-56.8601,-7.23257,-46.1947,7.12502,18.6471,-75.321,-7.96412e-14,-1.15544e-14,27.6353,28.2247,-12.3225,39.8962,41.2044,-29.0864,-25.5234,7.12502,-2.43519,4.4424,-10.466,1.61478,-1.43526,14.8496,-30.4723,-26.4875,49.2758,-24.8131,0.68393,-24.7339,22.7011,-13.2537,12.9679,12.4916
4.09943,17.5935,3.07249,18.2425,-18.9891,-3.72969,-5.94555,4.27257,4.09267,-10.5469,5.61039,-0.307789,-7.34942,2.45557,-2.60171,-8.27609,9.78753,7.05623,30.2538,11.7255,3.41095,11.4447,6.52118,1.50943,-6.57605e-14,-7.50412e-15,13.5942,-20.5029,-2.06745,118.182,-56.5785,-7.23153,-46.1353,7.12502,18.6481,-75.2614,-6.57605e-14,-7.50412e-15,27.2471,27.7966,-12.7029,40.5341,42.1197,-28.6021,-25.3236,7.12502,-1.96741,4.64711,-10.7038,1.57313,-1.31558,15.0187,-31.3541,-25.8823,49.8617,-25.1949,0.630711,-24.6323,22.8137,-13.1654,12.7222,12.479
4.10499,17.5936,3.06216,18.2874,-18.9478,-3.70363,-5.83267,4.20108,4.00084,-10.6132,5.524,-0.296408,-7.50199,2.41418,-2.55293,-8.37093,9.69734,6.9721,30.5723,11.593,3.45371,11.5761,6.45691,1.54083,-3.53153e-15,-1.27968e-14,13.8693,-20.2235,-2.41712,118.106,-56.3111,-7.38658,-45.9114,7.12502,18.499,-75.0517,-3.53153e-15,-1.27968e-14,27.2767,27.9432,-12.3986,40.8371,42.1007,-27.417,-25.2889,7.12502,-0.822827,4.68928,-10.7723,1.62448,-1.37201,15.1973,-33.6863,-22.5681,51.7738,-25.4072,0.669502,-24.6606,22.9585,-13.1835,12.5814,12.6093
4.11696,17.5908,3.0627,18.2867,-18.9308,-3.71837,-5.8149,4.16817,4.06953,-10.6262,5.48004,-0.300483,-7.52358,2.38577,-2.59715,-8.33939,9.59889,6.93192,30.7613,11.4652,3.43975,11.6395,6.39334,1.53184,2.42269e-15,1.06847e-14,14.117,-20.1368,-2.73206,118.009,-56.2011,-7.36916,-45.7207,7.12502,18.5157,-74.8595,2.42269e-15,1.06847e-14,27.619,28.3621,-11.6748,41.0055,41.4988,-27.4807,-25.6597,7.12502,-0.884358,4.31817,-11.0393,1.22292,-1.34955,15.3837,-29.4974,-27.6834,48.5214,-25.4783,0.711191,-24.7091,23.1035,-13.2454,12.5254,12.7179
4.12685,17.5856,3.06393,18.3144,-18.9662,-3.88775,-5.73894,4.19315,4.22314,-10.6651,5.519,-0.271893,-7.5981,2.39172,-2.65913,-8.28121,9.49747,6.83145,30.945,11.3429,3.44572,11.6894,6.32875,1.53774,-9.98272e-15,1.09332e-15,14.2506,-20.1422,-2.95138,118,-56.2091,-6.83446,-45.5849,7.12502,19.03,-74.6739,-9.98272e-15,1.09332e-15,27.8241,28.4768,-11.1796,41.3421,41.3679,-29.1664,-26.2083,7.12502,-2.51245,3.75668,-11.0702,0.975965,-1.20559,15.5055,-31.0364,-25.5723,49.955,-25.519,0.788653,-24.5934,23.2357,-13.3123,12.5151,12.8286
4.13196,17.5843,3.06186,18.2887,-19.1297,-3.95305,-5.65162,4.25271,4.14155,-10.6556,5.60552,-0.25087,-7.64014,2.44099,-2.59868,-8.2974,9.39363,6.56023,31.0967,11.2145,3.5552,11.7204,6.2545,1.60858,1.01877e-15,5.11871e-15,14.2657,-20.0996,-3.00991,118.039,-56.2692,-6.61255,-45.5832,7.12502,19.2434,-74.6511,1.01877e-15,5.11871e-15,27.6822,28.244,-11.1863,41.8362,41.801,-30.3924,-26.639,7.12502,-3.6964,3.30872,-11.2099,0.907674,-1.17448,15.62,-31.5847,-24.8935,50.3856,-25.5274,0.892604,-24.574,23.3235,-13.3853,12.5482,12.9363
4.13602,17.5823,3.06136,18.1823,-19.3944,-3.8421,-5.61964,4.32385,3.89448,-10.5496,5.70005,-0.284485,-7.5511,2.50989,-2.49546,-8.43049,9.2302,6.33525,31.1605,11.0085,3.56565,11.7499,6.13646,1.62991,5.29326e-14,1.77912e-14,14.3144,-20.1548,-3.12466,118.049,-56.4571,-6.99722,-45.813,7.12502,18.8735,-74.9173,5.29326e-14,1.77912e-14,27.4627,27.9831,-11.3129,42.4244,42.418,-30.9807,-26.8711,7.12502,-4.26451,3.06593,-11.346,0.851608,-1.35711,15.7131,-31.2495,-25.1903,50.3634,-25.4999,0.96031,-24.7419,23.3979,-13.4153,12.6866,12.9643
4.14161,17.579,3.06518,18.06,-19.6548,-3.81136,-5.56321,4.40811,3.7729,-10.4527,5.81399,-0.297099,-7.47751,2.57891,-2.4413,-8.68362,9.00828,6.22976,31.3999,10.7261,3.44508,11.8916,5.98039,1.59149,-3.69864e-14,-4.96962e-17,14.4625,-20.3071,-3.37192,118.084,-56.6311,-7.03612,-46.0226,7.12502,18.8361,-75.1306,-3.69864e-14,-4.96962e-17,27.3795,27.8931,-11.2057,42.9775,42.9803,-30.949,-27.0008,7.12502,-4.23387,2.93684,-11.4277,0.805134,-1.46345,15.7888,-31.1399,-25.3137,50.457,-25.3924,0.988079,-24.8266,23.4474,-13.4297,12.8837,12.7629
4.15053,17.5742,3.06833,17.9855,-19.713,-3.88057,-5.53527,4.427,3.82574,-10.3347,5.83877,-0.28256,-7.35795,2.59304,-2.45086,-9.23428,8.8431,6.27523,31.8617,10.5124,3.20686,12.206,5.85481,1.52313,-5.41999e-14,-1.68967e-15,14.6963,-20.5207,-3.70476,118.124,-56.5466,-6.87193,-46.0614,7.12502,18.994,-75.154,-5.41999e-14,-1.68967e-15,27.3636,28.186,-10.9426,43.3918,43.1147,-30.3701,-27.0909,7.12502,-3.67487,2.85717,-11.387,0.631337,-1.42758,15.8243,-31.3608,-25.0375,50.6336,-25.3096,0.979201,-24.7967,23.5182,-13.4748,12.9683,12.5252
4.16071,17.5695,3.07201,17.935,-19.661,-3.91116,-5.60409,4.39446,3.89293,-10.1389,5.78564,-0.304013,-7.09773,2.5711,-2.49389,-9.9454,8.73066,6.31659,32.2328,10.3465,3.02135,12.5174,5.75416,1.48378,1.58407e-15,4.27387e-15,14.9484,-20.7189,-4.03964,118.081,-56.2921,-7.03386,-46.0256,7.12502,18.8383,-75.1334,1.58407e-15,4.27387e-15,27.5911,28.8935,-10.3928,43.6003,42.629,-29.3869,-27.0372,7.12502,-2.72536,2.92513,-11.2999,0.301499,-1.403,15.8206,-30.6667,-25.6972,50.1846,-25.2925,0.978285,-24.8131,23.627,-13.5523,12.9689,12.4985
4.16835,17.5672,3.07562,17.8619,-19.5861,-3.96927,-5.64242,4.36084,3.98417,-10.0334,5.73454,-0.318835,-6.95366,2.54412,-2.5508,-10.0777,8.61302,6.2701,32.4021,10.1891,2.97671,12.6115,5.6707,1.4669,-8.00108e-15,2.01766e-14,15.1175,-20.6536,-4.29685,117.986,-56.1127,-7.31874,-46.0957,7.12502,18.5642,-75.2298,-8.00108e-15,2.01766e-14,27.945,29.3413,-9.79438,43.7809,42.0541,-28.2703,-26.8125,7.12502,-1.64697,3.16085,-11.2107,-0.0995512,-1.30456,15.7997,-29.2187,-27.1975,49.2529,-25.2609,1.00822,-24.7961,23.7781,-13.6726,12.9182,12.4761
4.17439,17.5654,3.07344,17.8026,-19.5614,-4.00586,-5.58378,4.32212,4.00487,-10.0735,5.68682,-0.308601,-7.03371,2.51607,-2.55893,-9.50095,8.51701,6.21412,32.346,10.1089,2.9518,12.4639,5.62997,1.419,-6.26172e-14,-1.81888e-14,15.3253,-20.3912,-4.58996,117.875,-56.1807,-7.38421,-46.1289,7.12502,18.5013,-75.2691,-6.26172e-14,-1.81888e-14,27.8576,29.0807,-9.79134,44.2559,42.3768,-28.273,-26.5604,7.12502,-1.64962,3.41301,-11.2215,-0.370576,-1.22441,15.814,-27.6629,-28.6735,48.323,-25.2752,1.08221,-24.7924,23.9294,-13.7484,12.8419,12.3612
4.18126,17.5645,3.06952,17.8742,-19.5544,-4.12666,-5.48169,4.28819,4.06267,-10.2047,5.65211,-0.25313,-7.23991,2.48851,-2.54828,-8.88841,8.43292,6.11798,32.2676,10.0665,2.89738,12.2998,5.59796,1.36934,-1.56916e-14,8.24956e-15,15.5952,-20.1018,-4.90807,117.754,-56.2903,-7.00664,-45.9658,7.12502,18.8644,-75.071,-1.56916e-14,8.24956e-15,27.4841,28.5327,-10.1,44.911,43.3387,-28.9573,-26.435,7.12502,-2.31047,3.5322,-11.3895,-0.451341,-1.07479,15.9005,-27.4003,-29.0061,48.1951,-25.4023,1.17123,-24.6933,24.0367,-13.765,12.7536,12.313
4.18707,17.5633,3.06794,17.9903,-19.6369,-4.27121,-5.37708,4.2877,4.05174,-10.3395,5.66462,-0.172312,-7.45728,2.49031,-2.47353,-8.95753,8.34163,5.87694,32.614,9.94373,3.02578,12.4284,5.53041,1.45635,4.34966e-14,-2.6339e-15,15.7839,-19.8018,-5.11769,117.676,-56.2266,-6.90739,-45.7347,7.12502,18.9599,-74.8306,4.34966e-14,-2.6339e-15,27.4444,28.38,-9.92475,45.3318,43.3809,-29.2429,-26.4071,7.12502,-2.58629,3.55698,-11.6287,-0.520961,-0.929501,16.0331,-28.4205,-28.2125,48.8173,-25.5427,1.2177,-24.5713,24.1222,-13.7999,12.7786,12.2166
4.19091,17.5606,3.06907,17.9505,-19.9014,-4.26106,-5.31358,4.34588,3.84878,-10.2867,5.74631,-0.163002,-7.44799,2.54763,-2.35531,-9.51915,8.22728,5.47636,33.0846,9.70241,3.42425,12.6838,5.42084,1.68683,-3.9906e-14,-1.50082e-14,15.8219,-19.7844,-5.21402,117.733,-56.3207,-7.13642,-45.6921,7.12502,18.7396,-74.8095,-3.9906e-14,-1.50082e-14,27.6206,28.5742,-9.50929,45.6082,42.7359,-29.3585,-26.3858,7.12502,-2.69792,3.57687,-11.8225,-0.624755,-0.977618,16.1645,-28.9116,-27.8477,49.0178,-25.5458,1.28949,-24.6365,24.2163,-13.9296,12.9023,12.341
4.19564,17.56,3.06936,17.8708,-20.0441,-4.34957,-5.274,4.41201,3.87127,-10.1101,5.83156,-0.19579,-7.2644,2.59503,-2.39553,-9.89216,8.10704,5.26543,33.2703,9.47874,3.63826,12.8098,5.31985,1.79844,1.51076e-14,1.58034e-14,15.7513,-19.9852,-5.29023,117.901,-56.5425,-7.34775,-45.9754,7.12502,18.5363,-75.1122,1.51076e-14,1.58034e-14,27.6471,28.6787,-9.39776,46.0838,42.9555,-29.0993,-26.4402,7.12502,-2.44759,3.52551,-11.9122,-0.745625,-0.866281,16.2829,-28.8261,-28.137,48.8808,-25.4891,1.39548,-24.5896,24.3181,-14.0732,12.9232,12.6263
4.20269,17.5601,3.06344,17.8214,-20.0455,-4.49901,-5.20766,4.46154,4.00396,-10.0117,5.89912,-0.197794,-7.17738,2.62314,-2.47017,-9.8963,7.96521,5.25256,33.3034,9.31802,3.49764,12.8306,5.22815,1.72644,-1.10325e-14,-6.55989e-15,15.7081,-19.9415,-5.36129,117.992,-56.4918,-7.96757,-46.1089,7.12502,17.94,-75.3014,-1.10325e-14,-6.55989e-15,27.6156,28.5739,-9.36748,46.6317,43.6968,-28.5522,-26.7109,7.12502,-1.91922,3.26019,-11.9506,-0.872859,-0.652769,16.4091,-29.4142,-27.5314,49.4408,-25.4706,1.41523,-24.4409,24.4178,-14.1113,12.937,12.756
4.21098,17.5562,3.05776,17.7698,-20.0684,-4.54585,-5.17458,4.47296,3.98227,-9.97238,5.91798,-0.152426,-7.15852,2.63713,-2.4118,-9.874,7.79769,5.17167,33.4063,9.17832,3.23679,12.8771,5.1221,1.62421,3.70236e-14,5.26779e-15,15.8814,-19.8566,-5.53395,117.953,-56.3066,-7.82462,-45.9392,7.12502,18.0776,-75.1191,3.70236e-14,5.26779e-15,27.5972,28.4895,-9.16682,47.0699,43.8527,-28.6243,-26.7963,7.12502,-1.98889,3.1742,-11.9453,-1.01845,-0.596002,16.5456,-31.7057,-24.5716,51.2881,-25.4993,1.4141,-24.4078,24.5448,-14.1023,12.9518,12.749
4.22009,17.5507,3.0585,17.733,-20.0603,-4.46349,-5.24058,4.4227,3.88136,-9.95874,5.84715,-0.14469,-7.1201,2.61054,-2.3426,-9.83403,7.68791,5.09368,33.5658,9.0975,3.05655,12.9401,5.05243,1.56153,-1.67725e-14,1.55052e-14,16.163,-19.8288,-5.80372,117.914,-56.1862,-6.91685,-45.8985,7.12502,18.9508,-74.9953,-1.67725e-14,1.55052e-14,27.4429,28.3944,-9.1322,47.5735,43.9627,-29.3889,-26.5277,7.12502,-2.72725,3.43463,-12.1895,-1.66382,-0.566679,16.7881,-29.6806,-26.7692,49.9641,-25.5414,1.39944,-24.5272,24.64,-14.0824,12.9196,12.5493
4.22923,17.5437,3.05634,17.6875,-20.1046,-4.32362,-5.27906,4.40946,3.7874,-9.98467,5.82366,-0.228541,-7.12743,2.60147,-2.37676,-9.50261,7.60581,5.01319,33.6046,9.00816,3.07335,12.8786,5.00701,1.55198,2.36057e-15,3.18055e-15,16.2508,-19.6423,-5.97374,117.944,-56.1546,-6.94405,-45.9637,7.12502,18.9246,-75.0631,2.36057e-15,3.18055e-15,27.1661,28.1093,-9.46587,48.2023,44.6025,-30.0602,-26.5444,7.12502,-3.37563,3.40863,-12.3708,-2.03494,-0.689297,17.1334,-31.2537,-24.7212,51.256,-25.5725,1.29382,-24.6838,24.6965,-14.093,13.0197,12.432
4.23866,17.5389,3.04733,17.6951,-20.2909,-4.15645,-5.25796,4.43189,3.62686,-10.017,5.85086,-0.327991,-7.17684,2.62057,-2.39604,-9.30359,7.49056,4.83011,33.6718,8.84469,3.20881,12.843,4.93005,1.60181,1.29707e-14,-9.74045e-15,16.3153,-19.4092,-6.19713,117.976,-56.1273,-7.37928,-45.954,7.12502,18.506,-75.0938,1.29707e-14,-9.74045e-15,27.1203,28.1584,-9.4237,48.6663,44.9142,-30.2835,-27.231,7.12502,-3.59122,2.71846,-12.7391,-2.23006,-0.873489,17.4709,-32.438,-23.2837,51.9421,-25.7102,1.25921,-24.8936,24.7815,-14.1404,13.183,12.254
4.24872,17.5364,3.03947,17.7502,-20.4233,-4.12175,-5.15883,4.41701,3.5766,-10.0228,5.83453,-0.358358,-7.24197,2.61267,-2.40907,-9.5401,7.33606,4.64015,33.877,8.63274,3.24626,12.9637,4.81394,1.63781,3.598e-14,9.64106e-15,16.5886,-19.3274,-6.64747,117.967,-56.0497,-7.38967,-46.0811,7.12502,18.496,-75.2218,3.598e-14,9.64106e-15,27.3085,28.5579,-8.89718,48.9935,44.751,-30.3372,-28.0932,7.12502,-3.64309,1.85544,-13.1876,-2.6144,-0.851925,17.7942,-31.6913,-24.385,51.3233,-25.8816,1.37995,-25.0056,24.9006,-14.1758,13.1756,11.964
4.25897,17.5321,3.03499,17.7764,-20.3755,-4.37036,-4.92522,4.38948,3.80889,-9.95163,5.81068,-0.312026,-7.28288,2.58553,-2.5038,-10.0117,7.19862,4.50134,34.0818,8.46733,3.15404,13.1468,4.7062,1.63429,7.93896e-15,3.57812e-15,16.8909,-19.5611,-7.08013,117.994,-56.0914,-6.85429,-46.3785,7.12502,19.011,-75.4694,7.93896e-15,3.57812e-15,27.5637,28.9904,-8.38245,49.2912,44.6894,-30.3335,-28.5297,7.12502,-3.63951,1.41892,-13.3998,-3.0623,-0.497224,18.1055,-30.5015,-25.6596,50.3422,-25.9305,1.4672,-24.7907,25.0402,-14.1808,13.1048,11.9796
4.27074,17.5234,3.03301,17.7681,-20.2837,-4.37703,-4.83879,4.34312,3.83501,-9.90311,5.75194,-0.322586,-7.27922,2.55472,-2.53382,-10.2819,7.09703,4.42313,34.2714,8.34213,3.09382,13.2842,4.62968,1.62748,1.94312e-14,1.73937e-14,17.0722,-19.6825,-7.32541,118.027,-56.0873,-5.90794,-46.5888,7.12502,19.9208,-75.5878,1.94312e-14,1.73937e-14,27.8265,29.3018,-7.91792,49.5795,44.9271,-30.6368,-29.0054,7.12502,-3.93238,0.938083,-13.5109,-3.72914,-0.427761,18.3504,-30.2096,-25.6324,50.1748,-26.0103,1.35929,-24.8067,25.2089,-14.1877,13.1412,12.019
4.27508,17.5206,3.03522,17.7732,-20.5812,-4.48138,-4.87675,4.40749,3.74031,-9.90038,5.83866,-0.262414,-7.26359,2.60756,-2.41608,-10.2908,6.9573,4.37296,34.5248,8.1615,3.04912,13.3948,4.53597,1.6034,-2.10836e-14,-4.37326e-15,17.2502,-19.4163,-7.52453,118.004,-55.9367,-5.43987,-46.7415,7.12502,20.3707,-75.6931,-2.10836e-14,-4.37326e-15,27.8013,29.2622,-7.74639,50.041,45.4903,-30.772,-28.9861,7.12502,-4.06298,0.954875,-13.7531,-3.63679,-0.347782,18.5444,-31.6668,-23.9722,51.3622,-26.0795,1.45013,-24.7448,25.3956,-14.2653,13.3733,12.1027
4.28282,17.5178,3.03693,17.7774,-20.7132,-4.54399,-4.90561,4.43371,3.69919,-9.9302,5.87457,-0.222505,-7.28569,2.6289,-2.35123,-10.093,6.79522,4.28498,34.6826,7.98117,2.96276,13.4187,4.43409,1.55491,-2.18415e-14,-3.20043e-14,17.3636,-19.1132,-7.69703,117.989,-55.9406,-5.60936,-46.8066,7.12502,20.2078,-75.7755,-2.18415e-14,-3.20043e-14,27.7048,29.1503,-7.65191,50.5667,45.8781,-29.9878,-28.0529,7.12502,-3.30569,1.9012,-13.9897,-3.91109,-0.251358,18.8163,-31.8912,-23.7512,51.7381,-26.1248,1.52305,-24.7402,25.5307,-14.3817,13.4557,11.9448
4.2913,17.5144,3.03771,17.7949,-20.7886,-4.66758,-4.93357,4.48588,3.78159,-9.9281,5.94203,-0.233076,-7.25469,2.65708,-2.40462,-9.69185,6.66705,4.41969,34.5895,7.87923,2.6626,13.3143,4.36943,1.37889,-4.16205e-15,-1.31198e-14,17.3702,-18.9447,-7.90868,117.92,-55.9249,-5.56153,-46.5034,7.12502,20.2538,-75.4674,-4.16205e-15,-1.31198e-14,27.6333,29.0206,-7.63959,51.1542,46.2044,-29.7757,-27.7243,7.12502,-3.10087,2.23289,-14.3065,-4.39684,-0.0250305,19.1544,-29.9247,-26.1267,50.4996,-26.1518,1.59879,-24.667,25.6567,-14.516,13.4882,11.7534
4.29948,17.5108,3.03842,17.8429,-21.0482,-4.75449,-5.10366,4.59272,3.79667,-9.80578,6.07079,-0.272042,-7.00925,2.72757,-2.43126,-9.72664,6.59816,4.58481,34.576,7.84217,2.34818,13.3419,4.33181,1.2257,-5.42931e-15,1.80894e-14,17.4211,-18.9753,-8.11511,117.862,-55.7578,-5.52553,-46.1296,7.12502,20.2884,-75.09,-5.42931e-15,1.80894e-14,27.4175,28.9601,-7.84435,51.8019,46.7086,-30.2403,-27.7743,7.12502,-3.54954,2.17593,-14.7699,-4.73239,0.104238,19.4954,-26.9541,-28.9075,48.4083,-26.2507,1.78603,-24.6721,25.8201,-14.6427,13.5028,12.0455
4.30788,17.5059,3.03472,17.8708,-21.3484,-4.7822,-5.16469,4.65791,3.69494,-9.67108,6.15284,-0.259485,-6.83241,2.78301,-2.3493,-10.0608,6.59782,4.31184,34.7192,7.84646,2.47941,13.453,4.3122,1.34251,-8.52662e-14,-3.51849e-14,17.5351,-18.9508,-8.14911,117.923,-55.6829,-6.20047,-45.9983,7.12502,19.6396,-75.0262,-8.52662e-14,-3.51849e-14,27.347,29.2257,-7.68409,52.2798,46.9843,-30.0538,-27.551,7.12502,-3.3694,2.40215,-15.1775,-4.77909,0.0848265,19.8054,-26.9739,-28.7427,48.4289,-26.3664,1.98293,-24.7359,25.9847,-14.73,13.5124,12.4314
4.3179,17.5009,3.03057,17.8707,-21.4991,-4.83699,-5.01971,4.63975,3.64456,-9.64372,6.13918,-0.190215,-6.89823,2.78065,-2.26157,-10.1635,6.55914,3.90451,34.8108,7.80015,2.71875,13.4771,4.26927,1.50368,-8.73037e-14,-2.20651e-14,17.7339,-18.7747,-8.2332,118.012,-55.8818,-6.86856,-45.9711,7.12502,18.9972,-75.0634,-8.73037e-14,-2.20651e-14,27.3312,29.3878,-7.37386,52.6621,47.1731,-29.4857,-27.4003,7.12502,-2.82075,2.56075,-15.3918,-4.82155,0.0865432,20.0635,-28.1813,-27.5252,49.4296,-26.4395,2.09198,-24.74,26.1277,-14.7947,13.5558,12.4603
4.32856,17.4983,3.03308,17.8126,-21.6278,-4.93651,-4.84494,4.63839,3.68951,-9.64929,6.14974,-0.12336,-7.00656,2.78196,-2.23262,-10.1837,6.40178,3.75404,34.9332,7.62482,2.64825,13.5287,4.16174,1.48102,-5.65294e-15,-9.74045e-15,17.9022,-18.6329,-8.36802,118.084,-56.1943,-6.99457,-46.013,7.12502,18.876,-75.1171,-5.65294e-15,-9.74045e-15,27.3083,29.3379,-7.17909,53.0554,47.4901,-29.1653,-27.3159,7.12502,-2.51138,2.64903,-15.5516,-4.99156,0.182983,20.2941,-28.4119,-28.0086,49.1513,-26.415,2.13716,-24.6798,26.2459,-14.7869,13.7179,11.874
4.33792,17.4976,3.03771,17.7474,-21.8633,-5.09346,-4.78445,4.71137,3.81164,-9.62384,6.25042,-0.101083,-6.99806,2.8248,-2.27977,-10.1083,6.26965,3.73223,35.0426,7.47704,2.52927,13.5645,4.07734,1.41731,-4.82798e-14,-3.35946e-14,17.9845,-18.4387,-8.47669,118.069,-56.0527,-6.95674,-45.8779,7.12502,18.9124,-74.9785,-4.82798e-14,-3.35946e-14,27.3922,29.3377,-6.92398,53.4593,47.5351,-30.0196,-27.7605,7.12502,-3.33634,2.19312,-15.7968,-5.08544,0.347057,20.5189,-28.1485,-29.6989,47.9217,-26.3195,2.13286,-24.5524,26.3141,-14.7632,14.0263,11.4985
4.3451,17.4963,3.03543,17.7113,-22.118,-5.11675,-4.79316,4.75499,3.77029,-9.59785,6.30463,-0.149759,-6.95961,2.85404,-2.30536,-10.014,6.25118,3.59583,35.1526,7.42613,2.70186,13.5757,4.05916,1.49976,2.42145e-14,-7.35503e-15,18.1485,-18.1742,-8.84373,117.974,-55.6136,-7.03522,-45.6934,7.12502,18.8369,-74.8014,2.42145e-14,-7.35503e-15,27.3351,29.2794,-6.90808,53.9189,47.4852,-30.9841,-28.3861,7.12502,-4.2678,1.55088,-16.1529,-5.09664,0.366707,20.7858,-28.2764,-30.4548,47.4597,-26.2827,2.13102,-24.5646,26.3145,-14.8399,14.1961,13.1344
4.35367,17.493,3.03286,17.5896,-22.2652,-5.04455,-4.61913,4.73223,3.65011,-9.58747,6.27976,-0.216415,-7.05278,2.84458,-2.32462,-10.0782,6.19906,3.46339,35.3613,7.30497,2.909,13.6644,4.01322,1.5963,-1.85491e-14,7.35503e-15,18.2596,-17.9046,-9.28942,117.973,-55.4026,-7.18947,-45.7544,7.12502,18.6886,-74.8767,-1.85491e-14,7.35503e-15,27.1065,29.1402,-7.16028,54.4779,48.0448,-30.3716,-28.3073,7.12502,-3.67627,1.64074,-16.4311,-5.34188,0.316987,21.1316,-28.2264,-30.5408,47.6036,-26.1828,2.10315,-24.6639,26.2954,-14.8461,14.338,14.0018
4.3657,17.4905,3.02667,17.4676,-22.3311,-4.99331,-4.30787,4.71024,3.55797,-9.57886,6.26473,-0.254009,-7.22663,2.83704,-2.34168,-10.3267,6.07255,3.55992,35.6399,7.13088,2.76829,13.857,3.92634,1.52147,-1.48592e-14,-1.21259e-14,18.2647,-17.7307,-9.49926,118.065,-55.4087,-7.10758,-45.8854,7.12502,18.7674,-75,-1.48592e-14,-1.21259e-14,27.0381,29.201,-7.11356,55.0311,48.665,-29.9161,-28.4402,7.12502,-3.23646,1.51499,-16.685,-5.71315,0.299567,21.5143,-27.8842,-30.7825,47.5088,-26.0989,2.04516,-24.7347,26.2875,-14.746,14.4739,12.8718
4.37847,17.4926,3.01438,17.4911,-22.3955,-5.0352,-4.12652,4.72116,3.53897,-9.55085,6.28882,-0.249647,-7.30059,2.8488,-2.34214,-10.6852,5.95125,3.67491,35.9362,6.99943,2.50581,14.0907,3.84375,1.40539,-5.55106e-14,-2.10712e-14,18.2925,-17.6924,-9.54656,118.128,-55.561,-7.08041,-45.8734,7.12502,18.7935,-74.9856,-5.55106e-14,-2.10712e-14,27.2689,29.5424,-6.5781,55.4266,48.7672,-30.2844,-28.675,7.12502,-3.59213,1.2745,-17.101,-5.8767,0.38643,21.8699,-26.2947,-32.3172,46.2553,-26.1815,2.04195,-24.7146,26.2913,-14.6734,14.4415,12.6169
4.39175,17.494,3.01809,17.576,-22.4988,-5.13042,-4.25311,4.74085,3.63652,-9.51732,6.30972,-0.212956,-7.18479,2.85745,-2.34349,-10.7276,5.88805,3.50425,36.1328,6.93506,2.53945,14.1785,3.79498,1.44669,7.34012e-14,3.63776e-14,18.3564,-17.5198,-9.56484,118.147,-55.5863,-7.31379,-45.6244,7.12502,18.569,-74.7582,7.34012e-14,3.63776e-14,27.3478,29.6858,-6.21924,55.783,48.971,-29.7405,-27.7522,7.12502,-3.06683,2.20547,-17.5241,-6.1574,0.521514,22.1629,-22.9176,-34.7952,43.5921,-26.259,2.06905,-24.673,26.346,-14.7253,14.4461,12.1607
4.40377,17.4879,3.03106,17.5978,-22.4819,-5.10214,-4.56574,4.69096,3.67551,-9.43393,6.22456,-0.193593,-6.91832,2.82166,-2.31079,-10.6211,5.85454,3.28526,36.1549,6.89619,2.6681,14.1457,3.76559,1.52489,8.17875e-14,3.8763e-14,18.5519,-17.2403,-9.71041,118.066,-55.2323,-7.50313,-45.3186,7.12502,18.3869,-74.4696,8.17875e-14,3.8763e-14,27.2553,29.77,-6.11766,56.1427,49.3726,-28.921,-27.1808,7.12502,-2.27545,2.78683,-17.7264,-6.70765,0.523295,22.3939,-22.9257,-34.8872,43.3243,-26.2676,2.03955,-24.7561,26.4497,-14.9004,14.43,10.5104
4.41205,17.4832,3.0353,17.63,-22.4089,-5.23143,-4.75702,4.6376,3.80367,-9.32075,6.1421,-0.141679,-6.68435,2.78184,-2.30318,-10.8626,5.74663,3.23025,36.2271,6.74242,2.64982,14.2309,3.68553,1.51641,8.93289e-15,-1.17283e-14,18.8657,-17.0877,-9.99813,117.93,-54.9136,-7.51105,-45.1978,7.12502,18.3793,-74.3495,8.93289e-15,-1.17283e-14,27.2863,30.0571,-5.88773,56.4845,49.5527,-29.1709,-27.7822,7.12502,-2.51675,2.18268,-17.811,-6.97965,0.667455,22.5954,-26.0709,-32.9672,45.3142,-26.283,2.08755,-24.6671,26.5576,-14.9511,14.4018,9.90308
4.42152,17.483,3.0369,17.6551,-22.5048,-5.41299,-4.70002,4.64027,3.87937,-9.32605,6.15171,-0.0720803,-6.72272,2.78277,-2.27762,-10.7216,5.74467,3.26428,36.3268,6.79997,2.47218,14.2555,3.69019,1.44563,1.26228e-14,-7.95139e-15,19.0853,-16.848,-10.2494,117.903,-54.9397,-7.21287,-45.376,7.12502,18.6661,-74.5005,1.26228e-14,-7.95139e-15,27.3055,30.1384,-5.59179,56.9428,49.6612,-29.8437,-28.2275,7.12502,-3.16651,1.72876,-17.993,-7.00581,0.804925,22.8696,-28.484,-31.1966,46.7875,-26.2816,2.14945,-24.5407,26.6169,-14.9345,14.4984,11.9211
4.43498,17.4779,3.03339,17.5287,-22.6358,-5.32213,-4.3554,4.60872,3.68128,-9.40448,6.13168,-0.0484554,-7.02749,2.77724,-2.18055,-10.8314,5.65286,3.16198,36.6688,6.69945,2.43666,14.4355,3.62333,1.4505,1.27222e-14,2.50469e-14,19.1517,-16.4533,-10.3941,117.95,-54.9595,-7.25249,-45.5285,7.12502,18.628,-74.6565,1.27222e-14,2.50469e-14,27.2615,30.0002,-5.32888,57.4283,49.8791,-30.3581,-28.4633,7.12502,-3.6633,1.48494,-18.1603,-7.09578,0.630499,23.2119,-31.2317,-28.6787,48.2657,-26.2347,2.01715,-24.6552,26.6741,-14.9931,14.6485,10.1007
4.45012,17.4763,3.02684,17.3715,-22.7435,-5.19113,-4.63272,4.69813,3.74062,-8.95903,6.21951,-0.206086,-6.35477,2.83651,-2.32608,-11.3923,5.50433,3.03959,36.6254,6.46373,2.4966,14.533,3.50874,1.48044,-6.08778e-15,1.55052e-14,19.0402,-16.8601,-10.4552,117.927,-54.6396,-7.70947,-45.4201,7.12502,18.1884,-74.5898,-6.08778e-15,1.55052e-14,27.6659,30.6611,-4.8546,57.6614,49.9265,-30.4474,-28.5336,7.12502,-3.74953,1.41312,-18.5725,-7.5675,0.600631,23.5839,-27.4471,-32.3761,45.9204,-26.178,1.90805,-24.8099,26.7191,-15.0328,14.7559,9.56396
4.46373,17.4722,3.0242,17.3783,-22.8765,-5.25725,-4.23018,4.73611,3.72226,-9.2355,6.29954,-0.172937,-6.88588,2.85976,-2.33433,-11.2613,5.43083,2.69653,37.0556,6.29823,2.92011,14.6689,3.44561,1.69702,-1.91579e-14,-8.54774e-15,18.8842,-16.2311,-10.3752,117.96,-54.4208,-7.96152,-45.2078,7.12502,17.9459,-74.3998,-1.91579e-14,-8.54774e-15,27.8477,30.3207,-4.47394,57.951,49.9619,-29.4121,-27.5389,7.12502,-2.74974,2.42315,-18.9591,-7.92338,0.727591,23.9203,-25.8311,-33.5647,45.0362,-26.2129,2.01693,-24.823,26.7722,-15.0506,14.7869,9.68837
4.4768,17.4708,3.0233,17.4722,-23.01,-5.45683,-4.13754,4.795,3.891,-9.32133,6.38706,-0.145508,-7.01408,2.88776,-2.41144,-11.4991,5.36715,2.0391,37.5026,6.09565,3.67903,14.8701,3.36578,2.1183,9.7889e-14,3.22031e-14,18.7973,-15.9384,-10.3553,117.931,-54.3058,-7.77623,-44.832,7.12502,18.1241,-74.0076,9.7889e-14,3.22031e-14,28.2419,30.4707,-3.80564,58.2147,49.8785,-28.5024,-26.5681,7.12502,-1.87114,3.40346,-19.307,-8.19472,0.985662,24.1383,-24.5674,-34.4159,44.337,-26.3322,2.10034,-24.677,26.8845,-15.156,14.8144,10.0328
4.48845,17.4736,3.02541,17.5963,-23.1108,-5.74564,-4.1809,4.81696,4.09569,-9.31706,6.41892,-0.0495431,-6.97387,2.89428,-2.41886,-11.5938,5.3483,1.8181,37.6884,6.05035,3.87819,14.9618,3.33957,2.24387,9.33046e-15,4.77083e-15,18.7992,-15.7157,-10.3606,117.91,-54.1855,-7.21743,-44.2475,7.12502,18.6617,-73.3723,9.33046e-15,4.77083e-15,28.3022,30.4723,-3.58908,58.514,50.1424,-28.7092,-26.5103,7.12502,-2.07083,3.45942,-19.5653,-8.32958,1.29491,24.2657,-23.9659,-34.8881,44.0485,-26.4588,2.11195,-24.4172,27.0387,-15.1852,14.9719,9.51946
4.49795,17.4721,3.03643,17.6956,-23.1954,-6.08005,-4.29499,4.84298,4.35958,-9.31464,6.45251,0.0707519,-6.89239,2.89979,-2.42655,-11.4099,5.3121,1.96915,37.7518,6.04988,3.62564,14.9693,3.32474,2.10847,1.07543e-13,5.98342e-14,18.9081,-15.5422,-10.5068,117.956,-54.4427,-6.6418,-44.3015,7.12502,19.2153,-73.3722,1.07543e-13,5.98342e-14,28.0598,30.135,-3.76537,58.9289,50.7615,-28.7987,-26.4328,7.12502,-2.15727,3.53603,-19.8598,-8.66047,1.70973,24.421,-18.9269,-37.5381,41.0899,-26.4349,2.23208,-24.163,27.1391,-15.1953,15.1023,8.89944
4.50588,17.4692,3.05164,17.5869,-23.4276,-6.07586,-4.41659,4.87591,4.30936,-9.27153,6.48765,0.089678,-6.78072,2.92528,-2.36569,-11.2594,5.26655,2.0431,37.9509,6.00588,3.50706,15.0413,3.29715,2.0425,8.38996e-14,2.62396e-14,19.0946,-15.5453,-10.8268,118.068,-54.8877,-6.36807,-45.1723,7.12502,19.4785,-74.2167,8.38996e-14,2.62396e-14,27.8897,29.8806,-3.76233,59.3752,51.1256,-29.2005,-26.4624,7.12502,-2.54534,3.50212,-20.0424,-8.88119,1.68829,24.6477,-17.9629,-37.9323,40.7592,-26.2563,2.43438,-24.2902,27.1963,-15.3322,15.1561,8.97411
4.51184,17.4667,3.05522,17.4095,-23.7493,-5.81778,-4.27743,4.87676,3.8898,-9.34041,6.49678,0.0644668,-6.97346,2.95042,-2.18134,-11.1991,5.24978,2.22862,38.2929,6.01209,3.28899,15.2152,3.29104,1.93388,1.01877e-15,-2.98177e-15,19.1204,-15.138,-10.9871,118.116,-54.7289,-6.69102,-45.5479,7.12502,19.168,-74.6234,1.01877e-15,-2.98177e-15,27.7137,29.5391,-3.71754,59.8436,51.3418,-30.2675,-27.1274,7.12502,-3.57581,2.82239,-20.3344,-8.87357,1.37268,24.9489,-18.8772,-37.7147,41.5158,-26.1677,2.64312,-24.6486,27.2525,-15.4175,15.2236,9.18533
4.52047,17.4636,3.04938,17.4592,-23.9452,-5.87431,-4.52773,4.94703,3.90723,-9.10223,6.56884,0.0318574,-6.5607,2.99941,-2.18682,-11.5092,5.18966,2.20761,38.3145,5.92278,3.27039,15.3,3.24435,1.92929,-7.24322e-15,-2.98177e-15,19.0234,-15.0866,-11.0155,118.06,-54.4684,-7.06997,-45.5343,7.12502,18.8035,-74.6454,-7.24322e-15,-2.98177e-15,27.815,29.8619,-3.44708,60.234,51.5774,-30.6251,-27.8119,7.12502,-3.92116,2.13178,-20.861,-8.93648,1.44494,25.3608,-17.2839,-38.4441,40.8515,-26.2306,2.83747,-24.6607,27.252,-15.4645,15.1914,9.52283
4.53379,17.4588,3.04524,17.6388,-23.9694,-6.1257,-4.54166,4.97017,4.1249,-9.0681,6.60012,0.0863012,-6.49831,3.00497,-2.24507,-11.6971,5.12669,1.91944,38.3964,5.78534,3.57416,15.3585,3.18418,2.09562,2.77429e-14,1.41137e-14,18.9834,-14.9884,-11.0812,118.106,-54.6373,-6.91308,-45.7804,7.12502,18.9544,-74.8769,2.77429e-14,1.41137e-14,27.7799,29.924,-3.35197,60.5959,51.9329,-30.2399,-28.0851,7.12502,-3.54909,1.86513,-21.4403,-9.34038,1.78734,25.803,-14.3485,-39.3669,39.5383,-26.3136,2.96904,-24.492,27.2285,-15.5204,15.1444,9.5498
4.54846,17.4558,3.0466,17.6089,-23.9243,-6.12264,-4.33311,4.92834,4.14734,-9.11822,6.55852,0.0919435,-6.67254,2.97686,-2.2744,-11.8927,5.0478,1.78164,38.6382,5.65119,3.69724,15.5162,3.11977,2.16933,-1.32813e-14,-3.37934e-15,19.0061,-14.7916,-11.1663,118.121,-54.6888,-6.68265,-45.8746,7.12502,19.176,-74.9493,-1.32813e-14,-3.37934e-15,27.5694,29.6873,-3.52114,61.0219,52.5664,-29.9021,-28.2857,7.12502,-3.22289,1.66968,-21.7989,-9.90179,1.8769,26.1777,-11.0682,-40.0307,37.9251,-26.283,2.96108,-24.5541,27.268,-15.6242,15.11,9.63506
4.5597,17.4516,3.0544,17.3801,-24.0183,-5.96868,-4.09664,4.91337,4.01472,-9.14259,6.55071,0.0455908,-6.84208,2.97446,-2.27445,-12.0824,5.00006,1.89149,39.051,5.58156,3.59416,15.7833,3.08472,2.12327,-4.72859e-14,-1.92821e-14,18.9641,-14.4396,-11.1761,118.042,-54.5761,-6.68575,-45.8067,7.12502,19.173,-74.8817,-4.72859e-14,-1.92821e-14,27.5051,29.5124,-3.4507,61.4883,53.0716,-29.7764,-28.5026,7.12502,-3.10148,1.45459,-22.008,-10.2518,1.75872,26.5121,-7.47966,-40.2682,35.922,-26.1152,3.01301,-24.7574,27.3508,-15.8849,14.9552,10.6019
4.56752,17.4458,3.05841,17.241,-24.2129,-5.94817,-4.00995,4.94085,3.93637,-9.06108,6.58928,0.0291698,-6.80607,3.0004,-2.25261,-12.3344,4.96585,1.84013,39.3917,5.51285,3.65684,16.0166,3.05008,2.17472,-2.94077e-14,-9.93923e-15,18.8917,-14.2621,-11.1658,118.008,-54.523,-6.67702,-45.7132,7.12502,19.1814,-74.7873,-2.94077e-14,-9.93923e-15,27.5204,29.5246,-3.23904,61.9042,53.1965,-30.0865,-28.8625,7.12502,-3.40103,1.09013,-22.3316,-10.3616,1.77267,26.8546,-4.37943,-39.9972,33.7308,-25.996,3.22332,-24.8531,27.4286,-16.1854,14.7421,11.8872
4.57588,17.4426,3.05546,17.2952,-24.3401,-6.01203,-4.1333,4.94827,3.95613,-8.90958,6.58787,0.023633,-6.568,3.00731,-2.24826,-12.3114,4.8875,1.68586,39.1283,5.42542,3.67898,15.8672,2.99587,2.1819,1.68967e-14,9.93923e-15,18.8839,-14.349,-11.2463,118.061,-54.5177,-6.44624,-45.5405,7.12502,19.4033,-74.5924,1.68967e-14,9.93923e-15,27.5104,29.6504,-3.09491,62.3062,53.2197,-31.4238,-29.978,7.12502,-4.69232,-0.0499418,-22.847,-10.5483,1.95026,27.1705,-1.34156,-39.5038,31.2807,-26.0996,3.41435,-24.8646,27.531,-16.2915,14.6304,12.2497
4.5842,17.4402,3.05131,17.3962,-24.478,-6.00178,-4.35101,4.95331,3.93928,-8.82319,6.57844,0.00324198,-6.35012,3.01046,-2.23422,-11.9208,4.83538,1.78667,38.5551,5.4388,3.37114,15.499,2.98115,1.99245,-4.33599e-15,-1.21259e-14,19.0509,-14.3041,-11.4855,118.016,-54.3724,-6.23432,-45.3742,7.12502,19.6071,-74.4054,-4.33599e-15,-1.21259e-14,27.5705,29.7509,-2.83303,62.698,53.1944,-33.1383,-31.5846,7.12502,-6.34772,-1.69975,-23.4694,-10.8014,2.09523,27.4559,1.21929,-39.0457,28.9832,-26.3134,3.505,-24.9309,27.6413,-16.1786,14.7663,11.4968
4.59133,17.4373,3.04956,17.416,-24.6679,-5.98327,-4.43546,4.9768,3.89314,-8.80413,6.60444,0.0104438,-6.28551,3.02858,-2.1924,-11.6652,4.85287,1.71998,38.4479,5.50438,3.32859,15.3816,2.99524,1.98116,6.48411e-14,-3.97569e-15,19.3146,-14.1592,-11.8491,117.943,-54.16,-5.94419,-45.4266,7.12502,19.886,-74.4292,6.48411e-14,-3.97569e-15,27.4929,29.673,-2.66633,63.1147,53.2396,-33.7437,-32.3337,7.12502,-6.93214,-2.46722,-24.0132,-10.97,2.19414,27.766,1.10983,-38.6941,29.0211,-26.3994,3.54568,-24.9911,27.6914,-16.0259,15.0625,10.4227
4.59967,17.4352,3.04999,17.3818,-24.7993,-5.94152,-4.4272,4.98514,3.85424,-8.76616,6.61425,-0.00678036,-6.25029,3.03675,-2.18757,-11.6886,4.88047,1.51878,38.6439,5.54822,3.47271,15.4682,3.00136,2.09302,-6.60089e-14,-6.55989e-15,19.4174,-14.193,-12.1479,118.032,-54.1599,-5.64147,-45.7943,7.12502,20.177,-74.7664,-6.60089e-14,-6.55989e-15,27.3469,29.6227,-2.66297,63.5929,53.5173,-33.2006,-31.7202,7.12502,-6.40787,-1.83716,-24.4358,-11.2176,2.25208,28.0483,1.89207,-38.2548,28.6465,-26.403,3.59298,-25.0919,27.7149,-15.9673,15.2611,9.65878
4.60852,17.4341,3.03707,17.3073,-24.8426,-5.84023,-4.12305,4.93595,3.68086,-8.84128,6.56639,-0.0295965,-6.52235,3.01434,-2.15093,-11.7214,4.87792,1.62319,38.8574,5.54467,3.38924,15.5929,2.99921,2.0501,5.13113e-15,9.93923e-16,19.3587,-14.0215,-12.2872,118.178,-54.2843,-5.63709,-46.0374,7.12502,20.1812,-75.0091,5.13113e-15,9.93923e-16,27.2569,29.5202,-2.64833,64.0905,53.8081,-32.4251,-30.6129,7.12502,-5.6592,-0.708509,-24.8136,-11.3549,2.2647,28.2487,1.01128,-38.1796,29.9562,-26.4751,3.61992,-25.2153,27.7725,-15.8547,15.3688,9.0713
4.6181,17.4386,3.01748,17.3092,-24.7834,-5.94623,-3.61401,4.84804,3.61747,-9.05029,6.48496,0.0474913,-7.0611,2.96251,-2.09714,-11.6191,4.86807,1.76167,39.1212,5.5093,3.33655,15.7128,2.99288,2.00588,-3.47873e-15,1.35174e-14,19.2871,-13.5278,-12.3252,118.29,-54.2076,-5.64612,-46.0688,7.12502,20.1725,-75.0414,-3.47873e-15,1.35174e-14,27.0718,29.1383,-2.67894,64.5583,54.1352,-32.1456,-30.5845,7.12502,-5.38935,-0.672999,-25.1713,-11.2641,2.51114,28.4233,-5.28246,-38.0219,35.6132,-26.6379,3.4767,-25.0142,27.8608,-15.8445,15.3889,10.6619
4.62841,17.4439,3.02084,17.3996,-24.787,-6.1765,-3.57385,4.81791,3.78383,-9.10963,6.45313,0.123825,-7.14322,2.93473,-2.11512,-11.4315,4.84062,1.75274,39.2046,5.47153,3.3318,15.7106,2.97338,1.99517,1.33931e-14,1.17283e-14,19.2195,-13.221,-12.3396,118.388,-54.0452,-5.72551,-46.1701,7.12502,20.0962,-75.1508,1.33931e-14,1.17283e-14,26.9511,28.7957,-2.69149,64.9309,54.4622,-31.7439,-30.9209,7.12502,-5.00148,-0.999948,-25.5209,-11.3966,2.88497,28.5693,-6.01539,-37.5762,36.558,-26.7253,3.39741,-24.7563,27.9877,-16.1376,15.3584,12.647
4.63445,17.4378,3.03817,17.4385,-24.9685,-6.41238,-3.84834,4.88938,4.00849,-8.99743,6.53251,0.159826,-6.84066,2.97066,-2.1679,-11.1411,4.79714,1.69218,39.0801,5.42466,3.33036,15.5749,2.9465,1.97993,2.19657e-14,1.98785e-15,19.1461,-13.1927,-12.4252,118.485,-54.0682,-5.55843,-46.2774,7.12502,20.2568,-75.2411,2.19657e-14,1.98785e-15,27.0019,28.6722,-2.50547,65.2885,54.3411,-31.3867,-30.8248,7.12502,-4.65653,-0.895965,-25.8407,-11.6888,3.23533,28.6897,-0.836572,-37.242,32.5847,-26.5741,3.71086,-24.6834,28.1427,-16.3694,15.4591,11.0095
4.63877,17.4314,3.05227,17.4893,-25.0943,-6.72942,-4.093,5.0001,4.34115,-8.90509,6.66499,0.190529,-6.5624,3.02552,-2.28783,-10.7232,4.77676,1.67611,38.8979,5.3949,3.35552,15.3817,2.93918,1.96394,-3.00413e-14,-2.66371e-14,19.0133,-13.0898,-12.4957,118.464,-53.9658,-5.30595,-46.0631,7.12502,20.4994,-75.0009,-3.00413e-14,-2.66371e-14,27.13,28.5269,-2.19663,65.751,54.2042,-32.091,-31.5524,7.12502,-5.33659,-1.63961,-26.1884,-11.9266,3.69987,28.8861,1.73672,-36.6359,30.4722,-26.4345,4.06061,-24.5038,28.2452,-16.4396,15.4902,9.43331
4.64358,17.4291,3.0591,17.4938,-25.1301,-6.80771,-4.26586,5.03978,4.44807,-8.83522,6.70317,0.158241,-6.37073,3.04353,-2.35807,-10.6348,4.73395,1.94044,38.8631,5.36551,3.07543,15.3684,2.92684,1.7907,-8.68689e-14,-1.19271e-14,18.9079,-12.9574,-12.5814,118.367,-53.7813,-5.36153,-45.7443,7.12502,20.446,-74.6878,-8.68689e-14,-1.19271e-14,27.1879,28.3791,-2.01993,66.2136,54.5279,-32.763,-32.6748,7.12502,-5.98543,-2.7793,-26.5811,-12.1453,3.92925,29.1496,2.04466,-36.1208,30.4873,-26.4704,4.21966,-24.4776,28.3754,-16.5374,15.3757,9.56821
4.64802,17.4235,3.05493,17.3021,-25.194,-6.48144,-4.1567,4.96864,4.07324,-8.79283,6.61068,0.0860361,-6.42188,3.01798,-2.238,-10.9603,4.61901,2.18712,39.1021,5.23489,2.75301,15.5937,2.85695,1.61253,2.81032e-14,-3.57812e-15,18.8915,-12.8202,-12.6743,118.368,-53.8782,-5.36489,-45.672,7.12502,20.4428,-74.6158,2.81032e-14,-3.57812e-15,27.1441,28.3662,-1.84719,66.5775,54.8016,-32.4426,-32.8172,7.12502,-5.6761,-2.91319,-26.8385,-12.1808,3.61981,29.4176,-3.50574,-35.3919,35.7276,-26.4856,4.27087,-24.8394,28.5043,-16.5969,15.3472,9.34912
4.65228,17.41,3.04519,17.1224,-25.2702,-6.16938,-3.89719,4.87024,3.6754,-8.82864,6.49254,0.0541789,-6.65193,2.9764,-2.08193,-11.1359,4.58671,2.0206,39.2866,5.13385,2.98317,15.714,2.81715,1.73677,-8.3738e-14,-3.24019e-14,18.9086,-12.4866,-12.7274,118.37,-53.8923,-5.50229,-45.5444,7.12502,20.3107,-74.5024,-8.3738e-14,-3.24019e-14,27.0595,28.3443,-1.64688,66.9324,54.8897,-31.7724,-32.3315,7.12502,-5.02894,-2.41122,-27.6784,-12.8132,3.78585,29.6947,18.9753,-29.8633,5.97145,-26.5943,4.22531,-25.1401,28.6415,-16.8124,15.1935,11.5634
4.6593,17.4137,3.03838,17.1048,-25.3405,-6.13256,-3.78062,4.80761,3.55032,-8.83014,6.41509,0.0705647,-6.73879,2.94396,-2.00774,-11.0125,4.72716,1.86502,39.1117,5.29696,3.23236,15.5751,2.89991,1.88349,6.58226e-14,1.96797e-14,18.9607,-12.2855,-12.8545,118.345,-53.7673,-5.53939,-45.4783,7.12502,20.2751,-74.44,6.58226e-14,1.96797e-14,26.9733,28.3332,-1.54065,67.3106,54.9737,-31.4381,-32.0656,7.12502,-4.70619,-2.13787,-28.099,-12.5787,3.77106,29.9991,13.4311,-32.1455,15.6317,-26.7245,4.23601,-25.1823,28.7178,-17.1048,14.97,16.5472
4.66139,17.4081,3.03227,17.0622,-25.3638,-6.15834,-3.73136,4.74633,3.49922,-8.77516,6.33609,0.113418,-6.72133,2.9105,-1.93657,-10.8848,4.73273,1.81372,38.9887,5.36698,3.11011,15.4834,2.90597,1.8409,-1.12761e-13,-1.78906e-14,18.9813,-12.2121,-12.9456,118.401,-53.8072,-5.43791,-45.616,7.12502,20.3726,-74.5674,-1.12761e-13,-1.78906e-14,26.9192,28.3559,-1.33769,67.6605,54.8877,-31.3009,-31.3229,7.12502,-4.57373,-1.39232,-28.5707,-12.5147,3.95838,30.2506,14.0849,-31.5474,14.8098,-26.7292,4.36778,-25.2119,28.8138,-17.0241,15.0719,12.7149
4.66401,17.4015,3.03006,16.9834,-25.3268,-6.20115,-3.736,4.69174,3.49505,-8.65969,6.26216,0.154092,-6.60205,2.87994,-1.88487,-11.0965,4.52345,1.7878,39.208,5.12772,2.8945,15.6565,2.76488,1.73229,4.32108e-14,1.05356e-14,18.9056,-12.1323,-12.8867,118.565,-53.9478,-5.49335,-45.7456,7.12502,20.3193,-74.7027,4.32108e-14,1.05356e-14,26.8643,28.3665,-1.19425,67.9327,54.8787,-31.3292,-30.9135,7.12502,-4.601,-0.983433,-28.9738,-12.5059,4.17546,30.5003,13.9193,-31.4157,14.859,-26.6384,4.4512,-25.2018,28.8512,-16.7049,15.2866,9.89578
4.66805,17.4018,3.03418,16.9829,-25.2999,-6.35005,-3.91712,4.70048,3.63875,-8.42272,6.25934,0.15179,-6.22788,2.88245,-1.9358,-11.6468,4.34504,1.87804,39.4218,4.8859,2.71048,15.9144,2.64392,1.62664,-3.75455e-14,-1.47101e-14,18.776,-12.3485,-12.8357,118.707,-54.2255,-5.09021,-45.9422,7.12502,20.7067,-74.8575,-3.75455e-14,-1.47101e-14,27.1055,28.6348,-0.884752,68.0668,54.7985,-31.1913,-31.2435,7.12502,-4.4679,-1.31067,-29.3207,-12.4267,4.44476,30.7397,10.2775,-32.7977,20.3101,-26.588,4.51594,-25.0786,28.8864,-16.5865,15.3435,9.43942
4.67145,17.3993,3.03704,16.9369,-25.2942,-6.44323,-3.93937,4.69303,3.72065,-8.28226,6.24488,0.146782,-6.05571,2.8765,-1.97575,-12.1204,4.17352,1.69261,39.6759,4.61022,2.84544,16.1534,2.51266,1.69783,6.9848e-14,9.93923e-16,18.7073,-12.41,-12.8988,118.674,-54.3763,-4.43867,-45.9746,7.12502,21.3327,-74.8204,6.9848e-14,9.93923e-16,27.5078,28.8852,-0.293216,68.1929,54.5856,-30.5415,-30.3619,7.12502,-3.84039,-0.416734,-29.5848,-12.3834,4.63973,30.9817,4.64002,-34.0559,27.4035,-26.5207,4.62594,-25.0412,28.9434,-16.5345,15.4045,8.87765
4.67664,17.3956,3.03339,16.81,-25.2976,-6.54135,-3.6927,4.66213,3.79875,-8.27726,6.21839,0.174266,-6.18747,2.85577,-2.01191,-12.0151,4.14388,1.76595,39.7434,4.56977,2.77425,16.1694,2.49525,1.64605,-2.21396e-14,-5.76476e-15,18.6475,-12.0647,-12.9549,118.556,-54.1602,-4.49244,-45.6202,7.12502,21.281,-74.4719,-2.21396e-14,-5.76476e-15,27.3814,28.5528,-0.360274,68.551,55.267,-30.4128,-29.9001,7.12502,-3.71613,0.0472756,-30.086,-12.5635,5.05836,31.1907,14.5855,-31.7577,13.5941,-26.3773,4.6941,-24.9736,29.0027,-16.545,15.4726,8.33813
4.68261,17.3958,3.02668,16.6767,-25.2831,-6.66278,-3.54449,4.66445,3.91752,-8.1528,6.22881,0.20182,-6.12843,2.85798,-2.05477,-12.0343,4.18999,2.01598,39.7579,4.66534,2.52548,16.2011,2.53767,1.51139,1.71949e-14,-5.76476e-15,18.6076,-11.9892,-13.0145,118.436,-53.9097,-4.9005,-45.3473,7.12502,20.889,-74.2426,1.71949e-14,-5.76476e-15,26.8864,28.0495,-0.906381,69.1385,56.5287,-31.0745,-31.1674,7.12502,-4.35512,-1.23219,-30.2023,-12.1295,5.12992,31.4409,2.45718,-35.0614,30.1339,-26.2274,4.6822,-24.8319,29.0338,-16.6021,15.4777,8.45227
4.68795,17.3952,3.01918,16.4998,-25.2114,-6.62623,-3.44411,4.62845,3.85639,-7.9676,6.18307,0.222299,-5.99662,2.84577,-1.9993,-12.223,4.15739,2.0131,39.7257,4.65111,2.42594,16.2343,2.51664,1.47126,-6.21699e-14,-3.16068e-14,18.6563,-12.0548,-13.1003,118.307,-53.6166,-4.98626,-45.2251,7.12502,20.8066,-74.1295,-6.21699e-14,-3.16068e-14,26.6156,27.8926,-0.987205,69.6728,57.3022,-31.5612,-31.8123,7.12502,-4.82504,-1.88724,-30.6913,-12.2935,5.40006,31.7057,9.56444,-34.3362,22.5857,-26.1153,4.60839,-24.8291,29.0389,-16.5833,15.4649,8.4998
4.69276,17.3941,3.01473,16.3432,-25.1156,-6.59593,-3.3161,4.57406,3.80103,-7.8766,6.11557,0.227358,-5.98102,2.8172,-1.97025,-12.1549,4.11228,1.90959,39.6649,4.5907,2.47976,16.1792,2.48377,1.4979,-4.96837e-14,-2.78299e-14,18.66,-11.8911,-13.1613,118.163,-53.2311,-4.89042,-45.0342,7.12502,20.8987,-73.9285,-4.96837e-14,-2.78299e-14,26.5587,27.8041,-0.864787,70.0333,57.7588,-31.6776,-31.6524,7.12502,-4.93739,-1.72995,-31.1004,-12.3901,5.55189,32.0587,10.1465,-34.502,22.4683,-25.9851,4.61218,-24.8472,29.0127,-16.6863,15.293,9.21965
4.69654,17.3944,3.01291,16.2189,-25.0394,-6.56293,-3.1815,4.54168,3.73699,-7.90287,6.07889,0.202324,-6.09116,2.79858,-1.9743,-11.953,4.05116,1.90649,39.7157,4.48879,2.50724,16.156,2.44408,1.48829,3.88748e-14,1.27222e-14,18.529,-11.6626,-13.2001,118.094,-53.1009,-4.74678,-44.9676,7.12502,21.0367,-73.8466,3.88748e-14,1.27222e-14,26.5907,27.543,-0.704382,70.3462,58.1982,-31.4928,-31.2375,7.12502,-4.75901,-1.31099,-31.4803,-12.4711,5.69637,32.3826,9.73926,-34.8743,23.792,-25.8458,4.75818,-24.9033,28.962,-16.9405,14.8988,10.657
4.6989,17.3945,3.0047,16.0451,-24.9692,-6.35648,-2.9337,4.46216,3.46446,-8.00443,5.9837,0.159985,-6.36799,2.7575,-1.89567,-11.7535,4.00822,1.90544,39.8656,4.40818,2.54694,16.1854,2.41371,1.49087,-1.77664e-14,2.38542e-15,18.3552,-11.3377,-13.2327,118.083,-53.0038,-4.65939,-44.8767,7.12502,21.1206,-73.7463,-1.77664e-14,2.38542e-15,26.7567,27.2763,-0.299207,70.5775,58.5508,-31.0372,-30.4442,7.12502,-4.31909,-0.508239,-31.8249,-12.4145,5.61399,32.7631,5.66005,-35.7841,28.813,-25.759,4.85043,-25.0992,28.8891,-16.9296,14.655,10.7188
4.70049,17.3911,2.99819,15.8585,-24.8367,-6.17156,-2.70888,4.31676,3.26114,-8.02887,5.79696,0.134752,-6.54832,2.67104,-1.82845,-11.7104,4.02161,1.95389,39.9797,4.42629,2.50899,16.2385,2.4204,1.47106,-1.55301e-14,1.03368e-14,18.3327,-10.9622,-13.37,118.014,-52.6824,-5.05058,-44.554,7.12502,20.7448,-73.4652,-1.55301e-14,1.03368e-14,26.8011,27.1203,-0.0215273,70.766,58.7686,-30.8176,-30.3511,7.12502,-4.10696,-0.410963,-32.4688,-12.7987,5.84126,33.0616,19.5469,-31.3437,10.559,-25.6719,4.77926,-25.2229,28.8575,-16.6813,14.6598,9.53757
4.70398,17.3938,3.00047,15.7147,-24.7104,-6.15141,-2.63134,4.20799,3.27128,-7.95971,5.65358,0.136293,-6.52423,2.60032,-1.83269,-11.7831,4.01109,2.06048,40.056,4.4295,2.36802,16.3067,2.41542,1.39595,-5.75482e-14,-1.07344e-14,18.4013,-10.6715,-13.5575,117.934,-52.5146,-5.86494,-44.1754,7.12502,19.9622,-73.1701,-5.75482e-14,-1.07344e-14,26.7522,27.0506,0.147985,71.0106,58.9102,-30.755,-30.7993,7.12502,-4.04655,-0.857936,-32.5664,-12.6486,5.8,33.3389,9.94546,-35.4774,25.2625,-25.5038,4.75137,-25.2162,28.8436,-16.714,14.5438,10.4983
4.70635,17.3945,3.00139,15.6944,-24.6053,-6.16636,-2.72283,4.15365,3.31162,-7.92919,5.57533,0.121901,-6.43776,2.56087,-1.85915,-11.578,3.98513,2.1684,39.9885,4.42107,2.2146,16.23,2.4074,1.29946,1.51076e-14,2.78299e-15,18.3068,-10.4121,-13.5592,117.988,-52.6655,-6.55932,-43.9544,7.12502,19.2946,-73.0172,1.51076e-14,2.78299e-15,26.8266,26.9736,0.411992,71.2726,59.0469,-30.6,-30.6963,7.12502,-3.89688,-0.752218,-33.016,-12.6765,6.0238,33.4847,13.5802,-34.4348,21.2249,-25.4895,4.89177,-25.2268,28.8637,-17.012,14.1518,14.3062
4.70887,17.3953,3.00272,15.7168,-24.4624,-6.12214,-2.84897,4.0819,3.28398,-7.98411,5.47357,0.12178,-6.43238,2.51129,-1.83487,-11.1819,3.98935,2.25588,39.872,4.49443,2.00301,16.0815,2.42416,1.18782,6.06293e-15,1.19271e-14,18.1405,-10.0722,-13.4256,118.177,-52.7207,-6.53892,-44.0553,7.12502,19.3142,-73.1161,6.06293e-15,1.19271e-14,26.8711,26.7451,0.716713,71.5344,59.1069,-30.6128,-30.3782,7.12502,-3.90926,-0.434326,-33.3977,-12.6557,6.10485,33.6178,13.317,-34.3564,21.8956,-25.58,5.06782,-25.3072,28.9034,-17.1358,13.7863,17.1414
4.71016,17.3954,3.00653,15.6406,-24.355,-6.09969,-2.8178,4.02445,3.24386,-8.06505,5.40192,0.18059,-6.55045,2.47613,-1.75711,-10.9357,3.93747,2.16882,40.0054,4.49067,1.88579,16.0917,2.39227,1.14777,-5.89397e-14,-2.46493e-14,18.0082,-9.66584,-13.2696,118.291,-52.5193,-6.03846,-44.0898,7.12502,19.7954,-73.1018,-5.89397e-14,-2.46493e-14,26.8835,26.4312,1.13311,71.7914,59.2127,-30.5211,-29.8872,7.12502,-3.82072,0.0583099,-33.6271,-12.5692,6.16645,33.7101,12.3659,-34.5605,23.4313,-25.5645,5.17117,-25.3363,28.9745,-17.0047,13.736,16.909
4.70983,17.395,3.0055,15.5822,-24.268,-6.09661,-2.72968,3.97173,3.19264,-8.14305,5.33894,0.232738,-6.69778,2.44524,-1.68435,-10.6923,3.82592,2.0083,40.0999,4.38082,1.84943,16.0765,2.31585,1.13724,4.53478e-14,2.22639e-14,17.8839,-9.31116,-13.1492,118.307,-52.5228,-5.98659,-43.8715,7.12502,19.8452,-72.8783,4.53478e-14,2.22639e-14,26.7636,26.0362,1.33095,72.085,59.4875,-30.5556,-29.0148,7.12502,-3.85401,0.930064,-34.0076,-12.517,6.34669,33.8529,14.6568,-33.4722,20.7198,-25.5775,5.17118,-25.3086,29.0227,-16.72,13.8224,15.4348
4.71026,17.3943,3.00054,15.6126,-24.1696,-6.07962,-2.6795,3.90671,3.12739,-8.19608,5.25526,0.251464,-6.7951,2.40545,-1.63367,-10.4146,3.75215,1.93821,39.8992,4.33758,1.72706,15.9043,2.27277,1.0753,-1.17531e-14,-2.14687e-14,17.8202,-9.10255,-13.1222,118.356,-52.7805,-6.22931,-43.8106,7.12502,19.6119,-72.8414,-1.17531e-14,-2.14687e-14,26.6401,25.7105,1.43078,72.3489,59.7351,-30.807,-28.8556,7.12502,-4.09677,1.08477,-34.4329,-12.4589,6.48349,34.0074,14.3488,-33.1642,21.1982,-25.705,5.11497,-25.2928,29.0727,-16.5874,13.7429,15.1751
4.71208,17.3937,2.9974,15.5993,-24.0827,-6.13003,-2.65165,3.86978,3.13765,-8.13346,5.20857,0.297034,-6.74886,2.38502,-1.59031,-10.5764,3.73432,1.83882,39.9352,4.33579,1.72543,15.9587,2.2555,1.09741,-2.99419e-14,-7.55382e-15,17.7737,-9.0283,-13.0541,118.417,-52.9307,-6.42376,-43.7845,7.12502,19.425,-72.8343,-2.99419e-14,-7.55382e-15,26.8732,25.9459,2.09142,72.5689,60.3568,-29.2782,-27.8178,7.12502,-2.62039,2.14588,-34.6055,-12.2284,6.49238,34.195,6.11848,-35.0212,30.6808,-25.7117,5.09025,-25.23,29.1264,-16.6528,13.6321,15.5662
