JuanDHNZ/ProyectoFinalCD/preprocessing/sports_trials_csv/49_18.csv
root1,root2,root3,root4,root5,root6,lowerback1,lowerback2,lowerback3,upperback1,upperback2,upperback3,thorax1,thorax2,thorax3,lowerneck1,lowerneck2,lowerneck3,upperneck1,upperneck2,upperneck3,head1,head2,head3,rclavicle1,rclavicle2,rhumerus1,rhumerus2,rhumerus3,rradius1,rwrist1,rhand1,rhand2,rfingers1,rthumb1,rthumb2,lclavicle1,lclavicle2,lhumerus1,lhumerus2,lhumerus3,lradius1,lwrist1,lhand1,lhand2,lfingers1,lthumb1,lthumb2,rfemur1,rfemur2,rfemur3,rtibia1,rfoot1,rfoot2,rtoes1,lfemur1,lfemur2,lfemur3,ltibia1,lfoot1,lfoot2,ltoes1
3.76436,17.433,3.67153,21.3672,-7.82105,-1.38926,-11.336,1.20737,7.31746,-13.8217,1.20083,1.11203,-8.39061,-0.0465514,-2.83048,-2.33673,18.2681,13.0551,11.5342,22.9064,7.62269,4.4443,12.1554,1.632,-5.96354e-15,-3.97569e-15,-9.51269,-24.0621,26.9017,121.682,-59.3895,-3.91294,-46.2141,7.12502,21.8376,-75.0019,-5.96354e-15,-3.97569e-15,33.1087,26.8804,-16.6845,28.7709,25.281,-25.8372,-22.8955,7.12502,0.702983,7.08312,4.73581,4.23817,0.550992,-1.27222e-14,-18.1569,-24.3136,42.5539,-28.8479,-1.76052,-24.8201,25.6735,-16.1259,5.75257,9.18287
3.76392,17.4322,3.67022,21.4629,-7.99147,-1.22539,-11.3698,1.22692,7.11847,-13.8826,1.23217,1.03498,-8.43468,-0.0204271,-2.80082,-2.26213,18.2466,13.1504,11.5111,22.8971,7.50396,4.44998,12.1469,1.5826,-3.81667e-14,-1.59028e-15,-9.51021,-24.0777,26.8949,121.659,-59.3543,-3.47246,-46.0517,7.12502,22.2605,-74.7896,-3.81667e-14,-1.59028e-15,33.0756,26.8954,-16.8277,28.7832,25.4153,-25.5441,-22.9444,7.12502,0.986062,7.03308,4.55626,4.29283,0.289887,1.27222e-14,-19.0247,-22.8026,43.9886,-28.9185,-1.62257,-25.071,25.5979,-16.2614,5.72634,9.17179
3.7654,17.4331,3.66866,21.8108,-8.32557,-1.26733,-11.5438,1.36585,7.05217,-13.9987,1.40606,0.999528,-8.45312,0.0666117,-2.79168,-2.23883,18.2244,13.1738,11.3869,22.8884,7.39337,4.42201,12.132,1.53964,8.54774e-15,3.4191e-14,-9.53817,-24.0476,26.9613,121.625,-59.2689,-3.02174,-45.8613,7.12502,22.6931,-74.5469,8.54774e-15,3.4191e-14,33.1874,27.0487,-16.7255,28.7341,25.2624,-25.4209,-23.3004,7.12502,1.10507,6.67647,4.02711,4.48376,0.145875,9.54166e-15,-19.4579,-22.2771,44.6535,-29.3222,-1.57652,-25.0978,25.6582,-16.1514,5.97315,8.92449
3.76212,17.4301,3.67764,21.557,-7.95918,-1.2782,-11.3935,1.25898,7.1881,-13.9434,1.26958,0.990807,-8.48869,-0.0139941,-2.88478,-2.44834,18.203,13.117,11.5776,22.8093,7.48911,4.49663,12.1073,1.5987,3.18055e-14,-1.66979e-14,-9.52241,-24.0449,26.9807,121.595,-59.2017,-2.92135,-45.868,7.12502,22.7894,-74.5418,3.18055e-14,-1.66979e-14,33.335,27.1946,-16.531,28.6692,25.0552,-25.6157,-23.6109,7.12502,0.916923,6.36688,4.51258,4.25315,0.363589,-3.81667e-14,-20.7235,-21.01,46.4119,-29.0485,-1.68158,-24.9894,25.6954,-16.1317,5.76305,8.8171
3.7595,17.428,3.68006,21.4522,-7.79465,-1.33093,-11.2934,1.20672,7.32046,-13.9457,1.20299,0.98866,-8.55664,-0.0620311,-2.96455,-2.41998,18.1624,13.188,11.6201,22.764,7.37975,4.52583,12.0846,1.56036,1.98785e-16,1.19271e-14,-9.40757,-24.1745,26.9013,121.507,-59.2412,-2.9305,-46.096,7.12502,22.7807,-74.7709,1.98785e-16,1.19271e-14,33.3474,27.2114,-16.5337,28.6699,25.0877,-25.6115,-23.4666,7.12502,0.921006,6.51114,4.72186,4.16394,0.5201,-9.54166e-15,-21.7687,-19.9189,47.7695,-28.9624,-1.62724,-24.9122,25.7733,-16.2591,5.58252,8.96229
3.7597,17.4262,3.68568,21.438,-7.77121,-1.33313,-11.3561,1.20065,7.40541,-13.9088,1.18029,0.946845,-8.48188,-0.0804623,-3.0569,-2.40661,18.1797,13.2619,11.5484,22.8043,7.22609,4.52779,12.0958,1.51004,6.85807e-15,-3.65764e-14,-9.35185,-24.3236,26.8462,121.427,-59.2502,-3.20832,-46.3056,7.12502,22.514,-75.013,6.85807e-15,-3.65764e-14,33.2074,27.1656,-16.7831,28.7334,25.2891,-25.587,-23.1951,7.12502,0.944661,6.78257,4.77166,4.14876,0.545926,-2.54444e-14,-21.7383,-19.9727,47.6347,-28.9523,-1.48661,-24.9581,25.8397,-16.4016,5.45311,8.99061
3.76065,17.4251,3.69312,21.4739,-7.69695,-1.38877,-11.4735,1.21212,7.53563,-13.8633,1.17363,0.913996,-8.36612,-0.0925039,-3.16351,-2.59827,18.202,13.19,11.5465,22.8036,7.26574,4.54417,12.0959,1.54603,-2.3556e-14,9.54166e-15,-9.48209,-24.2526,26.9556,121.479,-59.217,-4.10573,-46.4624,7.12502,21.6524,-75.2717,-2.3556e-14,9.54166e-15,33.0463,27.0136,-17.1147,28.8211,25.663,-25.4562,-23.0587,7.12502,1.07098,6.91835,4.80109,4.09305,0.633468,1.27222e-14,-21.2655,-20.4345,46.9355,-28.9965,-1.4674,-24.9034,25.8958,-16.4451,5.38433,9.04398
3.7596,17.4236,3.6959,21.4469,-7.62737,-1.3975,-11.4581,1.21804,7.59188,-13.8563,1.17805,0.871836,-8.36643,-0.0975262,-3.2401,-2.65,18.1404,13.1054,11.4372,22.7248,7.26966,4.50569,12.0499,1.54593,1.68967e-14,-2.78299e-14,-9.6469,-24.0218,27.1414,121.553,-59.0393,-5.04333,-46.4934,7.12502,20.7518,-75.4038,1.68967e-14,-2.78299e-14,33.1547,27.0553,-17.0572,28.8021,25.649,-25.27,-22.8873,7.12502,1.25081,7.08879,4.88754,4.04426,0.675033,2.54444e-14,-21.3324,-20.2974,47.0207,-28.9861,-1.50024,-24.8715,25.9373,-16.481,5.33195,9.26203
3.76134,17.422,3.69856,21.4357,-7.55631,-1.39341,-11.4509,1.22897,7.69268,-13.8694,1.18517,0.799625,-8.38589,-0.108473,-3.37347,-2.55127,18.1066,13.1558,11.3345,22.7034,7.22028,4.4685,12.0332,1.50964,8.05078e-15,-1.59028e-15,-9.74807,-23.8872,27.2107,121.569,-58.8103,-6.01606,-46.5891,7.12502,19.8169,-75.5988,8.05078e-15,-1.59028e-15,33.5628,27.5244,-16.5112,28.6668,25,-25.2893,-22.8421,7.12502,1.23217,7.13406,4.95204,3.98397,0.703596,0,-20.5682,-20.9651,45.9698,-28.9751,-1.42697,-24.898,25.9617,-16.5428,5.16888,9.59144
3.76275,17.4213,3.70193,21.4561,-7.60346,-1.36406,-11.4953,1.26774,7.70976,-13.8987,1.22936,0.735111,-8.38926,-0.0927433,-3.44977,-2.42993,18.102,13.2363,11.3376,22.7141,7.20162,4.46209,12.0398,1.48645,-2.09718e-14,-1.11319e-14,-9.8364,-23.861,27.2909,121.606,-58.8918,-6.67559,-46.778,7.12502,19.1828,-75.852,-2.09718e-14,-1.11319e-14,33.6789,27.5898,-16.3895,28.695,24.9851,-25.3707,-22.8892,7.12502,1.15353,7.0874,4.9315,4.00722,0.662235,1.59028e-14,-18.8583,-22.3665,43.4475,-28.9751,-1.31512,-24.9786,25.9367,-16.5585,5.0973,9.61375
3.76187,17.4217,3.69971,21.5083,-7.86587,-1.28729,-11.4744,1.33606,7.55145,-13.9527,1.33046,0.6985,-8.44824,-0.0335466,-3.39689,-2.54219,18.0821,13.1267,11.5343,22.6493,7.37396,4.509,12.0236,1.5618,-1.6201e-14,-6.36111e-15,-9.87045,-23.897,27.4049,121.664,-59.1527,-6.12297,-46.6096,7.12502,19.7141,-75.6299,-1.6201e-14,-6.36111e-15,33.4176,27.1927,-16.7955,28.8586,25.6309,-25.1461,-23.0315,7.12502,1.37046,6.94383,4.75947,4.19038,0.482927,-1.27222e-14,-18.482,-22.6865,42.7947,-29.0053,-1.31639,-25.0956,25.8614,-16.3444,5.37457,8.74896
3.76246,17.4242,3.69008,21.6704,-8.17849,-1.19139,-11.4689,1.41559,7.33777,-14.0078,1.44777,0.663139,-8.49779,0.0394198,-3.31105,-2.74925,18.0962,12.9763,11.683,22.6159,7.57848,4.54765,12.021,1.65798,9.54166e-15,8.74653e-15,-9.84678,-24.0244,27.4174,121.632,-59.1931,-5.07233,-46.2118,7.12502,20.7239,-75.1253,9.54166e-15,8.74653e-15,33.3455,27.2038,-16.8555,28.8727,25.7012,-24.6181,-23.4587,7.12502,1.88036,6.51277,4.40588,4.37236,0.24276,-3.18055e-15,-19.2036,-22.3415,43.7461,-29.1873,-1.42486,-25.2072,25.764,-16.3839,5.6377,9.46752
3.76044,17.426,3.68329,21.686,-8.25564,-1.08439,-11.4636,1.40688,7.15847,-13.9584,1.44331,0.645586,-8.44072,0.056234,-3.23056,-2.868,18.1435,12.9473,11.6531,22.6644,7.56467,4.55562,12.042,1.67045,-2.04748e-14,7.95139e-16,-9.78652,-24.2803,27.3296,121.511,-59.1185,-4.73439,-46.0453,7.12502,21.0486,-74.923,-2.04748e-14,7.95139e-16,33.5037,27.5894,-16.526,28.7666,25.3874,-24.5285,-23.6942,7.12502,1.96693,6.27644,4.32662,4.39231,0.120404,1.27222e-14,-19.924,-21.8847,44.7192,-29.207,-1.46801,-25.301,25.6698,-16.0836,5.67616,8.95109
3.75697,17.4268,3.68383,21.4983,-8.01727,-1.08961,-11.373,1.30029,7.19937,-13.8245,1.30421,0.668277,-8.35204,-0.00888638,-3.23646,-2.9395,18.1922,12.9531,11.5189,22.7353,7.4552,4.53824,12.0648,1.64416,-2.15681e-14,6.36111e-15,-9.71294,-24.5463,27.2044,121.43,-59.179,-4.79059,-46.171,7.12502,20.9946,-75.0547,-2.15681e-14,6.36111e-15,33.641,28.0406,-16.1897,28.6693,25.0151,-24.6927,-23.6512,7.12502,1.80835,6.32084,4.64551,4.24873,0.283036,0,-21.0288,-20.848,46.2539,-28.9572,-1.36835,-25.268,25.598,-16.2645,5.31769,9.53097
3.75764,17.4295,3.68609,21.4355,-7.84054,-1.1912,-11.3477,1.26397,7.36433,-13.771,1.24876,0.687527,-8.31335,-0.047657,-3.31029,-2.87123,18.2153,12.9997,11.37,22.7929,7.34885,4.49852,12.0813,1.59894,-7.95139e-15,-3.02153e-14,-9.65134,-24.6552,27.1665,121.388,-59.1687,-4.4804,-46.1975,7.12502,21.2926,-75.0478,-7.95139e-15,-3.02153e-14,33.5163,28.0755,-16.3175,28.7006,25.0915,-24.5857,-23.567,7.12502,1.91169,6.40414,4.79647,4.15361,0.487649,-1.27222e-14,-22.2768,-19.7269,47.8204,-28.8596,-1.39641,-25.1221,25.5533,-16.1331,5.27292,9.04498
3.75879,17.4322,3.68361,21.4866,-7.88168,-1.25813,-11.3233,1.30664,7.43371,-13.8317,1.30702,0.693967,-8.39202,-0.028935,-3.33965,-2.60422,18.1875,13.0517,11.2668,22.8148,7.2308,4.44396,12.0816,1.5305,-2.68359e-15,2.38542e-15,-9.559,-24.6685,27.1968,121.333,-59.0203,-4.39784,-46.051,7.12502,21.3719,-74.8924,-2.68359e-15,2.38542e-15,33.0828,27.4135,-17.0337,28.8966,25.9863,-24.6497,-23.2722,7.12502,1.84986,6.69956,4.69317,4.19814,0.548284,9.54166e-15,-22.7287,-19.5324,48.2021,-28.9196,-1.47635,-25.0339,25.54,-15.9736,5.49065,8.58364
3.75828,17.4336,3.67881,21.4971,-7.97364,-1.26002,-11.2038,1.3256,7.38748,-13.8762,1.34814,0.702068,-8.50531,-0.00885571,-3.30523,-2.27183,18.1122,13.0878,10.9783,22.8069,6.98969,4.3321,12.0515,1.40935,8.94531e-15,1.19271e-14,-9.51383,-24.7399,27.2107,121.307,-58.8648,-4.60795,-45.8923,7.12502,21.1701,-74.7564,8.94531e-15,1.19271e-14,32.8986,27.0582,-17.3644,28.9387,26.3947,-25.0597,-23.2491,7.12502,1.4539,6.72568,4.60149,4.27569,0.52716,9.54166e-15,-22.2662,-20.1771,47.4857,-28.9152,-1.46954,-25.0414,25.525,-16.0812,5.5639,9.07676
3.75865,17.4343,3.67719,21.4774,-8.02612,-1.22373,-11.1336,1.31985,7.30529,-13.8407,1.34979,0.702955,-8.50169,0.00080921,-3.25961,-2.12436,18.0461,13.1312,10.6752,22.7812,6.72165,4.24802,12.0122,1.29721,4.27387e-15,-1.27222e-14,-9.5779,-24.8567,27.2208,121.362,-58.7959,-5.03356,-45.8034,7.12502,20.7612,-74.7128,4.27387e-15,-1.27222e-14,33.0748,27.3356,-17.0599,28.7851,25.9561,-25.4971,-23.561,7.12502,1.03148,6.41623,4.58982,4.31419,0.475032,-2.22639e-14,-22.4868,-19.9735,47.775,-28.8613,-1.57498,-25.0536,25.4769,-16.1933,5.60038,9.79562
3.75807,17.4345,3.67815,21.4916,-8.07808,-1.20055,-11.2137,1.33858,7.25039,-13.8009,1.36758,0.689745,-8.40742,0.0184005,-3.24136,-2.28474,18.0302,13.1059,10.8207,22.7245,6.75303,4.31163,11.9931,1.3296,3.12092e-14,-1.51076e-14,-9.68038,-24.8773,27.2792,121.481,-58.8928,-5.7019,-45.9689,7.12502,20.1189,-74.9472,3.12092e-14,-1.51076e-14,33.1778,27.4905,-16.8681,28.7253,25.6017,-25.8196,-23.6385,7.12502,0.719939,6.33998,4.55434,4.34598,0.433873,-1.27222e-14,-22.8765,-19.5674,48.2976,-28.8345,-1.69184,-25.0464,25.4053,-16.1185,5.7358,9.62793
3.75707,17.4357,3.67913,21.5151,-8.1666,-1.19545,-11.2745,1.37185,7.2112,-13.7389,1.40329,0.648223,-8.29597,0.0430079,-3.26163,-2.8438,18.0735,13.0649,11.2893,22.6449,6.9835,4.51544,11.9895,1.47678,-2.88238e-14,-2.34566e-14,-9.79053,-24.9557,27.3044,121.539,-59.0287,-5.61779,-46.0546,7.12502,20.1997,-75.0244,-2.88238e-14,-2.34566e-14,33.1634,27.605,-16.9513,28.7187,25.4377,-25.5806,-23.6653,7.12502,0.950844,6.31231,4.47133,4.41365,0.391404,-9.54166e-15,-21.8064,-20.7693,46.8556,-28.816,-1.7267,-25.0471,25.3363,-16.028,5.90745,9.12949
3.75949,17.4362,3.67968,21.5919,-8.31376,-1.13978,-11.3156,1.40739,7.11843,-13.6834,1.44639,0.59749,-8.20154,0.0747544,-3.26181,-3.25955,18.1143,13.0271,11.4481,22.6135,7.08388,4.61464,11.9874,1.55733,-2.39536e-14,1.07344e-14,-9.80231,-25.1413,27.2239,121.502,-59.0332,-4.91838,-45.9127,7.12502,20.8718,-74.8099,-2.39536e-14,1.07344e-14,33.2581,27.8911,-16.8685,28.6452,25.2056,-24.8,-23.7768,7.12502,1.70475,6.19614,4.31671,4.4954,0.241811,3.18055e-15,-20.5092,-22.0585,45.032,-28.854,-1.6582,-25.1642,25.2565,-15.8668,5.91469,8.87212
3.76512,17.4374,3.6813,21.9107,-8.63969,-1.17902,-11.5892,1.53444,7.08007,-13.7335,1.59281,0.597216,-8.09056,0.153453,-3.22902,-3.00367,18.1172,12.9912,11.1087,22.6938,6.9545,4.47847,12.0011,1.4829,-1.74931e-14,-4.37326e-15,-9.7401,-25.2033,27.225,121.476,-58.9398,-4.51394,-45.8729,7.12502,21.2604,-74.7268,-1.74931e-14,-4.37326e-15,33.4456,28.0972,-16.5434,28.5631,24.9735,-24.3191,-23.9648,7.12502,2.16917,6.00395,3.82733,4.68779,0.0728329,-6.36111e-15,-19.3948,-23.1216,43.45,-29.1416,-1.42883,-25.2693,25.1869,-16.0078,5.91046,9.41361
3.76571,17.4356,3.69211,21.5389,-8.31799,-1.02881,-11.4735,1.40409,7.08193,-13.598,1.42497,0.57379,-8.01629,0.074524,-3.26516,-2.77704,18.1417,12.9503,10.8897,22.7883,6.86511,4.38073,12.03,1.43198,-1.0635e-14,1.19271e-15,-9.6817,-25.239,27.2599,121.435,-58.8504,-4.64779,-45.927,7.12502,21.1318,-74.7954,-1.0635e-14,1.19271e-15,33.5778,28.2475,-16.2897,28.497,24.6852,-24.2124,-24.3599,7.12502,2.27218,5.60775,4.39803,4.47441,0.0945289,1.59028e-14,-19.2796,-23.161,43.2851,-28.6894,-1.37467,-25.4074,25.1426,-15.9394,5.60239,8.7602
3.76687,17.4346,3.69744,21.4241,-8.20874,-0.956308,-11.4648,1.36247,7.06024,-13.5293,1.36854,0.553301,-7.94739,0.0514514,-3.27784,-3.26838,18.2059,12.7995,11.3993,22.7464,7.19179,4.56429,12.0477,1.61363,-2.31584e-14,-8.74653e-15,-9.57168,-25.334,27.1609,121.278,-58.5711,-4.90827,-45.8874,7.12502,20.8815,-74.7835,-2.31584e-14,-8.74653e-15,33.6722,28.3523,-16.1599,28.4382,24.4618,-24.4553,-24.5106,7.12502,2.0376,5.45941,4.60348,4.38987,0.0758386,3.81667e-14,-19.9005,-22.6045,44.228,-28.5671,-1.44951,-25.4461,25.1392,-16.0913,5.59378,8.75873
3.7696,17.4344,3.69608,21.3985,-8.17059,-0.941785,-11.4578,1.35451,7.07183,-13.5049,1.35694,0.546837,-7.92448,0.0457828,-3.29186,-3.93918,18.2611,12.6211,12.1997,22.6348,7.65344,4.85032,12.0533,1.86811,1.97791e-14,1.82882e-14,-9.45449,-25.3165,27.0295,121.116,-58.1843,-4.8554,-45.6929,7.12502,20.9323,-74.5835,1.97791e-14,1.82882e-14,33.6614,28.188,-16.2437,28.464,24.6773,-24.8017,-24.1296,7.12502,1.70308,5.84331,4.65964,4.35983,0.0676002,-3.18055e-14,-20.3426,-22.1428,44.9419,-28.5747,-1.46835,-25.4537,25.1662,-16.0316,5.49332,9.19572
3.77217,17.4354,3.69294,21.3792,-8.15104,-0.999531,-11.4574,1.36294,7.14676,-13.4842,1.36346,0.552817,-7.90105,0.0441456,-3.32678,-3.88361,18.2382,12.6086,12.2319,22.6162,7.62764,4.85326,12.0436,1.85745,2.29596e-14,3.26007e-14,-9.43688,-25.2827,27.0285,121.109,-58.2916,-4.58054,-45.645,7.12502,21.1964,-74.5062,2.29596e-14,3.26007e-14,33.5909,27.9536,-16.4317,28.541,25.0899,-25.2336,-23.6458,7.12502,1.28594,6.33005,4.67386,4.3716,0.132855,0,-21.3392,-21.2693,46.2561,-28.5935,-1.44677,-25.401,25.2528,-16.2109,5.46805,9.27498
3.77555,17.4345,3.69619,21.4977,-8.30876,-1.08087,-11.6412,1.43321,7.19185,-13.4714,1.43644,0.563733,-7.77678,0.0816696,-3.33343,-3.57592,18.2102,12.6027,11.9109,22.6609,7.49394,4.71746,12.041,1.77165,-3.21037e-14,-1.90833e-14,-9.43178,-25.3553,27.0965,121.183,-58.8299,-4.39254,-45.8039,7.12502,21.377,-74.6447,-3.21037e-14,-1.90833e-14,33.5625,27.943,-16.4763,28.5721,25.2704,-25.7604,-23.4339,7.12502,0.777131,6.54448,4.49326,4.50127,0.121074,1.90833e-14,-22.1381,-20.5516,47.2623,-28.7238,-1.45758,-25.3541,25.3408,-16.1307,5.60356,9.26111
3.78019,17.4346,3.69705,21.821,-8.61085,-1.3001,-11.9048,1.57487,7.31629,-13.511,1.59467,0.6147,-7.66098,0.155237,-3.3348,-3.75069,18.2391,12.4683,12.0437,22.6555,7.68213,4.75019,12.0508,1.8602,-3.598e-14,-1.66979e-14,-9.383,-25.3953,27.1603,121.261,-59.2642,-4.50105,-45.9343,7.12502,21.2727,-74.7868,-3.598e-14,-1.66979e-14,33.4885,27.9548,-16.5322,28.5912,25.3413,-25.7749,-23.4227,7.12502,0.763163,6.55569,4.01284,4.74181,0.15454,9.54166e-15,-21.7298,-21.0297,46.7057,-29.0763,-1.47365,-25.1766,25.4232,-16.1287,6.0164,8.94019
3.77729,17.4356,3.69596,21.4387,-8.20146,-1.26122,-11.5919,1.40457,7.35752,-13.4155,1.39501,0.648783,-7.74817,0.053682,-3.33731,-3.94318,18.2645,12.3566,12.2746,22.636,7.86865,4.81981,12.0596,1.95421,5.1684e-15,2.22639e-14,-9.33221,-25.263,27.2301,121.347,-59.3609,-4.8095,-46.0411,7.12502,20.9764,-74.9268,5.1684e-15,2.22639e-14,33.4043,27.816,-16.6122,28.6347,25.4899,-25.7523,-23.3735,7.12502,0.784977,6.60475,4.59137,4.49712,0.354155,-3.18055e-15,-21.5586,-21.098,46.4179,-28.7131,-1.5023,-25.1268,25.4671,-16.1862,5.71916,8.92606
3.77758,17.438,3.69124,21.3139,-8.04235,-1.26209,-11.4062,1.34175,7.37626,-13.4155,1.3297,0.667172,-7.85938,0.0167457,-3.3342,-3.95811,18.293,12.2459,12.3613,22.6598,8.03429,4.81832,12.0806,2.01746,-1.40143e-14,1.59028e-15,-9.2504,-25.0492,27.1546,121.321,-59.1204,-4.63622,-46.0296,7.12502,21.1429,-74.8968,-1.40143e-14,1.59028e-15,33.4214,27.727,-16.5805,28.6525,25.4733,-26.1386,-23.3506,7.12502,0.411894,6.6287,4.76183,4.39937,0.445442,-1.90833e-14,-22.5953,-20.1736,47.7103,-28.6106,-1.4897,-25.0998,25.4656,-16.1881,5.56265,8.91852
3.77729,17.4378,3.69096,21.3307,-8.11811,-1.23686,-11.4038,1.36826,7.29216,-13.4129,1.36885,0.646724,-7.85162,0.0430852,-3.30747,-4.13298,18.3133,12.122,12.5139,22.6411,8.22841,4.85782,12.0862,2.10741,7.25564e-15,-1.78906e-14,-9.19865,-24.9414,27.033,121.221,-58.9328,-4.39049,-46.0345,7.12502,21.3789,-74.875,7.25564e-15,-1.78906e-14,33.3826,27.614,-16.7104,28.6958,25.5093,-26.2326,-23.4218,7.12502,0.321093,6.55766,4.70418,4.45056,0.385909,-1.59028e-14,-23.3654,-19.374,48.773,-28.6061,-1.46524,-25.1485,25.4223,-16.2438,5.55212,9.44353
3.77482,17.437,3.6907,21.371,-8.20786,-1.17928,-11.3935,1.38867,7.14175,-13.4398,1.40573,0.630435,-7.88191,0.0722551,-3.23969,-4.22607,18.2898,12.1061,12.614,22.5912,8.22849,4.90234,12.0669,2.12185,7.95139e-15,3.06128e-14,-9.18545,-24.8761,27.0337,121.178,-58.9161,-4.9036,-46.0462,7.12502,20.886,-74.9419,7.95139e-15,3.06128e-14,33.3036,27.4438,-16.9026,28.7687,25.7167,-25.9734,-23.3289,7.12502,0.571464,6.65007,4.61252,4.49336,0.297299,-2.22639e-14,-23.0896,-19.6595,48.4813,-28.6331,-1.50311,-25.2054,25.3796,-16.2134,5.64647,9.54428
3.77317,17.4373,3.69156,21.4186,-8.23385,-1.21548,-11.3988,1.40643,7.12873,-13.4597,1.43082,0.638804,-7.8991,0.0853811,-3.22222,-3.88421,18.2546,12.2355,12.2756,22.639,7.92776,4.79014,12.06,1.9747,-2.84262e-14,-3.57812e-15,-9.13405,-24.7564,26.9705,121.136,-58.7346,-5.1099,-45.8578,7.12502,20.6878,-74.7752,-2.84262e-14,-3.57812e-15,33.4647,27.6271,-16.7069,28.6971,25.4031,-25.5991,-23.1995,7.12502,0.932926,6.77818,4.5392,4.51381,0.332742,-2.54444e-14,-22.7745,-20.0579,48.0771,-28.6526,-1.5995,-25.1316,25.3352,-15.8806,5.81592,8.6313
3.7732,17.4374,3.69351,21.4119,-8.25773,-1.22543,-11.4314,1.40877,7.12263,-13.412,1.42915,0.638163,-7.82613,0.0887917,-3.21896,-3.58518,18.2438,12.3551,11.8792,22.7188,7.5975,4.66912,12.0648,1.8238,-2.47487e-14,5.56597e-15,-9.09332,-24.7604,26.9493,121.092,-58.7115,-4.74236,-45.7422,7.12502,21.0409,-74.6208,-2.47487e-14,5.56597e-15,33.4788,27.7513,-16.7291,28.6398,25.0607,-25.3056,-23.1906,7.12502,1.21645,6.78565,4.53677,4.54093,0.329466,6.36111e-15,-22.3117,-20.619,47.5289,-28.6154,-1.65526,-25.1074,25.2926,-16.0405,5.87975,8.9174
3.77404,17.4368,3.69537,21.3761,-8.25185,-1.0948,-11.4501,1.37825,6.99496,-13.4101,1.39219,0.598035,-7.81539,0.0796511,-3.19247,-3.26362,18.191,12.4904,11.5815,22.7333,7.31932,4.57156,12.0462,1.68562,-4.07509e-15,-1.35174e-14,-9.07655,-24.8107,27.1022,121.085,-58.9324,-4.70728,-45.8644,7.12502,21.0746,-74.7392,-4.07509e-15,-1.35174e-14,33.2662,27.3965,-17.1476,28.762,25.3191,-25.4412,-23.2263,7.12502,1.08542,6.75069,4.58792,4.4977,0.184415,1.59028e-14,-22.0213,-20.9909,47.1247,-28.5801,-1.62207,-25.2692,25.252,-16.0111,5.68306,9.82556
3.77297,17.4357,3.6976,21.3402,-8.24284,-0.977742,-11.4566,1.35971,6.86019,-13.4294,1.37324,0.547512,-7.8337,0.0781756,-3.17249,-2.87809,18.1116,12.6636,11.3197,22.7139,7.0758,4.47544,12.0159,1.54716,-2.79292e-14,3.97569e-15,-9.03593,-24.7385,27.1236,121.057,-58.7665,-5.14148,-46.1556,7.12502,20.6575,-75.0763,-2.79292e-14,3.97569e-15,33.5256,27.5555,-16.8563,28.7197,25.047,-25.4327,-23.4234,7.12502,1.09362,6.55352,4.65522,4.45698,0.0678654,-1.27222e-14,-22.2308,-20.7723,47.2682,-28.5485,-1.59733,-25.4012,25.2116,-16.1038,5.62153,9.74444
3.76937,17.4343,3.6991,21.2991,-8.26342,-0.92812,-11.4512,1.34243,6.73028,-13.4041,1.35698,0.542361,-7.8077,0.0827795,-3.10657,-2.90016,18.1114,12.7274,11.3965,22.7071,7.01879,4.51718,12.0157,1.53357,-2.68359e-15,-1.39149e-14,-9.03348,-24.6489,27.0916,121.073,-58.5228,-5.44746,-46.4447,7.12502,20.3634,-75.3971,-2.68359e-15,-1.39149e-14,33.8881,28.0496,-16.3092,28.57,24.4165,-25.1389,-23.6296,7.12502,1.37743,6.34565,4.69612,4.46968,0.025157,9.54166e-15,-22.6267,-20.3286,47.7234,-28.4959,-1.53451,-25.4613,25.1883,-16.0823,5.56257,9.64052
3.76847,17.4352,3.69866,21.3086,-8.23941,-0.95274,-11.4299,1.32823,6.71198,-13.4474,1.34333,0.557474,-7.87096,0.0752271,-3.08131,-2.82548,18.1309,12.7993,11.4656,22.7404,6.98636,4.54015,12.0359,1.5185,9.93923e-17,-9.14409e-15,-8.90325,-24.5019,26.9501,121.054,-58.4316,-5.40151,-46.4768,7.12502,20.4076,-75.4244,9.93923e-17,-9.14409e-15,33.8891,27.9748,-16.3469,28.6109,24.4309,-25.0125,-23.6612,7.12502,1.49952,6.31327,4.67805,4.45474,0.0648139,-9.54166e-15,-22.8965,-20.1064,48.0687,-28.4867,-1.44883,-25.4574,25.1947,-16.0678,5.52768,9.35513
3.77093,17.4371,3.69526,21.3175,-8.19619,-1.06401,-11.353,1.33615,6.85453,-13.5153,1.35565,0.567446,-7.99248,0.0635442,-3.15066,-2.72563,18.1203,12.8281,11.5634,22.7306,7.04086,4.55267,12.0392,1.52638,-1.47101e-14,-1.27222e-14,-8.67335,-24.3795,26.6695,120.934,-58.256,-5.33739,-46.2764,7.12502,20.4692,-75.2174,-1.47101e-14,-1.27222e-14,33.9438,27.8602,-16.3913,28.6302,24.4345,-25.0253,-23.6123,7.12502,1.48715,6.36228,4.66559,4.45671,0.190388,-9.54166e-15,-23.01,-20.0789,48.1876,-28.489,-1.49059,-25.3294,25.2126,-16.041,5.60247,9.21767
3.77092,17.4371,3.695,21.3034,-8.19307,-1.14913,-11.2589,1.34458,6.92218,-13.5472,1.3738,0.588771,-8.0809,0.0640766,-3.16612,-3.02768,18.1438,12.6592,11.9557,22.6753,7.34474,4.66998,12.0423,1.67555,1.60022e-14,-3.57812e-15,-8.57995,-24.303,26.5554,120.874,-58.1676,-5.11086,-46.023,7.12502,20.6869,-74.9405,1.60022e-14,-3.57812e-15,34.0153,27.8214,-16.375,28.5832,24.2374,-25.2311,-23.4752,7.12502,1.28839,6.50066,4.67819,4.49145,0.283525,5.40694e-14,-23.1749,-19.9157,48.4456,-28.4817,-1.55483,-25.2154,25.2373,-15.9735,5.68544,9.04514
3.76794,17.436,3.69959,21.2828,-8.17402,-1.08525,-11.2643,1.33605,6.79159,-13.5065,1.36798,0.586709,-8.02994,0.0758174,-3.09586,-3.64925,18.2226,12.3335,12.4328,22.639,7.76435,4.83384,12.0614,1.90989,-1.03368e-14,-4.37326e-15,-8.60353,-24.2351,26.4746,120.867,-58.0692,-5.18102,-45.9334,7.12502,20.6195,-74.8582,-1.03368e-14,-4.37326e-15,33.9293,27.7368,-16.5243,28.6265,24.3768,-25.339,-23.2941,7.12502,1.18419,6.68231,4.73703,4.45707,0.233282,-1.27222e-14,-23.6952,-19.2774,49.2041,-28.4683,-1.56344,-25.268,25.2537,-15.92,5.59577,9.1355
3.76641,17.4363,3.70132,21.2869,-8.14937,-1.04137,-11.3703,1.32208,6.72118,-13.6725,1.35029,0.590005,-8.16421,0.0646262,-3.05263,-2.78227,18.1656,12.5395,12.2166,22.707,7.6797,4.66311,12.0825,1.77059,-1.3418e-14,-2.26615e-14,-8.37464,-23.8054,26.2867,120.893,-58.0474,-5.66774,-45.9994,7.12502,20.1517,-74.9742,-1.3418e-14,-2.26615e-14,33.7248,27.0098,-16.9535,28.8019,24.946,-25.5402,-23.1364,7.12502,0.989867,6.84105,4.75608,4.4172,0.20099,2.8625e-14,-23.9307,-18.9847,49.5362,-28.4632,-1.64973,-25.2805,25.2354,-16.065,5.64483,9.34707
3.76548,17.4368,3.70076,21.3194,-8.20469,-1.05467,-11.3829,1.32489,6.65727,-13.6048,1.35416,0.599597,-8.07785,0.0774058,-3.00633,-2.66768,18.1275,12.6157,11.8876,22.7102,7.43703,4.57681,12.0574,1.66502,-7.85199e-15,5.56597e-15,-8.32644,-23.9394,26.1795,120.819,-58.0211,-5.86036,-46.1298,7.12502,19.9666,-75.124,-7.85199e-15,5.56597e-15,33.6276,27.0606,-17.1086,28.8294,25.0147,-25.8107,-23.1026,7.12502,0.728603,6.87585,4.69426,4.45962,0.196858,-3.18055e-14,-24.4139,-18.3842,50.1594,-28.4809,-1.76596,-25.2357,25.1975,-15.9331,5.77534,9.78074
3.76354,17.4372,3.69899,21.3121,-8.29466,-1.01154,-11.3196,1.3045,6.49522,-13.6122,1.34215,0.621466,-8.12154,0.085545,-2.89433,-2.47252,18.0649,12.7491,11.7684,22.6769,7.21371,4.54878,12.0276,1.56362,-1.19271e-14,7.95139e-15,-8.20853,-24.0769,26.1034,120.781,-58.0804,-5.91054,-46.4052,7.12502,19.9184,-75.4044,-1.19271e-14,7.95139e-15,33.5607,27.0561,-17.1905,28.8171,24.8786,-25.9591,-23.148,7.12502,0.585277,6.83098,4.6537,4.52425,0.120608,1.59028e-14,-25.2772,-17.2721,51.2289,-28.4704,-1.77776,-25.2826,25.172,-15.9034,5.94138,8.97805
3.76305,17.4386,3.69768,21.2574,-8.28856,-1.01321,-11.2587,1.28069,6.45962,-13.6128,1.31739,0.621142,-8.15824,0.0751588,-2.87692,-2.44544,18.0511,12.8267,11.9009,22.6516,7.20167,4.59681,12.0237,1.55824,9.64106e-15,-7.15625e-15,-8.2547,-24.188,26.1346,120.839,-58.2939,-6.24843,-46.5612,7.12502,19.5935,-75.5938,9.64106e-15,-7.15625e-15,33.4056,26.8084,-17.4964,28.8812,25.0406,-26.3081,-23.096,7.12502,0.248137,6.88356,4.69029,4.53814,0.127157,3.18055e-15,-24.6464,-18.1939,50.4634,-28.3984,-1.78169,-25.2738,25.1557,-15.8026,5.89254,9.19582
3.76484,17.4392,3.6981,21.2068,-8.21748,-1.08212,-11.243,1.27811,6.5562,-13.5313,1.30676,0.606623,-8.0746,0.0651558,-2.94678,-2.7093,18.0731,12.8793,12.0961,22.6208,7.22561,4.70331,12.0222,1.59803,-3.34952e-14,1.70955e-14,-8.34396,-24.302,26.0438,120.832,-58.2764,-6.70833,-46.4375,7.12502,19.1513,-75.5146,-3.34952e-14,1.70955e-14,33.2583,26.6285,-17.8013,28.9963,25.4475,-26.2283,-23.0717,7.12502,0.325278,6.90775,4.77078,4.5195,0.225301,9.54166e-15,-23.1502,-20.0045,48.5989,-28.3173,-1.8577,-25.1765,25.1351,-15.9066,5.95665,9.04741
3.76733,17.4389,3.69706,21.2342,-8.28297,-1.14762,-11.2608,1.293,6.57082,-13.4432,1.32295,0.652903,-7.96247,0.0802469,-2.90426,-3.10256,18.1098,12.7697,12.2855,22.6004,7.26275,4.8084,12.021,1.66911,-3.27995e-15,-1.51076e-14,-8.26023,-24.4902,25.7965,120.748,-58.0248,-6.78943,-46.2322,7.12502,19.0733,-75.317,-3.27995e-15,-1.51076e-14,33.1731,26.7906,-17.7932,29.0002,25.5186,-25.911,-23.37,7.12502,0.631719,6.60882,4.71851,4.59295,0.258192,0,-23.1797,-20.046,48.6146,-28.3323,-1.99311,-25.0931,25.1292,-15.8171,6.10736,9.49504
3.7685,17.4397,3.69739,21.2894,-8.45949,-1.15911,-11.32,1.33686,6.47233,-13.4196,1.38177,0.686141,-7.896,0.122805,-2.81023,-3.23148,18.084,12.7403,12.3622,22.55,7.20247,4.85597,11.9964,1.67012,-2.87244e-14,-1.90833e-14,-8.19593,-24.6333,25.6498,120.714,-57.8801,-6.13262,-46.0722,7.12502,19.7049,-75.0935,-2.87244e-14,-1.90833e-14,33.2846,27.1309,-17.4937,28.8664,24.9564,-25.8281,-23.9991,7.12502,0.711772,5.97945,4.57702,4.73352,0.192753,-2.22639e-14,-23.5245,-19.8629,48.9628,-28.3993,-2.00068,-25.1137,25.1665,-15.9533,6.38303,9.0738
3.76981,17.4422,3.69723,21.3965,-8.66331,-1.24622,-11.3767,1.45338,6.4678,-13.4942,1.53358,0.664676,-7.93493,0.195125,-2.82264,-3.08645,17.9801,12.9041,12.3885,22.4289,7.11446,4.86841,11.9394,1.60972,-2.82274e-14,5.1684e-15,-8.28023,-24.6211,25.6935,120.724,-57.8956,-5.26435,-45.9327,7.12502,20.5394,-74.8661,-2.82274e-14,5.1684e-15,33.5555,27.2493,-17.2061,28.7747,24.5227,-25.7232,-24.1473,7.12502,0.813115,5.83092,4.35246,4.90951,0.191203,3.18055e-15,-22.3661,-21.2671,47.3881,-28.5259,-1.91077,-25.0785,25.2237,-15.9437,6.55074,9.10317
3.7749,17.446,3.69169,21.6563,-9.01224,-1.56126,-11.4093,1.6595,6.68049,-13.5965,1.79733,0.696156,-8.0102,0.305024,-2.89405,-2.96644,17.9226,12.9038,12.3638,22.3691,7.14836,4.83664,11.9105,1.60021,-4.07509e-15,-3.61788e-14,-8.34162,-24.6641,25.7338,120.707,-57.975,-4.72212,-45.7939,7.12502,21.0604,-74.6703,-4.07509e-15,-3.61788e-14,33.8202,27.3417,-16.8986,28.7201,24.3401,-25.9117,-23.6773,7.12502,0.63106,6.30147,3.85796,5.2507,0.338233,1.90833e-14,-20.0891,-23.5224,44.3237,-28.8243,-1.88906,-24.8051,25.3416,-15.8519,6.98173,8.79329
3.78028,17.444,3.6924,21.3859,-8.69635,-1.61181,-11.2183,1.56714,6.87289,-13.4383,1.67743,0.723119,-7.94774,0.235858,-2.98116,-3.07599,17.9064,12.7969,12.3196,22.3456,7.10023,4.83252,11.8909,1.60289,6.26172e-15,-1.98785e-15,-8.33265,-24.9017,25.6618,120.626,-57.8617,-4.30992,-45.7054,7.12502,21.4563,-74.5372,6.26172e-15,-1.98785e-15,34.0517,27.8472,-16.4222,28.6024,23.8458,-25.9599,-23.6186,7.12502,0.584504,6.36039,4.2667,5.08385,0.563875,-1.59028e-14,-19.0888,-24.2774,42.9446,-28.5834,-1.93555,-24.7147,25.4893,-15.8793,6.73687,8.97427
3.78514,17.4454,3.6885,21.5952,-8.88594,-1.90516,-11.3801,1.66757,7.07425,-13.3474,1.78439,0.814591,-7.74523,0.285586,-2.98609,-3.39387,17.9236,12.7196,12.4362,22.3247,7.03364,4.91828,11.8807,1.63029,2.48481e-15,-1.63003e-14,-8.30463,-25.1524,25.541,120.539,-57.5965,-4.25022,-45.7052,7.12502,21.5137,-74.5304,2.48481e-15,-1.63003e-14,34.0797,28.268,-16.2196,28.5264,23.5939,-25.162,-23.9209,7.12502,1.35508,6.0545,3.94586,5.29565,0.769501,3.18055e-15,-18.3271,-24.8662,41.8412,-28.8594,-1.87431,-24.4497,25.6544,-16.2494,6.98762,9.20984
3.7848,17.4464,3.69141,21.234,-8.43304,-2.00789,-11.1962,1.51153,7.29011,-13.1747,1.57945,0.880619,-7.67388,0.175265,-3.04883,-3.45932,17.9537,12.7705,12.5725,22.3506,6.97201,4.98569,11.8981,1.62742,1.799e-14,-2.62396e-14,-8.20973,-25.2119,25.394,120.46,-57.359,-4.34217,-45.7932,7.12502,21.4253,-74.6285,1.799e-14,-2.62396e-14,33.9811,28.3279,-16.2558,28.4985,23.4204,-24.3961,-24.2121,7.12502,2.09485,5.75735,4.51268,5.05387,1.15971,1.90833e-14,-17.4503,-25.4981,40.377,-28.5116,-1.92783,-24.2458,25.7563,-15.9608,6.6507,8.74285
3.78728,17.4504,3.6923,21.1658,-8.23724,-2.17896,-11.1334,1.45439,7.52244,-13.1803,1.50025,0.946839,-7.72788,0.117021,-3.11195,-3.23551,17.9555,12.9562,12.639,22.3876,6.82578,5.01051,11.9172,1.55687,-5.96354e-15,-1.78906e-14,-8.00528,-25.1525,25.1589,120.347,-57.1739,-4.1571,-45.7951,7.12502,21.6031,-74.61,-5.96354e-15,-1.78906e-14,34.0213,28.4537,-16.0589,28.425,22.9334,-24.3498,-24.5458,7.12502,2.13948,5.42322,4.61055,4.9675,1.46191,1.59028e-14,-14.9505,-27.1772,36.183,-28.4415,-1.90434,-24.0369,25.7944,-16.136,6.51262,8.86448
3.7885,17.4528,3.69395,21.1919,-8.2366,-2.18115,-11.1803,1.43162,7.50325,-13.2118,1.46824,0.963739,-7.74185,0.101981,-3.08396,-3.05672,17.9281,13.1304,12.6824,22.3834,6.65724,5.03546,11.9138,1.48089,-9.24349e-15,3.18055e-15,-7.9013,-25.0612,24.9866,120.315,-57.1528,-4.19731,-45.6898,7.12502,21.5645,-74.5092,-9.24349e-15,3.18055e-15,33.8284,28.2695,-16.2949,28.4879,23.1925,-24.2853,-24.7045,7.12502,2.20181,5.26392,4.55531,4.9589,1.4908,-3.18055e-15,-13.8337,-27.8714,34.1728,-28.4554,-1.90071,-24.0333,25.7571,-16.0808,6.54125,8.72648
3.78816,17.4563,3.6913,21.2268,-8.27471,-2.12848,-11.2171,1.42768,7.3838,-13.2147,1.4655,0.951167,-7.72332,0.110857,-3.03065,-2.95533,17.8833,13.2081,12.6335,22.3469,6.5573,5.02323,11.891,1.43053,-1.02374e-14,7.55382e-15,-7.99277,-25.0292,24.9927,120.349,-57.2481,-4.32233,-45.598,7.12502,21.4444,-74.4311,-1.02374e-14,7.55382e-15,33.5002,27.9501,-16.8142,28.6438,23.7553,-23.9904,-24.4299,7.12502,2.48664,5.53531,4.459,4.96062,1.45642,-6.36111e-15,-15.1862,-27.5142,36.2416,-28.5052,-1.89836,-24.081,25.6993,-15.9957,6.60083,8.3663
3.78928,17.4591,3.68855,21.2514,-8.31595,-2.18199,-11.2851,1.45209,7.40202,-13.1383,1.48712,0.95789,-7.59576,0.126971,-3.03135,-2.82064,17.8892,13.2001,12.3674,22.4042,6.42605,4.93182,11.8988,1.36901,-3.30976e-14,-1.19271e-15,-8.04566,-25.2223,24.9342,120.306,-57.257,-4.00579,-45.5484,7.12502,21.7484,-74.3466,-3.30976e-14,-1.19271e-15,33.4758,28.2234,-16.7598,28.6577,23.6557,-24.3071,-23.7982,7.12502,2.18078,6.17043,4.37464,5.00945,1.5137,0,-16.3641,-27.2376,37.818,-28.497,-1.90925,-24.0246,25.6332,-15.9481,6.66446,8.20841
3.79309,17.4589,3.68852,21.2081,-8.37589,-2.2165,-11.3746,1.47851,7.44953,-12.9859,1.50387,0.962336,-7.37027,0.143476,-3.05049,-2.711,17.9087,13.1593,12.026,22.4892,6.22114,4.82573,11.9119,1.29049,1.23246e-14,-7.15625e-15,-8.07064,-25.432,24.8539,120.288,-57.2537,-3.81187,-45.6447,7.12502,21.9346,-74.4212,1.23246e-14,-7.15625e-15,33.5743,28.766,-16.4386,28.5782,23.3499,-24.9157,-23.2686,7.12502,1.59302,6.70518,4.38288,5.08952,1.52426,9.54166e-15,-17.3426,-26.862,39.0395,-28.4051,-1.88373,-24.0253,25.5983,-15.9391,6.66878,8.19366
3.79802,17.4607,3.68165,21.1671,-8.41212,-2.20233,-11.3363,1.49198,7.45414,-12.8952,1.5208,0.952389,-7.28578,0.156554,-3.06333,-2.8064,17.8866,13.0793,11.9816,22.4527,6.20774,4.81799,11.8886,1.29752,-2.98177e-15,-1.19271e-15,-8.19207,-25.4626,24.9107,120.344,-57.4405,-3.74123,-45.7428,7.12502,22.0024,-74.5113,-2.98177e-15,-1.19271e-15,33.6812,29.1362,-16.1616,28.5059,23.0993,-25.0201,-23.0582,7.12502,1.49214,6.91629,4.37052,5.12914,1.50067,-3.18055e-15,-19.2416,-25.7939,41.6205,-28.402,-1.84763,-24.0648,25.6004,-15.9231,6.6075,8.30493
3.80151,17.4635,3.67233,21.1798,-8.3548,-2.32071,-11.2759,1.51299,7.58995,-12.896,1.54755,0.961665,-7.31864,0.158147,-3.12848,-2.60898,17.8243,13.1595,11.8685,22.4102,6.11138,4.76993,11.8601,1.23373,2.16675e-14,1.59028e-15,-8.28978,-25.4099,24.9358,120.336,-57.6868,-3.73026,-45.8047,7.12502,22.013,-74.572,2.16675e-14,1.59028e-15,33.6122,28.919,-16.2939,28.5817,23.3233,-25.4954,-22.7891,7.12502,1.03305,7.18816,4.3397,5.1195,1.66153,6.36111e-15,-20.894,-24.7069,43.6719,-28.4628,-1.90465,-23.9026,25.6099,-15.865,6.59501,8.65754
3.8031,17.4643,3.66742,21.1719,-8.30525,-2.40081,-11.2434,1.52574,7.64395,-12.8942,1.56527,0.968383,-7.33333,0.162649,-3.15095,-2.29267,17.7347,13.3121,11.6515,22.3688,5.84614,4.69734,11.8215,1.09978,5.56597e-15,2.8625e-14,-8.2794,-25.423,24.8188,120.212,-57.7703,-3.87248,-45.9011,7.12502,21.8764,-74.6844,5.56597e-15,2.8625e-14,33.3881,28.44,-16.7011,28.7126,23.7758,-26.2594,-22.3787,7.12502,0.29522,7.60089,4.33881,5.10848,1.78129,0,-19.7872,-25.6049,42.1164,-28.4768,-1.96796,-23.7855,25.6156,-15.853,6.6404,8.76769
3.80595,17.4639,3.66256,21.0794,-8.33427,-2.29696,-11.1426,1.49594,7.47403,-12.7706,1.53992,0.966085,-7.24918,0.17057,-3.06205,-2.63473,17.7482,13.1961,11.7072,22.3401,5.8131,4.75857,11.8049,1.13659,-1.2424e-14,1.90833e-14,-8.24815,-25.6514,24.6851,120.001,-57.5774,-3.59133,-45.8247,7.12502,22.1463,-74.5762,-1.2424e-14,1.90833e-14,33.3092,28.6751,-16.6984,28.6574,23.6801,-26.2252,-22.3976,7.12502,0.328272,7.58188,4.38881,5.12352,1.6711,-1.27222e-14,-17.9791,-26.8424,39.6706,-28.4354,-1.99177,-23.9088,25.6685,-15.9245,6.71565,8.51682
3.81282,17.4636,3.66187,21.0169,-8.33386,-2.26532,-11.1703,1.46109,7.42204,-12.5417,1.48442,0.986403,-6.97952,0.163631,-3.01373,-3.42335,17.8922,12.9195,11.9409,22.3955,6.00307,4.90542,11.8432,1.311,-8.54774e-15,-3.18055e-15,-8.31475,-25.9791,24.644,119.828,-57.3583,-3.67583,-45.6453,7.12502,22.0652,-74.4064,-8.54774e-15,-3.18055e-15,33.2275,29.2768,-16.5936,28.618,23.8121,-25.9331,-22.7381,7.12502,0.610384,7.2408,4.46308,5.13126,1.6199,9.54166e-15,-19.1991,-26.0743,41.2697,-28.3873,-1.99749,-23.9778,25.7314,-16.001,6.76025,8.36911
3.81915,17.46,3.66386,21.0523,-8.25181,-2.37825,-11.2705,1.43301,7.56188,-12.4023,1.42381,1.02108,-6.77486,0.134564,-3.0561,-4.22858,18.0213,12.7044,12.4533,22.3985,6.33485,5.13427,11.8779,1.53519,-3.32964e-14,2.06736e-14,-8.30439,-26.2598,24.487,119.661,-57.4235,-4.1894,-45.5742,7.12502,21.5721,-74.3927,-3.32964e-14,2.06736e-14,32.9333,29.4273,-16.8977,28.7555,24.5507,-25.7392,-23.0223,7.12502,0.797657,6.95591,4.47618,5.09101,1.73404,-3.18055e-15,-20.5355,-25.1617,43.0005,-28.4434,-1.91736,-23.8965,25.8214,-16.072,6.65549,8.30508
3.82553,17.4602,3.66567,21.0879,-8.18259,-2.43325,-11.2717,1.4009,7.65264,-12.3817,1.3752,1.0406,-6.75773,0.104996,-3.08849,-4.62717,18.0654,12.6736,12.886,22.3602,6.49029,5.31458,11.8858,1.6466,3.97569e-15,5.96354e-15,-8.14174,-26.4251,24.2326,119.443,-57.508,-4.2042,-45.6419,7.12502,21.5579,-74.4621,3.97569e-15,5.96354e-15,32.5962,29.1942,-17.3648,28.8458,25.0132,-25.786,-23.0937,7.12502,0.752453,6.88469,4.46922,5.04009,1.78242,0,-21.3706,-24.528,44.1039,-28.5001,-1.77762,-23.8977,25.8798,-16.1373,6.44671,8.29031
3.82911,17.4555,3.66251,21.0583,-8.20162,-2.34541,-11.1906,1.3853,7.5347,-12.3978,1.37057,1.04071,-6.81987,0.109497,-3.02437,-4.59009,18.0475,12.7027,12.9668,22.3428,6.43718,5.3439,11.8786,1.63001,-9.93923e-17,9.54166e-15,-8.09405,-26.312,24.228,119.357,-57.5035,-4.3671,-45.8227,7.12502,21.4014,-74.6607,-9.93923e-17,9.54166e-15,32.4168,28.9011,-17.6181,28.8392,24.9926,-26.3251,-22.8018,7.12502,0.23175,7.17778,4.48587,5.03338,1.65825,1.27222e-14,-21.6934,-24.2815,44.4797,-28.4928,-1.70413,-24.0385,25.884,-16.1578,6.30569,8.58605
3.83009,17.4546,3.65463,21.0187,-8.26571,-2.16252,-10.9911,1.36027,7.21583,-12.4722,1.37928,1.04518,-7.01032,0.131414,-2.84513,-4.64016,18.0172,12.576,13.1215,22.2863,6.56111,5.37207,11.8605,1.68562,-6.95746e-15,-1.03368e-14,-8.07714,-26.0505,24.3313,119.311,-57.4437,-4.88984,-46.011,7.12502,20.8993,-74.9052,-6.95746e-15,-1.03368e-14,32.3969,28.7165,-17.5782,28.8552,24.8501,-26.2215,-22.585,7.12502,0.331801,7.39446,4.49179,5.03332,1.43997,6.36111e-15,-22.023,-23.9013,44.9272,-28.4592,-1.77372,-24.226,25.7831,-16.0553,6.31147,8.98839
3.83246,17.4591,3.64846,21.0368,-8.31012,-2.07268,-10.8554,1.33709,6.99611,-12.5291,1.37717,1.06794,-7.14863,0.143473,-2.70111,-4.79502,17.9826,12.4862,13.3007,22.2031,6.67232,5.43008,11.8312,1.74451,6.06293e-15,1.31198e-14,-7.97019,-25.944,24.2376,119.171,-57.2364,-5.01167,-46.0677,7.12502,20.7822,-74.9748,6.06293e-15,1.31198e-14,32.2149,28.4135,-17.7707,29.0051,25.2199,-25.6241,-22.6695,7.12502,0.908827,7.30832,4.40561,5.03287,1.31559,0,-19.597,-25.831,41.6988,-28.4418,-1.89755,-24.2978,25.6256,-15.9367,6.42496,9.09687
3.83417,17.465,3.64025,21.0417,-8.3576,-2.09001,-10.7371,1.33459,6.9156,-12.5334,1.39,1.08428,-7.21753,0.155083,-2.64025,-4.87487,17.9647,12.5467,13.4193,22.1512,6.69463,5.48462,11.8145,1.75685,-1.0635e-14,5.96354e-15,-7.94268,-25.97,24.1528,119.051,-57.1056,-5.18705,-46.0812,7.12502,20.6137,-75.0066,-1.0635e-14,5.96354e-15,32.0235,28.195,-18.0124,29.1525,25.7466,-25.7952,-22.6875,7.12502,0.743508,7.29099,4.30562,5.08014,1.3001,-2.22639e-14,-16.8461,-27.7497,37.8464,-28.4233,-1.96424,-24.2614,25.5054,-15.8608,6.5457,8.96435
3.83108,17.4694,3.61698,20.9982,-8.46327,-2.05381,-10.4451,1.33285,6.71746,-12.5504,1.4253,1.08473,-7.39427,0.183395,-2.53285,-4.90672,17.9679,12.6056,13.6017,22.1235,6.78959,5.54432,11.8166,1.79088,-1.74931e-14,-2.82274e-14,-8.03083,-25.9723,24.248,118.976,-57.17,-5.79553,-46.2142,7.12502,20.0289,-75.2019,-1.74931e-14,-2.82274e-14,32.3205,28.6503,-17.5168,29.027,25.3006,-26.1386,-22.8152,7.12502,0.411883,7.16417,4.20985,5.17356,1.23246,-9.54166e-15,-18.4533,-27.1978,40.3119,-28.4447,-1.99346,-24.2595,25.4006,-15.6598,6.61612,8.96573
3.83583,17.4641,3.63125,20.9925,-8.41487,-2.14219,-10.7533,1.35594,6.8485,-12.437,1.41715,1.09922,-7.09641,0.1813,-2.58559,-4.82197,17.9486,12.6458,13.6247,22.1117,6.74205,5.54813,11.8101,1.76635,-1.18277e-14,-7.95139e-15,-8.0767,-25.9641,24.2531,118.954,-57.3011,-6.09774,-46.3244,7.12502,19.7384,-75.3422,-1.18277e-14,-7.95139e-15,32.872,29.5064,-16.6008,28.6955,23.9331,-26.1521,-23.3427,7.12502,0.398846,6.63663,4.31759,5.16694,1.30732,6.36111e-15,-18.5822,-27.5025,40.5583,-28.3395,-1.84914,-24.2362,25.3615,-15.6977,6.44479,9.09847
3.83948,17.4604,3.63256,20.8704,-8.48345,-1.95816,-10.7403,1.31882,6.61738,-12.3618,1.37734,1.0776,-7.02023,0.183002,-2.48234,-4.65566,17.9276,12.6618,13.4655,22.1368,6.57333,5.49151,11.8056,1.69342,-7.85199e-15,-1.39149e-14,-8.05013,-25.9783,24.1648,118.934,-57.319,-6.01541,-46.3872,7.12502,19.8175,-75.3969,-7.85199e-15,-1.39149e-14,33.1602,29.9447,-16.0786,28.471,23.1028,-26.2902,-23.5908,7.12502,0.265436,6.38877,4.45038,5.19774,1.06803,3.49861e-14,-18.3894,-27.7527,40.3977,-28.2156,-1.83752,-24.4794,25.3653,-15.7551,6.48858,9.08276
3.8435,17.459,3.6288,20.7684,-8.5192,-1.88889,-10.6473,1.29356,6.51917,-12.3123,1.35481,1.071,-7.0171,0.180517,-2.43732,-4.56939,17.9293,12.6558,13.3667,22.164,6.52134,5.45157,11.811,1.66674,2.98177e-15,-1.27222e-14,-8.03102,-26.0249,24.0751,118.87,-57.2168,-5.63195,-46.4588,7.12502,20.1861,-75.43,2.98177e-15,-1.27222e-14,32.9733,29.6891,-16.3561,28.5443,23.737,-26.1711,-23.39,7.12502,0.380536,6.58937,4.54733,5.2368,0.970992,3.81667e-14,-19.3673,-27.0415,41.598,-28.1522,-1.94889,-24.5468,25.4218,-15.82,6.69077,8.76023
3.84667,17.4589,3.62728,20.7727,-8.51996,-1.99764,-10.6706,1.30009,6.60691,-12.2818,1.35583,1.08617,-6.97053,0.17682,-2.46952,-4.64666,17.9316,12.7232,13.4755,22.142,6.52783,5.50563,11.8078,1.6758,-1.51076e-14,2.78299e-15,-8.02918,-26.0511,23.9783,118.811,-57.1723,-5.44614,-46.4957,7.12502,20.3647,-75.4479,-1.51076e-14,2.78299e-15,32.4764,29.052,-17.1637,28.8203,24.9271,-26.0021,-23.2421,7.12502,0.543761,6.73698,4.53209,5.27735,1.07124,-3.18055e-14,-19.2942,-26.9687,41.4315,-28.1475,-1.97164,-24.4289,25.4311,-15.8988,6.76507,8.55443
3.84858,17.4577,3.62645,20.7674,-8.53048,-2.02637,-10.6821,1.30912,6.60435,-12.2584,1.36516,1.06575,-6.93641,0.182337,-2.48914,-4.89177,17.9309,12.7101,13.6653,22.0821,6.62801,5.59206,11.7925,1.73664,-6.85807e-15,-4.77083e-15,-8.1172,-26.0221,23.995,118.77,-57.1049,-5.57698,-46.4969,7.12502,20.239,-75.4625,-6.85807e-15,-4.77083e-15,32.038,28.5136,-17.8643,29.0477,25.5298,-26.0391,-23.3284,7.12502,0.508016,6.65073,4.52657,5.29949,1.08405,-9.54166e-15,-18.3397,-27.4831,40.3491,-28.1414,-1.93525,-24.4167,25.4313,-15.9289,6.69603,8.97357
3.84934,17.4576,3.61878,20.7185,-8.54938,-2.01477,-10.5484,1.30632,6.56342,-12.2346,1.37327,1.03703,-6.98206,0.187572,-2.49858,-5.09962,17.959,12.4225,13.6653,22.0752,6.95393,5.55516,11.7985,1.87155,3.16068e-14,1.70955e-14,-8.18301,-26.0484,23.93,118.723,-57.0311,-5.17727,-46.4413,7.12502,20.6231,-75.3657,3.16068e-14,1.70955e-14,31.9941,28.6057,-17.8693,29.0381,25.2123,-25.8997,-23.7769,7.12502,0.642622,6.20185,4.5292,5.32778,1.06317,-9.54166e-15,-17.5621,-27.9938,39.5165,-28.1207,-1.95088,-24.4232,25.4045,-15.8722,6.6978,9.47112
3.84893,17.459,3.60592,20.6585,-8.591,-1.94183,-10.3267,1.27532,6.43722,-12.237,1.35691,1.01756,-7.1082,0.18472,-2.45333,-5.04171,17.9767,12.1997,13.5449,22.1104,7.16609,5.45801,11.8148,1.93798,-1.36167e-14,5.56597e-15,-8.11677,-26.1271,23.7126,118.682,-57.0716,-4.69349,-46.4617,7.12502,21.0879,-75.335,-1.36167e-14,5.56597e-15,32.3138,29.1632,-17.3001,28.8434,24.3616,-25.386,-24.3326,7.12502,1.13877,5.64411,4.51091,5.35656,0.977377,9.54166e-15,-17.0355,-28.324,38.8265,-28.0916,-1.91103,-24.5027,25.3422,-15.875,6.68077,9.60169
3.84899,17.4602,3.59987,20.5888,-8.63727,-1.83333,-10.2,1.25177,6.27607,-12.23,1.34272,0.987531,-7.17054,0.18746,-2.39823,-5.07122,17.943,12.1785,13.67,22.0543,7.19124,5.49712,11.7936,1.95363,2.61402e-14,-5.56597e-15,-8.11547,-26.1239,23.6075,118.685,-57.0894,-4.73274,-46.5793,7.12502,21.0502,-75.4568,2.61402e-14,-5.56597e-15,32.6428,29.6103,-16.8255,28.6102,23.525,-24.2624,-24.8215,7.12502,2.22392,5.14669,4.5175,5.37944,0.853889,1.90833e-14,-14.7041,-29.4651,35.673,-28.0275,-1.91877,-24.6192,25.2898,-15.873,6.67096,9.61988
3.85073,17.461,3.59742,20.5739,-8.61464,-1.82984,-10.18,1.25027,6.25269,-12.2423,1.34344,0.970219,-7.19497,0.187971,-2.40391,-5.1256,17.8794,12.2115,13.8693,21.9466,7.20272,5.57133,11.752,1.96389,-2.14687e-14,1.74931e-14,-8.22347,-25.9241,23.5904,118.775,-56.9969,-5.06146,-46.6744,7.12502,20.7344,-75.5867,-2.14687e-14,1.74931e-14,32.8539,29.7723,-16.5602,28.4521,22.9846,-23.9326,-24.8192,7.12502,2.54246,5.14538,4.51705,5.36298,0.860158,-1.90833e-14,-12.6022,-30.3212,32.7405,-28.01,-1.91647,-24.624,25.2553,-15.7873,6.64583,9.49883
3.85148,17.4613,3.592,20.6066,-8.52149,-1.91335,-10.1279,1.23048,6.29544,-12.3176,1.32316,0.984172,-7.31152,0.170059,-2.41453,-4.75985,17.808,12.4169,13.7639,21.9172,7.00216,5.52456,11.7283,1.84392,1.55052e-14,5.1684e-15,-8.27417,-25.6438,23.5028,118.892,-56.8985,-5.08644,-46.5591,7.12502,20.7104,-75.4741,1.55052e-14,5.1684e-15,32.9139,29.6699,-16.4926,28.4367,22.9412,-24.6185,-24.1471,7.12502,1.88003,5.82439,4.51792,5.30101,0.98615,3.18055e-15,-15.4377,-29.1506,36.7964,-28.0589,-1.80244,-24.5452,25.2394,-15.7306,6.50371,9.33622
3.85122,17.4621,3.58691,20.6438,-8.48006,-1.93107,-10.0768,1.20943,6.23584,-12.4312,1.30633,0.976786,-7.4699,0.159015,-2.39072,-4.38457,17.7383,12.697,13.7651,21.8838,6.78238,5.52132,11.7093,1.71819,7.45443e-15,1.23246e-14,-8.28314,-25.4238,23.5109,118.934,-57.0691,-5.09806,-46.3518,7.12502,20.6992,-75.2679,7.45443e-15,1.23246e-14,32.6538,29.0988,-16.9466,28.6331,23.6789,-24.7838,-23.6443,7.12502,1.72039,6.32854,4.12493,5.25789,1.03892,0.667951,-18.2879,-27.37,40.5878,-28.1423,-1.76949,-24.5202,25.2536,-15.7074,6.41571,9.35558
3.8529,17.4637,3.58384,20.6679,-8.52211,-1.92784,-10.0897,1.248,6.19306,-12.5464,1.36117,0.935131,-7.58749,0.18198,-2.40903,-4.19343,17.6744,12.8147,14.0416,21.7994,6.83928,5.58607,11.6886,1.71564,-8.44835e-15,-1.59028e-15,-8.32813,-25.1778,23.6039,118.962,-57.3607,-5.71959,-46.3785,7.12502,20.1019,-75.3586,-8.44835e-15,-1.59028e-15,32.5762,28.6274,-17.1568,28.8075,24.1511,-24.7599,-23.284,7.12502,1.74345,6.68861,3.85902,5.28568,1.02192,1.02849,-17.0907,-27.9611,39.119,-28.1931,-1.83224,-24.5198,25.2813,-15.6838,6.49104,9.3516
3.85572,17.4648,3.58377,20.6534,-8.55147,-2.00428,-10.1404,1.31395,6.2539,-12.5623,1.44213,0.917509,-7.56985,0.216916,-2.45772,-3.83448,17.61,12.8814,13.9415,21.778,6.77516,5.51078,11.6721,1.64749,-1.69961e-14,3.06128e-14,-8.30559,-25.0875,23.4834,118.904,-57.2845,-6.072,-46.3782,7.12502,19.7631,-75.3935,-1.69961e-14,3.06128e-14,33.0378,28.9828,-16.487,28.704,23.544,-24.9348,-22.8636,7.12502,1.57456,7.11034,3.75804,5.34488,1.09785,1.18201,-14.8092,-29.0856,35.9308,-28.1536,-1.92071,-24.4327,25.3004,-15.6657,6.65211,9.30267
3.85932,17.4644,3.58697,20.6719,-8.58239,-2.04769,-10.3163,1.37612,6.29666,-12.4882,1.50482,0.899318,-7.38164,0.251252,-2.49511,-3.42117,17.4983,13.0496,13.5469,21.7444,6.38978,5.37848,11.6218,1.45613,-8.34896e-15,9.14409e-15,-8.28786,-25.1839,23.3189,118.796,-57.1065,-5.84687,-46.2085,7.12502,19.9795,-75.2013,-8.34896e-15,9.14409e-15,33.2353,29.1299,-16.2076,28.6606,23.3715,-25.338,-22.714,7.12502,1.18517,7.26245,4.16239,5.38339,1.11574,0.386862,-14.1134,-29.7917,34.8175,-28.1616,-1.96444,-24.3948,25.3332,-15.698,6.74136,9.35253
3.86457,17.4625,3.58996,20.6816,-8.5778,-2.05777,-10.4393,1.41968,6.36322,-12.4288,1.54588,0.870241,-7.24153,0.270586,-2.55883,-3.45312,17.3916,13.0728,13.6246,21.6064,6.2626,5.42205,11.5518,1.41542,8.74653e-15,1.03368e-14,-8.38197,-25.2136,23.3264,118.813,-57.1303,-5.51024,-46.0848,7.12502,20.3031,-75.0436,8.74653e-15,1.03368e-14,33.0901,28.8706,-16.4186,28.7195,23.5857,-25.8059,-23.0177,7.12502,0.733186,6.96077,4.36713,5.38064,1.10796,3.18055e-14,-13.1902,-30.3949,33.4437,-28.1779,-1.96213,-24.4136,25.4067,-15.7874,6.72211,9.27298
3.86905,17.4621,3.59015,20.647,-8.49346,-2.11938,-10.3935,1.43421,6.45387,-12.4079,1.5641,0.864674,-7.24168,0.272858,-2.61512,-3.57948,17.3539,12.9704,13.8134,21.5149,6.4329,5.47084,11.5216,1.4885,5.76476e-15,1.39149e-14,-8.47025,-25.1377,23.3091,118.838,-57.001,-5.20255,-45.9109,7.12502,20.5988,-74.838,5.76476e-15,1.39149e-14,33.1204,28.9103,-16.3093,28.6671,23.2721,-25.1657,-23.7104,7.12502,1.35157,6.26503,4.41387,5.34023,1.20824,9.54166e-15,-10.4155,-31.3756,29.3123,-28.1659,-1.9972,-24.3506,25.4924,-15.8626,6.6892,9.47942
3.87219,17.4638,3.58669,20.6741,-8.37884,-2.25715,-10.3425,1.43385,6.55743,-12.4647,1.56751,0.905747,-7.33558,0.26421,-2.63003,-3.17861,17.3034,13.0008,13.6261,21.5149,6.44923,5.34814,11.5148,1.4384,2.25621e-14,1.19271e-15,-8.4196,-25.0193,23.1564,118.781,-56.7064,-5.09022,-45.6938,7.12502,20.7067,-74.6092,2.25621e-14,1.19271e-15,33.122,28.8146,-16.2482,28.6415,23.0916,-23.9209,-24.1233,7.12502,2.55378,5.84113,4.39603,5.28135,1.4038,3.18055e-15,-8.47395,-31.9403,26.3657,-28.2539,-2.08897,-24.163,25.5758,-15.9585,6.65302,10.371
3.87661,17.4646,3.57941,20.7173,-8.34008,-2.36322,-10.3303,1.42924,6.6407,-12.5032,1.56187,0.950341,-7.38804,0.254223,-2.62943,-2.92486,17.2783,13.0243,13.6352,21.5186,6.45916,5.31242,11.5179,1.4151,-1.799e-14,8.34896e-15,-8.32525,-24.9725,23.0059,118.742,-56.5922,-5.35782,-45.6499,7.12502,20.4496,-74.5931,-1.799e-14,8.34896e-15,32.8213,28.3583,-16.6463,28.7344,23.5018,-24.033,-23.8706,7.12502,2.4455,6.09513,4.31334,5.27319,1.51551,2.54444e-14,-6.22114,-32.4761,22.9557,-28.3566,-2.10199,-24.0496,25.6623,-16.0365,6.64185,10.5558
3.88235,17.4649,3.57747,20.726,-8.41334,-2.40213,-10.4363,1.47087,6.70042,-12.4203,1.60066,0.938301,-7.23112,0.274979,-2.67147,-3.12334,17.3422,13.0024,13.8845,21.5575,6.51302,5.41704,11.5502,1.47128,-2.95195e-14,-1.23246e-14,-8.39193,-24.9848,22.9651,118.768,-56.6437,-5.50305,-45.7706,7.12502,20.31,-74.7286,-2.95195e-14,-1.23246e-14,32.5555,28.0677,-16.9911,28.8274,24.0108,-25.5518,-23.1313,7.12502,0.97861,6.84623,4.24483,5.35047,1.50571,-6.36111e-14,0.317413,-32.9013,11.8302,-28.3981,-2.03031,-24.0672,25.7369,-16.0064,6.75108,9.79976
3.88681,17.4664,3.57802,20.7541,-8.38678,-2.49271,-10.5117,1.50276,6.83155,-12.379,1.62798,0.937765,-7.14018,0.281973,-2.74205,-3.15777,17.3888,12.997,13.9917,21.615,6.48993,5.46046,11.5811,1.48104,-1.40143e-14,-7.15625e-15,-8.50138,-24.9676,22.9758,118.809,-56.7222,-5.19959,-46.0305,7.12502,20.6016,-74.9572,-1.40143e-14,-7.15625e-15,32.6016,28.1504,-16.8094,28.8117,23.8802,-26.5054,-22.6201,7.12502,0.0576503,7.35959,4.22379,5.35218,1.60308,-4.13472e-14,4.87015,-32.4502,3.11732,-28.4529,-1.96114,-24.0042,25.789,-15.9785,6.75738,9.46771
3.8891,17.4683,3.57504,20.7891,-8.32394,-2.582,-10.5087,1.49923,6.93981,-12.3884,1.61915,0.954782,-7.15415,0.268971,-2.78459,-2.98512,17.367,12.9998,13.9064,21.6288,6.40102,5.41582,11.5788,1.43496,-1.98785e-15,2.94201e-14,-8.53576,-24.9422,22.9182,118.811,-56.7045,-5.03281,-46.2855,7.12502,20.7619,-75.1948,-1.98785e-15,2.94201e-14,32.4887,28.0606,-16.8712,28.831,23.6796,-25.7917,-23.0287,7.12502,0.746899,6.94976,4.19734,5.31893,1.71918,-1.27222e-14,3.68749,-32.6645,4.98303,-28.5205,-2.00613,-23.8908,25.838,-16.0527,6.77013,9.69177
3.89122,17.4679,3.57662,20.789,-8.34957,-2.58717,-10.6096,1.50528,6.93527,-12.344,1.61605,0.954062,-7.04814,0.272211,-2.7809,-2.61738,17.2845,13.0799,13.4839,21.6279,6.07843,5.2655,11.5443,1.27525,-2.73329e-14,-3.26007e-14,-8.54274,-24.9424,22.8409,118.745,-56.6306,-5.34339,-46.2593,7.12502,20.4635,-75.2009,-2.73329e-14,-3.26007e-14,32.2033,27.7647,-17.2268,28.9218,23.8657,-24.8251,-23.4557,7.12502,1.68044,6.51742,4.19032,5.34384,1.70637,2.22639e-14,2.31957,-32.8696,7.40195,-28.5371,-2.15883,-23.8637,25.8942,-16.1284,6.93535,9.98798
3.89193,17.4668,3.57797,20.7747,-8.36877,-2.61758,-10.6268,1.50488,6.89409,-12.3149,1.61603,0.980936,-7.00621,0.278955,-2.72906,-2.4828,17.1974,13.0796,13.3094,21.5657,5.86678,5.20946,11.4947,1.18767,4.87022e-15,1.35174e-14,-8.59467,-24.8567,22.8375,118.742,-56.6197,-5.68118,-46.0152,7.12502,20.1388,-74.9913,4.87022e-15,1.35174e-14,32.3572,27.9656,-16.8991,28.8071,23.5169,-24.7235,-23.3004,7.12502,1.77861,6.6719,4.20412,5.37678,1.73412,-1.59028e-14,3.08012,-32.7628,5.97286,-28.5233,-2.21129,-23.8261,25.935,-16.1381,7.0076,10.1322
3.89128,17.4675,3.57225,20.752,-8.37238,-2.71998,-10.4571,1.50233,6.90015,-12.3227,1.62985,1.01788,-7.10884,0.283883,-2.69581,-2.85257,17.1651,12.983,13.7786,21.4307,6.04472,5.38561,11.4558,1.30034,-1.88845e-15,-8.74653e-15,-8.65447,-24.7404,22.8067,118.777,-56.5014,-5.24129,-45.7431,7.12502,20.5616,-74.6741,-1.88845e-15,-8.74653e-15,32.7167,28.4359,-16.2885,28.5922,22.9206,-24.378,-23.2577,7.12502,2.11225,6.71159,4.211,5.42533,1.85654,-3.81667e-14,3.57959,-32.6461,5.0876,-28.5191,-2.15357,-23.7137,25.9607,-16.1154,6.93958,10.2914
3.89125,17.4673,3.56534,20.7278,-8.36969,-2.72954,-10.3426,1.49071,6.86696,-12.3379,1.62699,1.01107,-7.18968,0.281902,-2.68701,-2.92126,17.1313,13.0251,14.0436,21.3515,6.11303,5.47747,11.4343,1.3323,-5.86415e-15,3.93594e-14,-8.60716,-24.662,22.62,118.715,-56.2642,-4.72013,-45.5036,7.12502,21.0623,-74.3797,-5.86415e-15,3.93594e-14,32.4476,28.1344,-16.622,28.7294,23.3815,-24.0476,-23.3461,7.12502,2.43143,6.61977,4.22736,5.43383,1.87934,9.54166e-15,2.46086,-32.8045,7.47624,-28.5494,-2.02209,-23.731,26,-16.103,6.74637,10.4861
3.89104,17.4656,3.56256,20.7246,-8.36979,-2.6558,-10.3965,1.47148,6.77319,-12.307,1.59893,0.987559,-7.12653,0.276989,-2.66008,-2.6519,17.0577,13.0927,13.8716,21.3199,5.9291,5.40562,11.4034,1.23531,1.11319e-14,-3.4191e-14,-8.54334,-24.6261,22.3412,118.637,-56.1229,-4.47734,-45.3765,7.12502,21.2955,-74.2265,1.11319e-14,-3.4191e-14,31.9946,27.6674,-17.1747,28.9155,23.8678,-24.63,-23.5565,7.12502,1.86889,6.41509,4.22372,5.407,1.81413,-1.90833e-14,2.26459,-32.907,7.91136,-28.5968,-1.86238,-23.8584,26.0556,-16.1267,6.57867,10.5522
3.89234,17.4652,3.56235,20.7153,-8.34457,-2.67822,-10.4908,1.45485,6.79023,-12.2056,1.56342,0.995423,-6.96335,0.265795,-2.66081,-2.61695,17.0021,13.0672,13.7531,21.2755,5.7802,5.37384,11.367,1.18187,-1.8487e-14,-9.14409e-15,-8.47767,-24.7485,22.0637,118.576,-56.1441,-4.324,-45.4659,7.12502,21.4428,-74.2992,-1.8487e-14,-9.14409e-15,31.8133,27.7038,-17.2786,28.8874,23.704,-24.7506,-23.9693,7.12502,1.7524,6.00321,4.23657,5.39568,1.85772,-2.22639e-14,3.66638,-32.8425,5.18122,-28.6043,-1.70407,-23.8842,26.1066,-16.1922,6.48463,10.4895
3.89508,17.4646,3.56284,20.677,-8.32395,-2.73189,-10.5848,1.45055,6.86473,-12.0685,1.53948,1.00043,-6.75938,0.257976,-2.69599,-2.6557,16.9792,13.0678,13.6171,21.2603,5.63852,5.35109,11.3455,1.13646,4.07509e-15,1.66979e-14,-8.40863,-24.8738,21.8029,118.484,-56.0465,-4.59204,-45.4833,7.12502,21.1853,-74.3457,4.07509e-15,1.66979e-14,31.7368,27.854,-17.2319,28.873,23.6852,-24.4069,-23.8724,7.12502,2.0844,6.09713,3.85713,5.40904,1.93079,0.785171,3.67264,-32.6383,4.7535,-28.5822,-1.54779,-23.8824,26.1782,-16.2971,6.37708,10.2648
3.89614,17.4629,3.56211,20.6587,-8.34647,-2.69306,-10.7272,1.47056,6.81058,-11.9303,1.54937,0.969159,-6.52334,0.276659,-2.69557,-2.89148,16.9816,12.9451,13.658,21.2248,5.70898,5.37955,11.3288,1.18959,7.45443e-15,1.86858e-14,-8.43233,-24.9637,21.6255,118.308,-55.7178,-4.38282,-45.2331,7.12502,21.3863,-74.0728,7.45443e-15,1.86858e-14,31.9718,28.2533,-16.7784,28.7358,23.3873,-24.6184,-23.522,7.12502,1.8801,6.4495,2.67479,5.41935,1.90479,2.9395,3.10387,-32.0186,4.42362,-28.5805,-1.51053,-23.9436,26.1959,-16.347,6.30051,10.2352
3.89834,17.4627,3.56277,20.688,-8.28084,-2.79212,-10.8516,1.50457,6.9006,-11.8383,1.57517,0.980022,-6.34956,0.291392,-2.73009,-3.5667,17.0301,12.6182,14.2997,21.1258,6.19331,5.60355,11.3224,1.45211,9.79014e-15,1.66979e-14,-8.50991,-25.0069,21.6038,118.171,-55.6317,-4.21505,-45.333,7.12502,21.5474,-74.1544,9.79014e-15,1.66979e-14,32.2563,28.6404,-16.2541,28.5643,23.03,-24.8646,-23.6778,7.12502,1.64237,6.29563,1.91091,5.3889,2.04931,4.30686,3.58481,-31.595,2.63982,-28.591,-1.5541,-23.8185,26.1697,-16.3701,6.26209,10.3517
3.89594,17.4648,3.54489,20.5449,-8.41218,-2.57309,-10.548,1.48295,6.5319,-11.8112,1.59208,0.937117,-6.48322,0.322462,-2.57532,-4.19107,17.0915,12.3008,15.0778,21.0432,6.70857,5.86347,11.333,1.72984,-6.41081e-15,1.78906e-14,-8.60967,-24.8288,21.6861,118.174,-55.6956,-5.07482,-45.7388,7.12502,20.7215,-74.6525,-6.41081e-15,1.78906e-14,32.3424,28.8401,-15.9561,28.5165,22.8163,-24.8173,-23.7582,7.12502,1.68805,6.21488,1.34768,5.46767,1.81786,5.35124,1.98304,-31.594,5.44562,-28.4994,-1.60062,-24.0368,26.1022,-16.2742,6.36212,10.26
3.89632,17.464,3.53938,20.4396,-8.52345,-2.37211,-10.4747,1.47722,6.29017,-11.7581,1.59826,0.842615,-6.46124,0.341394,-2.54174,-4.53657,17.1409,12.0514,15.5155,20.9997,7.17379,5.98275,11.3492,1.94241,-8.19987e-15,3.53837e-14,-8.77645,-24.5804,21.7427,118.168,-55.5429,-5.58672,-45.9266,7.12502,20.2296,-74.8932,-8.19987e-15,3.53837e-14,32.3978,29.0218,-15.8068,28.4696,22.443,-24.1471,-23.5778,7.12502,2.33531,6.38921,0.979352,5.52416,1.57414,6.09212,-1.62027,-31.5835,12.4513,-28.4019,-1.70309,-24.2571,26.0826,-16.1947,6.52886,10.2789
3.90111,17.4623,3.53563,20.4129,-8.44239,-2.38851,-10.4556,1.47427,6.38022,-11.714,1.58684,0.771752,-6.42176,0.327977,-2.66756,-4.67094,17.1199,11.9215,15.581,20.9165,7.48015,5.97707,11.3265,2.05034,-6.06293e-15,6.75868e-15,-8.92387,-24.4982,21.6912,118.04,-55.366,-5.57212,-46.1464,7.12502,20.2436,-75.1115,-6.06293e-15,6.75868e-15,32.1813,28.6992,-16.2107,28.5729,22.9441,-23.4313,-23.8865,7.12502,3.02658,6.07174,0.698846,5.46644,1.60823,6.6944,-5.0254,-31.2124,18.5793,-28.3798,-1.89729,-24.2081,26.1083,-16.1299,6.6986,10.1972
3.90415,17.4621,3.52965,20.4634,-8.36623,-2.60642,-10.3984,1.50223,6.58499,-11.7143,1.6195,0.810626,-6.45173,0.330055,-2.73979,-4.69243,17.0297,11.9374,15.6281,20.7878,7.46992,5.99709,11.2663,2.03994,-5.75979e-14,5.56597e-15,-8.86789,-24.4745,21.4658,117.816,-55.1941,-5.69256,-46.2307,7.12502,20.1279,-75.208,-5.75979e-14,5.56597e-15,31.7719,28.0073,-16.8345,28.7854,23.8351,-23.9528,-24.3274,7.12502,2.52296,5.63748,0.596467,5.46457,1.86598,6.79242,-8.70127,-30.6278,24.7738,-28.4972,-1.95828,-23.9472,26.2423,-16.124,6.79642,9.96445
3.90405,17.4619,3.52755,20.4379,-8.39269,-2.84412,-10.266,1.54686,6.728,-11.7415,1.6873,0.897092,-6.55124,0.353633,-2.72715,-4.45139,16.9204,12.0687,15.6772,20.689,7.27608,6.00795,11.213,1.94432,-1.2921e-14,-1.35174e-14,-8.73278,-24.3192,21.2603,117.666,-55.1664,-5.24568,-45.8984,7.12502,20.5573,-74.83,-1.2921e-14,-1.35174e-14,31.7158,27.7891,-16.7986,28.7958,23.7897,-25.1322,-24.082,7.12502,1.38386,5.89324,0.633282,5.58519,2.11821,6.76706,-11.219,-29.9821,29.2557,-28.5536,-1.84241,-23.7101,26.424,-16.0199,6.81372,9.5035
3.9072,17.4615,3.52577,20.3223,-8.24573,-3.04181,-10.1046,1.5541,6.95534,-11.7444,1.70226,0.942078,-6.64382,0.343267,-2.8085,-3.96432,16.7628,12.2327,15.4829,20.5867,6.96704,5.91502,11.1417,1.77295,5.96354e-15,-3.18055e-14,-8.70039,-24.166,21.2039,117.589,-55.2864,-4.39888,-45.7382,7.12502,21.3709,-74.5797,5.96354e-15,-3.18055e-14,31.8325,27.8067,-16.508,28.7712,23.5571,-25.7065,-23.3166,7.12502,0.82926,6.66155,0.780456,5.563,2.38958,6.83324,-10.0765,-30.3486,27.9668,-28.5143,-1.70687,-23.5203,26.596,-16.338,6.63495,10.0438
3.91164,17.461,3.52089,20.2749,-8.02101,-3.01818,-10.1191,1.52787,7.02875,-11.7078,1.66031,0.904018,-6.59822,0.317741,-2.89122,-3.65886,16.5599,12.2998,15.291,20.4078,6.6345,5.84189,11.0283,1.61581,-4.96962e-15,-3.77691e-14,-8.69475,-24.1424,21.093,117.441,-55.1397,-3.89214,-45.7624,7.12502,21.8575,-74.5479,-4.96962e-15,-3.77691e-14,31.6444,27.4527,-16.742,28.881,23.6677,-25.8681,-22.818,7.12502,0.673143,7.16068,0.82943,5.36762,2.45096,6.95387,-8.89751,-30.6893,26.2721,-28.5556,-1.73763,-23.53,26.7263,-16.3958,6.4527,10.2186
3.91374,17.4614,3.51849,20.2929,-7.87869,-2.9571,-10.2957,1.51207,7.0167,-11.627,1.61956,0.868496,-6.41317,0.305011,-2.92035,-3.44869,16.3957,12.3341,15.1514,20.2583,6.36044,5.79147,10.9338,1.49369,-2.22639e-14,1.31198e-14,-8.70998,-24.0749,20.9488,117.288,-54.8309,-4.26579,-45.7113,7.12502,21.4987,-74.5382,-2.22639e-14,1.31198e-14,31.4723,27.279,-16.9106,28.8888,23.6778,-25.5889,-23.3032,7.12502,0.942751,6.67448,0.676075,5.21242,2.43878,7.27994,-9.22211,-30.5711,26.7967,-28.6276,-1.85072,-23.5617,26.7999,-16.4671,6.39053,10.4514
3.91593,17.4603,3.51725,20.2813,-7.74441,-2.98283,-10.4474,1.48338,7.07619,-11.5062,1.55921,0.864336,-6.20065,0.28039,-2.95762,-3.44472,16.3512,12.3625,15.2095,20.204,6.2814,5.8197,10.9056,1.4672,1.41137e-14,3.1408e-14,-8.73799,-23.9591,20.7834,117.184,-54.6938,-4.93692,-45.811,7.12502,20.854,-74.7102,1.41137e-14,3.1408e-14,31.4819,27.6284,-16.6995,28.8213,23.5804,-23.8917,-24.3555,7.12502,2.58195,5.60863,0.393395,5.10564,2.50255,7.88722,-7.33903,-30.8834,23.6491,-28.6381,-1.90583,-23.5142,26.8161,-16.5359,6.30059,10.7584
3.91633,17.4597,3.50893,20.2323,-7.71169,-2.92993,-10.3207,1.41397,6.96947,-11.4662,1.48286,0.869699,-6.23363,0.250026,-2.89881,-3.69383,16.3651,12.3912,15.5634,20.165,6.30339,5.97506,10.9036,1.51288,-1.14301e-15,-2.94201e-14,-8.69155,-23.8169,20.5983,117.111,-54.757,-4.75505,-45.8275,7.12502,21.0288,-74.7074,-1.14301e-15,-2.94201e-14,31.2617,27.6537,-16.7567,28.9232,23.7164,-22.7138,-24.6359,7.12502,3.71945,5.31141,0.0549522,5.07127,2.45101,8.52224,-5.22302,-31.1084,19.9826,-28.638,-1.93134,-23.5612,26.8135,-16.4285,6.26097,10.654
3.91407,17.462,3.49395,20.1553,-7.83723,-2.89748,-9.94714,1.37745,6.78515,-11.526,1.48089,0.902259,-6.50752,0.253769,-2.7687,-3.76909,16.3214,12.4308,15.8661,20.0841,6.27234,6.09158,10.8763,1.51917,-6.5102e-15,4.77083e-15,-8.63521,-23.5727,20.5104,117.084,-54.9019,-4.71955,-45.6875,7.12502,21.0628,-74.5636,-6.5102e-15,4.77083e-15,30.8793,27.1186,-17.0944,29.0943,24.1045,-23.1941,-24.0451,7.12502,3.25563,5.90976,-0.343667,5.19492,2.38007,9.14549,-6.96642,-30.7392,23.0587,-28.6285,-1.97625,-23.574,26.8129,-16.2847,6.42095,10.4385
3.91307,17.4629,3.48462,20.1402,-7.93741,-2.94713,-9.78245,1.3897,6.71928,-11.5621,1.51814,0.947054,-6.63657,0.274486,-2.68606,-3.72892,16.2119,12.3359,16.0739,19.9392,6.30646,6.1355,10.8121,1.53459,-1.00386e-14,-1.98785e-15,-8.61182,-23.3887,20.4476,117.06,-54.9118,-4.59587,-45.5131,7.12502,21.1817,-74.376,-1.00386e-14,-1.98785e-15,30.6762,26.7092,-17.2536,29.1459,24.316,-23.5476,-23.5312,7.12502,2.91426,6.42863,-0.811874,5.30729,2.38826,9.83994,-7.60428,-30.4535,24.0699,-28.6447,-1.97737,-23.5171,26.8053,-16.2369,6.55267,10.3434
3.91223,17.4618,3.47853,20.1768,-7.92747,-2.96821,-9.67703,1.38932,6.66402,-11.6356,1.53381,0.968832,-6.77649,0.281558,-2.6338,-3.7814,16.119,12.0916,16.3467,19.7934,6.49303,6.1841,10.7531,1.62122,8.24956e-15,1.98785e-15,-8.59502,-23.1739,20.3403,117.015,-54.7989,-4.03369,-45.368,7.12502,21.7216,-74.1693,8.24956e-15,1.98785e-15,30.9623,26.8806,-16.7337,28.9715,23.6518,-23.5054,-23.6985,7.12502,2.95503,6.26081,-1.20783,5.29504,2.40626,10.4363,-6.10959,-30.5629,21.2805,-28.7194,-1.91729,-23.5108,26.8376,-16.2173,6.54628,9.91945
3.91097,17.4621,3.46732,20.2046,-7.90548,-2.93674,-9.50414,1.37563,6.5566,-11.7093,1.5387,0.960944,-6.95475,0.284865,-2.58571,-3.92526,16.0936,11.9034,16.6545,19.7159,6.69552,6.26552,10.7324,1.724,-4.91992e-15,-1.98785e-15,-8.5786,-22.9731,20.1766,116.931,-54.7185,-3.97917,-45.3996,7.12502,21.774,-74.1949,-4.91992e-15,-1.98785e-15,31.445,27.3292,-15.9156,28.6903,22.7455,-23.8773,-24.1159,7.12502,2.59583,5.84804,-1.48357,5.29886,2.37948,10.8439,-7.18098,-30.2739,22.9762,-28.8766,-1.93799,-23.5226,26.941,-16.2973,6.51541,10.3061
3.91244,17.4621,3.45954,20.2195,-7.8308,-3.01592,-9.44108,1.35376,6.61738,-11.7206,1.51481,1.0014,-7.00609,0.268322,-2.5787,-3.89868,16.0511,11.8564,16.8624,19.6643,6.67022,6.32548,10.7111,1.72777,-2.6985e-14,2.0276e-14,-8.50958,-22.9463,20.0109,116.853,-54.7646,-4.23254,-45.5081,7.12502,21.5306,-74.3313,-2.6985e-14,2.0276e-14,31.2925,27.0915,-15.9576,28.7143,23.0546,-24.7675,-23.938,7.12502,1.73612,6.0347,-1.70088,5.21435,2.46792,11.2233,-9.27936,-29.8329,26.502,-29.0009,-1.88198,-23.4368,27.0662,-16.4325,6.36546,11.0811
3.91639,17.4589,3.45658,20.1972,-7.62189,-3.17632,-9.38268,1.29891,6.83015,-11.7342,1.44207,1.07777,-7.06372,0.216893,-2.61962,-3.72688,15.9337,11.9534,16.9728,19.5649,6.36711,6.37226,10.6509,1.61329,-2.40032e-14,-1.23246e-14,-8.39005,-22.9287,19.8451,116.8,-54.8841,-4.5506,-45.5394,7.12502,21.2252,-74.3974,-2.40032e-14,-1.23246e-14,30.6867,26.2677,-16.6538,28.9769,23.9905,-25.1398,-23.3675,7.12502,1.37657,6.60778,-1.82026,5.04412,2.67967,11.6217,-10.4486,-29.5491,28.5641,-29.0308,-1.69213,-23.3086,27.1804,-16.4114,6.08038,10.7026
3.91756,17.4569,3.4503,20.2192,-7.45732,-3.18973,-9.3151,1.23143,6.81211,-11.7709,1.36301,1.12014,-7.15136,0.177269,-2.56858,-3.57672,15.8044,12.1116,16.9714,19.4553,5.99099,6.3992,10.5801,1.46522,-2.55438e-14,-1.31198e-14,-8.27799,-22.8485,19.6799,116.704,-54.8702,-4.32323,-45.4193,7.12502,21.4435,-74.2526,-2.55438e-14,-1.31198e-14,30.2516,25.7362,-17.1174,29.1228,24.4511,-24.4394,-23.2775,7.12502,2.05303,6.69235,-1.96945,4.92928,2.73331,11.9324,-10.1516,-29.5443,28.1793,-29.1599,-1.60165,-23.3028,27.2894,-16.3301,5.83843,10.2128
3.91612,17.4574,3.44241,20.2441,-7.42584,-3.12973,-9.26824,1.1946,6.64668,-11.7728,1.32644,1.14465,-7.1828,0.172292,-2.45271,-3.4725,15.7155,12.1352,16.9645,19.3799,5.78805,6.40047,10.5306,1.38757,1.56046e-14,2.78299e-15,-8.22455,-22.7773,19.5773,116.612,-54.7929,-3.94715,-45.3189,7.12502,21.8047,-74.1106,1.56046e-14,2.78299e-15,30.1304,25.7749,-17.0417,29.0936,24.3677,-23.5839,-23.9243,7.12502,2.87921,6.036,-2.15217,4.95772,2.67781,12.1657,-9.26982,-29.7593,26.6348,-29.2718,-1.57218,-23.3587,27.3695,-16.4262,5.69842,10.4974
3.91692,17.4585,3.43871,20.2512,-7.43226,-3.12688,-9.35505,1.19176,6.60008,-11.6766,1.31324,1.15334,-7.02706,0.176721,-2.41682,-3.50684,15.7014,12.0696,17.0602,19.3637,5.75797,6.43286,10.5201,1.39318,1.13307e-14,0,-8.18732,-22.8753,19.3979,116.474,-54.7396,-4.24573,-45.327,7.12502,21.518,-74.1517,1.13307e-14,0,30.1719,26.1338,-16.7058,28.9686,23.9578,-23.8798,-24.2206,7.12502,2.59348,5.74338,-2.33605,4.987,2.66168,12.4091,-7.9651,-29.9899,24.5709,-29.303,-1.57146,-23.3625,27.4045,-16.5366,5.64054,10.9063
3.91825,17.4593,3.43736,20.2405,-7.4038,-3.12924,-9.47254,1.18585,6.61747,-11.5826,1.28895,1.12335,-6.85769,0.169082,-2.4574,-3.48484,15.6864,11.8693,17.0584,19.3402,5.9203,6.39023,10.5091,1.4564,-1.28216e-14,-1.70955e-14,-8.13841,-23.0059,19.1193,116.343,-54.883,-4.27992,-45.4141,7.12502,21.4851,-74.2426,-1.28216e-14,-1.70955e-14,30.1159,26.1865,-16.6653,28.917,23.6432,-24.6206,-23.6833,7.12502,1.87798,6.28813,-2.4568,4.93839,2.66274,12.628,-5.68915,-30.2335,20.6966,-29.3262,-1.69357,-23.33,27.4416,-16.5267,5.70937,11.0548
3.91791,17.4579,3.43426,20.1757,-7.27664,-3.13568,-9.52742,1.15689,6.65935,-11.5054,1.23883,1.07839,-6.74464,0.144095,-2.5294,-3.36778,15.5669,11.6523,16.9248,19.202,6.03071,6.28967,10.4338,1.47952,1.963e-14,-5.1684e-15,-8.17038,-23.0737,18.9307,116.328,-55.2083,-3.75,-45.6007,7.12502,21.994,-74.3702,1.963e-14,-5.1684e-15,29.9911,26.0268,-16.8363,28.9316,23.5242,-24.6974,-23.3051,7.12502,1.80386,6.66707,-2.39394,4.85951,2.71779,12.7203,-4.6934,-30.1497,18.5864,-29.3185,-1.79197,-23.2837,27.5077,-16.5278,5.78303,10.8328
3.91685,17.4565,3.4303,20.1484,-7.18719,-3.19153,-9.56155,1.14501,6.68043,-11.4389,1.21637,1.07256,-6.65349,0.135539,-2.54775,-3.38102,15.4487,11.6075,16.9462,19.0571,5.93981,6.29947,10.3558,1.44763,1.44616e-14,1.27222e-14,-8.20375,-23.0818,18.7783,116.259,-55.1915,-3.46127,-45.6273,7.12502,22.2712,-74.364,1.44616e-14,1.27222e-14,29.8532,25.8701,-17.0216,28.946,23.7407,-24.4818,-23.7012,7.12502,2.01208,6.26911,-2.35557,4.82025,2.81111,12.7429,-2.85549,-30.2845,15.0539,-29.3534,-1.72523,-23.2268,27.5858,-16.5396,5.70856,10.5681
3.91596,17.4585,3.42905,20.1542,-7.18463,-3.31485,-9.47631,1.16352,6.68468,-11.4488,1.25093,1.11814,-6.70973,0.152893,-2.50174,-3.47699,15.3556,11.6476,17.2006,18.9278,5.80105,6.41299,10.295,1.4156,8.84592e-15,1.27222e-14,-8.2234,-22.9391,18.6668,116.164,-55.1398,-3.55707,-45.3345,7.12502,22.1792,-74.0821,8.84592e-15,1.27222e-14,29.6887,25.5351,-17.2197,28.9875,24.1851,-23.863,-24.5855,7.12502,2.60963,5.37827,-2.4243,4.88722,2.94257,12.8122,0.189611,-30.5682,9.37148,-29.4038,-1.79736,-23.0633,27.6687,-16.5112,5.75819,10.7828
3.91598,17.4589,3.42836,20.1365,-7.12166,-3.38235,-9.38433,1.17173,6.67586,-11.4637,1.27288,1.14658,-6.77615,0.163837,-2.46727,-3.30118,15.2048,11.7915,17.2363,18.7845,5.48116,6.43788,10.2127,1.28111,0,-5.1684e-15,-8.35596,-22.7445,18.7228,116.164,-55.297,-3.92927,-45.0898,7.12502,21.8219,-73.8795,0,-5.1684e-15,29.8126,25.6498,-16.8909,28.8787,23.7978,-23.0892,-24.9343,7.12502,3.35696,5.01898,-2.40488,4.87571,3.03282,12.8546,-0.986342,-30.5713,11.4972,-29.4354,-1.98033,-22.9346,27.7657,-16.4851,5.89678,10.9304
3.9165,17.4547,3.42668,20.1293,-7.05348,-3.35581,-9.37854,1.16469,6.63937,-11.4678,1.2657,1.13279,-6.7842,0.162236,-2.46196,-2.86242,15.0613,11.9111,16.9941,18.701,5.14592,6.32843,10.1479,1.111,1.61016e-14,-7.95139e-16,-8.52689,-22.4971,18.8221,116.185,-55.1479,-4.38903,-45.155,7.12502,21.3803,-73.9954,1.61016e-14,-7.95139e-16,29.9232,25.8547,-16.5351,28.8074,23.3552,-23.1123,-24.3994,7.12502,3.33465,5.55429,-2.33363,4.81707,3.02005,12.8092,-3.05598,-30.3653,15.1947,-29.49,-2.01915,-22.9575,27.8741,-16.5075,5.88582,10.7841
3.91751,17.4529,3.42645,20.162,-7.01332,-3.41749,-9.44691,1.17408,6.72637,-11.4506,1.26713,1.12138,-6.727,0.158015,-2.52133,-2.52774,14.9716,11.8601,16.8183,18.652,5.04461,6.21866,10.1089,1.04373,-2.10712e-14,-2.66371e-14,-8.58188,-22.3813,18.7436,116.107,-54.8261,-4.71532,-45.281,7.12502,21.0669,-74.1566,-2.10712e-14,-2.66371e-14,29.5349,25.3505,-16.9905,29.0363,23.9467,-23.9333,-23.6512,7.12502,2.54174,6.31335,-2.33069,4.82793,3.09182,12.7562,-1.97602,-30.3202,12.6796,-29.5776,-2.05515,-22.8836,27.9783,-16.5166,5.92686,10.7368
3.91746,17.454,3.42526,20.1707,-6.9736,-3.55334,-9.50406,1.20042,6.87389,-11.4029,1.2883,1.11939,-6.64079,0.161352,-2.60374,-2.27396,14.8435,11.8237,16.7354,18.5312,4.96347,6.15005,10.0404,0.986998,3.62782e-15,1.86858e-14,-8.51691,-22.4509,18.4912,115.96,-54.8073,-4.68653,-45.542,7.12502,21.0946,-74.4146,3.62782e-15,1.86858e-14,29.2329,24.9133,-17.3556,29.2239,24.3862,-24.5053,-23.5532,7.12502,1.98936,6.4173,-2.30089,4.84938,3.25417,12.7015,-1.61215,-30.2359,11.7492,-29.6355,-2.11067,-22.7115,28.0711,-16.5162,6.04676,10.8105
3.91797,17.4552,3.42408,20.1441,-6.89324,-3.61098,-9.4969,1.19885,6.91858,-11.3733,1.28343,1.10811,-6.6122,0.156887,-2.64083,-2.02567,14.6265,11.9988,16.6688,18.3092,4.63027,6.12952,9.91855,0.826842,5.46658e-16,-1.98785e-15,-8.48662,-22.4509,18.2534,115.904,-55.0215,-4.64482,-46.0499,7.12502,21.1346,-74.918,5.46658e-16,-1.98785e-15,29.0595,24.623,-17.5462,29.3596,24.8757,-24.6584,-23.7499,7.12502,1.84147,6.22193,-2.18824,4.81238,3.35402,12.6023,-2.08959,-30.4102,13.4608,-29.6606,-2.21573,-22.6123,28.1577,-16.4512,6.12303,10.5858
3.92064,17.4566,3.42469,20.1124,-6.7895,-3.58189,-9.47943,1.17246,6.89848,-11.3584,1.24944,1.07985,-6.60799,0.140754,-2.66119,-1.90824,14.4281,12.1586,16.683,18.0945,4.2951,6.15437,9.80228,0.68353,-2.10215e-14,-3.97569e-16,-8.46021,-22.3125,18.0613,115.836,-55.0751,-5.22159,-46.1517,7.12502,20.5805,-75.0807,-2.10215e-14,-3.97569e-16,28.6717,23.9427,-18.1266,29.5942,25.9873,-25.0924,-23.4488,7.12502,1.42234,6.52616,-2.0714,4.69797,3.35763,12.5216,-1.3201,-30.6033,12.4895,-29.6889,-2.35837,-22.6115,28.2425,-16.3915,6.16072,10.3089
3.9209,17.4564,3.42428,20.0866,-6.80509,-3.5932,-9.42814,1.18458,6.87175,-11.3655,1.27138,1.06822,-6.64191,0.152073,-2.65852,-1.87392,14.2817,12.0336,16.7821,17.9006,4.342,6.15689,9.70844,0.696412,1.98288e-14,-3.18055e-15,-8.41905,-22.028,17.9108,115.696,-54.8801,-5.35187,-45.6702,7.12502,20.4553,-74.6127,1.98288e-14,-3.18055e-15,28.5857,23.5215,-18.2702,29.5985,26.262,-26.0481,-23.013,7.12502,0.499276,6.96615,-2.04609,4.68264,3.36438,12.5002,-0.741039,-30.5708,10.9493,-29.7136,-2.39369,-22.5958,28.322,-16.4113,6.21471,10.5729
3.91958,17.4539,3.42523,20.0963,-6.83633,-3.66309,-9.40139,1.20885,6.87283,-11.3536,1.30647,1.08842,-6.64051,0.170921,-2.63678,-1.82969,14.1468,11.7504,16.8351,17.7094,4.562,6.11183,9.6168,0.775145,-8.79622e-15,3.97569e-16,-8.42146,-21.7812,17.7796,115.626,-54.6616,-4.70839,-45.3332,7.12502,21.0736,-74.2081,-8.79622e-15,3.97569e-16,29.0384,24.0324,-17.411,29.2817,25.2131,-26.2864,-22.9105,7.12502,0.269155,7.06911,-2.0783,4.68414,3.42815,12.5199,-1.80534,-30.3663,12.6248,-29.7421,-2.33951,-22.5409,28.4055,-16.4606,6.26227,10.6594
3.91924,17.4517,3.42563,20.1461,-6.78739,-3.72029,-9.43168,1.19994,6.88975,-11.3196,1.29045,1.10562,-6.58769,0.164978,-2.62816,-1.67952,13.9875,11.6945,16.7567,17.5369,4.44446,6.0606,9.51993,0.716096,1.47598e-14,4.77083e-15,-8.32029,-21.7168,17.5353,115.548,-54.5726,-4.39684,-45.3548,7.12502,21.3728,-74.1961,1.47598e-14,4.77083e-15,29.5808,24.8644,-16.31,28.9299,23.9407,-25.2895,-23.2557,7.12502,1.23196,6.72049,-2.14993,4.62695,3.50035,12.6108,-2.63738,-30.1477,14.0215,-29.8437,-2.25729,-22.5007,28.4966,-16.5757,6.19663,10.3446
3.91759,17.4505,3.42213,20.1748,-6.78925,-3.7479,-9.43067,1.1885,6.85572,-11.2848,1.27528,1.10669,-6.55065,0.161945,-2.60874,-1.53387,13.8224,11.8232,16.6795,17.3756,4.10684,6.04817,9.42456,0.573085,1.00883e-14,7.95139e-15,-8.18495,-21.6389,17.2568,115.427,-54.6807,-4.47128,-45.3207,7.12502,21.3013,-74.17,1.00883e-14,7.95139e-15,29.8139,25.3393,-15.7082,28.7357,23.0124,-24.8986,-23.5421,7.12502,1.60948,6.43156,-2.26089,4.66706,3.53696,12.7506,-2.8331,-30.0887,14.2645,-29.952,-2.20826,-22.4723,28.5827,-16.6599,6.12586,10.3722
3.91545,17.4496,3.41764,20.1734,-6.82767,-3.77874,-9.38611,1.19403,6.82685,-11.2498,1.28625,1.105,-6.53519,0.170843,-2.59468,-1.29548,13.705,11.8466,16.5806,17.2826,3.88778,5.99468,9.36384,0.474398,2.0276e-14,7.95139e-16,-8.18258,-21.5124,17.1178,115.366,-54.9607,-4.85448,-45.3038,7.12502,20.9332,-74.1943,2.0276e-14,7.95139e-16,29.5453,25.117,-15.8861,28.855,23.0952,-25.3583,-23.5509,7.12502,1.16553,6.42568,-2.36655,4.74894,3.57346,12.8761,-2.51844,-30.1803,13.9281,-29.9869,-2.21374,-22.4297,28.6545,-16.7074,6.1584,10.6146
3.91465,17.4475,3.41579,20.1759,-6.85282,-3.78662,-9.38712,1.20732,6.79975,-11.2132,1.30337,1.10061,-6.49198,0.183502,-2.58356,-0.941512,13.6066,11.901,16.3995,17.2391,3.61426,5.90515,9.32332,0.347541,-8.05078e-15,3.18055e-15,-8.13433,-21.4568,16.9803,115.222,-54.8178,-5.0314,-45.4282,7.12502,20.7632,-74.3373,-8.05078e-15,3.18055e-15,29.0815,24.4661,-16.4242,29.1018,23.852,-25.2164,-23.4969,7.12502,1.30252,6.47889,-2.44926,4.70731,3.58334,12.9886,-2.85715,-30.226,14.8288,-30.0125,-2.19579,-22.4252,28.7195,-16.755,6.19042,10.7154
3.91537,17.4443,3.41761,20.0945,-6.92684,-3.75666,-9.35962,1.23941,6.74258,-11.1348,1.34685,1.07644,-6.41496,0.212765,-2.57594,-1.96757,13.6152,11.445,17.5214,17.0245,4.23658,6.33205,9.2688,0.70194,-1.2275e-14,-5.96354e-16,-8.03667,-21.3124,16.7941,115.007,-54.2599,-4.95403,-45.3962,7.12502,20.8376,-74.2972,-1.2275e-14,-5.96354e-16,28.9065,24.1645,-16.5504,29.1978,24.1123,-24.4224,-23.4398,7.12502,2.06943,6.52987,-2.43285,4.57005,3.53249,13.1021,-3.83826,-30.0418,16.4836,-29.9425,-2.11425,-22.5013,28.7904,-16.8141,6.21025,10.6785
3.91531,17.4421,3.41652,19.9791,-6.97946,-3.76911,-9.2425,1.2775,6.73431,-11.0601,1.40419,1.04803,-6.39096,0.24357,-2.60082,-4.89712,13.7595,9.88831,20.4459,16.5289,6.51487,7.42932,9.19668,1.91606,2.65626e-14,-2.38542e-15,-8.00777,-21.0784,16.6505,114.875,-53.9071,-5.18358,-45.3687,7.12502,20.617,-74.2938,2.65626e-14,-2.38542e-15,28.8132,23.8918,-16.6019,29.2839,24.4405,-23.6389,-23.9352,7.12502,2.82606,6.02586,-2.38375,4.49307,3.54508,13.1813,-2.02121,-30.0556,12.7064,-29.8497,-2.01494,-22.5313,28.8752,-16.8757,6.20875,10.5359
3.91468,17.441,3.4115,19.9608,-6.93064,-3.82742,-9.15786,1.28776,6.77568,-11.0511,1.42347,1.04622,-6.42646,0.249475,-2.62637,-4.62786,13.5811,9.93928,20.3901,16.3493,6.31664,7.38366,9.09568,1.80783,-5.96354e-16,-1.2921e-14,-7.9717,-20.971,16.5086,114.799,-53.7909,-4.9659,-45.5274,7.12502,20.8262,-74.4296,-5.96354e-16,-1.2921e-14,28.8685,23.865,-16.405,29.2402,24.4175,-23.7872,-24.4888,7.12502,2.6829,5.47404,-2.44084,4.42125,3.64912,13.2601,0.886343,-30.068,6.91709,-29.8923,-1.93764,-22.4816,28.9621,-16.8819,6.13994,10.3988
3.91473,17.4429,3.40433,19.9871,-6.8095,-3.9114,-9.09317,1.25585,6.84883,-11.0575,1.38527,1.07344,-6.47429,0.22468,-2.64083,-3.79187,13.3302,10.2816,19.9045,16.1917,5.72322,7.15946,8.97912,1.47844,1.76421e-15,-9.14409e-15,-7.83868,-20.989,16.2359,114.71,-53.6851,-4.1268,-45.5696,7.12502,21.6322,-74.3813,1.76421e-15,-9.14409e-15,29.0384,24.2934,-15.9089,29.0516,23.6707,-25.0272,-24.1907,7.12502,1.48533,5.78393,-2.55482,4.32886,3.81377,13.4048,2.19533,-30.0724,4.32601,-30.0088,-1.92455,-22.3713,29.0429,-16.8658,6.0351,10.424
3.91217,17.4434,3.3932,19.9315,-6.75726,-3.88329,-8.927,1.19171,6.7659,-11.0188,1.31698,1.0853,-6.53057,0.196206,-2.58729,-4.44347,13.2731,9.79558,20.5761,15.9871,6.16232,7.40675,8.90473,1.74012,1.22501e-14,-5.96354e-15,-7.56182,-21.0142,15.8082,114.541,-53.5354,-3.97809,-45.5198,7.12502,21.775,-74.3149,1.22501e-14,-5.96354e-15,28.9538,24.4603,-15.7986,28.9299,23.1751,-25.2289,-23.8477,7.12502,1.2905,6.1281,-2.59191,4.30558,3.84399,13.5877,0.734727,-30.1646,7.52303,-30.0648,-1.91072,-22.375,29.1263,-16.8526,5.91532,10.9841
3.90888,17.4399,3.38358,19.8377,-6.77378,-3.81973,-8.81229,1.15416,6.62841,-10.9164,1.27786,1.07749,-6.48364,0.190133,-2.52211,-4.63007,13.1681,9.56132,20.7434,15.8284,6.23492,7.46335,8.8235,1.80008,-1.12313e-14,-6.95746e-15,-7.39746,-20.9188,15.472,114.422,-53.4418,-4.82056,-45.5628,7.12502,20.9658,-74.4497,-1.12313e-14,-6.95746e-15,28.9119,24.6591,-15.6394,28.8113,22.7729,-24.542,-24.067,7.12502,1.95387,5.90375,-2.58666,4.30506,3.80196,13.7715,-1.16425,-30.0577,11.3317,-30.0614,-1.87069,-22.4353,29.225,-16.858,5.86973,11.3247
3.9064,17.4387,3.37501,19.849,-6.71007,-3.94976,-8.85187,1.12952,6.70673,-10.7688,1.23313,1.10853,-6.303,0.172439,-2.5338,-4.79692,13.1048,9.58504,20.8663,15.7408,6.08974,7.54611,8.77357,1.76455,-9.21864e-15,5.56597e-15,-7.30995,-20.8671,15.1297,114.314,-53.2547,-5.28628,-45.5358,7.12502,20.5183,-74.4716,-9.21864e-15,5.56597e-15,28.7832,24.9197,-15.5922,28.7797,22.7771,-24.3471,-24.5957,7.12502,2.14214,5.37325,-2.69829,4.34853,3.98972,13.956,0.571311,-29.932,6.98227,-30.1571,-1.88651,-22.2554,29.3364,-16.87,5.84909,11.1727
3.90454,17.4387,3.36763,19.9036,-6.67007,-4.10746,-8.87987,1.10273,6.81001,-10.6282,1.18561,1.14779,-6.13765,0.151368,-2.55116,-5.23815,13.0695,9.51557,21.2518,15.6391,6.07557,7.74487,8.72851,1.81512,1.62755e-14,-1.53064e-14,-7.12202,-20.9704,14.6889,114.115,-52.9934,-4.81407,-45.3092,7.12502,20.972,-74.1954,1.62755e-14,-1.53064e-14,28.263,24.6099,-16.1845,28.9361,23.5262,-24.1421,-24.7096,7.12502,2.34015,5.25729,-2.88641,4.4037,4.18741,14.1645,2.84821,-29.6781,1.41763,-30.3052,-1.87298,-22.0556,29.4495,-16.9126,5.76458,11.4299
3.90399,17.4361,3.36513,19.8904,-6.695,-4.10696,-8.8751,1.09964,6.76955,-10.5293,1.17912,1.14488,-6.03132,0.156435,-2.53205,-5.59126,12.9695,9.27599,21.6659,15.4621,6.16418,7.91315,8.64547,1.90572,-3.62782e-15,1.03368e-14,-6.99749,-20.9179,14.3862,113.976,-52.8905,-4.45499,-45.2012,7.12502,21.317,-74.0488,-3.62782e-15,1.03368e-14,27.885,24.1687,-16.5757,29.058,23.8877,-23.7945,-24.202,7.12502,2.6758,5.76096,-3.00157,4.37374,4.18449,14.4069,2.70186,-29.5234,1.2878,-30.3715,-1.81822,-22.0713,29.5598,-16.9872,5.75222,11.1434
3.90209,17.4329,3.35736,19.8858,-6.69659,-4.04131,-8.83078,1.11197,6.65577,-10.5274,1.20425,1.1325,-6.05073,0.175993,-2.48151,-5.511,12.7706,9.07914,21.8051,15.2238,6.14291,7.92561,8.51973,1.90185,-4.42296e-15,5.1684e-15,-6.94584,-20.6268,14.2379,113.922,-52.939,-4.9418,-45.3296,7.12502,20.8493,-74.2293,-4.42296e-15,5.1684e-15,27.9893,24.2467,-16.1817,28.9752,23.4284,-23.823,-24.1121,7.12502,2.64834,5.85121,-3.14986,4.33551,4.13524,14.6693,2.59922,-29.3946,0.936209,-30.4638,-1.79202,-22.1502,29.6571,-16.9901,5.84425,10.2032
3.90073,17.4304,3.34538,19.9003,-6.70525,-4.00432,-9.33404,1.13751,6.57329,-10.1873,1.18419,1.14629,-5.39881,0.199429,-2.41488,-5.43832,12.6567,8.74503,21.5701,15.1267,6.12051,7.80208,8.44032,1.90872,-8.89561e-15,-6.75868e-15,-6.92669,-20.8314,14.0533,113.81,-52.7691,-5.2948,-45.2351,7.12502,20.5101,-74.1717,-8.89561e-15,-6.75868e-15,27.8567,24.7634,-15.937,28.9255,23.2756,-24.3405,-24.5933,7.12502,2.14852,5.37566,-3.37604,4.30636,4.10537,14.9772,3.60451,-29.1896,-1.30726,-30.5585,-1.78257,-22.1971,29.7264,-16.9466,5.89711,10.204
3.9018,17.4276,3.33849,19.8625,-6.72172,-4.00866,-8.52901,1.12693,6.54115,-10.6611,1.26252,1.15909,-6.36172,0.202159,-2.3921,-5.33984,12.5587,8.38731,22.2231,14.9477,6.56733,7.93432,8.38699,2.10472,2.32578e-14,4.17448e-15,-6.74651,-19.9511,13.8809,113.799,-52.6074,-5.1985,-44.9214,7.12502,20.6027,-73.8481,2.32578e-14,4.17448e-15,27.692,23.6062,-16.1259,29.1499,24.0017,-24.7381,-24.7192,7.12502,1.76448,5.25326,-3.55328,4.22555,4.09732,15.3596,3.7731,-29.0497,-0.96963,-30.5515,-1.75038,-22.2153,29.7678,-16.9282,5.84833,10.6685
3.90108,17.4257,3.33131,19.7982,-6.75678,-4.00432,-9.14025,1.11629,6.45379,-10.1304,1.17803,1.20533,-5.44503,0.206313,-2.28929,-5.51925,12.5578,8.2098,22.0357,15.012,6.27859,7.9086,8.37168,2.04661,5.14355e-15,-1.51076e-14,-6.63951,-20.4809,13.5906,113.726,-52.4783,-4.98096,-44.8082,7.12502,20.8117,-73.7121,5.14355e-15,-1.51076e-14,27.3714,24.117,-16.0678,29.1419,24.2283,-24.6926,-24.0621,7.12502,1.80841,5.91003,-3.6873,4.20842,4.09012,15.727,2.54204,-29.0742,1.76136,-30.5453,-1.72975,-22.2214,29.8166,-16.9074,5.79577,11.0324
3.89941,17.4251,3.32226,19.7826,-6.83637,-3.97191,-9.26143,1.13452,6.34843,-9.95408,1.18951,1.19909,-5.1837,0.229931,-2.23487,-5.51409,12.3796,8.13865,22.1262,14.8223,6.03285,7.94908,8.25498,1.96593,7.62836e-15,7.55382e-15,-6.72703,-20.54,13.5528,113.848,-52.5813,-4.06276,-44.8108,7.12502,21.6937,-73.6153,7.62836e-15,7.55382e-15,27.1637,24.0086,-16.0703,29.2318,24.7086,-24.5207,-23.4268,7.12502,1.97452,6.54378,-3.86687,4.30187,4.04361,15.9863,0.191726,-29.1742,5.97516,-30.6289,-1.81752,-22.2238,29.9145,-16.8867,5.9215,11.209
3.89953,17.4226,3.31602,19.8523,-6.87617,-4.01097,-9.21412,1.14707,6.35257,-9.97111,1.2109,1.20867,-5.22683,0.23914,-2.22675,-5.62621,12.1783,8.06554,22.5251,14.5591,5.90639,8.10443,8.12115,1.94088,6.18717e-15,2.00773e-14,-6.76624,-20.3544,13.5254,113.972,-52.7162,-3.34317,-44.6284,7.12502,22.3846,-73.3515,6.18717e-15,2.00773e-14,26.8502,23.5368,-16.2733,29.343,24.6757,-24.5682,-23.68,7.12502,1.9286,6.29105,-4.08183,4.28965,4.06503,16.1747,-1.07645,-29.1155,8.39194,-30.8105,-1.8779,-22.1691,30.0649,-16.9138,6.10581,10.8343
3.90048,17.4165,3.31052,19.89,-6.77477,-4.13152,-9.20779,1.09839,6.49762,-9.9266,1.13841,1.24741,-5.18918,0.197115,-2.27036,-5.83672,12.1084,7.92842,22.9409,14.4478,5.92175,8.26832,8.06705,1.99096,7.62836e-15,4.31363e-14,-6.60416,-20.2359,13.2047,113.952,-52.6796,-4.21682,-44.678,7.12502,21.5457,-73.4995,7.62836e-15,4.31363e-14,26.6706,23.608,-16.272,29.1671,23.4444,-24.219,-23.9808,7.12502,2.26589,5.98696,-4.18516,4.09823,4.22757,16.3545,-0.478264,-28.9798,7.27141,-30.976,-1.85149,-22.0399,30.2531,-17.0132,6.07351,10.6339
3.90491,17.4099,3.3008,19.8561,-6.63065,-4.20333,-9.1068,1.03786,6.66271,-9.90509,1.05779,1.26098,-5.22985,0.146142,-2.35305,-5.77336,12.0658,7.82444,23.1775,14.3969,5.95764,8.32503,8.04238,2.01901,4.37326e-15,-1.39149e-14,-6.34791,-19.9835,12.7869,113.883,-52.5866,-5.71616,-44.9823,7.12502,20.1052,-73.962,4.37326e-15,-1.39149e-14,26.9636,24.335,-15.5835,28.7374,21.7102,-23.5733,-23.8388,7.12502,2.88944,6.12136,-4.17972,3.87163,4.34588,16.4916,0.18854,-28.8086,5.73334,-31.0881,-1.88309,-21.9499,30.4712,-17.1172,5.92429,10.9108
3.91067,17.4066,3.2851,19.8389,-6.59259,-4.20268,-8.92139,1.0292,6.7167,-9.92011,1.06037,1.24722,-5.34893,0.139714,-2.3996,-5.80295,11.8693,7.80939,23.4568,14.1602,5.75995,8.4375,7.9155,1.95257,-1.13059e-14,5.1684e-15,-6.23666,-19.653,12.5968,113.896,-52.6561,-6.06317,-45.1694,7.12502,19.7716,-74.1838,-1.13059e-14,5.1684e-15,26.945,24.2803,-15.4063,28.6701,21.5516,-23.7781,-23.7811,7.12502,2.69165,6.18167,-4.22796,3.75693,4.33499,16.5595,0.62756,-28.6474,4.37106,-31.2449,-1.8732,-21.9591,30.692,-17.0779,5.8247,10.8738
3.91303,17.4063,3.27377,19.8618,-6.60573,-4.27899,-9.08966,1.13635,6.88216,-9.69565,1.16706,1.14655,-4.99983,0.195526,-2.59013,-6.0519,11.6146,7.75146,23.4152,13.8419,5.51546,8.47745,7.73532,1.86662,2.33572e-15,3.20043e-14,-6.50095,-19.6395,12.5099,113.882,-52.6348,-5.77082,-45.2513,7.12502,20.0527,-74.2365,2.33572e-15,3.20043e-14,26.5705,23.6521,-16.043,28.9719,22.8782,-23.6818,-24.0764,7.12502,2.78464,5.88512,-4.3873,3.74243,4.4061,16.6502,1.8579,-28.5597,1.14554,-31.4089,-1.78708,-21.896,30.8804,-16.9876,5.79463,10.7182
3.91429,17.4055,3.26839,19.862,-6.57671,-4.39903,-8.75373,1.09357,6.89549,-9.88129,1.15079,1.23005,-5.39189,0.172993,-2.51524,-5.77557,11.5136,7.69689,23.5833,13.7404,5.4877,8.48171,7.68407,1.84404,-7.20594e-16,1.63003e-14,-6.21936,-19.1934,12.1527,113.815,-52.4505,-5.70388,-45.2981,7.12502,20.117,-74.2766,-7.20594e-16,1.63003e-14,26.2215,22.8295,-16.3219,29.1249,23.2157,-22.4981,-24.7533,7.12502,3.92782,5.19028,-4.48872,3.69061,4.54324,16.7732,2.24525,-28.5203,0.190606,-31.4982,-1.76792,-21.7651,31.0272,-17.0553,5.81318,10.995
3.91616,17.4026,3.25818,19.8644,-6.50237,-4.41905,-8.81623,1.14114,7.02843,-9.71096,1.19109,1.11172,-5.16575,0.192037,-2.71071,-6.01917,11.3732,7.66251,23.7033,13.5127,5.52689,8.55867,7.57875,1.86181,1.23992e-14,-2.98177e-15,-6.4329,-19.2711,11.903,113.75,-52.1766,-5.60599,-45.4217,7.12502,20.2111,-74.3902,1.23992e-14,-2.98177e-15,26.4505,23.2206,-15.942,29.02,22.7734,-22.0239,-25.2498,7.12502,4.38565,4.68481,-4.52333,3.54222,4.57734,16.8416,1.21901,-28.5661,2.93551,-31.6134,-1.76796,-21.7437,31.1534,-17.1316,5.77889,10.9369
3.91988,17.4004,3.24819,19.8991,-6.38864,-4.41368,-8.41433,1.01106,6.94167,-9.92128,1.07101,1.20482,-5.63214,0.120808,-2.57485,-5.83533,11.2402,7.51587,23.9584,13.3546,5.55725,8.59687,7.50006,1.87588,-8.18744e-15,3.77691e-15,-6.1469,-18.8567,11.6737,113.755,-52.3344,-5.62782,-45.3742,7.12502,20.1901,-74.345,-8.18744e-15,3.77691e-15,25.8761,22.1652,-16.4216,29.3202,23.6808,-22.5032,-24.859,7.12502,3.92288,5.08462,-4.57434,3.34783,4.58948,16.8949,0.819483,-28.5869,4.32623,-31.7588,-1.77482,-21.7496,31.2706,-17.1047,5.66952,10.7816
3.92537,17.3995,3.24183,19.8664,-6.33343,-4.45794,-8.5179,1.03987,7.11982,-9.7078,1.08013,1.13386,-5.34013,0.126038,-2.74698,-5.95408,11.0726,7.10677,23.8307,13.1204,5.77332,8.52146,7.37398,1.97923,6.8208e-15,2.00773e-14,-6.20688,-18.928,11.4805,113.72,-52.6492,-5.81515,-45.0209,7.12502,20.01,-74.0106,6.8208e-15,2.00773e-14,25.5097,21.763,-16.828,29.5625,24.202,-23.3955,-24.5321,7.12502,3.06115,5.4257,-4.5911,3.23817,4.63387,16.9863,1.92925,-28.4419,2.16838,-31.7983,-1.79548,-21.7068,31.3712,-17.1079,5.628,10.8905
3.92841,17.3973,3.23573,19.8112,-6.41694,-4.50902,-7.9675,1.01197,7.05179,-10.0044,1.11318,1.2178,-5.97003,0.122582,-2.62637,-5.57229,10.946,6.81692,24.1371,12.9776,5.94458,8.52036,7.30546,2.0498,3.21783e-15,3.89618e-14,-5.90576,-18.2151,11.2179,113.728,-52.6817,-5.96413,-44.8998,7.12502,19.8668,-73.9044,3.21783e-15,3.89618e-14,25.4889,21.263,-16.5783,29.4485,23.6612,-24.6552,-25.3175,7.12502,1.84455,4.65424,-4.62706,3.24712,4.64099,17.0647,2.86695,-28.1924,-0.0662299,-31.8016,-1.76483,-21.6793,31.456,-17.1119,5.70498,10.6628
3.93111,17.3939,3.23215,19.818,-6.49705,-4.54549,-8.28398,1.13078,7.13602,-9.73841,1.22421,1.14772,-5.48965,0.192294,-2.73887,-5.80935,10.8017,6.5565,24.2062,12.7793,5.99408,8.56064,7.19569,2.10241,-4.22417e-16,-2.18663e-15,-6.03456,-18.2255,10.9891,113.66,-52.3977,-5.59932,-44.9626,7.12502,20.2175,-73.9304,-4.22417e-16,-2.18663e-15,25.8904,22.077,-15.8161,29.0438,22.5959,-25.2238,-26.1397,7.12502,1.29538,3.83611,-4.77127,3.20539,4.61897,17.2695,1.80585,-27.9802,0.449896,-31.9016,-1.72146,-21.6826,31.6068,-17.0939,5.8312,10.2136
3.93489,17.3919,3.23,19.8632,-6.56261,-4.56826,-8.55973,1.21855,7.21828,-9.5324,1.30032,1.09053,-5.10273,0.241213,-2.8371,-5.99624,10.674,6.23997,24.3145,12.5992,6.12264,8.59604,7.09814,2.18878,2.91965e-15,-1.25234e-14,-6.02314,-18.2385,10.6997,113.539,-52.1383,-4.6899,-44.9467,7.12502,21.0913,-73.8196,2.91965e-15,-1.25234e-14,25.8951,22.1648,-15.6262,28.9716,22.4407,-25.3403,-25.8364,7.12502,1.18286,4.14006,-4.96725,3.13972,4.58384,17.4939,2.75662,-28.2336,1.44008,-32.0467,-1.6937,-21.696,31.7731,-17.1451,5.9243,10.2524
3.93449,17.3776,3.22245,19.8855,-6.63002,-4.57867,-8.67094,1.25754,7.20675,-9.42205,1.33698,1.08544,-4.91696,0.269054,-2.83228,-5.96971,10.5851,5.91813,24.3872,12.4897,6.26655,8.57965,7.03424,2.27169,-8.07563e-16,1.49089e-14,-5.81479,-18.1993,10.3451,113.358,-51.947,-4.05629,-44.9636,7.12502,21.6999,-73.7674,-8.07563e-16,1.49089e-14,25.779,21.9147,-15.5716,29.0585,22.8027,-25.7724,-25.1751,7.12502,0.76558,4.80323,-5.17604,3.11309,4.5509,17.747,2.5059,-28.0076,1.16495,-32.2205,-1.6748,-21.6907,31.9939,-17.1949,5.94448,10.2572
3.93693,17.3757,3.21231,19.8827,-6.58565,-4.65867,-8.54616,1.22381,7.23522,-9.36758,1.30138,1.13586,-4.93169,0.252213,-2.79868,-6.03395,10.5352,5.66531,24.5352,12.4123,6.42385,8.61093,6.99378,2.36266,-5.45415e-15,9.74045e-15,-5.55451,-18.1396,9.98706,113.25,-51.9819,-4.33098,-45.066,7.12502,21.4361,-73.9,-5.45415e-15,9.74045e-15,25.4369,21.2479,-15.8398,29.2304,23.5893,-25.805,-25.2528,7.12502,0.734045,4.7257,-5.31481,3.06327,4.64703,17.9418,1.67789,-27.8832,2.13215,-32.3634,-1.62809,-21.6044,32.1982,-17.0362,5.8843,9.70933
3.94026,17.3723,3.19625,19.8332,-6.49169,-4.73161,-8.20759,1.15528,7.29182,-9.33994,1.23957,1.17555,-5.09715,0.214544,-2.79622,-6.07553,10.4882,5.4864,24.6186,12.3485,6.50505,8.62725,6.95723,2.41523,-3.10601e-15,-2.78299e-15,-5.41859,-17.9541,9.6881,113.234,-52.0375,-5.00692,-44.9435,7.12502,20.7868,-73.8501,-3.10601e-15,-2.78299e-15,24.95,20.4588,-16.2896,29.4521,24.1826,-25.5442,-25.9457,7.12502,0.98593,4.03181,-5.33498,2.97095,4.74097,18.0623,0.121148,-27.9011,5.70677,-32.5093,-1.59801,-21.5219,32.4424,-17.2966,5.73317,10.5519
3.94626,17.3702,3.18744,19.7265,-6.39856,-4.77678,-7.94724,1.12339,7.38967,-9.31721,1.21725,1.18245,-5.22038,0.194318,-2.84799,-5.8582,10.4425,5.21537,24.5787,12.3137,6.62706,8.54353,6.92855,2.47287,-1.05977e-14,1.15295e-14,-5.39412,-17.515,9.45131,113.162,-51.6867,-5.6217,-44.7566,7.12502,20.196,-73.7268,-1.05977e-14,1.15295e-14,24.7869,20.1862,-16.2069,29.5312,23.9646,-26.1878,-25.8888,7.12502,0.36435,4.0906,-5.1761,2.83811,4.78308,18.0658,-1.82162,-27.7456,10.2764,-32.5319,-1.64652,-21.4704,32.6399,-17.4725,5.61781,11.088
3.95234,17.3682,3.18442,19.7004,-6.28417,-4.98028,-7.96357,1.1394,7.6342,-9.21049,1.22368,1.23191,-5.09654,0.191844,-2.9314,-5.76728,10.4558,4.89928,24.6048,12.3339,6.84909,8.49458,6.93295,2.58597,6.90777e-15,2.98177e-15,-5.37957,-17.2456,9.24155,113.045,-51.3741,-6.10949,-45.0007,7.12502,19.7271,-74.0197,6.90777e-15,2.98177e-15,24.7073,20.1652,-15.981,29.569,23.9113,-26.6783,-25.1273,7.12502,-0.109427,4.85245,-5.17094,2.76099,4.99689,18.1715,-1.21943,-27.5893,8.51991,-32.5854,-1.60509,-21.2723,32.8227,-17.6064,5.58644,10.8754
3.95518,17.3625,3.17444,19.7561,-6.2599,-5.08178,-7.99295,1.15219,7.71039,-9.123,1.23137,1.26792,-4.98524,0.198732,-2.93512,-5.67133,10.5019,4.58591,24.5919,12.4041,7.05375,8.43188,6.9587,2.69479,-6.18717e-15,-7.15625e-15,-5.29536,-17.1767,8.96295,112.999,-51.5599,-5.9888,-45.2063,7.12502,19.8431,-74.2134,-6.18717e-15,-7.15625e-15,24.6036,20.1764,-15.7996,29.5716,24.0306,-26.1189,-25.0423,7.12502,0.430897,4.93701,-5.35421,2.69937,5.07318,18.3108,2.00322,-27.306,0.8659,-32.7409,-1.45073,-21.2205,32.9746,-17.6669,5.59617,10.341
3.95586,17.3586,3.15677,19.8146,-6.35185,-5.01128,-7.81838,1.15456,7.57064,-9.15498,1.25871,1.25502,-5.11353,0.214898,-2.87253,-5.86332,10.3149,4.63119,25.0048,12.1828,6.75142,8.63621,6.83332,2.60713,-1.82012e-14,-2.16675e-14,-5.1715,-16.9635,8.6264,113.012,-51.7286,-5.72005,-45.1634,7.12502,20.1014,-74.1435,-1.82012e-14,-2.16675e-14,24.5187,19.9639,-15.6725,29.5857,24.1404,-25.9465,-25.3949,7.12502,0.597459,4.58402,-5.61946,2.67774,4.93254,18.5099,2.89666,-27.1086,-0.37588,-32.925,-1.3376,-21.3428,33.086,-17.6531,5.60544,10.059
3.95725,17.36,3.14035,19.8986,-6.43509,-5.07622,-7.66342,1.18213,7.53637,-9.11895,1.31058,1.26748,-5.15549,0.242896,-2.84083,-7.28771,9.66101,5.56139,26.3961,11.3473,5.27953,9.56476,6.38687,2.0726,-1.59773e-14,-1.33186e-14,-5.14124,-16.8427,8.34316,113.055,-51.61,-5.68813,-45.1636,7.12502,20.1321,-74.1405,-1.59773e-14,-1.33186e-14,24.4755,19.91,-15.5075,29.5607,24.1033,-26.1066,-25.4791,7.12502,0.442835,4.50022,-5.99016,2.69923,4.94227,18.857,1.91109,-27.1045,2.29215,-33.1186,-1.30811,-21.2738,33.1587,-17.6233,5.584,10.5116
3.95865,17.362,3.12526,19.985,-6.45391,-5.13903,-7.58395,1.18294,7.4763,-9.01654,1.3177,1.30125,-5.08838,0.256185,-2.77283,-7.58031,9.53396,5.23727,26.4842,11.1573,5.44958,9.61539,6.28652,2.17917,2.33883e-14,-1.82882e-14,-5.16549,-16.8112,8.10272,113.142,-51.5126,-5.8315,-45.1274,7.12502,19.9943,-74.1187,2.33883e-14,-1.82882e-14,24.3505,19.8838,-15.3962,29.5267,23.77,-26.2838,-25.3609,7.12502,0.271637,4.61864,-6.35788,2.72076,4.98033,19.2075,2.81814,-26.8727,-0.402576,-33.3214,-1.32761,-21.185,33.2188,-17.5931,5.5522,10.9507
3.95794,17.3611,3.10387,20.0397,-6.36387,-5.16896,-7.36608,1.11898,7.38771,-8.9987,1.25807,1.35891,-5.19788,0.230396,-2.66844,-7.71571,9.45094,4.98806,26.6233,11.0591,5.50113,9.66854,6.22373,2.23789,-2.89791e-14,4.17448e-15,-5.0745,-16.6761,7.83504,113.123,-51.3424,-5.67069,-44.9329,7.12502,20.1489,-73.908,-2.89791e-14,4.17448e-15,24.1174,19.391,-15.4645,29.6567,23.8788,-26.7409,-24.8646,7.12502,-0.169832,5.11509,-6.58943,2.7664,5.04414,19.4219,3.21125,-26.8329,-1.48013,-33.5384,-1.33999,-21.1146,33.3078,-17.5484,5.50884,10.8179
3.95933,17.3579,3.08588,20.0697,-6.20873,-5.30012,-7.11039,1.04848,7.47543,-9.02291,1.19014,1.43552,-5.37619,0.18735,-2.64246,-7.86513,9.34888,4.79041,26.9014,10.9377,5.49739,9.78246,6.14992,2.276,7.84578e-15,1.66979e-14,-4.85104,-16.516,7.48586,112.961,-51.0343,-4.8716,-44.5554,7.12502,20.9168,-73.4477,7.84578e-15,1.66979e-14,24.0862,19.1009,-15.2594,29.6722,24.085,-26.7989,-24.7259,7.12502,-0.225818,5.25369,-6.71778,2.70605,5.2174,19.5822,2.17177,-26.9823,1.59335,-33.7267,-1.37238,-20.9317,33.4339,-17.457,5.47344,10.5595
3.96515,17.3553,3.0741,20.0362,-6.10015,-5.44204,-6.89453,1.00968,7.63776,-9.05552,1.159,1.5009,-5.5382,0.158021,-2.66758,-7.75498,9.27566,4.68868,27.0982,10.8878,5.38075,9.83234,6.10541,2.24949,-1.99406e-15,-1.03368e-14,-4.63485,-16.2639,7.16018,112.894,-51.0901,-4.32056,-44.4053,7.12502,21.4461,-73.2382,-1.99406e-15,-1.03368e-14,24.0917,18.9118,-14.9508,29.5333,23.8652,-25.8464,-25.6891,7.12502,0.694088,4.28956,-6.77039,2.56605,5.36055,19.7467,1.32118,-26.8668,3.39803,-33.8075,-1.42562,-20.7653,33.5653,-17.3963,5.49502,10.3382
3.97192,17.3532,3.06205,19.9937,-6.04203,-5.55387,-6.78741,1.01669,7.78035,-9.02269,1.17472,1.53279,-5.56247,0.15847,-2.71428,-7.62503,9.15651,4.6159,27.1961,10.7739,5.24537,9.84645,6.0311,2.19933,-1.11257e-14,2.56432e-14,-4.64252,-15.9785,6.98621,112.972,-51.3073,-4.43692,-44.7223,7.12502,21.3343,-73.568,-1.11257e-14,2.56432e-14,24.1054,18.8998,-14.5556,29.422,23.4466,-24.9452,-26.4694,7.12502,1.56453,3.5046,-6.82363,2.46095,5.4575,19.8827,1.18676,-26.6849,3.14443,-33.858,-1.446,-20.6487,33.6709,-17.4429,5.48816,10.4558
3.97621,17.351,3.05235,20.0106,-6.01238,-5.52514,-6.77239,1.03293,7.75165,-8.91618,1.19174,1.49089,-5.45219,0.174002,-2.74227,-7.96363,8.92858,4.55619,27.3926,10.4643,5.14231,9.98553,5.8705,2.16968,5.70264e-15,2.78299e-15,-4.80926,-15.7674,6.81894,112.99,-51.0619,-4.8147,-44.8892,7.12502,20.9714,-73.7755,5.70264e-15,2.78299e-15,24.2944,19.3697,-13.9634,29.2529,22.6241,-25.6848,-26.2705,7.12502,0.850191,3.70753,-6.95116,2.3758,5.39397,20.0123,1.1212,-26.6713,3.46679,-33.9471,-1.47451,-20.6795,33.7303,-17.4708,5.40595,10.9321
3.97827,17.3496,3.04413,20.0399,-6.01482,-5.37626,-6.63527,1.03188,7.56147,-8.89687,1.2061,1.41746,-5.50448,0.18887,-2.71534,-8.36501,8.67842,4.51185,27.7837,10.0992,5.09879,10.2068,5.69381,2.16355,-4.24902e-15,-6.16232e-15,-4.85164,-15.5253,6.55297,112.898,-50.6798,-5.27368,-44.7998,7.12502,20.5304,-73.7342,-4.24902e-15,-6.16232e-15,24.2534,19.3432,-13.8599,29.1969,21.9695,-26.1495,-25.9285,7.12502,0.401361,4.05091,-7.12128,2.34412,5.19789,20.1882,1.15598,-26.6268,3.42054,-34.0301,-1.54806,-20.8346,33.7479,-17.4914,5.4165,10.8943
3.98076,17.3474,3.03645,20.0691,-6.04249,-5.32235,-6.48419,1.03507,7.46507,-8.92933,1.22862,1.3908,-5.62165,0.200283,-2.69147,-8.43022,8.48631,4.41545,28.0637,9.83822,5.09203,10.3176,5.56429,2.16373,2.11209e-15,1.33186e-14,-4.72937,-15.2603,6.22874,112.795,-50.4153,-6.07925,-44.937,7.12502,19.7562,-73.953,2.11209e-15,1.33186e-14,23.7225,18.3895,-14.4834,29.5325,22.6635,-25.1753,-26.188,7.12502,1.34224,3.78756,-7.2923,2.37202,5.09196,20.3929,1.83665,-26.3939,1.82781,-34.0951,-1.56514,-20.9057,33.7355,-17.4964,5.52921,10.3507
3.98481,17.3461,3.02544,20.0847,-6.06523,-5.28252,-6.36231,0.99685,7.38671,-8.90926,1.18968,1.37821,-5.67192,0.183861,-2.66357,-8.30023,8.41606,4.34007,28.0302,9.78832,4.98513,10.281,5.52075,2.12367,1.25172e-14,2.00773e-14,-4.52402,-15.0795,5.82077,112.695,-50.1018,-6.50368,-44.8883,7.12502,19.3481,-73.9457,1.25172e-14,2.00773e-14,23.267,17.6512,-14.9196,29.8218,23.3378,-24.2977,-26.324,7.12502,2.18982,3.64449,-7.45177,2.35154,4.99775,20.5733,2.77002,-26.1022,-0.565054,-34.1485,-1.52422,-20.976,33.7232,-17.489,5.4957,10.3347
3.98931,17.3456,3.0134,20.0493,-6.10601,-5.1434,-6.22006,0.942376,7.19694,-8.85071,1.12959,1.32171,-5.69259,0.164033,-2.62031,-8.21741,8.37751,4.33357,27.9835,9.78578,4.81163,10.2569,5.49811,2.05758,1.73688e-14,-1.0138e-14,-4.30226,-15.0589,5.36153,112.561,-50.0117,-5.79034,-44.5318,7.12502,20.0339,-73.519,1.73688e-14,-1.0138e-14,23.0802,17.3912,-14.9224,29.8983,23.1988,-24.3218,-25.6814,7.12502,2.16659,4.28734,-7.57629,2.29268,4.79831,20.7133,3.63851,-25.887,-2.75527,-34.1733,-1.50079,-21.1561,33.737,-17.4953,5.40481,10.6586
3.99215,17.3422,3.00682,20.0094,-6.08239,-5.06271,-6.18761,0.924556,7.05734,-8.75111,1.10581,1.28364,-5.6037,0.164624,-2.58347,-8.34459,8.24178,4.23867,28.1254,9.61265,4.76895,10.3305,5.40377,2.05147,-2.74571e-15,-9.83984e-15,-4.22001,-15.0803,5.07621,112.452,-50.1205,-4.95144,-44.4378,7.12502,20.8401,-73.3385,-2.74571e-15,-9.83984e-15,23.002,17.1386,-14.8353,29.9476,23.2338,-25.1433,-24.9411,7.12502,1.37314,5.03423,-7.60851,2.24046,4.68765,20.8082,4.56041,-25.632,-4.60564,-34.1973,-1.47078,-21.2662,33.7784,-17.4897,5.34787,10.6266
3.9934,17.3382,3.00096,19.9952,-5.92683,-5.06285,-6.19251,0.899196,7.01247,-8.6842,1.07044,1.3007,-5.53187,0.154324,-2.5412,-8.54055,8.04663,4.1031,28.3943,9.33746,4.80134,10.4587,5.26774,2.07544,1.88317e-14,-1.21259e-14,-4.26625,-14.8754,4.99435,112.444,-50.133,-4.61244,-44.3904,7.12502,21.1657,-73.255,1.88317e-14,-1.21259e-14,23.0856,16.8988,-14.6128,29.8516,23.3845,-25.6516,-24.9587,7.12502,0.882278,5.01921,-7.57848,2.17499,4.71641,20.8525,6.12643,-25.1512,-8.59916,-34.2697,-1.49823,-21.2467,33.8607,-17.5017,5.21874,10.554
3.99679,17.3348,2.99368,19.9506,-5.77054,-5.07386,-6.05427,0.859091,7.03693,-8.72102,1.03171,1.31346,-5.65395,0.129349,-2.54362,-8.62058,7.84836,4.04865,28.7702,9.07004,4.75318,10.6153,5.13509,2.05793,-6.32694e-15,-1.60022e-14,-4.21537,-14.4571,4.8244,112.451,-50.099,-4.92008,-44.3902,7.12502,20.8702,-73.2876,-6.32694e-15,-1.60022e-14,23.097,16.4155,-14.4597,29.8315,23.5224,-25.8341,-25.2717,7.12502,0.705929,4.70692,-7.48834,2.06505,4.75433,20.8514,7.25882,-24.6892,-11.4199,-34.3417,-1.54478,-21.2199,33.9999,-17.5471,5.08368,10.8099
4.00182,17.332,2.98511,19.9735,-5.60444,-5.1866,-5.91763,0.808875,7.20514,-8.79712,0.978513,1.3311,-5.82053,0.086017,-2.62064,-8.64348,7.72049,3.92616,29.1603,8.90503,4.7593,10.7593,5.0486,2.07905,-8.18744e-15,1.98785e-16,-4.08844,-13.9944,4.51846,112.423,-50.0197,-5.39702,-44.3751,7.12502,20.4119,-73.3222,-8.18744e-15,1.98785e-16,22.9201,15.7802,-14.5137,29.9656,23.657,-25.5399,-25.2488,7.12502,0.990125,4.72865,-7.42089,1.93565,4.897,20.8175,6.86241,-24.6824,-10.5851,-34.5115,-1.51207,-21.1114,34.193,-17.6097,4.95449,10.8545
4.00533,17.3289,2.97562,20.0719,-5.44344,-5.33995,-5.90968,0.758527,7.38105,-8.83152,0.912149,1.37504,-5.87129,0.0410892,-2.67291,-8.4735,7.67467,3.76797,29.2424,8.88023,4.75365,10.7469,5.01996,2.09366,-9.27765e-15,2.97183e-14,-3.95091,-13.6878,4.19095,112.327,-49.8557,-5.14415,-44.076,7.12502,20.6549,-72.9969,-9.27765e-15,2.97183e-14,22.6205,15.1199,-14.6706,30.1718,24.0147,-24.7574,-25.0974,7.12502,1.74583,4.87521,-7.4412,1.84374,5.08582,20.7511,6.3267,-24.793,-9.80829,-34.7604,-1.50226,-20.9442,34.3984,-17.6535,4.87106,10.7471
4.00871,17.3236,2.96593,20.1106,-5.34636,-5.49229,-5.86992,0.732547,7.54577,-8.81786,0.879865,1.43306,-5.88462,0.0168079,-2.70417,-8.29273,7.59759,3.69733,29.1986,8.85215,4.54314,10.7012,4.97463,2.01599,9.69696e-15,2.6339e-14,-3.76731,-13.5631,3.87303,112.212,-49.636,-4.67385,-43.9744,7.12502,21.1068,-72.8456,9.69696e-15,2.6339e-14,22.2253,14.3799,-14.8859,30.4503,24.5206,-24.3284,-25.1437,7.12502,2.16023,4.82507,-7.44338,1.77096,5.25999,20.68,7.01187,-24.5249,-11.8598,-34.921,-1.53,-20.7657,34.5692,-17.6792,4.86323,10.809
4.01261,17.3213,2.95938,20.1014,-5.26014,-5.61115,-5.75975,0.71485,7.69687,-8.80512,0.864509,1.44864,-5.93658,-0.0010196,-2.77282,-8.3526,7.45278,3.68415,29.3833,8.70904,4.31008,10.7948,4.88015,1.93062,2.06301e-14,-8.24956e-15,-3.73183,-13.3039,3.67126,112.25,-49.5199,-4.95612,-44.1461,7.12502,20.8356,-73.0473,2.06301e-14,-8.24956e-15,22.0037,13.8572,-14.9623,30.5714,24.6062,-24.3823,-25.6112,7.12502,2.10811,4.35812,-7.38563,1.72647,5.40338,20.6359,6.64277,-24.5429,-12.286,-35.0091,-1.56485,-20.6198,34.6986,-17.7003,4.85636,10.7124
