JuanDHNZ/ProyectoFinalCD/preprocessing/sports_trials_csv/49_15.csv
root1,root2,root3,root4,root5,root6,lowerback1,lowerback2,lowerback3,upperback1,upperback2,upperback3,thorax1,thorax2,thorax3,lowerneck1,lowerneck2,lowerneck3,upperneck1,upperneck2,upperneck3,head1,head2,head3,rclavicle1,rclavicle2,rhumerus1,rhumerus2,rhumerus3,rradius1,rwrist1,rhand1,rhand2,rfingers1,rthumb1,rthumb2,lclavicle1,lclavicle2,lhumerus1,lhumerus2,lhumerus3,lradius1,lwrist1,lhand1,lhand2,lfingers1,lthumb1,lthumb2,rfemur1,rfemur2,rfemur3,rtibia1,rfoot1,rfoot2,rtoes1,lfemur1,lfemur2,lfemur3,ltibia1,lfoot1,lfoot2,ltoes1
2.8914,16.7375,-0.0292059,14.507,6.17542,11.7237,-6.07636,1.27834,0.513494,-1.3358,1.88447,-7.5203,2.30357,0.983564,-8.03564,-1.70151,15.0357,5.683,47.3168,25.1144,-2.16944,20.0088,11.0086,2.17183,-2.53947e-14,-6.75868e-15,-35.9381,5.46496,-94.0953,42.734,-35.796,-8.78251,-50.5882,7.12502,17.1558,-79.8508,-2.53947e-14,-6.75868e-15,-27.5495,-20.79,82.1726,41.9951,72.6259,-38.2861,-14.7144,7.12502,-11.3152,14.9604,-48.9741,23.4701,-5.96064,74.0437,2.57126,9.87051,-42.3425,-30.7124,-7.3105,-36.6412,37.7976,-16.7923,10.0239,5.29802
2.89803,16.7158,-0.0531179,15.395,4.81245,11.358,-6.70077,1.73486,0.698438,-1.79738,2.47964,-7.5349,2.26628,1.27477,-8.09716,-1.62437,15.0593,5.68819,47.3392,25.154,-2.16255,20.0076,11.0294,2.17413,1.82882e-14,-2.14687e-14,-36.0327,5.62328,-94.1881,42.7787,-36.2421,-9.74436,-49.8783,7.12502,16.2298,-79.2189,1.82882e-14,-2.14687e-14,-27.6243,-20.7675,82.202,41.9766,72.5632,-38.2548,-15.211,7.12502,-11.285,14.4655,-51.1494,23.8803,-6.8193,74.1889,2.9051,10.4211,-42.2009,-32.4538,-6.68637,-36.4492,38.4692,-17.0086,10.3527,6.453
2.9015,16.7204,-0.0521866,15.382,4.91326,11.3735,-6.72008,1.70695,0.753043,-1.77851,2.44028,-7.5318,2.29304,1.25618,-8.12908,-1.61786,15.054,5.67876,47.3812,25.1482,-2.14254,20.0283,11.026,2.18538,1.53064e-14,-6.99722e-14,-36.0547,5.78141,-94.2706,42.805,-36.7603,-10.654,-49.4221,7.12502,15.3538,-78.8321,1.53064e-14,-6.99722e-14,-27.6762,-20.7474,82.2214,42.0169,72.5597,-39.3936,-12.5387,7.12502,-12.3831,17.0745,-51.0148,23.7892,-6.7763,74.1582,2.77223,10.4689,-42.5118,-32.4452,-6.85353,-36.4313,38.4957,-17.048,10.2763,7.28345
2.9002,16.7208,-0.0503237,15.3437,4.96364,11.3779,-6.7228,1.68829,0.732311,-1.73297,2.41895,-7.51664,2.33738,1.24702,-8.10199,-1.75611,15.0451,5.59834,47.4244,25.1204,-2.06958,20.0551,11.0003,2.24013,-4.8901e-14,2.14687e-14,-35.9649,5.70416,-94.1864,42.7148,-36.2905,-9.67658,-50.101,7.12502,16.2951,-79.4363,-4.8901e-14,2.14687e-14,-27.6932,-20.7514,82.2245,42.1104,72.6177,-38.5599,-15.0346,7.12502,-11.5792,14.6255,-50.9486,23.8114,-6.74085,74.1715,2.86975,10.4228,-42.0932,-32.4204,-6.82432,-36.4431,38.5994,-17.0587,10.3767,6.19023
2.89885,16.7216,-0.0486057,15.3166,4.98644,11.3444,-6.67386,1.68557,0.754262,-1.75899,2.41052,-7.51464,2.28242,1.24123,-8.11463,-1.75545,15.0329,5.60359,47.4241,25.0813,-2.03268,20.0417,10.9907,2.24742,-3.82164e-14,5.32743e-14,-36.0112,5.58533,-94.1517,42.639,-35.8069,-8.76125,-50.5968,7.12502,17.1762,-79.8576,-3.82164e-14,5.32743e-14,-27.7938,-20.7866,82.2231,42.1833,72.6869,-38.6142,-14.4416,7.12502,-11.6316,15.2155,-50.9191,23.8564,-6.69371,74.1661,3.07371,10.3667,-41.3795,-32.3408,-6.74878,-36.4301,38.5736,-17.0466,10.4716,5.14912
2.89816,16.7217,-0.0496145,15.3475,4.96606,11.3166,-6.66386,1.70794,0.774709,-1.81703,2.43577,-7.52498,2.22134,1.25173,-8.13618,-1.67257,15.0179,5.72376,47.445,25.0656,-2.06873,20.0698,11.0021,2.20861,-4.28381e-14,5.1684e-15,-36.1239,5.52126,-94.1877,42.6659,-35.8005,-8.53927,-50.7354,7.12502,17.3899,-79.9775,-4.28381e-14,5.1684e-15,-27.8787,-20.821,82.2395,42.1999,72.6912,-38.8705,-13.7504,7.12502,-11.8788,15.8926,-50.9817,23.8483,-6.69725,74.1688,3.09919,10.3878,-41.4276,-32.3972,-6.76596,-36.3959,38.5883,-17.09,10.4625,5.46389
2.89514,16.717,-0.0542231,15.3966,4.92255,11.3023,-6.67718,1.71801,0.733041,-1.82301,2.45134,-7.50131,2.22209,1.25903,-8.08409,-1.74255,15.022,5.72618,47.4979,25.0865,-2.06671,20.1284,11.0025,2.22703,-2.44008e-14,4.13472e-14,-36.1284,5.66228,-94.2629,42.7559,-36.3239,-9.64502,-50.0946,7.12502,16.3255,-79.4274,-2.44008e-14,4.13472e-14,-27.8493,-20.812,82.2766,42.1874,72.5686,-38.8172,-13.484,7.12502,-11.8274,16.162,-51.1081,23.824,-6.71677,74.1916,2.95763,10.4509,-42.038,-32.525,-6.76376,-36.3652,38.6342,-17.0849,10.4489,5.7707
2.89282,16.7143,-0.0568347,15.3769,4.93026,11.2556,-6.63215,1.68947,0.745796,-1.78139,2.41119,-7.4477,2.23254,1.23944,-8.0373,-1.89453,15.0594,5.56932,47.4811,25.1396,-2.01878,20.1131,10.9968,2.29095,9.49197e-15,-1.19271e-14,-36.0755,5.93744,-94.3434,42.8251,-36.8573,-11.6366,-48.2928,7.12502,14.4071,-77.7727,9.49197e-15,-1.19271e-14,-27.8152,-20.7081,82.2768,42.2232,72.4424,-38.4098,-13.278,7.12502,-11.4345,16.3902,-51.1067,23.8342,-6.64634,74.1909,2.84044,10.5747,-42.5502,-32.538,-6.76202,-36.3009,38.6689,-17.0329,10.4871,5.57605
2.89301,16.7165,-0.0526752,15.3303,4.97182,11.2428,-6.64426,1.67884,0.765359,-1.74006,2.39768,-7.42282,2.28011,1.23436,-8.02228,-1.91605,15.0742,5.54347,47.438,25.1847,-2.07316,20.1015,11.0055,2.27841,-1.86361e-14,1.23246e-14,-36.019,5.89658,-94.2356,42.7339,-36.3025,-11.4202,-47.6398,7.12502,14.6156,-77.1048,-1.86361e-14,1.23246e-14,-27.7473,-20.6499,82.2811,42.1438,72.4516,-38.1863,-13.607,7.12502,-11.2189,16.0731,-50.9587,23.8681,-6.58163,74.1198,2.7484,10.6151,-42.7306,-32.368,-6.77961,-36.2847,38.4937,-16.951,10.4846,5.57968
2.89441,16.7191,-0.0458875,15.3237,4.9113,11.3272,-6.76059,1.72242,0.677251,-1.73279,2.4681,-7.46593,2.36137,1.27149,-8.00862,-1.81755,15.0371,5.66302,47.4161,25.14,-2.14709,20.103,11.0052,2.21238,-3.37437e-14,3.29983e-14,-36.014,5.72125,-94.1463,42.632,-35.741,-10.2906,-48.3961,7.12502,15.7038,-77.7789,-3.37437e-14,3.29983e-14,-27.7247,-20.7432,82.297,42.02,72.5306,-38.3774,-13.9177,7.12502,-11.4033,15.7523,-50.884,23.9199,-6.68035,74.082,2.55645,10.6134,-43.0286,-32.3081,-6.72073,-36.4093,38.4853,-17.0608,10.459,5.88033
2.89001,16.748,-0.0156526,14.4265,6.37496,11.7334,-6.20017,1.19694,0.466705,-1.27548,1.78409,-7.45015,2.41754,0.935356,-7.93889,-1.80412,15.0343,5.67816,47.374,25.1179,-2.14875,20.0704,11.0015,2.20005,9.88954e-15,7.55382e-14,-36.0021,5.74988,-94.2086,42.5821,-35.7415,-9.63809,-49.1984,7.12502,16.3321,-78.5306,9.88954e-15,7.55382e-14,-27.7654,-20.6952,82.2406,42.0466,72.5624,-38.7016,-13.049,7.12502,-11.7159,16.6033,-48.553,23.4284,-5.78874,73.9485,1.96675,10.1069,-43.7389,-30.7682,-7.44851,-36.6297,38.3617,-17.2244,10.083,5.60855
2.89224,16.7194,-0.0461584,15.3432,4.94558,11.1281,-6.76066,1.6663,0.837309,-1.7314,2.37886,-7.38572,2.35271,1.22657,-8.02339,-1.97522,15.068,5.51189,47.4462,25.1522,-2.02813,20.1003,10.9879,2.30196,-4.87022e-14,1.07344e-14,-35.8796,5.93396,-94.2224,42.4905,-35.7941,-9.17934,-49.4821,7.12502,16.7738,-78.7775,-4.87022e-14,1.07344e-14,-27.6908,-20.4799,82.1985,42.0652,72.5486,-38.7908,-11.9531,7.12502,-11.8019,17.6944,-50.9315,23.8961,-6.44275,74.0505,2.40431,10.7138,-43.6564,-32.3989,-6.67984,-36.1906,38.5114,-16.981,10.5256,4.9812
2.88825,16.7205,-0.0464188,15.3137,5.07308,11.0144,-6.71269,1.63694,0.918944,-1.72305,2.3307,-7.32054,2.32789,1.20196,-8.00547,-1.99074,15.0471,5.4764,47.5047,25.1327,-2.01262,20.1338,10.9722,2.31573,9.49197e-15,-1.66979e-14,-35.8321,5.98422,-94.1937,42.4321,-35.8279,-9.12808,-49.369,7.12502,16.8231,-78.6603,9.49197e-15,-1.66979e-14,-27.6686,-20.4234,82.2274,42.0872,72.5615,-38.7032,-12.4803,7.12502,-11.7175,17.172,-50.8627,23.8951,-6.2377,74.0222,2.53906,10.6877,-43.404,-32.3842,-6.74378,-36.0208,38.5385,-16.9403,10.5389,4.58319
2.89388,16.7267,-0.0410043,15.339,5.08037,11.0541,-6.88528,1.6656,0.966445,-1.70005,2.3741,-7.36037,2.45841,1.22779,-8.06931,-1.85183,15.0036,5.5756,47.4235,25.0992,-2.15967,20.0995,10.9705,2.2125,-2.28602e-15,4.33351e-14,-35.8832,6.04217,-94.3015,42.46,-36.3646,-10.1308,-48.8569,7.12502,15.8577,-78.2275,-2.28602e-15,4.33351e-14,-27.6592,-20.4916,82.2374,42.1028,72.5476,-38.5256,-13.4751,7.12502,-11.5461,16.1869,-50.7932,23.8615,-6.29304,73.985,2.56514,10.6687,-43.2057,-32.4714,-6.8288,-36.0547,38.7237,-17.1385,10.4463,6.01675
2.89847,16.7327,-0.0353162,15.3409,5.07605,11.0881,-7.03529,1.68095,0.984604,-1.64142,2.40226,-7.3819,2.60938,1.2468,-8.09761,-1.95128,14.9958,5.49283,47.4576,25.0653,-2.07494,20.1053,10.9468,2.26561,3.96575e-14,-5.52621e-14,-35.8707,6.21037,-94.44,42.554,-37.1681,-11.558,-48.4385,7.12502,14.4829,-77.913,3.96575e-14,-5.52621e-14,-27.578,-20.554,82.2335,42.1004,72.5431,-38.4794,-13.2619,7.12502,-11.5016,16.4025,-50.6831,23.844,-6.33387,73.9042,2.43179,10.5924,-43.4538,-32.4339,-6.88605,-36.0875,38.6939,-17.2558,10.3071,7.46372
2.8953,16.7308,-0.0338083,15.3406,5.04165,11.0759,-7.0263,1.72935,0.974935,-1.65955,2.46767,-7.40624,2.59593,1.27932,-8.11213,-2.05522,14.9647,5.44656,47.5585,24.9667,-1.90267,20.1381,10.9104,2.34636,-2.4699e-14,3.85642e-14,-35.8867,6.12637,-94.4707,42.5955,-37.4417,-12.1862,-48.2522,7.12502,13.8776,-77.7692,-2.4699e-14,3.85642e-14,-27.6274,-20.7343,82.2515,42.1545,72.6529,-38.8798,-12.4738,7.12502,-11.8877,17.1687,-50.726,23.926,-6.35194,73.876,2.47481,10.5404,-43.3749,-32.3915,-6.82154,-36.0915,38.6591,-17.1627,10.4186,6.36274
2.89337,16.7293,-0.0313283,15.3808,5.03638,11.1242,-7.08627,1.76818,0.918042,-1.67545,2.52642,-7.44357,2.62101,1.3091,-8.11251,-2.05636,14.9072,5.48227,47.6186,24.8593,-1.84746,20.1652,10.8777,2.35127,2.6339e-14,4.81059e-14,-35.9293,6.06313,-94.5097,42.6067,-37.7383,-12.723,-47.8124,7.12502,13.3602,-77.3641,2.6339e-14,4.81059e-14,-27.6602,-20.8518,82.2683,42.1957,72.7231,-39.0963,-12.5277,7.12502,-12.0965,17.1027,-50.7737,23.9457,-6.42752,73.8647,2.56721,10.5785,-43.0628,-32.3742,-6.78834,-36.1556,38.6322,-17.0788,10.5144,5.1478
2.894,16.7348,-0.0294533,15.4018,5.071,11.1838,-7.18788,1.74153,0.836919,-1.61819,2.50291,-7.4364,2.73038,1.29992,-8.05723,-2.04728,14.8869,5.51967,47.5941,24.8594,-1.94461,20.1812,10.8726,2.30294,1.37658e-14,-8.0309e-14,-35.8458,6.11769,-94.4967,42.6114,-37.8009,-12.6869,-48.0039,7.12502,13.395,-77.5533,1.37658e-14,-8.0309e-14,-27.5445,-20.7505,82.25,42.1602,72.6593,-38.6711,-13.6641,7.12502,-11.6865,15.9899,-50.7214,23.913,-6.47728,73.8353,2.37912,10.7098,-43.6365,-32.3501,-6.86797,-36.1722,38.5951,-17.3081,10.227,6.90579
2.89491,16.7394,-0.0296242,15.3508,5.1106,11.181,-7.17537,1.70811,0.834278,-1.58044,2.45949,-7.42385,2.7557,1.27916,-8.04656,-1.95616,14.8877,5.6326,47.5057,24.9089,-2.12879,20.174,10.8963,2.20337,2.88735e-14,-1.51076e-14,-35.7945,6.07162,-94.4487,42.6106,-37.5511,-12.1462,-48.5191,7.12502,13.9161,-78.0335,2.88735e-14,-1.51076e-14,-27.513,-20.6709,82.2222,42.1518,72.6649,-38.3774,-14.5781,7.12502,-11.4033,15.0918,-50.6308,23.9257,-6.44952,73.8065,2.26226,10.8077,-44.159,-32.2788,-6.93112,-36.1342,38.5369,-17.429,10.0514,8.43267
2.8951,16.7369,-0.0301088,15.3076,5.12364,11.1609,-7.08798,1.72262,0.869432,-1.61993,2.47183,-7.43741,2.66948,1.28327,-8.08256,-1.91437,14.8673,5.65148,47.5097,24.8615,-2.09903,20.1571,10.8876,2.20005,-8.94531e-15,2.46493e-14,-35.9205,5.94745,-94.4567,42.6501,-37.4722,-12.0549,-48.497,7.12502,14.004,-78.0053,-8.94531e-15,2.46493e-14,-27.6249,-20.7382,82.2402,42.2608,72.795,-38.6862,-14.2599,7.12502,-11.701,15.3933,-50.6291,23.9619,-6.43104,73.8179,2.58794,10.7355,-43.4897,-32.1957,-6.87487,-36.1557,38.4676,-17.1869,10.3352,6.40598
2.89684,16.7362,-0.0263182,15.294,5.15094,11.1007,-7.09943,1.74878,0.957226,-1.65183,2.49931,-7.44017,2.65047,1.29689,-8.1342,-1.95156,14.8543,5.61493,47.5483,24.8096,-1.99756,20.1536,10.8708,2.24506,3.72721e-15,-3.1408e-14,-35.999,5.71903,-94.386,42.6318,-36.9485,-11.5148,-49.1652,7.12502,14.5245,-78.6367,3.72721e-15,-3.1408e-14,-27.6782,-20.7879,82.2603,42.3126,72.828,-38.8818,-13.4614,7.12502,-11.8896,16.181,-50.6096,23.9845,-6.35718,73.8257,2.8597,10.5764,-42.7679,-32.1042,-6.8229,-36.1403,38.3976,-17.0251,10.5648,4.58037
2.89757,16.7371,-0.0225619,15.3048,5.22077,11.074,-7.19052,1.73822,0.994026,-1.6289,2.48636,-7.43149,2.72457,1.29267,-8.1458,-1.97752,14.8469,5.6713,47.4797,24.8405,-2.1308,20.1631,10.877,2.18597,1.13307e-14,7.95139e-15,-35.9204,5.56548,-94.2914,42.5715,-36.462,-10.8773,-49.9722,7.12502,15.1387,-79.3985,1.13307e-14,7.95139e-15,-27.5999,-20.7416,82.2486,42.2796,72.7967,-39.0167,-12.9814,7.12502,-12.0197,16.6535,-50.5438,23.9163,-6.28228,73.8201,2.86602,10.5281,-42.5751,-32.0779,-6.86039,-36.1065,38.3401,-17.0086,10.5438,4.90527
2.89402,16.7382,-0.0217059,15.3429,5.2262,11.1191,-7.28608,1.72493,0.880431,-1.59779,2.48147,-7.42452,2.80471,1.2914,-8.0701,-1.97008,14.8393,5.73749,47.3391,24.8849,-2.339,20.1364,10.8875,2.08628,1.49585e-14,-4.05521e-14,-35.8214,5.55775,-94.2579,42.5604,-36.4288,-10.7376,-50.1874,7.12502,15.2732,-79.6035,1.49585e-14,-4.05521e-14,-27.548,-20.7129,82.2355,42.3261,72.7933,-39.2361,-12.7079,7.12502,-12.2313,16.9144,-50.5687,23.8727,-6.3236,73.8079,2.86533,10.5508,-42.4894,-32.1435,-6.90322,-36.1093,38.3241,-17.0285,10.4218,5.59755
2.89066,16.7415,-0.020001,15.3778,5.15282,11.1225,-7.38186,1.72461,0.77991,-1.58277,2.49134,-7.39571,2.86989,1.29664,-7.97671,-2.01349,14.8584,5.73621,47.313,24.9425,-2.40652,20.1531,10.8996,2.07217,2.98674e-14,-2.62396e-14,-35.7468,5.65138,-94.241,42.522,-36.442,-10.6991,-50.2008,7.12502,15.3103,-79.614,2.98674e-14,-2.62396e-14,-27.5746,-20.6444,82.2277,42.4027,72.7617,-39.0064,-13.1701,7.12502,-12.0098,16.4653,-50.6428,23.9586,-6.37713,73.7852,2.82521,10.529,-42.7391,-32.1973,-6.87613,-36.0935,38.3328,-17.073,10.3385,5.79892
2.8903,16.7416,-0.01898,15.4187,5.12172,11.0581,-7.40536,1.73214,0.822645,-1.61724,2.49571,-7.36656,2.84808,1.29776,-7.9691,-2.11688,14.8706,5.67917,47.4043,24.9615,-2.33232,20.2154,10.8946,2.13416,2.70844e-14,-1.98785e-14,-35.7689,5.71668,-94.2435,42.4699,-36.4391,-10.7197,-49.9744,7.12502,15.2905,-79.3892,2.70844e-14,-1.98785e-14,-27.6103,-20.5733,82.2411,42.4268,72.7577,-38.8169,-13.842,7.12502,-11.8271,15.8041,-50.7049,24.0114,-6.35072,73.785,2.71897,10.5039,-43.0661,-32.2239,-6.84625,-36.0378,38.3422,-17.0499,10.3861,5.5134
2.89155,16.739,-0.0173944,15.4457,5.12601,11.0642,-7.42691,1.73301,0.831937,-1.64775,2.49536,-7.37388,2.82893,1.29672,-7.98236,-2.1712,14.8732,5.612,47.4001,24.9485,-2.27634,20.1949,10.8837,2.16875,-1.33683e-14,3.97569e-16,-35.8371,5.69578,-94.2562,42.5108,-36.3653,-10.6014,-50.1944,7.12502,15.4044,-79.6005,-1.33683e-14,3.97569e-16,-27.5782,-20.5613,82.2487,42.3509,72.778,-38.8218,-14.0086,7.12502,-11.8319,15.6371,-50.7385,23.9738,-6.37289,73.811,2.68153,10.5906,-43.1246,-32.2197,-6.87694,-36.0437,38.345,-17.0278,10.4481,5.34652
2.88903,16.736,-0.0197829,15.4359,5.09586,11.1507,-7.40899,1.72029,0.699483,-1.64676,2.48881,-7.40063,2.8147,1.29215,-7.93509,-2.15173,14.8694,5.62043,47.3211,24.9368,-2.31536,20.1438,10.8819,2.13952,-5.96354e-16,4.25399e-14,-35.8732,5.82844,-94.3784,42.6066,-36.825,-11.0038,-49.9047,7.12502,15.0168,-79.3401,-5.96354e-16,4.25399e-14,-27.5039,-20.5419,82.2163,42.2286,72.7387,-38.7376,-14.04,7.12502,-11.7506,15.6104,-50.7956,23.9643,-6.47749,73.8546,2.76655,10.6915,-43.0216,-32.207,-6.86744,-36.1295,38.3227,-16.988,10.4905,5.00993
2.88539,16.7341,-0.0245923,15.389,5.0697,11.1998,-7.27432,1.71937,0.603828,-1.6713,2.48963,-7.42707,2.71109,1.28946,-7.91053,-2.08217,14.8561,5.70102,47.3113,24.9118,-2.33941,20.14,10.8861,2.10648,6.65929e-15,5.52621e-14,-35.9559,5.87324,-94.4646,42.652,-37.072,-11.5837,-49.2908,7.12502,14.4582,-78.7671,6.65929e-15,5.52621e-14,-27.581,-20.5693,82.2027,42.283,72.7261,-38.5384,-14.0531,7.12502,-11.5585,15.6082,-50.8033,23.9925,-6.5213,73.8762,2.81754,10.7462,-42.9681,-32.1662,-6.83791,-36.1809,38.29,-16.9831,10.4996,5.0715
2.88957,16.7345,-0.0218954,15.377,5.07674,11.2809,-7.24619,1.66006,0.547076,-1.67839,2.41255,-7.42702,2.67459,1.24919,-7.88596,-2.07161,14.9218,5.65328,47.3259,25.0231,-2.32969,20.1448,10.9222,2.13695,1.65488e-14,1.47101e-14,-35.931,5.70597,-94.2677,42.6211,-35.7543,-9.77242,-50.6262,7.12502,16.2028,-79.9691,1.65488e-14,1.47101e-14,-27.657,-20.4163,82.1928,42.3544,72.7791,-38.4595,-13.9844,7.12502,-11.4824,15.6811,-50.7097,23.9022,-6.58828,73.8633,2.6737,10.8711,-43.099,-32.1199,-6.89592,-36.2813,38.2528,-16.9867,10.535,5.48471
2.89497,16.7385,-0.0176695,15.3952,5.07794,11.3279,-7.2751,1.59554,0.528678,-1.67861,2.32704,-7.40047,2.67644,1.2056,-7.85466,-2.15881,15.0182,5.49574,47.3424,25.1714,-2.2594,20.1386,10.9576,2.22383,1.41634e-14,4.13472e-14,-36.0449,6.34682,-94.5948,42.7247,-37.2277,-12.098,-49.0098,7.12502,13.9626,-78.5209,1.41634e-14,4.13472e-14,-27.5839,-20.1685,82.1747,42.2399,72.7764,-38.6492,-13.7745,7.12502,-11.6654,15.8808,-50.6191,23.8096,-6.62421,73.819,2.46016,10.9369,-43.3604,-32.1681,-6.964,-36.3295,38.2554,-17.0025,10.4668,6.54851
2.89555,16.7418,-0.017168,15.4059,5.05928,11.3052,-7.30883,1.6366,0.552942,-1.69533,2.38088,-7.40517,2.68667,1.23288,-7.86784,-2.17289,15.0027,5.47995,47.3608,25.118,-2.18292,20.1254,10.9434,2.25102,1.799e-14,-9.14409e-15,-36.0677,6.37635,-94.6474,42.7019,-37.7792,-12.5338,-48.235,7.12502,13.5426,-77.7746,1.799e-14,-9.14409e-15,-27.5453,-20.2009,82.2119,42.1556,72.6962,-38.7848,-13.5913,7.12502,-11.7961,16.0565,-50.6399,23.829,-6.62572,73.7878,2.59945,10.8414,-42.9675,-32.2307,-6.96565,-36.2943,38.3004,-17.0662,10.3646,7.2669
2.89729,16.7428,-0.0180319,15.4128,5.08211,11.1973,-7.35668,1.70025,0.705437,-1.70573,2.45639,-7.40972,2.71981,1.27283,-7.95329,-2.06935,14.9235,5.56468,47.3131,24.9829,-2.22082,20.081,10.9103,2.18324,1.14301e-15,-3.29983e-14,-36.0629,6.11645,-94.5434,42.6531,-37.4808,-12.7979,-47.8204,7.12502,13.288,-77.3768,1.14301e-15,-3.29983e-14,-27.5687,-20.3395,82.2549,42.1437,72.6272,-38.6711,-13.5344,7.12502,-11.6865,16.1197,-50.6789,23.845,-6.53542,73.7754,2.81764,10.7597,-42.4739,-32.2461,-6.97699,-36.1746,38.3614,-17.1896,10.3221,7.16459
2.89863,16.7431,-0.0185468,15.3959,5.12592,11.0748,-7.32034,1.72863,0.877368,-1.72638,2.47924,-7.40677,2.68827,1.28481,-8.04917,-2.03582,14.8712,5.60043,47.2889,24.8955,-2.23833,20.0597,10.8836,2.14891,3.65267e-14,2.34566e-14,-36.0853,5.92601,-94.4749,42.6483,-37.0839,-12.9916,-47.7538,7.12502,13.1013,-77.3223,3.65267e-14,2.34566e-14,-27.5709,-20.4615,82.2537,42.0741,72.6744,-38.3778,-13.7768,7.12502,-11.4036,15.8931,-50.6194,23.8362,-6.36842,73.7541,2.72725,10.7803,-42.673,-32.2552,-6.99816,-36.0289,38.4204,-17.3043,10.2369,7.43048
2.89642,16.7364,-0.0176322,15.4077,5.12076,11.0866,-7.32239,1.73667,0.851208,-1.74453,2.49165,-7.42362,2.67198,1.2903,-8.05103,-2.08784,14.8585,5.58138,47.3343,24.8538,-2.16338,20.0771,10.8675,2.18489,-3.13583e-14,-3.37934e-14,-36.1053,5.99058,-94.5574,42.6594,-37.4089,-12.6657,-48.3614,7.12502,13.4154,-77.9094,-3.13583e-14,-3.37934e-14,-27.5683,-20.5205,82.2287,42.0573,72.7584,-38.202,-14.0219,7.12502,-11.2341,15.6573,-50.6236,23.7969,-6.35689,73.7813,2.52093,10.8619,-43.0557,-32.2714,-6.96932,-36.0452,38.4472,-17.2383,10.2941,6.90785
2.89503,16.7306,-0.017827,15.4136,5.08641,11.0895,-7.34779,1.73584,0.818296,-1.74824,2.49336,-7.41959,2.68099,1.29091,-8.02668,-2.113,14.8687,5.54962,47.2949,24.8725,-2.17977,20.0546,10.8689,2.18447,2.96686e-14,-1.51076e-14,-36.0675,5.98967,-94.5324,42.6671,-37.2228,-12.2403,-48.6804,7.12502,13.8255,-78.201,2.96686e-14,-1.51076e-14,-27.5948,-20.4581,82.1938,42.1156,72.7613,-38.1692,-13.6899,7.12502,-11.2024,15.9911,-50.6769,23.8147,-6.37634,73.8124,2.42652,10.9522,-43.369,-32.2753,-6.91535,-36.0719,38.4573,-17.1141,10.4505,5.99649
2.89572,16.7308,-0.0182729,15.3608,5.04813,11.0621,-7.31416,1.74276,0.841571,-1.73249,2.50029,-7.40902,2.68015,1.29478,-8.02854,-2.13018,14.8618,5.5214,47.1856,24.8867,-2.28101,20.0043,10.8636,2.13997,-2.38542e-15,-1.98785e-14,-35.9785,5.82626,-94.3779,42.6296,-36.4457,-11.738,-48.6251,7.12502,14.3094,-78.1121,-2.38542e-15,-1.98785e-14,-27.5788,-20.4179,82.1764,42.119,72.7865,-38.2367,-13.3107,7.12502,-11.2676,16.3667,-50.6465,23.8954,-6.35501,73.7975,2.47463,10.9579,-43.3091,-32.2279,-6.86022,-36.0758,38.4395,-17.0337,10.6059,5.17373
2.89678,16.7321,-0.0159586,15.2992,5.00698,11.0893,-7.30174,1.75203,0.815763,-1.70342,2.51606,-7.41221,2.70494,1.30364,-8.01528,-2.1041,14.8487,5.53333,47.116,24.89,-2.37229,19.9762,10.8616,2.09165,6.5102e-15,-3.22031e-14,-35.9453,5.79,-94.3144,42.6245,-36.2304,-11.3637,-48.8031,7.12502,14.6701,-78.2641,6.5102e-15,-3.22031e-14,-27.5011,-20.3928,82.1849,42.029,72.7613,-38.28,-13.5615,7.12502,-11.3093,16.1136,-50.591,23.9461,-6.37709,73.7759,2.60825,10.8694,-42.8528,-32.1401,-6.83166,-36.1216,38.4258,-17.0651,10.6246,5.20025
2.89852,16.7417,-0.0119716,15.2293,5.12255,11.1527,-7.2979,1.70296,0.767224,-1.67863,2.45519,-7.41273,2.71777,1.27333,-7.99382,-2.04296,14.8653,5.60002,47.1209,24.9412,-2.4346,20.0001,10.8872,2.06127,-2.83268e-15,-3.29983e-14,-35.9867,5.73029,-94.2366,42.7371,-35.9374,-11.9165,-48.1909,7.12502,14.1375,-77.6899,-2.83268e-15,-3.29983e-14,-27.5215,-20.3555,82.2021,41.9922,72.6792,-38.4142,-13.6286,7.12502,-11.4387,16.0394,-50.3962,23.9061,-6.3527,73.7282,2.80462,10.7712,-42.3289,-32.0359,-6.9136,-36.1462,38.4274,-17.2016,10.3573,6.7429
2.89901,16.7494,-0.0112383,15.2233,5.28014,11.1677,-7.30098,1.63945,0.752798,-1.68453,2.37012,-7.3955,2.69953,1.22968,-7.97554,-2.02226,14.8857,5.63247,47.1545,24.9848,-2.44379,20.0323,10.9066,2.06281,3.21534e-14,-5.96354e-15,-36.0282,5.68942,-94.1827,42.8089,-35.6167,-12.6635,-47.1049,7.12502,13.4176,-76.6528,3.21534e-14,-5.96354e-15,-27.6145,-20.3327,82.2103,42.0605,72.6895,-38.4994,-13.4034,7.12502,-11.5209,16.26,-50.2582,23.8312,-6.28101,73.6915,2.76943,10.8178,-42.6788,-32.0151,-7.02566,-36.1054,38.4078,-17.2962,10.1184,7.74589
2.90022,16.742,-0.0148619,15.3098,5.17674,11.1136,-7.34255,1.66501,0.794939,-1.71765,2.40009,-7.3828,2.69369,1.24417,-7.98259,-2.21888,14.923,5.50555,47.343,25.0097,-2.22733,20.1337,10.8983,2.213,-1.09332e-15,4.41302e-14,-36.0115,5.75766,-94.1912,42.796,-35.6234,-12.8608,-46.7507,7.12502,13.2273,-76.311,-1.09332e-15,4.41302e-14,-27.5732,-20.2808,82.202,42.0297,72.7082,-38.3896,-13.5776,7.12502,-11.4151,16.0916,-50.4557,23.8313,-6.32133,73.7215,2.57064,10.9892,-43.3694,-32.0961,-6.985,-36.0831,38.3782,-17.2493,10.2694,6.78502
2.90273,16.7357,-0.0154891,15.3269,5.03276,11.1655,-7.31292,1.69495,0.746835,-1.74644,2.44206,-7.40921,2.65244,1.26369,-7.97953,-2.38497,14.9672,5.39615,47.5354,25.0424,-2.00396,20.2327,10.8983,2.36311,-1.02871e-14,-1.15295e-14,-36.033,5.80771,-94.2001,42.8111,-35.6676,-13.6565,-46.335,7.12502,12.4603,-75.9435,-1.02871e-14,-1.15295e-14,-27.574,-20.2405,82.1926,42.0158,72.7206,-38.4044,-13.5717,7.12502,-11.4293,16.0967,-50.5776,23.8497,-6.46764,73.7585,2.55148,11.0072,-43.1732,-32.0815,-6.90023,-36.2109,38.3425,-17.1114,10.5319,5.53235
2.90346,16.7351,-0.0150735,15.3004,5.03011,11.249,-7.26779,1.70061,0.678629,-1.76195,2.4536,-7.44307,2.61143,1.26818,-7.97634,-2.32338,14.9753,5.464,47.5082,25.0535,-2.0307,20.2194,10.916,2.33701,-4.27387e-15,7.95139e-15,-36.0621,5.77328,-94.1882,42.8322,-35.6985,-14.6763,-46.5626,7.12502,11.477,-76.2284,-4.27387e-15,7.95139e-15,-27.6334,-20.2747,82.1958,42.0722,72.7178,-38.3683,-13.2467,7.12502,-11.3945,16.4237,-50.5404,23.8233,-6.54315,73.7859,2.455,10.9775,-43.2082,-32.0242,-6.93425,-36.2996,38.2974,-17.0278,10.5389,5.53754
2.90683,16.7369,-0.015422,15.3519,5.04327,11.2057,-7.31612,1.72669,0.766833,-1.7972,2.48174,-7.44317,2.6094,1.28234,-8.02449,-2.44218,14.9875,5.44306,47.6626,25.0592,-1.89745,20.3214,10.9138,2.42626,2.85256e-14,7.95139e-16,-36.0616,5.69957,-94.1387,42.8233,-35.6449,-13.5315,-47.7734,7.12502,12.5808,-77.3746,2.85256e-14,7.95139e-16,-27.6567,-20.3319,82.2377,42.0826,72.6612,-38.3013,-13.1112,7.12502,-11.3299,16.5627,-50.5754,23.7808,-6.52427,73.7621,2.4347,11.0347,-43.3048,-31.9944,-6.9638,-36.2477,38.05,-16.843,10.4694,5.56313
2.90843,16.7373,-0.0116647,15.3984,4.88464,11.2808,-7.38637,1.76594,0.638314,-1.83772,2.54465,-7.46486,2.61111,1.31239,-7.96515,-2.57791,14.9974,5.36254,47.8481,25.058,-1.7269,20.4275,10.9009,2.54137,-2.70844e-14,6.36111e-15,-36.0884,5.65815,-94.1008,42.8224,-35.5194,-10.7822,-48.6513,7.12502,15.2303,-78.0707,-2.70844e-14,6.36111e-15,-27.7327,-20.3429,82.2733,42.1256,72.6134,-38.311,-12.9895,7.12502,-11.3392,16.684,-50.7282,23.8683,-6.72218,73.7772,2.79119,11.0308,-42.5667,-32.0434,-6.82549,-36.3745,38.0249,-16.8306,10.4828,5.30879
2.89967,16.7617,0.0169756,14.3227,6.29186,11.7817,-6.6261,1.25353,0.262828,-1.3379,1.88656,-7.45671,2.59955,0.987481,-7.81273,-2.51417,14.9882,5.36418,47.8587,25.0254,-1.69347,20.4063,10.8962,2.5417,-6.4605e-16,7.95139e-14,-36.0864,5.63029,-94.0874,42.7766,-35.4561,-9.01428,-49.5358,7.12502,16.9327,-78.8176,-6.4605e-16,7.95139e-14,-27.8086,-20.3168,82.2532,42.2002,72.6662,-37.9464,-13.2708,7.12502,-10.9876,16.4217,-48.2882,23.5344,-5.87805,73.6868,2.45322,10.4115,-42.6299,-30.3364,-7.49162,-36.6865,37.9327,-17.0688,10.0415,5.27954
2.90531,16.7336,-0.0180762,15.3048,4.8551,11.1981,-7.28298,1.76971,0.690189,-1.82042,2.54225,-7.43818,2.57201,1.31089,-7.9685,-2.4839,14.9889,5.37542,47.9143,25.0185,-1.65706,20.4309,10.8975,2.55602,2.42517e-14,-4.92986e-14,-36.0236,5.60161,-94.0554,42.7253,-35.446,-7.89246,-52.0333,7.12502,18.0123,-81.2192,2.42517e-14,-4.92986e-14,-27.8135,-20.2914,82.2304,42.2378,72.7796,-37.5531,-13.735,7.12502,-10.6082,15.9772,-50.7131,23.9507,-6.59333,73.8,2.62972,11.0435,-43.1339,-32.0994,-6.76358,-36.2526,38.1349,-16.9953,10.2652,6.52735
2.90679,16.7368,-0.021419,15.3374,5.00818,11.0895,-7.31219,1.72783,0.833676,-1.80194,2.47571,-7.38803,2.60161,1.27899,-8.00402,-2.38421,14.9732,5.42624,47.7174,25.0356,-1.87191,20.334,10.905,2.43175,2.98177e-16,3.18055e-14,-35.9112,5.56511,-93.9957,42.7501,-35.366,-8.14486,-50.8244,7.12502,17.7694,-80.0325,2.98177e-16,3.18055e-14,-27.7659,-20.3517,82.2462,42.2267,72.7961,-37.5562,-13.8493,7.12502,-10.6112,15.8628,-50.6389,23.8296,-6.4152,73.767,2.46846,11.0465,-43.4832,-32.1925,-6.81923,-36.126,38.2157,-17.0311,10.202,7.26703
2.90607,16.734,-0.0223112,15.3415,5.00202,11.072,-7.29514,1.71889,0.8218,-1.82705,2.46178,-7.36845,2.56244,1.27035,-7.97758,-1.87881,14.8968,5.64417,47.1416,25.004,-2.45912,19.9944,10.9253,2.04015,4.28381e-14,-2.66371e-14,-35.9262,5.5792,-93.974,42.7547,-35.2747,-7.07017,-52.4782,7.12502,18.8033,-81.5893,4.28381e-14,-2.66371e-14,-27.8103,-20.4462,82.2933,42.1974,72.7799,-37.6954,-13.9989,7.12502,-10.7455,15.7062,-50.7006,23.8596,-6.42439,73.8102,2.65363,10.973,-43.0264,-32.2886,-6.75761,-36.1482,38.4607,-17.0651,10.4117,5.94034
2.9058,16.7339,-0.0237167,15.3347,4.9905,11.0047,-7.21716,1.71985,0.872255,-1.89055,2.45219,-7.34287,2.45211,1.26206,-7.98206,-2.24075,14.9914,5.45567,47.6716,25.1031,-1.97549,20.3047,10.9356,2.37567,-1.6847e-14,-1.03368e-14,-36.0565,5.61414,-93.9875,42.7547,-35.2733,-6.28777,-53.8453,7.12502,19.5557,-82.8818,-1.6847e-14,-1.03368e-14,-27.8729,-20.4253,82.3173,42.1319,72.7465,-37.813,-13.892,7.12502,-10.8589,15.8072,-50.7716,23.9712,-6.39349,73.8219,2.87432,10.8909,-42.6144,-32.2792,-6.72775,-36.0854,38.4787,-17.0231,10.5432,4.99815
2.90716,16.7352,-0.024727,15.3242,5.00286,10.9966,-7.12918,1.71673,0.894582,-1.92759,2.44144,-7.34084,2.36356,1.25419,-7.99601,-2.30296,15.0124,5.44933,47.7967,25.1357,-1.89128,20.3904,10.945,2.43808,2.82274e-14,-1.00585e-13,-36.113,5.62359,-93.994,42.7229,-35.3378,-6.6045,-53.2692,7.12502,19.2512,-82.3364,2.82274e-14,-1.00585e-13,-27.9104,-20.407,82.3261,42.1056,72.6884,-37.6605,-13.732,7.12502,-10.7118,15.9749,-50.7705,24.0015,-6.39202,73.8287,2.83515,10.9016,-42.7655,-32.2752,-6.71665,-36.0874,38.464,-16.9624,10.5734,4.86246
2.90702,16.734,-0.0249921,15.3382,4.97744,11.0094,-7.11522,1.73747,0.87138,-1.9519,2.46954,-7.35263,2.33412,1.26724,-7.9929,-2.25896,14.9978,5.51493,47.7393,25.1481,-2.00623,20.3854,10.9524,2.37443,-3.77691e-14,1.47101e-14,-36.1306,5.69795,-94.0534,42.6148,-35.612,-7.57767,-51.341,7.12502,18.3152,-80.4988,-3.77691e-14,1.47101e-14,-27.9847,-20.5183,82.353,42.1798,72.749,-37.5681,-13.7672,7.12502,-10.6226,15.9443,-50.812,24.0005,-6.4219,73.8398,2.78289,10.9261,-42.8994,-32.3001,-6.62469,-36.1352,38.4426,-16.8933,10.5864,4.28755
2.90718,16.7339,-0.0248027,15.3485,4.9489,10.99,-7.14153,1.75769,0.883075,-1.94978,2.49684,-7.3528,2.35552,1.28157,-7.99661,-2.37853,14.9921,5.44873,47.7688,25.1225,-1.93339,20.401,10.9319,2.42502,3.27498e-14,2.14687e-14,-36.1262,5.80408,-94.1281,42.5887,-36.0125,-8.14429,-50.4092,7.12502,17.77,-79.6173,3.27498e-14,2.14687e-14,-27.9773,-20.565,82.353,42.2401,72.874,-38.0545,-13.4593,7.12502,-11.0918,16.2276,-50.847,24.0256,-6.41951,73.8394,2.78278,10.892,-42.9252,-32.2856,-6.57391,-36.1204,38.4351,-16.9794,10.5155,4.35839
2.90936,16.7351,-0.0246836,15.3528,4.93208,11.0339,-7.15518,1.72738,0.831562,-1.93081,2.46083,-7.34194,2.37504,1.26374,-7.95782,-2.53126,15.0174,5.33371,47.8886,25.1367,-1.78286,20.4625,10.9198,2.53387,-8.29926e-15,-2.74323e-14,-36.0702,5.89019,-94.12,42.6438,-36.1777,-8.00169,-50.733,7.12502,17.9072,-79.9286,-8.29926e-15,-2.74323e-14,-27.9037,-20.404,82.3203,42.2338,72.9538,-38.7011,-12.8387,7.12502,-11.7154,16.8137,-50.8577,24.0377,-6.49917,73.8354,2.8759,10.8775,-42.8019,-32.2554,-6.59787,-36.1647,38.438,-17.0514,10.4951,4.75206
2.91196,16.7347,-0.0239101,15.3846,4.96197,11.0493,-7.17055,1.68387,0.809328,-1.96053,2.40168,-7.31418,2.34188,1.23221,-7.92044,-2.34692,15.0361,5.40201,47.7831,25.189,-1.91613,20.3936,10.9532,2.44708,1.39149e-15,2.78299e-15,-36.1057,5.95298,-94.0943,42.6842,-36.1714,-7.88481,-50.6532,7.12502,18.0197,-79.8385,1.39149e-15,2.78299e-15,-27.9977,-20.2633,82.3282,42.3106,72.981,-38.7534,-12.5762,7.12502,-11.7658,17.0734,-50.875,24.0007,-6.5405,73.8319,3.00624,10.9293,-42.701,-32.2888,-6.64759,-36.1851,38.4602,-17.0269,10.5668,4.77383
2.91592,16.7356,-0.0238835,15.4127,5.06509,10.9372,-7.18373,1.67018,0.971003,-1.98755,2.36939,-7.27692,2.32111,1.21559,-7.97766,-2.16884,15.0181,5.44645,47.504,25.1686,-2.10971,20.2052,10.9605,2.3085,-5.01931e-15,-2.74323e-14,-36.1451,5.88451,-94.0408,42.7247,-36.0402,-8.09912,-50.3913,7.12502,17.8135,-79.5954,-5.01931e-15,-2.74323e-14,-28.1308,-20.2964,82.3659,42.4482,73.0081,-38.341,-12.9227,7.12502,-11.3681,16.7492,-50.8611,23.9191,-6.40692,73.8138,3.10623,10.9791,-42.6412,-32.3454,-6.76071,-36.0494,38.4945,-17.0165,10.5822,4.70933
2.917,16.7363,-0.0235321,15.4028,5.065,10.8295,-7.19933,1.6964,1.07189,-1.97542,2.3974,-7.24323,2.34914,1.2309,-7.9967,-2.36181,15.0061,5.26701,47.5483,25.1124,-1.95236,20.1995,10.9169,2.41072,9.34288e-15,-3.81667e-14,-36.1015,5.72499,-93.9358,42.7657,-35.8361,-8.19908,-50.6002,7.12502,17.7173,-79.813,9.34288e-15,-3.81667e-14,-28.1189,-20.3058,82.3876,42.4458,73.0104,-38.1254,-13.1023,7.12502,-11.1603,16.5809,-50.867,23.9446,-6.29299,73.7944,3.06866,10.9684,-42.7144,-32.3889,-6.79066,-35.918,38.526,-17.0373,10.5693,4.66731
2.91664,16.7345,-0.0223774,15.3876,4.96139,10.8609,-7.20057,1.72924,0.99708,-1.9729,2.44718,-7.24874,2.35706,1.25582,-7.95373,-2.52384,15.0161,5.18457,47.7131,25.114,-1.79713,20.3006,10.9025,2.521,8.00108e-15,-4.73108e-14,-36.1108,5.64453,-93.8944,42.7779,-35.7155,-8.09304,-50.6803,7.12502,17.8193,-79.8839,8.00108e-15,-4.73108e-14,-28.1093,-20.2613,82.3953,42.4094,73.032,-38.2597,-12.7734,7.12502,-11.2897,16.9028,-50.8835,24.0337,-6.35904,73.7831,2.87446,10.9821,-43.0949,-32.3955,-6.68266,-35.9791,38.5043,-17.0028,10.5876,4.42148
2.9191,16.733,-0.0218563,15.425,4.95478,11.0017,-7.23885,1.72401,0.884558,-1.98177,2.45077,-7.30094,2.36745,1.25742,-7.94384,-2.46787,14.9885,5.19656,47.5526,25.0689,-1.89265,20.1947,10.8904,2.44862,-1.57537e-14,4.65156e-14,-36.1482,5.60457,-93.9025,42.7662,-35.6157,-8.33262,-49.9607,7.12502,17.5888,-79.1851,-1.57537e-14,4.65156e-14,-28.107,-20.2745,82.3746,42.4289,73.1333,-38.4573,-12.385,7.12502,-11.4803,17.2807,-50.8998,23.9915,-6.54312,73.784,2.91766,10.9899,-43.0042,-32.3275,-6.63146,-36.1674,38.34,-16.8927,10.5308,4.27479
2.92249,16.7313,-0.0156461,15.415,5.02206,11.2661,-7.34363,1.69162,0.649087,-1.94286,2.43296,-7.37643,2.45778,1.25023,-7.88807,-2.34439,14.9419,5.18377,47.3562,24.9667,-1.95419,20.0261,10.8644,2.37073,-2.9271e-14,3.18055e-14,-36.1364,5.54018,-93.8822,42.7151,-35.6047,-8.63074,-49.4671,7.12502,17.3019,-78.7169,-2.9271e-14,3.18055e-14,-28.1097,-20.3234,82.3775,42.4633,73.1921,-38.5544,-12.3424,7.12502,-11.574,17.318,-50.7476,23.8451,-6.75453,73.8329,2.73151,11.0036,-43.2196,-32.1412,-6.68731,-36.473,38.238,-16.8822,10.502,4.46179
2.92429,16.7399,-0.00123391,14.8955,5.58518,11.6225,-7.0187,1.50471,0.415868,-1.70718,2.20409,-7.4331,2.48296,1.13909,-7.84117,-2.27391,14.9313,5.30182,47.5077,24.9362,-1.8778,20.1181,10.8744,2.39025,-4.30866e-14,1.98785e-14,-36.1491,5.47938,-93.8778,42.6873,-35.7146,-8.58746,-49.6097,7.12502,17.3435,-78.8558,-4.30866e-14,1.98785e-14,-28.1935,-20.4039,82.422,42.5632,73.1919,-38.4588,-12.3134,7.12502,-11.4817,17.3522,-49.5553,23.6364,-6.50051,73.8144,2.12476,10.9065,-44.0194,-31.2511,-6.98682,-36.8006,38.1259,-16.9594,10.434,4.37343
2.92185,16.7258,-0.0186779,15.3614,4.94098,11.3526,-7.39184,1.7464,0.533487,-1.88199,2.52196,-7.41562,2.55794,1.29782,-7.85253,-2.32435,14.9314,5.38449,47.599,24.9392,-1.86012,20.2107,10.8797,2.40474,2.83268e-15,-5.1684e-15,-36.1027,5.628,-94.0038,42.7306,-36.2878,-9.49297,-49.1158,7.12502,16.4719,-78.4366,2.83268e-15,-5.1684e-15,-28.1242,-20.4411,82.4042,42.6342,73.2243,-38.3234,-12.0008,7.12502,-11.3512,17.6719,-50.7335,23.8596,-6.83147,73.8887,2.46446,11.1285,-43.7307,-32.0613,-6.61819,-36.5917,38.1968,-16.9109,10.5434,4.34378
2.92494,16.7272,-0.0275508,15.4588,4.9348,11.2671,-7.68535,1.79749,0.690716,-1.73488,2.59848,-7.43129,2.89407,1.34729,-7.94674,-2.54773,14.8971,5.3635,47.4833,24.8614,-1.88462,20.1807,10.8355,2.39879,6.21202e-15,-2.78299e-14,-35.7998,5.68779,-94.0724,42.7469,-36.7847,-10.3843,-48.8068,7.12502,15.6135,-78.1967,6.21202e-15,-2.78299e-14,-27.7427,-20.6139,82.3174,42.5749,73.3684,-38.3865,-11.9558,7.12502,-11.412,17.7136,-50.9373,23.8193,-6.84622,73.8938,2.80454,11.0183,-43.1184,-32.2757,-6.66759,-36.4761,38.2781,-16.9959,10.3975,5.65275
2.92897,16.7305,-0.0292539,15.4967,4.91093,11.2169,-7.55264,1.86245,0.783302,-1.90547,2.66529,-7.46321,2.65708,1.37399,-8.03234,-2.37845,14.8521,5.5071,47.5297,24.7782,-1.86661,20.1884,10.8372,2.35916,1.20265e-14,1.19271e-14,-36.0379,5.49373,-94.0677,42.7843,-36.7344,-10.3049,-49.1849,7.12502,15.69,-78.5688,1.20265e-14,1.19271e-14,-28.0228,-20.8576,82.436,42.5954,73.4521,-38.5445,-12.1173,7.12502,-11.5644,17.5437,-50.9988,23.8144,-6.84562,73.9022,2.87815,11.0018,-42.9495,-32.4393,-6.68622,-36.4204,38.4628,-17.1144,10.329,6.80087
2.92503,16.7251,-0.0329163,15.5018,4.84902,11.1335,-7.60797,1.87116,0.798922,-1.85445,2.6789,-7.42162,2.74193,1.38326,-7.99287,-2.40449,14.8842,5.56104,47.4491,24.8754,-2.01862,20.1994,10.8662,2.30397,-3.43897e-14,2.0276e-14,-35.8647,5.60981,-94.0837,42.6951,-36.8014,-10.2316,-49.3866,7.12502,15.7606,-78.7649,-3.43897e-14,2.0276e-14,-27.8801,-20.7495,82.394,42.5782,73.4315,-38.7671,-12.0752,7.12502,-11.7791,17.5735,-51.1451,23.9084,-6.80586,73.9409,3.02186,11.0238,-42.7731,-32.524,-6.54521,-36.3641,38.5497,-17.023,10.502,5.3589
2.92114,16.7188,-0.0356807,15.4942,4.80586,11.1058,-7.63745,1.87372,0.766198,-1.80524,2.68811,-7.40733,2.80898,1.38978,-7.95606,-2.51194,14.8979,5.53381,47.4617,24.8931,-1.99872,20.2268,10.8625,2.33309,-6.06293e-14,5.20816e-14,-35.7114,5.5825,-94.0498,42.5733,-36.4958,-8.79802,-50.5158,7.12502,17.1409,-79.7798,-6.06293e-14,5.20816e-14,-27.6916,-20.6964,82.3376,42.4648,73.4074,-38.7379,-12.1961,7.12502,-11.7509,17.4543,-51.2439,23.9678,-6.79339,73.9819,2.90119,11.0591,-43.1238,-32.5482,-6.45753,-36.3525,38.601,-16.9834,10.6396,4.17403
2.92124,16.7187,-0.0347377,15.4713,4.74636,11.0533,-7.6477,1.91481,0.797436,-1.81147,2.74134,-7.42012,2.81804,1.41706,-7.98223,-2.41497,14.874,5.6755,47.3749,24.8606,-2.10458,20.1953,10.8698,2.24733,-8.74653e-15,8.34896e-14,-35.7028,5.40121,-94.0118,42.523,-36.0865,-7.41366,-51.8109,7.12502,18.4729,-80.9537,-8.74653e-15,8.34896e-14,-27.6575,-20.795,82.3186,42.3891,73.4218,-38.5538,-12.5092,7.12502,-11.5733,17.1513,-51.2542,24.0369,-6.74179,73.9829,2.58518,11.1204,-43.7599,-32.5726,-6.45627,-36.2819,38.6233,-17.0587,10.601,4.79846
2.92302,16.7207,-0.0318961,15.4107,4.705,10.9723,-7.70052,1.9488,0.88,-1.75859,2.78492,-7.40941,2.91253,1.44267,-8.0124,-2.3691,14.8764,5.78981,47.2824,24.8939,-2.24885,20.1841,10.8903,2.16702,9.0944e-15,-3.57812e-15,-35.6469,5.36738,-94.0337,42.5137,-36.0696,-7.70697,-51.9249,7.12502,18.1908,-81.0943,9.0944e-15,-3.57812e-15,-27.5257,-20.8316,82.3071,42.3208,73.4205,-38.7393,-12.5857,7.12502,-11.7523,17.0646,-51.1837,24.1339,-6.63432,73.9453,2.48247,11.1641,-43.969,-32.4914,-6.43114,-36.1965,38.5347,-17.0471,10.5718,4.90394
2.92629,16.7258,-0.0282929,15.3918,4.83026,11.1017,-7.77875,1.90348,0.783592,-1.68724,2.73972,-7.43558,3.02109,1.42291,-7.98764,-2.43914,14.8803,5.79849,47.3577,24.8954,-2.20086,20.2458,10.8881,2.20222,-1.02871e-14,7.91163e-14,-35.5918,5.2837,-94.0156,42.5171,-35.9629,-8.20785,-51.464,7.12502,17.7088,-80.6776,-1.02871e-14,7.91163e-14,-27.3869,-20.8273,82.3144,42.2508,73.286,-38.9169,-12.5755,7.12502,-11.9235,17.0649,-51.0047,24.0215,-6.68199,73.9164,2.57665,11.1424,-43.7429,-32.4017,-6.52831,-36.3126,38.5063,-17.097,10.4185,5.27497
2.92796,16.741,-0.0186802,14.9084,5.53908,11.4282,-7.30359,1.64438,0.594301,-1.5131,2.40262,-7.46861,2.8817,1.25269,-7.95846,-2.29222,14.8345,5.87467,47.287,24.8278,-2.27909,20.1881,10.8787,2.12332,-2.43014e-14,4.57205e-14,-35.6829,5.16335,-94.0004,42.5084,-35.7787,-8.52364,-51.0627,7.12502,17.4049,-80.3034,-2.43014e-14,4.57205e-14,-27.401,-20.84,82.3447,42.1797,73.1866,-39.2374,-12.2789,7.12502,-12.2326,17.3434,-49.8191,23.7549,-6.39998,73.8328,2.673,10.782,-43.1395,-31.6143,-6.92379,-36.5597,38.4223,-17.1332,10.1692,5.78356
2.92876,16.7278,-0.0315053,15.3658,4.91417,11.1988,-7.5349,1.86417,0.700139,-1.80094,2.6797,-7.46554,2.75488,1.38469,-7.98417,-2.26508,14.7902,5.86579,47.228,24.7678,-2.32977,20.1455,10.8539,2.08245,-1.11319e-14,-4.29375e-14,-35.8018,5.13903,-94.0426,42.4823,-35.7715,-8.73047,-51.009,7.12502,17.2059,-80.2672,-1.11319e-14,-4.29375e-14,-27.4444,-20.8758,82.3626,42.0935,73.1926,-39.373,-12.1426,7.12502,-12.3633,17.4719,-50.9163,23.9573,-6.76146,73.8788,3.00839,10.9197,-42.7327,-32.3829,-6.60126,-36.4054,38.4716,-16.9787,10.3433,5.80844
2.92832,16.7273,-0.0338277,15.312,4.84394,11.1245,-7.51287,1.87949,0.739689,-1.75654,2.69774,-7.43219,2.79171,1.39538,-7.96896,-2.5348,14.8153,5.76187,47.3816,24.8158,-2.22269,20.2808,10.8412,2.19514,-8.84592e-15,1.39149e-14,-35.7158,5.17612,-94.0471,42.444,-35.8075,-8.67469,-51.4913,7.12502,17.2596,-80.7449,-8.84592e-15,1.39149e-14,-27.388,-20.8031,82.3343,42.0852,73.1542,-39.0966,-12.5018,7.12502,-12.0968,17.1285,-50.9229,24.0445,-6.68576,73.8802,2.89755,10.9801,-43.1513,-32.3735,-6.54526,-36.3325,38.4963,-17.0021,10.3359,6.00797
2.92779,16.7224,-0.0366559,15.2897,4.84291,11.1018,-7.50073,1.8626,0.715103,-1.71116,2.67761,-7.39251,2.82631,1.38618,-7.91327,-2.74028,14.8465,5.66995,47.4999,24.8743,-2.14109,20.3847,10.8379,2.28729,-3.03644e-14,4.37326e-14,-35.5848,5.12005,-93.9646,42.399,-35.7037,-8.69305,-51.8165,7.12502,17.2419,-81.0716,-3.03644e-14,4.37326e-14,-27.2851,-20.7043,82.3399,42.0628,73.0526,-39.1064,-12.5526,7.12502,-12.1062,17.0772,-50.9463,24.0408,-6.64928,73.9325,2.75642,11.0641,-43.5577,-32.3847,-6.51518,-36.3276,38.6182,-17.0353,10.4623,5.05553
2.9282,16.718,-0.0365224,15.2645,4.88006,11.0246,-7.4213,1.85622,0.782395,-1.72045,2.65941,-7.35828,2.77088,1.37603,-7.91892,-2.84029,14.8351,5.60204,47.5384,24.8585,-2.09987,20.4122,10.8176,2.32484,-4.32357e-15,-6.08281e-14,-35.5084,5.0558,-93.9147,42.3231,-35.7486,-8.9079,-51.6464,7.12502,17.0351,-80.9194,-4.32357e-15,-6.08281e-14,-27.2218,-20.7297,82.3707,41.9389,72.958,-38.8218,-12.8245,7.12502,-11.8318,16.8213,-50.9237,24.0331,-6.53751,73.9648,2.72907,11.0583,-43.4692,-32.3531,-6.49607,-36.2673,38.6663,-17.034,10.5962,4.19491
2.92952,16.7184,-0.0365203,15.2414,4.93317,10.9863,-7.3763,1.83708,0.830942,-1.72387,2.62777,-7.3415,2.73889,1.35965,-7.93338,-2.84226,14.7943,5.52139,47.4305,24.7903,-2.1356,20.3206,10.7824,2.29482,3.97072e-14,-5.84427e-14,-35.4716,5.08541,-93.9247,42.3243,-35.9127,-8.59156,-52.323,7.12502,17.3396,-81.5696,3.97072e-14,-5.84427e-14,-27.2028,-20.7498,82.3634,41.8379,72.9846,-38.3102,-13.2591,7.12502,-11.3384,16.4144,-50.8597,24.0022,-6.4535,73.9732,2.69528,10.9966,-43.3359,-32.3636,-6.52311,-36.2161,38.7178,-17.0942,10.5346,4.60915
2.92923,16.7184,-0.0376285,15.2226,4.9637,10.9554,-7.37815,1.79749,0.808297,-1.72051,2.57485,-7.30052,2.73277,1.33227,-7.88096,-2.75113,14.7462,5.38214,47.1655,24.6981,-2.22752,20.0921,10.7392,2.21704,3.926e-15,1.15295e-14,-35.5356,5.2998,-94.0442,42.4477,-36.4395,-9.1233,-52.6231,7.12502,16.8277,-81.9139,3.926e-15,1.15295e-14,-27.2054,-20.6751,82.3586,41.7844,72.9133,-38.2575,-13.1474,7.12502,-11.2877,16.5289,-50.8391,24.0148,-6.39982,73.9696,2.67752,11.0043,-43.4183,-32.395,-6.53313,-36.1677,38.773,-17.1269,10.4822,4.79342
2.93163,16.7209,-0.0358827,15.213,5.01154,10.8845,-7.49111,1.76299,0.862954,-1.68237,2.52822,-7.2534,2.82909,1.31143,-7.86408,-2.74296,14.7341,5.24774,47.0105,24.6569,-2.24157,19.9508,10.7126,2.20243,-2.03257e-14,-4.21423e-14,-35.536,5.46781,-94.1251,42.5968,-36.8352,-10.6673,-51.3817,7.12502,15.3409,-80.7927,-2.03257e-14,-4.21423e-14,-27.1809,-20.5373,82.348,41.7291,72.749,-38.1874,-12.9922,7.12502,-11.22,16.6878,-50.7896,24.0033,-6.30522,73.9381,2.70557,11.0353,-43.3776,-32.4187,-6.58447,-36.0792,38.8293,-17.2213,10.4132,5.65926
2.93497,16.7242,-0.0345346,15.2172,5.03683,10.8711,-7.22452,1.77171,1.00099,-1.86771,2.51397,-7.33501,2.49414,1.29547,-8.04217,-2.70932,14.765,5.30669,47.1916,24.6514,-2.03338,20.0248,10.7356,2.29464,-5.11374e-14,3.57812e-14,-35.7687,5.31993,-94.2237,42.6915,-36.7902,-11.4886,-50.4285,7.12502,14.5497,-79.8982,-5.11374e-14,3.57812e-14,-27.4834,-20.6429,82.3415,41.7614,72.783,-37.895,-13.1278,7.12502,-10.938,16.5673,-50.7551,23.9618,-6.28682,73.9105,2.75837,10.9872,-43.206,-32.4415,-6.62951,-36.0612,38.874,-17.3367,10.3371,6.53212
2.93614,16.7242,-0.0328886,15.2293,5.00459,10.8539,-7.38706,1.77703,0.937853,-1.81329,2.53205,-7.28963,2.63965,1.30781,-7.94999,-2.70054,14.7843,5.32135,47.1468,24.7152,-2.12751,20.0252,10.7543,2.26084,-2.18166e-14,3.89618e-14,-35.6059,5.42882,-94.1758,42.6234,-36.877,-11.2778,-50.8685,7.12502,14.7529,-80.3235,-2.18166e-14,3.89618e-14,-27.3615,-20.6873,82.3787,41.6756,72.8807,-37.708,-13.3577,7.12502,-10.7576,16.3469,-50.7708,23.9765,-6.28795,73.8957,2.77811,10.9397,-43.146,-32.4681,-6.62334,-36.045,38.8797,-17.3236,10.3443,6.59055
2.93791,16.7243,-0.028127,15.2285,4.97068,10.8128,-7.44473,1.81578,0.95123,-1.84309,2.58307,-7.28739,2.64872,1.33318,-7.94893,-2.60967,14.7295,5.25083,46.9729,24.6166,-2.17995,19.8687,10.7183,2.20082,-6.01324e-15,1.94809e-14,-35.6451,5.33635,-94.1664,42.6819,-36.8995,-11.6508,-49.4479,7.12502,14.3935,-78.9288,-6.01324e-15,1.94809e-14,-27.3826,-20.8998,82.4436,41.586,72.9353,-37.5916,-13.3909,7.12502,-10.6453,16.3195,-50.7286,24.0108,-6.24675,73.8558,2.76009,10.8678,-43.0103,-32.4115,-6.62508,-36.0053,38.7658,-17.2158,10.3827,6.62979
2.93903,16.7221,-0.023759,15.1527,4.9716,10.8912,-7.26089,1.80409,0.853581,-1.95567,2.56343,-7.31504,2.42278,1.31589,-7.92875,-2.44,14.6828,5.14702,46.8913,24.5141,-2.13488,19.7249,10.687,2.18328,6.06293e-15,5.56597e-15,-35.957,5.20228,-94.1973,42.8729,-36.8201,-9.59272,-51.431,7.12502,16.3758,-80.7597,6.06293e-15,5.56597e-15,-27.6174,-20.9712,82.5446,41.5602,72.8993,-37.5581,-13.5294,7.12502,-10.613,16.1826,-50.5869,24.0319,-6.28242,73.8505,2.77701,10.7341,-42.78,-32.2184,-6.57193,-36.1358,38.7019,-17.1639,10.5388,5.37496
2.94048,16.7331,-0.0137584,14.67,5.55043,11.1374,-6.78068,1.56955,0.70647,-1.83153,2.25112,-7.32522,2.23333,1.15648,-7.89336,-2.34436,14.6984,5.09784,46.8913,24.5355,-2.10881,19.6848,10.698,2.19165,7.65321e-15,-3.57812e-15,-36.1476,5.2014,-94.2359,42.9092,-36.7548,-11.26,-50.1873,7.12502,14.77,-79.641,7.65321e-15,-3.57812e-15,-27.8046,-20.8841,82.609,41.5641,72.8408,-37.5528,-13.8063,7.12502,-10.608,15.906,-49.5139,23.8782,-5.98117,73.7912,2.58384,10.5228,-42.9955,-31.3909,-6.80247,-36.361,38.5918,-17.2071,10.4894,4.27765
2.94125,16.726,-0.0270644,15.1334,4.90422,10.85,-7.08684,1.78373,0.835443,-2.07994,2.52336,-7.28285,2.18794,1.28797,-7.89188,-2.33701,14.7325,5.08182,46.9227,24.5983,-2.10044,19.7046,10.7194,2.21046,2.84262e-14,-4.41302e-14,-36.1908,5.31155,-94.2759,42.8687,-36.7891,-9.85649,-51.1847,7.12502,16.1218,-80.5341,2.84262e-14,-4.41302e-14,-27.9552,-20.7432,82.646,41.6171,72.7164,-37.3409,-13.9416,7.12502,-10.4035,15.781,-50.6341,24.1504,-6.29708,73.8219,2.70771,10.8433,-43.2836,-32.1499,-6.45286,-36.1366,38.6116,-17.1817,10.5707,4.63223
2.94055,16.7257,-0.0278664,15.2084,4.90728,10.7724,-7.1243,1.76927,0.860554,-2.13113,2.4989,-7.23977,2.15104,1.2736,-7.8617,-2.37818,14.7453,5.04226,47.0119,24.6353,-2.0687,19.7649,10.7228,2.24765,4.47762e-14,-9.42239e-14,-36.2452,5.39178,-94.2826,42.8858,-36.6758,-16.983,-43.3779,7.12502,9.25176,-73.155,4.47762e-14,-9.42239e-14,-28.0427,-20.6583,82.6796,41.6385,72.6344,-37.1626,-13.9763,7.12502,-10.2315,15.7549,-50.7594,24.1576,-6.25258,73.8301,2.68643,10.871,-43.334,-32.2669,-6.48533,-36.0362,38.6252,-17.2099,10.5695,4.5911
2.94246,16.7256,-0.0291433,15.1841,4.84263,10.8801,-7.08791,1.73748,0.717219,-2.11153,2.46623,-7.24741,2.14094,1.25668,-7.79007,-2.47109,14.7788,4.94443,47.0703,24.6869,-2.00406,19.7965,10.7258,2.31107,-2.38542e-15,2.8625e-14,-36.2452,5.60196,-94.3299,42.8391,-36.6774,-11.1638,-50.5217,7.12502,14.8627,-79.9686,-2.38542e-15,2.8625e-14,-27.9518,-20.5881,82.6525,41.6008,72.7211,-37.3014,-13.8473,7.12502,-10.3654,15.8773,-50.7432,24.1275,-6.37217,73.8488,2.71798,10.8172,-43.0657,-32.3376,-6.49745,-36.1426,38.7545,-17.3445,10.4404,5.55988
2.94314,16.7264,-0.0329231,15.1443,4.73488,10.8784,-6.99272,1.74165,0.654925,-2.13395,2.47119,-7.23852,2.06223,1.25684,-7.74571,-2.47042,14.8029,4.88693,47.1202,24.6763,-1.86888,19.7813,10.7269,2.37575,3.52346e-14,-3.37934e-14,-36.3131,5.75089,-94.4017,42.8089,-36.7488,-10.4207,-50.9464,7.12502,15.5785,-80.339,3.52346e-14,-3.37934e-14,-27.9369,-20.5525,82.6453,41.5651,72.7791,-37.1918,-14.2453,7.12502,-10.2597,15.4845,-50.7668,24.1899,-6.4019,73.8523,2.73367,10.725,-42.9995,-32.3995,-6.46246,-36.1311,38.811,-17.3987,10.317,6.94726
2.94393,16.7209,-0.0374601,15.2148,4.66104,10.8036,-7.00868,1.77914,0.713772,-2.15851,2.51671,-7.24334,2.05463,1.27942,-7.78078,-2.53489,14.7855,4.95119,47.1714,24.6268,-1.82169,19.8305,10.7147,2.39202,5.46658e-15,4.37326e-14,-36.2953,5.78023,-94.4767,42.892,-37.0718,-11.5082,-50.0181,7.12502,14.5309,-79.4892,5.46658e-15,4.37326e-14,-27.9732,-20.6514,82.6455,41.6424,72.8017,-36.9071,-14.8456,7.12502,-9.985,14.8975,-50.9715,24.2169,-6.42759,73.887,2.9644,10.6263,-42.3779,-32.4765,-6.38998,-36.1058,38.8349,-17.2536,10.5858,5.664
2.94549,16.7182,-0.0388382,15.2597,4.67961,10.8285,-7.07796,1.76327,0.707799,-2.07843,2.50345,-7.26503,2.17558,1.27679,-7.79996,-2.73651,14.8059,5.01191,47.1278,24.6832,-1.91107,19.8931,10.7221,2.37988,2.23136e-14,6.75868e-15,-36.0984,5.9064,-94.5507,42.9287,-37.4613,-12.4472,-49.4229,7.12502,13.626,-78.9569,2.23136e-14,6.75868e-15,-27.835,-20.6813,82.5723,41.6889,72.7715,-36.7873,-14.9554,7.12502,-9.86947,14.7933,-51.0515,24.1519,-6.49386,73.916,3.35668,10.467,-41.0594,-32.4431,-6.34322,-36.1833,38.8058,-17.1182,10.7784,3.99552
2.94718,16.7207,-0.0374238,15.2068,4.72607,10.8575,-7.02361,1.71512,0.672898,-2.0477,2.44106,-7.26287,2.16688,1.24556,-7.78425,-2.78388,14.8316,4.94408,47.0675,24.7166,-1.91063,19.8506,10.7255,2.39362,3.18055e-15,2.66371e-14,-36.0679,5.95824,-94.5709,42.9268,-37.4003,-12.2444,-49.7468,7.12502,13.8215,-79.2676,3.18055e-15,2.66371e-14,-27.8035,-20.5493,82.5241,41.6461,72.6335,-36.6732,-14.8409,7.12502,-9.75931,14.913,-50.9351,24.1185,-6.47102,73.8801,3.45393,10.3831,-40.5949,-32.2699,-6.34192,-36.2121,38.5692,-16.9821,10.6858,4.0331
2.95018,16.7223,-0.0374383,15.1376,4.71875,10.9475,-6.90799,1.66775,0.568908,-2.06729,2.37976,-7.27612,2.06972,1.21197,-7.74644,-2.73082,14.8318,4.9028,47.0934,24.7096,-1.87734,19.8372,10.7218,2.40585,-2.48481e-14,4.05521e-14,-36.1275,6.01454,-94.5977,42.9037,-37.3517,-12.2334,-49.532,7.12502,13.8321,-79.0521,-2.48481e-14,4.05521e-14,-27.9011,-20.3855,82.5069,41.6794,72.5887,-36.7349,-14.8113,7.12502,-9.81886,14.9397,-50.8053,24.1047,-6.52371,73.8581,3.27193,10.4623,-41.0042,-32.1672,-6.36576,-36.3178,38.5029,-16.9474,10.72,4.04163
2.95403,16.7549,-0.00993877,14.1319,6.13729,11.3207,-6.25453,1.15596,0.458008,-1.57724,1.70608,-7.25954,2.11634,0.882171,-7.73263,-2.69956,14.843,4.97978,47.0776,24.7582,-1.97692,19.8653,10.7409,2.35975,-3.42904e-14,3.97569e-15,-36.069,6.11173,-94.6159,42.8467,-37.3812,-12.2655,-49.3152,7.12502,13.8011,-78.8374,-3.42904e-14,3.97569e-15,-27.8985,-20.2737,82.4768,41.7091,72.5791,-36.8019,-15.1064,7.12502,-9.88357,14.6416,-48.3425,23.7074,-5.61332,73.6683,2.76433,9.95414,-41.4677,-30.5533,-7.19643,-36.5022,38.3619,-17.1964,10.3486,5.14041
2.9617,16.733,-0.0334677,14.9947,4.67381,10.8097,-6.92653,1.67394,0.786646,-2.0066,2.37661,-7.25729,2.15062,1.21386,-7.8526,-2.65881,14.853,5.05909,47.0407,24.806,-2.08498,19.8789,10.7619,2.3069,-2.79292e-14,-1.82882e-14,-36.0383,6.13146,-94.6145,42.8566,-37.3635,-12.1352,-49.7751,7.12502,13.9268,-79.2887,-2.79292e-14,-1.82882e-14,-27.8906,-20.2508,82.4602,41.6638,72.6032,-36.7231,-15.5726,7.12502,-9.80751,14.179,-50.5465,24.2636,-6.35899,73.7188,3.17442,10.4732,-41.6153,-32.0557,-6.4939,-36.1531,38.4994,-17.2005,10.5628,6.95464
2.96097,16.7293,-0.0373594,14.9824,4.70869,10.6966,-6.8374,1.6684,0.900899,-2.03137,2.35634,-7.23001,2.07543,1.20193,-7.89361,-2.68487,14.8498,5.06484,47.0627,24.8155,-2.10117,19.9081,10.7606,2.30643,2.58917e-14,-2.78299e-15,-36.0436,6.13453,-94.6289,42.8662,-37.3624,-12.0611,-50.0036,7.12502,13.9981,-79.5123,2.58917e-14,-2.78299e-15,-27.8412,-20.2217,82.4449,41.548,72.6259,-36.5318,-15.8833,7.12502,-9.62297,13.8769,-50.5741,24.2409,-6.22055,73.701,3.19205,10.5299,-41.7783,-32.0663,-6.45583,-36.0391,38.5478,-17.1405,10.5855,6.11094
2.9618,16.7325,-0.0390123,14.9797,4.73973,10.5755,-6.85181,1.64041,1.00076,-2.00393,2.31249,-7.18662,2.10771,1.18112,-7.90843,-2.74415,14.8544,5.08076,47.0375,24.8476,-2.17542,19.9324,10.762,2.28454,-8.24956e-15,5.00937e-14,-35.9783,6.23339,-94.671,42.8376,-37.4017,-12.1525,-49.6815,7.12502,13.9101,-79.1963,-8.24956e-15,5.00937e-14,-27.8181,-20.106,82.3983,41.5824,72.5721,-36.4949,-15.6828,7.12502,-9.58728,14.079,-50.5928,24.2791,-6.10082,73.6775,3.43587,10.4045,-41.1211,-32.1667,-6.38665,-35.9244,38.7576,-17.1986,10.6116,5.21779
2.96329,16.7401,-0.0401162,14.9637,4.74409,10.5035,-6.89739,1.60073,1.02529,-1.96995,2.25934,-7.14914,2.16019,1.15587,-7.88593,-2.71072,14.8583,5.14217,46.9436,24.8852,-2.32298,19.914,10.7736,2.21057,3.42904e-15,-4.17448e-14,-35.9509,6.33644,-94.7164,42.8525,-37.4007,-12.2243,-49.5505,7.12502,13.8408,-79.07,3.42904e-15,-4.17448e-14,-27.9196,-19.9991,82.3436,41.7659,72.6354,-36.6085,-15.2955,7.12502,-9.69688,14.4612,-50.5484,24.3324,-6.02601,73.6118,3.53921,10.2947,-40.8443,-32.1978,-6.42424,-35.8171,38.7636,-17.3269,10.476,6.68825
2.96532,16.7424,-0.0450888,14.9255,4.76097,10.5131,-6.82367,1.57321,1.01782,-1.95796,2.22145,-7.15151,2.1258,1.13624,-7.88902,-2.75441,14.8605,5.0837,46.9495,24.8636,-2.25794,19.8972,10.7609,2.24546,-1.23246e-14,-1.39149e-14,-35.9075,6.25055,-94.6498,42.7962,-36.9546,-11.4253,-50.0621,7.12502,14.6108,-79.5274,-1.23246e-14,-1.39149e-14,-27.9082,-19.8969,82.302,41.7796,72.6831,-36.5593,-15.186,7.12502,-9.64943,14.573,-50.4818,24.3043,-6.01308,73.5872,3.47808,10.4102,-41.0776,-32.1769,-6.49899,-35.8066,38.731,-17.3475,10.4113,7.64776
2.96723,16.7404,-0.0479255,14.9211,4.74954,10.5482,-6.8195,1.58399,1.00487,-1.93741,2.23867,-7.17627,2.14793,1.14595,-7.90673,-2.89734,14.8728,5.02678,47.0886,24.861,-2.11185,19.9808,10.7507,2.34218,1.20762e-14,3.02153e-14,-35.8157,6.03966,-94.4667,42.6796,-36.1607,-9.86105,-50.8127,7.12502,16.1175,-80.1625,1.20762e-14,3.02153e-14,-27.8318,-19.8302,82.29,41.714,72.571,-36.5526,-15.1699,7.12502,-9.64298,14.5894,-50.5073,24.2687,-6.07123,73.5993,3.56919,10.5355,-40.8504,-32.0953,-6.46202,-35.8793,38.6259,-17.1727,10.5207,6.21472
2.96835,16.7371,-0.0485081,14.9054,4.7411,10.646,-6.79741,1.5843,0.910588,-1.91838,2.24701,-7.21073,2.15452,1.1505,-7.88859,-2.9505,14.8804,5.11366,47.1247,24.9196,-2.20082,20.0692,10.7681,2.31706,2.88238e-14,-1.98785e-15,-35.795,5.92069,-94.3508,42.6542,-35.7687,-9.05947,-51.3207,7.12502,16.8892,-80.6063,2.88238e-14,-1.98785e-15,-27.8079,-19.855,82.2924,41.7118,72.5222,-36.8778,-14.8871,7.12502,-9.95677,14.8574,-50.4926,24.2106,-6.16466,73.6186,3.53403,10.5973,-40.9388,-31.9515,-6.43402,-36.0135,38.4507,-17.0144,10.6025,5.03418
2.97154,16.7405,-0.0464962,14.6527,5.10709,10.9734,-6.5011,1.41797,0.673832,-1.80966,2.03823,-7.2718,2.06614,1.04497,-7.84039,-2.96746,14.8903,5.13926,47.1167,24.9596,-2.25759,20.0928,10.7791,2.29966,7.45443e-15,1.70955e-14,-35.755,5.91206,-94.3261,42.6011,-35.7389,-9.07812,-51.1929,7.12502,16.8712,-80.48,7.45443e-15,1.70955e-14,-27.7772,-19.8803,82.2755,41.7539,72.6299,-37.3369,-14.6011,7.12502,-10.3996,15.1218,-49.8379,23.9535,-6.16346,73.6074,3.19782,10.536,-41.5174,-31.4453,-6.67352,-36.3272,38.2834,-17.0018,10.5143,4.95179
2.97537,16.7473,-0.0451748,14.4707,5.48057,11.205,-6.28161,1.26127,0.548506,-1.72688,1.83447,-7.30992,1.998,0.942197,-7.8295,-3.04141,14.9025,5.05818,47.2209,24.9748,-2.1614,20.1446,10.7725,2.3699,3.52843e-14,-6.55989e-14,-35.6942,6.04717,-94.3668,42.5617,-36.0537,-9.74283,-50.6438,7.12502,16.2313,-79.9843,3.52843e-14,-6.55989e-14,-27.7399,-19.8619,82.27,41.7341,72.6867,-37.3483,-14.8611,7.12502,-10.4106,14.8611,-49.2882,23.7102,-6.12467,73.5768,3.11142,10.4198,-41.2787,-31.0721,-6.90172,-36.5366,38.2013,-17.0439,10.4281,4.82562
2.97904,16.7451,-0.0508618,14.7425,5.14834,10.9525,-6.484,1.39104,0.791279,-1.854,1.99183,-7.28895,2.00827,1.0201,-7.93262,-3.22764,14.9323,5.00783,47.3831,25.0389,-2.07222,20.2812,10.7758,2.46323,3.93097e-14,-9.50191e-14,-35.6455,6.19155,-94.4293,42.5682,-36.4048,-10.4591,-50.4248,7.12502,15.5415,-79.8203,3.93097e-14,-9.50191e-14,-27.7147,-19.8444,82.2497,41.7041,72.6589,-37.3956,-14.8679,7.12502,-10.4563,14.8521,-49.898,23.8591,-6.20635,73.5603,3.40044,10.5129,-40.6416,-31.5308,-6.72919,-36.3133,38.2398,-17.009,10.5282,4.77796
2.98007,16.7404,-0.052971,15.0124,4.78699,10.6272,-6.76504,1.53336,1.03933,-1.97445,2.16673,-7.24281,2.07223,1.10783,-8.00771,-3.30605,14.9701,5.07087,47.4569,25.1142,-2.07261,20.3757,10.8019,2.48794,-3.57812e-15,-2.10712e-14,-35.5612,6.27149,-94.4578,42.4731,-36.4973,-10.5741,-50.4588,7.12502,15.4308,-79.8628,-3.57812e-15,-2.10712e-14,-27.7267,-19.8284,82.2085,41.7431,72.6188,-37.7874,-14.2954,7.12502,-10.8342,15.4051,-50.5278,24.0746,-6.20788,73.5455,3.55789,10.5912,-40.7478,-32.0509,-6.51679,-36.0143,38.3805,-16.9212,10.6988,4.6419
2.9784,16.7464,-0.0525851,15.0293,4.74812,10.4744,-6.7872,1.56574,1.09962,-2.02913,2.20205,-7.18855,2.0329,1.12353,-7.98042,-3.09175,14.944,5.21182,47.4457,25.0854,-2.15827,20.3635,10.8164,2.40354,1.7344e-14,5.96354e-14,-35.6247,6.36446,-94.4788,42.473,-36.8739,-10.8531,-50.3892,7.12502,15.162,-79.8138,1.7344e-14,5.96354e-14,-27.7708,-19.8832,82.2529,41.6814,72.5622,-37.9105,-13.9288,7.12502,-10.9529,15.7655,-50.6584,24.1902,-6.11004,73.5122,3.86386,10.4571,-40.3598,-32.1902,-6.46381,-35.8295,38.4885,-16.9677,10.6219,5.69939
2.98066,16.7455,-0.0525352,15.049,4.76677,10.4919,-6.76578,1.58307,1.09932,-2.10376,2.22138,-7.20953,1.94687,1.13001,-8.00233,-2.8532,14.8774,5.32969,47.4595,24.9839,-2.20586,20.3413,10.8048,2.32256,-1.5704e-14,6.2816e-14,-35.8282,6.2845,-94.4806,42.608,-37.1489,-10.7458,-50.9097,7.12502,15.2654,-80.3264,-1.5704e-14,6.2816e-14,-27.882,-20.0299,82.3174,41.6037,72.4825,-37.5745,-14.1446,7.12502,-10.6288,15.5666,-50.5644,24.0908,-6.07806,73.4784,3.27477,10.6783,-41.904,-32.2398,-6.4998,-35.8407,38.5437,-17.1036,10.4934,6.78219
2.99003,16.7504,-0.0434043,15.074,4.85387,10.6109,-6.98769,1.57153,1.10849,-2.05027,2.21704,-7.28513,2.12918,1.13346,-8.08648,-2.74108,14.8284,5.39612,47.3376,24.9007,-2.29742,20.2555,10.7867,2.23528,2.54444e-14,-7.99114e-14,-35.8508,6.12912,-94.4618,42.7033,-37.0869,-10.135,-52.0376,7.12502,15.8537,-81.4086,2.54444e-14,-7.99114e-14,-27.8384,-20.1341,82.2946,41.5953,72.491,-37.2538,-14.7959,7.12502,-10.3195,14.9309,-50.4838,23.9983,-6.22959,73.4601,3.78527,10.5321,-40.1781,-32.0701,-6.62496,-36.0135,38.4693,-17.0881,10.6612,5.60298
2.99271,16.7464,-0.0369518,15.0578,4.77692,10.6059,-7.16249,1.61363,1.10986,-1.96895,2.28369,-7.30558,2.32248,1.17321,-8.09949,-2.65056,14.782,5.46208,47.1697,24.8376,-2.44771,20.1606,10.7703,2.12615,4.5472e-14,-5.24792e-14,-35.7813,6.05846,-94.4368,42.7522,-36.9873,-10.2946,-52.0004,7.12502,15.6999,-81.3835,4.5472e-14,-5.24792e-14,-27.6898,-20.1514,82.2618,41.6107,72.5675,-37.4824,-14.8298,7.12502,-10.54,14.8859,-50.4189,24.0372,-6.20546,73.4603,3.37421,10.7371,-41.1626,-31.9331,-6.60259,-36.0517,38.3306,-16.9431,10.8527,4.57643
2.99343,16.7477,-0.0404929,15.0235,4.656,10.7155,-7.02206,1.6382,0.948983,-2.00195,2.32337,-7.34862,2.21123,1.1896,-8.05093,-2.61134,14.7618,5.49711,47.1974,24.7906,-2.41709,20.1649,10.762,2.12375,-1.90336e-14,1.03368e-14,-35.8682,6.0109,-94.4368,42.8177,-36.8818,-10.81,-51.6264,7.12502,15.2035,-81.0478,-1.90336e-14,1.03368e-14,-27.728,-20.1503,82.2656,41.616,72.4502,-37.5168,-14.467,7.12502,-10.5732,15.247,-50.4587,24.0863,-6.37024,73.4787,3.46199,10.7422,-40.8912,-31.9089,-6.53006,-36.1813,38.2729,-16.957,10.7109,5.9335
2.99385,16.7597,-0.0314176,14.5408,5.37193,11.0781,-6.58651,1.38799,0.717526,-1.81264,2.00251,-7.40847,2.1121,1.02908,-8.01734,-2.62175,14.7474,5.46809,47.2568,24.7079,-2.25625,20.1513,10.7423,2.18543,3.39425e-14,3.57812e-15,-35.9605,5.98166,-94.4555,42.8391,-36.9096,-10.7586,-52.293,7.12502,15.253,-81.7107,3.39425e-14,3.57812e-15,-27.7504,-20.309,82.2963,41.5287,72.4325,-37.282,-14.6704,7.12502,-10.3467,15.0551,-49.271,23.7784,-6.09369,73.4602,3.06934,10.4513,-41.268,-31.137,-6.96934,-36.4469,38.2365,-17.1115,10.3972,7.13829
2.98663,16.7391,-0.0414077,14.9017,4.72695,10.7816,-6.86564,1.64677,0.789009,-2.02509,2.34067,-7.37683,2.09733,1.19506,-7.9894,-2.64195,14.7221,5.41882,47.2894,24.6315,-2.14757,20.1325,10.7166,2.22735,-6.90777e-15,-7.15625e-15,-35.9985,5.93161,-94.4423,42.8091,-36.94,-10.5407,-52.6807,7.12502,15.463,-82.0823,-6.90777e-15,-7.15625e-15,-27.7547,-20.4967,82.3399,41.493,72.6072,-37.2317,-15.0794,7.12502,-10.2982,14.6485,-50.3071,24.1053,-6.28309,73.5736,2.94041,10.6547,-42.0997,-31.7922,-6.5776,-36.2189,38.3136,-16.9625,10.7838,5.58109
2.98057,16.7312,-0.044149,14.8668,4.59218,10.6438,-6.83797,1.67274,0.76236,-2.03707,2.37304,-7.30088,2.06983,1.20988,-7.88833,-2.68461,14.7453,5.33992,47.3135,24.6699,-2.1115,20.1378,10.7197,2.26572,1.76918e-14,-7.55382e-15,-36.0411,6.0705,-94.4736,42.8471,-37.0863,-11.2051,-51.5814,7.12502,14.8229,-81.0312,1.76918e-14,-7.55382e-15,-27.7158,-20.3933,82.356,41.479,72.555,-37.0378,-14.9299,7.12502,-10.1111,14.8071,-50.4466,24.2813,-6.16994,73.6155,2.84154,10.7331,-42.7014,-31.8343,-6.42499,-36.1023,38.3101,-16.7964,11.0559,3.95072
2.98328,16.7356,-0.0446969,14.7905,4.52578,10.685,-6.8282,1.68472,0.687419,-1.99112,2.39672,-7.30941,2.11305,1.22331,-7.85129,-2.595,14.7277,5.33657,47.1803,24.6235,-2.15971,20.0266,10.7104,2.21373,1.70458e-14,-1.63003e-14,-36.0049,6.12691,-94.4717,42.9149,-36.8778,-11.3844,-51.025,7.12502,14.6501,-80.4875,1.70458e-14,-1.63003e-14,-27.5878,-20.3953,82.3556,41.414,72.5078,-36.9809,-14.499,7.12502,-10.0562,15.2408,-50.3933,24.3417,-6.22549,73.6107,2.94903,10.7395,-42.4987,-31.7952,-6.40697,-36.1618,38.3618,-16.8146,11.1049,4.14197
2.98748,16.7403,-0.0407413,14.7603,4.51845,10.7085,-6.86484,1.74529,0.732962,-1.99416,2.47868,-7.38438,2.1473,1.26612,-7.95114,-2.54012,14.6687,5.38294,47.1136,24.4856,-2.12284,19.9516,10.6776,2.18537,7.90169e-15,-3.18055e-14,-36.0026,5.74316,-94.3259,42.97,-36.0491,-10.01,-51.9269,7.12502,15.974,-81.2882,7.90169e-15,-3.18055e-14,-27.574,-20.6853,82.369,41.4102,72.6269,-37.1157,-14.5535,7.12502,-10.1862,15.1799,-50.3112,24.3599,-6.2517,73.5687,3.0467,10.7226,-42.2071,-31.7145,-6.42151,-36.1992,38.3244,-16.8085,11.1149,4.10945
2.99126,16.7404,-0.0352212,14.7617,4.50157,10.7087,-6.92572,1.76175,0.771046,-2.00301,2.50079,-7.4173,2.17836,1.27813,-8.00607,-2.79647,14.7059,5.24521,47.2941,24.5089,-1.89109,20.0571,10.6663,2.34988,6.53008e-14,-4.73108e-14,-36.0359,5.57381,-94.256,42.9035,-35.7315,-9.45236,-51.4022,7.12502,16.511,-80.7197,6.53008e-14,-4.73108e-14,-27.5656,-20.7555,82.3629,41.3825,72.6964,-37.0391,-14.59,7.12502,-10.1124,15.147,-50.2599,24.3648,-6.24686,73.5401,2.88273,10.8507,-42.5366,-31.6771,-6.41405,-36.2092,38.292,-16.8582,11.0255,4.32106
2.9933,16.741,-0.0353481,14.7502,4.49006,10.673,-6.83583,1.78018,0.799185,-2.05727,2.51776,-7.42493,2.0756,1.2837,-8.03169,-2.89417,14.7035,5.16732,47.4079,24.4785,-1.74065,20.1044,10.6484,2.4384,-3.37934e-15,-2.90226e-14,-36.1265,5.48812,-94.2483,42.8244,-35.7499,-9.69052,-50.2945,7.12502,16.2817,-79.6309,-3.37934e-15,-2.90226e-14,-27.6429,-20.7426,82.383,41.3361,72.6964,-36.8569,-14.526,7.12502,-9.93657,15.2195,-50.2602,24.3761,-6.2057,73.528,2.77994,10.8813,-42.5217,-31.665,-6.40359,-36.1662,38.2593,-16.9056,10.9195,5.08688
2.99481,16.74,-0.037974,14.7764,4.46468,10.6594,-6.69291,1.84639,0.795928,-2.17736,2.59631,-7.45555,1.88347,1.31728,-8.06031,-2.84564,14.6654,5.29606,47.5973,24.4137,-1.65285,20.2269,10.6454,2.46185,-9.93923e-17,-8.74653e-15,-36.2899,5.20627,-94.1645,42.8611,-35.6054,-9.82551,-49.8688,7.12502,16.1517,-79.2158,-9.93923e-17,-8.74653e-15,-27.8778,-20.8602,82.4705,41.4139,72.6768,-36.8116,-14.4932,7.12502,-9.89293,15.2543,-50.359,24.3631,-6.23366,73.5184,2.98838,10.7727,-42.0462,-31.612,-6.39509,-36.169,38.0733,-16.7542,10.9757,5.0514
3.00073,16.7392,-0.0324395,14.7745,4.39009,10.8438,-6.73971,1.87304,0.609401,-2.1818,2.64713,-7.50704,1.90671,1.34313,-8.0015,-3.29217,14.7794,5.09889,48.2402,24.5373,-1.07917,20.6263,10.6624,2.87057,-4.96962e-16,6.83819e-14,-36.322,5.12273,-94.0644,42.934,-35.5597,-10.1678,-49.5086,7.12502,15.822,-78.8821,-4.96962e-16,6.83819e-14,-28.009,-20.92,82.5489,41.5688,72.6643,-36.9685,-14.4256,7.12502,-10.0443,15.3147,-50.3178,24.3126,-6.44844,73.5238,2.97559,10.7581,-42.1476,-31.5,-6.38976,-36.426,38.0158,-16.7257,11.072,4.56518
3.01653,16.7559,-0.00285477,14.3503,5.00062,11.4566,-6.73255,1.61332,0.225256,-1.87873,2.34664,-7.62891,2.16515,1.2017,-7.93579,-2.88389,14.6715,5.08205,47.6525,24.3944,-1.49204,20.1861,10.6214,2.55874,-1.48095e-14,2.50469e-14,-36.2958,5.22878,-94.066,42.9149,-35.7001,-9.66151,-50.3806,7.12502,16.3096,-79.7147,-1.48095e-14,2.50469e-14,-28.0165,-20.8899,82.5451,41.6334,72.6804,-37.1699,-14.5161,7.12502,-10.2386,15.2147,-48.9474,23.9188,-6.48571,73.4177,2.41817,10.5497,-42.5051,-30.5587,-6.82415,-37.0658,37.8818,-16.95,10.8914,4.70915
3.00932,16.7404,-0.028197,14.8131,4.32581,10.9111,-6.90657,1.83232,0.560042,-2.12711,2.60532,-7.52728,2.04962,1.3257,-7.99421,-2.83226,14.6593,5.014,47.4518,24.3685,-1.5862,20.0369,10.6051,2.49505,8.94531e-16,-1.07344e-14,-36.2358,5.42742,-94.1876,42.7538,-35.9863,-8.55599,-52.0214,7.12502,17.3738,-81.2649,8.94531e-16,-1.07344e-14,-28.0104,-20.7668,82.4603,41.6709,72.7399,-37.5737,-14.4952,7.12502,-10.628,15.216,-50.2461,24.2722,-6.53164,73.4764,2.7823,10.596,-42.1504,-31.535,-6.38206,-36.5228,38.0106,-16.9359,10.9113,4.97242
3.0071,16.7407,-0.0306667,14.7701,4.38543,10.7526,-6.86294,1.77554,0.668586,-2.09991,2.5199,-7.47224,2.04329,1.28295,-8.00658,-2.76963,14.7031,5.06844,47.3751,24.457,-1.69344,20.0126,10.6408,2.44528,-2.27111e-14,2.50469e-14,-36.1722,5.66128,-94.3399,42.6635,-36.3583,-8.95034,-52.0909,7.12502,16.9942,-81.3675,-2.27111e-14,2.50469e-14,-28.0535,-20.6057,82.3876,41.7428,72.8154,-37.931,-14.4987,7.12502,-10.9728,15.1946,-50.2451,24.3424,-6.31527,73.5052,2.9991,10.4145,-41.4919,-31.5411,-6.32781,-36.362,38.1087,-16.9712,10.9988,4.33134
3.00395,16.7366,-0.0382686,14.7664,4.33136,10.7025,-6.7494,1.7833,0.651858,-2.1565,2.5237,-7.46318,1.92038,1.28114,-7.98963,-2.58319,14.7161,5.1539,47.2888,24.4777,-1.77187,19.9425,10.6695,2.37602,6.31141e-15,-1.98785e-14,-36.1869,5.69936,-94.3946,42.6237,-36.5788,-9.76746,-51.3108,7.12502,16.2076,-80.6532,6.31141e-15,-1.98785e-14,-28.1207,-20.5474,82.386,41.8058,72.8881,-38.2324,-14.2091,7.12502,-11.2634,15.4685,-50.3917,24.3923,-6.29561,73.5915,3.23475,10.2665,-40.8822,-31.7001,-6.22494,-36.3326,38.386,-17.0259,11.1196,3.8609
3.00272,16.7307,-0.0453327,14.8669,4.292,10.7114,-6.77864,1.86849,0.637329,-2.23698,2.63712,-7.51508,1.8711,1.33624,-8.02734,-2.3476,14.6129,5.32656,47.2299,24.3107,-1.85471,19.8844,10.6408,2.25727,4.18442e-14,2.62396e-14,-36.2642,5.41956,-94.3504,42.6151,-36.6724,-9.99017,-50.9559,7.12502,15.9931,-80.3157,4.18442e-14,2.62396e-14,-28.2104,-20.7538,82.457,41.8746,72.8671,-38.3249,-13.9187,7.12502,-11.3527,15.754,-50.6032,24.3393,-6.37337,73.6497,3.37744,10.1338,-40.5335,-31.8755,-6.20243,-36.3366,38.4133,-16.989,11.082,3.87691
3.00773,16.7276,-0.0467981,14.9387,4.21065,10.7398,-6.86735,1.94809,0.637089,-2.26903,2.74711,-7.57006,1.90589,1.39225,-8.07497,-2.19974,14.51,5.4781,47.2222,24.1736,-1.96323,19.8907,10.6068,2.15057,1.97791e-14,-2.0276e-14,-36.2716,5.18427,-94.2852,42.6788,-36.6404,-10.8429,-49.6631,7.12502,15.1718,-79.0869,1.97791e-14,-2.0276e-14,-28.3462,-20.9347,82.5175,42.0408,72.8409,-37.9861,-14.2075,7.12502,-11.0259,15.4829,-50.7328,24.2986,-6.48878,73.6831,3.34071,10.1354,-40.3391,-32.0027,-6.20598,-36.3959,38.4874,-16.9744,11.1431,3.89217
3.01185,16.7414,-0.0353966,14.4488,4.90802,10.9236,-6.57523,1.68818,0.531137,-2.00633,2.40957,-7.52548,1.96088,1.22772,-7.99997,-2.21015,14.5162,5.51959,47.2409,24.2381,-2.07564,19.952,10.6213,2.11359,-2.17172e-14,4.17448e-14,-36.1961,5.19119,-94.1766,42.7492,-36.3681,-11.1897,-48.8334,7.12502,14.8377,-78.2821,-2.17172e-14,4.17448e-14,-28.3537,-20.8254,82.5224,42.1783,72.8831,-38.2832,-13.8188,7.12502,-11.3124,15.8561,-49.5601,24.0657,-6.04934,73.6208,3.00266,9.94912,-40.5814,-31.23,-6.59088,-36.5081,38.4699,-16.9986,11.0619,3.84183
3.01326,16.7298,-0.0503455,14.8492,4.31314,10.647,-6.87051,1.92808,0.647169,-2.19671,2.72144,-7.48391,1.97552,1.38163,-7.98812,-2.27267,14.4886,5.5113,47.2966,24.2031,-2.05601,19.9988,10.6021,2.12889,-1.90833e-14,4.6118e-14,-36.2497,5.18446,-94.1169,42.8341,-36.2911,-10.4168,-50.232,7.12502,15.5822,-79.6243,-1.90833e-14,4.6118e-14,-28.2621,-20.8343,82.5544,42.134,72.894,-38.672,-12.964,7.12502,-11.6873,16.69,-50.5605,24.29,-6.29432,73.6597,3.0273,10.2014,-41.103,-31.939,-6.24013,-36.3083,38.5496,-16.9231,11.1954,4.01405
3.01324,16.7281,-0.0505904,14.8259,4.44166,10.5862,-6.76869,1.92434,0.698231,-2.22538,2.70768,-7.47059,1.88846,1.37257,-8.00769,-2.38415,14.432,5.43278,47.4332,24.0732,-1.87523,20.0504,10.5475,2.21516,5.56597e-14,-8.22969e-14,-36.3743,5.10812,-94.1264,42.9354,-36.2285,-9.86823,-51.4961,7.12502,16.1105,-80.8465,5.56597e-14,-8.22969e-14,-28.3416,-20.9149,82.5944,42.1773,72.8461,-38.6329,-12.8277,7.12502,-11.6497,16.8284,-50.4241,24.2099,-6.11855,73.6567,2.74161,10.2286,-41.8129,-31.9501,-6.29579,-36.2123,38.5863,-16.952,11.1021,4.1939
3.01415,16.7271,-0.0482378,14.7921,4.57219,10.5893,-6.65372,1.85956,0.680866,-2.25029,2.6158,-7.45085,1.78329,1.32342,-7.98781,-2.46168,14.449,5.36395,47.5433,24.091,-1.77124,20.1095,10.5446,2.28944,-1.0635e-14,4.96962e-14,-36.4293,5.1026,-94.1178,42.9137,-36.0891,-9.54074,-51.4761,7.12502,16.4259,-80.8006,-1.0635e-14,4.96962e-14,-28.5237,-20.8161,82.602,42.2842,72.6727,-38.5656,-12.9561,7.12502,-11.5847,16.7037,-50.278,24.1269,-6.02839,73.6743,2.67172,10.2321,-41.9411,-31.9631,-6.37732,-36.1877,38.709,-17.0333,11.0536,4.22641
3.01428,16.7237,-0.050229,14.8219,4.60797,10.5318,-6.68458,1.83577,0.711002,-2.22448,2.58347,-7.41753,1.82246,1.30824,-7.971,-2.5172,14.5056,5.33727,47.5477,24.2015,-1.7948,20.137,10.5758,2.3105,1.09332e-14,3.69739e-14,-36.3369,5.20494,-94.1248,42.7693,-36.3802,-9.62406,-50.8705,7.12502,16.3456,-80.2017,1.09332e-14,3.69739e-14,-28.436,-20.7437,82.5759,42.2161,72.5093,-38.3832,-12.8705,7.12502,-11.4088,16.7991,-50.3488,24.1221,-5.98164,73.6914,2.74833,10.2707,-42.052,-32.0197,-6.40312,-36.122,38.7232,-16.9689,11.0898,4.19529
3.01822,16.7241,-0.0510408,14.8409,4.54879,10.4369,-6.7434,1.85321,0.803355,-2.17441,2.60489,-7.39015,1.91326,1.32193,-7.9911,-2.47532,14.5425,5.36667,47.4488,24.3017,-1.94108,20.1089,10.6089,2.25009,-1.3418e-14,-1.86858e-14,-36.2398,5.31884,-94.1512,42.7473,-36.6902,-10.0616,-50.4687,7.12502,15.9244,-79.834,-1.3418e-14,-1.86858e-14,-28.2606,-20.666,82.5264,42.1512,72.5377,-37.8722,-12.9654,7.12502,-10.916,16.7308,-50.4583,24.1744,-5.94546,73.6651,2.85443,10.3252,-42.0183,-31.9758,-6.27562,-36.0676,38.5331,-16.816,11.0348,4.11275
3.02712,16.7278,-0.0454662,14.904,4.46935,10.5609,-6.88957,1.86456,0.724776,-2.16426,2.63232,-7.44314,2.0085,1.33794,-7.9968,-2.22494,14.547,5.57679,47.2765,24.4017,-2.28568,20.0667,10.6626,2.05451,2.70347e-14,-1.90833e-14,-36.2538,5.34342,-94.1531,42.8172,-36.6146,-10.0798,-50.6599,7.12502,15.9068,-80.0266,2.70347e-14,-1.90833e-14,-28.2835,-20.584,82.4986,42.1912,72.6266,-37.3246,-13.3826,7.12502,-10.3878,16.3408,-50.488,24.1334,-6.16411,73.65,3.30584,10.0145,-40.4385,-31.9661,-6.22347,-36.2557,38.4686,-16.8625,10.9343,4.17334
3.03155,16.7534,-0.0160683,14.1582,5.84677,11.1029,-6.4786,1.39143,0.472741,-1.73192,2.02843,-7.5113,2.13519,1.04413,-7.9851,-2.08702,14.5439,5.77569,47.1317,24.4761,-2.57626,20.0549,10.7027,1.89491,-1.68967e-14,1.19271e-14,-36.2922,5.48481,-94.2748,42.9074,-37.0206,-11.4403,-49.834,7.12502,14.5963,-79.3004,-1.68967e-14,1.19271e-14,-28.2254,-20.5916,82.4739,42.1155,72.626,-37.4393,-13.5885,7.12502,-10.4984,16.1293,-48.336,23.5496,-5.58476,73.5262,3.24348,9.22678,-39.2224,-30.5572,-7.04472,-36.6393,38.2922,-17.0332,10.5658,4.14988
3.03284,16.7336,-0.038862,14.9709,4.53852,10.6411,-7.02158,1.84388,0.701208,-2.11268,2.61589,-7.50704,2.13556,1.33362,-8.05091,-2.16167,14.5765,5.76839,47.0495,24.5424,-2.64454,20.0383,10.7183,1.88169,-3.16068e-14,2.62396e-14,-36.2699,5.71641,-94.4193,42.9594,-37.5588,-12.9152,-48.7446,7.12502,13.1749,-78.3083,-3.16068e-14,2.62396e-14,-28.0409,-20.5587,82.4246,41.9452,72.5879,-37.8436,-13.4153,7.12502,-10.8884,16.2824,-50.4223,24.0866,-6.25319,73.6008,3.85565,9.56843,-38.9056,-31.9281,-6.24051,-36.3498,38.3621,-16.9229,10.7907,4.15319
3.03261,16.7356,-0.0423473,15.0444,4.55692,10.5072,-7.11503,1.80073,0.74273,-2.07889,2.55747,-7.43012,2.2126,1.30589,-7.99454,-2.26622,14.6305,5.70959,47.0317,24.648,-2.68064,20.0606,10.7385,1.90416,2.08724e-14,-2.26615e-14,-36.1316,5.7569,-94.3424,42.8308,-37.0771,-11.4519,-49.7093,7.12502,14.5851,-79.1765,2.08724e-14,-2.26615e-14,-27.8666,-20.4603,82.3773,41.798,72.5828,-37.9511,-13.2637,7.12502,-10.9921,16.4285,-50.5615,24.1158,-6.14984,73.5807,3.91379,9.59947,-39.4155,-32.0483,-6.16521,-36.2003,38.3632,-16.9531,10.659,4.27077
3.03494,16.7356,-0.0444956,15.1018,4.5703,10.4572,-7.22873,1.79603,0.767785,-2.03447,2.55528,-7.41542,2.32246,1.3079,-7.99053,-2.46341,14.6453,5.65072,47.1063,24.6704,-2.61774,20.1385,10.7271,1.97164,-3.55328e-14,2.22639e-14,-36.0295,5.67406,-94.272,42.6784,-36.5002,-9.89548,-50.4717,7.12502,16.0843,-79.8241,-3.55328e-14,2.22639e-14,-27.6723,-20.5927,82.3553,41.5936,72.7208,-37.766,-13.4204,7.12502,-10.8136,16.2813,-50.6263,24.0998,-6.13014,73.5895,3.84396,9.64165,-39.8364,-32.1811,-6.14036,-36.1644,38.5177,-17.0552,10.625,4.2463
3.03724,16.7367,-0.0420068,15.075,4.64238,10.4508,-7.24013,1.80438,0.806324,-2.01347,2.56657,-7.4452,2.35543,1.31522,-8.04411,-2.60658,14.6302,5.61923,47.1611,24.6245,-2.52597,20.1792,10.7029,2.0272,-1.22253e-14,2.06736e-14,-36.0284,5.65182,-94.3187,42.6075,-36.5026,-11.4749,-48.111,7.12502,14.5629,-77.5798,-1.22253e-14,2.06736e-14,-27.6085,-20.9348,82.3692,41.4742,73.0004,-37.5768,-13.922,7.12502,-10.6311,15.7891,-50.5064,24.0961,-6.0777,73.5645,4.17003,9.18182,-38.4257,-32.108,-6.10574,-36.183,38.4753,-17.0244,10.6145,4.02905
3.04063,16.7398,-0.038096,15.0327,4.68888,10.5295,-7.21113,1.77912,0.741356,-2.01703,2.53704,-7.47078,2.32962,1.29957,-8.03773,-2.66458,14.6337,5.56208,47.2383,24.6202,-2.44037,20.2142,10.6943,2.08248,5.96354e-15,-2.10712e-14,-36.0825,5.70385,-94.3475,42.6125,-36.562,-10.3851,-49.4333,7.12502,15.6128,-78.8233,5.96354e-15,-2.10712e-14,-27.7191,-21.0795,82.3829,41.5667,73.1938,-37.5835,-14.1315,7.12502,-10.6376,15.5793,-50.371,24.1184,-6.12573,73.5439,4.09351,9.20563,-39.0223,-31.9846,-6.11168,-36.2858,38.4015,-16.9792,10.6441,3.98483
3.04446,16.744,-0.0393332,15.027,4.71408,10.6251,-7.13536,1.75942,0.677453,-2.05386,2.51126,-7.49725,2.24365,1.28397,-8.03379,-2.68425,14.6555,5.39938,47.3209,24.6159,-2.25935,20.1937,10.6853,2.18552,-6.30147e-14,8.46823e-14,-36.2336,5.86482,-94.4444,42.827,-37.1652,-12.1059,-48.4195,7.12502,13.955,-77.9311,-6.30147e-14,8.46823e-14,-27.8276,-21.0771,82.3999,41.634,73.257,-38.0327,-13.653,7.12502,-11.0708,16.0351,-50.3365,24.0992,-6.23057,73.536,3.74014,9.62776,-40.6695,-31.9205,-6.16113,-36.3959,38.3415,-16.9413,10.644,4.07055
3.04708,16.7446,-0.0413389,15.0208,4.75222,10.6722,-7.07421,1.75219,0.641581,-2.09605,2.49909,-7.48565,2.16172,1.27513,-8.00294,-2.49745,14.6582,5.28519,47.2312,24.6054,-2.24167,20.0496,10.6873,2.17255,-8.49804e-15,-9.93923e-15,-36.3761,5.94833,-94.4416,42.9766,-37.5545,-10.7056,-49.1486,7.12502,15.3041,-78.5624,-8.49804e-15,-9.93923e-15,-27.9341,-21.0451,82.4849,41.6046,73.1699,-38.3007,-13.3765,7.12502,-11.3293,16.2975,-50.2885,24.0509,-6.26669,73.5354,4.11365,9.22758,-39.0379,-31.878,-6.18376,-36.464,38.3392,-16.9813,10.6038,4.17646
3.04687,16.7407,-0.0424023,15.0289,4.76549,10.6639,-7.03136,1.73213,0.605361,-2.14328,2.46909,-7.45054,2.08116,1.25704,-7.94765,-2.33748,14.6607,5.23984,47.1372,24.6137,-2.29175,19.9455,10.6955,2.1301,-1.49089e-16,2.90226e-14,-36.406,5.90844,-94.3354,42.8531,-37.1733,-11.6931,-48.581,7.12502,14.3527,-78.0649,-1.49089e-16,2.90226e-14,-28.0409,-20.9396,82.5292,41.6179,72.9937,-38.1791,-13.1855,7.12502,-11.212,16.4949,-50.3031,24.0376,-6.25974,73.5584,4.48088,8.79633,-37.293,-31.9041,-6.17448,-36.465,38.4067,-17.0376,10.5945,4.24514
3.04529,16.7358,-0.0444392,15.0315,4.77953,10.5969,-6.94861,1.68669,0.624573,-2.1916,2.40004,-7.42793,1.97446,1.21896,-7.9431,-2.34544,14.7107,5.19632,47.1544,24.654,-2.19516,19.9266,10.7141,2.18514,5.26779e-15,2.74323e-14,-36.3519,5.95459,-94.3284,42.6577,-36.7888,-11.6789,-47.8718,7.12502,14.3664,-77.3546,5.26779e-15,2.74323e-14,-28.069,-20.7501,82.4506,41.6308,72.9298,-38.0205,-13.2243,7.12502,-11.059,16.4643,-50.3479,24.0895,-6.19243,73.5844,4.50742,8.72535,-37.2421,-31.9602,-6.19892,-36.3792,38.4581,-17.0125,10.6294,4.06292
3.04502,16.7337,-0.0442257,15.0205,4.82237,10.4795,-6.9216,1.64785,0.694728,-2.20754,2.33963,-7.3797,1.93477,1.18721,-7.93798,-2.31045,14.7415,5.16411,47.1684,24.6711,-2.12317,19.9018,10.7256,2.21861,-6.4605e-16,4.05521e-14,-36.3043,6.03239,-94.3238,42.5509,-36.6084,-11.4322,-47.6948,7.12502,14.6041,-77.1607,-6.4605e-16,4.05521e-14,-27.9961,-20.5608,82.3981,41.5165,72.9288,-37.9143,-13.4732,7.12502,-10.9566,16.2209,-50.3397,24.1481,-6.047,73.5815,4.46268,8.67128,-37.5228,-31.9413,-6.21867,-36.2447,38.3985,-16.9371,10.6857,3.50299
3.04873,16.7376,-0.0387626,14.9431,4.89675,10.6232,-6.89223,1.59743,0.562019,-2.16808,2.28289,-7.40224,1.94723,1.15935,-7.89056,-2.22714,14.7287,5.12189,47.2091,24.6372,-2.07011,19.8834,10.7154,2.23196,2.95692e-14,2.34566e-14,-36.3584,6.00069,-94.2992,42.5919,-36.5587,-11.2985,-48.1088,7.12502,14.7329,-77.5653,2.95692e-14,2.34566e-14,-27.9604,-20.5211,82.4161,41.3867,72.9057,-38.5369,-12.9344,7.12502,-11.5571,16.7269,-50.1287,24.0753,-6.11062,73.5837,4.41267,8.74355,-37.6436,-31.8014,-6.29626,-36.3829,38.3681,-16.9683,10.6238,3.75611
3.05299,16.7489,-0.0272647,14.5557,5.51746,10.9721,-6.62417,1.35456,0.35629,-1.96311,1.97484,-7.44795,1.96201,1.00792,-7.85175,-2.21787,14.7402,5.07918,47.2867,24.6605,-2.02458,19.9172,10.7187,2.26551,-5.01931e-15,-2.74323e-14,-36.4598,5.94549,-94.305,42.7226,-36.6165,-11.5303,-47.9865,7.12502,14.5096,-77.4591,-5.01931e-15,-2.74323e-14,-28.0263,-20.4994,82.4224,41.4097,72.8792,-39.2354,-12.4509,7.12502,-12.2306,17.1715,-49.1019,23.7614,-5.94029,73.5548,4.29981,8.54792,-37.079,-31.102,-6.70654,-36.6557,38.2859,-17.0588,10.39,4.3821
3.05256,16.7383,-0.0388311,14.9604,4.91542,10.6448,-6.95782,1.57009,0.541124,-2.1358,2.25159,-7.39564,2.01197,1.1453,-7.87266,-2.2183,14.7713,5.09228,47.3102,24.758,-2.10458,19.9678,10.7459,2.25098,1.18277e-14,-6.36111e-15,-36.4929,5.89559,-94.3004,42.8135,-36.6457,-11.9482,-47.2562,7.12502,14.1069,-76.7574,1.18277e-14,-6.36111e-15,-28.0702,-20.4212,82.409,41.4914,72.7901,-39.378,-12.3076,7.12502,-12.3681,17.3065,-50.0998,24.0211,-6.1331,73.6011,4.54363,8.5472,-36.6267,-31.7314,-6.28651,-36.4278,38.3177,-16.9971,10.5512,4.08978
3.05628,16.7398,-0.0402006,15.0464,5.05563,10.5435,-7.06275,1.56084,0.721401,-2.11731,2.23142,-7.38608,2.09318,1.13776,-7.96774,-2.17556,14.762,5.18529,47.3072,24.7786,-2.2038,20.0038,10.7576,2.19779,1.78906e-15,3.4191e-14,-36.4338,5.78291,-94.2885,42.7474,-36.5427,-11.7429,-47.2964,7.12502,14.3048,-76.7836,1.78906e-15,3.4191e-14,-28.0521,-20.4301,82.4014,41.5384,72.6612,-39.196,-12.3152,7.12502,-12.1926,17.3095,-50.1057,23.8881,-5.99507,73.5873,4.45558,8.49299,-36.7861,-31.8227,-6.33193,-36.3269,38.3446,-16.9719,10.5635,3.72912
3.05954,16.741,-0.0410908,15.0484,5.105,10.5699,-7.0147,1.58796,0.746673,-2.11585,2.26633,-7.4328,2.07578,1.15557,-8.03106,-2.17431,14.7001,5.19855,47.2941,24.6636,-2.1828,19.9813,10.7193,2.18211,1.85367e-14,-2.42517e-14,-36.3919,5.71084,-94.3204,42.6349,-36.5634,-11.2174,-47.8986,7.12502,14.8111,-77.3493,1.85367e-14,-2.42517e-14,-28.0522,-20.5411,82.4047,41.577,72.6337,-39.0846,-12.2023,7.12502,-12.0852,17.4287,-50.0615,23.8268,-6.00891,73.5779,4.40002,8.57148,-37.148,-31.8958,-6.38986,-36.3531,38.4759,-17.0397,10.5581,4.07357
3.06335,16.7412,-0.0406489,15.0413,5.08163,10.4968,-6.99352,1.63467,0.849408,-2.12359,2.32145,-7.4481,2.06853,1.18363,-8.1031,-2.18531,14.6467,5.05432,47.1708,24.5376,-2.12804,19.8401,10.6645,2.18712,-3.40916e-14,2.74323e-14,-36.3261,5.63238,-94.2918,42.5444,-36.2166,-10.1768,-48.7342,7.12502,15.8134,-78.1083,-3.40916e-14,2.74323e-14,-28.0919,-20.5941,82.3848,41.6602,72.7032,-39.13,-12.0126,7.12502,-12.129,17.6158,-50.0689,23.8605,-5.95612,73.5754,4.38649,8.62841,-37.378,-31.9182,-6.392,-36.2885,38.5169,-17.0786,10.5658,4.35857
3.06833,16.7401,-0.0390352,15.0308,4.9949,10.3881,-7.06826,1.6711,0.972342,-2.08083,2.36573,-7.42008,2.16501,1.20919,-8.13842,-2.17691,14.6408,4.93065,46.9835,24.5215,-2.18764,19.6947,10.6459,2.15499,-1.08835e-14,-3.06128e-14,-36.1762,5.645,-94.2187,42.4822,-35.878,-9.28197,-49.6564,7.12502,16.675,-78.9602,-1.08835e-14,-3.06128e-14,-28.0551,-20.5289,82.3731,41.6862,72.7677,-38.9501,-12.4038,7.12502,-11.9556,17.2347,-50.1125,23.9648,-5.89713,73.5634,4.42516,8.53391,-36.8086,-31.8716,-6.36184,-36.2048,38.4082,-17.0213,10.6408,4.05407
3.0619,16.7291,-0.0546642,15.1728,5.23392,10.7227,-6.92634,1.50584,0.531618,-2.15245,2.16551,-7.43144,1.96586,1.10107,-7.91513,-2.07249,14.6554,4.95777,46.9247,24.5986,-2.33678,19.6796,10.6721,2.08646,9.93923e-16,1.19271e-14,-36.2315,5.72972,-94.1818,42.5048,-35.8465,-9.19295,-49.7476,7.12502,16.7607,-79.0441,9.93923e-16,1.19271e-14,-28.156,-20.4535,82.4519,41.658,72.7292,-39.0732,-12.4231,7.12502,-12.0743,17.2085,-50.1953,23.5856,-6.18915,73.6687,4.32202,8.55643,-37.0817,-31.9779,-6.56907,-36.508,38.391,-16.8605,10.5851,3.41424
3.06705,16.7442,-0.0348969,14.6113,5.71531,11.1479,-6.45845,1.28534,0.176376,-1.99218,1.88629,-7.47776,1.82215,0.959838,-7.78949,-1.90487,14.677,5.07454,47.0572,24.6862,-2.39889,19.7794,10.7175,2.05511,-4.67144e-15,1.12115e-13,-36.4372,5.80339,-94.2051,42.4488,-35.7953,-9.21224,-49.0946,7.12502,16.7421,-78.3927,-4.67144e-15,1.12115e-13,-28.4834,-20.3487,82.5444,41.7631,72.6392,-39.3987,-12.0645,7.12502,-12.3881,17.5485,-48.9592,23.4865,-6.056,73.61,3.94603,8.40288,-37.621,-31.042,-6.80666,-36.9351,38.3273,-16.9732,10.5104,3.30505
3.06863,16.7388,-0.0480904,15.0559,5.09372,10.7052,-6.73895,1.50348,0.470711,-2.25652,2.15182,-7.39411,1.74737,1.08744,-7.84408,-1.91842,14.71,5.06911,47.201,24.7632,-2.36015,19.8808,10.74,2.10016,-1.47598e-14,1.55052e-14,-36.4495,5.93275,-94.2605,42.3076,-35.8472,-9.12886,-48.9473,7.12502,16.8224,-78.2386,-1.47598e-14,1.55052e-14,-28.6103,-20.2404,82.5523,41.848,72.6694,-39.4076,-11.9997,7.12502,-12.3967,17.6127,-50.0795,23.7844,-6.19193,73.6505,4.33137,8.49364,-37.0354,-31.8496,-6.43831,-36.5433,38.4203,-16.9594,10.5872,3.68182
3.0675,16.7339,-0.0561069,15.1711,5.12006,10.4605,-6.79289,1.50098,0.681643,-2.27412,2.13308,-7.31061,1.76072,1.07776,-7.8773,-2.08205,14.7325,4.95682,47.3111,24.8123,-2.28698,19.963,10.7321,2.1815,-6.55989e-15,4.69132e-14,-36.3501,5.99506,-94.2549,42.3288,-35.9205,-9.06945,-49.5121,7.12502,16.8796,-78.7985,-6.55989e-15,4.69132e-14,-28.5249,-20.2037,82.5198,41.8684,72.7305,-39.2647,-11.9414,7.12502,-12.2589,17.6793,-50.3316,23.7605,-6.00327,73.6692,4.43271,8.52906,-37.1385,-32.0978,-6.44801,-36.2571,38.4692,-16.9044,10.5834,3.69228
3.06617,16.7284,-0.0580527,15.182,5.12287,10.5602,-6.77925,1.50576,0.555917,-2.25074,2.14965,-7.34234,1.77661,1.08692,-7.83686,-2.29482,14.7508,4.91662,47.6745,24.8105,-1.99783,20.192,10.722,2.36627,5.76476e-15,-2.18663e-14,-36.3226,5.8646,-94.2057,42.403,-35.9293,-9.17406,-49.8148,7.12502,16.7789,-79.1098,5.76476e-15,-2.18663e-14,-28.5443,-20.2249,82.5106,41.9923,72.7353,-39.2126,-11.7447,7.12502,-12.2087,17.879,-50.3346,23.712,-6.08602,73.7124,4.23221,8.59499,-37.8076,-32.1688,-6.43439,-36.3737,38.6201,-16.9743,10.614,3.61264
3.06885,16.7325,-0.0570333,15.2294,5.12199,10.5992,-6.83886,1.52421,0.530846,-2.25325,2.17888,-7.36777,1.81146,1.10243,-7.84621,-2.7402,14.85,4.77564,48.3129,24.8902,-1.40519,20.5873,10.7305,2.76527,-3.926e-15,2.34566e-14,-36.2638,5.70752,-94.1495,42.356,-35.8594,-9.20464,-49.9832,7.12502,16.7494,-79.2807,-3.926e-15,2.34566e-14,-28.6167,-20.2241,82.5068,42.0879,72.7397,-39.4024,-11.5638,7.12502,-12.3917,18.049,-50.3403,23.7179,-6.1426,73.6947,4.20642,8.43155,-37.6586,-32.2186,-6.42128,-36.4302,38.6679,-17.0434,10.5899,3.70958
3.07385,16.7394,-0.0549105,15.2542,5.13451,10.4103,-6.84772,1.5258,0.735867,-2.26653,2.16552,-7.32033,1.80614,1.0954,-7.91562,-2.31044,14.7562,4.96147,47.6194,24.8035,-2.0139,20.1688,10.7266,2.35042,-1.53064e-14,6.44062e-14,-36.1436,5.73013,-94.139,42.2842,-35.8038,-10.0622,-49.3896,7.12502,15.9238,-78.755,-1.53064e-14,6.44062e-14,-28.6145,-20.1272,82.488,41.9819,72.6894,-39.4346,-12.0005,7.12502,-12.4227,17.6103,-50.3361,23.799,-5.96039,73.6443,4.16467,8.33787,-37.9063,-32.2581,-6.40154,-36.2341,38.6662,-17.0953,10.5154,3.9582
3.07745,16.7416,-0.0543748,15.2339,5.17216,10.2748,-6.78118,1.56762,0.91675,-2.32258,2.20544,-7.34847,1.72398,1.11319,-8.05033,-2.04934,14.6705,5.22869,47.3815,24.6555,-2.22031,20.0289,10.7171,2.15325,-1.13804e-14,-1.63003e-14,-36.2202,5.61572,-94.2158,42.1952,-35.7302,-11.1552,-48.1097,7.12502,14.871,-77.556,-1.13804e-14,-1.63003e-14,-28.7258,-20.2267,82.4874,41.8735,72.6464,-38.8841,-12.971,7.12502,-11.8919,16.6712,-50.2964,23.8377,-5.80539,73.6121,4.06276,8.42217,-38.6628,-32.2084,-6.41136,-36.0892,38.5931,-17.1108,10.4601,4.50935
3.07926,16.7425,-0.0556374,15.2354,5.16942,10.2825,-6.84422,1.61934,0.931091,-2.3313,2.27731,-7.40608,1.76351,1.15053,-8.11396,-1.86791,14.5973,5.46974,47.3337,24.5341,-2.31659,20.0134,10.7092,2.03736,-9.0944e-15,7.27552e-14,-36.3054,5.43645,-94.2486,42.1479,-35.6555,-11.2253,-47.7515,7.12502,14.8035,-77.2028,-9.0944e-15,7.27552e-14,-28.8184,-20.3411,82.4922,41.8866,72.5779,-38.671,-13.2443,7.12502,-11.6864,16.4097,-50.3583,23.8403,-5.84653,73.6178,4.17897,8.42625,-38.4148,-32.1537,-6.42884,-36.1023,38.4757,-17.0372,10.4591,4.94182
3.07824,16.748,-0.0501209,14.9532,5.49007,10.5936,-6.71953,1.46437,0.624103,-2.11698,2.09881,-7.43463,1.88114,1.06682,-7.98219,-1.86961,14.5948,5.48746,47.2389,24.5495,-2.42325,19.9803,10.71,1.98522,-2.88238e-15,3.26007e-14,-36.1875,5.46578,-94.2126,42.1622,-35.7142,-10.9216,-47.9691,7.12502,15.096,-77.3986,-2.88238e-15,3.26007e-14,-28.7332,-20.2382,82.4718,41.9115,72.5147,-39.2137,-12.7873,7.12502,-12.2097,16.8363,-49.7293,23.7027,-5.82062,73.6403,3.57643,8.74652,-40.3492,-31.6628,-6.61204,-36.3897,38.4079,-17.0204,10.3863,4.64025
3.07701,16.7482,-0.0464384,14.6886,5.80349,10.9242,-6.50066,1.36645,0.346653,-1.96966,1.98901,-7.51502,1.89023,1.01431,-7.91993,-1.82507,14.5332,5.55162,47.1848,24.4492,-2.471,19.9474,10.6819,1.92911,-2.18663e-15,2.14687e-14,-36.1664,5.52063,-94.2979,42.1433,-36.3523,-10.8125,-48.2731,7.12502,15.2011,-77.6947,-2.18663e-15,2.14687e-14,-28.7247,-20.3684,82.4939,41.9579,72.5463,-39.3768,-12.5409,7.12502,-12.367,17.0733,-49.0864,23.5216,-5.81029,73.6616,2.93347,9.04777,-42.1691,-31.2375,-6.79109,-36.7002,38.3717,-17.0122,10.3316,4.07624
3.08111,16.7345,-0.062099,15.1842,5.07088,10.5882,-6.86391,1.68292,0.611397,-2.23047,2.39434,-7.52908,1.88966,1.21453,-8.04865,-1.77947,14.4818,5.61642,47.2298,24.3472,-2.42491,19.9593,10.6585,1.92052,-7.05686e-15,-3.18055e-14,-36.2256,5.5754,-94.4182,42.152,-36.9616,-10.8353,-48.771,7.12502,15.1791,-78.1942,-7.05686e-15,-3.18055e-14,-28.7564,-20.5697,82.522,41.9738,72.5708,-39.037,-12.7429,7.12502,-12.0393,16.8908,-50.3195,23.7659,-6.13452,73.7313,3.4745,9.14064,-40.8465,-32.1475,-6.43376,-36.4374,38.4595,-16.9177,10.4863,4.25633
3.08053,16.7356,-0.0640502,15.2233,5.14103,10.3267,-6.92382,1.63806,0.802547,-2.21541,2.32094,-7.4272,1.93118,1.1784,-8.0549,-1.90188,14.5487,5.57684,47.2848,24.4422,-2.36498,20.0142,10.6834,1.98751,6.6245e-14,-1.51076e-14,-36.1993,5.72685,-94.4865,42.1919,-36.9733,-10.7011,-48.9931,7.12502,15.3084,-78.4066,6.6245e-14,-1.51076e-14,-28.6959,-20.4913,82.4637,41.9784,72.6091,-39.0581,-12.8459,7.12502,-12.0596,16.7866,-50.4104,23.8051,-5.8454,73.759,3.59667,8.97565,-40.4154,-32.3013,-6.42838,-36.1184,38.5425,-16.9711,10.3535,4.71377
3.07857,16.7321,-0.0654762,15.1699,5.20362,10.3792,-6.83874,1.55324,0.646299,-2.16757,2.2158,-7.37988,1.91053,1.12511,-7.92279,-1.96974,14.6073,5.51836,47.2297,24.5542,-2.41741,20.0046,10.7098,1.9965,4.8901e-14,3.45885e-14,-36.2074,5.99201,-94.5783,42.2641,-37.3183,-11.2419,-48.7476,7.12502,14.7875,-78.2,4.8901e-14,3.45885e-14,-28.6356,-20.3107,82.4457,42.0063,72.5756,-39.4248,-12.4738,7.12502,-12.4133,17.1376,-50.3466,23.7904,-5.82127,73.8249,3.43398,8.94615,-40.936,-32.2852,-6.39511,-36.1722,38.6429,-17.0575,10.265,4.90135
3.07885,16.7322,-0.0640759,15.1339,5.13254,10.5229,-6.81634,1.54203,0.405136,-2.13629,2.21774,-7.37967,1.92208,1.12621,-7.78145,-1.97059,14.6285,5.4641,47.1362,24.5967,-2.46916,19.9443,10.7186,1.98102,2.04251e-14,5.1684e-15,-36.185,6.2015,-94.6127,42.283,-37.771,-11.9191,-48.5387,7.12502,14.135,-78.0379,2.04251e-14,5.1684e-15,-28.5532,-20.2113,82.4812,41.9491,72.4694,-39.353,-12.3386,7.12502,-12.3441,17.277,-50.3317,23.8385,-5.97143,73.8453,3.53801,8.78803,-40.3651,-32.2386,-6.3351,-36.3533,38.6247,-17.0339,10.3255,4.76748
3.07991,16.7354,-0.0650982,15.1656,5.10298,10.5112,-6.81699,1.54848,0.373701,-2.11154,2.22962,-7.3676,1.94824,1.133,-7.74857,-2.18314,14.654,5.23816,47.105,24.57,-2.2825,19.8755,10.6869,2.10229,-1.13307e-14,2.90226e-14,-36.0828,6.2576,-94.5882,42.2785,-37.8893,-12.1769,-48.4686,7.12502,13.8865,-77.9849,-1.13307e-14,2.90226e-14,-28.3909,-20.2447,82.4834,41.862,72.4678,-39.126,-12.4779,7.12502,-12.1251,17.1507,-50.4106,23.8733,-5.98442,73.8382,4.11895,8.31061,-38.3201,-32.2909,-6.33049,-36.3462,38.6029,-16.9483,10.3799,4.62193
3.08121,16.7367,-0.0696754,15.2061,5.12162,10.4846,-6.75135,1.55292,0.411103,-2.09925,2.23158,-7.37101,1.92618,1.134,-7.77505,-2.43278,14.6668,4.97554,47.1085,24.5122,-2.03949,19.8162,10.6406,2.25244,2.73329e-15,-1.90833e-14,-36.0396,6.16724,-94.5592,42.3751,-37.8927,-12.4573,-48.3813,7.12502,13.6163,-77.916,2.73329e-15,-1.90833e-14,-28.2291,-20.36,82.4759,41.7917,72.5489,-39.083,-12.3739,7.12502,-12.0836,17.2572,-50.4568,23.8269,-5.96749,73.829,4.55864,7.80397,-36.1693,-32.333,-6.38646,-36.2925,38.5535,-16.9166,10.2532,5.13407
3.08199,16.7336,-0.0737968,15.2156,5.10013,10.5103,-6.69178,1.57453,0.393262,-2.09584,2.26048,-7.3925,1.9007,1.1483,-7.78644,-2.52006,14.6682,4.92763,47.1491,24.4959,-1.95885,19.8343,10.6294,2.30276,-3.50358e-14,7.31528e-14,-36.021,5.99999,-94.5123,42.4499,-37.7864,-12.5652,-48.1735,7.12502,13.5123,-77.7152,-3.50358e-14,7.31528e-14,-28.1418,-20.4256,82.4802,41.7104,72.6152,-38.9479,-12.3722,7.12502,-11.9534,17.2665,-50.4621,23.7818,-5.99744,73.8282,4.64254,7.51103,-35.0261,-32.289,-6.4021,-36.3048,38.4191,-16.8992,10.0988,5.60789
3.08393,16.7305,-0.0742969,15.1445,5.0966,10.7826,-6.58881,1.54656,0.126104,-2.07139,2.23976,-7.46048,1.85859,1.1372,-7.70816,-2.55001,14.6785,4.92093,47.257,24.5108,-1.88928,19.8998,10.6338,2.34892,2.16675e-14,-4.77083e-15,-36.0604,5.93882,-94.4758,42.5309,-37.7316,-12.5159,-48.2254,7.12502,13.5598,-77.7638,2.16675e-14,-4.77083e-15,-28.1659,-20.4174,82.5122,41.6738,72.6023,-38.9259,-12.5101,7.12502,-11.9322,17.1299,-50.322,23.7229,-6.22878,73.8735,4.61568,7.37515,-34.4593,-32.125,-6.4041,-36.6208,38.3709,-16.9033,10.0966,5.26535
3.08303,16.7433,-0.0609923,14.6643,5.74805,11.198,-6.21069,1.30482,-0.211159,-1.84384,1.93675,-7.51275,1.83374,0.987416,-7.59961,-2.58201,14.6781,4.92386,47.3607,24.5129,-1.83213,19.9677,10.6332,2.38646,2.52457e-14,3.97569e-16,-36.1606,5.93942,-94.4914,42.5976,-37.7583,-12.5237,-48.4558,7.12502,13.5523,-77.9947,2.52457e-14,3.97569e-16,-28.1892,-20.4862,82.5465,41.6784,72.595,-39.0175,-12.8186,7.12502,-12.0205,16.8162,-49.1509,23.483,-6.01216,73.8609,4.16281,7.23379,-35.2554,-31.2882,-6.71422,-36.9869,38.2853,-16.9618,9.9649,4.83507
3.0838,16.7303,-0.0732275,15.1312,5.13155,10.8422,-6.55456,1.55372,0.0371115,-2.08239,2.25373,-7.48226,1.82745,1.14348,-7.67945,-2.5908,14.6664,4.96701,47.423,24.5018,-1.82133,20.0201,10.6318,2.39122,-3.88127e-14,3.69739e-14,-36.2081,5.94007,-94.5393,42.5652,-37.7737,-12.8288,-48.155,7.12502,13.2582,-77.7133,-3.88127e-14,3.69739e-14,-28.1689,-20.5437,82.5495,41.6355,72.6567,-38.7478,-13.3331,7.12502,-11.7605,16.3167,-50.2657,23.694,-6.19702,73.9357,4.20435,7.4303,-35.5907,-32.0841,-6.37133,-36.6997,38.3332,-16.8341,10.1157,4.7599
3.08468,16.7302,-0.0729349,15.2389,5.18538,10.6531,-6.66703,1.5631,0.22789,-2.1363,2.25387,-7.43248,1.83928,1.14298,-7.73489,-2.50509,14.6428,4.99998,47.3828,24.4622,-1.85579,19.982,10.6256,2.35141,-2.16675e-14,1.47101e-14,-36.2132,5.9273,-94.5594,42.5211,-37.7146,-13.0525,-47.8087,7.12502,13.0426,-77.3809,-2.16675e-14,1.47101e-14,-28.1884,-20.5483,82.55,41.569,72.6763,-38.0999,-13.8575,7.12502,-11.1356,15.827,-50.3643,23.6788,-6.00958,73.9346,4.13761,7.28357,-35.4806,-32.2556,-6.40135,-36.4817,38.3627,-16.7867,10.1146,4.48962
3.08644,16.7325,-0.0729694,15.2465,5.13563,10.6651,-6.66343,1.60181,0.221672,-2.16747,2.30511,-7.46232,1.81285,1.16798,-7.75947,-2.30224,14.5835,5.10273,47.232,24.3752,-1.99411,19.8735,10.6137,2.22739,-1.33186e-14,-5.88403e-14,-36.2654,5.82986,-94.5578,42.5492,-37.7089,-13.1582,-47.6733,7.12502,12.9407,-77.252,-1.33186e-14,-5.88403e-14,-28.2619,-20.6609,82.5714,41.5714,72.7144,-37.5597,-14.3804,7.12502,-10.6146,15.3315,-50.3517,23.7487,-6.04041,73.9228,4.04159,7.19745,-35.6746,-32.3296,-6.36071,-36.5147,38.4947,-16.9125,10.1429,4.47795
3.08637,16.7337,-0.0759509,15.2569,5.13039,10.6615,-6.6141,1.6397,0.238551,-2.21488,2.35137,-7.50431,1.74472,1.18957,-7.81239,-2.34778,14.5865,5.14047,47.4152,24.3486,-1.82987,19.9769,10.6147,2.30968,1.98785e-15,5.68524e-14,-36.3856,5.68601,-94.5939,42.6263,-37.7952,-13.4034,-47.0891,7.12502,12.7043,-76.6826,1.98785e-15,5.68524e-14,-28.3126,-20.7917,82.5584,41.5406,72.8218,-36.9201,-14.746,7.12502,-9.99754,14.9965,-50.3661,23.834,-6.05538,73.9,4.03592,7.21114,-36.0535,-32.3768,-6.35263,-36.5092,38.5337,-16.9642,10.118,4.71906
3.08565,16.737,-0.0761497,15.2485,5.17896,10.5801,-6.5842,1.64865,0.328071,-2.22305,2.35618,-7.50611,1.72376,1.19166,-7.86694,-2.79009,14.6806,4.97875,47.9565,24.4246,-1.30323,20.3119,10.6201,2.67016,-1.52567e-14,2.46493e-14,-36.4479,5.56476,-94.6253,42.6748,-37.7849,-13.5683,-46.5529,7.12502,12.5453,-76.1563,-1.52567e-14,2.46493e-14,-28.3048,-20.808,82.5114,41.5287,72.8966,-36.8027,-14.5314,7.12502,-9.88431,15.2165,-50.335,23.9162,-5.9447,73.8819,4.04196,7.12679,-36.3361,-32.4056,-6.34859,-36.4074,38.5652,-16.9854,10.0495,5.03116
3.08638,16.7384,-0.0751714,15.2424,5.16022,10.509,-6.6109,1.67494,0.410361,-2.21694,2.38775,-7.50766,1.75276,1.20842,-7.91325,-2.99479,14.7172,4.9354,48.2049,24.4618,-1.09496,20.4846,10.6227,2.82104,-8.54774e-15,4.53229e-14,-36.4594,5.45095,-94.6181,42.7083,-37.7493,-13.6232,-46.5943,7.12502,12.4925,-76.2009,-8.54774e-15,4.53229e-14,-28.2917,-20.8094,82.486,41.5468,72.9609,-37.0622,-14.2748,7.12502,-10.1346,15.4611,-50.3235,23.9753,-5.86906,73.8772,4.06928,6.90539,-36.0713,-32.4065,-6.29414,-36.3409,38.5458,-16.998,9.99766,5.2789
3.08625,16.734,-0.0786396,15.2955,5.16015,10.4538,-6.63925,1.69661,0.473731,-2.24844,2.41223,-7.51499,1.74208,1.22015,-7.95583,-2.90937,14.687,5.02825,48.1686,24.4345,-1.18767,20.4793,10.6223,2.75227,2.9768e-14,-5.24792e-14,-36.4941,5.24942,-94.5323,42.6931,-37.2681,-12.4535,-47.5983,7.12502,13.6199,-77.1327,2.9768e-14,-5.24792e-14,-28.3085,-20.8698,82.4835,41.5335,72.9539,-36.3962,-14.74,7.12502,-9.4921,15.0262,-50.4189,23.9364,-5.84424,73.8952,4.13391,6.8493,-35.8583,-32.4509,-6.30048,-36.2753,38.4553,-16.8901,9.98998,5.18347
3.08425,16.7376,-0.0748309,15.0652,5.52183,10.7008,-6.42052,1.55634,0.263731,-2.13335,2.23718,-7.55308,1.70852,1.1333,-7.89359,-2.88829,14.6762,5.05339,48.1611,24.4354,-1.23394,20.487,10.6221,2.72667,-4.72114e-15,1.19271e-14,-36.4927,5.10767,-94.4453,42.6497,-36.7921,-11.0904,-48.75,7.12502,14.9334,-78.1917,-4.72114e-15,1.19271e-14,-28.3517,-20.8716,82.4819,41.5794,72.816,-35.8757,-14.9577,7.12502,-8.98989,14.8307,-49.8588,23.7402,-5.7802,73.9033,4.07297,6.80867,-35.8658,-32.0277,-6.51708,-36.4742,38.3938,-16.8939,9.90908,5.02732
3.08374,16.7463,-0.0680265,14.8065,5.83808,10.9607,-6.22911,1.45742,0.0446122,-2.01077,2.11963,-7.60991,1.70712,1.07623,-7.84017,-2.8208,14.6504,5.10721,48.1448,24.388,-1.24693,20.4684,10.6167,2.69651,-1.19271e-14,3.02153e-14,-36.538,4.92149,-94.3916,42.7011,-36.7407,-10.8507,-48.9289,7.12502,15.1643,-78.3533,-1.19271e-14,3.02153e-14,-28.4016,-20.9351,82.4953,41.6344,72.8173,-36.3424,-14.7565,7.12502,-9.44017,15.0121,-49.2498,23.6285,-5.74129,73.8812,3.95683,6.7225,-35.9051,-31.5533,-6.66359,-36.7141,38.3334,-16.9543,9.82511,4.64005
3.08598,16.7359,-0.0807713,15.2581,5.21112,10.637,-6.55401,1.71471,0.285329,-2.26761,2.44682,-7.60311,1.6757,1.23634,-7.94086,-2.71206,14.6292,5.16981,48.1308,24.3333,-1.23492,20.4344,10.6156,2.66967,-1.99282e-14,3.18055e-15,-36.6836,4.6938,-94.35,42.8304,-36.6491,-11.0005,-48.4575,7.12502,15.02,-77.8927,-1.99282e-14,3.18055e-15,-28.4878,-20.9969,82.5137,41.658,72.8885,-36.7187,-14.8774,7.12502,-9.80326,14.8744,-50.3264,23.8676,-5.99805,73.9105,3.62484,7.58904,-38.9839,-32.3104,-6.31265,-36.4696,38.3627,-16.8461,9.96906,4.39454
3.08714,16.7359,-0.0826066,15.3247,5.27844,10.5031,-6.60511,1.70266,0.445588,-2.29945,2.41958,-7.56713,1.67207,1.2219,-7.997,-2.71562,14.6384,5.15681,48.1449,24.3398,-1.20789,20.4358,10.6182,2.68556,2.13694e-14,-1.35174e-14,-36.7602,4.66336,-94.3724,42.9435,-36.7788,-12.5788,-46.6312,7.12502,13.4991,-76.1737,2.13694e-14,-1.35174e-14,-28.5344,-20.9474,82.5073,41.6897,72.8841,-36.4748,-15.0844,7.12502,-9.56797,14.6784,-50.4172,23.8156,-5.87785,73.9029,3.12463,8.23561,-41.4272,-32.4488,-6.35654,-36.3136,38.4447,-16.8359,9.97195,4.52486
3.08874,16.7405,-0.0840474,15.3328,5.26192,10.4997,-6.63912,1.70483,0.452479,-2.2704,2.425,-7.56317,1.72219,1.22615,-7.99514,-2.59127,14.6276,5.20273,47.9527,24.3434,-1.3783,20.3186,10.6263,2.57424,-4.2192e-14,5.32743e-14,-36.745,4.60105,-94.3222,43.026,-36.6938,-9.51216,-49.91,7.12502,16.4534,-79.2323,-4.2192e-14,5.32743e-14,-28.4868,-20.9392,82.4919,41.7265,72.94,-36.6846,-14.8957,7.12502,-9.77034,14.8577,-50.5804,23.8553,-5.95899,73.9125,3.64114,8.1241,-39.8804,-32.4961,-6.3376,-36.3267,38.574,-16.9174,10.0148,4.6237
3.08907,16.7339,-0.0869472,15.3535,5.21741,10.4353,-6.63673,1.72581,0.528,-2.2798,2.44733,-7.55146,1.71681,1.23717,-8.02465,-2.36725,14.6119,5.28039,47.7011,24.3406,-1.59533,20.1516,10.6417,2.4214,1.02374e-14,6.04305e-14,-36.7841,4.35138,-94.1826,43.2029,-36.1874,-11.8177,-47.5073,7.12502,14.2326,-76.9996,1.02374e-14,6.04305e-14,-28.4434,-20.9281,82.4869,41.7115,72.8982,-37.3247,-14.4623,7.12502,-10.3879,15.2611,-50.5599,23.8725,-5.89758,73.9044,3.13908,8.26405,-41.5794,-32.5753,-6.29656,-36.2753,38.6405,-16.9637,10.0365,4.54941
3.09079,16.7361,-0.0877142,15.3015,5.28599,10.415,-6.57249,1.72163,0.563968,-2.27437,2.43748,-7.54815,1.68648,1.23179,-8.04436,-2.25096,14.5601,5.28538,47.5645,24.2484,-1.66075,20.0338,10.616,2.34867,2.78299e-15,-5.56597e-14,-36.8071,3.8685,-93.9319,43.3476,-35.0871,-7.49389,-52.0962,7.12502,18.3958,-81.2464,2.78299e-15,-5.56597e-14,-28.4802,-20.9507,82.5088,41.7041,72.7675,-37.5402,-14.1254,7.12502,-10.5958,15.5875,-50.439,23.8623,-5.82348,73.8796,3.63196,7.6821,-39.4956,-32.5164,-6.3313,-36.2519,38.6485,-16.9791,10.0282,4.34381
3.09254,16.7361,-0.0848656,15.262,5.37497,10.4732,-6.56782,1.70669,0.506873,-2.26992,2.42173,-7.56498,1.68466,1.22397,-8.0308,-2.12298,14.514,5.3692,47.4907,24.1759,-1.7329,19.9785,10.6052,2.27318,-1.30701e-14,9.30312e-14,-36.9006,3.99143,-94.0962,43.2618,-35.8858,-9.79803,-50.2066,7.12502,16.1781,-79.5515,-1.30701e-14,9.30312e-14,-28.5992,-20.9987,82.5289,41.7604,72.7641,-37.7006,-13.9679,7.12502,-10.7505,15.737,-50.2675,23.79,-5.81717,73.8328,4.09834,7.1682,-37.0222,-32.3981,-6.39763,-36.3081,38.5825,-16.9473,10,4.21671
3.09547,16.7361,-0.0792749,15.286,5.37316,10.4576,-6.66473,1.72458,0.528855,-2.27914,2.44746,-7.56607,1.7338,1.23779,-8.0405,-2.43198,14.6021,5.28066,47.9722,24.2646,-1.31525,20.2829,10.6266,2.56028,-1.73937e-14,6.99722e-14,-36.8836,3.87398,-94.0221,43.1844,-35.5331,-7.57005,-52.6232,7.12502,18.3225,-81.7802,-1.73937e-14,6.99722e-14,-28.626,-20.9818,82.5232,41.7492,72.8348,-37.8449,-13.9984,7.12502,-10.8896,15.6992,-50.2224,23.7785,-5.81203,73.7938,4.10053,7.22119,-37.0408,-32.3815,-6.41325,-36.3008,38.5632,-16.9565,9.98694,4.33408
3.09599,16.7501,-0.0647782,14.8176,6.01698,10.6269,-6.44009,1.50044,0.451107,-1.99909,2.15973,-7.53391,1.8543,1.10016,-7.98762,-2.09711,14.5162,5.40516,47.5408,24.1934,-1.74549,20.0205,10.6141,2.26877,-1.89342e-14,-3.97569e-15,-36.7943,3.79449,-93.9091,43.1888,-35.1125,-6.13275,-53.9769,7.12502,19.7047,-82.9981,-1.89342e-14,-3.97569e-15,-28.4971,-20.9286,82.5069,41.6685,72.8789,-37.3082,-14.2523,7.12502,-10.3719,15.4719,-49.0938,23.5916,-5.3924,73.7081,3.91718,7.0055,-37.0656,-31.6034,-6.74735,-36.3924,38.4755,-17.0276,9.85478,4.33989
3.09779,16.739,-0.0788402,15.3072,5.37477,10.3853,-6.91635,1.7055,0.535288,-2.15942,2.43514,-7.48078,1.99375,1.23841,-7.94553,-2.07436,14.516,5.36959,47.5673,24.2066,-1.76055,20.0321,10.6111,2.26806,-2.48481e-14,2.62396e-14,-36.7231,4.02045,-93.9552,43.177,-35.5316,-7.35994,-52.7562,7.12502,18.5246,-81.8942,-2.48481e-14,2.62396e-14,-28.3952,-20.8099,82.5098,41.6023,72.8876,-36.5579,-14.6444,7.12502,-9.64814,15.1146,-50.2324,23.7681,-5.7707,73.7443,4.18389,7.25821,-36.9639,-32.3952,-6.43982,-36.2355,38.5163,-16.9068,10.072,4.28292
3.09813,16.7411,-0.0813592,15.347,5.37863,10.4125,-6.97662,1.68629,0.470727,-2.13998,2.41621,-7.45443,2.04121,1.22973,-7.87938,-1.92098,14.4584,5.3567,47.4126,24.1291,-1.88961,19.9076,10.5831,2.1674,-1.48592e-14,3.97569e-14,-36.6817,4.24944,-94.0213,43.1395,-36.056,-9.71443,-50.0213,7.12502,16.2586,-79.3596,-1.48592e-14,3.97569e-14,-28.3466,-20.7124,82.5241,41.5778,72.8998,-36.3192,-14.8539,7.12502,-9.41782,14.9157,-50.2896,23.7467,-5.83685,73.7165,4.28848,7.19259,-36.4241,-32.4182,-6.48921,-36.2524,38.4995,-16.9247,10.0751,4.55224
