JuanDHNZ/ProyectoFinalCD/preprocessing/sports_trials_csv/49_11.csv
root1,root2,root3,root4,root5,root6,lowerback1,lowerback2,lowerback3,upperback1,upperback2,upperback3,thorax1,thorax2,thorax3,lowerneck1,lowerneck2,lowerneck3,upperneck1,upperneck2,upperneck3,head1,head2,head3,rclavicle1,rclavicle2,rhumerus1,rhumerus2,rhumerus3,rradius1,rwrist1,rhand1,rhand2,rfingers1,rthumb1,rthumb2,lclavicle1,lclavicle2,lhumerus1,lhumerus2,lhumerus3,lradius1,lwrist1,lhand1,lhand2,lfingers1,lthumb1,lthumb2,rfemur1,rfemur2,rfemur3,rtibia1,rfoot1,rfoot2,rtoes1,lfemur1,lfemur2,lfemur3,ltibia1,lfoot1,lfoot2,ltoes1
-1.14994,17.5141,5.03017,-17.1228,-83.4069,37.5654,-12.0866,1.40062,5.54904,-13.834,0.572148,-0.577169,-7.97527,-0.65115,-3.6294,-6.24087,17.9261,12.9891,12.2114,22.4468,2.21675,5.87982,11.6445,0.57814,-2.78299e-15,1.90833e-14,7.71466,-25.2161,28.0173,114.607,-62.5794,-5.46939,-53.0753,7.12502,20.3424,-82.0299,-2.78299e-15,1.90833e-14,34.1644,36.3386,-6.0555,29.1505,38.7693,-25.0554,-21.0106,7.12502,1.45803,8.96421,-7.47588,13.3935,-10.3739,14.8501,-23.3226,-23.0775,45.7519,-11.3881,3.57337,-34.0401,-2.70347e-14,-9.76552,7.12743,21.649
-1.15072,17.5165,5.03128,-16.832,-83.4407,37.2031,-12.0223,1.43918,5.66762,-13.8747,0.624726,-0.434272,-8.05366,-0.631889,-3.5393,-5.91277,17.8521,12.4179,12.0345,22.4706,2.21576,5.7073,11.6362,0.591297,3.37934e-15,-9.54166e-15,8.07897,-25.378,28.2178,114.616,-62.8214,-6.03197,-52.8969,7.12502,19.8016,-81.9082,3.37934e-15,-9.54166e-15,34.2147,36.365,-5.64506,29.0254,38.4748,-25.2441,-21.0032,7.12502,1.2758,8.97273,-7.40875,13.4303,-10.2907,14.826,-22.7672,-23.6528,45.2031,-11.3083,3.61373,-33.9709,1.43125e-14,-9.81945,7.13392,22.1036
-1.15215,17.5185,5.03195,-16.8623,-83.4839,37.1781,-11.9972,1.54157,5.71455,-13.8408,0.761983,-0.49148,-8.01385,-0.566095,-3.62052,-5.99959,17.752,12.3713,12.0048,22.3362,2.16111,5.70701,11.5648,0.572923,-5.36719e-15,-5.56597e-15,7.86731,-25.4541,28.5363,114.589,-63.1095,-7.40642,-51.6723,7.12502,18.4799,-80.8145,-5.36719e-15,-5.56597e-15,34.6932,36.6094,-5.06962,28.9718,38.196,-25.3411,-20.7434,7.12502,1.18215,9.23311,-7.45501,13.5022,-10.2495,14.9766,-24.007,-22.6779,46.8066,-11.2523,3.67182,-33.9314,1.43125e-14,-9.75826,7.0756,21.6472
-1.15208,17.5208,5.03463,-16.4472,-83.4677,36.7587,-12.0134,1.58726,5.72842,-13.8099,0.822692,-0.529488,-7.96253,-0.53487,-3.66619,-6.18316,17.7048,12.4208,12.0726,22.2419,2.13892,5.7622,11.5193,0.573819,1.78906e-15,-5.56597e-15,7.57383,-25.4247,28.8165,114.454,-63.2673,-7.3734,-51.3552,7.12502,18.5117,-80.4944,1.78906e-15,-5.56597e-15,34.7523,36.6179,-5.03883,29.0002,38.429,-25.3037,-20.8223,7.12502,1.21827,9.15401,-7.49256,13.4639,-10.1942,15.1051,-26.4298,-20.4571,49.2399,-11.2515,3.64206,-33.8972,-1.27222e-14,-9.46047,7.10865,19.2992
-1.15179,17.5209,5.03452,-16.661,-83.4238,36.9965,-12.0392,1.60269,5.66792,-13.8213,0.844183,-0.536971,-7.95826,-0.519629,-3.63898,-6.21058,17.6779,12.3287,12.0924,22.2149,2.13007,5.76255,11.5029,0.581141,7.15625e-15,-1.82882e-14,7.4338,-25.3561,29.0014,114.359,-63.2861,-6.07589,-51.5511,7.12502,19.7594,-80.5668,7.15625e-15,-1.82882e-14,34.8564,36.6235,-4.90844,28.8856,38.4819,-25.1605,-21.5035,7.12502,1.35658,8.47194,-7.55763,13.3072,-10.2341,15.231,-26.9825,-19.817,49.9047,-11.2585,3.59527,-33.9671,-2.70347e-14,-9.24759,7.20572,17.2535
-1.15244,17.5207,5.03256,-16.9674,-83.449,37.2783,-12.0256,1.56082,5.72881,-13.8458,0.783811,-0.500512,-8.00161,-0.557051,-3.63685,-5.91472,17.7129,12.2835,11.9422,22.3353,1.97512,5.68491,11.55,0.518347,-1.78906e-15,7.95139e-15,7.68635,-25.4117,28.8558,114.337,-63.2885,-6.02478,-51.5482,7.12502,19.8085,-80.5588,-1.78906e-15,7.95139e-15,34.6066,36.5179,-5.15863,28.8169,38.5032,-25.0297,-21.9405,7.12502,1.48292,8.0341,-7.60809,13.2091,-10.2499,15.3277,-26.7861,-19.9321,49.9046,-11.2101,3.63245,-33.9944,4.13472e-14,-9.26865,7.25182,17.1843
-1.15178,17.5203,5.03355,-16.8951,-83.4759,37.1573,-12.0034,1.55135,5.81955,-13.829,0.767781,-0.511301,-7.99739,-0.572738,-3.70033,-5.83961,17.7476,12.4048,11.8945,22.3937,1.87382,5.68538,11.576,0.475208,6.55989e-15,-1.59028e-15,7.74622,-25.4442,28.7707,114.331,-63.2917,-6.42512,-51.4419,7.12502,19.4236,-80.4918,6.55989e-15,-1.59028e-15,34.4963,36.4676,-5.36892,28.8262,38.5165,-24.9326,-21.3824,7.12502,1.57671,8.5915,-7.61198,13.1729,-10.2157,15.3886,-26.9725,-19.6737,49.7986,-11.1498,3.6666,-33.9642,3.18055e-15,-9.29072,7.25826,17.4155
-1.14904,17.5212,5.03455,-16.11,-83.5112,36.3855,-12.0068,1.50915,5.9447,-13.8303,0.702521,-0.50427,-8.00639,-0.617457,-3.76612,-5.8834,17.8191,12.5606,11.9691,22.4528,1.95277,5.72733,11.6155,0.497201,1.98785e-16,3.18055e-15,7.73073,-25.4996,28.5282,114.368,-63.0554,-6.48694,-51.1021,7.12502,19.3642,-80.1579,1.98785e-16,3.18055e-15,34.1913,36.3008,-5.89406,28.9045,38.7116,-24.832,-20.2402,7.12502,1.6738,9.73303,-7.65442,13.1391,-10.098,15.4041,-27.2547,-19.2615,49.9344,-11.1841,3.67179,-33.8691,-3.49861e-14,-9.24798,7.28058,17.0417
-1.14817,17.5232,5.03401,-16.0024,-83.5571,36.3224,-12.0542,1.38341,5.96366,-13.85,0.526632,-0.46553,-8.0235,-0.709021,-3.74358,-5.82027,17.9473,12.5607,11.9844,22.5884,2.26264,5.692,11.7003,0.591128,1.98785e-15,-6.36111e-15,7.93565,-25.7209,28.0049,114.397,-62.6667,-6.11934,-50.9485,7.12502,19.7176,-79.9685,1.98785e-15,-6.36111e-15,33.4887,36.0104,-6.85138,29.0526,39.0949,-24.6336,-19.3248,7.12502,1.86541,10.6468,-7.73882,13.1219,-10.0765,15.4248,-27.3437,-19.1776,50.2548,-11.2423,3.70394,-33.8456,2.54444e-14,-9.29182,7.24919,17.2986
-1.1503,17.5227,5.03464,-17.5272,-83.5619,37.8366,-12.0756,1.34951,5.81783,-13.857,0.488143,-0.43856,-8.02142,-0.714628,-3.63473,-5.79233,17.9834,11.9905,11.9319,22.6348,2.78204,5.54723,11.7335,0.784121,-1.90833e-14,2.3059e-14,8.12678,-25.8511,27.9415,114.384,-62.7955,-6.3067,-50.1407,7.12502,19.5375,-79.179,-1.90833e-14,2.3059e-14,33.141,35.8946,-7.13228,29.1365,39.2112,-24.68,-19.9686,7.12502,1.82066,10.0034,-7.76886,13.1286,-10.271,15.481,-27.1199,-19.5256,50.0866,-11.2068,3.75915,-34.0112,2.38542e-14,-9.40117,7.20598,17.9528
-1.15116,17.5215,5.03396,-18.2937,-83.5772,38.5725,-12.0525,1.45247,5.74258,-13.8634,0.633901,-0.417627,-8.02397,-0.633009,-3.56269,-5.83064,17.8734,11.468,11.8893,22.5173,2.97527,5.45393,11.6695,0.874565,-3.37934e-15,4.77083e-15,8.06596,-25.723,28.4169,114.359,-63.3224,-7.20535,-50.0854,7.12502,18.6733,-79.2091,-3.37934e-15,4.77083e-15,33.5644,36.2361,-6.38343,29.1187,39.0455,-24.7032,-22.0703,7.12502,1.79817,7.90189,-7.78154,13.2033,-10.346,15.5362,-26.9421,-19.7442,49.6476,-11.1963,3.80512,-34.089,1.59028e-14,-9.38614,7.22964,17.8786
-1.15112,17.5209,5.03189,-18.2145,-83.6242,38.4718,-12.0361,1.49515,5.73648,-13.8676,0.69546,-0.352084,-8.03105,-0.597952,-3.48571,-5.77496,17.781,11.2911,11.8052,22.433,2.90008,5.40421,11.6169,0.85195,-1.13307e-14,2.38542e-15,8.0754,-25.7256,28.6246,114.419,-63.4448,-7.14744,-50.8241,7.12502,18.729,-79.9424,-1.13307e-14,2.38542e-15,33.9945,36.8042,-5.6395,29.0802,38.9566,-24.1581,-23.9648,7.12502,2.32463,6.00228,-7.80361,13.2988,-10.3038,15.5638,-26.9075,-19.687,49.4923,-11.2108,3.85104,-34.0603,1.27222e-14,-9.27932,7.24822,17.3914
-1.15004,17.5203,5.03562,-17.9622,-83.5921,38.2303,-12.0579,1.44497,5.80132,-13.8888,0.623477,-0.274041,-8.05242,-0.638337,-3.44141,-5.64303,17.8083,11.0502,11.7521,22.5059,2.98014,5.3323,11.6489,0.887252,7.95139e-15,-6.36111e-15,8.32354,-25.8416,28.509,114.425,-63.3161,-6.62868,-50.5095,7.12502,19.2279,-79.579,7.95139e-15,-6.36111e-15,33.8184,36.9516,-5.65224,29.0661,39.0102,-23.842,-24.2943,7.12502,2.62999,5.66921,-7.81063,13.1158,-10.3046,15.5751,-26.5286,-19.9526,49.5215,-11.215,3.80626,-34.0605,-1.43125e-14,-9.20966,7.25404,17.154
-1.14858,17.5219,5.03933,-17.8575,-83.584,38.1457,-12.0676,1.40004,5.84725,-13.9118,0.559303,-0.222283,-8.08136,-0.674867,-3.41435,-5.6541,17.9324,10.8769,11.8721,22.661,3.20516,5.33135,11.7344,0.98762,3.77691e-15,-7.95139e-16,8.57213,-25.8356,28.3843,114.253,-63.1587,-6.35928,-50.7997,7.12502,19.4869,-79.8431,3.77691e-15,-7.95139e-16,33.273,36.5986,-6.22081,29.1101,39.069,-24.2655,-22.9212,7.12502,2.22094,7.04701,-7.83988,12.9416,-10.3143,15.5854,-26.1097,-20.3808,49.3812,-11.226,3.7917,-34.0522,4.77083e-15,-9.27466,7.20537,17.7481
-1.15077,17.5229,5.03668,-19.4103,-83.6933,39.6375,-12.0076,1.3848,5.65192,-13.8927,0.558334,-0.187385,-8.08933,-0.654183,-3.26818,-5.73634,17.9911,10.9391,11.9948,22.7151,3.24854,5.3872,11.7675,1.01459,-7.55382e-15,-2.38542e-15,8.68951,-25.8339,28.3321,114.125,-63.0086,-6.25414,-52.0573,7.12502,19.588,-81.0905,-7.55382e-15,-2.38542e-15,32.8913,36.3637,-6.62304,29.174,39.0742,-24.5927,-22.6419,7.12502,1.9049,7.32931,-7.85566,13.0977,-10.4328,15.5933,-26.4419,-20.0125,49.7737,-11.139,3.96832,-34.1392,5.725e-14,-9.45919,7.11603,18.6589
-1.15267,17.5209,5.03513,-20.8802,-83.7341,41.0617,-11.986,1.31893,5.49019,-13.872,0.483109,-0.174424,-8.08261,-0.675186,-3.16795,-5.72048,18.0358,11.3442,12.1119,22.7697,2.95977,5.50407,11.7933,0.910482,1.39149e-14,-1.43125e-14,8.81079,-25.9007,28.0994,114.155,-62.8728,-6.1296,-52.6452,7.12502,19.7078,-81.6662,1.39149e-14,-1.43125e-14,32.8824,36.6929,-6.59407,29.2178,38.9035,-24.3364,-23.7913,7.12502,2.15246,6.17761,-7.84154,13.3268,-10.5643,15.5991,-27.0879,-19.2816,50.3819,-11.0712,4.06991,-34.2713,-1.27222e-14,-9.48529,7.15068,18.5837
-1.15206,17.5192,5.03603,-21.033,-83.686,41.2144,-12.0022,1.19604,5.49411,-13.8625,0.316142,-0.191569,-8.07993,-0.7605,-3.19683,-5.71262,18.1606,12.0115,12.357,22.9192,2.54743,5.71218,11.8691,0.767702,-1.19271e-15,-5.56597e-15,8.93888,-25.9965,27.6062,114.279,-62.5239,-6.14911,-52.2307,7.12502,19.689,-81.2536,-1.19271e-15,-5.56597e-15,32.8033,36.9782,-6.77347,29.2579,38.8175,-24.0702,-23.8045,7.12502,2.40959,6.16165,-7.80372,13.4194,-10.5978,15.5881,-27.285,-19.1439,50.5664,-11.0705,4.02639,-34.3269,4.77083e-15,-9.38765,7.17846,18.3588
-1.1513,17.5191,5.03709,-20.9897,-83.6483,41.1585,-11.9912,1.12032,5.52123,-13.8594,0.212725,-0.218869,-8.09381,-0.816912,-3.24634,-5.70178,18.2292,12.4735,12.4965,23.002,2.25271,5.84712,11.9103,0.662217,9.93923e-15,-2.54444e-14,8.99554,-26.0391,27.3211,114.443,-62.4389,-6.99332,-51.1608,7.12502,18.8773,-80.2648,9.93923e-15,-2.54444e-14,32.3545,36.649,-7.42025,29.2997,39.0935,-24.3183,-23.1488,7.12502,2.16994,6.81989,-7.73468,13.4845,-10.6033,15.5273,-27.3527,-19.195,50.6964,-11.0641,3.99406,-34.3306,-1.43125e-14,-9.38535,7.0693,18.8525
-1.14946,17.52,5.0389,-19.948,-83.6268,40.1612,-12.0352,1.12161,5.6766,-13.8768,0.198883,-0.233665,-8.09452,-0.840691,-3.3495,-5.72239,18.2309,12.5251,12.485,22.9952,2.25094,5.85253,11.9082,0.657566,-1.31198e-14,-3.18055e-15,8.98166,-25.9687,27.2847,114.549,-62.5422,-7.68834,-50.8555,7.12502,18.2087,-80.0232,-1.31198e-14,-3.18055e-15,32.1987,36.4694,-7.67462,29.3051,39.2917,-24.5691,-22.1344,7.12502,1.9277,7.83664,-7.69593,13.5709,-10.4795,15.4201,-27.764,-18.8408,50.948,-11.1386,3.9286,-34.2236,3.18055e-14,-9.36717,7.02384,19.1258
-1.14884,17.5204,5.03904,-18.88,-83.6232,39.1274,-12.0925,1.20278,5.79754,-13.8748,0.295591,-0.239364,-8.05271,-0.802205,-3.41859,-5.84832,18.1585,12.2675,12.4545,22.8964,2.34514,5.81766,11.8555,0.706574,1.55052e-14,-3.18055e-14,8.87281,-25.7851,27.4861,114.461,-62.4828,-7.84404,-50.3893,7.12502,18.0589,-79.5709,1.55052e-14,-3.18055e-14,32.8448,37.0285,-6.8813,29.271,39.1799,-24.2762,-21.8036,7.12502,2.2106,8.16471,-7.59255,13.7072,-10.3354,15.2083,-28.3492,-18.2565,51.6286,-11.1873,3.87865,-34.1181,2.22639e-14,-9.32104,7.1047,18.6988
-1.15091,17.521,5.03631,-18.6983,-83.6737,38.9277,-12.1119,1.32981,5.78026,-13.8585,0.467767,-0.225512,-8.00403,-0.710173,-3.3856,-5.90712,18.0004,12.0067,12.3233,22.726,2.21947,5.76267,11.7533,0.675839,3.37934e-15,1.51076e-14,8.75749,-25.58,27.9171,114.231,-62.4701,-7.95708,-48.8745,7.12502,17.9501,-78.0661,3.37934e-15,1.51076e-14,33.5196,37.5369,-5.90703,29.2533,38.9384,-24.1537,-23.3867,7.12502,2.32889,6.58037,-7.53437,13.9157,-10.2704,15.1113,-28.7348,-17.8865,52.0621,-11.1558,3.92445,-34.0709,4.77083e-15,-9.3721,7.14641,18.4941
-1.14971,17.5247,5.04004,-15.6731,-83.8559,35.7585,-11.9467,1.42034,6.21912,-13.8399,0.582326,-0.122637,-8.06904,-0.685778,-3.51508,-5.86372,17.9383,12.0106,12.2685,22.6786,2.01727,5.76039,11.7176,0.607788,0,-8.74653e-15,8.75321,-25.5091,28.1114,114.156,-62.4968,-7.9824,-47.553,7.12502,17.9258,-76.7469,0,-8.74653e-15,33.3385,37.2802,-5.99924,29.2419,38.9082,-24.3801,-22.9149,7.12502,2.11023,7.05444,-7.3612,14.1419,-9.78475,14.9539,-29.0808,-17.69,51.5922,-11.0226,4.03202,-33.6513,2.06736e-14,-9.40166,7.14028,18.3752
-1.15147,17.5059,5.05398,-23.3599,-83.8333,43.0706,-11.5731,1.42965,5.72966,-13.7276,0.657088,-0.345989,-8.13034,-0.606653,-3.48089,-5.83994,17.9744,12.1306,12.309,22.7271,1.94675,5.79367,11.742,0.582791,-5.36719e-15,4.77083e-15,8.74681,-25.5246,28.0607,114.253,-62.546,-8.02901,-47.0673,7.12502,17.8809,-76.2653,-5.36719e-15,4.77083e-15,32.6994,36.5963,-6.84923,29.2406,39.1762,-24.5116,-20.6068,7.12502,1.9833,9.36375,-7.04961,13.8111,-10.6219,14.9308,-27.8929,-18.6107,50.0639,-10.5249,4.33237,-34.5001,1.59028e-15,-9.43775,7.21514,17.3289
-1.14797,17.5237,5.0399,-14.9063,-83.8328,35.0087,-12.0081,1.40058,6.41192,-13.8315,0.535682,-0.17636,-8.03439,-0.729144,-3.68281,-5.84837,17.9764,12.0276,12.225,22.7184,2.09465,5.73834,11.7413,0.627198,3.18055e-15,-3.18055e-15,8.66103,-25.5852,28.0377,114.312,-62.4373,-7.58799,-48.6034,7.12502,18.3052,-77.7621,3.18055e-15,-3.18055e-15,32.8198,36.7677,-6.73322,29.1966,38.9468,-24.4679,-21.2217,7.12502,2.02544,8.74841,-7.3341,14.0537,-9.69477,14.8983,-28.6284,-18.3447,49.781,-11.0775,3.97738,-33.6112,2.06736e-14,-9.22283,7.18002,17.0359
-1.14917,17.5235,5.03264,-16.7015,-83.7018,36.9795,-12.2465,1.34922,6.15258,-13.8696,0.454918,-0.234335,-7.95092,-0.752136,-3.60341,-5.82572,17.9875,11.7328,12.1854,22.7372,2.33114,5.6613,11.754,0.716168,5.36719e-15,-3.97569e-15,8.69591,-25.7409,28.0138,114.375,-62.2169,-6.88634,-51.0759,7.12502,18.9801,-80.1699,5.36719e-15,-3.97569e-15,33.3615,37.5338,-5.93811,29.1801,38.3719,-24.0583,-22.4798,7.12502,2.42101,7.48622,-7.51405,13.9116,-9.99141,14.9869,-28.0522,-19.1364,49.5481,-11.2554,3.87812,-33.8431,-3.97569e-14,-9.3007,7.08437,17.9179
-1.14943,17.5251,5.03318,-16.752,-83.6943,37.0179,-12.2514,1.32907,6.22606,-13.8966,0.423257,-0.154167,-7.98429,-0.773633,-3.55949,-5.65011,18.006,11.2887,12.1069,22.8256,2.43615,5.54837,11.7884,0.772926,-1.07344e-14,1.59028e-15,8.81242,-25.921,27.9985,114.538,-62.1656,-6.9318,-51.1435,7.12502,18.9364,-80.2417,-1.07344e-14,1.59028e-15,33.2211,37.6061,-5.92649,29.2228,38.3507,-23.7902,-22.0453,7.12502,2.67998,7.9176,-7.53543,13.7186,-9.99592,15.0398,-27.5152,-19.8203,49.5856,-11.2317,3.87844,-33.8359,3.33958e-14,-9.37523,7.04213,18.7565
-1.14996,17.5226,5.03408,-17.8309,-83.7041,38.063,-12.2391,1.51837,6.11487,-13.8121,0.686231,-0.330183,-7.86147,-0.62987,-3.67368,-6.13801,17.8757,11.2393,12.2013,22.5744,2.53625,5.62971,11.6684,0.832905,-1.37161e-14,1.27222e-14,7.94874,-25.9059,28.5112,114.744,-62.2528,-7.06585,-50.3815,7.12502,18.8075,-79.4923,-1.37161e-14,1.27222e-14,33.9245,37.7403,-5.34559,29.084,38.4442,-23.8158,-21.9075,7.12502,2.65529,8.05567,-7.49466,13.6699,-10.1196,14.9959,-27.4488,-19.8479,49.9159,-11.1759,3.92887,-33.9445,-6.36111e-15,-9.48443,6.98898,19.5839
-1.15011,17.5131,5.0388,-22.2346,-83.6803,42.3753,-12.1522,1.39793,5.79371,-13.8192,0.551353,-0.318738,-7.92763,-0.670989,-3.48916,-5.84839,18.0341,11.0509,12.1587,22.8278,2.69744,5.53831,11.7964,0.888514,1.17283e-14,1.98785e-14,8.29711,-26.0398,28.0801,114.824,-62.1067,-6.49106,-51.1766,7.12502,19.3602,-80.2328,1.17283e-14,1.98785e-14,33.004,37.3531,-6.21,29.1547,38.9219,-23.9221,-22.3106,7.12502,2.55261,7.6539,-7.33881,13.6969,-10.6487,14.8013,-27.5015,-19.6745,49.7539,-11.0349,4.07982,-34.4412,1.90833e-14,-9.56654,6.96732,19.5715
-1.13974,17.5313,5.03617,-12.4008,-83.7643,32.5768,-12.0925,1.15554,6.80428,-13.9188,0.175114,0.0614762,-8.14005,-0.945377,-3.66217,-5.44585,18.2446,11.3037,12.1,23.1474,2.62373,5.50445,11.9578,0.833388,2.18663e-15,2.38542e-15,8.81267,-26.1471,27.3233,114.8,-61.7784,-5.51334,-52.1097,7.12502,20.3001,-81.0688,2.18663e-15,2.38542e-15,31.9317,36.9601,-7.39224,29.2888,39.2899,-24.0107,-22.6287,7.12502,2.46706,7.33675,-7.13485,14.2984,-9.40761,14.4574,-29.2385,-18.4107,50.5737,-11.2228,3.85221,-33.3017,5.56597e-14,-9.33918,7.05611,19.0055
-1.14436,17.5195,5.06074,-15.2301,-83.9988,34.9745,-11.7069,1.29515,6.95508,-13.7311,0.395122,-0.182661,-8.11514,-0.844068,-4.00169,-5.71084,18.1975,11.8153,12.1428,23.0138,2.42998,5.63738,11.8969,0.749793,-6.55989e-15,1.51076e-14,8.33549,-26.1099,27.3744,114.769,-61.6762,-4.9532,-52.5128,7.12502,20.8384,-81.4137,-6.55989e-15,1.51076e-14,32.4508,37.3062,-7.0621,29.2507,38.9814,-23.8675,-22.3215,7.12502,2.60534,7.6423,-6.62379,14.3004,-9.63604,14.1466,-28.637,-18.8048,50.8493,-11.2355,4.21298,-33.5764,1.06854,-10.0411,7.14916,19.2408
-1.14042,17.5262,5.06733,-9.75356,-84.0397,29.3866,-11.5994,1.24312,7.62564,-13.7451,0.306016,0.0731201,-8.21992,-0.940139,-4.10395,-5.39628,18.2273,11.6328,11.9435,23.1426,2.28225,5.52493,11.9435,0.696064,3.57812e-15,-2.14687e-14,8.61862,-26.198,27.2659,114.798,-61.8601,-5.49166,-52.361,7.12502,20.321,-81.3179,3.57812e-15,-2.14687e-14,32.1463,37.3795,-7.06411,29.2855,38.6861,-23.7353,-21.8558,7.12502,2.73298,8.10641,-6.31993,14.3653,-8.93545,13.802,-28.9024,-18.8808,50.5321,-12.4075,4.15926,-33.0036,3.36951,-11.1278,7.12559,19.7102
-1.14005,17.5263,5.06784,-10.0839,-84.0598,29.6982,-11.6091,1.20052,7.61248,-13.7437,0.251333,0.153857,-8.21922,-0.962181,-4.01187,-5.21271,18.2708,11.5411,11.7903,23.253,2.17766,5.45281,11.9869,0.659533,6.95746e-15,4.77083e-15,8.78056,-26.2809,27.1634,114.862,-61.9875,-6.39051,-50.7756,7.12502,19.4569,-79.8221,6.95746e-15,4.77083e-15,31.9105,37.4215,-7.09452,29.3042,38.5053,-23.8344,-21.9458,7.12502,2.6373,8.01769,-6.25299,14.2803,-8.94371,13.6694,-28.508,-19.5238,49.8141,-12.6661,4.18741,-33.0467,3.8829,-11.3623,7.17827,19.291
-1.1397,17.5282,5.06699,-10.7508,-84.0735,30.371,-11.6368,1.33411,7.5293,-13.717,0.426496,-0.0519473,-8.14814,-0.873024,-4.18032,-5.3878,18.1764,12.0797,11.7965,23.0606,2.02065,5.55579,11.9001,0.565897,-1.64991e-14,1.11319e-14,8.21271,-26.1868,27.452,114.837,-61.8001,-6.35927,-48.555,7.12502,19.487,-77.5985,-1.64991e-14,1.11319e-14,32.691,37.6659,-6.48502,29.2138,38.2694,-23.9195,-22.6451,7.12502,2.5551,7.31938,-6.24827,14.1307,-8.99961,13.6109,-27.8418,-20.3415,49.6474,-12.889,4.20792,-33.1379,4.31177,-11.5522,7.251,18.6743
-1.13987,17.5302,5.06849,-11.3824,-84.0823,30.9867,-11.6371,1.38688,7.49856,-13.6978,0.495926,-0.164226,-8.11596,-0.838769,-4.28149,-5.49406,18.1391,12.371,11.8236,22.9655,1.98096,5.61552,11.8605,0.530498,-5.76476e-15,3.26007e-14,8.02386,-26.2257,27.5102,114.85,-61.6128,-5.64905,-48.2764,7.12502,20.1697,-77.2493,-5.76476e-15,3.26007e-14,33.1975,37.8997,-6.06833,29.1,37.9771,-23.901,-23.3813,7.12502,2.57296,6.58295,-6.29564,13.9508,-9.05741,13.7153,-27.3541,-20.7018,49.6774,-12.7817,4.23267,-33.1936,4.19339,-11.5743,7.09883,19.1536
-1.13987,17.531,5.06884,-11.3329,-84.1134,30.9356,-11.6454,1.43092,7.53154,-13.7105,0.553254,-0.106585,-8.11875,-0.810923,-4.23476,-5.45703,18.0575,11.8902,11.7926,22.9042,2.07109,5.53153,11.8202,0.587394,-9.93923e-16,7.15625e-15,8.21271,-26.2694,27.547,114.916,-61.8222,-5.36588,-49.5685,7.12502,20.4418,-78.5124,-9.93923e-16,7.15625e-15,33.5561,38.1325,-5.51161,28.966,37.5128,-23.7919,-23.4628,7.12502,2.67831,6.50011,-6.37126,13.8822,-9.02934,13.8136,-27.0844,-20.8771,49.6507,-12.7326,4.26562,-33.1657,4.09869,-11.552,7.00014,19.7531
-1.13864,17.5291,5.06832,-11.0585,-84.1205,30.6925,-11.6814,1.83806,7.51656,-13.6609,1.08782,-0.465896,-7.96572,-0.549187,-4.58865,-6.18806,17.7052,12.3111,11.8937,22.2594,2.13188,5.69425,11.5199,0.573548,-8.34896e-15,-4.77083e-15,7.01247,-25.8261,28.5699,114.892,-62.377,-5.74255,-50.2851,7.12502,20.0798,-79.2675,-8.34896e-15,-4.77083e-15,35.7519,38.7393,-3.42032,28.6921,36.7701,-23.6508,-23.4832,7.12502,2.8146,6.47801,-6.49606,13.5896,-8.98353,13.9064,-26.6295,-21.2262,49.351,-12.7511,4.25883,-33.1471,4.03894,-11.4777,7.03813,19.5137
-1.13807,17.527,5.06983,-11.5042,-84.1185,31.1494,-11.7192,1.83126,7.49051,-13.6872,1.07518,-0.431716,-7.97676,-0.554305,-4.53715,-6.15913,17.7162,12.3436,11.9345,22.2767,2.1185,5.70876,11.5299,0.568427,6.75868e-15,0,7.12216,-25.8794,28.5463,114.907,-62.5444,-6.29073,-50.2976,7.12502,19.5529,-79.3344,6.75868e-15,0,35.6063,38.6469,-3.51775,28.7033,36.7143,-23.7085,-23.3581,7.12502,2.75887,6.60384,-6.61012,13.1125,-9.04026,14.0238,-25.4416,-22.2136,48.3119,-12.692,4.26095,-33.202,3.90014,-11.4092,7.04429,19.1872
-1.13885,17.5263,5.07109,-11.9836,-84.1474,31.6101,-11.7287,1.69824,7.49545,-13.716,0.892835,-0.404558,-8.0307,-0.650427,-4.51948,-5.89112,17.8518,12.717,11.9322,22.4734,1.98501,5.73133,11.632,0.49191,-9.34288e-15,2.70347e-14,7.32063,-26.0681,28.0291,115.069,-62.2465,-6.62104,-51.2838,7.12502,19.2353,-80.3525,-9.34288e-15,2.70347e-14,35.0013,38.372,-4.36719,28.7746,36.8402,-23.8439,-22.9333,7.12502,2.62808,7.03025,-6.68426,12.8854,-9.0838,14.1405,-23.9879,-23.4443,46.9107,-12.5931,4.29995,-33.2478,3.7481,-11.3174,7.11403,19.0176
-1.13944,17.5256,5.07199,-11.4078,-84.1885,31.0096,-11.7207,1.31813,7.60791,-13.7501,0.388689,0.0163819,-8.1466,-0.899885,-4.15143,-5.43758,18.2442,12.2062,11.9484,23.1008,2.22235,5.60474,11.9383,0.627469,-4.37326e-15,1.90833e-14,8.60427,-26.6011,27.0043,115.11,-61.9251,-6.43746,-53.3339,7.12502,19.4118,-82.3849,-4.37326e-15,1.90833e-14,32.691,37.6749,-6.52502,29.0531,37.5837,-24.0321,-22.7342,7.12502,2.44635,7.23147,-6.73822,12.7046,-9.00018,14.2395,-23.1468,-24.0288,45.9883,-12.5045,4.33103,-33.1794,3.62082,-11.2444,7.16354,18.8961
-1.13817,17.5266,5.07344,-10.2794,-84.1866,29.8636,-11.7458,1.46374,7.6428,-13.7052,0.583884,0.029628,-8.05498,-0.796608,-4.1482,-5.89159,18.1541,11.7261,12.3059,22.9217,2.55963,5.68954,11.8593,0.811899,4.57205e-15,6.36111e-15,8.16309,-26.5574,27.5595,115.142,-61.8912,-6.21552,-54.2601,7.12502,19.6252,-83.2895,4.57205e-15,6.36111e-15,33.0541,37.7428,-5.94765,29.0383,37.6089,-24.1981,-22.7623,7.12502,2.28608,7.20522,-6.76582,12.5048,-8.8663,14.3112,-22.0922,-24.7526,45.1836,-12.4502,4.31105,-33.0611,3.5429,-11.2086,7.15215,18.7604
-1.13434,17.5275,5.07324,-10.4122,-84.1468,29.9932,-11.7286,1.41254,7.60114,-13.7045,0.523929,0.125576,-8.07062,-0.817982,-4.02439,-5.89425,18.1814,11.4147,12.5725,23.0185,2.42678,5.7593,11.8928,0.832357,-8.94531e-15,3.10104e-14,8.35827,-26.6721,27.5545,115.016,-61.7541,-5.9335,-54.5484,7.12502,19.8963,-83.55,-8.94531e-15,3.10104e-14,32.6772,37.517,-6.16915,29.0284,37.5917,-24.6046,-22.5129,7.12502,1.89343,7.45847,-6.77307,12.4438,-8.88293,14.3305,-21.4893,-25.217,45.2499,-12.4933,4.27374,-33.0915,3.61763,-11.1738,7.18217,18.2837
-1.13214,17.5278,5.07282,-11.0034,-84.1452,30.584,-11.7287,1.64908,7.48874,-13.6388,0.838958,-0.266792,-7.94936,-0.659979,-4.37052,-6.50788,18.0156,12.3705,12.6232,22.5577,2.56719,5.94927,11.7068,0.796329,3.97569e-16,-9.54166e-15,7.2871,-26.3607,28.0633,115.023,-61.8476,-5.62404,-55.2942,7.12502,20.1937,-84.2646,3.97569e-16,-9.54166e-15,34.168,37.8489,-5.10288,28.8362,37.091,-24.8374,-22.1229,7.12502,1.66856,7.85029,-6.77537,12.3929,-8.97111,14.3009,-21.2767,-25.3813,45.2542,-12.611,4.28454,-33.1535,3.80979,-11.2481,7.18236,18.2835
-1.13347,17.5269,5.07545,-11.6478,-84.1875,31.2195,-11.7611,1.38367,7.49321,-13.6603,0.49025,0.118206,-8.00317,-0.820306,-3.97445,-6.14735,18.2636,11.4085,13.0055,23.0909,2.47094,5.93602,11.9358,0.905714,-1.59028e-14,-1.19271e-14,8.48153,-26.7442,27.3893,114.971,-61.8204,-5.44333,-55.0572,7.12502,20.3674,-84.0091,-1.59028e-14,-1.19271e-14,32.8599,37.871,-5.91908,28.9579,37.163,-24.5828,-21.4777,7.12502,1.9145,8.49343,-6.76253,12.362,-9.06495,14.2479,-20.5702,-25.8183,44.4032,-12.6997,4.33866,-33.217,3.99878,-11.4367,7.11839,19.0454
-1.13344,17.5274,5.07824,-11.9824,-84.2411,31.5473,-11.7931,1.59053,7.5141,-13.6245,0.753951,-0.176913,-7.90943,-0.69924,-4.29169,-6.36884,18.1252,11.997,13.0937,22.8135,2.34773,6.07277,11.8143,0.815728,-1.45113e-14,1.11319e-14,7.67041,-26.5551,27.7462,114.96,-61.5726,-5.02036,-54.3085,7.12502,20.7739,-83.2165,-1.45113e-14,1.11319e-14,34.3213,38.413,-4.73295,28.7847,36.7761,-24.2793,-21.051,7.12502,2.20766,8.91735,-6.74311,12.5008,-9.10601,14.184,-21.0028,-25.5108,44.8849,-12.7816,4.39925,-33.2383,4.18463,-11.622,6.99304,19.9303
-1.13225,17.5302,5.07888,-11.5023,-84.2885,31.0638,-11.7906,1.67373,7.69282,-13.5827,0.850995,-0.333606,-7.85249,-0.66973,-4.5563,-6.55635,18.1007,12.3206,13.143,22.7234,2.2607,6.16279,11.7757,0.773492,-7.95139e-15,1.90833e-14,7.3132,-26.5973,27.74,114.965,-61.3647,-4.73208,-54.2388,7.12502,21.0508,-83.1162,-7.95139e-15,1.90833e-14,34.9497,38.5728,-4.42364,28.6335,36.603,-24.2351,-20.8289,7.12502,2.25033,9.13898,-6.72796,12.7339,-9.04127,14.1381,-22.0865,-24.8453,45.6038,-12.8416,4.44132,-33.1611,4.29074,-11.6997,6.8836,20.2754
-1.12969,17.5278,5.08047,-11.43,-84.2611,31.0006,-11.8115,1.65105,7.76005,-13.6049,0.814392,-0.277283,-7.87331,-0.694081,-4.53459,-6.43163,18.2352,12.5764,12.7054,22.8375,2.58713,5.99587,11.853,0.81134,1.37161e-14,-2.62396e-14,7.44001,-26.6957,27.6745,115.002,-61.3863,-5.08045,-52.4523,7.12502,20.7161,-81.3665,1.37161e-14,-2.62396e-14,34.6866,38.4597,-4.57594,28.632,36.648,-24.1713,-20.9866,7.12502,2.3119,8.98065,-6.73753,12.6426,-9.03879,14.15,-21.8432,-25.0257,44.9712,-12.8456,4.40871,-33.1717,4.2552,-11.6261,6.91632,19.9176
-1.12569,17.5209,5.0841,-12.2629,-84.154,31.8585,-11.8564,1.59213,7.69697,-13.6271,0.736192,-0.199693,-7.88385,-0.72606,-4.41907,-6.14524,18.1208,11.9278,12.9571,22.8749,2.17921,6.00717,11.8303,0.752095,-4.57205e-15,-1.27222e-14,7.65103,-26.844,27.6571,115.031,-61.4925,-5.75925,-48.9649,7.12502,20.0638,-77.949,-4.57205e-15,-1.27222e-14,33.7942,37.9694,-5.27756,28.7618,37.0908,-24.2953,-20.6591,7.12502,2.19218,9.30942,-6.76782,12.4295,-9.18391,14.2293,-21.8342,-24.8883,44.9138,-12.7822,4.30962,-33.3117,4.0747,-11.4738,6.99279,19.5075
-1.12267,17.5152,5.08631,-13.2045,-84.0736,32.818,-11.9014,1.65253,7.6107,-13.5839,0.816226,-0.341226,-7.79575,-0.67887,-4.51973,-6.3326,18.0041,12.1701,13.069,22.7081,1.86744,6.13143,11.7383,0.651402,6.95746e-15,8.74653e-15,7.30509,-26.8491,27.9243,115.04,-61.6619,-6.02041,-47.3638,7.12502,19.8127,-76.374,6.95746e-15,8.74653e-15,33.8836,37.8408,-5.31307,28.7809,37.1949,-24.4449,-20.2791,7.12502,2.04767,9.6908,-6.81974,12.4044,-9.32581,14.3457,-22.5287,-24.3015,45.5897,-12.6304,4.23892,-33.4657,3.76163,-11.2631,7.10453,18.8684
-1.11895,17.5142,5.0869,-13.7832,-84.0662,33.4279,-11.9165,1.51532,7.67406,-13.6657,0.625004,-0.189734,-7.9101,-0.784551,-4.40046,-5.84812,18.2353,12.2475,12.3252,22.9999,2.37975,5.77325,11.9046,0.720474,4.17448e-15,-3.18055e-15,8.08276,-27.024,27.6381,114.849,-61.7654,-5.91064,-47.2597,7.12502,19.9183,-76.2589,4.17448e-15,-3.18055e-15,33.2524,37.8238,-5.74868,28.908,37.2403,-24.3162,-20.8045,7.12502,2.17194,9.16421,-6.92161,12.4207,-9.399,14.4424,-22.9913,-23.9747,45.8502,-12.5441,4.23362,-33.5493,3.52407,-11.1449,7.0872,19.0142
-1.11485,17.5174,5.08809,-13.6551,-84.0782,33.3277,-11.8914,1.56125,7.71694,-13.6474,0.684714,-0.278187,-7.89572,-0.76092,-4.51724,-6.08159,18.0809,11.4904,12.8412,22.8484,2.40906,5.88075,11.8147,0.838673,-7.35503e-15,1.82882e-14,7.98399,-27.0541,27.772,114.591,-61.8241,-5.75771,-47.0122,7.12502,20.0653,-75.9961,-7.35503e-15,1.82882e-14,33.6957,38.1135,-5.43654,28.9106,37.2212,-24.2143,-21.2226,7.12502,2.27043,8.74503,-6.97917,12.5327,-9.38359,14.4569,-23.3701,-23.846,45.8968,-12.6713,4.24164,-33.5208,3.66397,-11.3079,6.86555,20.413
-1.112,17.5211,5.0872,-12.26,-84.0884,31.8716,-11.8153,1.49423,7.83019,-13.653,0.600851,-0.156997,-7.95895,-0.808907,-4.45414,-6.0222,18.1333,11.0767,12.7964,22.9253,2.76076,5.77,11.8591,0.971483,4.96962e-15,0,8.22555,-27.1586,27.6012,114.537,-61.7868,-5.80093,-46.9821,7.12502,20.0237,-75.9704,4.96962e-15,0,33.2134,37.7993,-5.95331,28.9725,37.5241,-24.4376,-21.4271,7.12502,2.05474,8.54278,-6.89254,12.6222,-9.15203,14.3855,-22.8323,-24.533,45.0796,-12.8647,4.24024,-33.3433,4.06887,-11.5007,6.85877,20.5736
-1.11013,17.5243,5.08756,-10.8422,-84.0887,30.3306,-11.6977,1.36805,8.0234,-13.6618,0.43995,0.035923,-8.06211,-0.900721,-4.36149,-5.76309,18.3488,11.0579,12.1242,23.1587,3.41191,5.43982,11.9998,1.10093,1.55052e-14,7.15625e-15,8.69974,-27.3544,27.247,114.687,-61.7222,-6.05088,-47.2904,7.12502,19.7834,-76.3036,1.55052e-14,7.15625e-15,32.4889,37.4885,-6.57091,29.0722,37.7099,-24.5546,-21.5511,7.12502,1.94176,8.41984,-6.72774,12.6878,-8.90092,14.3048,-22.2513,-25.1504,44.1597,-12.9731,4.24722,-33.1463,4.44352,-11.652,6.89776,20.4314
-1.10756,17.5249,5.0909,-10.8863,-84.0735,30.3011,-11.6302,1.47132,8.14654,-13.5728,0.578056,-0.157132,-7.98104,-0.841735,-4.63405,-6.142,18.3108,11.3694,12.1612,23.0062,3.47076,5.53587,11.9377,1.11376,-1.59028e-15,3.18055e-15,8.2137,-27.3555,27.3866,114.822,-61.6891,-6.25194,-47.3515,7.12502,19.5901,-76.3844,-1.59028e-15,3.18055e-15,33.1781,37.7816,-6.04631,29.0027,37.5183,-24.4298,-21.8979,7.12502,2.06225,8.07183,-6.61959,12.8016,-8.89261,14.263,-22.9454,-24.6155,44.2763,-13.0561,4.25183,-33.1358,4.72162,-11.8292,6.79549,21.052
-1.10271,17.5224,5.09145,-10.8376,-84.0752,30.2558,-11.6273,1.36451,8.28465,-13.6393,0.427346,0.00621389,-8.08516,-0.931432,-4.54045,-5.67313,18.3967,10.8765,12.1439,23.2443,3.50357,5.40237,12.0418,1.14229,-4.96962e-15,-3.18055e-15,8.83272,-27.4753,26.9992,114.848,-61.6327,-6.51778,-47.0712,7.12502,19.3346,-76.13,-4.96962e-15,-3.18055e-15,32.3374,37.457,-6.676,29.1151,37.7558,-24.4675,-22.4135,7.12502,2.0259,7.55661,-6.66285,12.8452,-8.9078,14.314,-23.8129,-23.8299,45.0404,-13.0526,4.24449,-33.1576,4.65268,-11.7115,6.91777,20.3953
-1.09801,17.5203,5.09088,-10.576,-84.0589,29.9958,-11.5955,1.40735,8.23435,-13.6127,0.492296,-0.0482162,-8.0613,-0.893274,-4.56876,-5.90575,18.2398,10.6558,12.7188,23.077,3.15759,5.63511,11.942,1.11555,-1.25234e-14,4.77083e-15,8.51205,-27.4617,27.1921,114.851,-61.6262,-6.55467,-46.7145,7.12502,19.2991,-75.7768,-1.25234e-14,4.77083e-15,32.7028,37.6811,-6.28046,29.1123,37.5552,-24.3287,-22.7472,7.12502,2.15992,7.22161,-6.7671,12.9133,-8.87588,14.4887,-24.7564,-22.9837,46.7311,-12.7826,4.21542,-33.1531,4.1022,-11.3313,7.06156,19.4573
-1.0963,17.5167,5.08873,-12.9238,-83.9263,32.3883,-11.6621,1.23985,7.86421,-13.6322,0.285216,0.0384174,-8.06486,-0.961205,-4.27773,-5.75963,18.2959,10.5069,12.8587,23.2036,3.06718,5.65412,11.9961,1.11194,-1.0138e-14,-7.15625e-15,8.92013,-27.5835,26.8741,114.726,-61.5156,-6.17933,-46.4049,7.12502,19.66,-75.4308,-1.0138e-14,-7.15625e-15,32.204,37.636,-6.56906,29.1553,37.5016,-24.0306,-23.0466,7.12502,2.44781,6.91911,-6.88548,12.8466,-9.18733,14.7194,-24.9751,-22.716,47.394,-12.3862,4.12796,-33.4236,3.31437,-10.9595,6.94352,19.5067
-1.09424,17.5135,5.08715,-15.2742,-83.8377,34.8095,-11.7733,1.16153,7.47349,-13.6202,0.195113,0.0900603,-7.98896,-0.965395,-4.00869,-5.72226,18.3226,10.5983,12.7727,23.2448,2.9921,5.64138,12.0136,1.07803,-3.97569e-15,-2.38542e-15,9.11035,-27.6034,26.7191,114.665,-61.5831,-6.14154,-47.056,7.12502,19.6963,-76.0781,-3.97569e-15,-2.38542e-15,31.7838,37.4858,-6.88789,29.2066,37.7377,-24.0141,-23.1605,7.12502,2.46378,6.805,-7.09043,12.6272,-9.51438,14.9925,-23.8063,-23.6049,46.4717,-11.7245,4.09037,-33.6776,1.9584,-10.347,6.82007,19.7606
-1.09035,17.5134,5.08948,-15.6021,-83.8736,35.171,-11.8146,1.40246,7.37994,-13.5621,0.515383,-0.143036,-7.85505,-0.798745,-4.19317,-6.00987,18.1703,11.5652,12.3539,22.8894,2.91994,5.6615,11.8596,0.935519,-1.76918e-14,5.56597e-15,8.19526,-27.2944,27.3342,114.768,-62.0229,-6.93546,-48.6246,7.12502,18.9329,-77.7232,-1.76918e-14,5.56597e-15,32.666,37.5341,-6.28977,29.1367,37.9328,-24.0524,-23.0467,7.12502,2.42674,6.91929,-7.32994,12.5261,-9.56302,15.2975,-22.902,-24.1981,45.7013,-10.7169,4.12004,-33.6904,-4.77083e-15,-9.44161,6.81852,20.2359
-1.08839,17.5085,5.08767,-17.7337,-83.7708,37.4222,-11.9818,1.38112,7.11156,-13.5679,0.483981,-0.182786,-7.76695,-0.791652,-4.0872,-5.95672,18.1624,11.3076,12.5457,22.9392,2.78331,5.70317,11.8711,0.934787,-1.25234e-14,2.38542e-14,8.24724,-27.3738,27.3197,114.725,-62.0657,-7.01168,-50.2918,7.12502,18.8596,-79.3975,-1.25234e-14,2.38542e-14,32.3689,37.2633,-6.66777,29.1642,38.3008,-23.9723,-22.6668,7.12502,2.50409,7.29822,-7.55166,12.4589,-9.89087,15.5414,-23.2841,-23.7976,45.7241,-10.8442,4.05466,-34.0066,-4.13472e-14,-9.37989,6.92577,20.1042
-1.08732,17.5019,5.08685,-19.8568,-83.6718,39.6143,-12.1264,1.28604,6.90107,-13.5646,0.354381,-0.193287,-7.69481,-0.837912,-3.98764,-5.84375,18.2307,11.0388,12.6896,23.0674,2.86619,5.69491,11.9326,0.993029,-6.36111e-15,8.74653e-15,8.54703,-27.5511,27.0212,114.595,-61.828,-6.45827,-51.0309,7.12502,19.3918,-80.084,-6.36111e-15,8.74653e-15,32.0454,37.1872,-6.98878,29.1811,38.2648,-23.8772,-22.6158,7.12502,2.59597,7.34817,-7.69029,12.2868,-10.1959,15.7127,-23.2995,-23.7055,45.7931,-10.9025,4.01436,-34.3114,-4.77083e-15,-9.31735,7.01332,19.2711
-1.08604,17.4997,5.09172,-20.1164,-83.7211,39.8114,-12.1209,1.30693,7.04716,-13.5064,0.374641,-0.243951,-7.63238,-0.83724,-4.12365,-5.88905,18.1979,10.8924,12.7801,23.0271,2.91354,5.70741,11.9119,1.02568,2.18663e-15,1.11319e-14,8.57214,-27.5233,26.9246,114.507,-61.9851,-6.90224,-50.5892,7.12502,18.9648,-79.6847,2.18663e-15,1.11319e-14,32.1936,37.3694,-6.824,29.1444,37.9719,-23.7925,-22.6678,7.12502,2.67773,7.29512,-7.76091,12.1584,-10.1839,15.8863,-22.4966,-24.2365,45.5896,-10.8166,4.07652,-34.3322,1.90833e-14,-9.33296,7.01934,18.9869
-1.08477,17.5,5.09199,-20.5039,-83.7497,40.1799,-12.1256,1.41644,7.05129,-13.4659,0.52072,-0.321476,-7.56459,-0.762532,-4.2019,-6.07151,18.1645,10.6066,12.6241,22.9321,3.32034,5.60175,11.8767,1.15998,2.68359e-14,-2.70347e-14,8.29999,-27.4271,27.1946,114.405,-62.024,-6.53944,-52.3273,7.12502,19.3137,-81.3882,2.68359e-14,-2.70347e-14,32.6241,37.5016,-6.38094,29.0855,37.8839,-23.6966,-22.3046,7.12502,2.7704,7.65715,-7.8507,12.2607,-10.2057,16.0434,-22.7055,-24.0853,45.8595,-10.8068,4.12172,-34.3575,-4.29375e-14,-9.35844,6.97765,19.3734
-1.08041,17.5014,5.09099,-20.8453,-83.7018,40.5795,-12.148,1.43917,6.88771,-13.4829,0.561268,-0.272561,-7.56265,-0.726038,-4.05518,-6.17779,18.1674,10.3004,12.6035,22.9201,3.59712,5.54339,11.8764,1.27066,7.7526e-15,6.36111e-15,8.24827,-27.5007,27.4053,114.34,-61.7614,-5.53661,-54.2305,7.12502,20.2778,-83.192,7.7526e-15,6.36111e-15,32.905,37.6299,-5.93768,29.0193,37.6812,-23.6314,-22.2084,7.12502,2.83338,7.75255,-7.98268,12.3478,-10.2774,16.2012,-23.1993,-23.7443,45.6612,-10.899,4.08001,-34.4178,3.02153e-14,-9.37224,6.93503,19.636
-1.07338,17.5005,5.09125,-21.6805,-83.5846,41.5268,-12.1969,1.68817,6.6514,-13.4642,0.8945,-0.674285,-7.46676,-0.553119,-4.33576,-6.78107,17.9576,11.0064,12.9089,22.4665,3.54723,5.81269,11.6803,1.22701,-1.15295e-14,-1.59028e-15,7.07449,-27.173,28.0167,114.526,-61.7951,-5.59431,-52.5724,7.12502,20.2223,-81.5398,-1.15295e-14,-1.59028e-15,34.6965,38.1225,-4.47589,28.8568,37.1198,-23.651,-22.3787,7.12502,2.81439,7.58251,-8.15541,12.6378,-10.4813,16.3891,-24.2105,-22.989,45.9223,-11.048,3.97532,-34.6023,-2.8625e-14,-9.29653,7.00292,19.057
-1.06783,17.4959,5.08938,-23.8222,-83.4547,43.7936,-12.2897,1.37134,6.38877,-13.5319,0.484296,-0.348126,-7.54032,-0.72913,-3.8606,-6.3862,18.2383,10.4689,12.8985,22.9826,3.49445,5.70454,11.9106,1.27394,-3.37934e-15,-1.11319e-14,8.30226,-27.5594,27.2089,114.634,-61.777,-5.89374,-50.7821,7.12502,19.9345,-79.7796,-3.37934e-15,-1.11319e-14,32.9779,37.7246,-5.82547,29.0589,37.4791,-23.7023,-22.5002,7.12502,2.76487,7.46167,-8.30423,13.0165,-10.8852,16.5002,-25.8468,-21.5243,47.575,-11.1999,3.91714,-34.9357,-1.74931e-14,-9.20829,7.08625,18.5808
-1.06443,17.492,5.09269,-25.6159,-83.3936,45.6413,-12.349,1.64227,6.05833,-13.4492,0.855906,-0.778919,-7.36252,-0.523576,-4.11671,-6.96034,18.0076,11.4578,13.0991,22.5077,3.16121,6.00041,11.6941,1.11371,7.95139e-16,-2.14687e-14,7.0519,-27.2293,27.9031,114.618,-61.7476,-5.87833,-51.9172,7.12502,19.9493,-80.9132,7.95139e-16,-2.14687e-14,34.7744,38.3048,-4.36357,28.8944,36.9691,-23.5124,-22.8057,7.12502,2.94824,7.15362,-8.358,12.9024,-11.1904,16.4851,-25.952,-21.3003,48.0772,-11.2542,3.93375,-35.1736,-7.95139e-15,-9.26062,7.01774,19.1762
-1.06207,17.4919,5.102,-24.7741,-83.5022,44.6892,-12.2629,1.51918,6.3094,-13.4633,0.689073,-0.524562,-7.45034,-0.619821,-3.99465,-6.54063,18.1273,10.9962,12.9639,22.7664,3.32211,5.82581,11.8137,1.177,6.36111e-15,-7.95139e-15,7.77991,-27.3698,27.4953,114.36,-61.4455,-5.33009,-54.216,7.12502,20.4762,-83.1562,6.36111e-15,-7.95139e-15,33.9609,38.1383,-4.93191,28.9821,37.0249,-23.4065,-22.7194,7.12502,3.05056,7.23857,-8.22995,12.9808,-11.0345,16.3977,-26.0082,-21.3282,47.6831,-11.125,4.01352,-35.0122,-4.77083e-14,-9.38916,6.85247,20.2749
-1.0589,17.4935,5.10874,-22.9369,-83.668,42.6442,-12.0446,1.65561,6.64561,-13.3381,0.876264,-0.645028,-7.40871,-0.547792,-4.30413,-6.90906,18.0016,11.21,12.9462,22.5105,3.35155,5.89224,11.696,1.17411,-3.57812e-15,8.74653e-15,7.19728,-27.1923,27.6631,114.337,-61.4622,-4.84504,-54.4982,7.12502,20.9423,-83.3877,-3.57812e-15,8.74653e-15,34.7342,38.4262,-4.3834,28.9085,36.8088,-23.3796,-22.9404,7.12502,3.07651,7.01712,-7.9933,13.2984,-10.6848,16.2877,-26.2182,-21.2392,47.3088,-10.9003,4.12634,-34.7002,6.36111e-15,-9.4897,6.7439,20.8266
-1.05457,17.4945,5.11099,-23.2454,-83.739,42.8675,-11.9144,1.51319,6.72403,-13.3811,0.695903,-0.451333,-7.55458,-0.643143,-4.15038,-6.36284,18.0855,11.0197,12.6809,22.7432,3.24043,5.71788,11.7934,1.11417,7.95139e-16,-1.03368e-14,7.8483,-27.2292,27.1821,114.418,-61.6851,-5.18632,-52.1464,7.12502,20.6144,-81.0718,7.95139e-16,-1.03368e-14,33.6819,38.0024,-5.31758,29.0384,37.1552,-23.5141,-22.9206,7.12502,2.94662,7.03883,-7.92456,13.1075,-10.6746,16.2102,-25.1166,-22.1014,46.4639,-10.8163,4.223,-34.6808,-3.02153e-14,-9.56847,6.67147,21.2841
-1.05011,17.4895,5.11786,-26.2384,-83.7326,45.7214,-11.7055,1.74338,6.46536,-13.2885,1.03482,-0.820083,-7.5153,-0.458481,-4.38561,-6.84867,17.8852,11.6132,12.8841,22.3338,3.15871,5.92556,11.6114,1.05526,2.38542e-15,9.54166e-15,6.9219,-27.0038,27.656,114.496,-61.6633,-5.93665,-48.9658,7.12502,19.8933,-77.9677,2.38542e-15,9.54166e-15,34.9083,38.2757,-4.37877,28.9434,36.9987,-23.4876,-22.5676,7.12502,2.97219,7.39144,-7.9001,12.6522,-11.0167,16.2599,-23.4588,-23.177,45.3558,-10.644,4.37398,-34.9924,-1.11319e-14,-9.65038,6.62288,21.6046
-1.04434,17.4795,5.1299,-30.3016,-83.6916,49.4412,-11.2735,1.72754,6.26721,-13.2056,1.06998,-0.873631,-7.65283,-0.421278,-4.33516,-6.84138,17.9168,11.4621,12.9369,22.3826,3.25845,5.91434,11.6372,1.10459,-5.56597e-15,-3.97569e-15,7.09407,-27.0619,27.4894,114.608,-61.596,-7.13614,-48.1047,7.12502,18.7399,-77.222,-5.56597e-15,-3.97569e-15,34.4123,37.9029,-4.87858,28.9805,37.2696,-23.7174,-22.3179,7.12502,2.75026,7.64409,-7.77649,12.4183,-11.4083,16.4691,-21.8214,-24.1431,43.9764,-10.2345,4.60463,-35.4102,5.725e-14,-9.73239,6.65593,21.3364
-1.03702,17.4729,5.13794,-32.4312,-83.5688,51.4329,-11.0511,1.71158,6.07967,-13.1376,1.07986,-1.00318,-7.6949,-0.401214,-4.37148,-6.98563,17.9273,11.887,13.0333,22.3563,3.00767,6.04506,11.6244,1.01345,-3.18055e-15,-1.66979e-14,6.9474,-27.003,27.423,114.674,-61.7487,-8.6289,-47.2191,7.12502,17.3036,-76.4688,-3.18055e-15,-1.66979e-14,34.2698,37.6685,-5.2166,28.9914,37.3837,-24.066,-22.2319,7.12502,2.41358,7.73415,-7.79841,12.2656,-11.6831,16.7102,-21.1483,-24.4198,43.465,-10.083,4.64143,-35.7061,2.8625e-14,-9.70986,6.69853,20.8692
-1.03154,17.4694,5.13824,-33.5906,-83.4164,52.6463,-11.0837,1.43489,5.8606,-13.2579,0.720376,-0.698328,-7.85714,-0.561508,-3.93658,-6.11183,18.0836,11.6371,12.7799,22.7737,2.71975,5.8435,11.8012,0.900601,3.57812e-15,1.59028e-15,8.09045,-27.0463,26.7718,114.507,-61.7619,-6.7207,-51.8535,7.12502,19.1394,-80.9317,3.57812e-15,1.59028e-15,32.9648,37.3246,-6.15363,29.2064,37.7095,-24.0426,-23.1845,7.12502,2.43624,6.78133,-7.92565,12.0169,-11.9424,16.8964,-21.1683,-24.1423,44.2157,-10.1555,4.56792,-35.9499,3.33958e-14,-9.60975,6.69922,20.2003
-1.02969,17.4683,5.13553,-34.3403,-83.4355,53.3727,-11.0841,1.44082,5.67467,-13.2376,0.742515,-0.643549,-7.8288,-0.528564,-3.77277,-6.0649,18.0422,11.6275,12.7269,22.7413,2.61635,5.82884,11.7781,0.862009,-9.14409e-15,1.59028e-14,8.15036,-26.914,26.7738,114.499,-61.7566,-5.82913,-53.0575,7.12502,19.9966,-82.0486,-9.14409e-15,1.59028e-14,33.1521,37.5113,-5.84713,29.2356,37.6237,-24.1265,-24.881,7.12502,2.3552,5.08573,-8.01831,11.9714,-12.0015,17.0459,-21.1059,-24.0799,44.3626,-10.152,4.63352,-36.0159,-1.43125e-14,-9.59959,6.69603,20.2706
-1.0266,17.4679,5.13694,-34.0731,-83.5068,53.0655,-11.0672,1.44889,5.79013,-13.2089,0.751745,-0.611009,-7.80577,-0.529621,-3.80244,-5.97467,18.0265,11.5201,12.6173,22.7462,2.61477,5.76713,11.7751,0.856176,2.26615e-14,6.36111e-15,8.21344,-26.9863,26.7328,114.517,-61.6354,-5.45759,-53.4991,7.12502,20.3537,-82.4525,2.26615e-14,6.36111e-15,33.0536,37.4545,-5.94205,29.2381,37.5894,-24.2613,-24.718,7.12502,2.22497,5.25016,-8.08092,11.9837,-11.8729,17.1415,-20.5503,-24.5435,43.3776,-10.1338,4.6817,-35.9456,1.59028e-14,-9.63169,6.7293,20.6718
-1.02066,17.467,5.13823,-34.1799,-83.4692,53.1314,-11.006,1.43974,5.83414,-13.1865,0.744495,-0.611968,-7.81574,-0.535294,-3.82904,-5.92195,18.0117,11.2931,12.5145,22.7442,2.728,5.68617,11.7715,0.896034,8.34896e-15,5.56597e-15,8.23632,-27.0962,26.7117,114.508,-61.514,-4.90101,-53.8815,7.12502,20.8885,-82.7769,8.34896e-15,5.56597e-15,33.058,37.5338,-5.84127,29.2269,37.4041,-24.0796,-23.2905,7.12502,2.40044,6.67576,-8.04696,11.8905,-11.8658,17.1144,-19.5259,-25.249,42.1502,-10.0926,4.66452,-35.9803,-2.70347e-14,-9.6727,6.72372,20.7505
-1.01566,17.4692,5.13852,-33.7936,-83.486,52.7165,-10.9397,1.41335,5.8829,-13.1852,0.71529,-0.552678,-7.85529,-0.551535,-3.79448,-5.87181,18.0241,10.9943,12.469,22.768,2.97007,5.60166,11.7869,0.983823,-1.11319e-14,-3.97569e-15,8.34343,-27.1155,26.6195,114.722,-61.5537,-6.02192,-54.7193,7.12502,19.8113,-83.7296,-1.11319e-14,-3.97569e-15,32.9267,37.4365,-5.81572,29.1661,37.0763,-24.2105,-22.292,7.12502,2.27403,7.67558,-7.97469,11.8876,-11.8034,16.9973,-19.6087,-25.2574,42.3093,-10.0655,4.66084,-35.9247,4.13472e-14,-9.71732,6.67798,20.9581
-1.01283,17.4741,5.14145,-31.9718,-83.6639,50.8502,-10.8814,1.69651,6.11195,-13.0929,1.08505,-0.824289,-7.73932,-0.388252,-4.1993,-6.38156,17.8027,11.5481,12.5714,22.3293,2.93959,5.76805,11.5894,0.935605,9.34288e-15,1.66979e-14,7.22222,-26.7837,27.2295,115.071,-61.71,-9.23282,-55.4924,7.12502,16.7223,-84.7921,9.34288e-15,1.66979e-14,34.288,37.6259,-4.78103,28.9405,36.675,-24.2724,-21.7911,7.12502,2.2143,8.17713,-7.92504,12.0253,-11.492,16.9021,-19.9258,-25.1893,42.7182,-10.0473,4.70946,-35.63,1.27222e-14,-9.72011,6.69308,21.1559
-1.00852,17.4779,5.14373,-30.0475,-83.8041,48.8957,-10.842,1.71893,6.38106,-13.0751,1.11073,-0.709573,-7.74095,-0.391046,-4.22638,-6.31015,17.8101,11.381,12.5009,22.3724,2.93498,5.71697,11.6032,0.943176,-4.96962e-15,2.06736e-14,7.41303,-26.7214,27.301,115.034,-61.7338,-8.11737,-52.1991,7.12502,17.7959,-81.4048,-4.96962e-15,2.06736e-14,34.3211,37.7639,-4.6265,28.9483,36.7882,-23.7434,-21.7037,7.12502,2.7252,8.25866,-7.88352,12.3664,-11.246,16.8613,-20.9269,-24.6332,43.5373,-10.0568,4.72551,-35.3694,-2.06736e-14,-9.65307,6.74147,20.9398
-1.00107,17.4775,5.14484,-30.4236,-83.7266,49.3405,-10.8505,1.69879,6.30954,-13.087,1.08556,-0.725241,-7.75225,-0.399565,-4.20411,-6.30433,17.8329,11.2766,12.5089,22.4074,3.00157,5.70026,11.6208,0.97468,1.70955e-14,3.97569e-15,7.56272,-26.6896,27.3215,114.899,-61.7704,-7.63036,-50.8362,7.12502,18.2645,-79.9987,1.70955e-14,3.97569e-15,34.5559,38.0174,-4.35248,28.9437,36.6345,-23.4037,-21.8926,7.12502,3.05328,8.06525,-7.9224,12.4824,-11.404,16.853,-21.6529,-24.1757,44.0848,-10.158,4.66141,-35.4784,1.27222e-14,-9.56569,6.72903,20.4326
-0.994366,17.4749,5.1441,-32.4854,-83.5477,51.4596,-10.8442,1.65729,5.98541,-13.0987,1.04447,-0.788797,-7.77089,-0.396648,-4.09249,-6.25385,17.8246,11.2577,12.5066,22.4096,2.97206,5.69288,11.6196,0.963622,-1.17283e-14,-3.18055e-15,7.59425,-26.674,27.2927,114.828,-61.7935,-7.62513,-51.6421,7.12502,18.2695,-80.8041,-1.17283e-14,-3.18055e-15,34.4887,37.8797,-4.50858,28.9352,36.6136,-23.6129,-21.815,7.12502,2.8512,8.14574,-7.94384,12.1348,-11.7408,16.7716,-20.6625,-24.8318,43.368,-10.2247,4.61847,-35.7846,3.81667e-14,-9.571,6.63683,20.8426
-0.990135,17.4801,5.1387,-30.8937,-83.507,50.0034,-10.9741,1.59595,6.00509,-13.1358,0.951733,-0.687393,-7.75289,-0.442584,-3.99732,-6.22029,17.8573,11.0116,12.5531,22.4642,3.14014,5.65686,11.6491,1.03775,7.15625e-15,-1.59028e-14,7.72034,-26.6315,27.2317,114.635,-61.7954,-7.82609,-52.2939,7.12502,18.0762,-81.474,7.15625e-15,-1.59028e-14,34.1014,37.5985,-4.93143,28.9832,36.9414,-23.7201,-21.8076,7.12502,2.7477,8.15443,-8.15301,11.8559,-11.5818,16.9681,-19.6658,-25.4443,41.981,-10.4009,4.47229,-35.6383,-1.11319e-14,-9.58161,6.54804,21.8124
-0.986065,17.5017,5.13104,-19.9547,-83.7415,39.4035,-11.36,1.4969,7.04931,-13.2958,0.728615,-0.250744,-7.76611,-0.638969,-4.11906,-5.84736,17.9649,10.7116,12.5185,22.6747,3.29112,5.54105,11.7519,1.08859,-1.05356e-14,-1.27222e-14,8.08593,-26.5933,26.8768,114.511,-61.75,-7.54119,-52.9533,7.12502,18.3503,-82.1077,-1.05356e-14,-1.27222e-14,33.0004,36.8448,-6.05257,29.0892,37.5756,-23.9281,-22.1099,7.12502,2.54681,7.85465,-8.50623,11.9686,-10.2332,17.1516,-20.2144,-25.4988,41.3676,-10.8941,4.11012,-34.3993,-1.74931e-14,-9.40134,6.61003,21.6986
-0.981968,17.4764,5.13964,-32.2778,-83.425,51.3682,-10.9178,1.47942,5.86146,-13.1981,0.806475,-0.597686,-7.87143,-0.506379,-3.82706,-5.69004,17.9537,10.864,12.4583,22.6895,3.1042,5.5366,11.7529,1.00598,-2.78299e-15,1.98785e-14,7.99116,-26.5025,26.7436,114.454,-61.574,-6.38164,-53.8197,7.12502,19.4654,-82.8654,-2.78299e-15,1.98785e-14,32.5505,36.3333,-6.56434,29.0899,37.6617,-24.2402,-21.8008,7.12502,2.24541,8.16708,-8.37735,11.572,-11.7862,17.3052,-16.9994,-26.8281,39.0225,-10.4128,4.47794,-35.8664,5.40694e-14,-9.51735,6.70435,21.3592
-0.978213,17.4684,5.14472,-35.1971,-83.3438,54.1168,-10.7157,1.46253,5.60803,-13.1248,0.816773,-0.67138,-7.89603,-0.47684,-3.76577,-5.73726,17.989,10.8617,12.5258,22.7329,3.0922,5.56819,11.7741,1.01617,2.24627e-14,1.74931e-14,8.13795,-26.5135,26.6587,114.31,-61.393,-5.4125,-54.1494,7.12502,20.397,-83.0981,2.24627e-14,1.74931e-14,32.4832,36.4491,-6.45894,29.1219,37.4596,-24.1307,-22.5273,7.12502,2.35117,7.43945,-8.28952,11.6741,-12.1521,17.3552,-17.5195,-26.3545,40.945,-10.212,4.62008,-36.2201,-2.06736e-14,-9.56396,6.72157,21.4316
-0.972954,17.4661,5.1497,-35.2168,-83.3561,54.1037,-10.6775,1.38201,5.66527,-13.1063,0.712841,-0.607658,-7.90888,-0.529832,-3.73405,-5.67252,18.0762,10.6911,12.5873,22.8575,3.24008,5.54434,11.8392,1.08149,-3.18055e-15,7.95139e-16,8.66945,-26.6273,26.237,114.341,-61.4039,-5.10212,-54.4063,7.12502,20.6953,-83.3229,-3.18055e-15,7.95139e-16,32.1702,36.5709,-6.66143,29.2917,37.7974,-23.8601,-24.2772,7.12502,2.6125,5.68657,-8.32215,11.7121,-12.1679,17.4523,-18.1348,-25.8887,41.8507,-10.1794,4.62891,-36.2473,-5.08889e-14,-9.54251,6.80993,21.0145
-0.967087,17.4719,5.1541,-32.3656,-83.4705,51.3892,-10.803,1.32707,6.13613,-13.1403,0.604539,-0.510735,-7.89722,-0.624238,-3.89707,-5.51111,18.1352,10.401,12.4258,22.9688,3.40862,5.41661,11.891,1.13739,1.78906e-15,1.82882e-14,9.03284,-26.7147,25.6873,114.546,-61.6393,-5.88609,-53.2462,7.12502,19.9419,-82.243,1.78906e-15,1.82882e-14,31.8699,36.6262,-6.97439,29.4143,38.0313,-23.702,-24.4489,7.12502,2.76511,5.51297,-8.33647,11.733,-11.8422,17.2541,-18.93,-25.6735,42.0556,-10.3583,4.51734,-35.9101,0,-9.51762,6.77093,21.2608
-0.962163,17.4871,5.1488,-26.2,-83.6335,45.5789,-11.1712,1.16768,6.72669,-13.2379,0.331191,-0.128706,-7.84776,-0.802765,-3.82664,-5.36357,18.2935,9.85705,12.3226,23.2405,3.59326,5.28179,12.0146,1.23962,0,-1.90833e-14,9.69645,-26.8858,25.1607,114.536,-61.7814,-7.40107,-50.338,7.12502,18.4851,-79.4797,0,-1.90833e-14,31.0447,36.568,-7.53838,29.4829,38.1413,-23.6075,-24.114,7.12502,2.85644,5.84657,-8.47686,11.9469,-11.1305,16.9525,-20.7246,-25.0843,43.2367,-10.8223,4.26211,-35.2077,0,-9.41577,6.68266,21.6609
-0.959279,17.4978,5.14398,-22.107,-83.7527,41.6739,-11.3724,1.19822,7.10419,-13.3257,0.326797,-0.0301007,-7.84597,-0.841583,-3.93044,-5.05581,18.2648,10.0502,12.1619,23.2417,3.4219,5.22514,12.0103,1.13504,5.96354e-16,-3.97569e-15,9.75123,-26.7663,25.0807,114.519,-61.7263,-7.94911,-48.8756,7.12502,17.9578,-78.0665,5.96354e-16,-3.97569e-15,31.0002,36.3889,-7.66191,29.493,38.3881,-23.6831,-24.9476,7.12502,2.78346,5.01396,-8.49513,12.2235,-10.6545,16.6508,-22.5061,-24.09,45.2419,-11.0858,4.15484,-34.7363,-9.54166e-15,-9.29073,6.62021,21.1504
-0.957482,17.5015,5.14619,-20.2498,-83.8369,39.7995,-11.3841,1.29918,7.25553,-13.2421,0.456738,-0.0686986,-7.73093,-0.781015,-4.05191,-5.26342,18.1718,10.6322,12.1633,23.0983,2.90266,5.38381,11.9287,0.951135,8.74653e-15,-3.97569e-15,9.37572,-26.7147,25.2784,114.47,-61.5735,-7.63856,-49.204,7.12502,18.2566,-78.3672,8.74653e-15,-3.97569e-15,31.3519,36.4964,-7.46234,29.4539,38.5277,-23.6898,-26.1217,7.12502,2.77698,3.84001,-8.40071,12.5097,-10.4239,16.4899,-23.7288,-23.2327,46.0011,-11.0946,4.16495,-34.5035,3.49861e-14,-9.25043,6.54365,21.2318
-0.954356,17.5015,5.14858,-19.5962,-83.8249,39.1631,-11.4207,1.16366,7.2916,-13.276,0.274867,0.157704,-7.77262,-0.868441,-3.83652,-4.93413,18.2803,10.644,12.2394,23.3329,2.58134,5.4035,12.0286,0.858819,-8.15017e-15,-9.54166e-15,10.0126,-26.7119,25.0453,114.195,-61.4237,-6.95549,-50.6204,7.12502,18.9136,-79.7208,-8.15017e-15,-9.54166e-15,30.544,36.2405,-8.03619,29.5372,38.7325,-23.5875,-26.3391,7.12502,2.8757,3.62123,-8.46065,12.4111,-10.3521,16.5646,-23.5785,-23.444,44.9854,-11.1392,4.12446,-34.4521,3.02153e-14,-9.25429,6.57265,21.6597
-0.949982,17.4926,5.15735,-23.1828,-83.7689,42.5833,-11.2104,1.0359,6.98907,-13.2597,0.147137,0.220742,-7.8779,-0.903309,-3.60541,-4.8429,18.4116,10.5795,12.5346,23.5286,2.58825,5.48167,12.1279,0.895376,1.03368e-14,4.77083e-15,10.6,-26.7744,24.7139,114.063,-61.251,-5.81834,-52.9684,7.12502,20.007,-81.9584,1.03368e-14,4.77083e-15,30.0079,36.136,-8.36515,29.5503,38.6894,-23.5832,-26.1521,7.12502,2.87991,3.80816,-8.49822,11.9467,-10.7394,16.8116,-21.018,-25.1527,43.0904,-10.9425,4.23596,-34.8656,-2.54444e-14,-9.31975,6.60409,21.3472
-0.945374,17.4772,5.16777,-30.3838,-83.5851,49.4368,-10.7914,0.959219,6.32555,-13.1732,0.124348,0.0963565,-7.99836,-0.856229,-3.36988,-4.76865,18.4706,10.5751,12.6429,23.6234,2.55333,5.51151,12.1742,0.895212,1.64991e-14,-7.95139e-15,10.9133,-26.9407,24.2412,114.339,-61.0876,-5.55715,-53.5115,7.12502,20.258,-82.4751,1.64991e-14,-7.95139e-15,29.8856,36.2178,-8.31257,29.4976,38.4597,-23.4952,-26.006,7.12502,2.96488,3.95312,-8.34543,11.725,-11.5509,16.975,-17.0581,-27.2885,39.7653,-10.5159,4.48321,-35.6957,-1.43125e-14,-9.38224,6.67747,20.6688
-0.943828,17.4763,5.15963,-32.433,-83.4065,51.5346,-10.8615,0.895412,5.85948,-13.1809,0.0566009,0.0835714,-7.96378,-0.849501,-3.12625,-4.65934,18.4756,10.5475,12.6091,23.6543,2.50062,5.48763,12.1855,0.87338,1.15295e-14,-1.59028e-15,11.0063,-26.9947,23.928,114.683,-61.1234,-6.48446,-51.7476,7.12502,19.3666,-80.8032,1.15295e-14,-1.59028e-15,29.8574,36.2592,-8.24336,29.5277,38.408,-23.4398,-25.6422,7.12502,3.01834,4.31623,-8.56351,11.8315,-11.8482,17.33,-16.7677,-27.4498,38.8558,-10.5622,4.44305,-36.0066,3.02153e-14,-9.32799,6.77486,20.536
-0.945302,17.5006,5.14682,-22.1165,-83.7415,41.5989,-11.352,1.24413,6.69251,-13.1878,0.427188,-0.0251413,-7.67706,-0.737124,-3.69294,-5.2843,18.1493,11.1632,12.7423,23.0616,2.4911,5.68281,11.9152,0.828041,-7.15625e-15,-5.56597e-15,9.60134,-26.5904,24.6782,114.85,-61.3671,-7.32607,-50.6356,7.12502,18.5572,-79.7705,-7.15625e-15,-5.56597e-15,31.4069,36.4583,-7.2525,29.4478,38.271,-23.7789,-24.274,7.12502,2.69086,5.68879,-9.02354,11.9549,-10.5092,17.6209,-19.7883,-26.1049,41.1516,-11.0724,4.15627,-34.756,-2.54444e-14,-9.21689,6.74017,20.9224
-0.936442,17.4799,5.1567,-32.8602,-83.492,51.9307,-10.7893,1.48667,5.60436,-13.0107,0.856355,-0.607132,-7.72068,-0.439978,-3.69334,-5.65001,17.8574,11.6826,12.7153,22.5768,2.32626,5.79396,11.6844,0.719597,1.0138e-14,-7.95139e-16,8.60106,-26.2311,25.3095,114.884,-61.4778,-7.39659,-50.4881,7.12502,18.4894,-79.6294,1.0138e-14,-7.95139e-16,32.6091,36.5903,-6.42455,29.3233,38.0239,-24.0471,-22.8451,7.12502,2.43185,7.12076,-8.91469,11.4234,-11.7892,17.8544,-17.2297,-26.9539,38.9612,-10.5645,4.55389,-35.9621,4.77083e-15,-9.40142,6.68244,20.995
-0.928543,17.4748,5.16295,-35.5833,-83.3745,54.4919,-10.5393,1.3289,5.34171,-13.0206,0.685242,-0.438571,-7.88774,-0.497927,-3.37459,-5.08748,17.9228,11.1087,12.3406,22.8006,2.38471,5.51974,11.7742,0.73345,-1.27222e-14,-1.43125e-14,9.36278,-26.2353,24.9503,114.857,-61.482,-7.26174,-50.4371,7.12502,18.6191,-79.5661,-1.27222e-14,-1.43125e-14,32.0399,36.6272,-6.59033,29.3365,37.9364,-23.9565,-23.6901,7.12502,2.5194,6.27475,-8.86039,11.5886,-12.1385,17.9836,-17.5951,-26.5949,39.4551,-10.3844,4.65957,-36.2936,-3.81667e-14,-9.44436,6.66421,21.1894
-0.926127,17.4762,5.15951,-36.1728,-83.3271,55.0826,-10.5228,1.67371,5.13745,-12.9513,1.14624,-0.908481,-7.76478,-0.263508,-3.74546,-5.49219,17.5418,11.5292,12.1217,22.1556,2.53955,5.52036,11.4758,0.696904,-1.23246e-14,2.3059e-14,7.90201,-25.6735,25.7147,114.981,-61.6461,-7.51859,-50.592,7.12502,18.372,-79.7444,-1.23246e-14,2.3059e-14,34.2826,37.3291,-4.74132,29.1148,37.4177,-23.807,-25.1553,7.12502,2.66376,4.80785,-8.98702,11.7763,-12.2214,18.2191,-18.696,-26.0002,40.727,-10.3948,4.66358,-36.3703,7.95139e-15,-9.44583,6.64331,21.8198
-0.923097,17.4761,5.1601,-35.5322,-83.4114,54.3584,-10.4292,1.66318,5.22908,-12.9102,1.1416,-0.842501,-7.77166,-0.266761,-3.7277,-5.22637,17.4661,11.4835,11.7455,22.1303,2.30341,5.37846,11.4422,0.585998,2.78299e-15,-4.29375e-14,7.99205,-25.6802,25.6379,114.858,-61.4239,-6.95425,-51.0178,7.12502,18.9148,-80.1182,2.78299e-15,-4.29375e-14,33.8693,37.0169,-5.18906,29.1646,37.6279,-23.9149,-24.5703,7.12502,2.55954,5.39406,-8.91592,11.7593,-12.081,18.173,-18.7042,-26.1466,40.7499,-10.3426,4.70106,-36.2612,-1.74931e-14,-9.33383,6.69783,20.9542
-0.917096,17.481,5.16112,-31.3729,-83.5655,50.2909,-10.5024,1.60752,5.66636,-12.9272,1.0449,-0.700578,-7.76436,-0.347152,-3.82376,-5.10498,17.4848,11.9825,11.7996,22.1993,1.72262,5.50121,11.4617,0.37837,-1.2921e-14,7.15625e-15,8.17819,-25.802,25.4582,114.579,-61.0118,-5.56912,-51.739,7.12502,20.2465,-80.7038,-1.2921e-14,7.15625e-15,33.3802,36.7178,-5.76693,29.252,37.8327,-23.8542,-23.5216,7.12502,2.61819,6.44212,-8.88465,11.7554,-11.5543,18.0111,-19.1604,-26.1204,40.6933,-10.5218,4.54485,-35.8118,-3.18055e-15,-9.08005,6.8549,19.2833
-0.912278,17.4957,5.15603,-24.2082,-83.6833,43.4352,-10.8276,1.55496,6.2517,-13.0108,0.919079,-0.482479,-7.69973,-0.455979,-3.91945,-5.20437,17.554,12.1571,12.149,22.2712,1.64103,5.66137,11.5041,0.377445,-1.70955e-14,-1.59028e-15,8.32324,-25.7972,25.3386,114.522,-60.939,-4.88176,-52.4423,7.12502,20.907,-81.3357,-1.70955e-14,-1.59028e-15,33.3122,36.7527,-5.80857,29.3172,37.6932,-23.6636,-23.3608,7.12502,2.80221,6.6005,-9.01759,11.6804,-10.7175,17.8516,-20.3832,-25.6759,41.4096,-10.9515,4.22602,-35.0425,-1.59028e-14,-8.93321,6.8694,19.57
-0.90944,17.5038,5.15425,-20.5042,-83.6641,39.9167,-11.0587,1.551,6.53448,-13.0386,0.878865,-0.385718,-7.61178,-0.496448,-3.97364,-5.30386,17.552,11.986,12.3063,22.2519,1.78846,5.69089,11.4997,0.451302,-8.94531e-15,6.36111e-15,8.32798,-25.7083,25.3037,114.6,-61.0504,-5.43308,-52.8357,7.12502,20.3773,-81.7865,-8.94531e-15,6.36111e-15,33.4278,36.8279,-5.51617,29.3108,37.088,-24.0034,-22.7453,7.12502,2.4741,7.22006,-9.08308,11.5559,-10.322,17.7466,-21.3749,-25.1781,42.6718,-11.1874,4.0258,-34.6549,0,-8.95678,6.77337,20.4928
-0.9072,17.5029,5.15559,-20.9984,-83.6227,40.4237,-11.0997,1.54669,6.57468,-13.0189,0.865372,-0.449731,-7.56846,-0.507734,-4.06526,-5.23901,17.5415,12.0339,12.2713,22.2592,1.66629,5.68902,11.4975,0.40572,-1.61016e-14,-6.36111e-15,8.38736,-25.7188,25.1004,114.592,-60.9589,-7.72616,-50.6051,7.12502,18.1723,-79.7762,-1.61016e-14,-6.36111e-15,33.335,36.645,-5.67216,29.3169,36.8537,-24.5567,-22.2983,7.12502,1.93975,7.67259,-9.08707,11.2483,-10.3928,17.7111,-20.1678,-26.0164,42.0245,-11.202,4.00366,-34.7285,-1.43125e-14,-9.00127,6.72542,22.0438
-0.902927,17.5011,5.15546,-21.6709,-83.5728,41.0643,-11.0433,1.42976,6.56741,-13.0305,0.714595,-0.415411,-7.632,-0.584111,-4.03167,-5.03803,17.6487,12.0175,12.3278,22.4413,1.62133,5.68657,11.5857,0.398373,1.98785e-15,-2.8625e-14,8.83753,-25.8441,24.6094,114.562,-60.8117,-8.80797,-55.0099,7.12502,17.1313,-84.2746,1.98785e-15,-2.8625e-14,32.6488,36.2258,-6.49547,29.4408,37.23,-24.7166,-22.1378,7.12502,1.78524,7.83447,-9.14019,10.8831,-10.4611,17.8173,-18.2459,-27.1172,40.3555,-11.1874,3.98894,-34.8272,-2.06736e-14,-8.95533,6.74211,21.1531
-0.898305,17.4985,5.15618,-22.2083,-83.5167,41.5593,-10.98,1.43189,6.45288,-12.957,0.732038,-0.51855,-7.57919,-0.562813,-4.07847,-5.39731,17.6584,12.1255,12.5505,22.359,1.83156,5.79987,11.5626,0.484914,1.0138e-14,3.97569e-15,8.66489,-25.925,24.4473,114.623,-60.8082,-7.6699,-50.3633,7.12502,18.2264,-79.5294,1.0138e-14,3.97569e-15,32.8735,36.3451,-6.42327,29.4785,37.178,-24.5995,-21.1085,7.12502,1.8984,8.86277,-9.19673,10.95,-10.5366,18.0227,-19.1735,-26.5101,41.6298,-11.1531,3.96196,-34.9302,-1.59028e-15,-8.87479,6.79604,21.5432
-0.892421,17.4975,5.15718,-22.7523,-83.5356,42.0715,-10.9303,1.35644,6.45236,-12.9592,0.639212,-0.409283,-7.62094,-0.605314,-3.96535,-5.15836,17.7189,11.6744,12.415,22.4818,2.12638,5.63803,11.6233,0.589739,7.15625e-15,-7.95139e-16,9.11162,-26.0116,24.0782,114.661,-60.782,-8.81093,-47.5058,7.12502,17.1284,-76.7708,7.15625e-15,-7.95139e-16,32.671,36.5047,-6.42857,29.5492,37.1128,-24.2709,-20.6577,7.12502,2.21568,9.31058,-9.29971,11.0742,-10.5731,18.1831,-19.4234,-26.4517,41.1931,-11.1564,4.00067,-35.0092,-4.77083e-15,-8.78866,6.87185,20.3093
-0.884745,17.4975,5.1586,-22.6164,-83.5257,41.9212,-10.8605,1.35177,6.43689,-12.9504,0.643207,-0.371806,-7.64898,-0.599458,-3.91677,-5.08775,17.7126,11.5357,12.3249,22.492,2.17061,5.57739,11.6248,0.603548,-3.18055e-15,-2.8625e-14,9.16275,-25.9701,24.0402,114.692,-60.7533,-7.15087,-50.1829,7.12502,18.7257,-79.3016,-3.18055e-15,-2.8625e-14,32.7637,36.6569,-6.25517,29.5896,37.1634,-23.8258,-20.1398,7.12502,2.64557,9.82357,-9.38342,10.9945,-10.5462,18.2822,-19.4137,-26.5699,40.604,-11.1951,3.98457,-35.0149,-1.27222e-14,-8.71617,6.92226,20.8
-0.880697,17.4979,5.16006,-21.8639,-83.4769,41.1465,-10.8246,1.30102,6.43692,-12.948,0.582195,-0.309762,-7.67376,-0.626905,-3.85313,-4.90276,17.7446,11.5203,12.1714,22.5747,2.08689,5.50991,11.6582,0.563168,3.18055e-15,-6.36111e-15,9.31289,-25.9772,23.9002,114.733,-60.7772,-6.70186,-51.0583,7.12502,19.1575,-80.1347,3.18055e-15,-6.36111e-15,31.6964,35.4867,-7.69186,29.7544,38.471,-24.2123,-19.1306,7.12502,2.27236,10.8371,-9.38934,10.9461,-10.4731,18.3745,-19.956,-26.1826,41.5138,-11.1708,3.91519,-34.9426,-2.8625e-14,-8.75262,6.85692,20.6795
-0.876656,17.4979,5.16497,-21.1095,-83.4946,40.3997,-10.8067,1.31295,6.56602,-12.9596,0.592491,-0.301058,-7.698,-0.633922,-3.91554,-4.72957,17.7687,11.4489,11.9928,22.6349,2.11256,5.41646,11.6845,0.55491,-5.1684e-15,-1.27222e-14,9.42727,-25.9916,23.7145,114.785,-60.7793,-6.61508,-51.3084,7.12502,19.241,-80.3766,-5.1684e-15,-1.27222e-14,30.3025,33.5619,-9.93272,29.9975,41.1106,-24.8974,-19.683,7.12502,1.61066,10.2906,-9.44902,10.7872,-10.3937,18.4317,-18.3244,-27.1141,39.7076,-11.1774,3.89762,-34.8591,-3.65764e-14,-8.83253,6.8002,21.8442
-0.871556,17.4968,5.17107,-20.7936,-83.5162,40.1261,-10.8085,1.34275,6.71641,-12.9808,0.621527,-0.318498,-7.72048,-0.635812,-4.01692,-4.74162,17.8324,11.1126,12.0851,22.6984,2.50972,5.36565,11.728,0.706794,2.98177e-15,-1.35174e-14,9.53367,-25.9639,23.5146,114.843,-60.6793,-5.63026,-52.3217,7.12502,20.1878,-81.2927,2.98177e-15,-1.35174e-14,29.458,32.2429,-11.441,30.0964,43.1274,-25.0294,-20.9378,7.12502,1.48313,9.03677,-9.52251,10.6633,-10.3734,18.4321,-16.5626,-28.1569,37.1578,-11.2575,3.88696,-34.8585,-1.74931e-14,-8.77187,6.87515,20.802
-0.868577,17.4965,5.17337,-20.5116,-83.5289,39.8451,-10.8011,1.28676,6.79492,-12.9694,0.545374,-0.267567,-7.7227,-0.677746,-4.00951,-4.86368,17.9838,10.5067,12.311,22.8529,3.20314,5.31138,11.8256,0.990406,-1.39149e-15,-8.74653e-15,9.83407,-25.9629,23.1698,114.71,-60.5381,-4.4192,-53.9048,7.12502,21.3514,-82.7485,-1.39149e-15,-8.74653e-15,28.6966,31.3813,-12.4661,30.1102,43.8511,-25.3559,-21.4825,7.12502,1.16788,8.49403,-9.52876,10.7255,-10.3308,18.4328,-17.4011,-27.8708,37.9397,-11.2766,3.88229,-34.8432,-1.27222e-14,-8.64091,6.91863,21.441
-0.866011,17.4973,5.17609,-19.5861,-83.5665,38.8623,-10.7708,1.40911,6.86549,-12.878,0.705321,-0.527314,-7.61629,-0.60577,-4.32231,-5.29781,17.8685,11.2322,12.5631,22.5602,3.15005,5.54152,11.7074,0.939612,-4.96962e-15,3.57812e-14,9.15421,-25.8255,23.204,114.604,-60.4909,-4.0004,-52.3747,7.12502,21.7536,-81.1723,-4.96962e-15,3.57812e-14,29.4365,31.6999,-12.0949,30.1601,43.3601,-25.6273,-21.5234,7.12502,0.905692,8.45439,-9.49482,10.7998,-10.1904,18.4534,-19.0798,-27.0221,40.6752,-11.2184,3.8923,-34.7255,6.36111e-15,-8.62902,6.91577,21.4155
-0.864654,17.4969,5.17987,-19.1647,-83.6247,38.3944,-10.7867,1.25425,7.02927,-12.8585,0.492111,-0.395984,-7.61654,-0.719947,-4.28219,-5.04368,17.9687,11.5994,12.6613,22.7521,2.71284,5.63251,11.7915,0.78739,2.80286e-14,-2.94201e-14,9.77536,-26.0422,22.5484,114.702,-60.3382,-4.26563,-48.8365,7.12502,21.4989,-77.6634,2.80286e-14,-2.94201e-14,28.7256,31.6177,-12.6497,30.3648,43.2088,-25.6691,-21.8385,7.12502,0.865385,8.13947,-9.48157,10.9379,-10.1266,18.4668,-20.4571,-26.2909,42.8455,-11.1784,3.93372,-34.6783,-3.97569e-14,-8.6439,6.96469,21.0257
-0.864442,17.4956,5.18218,-19.2737,-83.6638,38.531,-10.8897,1.30927,6.95973,-12.8024,0.562766,-0.400276,-7.48442,-0.67072,-4.24504,-5.26176,17.9408,11.75,12.884,22.6809,2.60958,5.76576,11.759,0.773834,9.93923e-16,1.90833e-14,9.66789,-26.0947,22.5496,114.833,-60.2539,-4.89724,-48.4012,7.12502,20.8921,-77.2962,9.93923e-16,1.90833e-14,28.5829,31.3098,-12.9302,30.298,43.587,-25.6331,-22.8348,7.12502,0.900082,7.14302,-9.53936,11.0647,-10.14,18.4759,-20.3781,-26.5232,42.0972,-11.8244,3.96235,-34.7139,1.12958,-9.1301,7.03139,20.8667
-0.86279,17.4951,5.18519,-18.7876,-83.6011,38.0745,-10.9586,1.19173,6.93023,-12.8427,0.406669,-0.158201,-7.51064,-0.738835,-3.97511,-4.88991,18.0575,11.0969,12.7871,22.941,2.77582,5.58967,11.873,0.862685,-1.09332e-14,2.38542e-14,10.319,-26.1842,22.251,114.836,-60.3207,-5.46393,-49.3335,7.12502,20.3476,-78.2875,-1.09332e-14,2.38542e-14,27.9361,31.02,-13.2737,30.2835,43.8166,-25.1631,-23.2508,7.12502,1.35403,6.72468,-9.56956,10.9714,-10.0899,18.517,-19.1109,-27.5234,39.9743,-11.9711,3.87869,-34.698,1.3602,-9.24064,6.97943,21.4284
-0.859405,17.495,5.18849,-18.6232,-83.4673,37.8858,-10.9746,1.45653,6.73967,-12.731,0.770422,-0.457071,-7.32512,-0.53862,-4.17341,-5.46438,17.8289,11.6223,12.9995,22.5195,2.58816,5.81719,11.6757,0.790623,-9.54166e-15,1.74931e-14,9.14342,-26.0039,22.9647,114.964,-60.5206,-6.33078,-49.0534,7.12502,19.5144,-78.0941,-9.54166e-15,1.74931e-14,29.622,32.0277,-11.6834,30.1323,43.0966,-24.5793,-22,7.12502,1.91785,7.97113,-9.51698,10.9047,-10.1241,18.5964,-20.1986,-26.8309,41.3491,-11.8975,3.75408,-34.7219,1.29986,-9.2646,6.87615,22.2046
-0.854391,17.494,5.18994,-18.902,-83.3487,38.1181,-10.9169,1.33523,6.60826,-12.7282,0.62795,-0.308334,-7.37,-0.592278,-3.94754,-5.22817,17.9235,11.4541,13.0218,22.7269,2.41969,5.79475,11.7623,0.760248,7.7526e-15,-3.97569e-15,9.65203,-26.0896,22.618,115.047,-60.4985,-7.47692,-48.8905,7.12502,18.4121,-78.0391,7.7526e-15,-3.97569e-15,29.2022,31.9386,-11.8247,30.2347,43.0447,-24.4614,-20.42,7.12502,2.03178,9.55003,-9.47625,10.933,-10.2121,18.7134,-19.1037,-27.3052,39.9471,-11.5188,3.66036,-34.797,0.664204,-9.07303,6.87199,22.8724
-0.847542,17.4933,5.19259,-18.811,-83.2632,37.9637,-10.8179,1.2331,6.56395,-12.7119,0.507632,-0.246101,-7.42046,-0.645333,-3.86213,-5.06574,18.0072,11.5504,13.0384,22.8815,2.22536,5.8141,11.8306,0.699511,1.49089e-14,-1.59028e-15,9.99267,-26.1383,22.2196,115.093,-60.3772,-7.39921,-49.1209,7.12502,18.4868,-78.2625,1.49089e-14,-1.59028e-15,29.0391,32.0778,-11.8728,30.3422,43.003,-24.3507,-20.7942,7.12502,2.13869,9.17482,-9.51289,10.7076,-10.199,18.9186,-9.39245,-31.1623,25.6106,-11.1193,3.5837,-34.8317,6.36111e-15,-8.95998,6.93669,24.1081
-0.839295,17.4864,5.20384,-21.2939,-83.2373,40.2657,-10.5766,1.34999,6.44598,-12.6114,0.690968,-0.508507,-7.4163,-0.546828,-4.07112,-5.21551,17.9519,11.9892,13.1177,22.7613,2.0482,5.93057,11.7773,0.617549,8.34896e-15,2.38542e-15,9.50082,-26.1182,22.2898,115.13,-60.3388,-6.37545,-49.4752,7.12502,19.4714,-78.5202,8.34896e-15,2.38542e-15,29.7768,32.6179,-11.2593,30.3037,42.6526,-24.1023,-21.6051,7.12502,2.37856,8.36138,-9.56055,10.416,-10.503,19.2206,1.86854,-31.7964,5.77885,-10.9105,3.68372,-35.152,-1.59028e-15,-9.11485,6.956,24.8908
-0.831644,17.4691,5.21926,-27.6786,-83.1562,46.3343,-10.1899,1.45218,5.90954,-12.4506,0.889654,-0.795975,-7.41781,-0.402228,-4.07361,-5.48609,17.917,12.2388,13.2608,22.6633,1.93632,6.05796,11.732,0.588507,9.93923e-16,1.35174e-14,8.82544,-25.7407,21.6529,115.633,-59.6557,-5.29393,-51.334,7.12502,20.511,-80.2705,9.93923e-16,1.35174e-14,30.0773,32.7387,-11.0402,30.2279,42.3562,-24.035,-21.3898,7.12502,2.44354,8.57592,-9.56069,10.2256,-11.327,19.5881,1.57303,-31.3558,7.58744,-10.5184,3.96845,-35.9316,3.33958e-14,-9.21198,6.97695,24.7845
-0.827489,17.457,5.22645,-31.9142,-83.0042,50.3842,-9.9954,1.31596,5.48624,-12.4112,0.74872,-0.718592,-7.4943,-0.432568,-3.76062,-5.0681,18.0386,11.7437,13.0434,22.9339,2.01041,5.86603,11.8497,0.629245,3.57812e-15,-1.59028e-15,9.42746,-25.7691,20.9079,115.842,-59.503,-4.50392,-52.6299,7.12502,21.27,-81.4828,3.57812e-15,-1.59028e-15,29.1016,32.1717,-11.7789,30.3126,42.4834,-24.1024,-21.8295,7.12502,2.37842,8.13701,-9.62943,9.78476,-11.9158,19.927,-3.49312,-30.9808,18.382,-10.2857,4.11983,-36.4798,4.45278e-14,-9.28475,6.98134,24.7813
-0.823946,17.4603,5.21767,-30.9856,-82.905,49.7062,-10.2947,1.63725,5.24466,-12.356,1.15597,-1.14588,-7.21488,-0.218284,-4.06198,-5.66183,17.7154,12.2982,12.9917,22.3233,2.13225,5.96839,11.5746,0.599798,2.00773e-14,7.95139e-15,7.95777,-25.6308,21.5782,116.004,-59.5716,-4.36462,-50.5761,7.12502,21.4038,-79.4138,2.00773e-14,7.95139e-15,30.8501,32.7802,-10.5034,30.1939,42.0558,-23.9547,-22.0995,7.12502,2.52107,7.86533,-10.0601,9.32485,-11.8863,20.2981,-4.01184,-30.9535,19.4038,-10.5929,3.93126,-36.4483,-3.18055e-15,-9.16794,6.9555,24.5896
-0.817119,17.4804,5.19482,-23.2878,-82.9583,42.5748,-10.899,1.52322,5.66473,-12.5025,0.936595,-0.803835,-7.07435,-0.3559,-3.93555,-5.62235,17.7594,12.1059,13.0466,22.4096,2.15087,5.95937,11.6119,0.632112,-1.19271e-15,-1.35174e-14,8.23874,-25.8103,21.4335,116.021,-59.5253,-4.54061,-48.0356,7.12502,21.2347,-76.8925,-1.19271e-15,-1.35174e-14,30.5107,32.6656,-10.706,30.2951,42.0597,-23.9404,-21.3202,7.12502,2.53495,8.64444,-10.6735,9.4062,-10.9006,20.5444,-2.30064,-31.7078,14.9296,-11.3606,3.4498,-35.5628,-5.08889e-14,-8.82509,6.9871,24.0712
-0.813861,17.4796,5.18733,-25.0264,-82.9299,44.3745,-10.9584,1.72491,5.26653,-12.4779,1.21745,-1.0599,-6.97771,-0.189864,-3.97041,-6.06665,17.5387,12.5197,13.4384,22.0004,2.09087,6.19464,11.4291,0.598112,-2.38542e-15,1.74931e-14,7.6208,-25.6655,21.9372,115.919,-59.7925,-5.1702,-47.4551,7.12502,20.6299,-76.3788,-2.38542e-15,1.74931e-14,31.4734,32.902,-9.97722,30.238,41.7035,-23.9609,-21.1175,7.12502,2.51515,8.8474,-10.8998,9.20372,-11.0688,20.6989,3.1826,-31.5816,5.07819,-11.4574,3.49871,-35.7819,-9.54166e-15,-8.77151,7.00342,23.8186
-0.806999,17.4838,5.19224,-22.9105,-83.0511,42.1767,-10.8463,1.70335,5.54814,-12.4916,1.19081,-0.810243,-7.06162,-0.216155,-3.86493,-5.8414,17.5053,12.2761,13.5529,22.0594,1.84426,6.19891,11.437,0.545354,-2.70347e-14,1.11319e-14,8.51315,-25.8537,22.0083,115.353,-60.2298,-5.56681,-47.994,7.12502,20.2487,-76.9585,-2.70347e-14,1.11319e-14,31.1328,32.8268,-9.94514,30.2371,41.4504,-23.8281,-21.6281,7.12502,2.64339,8.33527,-10.8968,8.8815,-10.6501,20.7312,6.71636,-31.0613,-1.14937,-11.4128,3.52157,-35.4702,-1.59028e-14,-8.75981,6.98508,23.682
-0.795244,17.4778,5.21607,-22.8431,-83.0849,41.804,-10.4513,1.61223,5.8006,-12.4653,1.09949,-0.586335,-7.2651,-0.273093,-3.77692,-5.31371,17.5364,12.129,13.4126,22.2646,1.40782,6.11119,11.506,0.402678,-4.57205e-15,0,8.83366,-25.8851,21.564,115.643,-60.1939,-5.65303,-48.4494,7.12502,20.1659,-77.4227,-4.57205e-15,0,30.6561,32.9232,-9.89496,30.2787,41.1441,-23.4314,-22.6869,7.12502,3.02646,7.27133,-10.6305,8.33608,-10.5959,20.7006,12.029,-29.1629,-10.8882,-11.0778,3.59422,-35.4819,1.59028e-14,-8.80559,7.03356,23.708
-0.787341,17.4697,5.24292,-23.697,-83.0965,42.3069,-10.0463,1.93561,5.87465,-12.2428,1.56386,-1.04831,-7.179,-0.0458028,-4.29783,-6.09759,17.2922,13.0769,13.6798,21.7323,1.21037,6.42838,11.2684,0.284702,-1.25234e-14,7.95139e-15,7.44819,-25.5923,22.1658,115.619,-60.127,-5.87118,-48.5093,7.12502,19.9562,-77.5046,-1.25234e-14,7.95139e-15,32.6661,34.074,-8.07935,30.1078,39.9124,-23.0006,-22.6658,7.12502,3.44257,7.28616,-10.2614,7.88394,-10.7123,20.5853,16.0379,-26.7561,-18.3481,-12.4896,3.69953,-35.6179,3.3995,-10.5451,7.0228,24.6467
-0.783307,17.4754,5.24883,-19.2847,-83.1163,37.9259,-10.1567,1.66173,6.44735,-12.3097,1.17283,-0.563193,-7.24924,-0.274089,-4.11561,-5.29242,17.5254,12.05,13.3367,22.2315,1.58426,6.05246,11.4968,0.448714,2.98177e-15,-2.14687e-14,9.03042,-25.7197,21.438,115.151,-59.923,-5.32341,-48.7902,7.12502,20.4826,-77.7298,2.98177e-15,-2.14687e-14,31.2092,33.6704,-8.9682,30.2586,39.7353,-22.9871,-22.607,7.12502,3.45554,7.34469,-10.1945,7.9285,-10.1512,20.5192,11.212,-29.3047,-8.49198,-13.2844,3.51653,-35.121,4.73562,-11.1554,6.94706,25.298
-0.775518,17.4816,5.24511,-15.1206,-83.0707,33.8258,-10.2586,1.54372,6.81211,-12.3378,0.995212,-0.305554,-7.25208,-0.383518,-4.0507,-4.99496,17.6197,11.5222,13.1894,22.4138,1.88151,5.87051,11.584,0.562898,1.82882e-14,4.77083e-15,9.69959,-25.7567,21.049,114.872,-59.8855,-4.83099,-48.8134,7.12502,20.9558,-77.7014,1.82882e-14,4.77083e-15,30.6235,33.3924,-9.42626,30.3533,39.9035,-22.9678,-22.7361,7.12502,3.47417,7.21532,-10.1834,8.19301,-9.57209,20.4626,6.22293,-31.2428,1.25451,-14.0448,3.31463,-34.6514,5.869,-11.5233,7.0765,24.7088
-0.764758,17.4824,5.24952,-13.8041,-83.0448,32.3834,-10.0731,1.53236,6.95087,-12.2809,0.995935,-0.315521,-7.29286,-0.390518,-4.1413,-5.09784,17.6269,11.6395,13.3005,22.3827,1.96162,5.92578,11.579,0.587091,-7.35503e-15,-1.51076e-14,9.77419,-25.6384,20.8103,114.732,-59.816,-4.92953,-47.8178,7.12502,20.8611,-76.7163,-7.35503e-15,-1.51076e-14,30.6428,33.3365,-9.50202,30.4251,39.7817,-23.0489,-20.8986,7.12502,3.39586,9.05413,-10.0635,8.26107,-9.31971,20.4206,7.0348,-31.3571,-0.309103,-14.5076,3.27201,-34.5045,6.89299,-11.906,7.19865,24.0177
-0.754429,17.4836,5.26271,-11.1142,-83.0773,29.5252,-9.86908,1.5905,7.44777,-12.1833,1.07335,-0.417052,-7.29189,-0.388518,-4.52805,-5.29617,17.6044,12.0297,13.4149,22.2821,1.93183,6.03843,11.543,0.556964,-1.15295e-14,0,9.66808,-25.4601,20.4806,114.733,-59.3646,-5.49152,-47.949,7.12502,20.3211,-76.9058,-1.15295e-14,0,30.6222,32.9926,-9.98804,30.3867,40.21,-23.3162,-20.186,7.12502,3.13776,9.77062,-9.94869,8.05204,-8.89467,20.4252,4.94026,-31.8516,4.17148,-14.7659,3.26536,-34.1672,7.61063,-12.1961,7.19745,24.0476
-0.747833,17.4827,5.27642,-8.66197,-83.0724,26.9469,-9.80182,1.62796,7.93106,-12.1035,1.1099,-0.482799,-7.24044,-0.404481,-4.8693,-5.30203,17.6033,12.4938,13.4996,22.2537,1.73828,6.14097,11.536,0.461773,-2.38542e-15,7.15625e-15,9.57079,-25.2651,20.032,115.037,-58.8808,-7.83537,-49.6942,7.12502,18.0672,-78.8751,-2.38542e-15,7.15625e-15,30.6811,32.9264,-10.1818,30.4013,40.3941,-23.4358,-20.4576,7.12502,3.02223,9.50078,-9.86614,7.74836,-8.55094,20.4591,5.84385,-31.6041,2.64087,-14.9597,3.22582,-33.8867,8.17,-12.4615,7.17791,24.478
-0.743477,17.481,5.28662,-7.6611,-83.0458,25.8643,-9.7905,1.65029,8.05869,-12.0696,1.1391,-0.432552,-7.20634,-0.393594,-4.88601,-5.13347,17.551,12.7297,13.5169,22.2232,1.4576,6.17746,11.5148,0.342997,-4.57205e-15,-7.95139e-16,9.58931,-25.0299,19.9086,115.098,-58.9576,-9.61359,-50.0015,7.12502,16.3557,-79.3319,-4.57205e-15,-7.95139e-16,31.0583,33.4434,-9.41657,30.5349,39.6169,-23.3545,-19.8676,7.12502,3.10071,10.0896,-9.81066,7.58602,-8.43573,20.5042,13.2725,-29.0828,-12.3607,-15.1595,3.18862,-33.7955,8.70005,-12.7672,7.15448,24.8153
-0.736785,17.4786,5.29201,-7.99083,-83.0702,26.1405,-9.74117,1.73618,7.91813,-12.0435,1.26845,-0.434509,-7.18339,-0.313571,-4.8048,-5.08051,17.4209,12.8092,13.4966,22.0636,1.33196,6.17815,11.4331,0.276253,9.93923e-15,-1.98785e-14,9.4049,-24.8615,20.197,114.752,-59.2878,-8.33354,-48.8493,7.12502,17.5879,-78.0737,9.93923e-15,-1.98785e-14,31.5306,33.7589,-8.6935,30.6171,39.1714,-23.3133,-19.8681,7.12502,3.14056,10.0885,-9.84236,7.5991,-8.48253,20.6043,16.5899,-27.3169,-18.7735,-15.3346,3.22528,-33.8383,9.08677,-12.9299,7.18178,24.6348
-0.728867,17.4751,5.29403,-8.91873,-83.0729,27.0648,-9.70811,1.8112,7.69003,-12.0242,1.38314,-0.491117,-7.16048,-0.237073,-4.73354,-5.07674,17.3184,12.8638,13.4341,21.9203,1.31109,6.15875,11.3634,0.24492,-1.15295e-14,-7.15625e-15,9.20015,-24.8706,20.3493,114.59,-59.4072,-6.40463,-48.36,7.12502,19.4433,-77.4078,-1.15295e-14,-7.15625e-15,32.0584,34.0882,-8.07998,30.651,38.8958,-23.0928,-21.1528,7.12502,3.35353,8.80053,-9.94988,7.76766,-8.6222,20.7791,11.2791,-30.0416,-7.93492,-15.5141,3.24995,-33.935,9.35813,-13.0243,7.16928,24.8112
-0.721842,17.4724,5.29903,-9.03459,-83.0476,27.1847,-9.67889,1.80725,7.63051,-12.0155,1.38568,-0.465528,-7.16649,-0.228984,-4.67312,-5.02354,17.3188,12.6553,13.3903,21.9321,1.43717,6.09879,11.3686,0.294012,-1.98785e-15,9.54166e-15,9.45276,-24.9266,20.1426,114.577,-59.3456,-5.28485,-48.828,7.12502,20.5197,-77.7636,-1.98785e-15,9.54166e-15,32.2177,34.3377,-7.78246,30.7069,38.6172,-22.8184,-22.3781,7.12502,3.61847,7.57092,-10.0927,7.66678,-8.6633,21.0116,8.13343,-30.9982,-1.49759,-15.6822,3.22874,-33.9474,9.60367,-13.1295,7.108,25.08
-0.713702,17.4687,5.30659,-8.91961,-83.0531,27.0407,-9.60971,1.77587,7.65251,-11.9995,1.35506,-0.355632,-7.19326,-0.240444,-4.56998,-5.04781,17.3758,12.3052,13.5307,22.0168,1.62843,6.09096,11.4104,0.401198,1.59028e-14,-1.03368e-14,9.83298,-24.9892,19.9589,114.473,-59.412,-4.64705,-48.6655,7.12502,21.1325,-77.5338,1.59028e-14,-1.03368e-14,31.9051,34.2314,-7.9068,30.7004,38.4172,-22.9631,-21.2732,7.12502,3.47872,8.67819,-10.2809,7.04725,-8.6331,21.2729,10.224,-30.1083,-5.12104,-15.8002,3.22672,-33.9678,9.83407,-13.1888,7.14131,24.6205
-0.704576,17.4637,5.31357,-9.38523,-83.0772,27.4622,-9.51498,1.73834,7.56129,-11.9864,1.32561,-0.20112,-7.23701,-0.240759,-4.35604,-5.06053,17.4334,12.0404,13.7057,22.1163,1.6839,6.11784,11.4547,0.464887,1.66979e-14,-8.74653e-15,10.1273,-25.15,19.7765,114.603,-59.5603,-4.84503,-48.3518,7.12502,20.9423,-77.2412,1.66979e-14,-8.74653e-15,31.4535,33.9658,-8.17975,30.5854,38.4311,-23.1941,-19.2644,7.12502,3.2557,10.6905,-10.4816,6.30988,-8.65956,21.5419,12.2616,-29.0124,-8.769,-15.8861,3.25648,-34.0564,10.0436,-13.286,7.17636,24.5448
-0.693912,17.4619,5.31628,-9.66829,-82.9981,27.7471,-9.44116,1.62839,7.42658,-12.0064,1.19705,-0.0622725,-7.31879,-0.291645,-4.13784,-4.95737,17.494,11.8049,13.7923,22.2368,1.70648,6.10515,11.5077,0.502325,1.68967e-14,-2.38542e-15,10.5411,-25.1617,19.3717,114.756,-59.587,-5.79457,-48.733,7.12502,20.0298,-77.7206,1.68967e-14,-2.38542e-15,30.8198,33.4976,-8.85093,30.4762,38.8848,-23.2308,-18.4091,7.12502,3.22025,11.5463,-10.6512,6.01642,-8.65346,21.8096,16.7365,-26.6514,-18.5801,-16.0377,3.37464,-34.1526,10.2521,-13.367,6.95095,24.816
-0.682046,17.4616,5.31581,-8.92436,-82.8074,27.0215,-9.39245,1.52382,7.41205,-12.022,1.06525,-0.0218592,-7.3814,-0.357135,-4.09163,-4.86875,17.4809,11.7441,13.7533,22.2399,1.68806,6.07357,11.5058,0.492598,-2.90226e-14,3.73715e-14,10.6884,-24.9632,19.0692,114.684,-59.8824,-6.67999,-48.406,7.12502,19.1786,-77.4803,-2.90226e-14,3.73715e-14,30.5711,33.2849,-9.21123,30.4185,39.0133,-23.0916,-18.2017,7.12502,3.35465,11.7517,-10.7209,6.35715,-8.53263,22.0346,17.8809,-26.2806,-21.58,-16.2405,3.33458,-34.1256,10.5025,-13.3701,6.76991,24.5162
-0.674399,17.4587,5.31738,-7.63777,-82.7107,25.6686,-9.34224,1.56558,7.58359,-11.9773,1.11925,-0.115643,-7.35328,-0.343332,-4.28698,-4.93904,17.4266,12.1992,13.9119,22.1467,1.42157,6.21488,11.4635,0.381026,-9.34288e-15,-4.77083e-15,10.3916,-24.8091,19.0001,114.597,-60.2938,-7.43684,-47.668,7.12502,18.4506,-76.813,-9.34288e-15,-4.77083e-15,31.2273,33.7695,-8.5977,30.356,38.4949,-22.7279,-18.8121,7.12502,3.70587,11.1355,-10.7337,6.59328,-8.32332,22.2169,17.1069,-27.0045,-20.4326,-16.3377,3.11341,-33.9738,10.7559,-13.3734,6.98431,23.9018
-0.669491,17.4558,5.32165,-6.58975,-82.6875,24.5084,-9.28124,1.67614,7.80186,-11.9169,1.26516,-0.204274,-7.30087,-0.284863,-4.5001,-4.92376,17.4728,12.3697,13.7062,22.152,1.66097,6.13794,11.4846,0.417505,4.77083e-15,1.74931e-14,10.1244,-24.7247,18.9871,114.626,-60.2182,-8.07548,-46.5619,7.12502,17.8362,-75.764,4.77083e-15,1.74931e-14,32.1549,34.5203,-7.45424,30.3687,37.6384,-22.3403,-19.6936,7.12502,4.08019,10.2471,-10.7469,6.36881,-8.13413,22.3703,17.9345,-26.4901,-22.0335,-16.3569,2.86847,-33.8147,10.9795,-13.4572,7.25851,24.1121
-0.66378,17.4531,5.32863,-6.7347,-82.6715,24.577,-9.21269,1.68431,7.77791,-11.8891,1.28924,-0.130858,-7.30529,-0.264949,-4.40834,-5.09178,17.3809,11.8337,14.2074,22.0167,1.95743,6.22705,11.4233,0.58337,-1.72943e-14,2.62396e-14,10.3504,-24.7063,18.8215,114.734,-59.8985,-7.12112,-45.7088,7.12502,18.7543,-74.8248,-1.72943e-14,2.62396e-14,32.262,34.7623,-6.98737,30.4371,37.1823,-22.1942,-20.1912,7.12502,4.22126,9.74673,-10.7751,6.07209,-8.16989,22.4972,11.1768,-30.052,-8.92876,-16.4082,2.94649,-33.8611,11.1914,-13.5163,7.11612,24.3063
-0.657801,17.4494,5.33627,-7.64445,-82.7081,25.4656,-9.16848,1.62706,7.55341,-11.8457,1.23236,-0.0367471,-7.288,-0.267047,-4.18484,-5.25102,17.3925,11.8401,14.3965,21.9977,2.02785,6.3062,11.4206,0.626991,1.88845e-14,-1.11319e-14,10.6478,-24.7035,18.5518,114.709,-59.7866,-6.18612,-46.9698,7.12502,19.6534,-75.9963,1.88845e-14,-1.11319e-14,31.7594,34.4612,-7.49143,30.4112,37.5936,-22.219,-20.6915,7.12502,4.19732,9.24693,-10.8583,6.03085,-8.36377,22.6113,-2.89842,-32.194,16.6901,-16.5116,3.35292,-34.0683,11.3865,-13.4121,6.81198,22.9921
-0.651622,17.4464,5.34476,-7.78256,-82.6661,25.603,-9.16783,1.64997,7.45959,-11.7608,1.2701,-0.0892521,-7.18632,-0.232952,-4.18764,-5.5268,17.3132,12.1395,14.5156,21.8562,1.78052,6.44573,11.3474,0.546754,-1.96797e-14,-5.56597e-15,10.3904,-24.5959,18.4852,114.621,-59.8212,-6.73652,-48.0591,7.12502,19.1242,-77.1388,-1.96797e-14,-5.56597e-15,31.9375,34.6031,-7.34777,30.4653,37.5868,-22.2411,-20.9184,7.12502,4.17592,9.02041,-10.911,6.06677,-8.45647,22.7348,-9.02339,-31.4075,25.9652,-16.613,3.49016,-34.165,11.5558,-13.3062,6.69964,21.7129
-0.646023,17.4434,5.35365,-7.22714,-82.5635,24.9993,-9.16166,2.00637,7.54345,-11.6959,1.73263,-0.579257,-7.04563,-0.0181551,-4.74213,-5.93095,16.967,13.14,14.6908,21.2393,1.51472,6.68248,11.073,0.349752,-9.93923e-16,6.36111e-15,8.81151,-24.1338,19.0115,114.812,-59.8184,-7.0331,-47.5222,7.12502,18.839,-76.6299,-9.93923e-16,6.36111e-15,34.1902,35.472,-5.37595,30.5405,36.675,-21.9445,-21.7966,7.12502,4.46235,8.13635,-10.8951,5.94117,-8.39812,22.8724,-8.56065,-31.4596,24.9109,-16.669,3.34516,-34.1327,11.7433,-13.3196,6.76181,21.4311
-0.639737,17.4414,5.36167,-6.3782,-82.5196,24.107,-9.14078,2.13336,7.752,-11.6664,1.89175,-0.76415,-6.99714,0.0416051,-5.05137,-5.98105,16.8596,13.4789,14.8203,21.0499,1.44622,6.76909,10.9935,0.285612,-3.1408e-14,-1.82882e-14,8.33355,-23.9411,18.9354,114.989,-59.7526,-6.99138,-47.9105,7.12502,18.8791,-77.0143,-3.1408e-14,-1.82882e-14,35.0417,35.84,-4.63368,30.6154,36.2894,-21.7375,-22.4347,7.12502,4.66227,7.494,-10.9359,5.60175,-8.24728,23.0122,-5.21337,-31.8644,20.3419,-16.7755,3.24038,-34.0511,11.9903,-13.3862,6.90107,20.7952
-0.631829,17.4395,5.36982,-5.66122,-82.497,23.4078,-9.16499,2.14237,7.90785,-11.649,1.89648,-0.735514,-6.96393,0.0354332,-5.10726,-5.93919,16.8887,13.2802,14.8072,21.1117,1.50839,6.73217,11.019,0.326166,-1.98785e-16,-2.78299e-14,8.45252,-23.8919,18.7282,114.79,-59.6503,-6.61357,-48.381,7.12502,19.2424,-77.4491,-1.98785e-16,-2.78299e-14,35.1103,35.9927,-4.44605,30.6418,36.021,-21.9054,-21.7307,7.12502,4.50015,8.20146,-11.0723,5.1517,-8.11253,23.1779,-1.66463,-32.003,14.7132,-16.9634,3.23836,-34.0114,12.2445,-13.4903,6.90071,20.502
-0.624196,17.4374,5.3763,-5.09254,-82.4668,22.8533,-9.20542,2.17674,7.95932,-11.606,1.93852,-0.729852,-6.88673,0.0590281,-5.12706,-6.02621,16.9632,13.2655,14.8041,21.2076,1.48539,6.75095,11.0619,0.340441,1.96797e-14,1.59028e-14,8.58722,-23.8684,18.5825,115.224,-59.3916,-6.27707,-48.2317,7.12502,19.566,-77.2672,1.96797e-14,1.59028e-14,35.336,36.1825,-4.11481,30.7048,35.6814,-22.0654,-21.0689,7.12502,4.34565,8.86652,-11.2204,4.92036,-8.00382,23.4017,0.0102631,-32.0302,11.1503,-17.1152,3.22894,-33.9812,12.4343,-13.5701,6.86478,20.8375
-0.617945,17.4345,5.38182,-4.9968,-82.4278,22.7141,-9.19272,2.19296,7.92535,-11.5421,1.96622,-0.746368,-6.81766,0.0826959,-5.1244,-6.17532,17.0672,13.3892,14.9993,21.3031,1.52973,6.85351,11.118,0.377577,7.35503e-15,-6.36111e-15,8.75446,-23.9607,18.2079,114.935,-59.1683,-6.37111,-47.5295,7.12502,19.4756,-76.5741,7.35503e-15,-6.36111e-15,35.3457,36.1089,-4.13631,30.7585,35.6313,-22.3005,-20.5105,7.12502,4.11855,9.4294,-11.3086,4.9208,-7.97162,23.6674,-0.552527,-32.1337,11.914,-17.158,3.23507,-34.0018,12.5638,-13.5695,6.88136,20.5792
-0.609439,17.4294,5.38778,-5.73744,-82.3806,23.4021,-9.1335,2.16042,7.77758,-11.4892,1.93982,-0.712321,-6.79666,0.0875733,-5.00719,-6.32773,17.1932,13.041,15.257,21.4233,1.95753,6.88273,11.1935,0.578106,-2.78299e-15,-1.82882e-14,8.96968,-24.0566,17.8325,114.688,-59.1669,-6.79459,-47.1185,7.12502,19.0684,-76.2037,-2.78299e-15,-1.82882e-14,35.1505,36.0139,-4.25796,30.7656,35.5705,-22.4469,-20.081,7.12502,3.97725,9.86166,-11.3926,5.06108,-8.07128,23.9194,-0.177648,-32.2976,10.8247,-17.1987,3.4734,-34.1902,12.6913,-13.5706,6.70619,20.1764
-0.59841,17.4269,5.39483,-6.01146,-82.3258,23.6503,-9.05658,2.12731,7.71455,-11.4735,1.90954,-0.664415,-6.82796,0.0798615,-4.92361,-6.35222,17.268,12.6874,15.4063,21.5248,2.21394,6.87189,11.2472,0.709171,-1.07344e-14,-2.3059e-14,9.10439,-24.1064,17.6533,114.685,-59.348,-6.86292,-47.6045,7.12502,19.0027,-76.6963,-1.07344e-14,-2.3059e-14,35.1539,36.1459,-4.11379,30.818,35.3287,-22.1429,-19.7456,7.12502,4.27074,10.1913,-11.5273,5.034,-8.10616,24.15,1.45519,-32.3547,7.52734,-17.2904,3.59308,-34.2991,12.8367,-13.6404,6.56573,20.4321
-0.591313,17.4298,5.39863,-5.17793,-82.3151,22.7764,-8.99089,2.12627,7.71981,-11.4743,1.9185,-0.581575,-6.86647,0.086687,-4.83919,-6.21836,17.2454,12.6927,15.3904,21.5336,2.09689,6.8589,11.2443,0.662809,1.05356e-14,1.59028e-15,9.18215,-24.089,17.5777,114.75,-59.4183,-6.60823,-48.2278,7.12502,19.2476,-77.2954,1.05356e-14,1.59028e-15,35.2554,36.2379,-3.89386,30.8548,35.0768,-21.8074,-19.1858,7.12502,4.59473,10.7444,-11.6719,4.84938,-7.94606,24.3744,2.69439,-32.3172,5.01622,-17.3599,3.49875,-34.1632,12.9828,-13.7911,6.54193,21.414
-0.585377,17.4322,5.40043,-4.60545,-82.3295,22.1373,-8.92335,2.10734,7.61501,-11.4598,1.91129,-0.428928,-6.89305,0.0984825,-4.61913,-6.09743,17.2629,12.8275,15.3755,21.5929,1.89921,6.87447,11.2659,0.588186,-2.04748e-14,-3.97569e-15,9.36659,-24.0572,17.4753,114.8,-59.2795,-6.74095,-48.8673,7.12502,19.1199,-77.9475,-2.04748e-14,-3.97569e-15,35.1276,36.2394,-3.75896,30.8849,34.8293,-21.6751,-19.3169,7.12502,4.72248,10.6105,-11.7665,4.76353,-7.8121,24.5339,5.97647,-31.921,-1.04468,-17.4212,3.51956,-34.0728,13.1823,-13.9843,6.44735,22.3208
-0.575086,17.4287,5.40903,-5.25325,-82.2717,22.7118,-8.82429,2.01818,7.4563,-11.4385,1.81619,-0.265117,-6.9423,0.0704689,-4.36119,-5.88305,17.3497,13.0584,15.3215,21.7898,1.47825,6.90498,11.3426,0.446304,-1.59028e-15,1.98785e-14,9.79796,-24.0683,17.2584,114.597,-59.0791,-7.14466,-49.7811,7.12502,18.7317,-78.8992,-1.59028e-15,1.98785e-14,34.687,36.2497,-3.7754,30.9967,34.6788,-21.4734,-20.4369,7.12502,4.91728,9.48606,-11.7678,4.62335,-7.93671,24.6103,7.50142,-31.5465,-3.41409,-17.5062,3.55612,-34.2153,13.4596,-14.0874,6.37244,22.2164
-0.564894,17.4224,5.42127,-5.61855,-82.186,23.0084,-8.74746,1.97126,7.47485,-11.4067,1.76499,-0.201658,-6.95825,0.0482361,-4.30731,-5.64206,17.3195,13.115,15.1054,21.8361,1.1416,6.84131,11.3434,0.315281,-6.36111e-15,2.3059e-14,10.0312,-23.982,17.0661,114.549,-59.0009,-7.73895,-50.5037,7.12502,18.16,-79.676,-6.36111e-15,2.3059e-14,34.4104,36.2333,-3.8173,31.0336,34.7375,-21.2739,-21.3649,7.12502,5.10991,8.5535,-11.7083,4.66172,-8.10586,24.6572,0.452656,-32.4442,10.095,-17.6075,3.61022,-34.3433,13.7486,-14.0998,6.30881,21.3774
-0.558397,17.4173,5.43138,-5.08817,-82.1343,22.4501,-8.75635,1.99503,7.67061,-11.3702,1.7885,-0.240479,-6.9082,0.0475872,-4.45708,-5.58411,17.2201,12.996,15.0182,21.7124,1.19249,6.77739,11.2815,0.315831,-2.22639e-14,6.36111e-15,9.92645,-23.8531,16.8932,114.856,-59.1437,-8.59653,-51.5124,7.12502,17.3348,-80.7594,-2.22639e-14,6.36111e-15,34.3249,36.1115,-3.95492,31.0582,34.9681,-21.3296,-21.1157,7.12502,5.05613,8.80394,-11.6843,4.84901,-8.13291,24.7028,-8.48195,-31.7809,25.2717,-17.7223,3.6771,-34.3402,13.9761,-14.1885,6.19654,21.3092
-0.552986,17.4149,5.44049,-4.26116,-82.082,21.6302,-8.7871,2.04386,7.81924,-11.3468,1.84446,-0.284295,-6.8559,0.0660093,-4.58422,-5.66434,17.1509,12.9947,15.1336,21.5892,1.28241,6.812,11.2291,0.340963,8.54774e-15,2.14687e-14,9.74418,-23.8106,16.779,115.134,-59.1898,-7.67504,-50.9117,7.12502,18.2215,-80.0782,8.54774e-15,2.14687e-14,34.3268,35.9399,-4.05092,31.1307,35.2536,-21.434,-20.6283,7.12502,4.95525,9.29379,-11.718,4.76766,-8.05675,24.7487,-10.1018,-31.4316,28.3405,-17.8389,3.60903,-34.277,14.1442,-14.2687,6.1508,21.7977
-0.545988,17.4141,5.44757,-3.85461,-81.9995,21.1844,-8.72277,2.06814,7.75015,-11.3246,1.88948,-0.271806,-6.86138,0.096756,-4.53207,-5.78027,17.0964,13.0851,15.2726,21.4967,1.22423,6.88881,11.1855,0.323287,-7.35503e-15,-9.54166e-15,9.62645,-23.7564,16.7586,115.22,-59.0811,-5.43277,-48.2603,7.12502,20.3776,-77.2111,-7.35503e-15,-9.54166e-15,34.3993,35.8116,-3.98619,31.1549,35.4716,-21.3371,-21.0556,7.12502,5.04886,8.86421,-11.713,4.76261,-8.01524,24.8234,-9.95734,-31.446,28.4089,-17.8889,3.39933,-34.2279,14.2899,-14.243,6.26852,21.8047
-0.538711,17.4117,5.45168,-4.41464,-81.9839,21.6852,-8.63378,1.84822,7.58495,-11.3117,1.6213,0.0161354,-6.93993,-0.0147688,-4.14373,-5.34168,17.1637,12.9024,14.9756,21.7677,0.705665,6.77088,11.2729,0.168561,1.78906e-14,2.14687e-14,10.4794,-23.769,16.2541,115.064,-59.0477,-4.5102,-45.937,7.12502,21.264,-74.7906,1.78906e-14,2.14687e-14,33.1777,35.4772,-4.88366,31.3286,35.7773,-21.3997,-21.8799,7.12502,4.98846,8.04143,-11.7495,4.91968,-8.09944,24.9694,-11.1928,-31.1981,29.9099,-17.8908,3.26278,-34.2909,14.3986,-14.2356,6.42449,21.575
-0.532704,17.4118,5.45546,-4.7273,-82.0944,21.9693,-8.59211,1.28521,7.61289,-11.3169,0.892789,0.769653,-7.07177,-0.356966,-3.37904,-4.25158,17.5458,11.4868,14.1853,22.6638,0.277843,6.26841,11.6223,0.141852,-5.96354e-16,-9.54166e-15,12.9499,-24.0616,14.8717,114.903,-58.9855,-4.74722,-45.6918,7.12502,21.0363,-74.5709,-5.96354e-16,-9.54166e-15,30.024,34.8579,-7.12261,31.6933,36.1661,-21.5824,-22.284,7.12502,4.81202,7.64137,-11.91,4.97622,-8.11595,25.1733,-11.0932,-31.2472,29.7475,-17.9178,3.3147,-34.307,14.4788,-14.3161,6.41433,21.7964
-0.524109,17.4131,5.45821,-4.67255,-82.1684,21.8731,-8.53607,1.78795,7.74096,-11.3683,1.54621,0.166404,-7.07151,-0.0672083,-4.07468,-4.01464,17.002,12.2154,13.8775,21.891,0.127582,6.1912,11.2688,-0.0976906,-2.26615e-14,2.54444e-14,11.1072,-23.5073,15.5402,115.164,-59.0134,-5.36056,-47.1244,7.12502,20.447,-76.0678,-2.26615e-14,2.54444e-14,32.4961,35.2664,-5.28388,31.5136,35.4056,-21.3361,-22.4893,7.12502,5.04985,7.43056,-12.0671,4.96948,-8.06257,25.4116,-9.53889,-31.5971,27.9839,-17.995,3.44943,-34.2828,14.6245,-14.4229,6.26089,22.3039
-0.513329,17.4083,5.461,-5.04098,-82.1591,22.1894,-8.42556,1.89575,7.74827,-11.3694,1.69695,-0.0169513,-7.11112,-0.000553422,-4.27204,-3.87386,16.8036,12.7956,13.8234,21.6549,-0.34933,6.25642,11.1499,-0.332478,-1.98785e-15,-3.18055e-15,10.6592,-23.3673,15.462,115.157,-59.0118,-5.32788,-46.8421,7.12502,20.4784,-75.7822,-1.98785e-15,-3.18055e-15,33.1721,35.4229,-4.77325,31.4577,34.9906,-21.017,-22.5971,7.12502,5.35796,7.3152,-12.2049,4.66747,-8.09162,25.6763,-7.0864,-31.9199,24.7972,-18.1364,3.58718,-34.3788,14.8835,-14.5598,6.15854,22.8712
-0.502766,17.4042,5.46479,-4.26825,-82.1539,21.4434,-8.4325,1.82907,7.78845,-11.3483,1.60932,0.0725344,-7.09742,-0.0419766,-4.20143,-3.65589,16.6946,13.7406,13.7256,21.6333,-1.52705,6.42542,11.1082,-0.789125,-2.52457e-14,7.95139e-16,10.9259,-23.4352,15.0639,115.07,-59.1958,-4.9555,-46.1993,7.12502,20.8362,-75.1004,-2.52457e-14,7.95139e-16,32.8423,35.3746,-5.07494,31.5513,34.9645,-20.9482,-22.3746,7.12502,5.42436,7.53594,-12.4504,4.12474,-7.962,25.9791,-5.44145,-31.9223,22.1424,-18.3707,3.64769,-34.3335,15.1626,-14.7351,6.10835,23.6074
-0.491697,17.4021,5.46748,-3.40732,-82.1479,20.6885,-8.56041,1.74158,7.6876,-11.3164,1.48949,0.26985,-7.00882,-0.0812504,-3.93609,-3.50388,16.6692,13.9825,13.6216,21.6789,-2.04011,6.45476,11.1104,-0.973202,1.07344e-14,3.18055e-15,11.3451,-23.529,14.7119,115.037,-59.2809,-5.37159,-46.9349,7.12502,20.4364,-75.8794,1.07344e-14,3.18055e-15,32.4734,35.4986,-5.18968,31.6992,34.7604,-20.845,-21.9493,7.12502,5.52402,7.95875,-12.7704,3.78546,-7.82583,26.3011,-5.40421,-31.7916,21.521,-18.6735,3.72612,-34.2687,15.4424,-14.8565,5.98783,23.6186
-0.481575,17.3948,5.47249,-4.40968,-82.1321,21.7168,-8.561,1.70402,7.47836,-11.2874,1.45132,0.353344,-6.98169,-0.0777391,-3.73181,-3.30222,16.6786,13.2084,13.2827,21.7114,-1.58861,6.17724,11.1221,-0.797531,-4.96962e-15,-4.77083e-15,11.6146,-23.533,14.5425,114.953,-59.151,-6.07714,-47.2501,7.12502,19.7582,-76.2659,-4.96962e-15,-4.77083e-15,32.2886,35.5995,-5.10365,31.7957,34.53,-20.782,-20.8652,7.12502,5.58481,9.04118,-12.9855,3.51252,-7.99627,26.6015,-3.2821,-31.751,17.7319,-18.8679,3.78268,-34.4554,15.7419,-14.9022,5.95651,22.7817
-0.471332,17.3891,5.47778,-4.30539,-82.0987,21.5366,-8.40812,1.72994,7.57883,-11.2812,1.50006,0.36037,-7.05543,-0.0618919,-3.78154,-2.93572,16.6778,11.9449,12.6703,21.7258,-0.726583,5.68528,11.1283,-0.491235,4.57205e-15,1.59028e-14,11.6024,-23.4465,14.5072,114.834,-58.966,-6.35941,-47.2617,7.12502,19.4868,-76.3052,4.57205e-15,1.59028e-14,32.2795,35.4957,-5.06642,31.7623,34.5182,-20.8875,-19.5777,7.12502,5.48298,10.3313,-13.0938,3.14766,-7.95867,26.8703,0.423838,-31.5217,11.2912,-18.9452,3.71058,-34.4537,16.0038,-14.9151,6.14575,21.5806
-0.461757,17.3905,5.47673,-2.63367,-82.0429,19.8073,-8.31123,1.70864,7.75372,-11.2663,1.4813,0.484751,-7.09894,-0.0794675,-3.74879,-2.73185,16.5898,11.8779,12.451,21.683,-1.06294,5.61002,11.0871,-0.612166,1.55052e-14,-2.22639e-14,11.6824,-23.4075,14.4039,114.774,-58.7324,-6.14329,-47.6593,7.12502,19.6946,-76.6816,1.55052e-14,-2.22639e-14,32.2073,35.475,-5.06102,31.708,34.5184,-20.7829,-19.7666,7.12502,5.58396,10.1398,-13.193,3.02654,-7.61822,27.0982,1.47183,-31.4765,8.96862,-19.0421,3.47345,-34.1604,16.2275,-14.99,6.32116,21.0119
-0.454623,17.3906,5.47602,-2.15147,-81.9508,19.2789,-8.25497,1.61106,7.76495,-11.2361,1.3606,0.550434,-7.11331,-0.136001,-3.68938,-2.66643,16.7934,11.2779,12.4586,21.9292,-0.465808,5.48278,11.2178,-0.366445,-5.1684e-15,-9.54166e-15,11.9179,-23.3961,14.0515,114.931,-58.482,-5.88002,-47.6733,7.12502,19.9477,-76.6695,-5.1684e-15,-9.54166e-15,31.9221,35.4103,-5.33186,31.732,34.5546,-20.7954,-19.7857,7.12502,5.57192,10.1211,-13.2388,3.21774,-7.46492,27.2717,1.05798,-31.7695,9.04972,-19.1383,3.18825,-34.0306,16.4732,-15.1714,6.28476,21.498
-0.447309,17.3839,5.47977,-2.40903,-81.8262,19.4292,-8.16102,1.48941,7.82514,-11.1793,1.20834,0.530497,-7.12233,-0.213542,-3.7496,-2.72897,16.9551,11.0573,12.6489,22.1026,-0.0630632,5.49245,11.3168,-0.200316,-2.18663e-15,2.38542e-14,12.1519,-23.3803,13.6077,115.012,-58.4115,-5.80664,-46.6486,7.12502,20.0182,-75.6375,-2.18663e-15,2.38542e-14,31.4534,35.1343,-5.96559,31.7357,34.7902,-21.0691,-19.5162,7.12502,5.30766,10.3974,-13.1876,3.46859,-7.46092,27.4095,-1.27443,-32.1225,12.7633,-19.1592,3.04031,-34.0654,16.717,-15.3499,6.15702,22.2343
-0.439453,17.3774,5.48404,-2.04744,-81.7506,18.9347,-8.05639,1.42917,7.90804,-11.1019,1.14222,0.597432,-7.10514,-0.243715,-3.72792,-2.7661,16.8437,11.1838,12.7209,21.9914,-0.438666,5.57223,11.2469,-0.319523,-4.03533e-14,2.22639e-14,12.3007,-23.3586,13.3979,114.853,-58.4644,-5.53458,-45.5396,7.12502,20.2797,-74.5009,-4.03533e-14,2.22639e-14,31.1649,34.9879,-6.2493,31.727,34.9841,-21.3106,-20.053,7.12502,5.07449,9.86628,-13.151,3.58912,-7.36581,27.5426,-3.00091,-32.187,14.9431,-19.1533,2.92739,-34.0002,16.9427,-15.4492,6.18996,22.4751
-0.432367,17.3744,5.48774,-1.69978,-81.7318,18.5108,-7.99548,1.50338,7.84251,-11.0239,1.25386,0.590054,-7.03774,-0.174758,-3.6981,-2.92643,16.6035,11.4983,12.7768,21.6955,-0.950111,5.69157,11.0847,-0.505225,-6.55989e-15,-9.54166e-15,12.0074,-23.2983,13.4977,114.801,-58.5462,-5.31668,-45.0435,7.12502,20.4891,-73.9823,-6.55989e-15,-9.54166e-15,31.5605,35.189,-5.72054,31.7608,34.7686,-21.6795,-20.3753,7.12502,4.7182,9.5522,-13.2086,3.60726,-7.25713,27.6921,-3.03902,-32.2446,13.9373,-19.2086,2.7937,-33.9211,17.1914,-15.5295,6.3133,22.2257
-0.426956,17.3713,5.49033,-1.6045,-81.7192,18.357,-7.98429,1.69942,7.72929,-10.9292,1.51779,0.348828,-6.90019,-0.0318112,-3.8858,-3.73056,16.5232,12.298,13.6731,21.4308,-0.961657,6.18337,10.9831,-0.499945,1.8487e-14,-2.14687e-14,11.1249,-23.1982,13.7944,114.931,-58.757,-6.04784,-45.6826,7.12502,19.7864,-74.6955,1.8487e-14,-2.14687e-14,32.6516,35.4951,-4.82912,31.8054,34.468,-21.8659,-20.7299,7.12502,4.53824,9.20153,-13.3078,3.57927,-7.15964,27.8786,-3.35039,-32.4037,13.9965,-19.282,2.77528,-33.8965,17.4307,-15.6379,6.29144,22.1525
-0.423902,17.3679,5.49026,-1.063,-81.7429,17.7387,-7.9922,1.58081,7.73044,-10.8545,1.36554,0.517585,-6.83497,-0.0944796,-3.71103,-4.52517,16.9408,12.2304,15.1102,21.8319,-0.359348,6.72905,11.212,-0.126639,-1.72943e-14,-3.81667e-14,11.6284,-23.2754,13.4204,114.876,-58.7166,-6.94195,-46.9375,7.12502,18.9266,-76.0367,-1.72943e-14,-3.81667e-14,32.0097,35.3944,-5.32524,32.0031,34.5358,-21.7699,-20.8425,7.12502,4.63098,9.08693,-13.4343,3.35257,-6.94767,28.0821,0.0141115,-32.4164,8.1621,-19.3464,2.8868,-33.8113,17.6458,-15.7698,6.15497,22.4902
-0.418675,17.3641,5.48757,-1.06969,-81.7568,17.7236,-8.03309,1.61131,7.59734,-10.8042,1.40767,0.497035,-6.74974,-0.0580349,-3.6572,-5.09313,17.0735,12.1176,15.9402,21.8477,0.301481,7.00785,11.258,0.173443,2.26615e-14,4.77083e-15,11.4901,-23.2104,13.3657,114.831,-58.4469,-7.12187,-47.3943,7.12502,18.7536,-76.5103,2.26615e-14,4.77083e-15,32.1241,35.2911,-5.38972,31.9353,34.5805,-21.6453,-20.4475,7.12502,4.75126,9.47921,-13.5903,3.05232,-6.85297,28.2665,2.21754,-31.9193,4.15968,-19.4824,2.93593,-33.8128,17.8832,-15.9266,6.06137,23.1415
-0.409878,17.3603,5.48643,-1.53754,-81.7332,18.1577,-8.00977,1.73295,7.4349,-10.7689,1.5739,0.275253,-6.69854,0.0333299,-3.79811,-5.28469,17.0145,11.6486,15.9778,21.6104,1.31867,6.8709,11.1928,0.501357,-7.15625e-15,-2.06736e-14,10.8197,-23.0229,13.4799,114.949,-58.3374,-7.10973,-47.0724,7.12502,18.7653,-76.1872,-7.15625e-15,-2.06736e-14,32.7651,35.1089,-5.29439,31.6964,34.8503,-21.4178,-19.3491,7.12502,4.97098,10.5726,-13.6859,2.98135,-6.90228,28.4407,-1.86288,-31.6644,10.3922,-19.604,2.98049,-33.894,18.1271,-16.0296,6.03206,23.4063
-0.402071,17.359,5.48714,-1.40031,-81.7019,17.9314,-7.92456,1.74438,7.4261,-10.737,1.59739,0.183275,-6.70635,0.0446483,-3.8919,-5.34631,17.961,5.48818,14.8083,22.4298,8.86266,4.93383,11.8081,3.15317,1.21259e-14,1.19271e-14,10.5705,-22.894,13.3671,114.999,-58.2668,-6.75039,-46.375,7.12502,19.1109,-75.4561,1.21259e-14,1.19271e-14,32.8894,34.9056,-5.49747,31.6538,35.1563,-21.3007,-18.4759,7.12502,5.08404,11.4431,-13.7289,3.13777,-6.8232,28.6343,-3.54884,-31.2644,11.6522,-19.6381,2.96736,-33.8409,18.3341,-16.0854,5.97528,23.5335
-0.395382,17.3576,5.48835,-1.23252,-81.5993,17.7228,-7.89673,1.6198,7.42288,-10.7253,1.43787,0.285043,-6.73099,-0.030881,-3.78681,-5.33208,17.0333,11.2014,16.3469,21.5508,2.04298,6.86509,11.1977,0.770676,3.73715e-14,3.97569e-15,10.9148,-22.8645,13.0465,114.941,-58.1582,-6.00753,-45.6944,7.12502,19.8251,-74.7033,3.73715e-14,3.97569e-15,32.3963,34.7318,-5.87603,31.7755,35.387,-21.4003,-19.1091,7.12502,4.98787,10.8122,-13.799,3.25114,-6.67586,28.8521,-2.28004,-31.2272,8.35043,-19.6955,2.77582,-33.7843,18.5197,-16.1652,5.97192,23.5389
-0.389228,17.3527,5.49081,-1.07441,-81.4705,17.5278,-7.91896,1.58907,7.49009,-10.6899,1.3945,0.303753,-6.68522,-0.0528509,-3.80529,-5.46022,17.0665,10.9195,16.7352,21.5703,2.29137,6.95437,11.2137,0.906845,-7.95139e-15,-1.98785e-14,10.9693,-22.794,12.8847,114.923,-58.1155,-5.80067,-46.0959,7.12502,20.024,-75.0841,-7.95139e-15,-1.98785e-14,32.3151,34.6833,-5.8759,31.8724,35.5393,-21.3142,-20.0674,7.12502,5.07093,9.85193,-13.9069,3.06689,-6.50965,29.1614,-2.15124,-31.2491,7.80901,-19.7986,2.74685,-33.821,18.7801,-16.2841,6.05022,22.9065
-0.383765,17.3473,5.4945,-1.02653,-81.3962,17.4234,-7.94858,1.64686,7.63476,-10.6396,1.46169,0.179745,-6.60251,-0.0284533,-4.01548,-5.47128,17.0165,10.9171,16.8737,21.477,2.40665,6.98524,11.1781,0.938862,1.8487e-14,-3.18055e-15,10.6679,-22.6562,12.7891,114.959,-58.0259,-6.23268,-47.4191,7.12502,19.6087,-76.4502,1.8487e-14,-3.18055e-15,32.538,34.5816,-5.86937,31.9086,35.7077,-21.186,-21.1435,7.12502,5.19475,8.77281,-14.0562,2.64376,-6.36122,29.5119,-0.542732,-31.0622,4.78808,-19.8698,2.82199,-33.8884,19.0158,-16.3728,6.11705,22.5123
-0.376032,17.3339,5.49354,-0.978085,-81.2952,17.3295,-7.96319,1.73432,7.70206,-10.6215,1.57315,0.0840167,-6.55798,0.0218964,-4.15137,-5.36265,16.8665,11.0488,16.937,21.3022,2.21057,7.01864,11.0873,0.844021,-6.36111e-15,1.19271e-14,10.2646,-22.46,12.9219,115.074,-58.0138,-6.43756,-47.6606,7.12502,19.4117,-76.7116,-6.36111e-15,1.19271e-14,32.8125,34.3973,-5.72286,31.9819,35.825,-21.1232,-21.8791,7.12502,5.25543,8.03571,-14.2319,2.22619,-6.22322,29.8602,1.57497,-30.7338,0.238228,-19.9837,2.87833,-33.9073,19.267,-16.4435,5.9532,22.8441
-0.370674,17.328,5.49183,-0.794413,-81.1586,17.0955,-7.98788,1.8253,7.70437,-10.5998,1.69301,0.0525382,-6.50363,0.0844667,-4.18205,-5.23478,16.6517,11.2415,16.9732,21.0825,1.75585,7.07264,10.9589,0.660069,6.75868e-15,9.54166e-15,9.93486,-22.2653,13.1604,115.175,-58.0309,-6.03263,-46.2167,7.12502,19.801,-75.2281,6.75868e-15,9.54166e-15,33.1521,34.3035,-5.32861,32.1703,35.8363,-20.9801,-20.7343,7.12502,5.39359,9.17711,-14.324,1.97192,-6.09059,30.1428,0.00774312,-30.6623,2.02223,-20.0991,3.11815,-33.9083,19.518,-16.5497,5.44949,23.4881
-0.368947,17.325,5.49021,-0.932674,-81.1141,17.2029,-8.05733,1.8076,7.60027,-10.5629,1.66843,0.0996196,-6.42806,0.086402,-4.07315,-4.98871,16.5831,11.2497,16.8713,21.0591,1.52173,7.02386,10.9321,0.560822,-1.72943e-14,-1.98785e-14,10.071,-22.2137,12.997,115.116,-57.9622,-5.39233,-44.6433,7.12502,20.4164,-73.59,-1.72943e-14,-1.98785e-14,32.9821,34.116,-5.45747,32.343,35.9154,-21.0058,-19.3171,7.12502,5.36879,10.5949,-14.4245,2.08717,-6.05775,30.4381,-2.48977,-30.4497,5.48066,-20.2072,3.18136,-33.9129,19.7732,-16.7219,5.14242,24.1846
-0.365947,17.3232,5.48893,-1.46904,-81.1206,17.699,-8.06567,1.72892,7.40592,-10.5336,1.57176,0.144125,-6.40431,0.0562577,-3.92023,-4.8184,16.6296,11.14,16.9322,21.1419,1.59332,6.99912,10.9734,0.589476,2.82274e-14,-2.38542e-15,10.3364,-22.1923,12.6585,114.981,-58.0768,-4.98412,-43.8511,7.12502,20.8087,-72.7553,2.82274e-14,-2.38542e-15,32.5314,33.7817,-5.97044,32.4235,36.0154,-21.24,-19.4982,7.12502,5.14264,10.4194,-14.5128,2.1005,-6.09769,30.6868,-4.25077,-30.0178,8.37528,-20.2428,3.09342,-33.9662,19.9408,-16.8398,5.18053,24.1976
