JuanDHNZ/ProyectoFinalCD/preprocessing/sports_trials_csv/49_13.csv
root1,root2,root3,root4,root5,root6,lowerback1,lowerback2,lowerback3,upperback1,upperback2,upperback3,thorax1,thorax2,thorax3,lowerneck1,lowerneck2,lowerneck3,upperneck1,upperneck2,upperneck3,head1,head2,head3,rclavicle1,rclavicle2,rhumerus1,rhumerus2,rhumerus3,rradius1,rwrist1,rhand1,rhand2,rfingers1,rthumb1,rthumb2,lclavicle1,lclavicle2,lhumerus1,lhumerus2,lhumerus3,lradius1,lwrist1,lhand1,lhand2,lfingers1,lthumb1,lthumb2,rfemur1,rfemur2,rfemur3,rtibia1,rfoot1,rfoot2,rtoes1,lfemur1,lfemur2,lfemur3,ltibia1,lfoot1,lfoot2,ltoes1
4.24497,17.6675,1.78889,18.2111,2.38074,-1.62197,-8.79742,1.3474,12.2208,-12.6595,1.53564,1.51396,-8.55757,-0.231155,-5.14195,-2.11506,18.3805,11.3068,7.2676,23.7178,4.05682,3.60624,12.1738,0.644201,1.33186e-14,-2.78299e-14,5.98904,-22.1912,28.3245,117.42,-72.5231,-2.09189,-42.7429,7.12502,23.5853,-71.3165,1.33186e-14,-2.78299e-14,36.4389,32.4574,-7.86162,28.0991,29.4072,-21.3579,-17.3106,7.12502,5.02877,12.6098,-4.32394,9.4838,-2.67914,15.1785,20.9391,-14.892,-17.5517,-16.1458,-0.369186,-27.0925,12.6548,-12.9535,8.4452,11.6597
4.24661,17.6677,1.79206,18.266,2.44851,-1.63703,-8.86708,1.33749,12.3155,-12.6424,1.50695,1.50805,-8.5062,-0.250538,-5.2002,-2.18019,18.4813,11.0835,7.26785,23.8338,4.35949,3.54693,12.2357,0.765125,-1.19271e-15,1.59028e-14,5.78229,-22.2086,28.4911,117.435,-72.5649,-1.89537,-42.6269,7.12502,23.7737,-71.1762,-1.19271e-15,1.59028e-14,36.2525,32.5926,-8.04469,28.0645,29.451,-20.2161,-17.6372,7.12502,6.13123,12.2541,-4.26812,9.36447,-2.6222,15.0623,20.7822,-14.9397,-17.479,-16.2247,-0.276663,-27.0911,12.7557,-12.9975,8.28419,11.5145
4.24524,17.6692,1.79361,18.3198,2.50808,-1.63608,-8.92313,1.30333,12.3124,-12.6486,1.45472,1.53162,-8.49156,-0.274338,-5.17317,-2.23679,18.544,11.0057,7.32306,23.9042,4.46973,3.5524,12.2744,0.818719,1.19271e-15,-4.77083e-15,5.72999,-22.2556,28.541,117.375,-72.5501,-1.47845,-42.5521,7.12502,24.1735,-71.0488,1.19271e-15,-4.77083e-15,36.0223,32.5992,-8.22994,28.1139,29.7697,-20.9335,-17.7186,7.12502,5.43858,12.1916,-4.22926,9.37693,-2.59171,14.9781,20.6871,-15.0478,-17.9562,-16.3338,-0.270301,-27.0749,12.8316,-13.0521,8.21625,11.5174
4.24612,17.6691,1.79886,18.3628,2.56104,-1.66054,-9.00736,1.28708,12.3499,-12.6596,1.42123,1.55781,-8.46451,-0.291668,-5.16483,-2.16625,18.5703,11.0083,7.3038,23.9503,4.46021,3.53555,12.2961,0.809673,-1.78906e-15,-4.77083e-15,5.66154,-22.2477,28.6015,117.37,-72.6715,-1.50633,-42.5842,7.12502,24.1468,-71.0844,-1.78906e-15,-4.77083e-15,35.7409,32.5707,-8.44994,28.198,30.2882,-22.9118,-17.6436,7.12502,3.52828,12.3069,-4.18555,9.31847,-2.53706,14.9354,20.7335,-15.0816,-18.5247,-16.3763,-0.323136,-27.0362,12.8432,-13.1093,8.24019,11.6364
4.24608,17.6665,1.80409,18.3602,2.59922,-1.62327,-8.99616,1.25828,12.3265,-12.6728,1.38689,1.56179,-8.49211,-0.308596,-5.14843,-2.19328,18.5953,11.0079,7.35802,23.9759,4.48994,3.55636,12.3118,0.827101,1.86858e-14,-2.54444e-14,5.49513,-22.2534,28.723,117.431,-72.9889,-1.4618,-42.7133,7.12502,24.1895,-71.2079,1.86858e-14,-2.54444e-14,35.2813,32.3956,-8.92484,28.3267,30.8179,-23.8583,-17.4875,7.12502,2.61422,12.4762,-4.10583,9.21755,-2.5346,14.8946,20.8209,-15.1143,-18.4287,-16.377,-0.315016,-27.0759,12.865,-13.1212,8.21613,11.528
4.24587,17.6644,1.80763,18.3389,2.55431,-1.58068,-8.93901,1.246,12.279,-12.6981,1.38271,1.55824,-8.55341,-0.311346,-5.12678,-2.21466,18.5995,11.0658,7.47503,23.9708,4.49513,3.60975,12.3153,0.834483,1.13307e-14,-1.27222e-14,5.46625,-22.3439,28.6746,117.371,-73.2517,-0.990836,-42.9884,7.12502,24.641,-71.4221,1.13307e-14,-1.27222e-14,34.7381,32.0607,-9.54676,28.5025,31.4891,-24.1953,-16.9054,7.12502,2.28876,13.062,-4.10332,9.18356,-2.5809,14.9268,20.7936,-15.1128,-18.2906,-16.3163,-0.373135,-27.1172,12.7946,-13.0788,8.2811,11.4782
4.24808,17.664,1.81121,18.3382,2.60076,-1.5599,-8.92838,1.23066,12.3005,-12.7412,1.36655,1.54513,-8.61364,-0.327148,-5.15298,-2.16974,18.6011,11.0584,7.54829,23.9707,4.5865,3.61373,12.321,0.861132,1.41137e-14,2.38542e-15,5.39841,-22.3995,28.65,117.337,-73.3974,-0.277396,-43.0908,7.12502,25.3246,-71.4295,1.41137e-14,2.38542e-15,34.6237,32.1443,-9.56818,28.5313,31.8161,-24.227,-16.5944,7.12502,2.25813,13.3734,-4.12855,9.10658,-2.59235,15.0887,20.7307,-15.0854,-18.3468,-16.1775,-0.423781,-27.1327,12.5705,-12.9857,8.22401,11.6344
4.24557,17.6579,1.81323,18.3158,2.72308,-1.51667,-8.87231,1.17817,12.283,-12.7842,1.30915,1.52599,-8.70606,-0.362104,-5.16571,-2.11102,18.6293,11.009,7.50327,24.0111,4.72028,3.56143,12.3424,0.895069,-2.18663e-15,1.03368e-14,5.06732,-22.3565,28.8761,117.483,-73.5236,0.335943,-42.7397,7.12502,25.9121,-70.9938,-2.18663e-15,1.03368e-14,34.8848,32.6383,-9.05121,28.4177,31.6461,-23.5272,-16.7853,7.12502,2.93399,13.1742,-4.07673,9.07605,-2.57916,15.21,20.7084,-15.1483,-18.1672,-16.0709,-0.203501,-27.2221,12.4311,-12.7161,8.09077,9.7518
4.24147,17.6515,1.81188,18.3017,2.76054,-1.49734,-8.72628,1.13966,12.2721,-12.8223,1.28369,1.51623,-8.83882,-0.383473,-5.17211,-2.04937,18.6538,11.0107,7.35659,24.0567,4.72634,3.49774,12.3591,0.8808,-1.15295e-14,5.56597e-15,4.79831,-22.3073,29.0739,117.571,-73.579,0.508362,-42.3233,7.12502,26.0772,-70.5532,-1.15295e-14,5.56597e-15,35.0163,32.9786,-8.71969,28.3525,31.6513,-22.6237,-17.092,7.12502,3.80651,12.8537,-4.07656,9.0884,-2.57217,15.2627,20.7178,-15.198,-18.0808,-16.0545,-0.0442438,-27.2802,12.4077,-12.4913,8.13056,7.78857
4.24128,17.6554,1.81247,18.3044,2.77028,-1.46548,-8.64936,1.12916,12.2471,-12.813,1.28134,1.51168,-8.87142,-0.384133,-5.16432,-2.07059,18.6587,10.9503,7.22756,24.0697,4.70494,3.45019,12.3583,0.873509,1.05356e-14,1.98785e-14,4.62571,-22.3498,29.2098,117.586,-73.4642,0.147246,-42.2948,7.12502,25.7314,-70.5752,1.05356e-14,1.98785e-14,35.1568,33.3763,-8.3601,28.302,31.7587,-22.0009,-17.1712,7.12502,4.40787,12.7629,-4.10536,9.02559,-2.59398,15.3235,20.7488,-15.1497,-18.1023,-16.0383,-0.306767,-27.2353,12.3833,-12.6544,8.13131,9.78025
4.24143,17.6603,1.81654,18.2694,2.76167,-1.43489,-8.62724,1.14068,12.2026,-12.7798,1.29798,1.5006,-8.84007,-0.369318,-5.15223,-2.19967,18.5923,10.9464,7.23726,23.9686,4.62752,3.48531,12.3066,0.861064,-7.95139e-15,-2.38542e-15,4.30634,-22.3604,29.4743,117.726,-73.4298,-0.623524,-42.5264,7.12502,24.993,-70.9116,-7.95139e-15,-2.38542e-15,35.5958,34.0785,-7.61915,28.1525,31.5801,-22.1517,-16.8805,7.12502,4.26233,13.0566,-4.04976,9.0031,-2.61504,15.2924,20.8152,-15.1233,-18.2357,-16.0204,-0.526564,-27.1987,12.4901,-12.9275,8.09795,11.9527
4.24182,17.6615,1.82064,18.2516,2.75269,-1.50549,-8.55655,1.15178,12.2954,-12.8063,1.32387,1.50763,-8.91052,-0.369461,-5.19586,-2.25428,18.4576,11.1352,7.2877,23.7869,4.36867,3.57214,12.2149,0.769096,9.93923e-15,-2.14687e-14,3.97099,-22.299,29.7288,117.961,-73.6523,-1.2421,-42.7676,7.12502,24.4001,-71.2339,9.93923e-15,-2.14687e-14,36.1032,34.7939,-6.80928,27.9134,30.9823,-22.6195,-16.6997,7.12502,3.81053,13.2459,-3.9659,9.0627,-2.54473,15.1406,20.9441,-15.1842,-18.2877,-16.1046,-0.54166,-27.1196,12.7402,-13.0875,8.15945,12.2791
4.24307,17.664,1.8223,18.2843,2.87705,-1.59431,-8.51671,1.12558,12.4598,-12.8506,1.29586,1.51913,-8.99763,-0.404302,-5.27432,-2.18653,18.4328,11.2014,7.21471,23.7684,4.27944,3.5549,12.2014,0.723371,-1.98785e-16,-1.35174e-14,3.75463,-22.282,29.8542,118.119,-73.7617,-1.42864,-42.9339,7.12502,24.2213,-71.4243,-1.98785e-16,-1.35174e-14,36.3526,35.2441,-6.35701,27.7492,30.4815,-22.4898,-16.6936,7.12502,3.93578,13.2498,-3.87847,9.04543,-2.40933,14.9985,21.16,-15.3531,-18.3037,-16.2359,-0.571949,-27.0041,12.9278,-13.1917,8.15593,12.3669
4.24381,17.667,1.82194,18.3314,3.02397,-1.64202,-8.53369,1.10574,12.5749,-12.8461,1.26352,1.51145,-8.99338,-0.430679,-5.34635,-2.05866,18.5223,11.0571,6.95343,23.9129,4.41381,3.40228,12.2633,0.749533,-7.35503e-15,9.54166e-15,3.58672,-22.377,29.9269,118.149,-73.6962,-1.405,-43.0165,7.12502,24.244,-71.5038,-7.35503e-15,9.54166e-15,36.4574,35.566,-6.13762,27.6684,30.35,-22.3197,-16.8123,7.12502,4.10006,13.1279,-3.80798,9.01131,-2.31063,14.8734,21.3075,-15.5704,-18.6262,-16.3613,-0.622982,-26.9231,13.0572,-13.261,8.10733,12.4063
4.24373,17.6676,1.8256,18.3685,3.10122,-1.73091,-8.56557,1.11846,12.6914,-12.8279,1.27229,1.53073,-8.9569,-0.43265,-5.38913,-2.14378,18.5576,10.8822,6.86939,23.954,4.51974,3.34934,12.2801,0.800964,-5.76476e-15,1.43125e-14,3.43821,-22.5208,30.0482,118.139,-73.6857,-1.22608,-43.0525,7.12502,24.4155,-71.5168,-5.76476e-15,1.43125e-14,36.5254,35.8623,-5.93628,27.6279,30.3917,-22.2859,-16.9485,7.12502,4.13272,12.9912,-3.78026,9.04297,-2.19214,14.7703,21.2285,-15.6567,-18.7707,-16.4506,-0.721376,-26.7926,13.1704,-13.3288,8.15878,12.4375
4.24294,17.6668,1.831,18.3794,3.17667,-1.85007,-8.56511,1.11345,12.8095,-12.8289,1.26595,1.58101,-8.9652,-0.443858,-5.39928,-2.43164,18.5904,10.7245,7.06995,23.9507,4.66749,3.43056,12.2883,0.904592,4.96962e-15,-1.51076e-14,3.30915,-22.6144,30.1786,118.17,-73.6607,-1.35316,-42.9704,7.12502,24.2937,-71.451,4.96962e-15,-1.51076e-14,36.3653,35.9314,-6.0079,27.6783,30.6728,-22.0762,-16.9423,7.12502,4.33516,12.9934,-3.7687,9.01356,-2.03358,14.7567,21.2814,-15.6055,-18.5171,-16.4648,-0.801277,-26.6307,13.203,-13.3731,8.20026,12.5383
4.2426,17.6667,1.83098,18.3802,3.17493,-1.85586,-8.49313,1.09496,12.7927,-12.8348,1.25525,1.60479,-9.01532,-0.449468,-5.36491,-2.41488,18.639,10.7097,7.02614,24.0233,4.62727,3.41725,12.3208,0.894608,3.37934e-15,-1.59028e-14,3.20653,-22.722,30.2147,118.195,-73.5386,-1.95547,-42.8268,7.12502,23.7161,-71.3835,3.37934e-15,-1.59028e-14,35.9766,35.7667,-6.38659,27.8087,31.3705,-22.3267,-16.8757,7.12502,4.09326,13.0647,-3.81937,8.89676,-2.04646,14.8098,21.4461,-15.4699,-18.6045,-16.473,-0.807929,-26.6279,13.1783,-13.3292,8.23174,12.4235
4.24126,17.667,1.83023,18.3768,3.09257,-1.78144,-8.36408,1.09896,12.6911,-12.8813,1.28661,1.58266,-9.13389,-0.434937,-5.33377,-2.17134,18.6154,10.8346,6.84345,24.0377,4.43233,3.35326,12.317,0.788505,-8.54774e-15,2.54444e-14,3.07768,-22.7358,30.2766,118.225,-73.4299,-2.39277,-42.603,7.12502,23.2966,-71.2135,-8.54774e-15,2.54444e-14,36,35.8582,-6.27443,27.8189,31.7668,-22.8468,-16.8352,7.12502,3.59107,13.1143,-3.97357,8.90451,-2.17905,14.9814,21.3807,-15.4048,-19.0029,-16.4292,-0.804565,-26.7215,13.0636,-13.1739,8.32125,12.106
4.24032,17.6685,1.83187,18.3639,3.04731,-1.78924,-8.22702,1.10186,12.712,-12.927,1.31426,1.55567,-9.26216,-0.434328,-5.37559,-2.29578,18.579,10.9745,6.9304,23.9649,4.36937,3.43348,12.2854,0.773678,-1.05356e-14,7.95139e-16,2.93771,-22.7008,30.3228,118.274,-73.4104,-2.66904,-42.3442,7.12502,23.0316,-70.988,-1.05356e-14,7.95139e-16,36.0972,35.9909,-6.12007,27.8688,32.1834,-23.1576,-16.6501,7.12502,3.29086,13.3043,-4.17597,9.03515,-2.20019,15.2976,21.2029,-15.4107,-19.0261,-16.2715,-0.879826,-26.7002,12.8011,-12.9907,8.45936,11.8483
4.23813,17.6641,1.83322,18.3535,3.02894,-1.82803,-8.12474,1.09084,12.7568,-12.9502,1.31625,1.5458,-9.35014,-0.444423,-5.41194,-2.71813,18.5548,11.1352,7.26189,23.8534,4.35088,3.65219,12.2461,0.818953,1.98785e-16,-1.74931e-14,2.88967,-22.7559,30.2585,118.243,-73.3309,-2.85157,-42.251,7.12502,22.8564,-70.9166,1.98785e-16,-1.74931e-14,35.5328,35.5827,-6.83666,28.2303,33.7028,-23.4451,-16.0656,7.12502,3.01324,13.8928,-4.35082,9.11852,-2.18485,15.6039,21.1555,-15.3474,-18.9889,-16.1083,-0.841559,-26.691,12.5219,-12.8298,8.63213,10.4927
4.23352,17.659,1.83889,18.3709,2.98567,-1.77911,-8.11436,1.07946,12.6502,-13.0155,1.30937,1.52583,-9.43035,-0.446621,-5.37466,-2.84529,18.585,11.1591,7.49391,23.8523,4.53969,3.73576,12.2615,0.901809,1.15295e-14,-3.10104e-14,2.9549,-22.8396,30.1558,118.141,-73.1396,-2.40292,-42.4232,7.12502,23.2869,-71.0349,1.15295e-14,-3.10104e-14,35.0608,35.173,-7.45914,28.5055,35.0954,-23.4504,-15.8011,7.12502,3.00812,14.1574,-4.47879,9.18736,-2.25498,15.8437,21.0632,-15.1963,-19.0341,-15.9771,-0.777716,-26.7762,12.277,-12.7104,8.73931,9.35089
4.2304,17.665,1.84857,18.366,2.86559,-1.71804,-8.12846,1.09347,12.4769,-13.0294,1.32968,1.51863,-9.4274,-0.421245,-5.28678,-2.8648,18.6918,10.9063,7.49307,23.9811,4.9132,3.65288,12.3325,1.04045,7.35503e-15,-1.35174e-14,2.96969,-23.0567,30.1832,118.085,-73.0091,-1.73283,-42.7039,7.12502,23.9296,-71.2328,7.35503e-15,-1.35174e-14,34.7911,34.9668,-7.80129,28.6735,36.2752,-23.2598,-16.2126,7.12502,3.19225,13.7433,-4.61164,9.36493,-2.33811,16.0609,20.7914,-15.025,-18.8692,-15.7759,-0.960504,-26.7855,11.971,-12.6173,8.79865,10.5645
4.22364,17.671,1.85844,18.3212,2.67456,-1.73049,-8.10234,1.1347,12.3094,-13.0157,1.39216,1.54766,-9.4081,-0.371182,-5.16296,-2.9314,18.7417,10.7255,7.46521,24.0394,5.0846,3.60639,12.3623,1.11402,1.05356e-14,-3.65764e-14,2.84103,-23.1986,30.3824,118.115,-72.7816,-1.61296,-42.8526,7.12502,24.0446,-71.3664,1.05356e-14,-3.65764e-14,34.622,34.8571,-7.95112,28.8871,37.4525,-23.3589,-16.5987,7.12502,3.09649,13.3585,-4.73621,9.81496,-2.3719,16.1664,20.9055,-15.2998,-19.0481,-15.5786,-1.09779,-26.7142,11.7315,-12.5217,8.93817,11.7998
4.21773,17.6723,1.86536,18.2903,2.63709,-1.65456,-7.98024,1.1108,12.1317,-13.1372,1.39293,1.53979,-9.61612,-0.371034,-5.07424,-2.74324,18.7545,10.7268,7.38694,24.0814,5.14953,3.53524,12.3821,1.10642,-2.04748e-14,4.6118e-14,2.76867,-23.0652,30.4833,118.14,-72.3609,-1.87657,-42.9874,7.12502,23.7918,-71.5343,-2.04748e-14,4.6118e-14,34.4987,34.6072,-8.04792,29.1317,38.3275,-24.454,-16.5602,7.12502,2.03888,13.4098,-4.71488,10.1928,-2.46734,16.1295,21.3854,-15.8179,-19.7425,-15.5001,-1.10971,-26.7653,11.6558,-12.5162,8.94918,12.2405
4.21714,17.6771,1.86889,18.3302,2.75319,-1.63657,-7.89609,1.06445,12.1079,-13.2886,1.35867,1.54331,-9.85114,-0.404363,-5.05696,-2.49301,18.8021,10.6825,7.24155,24.1813,5.25323,3.4181,12.4277,1.10473,5.96354e-16,-1.11319e-14,2.80126,-23.0113,30.4705,118.11,-72.2469,-2.38071,-43.1498,7.12502,23.3082,-71.7589,5.96354e-16,-1.11319e-14,34.3905,34.4038,-8.12584,29.3405,39.0461,-25.9034,-16.32,7.12502,0.638998,13.6588,-4.70508,10.3509,-2.4547,16.0546,21.6108,-16.017,-20.0922,-15.494,-1.16876,-26.7444,11.5741,-12.5264,8.872,12.4678
4.21742,17.6844,1.87392,18.4638,2.85114,-1.79455,-8.04632,1.08639,12.2415,-13.3062,1.3678,1.59155,-9.78914,-0.406478,-5.07563,-2.45381,18.828,10.6863,7.08586,24.233,5.16693,3.36908,12.444,1.06694,1.98785e-16,6.36111e-15,2.73168,-23.1901,30.5114,118.048,-72.3221,-2.78969,-43.1875,7.12502,22.9158,-71.8457,1.98785e-16,6.36111e-15,34.7157,34.8938,-7.62928,29.2766,38.9155,-26.2377,-16.285,7.12502,0.316189,13.6945,-4.82628,10.5008,-2.28255,15.9489,21.7086,-16.0819,-20.1672,-15.5733,-1.29135,-26.5316,11.4706,-12.4186,8.93379,12.2435
4.22097,17.6876,1.88345,18.5292,2.92841,-1.88238,-8.20156,1.11799,12.3596,-13.2484,1.37862,1.58893,-9.63268,-0.401184,-5.14208,-2.53519,18.8189,10.7219,6.89598,24.2268,4.98527,3.34677,12.4283,1.00755,-2.20651e-14,1.90833e-14,2.49943,-23.441,30.6759,118.009,-72.3463,-2.61888,-43.153,7.12502,23.0797,-71.7908,-2.20651e-14,1.90833e-14,35.1439,35.5011,-7.09324,29.1292,38.4201,-26.2889,-16.4638,7.12502,0.266689,13.5158,-4.79951,10.5765,-2.20368,15.8012,21.856,-16.1132,-20.0529,-15.57,-1.35137,-26.4327,11.4194,-12.3536,8.97845,11.9027
4.22608,17.6857,1.89845,18.5171,2.96511,-1.85499,-8.35784,1.13248,12.3851,-13.2149,1.36825,1.56046,-9.50478,-0.401794,-5.18572,-2.54149,18.8245,10.6416,6.73234,24.2459,4.97008,3.28086,12.4292,0.999484,-2.5842e-15,9.54166e-15,2.32003,-23.6416,30.8548,117.977,-72.4243,-2.55122,-43.0997,7.12502,23.1446,-71.7294,-2.5842e-15,9.54166e-15,35.532,35.8961,-6.64511,28.968,37.8717,-26.3818,-16.6896,7.12502,0.176967,13.2901,-4.65007,10.5767,-2.24558,15.6747,21.9927,-16.0858,-19.4455,-15.427,-1.3507,-26.4852,11.3314,-12.3994,8.96569,11.7765
4.23113,17.6816,1.91428,18.5571,2.96384,-1.69723,-8.55036,1.13479,12.2434,-13.2681,1.34707,1.52225,-9.45466,-0.400434,-5.14687,-2.45647,18.8429,10.5937,6.77595,24.2783,5.05864,3.26241,12.4488,1.02392,-1.03368e-14,1.98785e-14,2.36945,-23.7055,30.8204,117.868,-72.3156,-2.7245,-43.0643,7.12502,22.9783,-71.7148,-1.03368e-14,1.98785e-14,35.8407,36.084,-6.25878,28.7995,37.2569,-25.8717,-16.8736,7.12502,0.669685,13.105,-4.53123,10.4958,-2.44605,15.5445,22.1076,-16.0413,-19.0226,-15.3529,-1.44409,-26.6634,11.2367,-12.4553,8.97827,11.8919
4.23797,17.6777,1.92377,18.6039,3.01116,-1.52447,-8.54608,1.11085,12.1187,-13.4026,1.32828,1.47706,-9.61527,-0.41493,-5.12665,-2.39993,18.87,10.6015,6.97525,24.3087,5.15679,3.31097,12.4754,1.06172,0,-1.66979e-14,2.48783,-23.6875,30.7366,117.792,-72.2473,-2.65205,-43.0881,7.12502,23.0479,-71.7299,0,-1.66979e-14,35.5555,35.6132,-6.66648,28.9245,37.5853,-25.671,-16.753,7.12502,0.863479,13.225,-4.3811,10.3738,-2.65816,15.3721,22.2031,-15.9864,-18.9465,-15.3628,-1.5099,-26.8672,11.2543,-12.5027,8.93712,11.9214
4.24737,17.6764,1.92637,18.6036,3.20696,-1.59969,-8.48739,1.09321,12.3381,-13.4745,1.31569,1.46653,-9.74649,-0.452943,-5.25898,-2.33438,18.8799,10.5883,6.95614,24.332,5.17459,3.28833,12.4865,1.06018,4.17448e-15,1.59028e-15,2.41982,-23.6921,30.7892,117.789,-72.3045,-2.84601,-43.0799,7.12502,22.8617,-71.7448,4.17448e-15,1.59028e-15,34.7442,34.6434,-7.83531,29.3555,38.8286,-26.166,-16.3666,7.12502,0.385382,13.6127,-4.16644,10.2472,-2.54866,15.2025,22.3282,-15.9123,-18.0707,-15.3741,-1.55016,-26.7938,11.3499,-12.5213,8.86446,11.8703
4.25649,17.6776,1.92742,18.6006,3.40245,-1.75924,-8.56623,1.11727,12.6472,-13.4561,1.32705,1.45305,-9.68972,-0.473592,-5.44312,-2.06047,18.7871,10.7942,6.6028,24.2698,4.83203,3.18938,12.4342,0.884314,2.36554e-14,-8.74653e-15,2.18023,-23.7493,30.9217,117.772,-72.2272,-3.07883,-42.8241,7.12502,22.6383,-71.5164,2.36554e-14,-8.74653e-15,33.8445,33.6208,-9.17851,29.8585,40.2185,-26.7056,-16.0909,7.12502,-0.13576,13.8888,-3.98049,10.1828,-2.34017,15.0473,22.3282,-15.8575,-16.9586,-15.4065,-1.70778,-26.5986,11.4875,-12.6028,8.89586,11.991
4.26298,17.6784,1.93182,18.6298,3.39204,-1.79157,-8.67323,1.17304,12.7299,-13.4517,1.38019,1.42117,-9.61513,-0.452493,-5.52188,-1.67982,18.6753,11.0842,6.16967,24.2027,4.37592,3.07132,12.3748,0.652259,1.07344e-14,-2.14687e-14,2.00479,-23.7458,31.0108,117.75,-71.882,-3.203,-42.3485,7.12502,22.5191,-71.0553,1.07344e-14,-2.14687e-14,33.7194,33.3721,-9.47308,29.9509,40.3135,-26.8044,-16.2182,7.12502,-0.231182,13.7614,-3.96215,10.1735,-2.33533,14.9373,22.4293,-15.8926,-16.7503,-15.5091,-1.90946,-26.5517,11.625,-12.6918,9.0881,12.1644
4.26655,17.6777,1.94008,18.6573,3.3006,-1.83413,-8.74396,1.23133,12.734,-13.4633,1.447,1.41577,-9.57473,-0.418074,-5.52832,-1.58584,18.6763,11.0364,6.02219,24.2233,4.40744,2.99186,12.3787,0.644661,-1.72943e-14,2.3059e-14,1.94032,-23.7658,30.9537,117.691,-71.51,-3.76014,-42.2039,7.12502,21.9843,-70.9746,-1.72943e-14,2.3059e-14,34.2702,33.7906,-8.83954,29.6951,39.23,-26.6508,-16.5784,7.12502,-0.0827722,13.4013,-4.07334,10.2577,-2.32625,14.9345,22.5971,-16.0466,-17.114,-15.587,-2.07849,-26.5008,11.6706,-12.656,9.35755,12.2178
4.26678,17.6778,1.94657,18.6496,3.32607,-1.82391,-8.73674,1.23919,12.6504,-13.4767,1.46216,1.40963,-9.58837,-0.403937,-5.4889,-1.72068,18.6909,10.9638,6.10527,24.2188,4.50795,3.0207,12.3818,0.699818,1.03368e-14,-3.18055e-14,1.85093,-23.9674,30.9075,117.584,-71.3972,-4.20409,-42.4733,7.12502,21.558,-71.2935,1.03368e-14,-3.18055e-14,34.4657,33.8164,-8.71431,29.6166,38.6258,-26.7272,-16.6933,7.12502,-0.156639,13.2864,-4.11151,10.4244,-2.28915,15.0135,22.4645,-16.3235,-17.5943,-15.5504,-2.25564,-26.471,11.6165,-12.5783,9.51508,12.396
4.26804,17.6773,1.95407,18.6057,3.4528,-1.70074,-8.65772,1.19063,12.5007,-13.5361,1.41786,1.37549,-9.70735,-0.42271,-5.44507,-1.60485,18.6545,11.0583,5.93107,24.198,4.34872,2.9738,12.3616,0.620129,-2.28602e-14,-7.95139e-16,1.76138,-24.0906,30.9711,117.559,-71.341,-3.98707,-42.6725,7.12502,21.7664,-71.4686,-2.28602e-14,-7.95139e-16,34.5207,33.6329,-8.79513,29.591,38.2244,-26.4775,-16.7742,7.12502,0.0845271,13.2055,-4.00145,10.4121,-2.32038,15.1135,22.3072,-16.5601,-17.6486,-15.4208,-2.39698,-26.5603,11.5547,-12.5767,9.48958,12.6323
4.27158,17.6757,1.96754,18.5759,3.52652,-1.64768,-8.63936,1.15376,12.4289,-13.6074,1.37907,1.36014,-9.80784,-0.444548,-5.4224,-1.35621,18.6334,11.0361,5.59324,24.2207,4.3154,2.81329,12.3569,0.5612,5.36719e-15,-7.95139e-15,1.69143,-24.1611,31.0331,117.618,-71.4386,-3.52059,-42.7764,7.12502,22.2143,-71.5199,5.36719e-15,-7.95139e-15,34.672,33.5446,-8.73852,29.5272,37.8275,-25.4997,-16.836,7.12502,1.02891,13.1413,-3.90074,10.3158,-2.31177,15.1892,22.1624,-16.6159,-17.7831,-15.3196,-2.34577,-26.636,11.577,-12.659,9.38495,12.4446
4.27664,17.6738,1.98007,18.6031,3.48267,-1.69469,-8.70845,1.18213,12.4359,-13.654,1.41035,1.36574,-9.81795,-0.43174,-5.41853,-1.28363,18.6744,10.8785,5.52205,24.2838,4.53734,2.72415,12.3877,0.625944,1.23246e-14,-1.82882e-14,1.58618,-24.2979,31.0856,117.642,-71.5709,-3.03146,-42.9675,7.12502,22.6838,-71.6543,1.23246e-14,-1.82882e-14,34.5826,33.2465,-9.00951,29.5864,37.8715,-24.6764,-16.5965,7.12502,1.82413,13.3754,-3.90807,10.2296,-2.27346,15.1778,22.0915,-16.5203,-17.9839,-15.3677,-2.22971,-26.6449,11.7293,-12.7981,9.37167,12.0978
4.28571,17.6688,1.99171,18.6432,3.40649,-1.78436,-8.84431,1.25363,12.5498,-13.6731,1.48287,1.3629,-9.75251,-0.403958,-5.48157,-1.27355,18.7486,10.7153,5.56085,24.3751,4.82175,2.67544,12.4386,0.724356,-1.39149e-15,-1.43125e-14,1.5257,-24.3911,31.0372,117.588,-71.4864,-2.37679,-43.2032,7.12502,23.312,-71.8118,-1.39149e-15,-1.43125e-14,34.3924,32.8747,-9.4041,29.6852,37.9459,-24.8428,-16.3057,7.12502,1.66335,13.6676,-3.89145,10.0462,-2.24006,15.0511,22.3253,-16.4143,-17.802,-15.4711,-2.25188,-26.6018,11.993,-13.026,9.48538,12.2013
4.29631,17.6635,2.00401,18.6199,3.36927,-1.92568,-8.98347,1.31977,12.755,-13.6331,1.53995,1.3672,-9.62122,-0.385838,-5.58731,-1.2708,18.7807,10.6982,5.49186,24.4209,4.84119,2.6468,12.4584,0.728073,6.95746e-15,-2.22639e-14,1.48019,-24.5439,30.9455,117.502,-71.4958,-1.88703,-43.4315,7.12502,23.7817,-71.9798,6.95746e-15,-2.22639e-14,34.3395,32.7377,-9.58725,29.711,37.7864,-25.4916,-16.2353,7.12502,1.03673,13.742,-3.76614,9.93334,-2.1284,14.8693,22.6078,-16.4434,-17.6457,-15.5347,-2.22745,-26.5048,12.2969,-13.266,9.55112,12.4986
4.30524,17.6606,2.01452,18.5406,3.42095,-2.0612,-9.04213,1.34889,12.9593,-13.5959,1.56051,1.368,-9.54704,-0.389153,-5.69798,-1.14029,18.7471,10.8464,5.36346,24.4034,4.64054,2.62744,12.4415,0.63547,-7.95139e-15,1.82882e-14,1.3966,-24.6819,30.982,117.477,-71.7316,-2.00786,-43.6004,7.12502,23.6659,-72.1637,-7.95139e-15,1.82882e-14,34.4316,32.6817,-9.62532,29.7034,37.7687,-25.632,-16.3295,7.12502,0.901196,13.6483,-3.56752,9.91311,-1.94709,14.7065,22.6531,-16.5265,-17.6976,-15.5736,-2.07858,-26.4016,12.5632,-13.4306,9.41966,12.4502
4.31455,17.6563,2.01889,18.474,3.50242,-2.09966,-9.06052,1.34373,13.1056,-13.5894,1.54522,1.3518,-9.5377,-0.411009,-5.79634,-0.87717,18.7035,10.9656,5.21342,24.3917,4.47627,2.56864,12.4264,0.539458,1.27222e-14,-8.74653e-15,1.43247,-24.694,30.9396,117.455,-71.8933,-2.81142,-43.6229,7.12502,22.8949,-72.2837,1.27222e-14,-8.74653e-15,34.5095,32.621,-9.65612,29.6762,37.7345,-25.4419,-16.3781,7.12502,1.08477,13.5989,-3.40404,9.81425,-1.85865,14.6222,22.587,-16.5018,-17.4527,-15.5976,-2.00021,-26.3882,12.7336,-13.5271,9.24701,12.4463
4.32037,17.6514,2.01868,18.4459,3.47147,-2.0136,-9.10972,1.32594,13.0524,-13.6046,1.51512,1.33833,-9.53132,-0.422179,-5.78145,-0.637218,18.6973,11.0154,5.15335,24.4209,4.41414,2.52249,12.4369,0.489117,9.14409e-15,2.22639e-14,1.64443,-24.7077,30.7011,117.326,-71.7574,-3.47294,-43.5825,7.12502,22.26,-72.3205,9.14409e-15,2.22639e-14,34.5625,32.6269,-9.61359,29.5868,37.2633,-25.6649,-16.2743,7.12502,0.869371,13.7036,-3.36177,9.79304,-1.9439,14.6229,22.5285,-16.5068,-16.9218,-15.6454,-2.01228,-26.5096,12.8509,-13.5296,9.25879,12.4916
4.31936,17.6494,2.02535,18.4499,3.31895,-1.91454,-9.18026,1.32845,12.8457,-13.6555,1.51639,1.33298,-9.54254,-0.405037,-5.67203,-0.524688,18.6965,10.9928,5.20246,24.4309,4.49603,2.50553,12.4451,0.504954,6.55989e-15,-4.77083e-15,1.92454,-24.813,30.3279,117.099,-71.4174,-3.28366,-43.6652,7.12502,22.4417,-72.3814,6.55989e-15,-4.77083e-15,34.7682,32.6832,-9.38057,29.4827,36.863,-26.1425,-16.3572,7.12502,0.408125,13.6221,-3.4263,10.0256,-2.05056,14.6935,22.4282,-16.6702,-16.59,-15.6995,-1.93979,-26.6424,12.9336,-13.5025,9.31319,12.0953
4.31978,17.6497,2.03616,18.4699,3.13235,-1.97242,-9.24744,1.38993,12.797,-13.6429,1.58818,1.35533,-9.47243,-0.358632,-5.61841,-0.878249,18.7098,10.7134,5.44563,24.3852,4.81069,2.56792,12.4372,0.66949,1.35174e-14,-2.38542e-14,2.02372,-25.021,30.0733,116.944,-71.2236,-2.83841,-43.7857,7.12502,22.869,-72.4497,1.35174e-14,-2.38542e-14,34.8054,32.6721,-9.37972,29.5043,37.107,-26.2982,-16.616,7.12502,0.257756,13.3636,-3.5901,10.4406,-2.01371,14.9029,22.1074,-16.7872,-16.1603,-15.6314,-1.7632,-26.6373,12.8802,-13.5387,9.31832,11.763
4.32544,17.6471,2.04402,18.4645,3.06714,-1.99699,-9.36505,1.43407,12.8033,-13.5607,1.62111,1.37267,-9.30043,-0.327956,-5.60084,-1.51442,18.7568,10.3337,5.95887,24.334,5.24283,2.74495,12.4413,0.927909,-9.34288e-15,2.70347e-14,1.9348,-25.1588,30.0865,116.941,-71.2097,-2.55758,-43.811,7.12502,23.1385,-72.4414,-9.34288e-15,2.70347e-14,34.6981,32.6402,-9.52176,29.5412,37.3184,-26.0437,-16.6636,7.12502,0.503508,13.3155,-3.68894,10.7177,-1.99971,15.1889,21.5831,-16.7209,-15.799,-15.4629,-1.67608,-26.6659,12.7272,-13.5506,9.29127,11.8596
4.32821,17.6412,2.05209,18.4791,2.95364,-1.78187,-9.55502,1.44637,12.5156,-13.48,1.60792,1.35307,-9.08681,-0.292617,-5.46157,-1.96403,18.8169,10.1076,6.38418,24.3345,5.47712,2.91016,12.4641,1.09655,9.54166e-15,-3.73715e-14,1.86998,-25.1929,30.1272,116.916,-71.0381,-2.38248,-43.7517,7.12502,23.3065,-72.361,9.54166e-15,-3.73715e-14,34.7938,32.8332,-9.33744,29.4455,36.8736,-25.777,-16.5594,7.12502,0.761145,13.419,-3.80595,10.8221,-2.24664,15.3858,21.4009,-16.7917,-15.9299,-15.3829,-1.656,-26.9312,12.601,-13.4665,9.30209,11.7935
4.33178,17.6369,2.06445,18.5317,2.78761,-1.60018,-9.75081,1.4798,12.2728,-13.4049,1.62137,1.32264,-8.87387,-0.249963,-5.35784,-2.09588,18.8347,10.0079,6.35069,24.3505,5.43021,2.91533,12.4681,1.10643,-1.59028e-15,-9.54166e-15,1.73631,-25.2458,30.2313,116.886,-70.9248,-2.58802,-43.6517,7.12502,23.1093,-72.2858,-1.59028e-15,-9.54166e-15,34.819,32.9749,-9.2811,29.4169,36.6095,-25.5709,-16.4799,7.12502,0.960158,13.4977,-3.98424,10.8367,-2.46887,15.4865,21.5161,-17.0563,-16.3569,-15.336,-1.58637,-27.1787,12.4884,-13.4096,9.32984,11.3881
4.34505,17.6311,2.07832,18.5181,2.89276,-1.52053,-9.83943,1.45613,12.3479,-13.368,1.56712,1.26533,-8.79188,-0.281249,-5.46218,-1.85004,18.77,10.1345,5.98619,24.3227,5.12053,2.8043,12.432,0.953146,-3.77691e-15,1.59028e-15,1.51138,-25.2594,30.4701,116.985,-71.0694,-2.8073,-43.5531,7.12502,22.8989,-72.2134,-3.77691e-15,1.59028e-15,34.7537,32.8846,-9.46896,29.4438,36.6647,-24.5899,-16.9917,7.12502,1.90767,12.9795,-3.87957,10.6149,-2.49658,15.513,21.4413,-17.1502,-16.8429,-15.1994,-1.52995,-27.3085,12.3968,-13.4337,9.14367,11.1107
4.3598,17.6255,2.08631,18.4648,3.06103,-1.43731,-9.79372,1.40223,12.4713,-13.4074,1.49773,1.19194,-8.88175,-0.338644,-5.61313,-1.45193,18.6344,10.5205,5.70776,24.2156,4.61489,2.75815,12.3596,0.70947,1.94809e-14,-3.81667e-14,1.40023,-25.203,30.5925,117.078,-71.215,-2.5919,-43.5598,7.12502,23.1056,-72.1944,1.94809e-14,-3.81667e-14,34.9078,32.8729,-9.41243,29.3357,36.2294,-23.0329,-17.9472,7.12502,3.41129,12.0052,-3.6277,10.4509,-2.51736,15.3938,21.3212,-17.211,-17.1428,-15.1118,-1.49235,-27.435,12.4605,-13.5371,8.89861,11.1616
4.3722,17.6246,2.09046,18.4305,3.19784,-1.48815,-9.78265,1.38536,12.7064,-13.4537,1.47054,1.15405,-8.9572,-0.38281,-5.78515,-1.1232,18.5013,10.8249,5.49442,24.1015,4.18124,2.72562,12.2881,0.505173,2.98177e-15,1.27222e-14,1.39257,-25.177,30.5763,117.081,-71.3577,-2.40881,-43.6834,7.12502,23.2812,-72.2959,2.98177e-15,1.27222e-14,35.2042,33.0053,-9.13768,29.1365,35.3007,-22.343,-18.4929,7.12502,4.07753,11.4478,-3.39405,10.4195,-2.40323,15.1474,21.3745,-17.3803,-16.9287,-15.1523,-1.32429,-27.4288,12.6822,-13.6802,8.61718,11.2357
4.38552,17.624,2.09421,18.3795,3.37906,-1.61248,-9.86111,1.37659,13.0386,-13.4186,1.42986,1.13224,-8.89284,-0.42986,-5.99275,-1.23765,18.5302,10.7146,5.62088,24.1161,4.34547,2.75211,12.3031,0.582745,-1.61016e-14,-1.03368e-14,1.3669,-25.1828,30.5045,117.047,-71.3492,-2.4152,-43.6973,7.12502,23.2751,-72.3105,-1.61016e-14,-1.03368e-14,35.2917,33.0868,-9.10765,29.0327,34.6137,-22.5361,-18.4367,7.12502,3.89105,11.5075,-3.14496,10.2645,-2.1881,14.9763,21.4576,-17.4255,-16.6307,-15.1842,-1.1608,-27.3362,12.8576,-13.753,8.35954,10.9396
4.39419,17.6237,2.09822,18.3096,3.45425,-1.7051,-9.53893,1.34061,13.2611,-13.6328,1.44452,1.10077,-9.33887,-0.482875,-6.15303,-1.39956,18.6091,10.4751,6.25252,24.1478,5.05127,2.87026,12.3601,0.863436,1.5704e-14,-2.54444e-14,1.55352,-24.7729,30.2824,117.009,-71.1995,-2.4729,-43.7041,7.12502,23.2198,-72.3243,1.5704e-14,-2.54444e-14,35.1416,32.5031,-9.47561,29.1333,34.6984,-22.9794,-18.2021,7.12502,3.46295,11.7495,-3.0219,10.2745,-2.02023,14.9859,21.417,-17.5364,-16.9782,-15.0977,-1.22574,-27.2387,12.8752,-13.801,8.36496,10.7166
4.39407,17.624,2.11044,18.3176,3.33047,-1.70157,-9.63209,1.37668,13.1941,-13.642,1.4779,1.07215,-9.28585,-0.458949,-6.14536,-1.62711,18.6358,10.341,6.49536,24.1338,5.32308,2.93925,12.3694,0.99297,-6.36111e-15,2.14687e-14,1.53437,-24.6752,30.2325,116.936,-71.2047,-2.57468,-43.8278,7.12502,23.1221,-72.4603,-6.36111e-15,2.14687e-14,35.0227,32.1632,-9.81177,29.2307,34.9801,-23.5952,-18.1598,7.12502,2.8683,11.8007,-3.1261,10.6625,-2.00254,15.1122,21.2742,-17.892,-17.3857,-15.0226,-1.35732,-27.2243,12.7836,-13.7756,8.56929,10.6265
4.39343,17.6222,2.12701,18.3965,3.08238,-1.58451,-9.9585,1.45,12.9529,-13.5399,1.51894,1.04165,-8.9578,-0.393029,-6.04011,-1.89084,18.6745,10.2384,6.50433,24.1532,5.34813,2.97237,12.3793,1.04087,1.17283e-14,-1.27222e-14,1.42268,-24.8263,30.3127,116.883,-71.3273,-2.53308,-43.9731,7.12502,23.162,-72.6006,1.17283e-14,-1.27222e-14,35.1571,32.3296,-9.71758,29.1806,34.8463,-24.3977,-18.1946,7.12502,2.09327,11.7749,-3.35351,11.119,-2.18751,15.2988,20.9664,-18.1207,-17.1054,-14.975,-1.45502,-27.3637,12.6083,-13.6633,8.84576,10.5616
4.40081,17.6179,2.13402,18.3518,2.94556,-1.44033,-9.93477,1.45476,12.8406,-13.462,1.52307,0.996527,-8.87238,-0.375145,-6.02814,-2.159,18.7426,10.0435,6.51942,24.2117,5.45967,2.98449,12.4094,1.12399,6.55989e-15,1.43125e-14,1.38875,-24.919,30.3197,116.833,-71.3109,-2.44844,-44.1459,7.12502,23.2432,-72.7632,6.55989e-15,1.43125e-14,35.6033,32.9638,-9.0864,28.9957,34.2527,-25.1212,-18.2074,7.12502,1.39456,11.7678,-3.36512,11.3361,-2.39741,15.4319,20.6354,-18.0778,-16.7182,-14.7692,-1.43108,-27.5734,12.4241,-13.6343,8.86915,10.8087
4.41231,17.6126,2.13403,18.3293,2.92877,-1.28795,-9.73644,1.4341,12.8336,-13.4805,1.52383,0.907937,-9.00563,-0.388974,-6.12461,-2.36058,18.7655,9.92215,6.53785,24.2175,5.53867,2.99956,12.4141,1.18126,-1.13307e-14,7.15625e-15,1.27664,-24.8424,30.3681,116.819,-71.3008,-2.83864,-44.2476,7.12502,22.8688,-72.9117,-1.13307e-14,7.15625e-15,35.9534,33.3695,-8.62844,28.9025,33.8979,-25.0556,-18.1824,7.12502,1.45787,11.7923,-3.26755,11.2944,-2.59008,15.3345,20.7195,-18.0841,-16.7647,-14.7426,-1.26448,-27.8138,12.4442,-13.6573,8.67826,10.8241
4.42593,17.6097,2.14048,18.4792,3.02579,-1.34281,-9.82257,1.46404,13.0611,-13.5585,1.54661,0.86955,-9.05338,-0.407745,-6.29051,-2.60386,18.7633,9.8981,6.79581,24.169,5.61553,3.11972,12.4038,1.25054,-1.66979e-14,3.10104e-14,1.14188,-24.6686,30.4471,116.818,-71.2444,-3.4028,-44.1774,7.12502,22.3273,-72.9074,-1.66979e-14,3.10104e-14,36.2849,33.6217,-8.20719,28.809,33.6009,-24.3045,-18.1703,7.12502,2.18328,11.7983,-3.22643,11.1282,-2.53705,15.0437,21.0561,-18.2476,-16.5285,-15.0248,-1.099,-27.8177,12.6759,-13.7787,8.43758,10.569
4.44354,17.6064,2.15702,18.6035,3.25485,-1.59727,-10.0584,1.50841,13.591,-13.6373,1.55367,0.855694,-9.03441,-0.457246,-6.59484,-2.51413,18.6874,10.1901,6.95073,24.0706,5.39193,3.22839,12.3601,1.15953,8.74653e-15,1.11319e-14,1.12828,-24.4269,30.3771,116.794,-71.0697,-3.46213,-44.09,7.12502,22.2704,-72.8268,8.74653e-15,1.11319e-14,36.7306,33.9173,-7.70437,28.6177,33.1405,-23.837,-18.301,7.12502,2.63476,11.6625,-3.03937,10.9217,-2.22947,14.7608,21.2759,-18.4111,-15.9103,-15.2059,-0.942875,-27.5911,12.9206,-14.0736,8.03714,10.9084
4.45169,17.6034,2.17353,18.6819,3.26025,-1.70994,-10.3341,1.57182,13.8149,-13.6052,1.57649,0.812755,-8.84349,-0.45564,-6.76111,-2.1351,18.5624,10.6167,6.56205,23.9818,4.8156,3.15991,12.29,0.883075,-7.95139e-16,1.59028e-15,1.01835,-24.4039,30.4025,116.794,-71.1112,-3.48345,-44.1941,7.12502,22.2499,-72.9333,-7.95139e-16,1.59028e-15,36.9325,34.1102,-7.57395,28.514,32.8149,-24.1338,-18.4202,7.12502,2.34812,11.5466,-2.92203,11.0069,-2.11724,14.5175,21.3239,-18.6287,-15.4941,-15.3578,-0.731641,-27.5215,13.142,-14.3076,7.78044,11.4556
4.4491,17.6014,2.18369,18.7163,3.00629,-1.66481,-10.5252,1.63363,13.6486,-13.4559,1.61725,0.791599,-8.54015,-0.39454,-6.68782,-2.15871,18.6336,10.4783,6.22345,24.0929,4.82189,3.02684,12.3284,0.880601,2.40529e-14,-2.38542e-14,0.843706,-24.6665,30.5534,116.725,-71.2422,-3.37596,-44.29,7.12502,22.3531,-73.0169,2.40529e-14,-2.38542e-14,36.845,34.2716,-7.72672,28.5417,32.6758,-24.8165,-18.306,7.12502,1.68879,11.667,-3.02048,11.3794,-2.22167,14.4022,21.0644,-18.7833,-15.631,-15.4685,-0.587309,-27.6168,13.2661,-14.3682,7.89098,11.5075
4.45446,17.5967,2.19127,18.6887,2.90676,-1.58864,-10.5859,1.63944,13.6067,-13.3716,1.60631,0.755038,-8.40581,-0.386055,-6.70444,-2.13428,18.8036,10.1598,6.09616,24.3257,5.15957,2.89102,12.4419,1.00224,-2.16675e-14,1.19271e-14,0.822642,-24.7747,30.5729,116.613,-71.188,-2.91418,-44.1215,7.12502,22.7963,-72.7944,-2.16675e-14,1.19271e-14,36.6542,34.2173,-7.99437,28.6566,32.9549,-25.4387,-18.071,7.12502,1.08784,11.9059,-3.13721,11.4565,-2.33999,14.614,20.7524,-18.7554,-16.091,-15.3342,-0.540954,-27.7467,13.1362,-14.3399,7.93598,11.3806
4.46143,17.5934,2.19461,18.6952,2.83619,-1.43634,-10.513,1.61131,13.5121,-13.4602,1.59,0.700813,-8.551,-0.403017,-6.71357,-1.58593,18.8201,10.2223,5.85285,24.4332,5.07223,2.73163,12.4818,0.898085,0,0,0.911856,-24.6269,30.5427,116.642,-71.1279,-2.86581,-43.9223,7.12502,22.8427,-72.5896,0,0,36.4183,33.8712,-8.34625,28.7894,33.4552,-25.5555,-17.9148,7.12502,0.975092,12.0628,-3.28459,11.4979,-2.54343,14.9277,20.7207,-18.8696,-16.1535,-15.206,-0.576716,-27.9467,12.9313,-14.2613,7.95389,11.3891
4.46213,17.5887,2.18861,18.7423,2.6376,-1.3038,-10.25,1.61213,13.3342,-13.6502,1.65571,0.656398,-8.90336,-0.388735,-6.66568,-1.13542,18.7604,10.3627,5.75001,24.4181,4.9722,2.64956,12.4682,0.799158,4.17448e-15,3.18055e-15,0.910371,-24.4322,30.7072,116.783,-71.203,-2.85767,-43.9571,7.12502,22.8506,-72.6234,4.17448e-15,3.18055e-15,36.2852,33.5136,-8.57841,28.8563,33.613,-25.2345,-17.7188,7.12502,1.28507,12.2571,-3.46268,11.7214,-2.75973,15.0135,20.7233,-19.0455,-16.4525,-15.3023,-0.52046,-28.1604,12.9185,-14.0944,8.20297,9.88599
4.47244,17.5821,2.18139,18.7697,2.64581,-1.33959,-10.1048,1.62833,13.5235,-13.7204,1.69731,0.615154,-9.06765,-0.402774,-6.81748,-1.13707,18.7324,10.3498,5.85274,24.3728,5.05703,2.67095,12.4522,0.828623,-6.55989e-15,1.51076e-14,0.826824,-24.4582,30.8615,116.838,-71.2915,-2.41504,-44.1682,7.12502,23.2753,-72.7814,-6.55989e-15,1.51076e-14,36.2697,33.3904,-8.64042,28.8723,33.506,-25.2732,-17.6728,7.12502,1.24774,12.3033,-3.48479,11.5894,-2.75162,14.9526,20.7275,-18.9293,-17.1413,-15.4263,-0.322548,-28.2135,13.0019,-14.0306,8.18028,8.36947
4.49507,17.5815,2.18489,18.7696,2.83981,-1.40517,-10.2415,1.61601,13.8993,-13.6178,1.63206,0.584264,-8.89843,-0.456804,-7.06021,-1.41186,18.7586,10.2193,6.03528,24.3614,5.19509,2.74563,12.4566,0.922001,-2.5842e-15,-8.74653e-15,0.796003,-24.7641,30.8185,116.807,-71.3414,-2.20276,-44.3013,7.12502,23.4789,-72.8886,-2.5842e-15,-8.74653e-15,36.1196,33.4861,-8.78367,28.9094,33.4531,-25.2294,-17.9789,7.12502,1.29002,11.997,-3.32139,11.1435,-2.6742,14.8503,20.7942,-18.6984,-17.3442,-15.4265,-0.339436,-28.1667,13.1077,-14.2878,7.80798,9.94216
4.51408,17.5779,2.19959,18.8156,2.94804,-1.34856,-10.5037,1.60119,14.0649,-13.5632,1.5529,0.539211,-8.7102,-0.499425,-7.20079,-1.49918,18.792,10.1791,6.2069,24.3845,5.27785,2.80435,12.4771,0.972635,-1.98785e-15,-1.59028e-14,0.805438,-24.8745,30.7964,116.892,-71.5711,-2.62581,-44.2634,7.12502,23.073,-72.902,-1.98785e-15,-1.59028e-14,35.821,33.4004,-9.12336,29.028,33.6741,-24.9227,-18.0228,7.12502,1.58622,11.951,-3.13413,10.7692,-2.76873,14.6457,20.8198,-18.5592,-17.204,-15.4536,-0.399196,-28.2676,13.2958,-14.5531,7.59874,11.0889
4.52098,17.5716,2.21309,18.9246,2.91563,-1.27959,-10.6793,1.60315,14.028,-13.65,1.5331,0.511611,-8.71726,-0.512673,-7.20871,-1.19879,18.7879,10.2626,6.19009,24.4183,5.24656,2.76182,12.4926,0.923326,-1.68967e-14,1.27222e-14,0.899282,-24.6948,30.753,117.009,-71.6997,-3.08359,-44.1858,7.12502,22.6337,-72.8787,-1.68967e-14,1.27222e-14,35.5499,33.0318,-9.49327,29.1583,34.0817,-24.8343,-17.705,7.12502,1.67164,12.2682,-3.06273,10.6948,-2.87705,14.3976,20.8923,-18.61,-17.1123,-15.6031,-0.364401,-28.3928,13.485,-14.669,7.62559,10.7263
4.52137,17.5701,2.22027,18.9816,2.77672,-1.27999,-10.7649,1.62116,13.9325,-13.6937,1.55109,0.534607,-8.71249,-0.495408,-7.1278,-0.848209,18.7695,10.3501,6.02648,24.4508,5.12159,2.6734,12.4986,0.831548,-1.11319e-14,7.95139e-15,1.055,-24.5537,30.5497,117.003,-71.3247,-3.2687,-44.021,7.12502,22.4561,-72.7355,-1.11319e-14,7.95139e-15,35.4383,32.8372,-9.60929,29.189,34.2891,-24.6995,-17.6083,7.12502,1.80176,12.3638,-3.08017,10.9172,-2.90232,14.2709,20.8922,-18.757,-16.5598,-15.6991,-0.39132,-28.4037,13.5689,-14.7322,7.74783,10.8291
4.52358,17.5689,2.22682,18.9483,2.70691,-1.37247,-10.819,1.63533,13.9698,-13.6432,1.55549,0.570413,-8.62256,-0.485998,-7.10776,-0.820601,18.7183,10.5337,6.06635,24.3887,4.90541,2.73676,12.4674,0.753735,1.09332e-14,-2.70347e-14,1.14543,-24.4698,30.3361,116.957,-70.9055,-3.67389,-43.7726,7.12502,22.0671,-72.5335,1.09332e-14,-2.70347e-14,35.565,32.994,-9.40404,29.0894,34.042,-24.8263,-17.6655,7.12502,1.67933,12.3076,-3.07406,11.1289,-2.8089,14.334,20.6529,-18.7661,-15.8117,-15.6385,-0.392741,-28.3103,13.5146,-14.7248,7.79576,11.1465
4.52689,17.5682,2.23164,18.896,2.70195,-1.51661,-10.7081,1.65316,14.1095,-13.6354,1.59118,0.580203,-8.67396,-0.483649,-7.1748,-1.07256,18.6286,10.707,6.29983,24.2267,4.75617,2.90409,12.3976,0.734548,1.0138e-14,-2.78299e-14,1.09567,-24.472,30.3385,116.955,-70.9411,-3.90883,-43.8712,7.12502,21.8415,-72.6586,1.0138e-14,-2.78299e-14,35.3622,32.7422,-9.79656,29.1276,34.1989,-25.0225,-17.3513,7.12502,1.4898,12.6233,-3.09383,11.2351,-2.63668,14.49,20.3818,-18.7124,-15.9719,-15.5168,-0.282423,-28.173,13.3705,-14.6428,7.74027,11.2842
4.52622,17.5651,2.23331,18.8435,2.60971,-1.46904,-10.6663,1.67465,14.0402,-13.6011,1.62358,0.522218,-8.64489,-0.461124,-7.19997,-1.05478,18.5928,10.7433,6.25178,24.1839,4.72299,2.89267,12.3742,0.713898,-1.68967e-14,1.43125e-14,1.00042,-24.6196,30.3985,116.974,-71.1497,-3.33615,-44.2878,7.12502,22.3913,-73.0101,-1.68967e-14,1.43125e-14,34.8052,32.1456,-10.7161,29.3575,35.0041,-25.0488,-17.1343,7.12502,1.46445,12.8405,-3.16651,11.3181,-2.68428,14.6288,20.247,-18.7182,-16.6047,-15.4278,-0.0239864,-28.2882,13.2506,-14.4796,7.71939,10.0111
4.52646,17.5597,2.23269,18.805,2.52691,-1.30553,-10.8291,1.6759,13.8894,-13.4911,1.5898,0.435126,-8.42194,-0.449202,-7.21134,-0.834581,18.6283,10.7312,6.0599,24.268,4.74351,2.78394,12.407,0.686145,8.34896e-15,4.77083e-15,0.871878,-24.7515,30.4618,117.03,-71.2436,-2.75187,-44.4896,7.12502,22.9521,-73.1433,8.34896e-15,4.77083e-15,34.77,32.2806,-10.7674,29.3815,35.044,-25.2143,-17.5984,7.12502,1.30457,12.3773,-3.26836,11.2981,-2.84893,14.8123,20.4025,-18.756,-17.0363,-15.4101,0.0707441,-28.5086,13.1394,-14.245,7.79699,8.53006
4.52881,17.5629,2.23047,18.8421,2.45978,-1.20963,-10.7602,1.64111,13.7713,-13.5482,1.56368,0.403648,-8.5293,-0.463873,-7.18285,-0.471137,18.6322,10.8344,5.88742,24.3319,4.63922,2.69033,12.4292,0.598846,-1.33186e-14,9.54166e-15,0.789126,-24.6859,30.5889,117.147,-71.3139,-2.85354,-44.4305,7.12502,22.8545,-73.0963,-1.33186e-14,9.54166e-15,35.0818,32.6229,-10.2477,29.2252,34.2814,-25.2973,-18.0796,7.12502,1.22439,11.8967,-3.48981,11.2667,-2.94941,15.0882,20.8134,-18.9269,-17.2922,-15.4161,-0.216883,-28.5555,12.9463,-14.1102,7.86798,9.58674
4.52888,17.5716,2.22352,18.8954,2.39324,-1.18592,-10.3929,1.56196,13.6738,-13.7227,1.54016,0.431928,-8.94709,-0.501906,-7.10421,-0.0558934,18.6425,11.0255,5.71305,24.4161,4.40526,2.61878,12.4602,0.464458,-9.93923e-15,2.94201e-14,0.911193,-24.5819,30.5516,117.211,-71.2541,-3.12036,-44.2478,7.12502,22.5985,-72.945,-9.93923e-15,2.94201e-14,35.0667,32.5519,-10.1836,29.1544,33.7078,-25.0698,-18.356,7.12502,1.44412,11.6188,-3.73087,11.3631,-2.97197,15.3286,21.0052,-19.1414,-17.8385,-15.4267,-0.54899,-28.4958,12.7758,-13.9994,7.96109,11.0799
4.53205,17.5729,2.21345,18.8619,2.4295,-1.25974,-10.1417,1.50223,13.7941,-13.7103,1.49766,0.45935,-9.09107,-0.542282,-7.14629,-0.375066,18.7076,10.9935,5.94326,24.4504,4.41407,2.75001,12.4879,0.524527,9.93923e-15,1.66979e-14,0.987887,-24.6232,30.5068,117.232,-71.2281,-3.28116,-44.1554,7.12502,22.4441,-72.8713,9.93923e-15,1.66979e-14,34.7294,32.4769,-10.5991,29.2104,33.7389,-24.3545,-18.4999,7.12502,2.13503,11.4692,-3.78909,11.4697,-2.85784,15.4438,20.7077,-19.1562,-18.1346,-15.4262,-0.517863,-28.4337,12.7283,-13.7407,8.05687,9.85618
4.53655,17.57,2.20959,18.8069,2.4451,-1.28954,-10.0956,1.50632,13.8876,-13.59,1.49532,0.439991,-8.97796,-0.540048,-7.22075,-0.902085,18.6752,10.9131,6.16231,24.3296,4.40877,2.90608,12.4372,0.598596,7.7526e-15,-1.11319e-14,0.884461,-24.6662,30.6351,117.293,-71.3622,-3.59314,-44.1823,7.12502,22.1446,-72.9341,7.7526e-15,-1.11319e-14,34.4297,32.3958,-11.007,29.3198,34.2109,-23.9334,-18.4112,7.12502,2.54172,11.5535,-3.73224,11.5644,-2.80967,15.4123,20.8662,-19.3803,-18.494,-15.4296,-0.284145,-28.4724,12.7612,-13.5671,8.03865,8.02071
4.54068,17.5707,2.21538,18.7794,2.38499,-1.33544,-10.07,1.54149,13.941,-13.5762,1.54199,0.425405,-8.96698,-0.521334,-7.26548,-0.921213,18.5278,11.0672,6.14198,24.1397,4.15449,2.95477,12.339,0.504212,2.3059e-14,-2.62396e-14,0.879147,-24.5616,30.6719,117.337,-71.3041,-3.81862,-44.1408,7.12502,21.9281,-72.9181,2.3059e-14,-2.62396e-14,34.73,32.6677,-10.5245,29.2139,33.7945,-23.8266,-18.392,7.12502,2.64485,11.5714,-3.66347,11.6536,-2.77541,15.2814,20.5682,-19.2621,-18.4178,-15.4854,-0.245155,-28.4309,12.8082,-13.5419,8.02508,8.35889
4.55114,17.5754,2.22603,18.7846,2.40571,-1.4411,-10.0843,1.57988,14.1305,-13.6221,1.58666,0.414589,-9.01181,-0.523008,-7.38115,-1.0743,18.4524,11.0972,6.46849,24.0014,4.23057,3.08651,12.2872,0.554857,-1.39149e-14,-7.95139e-16,0.913926,-24.4164,30.6683,117.36,-71.0799,-3.73018,-43.9842,7.12502,22.013,-72.7515,-1.39149e-14,-7.95139e-16,35.5096,33.426,-9.31498,28.8931,32.3629,-23.7111,-18.2095,7.12502,2.75633,11.7524,-3.57552,11.6101,-2.66644,15.1477,20.7417,-19.3564,-18.9465,-15.537,-0.423887,-28.2797,12.8304,-13.5948,7.98048,10.2863
4.56117,17.5769,2.22927,18.8221,2.44236,-1.36394,-10.0987,1.57774,14.1324,-13.6398,1.57995,0.357764,-9.02599,-0.532115,-7.44546,-1.45692,18.4839,11.0086,6.94291,23.9579,4.54669,3.26494,12.293,0.725669,2.04748e-14,-9.54166e-15,0.883803,-24.3465,30.7408,117.389,-70.931,-3.65289,-43.6237,7.12502,22.0872,-72.3822,2.04748e-14,-9.54166e-15,35.9334,33.8928,-8.67708,28.7036,31.4754,-24.1988,-17.8006,7.12502,2.28541,12.1669,-3.51483,11.4561,-2.76791,15.0405,20.8953,-19.2939,-19.4719,-15.5633,-0.473714,-28.3725,12.8508,-13.6861,7.831,11.5812
4.56827,17.5691,2.22826,18.8613,2.41304,-1.23073,-10.1118,1.57448,14.0749,-13.6484,1.57233,0.288296,-9.0271,-0.535704,-7.49081,-1.65086,18.5619,10.8786,7.21033,24.0105,4.86831,3.33274,12.3372,0.872107,-1.68967e-14,1.90833e-14,0.966562,-24.2906,30.6957,117.373,-70.7999,-3.71625,-43.4081,7.12502,22.0264,-72.1738,-1.68967e-14,1.90833e-14,35.9167,33.8633,-8.71733,28.6832,31.4044,-24.4124,-17.6282,7.12502,2.07906,12.3414,-3.51686,11.244,-2.97853,14.9904,21.0477,-19.1268,-19.5612,-15.5476,-0.228887,-28.6223,12.8515,-13.7106,7.73509,10.75
4.57489,17.5611,2.23181,18.8897,2.30549,-1.21615,-10.1676,1.64217,14.146,-13.6481,1.64602,0.226434,-8.97931,-0.506492,-7.59571,-1.5843,18.6216,10.6296,7.17928,24.0937,5.17635,3.23319,12.381,0.974561,-1.59028e-15,7.15625e-15,1.04428,-24.2465,30.6025,117.351,-70.7384,-3.68144,-43.5834,7.12502,22.0598,-72.3452,-1.59028e-15,7.15625e-15,35.7212,33.5562,-9.01967,28.7855,32.0153,-24.4026,-17.8817,7.12502,2.08858,12.0878,-3.57703,11.1826,-3.0892,14.9927,20.9582,-18.8371,-19.2231,-15.4677,-0.00445921,-28.7532,12.8225,-13.7106,7.80934,9.1862
4.57793,17.5588,2.23755,18.8995,2.19344,-1.26253,-10.2408,1.70389,14.2068,-13.6242,1.70853,0.194751,-8.89569,-0.476085,-7.66105,-1.47603,18.598,10.5708,7.09481,24.0827,5.19485,3.17276,12.3712,0.965332,5.96354e-15,-7.15625e-15,1.02789,-24.1228,30.5678,117.432,-70.7837,-3.62157,-43.7826,7.12502,22.1173,-72.5376,5.96354e-15,-7.15625e-15,35.5328,33.3388,-9.28284,28.8946,32.5362,-24.5958,-18.275,7.12502,1.90194,11.6963,-3.60935,11.3186,-3.09244,14.9597,20.8206,-18.7081,-19.0501,-15.4495,0.221,-28.7735,12.8612,-13.7766,7.76536,8.70163
4.58516,17.5596,2.24672,18.9151,2.23402,-1.44544,-10.4478,1.74002,14.4438,-13.5441,1.7042,0.217553,-8.69444,-0.48055,-7.76377,-1.60326,18.5546,10.58,7.17379,24.0062,5.15606,3.22897,12.3361,0.969978,-9.74045e-15,1.98785e-14,1.0862,-24.0707,30.4395,117.473,-70.7447,-3.59056,-44.013,7.12502,22.1471,-72.7644,-9.74045e-15,1.98785e-14,35.5567,33.5035,-9.17306,28.8882,32.2976,-24.6036,-18.413,7.12502,1.8944,11.5583,-3.56606,11.3023,-2.88861,14.8421,21.0112,-18.7381,-18.9057,-15.563,0.309776,-28.5893,13.017,-13.907,7.61031,9.74396
4.59441,17.5644,2.251,18.9863,2.29113,-1.74584,-10.6394,1.7904,14.7981,-13.4703,1.71749,0.288596,-8.51152,-0.48506,-7.87766,-1.68951,18.5538,10.4902,7.10356,24.0012,5.14579,3.20865,12.3287,0.979396,2.22639e-14,-2.38542e-15,1.27151,-24.25,30.2212,117.363,-70.6275,-3.61462,-44.2285,7.12502,22.124,-72.9827,2.22639e-14,-2.38542e-15,35.642,33.803,-8.9397,28.8431,32.0643,-25.3712,-18.327,7.12502,1.15307,11.6496,-3.59923,11.2545,-2.56768,14.6842,21.271,-18.682,-18.6769,-15.7873,0.23432,-28.2611,13.2276,-13.9821,7.62199,10.5888
4.59729,17.5707,2.24639,19.1097,2.26418,-1.93339,-10.6473,1.82064,14.9586,-13.4864,1.75196,0.336066,-8.52554,-0.481619,-7.91231,-1.7978,18.5942,10.4202,7.14424,24.0388,5.2048,3.22547,12.3496,1.01985,8.94531e-15,-2.22639e-14,1.30112,-24.4464,30.2262,117.341,-70.5829,-3.82967,-44.1432,7.12502,21.9175,-72.9217,8.94531e-15,-2.22639e-14,35.892,34.1845,-8.54856,28.6944,31.7026,-26.0085,-18.2817,7.12502,0.537494,11.6974,-3.77025,11.3788,-2.39519,14.5987,21.3804,-18.7309,-18.5327,-16.0561,0.244118,-28.0736,13.381,-13.9793,7.66446,10.6207
4.59939,17.5735,2.24138,19.1692,2.20591,-1.96372,-10.5382,1.83044,14.9853,-13.5331,1.78637,0.315005,-8.63518,-0.479051,-7.95133,-2.1231,18.6371,10.349,7.53693,24.0234,5.47054,3.37673,12.3659,1.16705,-1.15295e-14,2.94201e-14,1.17294,-24.5916,30.3743,117.442,-70.6914,-3.9797,-43.9673,7.12502,21.7735,-72.7626,-1.15295e-14,2.94201e-14,36.2795,34.5728,-8.01717,28.5016,30.9984,-25.2693,-18.3775,7.12502,1.25148,11.5986,-3.97598,11.5053,-2.40186,14.7195,21.2881,-18.8511,-18.3081,-16.1481,0.203443,-28.045,13.3688,-13.9641,7.73111,10.7074
4.60198,17.5724,2.23396,19.1513,2.11368,-1.94157,-10.3057,1.85595,14.9928,-13.6132,1.86649,0.257493,-8.84179,-0.463232,-8.02138,-2.2983,18.5613,10.4228,7.93257,23.8704,5.59173,3.54113,12.313,1.23661,7.35503e-15,3.18055e-15,1.20885,-24.5987,30.3369,117.455,-70.8288,-3.95585,-44.0242,7.12502,21.7964,-72.8168,7.35503e-15,3.18055e-15,36.5402,34.6364,-7.69517,28.4154,30.5726,-25.0058,-18.4507,7.12502,1.50595,11.5237,-4.19914,11.6027,-2.47448,15.009,21.3093,-18.8165,-18.1808,-16.0299,0.239773,-28.1089,13.2047,-13.8794,7.85307,9.81094
4.60296,17.5701,2.22829,19.1255,2.06146,-1.87178,-10.2077,1.87247,14.9128,-13.6063,1.90621,0.204994,-8.87414,-0.441221,-8.03598,-2.39191,18.4313,10.6849,8.15331,23.6725,5.40641,3.69695,12.2242,1.1768,-1.45113e-14,7.95139e-15,1.32226,-24.7013,30.1614,117.365,-70.7734,-3.53884,-44.1877,7.12502,22.1967,-72.9332,-1.45113e-14,7.95139e-15,36.5885,34.5668,-7.66434,28.4443,30.7299,-26.0172,-18.2748,7.12502,0.529123,11.7042,-4.37649,11.6289,-2.56201,15.323,21.3595,-18.7965,-18.6,-15.8532,0.362101,-28.236,12.97,-13.7391,7.86183,8.2426
4.60416,17.5672,2.22633,19.1039,2.02163,-1.83517,-10.3174,1.88596,14.8345,-13.4693,1.8938,0.186687,-8.64679,-0.417009,-8.01034,-2.26709,18.4344,10.8606,7.94029,23.7086,5.15652,3.6573,12.228,1.06155,6.55989e-15,-3.97569e-15,1.30075,-24.918,30.0531,117.331,-70.5485,-3.01214,-44.0194,7.12502,22.7023,-72.7039,6.55989e-15,-3.97569e-15,36.4928,34.6078,-7.79302,28.5112,31.0971,-26.3584,-17.8194,7.12502,0.199622,12.1602,-4.53245,11.576,-2.60422,15.6284,21.865,-17.9495,-21.2552,-15.6812,0.420311,-28.3081,12.6859,-13.5943,7.84069,7.51776
4.60562,17.565,2.22225,19.086,1.93673,-1.79333,-10.3276,1.8965,14.7439,-13.3823,1.90091,0.174909,-8.53097,-0.392736,-7.97196,-1.8824,18.4675,10.9845,7.46765,23.8392,4.83641,3.4821,12.2645,0.888559,-8.74653e-15,3.18055e-15,1.24527,-25.0224,30.0357,117.385,-70.4312,-2.84049,-43.8296,7.12502,22.867,-72.4938,-8.74653e-15,3.18055e-15,36.1398,34.3812,-8.28628,28.6697,31.7345,-25.7346,-17.4739,7.12502,0.802031,12.5043,-4.74615,11.6099,-2.69019,15.9002,21.5399,-18.3457,-20.5469,-15.5263,0.385512,-28.3688,12.4035,-13.4643,7.88245,7.73447
4.60689,17.562,2.22044,19.0394,1.86128,-1.63972,-10.2571,1.85929,14.5317,-13.3334,1.86805,0.166627,-8.51171,-0.386419,-7.86554,-1.70173,18.4222,11.1603,7.18647,23.8352,4.39364,3.43593,12.2408,0.707321,2.06736e-14,-1.35174e-14,1.32496,-25.1399,29.9555,117.408,-70.4223,-2.85126,-43.9528,7.12502,22.8567,-72.6183,2.06736e-14,-1.35174e-14,35.6635,34.1029,-8.82219,28.892,32.457,-25.2127,-17.7161,7.12502,1.30612,12.2596,-4.85898,11.5753,-2.88374,16.1115,20.9638,-18.9061,-19.1477,-15.3448,0.327078,-28.5402,12.1696,-13.3777,7.8933,7.98315
4.60732,17.5575,2.21855,18.9964,1.75208,-1.44476,-10.1901,1.81118,14.252,-13.3058,1.82471,0.163781,-8.51597,-0.381842,-7.71573,-1.5459,18.3937,11.225,6.94874,23.8446,4.08862,3.37563,12.228,0.582246,5.76476e-15,-3.10104e-14,1.50448,-25.1507,29.7553,117.362,-70.2169,-2.95489,-43.8956,7.12502,22.7573,-72.5734,5.76476e-15,-3.10104e-14,35.5365,34.1758,-8.78325,28.9526,32.5959,-24.6327,-18.3321,7.12502,1.86626,11.6395,-4.8898,11.4361,-3.11943,16.2611,21.184,-18.2118,-20.8688,-15.213,0.372219,-28.7871,11.9812,-13.2684,7.90865,8.22486
4.60766,17.557,2.21563,18.9784,1.67434,-1.29826,-10.1813,1.78242,14.0258,-13.2917,1.79517,0.145759,-8.5018,-0.375477,-7.61078,-1.38722,18.3502,11.2638,6.85304,23.8211,3.92894,3.34043,12.2088,0.508228,8.94531e-15,-2.78299e-14,1.66118,-25.0923,29.4768,117.279,-69.8481,-3.00688,-43.7843,7.12502,22.7074,-72.4682,8.94531e-15,-2.78299e-14,35.5815,34.2398,-8.62164,28.9372,32.5769,-24.2177,-18.6391,7.12502,2.2671,11.3286,-4.90805,11.4268,-3.28448,16.3662,21.5406,-17.6001,-21.5982,-15.156,0.449235,-28.9766,11.8549,-13.1718,7.87986,8.62483
4.6088,17.5585,2.21654,18.9523,1.72406,-1.30013,-10.2757,1.77552,14.0038,-13.244,1.76709,0.145076,-8.39773,-0.377691,-7.59835,-1.44203,18.2633,11.2825,6.98238,23.7,3.82994,3.40971,12.1518,0.486618,-1.98785e-15,-9.54166e-15,1.66206,-25.1012,29.3575,117.306,-69.6698,-3.16607,-44.0196,7.12502,22.5546,-72.7222,-1.98785e-15,-9.54166e-15,35.7252,34.3451,-8.37621,28.8797,32.3809,-24.5064,-18.6992,7.12502,1.98825,11.2713,-4.87442,11.4961,-3.23806,16.4378,22.0422,-17.0952,-21.7869,-15.0952,0.462474,-28.9672,11.8063,-13.1514,7.78166,8.72151
4.61033,17.5583,2.21686,18.9172,1.7506,-1.3896,-10.3145,1.77985,14.083,-13.1942,1.75962,0.169713,-8.32219,-0.379202,-7.61454,-1.49028,18.2328,11.189,7.02035,23.6563,3.8334,3.41737,12.1301,0.501949,5.36719e-15,-2.94201e-14,1.62267,-25.1757,29.3856,117.431,-69.7289,-3.14004,-44.258,7.12502,22.5796,-72.9575,5.36719e-15,-2.94201e-14,35.9963,34.6325,-7.92133,28.7434,31.8311,-25.0649,-18.8327,7.12502,1.44886,11.1422,-4.84631,11.5549,-3.1273,16.4538,21.3197,-18.5286,-18.9463,-15.0678,0.519241,-28.8757,11.8345,-13.17,7.70581,8.6065
4.61391,17.5578,2.21261,18.8888,1.72797,-1.46945,-10.2339,1.77083,14.1807,-13.1799,1.75605,0.18548,-8.35582,-0.390724,-7.65332,-1.42135,18.2386,11.1322,6.96013,23.6803,3.80989,3.37969,12.1378,0.490712,5.56597e-15,-4.77083e-15,1.72105,-25.288,29.2549,117.471,-69.6834,-2.77289,-44.2661,7.12502,22.9319,-72.9224,5.56597e-15,-4.77083e-15,36.0795,34.7591,-7.74969,28.6681,31.4713,-25.0786,-18.9686,7.12502,1.43568,11.0063,-4.84713,11.5878,-3.0723,16.4481,19.8903,-19.5523,-15.6225,-15.1245,0.679513,-28.8323,11.9473,-13.2282,7.63044,7.75726
4.61804,17.5575,2.20961,18.8978,1.75065,-1.51726,-10.204,1.76174,14.272,-13.1672,1.74361,0.182183,-8.36452,-0.405472,-7.70902,-1.50638,18.2349,10.9706,6.99546,23.6637,3.91727,3.3697,12.1309,0.547081,1.43125e-14,-2.38542e-15,1.83347,-25.4107,29.0291,117.421,-69.5281,-2.5026,-44.2169,7.12502,23.1913,-72.8407,1.43125e-14,-2.38542e-15,35.7975,34.503,-8.1274,28.7566,31.6527,-25.0008,-18.8756,7.12502,1.51081,11.0988,-4.86953,11.57,-3.02783,16.4461,19.6593,-19.6542,-15.2793,-15.2666,0.762312,-28.8037,12.1467,-13.3488,7.55236,7.24256
4.62028,17.5563,2.20717,18.9443,1.77769,-1.54864,-10.2632,1.77441,14.311,-13.1126,1.74261,0.1594,-8.26789,-0.4011,-7.75484,-1.68417,18.2331,10.8542,7.06701,23.6308,4.05859,3.39038,12.1192,0.620098,5.36719e-15,1.11319e-14,1.78715,-25.5361,28.9119,117.386,-69.4859,-2.40674,-44.1727,7.12502,23.2832,-72.7849,5.36719e-15,1.11319e-14,35.7199,34.443,-8.26792,28.8035,31.6731,-25.5476,-18.7564,7.12502,0.982643,11.2211,-4.90289,11.4947,-2.99404,16.4017,20.0444,-19.2932,-16.2138,-15.4729,0.691931,-28.7606,12.4165,-13.4684,7.60063,7.60207
4.62352,17.555,2.2014,18.9726,1.86557,-1.63145,-10.2623,1.7522,14.4081,-13.076,1.70498,0.144126,-8.23841,-0.425526,-7.82768,-1.73332,18.2429,11.061,7.16829,23.6255,4.01325,3.47023,12.1231,0.599958,3.18055e-15,-1.11319e-14,1.72764,-25.5764,28.7791,117.393,-69.4355,-2.61335,-44.069,7.12502,23.085,-72.7061,3.18055e-15,-1.11319e-14,35.8,34.5502,-8.18268,28.8053,31.5804,-26.0145,-18.8377,7.12502,0.531751,11.1414,-4.84626,11.3594,-2.88793,16.2864,20.3157,-19.0379,-16.1997,-15.7063,0.604357,-28.6562,12.7409,-13.5637,7.64906,7.73451
4.62837,17.5561,2.19653,18.9308,2.04385,-1.72483,-10.2122,1.66425,14.5528,-13.0448,1.58827,0.155661,-8.26601,-0.49664,-7.90172,-1.97619,18.3004,11.1349,7.47741,23.6439,4.16036,3.61553,12.15,0.685436,1.37161e-14,-3.26007e-14,1.80781,-25.5942,28.5413,117.425,-69.3037,-2.8229,-43.9374,7.12502,22.8839,-72.5996,1.37161e-14,-3.26007e-14,35.2065,34.0952,-8.95706,29.0875,32.4416,-25.7349,-18.714,7.12502,0.80178,11.2643,-4.66922,11.2187,-2.71485,16.1765,20.232,-19.2372,-15.0895,-15.8342,0.519941,-28.5144,13.038,-13.7289,7.52105,8.24039
4.6343,17.5568,2.19344,18.8405,2.19578,-1.84993,-10.2058,1.6121,14.7414,-12.9539,1.50544,0.192087,-8.19231,-0.542461,-7.97011,-2.35954,18.3578,10.9678,7.78459,23.6507,4.38959,3.7414,12.1689,0.832875,-4.37326e-15,2.54444e-14,1.85304,-25.7176,28.419,117.454,-69.2794,-2.70805,-43.9155,7.12502,22.9941,-72.564,-4.37326e-15,2.54444e-14,34.4487,33.4992,-9.93183,29.4208,33.4831,-25.7604,-18.4145,7.12502,0.777131,11.5639,-4.49202,11.1126,-2.51886,16.118,20.0186,-19.5983,-13.6538,-15.8322,0.431685,-28.3432,13.2483,-13.9007,7.43487,8.78765
4.63841,17.5561,2.18649,18.7579,2.21547,-1.92936,-10.1861,1.61223,14.8025,-12.8144,1.49583,0.235632,-8.04383,-0.531581,-7.95638,-2.56913,18.3434,10.9228,7.86152,23.6104,4.29216,3.81483,12.1473,0.836957,3.81667e-14,-4.69132e-14,1.80131,-25.8947,28.3907,117.437,-69.2538,-2.71911,-43.8805,7.12502,22.9835,-72.5304,3.81667e-14,-4.69132e-14,34.4189,33.6764,-9.85792,29.4118,33.3718,-26.1844,-18.2894,7.12502,0.367643,11.69,-4.44013,11.0817,-2.44486,16.1053,20.029,-19.6312,-13.4615,-15.848,0.386012,-28.2619,13.3819,-13.8998,7.53466,8.51973
4.6389,17.5571,2.17649,18.7285,2.04685,-1.91559,-10.1287,1.62932,14.6878,-12.7075,1.52418,0.253144,-7.93737,-0.49316,-7.87237,-2.56397,18.3257,10.9863,7.77128,23.602,4.08022,3.82021,12.1336,0.763399,7.7526e-15,-2.3059e-14,1.8082,-25.9847,28.2484,117.437,-69.2005,-3.08542,-43.8583,7.12502,22.632,-72.5514,7.7526e-15,-2.3059e-14,34.9282,34.4612,-9.03388,29.1575,32.3712,-26.0876,-18.5125,7.12502,0.461097,11.4668,-4.59865,11.1743,-2.55891,16.1672,20.5966,-18.9743,-15.7664,-15.9218,0.35733,-28.3041,13.4526,-13.8503,7.72432,8.38068
4.64387,17.5582,2.16488,18.7858,1.92287,-1.92458,-10.0711,1.64422,14.7132,-12.7389,1.55379,0.23039,-8.00028,-0.488571,-7.91152,-2.38328,18.3069,11.0784,7.74441,23.6011,4.02452,3.79786,12.1325,0.716495,-2.32578e-14,1.11319e-14,1.92514,-25.9094,28.0208,117.455,-69.1034,-3.27306,-43.8486,7.12502,22.4519,-72.5636,-2.32578e-14,1.11319e-14,35.2807,34.8529,-8.53718,28.9958,31.7746,-26.5416,-18.7454,7.12502,0.0226467,11.2344,-4.87203,11.1234,-2.67463,16.3024,20.8501,-18.7827,-16.6563,-16.0507,0.33823,-28.3387,13.4791,-13.8767,7.80931,8.42476
4.65385,17.5586,2.14992,18.8369,2.02598,-1.944,-9.95437,1.62472,14.8754,-12.8484,1.5497,0.186574,-8.20398,-0.528314,-8.05325,-2.33457,18.2204,11.1116,8.02574,23.4704,4.18183,3.86946,12.085,0.76407,-2.60408e-14,2.38542e-14,2.05728,-25.6643,27.8133,117.406,-68.7116,-3.1521,-43.638,7.12502,22.568,-72.3389,-2.60408e-14,2.38542e-14,35.5348,34.9251,-8.25591,28.9267,31.6493,-26.7231,-18.746,7.12502,-0.152694,11.2337,-5.0222,10.8612,-2.69176,16.4672,20.6773,-18.9216,-16.3954,-16.1488,0.258281,-28.3344,13.4821,-13.8566,7.75477,8.31217
4.65829,17.5594,2.13833,18.8354,2.08178,-1.97119,-9.84701,1.62018,14.937,-12.9007,1.56489,0.173295,-8.32587,-0.53873,-8.10385,-2.57429,18.1658,10.9699,8.48103,23.3329,4.52098,4.0085,12.0432,0.925976,1.2921e-14,-1.66979e-14,2.0736,-25.4392,27.7219,117.381,-68.3847,-3.07685,-43.3753,7.12502,22.6402,-72.0674,1.2921e-14,-1.66979e-14,35.9378,35.2051,-7.73132,28.7838,31.1776,-26.1699,-18.843,7.12502,0.381629,11.1364,-5.14112,10.7605,-2.66505,16.6551,20.4462,-18.881,-16.5351,-16.168,0.236691,-28.3044,13.4482,-13.7879,7.71591,8.40777
4.65693,17.5609,2.13039,18.8162,2.00445,-1.94297,-9.80406,1.62052,14.799,-12.8694,1.57638,0.188544,-8.30368,-0.516436,-8.00999,-2.67039,18.1501,10.8678,8.66303,23.289,4.65358,4.05907,12.0307,0.995644,1.78906e-15,1.66979e-14,2.01908,-25.4082,27.7021,117.411,-68.345,-3.06297,-43.1278,7.12502,22.6535,-71.8183,1.78906e-15,1.66979e-14,36.0494,35.3772,-7.49906,28.7476,30.7407,-26.3571,-18.8879,7.12502,0.200894,11.0918,-5.32353,10.8424,-2.73269,16.8738,20.0109,-19.1467,-15.6321,-16.151,0.328554,-28.3519,13.3558,-13.7175,7.6996,8.43266
4.65586,17.5595,2.12197,18.7539,1.93159,-1.75521,-9.72064,1.58539,14.5343,-12.8083,1.54755,0.150133,-8.27356,-0.50431,-7.9073,-2.586,18.108,10.881,8.61104,23.2562,4.52213,4.04388,12.008,0.941245,3.77691e-15,-8.74653e-15,2.04052,-25.5181,27.5847,117.393,-68.3482,-2.86242,-43.1141,7.12502,22.846,-71.781,3.77691e-15,-8.74653e-15,35.6601,35.0872,-7.93185,28.969,31.0091,-26.7069,-18.6323,7.12502,-0.13705,11.3474,-5.39714,10.8376,-2.97064,17.0492,19.9131,-19.1575,-15.4478,-16.03,0.491058,-28.6055,13.2629,-13.6826,7.59751,8.12577
4.65515,17.5569,2.11629,18.6714,1.81233,-1.5919,-9.61075,1.59479,14.3184,-12.7593,1.5796,0.0784989,-8.25948,-0.469922,-7.86691,-2.6287,18.0622,10.8263,8.58682,23.1972,4.48425,4.03918,11.9753,0.934408,2.22639e-14,-5.56597e-15,2.05789,-25.6168,27.4509,117.368,-68.4658,-2.57091,-43.4591,7.12502,23.1257,-72.0911,2.22639e-14,-5.56597e-15,35.6119,34.932,-8.00528,29.1048,31.1369,-26.6783,-18.3915,7.12502,-0.109411,11.5882,-5.42882,10.8395,-3.17863,17.1451,19.4408,-19.8426,-14.0125,-15.909,0.649423,-28.8428,13.2362,-13.6617,7.55119,7.92051
4.65884,17.5584,2.11391,18.5841,1.75909,-1.69863,-9.54822,1.66245,14.4038,-12.7294,1.67392,0.0641663,-8.23914,-0.427873,-7.92819,-2.47883,18.003,10.7643,8.47557,23.141,4.54298,3.9519,11.9445,0.927285,8.74653e-15,5.56597e-15,2.0168,-25.601,27.3873,117.395,-68.7449,-2.6134,-43.788,7.12502,23.0849,-72.4251,8.74653e-15,5.56597e-15,35.99,35.0232,-7.61929,29.0507,30.9592,-26.7928,-18.294,7.12502,-0.219934,11.6857,-5.46542,10.8642,-3.07121,17.2155,19.5082,-19.9356,-14.4249,-15.8923,0.574869,-28.7248,13.2746,-13.6252,7.67277,8.17855
4.66731,17.5608,2.10679,18.5127,1.86546,-1.90611,-9.52606,1.6692,14.6828,-12.7062,1.67584,0.0975012,-8.23617,-0.447938,-8.04741,-2.17352,17.9685,10.7885,8.3928,23.1343,4.57884,3.86284,11.9399,0.893984,-6.95746e-15,-3.18055e-15,2.07979,-25.5718,27.2034,117.402,-68.8963,-2.94494,-43.7561,7.12502,22.7668,-72.4327,-6.95746e-15,-3.18055e-15,35.8066,34.7467,-7.94615,29.1361,31.2787,-26.4823,-18.1568,7.12502,0.0799716,11.8229,-5.43879,10.6501,-2.81677,17.2975,19.4253,-19.6899,-14.4868,-15.9333,0.580471,-28.4953,13.353,-13.6566,7.57911,8.44551
4.67231,17.5609,2.0956,18.4884,1.90734,-1.96357,-9.45507,1.62281,14.777,-12.7227,1.62593,0.129864,-8.31357,-0.486093,-8.06731,-1.97758,17.9586,10.8717,8.50027,23.1409,4.56052,3.87986,11.9485,0.867952,-3.06128e-14,6.36111e-15,2.20422,-25.5123,26.9755,117.428,-68.9579,-2.96623,-43.6308,7.12502,22.7464,-72.3099,-3.06128e-14,6.36111e-15,35.4149,34.4052,-8.41475,29.2457,31.5638,-25.9157,-18.1964,7.12502,0.627195,11.7825,-5.48256,10.4299,-2.75754,17.4413,19.3943,-19.4477,-14.2424,-15.9542,0.899178,-28.506,13.4065,-13.7157,7.28287,8.18536
4.66928,17.5604,2.08677,18.4803,1.79068,-1.88511,-9.28248,1.60039,14.5649,-12.7826,1.64067,0.155238,-8.46995,-0.473139,-7.92342,-1.9828,17.9185,10.9392,8.75041,23.0773,4.53646,3.98332,11.9276,0.870405,3.77691e-15,-1.43125e-14,2.23917,-25.3586,26.8743,117.477,-68.9479,-2.69625,-43.728,7.12502,23.0054,-72.3751,3.77691e-15,-1.43125e-14,35.3105,34.2161,-8.51416,29.2466,31.7081,-26.3556,-18.4695,7.12502,0.202294,11.5101,-5.69868,10.4517,-2.87242,17.6987,19.5524,-19.5064,-13.4119,-15.925,1.06111,-28.6383,13.3726,-13.7081,7.26408,7.82772
4.66386,17.5606,2.07616,18.477,1.65922,-1.72007,-9.12416,1.57776,14.1928,-12.7939,1.65262,0.172311,-8.55486,-0.439458,-7.69922,-2.11061,17.8622,10.998,8.93383,22.9857,4.41959,4.09674,11.8865,0.853484,-5.1684e-15,1.35174e-14,2.2151,-25.2549,26.7874,117.505,-68.6901,-2.84252,-43.7264,7.12502,22.8651,-72.3909,-5.1684e-15,1.35174e-14,35.2512,34.1579,-8.55641,29.2583,31.9131,-26.7989,-18.6086,7.12502,-0.225868,11.3711,-6.00214,10.4699,-3.07162,18.0421,19.7125,-19.5398,-12.3252,-15.9223,1.03856,-28.8084,13.2388,-13.6029,7.34024,7.89175
4.66556,17.5622,2.0622,18.4654,1.63217,-1.57043,-9.01275,1.53451,13.9799,-12.7496,1.61708,0.171546,-8.566,-0.43671,-7.58419,-2.05158,17.8198,11.064,8.87781,22.9532,4.20116,4.10422,11.8619,0.77157,-2.38542e-15,4.77083e-15,2.17246,-25.3171,26.7125,117.563,-68.5923,-2.95179,-43.717,7.12502,22.7602,-72.3944,-2.38542e-15,4.77083e-15,35.4163,34.401,-8.21443,29.2119,31.5776,-27.0871,-18.6782,7.12502,-0.504215,11.3009,-6.21788,10.3144,-3.24593,18.3522,20.3286,-18.7996,-13.7927,-15.9245,1.10327,-28.9863,13.0953,-13.4364,7.22503,7.97085
4.66955,17.5635,2.05054,18.4239,1.63942,-1.58701,-8.88742,1.51377,14.0023,-12.7093,1.6076,0.193794,-8.59351,-0.442045,-7.57451,-2.01288,17.7797,11.0478,8.83845,22.9157,4.09685,4.09388,11.8377,0.733501,1.33186e-14,1.59028e-15,2.12574,-25.3768,26.6727,117.597,-68.5751,-2.81022,-43.6192,7.12502,22.8961,-72.2799,1.33186e-14,1.59028e-15,35.4309,34.3973,-8.09176,29.2792,31.4636,-28.2462,-18.624,7.12502,-1.62367,11.3496,-6.31921,10.1922,-3.2226,18.5538,20.7925,-18.2194,-15.309,-15.9032,1.21452,-29.0043,13.0465,-13.3193,7.11307,7.78937
4.6734,17.5621,2.04262,18.3846,1.65826,-1.7096,-8.8496,1.5231,14.1216,-12.6481,1.62067,0.25311,-8.54525,-0.436052,-7.57552,-2.20467,17.7204,10.9751,9.04698,22.8099,4.08994,4.19447,11.7907,0.768273,1.07344e-14,-1.27222e-14,2.05202,-25.3042,26.6716,117.609,-68.4023,-2.95285,-43.357,7.12502,22.7592,-72.0346,1.07344e-14,-1.27222e-14,35.0392,34.1222,-8.53921,29.5046,31.9826,-28.7071,-18.2959,7.12502,-2.06884,11.6738,-6.34603,10.1106,-3.08562,18.6671,21.0821,-17.7227,-16.3161,-15.8988,1.31275,-28.9076,13.1163,-13.3656,7.04162,7.64061
4.67814,17.561,2.03514,18.4085,1.68892,-1.76623,-8.954,1.52227,14.1624,-12.5403,1.5936,0.304015,-8.36733,-0.43209,-7.54041,-2.41576,17.6618,10.9692,9.2556,22.7067,3.98963,4.32181,11.7426,0.771705,-3.57812e-15,-5.56597e-15,1.97612,-25.2786,26.6422,117.655,-68.3694,-3.15121,-43.361,7.12502,22.5688,-72.0618,-3.57812e-15,-5.56597e-15,35.0045,34.4122,-8.47963,29.5166,31.7841,-28.0238,-18.0032,7.12502,-1.40892,11.9719,-6.40872,9.97661,-3.04164,18.7482,21.9674,-16.2633,-19.5636,-15.9765,1.39047,-28.8765,13.2587,-13.5129,6.9325,7.87359
4.67885,17.5636,2.02851,18.4791,1.64152,-1.76381,-9.02921,1.52064,14.0463,-12.461,1.57714,0.340768,-8.23072,-0.41446,-7.43391,-2.46936,17.6171,10.9307,9.18472,22.6555,3.85494,4.31775,11.7083,0.733373,6.75868e-15,-7.95139e-16,1.98655,-25.3475,26.4637,117.674,-68.3989,-3.0187,-43.6131,7.12502,22.696,-72.2984,6.75868e-15,-7.95139e-16,35.4536,35.0322,-7.80445,29.3317,30.9124,-27.5405,-17.9915,7.12502,-0.942077,11.9861,-6.58981,9.96202,-3.07119,18.8075,22.9696,-14.6159,-23.3384,-16.1462,1.44793,-28.9014,13.4237,-13.6382,6.87138,8.25428
4.67849,17.565,2.02424,18.4944,1.56447,-1.75756,-9.03544,1.52512,13.9139,-12.4387,1.58566,0.365787,-8.19384,-0.393615,-7.33201,-2.3952,17.5666,10.7851,9.06462,22.6091,3.86683,4.23593,11.6781,0.73094,1.59028e-14,-3.65764e-14,2.10251,-25.3968,26.1934,117.618,-68.3283,-2.49571,-43.8897,7.12502,23.1979,-72.5127,1.59028e-14,-3.65764e-14,35.7805,35.2484,-7.36895,29.2243,30.4481,-27.0823,-18.1334,7.12502,-0.499572,11.8458,-6.72219,9.95744,-3.08074,18.8213,23.3543,-14.2699,-24.423,-16.2829,1.54668,-28.949,13.6025,-13.7069,6.89747,8.03385
4.68136,17.5624,2.01883,18.4124,1.62477,-1.83163,-9.04481,1.49754,13.9947,-12.4041,1.54251,0.3849,-8.1618,-0.417128,-7.35704,-2.37137,17.5369,10.7285,9.16496,22.5658,3.95786,4.24659,11.6623,0.764782,-4.57205e-15,7.95139e-16,2.18309,-25.4053,25.9497,117.605,-68.314,-2.35758,-44.0578,7.12502,23.3304,-72.664,-4.57205e-15,7.95139e-16,35.9711,35.2876,-7.14712,29.2163,30.4267,-26.6243,-18.2172,7.12502,-0.057218,11.7625,-6.64907,9.80635,-2.92973,18.8301,22.7043,-15.9714,-21.4796,-16.3068,1.62875,-28.8952,13.7588,-13.7311,6.91888,7.4056
4.68633,17.5614,2.00853,18.3233,1.85663,-2.0277,-9.05278,1.4497,14.2919,-12.3089,1.46058,0.4125,-8.07821,-0.471181,-7.49462,-2.55468,17.5353,10.7086,9.35996,22.5243,4.07814,4.33275,11.6522,0.833223,5.1684e-15,2.78299e-14,2.10833,-25.4855,25.7767,117.65,-68.4467,-2.8943,-44.2895,7.12502,22.8154,-72.9601,5.1684e-15,2.78299e-14,36.1199,35.3989,-6.99954,29.2628,30.5826,-26.5339,-18.2795,7.12502,0.0301216,11.7003,-6.4875,9.61502,-2.60205,18.849,24.4631,-12.086,-28.5511,-16.3607,1.56672,-28.6466,13.8872,-13.7101,6.84968,7.16278
4.69242,17.5634,1.99372,18.2897,1.95276,-2.06102,-9.04766,1.40113,14.3633,-12.2174,1.38586,0.407839,-7.99521,-0.504368,-7.54207,-3.06401,17.5673,10.5426,9.88346,22.457,4.50727,4.54039,11.6485,1.06635,6.36111e-15,-1.98785e-14,2.11043,-25.5882,25.5253,117.598,-68.5374,-3.35563,-44.4316,7.12502,22.3726,-73.1561,6.36111e-15,-1.98785e-14,35.8462,35.178,-7.41496,29.4191,31.0222,-26.4509,-18.5032,7.12502,0.110241,11.4765,-6.46149,9.48407,-2.55784,18.8329,24.1109,-13.1772,-26.1665,-16.4668,1.57913,-28.6214,14.0391,-13.745,6.74442,7.18584
4.70095,17.562,1.97526,18.2082,1.93076,-1.96112,-8.939,1.32926,14.3096,-12.1479,1.30275,0.381601,-7.99342,-0.539532,-7.5453,-3.66479,17.6067,10.4236,11.0876,22.3544,5.04391,4.4988,11.6646,1.24924,-2.46493e-14,3.57812e-14,2.23772,-25.5966,25.2075,117.51,-68.5055,-3.7287,-44.198,7.12502,22.0145,-72.9651,-2.46493e-14,3.57812e-14,35.5644,34.9946,-7.77915,29.5266,31.1715,-26.1092,-18.9114,7.12502,0.440264,11.0679,-6.41848,9.27485,-2.71845,18.8017,24.0799,-13.1275,-25.1632,-16.4924,1.72053,-28.8074,14.2366,-13.8557,6.69894,6.8378
4.7104,17.5613,1.95579,18.0573,2.09316,-2.03966,-8.74118,1.26902,14.5317,-12.0794,1.24369,0.3808,-8.05077,-0.588319,-7.6746,-3.93109,17.5518,10.3852,11.5496,22.2146,5.23883,4.6579,11.6204,1.35038,-5.96354e-15,-2.14687e-14,2.27928,-25.5093,25.0267,117.468,-68.3956,-4.10108,-43.8435,7.12502,21.6569,-72.6523,-5.96354e-15,-2.14687e-14,35.4272,34.8644,-7.96364,29.6708,31.4844,-25.9654,-19.0991,7.12502,0.579182,10.8799,-6.26971,9.02842,-2.58953,18.8334,24.4053,-11.8105,-27.0006,-16.4754,1.67553,-28.7243,14.4381,-13.9382,6.69071,6.74704
4.7171,17.5658,1.93776,17.9602,2.20723,-2.17388,-8.52329,1.25881,14.741,-12.0928,1.26416,0.38855,-8.19574,-0.606341,-7.78509,-3.64409,17.421,10.4813,11.5241,22.0751,5.18277,4.61937,11.5516,1.2862,1.88845e-14,-3.26007e-14,2.40031,-25.33,24.7921,117.379,-68.1813,-4.00036,-43.6563,7.12502,21.7536,-72.4539,1.88845e-14,-3.26007e-14,35.0105,34.2174,-8.59606,30.0113,32.603,-25.773,-19.2695,7.12502,0.76495,10.7088,-6.27844,8.92463,-2.41719,18.921,24.0008,-12.9982,-25.1883,-16.5179,1.54255,-28.5469,14.6244,-14.0517,6.63379,7.65668
4.71912,17.5696,1.92062,17.9693,2.11421,-2.22691,-8.37796,1.29262,14.7535,-12.128,1.33752,0.385517,-8.30211,-0.580629,-7.79574,-3.34445,17.2848,10.5384,11.4592,21.9349,5.12516,4.56196,11.4799,1.22176,5.96354e-16,1.19271e-14,2.56758,-25.2381,24.4125,117.296,-67.9699,-3.58706,-43.7731,7.12502,22.1505,-72.5241,5.96354e-16,1.19271e-14,34.8839,33.8862,-8.84459,30.1707,33.0788,-24.9541,-19.7226,7.12502,1.55589,10.2514,-6.50401,8.89094,-2.4245,19.0509,23.3446,-14.5436,-22.0719,-16.6607,1.58203,-28.514,14.7631,-14.0968,6.58852,8.11236
4.71857,17.5705,1.90641,18.0048,2.05421,-2.17785,-8.38527,1.29691,14.6254,-12.0713,1.33984,0.378571,-8.22468,-0.560332,-7.7319,-3.28705,17.1944,10.5266,11.4507,21.8288,5.05985,4.55419,11.4237,1.19151,8.34896e-15,7.95139e-15,2.58966,-25.3175,24.1186,117.301,-67.891,-3.42973,-43.8485,7.12502,22.3015,-72.5815,8.34896e-15,7.95139e-15,35.038,34.1189,-8.65866,30.1602,32.9603,-24.2165,-19.9436,7.12502,2.26823,10.0241,-6.7423,8.86509,-2.52533,19.3032,23.1384,-14.4306,-21.7565,-16.733,1.64087,-28.5943,14.7724,-14.048,6.56645,7.85028
4.71452,17.572,1.89484,17.9919,2.01445,-2.04374,-8.3005,1.22046,14.3107,-12.0191,1.25782,0.398375,-8.21832,-0.570236,-7.53751,-3.46724,17.1649,10.579,11.6871,21.7633,4.97723,4.67112,11.397,1.19174,-1.59028e-14,1.27222e-14,2.64621,-25.3448,23.8903,117.263,-67.7065,-3.33071,-43.487,7.12502,22.3965,-72.2087,-1.59028e-14,1.27222e-14,34.943,34.2002,-8.75209,30.2426,33.1517,-23.9967,-19.9605,7.12502,2.48052,10.0048,-6.93618,8.95239,-2.67753,19.6628,22.8304,-14.2202,-21.7797,-16.7006,1.62939,-28.729,14.676,-13.9877,6.55456,7.97455
4.70707,17.5735,1.87631,17.9474,1.90883,-1.94617,-8.01312,1.15698,13.9823,-12.0158,1.23172,0.423495,-8.37111,-0.564328,-7.33098,-3.73843,17.1017,10.6202,12.0178,21.6351,4.93416,4.82551,11.3443,1.21323,5.1684e-15,-9.54166e-15,2.71942,-25.3476,23.6931,117.162,-67.4727,-2.69196,-43.1427,7.12502,23.0096,-71.7893,5.1684e-15,-9.54166e-15,34.8758,34.168,-8.83489,30.3346,33.1857,-24.2327,-19.993,7.12502,2.25262,9.97484,-7.16279,9.13541,-2.79029,19.9879,22.4301,-14.6093,-20.8712,-16.7588,1.56576,-28.8009,14.6115,-13.8118,6.68891,8.05704
4.70584,17.5726,1.85078,17.8855,1.87501,-1.94331,-7.74969,1.13158,13.9226,-12.0457,1.24615,0.42161,-8.55162,-0.566029,-7.30309,-3.65588,16.9769,10.6459,12.1891,21.466,4.9799,4.86119,11.2709,1.21284,1.2921e-14,-1.43125e-14,2.78469,-25.2726,23.5101,117.099,-67.3854,-2.0544,-43.0658,7.12502,23.6212,-71.6348,1.2921e-14,-1.43125e-14,34.8913,34.0614,-8.85661,30.4358,33.0225,-24.2565,-19.8163,7.12502,2.22961,10.1518,-7.34504,9.10681,-2.79992,20.2262,22.3841,-14.7185,-20.5498,-16.8098,1.47572,-28.7847,14.6027,-13.6482,6.81758,7.79676
4.71157,17.5747,1.83288,17.8452,1.86129,-2.10472,-7.62362,1.13327,14.1345,-12.1253,1.27387,0.451826,-8.72089,-0.584834,-7.389,-3.01926,16.8377,10.8294,12.1074,21.3647,4.86238,4.76535,11.2197,1.0899,-1.19271e-14,1.59028e-14,3.00397,-25.0064,23.2141,117.067,-67.2421,-2.16374,-43.118,7.12502,23.5163,-71.7005,-1.19271e-14,1.59028e-14,34.9807,33.9774,-8.7397,30.5037,32.7039,-23.7626,-19.7226,7.12502,2.70664,10.24,-7.50701,8.99397,-2.65252,20.3945,22.5763,-14.3031,-20.9851,-16.8035,1.52119,-28.6487,14.6159,-13.6519,6.83703,7.53177
4.71245,17.5779,1.82683,17.7921,1.76968,-2.3262,-7.62655,1.17925,14.2879,-12.0809,1.33073,0.514272,-8.66031,-0.559897,-7.40473,-2.8363,16.7729,10.952,12.2496,21.2938,4.8172,4.79826,11.1921,1.05176,-4.17448e-15,1.19271e-14,3.14952,-24.909,22.9168,117.028,-67.1027,-2.79736,-43.3091,7.12502,22.9084,-71.9682,-4.17448e-15,1.19271e-14,35.3315,34.2319,-8.25898,30.4808,32.3899,-23.7313,-19.9953,7.12502,2.73682,9.96691,-7.60523,9.12597,-2.43648,20.4744,22.5225,-14.2305,-20.7603,-16.8532,1.64263,-28.4425,14.7351,-13.6985,6.92145,7.38631
4.70753,17.578,1.82267,17.7409,1.665,-2.30551,-7.71546,1.22112,14.124,-11.9411,1.3621,0.516875,-8.42984,-0.506658,-7.30913,-3.44835,16.7611,10.7811,12.9478,21.1483,5.17175,5.05713,11.1571,1.25478,-3.67752e-15,2.3059e-14,3.07985,-24.9901,22.7599,117.02,-67.054,-3.31109,-43.3991,7.12502,22.4154,-72.1185,-3.67752e-15,2.3059e-14,35.6246,34.4367,-7.91311,30.4937,32.4753,-24.2172,-20.1074,7.12502,2.26759,9.86025,-7.6264,9.24322,-2.46066,20.5101,22.5183,-14.0543,-21.3462,-16.9789,1.69754,-28.4557,14.9719,-13.8007,6.97421,7.69056
4.70569,17.5794,1.81454,17.7779,1.56633,-2.23305,-7.84076,1.264,13.9361,-11.8155,1.39087,0.514649,-8.19614,-0.45401,-7.20468,-4.08975,16.7133,10.4887,13.5456,20.9706,5.47457,5.28218,11.0959,1.45055,5.06901e-15,-3.97569e-15,2.98904,-25.1403,22.6489,117.031,-66.9091,-3.15457,-43.4388,7.12502,22.5656,-72.14,5.06901e-15,-3.97569e-15,35.4955,34.3318,-8.11598,30.6334,32.8981,-24.2435,-20.0115,7.12502,2.24217,9.95643,-7.80538,9.17378,-2.584,20.6193,22.6349,-13.6528,-22.2039,-17.1332,1.72718,-28.5482,15.1606,-13.9469,6.97555,8.30203
4.70401,17.5834,1.79571,17.8322,1.58826,-2.3912,-7.85674,1.27088,14.0052,-11.6357,1.3836,0.589558,-7.98254,-0.435626,-7.16065,-4.7659,16.6318,10.2426,13.8964,20.782,5.5044,5.46942,11.0059,1.55377,-2.28602e-15,-1.27222e-14,2.89325,-25.4326,22.5084,117.028,-66.7034,-2.90879,-43.5326,7.12502,22.8015,-72.205,-2.28602e-15,-1.27222e-14,35.1094,34.2326,-8.62977,30.8752,33.5251,-24.1295,-19.8253,7.12502,2.35232,10.1415,-8.07964,9.07946,-2.42611,20.8259,22.6885,-13.6082,-21.8514,-17.3168,1.74181,-28.376,15.2628,-14.002,6.97277,9.00107
4.70057,17.5848,1.76718,17.8052,1.71959,-2.46746,-7.69018,1.16774,14.0577,-11.4938,1.26542,0.681513,-7.94402,-0.484253,-7.09352,-5.25518,16.5384,9.961,14.1798,20.6178,5.48569,5.60765,10.9206,1.62714,-9.14409e-15,-3.18055e-15,2.94351,-25.6922,22.2784,117.028,-66.6202,-3.27158,-43.4722,7.12502,22.4533,-72.187,-9.14409e-15,-3.18055e-15,34.6761,34.1021,-9.11212,31.1041,33.9545,-25.439,-19.2673,7.12502,1.08759,10.7096,-8.2493,8.96246,-2.29249,21.0871,22.6535,-13.6581,-21.4302,-17.46,1.66989,-28.2488,15.3733,-14.0241,6.94875,9.52612
4.69843,17.5839,1.74607,17.754,1.72886,-2.40323,-7.57625,1.04701,13.9462,-11.4579,1.12818,0.784734,-7.99592,-0.540019,-6.92166,-5.29168,16.4958,9.59408,14.3729,20.576,5.60405,5.62244,10.8977,1.70953,4.57205e-15,-7.95139e-15,3.24591,-25.7977,21.9193,117.06,-66.6547,-3.81003,-43.2859,7.12502,21.9364,-72.0622,4.57205e-15,-7.95139e-15,34.3376,33.9672,-9.31871,31.2376,34.0143,-26.8376,-18.8553,7.12502,-0.263211,11.1243,-8.39675,8.88838,-2.3467,21.2883,22.5033,-13.835,-21.3315,-17.5451,1.60835,-28.3029,15.4978,-14.0533,7.00257,9.62355
4.69172,17.5854,1.73636,17.7921,1.52609,-2.36219,-7.59056,1.02675,13.6829,-11.552,1.11679,0.87269,-8.089,-0.530398,-6.67844,-4.78154,16.3906,9.48483,14.3611,20.5081,5.61287,5.52265,10.8609,1.6694,1.41137e-14,-7.15625e-15,3.56036,-25.6963,21.5547,117.129,-66.8048,-3.97558,-43.1128,7.12502,21.7774,-71.9076,1.41137e-14,-7.15625e-15,34.4152,33.9398,-9.04753,31.2525,33.6737,-26.7003,-18.8449,7.12502,-0.130649,11.1348,-8.71395,8.96646,-2.43115,21.4536,22.5086,-14.0089,-22.0014,-17.6888,1.68673,-28.3781,15.5439,-13.9929,7.13552,9.45611
4.70549,17.582,1.72353,17.7856,1.71266,-2.23465,-7.5948,0.97934,13.7945,-11.6479,1.05535,0.794379,-8.21666,-0.587517,-6.82651,-4.00791,16.1764,9.66952,14.157,20.3311,5.37842,5.37463,10.7629,1.48733,-4.27387e-15,8.74653e-15,3.72647,-25.4956,21.2784,117.165,-66.8934,-4.19945,-43.0261,7.12502,21.5624,-71.8457,-4.27387e-15,8.74653e-15,34.8991,34.0723,-8.40039,31.1733,32.9516,-25.7686,-19.2387,7.12502,0.769193,10.7397,-8.65797,8.29504,-2.56322,21.5612,22.918,-13.0027,-23.7416,-17.6798,1.6908,-28.5745,15.5628,-13.9951,6.95508,9.2707
4.70445,17.5834,1.71733,17.781,1.64379,-2.26546,-7.73053,0.993562,13.7716,-11.5261,1.04058,0.792929,-7.99936,-0.572918,-6.81488,-3.87209,16.0674,9.73738,14.1583,20.2067,5.27252,5.36942,10.6984,1.42884,-1.98785e-15,-1.43125e-14,3.77241,-25.5255,21.029,117.167,-66.8457,-4.40574,-43.1298,7.12502,21.3643,-71.972,-1.98785e-15,-1.43125e-14,35.2997,34.5173,-7.87461,31.0631,32.2044,-24.5965,-20.0766,7.12502,1.90127,9.89471,-8.74222,8.31923,-2.55056,21.6265,22.9686,-13.1374,-22.8813,-17.7261,1.70134,-28.5458,15.6164,-14.0065,7.00227,9.41195
4.69789,17.5869,1.7059,17.7999,1.64611,-2.33097,-7.8611,0.954201,13.6918,-11.3515,0.954999,0.843246,-7.73847,-0.580926,-6.71653,-4.06092,16.0347,9.61971,14.2388,20.1432,5.29956,5.40912,10.6655,1.46573,1.98785e-15,-3.97569e-15,3.77442,-25.7269,20.8067,117.181,-66.8528,-4.21359,-43.243,7.12502,21.5488,-72.0642,1.98785e-15,-3.97569e-15,35.4677,34.9462,-7.63921,30.9929,31.6549,-24.2582,-20.6402,7.12502,2.22804,9.32794,-8.84742,8.44324,-2.44724,21.6525,22.7721,-13.7252,-21.8454,-17.8266,1.67957,-28.4335,15.6553,-13.9838,7.00043,9.64991
4.69413,17.5914,1.68753,17.7185,1.70457,-2.29482,-7.76266,0.911914,13.5912,-11.2616,0.909039,0.822283,-7.69668,-0.589759,-6.68581,-4.08199,15.9313,9.45243,14.2665,20.0042,5.3847,5.39258,10.5964,1.49968,-9.64106e-15,9.54166e-15,3.6886,-25.747,20.6616,117.168,-66.7138,-4.27434,-43.2054,7.12502,21.4905,-72.0333,-9.64106e-15,9.54166e-15,35.7422,35.0792,-7.3872,30.9808,31.5817,-24.8194,-20.864,7.12502,1.68598,9.10903,-8.84249,8.38653,-2.42596,21.7085,22.6454,-13.6498,-22.844,-17.8495,1.53674,-28.3949,15.6538,-13.8653,6.94336,10.8252
4.69133,17.5923,1.66985,17.5655,1.63695,-2.24401,-7.52574,0.889529,13.5151,-11.2693,0.919027,0.789121,-7.83555,-0.589917,-6.68156,-4.04666,15.7919,9.24814,14.5513,19.8056,5.59063,5.43219,10.5122,1.57742,-5.86415e-15,3.18055e-15,3.77802,-25.5631,20.3944,117.097,-66.3958,-4.15381,-43.3293,7.12502,21.6063,-72.144,-5.86415e-15,3.18055e-15,35.7319,34.7725,-7.50126,31.1043,32.0338,-25.1934,-20.9682,7.12502,1.32475,9.00748,-8.78155,8.37499,-2.46336,21.7338,22.6662,-13.4004,-23.705,-17.8536,1.4375,-28.4013,15.7043,-13.7169,7.0132,11.6036
4.69442,17.5904,1.65725,17.4424,1.63896,-2.31213,-7.32289,0.85641,13.6511,-11.3261,0.910182,0.789464,-8.02572,-0.620541,-6.75812,-3.98567,15.6356,9.25205,14.9865,19.5861,5.62878,5.55489,10.4211,1.59166,1.68967e-15,-2.46493e-14,4.00589,-25.4128,20.0626,117.02,-66.3093,-3.42434,-43.614,7.12502,22.3067,-72.3464,1.68967e-15,-2.46493e-14,35.8502,34.6111,-7.33182,31.1563,31.9817,-25.3445,-20.9898,7.12502,1.17884,8.98672,-8.67781,8.29552,-2.38949,21.7311,22.7702,-12.8316,-24.7169,-17.822,1.48457,-28.3415,15.772,-13.713,7.00776,11.4858
4.70251,17.5923,1.64705,17.3989,1.77885,-2.50309,-7.20718,0.894433,13.9249,-11.2764,0.96865,0.740908,-8.0333,-0.614032,-6.96442,-4.61039,15.505,9.39474,15.6485,19.2914,5.71536,5.87151,10.3096,1.67291,-3.18055e-15,-3.18055e-15,3.86424,-25.4475,19.9422,116.936,-66.3729,-3.06454,-43.5691,7.12502,22.652,-72.2598,-3.18055e-15,-3.18055e-15,36.7527,35.0491,-6.31384,30.9865,31.2163,-25.7419,-21.048,7.12502,0.795051,8.93026,-8.5951,8.09818,-2.17407,21.7443,22.7197,-12.1338,-25.6503,-17.7987,1.52276,-28.1536,15.8036,-13.7956,6.88678,11.7718
4.70433,17.5947,1.63872,17.4082,1.8237,-2.61727,-7.24812,0.83188,14.1522,-11.6065,0.909305,0.853435,-8.41903,-0.698783,-6.96451,-3.24641,15.4608,9.15707,15.6908,19.393,5.9024,5.61987,10.3622,1.64051,1.03368e-14,-9.54166e-15,4.57721,-24.8546,19.4314,116.862,-66.3385,-3.34432,-43.3206,7.12502,22.3835,-72.0438,1.03368e-14,-9.54166e-15,36.1376,33.915,-6.88849,31.2199,31.5442,-26.3151,-20.8629,7.12502,0.241375,9.11669,-8.64343,7.99296,-2.0535,21.7791,22.6233,-12.0262,-25.4266,-17.8324,1.5278,-28.0327,15.8279,-13.8153,6.8747,11.8776
4.70226,17.5959,1.62597,17.362,1.76094,-2.53837,-7.13402,0.794005,13.9779,-11.5416,0.876755,0.880029,-8.40838,-0.695022,-6.84012,-3.47739,15.4079,9.04306,15.9769,19.2988,5.89509,5.73671,10.3186,1.68154,2.9122e-14,-4.53229e-14,4.7189,-24.8534,19.1193,116.737,-66.1179,-3.64539,-43.2147,7.12502,22.0944,-71.9724,2.9122e-14,-4.53229e-14,35.8456,33.6953,-7.21719,31.3847,31.7902,-26.7969,-20.5906,7.12502,-0.22392,9.38906,-8.70022,7.94847,-2.14504,21.8294,22.1603,-13.1401,-23.6883,-17.8462,1.49337,-28.1138,15.8472,-13.729,6.96539,11.7661
4.70189,17.5919,1.61057,17.3239,1.80939,-2.55036,-7.09616,0.754961,14.0094,-11.4919,0.827151,0.89911,-8.38543,-0.717321,-6.83739,-3.31838,15.3169,9.13463,16.0374,19.2153,5.67711,5.76026,10.2696,1.59326,-1.21259e-14,3.18055e-15,4.87917,-24.8026,18.776,116.666,-66.0571,-3.57502,-43.1417,7.12502,22.162,-71.8914,-1.21259e-14,3.18055e-15,35.913,33.7697,-7.11148,31.3716,31.4553,-26.8901,-20.2815,7.12502,-0.313982,9.69798,-8.74108,7.77728,-2.10598,21.9361,21.1547,-14.8355,-20.7206,-17.8407,1.54387,-28.1313,15.8489,-13.6704,7.02221,10.8113
4.69912,17.5887,1.60251,17.3621,1.89735,-2.60762,-7.33648,0.717186,14.0684,-11.3783,0.726176,0.939472,-8.14084,-0.748356,-6.82585,-3.31982,15.3086,9.05981,16.1527,19.2143,5.63272,5.79395,10.2651,1.59581,-6.55989e-15,1.90833e-14,5.05768,-24.9174,18.4566,116.628,-66.1173,-3.33008,-43.0519,7.12502,22.3971,-71.7735,-6.55989e-15,1.90833e-14,35.9167,33.9447,-7.08246,31.3891,31.1829,-26.6884,-20.0509,7.12502,-0.119151,9.92884,-8.86422,7.60211,-1.99893,22.102,21.4034,-14.2952,-21.9216,-17.9094,1.63649,-28.0899,15.8672,-13.7166,6.9638,10.096
4.68766,17.5963,1.58447,17.4313,1.81169,-2.53811,-7.38861,0.770541,13.7418,-11.0193,0.758815,0.849263,-7.67202,-0.662023,-6.74631,-4.68344,15.2641,9.04338,16.6635,18.9768,5.68229,6.17292,10.1639,1.74364,2.28602e-14,-2.46493e-14,4.56746,-25.438,18.4409,116.576,-65.9216,-3.29832,-43.023,7.12502,22.4276,-71.7408,2.28602e-14,-2.46493e-14,36.4085,34.7117,-6.75425,31.3939,30.9377,-26.9752,-20.0358,7.12502,-0.396146,9.94353,-9.16265,7.7663,-2.04643,22.2795,22.3398,-12.4599,-25.9834,-18.1323,1.5312,-28.0929,15.8897,-13.6826,6.95968,11.5106
4.67562,17.6034,1.55475,17.4808,1.65125,-2.50844,-7.22312,0.776072,13.5042,-11.0029,0.797454,0.857987,-7.72845,-0.626667,-6.60558,-4.77743,15.1192,9.01406,16.9585,18.771,5.64736,6.28159,10.0676,1.7456,-1.09332e-14,1.66979e-14,4.48337,-25.4264,18.3215,116.621,-65.7833,-3.22272,-43.1091,7.12502,22.5002,-71.8182,-1.09332e-14,1.66979e-14,36.2051,34.4867,-7.09461,31.5719,31.0593,-26.8641,-20.2427,7.12502,-0.288822,9.73686,-9.51197,8.07222,-2.08477,22.4287,22.3633,-12.2665,-26.8283,-18.3685,1.37042,-28.052,15.9287,-13.5708,7.12734,12.6661
4.67511,17.6038,1.53179,17.4104,1.68173,-2.41766,-7.00899,0.742594,13.4348,-10.948,0.782479,0.812215,-7.7884,-0.632229,-6.61899,-5.17761,14.9445,8.88589,17.459,18.4659,5.80067,6.47868,9.93697,1.84302,-5.1684e-15,3.97569e-15,4.33432,-25.5078,18.3064,116.667,-65.9961,-2.9019,-43.2261,7.12502,22.8081,-71.8977,-5.1684e-15,3.97569e-15,36.0171,34.2551,-7.42687,31.813,31.6504,-25.7737,-20.5441,7.12502,0.764334,9.4343,-9.58703,8.0343,-2.15472,22.6288,22.1363,-12.5209,-26.0058,-18.3599,1.29513,-28.1329,15.9395,-13.6036,7.13986,12.8943
4.6767,17.6032,1.5152,17.2253,1.89463,-2.36651,-6.87246,0.618064,13.552,-11.1154,0.652966,0.837594,-8.09481,-0.732338,-6.65617,-4.17465,14.7806,8.73633,17.621,18.3406,5.98353,6.32983,9.88756,1.82493,-2.28602e-15,1.03368e-14,4.62596,-25.1169,18.1201,116.733,-66.3957,-3.13479,-43.3463,7.12502,22.5846,-72.0452,-2.28602e-15,1.03368e-14,35.5996,33.4419,-7.89259,32.1479,32.6298,-25.2182,-20.5678,7.12502,1.30083,9.40796,-9.4234,7.84489,-2.09328,22.8745,22.2405,-12.1735,-26.1857,-18.1576,1.25487,-28.1544,15.8747,-13.6988,7.00497,13.2024
4.66833,17.599,1.49525,17.1328,2.03435,-2.41761,-6.65659,0.567952,13.4508,-10.7986,0.597177,0.85144,-7.86127,-0.720854,-6.58875,-6.00319,14.7228,8.44689,18.7103,17.9942,6.40372,6.91927,9.76232,2.17489,1.21259e-14,7.95139e-15,4.21722,-25.5419,18.1896,116.771,-66.6127,-3.68145,-43.5419,7.12502,22.0598,-72.3036,1.21259e-14,7.95139e-15,35.8541,34.0855,-7.62661,32.239,32.8146,-25.4391,-20.6329,7.12502,1.08745,9.34403,-9.3865,7.85079,-1.92486,23.0244,22.2046,-12.3185,-26.1093,-18.0664,1.30955,-28.0739,15.7916,-13.6077,7.01548,12.0023
4.66074,17.5933,1.48216,17.1753,2.03462,-2.32624,-6.67936,0.534029,13.2918,-10.9551,0.56559,0.879083,-8.02796,-0.740493,-6.46868,-5.44638,14.545,8.3471,18.9896,17.8175,6.42268,6.90359,9.68074,2.14537,-5.76476e-15,1.51076e-14,4.34247,-25.1386,18.0989,116.868,-66.8481,-3.82938,-43.6973,7.12502,21.9178,-72.4758,-5.76476e-15,1.51076e-14,35.7432,33.6712,-7.65816,32.3951,32.8346,-25.6685,-20.5329,7.12502,0.865932,9.44509,-9.5152,7.8093,-1.99414,23.1781,21.9924,-12.5569,-26.171,-18.12,1.40724,-28.1921,15.745,-13.498,6.99592,10.7913
4.66836,17.5872,1.4949,17.1549,2.04067,-2.14621,-7.02829,0.54404,13.2087,-10.9554,0.521311,0.826522,-7.83337,-0.746547,-6.47898,-4.93742,14.3329,8.32211,19.0439,17.6127,6.26532,6.84579,9.56997,2.04417,2.62396e-14,-3.89618e-14,4.50838,-24.8242,17.9141,116.831,-66.731,-3.72427,-43.6027,7.12502,22.0187,-72.3694,2.62396e-14,-3.89618e-14,35.8478,33.5219,-7.44475,32.4378,32.349,-26.3563,-20.4441,7.12502,0.201665,9.53556,-9.39538,7.39521,-2.20836,23.2843,21.6501,-12.6465,-26.1735,-18.0265,1.57683,-28.4687,15.776,-13.6578,6.75305,10.9181
4.66539,17.5878,1.47618,17.0646,1.96903,-2.15053,-6.80744,0.537699,13.194,-10.9669,0.549118,0.822647,-7.96688,-0.740706,-6.47545,-4.90318,14.1804,8.20938,19.2902,17.4187,6.25223,6.909,9.47481,2.04876,-1.0635e-14,1.35174e-14,4.71314,-24.6051,17.5068,116.672,-66.2085,-3.28678,-43.3312,7.12502,22.4387,-72.0478,-1.0635e-14,1.35174e-14,35.9552,33.4895,-7.28787,32.502,31.9162,-26.9098,-20.7738,7.12502,-0.332995,9.20565,-9.45126,7.40288,-2.20469,23.3497,21.3653,-13.3598,-25.0987,-18.0629,1.62075,-28.4708,15.895,-13.7349,6.7989,11.1636
4.66654,17.5906,1.4656,17.0039,2.01812,-2.24442,-6.74367,0.526052,13.3451,-10.9531,0.541285,0.840508,-7.99666,-0.756917,-6.54024,-2.4707,13.5633,8.95803,16.9828,17.1184,4.34248,5.99202,9.17754,1.05042,1.75924e-14,5.56597e-15,4.94947,-24.5955,17.027,116.546,-65.9582,-2.70702,-43.3299,7.12502,22.9951,-71.9782,1.75924e-14,5.56597e-15,35.9051,33.2901,-7.34604,32.653,31.9339,-26.7489,-21.1122,7.12502,-0.177593,8.86747,-9.45115,7.35341,-2.081,23.3724,21.4068,-13.3341,-24.8326,-18.133,1.52942,-28.333,16.0627,-13.8769,6.77792,12.3972
4.66522,17.5945,1.44866,16.9786,2.10671,-2.25786,-6.77444,0.51029,13.3875,-10.9422,0.514576,0.85135,-7.97436,-0.770945,-6.55197,-0.990669,13.1684,9.46425,15.864,16.8903,3.20374,5.5306,8.9968,0.47175,8.44835e-15,-1.82882e-14,5.06809,-24.7163,16.8116,116.538,-66.1714,-2.22308,-43.6093,7.12502,23.4594,-72.199,8.44835e-15,-1.82882e-14,36.1284,33.2361,-7.04942,32.6964,31.9132,-26.5595,-21.3079,7.12502,0.00540248,8.67188,-9.52705,7.29172,-2.02254,23.4984,20.8537,-14.1168,-23.3383,-18.2969,1.4013,-28.2586,16.2539,-13.9281,6.68011,13.68
4.65837,17.596,1.42124,16.8649,2.10936,-2.21797,-6.57076,0.467975,13.3067,-10.8954,0.489438,0.869768,-8.03938,-0.777907,-6.4879,-1.15986,13.0692,9.46209,16.5411,16.7262,3.22845,5.76676,8.93479,0.511629,1.65985e-14,1.43125e-14,5.11249,-24.8211,16.7386,116.537,-66.2824,-1.76242,-43.7787,7.12502,23.9012,-72.3113,1.65985e-14,1.43125e-14,36.5186,33.5157,-6.48218,32.6417,31.6647,-26.1575,-21.3948,7.12502,0.393594,8.58457,-9.55201,7.36598,-2.01061,23.5987,20.2818,-15.0716,-21.5305,-18.4173,1.35184,-28.2581,16.491,-13.912,6.72626,13.8237
4.6468,17.5971,1.39481,16.7163,1.97613,-2.27816,-6.22387,0.409162,13.1756,-10.7318,0.459842,0.978064,-8.05077,-0.769813,-6.29918,-3.24901,13.2803,8.51469,18.8051,16.6185,4.61825,6.63429,8.97047,1.30025,2.18663e-15,1.59028e-15,5.31683,-25.1344,16.4802,116.396,-66.0205,-1.45347,-44.0575,7.12502,24.1975,-72.551,2.18663e-15,1.59028e-15,36.4135,33.7701,-6.45306,32.7517,31.873,-25.7364,-21.311,7.12502,0.80035,8.66727,-9.61176,7.64951,-1.90343,23.6693,20.2271,-15.4484,-20.7583,-18.4983,1.39268,-28.1634,16.7067,-13.9476,6.88303,13.7384
4.63995,17.5957,1.38347,16.6352,1.87385,-2.42527,-6.21812,0.475839,13.2667,-10.7976,0.554289,0.976701,-8.11365,-0.73712,-6.35115,-4.10808,13.3067,7.58719,20.4317,16.373,6.11627,7.09133,8.94716,1.99642,-7.7526e-15,1.19271e-14,5.4004,-24.8939,16.2524,116.323,-65.8823,-1.45025,-44.2379,7.12502,24.2006,-72.7309,-7.7526e-15,1.19271e-14,36.3073,33.2241,-6.69406,33.0508,32.5149,-25.452,-21.2339,7.12502,1.07503,8.7431,-9.71267,7.80258,-1.72356,23.8099,19.7615,-16.0742,-19.5079,-18.5518,1.50719,-28.0122,16.8454,-14.008,6.97208,13.5917
4.64439,17.5908,1.38695,16.6135,1.90723,-2.47437,-6.45927,0.510139,13.4642,-10.7983,0.555159,0.918317,-7.98452,-0.747357,-6.52373,-4.54384,13.2108,7.06617,21.3612,16.091,6.90681,7.35397,8.86436,2.36426,7.85199e-15,-1.59028e-14,5.41235,-24.6763,15.9898,116.37,-65.9662,-1.62992,-44.2353,7.12502,24.0283,-72.7512,7.85199e-15,-1.59028e-14,36.1497,32.7695,-6.99504,33.3211,32.9267,-26.2697,-21.108,7.12502,0.285238,8.87157,-9.67411,7.54186,-1.66658,23.9226,19.0666,-16.5797,-18.0632,-18.5611,1.62745,-28.0088,16.9786,-14.1098,6.88441,13.5977
4.6389,17.5852,1.36414,16.6124,1.95328,-2.47201,-6.29554,0.472109,13.4875,-10.8622,0.536158,0.909911,-8.15826,-0.773206,-6.54555,-4.42938,13.068,6.94528,21.7354,15.8853,7.03527,7.436,8.77661,2.41436,5.66536e-15,-1.74931e-14,5.37399,-24.3897,15.7807,116.466,-65.8206,-1.82544,-44.237,7.12502,23.8408,-72.7775,5.66536e-15,-1.74931e-14,36.0804,32.4439,-7.11113,33.5212,33.1574,-27.9697,-20.9991,7.12502,-1.3566,8.97633,-9.7666,7.3946,-1.63478,24.0275,18.2423,-17.5295,-15.7197,-18.6857,1.66457,-28.0176,17.1273,-14.0858,6.9194,12.6016
4.64051,17.5799,1.35173,16.5701,2.05416,-2.5327,-6.18113,0.425531,13.631,-10.891,0.49557,0.936166,-8.27395,-0.812264,-6.59607,-4.26777,12.9315,6.92865,22.0509,15.7272,6.93188,7.52036,8.6973,2.37792,-6.75868e-15,-1.90833e-14,5.43829,-24.0569,15.6058,116.488,-65.4199,-2.17918,-43.6878,7.12502,23.5015,-72.2722,-6.75868e-15,-1.90833e-14,35.9805,32.2141,-7.18262,33.7366,33.3515,-28.4247,-20.9454,7.12502,-1.79606,9.02683,-9.7819,7.05754,-1.5193,24.2111,17.8747,-17.7957,-14.579,-18.701,1.67295,-27.9744,17.2394,-14.1173,6.94388,11.3789
4.64182,17.582,1.34149,16.5352,2.0712,-2.57017,-6.08557,0.386279,13.6776,-10.8102,0.453485,0.97418,-8.24759,-0.829392,-6.581,-4.6287,12.8041,6.83602,22.5288,15.5249,6.89741,7.73739,8.60053,2.4191,1.48095e-14,-1.66979e-14,5.59575,-23.9859,15.3752,116.392,-65.2278,-2.61435,-43.1341,7.12502,23.084,-71.7714,1.48095e-14,-1.66979e-14,35.774,32.1729,-7.36639,33.9607,33.4215,-27.2424,-20.9356,7.12502,-0.654228,9.04319,-9.94051,6.75603,-1.43249,24.5273,18.5404,-16.8567,-16.7105,-18.7363,1.68555,-27.9401,17.3289,-14.1694,6.86625,11.5534
4.63302,17.5845,1.31504,16.5304,1.9869,-2.40103,-5.95836,0.348932,13.3924,-10.5932,0.405691,0.938676,-8.06749,-0.810696,-6.4639,-5.01963,12.6319,6.78949,22.6018,15.2963,6.68029,7.84411,8.46831,2.37354,-1.19271e-15,-2.62396e-14,5.65105,-24.3575,15.0348,116.24,-65.1934,-2.81805,-43.2626,7.12502,22.8886,-71.9241,-1.19271e-15,-2.62396e-14,35.6915,32.5283,-7.49968,34.072,33.2722,-25.632,-21.156,7.12502,0.901159,8.82181,-10.2595,6.65307,-1.58461,24.8294,19.2039,-16.1523,-18.7282,-18.855,1.70321,-28.1065,17.4373,-14.1488,6.80154,11.9663
4.62204,17.5839,1.28566,16.4814,1.91472,-2.30668,-5.86779,0.325863,13.2292,-10.3455,0.366315,0.883385,-7.83641,-0.794456,-6.43621,-5.25431,12.4564,6.83768,22.5166,15.1041,6.29434,7.89248,8.34159,2.24441,9.93923e-17,-3.4191e-14,5.66941,-24.8315,14.6191,116.09,-65.1797,-2.79519,-43.6288,7.12502,22.9105,-72.2877,9.93923e-17,-3.4191e-14,35.7595,33.0661,-7.49889,34.1255,33.1529,-25.3745,-21.3062,7.12502,1.14983,8.67045,-10.4429,6.64726,-1.6331,25.0343,19.0647,-16.5418,-18.055,-19.0184,1.69094,-28.1791,17.6314,-14.0794,6.8452,12.0122
4.61281,17.5828,1.27142,16.4084,1.85219,-2.3691,-5.9004,0.333909,13.2429,-10.1721,0.356485,0.880735,-7.62204,-0.77912,-6.44855,-5.68374,12.3186,6.77455,22.9553,14.8946,6.20179,8.11775,8.23529,2.26271,-6.85807e-15,7.95139e-16,5.66926,-25.0449,14.3445,116.015,-65.3901,-2.88982,-43.8465,7.12502,22.8197,-72.5166,-6.85807e-15,7.95139e-16,35.8339,33.3561,-7.4275,34.2858,33.4821,-25.5341,-21.1532,7.12502,0.995721,8.82419,-10.4441,6.67836,-1.48751,25.1253,18.4447,-17.3112,-15.9966,-19.2,1.69774,-28.081,17.8961,-14.0447,6.96314,11.7586
4.61362,17.5874,1.26729,16.3476,1.91092,-2.43381,-5.9713,0.33226,13.383,-10.1235,0.336298,0.862631,-7.53699,-0.792857,-6.54645,-5.97573,12.1711,6.57662,23.6339,14.6346,6.41813,8.36507,8.12853,2.39337,-2.98177e-16,1.82882e-14,5.67152,-24.8805,14.1438,115.974,-65.4159,-3.13344,-43.6924,7.12502,22.5859,-72.3911,-2.98177e-16,1.82882e-14,35.6806,33.1042,-7.68417,34.6121,34.337,-24.8021,-21.0732,7.12502,1.70271,8.8998,-10.3363,6.51951,-1.3447,25.1374,17.8314,-17.9547,-14.0963,-19.3044,1.56357,-27.952,18.1445,-14.2035,6.90615,13.1148
4.61996,17.5902,1.25969,16.2909,2.05014,-2.51863,-5.949,0.308073,13.6275,-10.1695,0.308374,0.846666,-7.62074,-0.833264,-6.69908,-5.80233,12.0072,6.42405,23.999,14.4102,6.54234,8.43548,8.02866,2.43969,1.03368e-14,-1.51076e-14,5.74533,-24.575,13.9061,115.953,-65.199,-3.08102,-43.5387,7.12502,22.6362,-72.2313,1.03368e-14,-1.51076e-14,35.7088,32.7929,-7.65283,34.7972,34.5454,-24.1879,-21.1992,7.12502,2.29585,8.76816,-10.1935,6.20793,-1.1982,25.1083,16.7515,-19.0112,-10.7947,-19.3505,1.42539,-27.8225,18.3642,-14.3782,6.76417,14.6702
4.61773,17.5821,1.24543,16.3118,2.08461,-2.61749,-5.93973,0.285352,13.7599,-10.2247,0.284919,0.886047,-7.70091,-0.86085,-6.72873,-5.53968,11.8309,6.35096,24.2059,14.2125,6.4559,8.45973,7.92426,2.39599,1.38155e-14,-1.19271e-14,5.84168,-24.4356,13.6931,116.062,-65.422,-2.72331,-43.685,7.12502,22.9795,-72.3353,1.38155e-14,-1.19271e-14,36.0301,32.8046,-7.08041,34.7982,34.0599,-23.9677,-21.2743,7.12502,2.50851,8.69066,-10.2014,6.05017,-1.06453,25.0586,15.8201,-19.7932,-7.96392,-19.5365,1.55365,-27.7661,18.593,-14.3302,6.82976,13.2918
4.61249,17.5762,1.23257,16.3226,2.07096,-2.64968,-5.95099,0.248016,13.7755,-10.2244,0.234398,0.919617,-7.7061,-0.885942,-6.70028,-5.54474,11.7014,6.19846,24.5687,14.0347,6.50727,8.56796,7.83815,2.4374,-4.87022e-15,-6.36111e-15,5.99642,-24.3204,13.3886,116.108,-65.6437,-2.57251,-43.6438,7.12502,23.1242,-72.276,-4.87022e-15,-6.36111e-15,36.0146,32.7345,-6.97636,34.971,34.0805,-24.7198,-21.1381,7.12502,1.78217,8.8342,-10.2806,6.00415,-0.997213,25.0799,15.9976,-19.6738,-8.45538,-19.6661,1.6039,-27.7569,18.7558,-14.3004,7.01057,11.8096
4.6071,17.5837,1.22134,16.2503,1.92694,-2.61204,-5.85068,0.242312,13.6336,-10.1779,0.240376,0.920961,-7.70201,-0.869856,-6.62058,-5.58875,11.6094,6.09755,24.8962,13.8925,6.58663,8.67432,7.77512,2.48517,-9.74045e-15,2.78299e-14,6.06333,-24.1785,13.1245,116.069,-65.5594,-2.58749,-43.4564,7.12502,23.1098,-72.0904,-9.74045e-15,2.78299e-14,36.0013,32.6699,-7.00045,35.1532,34.1975,-26.3401,-20.854,7.12502,0.217275,9.12567,-10.4463,6.13736,-1.00728,25.2695,16.7207,-19.3363,-10.2929,-19.6713,1.50667,-27.7523,18.785,-14.3239,7.11857,12.8944
4.59768,17.5903,1.21007,16.1567,1.67537,-2.6056,-5.83198,0.288566,13.4336,-10.0399,0.295059,0.930517,-7.53283,-0.810088,-6.50123,-5.58586,11.4517,6.14843,25.0514,13.7104,6.37025,8.74923,7.67343,2.4007,-2.9122e-14,3.89618e-14,5.88994,-24.2282,13.1149,116.159,-65.7062,-2.74177,-43.4703,7.12502,22.9618,-72.1228,-2.9122e-14,3.89618e-14,36.268,32.8728,-6.67144,35.1703,33.8759,-26.9965,-21.062,7.12502,-0.41674,8.91735,-10.673,6.38849,-0.994998,25.5275,17.1512,-19.1814,-11.7717,-19.6861,1.49706,-27.7233,18.7754,-14.2469,7.25348,13.799
4.58661,17.5821,1.19656,16.0896,1.56491,-2.5109,-5.84981,0.288758,13.2183,-9.93633,0.285062,0.920112,-7.39654,-0.786403,-6.39415,-5.78513,11.2743,6.1387,25.4404,13.4916,6.15546,8.93657,7.55274,2.34853,-2.16675e-14,3.18055e-14,5.69563,-24.1554,13.1404,116.268,-65.739,-3.40863,-43.2915,7.12502,22.3217,-72.0222,-2.16675e-14,3.18055e-14,36.4445,32.9741,-6.41061,35.2199,33.5168,-27.1942,-21.9094,7.12502,-0.607668,8.06945,-10.8211,6.35807,-1.04868,25.7922,17.3948,-18.7731,-13.9203,-19.6436,1.58863,-27.8345,18.77,-14.1653,7.33604,12.7792
4.58043,17.5723,1.1839,16.0355,1.61,-2.28013,-5.77095,0.22836,12.9869,-9.92866,0.216491,0.871699,-7.4375,-0.808043,-6.31777,-6.14605,11.1481,5.9772,26.0735,13.304,6.15665,9.21109,7.45851,2.4146,3.97569e-16,9.54166e-15,5.72107,-23.9148,12.913,116.24,-65.4645,-3.91446,-43.0514,7.12502,21.8361,-71.8394,3.97569e-16,9.54166e-15,36.4934,32.9083,-6.29681,35.3719,33.5219,-27.3248,-22.3939,7.12502,-0.733773,7.58461,-10.8997,6.07154,-1.22227,26.1078,17.97,-17.9309,-16.5838,-19.5491,1.68347,-28.1062,18.7586,-14.1659,7.25233,11.6554
4.57895,17.5704,1.17806,15.9428,1.58746,-2.19823,-5.75943,0.220983,12.9382,-9.87179,0.202789,0.843544,-7.38041,-0.80657,-6.32183,-6.25605,11.018,5.80861,26.4566,13.1362,6.15186,9.35294,7.36865,2.44935,-7.85199e-15,2.14687e-14,5.96398,-23.9149,12.4204,116.103,-65.2751,-3.71175,-43.238,7.12502,22.0307,-72.0032,-7.85199e-15,2.14687e-14,36.5469,32.9275,-6.16381,35.564,33.7133,-26.0718,-22.1744,7.12502,0.476432,7.8048,-11.0023,5.91342,-1.27815,26.4237,18.0462,-17.7932,-16.3678,-19.4848,1.7323,-28.2037,18.7988,-14.1864,7.24757,11.4325
4.57328,17.5696,1.17049,15.8639,1.50026,-2.36,-5.76202,0.261752,13.0533,-9.84209,0.25501,0.884523,-7.33903,-0.783131,-6.34197,-5.84681,10.8602,5.73529,26.4736,12.9922,6.00466,9.28792,7.27989,2.36892,4.37326e-15,-3.81667e-14,6.26207,-23.9496,11.9176,115.944,-64.9495,-3.3059,-43.356,7.12502,22.4204,-72.0748,4.37326e-15,-3.81667e-14,36.5828,32.8809,-6.06357,35.7645,33.8439,-24.6013,-21.8992,7.12502,1.89659,8.0721,-11.153,6.01223,-1.07558,26.6664,16.9521,-18.8843,-13.4535,-19.5214,1.83345,-28.0247,18.9219,-14.194,7.30703,11.4081
4.56747,17.5681,1.15598,15.8353,1.56273,-2.50864,-5.67392,0.237177,13.1947,-9.87329,0.240331,0.938991,-7.43465,-0.805404,-6.36079,-5.43202,10.7434,5.7575,26.4902,12.9157,5.75949,9.23706,7.22131,2.25001,-2.69353e-14,3.10104e-14,6.45168,-23.869,11.6176,115.867,-64.6963,-2.87201,-43.2773,7.12502,22.8368,-71.9453,-2.69353e-14,3.10104e-14,36.4088,32.6947,-6.25831,36.0177,34.2718,-24.6362,-21.7641,7.12502,1.8629,8.20752,-11.219,5.98813,-0.82878,26.8414,15.7146,-19.9055,-10.9682,-19.6379,1.91081,-27.8458,19.1118,-14.2558,7.20733,11.5047
4.56745,17.5663,1.14224,15.8171,1.64613,-2.4284,-5.54606,0.168103,13.1903,-9.86697,0.167299,0.922463,-7.517,-0.846997,-6.37544,-5.62571,10.6662,5.73399,26.9301,12.8123,5.67964,9.43323,7.16636,2.25445,-8.15017e-15,-1.74931e-14,6.50577,-23.8332,11.4488,115.895,-64.882,-2.44909,-43.3545,7.12502,23.2426,-71.9718,-8.15017e-15,-1.74931e-14,36.2574,32.6859,-6.41658,36.2411,34.6875,-25.4074,-21.3731,7.12502,1.11807,8.60374,-11.2224,5.69761,-0.865608,26.932,15.962,-19.7319,-11.2682,-19.7604,1.86612,-27.9214,19.3366,-14.3323,7.11708,11.7109
4.56917,17.5616,1.13485,15.7761,1.65209,-2.2724,-5.59052,0.12211,13.1036,-9.71353,0.0841797,0.878054,-7.33124,-0.865669,-6.37678,-6.26279,10.571,5.61664,27.5536,12.6342,5.71699,9.76369,7.07959,2.34385,8.05078e-15,0,6.5135,-23.8363,11.2553,115.925,-64.944,-2.50669,-43.4391,7.12502,23.1873,-72.0634,8.05078e-15,0,36.3189,32.9898,-6.28939,36.3152,34.5942,-26.1658,-21.1809,7.12502,0.38558,8.7985,-11.1558,5.42382,-1.03615,26.9,16.3468,-19.474,-11.6524,-19.8206,1.81373,-28.0983,19.5486,-14.4141,7.10929,11.8769
4.57607,17.5545,1.13766,15.4598,1.5371,-2.34165,-5.69315,0.141189,13.3277,-9.34833,0.0589492,0.861731,-6.8756,-0.849399,-6.52386,-6.62742,10.4398,5.59289,27.8121,12.4832,5.48035,9.94118,6.98052,2.29158,8.44835e-15,5.56597e-15,6.53729,-23.8867,10.9902,115.899,-64.6871,-3.01872,-43.3889,7.12502,22.696,-72.0742,8.44835e-15,5.56597e-15,36.3481,33.3183,-6.18646,36.3889,34.4808,-26.3354,-21.6126,7.12502,0.221823,8.36701,-10.8164,5.38855,-0.983843,26.8569,16.1127,-19.4936,-11.5059,-19.5352,1.88706,-28.0653,19.7124,-14.543,7.23741,11.8302
4.58452,17.5483,1.15016,14.7524,0.934662,-2.57094,-5.34532,0.295531,13.6848,-8.94366,0.281358,0.857322,-6.58612,-0.72525,-6.73214,-6.66966,10.2847,5.53884,27.9681,12.3361,5.21992,10.0198,6.8783,2.20733,-7.35503e-15,3.18055e-15,6.50937,-23.9466,10.8124,115.897,-64.6796,-3.57002,-43.3611,7.12502,22.1668,-72.1102,-7.35503e-15,3.18055e-15,36.2571,33.3823,-6.16891,36.6261,34.6309,-25.9739,-22.1478,7.12502,0.57091,7.83116,-10.3379,5.87527,-0.847615,26.8561,16.7543,-18.6072,-14.4054,-18.7838,2.17454,-27.9107,19.8325,-14.74,7.72081,11.7291
