JuanDHNZ/ProyectoFinalCD/preprocessing/sports_trials_csv/49_10.csv
root1,root2,root3,root4,root5,root6,lowerback1,lowerback2,lowerback3,upperback1,upperback2,upperback3,thorax1,thorax2,thorax3,lowerneck1,lowerneck2,lowerneck3,upperneck1,upperneck2,upperneck3,head1,head2,head3,rclavicle1,rclavicle2,rhumerus1,rhumerus2,rhumerus3,rradius1,rwrist1,rhand1,rhand2,rfingers1,rthumb1,rthumb2,lclavicle1,lclavicle2,lhumerus1,lhumerus2,lhumerus3,lradius1,lwrist1,lhand1,lhand2,lfingers1,lthumb1,lthumb2,rfemur1,rfemur2,rfemur3,rtibia1,rfoot1,rfoot2,rtoes1,lfemur1,lfemur2,lfemur3,ltibia1,lfoot1,lfoot2,ltoes1
-0.956905,17.4059,5.56358,-5.048,-78.0399,25.4592,-11.2428,-1.01871,5.74776,-13.7231,-2.50277,0.383048,-8.62856,-2.14204,-2.81896,-7.18913,17.9598,9.96713,12.1351,22.961,0.985621,5.82559,11.7007,0.67227,1.76918e-14,-4.77083e-15,-3.6514,-27.0769,28.1304,117.703,-60.6854,-3.87863,-47.1858,7.12502,21.8705,-75.9698,1.76918e-14,-4.77083e-15,30.4723,32.6251,-5.53306,29.2319,48.1815,-22.4515,-18.3082,7.12502,3.97273,11.6345,-12.1242,5.0016,-9.96635,20.6919,4.88141,-20.8977,-21.8164,-16.5182,3.43143,-35.7839,9.75175,-13.1443,-0.868383,18.2559
-0.96036,17.3946,5.57147,-5.70152,-77.9055,25.785,-11.0854,-0.917912,5.9563,-13.5524,-2.36097,0.167142,-8.53146,-2.08642,-3.16373,-7.24878,17.9119,10.0618,12.1227,22.8997,0.831057,5.8581,11.663,0.619856,1.15295e-14,-1.27222e-14,-3.87258,-27.0386,28.2277,117.768,-60.7831,-4.02552,-48.0791,7.12502,21.7295,-76.8795,1.15295e-14,-1.27222e-14,30.8497,32.6888,-5.2874,29.2026,48.0549,-22.3305,-17.7493,7.12502,4.08963,12.1911,-11.5692,5.7603,-10.1184,20.4582,5.06477,-21.1599,-22.972,-16.0297,3.3587,-35.9851,9.71173,-13.1687,-1.11113,18.8013
-0.956711,17.3913,5.57127,-6.17554,-77.824,26.2283,-11.0465,-1.08133,5.95045,-13.5506,-2.56823,0.329042,-8.56373,-2.18074,-2.99058,-6.93366,18.0615,9.7233,11.9774,23.196,0.735871,5.74499,11.792,0.61834,-4.57205e-15,2.38542e-14,-3.07054,-27.3147,27.6836,117.772,-61.0714,-3.14564,-48.1852,7.12502,22.5742,-76.8853,-4.57205e-15,2.38542e-14,29.7115,32.2098,-6.24655,29.3366,48.6356,-23.3108,-16.1444,7.12502,3.14294,13.8122,-11.4185,6.126,-10.2823,20.3304,2.42615,-21.8407,-17.0787,-16.0467,3.30773,-36.0604,9.88146,-13.2134,-1.33562,19.0238
-0.953605,17.3908,5.56925,-6.16013,-77.7644,26.1788,-10.992,-1.06059,5.95577,-13.5091,-2.53858,0.20223,-8.5514,-2.16988,-3.12831,-7.01829,18.092,10.1507,12.1175,23.1875,0.651463,5.86267,11.7967,0.570998,2.36554e-14,-1.59028e-14,-3.19245,-27.4198,27.556,117.975,-61.1901,-2.48924,-48.4906,7.12502,23.2041,-77.1128,2.36554e-14,-1.59028e-14,29.7183,32.1371,-6.4366,29.4361,49.0278,-25.4684,-9.00413,7.12502,1.05916,20.973,-11.2889,6.21911,-10.3058,20.1813,-0.701455,-22.1283,-8.5974,-16.1301,3.26446,-36.0341,10.0661,-13.2615,-1.2841,18.7405
-0.949427,17.3928,5.56383,-5.46184,-77.6921,25.449,-10.9185,-1.11725,6.01832,-13.4908,-2.61135,0.168537,-8.58638,-2.21279,-3.19849,-6.9518,18.1573,10.8932,12.1856,23.2539,0.228414,6.0141,11.8279,0.391318,-3.71727e-14,-3.18055e-15,-3.26626,-27.172,27.3344,117.604,-60.9765,-2.57332,-44.9422,7.12502,23.1234,-73.5745,-3.71727e-14,-3.18055e-15,29.9913,32.5457,-6.28115,29.5462,48.6092,-23.7177,-15.9447,7.12502,2.74999,14.0173,-11.2321,5.66574,-10.1453,20.0995,-1.23931,-21.7753,-5.62064,-16.2287,3.34794,-35.8762,10.2311,-13.2791,-1.44074,18.8413
-0.945738,17.394,5.55744,-4.92107,-77.5685,24.9009,-10.9042,-1.1333,6.03962,-13.478,-2.62931,0.184941,-8.58218,-2.22093,-3.19318,-6.81433,18.0994,11.0582,12.0286,23.2108,-0.053772,5.99302,11.7951,0.271356,9.74045e-15,7.95139e-15,-3.27968,-27.176,27.3041,117.571,-61.1149,-2.50164,-46.0479,7.12502,23.1922,-74.6716,9.74045e-15,7.95139e-15,30.107,32.6379,-6.19284,29.6002,48.5783,-24.2058,-19.2769,7.12502,2.27864,10.6906,-11.1705,5.29436,-10.0472,20.0695,-0.525052,-21.4569,-6.36152,-16.3146,3.57521,-35.8102,10.3426,-13.3448,-1.86583,19.1892
-0.94236,17.3951,5.55236,-4.83546,-77.4529,24.9127,-11.0017,-1.00089,6.01505,-13.4449,-2.45885,0.0915826,-8.47401,-2.13374,-3.28136,-7.09014,17.9359,10.6484,12.0552,22.9663,0.212188,5.95515,11.6761,0.383432,-2.24627e-14,7.95139e-16,-3.62517,-27.0887,27.5401,117.598,-61.1961,-2.3611,-46.2628,7.12502,23.327,-74.8695,-2.24627e-14,7.95139e-16,30.3042,32.4895,-6.02595,29.632,48.9697,-25.3988,-21.0364,7.12502,1.12645,8.94042,-11.1671,5.79941,-10.0886,20.0518,-2.44169,-21.739,-1.69865,-16.543,4.15012,-36.0097,10.4431,-13.3689,-2.4301,19.8719
-0.937691,17.3962,5.54875,-4.56618,-77.3708,24.7325,-11.0566,-0.916777,6.00951,-13.4527,-2.35073,0.0656709,-8.44115,-2.08007,-3.30529,-7.29122,17.8494,10.3915,12.2427,22.8245,0.453411,5.98346,11.613,0.488873,1.39149e-15,-1.66979e-14,-3.79012,-27.0901,27.6363,117.673,-61.1099,-2.00734,-46.0616,7.12502,23.6664,-74.6247,1.39149e-15,-1.66979e-14,30.4435,32.4312,-5.76285,29.6173,48.952,-25.8511,-20.5314,7.12502,0.689515,9.44726,-11.1952,6.22551,-10.0598,20.0429,-4.40174,-21.8875,2.75151,-16.7919,4.93404,-36.2588,10.4942,-13.3806,-2.86395,19.6805
-0.934021,17.4006,5.54757,-4.10667,-77.2684,24.3053,-11.0471,-0.863425,6.03706,-13.4103,-2.2796,-0.0249795,-8.39658,-2.04736,-3.41744,-7.60751,17.8328,10.5173,12.441,22.7176,0.656967,6.08358,11.5763,0.562688,1.76918e-14,1.98785e-14,-4.0951,-27.1081,27.6735,117.717,-61.1085,-2.06177,-46.794,7.12502,23.6141,-75.3639,1.76918e-14,1.98785e-14,30.9642,32.8039,-5.24444,29.4216,48.8468,-24.268,-20.6979,7.12502,2.2185,9.27035,-11.1923,6.21218,-9.98746,20.074,-4.96065,-21.726,4.41546,-16.82,4.75975,-36.1688,10.4803,-13.431,-2.70353,18.3957
-0.931057,17.4068,5.54314,-3.86563,-77.1431,24.1273,-11.0879,-0.89206,5.99484,-13.4167,-2.31931,-0.0402237,-8.38383,-2.06443,-3.41273,-7.59832,17.8657,10.6242,12.4903,22.7253,0.802825,6.09327,11.5944,0.595204,2.78299e-15,1.98785e-14,-4.0422,-27.1125,27.5325,117.729,-61.0612,-2.55506,-48.2152,7.12502,23.1409,-76.8453,2.78299e-15,1.98785e-14,31.2643,33.3885,-4.77567,29.1613,49.3619,-20.1543,-23.6763,7.12502,6.19083,6.21323,-11.2332,5.96774,-9.96888,20.1352,-4.56146,-21.5542,3.84821,-16.8012,4.06163,-35.9122,10.4981,-13.3744,-2.58576,18.5418
-0.9263,17.4099,5.53368,-3.68004,-77.013,24.0002,-11.0927,-0.891121,5.88391,-13.4246,-2.31123,-0.0416535,-8.3818,-2.05008,-3.35236,-7.61298,17.8134,11.0472,12.5714,22.665,0.364535,6.2197,11.551,0.433707,2.38542e-15,6.36111e-15,-4.015,-27.0909,27.4915,117.652,-60.8679,-3.16805,-47.4406,7.12502,22.5527,-76.1434,2.38542e-15,6.36111e-15,31.6031,33.4026,-4.45189,29.3332,47.9344,-21.2107,-18.4356,7.12502,5.17089,11.4813,-11.312,5.56472,-9.91758,20.2237,-3.44337,-21.4954,1.21819,-16.8409,3.73197,-35.7743,10.5098,-13.2721,-2.6459,19.2803
-0.920636,17.4085,5.52597,-3.43965,-76.8882,23.7943,-11.0732,-0.920782,5.79086,-13.4487,-2.34202,0.00645173,-8.41481,-2.05575,-3.24829,-7.54891,17.7753,11.6811,12.6478,22.6573,-0.384344,6.39529,11.5202,0.163248,2.68359e-14,-7.95139e-15,-3.84753,-26.9601,27.3432,117.543,-60.9509,-4.41312,-44.7742,7.12502,21.3572,-73.6172,2.68359e-14,-7.95139e-15,31.7342,33.4919,-4.19145,29.3748,47.3133,-21.503,-17.0053,7.12502,4.88865,12.9183,-11.3939,5.17434,-9.85201,20.3536,-1.64917,-21.3748,-3.3515,-16.8747,3.76978,-35.7672,10.4595,-13.2038,-2.69277,18.8937
-0.916747,17.404,5.52233,-3.31111,-76.8023,23.6858,-11.0729,-0.94122,5.77643,-13.4548,-2.36777,0.0149618,-8.42344,-2.06714,-3.23162,-7.49788,17.7669,11.946,12.6337,22.6433,-0.556106,6.43247,11.5121,0.0824853,5.96354e-16,1.11319e-14,-3.75707,-26.8258,27.2621,117.554,-61.1722,-5.72387,-44.3162,7.12502,20.0978,-73.2967,5.96354e-16,1.11319e-14,31.8355,33.5886,-3.98222,29.43,46.7701,-21.5326,-16.6624,7.12502,4.86005,13.2619,-11.4691,4.90187,-9.81707,20.486,1.07409,-21.1061,-10.7027,-16.8998,4.01565,-35.8235,10.4095,-13.1667,-2.93055,18.5289
-0.912696,17.4022,5.5196,-3.03669,-76.7201,23.4068,-11.0478,-0.892063,5.85804,-13.447,-2.30324,-0.00618173,-8.42823,-2.04224,-3.29735,-7.47655,17.704,11.6919,12.4968,22.5439,-0.267864,6.31628,11.4742,0.164938,-6.36111e-15,1.11319e-14,-3.80888,-26.8048,27.3656,117.645,-61.2032,-6.72198,-45.769,7.12502,19.1382,-74.8474,-6.36111e-15,1.11319e-14,32.0065,33.5577,-3.79105,29.4656,46.4877,-22.0306,-16.1299,7.12502,4.37921,13.8048,-11.505,4.8447,-9.74541,20.5909,1.62454,-21.0976,-12.3238,-16.8995,3.9869,-35.7686,10.3704,-13.1384,-2.97459,18.3949
-0.90819,17.4034,5.51342,-2.78869,-76.5934,23.1396,-10.9779,-0.745318,5.86738,-13.3683,-2.10097,-0.177005,-8.36376,-1.9426,-3.48106,-7.96228,17.5964,11.5051,12.6514,22.2926,0.155617,6.36099,11.3689,0.325174,1.15295e-14,-1.90833e-14,-4.38876,-26.7262,27.6804,117.636,-61.1711,-6.78861,-45.4068,7.12502,19.0741,-74.4915,1.15295e-14,-1.90833e-14,32.7955,33.7156,-3.24999,29.4292,46.2751,-22.7307,-14.8354,7.12502,3.70315,15.1121,-11.4669,5.04883,-9.71811,20.6696,-2.2176,-21.2992,-1.65033,-16.9488,4.31683,-35.835,10.3666,-13.0927,-3.24717,18.4219
-0.906943,17.4048,5.50487,-2.98933,-76.4613,23.3213,-10.9559,-0.754087,5.67831,-13.354,-2.09733,-0.169029,-8.34668,-1.92054,-3.36707,-8.11125,17.6505,10.942,12.8805,22.3209,0.840696,6.31711,11.4098,0.601442,9.93923e-16,-1.19271e-14,-4.44609,-26.7012,27.7184,117.607,-61.1879,-6.01786,-44.1592,7.12502,19.8152,-73.1692,9.93923e-16,-1.19271e-14,32.523,33.3626,-3.5727,29.3776,47.1657,-22.5629,-16.5562,7.12502,3.86519,13.3885,-11.3976,5.07357,-9.78714,20.7128,-4.97912,-20.9477,6.55353,-17.0532,5.00322,-36.1185,10.4163,-13.1167,-3.6762,18.5921
-0.905347,17.4081,5.49895,-3.30959,-76.3113,23.6372,-10.9303,-0.718797,5.55037,-13.3106,-2.04114,-0.273715,-8.30233,-1.88169,-3.40731,-8.27153,17.6648,10.6899,13.0196,22.2923,1.2447,6.31127,11.4143,0.758222,5.96354e-15,-1.43125e-14,-4.80309,-26.6112,27.8112,117.732,-61.2777,-5.82402,-44.3113,7.12502,20.0015,-73.3019,5.96354e-15,-1.43125e-14,32.6632,33.2861,-3.54696,29.348,47.6574,-22.3779,-16.8555,7.12502,4.04386,13.0859,-11.3862,4.44656,-9.82907,20.7726,-1.77748,-21.0367,-2.34545,-17.0076,4.83676,-36.179,10.3808,-13.148,-3.61177,18.4151
-0.900478,17.4086,5.49382,-3.52495,-76.2004,23.86,-10.897,-0.676994,5.51715,-13.2908,-1.9843,-0.398945,-8.29636,-1.85519,-3.52113,-8.13522,17.5998,11.0838,12.944,22.2149,0.913518,6.34484,11.3693,0.601536,6.14245e-14,7.15625e-15,-5.04096,-26.4615,27.7243,117.682,-61.2521,-5.72765,-43.6191,7.12502,20.0941,-72.5999,6.14245e-14,7.15625e-15,32.7257,33.1178,-3.66059,29.4341,47.9889,-22.1442,-17.3984,7.12502,4.26948,12.5386,-11.3653,4.90578,-9.86539,20.8491,-0.789073,-21.3665,-6.42719,-16.8616,4.23947,-36.0409,10.2828,-13.0526,-3.42908,18.2743
-0.895227,17.4061,5.48773,-3.57678,-76.1344,23.9187,-10.8612,-0.877238,5.52065,-13.3148,-2.23981,-0.152928,-8.3593,-1.97249,-3.26409,-7.76223,17.7515,11.0274,12.8307,22.5333,0.570485,6.29557,11.5009,0.507031,-1.11319e-14,-1.43125e-14,-4.09904,-26.6592,27.0638,117.36,-61.0294,-5.58753,-41.7054,7.12502,20.2288,-70.672,-1.11319e-14,-1.43125e-14,31.4638,32.7775,-4.6504,29.6097,48.7602,-21.7932,-17.5616,7.12502,4.60842,12.3683,-11.3735,4.76538,-9.90634,20.9044,-1.81865,-21.0756,-2.82092,-16.7699,3.84272,-35.9353,10.1925,-12.9513,-3.24988,18.58
-0.891434,17.4056,5.48219,-3.13651,-76.0042,23.4457,-10.8267,-1.10397,5.61756,-13.385,-2.53202,0.215059,-8.47578,-2.11336,-2.92697,-7.30626,17.8834,10.6714,12.7653,22.8442,0.418585,6.19224,11.6339,0.488034,-5.36719e-15,0,-2.92991,-26.8018,26.4913,117.104,-60.6908,-5.55503,-39.9491,7.12502,20.2601,-68.9125,-5.36719e-15,0,29.9996,32.2062,-5.71178,29.7756,49.5992,-21.8228,-16.6195,7.12502,4.57992,13.311,-11.2646,5.32181,-9.79174,20.9341,-3.80799,-21.231,1.99256,-16.6502,3.19369,-35.7034,10.0701,-12.8863,-2.68326,18.4846
-0.889828,17.4088,5.47678,-2.61649,-75.8512,22.8925,-10.7956,-1.0975,5.74343,-13.35,-2.51949,0.275688,-8.45689,-2.11107,-2.93199,-7.47288,17.7634,10.5322,12.8295,22.6855,0.388071,6.22063,11.548,0.495089,-2.64384e-14,-2.38542e-14,-2.68812,-26.8522,26.4829,117.158,-60.5551,-5.34486,-40.1676,7.12502,20.462,-69.1094,-2.64384e-14,-2.38542e-14,29.6691,31.8472,-6.04233,29.8581,50.044,-22.663,-14.844,7.12502,3.76858,15.1024,-11.1578,5.61262,-9.64626,20.97,-4.22136,-21.2676,3.10091,-16.5359,3.11355,-35.5992,9.92722,-12.8218,-2.7122,18.1697
-0.887432,17.4126,5.47035,-2.40155,-75.7092,22.7069,-10.8402,-0.854857,5.72437,-13.2558,-2.20177,-0.0214,-8.30519,-1.95625,-3.23744,-7.90489,17.4954,11.0095,12.9558,22.2312,0.200666,6.38725,11.3277,0.392286,-1.98785e-14,-2.62396e-14,-3.49593,-26.7455,26.9745,117.329,-60.6523,-4.71386,-41.2671,7.12502,21.0683,-70.1426,-1.98785e-14,-2.62396e-14,30.7179,31.925,-5.34489,29.7837,50.0297,-23.5323,-14.238,7.12502,2.92907,15.7216,-11.1186,5.6405,-9.5964,20.9836,-2.85818,-21.3325,-0.831163,-16.5709,3.04599,-35.5472,9.93035,-12.761,-2.8044,18.428
-0.885023,17.4142,5.46452,-2.24972,-75.5839,22.5793,-10.887,-1.01986,5.79228,-13.2594,-2.42107,0.166651,-8.30094,-2.06222,-3.08119,-7.47687,17.6874,10.9245,12.7881,22.6191,-0.183394,6.31754,11.4902,0.289872,-2.04748e-14,1.27222e-14,-2.87689,-27.1813,26.5242,117.421,-60.7074,-3.53466,-42.2262,7.12502,22.2008,-70.9713,-2.04748e-14,1.27222e-14,29.9206,31.8298,-5.78895,29.8627,50.041,-23.5801,-15.635,7.12502,2.88293,14.3253,-11.0869,5.58196,-9.54959,20.9759,0.0361395,-21.4109,-9.67698,-16.6701,2.98156,-35.5594,10.0021,-12.7468,-2.6207,17.9756
-0.884728,17.4147,5.45751,-1.8398,-75.4822,22.1282,-10.8885,-1.16603,5.88779,-13.2242,-2.61441,0.271738,-8.28095,-2.159,-3.02824,-7.25087,17.9565,11.3761,12.784,23.0389,-0.697722,6.41424,11.677,0.132667,4.17448e-15,-2.22639e-14,-2.50213,-27.3946,26.0854,117.446,-60.5701,-2.88029,-43.1605,7.12502,22.8288,-71.8294,4.17448e-15,-2.22639e-14,29.4325,31.9799,-6.08922,29.9723,49.6907,-23.5852,-17.6136,7.12502,2.87798,12.3468,-10.9959,5.54553,-9.44165,20.9672,0.29046,-21.2978,-10.3719,-16.7517,3.5148,-35.6635,10.0266,-12.841,-2.71895,16.5049
-0.881954,17.4166,5.44895,-1.40295,-75.3197,21.6624,-10.8454,-1.31865,5.95117,-13.2464,-2.81253,0.409122,-8.34785,-2.25852,-2.91833,-6.85492,17.9259,11.4061,12.6168,23.04,-0.721466,6.30318,11.6837,0.0756176,5.96354e-15,1.59028e-15,-1.82509,-27.4827,25.4891,117.576,-60.399,-3.35082,-44.5324,7.12502,22.3772,-73.2564,5.96354e-15,1.59028e-15,29.0632,32.0714,-6.23137,30.0199,49.2699,-23.8874,-19.3536,7.12502,2.58612,10.6105,-10.8576,5.72752,-9.35464,20.9438,-3.20701,-21.153,-0.272246,-16.7678,3.6279,-35.5759,10.0454,-12.8413,-2.98726,16.3193
-0.877297,17.4201,5.4414,-1.13515,-75.1317,21.4455,-10.8515,-1.19053,5.85233,-13.1853,-2.63946,0.194109,-8.26211,-2.16782,-3.09255,-7.34032,17.8087,11.7771,12.9152,22.7473,-0.554683,6.48537,11.5608,0.113948,2.38542e-14,7.95139e-15,-2.42875,-27.3647,25.6877,117.791,-60.4674,-3.6442,-44.8992,7.12502,22.0956,-73.6567,2.38542e-14,7.95139e-15,30.173,32.5054,-5.32068,29.6958,48.9392,-22.9221,-20.3127,7.12502,3.51831,9.63802,-10.7582,5.82534,-9.34059,20.8769,-6.14753,-20.6312,8.87255,-16.7721,2.93526,-35.2884,10.1103,-12.6162,-3.06741,18.1863
-0.875992,17.4239,5.43524,-0.722258,-75.0017,21.0916,-10.9215,-1.25067,5.90768,-13.2203,-2.72846,0.237602,-8.2742,-2.21802,-3.08043,-7.18994,17.9513,11.8112,13.0172,22.9576,-0.537896,6.50761,11.6677,0.132892,1.41137e-14,1.82882e-14,-2.19874,-27.4456,25.4441,117.819,-60.4542,-3.47083,-45.4051,7.12502,22.262,-74.1429,1.41137e-14,1.82882e-14,29.9443,32.234,-5.66556,29.4965,49.1918,-21.4717,-20.6327,7.12502,4.91886,9.29019,-10.713,5.5704,-9.28513,20.7909,-6.32308,-20.2952,10.5211,-16.8167,2.49864,-35.0601,10.1615,-12.4762,-3.04148,19.669
-0.87658,17.4264,5.43056,-0.310827,-74.8874,20.7055,-11.0011,-1.22048,5.95171,-13.2141,-2.69751,0.194758,-8.22534,-2.20755,-3.15373,-7.27945,18.0969,11.8185,13.2012,23.1249,-0.389752,6.57366,11.7582,0.213347,2.98177e-15,-7.95139e-16,-2.25531,-27.4927,25.4125,117.879,-60.2635,-2.33604,-46.5754,7.12502,23.3511,-75.179,2.98177e-15,-7.95139e-16,30.2031,32.1542,-5.62754,29.4691,48.9813,-21.9489,-19.4332,7.12502,4.45807,10.4998,-10.6508,5.43538,-9.2175,20.7285,-6.64224,-19.9322,12.1528,-16.8617,2.3651,-34.9402,10.1943,-12.4902,-2.96983,19.41
-0.877265,17.4296,5.42657,-0.0271326,-74.7612,20.4475,-11.0421,-1.15406,6.07148,-13.207,-2.62259,0.0759988,-8.20249,-2.1864,-3.34737,-7.3551,18.1821,11.88,13.3355,23.2098,-0.288251,6.62894,11.8079,0.261484,-5.96354e-16,6.36111e-15,-2.40788,-27.4369,25.4284,117.872,-60.2332,-1.11658,-46.1591,7.12502,24.5205,-74.6092,-5.96354e-16,6.36111e-15,30.5141,32.0649,-5.56453,29.5231,48.8273,-23.1031,-20.6704,7.12502,3.34354,9.28313,-10.5794,5.42034,-9.155,20.676,-6.47862,-19.8998,12.6386,-16.9253,2.19796,-34.8629,10.2779,-12.5139,-2.82318,18.1515
-0.877162,17.4319,5.42017,0.329397,-74.6288,20.1373,-11.0813,-1.02549,6.2611,-13.2565,-2.47423,-0.0899035,-8.24447,-2.14292,-3.62604,-7.098,18.0705,12.4372,13.2792,23.0982,-0.78683,6.68942,11.7446,0.0284063,-3.65764e-14,0,-2.70593,-27.1781,25.5463,117.779,-60.3348,-0.914619,-46.1351,7.12502,24.714,-74.5588,-3.65764e-14,0,30.9069,31.8937,-5.391,29.541,49.0167,-22.7592,-25.8084,7.12502,3.6756,4.13966,-10.5301,5.34819,-9.04686,20.5976,-5.05252,-20.1696,9.34506,-17.0478,2.12003,-34.7992,10.4072,-12.5409,-2.73394,17.1988
-0.876488,17.4337,5.40927,0.55487,-74.5125,19.9786,-11.1433,-0.95147,6.34481,-13.2878,-2.38821,-0.139038,-8.24453,-2.11235,-3.72423,-6.78871,17.945,12.5256,12.9829,23.0015,-1.10373,6.586,11.6835,-0.127333,5.94366e-14,4.77083e-15,-2.73821,-27.096,25.5653,117.737,-60.3249,-1.15358,-47.8524,7.12502,24.485,-76.3073,5.94366e-14,4.77083e-15,31.0611,31.8064,-5.22623,29.5625,49.1903,-22.7281,-25.9318,7.12502,3.7057,4.01573,-10.4804,5.46083,-9.00362,20.4857,-6.09466,-19.9583,12.2679,-17.2292,2.03294,-34.746,10.5794,-12.5986,-2.71459,17.1788
-0.878419,17.4357,5.40046,0.560766,-74.4182,19.991,-11.2319,-0.959862,6.31575,-13.268,-2.39856,-0.0499584,-8.16605,-2.10647,-3.61719,-6.72001,17.8464,11.9303,12.8547,22.9361,-1.02265,6.45057,11.636,-0.06955,3.12092e-14,-2.46493e-14,-2.42518,-27.1438,25.5126,117.721,-60.1874,-1.25188,-48.9262,7.12502,24.3908,-77.3938,3.12092e-14,-2.46493e-14,30.2514,30.8919,-5.98492,29.6047,50.1034,-23.53,-25.0026,7.12502,2.93128,4.95704,-10.3647,5.58438,-9.02546,20.3655,-8.32936,-19.2839,18.4757,-17.3525,1.94135,-34.7223,10.7831,-12.6534,-2.7249,17.5669
-0.882077,17.4354,5.39844,0.615193,-74.2904,19.8995,-11.3132,-1.00264,6.36655,-13.234,-2.45823,0.0377605,-8.08727,-2.1317,-3.55792,-6.93826,17.6207,11.2932,13.0906,22.708,-1.1277,6.48905,11.4915,-0.0297907,-1.72943e-14,-1.82882e-14,-2.07634,-27.2064,25.339,117.872,-59.9921,-1.25107,-48.7986,7.12502,24.3915,-77.2662,-1.72943e-14,-1.82882e-14,30.4612,30.2374,-6.02798,30.8006,45.3677,-29.7235,-2.01566,7.12502,-3.05044,27.9423,-10.1869,5.48504,-9.0047,20.2803,-8.75456,-18.8937,20.2132,-17.4154,2.37077,-34.8529,10.9476,-12.7743,-3.05833,17.233
-0.881377,17.4365,5.3943,0.816366,-74.0904,19.7042,-11.3638,-1.09668,6.41531,-13.2609,-2.58633,0.153241,-8.10195,-2.19591,-3.46616,-6.55416,17.6919,11.2175,13.0206,22.8841,-1.27704,6.42344,11.5703,-0.0825476,-2.5842e-15,1.74931e-14,-1.69135,-27.2537,25.0772,118.112,-59.9147,-1.70466,-48.7485,7.12502,23.9566,-77.2738,-2.5842e-15,1.74931e-14,29.733,30.5131,-6.26946,30.0568,49.0021,-25.3485,-22.4041,7.12502,1.17497,7.57246,-10.0676,5.34663,-8.94267,20.2474,-8.85809,-18.5764,21.4559,-17.5183,2.86437,-34.9767,11.0437,-12.8403,-3.61094,17.1043
-0.876669,17.4388,5.3855,0.920324,-73.8905,19.6282,-11.3727,-1.14996,6.40993,-13.3031,-2.6571,0.195701,-8.15093,-2.23213,-3.41838,-6.37481,17.7277,10.5724,12.9902,22.9286,-0.641903,6.23632,11.6142,0.141648,-3.79679e-14,6.36111e-15,-1.48921,-27.1384,24.945,118.099,-59.8941,-2.01438,-48.166,7.12502,23.6596,-76.73,-3.79679e-14,6.36111e-15,29.3351,30.2941,-6.43861,29.8367,50.5444,-22.8047,-30.9622,7.12502,3.63169,-1.01335,-10.0645,5.09652,-8.87369,20.291,-7.68481,-18.883,18.5973,-17.5251,2.7789,-34.907,11.0297,-12.6762,-3.99172,18.1562
-0.874281,17.439,5.37837,0.846773,-73.749,19.7129,-11.4098,-1.14291,6.44894,-13.2783,-2.65703,0.060336,-8.1136,-2.24076,-3.5878,-6.39734,17.7225,10.7743,13.0937,22.882,-0.558413,6.28454,11.605,0.147656,-2.32578e-14,1.35174e-14,-1.5426,-27.0028,24.7448,117.939,-59.9521,-1.60149,-46.4682,7.12502,24.0556,-74.9805,-2.32578e-14,1.35174e-14,29.6984,30.4862,-6.14233,29.8045,50.1053,-22.7449,-29.6944,7.12502,3.68944,0.253398,-10.1001,4.86754,-8.85212,20.4181,-6.16292,-19.3581,13.5337,-17.4155,2.57394,-34.8634,10.8903,-12.5243,-4.078,18.6442
-0.87468,17.4378,5.37206,0.387738,-73.6471,20.1955,-11.4694,-1.10407,6.35075,-13.1909,-2.60851,-0.16743,-7.98136,-2.21149,-3.78224,-6.56179,17.6588,11.4944,13.1613,22.7475,-0.936728,6.45429,11.539,-0.0234614,1.59028e-15,3.65764e-14,-1.79718,-26.9842,24.5604,117.831,-60.0576,-1.53014,-45.1571,7.12502,24.124,-73.6604,1.59028e-15,3.65764e-14,30.1884,30.6518,-5.96951,29.8126,49.4792,-22.9454,-26.1881,7.12502,3.49581,3.76302,-10.1171,4.84538,-8.99674,20.5578,-5.82795,-19.5168,11.6489,-17.3082,2.49906,-35.0098,10.723,-12.4708,-4.06987,18.2698
-0.876142,17.4401,5.36425,-0.111406,-73.557,20.6576,-11.4717,-1.18082,6.20057,-13.178,-2.69973,-0.143102,-7.96352,-2.24103,-3.67628,-6.22307,17.7013,11.4486,13.027,22.8627,-1.02256,6.3676,11.5926,-0.0687101,4.35338e-14,4.37326e-14,-1.4055,-27.0592,24.2612,117.842,-60.0179,-2.62836,-46.7789,7.12502,23.0706,-75.4179,4.35338e-14,4.37326e-14,29.8819,30.4813,-6.18213,29.8876,49.1811,-23.2193,-21.7015,7.12502,3.23132,8.25374,-10.0946,4.87722,-9.07271,20.6686,-1.79762,-20.1758,-1.82726,-17.1748,2.72063,-35.1991,10.5919,-12.4699,-4.27652,17.595
-0.875235,17.447,5.3566,0.37203,-73.4392,20.105,-11.4235,-0.949246,6.28769,-13.0235,-2.38871,-0.391465,-7.79685,-2.0894,-3.98509,-6.8184,17.5341,11.767,13.2314,22.525,-1.02786,6.54826,11.4315,-0.0746506,-1.01977e-13,-3.97569e-14,-2.29978,-26.9584,24.826,118.165,-60.0497,-4.18394,-51.768,7.12502,21.5773,-80.586,-1.01977e-13,-3.97569e-14,31.1551,31.1478,-5.09249,29.746,48.9122,-23.3616,-19.8794,7.12502,3.09392,10.0779,-10.0707,5.1543,-8.81699,20.7732,1.02102,-20.4088,-10.9593,-17.0905,3.01036,-35.1122,10.4973,-12.4984,-4.43465,16.1774
-0.86821,17.4539,5.34598,1.32396,-73.2724,19.1907,-11.4073,-0.90514,6.47652,-13.0828,-2.33661,-0.29378,-7.87481,-2.07927,-3.98108,-6.67214,17.4632,11.4159,13.1595,22.4583,-0.839623,6.43536,11.4014,-0.0133229,-8.34896e-15,4.77083e-15,-2.22996,-26.9128,24.9564,118.471,-60.187,-4.95914,-55.235,7.12502,20.8327,-84.1365,-8.34896e-15,4.77083e-15,31.2825,31.1848,-4.78811,29.6873,48.9492,-23.0915,-22.0962,7.12502,3.35476,7.85714,-10.1425,5.37549,-8.51654,20.8682,-0.363729,-20.6889,-7.19041,-17.2219,3.12796,-34.9286,10.4714,-12.4898,-4.351,14.4335
-0.860405,17.4609,5.33388,1.63305,-73.0926,18.9781,-11.3848,-0.831046,6.4284,-13.1188,-2.23517,-0.354868,-7.9158,-2.0299,-4.01439,-6.85232,17.3812,11.21,13.2684,22.3037,-0.540346,6.43317,11.3371,0.09501,6.57977e-14,2.54444e-14,-2.49532,-26.7802,25.17,118.474,-60.1879,-4.65602,-54.671,7.12502,21.1239,-83.5403,6.57977e-14,2.54444e-14,31.7116,31.2123,-4.39665,29.6227,48.801,-22.797,-24.3003,7.12502,3.63918,5.64839,-10.2202,5.03378,-8.4538,20.9062,0.610572,-20.3522,-9.69262,-17.4153,2.9386,-34.8695,10.5276,-12.411,-4.16931,14.5608
-0.857222,17.4636,5.32638,1.29523,-72.9693,19.3401,-11.382,-0.910605,6.3422,-13.1675,-2.33691,-0.313044,-7.97777,-2.07594,-3.92288,-6.52348,17.4008,11.1125,13.1686,22.4042,-0.684766,6.35888,11.377,0.0400839,1.59028e-15,-7.95139e-16,-2.00475,-26.746,24.7839,118.142,-60.0844,-3.43413,-51.1027,7.12502,22.2973,-79.8362,1.59028e-15,-7.95139e-16,31.3142,30.9389,-4.72117,29.6724,48.9644,-22.7493,-24.3108,7.12502,3.68523,5.63708,-10.186,4.64796,-8.57362,20.9167,1.61764,-19.8884,-12.1423,-17.4113,2.29486,-34.7922,10.6027,-12.2968,-3.89772,16.0834
-0.855499,17.4646,5.32171,1.13371,-72.8539,19.4346,-11.3379,-1.0192,6.43156,-13.1507,-2.47672,-0.201477,-8.00044,-2.14664,-3.85631,-6.32816,17.4419,11.0132,13.104,22.5493,-1.01604,6.34178,11.4235,-0.046621,4.37326e-15,-1.74931e-14,-1.28729,-26.8379,24.2495,118.037,-59.7968,-3.39077,-50.8427,7.12502,22.3389,-79.5712,4.37326e-15,-1.74931e-14,30.8546,30.9649,-4.84034,29.6768,48.8195,-22.2206,-24.5421,7.12502,4.19571,5.39629,-10.0484,4.79591,-8.60733,20.9251,0.274709,-20.1035,-8.16936,-17.332,1.86281,-34.6859,10.6882,-12.2144,-3.79552,16.921
-0.852388,17.469,5.31577,1.25233,-72.6868,19.2795,-11.2792,-0.868108,6.50465,-13.093,-2.27661,-0.405263,-7.95895,-2.0574,-4.1096,-6.62157,17.2904,11.3807,13.3378,22.3042,-1.2386,6.51975,11.2996,-0.134068,-7.95139e-16,-6.36111e-15,-1.84436,-26.5942,24.5171,118.128,-59.832,-4.68328,-51.2317,7.12502,21.0977,-80.1039,-7.95139e-16,-6.36111e-15,31.8229,31.324,-3.87742,29.5387,48.2793,-21.5727,-24.2409,7.12502,4.82135,5.68421,-9.93286,4.99675,-8.55973,20.9396,-2.468,-20.3421,-0.0989575,-17.355,1.98244,-34.6838,10.7613,-12.1199,-4.06993,17.0906
-0.848662,17.4738,5.30478,1.54337,-72.5311,19.0256,-11.2712,-0.733816,6.48693,-13.0414,-2.09939,-0.620062,-7.89201,-1.97242,-4.3265,-6.9256,17.1552,11.6897,13.5252,22.0447,-1.23314,6.64965,11.1824,-0.157313,-2.62396e-14,-3.18055e-14,-2.50004,-26.3818,24.6756,118.169,-59.7072,-5.47675,-52.153,7.12502,20.3353,-81.1083,-2.62396e-14,-3.18055e-14,32.5971,31.3693,-3.4609,29.5333,48.213,-21.5065,-22.5509,7.12502,4.8853,7.37274,-9.9542,4.96067,-8.44923,21.0112,-4.02223,-20.292,4.60463,-17.4386,2.13897,-34.6764,10.7673,-11.9959,-4.20655,16.5828
-0.843382,17.4763,5.29103,2.04718,-72.3794,18.5508,-11.262,-0.62325,6.51393,-12.951,-1.95378,-0.828482,-7.78708,-1.90297,-4.56365,-7.34895,17.0009,11.9575,13.5916,21.7213,-1.10703,6.73687,11.0392,-0.147333,-3.63776e-14,-2.8625e-14,-3.11996,-26.2876,24.621,118.125,-59.7192,-4.96687,-50.4168,7.12502,20.8252,-79.3191,-3.63776e-14,-2.8625e-14,32.982,31.1028,-3.72883,29.6876,48.7435,-21.9663,-21.2319,7.12502,4.44129,8.70155,-10.0366,4.89429,-8.24273,21.1602,-2.98886,-20.4051,0.972756,-17.516,2.22231,-34.62,10.7042,-11.8217,-3.96706,16.1626
-0.837258,17.4748,5.27792,2.15498,-72.2516,18.4402,-11.2295,-0.870147,6.51317,-13.0174,-2.27274,-0.547209,-7.90877,-2.05536,-4.26786,-6.86785,17.1877,11.2603,13.4037,22.0757,-0.804681,6.5044,11.2108,-0.00179507,1.37161e-14,1.82882e-14,-2.15573,-26.5016,23.8756,118.057,-59.9986,-3.25481,-44.9041,7.12502,22.4694,-73.6169,1.37161e-14,1.82882e-14,31.4462,30.3156,-5.11711,29.9353,49.8194,-22.3191,-25.5792,7.12502,4.10066,4.3611,-10.0977,4.7874,-8.16676,21.3382,-1.37638,-20.3973,-4.26351,-17.5919,2.83309,-34.8198,10.6184,-11.6043,-4.23981,17.3852
-0.834503,17.4741,5.26671,1.83996,-72.1991,18.7511,-11.2244,-1.31705,6.45406,-13.1426,-2.84965,0.0301124,-8.08775,-2.32126,-3.6272,-6.09923,17.6637,10.0432,13.3485,22.9225,-0.526256,6.23288,11.6032,0.219247,-9.93923e-16,7.15625e-15,-0.16677,-26.92,22.6455,117.884,-60.0421,-3.94895,-45.8696,7.12502,21.803,-74.6615,-9.93923e-16,7.15625e-15,29.0847,29.7218,-6.52717,30.0264,50.7439,-22.2378,-42.0804,7.12502,4.17918,-12.1417,-10.1438,4.72811,-8.24207,21.4852,-1.36765,-20.3346,-4.35863,-17.6392,3.6841,-35.1457,10.5619,-11.4627,-5.01135,19.185
-0.832745,17.4781,5.25871,1.67315,-72.1036,18.9334,-11.2672,-0.640311,6.43933,-12.9461,-1.97518,-0.935826,-7.78276,-1.91218,-4.63856,-7.13421,17.0816,11.7762,13.9052,21.8607,-0.923629,6.77154,11.1172,-0.0617428,-4.11484e-14,-2.8625e-14,-2.84733,-26.1345,23.8379,117.986,-60.1203,-3.80912,-45.2844,7.12502,21.9373,-74.0606,-4.11484e-14,-2.8625e-14,32.4054,30.6631,-4.16362,29.5979,50.3456,-20.6295,-32.9592,7.12502,5.73208,-3.05677,-10.1783,4.6331,-8.28072,21.6169,-2.52948,-20.2507,-0.669694,-17.5838,3.65041,-35.1646,10.4912,-11.3919,-5.10997,18.8614
-0.827689,17.4842,5.24941,1.94157,-71.9243,18.6994,-11.315,-0.459388,6.58879,-12.8796,-1.75371,-1.24378,-7.67455,-1.82289,-5.05012,-7.41049,16.8848,12.4329,14.06,21.5131,-1.19371,6.95142,10.954,-0.216894,-7.15625e-15,-1.35174e-14,-3.49707,-25.8734,23.9694,118.094,-60.2169,-4.09708,-45.2574,7.12502,21.6607,-74.0657,-7.15625e-15,-1.35174e-14,33.4449,30.7535,-3.52971,29.6351,49.3762,-21.9485,-22.4759,7.12502,4.45855,7.45716,-10.2091,4.49274,-8.16901,21.7191,-3.649,-20.1822,2.86066,-17.5469,2.95243,-34.8878,10.4585,-11.339,-4.65988,17.0365
-0.820791,17.4857,5.23803,1.99065,-71.7445,18.7033,-11.3349,-0.45665,6.62473,-12.8788,-1.75377,-1.27659,-7.66673,-1.82722,-5.10646,-7.43994,16.8742,12.3377,14.1734,21.4937,-1.09753,6.97093,10.9478,-0.173293,6.95746e-15,-1.43125e-14,-3.47789,-25.8614,23.9423,118.225,-60.2414,-5.09255,-46.9602,7.12502,20.7045,-75.8758,6.95746e-15,-1.43125e-14,33.6214,30.8275,-3.22597,29.63,49.0197,-21.9296,-21.0586,7.12502,4.47678,8.87405,-10.2294,4.39309,-8.14168,21.7786,-3.53752,-20.2513,2.11934,-17.6227,2.56621,-34.8076,10.523,-11.3818,-4.4106,15.8506
-0.812533,17.4884,5.22541,2.01616,-71.561,18.746,-11.3155,-0.477157,6.54324,-12.9097,-1.77387,-1.25561,-7.7096,-1.83171,-5.03743,-7.39683,16.8545,12.0418,14.2285,21.4822,-0.909222,6.92713,10.9447,-0.0911821,9.93923e-16,1.35174e-14,-3.20123,-25.8101,23.7872,118.19,-60.0006,-5.61617,-48.1909,7.12502,20.2013,-77.1605,9.93923e-16,1.35174e-14,33.8239,30.8896,-2.84476,29.6261,48.4962,-21.7484,-25.7711,7.12502,4.65173,4.15785,-10.2733,4.31655,-8.12894,21.8447,-2.0434,-20.3512,-2.94232,-17.7356,2.37073,-34.8193,10.5712,-11.416,-4.2668,15.7744
-0.804526,17.4965,5.21398,2.44883,-71.355,18.3523,-11.2808,-0.559395,6.55067,-12.9474,-1.8751,-1.11195,-7.77978,-1.87876,-4.88824,-7.27068,16.8774,11.6017,14.2306,21.5602,-0.730987,6.84235,10.9786,0.00370224,-5.32743e-14,-4.21423e-14,-2.83307,-25.8668,23.5715,118.167,-59.9858,-5.39037,-47.6408,7.12502,20.4183,-76.5873,-5.32743e-14,-4.21423e-14,33.6529,30.7575,-2.83184,29.6428,48.2152,-21.9125,-29.173,7.12502,4.49323,0.759309,-10.3372,4.21618,-7.94197,21.9496,1.12529,-20.2188,-12.4755,-17.7998,2.13007,-34.646,10.5302,-11.3131,-4.21103,16.642
-0.799656,17.4986,5.20745,2.59105,-71.1761,18.146,-11.2179,-0.651773,6.54705,-12.9249,-1.98391,-0.986743,-7.79756,-1.92361,-4.75369,-7.21793,16.9745,11.2226,14.2723,21.7216,-0.545446,6.79245,11.0545,0.112797,5.26779e-14,-5.56597e-15,-2.50182,-25.9938,23.2456,118.23,-60.1189,-5.23994,-47.1212,7.12502,20.5629,-76.0521,5.26779e-14,-5.56597e-15,33.2763,30.5213,-3.07674,29.6464,48.3649,-21.9729,-29.9305,7.12502,4.43491,0.00309228,-10.2836,4.07182,-7.82554,22.0614,4.00208,-19.6042,-20.1031,-17.7296,2.06404,-34.5851,10.4869,-11.1901,-4.27103,17.2418
-0.795306,17.497,5.20041,2.47873,-71.0217,18.1723,-11.1534,-0.749214,6.52782,-12.8751,-2.10105,-0.937519,-7.78922,-1.97332,-4.69315,-7.16881,17.0785,11.2129,14.3595,21.8895,-0.632912,6.83076,11.1291,0.109966,-4.49253e-14,-2.54444e-14,-2.00582,-26.0857,22.7384,118.122,-60.1625,-5.24613,-47.3615,7.12502,20.5569,-76.2931,-4.49253e-14,-2.54444e-14,32.8201,30.1787,-3.56026,29.7512,48.5885,-22.457,-32.5208,7.12502,3.96749,-2.57803,-10.1706,4.01343,-7.80645,22.1526,4.7129,-19.3303,-21.9689,-17.6608,2.29402,-34.7174,10.4683,-11.1431,-4.3385,16.5704
-0.79085,17.4974,5.19041,2.4119,-70.8351,18.1678,-11.1031,-0.83001,6.53922,-12.817,-2.19994,-0.92585,-7.76503,-2.01767,-4.69028,-7.14272,17.1164,11.4244,14.5053,21.9748,-0.943981,6.93888,11.1565,0.0166799,3.99557e-14,9.54166e-15,-1.69607,-26.1334,22.4381,117.951,-60.107,-5.20091,-47.3679,7.12502,20.6004,-76.2948,3.99557e-14,9.54166e-15,32.4591,29.8607,-3.98989,29.886,48.8524,-22.7374,-33.7878,7.12502,3.69673,-3.84014,-10.0488,4.01664,-7.79774,22.2494,4.10137,-19.4142,-20.8193,-17.6244,2.64787,-34.8817,10.3995,-11.1211,-4.46517,15.9307
-0.788554,17.4988,5.17816,2.53178,-70.6345,17.934,-11.031,-0.852589,6.54974,-12.7416,-2.21724,-0.922003,-7.7221,-2.01885,-4.69252,-7.13151,17.0775,11.4672,14.5839,21.9455,-1.09479,6.98361,11.1332,-0.0308186,-1.07344e-14,7.95139e-16,-1.76677,-26.1032,22.369,118.006,-59.9808,-5.27894,-47.4854,7.12502,20.5254,-76.4204,-1.07344e-14,7.95139e-16,32.4514,29.7352,-4.00179,29.924,48.978,-22.2189,-31.604,7.12502,4.19736,-1.6656,-9.89629,4.11245,-7.68195,22.3489,3.73128,-19.5531,-20.2369,-17.5011,2.71384,-34.8498,10.3034,-11.1135,-4.5228,15.9972
-0.787155,17.5012,5.16517,2.78491,-70.5026,17.6273,-11.0185,-0.765983,6.54563,-12.7018,-2.09514,-0.930459,-7.66653,-1.95169,-4.69638,-7.03856,16.9256,11.2739,14.5282,21.7733,-1.10302,6.91953,11.0433,-0.0464005,1.27222e-14,1.98785e-14,-1.78126,-25.9226,22.3578,117.932,-59.9322,-5.26025,-47.2403,7.12502,20.5433,-76.1733,1.27222e-14,1.98785e-14,32.8549,29.7732,-3.48645,29.9076,48.635,-22.3399,-31.7695,7.12502,4.08052,-1.82884,-9.8496,4.21303,-7.51406,22.4332,4.38649,-19.524,-22.1682,-17.422,2.6524,-34.7123,10.2337,-11.1258,-4.49266,15.8156
-0.784917,17.5043,5.15303,2.84268,-70.4007,17.5932,-11.0665,-0.635597,6.50031,-12.6788,-1.92157,-1.0016,-7.59002,-1.85984,-4.74408,-6.97232,16.74,11.1473,14.4448,21.5387,-1.09722,6.85346,10.927,-0.0711004,-5.96354e-16,7.95139e-15,-2.04024,-25.7767,22.4838,118.067,-59.9455,-4.85419,-46.2292,7.12502,20.9335,-75.1197,-5.96354e-16,7.95139e-15,33.1719,29.5138,-3.24998,29.942,48.6785,-22.9937,-32.9917,7.12502,3.44915,-3.03982,-9.85353,4.18783,-7.49446,22.4701,3.45149,-19.705,-20.104,-17.4728,2.73161,-34.697,10.2567,-11.0843,-4.56041,16.0379
-0.779026,17.508,5.14088,2.80248,-70.1854,17.6627,-11.0677,-0.613563,6.39918,-12.6565,-1.88543,-1.06444,-7.55576,-1.83297,-4.75443,-6.94669,16.6786,11.2565,14.4535,21.4567,-1.17921,6.86901,10.8869,-0.117843,-3.12092e-14,1.03368e-14,-2.05987,-25.6814,22.4451,118.094,-59.6844,-4.46077,-45.7906,7.12502,21.3114,-74.6388,-3.12092e-14,1.03368e-14,33.0192,28.8896,-3.72253,30.0403,49.4891,-22.8447,-30.9306,7.12502,3.59304,-0.981114,-9.80541,4.15977,-7.49859,22.4715,3.02823,-19.8783,-19.3119,-17.5622,2.48667,-34.6771,10.3562,-10.9679,-4.51162,16.73
-0.772324,17.5105,5.13386,2.97188,-69.9518,17.5076,-11.0783,-0.633141,6.42162,-12.6336,-1.91099,-1.07994,-7.52976,-1.8455,-4.78566,-6.93277,16.708,11.5467,14.6199,21.5061,-1.4138,6.98317,10.9064,-0.201527,2.38542e-15,1.51076e-14,-1.88961,-25.6338,22.31,118.074,-59.5253,-4.48556,-46.18,7.12502,21.2876,-75.0309,2.38542e-15,1.51076e-14,32.6924,28.2344,-4.26965,30.1763,49.96,-22.8949,-29.453,7.12502,3.54455,0.497289,-9.75631,4.10345,-7.42225,22.5058,3.73527,-19.77,-21.2437,-17.6035,1.98679,-34.5455,10.4097,-10.8745,-4.30092,16.97
-0.767965,17.5148,5.12899,3.25847,-69.7903,17.2665,-11.1881,-0.635719,6.54895,-12.6231,-1.92789,-1.05321,-7.4661,-1.86098,-4.8328,-6.91192,16.6964,11.7291,14.8485,21.5173,-1.6478,7.10268,10.9028,-0.276167,-2.5842e-15,1.59028e-15,-1.62635,-25.5905,22.0544,118.108,-59.5516,-4.4778,-46.3328,7.12502,21.2951,-75.1828,-2.5842e-15,1.59028e-15,31.7759,26.8065,-5.59497,30.5119,51.0123,-23.983,-29.6921,7.12502,2.49377,0.273033,-9.78116,4.00303,-7.33778,22.5721,3.46117,-19.7649,-20.3584,-17.7101,2.06197,-34.4877,10.4264,-10.8177,-4.56563,17.0942
-0.762101,17.5185,5.11694,3.17838,-69.6213,17.4272,-11.2784,-0.763039,6.46953,-12.645,-2.09698,-0.947105,-7.45382,-1.93515,-4.68261,-6.79257,16.7064,11.3253,14.9899,21.5673,-1.44815,7.06456,10.9256,-0.173541,3.97569e-14,3.4191e-14,-1.03762,-25.6283,21.5466,118.085,-59.5419,-4.13703,-45.8517,7.12502,21.6224,-74.6644,3.97569e-14,3.4191e-14,30.5058,25.3707,-7.29602,30.9282,53.0422,-24.4023,-29.8539,7.12502,2.08884,0.1156,-9.86377,3.68567,-7.37646,22.6416,3.98816,-19.5626,-21.1617,-17.901,2.58904,-34.6643,10.4748,-10.7134,-5.2738,17.498
-0.755312,17.5188,5.10335,2.93791,-69.4038,17.6708,-11.2536,-0.984408,6.30667,-12.6682,-2.37329,-0.761609,-7.50971,-2.05279,-4.40043,-6.57046,16.7842,10.5016,15.0373,21.7167,-0.93705,6.90069,11.0019,0.0588668,3.22031e-14,-7.95139e-15,-0.13557,-25.678,20.8293,117.978,-59.3448,-4.1029,-45.7309,7.12502,21.6551,-74.5398,3.22031e-14,-7.95139e-15,29.9213,25.4666,-7.61059,31.0287,53.8446,-23.5594,-29.433,7.12502,2.90285,0.526981,-9.85395,3.25973,-7.45228,22.7313,4.20222,-19.3161,-21.2684,-17.9447,2.73139,-34.7985,10.4964,-10.6203,-5.5988,17.7631
-0.747832,17.5213,5.09145,2.97857,-69.1248,17.5914,-11.1927,-1.10781,6.25326,-12.6945,-2.523,-0.623378,-7.58088,-2.11811,-4.22425,-6.36046,16.7893,10.0398,15.1169,21.7798,-0.783311,6.82565,11.0259,0.143046,-3.24019e-14,1.82882e-14,0.274498,-25.6523,20.5136,118.069,-59.4048,-4.68017,-46.943,7.12502,21.1007,-75.8149,-3.24019e-14,1.82882e-14,29.878,25.7732,-7.2375,31.015,53.5884,-22.9932,-27.7145,7.12502,3.44963,2.23729,-9.75716,3.1534,-7.39883,22.8329,3.06243,-19.5856,-18.2546,-17.898,2.25906,-34.6823,10.4886,-10.5265,-5.26634,17.8653
-0.738869,17.5263,5.07749,3.27711,-68.8746,17.2934,-11.1414,-1.13295,6.2811,-12.7014,-2.54976,-0.578627,-7.62007,-2.13147,-4.19052,-6.449,16.7744,9.95929,15.4068,21.7676,-0.773665,6.92426,11.0143,0.176745,4.79071e-14,6.36111e-15,0.354352,-25.6097,20.3865,118.059,-59.6615,-4.56154,-46.862,7.12502,21.2146,-75.7211,4.79071e-14,6.36111e-15,29.7641,25.4318,-7.3399,31.0977,53.6223,-22.9503,-26.651,7.12502,3.49108,3.30016,-9.71705,3.33146,-7.24034,22.9105,1.4374,-20.0613,-14.0915,-17.9444,1.67777,-34.4473,10.5192,-10.3872,-4.81508,18.1683
-0.732618,17.532,5.06637,3.71702,-68.6981,16.8437,-11.1427,-1.17994,6.43071,-12.6315,-2.61349,-0.526728,-7.55604,-2.16629,-4.22315,-6.80218,16.78,10.1822,15.8233,21.7629,-0.990798,7.16942,10.9972,0.14644,3.93594e-14,0,0.583186,-25.6897,20.0143,117.913,-59.7427,-3.68349,-45.3185,7.12502,22.0579,-74.0805,3.93594e-14,0,29.4779,25.2107,-7.6732,31.1743,53.6756,-22.8895,-27.0105,7.12502,3.54978,2.93968,-9.72415,3.44299,-7.02701,22.9835,1.12985,-20.2451,-13.2371,-18.0153,1.44795,-34.2353,10.576,-10.3117,-4.65194,18.2228
-0.729788,17.5338,5.05821,3.94991,-68.5795,16.5804,-11.2165,-1.23993,6.61302,-12.5329,-2.70355,-0.499987,-7.42727,-2.21563,-4.30605,-7.01851,16.7483,10.954,16.1953,21.7657,-1.84244,7.51536,10.9613,-0.138712,3.29983e-14,1.90833e-14,1.04834,-25.7693,19.537,117.847,-59.6113,-3.85845,-45.8767,7.12502,21.8899,-74.6585,3.29983e-14,1.90833e-14,29.1357,25.0971,-8.06947,31.3139,53.7796,-22.8763,-26.9277,7.12502,3.56255,3.02225,-9.73928,3.31778,-6.89797,23.0903,2.37693,-20.0427,-16.7282,-18.0414,1.56151,-34.1726,10.6458,-10.2895,-4.67044,18.0535
-0.725346,17.5339,5.04778,3.91391,-68.549,16.6209,-11.2328,-1.23155,6.64748,-12.5071,-2.69393,-0.49859,-7.3903,-2.21079,-4.32516,-7.00326,16.6821,11.7533,16.4365,21.7628,-2.79766,7.79611,10.9203,-0.490101,-8.74653e-15,2.54444e-14,1.32186,-25.6802,19.2886,117.927,-59.514,-4.72283,-47.1776,7.12502,21.0597,-76.054,-8.74653e-15,2.54444e-14,28.9722,24.9063,-8.28224,31.4553,54.0163,-22.8041,-26.2743,7.12502,3.63232,3.6745,-9.83536,3.08407,-6.90567,23.24,3.0139,-19.7217,-18.6109,-18.0754,1.77538,-34.2338,10.6768,-10.2854,-4.59089,17.371
-0.715152,17.5388,5.0336,3.94922,-68.4663,16.5694,-11.0828,-1.22682,6.52629,-12.5195,-2.66422,-0.449161,-7.47092,-2.18414,-4.19684,-6.98546,16.5868,12.764,16.6914,21.7399,-3.96108,8.13012,10.8633,-0.933576,-2.16675e-14,-1.51076e-14,1.4273,-25.5602,19.1547,117.909,-59.4302,-4.06245,-46.4277,7.12502,21.694,-75.2322,-2.16675e-14,-1.51076e-14,29.1342,25.0366,-7.97177,31.4615,53.8041,-22.5198,-26.1706,7.12502,3.90683,3.77328,-9.94304,2.78708,-6.85782,23.4254,2.75442,-19.5651,-17.7731,-18.0787,1.89091,-34.2399,10.615,-10.286,-4.38684,16.1256
-0.70462,17.5443,5.01717,4.04236,-68.2812,16.4046,-10.9311,-1.26002,6.44641,-12.5108,-2.68677,-0.414069,-7.53994,-2.18598,-4.1094,-6.97724,16.7742,11.5127,16.8791,21.8764,-2.44753,7.87914,10.9879,-0.32708,-2.04748e-14,-1.59028e-14,1.6587,-25.4156,18.8984,117.729,-59.1974,-2.83625,-45.2436,7.12502,22.8711,-73.9074,-2.04748e-14,-1.59028e-14,29.3316,25.2234,-7.61254,31.4038,53.4336,-22.2671,-27.5428,7.12502,4.15088,2.39654,-9.95295,2.6971,-6.72484,23.6016,2.4443,-19.6824,-16.9673,-18.0416,1.93757,-34.1798,10.5627,-10.2368,-4.32484,15.5569
-0.698498,17.5472,5.00277,4.0269,-68.1372,16.3692,-10.8998,-1.23556,6.46297,-12.4789,-2.64932,-0.427281,-7.5184,-2.16554,-4.13163,-6.8278,16.7454,10.8775,16.8647,21.8443,-1.97688,7.71828,10.9822,-0.142054,2.54444e-14,4.13472e-14,1.7097,-25.2779,18.8084,117.747,-59.1274,-3.5799,-45.6709,7.12502,22.1573,-74.4211,2.54444e-14,4.13472e-14,29.5531,25.3749,-7.21186,31.326,52.9975,-22.2387,-29.0119,7.12502,4.1783,0.926826,-9.91903,2.88518,-6.65858,23.7108,1.67642,-19.9899,-15.2931,-18.0645,2.01762,-34.1779,10.619,-10.2122,-4.36584,15.2215
-0.693529,17.5486,4.99221,4.1106,-68.0044,16.2412,-10.8963,-1.2144,6.5523,-12.4152,-2.61849,-0.383263,-7.44795,-2.14811,-4.13576,-6.81064,16.5983,10.399,16.8157,21.7088,-1.99854,7.6379,10.8912,-0.119522,1.07344e-14,-9.54166e-15,1.95859,-25.2546,18.6999,117.761,-59.1923,-4.92144,-46.4419,7.12502,20.8689,-75.3394,1.07344e-14,-9.54166e-15,29.7094,25.6306,-6.75209,31.2769,52.4661,-22.295,-29.0025,7.12502,4.12389,0.937309,-9.87092,2.96447,-6.57931,23.775,1.20606,-20.139,-14.0946,-18.1014,2.17205,-34.1762,10.6984,-10.2963,-4.39516,14.3528
-0.690358,17.5519,4.98331,4.16221,-67.8711,16.1265,-10.878,-1.18651,6.60749,-12.3438,-2.57613,-0.362686,-7.37444,-2.12252,-4.14525,-7.01289,16.4845,9.60892,17.0098,21.5344,-1.42945,7.57018,10.8075,0.13564,5.84427e-14,1.98785e-14,1.83037,-25.1711,18.5668,118.228,-58.9969,-5.06243,-46.5594,7.12502,20.7334,-75.4718,5.84427e-14,1.98785e-14,29.7417,25.5638,-6.63766,31.3081,52.5489,-22.421,-28.9804,7.12502,4.00225,0.961776,-9.80122,2.9137,-6.49895,23.8402,1.73872,-20.0812,-15.459,-18.0972,2.3017,-34.1697,10.7594,-10.3732,-4.41516,13.76
-0.686027,17.556,4.97127,4.05504,-67.8015,16.2179,-10.8357,-1.16932,6.52321,-12.3014,-2.54251,-0.390413,-7.34094,-2.0956,-4.12675,-7.3401,16.4698,8.76995,17.4399,21.4033,-0.349194,7.54209,10.7811,0.57363,-9.34288e-14,-1.27222e-14,1.4337,-25.0135,18.4183,118.95,-58.6469,-4.64056,-46.5202,7.12502,21.1387,-75.3878,-9.34288e-14,-1.27222e-14,29.5513,25.0996,-7.03964,31.4248,53.236,-22.7122,-29.9003,7.12502,3.72104,0.0470007,-9.84224,2.84609,-6.50664,23.9856,2.04566,-19.9636,-16.3813,-18.2319,2.31782,-34.2127,11.0114,-10.4711,-4.28584,13.235
-0.679232,17.5552,4.95962,4.14431,-67.7633,16.142,-10.8885,-1.17605,6.62771,-12.2329,-2.5608,-0.441223,-7.24753,-2.10944,-4.24461,-7.4909,16.585,8.35004,17.7145,21.4688,0.397017,7.52777,10.8486,0.869498,4.96962e-14,1.51076e-14,1.5147,-25.0271,18.0625,118.993,-58.6426,-4.30568,-45.9721,7.12502,21.4604,-74.8034,4.96962e-14,1.51076e-14,29.289,24.8013,-7.55258,31.5494,53.657,-22.8109,-30.4552,7.12502,3.62576,-0.506255,-9.98082,2.61658,-6.46643,24.1675,2.57597,-19.6886,-17.4649,-18.3991,2.34079,-34.2011,11.2354,-10.5579,-4.17909,13.081
-0.673523,17.545,4.94802,4.32395,-67.6319,15.937,-11.0207,-1.14116,6.8335,-12.1231,-2.53415,-0.508156,-7.06622,-2.10429,-4.43965,-7.40122,16.6126,8.12616,17.6303,21.5082,0.573803,7.4402,10.8723,0.935019,6.50026e-14,-7.95139e-15,1.87475,-25.0236,17.5791,118.462,-58.6774,-4.04518,-45.298,7.12502,21.7106,-74.1006,6.50026e-14,-7.95139e-15,29.4584,24.979,-7.42393,31.5606,53.3707,-22.4635,-29.3335,7.12502,3.96118,0.609438,-10.0953,2.05522,-6.38336,24.4423,3.32566,-19.1402,-19.0036,-18.464,2.44923,-34.1774,11.3321,-10.6513,-4.34021,13.2854
-0.666041,17.5485,4.93254,4.42612,-67.3669,15.8301,-11.0237,-1.22684,6.78773,-12.0926,-2.63916,-0.430606,-7.03616,-2.14555,-4.33615,-7.24017,16.5594,8.14172,17.5486,21.5149,0.207094,7.43024,10.8477,0.809745,-7.95139e-16,1.90833e-14,2.40324,-25.0326,17.1935,118.053,-58.6827,-3.73384,-45.0325,7.12502,22.0095,-73.8002,-7.95139e-16,1.90833e-14,29.3039,24.8823,-7.47032,31.6074,53.3852,-21.7632,-27.825,7.12502,4.63743,2.10421,-10.1625,1.9368,-6.25938,24.7506,2.86691,-19.2882,-18.1729,-18.4801,2.35252,-34.1491,11.3175,-10.6085,-4.38467,12.9885
-0.653425,17.5527,4.91194,4.49926,-67.1048,15.7684,-10.8995,-1.38627,6.67556,-12.1143,-2.82926,-0.317997,-7.13889,-2.229,-4.15344,-7.07697,16.4584,8.52508,17.5405,21.475,-0.51176,7.52508,10.7902,0.542849,-2.44505e-14,2.14687e-14,3.07861,-25.0105,16.7363,117.75,-58.5559,-3.27679,-44.8473,7.12502,22.4483,-73.5627,-2.44505e-14,2.14687e-14,28.816,24.5053,-7.92782,31.7466,53.8361,-21.1152,-27.6431,7.12502,5.26311,2.27154,-10.2807,1.6854,-6.14344,25.0402,2.67487,-19.3503,-17.1603,-18.5577,1.78055,-33.9899,11.3557,-10.3664,-3.93026,12.9449
-0.644452,17.5545,4.89496,4.5074,-67.0104,15.7515,-10.8331,-1.42381,6.59467,-12.0775,-2.86395,-0.270346,-7.12906,-2.23375,-4.05715,-6.97246,16.2655,8.78853,17.4476,21.299,-1.13732,7.57019,10.6696,0.298781,-2.127e-14,-1.35174e-14,3.42131,-25.0164,16.5625,117.631,-58.6791,-3.39035,-44.8841,7.12502,22.3393,-73.6126,-2.127e-14,-1.35174e-14,28.558,24.1332,-8.21894,31.8929,53.8759,-21.6221,-28.1256,7.12502,4.77363,1.80058,-10.3686,1.69118,-6.07793,25.1917,2.39486,-19.5038,-17.495,-18.6133,1.21098,-33.8326,11.403,-10.3107,-3.29951,12.3146
-0.640801,17.5542,4.88106,4.56494,-67.0617,15.663,-10.8659,-1.38834,6.54236,-12.0035,-2.8085,-0.184093,-7.01029,-2.18904,-3.93877,-7.06084,16.3248,8.8988,17.7866,21.4542,-1.54374,7.76471,10.7071,0.213772,1.64991e-14,9.54166e-15,3.47224,-24.9538,16.2691,117.801,-58.885,-3.91391,-44.4608,7.12502,21.8366,-73.2487,1.64991e-14,9.54166e-15,28.3451,23.858,-8.3288,31.9502,53.92,-22.0644,-27.9505,7.12502,4.34657,1.98489,-10.3978,1.99721,-5.9972,25.2135,1.53416,-19.7861,-15.7648,-18.654,1.25635,-33.7837,11.4468,-10.4181,-3.23366,11.64
-0.636894,17.5569,4.86947,4.92667,-67.0128,15.2236,-10.8711,-1.33471,6.62897,-11.9606,-2.73372,-0.0553411,-6.9478,-2.14653,-3.84936,-7.02235,16.3069,8.92817,18.087,21.516,-1.90639,7.90715,10.7014,0.124738,1.04163e-13,5.24792e-14,3.67591,-24.966,16.25,117.625,-59.3475,-3.92357,-44.0963,7.12502,21.8274,-72.8853,1.04163e-13,5.24792e-14,28.5538,24.3172,-7.68609,31.8301,53.8257,-21.0394,-27.2582,7.12502,5.3363,2.6546,-10.311,2.27351,-5.75857,25.1891,0.464858,-20.0394,-13.3259,-18.7448,1.67271,-33.6786,11.5818,-10.4089,-3.74167,12.3522
-0.632499,17.573,4.85995,5.42178,-66.8782,14.649,-10.8136,-1.3207,6.78209,-11.9437,-2.71201,0.0597707,-6.96226,-2.14002,-3.80944,-6.95822,16.4484,7.41107,18.165,21.6444,-0.50482,7.59046,10.7996,0.707057,3.598e-14,1.11319e-14,3.80347,-24.958,16.1594,117.71,-59.6745,-3.41352,-43.8952,7.12502,22.317,-72.6264,3.598e-14,1.11319e-14,28.8666,24.8426,-7.02955,31.8019,53.2496,-20.9474,-28.0672,7.12502,5.42511,1.84339,-10.2072,2.28881,-5.44299,25.1196,0.595007,-20.2009,-13.2642,-18.8661,2.16226,-33.5665,11.7435,-10.4124,-4.22968,12.6838
-0.623911,17.5784,4.84313,5.61072,-66.5918,14.4316,-10.7184,-1.48386,6.81532,-11.942,-2.91873,0.133807,-7.03705,-2.24349,-3.75147,-6.99745,16.5102,7.29822,18.3603,21.7181,-0.349319,7.63367,10.8376,0.786511,4.33351e-14,-1.59028e-15,4.22292,-24.8836,15.6744,117.92,-59.6703,-3.46991,-44.2561,7.12502,22.2629,-72.9938,4.33351e-14,-1.59028e-15,28.5633,24.6763,-7.35639,31.9474,53.2356,-21.9704,-30.5953,7.12502,4.43737,-0.6618,-10.0952,1.99688,-5.26179,25.059,0.616176,-20.3293,-13.8947,-19.0065,2.42564,-33.5806,11.9053,-10.3796,-4.60939,12.8686
-0.613851,17.5817,4.82709,5.68291,-66.1446,14.3384,-10.6323,-1.69686,6.8396,-11.9313,-3.19414,0.134371,-7.10971,-2.38361,-3.76871,-6.98624,16.5395,7.36814,18.4792,21.7515,-0.344497,7.68022,10.8557,0.78978,7.95139e-15,-1.74931e-14,4.59856,-24.751,15.2146,117.962,-59.4024,-3.62128,-45.1821,7.12502,22.1176,-73.937,7.95139e-15,-1.74931e-14,28.0832,24.1649,-8.09005,32.0874,53.9484,-22.0246,-30.4663,7.12502,4.38498,-0.531737,-9.89579,1.65338,-5.11731,25.076,-0.214058,-20.4439,-11.2542,-19.1362,2.11961,-33.52,12.1224,-10.2289,-4.79585,14.1553
-0.607105,17.5802,4.81964,5.80647,-65.9027,14.0994,-10.5478,-1.7582,6.97638,-11.87,-3.27303,0.108069,-7.11167,-2.43034,-3.87314,-6.88291,16.4814,7.66582,18.5497,21.7066,-0.683146,7.75883,10.8214,0.649761,-8.54774e-15,1.27222e-14,4.8,-24.5866,14.8864,117.892,-59.0458,-2.39077,-44.3455,7.12502,23.2985,-72.9558,-8.54774e-15,1.27222e-14,27.834,23.693,-8.58501,32.2133,54.5077,-21.7364,-28.1538,7.12502,4.66335,1.77488,-9.71211,1.42452,-4.95133,25.1665,-0.172235,-20.3973,-11.1615,-19.1635,1.53458,-33.3267,12.4053,-10.3247,-4.37653,14.6464
-0.601411,17.5644,4.81417,5.62404,-65.7845,14.1303,-10.4636,-1.73102,7.00632,-11.7775,-3.22738,0.055309,-7.05512,-2.40367,-3.94463,-6.84664,16.3767,8.07226,18.7068,21.6188,-1.19569,7.90863,10.7547,0.452643,3.3197e-14,6.36111e-15,4.90205,-24.413,14.7602,117.87,-58.9021,-1.9602,-44.1019,7.12502,23.7116,-72.6592,3.3197e-14,6.36111e-15,27.8958,23.5349,-8.57036,32.3355,54.6004,-21.9967,-28.6917,7.12502,4.41199,1.24236,-9.49767,1.25313,-4.97378,25.205,-0.888822,-20.3099,-9.90308,-19.0508,1.09713,-33.282,12.5382,-10.486,-3.86573,14.3748
-0.595925,17.563,4.80298,5.51442,-65.6605,14.1539,-10.4234,-1.69408,6.99056,-11.6866,-3.17106,-0.0164966,-6.97183,-2.36865,-4.01291,-7.04218,16.3712,8.08733,19.1075,21.5918,-1.1029,8.06638,10.7392,0.513988,-3.1408e-14,1.59028e-15,4.91563,-24.2626,14.6417,117.794,-58.9139,-3.01285,-45.4306,7.12502,22.7016,-74.1152,-3.1408e-14,1.59028e-15,28.0129,23.3996,-8.57141,32.4684,54.8439,-22.2716,-30.5889,7.12502,4.14654,-0.649463,-9.37281,1.29335,-4.9539,25.2404,-2.49398,-20.3196,-6.61398,-19.0541,0.861811,-33.2291,12.6553,-10.4709,-3.8492,15.1865
-0.589844,17.5762,4.78622,5.78422,-65.5768,13.8505,-10.4038,-1.53007,7.02553,-11.5855,-2.95282,-0.179396,-6.85466,-2.25916,-4.20322,-7.32601,16.2577,8.128,19.405,21.3661,-0.859564,8.18162,10.6459,0.594854,-3.99557e-14,8.74653e-15,4.71495,-24.0843,14.7237,117.526,-59.0756,-4.36869,-46.6706,7.12502,21.3999,-75.5088,-3.99557e-14,8.74653e-15,28.5923,23.439,-8.3445,32.4656,55.1487,-21.8987,-29.4366,7.12502,4.50654,0.495497,-9.40056,1.44191,-4.71261,25.2842,-2.77699,-20.5763,-7.11495,-19.1544,0.858514,-33.0639,12.7515,-10.4231,-4.01299,15.9761
-0.582462,17.5761,4.77169,5.94697,-65.4713,13.6875,-10.4513,-1.07355,7.04842,-11.4133,-2.35728,-0.669028,-6.58596,-1.96538,-4.72829,-7.85606,15.832,8.88876,19.5998,20.6615,-1.04149,8.41452,10.3299,0.426256,-1.15295e-14,1.19271e-14,3.30235,-23.7659,15.4807,117.514,-59.2103,-5.64658,-48.0735,7.12502,20.1721,-77.0462,-1.15295e-14,1.19271e-14,30.5285,24.0933,-7.02383,32.3091,54.619,-21.3482,-26.6615,7.12502,5.03814,3.25856,-9.42469,1.42007,-4.54987,25.3155,-2.02088,-20.8884,-9.76046,-19.1848,1.03978,-33.0388,12.6951,-10.3488,-4.17596,16.3457
-0.57593,17.5759,4.76313,5.98457,-65.3732,13.6345,-10.5275,-1.06284,7.12566,-11.3697,-2.34932,-0.613974,-6.49609,-1.95885,-4.71678,-7.64489,15.7974,8.87033,19.6069,20.7093,-1.3896,8.41983,10.322,0.312183,-3.22031e-14,-3.26007e-14,3.54191,-23.6553,15.2665,117.558,-59.0764,-5.17688,-47.9137,7.12502,20.6235,-76.8381,-3.22031e-14,-3.26007e-14,30.4683,24.1107,-6.85069,32.3659,54.2026,-21.9521,-25.0199,7.12502,4.45499,4.91324,-9.3909,1.4294,-4.4632,25.348,-1.36402,-21.0865,-12.0694,-19.159,1.0928,-33.0304,12.6149,-10.2378,-4.33089,16.9449
-0.569091,17.5778,4.75002,6.13355,-65.2718,13.4538,-10.5196,-1.57222,7.17477,-11.4278,-3.00963,0.0628903,-6.61673,-2.2695,-4.04223,-7.01486,16.1592,7.94297,19.4969,21.4815,-1.79885,8.25255,10.6033,0.330116,-9.74045e-15,-6.36111e-15,5.72173,-23.821,13.9872,117.71,-59.1382,-5.34829,-47.989,7.12502,20.4587,-76.9312,-9.74045e-15,-6.36111e-15,28.1874,23.5722,-8.04287,32.5216,54.6073,-22.287,-23.0114,7.12502,4.13167,6.92829,-9.38121,1.53856,-4.30726,25.4332,-1.30275,-21.1918,-12.9393,-19.216,1.01053,-32.8985,12.6831,-10.1853,-4.44092,17.4098
-0.562479,17.5783,4.73513,6.32884,-65.1391,13.208,-10.4544,-1.69144,7.15527,-11.4306,-3.15036,0.33369,-6.65359,-2.32588,-3.74477,-6.85297,16.1767,7.2993,19.5232,21.6105,-1.81581,8.16681,10.6243,0.398321,1.47101e-14,9.54166e-15,6.44944,-23.7285,13.6739,117.9,-59.4841,-6.34098,-48.4832,7.12502,19.5045,-77.5249,1.47101e-14,9.54166e-15,27.6315,23.5203,-8.01684,32.5255,54.6926,-21.7489,-21.3223,7.12502,4.65126,8.60663,-9.4178,1.52711,-4.11925,25.6205,-2.22688,-21.1886,-10.7414,-19.3217,0.7535,-32.6803,12.8662,-10.1746,-4.36576,18.411
-0.556427,17.5759,4.72443,6.09679,-65.0562,13.3461,-10.315,-1.61898,6.95826,-11.3869,-3.0252,0.348137,-6.64915,-2.24275,-3.61174,-6.91382,16.091,6.66669,19.6117,21.4815,-1.35881,8.07428,10.563,0.595998,-3.77691e-15,1.27222e-14,6.51125,-23.6193,13.7499,117.706,-59.5085,-3.06265,-45.4645,7.12502,22.6538,-74.155,-3.77691e-15,1.27222e-14,27.963,23.7042,-7.38344,32.5325,54.3247,-22.2192,-20.7029,7.12502,4.19712,9.23547,-9.43803,1.37523,-4.1123,25.8575,-3.04665,-21.244,-8.50927,-19.2889,0.68564,-32.7126,12.9785,-10.2041,-4.42562,18.8543
-0.546956,17.5597,4.70784,5.52199,-65.0011,13.8688,-10.1435,-1.70328,6.60049,-11.3692,-3.0989,0.396342,-6.70117,-2.24919,-3.357,-6.90173,16.1321,6.10345,19.6939,21.5232,-0.901724,7.98267,10.5884,0.798768,3.35946e-14,1.27222e-14,7.1343,-23.4626,13.1081,117.306,-58.9868,-5.81607,-48.9591,7.12502,20.0092,-77.9489,3.35946e-14,1.27222e-14,27.7724,23.725,-7.25828,32.6073,54.1531,-21.9929,-21.1036,7.12502,4.41567,8.83032,-9.51307,1.20516,-4.28854,26.1415,-2.72593,-21.3685,-9.8254,-19.2832,1.19021,-33.1022,13.0741,-10.3456,-4.84677,16.7456
-0.537409,17.5555,4.69184,5.20152,-64.8709,14.2129,-10.0481,-1.88809,6.33014,-11.3783,-3.31888,0.492057,-6.76033,-2.33576,-3.10681,-6.85201,16.2283,5.94221,19.8048,21.6744,-0.848041,7.99178,10.6525,0.850367,8.66701e-14,4.77083e-15,7.57309,-23.5356,12.7001,117.392,-59.1201,-7.31565,-50.9935,7.12502,18.5672,-80.1274,8.66701e-14,4.77083e-15,27.1502,23.4165,-7.70258,32.74,54.4208,-20.4843,-22.7682,7.12502,5.87227,7.13046,-9.62276,1.12037,-4.38683,26.4272,-2.94978,-21.3799,-10.3743,-19.3569,1.42037,-33.3315,13.1315,-10.4146,-5.07044,15.6512
-0.528572,17.5533,4.68153,4.97676,-64.6905,14.5072,-10.0616,-2.03667,6.2152,-11.3761,-3.51098,0.507477,-6.76047,-2.42254,-3.03281,-6.76801,16.3143,6.22832,19.8903,21.8497,-1.25704,8.09479,10.7135,0.71761,-2.60408e-14,-6.36111e-15,8.01627,-23.5386,12.2189,117.496,-59.2023,-7.30073,-50.7694,7.12502,18.5816,-79.9019,-2.60408e-14,-6.36111e-15,26.6311,23.019,-8.24902,32.9336,54.8416,-20.5794,-21.9448,7.12502,5.7804,7.95637,-9.73506,1.07745,-4.48703,26.7318,-4.21774,-21.3474,-8.23343,-19.4532,1.27043,-33.4292,13.1839,-10.3803,-5.16154,16.6284
-0.516184,17.5514,4.66737,4.94431,-64.4705,14.5809,-10.036,-1.87001,6.25052,-11.3262,-3.29731,0.175551,-6.72316,-2.32915,-3.39875,-6.90383,16.1058,7.0549,20.122,21.547,-1.71561,8.33521,10.5699,0.482003,7.95139e-15,-6.36111e-15,7.29077,-23.3842,12.3043,117.574,-59.0446,-6.00261,-49.2263,7.12502,19.8299,-78.2347,7.95139e-15,-6.36111e-15,27.4902,23.0503,-7.94932,33.0403,54.9811,-21.9678,-19.4571,7.12502,4.43987,10.4764,-9.80187,0.983385,-4.47446,26.9297,-5.23338,-21.2846,-6.59644,-19.5503,1.41408,-33.5135,13.1839,-10.3021,-5.51026,16.6066
-0.502809,17.5509,4.64676,5.18288,-64.3075,14.3296,-9.9609,-1.16853,6.35857,-11.158,-2.38584,-0.74855,-6.5343,-1.90669,-4.41735,-7.74527,15.4281,8.84768,20.7985,20.3521,-1.91936,8.88414,10.0731,0.173781,3.91606e-14,-2.8625e-14,4.41559,-22.8992,13.4316,117.748,-58.8536,-4.8172,-47.9268,7.12502,20.969,-76.8133,3.91606e-14,-2.8625e-14,30.5478,23.5619,-6.44428,32.9223,54.8728,-22.7309,-19.747,7.12502,3.70299,10.2005,-9.91193,0.850664,-4.26657,27.0877,-4.46627,-21.4931,-9.49348,-19.7022,1.64248,-33.4414,13.2608,-10.2088,-5.84463,16.36
-0.493829,17.5514,4.63449,5.4387,-64.3021,14.1085,-9.99216,-1.62996,6.52297,-11.2414,-2.99382,-0.114873,-6.65954,-2.20352,-3.85117,-7.33858,15.937,7.53229,20.925,21.2228,-1.57622,8.70966,10.4308,0.510345,-4.92986e-14,2.38542e-14,6.50204,-23.0449,12.255,117.774,-58.7032,-4.45709,-47.1394,7.12502,21.315,-75.9872,-4.92986e-14,2.38542e-14,28.252,22.8579,-7.76622,33.2471,55.3141,-22.5056,-22.2473,7.12502,3.9205,7.69639,-10.1182,0.774054,-4.11133,27.2457,-3.36645,-21.6877,-12.8052,-19.8673,1.87681,-33.3761,13.3256,-10.2367,-6.09336,15.8577
-0.485975,17.5516,4.62827,5.58433,-64.2637,14.0284,-10.1108,-1.11596,6.64652,-11.1175,-2.3381,-0.669369,-6.41457,-1.89496,-4.49967,-7.71854,15.5297,7.86599,21.0716,20.4891,-1.17634,8.78509,10.138,0.540229,5.76476e-15,-9.54166e-15,4.85179,-22.7189,13.0707,117.773,-58.9444,-4.57749,-46.5319,7.12502,21.1993,-75.3928,5.76476e-15,-9.54166e-15,30.1576,23.2202,-6.61702,33.2282,54.9703,-21.4416,-24.9246,7.12502,4.94791,4.99765,-10.2703,0.614079,-4.08143,27.3785,-2.76118,-21.5176,-15.0029,-20.0446,2.09766,-33.3992,13.4203,-10.3295,-6.34062,15.2057
-0.479006,17.5479,4.62265,5.48085,-64.1608,14.1428,-10.1574,-1.39596,6.64352,-11.1614,-2.70091,-0.233518,-6.45874,-2.06069,-4.04639,-7.28194,15.5826,7.22657,20.934,20.8286,-1.82261,8.67743,10.2002,0.416329,-9.93923e-16,3.18055e-15,6.38248,-22.7753,12.4822,117.65,-58.9667,-4.46074,-45.826,7.12502,21.3115,-74.6742,-9.93923e-16,3.18055e-15,28.7084,22.7963,-7.10866,33.3683,55.201,-21.2162,-22.9943,7.12502,5.16556,6.9227,-10.2761,0.304319,-4.14482,27.4716,-0.856247,-21.1202,-20.1635,-20.1245,1.98034,-33.443,13.5516,-10.3276,-6.32005,15.6939
-0.470339,17.5446,4.61477,5.60572,-64.0286,13.9739,-10.1483,-0.908175,6.67088,-11.0212,-2.05909,-0.713071,-6.25279,-1.74625,-4.5546,-7.80299,15.0441,8.17886,21.3267,20.0073,-2.22721,9.01692,9.81912,0.140098,2.20651e-14,3.02153e-14,4.66751,-22.5279,13.4013,117.823,-59.0139,-4.2048,-45.4835,7.12502,21.5573,-74.3037,2.20651e-14,3.02153e-14,30.6376,23.1425,-5.73745,33.2434,54.9563,-21.9926,-19.0623,7.12502,4.41587,10.8717,-10.249,0.0657541,-4.0408,27.5502,1.23396,-20.7061,-24.9305,-20.1646,1.62393,-33.2852,13.6768,-10.3202,-6.12073,16.8081
-0.457742,17.5393,4.60067,5.7592,-63.8479,13.7904,-10.1067,-0.914666,6.67872,-10.9435,-2.05878,-0.68018,-6.18836,-1.73747,-4.52477,-7.90144,15.1023,8.16422,21.5282,20.0931,-2.21847,9.10651,9.85171,0.173582,-4.57205e-14,-2.22639e-14,4.75661,-22.5215,13.3047,117.98,-59.0045,-4.79928,-46.7014,7.12502,20.9863,-75.586,-4.57205e-14,-2.22639e-14,30.6934,23.2008,-5.51758,33.3147,54.9333,-22.4205,-20.0384,7.12502,4.00271,9.90378,-10.2031,-0.0478553,-3.95419,27.6161,0.781043,-20.7174,-23.6989,-20.2687,1.54154,-33.1875,13.8439,-10.5062,-6.08851,16.6633
-0.445434,17.5305,4.58527,5.66436,-63.7318,13.8559,-10.0563,-0.959567,6.64345,-10.8405,-2.11056,-0.749827,-6.11076,-1.75513,-4.58212,-7.97864,15.2304,8.19304,21.6591,20.2215,-2.01796,9.15359,9.92905,0.261843,-4.80065e-14,-2.14687e-14,4.91858,-22.5185,12.8775,118.008,-58.9053,-5.28605,-47.5396,7.12502,20.5186,-76.4753,-4.80065e-14,-2.14687e-14,30.7105,23.302,-5.57055,33.4635,54.7261,-21.9679,-24.2643,7.12502,4.43979,5.66919,-10.1471,-0.0955473,-4.00983,27.6703,-1.00886,-20.7698,-19.4731,-20.3908,1.76884,-33.2861,14.0563,-10.7036,-6.23699,15.9493
-0.434324,17.5264,4.57249,5.73948,-63.7085,13.6669,-9.96679,-0.913943,6.83972,-10.7267,-2.05179,-0.843075,-6.04361,-1.73411,-4.78958,-8.01002,15.2427,7.96955,21.6946,20.1953,-1.69416,9.10836,9.93219,0.388028,4.82053e-14,1.59028e-15,4.92345,-22.5152,12.4932,117.843,-58.8913,-4.28105,-45.739,7.12502,21.484,-74.5676,4.82053e-14,1.59028e-15,30.7419,23.1758,-5.70285,33.6053,54.5614,-22.0933,-28.4254,7.12502,4.31865,1.51056,-10.1062,0.000233518,-3.91784,27.735,-1.62945,-20.5369,-18.614,-20.4532,1.76448,-33.18,14.2501,-10.738,-6.20266,16.0474
-0.422547,17.5253,4.56035,5.68705,-63.745,13.5855,-9.82621,-0.834857,6.99049,-10.6407,-1.94089,-0.90149,-6.02309,-1.68466,-4.93038,-8.0448,15.16,7.83016,21.816,20.0865,-1.62426,9.12778,9.87424,0.419894,2.34566e-14,-2.14687e-14,4.8829,-22.5465,12.3245,117.798,-59.0627,-2.09307,-42.6087,7.12502,23.5841,-71.1824,2.34566e-14,-2.14687e-14,30.678,22.9051,-5.80609,33.6641,54.8723,-23.0553,-27.5172,7.12502,3.38969,2.43562,-10.0485,0.271707,-3.9267,27.8148,-4.39772,-20.0533,-11.6084,-20.4891,1.62016,-33.0652,14.4522,-10.7916,-6.05637,16.4851
-0.409985,17.5233,4.54729,5.53407,-63.688,13.6552,-9.69654,-0.872044,7.01725,-10.5957,-1.97906,-0.909013,-6.05294,-1.70346,-4.95177,-8.08599,15.1378,7.91877,22.075,20.0819,-1.76159,9.25091,9.85602,0.382299,-3.40916e-14,9.54166e-15,5.14104,-22.5469,11.9764,117.855,-59.0644,-2.34498,-43.0024,7.12502,23.3425,-71.607,-3.40916e-14,9.54166e-15,30.5229,22.8831,-5.81404,33.7632,55.0883,-22.1929,-23.4734,7.12502,4.2225,6.46449,-9.99902,0.29118,-4.00992,27.9023,-6.79322,-19.4438,-4.17588,-20.5666,1.4713,-33.0335,14.6715,-10.8033,-6.03509,17.4744
-0.39721,17.5209,4.53192,5.68268,-63.4637,13.4172,-9.58534,-0.932158,7.11994,-10.5487,-2.05073,-0.872391,-6.07805,-1.74183,-4.97038,-8.10466,15.1248,7.77696,22.2676,20.0808,-1.70883,9.29968,9.84457,0.425576,4.16454e-14,1.51076e-14,5.42359,-22.5437,11.6341,117.744,-58.9362,-0.780996,-42.0326,7.12502,24.8421,-70.4388,4.16454e-14,1.51076e-14,30.3742,22.7083,-5.83704,33.8476,55.052,-20.9479,-21.8936,7.12502,5.42469,8.01696,-9.93964,0.0677009,-3.88118,27.9964,-6.54159,-19.4182,-5.19348,-20.6479,1.15279,-32.8376,14.8669,-10.7555,-5.98865,18.7407
-0.383936,17.5186,4.51518,5.86121,-63.2305,13.1665,-9.4647,-0.92347,7.16847,-10.4981,-2.02641,-0.849322,-6.08756,-1.72762,-4.96974,-8.06013,15.0416,7.53808,22.2522,19.9977,-1.68479,9.25237,9.79193,0.445327,6.75868e-15,-7.95139e-16,5.50665,-22.6209,11.5203,117.52,-59.1423,-3.35139,-44.397,7.12502,22.3767,-73.121,6.75868e-15,-7.95139e-16,30.3312,22.2606,-5.87971,33.8476,54.9501,-21.6942,-19.4902,7.12502,4.70409,10.4375,-9.87547,0.0946129,-3.75397,28.0909,-6.74572,-19.2303,-4.74976,-20.7514,0.770522,-32.6244,15.0861,-10.7616,-5.85501,19.5153
-0.371499,17.5153,4.50523,5.88259,-63.1346,13.1163,-9.429,-0.882466,7.23592,-10.4123,-1.97091,-0.922778,-6.01257,-1.6994,-5.0854,-7.93243,14.9807,7.50905,22.0735,19.9374,-1.7834,9.17189,9.75878,0.391022,7.27552e-14,4.77083e-15,5.52407,-22.6666,11.294,117.435,-59.323,-3.96742,-45.1575,7.12502,21.7852,-73.9514,7.27552e-14,4.77083e-15,30.614,22.4831,-5.5527,33.884,54.6508,-22.3766,-18.0228,7.12502,4.04511,11.9185,-9.88171,0.150438,-3.77232,28.1901,-6.80241,-18.905,-4.49688,-20.8592,0.35465,-32.5138,15.3219,-10.8676,-5.49873,19.4075
-0.359129,17.513,4.50047,5.88204,-63.1025,13.093,-9.49208,-0.818782,7.44184,-10.2941,-1.90235,-1.03979,-5.85549,-1.67186,-5.32896,-7.8126,14.945,7.54021,21.9348,19.9055,-1.88987,9.11592,9.74112,0.333635,-2.61402e-14,2.62396e-14,5.53213,-22.6602,10.9745,117.337,-58.9354,-2.8104,-43.5399,7.12502,22.8959,-72.2005,-2.61402e-14,2.62396e-14,31.1117,23.409,-4.79545,34.1123,54.3079,-21.5468,-16.4679,7.12502,4.84634,13.4566,-9.95491,0.0526693,-3.80433,28.3242,-6.09313,-18.8881,-7.11562,-20.9732,0.381748,-32.5344,15.505,-11.0488,-5.41196,18.6271
-0.345525,17.511,4.49171,5.85122,-63.0181,13.0998,-9.51579,-0.772286,7.57431,-10.2196,-1.84743,-1.07236,-5.76136,-1.64644,-5.43912,-7.70989,14.8783,7.40104,21.8668,19.8554,-1.9763,9.06544,9.70249,0.305091,4.92986e-14,1.66979e-14,5.64872,-22.6158,10.7337,117.486,-59.4488,-3.64478,-44.3533,7.12502,22.095,-73.1109,4.92986e-14,1.66979e-14,30.2471,21.9503,-5.86991,34.3916,55.1509,-22.9873,-20.4834,7.12502,3.45534,9.46833,-10.0467,-0.0162021,-3.8093,28.5123,-5.44846,-19.0342,-9.76458,-21.0995,0.702944,-32.6389,15.652,-11.2796,-5.61407,17.2549
-0.3283,17.5088,4.47491,5.84391,-62.8365,13.0627,-9.39063,-0.793828,7.52547,-10.1702,-1.85715,-1.01718,-5.77236,-1.64162,-5.35034,-7.70337,14.8097,7.20713,21.9014,19.8029,-2.02804,9.05781,9.65745,0.306474,2.94201e-14,1.51076e-14,5.87917,-22.5516,10.5179,117.361,-59.087,-2.54026,-43.1927,7.12502,23.1551,-71.8211,2.94201e-14,1.51076e-14,30.0494,21.6356,-5.88807,34.5902,55.3394,-22.7661,-19.8642,7.12502,3.66901,10.084,-10.1219,-0.047526,-3.76915,28.7411,-5.89451,-18.9203,-8.42246,-21.2059,0.7004,-32.6231,15.779,-11.3934,-5.72363,16.3413
-0.307892,17.5076,4.45657,5.7945,-62.5597,13.1031,-9.23324,-0.830788,7.37858,-10.1277,-1.88035,-0.988353,-5.80636,-1.63906,-5.2338,-7.72241,14.7317,7.28552,21.9653,19.7526,-2.32193,9.12207,9.60695,0.204449,7.74266e-14,5.56597e-15,5.92869,-22.2718,10.5057,117.572,-58.5191,-2.59664,-43.4083,7.12502,23.101,-72.0435,7.74266e-14,5.56597e-15,30.618,22.4165,-4.82817,34.6221,54.5588,-22.2898,-19.8526,7.12502,4.12891,10.0872,-10.1864,-0.113777,-3.76787,28.9747,-6.7106,-18.7057,-5.53833,-21.3403,0.553295,-32.6008,15.8799,-11.2843,-5.98992,17.0915
-0.292496,17.5031,4.4493,5.65995,-62.399,13.2302,-9.16425,-0.83677,7.32506,-10.087,-1.87723,-0.993869,-5.79652,-1.63048,-5.20833,-7.63145,14.6911,7.51802,21.9857,19.7679,-2.75485,9.18749,9.58785,0.0378194,-4.64162e-14,-2.94201e-14,5.98462,-22.0096,10.435,117.8,-58.438,-3.47691,-44.3113,7.12502,22.2562,-73.0498,-4.64162e-14,-2.94201e-14,30.9564,22.893,-4.06449,34.5829,54.1029,-21.9611,-21.6697,7.12502,4.44632,8.26364,-10.2271,-0.27873,-3.85904,29.1653,-6.50553,-18.622,-5.72072,-21.4072,0.323206,-32.6246,16.0053,-11.2354,-5.98984,18.2352
-0.281213,17.498,4.44619,5.72514,-62.3291,13.0295,-9.11443,-0.846804,7.51788,-10.0021,-1.89148,-0.957016,-5.74316,-1.64141,-5.27853,-7.50224,14.6899,7.58631,22.0463,19.8261,-3.01274,9.22506,9.59429,-0.0509783,-4.23411e-14,-3.18055e-15,6.33577,-21.8742,10.027,117.712,-58.3628,-3.58744,-44.2517,7.12502,22.1501,-73.0028,-4.23411e-14,-3.18055e-15,30.8415,22.9117,-3.92112,34.6161,54.1762,-21.6303,-22.1579,7.12502,4.76578,7.76849,-10.1871,-0.438495,-3.80725,29.3104,-6.34284,-18.5031,-5.6823,-21.356,-0.100911,-32.4499,16.1657,-11.3446,-5.49877,18.3123
-0.269424,17.4983,4.43505,5.97018,-62.157,12.6439,-9.0694,-0.892313,7.69913,-9.92064,-1.95141,-0.882722,-5.69559,-1.67301,-5.30369,-7.40002,14.6775,7.5842,22.1738,19.8516,-3.14543,9.26748,9.5904,-0.0919485,-8.84592e-15,2.78299e-14,6.7658,-21.8379,9.62634,117.507,-58.3563,-3.87067,-44.5205,7.12502,21.8781,-73.3036,-8.84592e-15,2.78299e-14,30.7639,22.7871,-3.87282,34.717,53.9376,-21.6685,-22.213,7.12502,4.72883,7.71418,-10.1352,-0.596743,-3.60293,29.4208,-5.99379,-18.5077,-6.69339,-21.3822,-0.5911,-32.1282,16.3438,-11.4214,-5.1302,17.5439
-0.25918,17.4999,4.4203,6.04984,-62.0021,12.5312,-9.04088,-0.850156,7.61179,-9.82642,-1.88563,-0.92299,-5.59435,-1.62575,-5.29689,-7.62373,14.5988,7.76421,22.4768,19.7256,-3.18066,9.43085,9.52652,-0.110941,1.88845e-14,-1.59028e-14,6.66437,-21.8976,9.56636,117.315,-58.4975,-4.07851,-45.0267,7.12502,21.6786,-73.833,1.88845e-14,-1.59028e-14,31.0125,22.4535,-3.87547,34.7232,53.9947,-22.0706,-24.7743,7.12502,4.34062,5.16121,-10.1691,-0.740056,-3.5082,29.5514,-5.40875,-18.541,-8.66209,-21.4984,-0.851703,-31.9568,16.5023,-11.4167,-5.20721,17.0027
-0.25088,17.4984,4.40931,5.90738,-61.9728,12.5747,-8.97416,-0.704908,7.47322,-9.67625,-1.67726,-1.04204,-5.43203,-1.50114,-5.34055,-7.91157,14.44,7.94885,22.6774,19.4827,-3.24588,9.56688,9.4076,-0.155808,3.63776e-14,-1.98785e-14,6.2368,-21.8384,9.62776,117.269,-58.4002,-4.32228,-45.5158,7.12502,21.4445,-74.3489,3.63776e-14,-1.98785e-14,31.4053,22.227,-3.66737,34.7685,54.3216,-22.0057,-25.0166,7.12502,4.4033,4.91765,-10.2032,-0.644722,-3.50835,29.7822,-5.29369,-18.5578,-9.77529,-21.4699,-0.923623,-31.9343,16.5901,-11.4214,-5.27251,16.6198
-0.241786,17.4942,4.39668,5.5003,-61.9705,12.878,-8.88429,-0.736736,7.23237,-9.61518,-1.69574,-0.982166,-5.40172,-1.48734,-5.14033,-7.67173,14.3864,7.77727,22.5453,19.4933,-3.46685,9.48272,9.38593,-0.22781,1.02374e-14,2.38542e-15,6.60367,-21.6614,9.2682,117.24,-58.1777,-3.8566,-45.3491,7.12502,21.8917,-74.1306,1.02374e-14,2.38542e-15,31.2619,22.2882,-3.27907,35.0015,54.1078,-21.7773,-23.158,7.12502,4.62381,6.77151,-10.2494,-0.528985,-3.64955,30.0673,-5.18681,-18.6138,-11.3203,-21.4153,-0.835147,-32.0973,16.689,-11.4236,-5.34721,16.2978
-0.227018,17.4909,4.37476,5.0447,-61.8655,13.4192,-8.77142,-0.804938,6.77748,-9.66375,-1.7554,-0.968948,-5.50026,-1.49316,-4.86768,-8.09219,14.2356,7.43473,23.2321,19.2597,-3.09544,9.71018,9.25701,-0.0395791,1.30204e-14,1.27222e-14,6.91749,-21.4324,8.95263,117.217,-58.0395,-3.54673,-45.2004,7.12502,22.1892,-73.9468,1.30204e-14,1.27222e-14,31.2225,22.156,-2.98979,35.2347,53.7241,-22.0333,-20.8646,7.12502,4.37659,9.07014,-10.4475,-0.647542,-3.87686,30.3674,-4.79072,-18.7186,-12.7196,-21.6025,-0.295758,-32.4851,16.8416,-11.3232,-5.94918,17.0979
-0.215533,17.4834,4.37384,4.8853,-61.9234,13.4789,-8.69636,-0.742645,6.88786,-9.61294,-1.67167,-1.02846,-5.48336,-1.45673,-4.98956,-8.44143,14.2026,7.32879,23.9563,19.1845,-2.82507,9.98812,9.20992,0.106169,8.84592e-15,-8.74653e-15,7.05526,-21.1306,8.69544,117.361,-57.9633,-3.90026,-45.2891,7.12502,21.8497,-74.0755,8.84592e-15,-8.74653e-15,31.2362,21.7997,-2.93298,35.3616,53.4442,-22.2445,-20.1931,7.12502,4.17272,9.74575,-10.5629,-0.668293,-3.94759,30.6269,-4.26475,-18.6871,-13.8088,-21.6649,-0.153143,-32.6169,17.0447,-11.3255,-5.86088,18.2547
-0.201755,17.4807,4.37023,5.02102,-61.9037,13.138,-8.55286,-0.676388,7.23053,-9.49008,-1.58607,-1.11715,-5.43902,-1.42958,-5.27332,-8.2423,14.1543,7.6767,23.8211,19.1748,-3.28347,9.99143,9.19204,-0.107096,-2.84262e-14,-1.98785e-14,6.971,-20.9533,8.42549,117.488,-57.968,-2.00224,-43.5187,7.12502,23.6712,-72.0813,-2.84262e-14,-1.98785e-14,31.603,22.0544,-2.59177,35.5428,53.3591,-21.4801,-21.6966,7.12502,4.91076,8.22649,-10.567,-0.577157,-3.76332,30.853,-4.32646,-18.7105,-13.6927,-21.6979,-0.0566486,-32.469,17.2716,-11.3992,-5.99532,18.3578
-0.188585,17.4797,4.361,5.25902,-61.8201,12.7797,-8.45478,-0.649103,7.40099,-9.40458,-1.54609,-1.12426,-5.40379,-1.41346,-5.37513,-8.08102,14.0845,7.98933,23.6843,19.1437,-3.75695,9.99726,9.15953,-0.321086,3.19049e-14,1.51076e-14,6.92037,-20.8952,8.27034,117.477,-57.9639,-4.4102,-45.3034,7.12502,21.36,-74.1461,3.19049e-14,1.51076e-14,31.2129,21.0682,-3.32235,35.6947,53.9406,-22.3231,-25.0946,7.12502,4.09682,4.84574,-10.5985,-0.522243,-3.51182,31.0075,-4.07604,-18.9389,-14.7479,-21.8282,-0.0662827,-32.2148,17.5485,-11.4729,-6.30565,18.1502
-0.178709,17.4774,4.35035,5.24858,-61.8333,12.7772,-8.43439,-0.566036,7.26979,-9.36712,-1.4251,-1.10679,-5.34816,-1.33912,-5.27911,-8.21078,13.9942,8.01579,24.0004,19.047,-3.84951,10.1423,9.09275,-0.346912,2.23633e-14,-1.03368e-14,6.9968,-20.5094,7.97672,117.447,-57.5736,-5.01574,-45.4734,7.12502,20.7783,-74.3809,2.23633e-14,-1.03368e-14,31.1929,20.5154,-3.49841,35.8791,54.41,-22.4549,-18.2986,7.12502,3.96946,11.6441,-10.7375,-0.585929,-3.44431,31.1535,-2.62482,-19.1241,-18.9447,-21.9832,-0.0984514,-32.145,17.789,-11.587,-6.35883,17.9322
-0.17102,17.4747,4.34206,5.25932,-61.8285,12.7351,-8.48726,-0.47715,7.22125,-9.29667,-1.30647,-1.11073,-5.22172,-1.268,-5.25463,-8.26559,13.9128,7.92787,24.215,18.9556,-3.84879,10.2147,9.03454,-0.337217,-1.25234e-14,1.66979e-14,6.81336,-20.385,8.04895,117.723,-57.8761,-5.23963,-45.7858,7.12502,20.5632,-74.7167,-1.25234e-14,1.66979e-14,31.6318,20.644,-2.95504,35.9193,54.0972,-21.9736,-25.6133,7.12502,4.43424,4.32027,-10.8503,-0.71624,-3.38396,31.3261,-1.45121,-19.1549,-22.1173,-22.0724,-0.277005,-32.0706,17.9722,-11.702,-6.14155,17.4729
-0.160014,17.4735,4.33334,5.47621,-61.688,12.4652,-8.55123,-0.49118,7.37,-9.20655,-1.33468,-1.09666,-5.09905,-1.28116,-5.32748,-8.40081,13.864,7.8122,24.5282,18.8934,-3.76276,10.3279,8.99065,-0.282203,4.87022e-15,-7.15625e-15,6.95859,-20.2395,7.73911,117.82,-58.031,-4.95538,-45.5685,7.12502,20.8363,-74.4696,4.87022e-15,-7.15625e-15,31.8763,20.9194,-2.55891,35.9211,53.8338,-22.0665,-27.1688,7.12502,4.34457,2.76662,-10.9142,-0.848879,-3.20478,31.5246,-1.65118,-19.2522,-21.8717,-22.1529,-0.773753,-31.8299,18.1249,-11.7002,-5.76604,17.4784
-0.147095,17.4709,4.32582,5.61262,-61.5668,12.3223,-8.64015,-0.459632,7.55359,-9.11996,-1.30944,-1.17724,-4.9636,-1.27278,-5.5196,-8.76763,13.7474,7.67756,25.061,18.682,-3.46517,10.5313,8.88672,-0.151302,3.83654e-14,2.70347e-14,6.97037,-20.0596,7.42276,117.769,-57.9531,-4.31931,-44.8004,7.12502,21.4473,-73.6332,3.83654e-14,2.70347e-14,32.0169,20.9295,-2.62187,36.0214,54.2656,-22.254,-25.9197,7.12502,4.16353,4.01941,-11.0476,-0.994411,-3.10514,31.7521,-2.25213,-19.3169,-20.5528,-22.3016,-1.2298,-31.6943,18.2924,-11.6887,-5.31157,18.1941
-0.137791,17.4676,4.32144,5.60804,-61.6057,12.3373,-8.72947,-0.343096,7.59256,-9.05121,-1.16437,-1.25585,-4.82103,-1.19594,-5.62303,-9.01193,13.5944,7.53322,25.4039,18.4386,-3.25502,10.6503,8.76828,-0.0684873,-1.31198e-14,2.3059e-14,6.83593,-19.8869,7.27478,117.674,-57.8313,-4.53774,-44.398,7.12502,21.2375,-73.2545,-1.31198e-14,2.3059e-14,32.1304,20.6693,-2.68884,36.0952,54.6181,-22.2207,-25.0288,7.12502,4.19564,4.90967,-11.2654,-1.15302,-3.11561,32.0032,-2.4011,-19.3369,-20.1531,-22.4696,-1.31019,-31.7258,18.4964,-11.7326,-5.06243,19.6447
-0.129506,17.4625,4.31511,5.49825,-61.692,12.4158,-8.70248,-0.329097,7.43369,-9.04239,-1.13251,-1.16791,-4.81108,-1.16628,-5.43779,-9.0159,13.5585,7.31983,25.6734,18.4288,-3.20869,10.7223,8.74021,-0.0174313,9.13416e-14,3.49861e-14,7.16255,-19.6831,6.94574,117.493,-57.6863,-5.17042,-44.545,7.12502,20.6297,-73.4687,9.13416e-14,3.49861e-14,31.7832,20.1599,-2.90906,36.1371,55.0252,-22.5006,-22.234,7.12502,3.92541,7.70956,-11.4543,-1.21342,-3.15336,32.2825,-2.69181,-19.345,-19.4747,-22.5698,-1.31353,-31.7553,18.7112,-11.9037,-4.94312,19.7548
-0.118661,17.4556,4.31024,5.47592,-61.6787,12.3242,-8.56419,-0.407362,7.37464,-9.05482,-1.21729,-1.01077,-4.90625,-1.20311,-5.23746,-8.85522,13.5777,6.85774,25.8502,18.5001,-3.00093,10.6885,8.75286,0.11478,-1.20265e-14,-1.59028e-15,7.80565,-19.4436,6.37999,117.397,-57.593,-4.96316,-44.7136,7.12502,20.8288,-73.6156,-1.20265e-14,-1.59028e-15,31.2855,19.7525,-3.15749,36.276,55.5089,-21.9972,-20.3839,7.12502,4.4115,9.55016,-11.542,-1.16056,-3.09385,32.5772,-3.36053,-19.413,-18.1055,-22.6059,-1.69086,-31.6014,18.9567,-12.1212,-4.6018,18.7448
-0.104854,17.4487,4.30721,5.36823,-61.6016,12.2773,-8.36956,-0.43687,7.35474,-9.01536,-1.23536,-0.960107,-4.97174,-1.20813,-5.16963,-8.77259,13.5316,6.43561,25.9586,18.4454,-2.73378,10.6347,8.719,0.246611,1.21259e-14,-1.82882e-14,8.16704,-19.1969,5.89227,117.343,-57.5519,-3.73674,-44.3071,7.12502,22.0067,-73.0752,1.21259e-14,-1.82882e-14,31.1928,19.579,-3.08997,36.4002,55.6335,-21.4651,-22.648,7.12502,4.92527,7.27473,-11.574,-1.19365,-3.06077,32.8857,-3.1218,-19.5216,-19.1784,-22.626,-2.04634,-31.4851,19.2277,-12.1639,-4.47303,19.3511
-0.0913428,17.4414,4.30193,5.3242,-61.5464,12.2251,-8.27671,-0.398342,7.33558,-8.93337,-1.17337,-0.992452,-4.92549,-1.17009,-5.19053,-8.96298,13.4813,6.32883,26.2613,18.3402,-2.50879,10.7418,8.67143,0.346119,-6.85807e-15,-3.18055e-15,8.18477,-18.9038,5.56629,117.228,-57.4275,-3.36054,-43.9387,7.12502,22.3679,-72.6638,-6.85807e-15,-3.18055e-15,31.3248,19.3126,-3.04537,36.4441,55.5644,-22.1043,-25.0128,7.12502,4.30803,4.92343,-11.6863,-1.25789,-3.01452,33.2326,-2.90912,-19.5887,-20.1837,-22.7154,-1.92947,-31.4691,19.464,-12.1101,-4.84177,20.607
-0.0822846,17.4345,4.29931,5.33998,-61.5506,12.1515,-8.28927,-0.345519,7.31906,-8.84845,-1.1018,-1.01423,-4.81576,-1.12516,-5.2034,-9.17809,13.4378,6.34,26.5641,18.2498,-2.38644,10.8795,8.62888,0.400921,-5.02925e-14,4.77083e-15,8.09397,-18.6599,5.41245,117.355,-57.4456,-4.21522,-43.8705,7.12502,21.5473,-72.6919,-5.02925e-14,4.77083e-15,31.3495,18.9183,-3.12989,36.5177,55.4232,-22.6821,-25.5813,7.12502,3.75005,4.36548,-11.8741,-1.38225,-2.97897,33.5899,-2.3699,-19.5724,-21.454,-22.8251,-1.7756,-31.4694,19.6822,-12.1551,-5.05264,20.898
-0.0716462,17.4331,4.28428,5.1835,-61.4966,12.3139,-8.20267,-0.378953,7.06401,-8.81593,-1.1268,-1.03907,-4.82211,-1.1219,-5.08537,-9.33393,13.3513,6.50817,26.846,18.1459,-2.54403,11.0461,8.56252,0.334221,-1.32192e-14,-3.18055e-15,8.06576,-18.5657,5.2534,117.572,-57.6328,-4.64449,-43.7361,7.12502,21.135,-72.6041,-1.32192e-14,-3.18055e-15,31.3914,18.6943,-3.11732,36.5889,55.2376,-22.9365,-24.1693,7.12502,3.50439,5.78162,-12.1181,-1.65979,-3.01021,33.9482,-1.11964,-19.5356,-24.3839,-23.0009,-1.44028,-31.6094,19.921,-12.2445,-5.31688,21.2517
-0.0647146,17.4271,4.27691,4.92293,-61.4999,12.4968,-8.14815,-0.390091,6.98767,-8.73475,-1.13505,-1.14766,-4.7661,-1.11907,-5.15776,-9.51144,13.2774,6.91364,27.2158,18.0739,-2.89999,11.3011,8.50426,0.177745,-2.41523e-14,-3.18055e-14,8.11587,-18.4412,4.90351,117.526,-57.5776,-4.58981,-43.7639,7.12502,21.1875,-72.626,-2.41523e-14,-3.18055e-14,31.5931,18.7774,-3.01122,36.6653,55.2693,-23.0132,-18.329,7.12502,3.4303,11.6232,-12.2275,-1.77446,-3.10865,34.2464,-1.39802,-19.5152,-24.0183,-23.0921,-1.20384,-31.791,20.1971,-12.3858,-5.32623,21.7582
-0.0595253,17.418,4.27497,4.68299,-61.5026,12.6248,-8.12037,-0.351547,7.00451,-8.66434,-1.08247,-1.22319,-4.70093,-1.09,-5.24606,-9.64679,13.2287,7.13038,27.5845,18.0426,-3.12907,11.5171,8.46385,0.0896508,-3.27001e-14,7.15625e-15,8.14733,-18.1736,4.65051,117.441,-57.4758,-4.74349,-44.2785,7.12502,21.0399,-73.1572,-3.27001e-14,7.15625e-15,31.7329,18.7386,-2.93551,36.8314,55.4716,-21.245,-23.1032,7.12502,5.13782,6.81452,-12.222,-1.61591,-3.19291,34.4926,-2.54391,-19.5699,-21.4705,-23.1556,-0.989478,-31.9514,20.5066,-12.5654,-5.41984,21.5036
-0.0522401,17.4122,4.27549,4.79185,-61.4518,12.3129,-8.03523,-0.297869,7.23621,-8.59364,-1.01073,-1.18314,-4.66975,-1.05986,-5.33163,-9.66638,13.1617,6.93999,27.8263,18.0093,-3.16938,11.5964,8.41473,0.10524,-1.22253e-14,-1.59028e-14,8.19271,-17.9114,4.59808,117.476,-57.6996,-4.94356,-44.5069,7.12502,20.8476,-73.4068,-1.22253e-14,-1.59028e-14,31.8236,18.6476,-2.69079,36.9656,55.4085,-20.4847,-24.7595,7.12502,5.87186,5.13918,-12.1446,-1.27976,-3.00456,34.7025,-3.01395,-19.7929,-20.395,-23.1857,-1.20241,-31.7512,20.8853,-12.8148,-5.27078,20.4603
-0.0438134,17.4052,4.27666,4.94114,-61.4146,11.938,-7.9453,-0.299825,7.45968,-8.46043,-1.01135,-1.13663,-4.58402,-1.05991,-5.40883,-9.66495,13.163,6.79519,27.9426,18.0597,-3.21518,11.6335,8.41213,0.120123,-4.11484e-14,-1.35174e-14,8.32974,-17.7149,4.35198,117.47,-57.783,-4.54192,-43.8183,7.12502,21.2335,-72.6753,-4.11484e-14,-1.35174e-14,31.9151,18.9115,-2.41838,37.0677,55.4735,-21.0477,-27.7162,7.12502,5.32826,2.19684,-12.0881,-1.05266,-2.78453,34.9142,-2.91031,-19.9892,-20.6903,-23.1953,-1.54292,-31.4451,21.2723,-13.0248,-5.09051,19.1834
-0.0349468,17.3923,4.27313,4.87123,-61.452,11.8373,-7.87262,-0.311767,7.49576,-8.31225,-1.01989,-1.13574,-4.46746,-1.05334,-5.42917,-9.73391,13.1889,6.88489,28.0492,18.1196,-3.34243,11.7167,8.42503,0.0827787,6.06293e-14,2.46493e-14,8.49958,-17.4984,3.95739,117.48,-57.5519,-4.40418,-43.4519,7.12502,21.3658,-72.294,6.06293e-14,2.46493e-14,31.7748,18.8999,-2.73159,37.2612,56.0656,-20.9857,-31.2717,7.12502,5.38814,-1.3602,-12.1291,-0.951229,-2.73022,35.1515,-2.67034,-20.0678,-21.4075,-23.2298,-1.58636,-31.3387,21.5871,-13.1395,-5.14259,18.9749
-0.026265,17.382,4.26755,4.91688,-61.4998,11.6892,-7.83649,-0.236395,7.57054,-8.23294,-0.918638,-1.16367,-4.39035,-0.999875,-5.49807,-9.81981,13.1178,6.81985,28.2388,18.01,-3.25252,11.784,8.37008,0.117946,-8.44835e-15,2.14687e-14,8.48625,-17.2555,3.78531,117.496,-57.3582,-5.18979,-44.1788,7.12502,20.6111,-73.1045,-8.44835e-15,2.14687e-14,31.7393,18.5764,-3.04317,37.4527,56.4143,-20.9725,-30.0656,7.12502,5.40087,-0.154458,-12.2659,-0.857294,-2.65791,35.433,-3.0806,-20.0447,-20.5952,-23.3008,-1.77817,-31.1942,21.7938,-13.1707,-4.99957,19.7828
-0.019879,17.3768,4.26643,4.81694,-61.5267,11.7386,-7.8279,-0.250745,7.59062,-8.22101,-0.938322,-1.17947,-4.38662,-1.01062,-5.52689,-9.69809,13.1343,6.70497,28.4568,18.034,-3.12519,11.8202,8.37863,0.17838,-5.85421e-14,-4.29375e-14,8.82871,-17.0162,3.36151,117.218,-57.1089,-5.31148,-44.3242,7.12502,20.4941,-73.2625,-5.85421e-14,-4.29375e-14,31.5577,18.3609,-3.15481,37.6374,56.3318,-21.8515,-24.2124,7.12502,4.5522,5.71872,-12.4054,-0.788224,-2.70085,35.7411,-3.62524,-19.9783,-19.582,-23.3198,-2.23372,-31.1276,21.9185,-13.2094,-4.55072,19.8732
-0.0128967,17.3727,4.26775,4.46958,-61.5362,12.0461,-7.77128,-0.25586,7.43638,-8.16969,-0.935343,-1.2915,-4.35952,-1.0007,-5.55806,-9.73091,13.1175,7.13863,28.7281,18.0312,-3.4444,12.0191,8.367,0.0208607,5.46658e-14,-2.38542e-15,9.04994,-16.8475,2.85756,116.889,-56.8488,-4.51462,-43.3758,7.12502,21.2597,-72.2299,5.46658e-14,-2.38542e-15,31.6002,18.2301,-3.15413,37.7306,56.2879,-21.8395,-22.0393,7.12502,4.56371,7.89157,-12.5226,-0.887273,-2.87263,36.0319,-2.7192,-20.0148,-22.337,-23.2901,-2.55686,-31.2419,22.0135,-13.3055,-4.24108,19.2353
-0.00428372,17.3669,4.26794,4.18378,-61.5263,12.2971,-7.7263,-0.192305,7.25256,-8.10411,-0.838318,-1.3485,-4.29357,-0.937767,-5.51101,-9.77501,13.012,7.35722,28.8924,17.9465,-3.7892,12.152,8.29908,-0.134406,0,3.97569e-15,9.05382,-16.7051,2.63396,116.777,-56.6915,-4.13966,-43.0617,7.12502,21.6198,-71.8748,0,3.97569e-15,31.7674,18.0658,-2.99847,37.7838,56.4006,-21.2633,-25.2722,7.12502,5.12008,4.6459,-12.6254,-1.15769,-3.03739,36.2843,-2.04813,-19.8745,-24.0799,-23.2917,-2.64543,-31.3716,22.1107,-13.3409,-4.22751,19.3332
0.0022041,17.3607,4.26711,4.0436,-61.5472,12.3355,-7.67701,-0.135223,7.15559,-8.01291,-0.750645,-1.31279,-4.20528,-0.878974,-5.41522,-9.77434,12.9231,7.21045,28.9463,17.8874,-3.90905,12.1666,8.24028,-0.165084,-1.97791e-14,-7.15625e-15,9.12688,-16.6514,2.40911,116.61,-56.6276,-4.27689,-43.5157,7.12502,21.488,-72.3438,-1.97791e-14,-7.15625e-15,31.8584,18.0663,-2.80669,37.9379,56.5695,-21.3456,-26.0327,7.12502,5.04068,3.88735,-12.6503,-1.12913,-3.07378,36.4926,-2.1978,-19.8541,-23.8946,-23.2918,-2.60018,-31.4175,22.2486,-13.2725,-4.31166,20.9061
0.00382841,17.3577,4.26651,4.04498,-61.5897,12.1877,-7.60229,-0.113646,7.19705,-7.94596,-0.715624,-1.29529,-4.17079,-0.857779,-5.41854,-9.82592,12.8596,7.15454,29.1719,17.8412,-3.98557,12.2672,8.19195,-0.182073,-8.05078e-15,-1.66979e-14,9.21896,-16.4769,2.07762,116.531,-56.6587,-4.41818,-43.7695,7.12502,21.3523,-72.6131,-8.05078e-15,-1.66979e-14,31.7916,17.9023,-2.89984,38.1522,56.7681,-21.1423,-28.0036,7.12502,5.237,1.9117,-12.6262,-0.805125,-2.95905,36.6605,-1.67864,-20.0839,-25.768,-23.2962,-2.39827,-31.4284,22.4495,-13.3409,-4.33278,21.6303
0.00393118,17.3543,4.26774,4.10299,-61.603,11.982,-7.53247,-0.0682666,7.36843,-7.90688,-0.656857,-1.34227,-4.16579,-0.835866,-5.56297,-9.92913,12.8047,7.09351,29.5586,17.7672,-3.89985,12.4232,8.14253,-0.137305,2.33075e-14,1.98785e-14,9.13266,-16.1084,1.83761,116.701,-56.6765,-4.01342,-43.4621,7.12502,21.7411,-72.2612,2.33075e-14,1.98785e-14,31.7373,17.4837,-3.18931,38.3636,57.0635,-20.4944,-29.5015,7.12502,5.86247,0.397431,-12.5657,-0.577516,-2.85017,36.7874,-2.03405,-20.161,-25.3054,-23.2747,-2.07882,-31.4084,22.6395,-13.4938,-4.54247,20.8382
0.00546676,17.3475,4.26774,4.0304,-61.6208,11.9421,-7.4946,0.0080543,7.45037,-7.8571,-0.554904,-1.37438,-4.12107,-0.785129,-5.63993,-9.98474,12.7649,6.85708,29.8455,17.7239,-3.73452,12.5031,8.10505,-0.0413968,5.04913e-14,1.43125e-14,9.06028,-15.7995,1.71552,116.738,-56.6497,-3.35273,-42.9257,7.12502,22.3754,-71.6499,5.04913e-14,1.43125e-14,31.7347,16.9365,-3.40866,38.5003,57.2094,-20.5969,-26.9215,7.12502,5.76358,2.9801,-12.5378,-0.470727,-2.85603,36.916,-2.78735,-20.0745,-23.5067,-23.2555,-1.6124,-31.4299,22.7872,-13.5225,-5.20983,20.4791
0.00766843,17.3446,4.26823,3.80488,-61.6812,12.1176,-7.54365,0.0388487,7.354,-7.74984,-0.5124,-1.37912,-3.9692,-0.747782,-5.58991,-10.0545,12.7602,6.63073,30.0281,17.7536,-3.66912,12.5611,8.09189,0.0279254,-1.41137e-14,-7.95139e-15,9.24253,-15.7317,1.39873,116.53,-56.5099,-3.11282,-42.768,7.12502,22.6057,-71.4643,-1.41137e-14,-7.95139e-15,31.5821,16.5614,-3.56171,38.5814,57.2072,-21.205,-25.6183,7.12502,5.17644,4.29847,-12.5815,-0.43171,-2.96263,37.043,-2.09732,-20.0736,-25.2094,-23.2106,-1.88947,-31.4336,22.8697,-13.5123,-5.02367,20.4885
0.0120232,17.3413,4.26931,3.60829,-61.6833,12.2546,-7.6016,0.0429028,7.33766,-7.60263,-0.510845,-1.45716,-3.78027,-0.733873,-5.66487,-10.1499,12.738,6.46686,30.1296,17.711,-3.52411,12.5842,8.06637,0.105023,8.94531e-14,4.77083e-15,9.38393,-15.6985,0.906454,116.357,-56.3547,-2.98348,-42.6845,7.12502,22.7298,-71.3656,8.94531e-14,4.77083e-15,31.678,16.9273,-3.19578,38.645,57.2426,-21.7859,-23.0383,7.12502,4.61552,6.89138,-12.5956,-0.406047,-3.04065,37.1596,-0.978007,-20.1348,-27.7104,-23.1643,-1.92764,-31.5037,22.9288,-13.4992,-5.02506,20.6017
0.0162104,17.336,4.27178,3.32673,-61.6677,12.4322,-7.5822,0.0561199,7.41374,-7.5164,-0.496113,-1.56793,-3.70112,-0.725742,-5.82547,-10.0648,12.6687,6.2255,30.2004,17.6143,-3.36698,12.5449,8.01624,0.173285,-3.23025e-15,-1.90833e-14,9.43105,-15.4136,0.504901,116.361,-56.4367,-3.51053,-42.8317,7.12502,22.2239,-71.574,-3.23025e-15,-1.90833e-14,32.0139,17.563,-2.23623,38.7233,56.6571,-23.9119,-15.6572,7.12502,2.56243,14.3072,-12.516,-0.310865,-3.15435,37.2417,-0.578297,-20.1209,-28.8835,-23.0466,-1.97064,-31.6011,22.9736,-13.5078,-5.02446,20.8192
0.0197216,17.3328,4.27657,3.01796,-61.702,12.6469,-7.60135,-0.0281754,7.48355,-7.49783,-0.612397,-1.51165,-3.6901,-0.78469,-5.81038,-9.62979,12.7398,5.6546,30.2167,17.8002,-3.22728,12.3944,8.06555,0.296304,-5.66536e-15,8.74653e-15,9.96997,-15.0297,0.041853,116.413,-56.5939,-4.14747,-43.2027,7.12502,21.6123,-72.0166,-5.66536e-15,8.74653e-15,31.763,17.877,-1.64431,39.0264,55.8551,-20.5593,-22.4757,7.12502,5.79985,7.42497,-12.4401,-0.217867,-3.31836,37.3115,-1.00179,-19.847,-28.2665,-22.9376,-1.88109,-31.7812,23.0047,-13.5145,-4.91049,21.0986
0.0223364,17.3333,4.28192,2.73738,-61.7488,12.8913,-7.68894,0.141487,7.41698,-7.3661,-0.391675,-1.68242,-3.4669,-0.660029,-5.94629,-9.69554,12.6547,5.58299,30.3911,17.6367,-3.02662,12.4387,8.00162,0.361968,5.50634e-14,1.90833e-14,9.55437,-14.8647,-0.0297961,116.513,-56.3837,-3.57129,-42.9955,7.12502,22.1656,-71.7447,5.50634e-14,1.90833e-14,32.4237,18.2114,-0.996743,39.3506,55.3688,-19.4529,-24.7036,7.12502,6.86801,5.16498,-12.4324,-0.186998,-3.50245,37.3875,-1.89092,-19.5352,-25.8993,-22.8807,-1.67319,-32.0414,23.0015,-13.5725,-4.66791,20.7644
0.0231824,17.3315,4.28504,2.3729,-61.7967,13.2471,-7.76328,0.200094,7.24032,-7.27098,-0.311299,-1.76512,-3.30804,-0.60312,-5.93082,-9.7938,12.6647,5.66879,30.6495,17.6697,-3.09494,12.5843,8.00093,0.34717,-1.28713e-14,-1.51076e-14,9.48679,-14.5736,-0.236123,116.52,-55.9274,-2.95166,-42.574,7.12502,22.7604,-71.2515,-1.28713e-14,-1.51076e-14,32.6652,18.3163,-0.575005,39.6299,54.9432,-20.3264,-22.4482,7.12502,6.02469,7.44611,-12.459,-0.099806,-3.71504,37.4826,-2.24888,-19.463,-24.9424,-22.8036,-1.67792,-32.2484,22.9777,-13.6535,-4.4811,20.0822
0.0242708,17.3277,4.28535,2.16518,-61.7829,13.4697,-7.8248,0.142843,7.18483,-7.24076,-0.389857,-1.76978,-3.25279,-0.636993,-5.90845,-9.8848,12.762,5.73266,30.9807,17.865,-3.23959,12.7757,8.05483,0.335613,-8.15017e-14,-1.43125e-14,9.84073,-14.3183,-0.724754,116.295,-55.664,-2.56742,-42.2108,7.12502,23.1291,-70.8425,-8.15017e-14,-1.43125e-14,32.3569,18.1291,-0.606857,39.8976,54.9097,-20.9406,-21.0942,7.12502,5.43166,8.81619,-12.5075,9.69275e-06,-3.83041,37.5946,-2.53904,-19.5557,-24.4803,-22.7474,-1.93895,-32.267,22.938,-13.6291,-4.51278,19.6333
0.0254992,17.3218,4.28848,1.91866,-61.7481,13.7307,-7.86507,0.481296,7.10817,-7.10002,0.0573367,-2.23676,-3.01335,-0.404618,-6.33957,-10.5697,12.4856,6.62467,31.5014,17.2846,-3.251,13.2049,7.85349,0.182893,-2.85753e-14,-8.74653e-15,8.65393,-14.3376,-0.758162,116.181,-55.5865,-2.17523,-41.9728,7.12502,23.5053,-70.5567,-2.85753e-14,-8.74653e-15,33.5532,18.0063,-0.25159,39.9224,55.3609,-19.5382,-25.62,7.12502,6.78561,4.25125,-12.5187,0.00512019,-4.00483,37.6991,-3.38081,-19.5158,-22.4343,-22.6886,-2.1133,-32.352,22.9102,-13.557,-4.63054,19.9649
0.0283296,17.3179,4.29031,1.88277,-61.6727,13.7349,-7.73844,1.52432,6.7257,-6.56989,1.47706,-3.38594,-2.27351,0.356292,-7.26004,-13.3083,11.5862,9.08085,32.5151,15.2935,-3.33439,14.3774,7.15312,-0.330361,-1.68222e-14,2.62396e-14,4.38871,-15.0357,0.305833,116.429,-55.5465,-2.7954,-42.2432,7.12502,22.9103,-70.9021,-1.68222e-14,2.62396e-14,37.0683,17.0471,0.0381941,39.028,56.0959,-19.8374,-42.3891,7.12502,6.49679,-12.5088,-12.4877,0.029543,-4.02573,37.769,-3.9519,-19.5572,-21.0019,-22.6814,-2.23066,-32.3359,22.9614,-13.4551,-4.72416,21.009
0.0337386,17.3209,4.28746,2.42799,-61.5283,13.1126,-7.92544,0.254225,7.41856,-7.14477,-0.262618,-1.97419,-3.08378,-0.577008,-6.25419,-9.87786,12.5918,6.20391,31.5377,17.6281,-3.49388,13.079,7.93936,0.156683,-2.18663e-14,-2.38542e-15,9.48908,-13.4696,-1.43495,116.232,-55.5387,-3.53388,-42.5257,7.12502,22.2015,-71.2707,-2.18663e-14,-2.38542e-15,31.4499,15.2342,-2.26375,39.6734,56.9975,-20.3068,-44.6587,7.12502,6.0436,-14.7649,-12.4747,-0.0416169,-3.66659,37.8024,-4.03182,-19.7817,-20.8839,-22.7856,-2.26529,-32.0176,23.0856,-13.364,-4.88734,21.4541
0.0398888,17.3216,4.28777,2.73173,-61.3975,12.736,-7.90505,0.273513,7.60509,-7.07581,-0.242524,-1.94254,-3.02251,-0.567397,-6.32614,-9.95802,12.5605,6.25401,31.6775,17.6599,-3.73745,13.1923,7.91667,0.0762358,-1.50082e-14,1.51076e-14,9.38905,-13.2884,-1.57318,116.307,-55.6329,-3.00298,-42.3052,7.12502,22.7111,-70.9886,-1.50082e-14,1.51076e-14,31.4692,15.195,-2.13287,39.9958,57.0701,-20.6878,-43.2334,7.12502,5.67582,-13.3294,-12.4317,-0.224638,-3.47337,37.8363,-4.21108,-19.8784,-19.9156,-22.8646,-2.08195,-31.942,23.2366,-13.466,-4.88527,20.6271
0.0452377,17.3193,4.29154,2.50059,-61.2344,12.9396,-7.90785,0.261794,7.54582,-7.00441,-0.254756,-1.99936,-2.94646,-0.565554,-6.35367,-9.96376,12.5268,6.08865,31.8352,17.661,-3.7525,13.2441,7.8877,0.0981508,3.10104e-14,2.22639e-14,9.35471,-13.0732,-1.72357,116.368,-55.6476,-2.23894,-42.2173,7.12502,23.4442,-70.809,3.10104e-14,2.22639e-14,31.5912,15.2781,-2.009,40.4316,57.1496,-20.1821,-38.0113,7.12502,6.16402,-8.12094,-12.3199,-0.274687,-3.63021,37.8991,-5.98236,-19.6775,-14.119,-22.8831,-2.00846,-32.1922,23.3823,-13.6852,-4.70548,19.8698
0.0496983,17.316,4.29308,2.26699,-61.0456,13.1124,-7.89894,0.20703,7.49775,-6.92091,-0.324577,-2.09558,-2.87475,-0.593875,-6.43256,-9.89711,12.4653,6.02391,31.8717,17.5893,-3.76841,13.2358,7.84579,0.0847839,-1.68967e-14,-2.22639e-14,9.37686,-12.8033,-2.01769,116.348,-55.5242,-2.39606,-42.5157,7.12502,23.2935,-71.1266,-1.68967e-14,-2.22639e-14,31.7559,15.5311,-1.92741,40.9233,57.2743,-19.5567,-35.8955,7.12502,6.76778,-6.02364,-12.1938,-0.233515,-3.74992,38.0029,-7.19667,-19.4093,-10.5895,-22.8558,-2.00523,-32.34,23.4888,-13.7457,-4.91607,20.5201
0.0541919,17.3104,4.29199,2.0787,-60.9393,13.2136,-7.87728,0.219454,7.531,-6.82361,-0.308294,-2.22827,-2.78366,-0.581511,-6.59248,-9.97812,12.3982,6.22724,31.9952,17.4817,-3.86253,13.3335,7.79987,0.0132852,-3.43897e-14,-5.56597e-15,9.28979,-12.566,-2.30574,116.316,-55.5446,-2.61342,-42.2725,7.12502,23.0849,-70.9097,-3.43897e-14,-5.56597e-15,32.2556,16.2901,-1.35289,41.6259,57.0174,-19.5865,-31.79,7.12502,6.739,-1.91727,-12.1251,-0.183182,-3.79769,38.1303,-6.71926,-19.4076,-12.9245,-22.8074,-1.98333,-32.3822,23.5771,-13.6461,-5.2681,21.2514
0.058937,17.306,4.28959,1.88335,-60.887,13.4134,-7.92404,0.236914,7.52049,-6.81976,-0.288168,-2.23325,-2.75003,-0.569572,-6.59109,-9.9915,12.3899,6.03058,32.306,17.5079,-3.78502,13.4408,7.78252,0.0824809,3.57315e-14,8.74653e-15,9.37224,-12.2077,-2.4447,116.36,-55.7462,-2.63755,-42.0533,7.12502,23.0618,-70.6934,3.57315e-14,8.74653e-15,32.1454,16.18,-1.13467,41.9628,57.1608,-19.3128,-30.4636,7.12502,7.00318,-0.599458,-12.155,-0.166698,-3.91377,38.2553,-7.0641,-19.2263,-11.9307,-22.8549,-1.92967,-32.4956,23.6981,-13.5898,-5.40727,21.2372
0.0644616,17.3049,4.287,1.99761,-60.7836,13.2976,-7.95883,0.278285,7.53619,-6.80904,-0.235452,-2.19889,-2.71017,-0.540362,-6.56084,-10.1503,12.3028,5.82097,32.6975,17.4073,-3.6589,13.5996,7.70621,0.163599,6.09772e-14,-3.18055e-15,9.27795,-11.8513,-2.48556,116.4,-55.5965,-2.89637,-42.509,7.12502,22.8134,-71.1799,6.09772e-14,-3.18055e-15,31.9816,15.6189,-1.2099,41.9392,57.6746,-18.3636,-34.1006,7.12502,7.91944,-4.2689,-12.1845,-0.222337,-3.85066,38.3536,-6.94487,-19.2458,-12.1671,-22.9645,-1.94684,-32.4581,23.8574,-13.6083,-5.48562,21.2575
0.0716475,17.3042,4.28253,2.44678,-60.6578,12.7361,-7.93337,0.353328,7.78196,-6.73351,-0.144087,-2.17515,-2.63363,-0.495612,-6.67137,-10.2901,12.1348,5.64637,32.8625,17.1725,-3.56233,13.6557,7.58405,0.198994,4.78077e-14,2.78299e-14,9.08982,-11.6558,-2.64375,116.274,-55.2331,-3.01552,-42.783,7.12502,22.6991,-71.4679,4.78077e-14,2.78299e-14,32.4075,15.1993,-1.00499,43.5399,53.8978,-25.5927,-16.2604,7.12502,0.939091,13.7173,-12.1534,-0.145525,-3.49952,38.4126,-5.62514,-19.6187,-16.3725,-23.0205,-2.28946,-32.0758,23.9907,-13.5578,-5.47416,21.719
0.0765593,17.2995,4.27952,2.53189,-60.6137,12.5131,-7.91073,0.470186,7.93439,-6.62648,0.00726015,-2.19989,-2.50935,-0.414333,-6.77673,-10.3885,11.969,5.49902,33.01,16.9683,-3.56171,13.7127,7.46753,0.196443,2.48481e-14,6.36111e-15,8.86807,-11.5379,-2.83075,116.192,-55.2277,-2.99566,-42.6551,7.12502,22.7181,-71.3377,2.48481e-14,6.36111e-15,32.8585,15.8541,-0.0435395,43.1398,55.836,-20.4165,-22.1606,7.12502,5.93772,7.73617,-12.0664,0.0659951,-3.35349,38.4714,-5.34969,-19.7536,-17.4209,-23.0212,-2.52305,-31.8816,24.1767,-13.5325,-5.49202,22.5703
0.0744808,17.2895,4.29142,1.74251,-60.6827,13.1986,-7.9497,0.522889,7.70626,-6.51135,0.0872017,-2.26961,-2.34784,-0.354359,-6.71574,-10.3638,11.945,5.36521,33.2543,17.0145,-3.66207,13.8159,7.44518,0.189674,-4.96962e-16,-1.19271e-14,8.93841,-11.3065,-2.97557,116.172,-55.3373,-2.5154,-42.4192,7.12502,23.179,-71.0446,-4.96962e-16,-1.19271e-14,32.7398,15.7075,0.148688,43.2321,56.7188,-19.7927,-23.2519,7.12502,6.53997,6.6271,-11.8583,0.0407075,-3.82953,38.5153,-5.10453,-19.549,-17.6864,-22.8337,-2.42101,-32.3281,24.3597,-13.798,-5.40994,22.0306
0.0848997,17.2885,4.27875,2.10763,-60.5124,12.767,-7.80029,0.430582,7.82893,-6.56376,-0.0280137,-2.11993,-2.50716,-0.422179,-6.6324,-10.1304,12.0106,5.03505,33.4342,17.1795,-3.60417,13.8116,7.48129,0.272654,-7.03698e-14,3.18055e-15,9.17613,-10.9221,-3.12608,116.148,-55.4162,-1.79358,-42.1571,7.12502,23.8714,-70.6936,-7.03698e-14,3.18055e-15,32.2615,15.0569,-0.104312,43.3402,57.2216,-20.4939,-20.7273,7.12502,5.86294,9.17159,-11.8782,0.0981812,-3.53816,38.5802,-5.34941,-19.6728,-16.966,-23.0117,-2.37415,-32.1091,24.5477,-13.8468,-5.45793,21.2828
0.0878788,17.2859,4.27746,2.07857,-60.4542,12.7972,-7.7858,0.42986,7.80055,-6.59145,-0.0260666,-2.09943,-2.54344,-0.422509,-6.59406,-10.0162,12.0588,4.83728,33.7117,17.2744,-3.48649,13.8798,7.50227,0.359144,2.65378e-14,1.19271e-14,9.19956,-10.4888,-3.29202,116.242,-55.6132,-2.04231,-42.1479,7.12502,23.6328,-70.7154,2.65378e-14,1.19271e-14,31.8579,14.0388,-0.541495,43.3244,57.6498,-21.2467,-23.942,7.12502,5.13612,5.97573,-11.8796,0.132816,-3.55464,38.6474,-5.45109,-19.6765,-16.9321,-23.1349,-2.28859,-32.1643,24.7081,-13.8015,-5.54084,22.2459
0.0919664,17.282,4.27741,2.05984,-60.4035,12.8343,-7.8255,0.510593,7.82694,-6.56798,0.0765395,-2.16318,-2.47981,-0.369405,-6.67162,-10.0588,12.0312,4.82097,33.9911,17.2223,-3.38625,13.9973,7.47477,0.401341,-6.10766e-14,-7.95139e-15,9.05261,-10.1987,-3.47019,116.261,-55.4599,-2.18685,-42.2623,7.12502,23.4942,-70.8477,-6.10766e-14,-7.95139e-15,32.4238,14.6824,0.221904,44.1406,57.3286,-21.7438,-15.5677,7.12502,4.65616,14.3611,-11.9196,0.125074,-3.58078,38.7444,-5.13422,-19.724,-17.8806,-23.2806,-2.23264,-32.243,24.9167,-13.8659,-5.51838,22.5844
0.0997865,17.2785,4.27307,2.09768,-60.2298,12.8148,-7.85699,0.506538,7.91687,-6.53183,0.0632867,-2.24352,-2.42882,-0.377239,-6.80995,-10.0133,12.0101,4.80779,34.0926,17.1764,-3.32238,14.0213,7.45741,0.418813,-2.66868e-14,1.19271e-14,9.08165,-10.0175,-3.84317,116.072,-54.9888,-1.59985,-42.0364,7.12502,24.0571,-70.5485,-2.66868e-14,1.19271e-14,32.4066,14.4411,0.141405,44.5175,57.4645,-22.052,-16.6098,7.12502,4.35852,13.3253,-11.9336,-0.00320569,-3.56208,38.8348,-4.7275,-19.7953,-18.7943,-23.3972,-2.39813,-32.2064,25.082,-13.8526,-5.63355,22.4548
0.10683,17.2753,4.26933,2.17514,-60.0387,12.7375,-7.86408,0.417096,7.95917,-6.5007,-0.0585056,-2.25182,-2.41457,-0.438044,-6.85019,-10.0415,12.0337,4.93322,34.2812,17.2497,-3.48195,14.152,7.46921,0.360079,-9.02482e-14,-2.70347e-14,9.30136,-9.81075,-4.34818,115.961,-54.8814,-1.3283,-41.6043,7.12502,24.3175,-70.0817,-9.02482e-14,-2.70347e-14,32.1318,14.2168,0.0301286,44.7789,57.8362,-21.4775,-21.7251,7.12502,4.91333,8.19791,-11.9389,-0.211128,-3.49561,38.9272,-3.8107,-19.9411,-20.874,-23.4993,-2.48864,-32.1315,25.2136,-13.7389,-6.02483,23.0859
0.110746,17.2703,4.26959,2.16268,-59.9891,12.693,-7.87759,0.358356,7.90511,-6.46081,-0.133217,-2.14289,-2.37554,-0.467201,-6.70712,-10.0927,12.031,4.98216,34.5918,17.3627,-3.78584,14.3576,7.46043,0.268109,-3.18552e-14,2.38542e-15,9.62392,-9.51152,-4.70043,115.951,-55.0698,-1.43908,-41.6626,7.12502,24.2113,-70.1543,-3.18552e-14,2.38542e-15,31.5991,13.6814,-0.146031,44.9246,58.3214,-20.5381,-27.571,7.12502,5.82035,2.32906,-11.9289,-0.353112,-3.48923,39.0112,-3.65727,-19.8978,-20.9538,-23.5277,-2.54566,-32.104,25.3438,-13.7707,-6.11222,23.3203
0.113788,17.2611,4.26974,1.88322,-59.98,12.9478,-7.8998,0.308815,7.65943,-6.48859,-0.185992,-1.97687,-2.39419,-0.483049,-6.39236,-9.80083,12.0129,4.74186,34.7519,17.484,-4.02451,14.3789,7.44797,0.212542,5.74985e-14,1.51076e-14,10.072,-9.06177,-4.91849,115.79,-54.9765,-1.67631,-42.0481,7.12502,23.9838,-70.5699,5.74985e-14,1.51076e-14,31.1011,13.112,-0.116362,45.337,58.3232,-21.0577,-24.8757,7.12502,5.31861,5.0376,-11.8956,-0.478659,-3.6878,39.0724,-4.26474,-19.6662,-19.2952,-23.5423,-2.64305,-32.2465,25.5103,-13.9151,-6.00573,22.9104
0.117394,17.2542,4.26942,1.75194,-59.9389,13.102,-7.93804,0.496963,7.55154,-6.45504,0.0672235,-2.0971,-2.29391,-0.348439,-6.44414,-9.7875,11.8137,4.70187,34.9096,17.1865,-3.96644,14.4186,7.31555,0.19229,-2.11706e-14,1.90833e-14,9.62764,-8.84081,-4.97248,115.634,-54.5582,-0.948641,-41.6617,7.12502,24.6814,-70.0899,-2.11706e-14,1.90833e-14,31.8442,13.2325,0.612446,45.8587,58.0481,-21.4935,-19.0257,7.12502,4.8978,10.8977,-11.8932,-0.503737,-3.7941,39.102,-4.4466,-19.6479,-19.0821,-23.6582,-2.64296,-32.3876,25.699,-14.0385,-5.902,22.9151
0.122807,17.2541,4.26822,1.99117,-59.9447,12.7885,-7.94957,0.756029,7.79614,-6.34036,0.398311,-2.27236,-2.11365,-0.180482,-6.75085,-9.98284,11.6055,4.679,35.1054,16.8097,-3.72452,14.4963,7.16884,0.243763,2.6985e-14,1.11319e-14,8.93178,-8.7974,-5.03852,115.591,-54.3815,-0.150641,-40.9221,7.12502,25.4461,-69.2435,2.6985e-14,1.11319e-14,32.7527,13.4953,1.38508,46.3032,57.8119,-21.3919,-17.2071,7.12502,4.99592,12.714,-11.9007,-0.290036,-3.59132,39.1232,-4.65258,-19.8019,-18.7716,-23.7831,-2.76956,-32.2584,25.8824,-14.1145,-5.47745,23.1272
0.128376,17.2549,4.26798,2.10781,-59.9612,12.5366,-7.90286,0.935627,7.96072,-6.22048,0.633973,-2.33583,-1.9724,-0.0558658,-6.89763,-10.1515,11.4427,4.61769,35.3075,16.5718,-3.65682,14.5988,7.05286,0.255204,-1.09133e-13,-1.03368e-14,8.47463,-8.70644,-5.12337,115.625,-54.5217,-0.841947,-41.0393,7.12502,24.7837,-69.4535,-1.09133e-13,-1.03368e-14,33.2039,13.5055,1.91031,46.6378,57.9432,-21.2366,-17.5446,7.12502,5.14588,12.3729,-11.8411,-0.157236,-3.44284,39.1516,-4.71652,-19.8423,-18.5987,-23.8114,-3.04462,-32.1146,26.0683,-14.1663,-5.03399,23.1238
0.13069,17.2525,4.26982,1.88123,-59.9319,12.7181,-7.89939,0.956044,7.83075,-6.18991,0.669753,-2.28768,-1.93474,-0.0291212,-6.76897,-10.0635,11.4069,4.501,35.4635,16.6262,-3.84986,14.6678,7.02744,0.203047,4.64162e-14,-5.56597e-15,8.52771,-8.33854,-5.25046,115.728,-54.6565,-1.98177,-41.5871,7.12502,23.6909,-70.1471,4.64162e-14,-5.56597e-15,33.1558,13.3822,2.35528,46.9209,58.2588,-20.976,-18.0213,7.12502,5.39751,11.8899,-11.7876,-0.349673,-3.58465,39.1944,-4.05668,-19.7866,-19.7289,-23.8194,-3.18011,-32.2251,26.2587,-14.2379,-4.93866,23.1817
0.13307,17.2476,4.26969,1.7847,-59.8485,12.8348,-7.95752,0.938773,7.73639,-6.19176,0.64737,-2.26397,-1.90787,-0.0358273,-6.69068,-9.95412,11.3989,4.38711,35.6423,16.6845,-3.94105,14.7308,7.01681,0.189464,4.11981e-14,7.15625e-15,8.66877,-7.90431,-5.49631,115.754,-54.649,-2.64453,-41.7362,7.12502,23.0551,-70.3771,4.11981e-14,7.15625e-15,33.1283,13.3161,2.89233,47.2603,58.2189,-21.1268,-16.6904,7.12502,5.25192,13.2246,-11.8099,-0.605245,-3.68765,39.2697,-3.43782,-19.7078,-20.3318,-23.9002,-3.15699,-32.3137,26.4352,-14.2699,-5.12494,23.527
0.137487,17.2408,4.26932,2.04647,-59.7292,12.5567,-8.02064,0.942753,7.8708,-6.17468,0.640068,-2.24803,-1.85722,-0.0405674,-6.75093,-9.99159,11.3494,4.30604,35.8905,16.6231,-3.8801,14.8371,6.9719,0.222229,2.75814e-14,7.15625e-15,8.69251,-7.53349,-5.88809,115.717,-54.7029,-2.67451,-41.8209,7.12502,23.0263,-70.4654,2.75814e-14,7.15625e-15,33.2075,13.2272,3.37752,47.6354,57.9154,-21.339,-16.397,7.12502,5.04698,13.5229,-11.8319,-0.666825,-3.53768,39.3664,-2.97928,-19.7014,-20.8522,-24.0136,-3.14432,-32.1837,26.6059,-14.2622,-5.30998,23.8873
0.142849,17.2341,4.26705,2.2146,-59.6776,12.3387,-7.99159,0.922157,7.94823,-6.17207,0.611394,-2.17651,-1.8763,-0.0565658,-6.72107,-10.0739,11.3467,4.29274,36.1798,16.6544,-3.90997,14.9995,6.95849,0.229653,5.12864e-14,3.97569e-15,8.85879,-7.1542,-6.30261,115.709,-54.7727,-2.35313,-42.1576,7.12502,23.3347,-70.7633,5.12864e-14,3.97569e-15,33.0827,13.0418,3.63753,47.9867,57.8576,-21.4986,-17.3585,7.12502,4.89289,12.565,-11.8544,-0.495557,-3.38132,39.4662,-2.55949,-19.8141,-21.737,-24.1069,-3.25835,-32.0639,26.7958,-14.3414,-5.18992,23.6211
0.149005,17.2295,4.26465,2.15627,-59.7206,12.3159,-7.89201,1.02028,7.94536,-6.07461,0.751632,-2.26881,-1.80321,0.0209168,-6.80853,-10.4178,11.2657,4.50024,36.4959,16.5155,-3.92417,15.249,6.89527,0.20083,-1.13804e-14,3.65764e-14,8.635,-6.98381,-6.66255,115.695,-54.5924,-2.01672,-42.2207,7.12502,23.6574,-70.785,-1.13804e-14,3.65764e-14,33.3394,13.0255,3.92031,48.2572,58.1709,-21.7052,-16.6437,7.12502,4.69339,13.2843,-11.8521,-0.195601,-3.33938,39.5498,-2.60392,-19.9209,-21.6845,-24.1498,-3.37993,-32.036,26.9913,-14.4515,-5.05401,23.3864
