JuanDHNZ/ProyectoFinalCD/preprocessing/sports_trials_csv/49_16.csv
root1,root2,root3,root4,root5,root6,lowerback1,lowerback2,lowerback3,upperback1,upperback2,upperback3,thorax1,thorax2,thorax3,lowerneck1,lowerneck2,lowerneck3,upperneck1,upperneck2,upperneck3,head1,head2,head3,rclavicle1,rclavicle2,rhumerus1,rhumerus2,rhumerus3,rradius1,rwrist1,rhand1,rhand2,rfingers1,rthumb1,rthumb2,lclavicle1,lclavicle2,lhumerus1,lhumerus2,lhumerus3,lradius1,lwrist1,lhand1,lhand2,lfingers1,lthumb1,lthumb2,rfemur1,rfemur2,rfemur3,rtibia1,rfoot1,rfoot2,rtoes1,lfemur1,lfemur2,lfemur3,ltibia1,lfoot1,lfoot2,ltoes1
4.5168,17.6862,1.74942,23.3827,1.24471,-4.83887,-9.0504,-0.135197,5.06474,-14.0505,0.0667634,5.48613,-10.0551,-0.122698,3.1039,-3.39706,19.913,13.2107,7.06875,25.5381,2.60493,4.33899,13.0373,0.353663,1.39149e-14,-1.43125e-14,-10.4137,-24.9134,23.7939,123.592,-58.9706,-5.48515,-46.9941,7.12502,20.3272,-75.9504,1.39149e-14,-1.43125e-14,33.6855,35.3773,-9.76949,29.527,48.5328,-31.4967,-14.5482,7.12502,-4.76278,15.3783,-7.37449,6.02513,-2.99899,1.90833e-14,-20.6971,-29.0122,48.5322,-22.482,-1.96895,-24.6063,14.3264,-13.1216,9.1108,9.37322
4.50709,17.6865,1.75202,23.3749,1.12646,-4.76036,-9.07274,-0.154372,4.82564,-14.058,0.043674,5.47215,-10.0458,-0.11128,3.22105,-3.37771,19.8844,13.421,7.41943,25.4979,2.42008,4.04904,13.0262,0.293091,-4.73108e-14,7.79236e-14,-10.251,-25.0181,23.4452,123.499,-58.9936,-5.44255,-47.0388,7.12502,20.3682,-75.9907,-4.73108e-14,7.79236e-14,33.8981,35.3734,-9.63386,29.4102,48.2681,-31.3692,-14.578,7.12502,-4.63964,15.3512,-7.44643,6.10186,-3.10814,1.59028e-14,-21.592,-28.4463,49.0822,-22.3748,-2.15539,-24.6137,14.1155,-12.9972,9.39203,9.05187
4.50645,17.6877,1.75209,23.3601,1.15606,-4.78321,-9.0548,-0.164993,4.84589,-14.0746,0.0327286,5.4868,-10.0762,-0.117901,3.22701,-3.34535,19.8745,13.4242,7.40144,25.4918,2.40007,4.04124,13.0222,0.28253,3.27995e-14,-3.02153e-14,-10.2351,-25.0043,23.4313,123.538,-59.1609,-5.56483,-47.2444,7.12502,20.2506,-76.2087,3.27995e-14,-3.02153e-14,34.054,35.4216,-9.4092,29.3403,47.9589,-31.4742,-14.7467,7.12502,-4.74102,15.1803,-7.42061,6.09178,-3.06824,5.725e-14,-23.5521,-27.0108,50.5168,-22.3364,-2.18502,-24.5686,14.1017,-13.0146,9.40587,9.05604
4.50769,17.6892,1.7521,23.3782,1.16184,-4.83295,-9.10319,-0.157302,4.89627,-14.0695,0.0391481,5.51584,-10.044,-0.117697,3.22974,-3.29937,19.8913,13.2768,6.9801,25.5312,2.49634,4.31505,13.0289,0.298093,7.15625e-15,-4.29375e-14,-10.2774,-24.9415,23.5822,123.565,-59.1669,-5.78813,-47.2963,7.12502,20.036,-76.2833,7.15625e-15,-4.29375e-14,33.9612,35.4245,-9.44869,29.3841,47.9532,-31.4578,-14.6945,7.12502,-4.72522,15.2328,-7.44679,6.09777,-3.02156,9.54166e-15,-23.6607,-26.973,50.6453,-22.2927,-2.18124,-24.5171,13.9837,-12.9575,9.41911,9.19913
4.50975,17.6875,1.75848,23.2083,1.36713,-4.65586,-9.1178,-0.247161,4.83446,-13.9853,-0.0896789,5.46844,-9.93038,-0.178256,3.20654,-3.20299,19.8539,13.4678,7.1441,25.5089,2.16309,3.97504,13.0143,0.18769,-1.55052e-14,7.95139e-15,-10.3349,-24.9672,23.6814,123.549,-59.2126,-6.01509,-47.3059,7.12502,19.8179,-76.3156,-1.55052e-14,7.95139e-15,33.8682,35.4122,-9.57039,29.4222,48.0346,-31.3544,-14.7126,7.12502,-4.62531,15.2169,-7.11202,5.9263,-3.08747,-6.36111e-15,-22.4282,-27.9841,49.7605,-22.0481,-2.20464,-24.6838,13.9103,-12.9862,9.19578,9.23422
4.51343,17.6836,1.76699,22.8822,1.83725,-4.42153,-8.94579,-0.427042,4.86875,-13.9527,-0.322889,5.39054,-9.98499,-0.302904,3.10303,-3.20213,19.7741,13.6865,7.22307,25.4028,1.96657,4.04718,12.9619,0.116254,-1.98785e-15,0,-10.3445,-24.9384,23.7199,123.553,-59.3645,-6.0091,-47.3844,7.12502,19.8236,-76.3935,-1.98785e-15,0,33.9525,35.3226,-9.52395,29.3711,47.862,-31.3291,-14.8475,7.12502,-4.60089,15.0826,-6.44857,5.57501,-3.06999,0,-21.5936,-28.5964,49.1249,-21.5914,-2.27201,-24.8596,13.8165,-13.0727,8.75908,9.16212
4.51268,17.6839,1.7663,22.677,2.12695,-4.42434,-8.74104,-0.526724,4.97983,-13.9662,-0.439313,5.39333,-10.12,-0.372074,3.04988,-3.04945,19.7714,13.753,7.22316,25.4189,1.97523,4.03168,12.9725,0.0985905,-3.37934e-15,3.18055e-15,-10.3606,-24.8193,23.7468,123.594,-59.4076,-6.07637,-47.4798,7.12502,19.7589,-76.4955,-3.37934e-15,3.18055e-15,34.1226,35.3777,-9.32488,29.2765,47.563,-31.1501,-14.9227,7.12502,-4.42809,15.011,-6.07775,5.41591,-2.89577,2.22639e-14,-22.3525,-27.9863,49.6774,-21.3176,-2.3249,-24.7803,13.7205,-13.0755,8.54569,9.03975
4.50431,17.6869,1.76761,22.6228,2.0875,-4.46491,-8.73125,-0.513106,4.86108,-13.9174,-0.420192,5.4048,-10.0652,-0.349363,3.1254,-3.10114,19.8348,13.5201,6.85071,25.4899,2.29058,4.29844,13.0028,0.180841,-3.69739e-14,6.67916e-14,-10.5085,-24.8049,23.8167,123.607,-59.3324,-5.97402,-47.5043,7.12502,19.8573,-76.5099,-3.69739e-14,6.67916e-14,34.4391,35.7204,-8.94183,29.1769,47.2507,-30.8268,-14.942,7.12502,-4.11589,14.998,-6.03597,5.49225,-2.82203,-3.18055e-14,-22.5847,-27.6832,49.9218,-21.228,-2.27366,-24.7079,13.6173,-13.0174,8.52369,9.00117
4.5109,17.6842,1.7676,22.5866,2.15752,-4.4347,-8.71725,-0.501813,4.9498,-13.9082,-0.409964,5.34171,-10.0643,-0.357058,3.00729,-3.05765,19.8426,13.5116,6.76065,25.509,2.29639,4.25543,13.0093,0.172683,-1.33186e-14,1.59028e-14,-10.5961,-24.8246,23.8563,123.563,-59.2764,-5.77683,-47.5475,7.12502,20.0469,-76.5333,-1.33186e-14,1.59028e-14,34.8696,36.0494,-8.44245,29.042,46.7439,-30.8244,-14.8144,7.12502,-4.11353,15.1257,-5.92934,5.43243,-2.84399,-3.18055e-15,-21.264,-28.5077,49.0304,-21.1323,-2.15911,-24.8018,13.5402,-12.9731,8.36912,8.95801
4.51002,17.6826,1.75979,22.5785,2.05075,-4.32326,-8.62522,-0.503376,4.80957,-13.9532,-0.401889,5.29529,-10.1668,-0.342718,3.0391,-2.91017,19.8136,13.6291,6.77621,25.4925,2.22284,4.26297,13.0025,0.123825,-1.78906e-14,1.59028e-14,-10.5602,-24.7699,23.7909,123.539,-59.2427,-5.73914,-47.6554,7.12502,20.0831,-76.6375,-1.78906e-14,1.59028e-14,35.0577,36.1445,-8.24211,28.9575,46.3846,-30.7881,-14.7255,7.12502,-4.07851,15.2152,-5.99282,5.48477,-3.01024,1.90833e-14,-21.005,-28.7277,48.7964,-21.1678,-2.23934,-24.923,13.5806,-12.8999,8.53826,9.12943
4.50818,17.6833,1.75707,22.5254,2.05346,-4.24297,-8.5572,-0.546479,4.69467,-13.9893,-0.45042,5.28475,-10.2448,-0.356405,3.09507,-2.85773,19.7689,13.8215,7.29096,25.4346,2.06403,4.02159,12.9889,0.101596,-4.77083e-15,-1.43125e-14,-10.5095,-24.6391,23.7029,123.556,-59.0277,-5.64493,-47.6558,7.12502,20.1737,-76.6283,-4.77083e-15,-1.43125e-14,35.0256,36.0769,-8.28028,28.9645,46.3615,-30.5309,-14.8561,7.12502,-3.83013,15.0892,-5.95508,5.47492,-3.08306,0,-21.1606,-28.6428,48.88,-21.1019,-2.33549,-24.9732,13.5366,-12.8825,8.59008,9.33705
4.51717,17.6825,1.77504,22.5313,2.27062,-4.53569,-8.84647,-0.535753,5.13948,-13.9819,-0.465526,5.34645,-10.0812,-0.403744,2.90881,-3.09472,19.6649,13.9252,7.65114,25.2484,2.02452,4.18117,12.9097,0.115805,2.46493e-14,-6.04305e-14,-10.4744,-24.4885,23.6917,123.565,-58.7733,-5.61155,-47.6384,7.12502,20.2057,-76.6075,2.46493e-14,-6.04305e-14,35.2185,36.1655,-8.01101,28.8992,46.0754,-30.1986,-14.8644,7.12502,-3.50924,15.0864,-5.83597,5.39189,-2.70005,-1.27222e-14,-22.294,-27.7614,49.7167,-21.0119,-2.22961,-24.6822,13.4712,-12.9906,8.41825,9.13274
4.51077,17.6831,1.75736,22.4916,2.06662,-4.2848,-8.56811,-0.544572,4.72868,-14.043,-0.444499,5.29949,-10.3034,-0.356024,3.0952,-3.1576,19.5409,14.1353,7.81668,25.075,1.80926,4.28826,12.8262,0.0451911,2.36554e-14,-5.40694e-14,-10.3766,-24.512,23.6917,123.529,-58.796,-5.30569,-47.7639,7.12502,20.4997,-76.7016,2.36554e-14,-5.40694e-14,35.0472,35.9473,-8.24612,28.963,46.225,-30.0368,-14.7263,7.12502,-3.35301,15.2271,-5.9076,5.49236,-3.02961,-2.22639e-14,-23.5754,-26.8667,50.6007,-20.9922,-2.30077,-24.9501,13.3907,-12.8512,8.57155,9.00827
4.51066,17.6825,1.754,22.5547,2.00059,-4.24481,-8.61152,-0.545469,4.67634,-14.1102,-0.444788,5.2919,-10.3565,-0.351795,3.11885,-3.06139,19.5516,14.1257,7.88343,25.0975,1.89807,4.28347,12.8438,0.0654605,9.34288e-15,-7.95139e-15,-10.2653,-24.5802,23.6352,123.526,-58.9521,-4.95775,-47.9625,7.12502,20.834,-76.8639,9.34288e-15,-7.95139e-15,34.6191,35.4862,-8.82059,29.152,46.7561,-30.4082,-14.6844,7.12502,-3.7117,15.263,-6.02861,5.50787,-3.11193,-6.36111e-15,-21.318,-28.5342,48.9549,-21.0367,-2.29399,-25.0087,13.3208,-12.7905,8.5805,8.99514
4.51064,17.6826,1.74948,22.5404,2.01574,-4.12649,-8.54369,-0.575334,4.57242,-14.1417,-0.478157,5.25137,-10.4294,-0.360728,3.13582,-3.10573,19.6775,13.8038,7.92628,25.2403,2.34272,4.2145,12.9258,0.226048,2.32578e-14,-3.02153e-14,-10.2642,-24.5435,23.6339,123.564,-58.9888,-5.13004,-48.0547,7.12502,20.6685,-76.9742,2.32578e-14,-3.02153e-14,34.6609,35.4569,-8.73807,29.1788,46.6853,-30.5223,-14.7434,7.12502,-3.8218,15.2021,-6.34453,5.45928,-3.2036,0.619248,-17.6535,-30.3471,46.0727,-20.9284,-2.32602,-25.1302,13.123,-12.7038,8.54716,8.90346
4.51073,17.6837,1.74636,22.4455,2.12345,-4.04001,-8.40643,-0.624991,4.50613,-14.1309,-0.53458,5.22749,-10.4932,-0.383521,3.14958,-3.23268,19.7659,13.5924,7.98216,25.3274,2.61576,4.19445,12.9761,0.337712,-9.34288e-15,3.97569e-14,-10.2736,-24.4961,23.6944,123.577,-59.0139,-5.34179,-48.0967,7.12502,20.465,-77.0382,-9.34288e-15,3.97569e-14,34.6206,35.3795,-8.76979,29.2239,46.7796,-30.8189,-14.9414,7.12502,-4.1083,14.9987,-6.60887,5.37874,-3.19495,1.45085,-16.2521,-30.5676,44.9199,-20.7694,-2.37447,-25.193,13.0203,-12.6861,8.44052,9.07368
4.51121,17.6831,1.74768,22.3839,2.18906,-4.03593,-8.39145,-0.647362,4.51599,-14.1022,-0.565204,5.22886,-10.4672,-0.399532,3.14444,-3.33008,19.7917,13.5156,8.05816,25.3415,2.71479,4.21188,12.9876,0.385909,-3.73715e-14,5.725e-14,-10.2286,-24.4797,23.6634,123.582,-59.1066,-5.34313,-48.0695,7.12502,20.4637,-77.0111,-3.73715e-14,5.725e-14,34.4403,35.2257,-9.0257,29.3091,47.1364,-31.3978,-14.8978,7.12502,-4.66725,15.0308,-6.76249,5.34775,-3.14495,1.92846,-16.0141,-30.45,44.7152,-20.6442,-2.41482,-25.1789,12.9153,-12.6406,8.37934,9.1848
4.50975,17.6826,1.74775,22.3398,2.17281,-4.06093,-8.40064,-0.655674,4.48992,-14.0703,-0.577128,5.2564,-10.4231,-0.400908,3.18685,-3.31183,19.8124,13.4662,8.04974,25.3749,2.72928,4.2,13.0033,0.394078,-4.57205e-15,2.38542e-14,-10.1305,-24.4883,23.5179,123.571,-59.1215,-5.57506,-47.9099,7.12502,20.2408,-76.8753,-4.57205e-15,2.38542e-14,34.6627,35.4859,-8.67654,29.2237,46.9289,-30.8999,-14.5827,7.12502,-4.18649,15.3559,-6.97425,5.38926,-3.10355,2.33608,-15.7919,-30.3505,44.5543,-20.5733,-2.41597,-25.1489,12.8408,-12.5752,8.40415,9.08488
4.50859,17.6842,1.74198,22.3279,2.12676,-4.07248,-8.33562,-0.654104,4.44705,-14.0811,-0.567897,5.26733,-10.4731,-0.391291,3.2249,-3.2493,19.77,13.6131,8.0456,25.337,2.52101,4.23238,12.9798,0.319228,2.26615e-14,-4.92986e-14,-10.0712,-24.518,23.4238,123.578,-59.0826,-5.82299,-47.8388,7.12502,20.0025,-76.8293,2.26615e-14,-4.92986e-14,34.9056,35.6895,-8.27653,29.1492,46.683,-30.2492,-14.5751,7.12502,-3.55814,15.375,-7.10698,5.439,-3.09424,2.52385,-15.59,-30.3072,44.4181,-20.5576,-2.38016,-25.1463,12.8375,-12.5939,8.4229,8.99362
4.50842,17.6838,1.73494,22.3946,2.00046,-4.013,-8.33271,-0.626875,4.3459,-14.0984,-0.530907,5.23833,-10.4933,-0.364662,3.25016,-3.23517,19.6679,13.7956,7.9946,25.2153,2.24938,4.26592,12.9115,0.219005,2.84262e-14,-3.49861e-14,-10.0802,-24.597,23.4139,123.608,-59.0962,-5.90312,-47.9426,7.12502,19.9255,-76.9411,2.84262e-14,-3.49861e-14,34.6756,35.4836,-8.55825,29.2587,47.0312,-30.3414,-14.7932,7.12502,-3.6471,15.1553,-7.22073,5.49769,-3.22076,2.49773,-15.4358,-30.4386,44.2411,-20.6545,-2.36469,-25.2404,12.89,-12.6115,8.51275,8.88419
4.50849,17.6822,1.73314,22.4242,1.95148,-4.0453,-8.41539,-0.598469,4.36538,-14.0891,-0.499953,5.24225,-10.4355,-0.350965,3.24077,-3.1332,19.6659,13.6987,7.91345,25.2287,2.34672,4.20116,12.9178,0.23639,2.18663e-15,-1.27222e-14,-10.0787,-24.5736,23.4522,123.614,-59.0619,-6.08148,-47.9922,7.12502,19.754,-77.0085,2.18663e-15,-1.27222e-14,34.2904,35.1421,-9.05892,29.4261,47.5877,-30.5515,-14.9689,7.12502,-3.85006,14.976,-7.20615,5.53874,-3.21577,2.34364,-16.8951,-29.8515,45.5521,-20.7392,-2.3305,-25.2253,12.9736,-12.6045,8.5532,8.87241
4.51023,17.6818,1.73524,22.3712,2.0205,-4.15089,-8.42661,-0.586509,4.5117,-14.0877,-0.485458,5.26082,-10.4317,-0.357255,3.1795,-3.07725,19.7611,13.441,7.95703,25.3491,2.72343,4.13193,12.9882,0.360811,9.74045e-15,-6.36111e-15,-10.0592,-24.4855,23.5062,123.601,-58.9948,-6.08923,-47.9298,7.12502,19.7466,-76.9468,9.74045e-15,-6.36111e-15,33.8422,34.6167,-9.67232,29.6413,48.3159,-31.0845,-15.1427,7.12502,-4.3647,14.7923,-7.08446,5.54026,-3.06626,2.27778,-16.8219,-29.8955,45.5313,-20.7094,-2.28986,-25.1131,13.0391,-12.6579,8.51194,8.91531
4.51436,17.6811,1.73864,22.3551,2.01269,-4.17167,-8.4235,-0.579388,4.57976,-14.1119,-0.476319,5.24607,-10.4641,-0.360836,3.1272,-3.07139,19.8272,13.3805,7.98799,25.4304,2.85794,4.11924,13.0333,0.40857,-2.32578e-14,1.90833e-14,-10.0267,-24.4592,23.4442,123.609,-58.9833,-5.95252,-47.9357,7.12502,19.878,-76.9391,-2.32578e-14,1.90833e-14,33.4804,34.201,-10.1691,29.8175,48.9114,-31.3443,-15.3282,7.12502,-4.61556,14.6015,-6.9155,5.55877,-3.06392,2.03251,-16.2434,-30.2895,45.0099,-20.725,-2.33038,-25.0967,13.1,-12.7304,8.58798,8.77096
4.51411,17.6798,1.73412,22.326,1.94893,-4.04461,-8.33556,-0.589739,4.45917,-14.1659,-0.481378,5.19775,-10.576,-0.354563,3.14671,-2.86929,19.8199,13.5147,7.91967,25.4565,2.73595,4.09998,13.0429,0.343255,-1.8487e-14,-1.27222e-14,-9.98,-24.3733,23.3603,123.643,-58.9946,-6.17019,-48.1179,7.12502,19.6687,-77.1429,-1.8487e-14,-1.27222e-14,33.5742,34.2121,-10.0539,29.7865,48.849,-31.2654,-15.4632,7.12502,-4.53938,14.4682,-6.67722,5.57838,-3.23177,1.58524,-16.3395,-30.5198,45.1171,-20.7677,-2.35248,-25.239,13.1751,-12.7394,8.61912,8.53112
4.51225,17.6788,1.72757,22.3026,1.95983,-3.96231,-8.27358,-0.609215,4.39817,-14.2063,-0.500881,5.17214,-10.658,-0.359799,3.15667,-2.66651,19.7951,13.6184,7.88548,25.4577,2.65209,4.08195,13.0425,0.290084,-1.09332e-14,1.59028e-14,-9.92581,-24.3417,23.3784,123.656,-59.0324,-6.5692,-48.3383,7.12502,19.2851,-77.4021,-1.09332e-14,1.59028e-14,33.9886,34.4483,-9.52968,29.5991,48.3778,-31.7039,-15.5282,7.12502,-4.96283,14.3937,-6.54316,5.55266,-3.29201,1.3826,-16.4421,-30.6587,45.2568,-20.7795,-2.2666,-25.3423,13.2385,-12.75,8.48546,8.63897
4.51373,17.6782,1.72381,22.3348,2.0097,-4.04118,-8.2907,-0.609911,4.52681,-14.2341,-0.502095,5.18632,-10.6848,-0.372892,3.10221,-2.60182,19.8035,13.6779,7.93161,25.4749,2.65009,4.09493,13.0541,0.282879,1.98785e-15,1.59028e-15,-9.90136,-24.3472,23.3735,123.658,-58.8957,-6.64297,-48.3049,7.12502,19.2142,-77.3757,1.98785e-15,1.59028e-15,34.0589,34.441,-9.44315,29.5585,48.3261,-31.3919,-15.2457,7.12502,-4.66153,14.683,-6.56559,5.52903,-3.17182,1.41093,-16.5759,-30.5884,45.3788,-20.8325,-2.23905,-25.2556,13.2859,-12.7957,8.41704,9.01536
4.51555,17.6783,1.71996,22.3368,2.05676,-4.08281,-8.24511,-0.60934,4.60767,-14.2627,-0.496932,5.18145,-10.748,-0.379136,3.055,-2.61951,19.7998,13.7318,8.03851,25.4613,2.65503,4.13687,13.0527,0.288118,-3.08116e-14,5.08889e-14,-9.91224,-24.2816,23.3173,123.688,-58.688,-6.52621,-48.1975,7.12502,19.3264,-77.2571,-3.08116e-14,5.08889e-14,33.7815,34.17,-9.808,29.6924,48.7251,-30.6216,-14.9238,7.12502,-3.91778,15.0199,-6.35485,5.50334,-3.11546,1.06251,-16.7206,-30.6094,45.4428,-20.8911,-2.31129,-25.185,13.3572,-12.8282,8.43451,9.27258
4.51756,17.6806,1.71959,22.3302,2.0817,-4.08419,-8.25487,-0.60148,4.64424,-14.2631,-0.489121,5.1572,-10.7438,-0.380651,3.00793,-2.9125,19.802,13.6657,8.31609,25.4041,2.79105,4.24156,13.0373,0.373306,-1.07344e-14,2.06736e-14,-9.92387,-24.2943,23.2978,123.704,-58.7099,-6.50196,-48.2764,7.12502,19.3498,-77.3337,-1.07344e-14,2.06736e-14,33.4678,33.8381,-10.2944,29.8199,49.1802,-30.6313,-14.8351,7.12502,-3.92709,15.1084,-6.05493,5.48431,-3.11986,0.545764,-16.8498,-30.7232,45.5027,-20.9261,-2.31292,-25.1899,13.4179,-12.8404,8.4294,9.171
4.51663,17.6819,1.72036,22.3249,2.06387,-4.12481,-8.2915,-0.588173,4.67037,-14.2599,-0.47459,5.16091,-10.7195,-0.375836,2.99624,-3.2918,19.7741,13.6423,8.63252,25.2977,2.83273,4.38747,12.9958,0.438525,-1.2921e-14,3.18055e-14,-9.89387,-24.3253,23.2716,123.671,-58.743,-6.4889,-48.3207,7.12502,19.3623,-77.3767,-1.2921e-14,3.18055e-14,33.0804,33.4136,-10.8825,29.9459,49.627,-30.4847,-14.3277,7.12502,-3.78552,15.6185,-6.40424,5.51908,-3.0524,1.19783,-16.9194,-30.3629,45.544,-20.9219,-2.21355,-25.1717,13.381,-12.7951,8.39286,8.86484
4.51191,17.6817,1.72071,22.3306,1.95368,-4.17459,-8.32134,-0.56558,4.61883,-14.2528,-0.44454,5.1942,-10.6932,-0.353289,3.05972,-3.44987,19.6666,13.8412,8.79911,25.1384,2.54917,4.51876,12.9154,0.363519,1.70955e-14,-3.49861e-14,-9.86746,-24.3267,23.2347,123.674,-58.7578,-6.55732,-48.3623,7.12502,19.2965,-77.4249,1.70955e-14,-3.49861e-14,32.9989,33.3203,-10.9359,29.9631,49.586,-30.9866,-14.1347,7.12502,-4.27022,15.8023,-6.75139,5.63215,-3.01342,1.72323,-19.5681,-28.6683,47.6654,-20.9078,-2.17192,-25.1197,13.3066,-12.7576,8.46611,8.83595
4.5086,17.6822,1.72017,22.3322,1.82838,-4.12552,-8.32014,-0.546778,4.48364,-14.2506,-0.418311,5.18757,-10.6883,-0.326714,3.12699,-3.47349,19.5689,14.0353,8.91289,25.011,2.31495,4.60665,12.8513,0.285716,1.05356e-14,6.36111e-15,-9.88038,-24.3292,23.2544,123.694,-58.7908,-6.4642,-48.4097,7.12502,19.3861,-77.4634,1.05356e-14,6.36111e-15,33.1362,33.477,-10.6889,29.9168,49.3413,-32.0996,-14.5491,7.12502,-5.34492,15.3635,-6.80223,5.72201,-3.10769,1.70515,-21.0003,-27.8117,48.8086,-20.902,-2.19843,-25.1706,13.2964,-12.8017,8.58611,8.82807
4.50968,17.6828,1.71732,22.3199,1.81559,-4.10772,-8.26338,-0.536194,4.47952,-14.2671,-0.399978,5.16351,-10.7413,-0.318848,3.10517,-3.28607,19.5074,14.2099,8.76775,24.9752,2.05081,4.5848,12.823,0.170386,-6.75868e-15,4.77083e-15,-9.89051,-24.2897,23.2877,123.679,-58.7416,-6.27119,-48.3241,7.12502,19.5716,-77.359,-6.75868e-15,4.77083e-15,33.3522,33.7087,-10.3896,29.8224,49.0274,-32.4228,-14.8599,7.12502,-5.65698,15.0446,-6.57845,5.73071,-3.14171,1.3114,-21.1018,-27.9141,48.8816,-20.8995,-2.17184,-25.207,13.3381,-12.8462,8.57336,8.82974
4.51371,17.684,1.71466,22.2867,1.87321,-4.25557,-8.20393,-0.503838,4.71235,-14.2716,-0.353473,5.16921,-10.7886,-0.319613,2.98378,-3.05246,19.533,14.2036,8.50768,25.0606,1.96959,4.4798,12.8541,0.116176,1.2921e-14,-2.06736e-14,-9.93156,-24.2347,23.3213,123.672,-58.5991,-6.21267,-48.2418,7.12502,19.6279,-77.2709,1.2921e-14,-2.06736e-14,33.6168,33.9422,-10.0374,29.7161,48.7079,-32.2357,-15.0013,7.12502,-5.47634,14.9079,-6.21687,5.74548,-2.98596,0.685308,-19.2197,-29.4356,47.3308,-20.8673,-2.14114,-25.0593,13.3891,-12.8735,8.5343,9.13445
4.5176,17.6835,1.71076,22.2138,1.92028,-4.33012,-8.10626,-0.479472,4.87148,-14.2705,-0.314334,5.16355,-10.8495,-0.317195,2.8914,-3.11519,19.5742,14.0513,8.5801,25.0957,2.17667,4.46928,12.8786,0.196615,5.76476e-15,-1.27222e-14,-9.97277,-24.1957,23.3358,123.653,-58.4478,-5.8327,-48.1797,7.12502,19.9932,-77.1711,5.76476e-15,-1.27222e-14,33.6952,33.9967,-9.912,29.7114,48.6842,-31.8719,-14.8161,7.12502,-5.12501,15.102,-5.77663,5.75911,-2.90373,-2.54444e-14,-20.2,-29.2566,47.9789,-20.8048,-2.16527,-24.98,13.4506,-12.9251,8.53455,9.35853
4.51779,17.68,1.70474,22.2083,1.89204,-4.26,-8.09695,-0.470398,4.81194,-14.241,-0.304666,5.13523,-10.8178,-0.307937,2.89168,-3.77109,19.4541,14.2095,9.17953,24.8117,2.11735,4.77451,12.7563,0.249896,-2.96189e-14,4.13472e-14,-9.9987,-24.2429,23.2747,123.614,-58.3375,-5.42689,-48.1271,7.12502,20.3832,-77.0774,-2.96189e-14,4.13472e-14,33.4376,33.8171,-10.246,29.8342,49.1091,-31.9879,-14.639,7.12502,-5.23706,15.2762,-5.76745,5.76155,-2.98066,-1.90833e-14,-23.6609,-26.762,50.3827,-20.8123,-2.16774,-25.0674,13.5009,-12.9827,8.53405,9.34356
4.51689,17.6779,1.70141,22.2443,1.81341,-4.13048,-8.19635,-0.481843,4.66204,-14.197,-0.333347,5.09199,-10.7019,-0.309448,2.92276,-3.95967,19.7039,13.7198,9.23029,25.0905,2.73467,4.69387,12.9089,0.500214,6.95746e-15,-4.77083e-15,-10.0144,-24.3415,23.2239,123.62,-58.3998,-5.40425,-48.0789,7.12502,20.405,-77.0269,6.95746e-15,-4.77083e-15,33.0561,33.5529,-10.7678,29.9918,49.5666,-32.1346,-14.4946,7.12502,-5.3787,15.4171,-5.81097,5.76865,-3.14898,-2.54444e-14,-23.891,-26.4758,50.4899,-20.8516,-2.08176,-25.2455,13.5019,-12.9995,8.47143,9.28237
4.51616,17.6779,1.70194,22.2209,1.75354,-4.09095,-8.23728,-0.486338,4.59585,-14.1818,-0.34436,5.07883,-10.6576,-0.309012,2.9433,-3.88467,19.6235,13.9976,9.22537,25.01,2.37456,4.75711,12.8602,0.368951,3.12092e-14,-1.90833e-14,-9.99289,-24.4065,23.2396,123.628,-58.5848,-5.22519,-48.0562,7.12502,20.577,-76.9856,3.12092e-14,-1.90833e-14,33.0299,33.5683,-10.7625,29.9889,49.369,-31.8636,-14.3831,7.12502,-5.11705,15.5351,-5.80171,5.8146,-3.21374,-3.18055e-15,-23.2296,-26.9725,50.0008,-20.825,-2.01894,-25.31,13.4848,-13.0207,8.42885,9.33702
4.51497,17.6777,1.70255,22.1551,1.76179,-4.17531,-8.19226,-0.45628,4.67211,-14.1646,-0.301079,5.09063,-10.6664,-0.294323,2.91357,-3.75131,19.4818,14.2367,9.10744,24.8672,1.96871,4.77314,12.775,0.207933,-1.78906e-15,-1.59028e-14,-9.97449,-24.3914,23.1811,123.576,-58.4295,-4.89702,-48.0104,7.12502,20.8923,-76.9053,-1.78906e-15,-1.59028e-14,33.3745,33.9114,-10.2372,29.8694,48.8162,-31.6893,-14.4774,7.12502,-4.94872,15.4448,-5.73603,5.86577,-3.10214,-1.59028e-14,-23.7169,-26.5705,50.2997,-20.7399,-2.06055,-25.1955,13.4674,-13.0306,8.47758,9.48768
4.5152,17.6781,1.70198,22.1254,1.7804,-4.25317,-8.16618,-0.437178,4.77333,-14.1705,-0.272827,5.10488,-10.6921,-0.289766,2.87378,-3.67589,19.46,14.1795,9.05004,24.8591,1.94679,4.73894,12.7677,0.194289,-5.96354e-16,-7.95139e-15,-9.91938,-24.3486,23.0512,123.551,-58.2764,-4.94863,-47.9172,7.12502,20.8428,-76.8177,-5.96354e-16,-7.95139e-15,33.518,34.0297,-9.99773,29.8481,48.6233,-31.6141,-14.5195,7.12502,-4.87608,15.4044,-6.11558,5.89206,-2.97759,0.7475,-23.641,-26.2127,50.2118,-20.7087,-2.09333,-25.0974,13.4541,-12.9881,8.52354,9.4466
4.51257,17.6796,1.69583,22.1631,1.70407,-4.22872,-8.18785,-0.4222,4.70522,-14.1712,-0.253614,5.10784,-10.6789,-0.272987,2.91406,-3.60963,19.4816,14.0728,8.94027,24.9103,1.93922,4.6844,12.7869,0.191854,1.64991e-14,-2.38542e-14,-9.9155,-24.4843,23.1016,123.561,-58.3775,-4.85108,-47.8908,7.12502,20.9365,-76.7809,1.64991e-14,-2.38542e-14,33.3024,33.8232,-10.2612,29.9458,48.8351,-31.8452,-14.6853,7.12502,-5.09931,15.2333,-6.54853,5.93594,-3.01164,1.35829,-24.2266,-25.4267,50.5394,-20.8045,-2.06563,-25.1308,13.4848,-12.9218,8.5579,9.19088
4.50725,17.6821,1.68216,22.1954,1.58443,-4.19522,-8.15116,-0.385281,4.57527,-14.1225,-0.203669,5.09365,-10.64,-0.235449,2.968,-3.71452,19.5263,13.9247,8.84424,24.9625,1.96941,4.65053,12.806,0.221324,2.78299e-14,-4.13472e-14,-10.0834,-24.6073,23.3071,123.598,-58.3868,-4.64933,-47.8913,7.12502,21.1303,-76.7599,2.78299e-14,-4.13472e-14,33.3233,33.9517,-10.2169,29.9473,48.6727,-32.0275,-14.9297,7.12502,-5.27526,14.9846,-6.95714,6.01654,-3.06845,1.82024,-24.8716,-24.725,51.0248,-20.9259,-2.11216,-25.1431,13.5107,-12.8014,8.72627,9.08219
4.5058,17.6843,1.67366,22.192,1.55184,-4.26857,-8.13364,-0.373816,4.6125,-14.0932,-0.188245,5.11227,-10.6168,-0.230352,2.96632,-3.7202,19.5353,13.9281,8.8248,24.9819,1.89157,4.65648,12.8114,0.202242,3.57812e-15,-2.06736e-14,-10.188,-24.5326,23.4031,123.664,-58.3737,-4.82517,-47.9228,7.12502,20.9614,-76.8101,3.57812e-15,-2.06736e-14,33.3049,34.0033,-10.2262,29.9234,48.4357,-31.9956,-14.9676,7.12502,-5.24452,14.9475,-7.365,6.07485,-2.97722,2.44115,-24.6882,-24.5723,51.0677,-20.9557,-2.13927,-25.0495,13.4893,-12.7288,8.86625,8.91079
4.50689,17.6833,1.67307,22.1351,1.55242,-4.2578,-8.13171,-0.417675,4.61604,-14.0973,-0.246983,5.12249,-10.6218,-0.259631,2.97645,-3.49817,19.5175,14.0808,8.81494,24.9986,1.7434,4.65757,12.8184,0.12954,-2.8625e-14,6.20208e-14,-10.0199,-24.4943,23.2469,123.664,-58.4494,-4.65983,-48.01,7.12502,21.1202,-76.8796,-2.8625e-14,6.20208e-14,33.0631,33.7307,-10.5448,29.9486,48.4353,-31.9806,-14.9469,7.12502,-5.22998,14.9686,-7.47809,6.09332,-2.97418,2.76199,-24.5395,-24.5236,50.9725,-20.8846,-2.07989,-25.0879,13.496,-12.7643,8.82861,8.72579
4.50398,17.6819,1.67308,22.0376,1.53783,-4.22359,-8.06188,-0.475467,4.5417,-14.0975,-0.318002,5.137,-10.6597,-0.28672,3.03589,-3.3346,19.6089,13.9456,8.85417,25.1293,2.0265,4.59868,12.8944,0.212146,1.19271e-15,-3.02153e-14,-9.70383,-24.4888,22.8734,123.571,-58.3936,-4.49022,-48.0129,7.12502,21.2831,-76.8643,1.19271e-15,-3.02153e-14,32.9986,33.61,-10.6178,29.9362,48.3503,-32.1129,-15.0294,7.12502,-5.35777,14.8829,-7.35768,6.13501,-2.98685,2.72129,-25.0396,-24.1279,51.1721,-20.8048,-2.15254,-25.0925,13.547,-12.8309,8.85599,8.9374
4.49837,17.684,1.66804,21.9709,1.53919,-4.33259,-7.95188,-0.483838,4.56836,-14.0829,-0.318169,5.18655,-10.7082,-0.286224,3.07704,-3.43755,19.7429,13.5165,8.96316,25.2702,2.56163,4.53452,12.9796,0.415777,7.35503e-15,-6.36111e-15,-9.53299,-24.4357,22.5874,123.465,-58.1594,-4.66748,-47.8968,7.12502,21.1129,-76.7673,7.35503e-15,-6.36111e-15,33.1553,33.7115,-10.4111,29.8704,48.1348,-32.2787,-14.8771,7.12502,-5.5178,15.0311,-7.34654,6.20471,-2.82998,2.74026,-25.2564,-23.9723,51.2816,-20.7831,-2.26209,-24.9083,13.5651,-12.8232,8.97946,9.14844
4.49569,17.6865,1.66171,21.9026,1.54348,-4.4146,-7.8176,-0.468876,4.62092,-14.0791,-0.285997,5.20705,-10.7849,-0.274241,3.07287,-3.47999,19.7641,13.3363,8.99601,25.2928,2.69732,4.51314,12.9934,0.473706,5.96354e-15,-7.95139e-15,-9.52563,-24.3833,22.537,123.421,-58.0204,-4.62805,-47.8687,7.12502,21.1508,-76.7349,5.96354e-15,-7.95139e-15,33.285,33.7735,-10.2433,29.8303,47.9257,-32.4183,-14.7466,7.12502,-5.65259,15.158,-7.47533,6.26043,-2.7094,3.02575,-24.7558,-24.3912,50.9838,-20.7228,-2.17242,-24.8259,13.5372,-12.7644,8.9612,9.07101
4.49489,17.6865,1.65904,21.8819,1.51274,-4.39816,-7.78152,-0.465167,4.59849,-14.1152,-0.27633,5.19555,-10.8487,-0.268073,3.07555,-3.21425,19.7263,13.4574,8.89816,25.2941,2.5331,4.47753,12.9886,0.387311,-2.18663e-15,-2.38542e-14,-9.53563,-24.2533,22.576,123.468,-57.9712,-4.78269,-47.94,7.12502,21.0022,-76.8228,-2.18663e-15,-2.38542e-14,33.3279,33.7285,-10.1765,29.8491,47.7585,-32.6749,-15.0706,7.12502,-5.90037,14.8272,-7.61946,6.29105,-2.7209,3.32094,-25.0375,-23.9167,51.2034,-20.6859,-2.07934,-24.8706,13.5128,-12.7766,8.89516,9.06829
4.49202,17.685,1.65375,21.9314,1.42839,-4.30499,-7.78839,-0.45462,4.45181,-14.1613,-0.260934,5.16278,-10.8964,-0.24748,3.12324,-3.0113,19.6952,13.5491,8.82978,25.2863,2.46271,4.44475,12.9832,0.335034,-1.35174e-14,1.59028e-14,-9.54897,-24.1477,22.6051,123.536,-58.0664,-5.02026,-47.9854,7.12502,20.7739,-76.8933,-1.35174e-14,1.59028e-14,33.5886,33.8869,-9.85223,29.7611,47.248,-32.7816,-15.3725,7.12502,-6.00339,14.5224,-7.74131,6.31326,-2.84233,3.41496,-25.8742,-22.9067,51.7957,-20.7624,-2.22467,-24.9351,13.5102,-12.7171,9.03905,9.12022
4.49026,17.6836,1.65192,21.9662,1.42618,-4.19971,-7.8487,-0.477212,4.32973,-14.174,-0.296855,5.12948,-10.8718,-0.254881,3.15428,-3.015,19.6943,13.5597,8.91689,25.2725,2.56127,4.46103,12.9839,0.364508,2.38542e-15,-4.13472e-14,-9.48225,-24.2058,22.4998,123.525,-58.2466,-4.98041,-47.9377,7.12502,20.8122,-76.8414,2.38542e-15,-4.13472e-14,33.8029,34.0521,-9.5948,29.6557,46.7314,-32.7502,-15.4838,7.12502,-5.97308,14.412,-7.70959,6.2664,-2.94334,3.35024,-25.9452,-22.8137,51.817,-20.8266,-2.29292,-25.0269,13.5232,-12.6518,9.06308,8.85447
4.49281,17.6822,1.65732,21.9733,1.47375,-4.25841,-8.07955,-0.484171,4.45116,-14.1009,-0.330941,5.13024,-10.6509,-0.284345,3.07858,-3.07459,19.6725,13.6362,8.98881,25.2333,2.49485,4.50923,12.9656,0.349088,2.10712e-14,-5.88403e-14,-9.45661,-24.3013,22.3667,123.517,-58.3137,-5.21879,-47.8232,7.12502,20.5832,-76.7519,2.10712e-14,-5.88403e-14,33.6632,33.9961,-9.77618,29.7339,46.8151,-32.9134,-15.6398,7.12502,-6.1306,14.2515,-7.6438,6.24374,-2.86606,3.2775,-23.5928,-25.1586,50.106,-20.8106,-2.08907,-25.0242,13.5392,-12.7859,8.84436,8.66106
4.49488,17.6811,1.66049,21.9178,1.47048,-4.36504,-8.29767,-0.455851,4.61616,-13.9622,-0.322352,5.13088,-10.3625,-0.296312,2.97487,-2.893,19.5664,13.9589,8.73691,25.157,1.92594,4.51012,12.9043,0.133611,-1.98785e-14,2.54444e-14,-9.58002,-24.3095,22.3841,123.582,-58.3132,-5.39456,-47.7343,7.12502,20.4143,-76.6812,-1.98785e-14,2.54444e-14,33.6805,34.1408,-9.74664,29.7533,46.7374,-33.0704,-15.7826,7.12502,-6.28219,14.1042,-7.59062,6.3058,-2.75303,3.2319,-20.7478,-27.434,47.8386,-20.7263,-1.97454,-24.9499,13.5568,-12.9395,8.75143,8.80714
4.49494,17.6804,1.66108,21.8662,1.43062,-4.32774,-8.41619,-0.449133,4.59268,-13.8748,-0.3309,5.10073,-10.1887,-0.299698,2.94751,-2.60426,19.4829,14.3065,8.4464,25.1254,1.37717,4.48439,12.8669,-0.0884982,-4.31363e-14,7.63333e-14,-9.687,-24.2263,22.4366,123.627,-58.2742,-5.20945,-47.6098,7.12502,20.5922,-76.5375,-4.31363e-14,7.63333e-14,33.7408,34.2329,-9.67708,29.7325,46.5014,-33.1938,-15.9175,7.12502,-6.40133,13.9658,-7.63679,6.34756,-2.79558,3.36806,-19.9581,-27.9585,47.0443,-20.6594,-1.99282,-24.9955,13.5602,-12.9245,8.77749,8.8223
4.4923,17.6776,1.65979,21.8603,1.32407,-4.1951,-8.53035,-0.447871,4.39178,-13.7944,-0.342243,5.07382,-10.0221,-0.286653,3.02267,-2.57923,19.4898,14.3732,8.34697,25.1495,1.22527,4.47765,12.8708,-0.139824,-2.04748e-14,4.45278e-14,-9.76411,-24.1763,22.4624,123.639,-58.1746,-5.29866,-47.4017,7.12502,20.5064,-76.3387,-2.04748e-14,4.45278e-14,33.4804,34.0615,-9.96844,29.8906,46.7304,-33.763,-16.0154,7.12502,-6.9508,13.8504,-7.87863,6.3963,-2.95732,3.7776,-20.7912,-27.2107,47.6854,-20.6268,-2.02544,-25.1421,13.519,-12.8263,8.85354,8.78201
4.48728,17.6746,1.65178,21.8679,1.2042,-4.08654,-8.54429,-0.431177,4.18777,-13.7352,-0.322577,5.04969,-9.93985,-0.258024,3.10609,-2.62297,19.5715,14.2389,8.32757,25.2448,1.38194,4.44656,12.9194,-0.0759265,-2.10712e-14,9.54166e-15,-9.85473,-24.1134,22.4933,123.662,-58.0151,-5.52468,-47.1705,7.12502,20.2892,-76.1307,-2.10712e-14,9.54166e-15,33.6154,34.2884,-9.70827,29.931,46.6084,-34.3085,-15.9166,7.12502,-7.47735,13.9313,-8.23947,6.46209,-3.08481,4.33807,-23.4934,-24.7083,49.9038,-20.6248,-2.09599,-25.2442,13.4431,-12.7324,8.98816,8.73889
4.48497,17.6759,1.64252,21.8748,1.18209,-4.09269,-8.40782,-0.426261,4.16177,-13.7963,-0.300959,5.05158,-10.0912,-0.244716,3.12871,-2.5839,19.6492,14.1167,8.48127,25.3344,1.67175,4.44176,12.9779,0.0233907,-3.97569e-15,2.06736e-14,-9.82545,-23.9802,22.5017,123.716,-58.0672,-5.59296,-47.1465,7.12502,20.2236,-76.1137,-3.97569e-15,2.06736e-14,33.971,34.5223,-9.193,29.8542,46.2489,-34.1872,-15.7539,7.12502,-7.36027,14.098,-8.60224,6.48385,-3.06298,4.88568,-23.76,-24.2492,50.1948,-20.6454,-2.08484,-25.234,13.3775,-12.6595,9.01847,8.66786
4.48425,17.6771,1.63619,21.8283,1.22683,-4.10286,-8.25992,-0.439514,4.18814,-13.8615,-0.303238,5.05483,-10.2548,-0.248376,3.12433,-2.47232,19.6359,14.1118,8.58626,25.3273,1.75288,4.44693,12.9825,0.0393167,1.5704e-14,-2.8625e-14,-9.7466,-23.9051,22.4755,123.767,-58.2376,-5.45728,-47.2795,7.12502,20.354,-76.2328,1.5704e-14,-2.8625e-14,33.9916,34.3057,-9.16876,29.8853,46.2618,-33.8146,-15.4861,7.12502,-7.00058,14.3781,-8.77173,6.46939,-3.0147,5.25407,-22.8166,-24.9962,49.4766,-20.6094,-2.05136,-25.2188,13.3578,-12.648,8.9549,8.74136
4.4831,17.677,1.62986,21.8142,1.29849,-4.0867,-8.25808,-0.441122,4.21565,-13.8326,-0.308755,5.02937,-10.2217,-0.25532,3.07977,-2.42911,19.5902,14.1715,8.55588,25.2845,1.60495,4.45506,12.9564,-0.0141109,-1.35174e-14,-1.59028e-15,-9.76636,-23.9575,22.4267,123.769,-58.2004,-5.36454,-47.3385,7.12502,20.4431,-76.2823,-1.35174e-14,-1.59028e-15,33.9387,34.143,-9.26691,29.9531,46.3899,-33.5446,-15.175,7.12502,-6.74,14.6977,-8.82231,6.40934,-2.99096,5.40401,-23.4205,-24.4469,49.8329,-20.6187,-2.04272,-25.2194,13.3913,-12.71,8.83421,8.94585
4.48276,17.6785,1.62718,21.8469,1.35015,-4.09639,-8.46097,-0.439282,4.25989,-13.7242,-0.329818,5.02422,-9.97627,-0.270067,3.03948,-2.53126,19.4827,14.4085,8.56537,25.1542,1.14141,4.55557,12.8785,-0.15377,1.43125e-14,-1.43125e-14,-9.81695,-24.0922,22.3861,123.776,-58.1791,-5.41719,-47.3254,7.12502,20.3925,-76.2747,1.43125e-14,-1.43125e-14,33.7774,34.1045,-9.44471,30.0443,46.5632,-33.0328,-15.1619,7.12502,-6.24587,14.726,-8.89352,6.3567,-2.95758,5.46982,-22.5772,-25.2785,49.1241,-20.6995,-2.02159,-25.199,13.4572,-12.7755,8.73155,9.19113
4.4836,17.6792,1.62527,21.8254,1.33626,-4.142,-8.63335,-0.41205,4.34392,-13.6196,-0.315909,5.01353,-9.75558,-0.271506,2.97215,-2.40666,19.3153,14.6803,8.38329,24.9867,0.612485,4.57011,12.7769,-0.354843,1.05356e-14,-1.74931e-14,-9.84568,-24.1718,22.3125,123.783,-58.2286,-5.12313,-47.2273,7.12502,20.6751,-76.146,1.05356e-14,-1.74931e-14,33.5537,33.9333,-9.725,30.1834,46.817,-32.5714,-15.3007,7.12502,-5.80038,14.6,-8.96471,6.39355,-2.91078,5.55815,-21.3004,-26.3625,48.0901,-20.7455,-2.02084,-25.1477,13.5327,-12.7939,8.74751,9.17147
4.48698,17.6794,1.61592,21.8099,1.36314,-4.21997,-8.59644,-0.382747,4.50412,-13.6021,-0.27904,4.99814,-9.76042,-0.269629,2.8665,-2.17072,19.251,14.6816,8.17045,24.9514,0.502324,4.47875,12.7514,-0.425626,1.21259e-14,-3.18055e-15,-9.87155,-24.218,22.3167,123.807,-58.2941,-4.98558,-47.2281,7.12502,20.8073,-76.1325,1.21259e-14,-3.18055e-15,33.5432,33.8424,-9.72732,30.2277,46.7478,-32.3633,-15.3834,7.12502,-5.59953,14.5226,-9.02594,6.40122,-2.83347,5.62612,-21.4444,-26.3236,48.1892,-20.803,-2.05934,-25.058,13.6222,-12.8272,8.74657,9.23357
4.49037,17.6796,1.60517,21.7987,1.36682,-4.22499,-8.49438,-0.356864,4.58118,-13.6194,-0.238127,4.96924,-9.84196,-0.258838,2.79536,-2.18779,19.3393,14.3753,8.30148,25.046,0.911897,4.43938,12.8112,-0.274657,-1.72943e-14,3.49861e-14,-9.95709,-24.2339,22.5642,123.888,-58.46,-5.09041,-47.2491,7.12502,20.7065,-76.1644,-1.72943e-14,3.49861e-14,33.6428,33.8117,-9.5623,30.2006,46.3696,-31.8968,-15.2244,7.12502,-5.14913,14.693,-9.06158,6.39928,-2.85171,5.65088,-20.6594,-26.9813,47.5023,-20.8637,-2.08833,-25.0626,13.7362,-12.8895,8.73701,9.47314
4.49117,17.6795,1.60133,21.7345,1.3453,-4.19571,-8.40526,-0.32991,4.6025,-13.6528,-0.195363,4.92767,-9.93348,-0.242576,2.74178,-2.19187,19.4516,13.9851,8.55306,25.1609,1.51675,4.4016,12.8911,-0.0588195,5.96354e-16,1.27222e-14,-9.97041,-24.1124,22.6872,123.938,-58.6669,-4.85174,-47.1346,7.12502,20.9359,-76.0248,5.96354e-16,1.27222e-14,33.671,33.6405,-9.48929,30.2307,45.9871,-31.2712,-15.0725,7.12502,-4.54502,14.8588,-9.07742,6.43111,-2.88931,5.77,-18.5669,-28.3092,45.5917,-20.8692,-2.03566,-25.12,13.8399,-12.946,8.72395,9.33919
4.49292,17.6796,1.59856,21.6742,1.39157,-4.18578,-8.35338,-0.346767,4.68159,-13.6983,-0.214206,4.89907,-10.0183,-0.262162,2.67034,-1.98607,19.4866,13.9203,8.7184,25.2173,1.79417,4.38215,12.9358,0.0125405,-2.78299e-14,4.13472e-14,-9.85257,-23.8981,22.5038,123.965,-58.7642,-4.7339,-47.1048,7.12502,21.0491,-75.9824,-2.78299e-14,4.13472e-14,33.7669,33.5901,-9.30171,30.2206,45.4697,-30.8661,-15.2241,7.12502,-4.15382,14.7151,-9.11345,6.41216,-2.86848,5.99309,-17.3955,-28.8583,44.2995,-20.8775,-1.92266,-25.1631,13.9239,-12.9818,8.61145,8.99993
4.4934,17.6765,1.59353,21.6404,1.41149,-4.09729,-8.40978,-0.381723,4.65815,-13.6683,-0.270899,4.8526,-9.94809,-0.29094,2.6304,-1.90393,19.4152,14.2011,8.88279,25.1323,1.62953,4.47289,12.9005,-0.057834,8.74653e-15,-3.18055e-15,-9.84692,-23.6785,22.3861,124.054,-58.6697,-5.12123,-47.0268,7.12502,20.6769,-75.9453,8.74653e-15,-3.18055e-15,33.8601,33.6254,-9.16963,30.2071,45.2753,-30.8151,-15.2505,7.12502,-4.1046,14.6897,-9.13212,6.37788,-2.94262,6.1169,-18.3418,-28.315,44.9526,-20.9185,-1.78164,-25.302,14.0567,-13.046,8.4569,8.67172
4.48932,17.673,1.5907,21.5527,1.44731,-4.04491,-8.43748,-0.411913,4.60204,-13.5769,-0.319663,4.83689,-9.82237,-0.309953,2.63925,-2.01899,19.33,14.35,9.04366,25.008,1.44029,4.57771,12.84,-0.107904,8.15017e-15,-1.43125e-14,-9.95096,-23.5549,22.4268,124.173,-58.6703,-5.40483,-46.819,7.12502,20.4044,-75.767,8.15017e-15,-1.43125e-14,33.7133,33.4688,-9.33618,30.3218,45.539,-30.8222,-15.0841,7.12502,-4.11141,14.856,-9.10792,6.36765,-2.94609,6.27274,-19.4046,-27.6574,45.8283,-20.8949,-1.64648,-25.3756,14.1908,-13.131,8.30962,8.43216
4.48441,17.6735,1.58994,21.4774,1.52637,-4.22614,-8.47792,-0.419247,4.76549,-13.4912,-0.33682,4.91031,-9.70297,-0.32885,2.62312,-2.149,19.336,14.2167,9.21063,24.9943,1.52065,4.62402,12.8378,-0.0527682,-2.52457e-14,5.40694e-14,-9.93382,-23.5622,22.3599,124.226,-58.6551,-5.01412,-46.6992,7.12502,20.7798,-75.6065,-2.52457e-14,5.40694e-14,33.2145,32.9793,-9.90852,30.6235,46.1886,-30.8002,-14.9766,7.12502,-4.0902,14.9639,-9.18182,6.40084,-2.67037,6.54988,-19.3967,-27.5649,45.791,-20.8894,-1.53384,-25.1669,14.2766,-13.1393,8.21888,8.48836
4.47837,17.6746,1.58697,21.4708,1.48067,-4.33855,-8.60271,-0.39607,4.79976,-13.3732,-0.321846,4.95916,-9.49445,-0.320221,2.64853,-2.27581,19.3597,14.116,9.25869,25.007,1.55999,4.6423,12.8434,-0.0166217,2.46493e-14,-5.08889e-14,-9.85152,-23.654,22.1278,124.191,-58.3778,-4.44029,-46.7439,7.12502,21.3311,-75.5899,2.46493e-14,-5.08889e-14,32.6742,32.5138,-10.5786,30.9564,47.0182,-31.0035,-15.1183,7.12502,-4.28649,14.8183,-9.24922,6.49104,-2.52153,6.59416,-20.0225,-27.1054,46.3266,-21.0067,-1.4822,-25.0282,14.442,-13.1668,8.25559,8.68484
4.47326,17.6765,1.5784,21.4354,1.42681,-4.33972,-8.61446,-0.378445,4.73236,-13.2452,-0.306606,4.95457,-9.33691,-0.305289,2.67428,-2.142,19.3888,14.0921,8.92664,25.0839,1.42508,4.53417,12.8648,-0.0782474,2.08724e-14,-2.8625e-14,-9.79345,-23.7637,21.8791,124.106,-58.1085,-4.65854,-46.94,7.12502,21.1215,-75.8096,2.08724e-14,-2.8625e-14,32.2832,32.2304,-11.0754,31.193,47.5678,-31.0484,-15.3546,7.12502,-4.32985,14.5812,-9.11082,6.55792,-2.50312,6.31349,-20.2057,-27.0952,46.4215,-21.151,-1.51062,-24.9892,14.7155,-13.3093,8.29216,8.96987
4.47362,17.6796,1.56901,21.4115,1.61345,-4.58444,-8.55256,-0.381404,5.06729,-13.2318,-0.310153,5.00733,-9.36574,-0.335219,2.54647,-1.99619,19.3973,14.0255,8.81468,25.1247,1.41962,4.47109,12.8808,-0.0930254,-2.38542e-15,2.06736e-14,-9.6943,-23.7479,21.6641,124.049,-58.0122,-5.52516,-47.139,7.12502,20.2888,-76.0993,-2.38542e-15,2.06736e-14,32.1257,32.0061,-11.2199,31.3337,47.65,-30.6345,-15.4821,7.12502,-3.93024,14.4614,-9.00142,6.49469,-2.15617,6.12686,-18.4439,-28.4277,44.7363,-21.2964,-1.54628,-24.6651,14.9396,-13.4353,8.1966,9.16511
4.47822,17.6797,1.56306,21.3256,1.83518,-4.81367,-8.40106,-0.380324,5.4643,-13.2829,-0.297146,5.041,-9.52375,-0.365167,2.36918,-2.37744,19.3163,13.9393,9.47538,24.9284,1.70367,4.6838,12.813,0.0523703,7.95139e-16,7.95139e-15,-9.6398,-23.6496,21.579,124.076,-58.1786,-5.58276,-47.3258,7.12502,20.2334,-76.292,7.95139e-16,7.95139e-15,32.3031,31.9527,-10.9012,31.3521,47.3128,-29.9894,-15.5789,7.12502,-3.30719,14.3752,-8.96063,6.41257,-1.83509,6.23045,-15.6216,-29.9943,42.0557,-21.2972,-1.51709,-24.4085,15.058,-13.503,8.05704,8.99294
4.47785,17.6773,1.54943,21.1409,1.8773,-4.67988,-8.08062,-0.392223,5.3629,-13.2236,-0.289529,4.97922,-9.63633,-0.35585,2.36167,-3.13276,19.2086,13.9337,10.3,24.6373,1.89077,5.02551,12.6984,0.206287,5.76476e-15,-1.11319e-14,-9.70854,-23.7696,21.6066,124.136,-58.5485,-4.83397,-47.6065,7.12502,20.9529,-76.4947,5.76476e-15,-1.11319e-14,32.3831,31.9302,-10.7682,31.3912,47.1919,-29.4363,-15.7183,7.12502,-2.7731,14.2434,-8.91471,6.39695,-1.94699,6.47905,-15.5106,-29.9595,42.1002,-21.1654,-1.43219,-24.5804,15.1177,-13.5092,7.91852,8.7467
4.46878,17.6764,1.52862,21.0669,1.87647,-4.37543,-7.84124,-0.442353,4.93789,-13.0608,-0.344911,4.90141,-9.57256,-0.346617,2.50918,-3.64656,19.2444,13.769,10.4475,24.6081,1.94059,5.12462,12.6808,0.293204,-1.47101e-14,1.90833e-14,-9.75149,-24.1416,21.5081,124.12,-58.7643,-4.73449,-47.8511,7.12502,21.0485,-76.7288,-1.47101e-14,1.90833e-14,32.1733,31.8869,-11.0601,31.5413,47.4074,-29.3504,-15.7399,7.12502,-2.69013,14.2229,-9.12525,6.32728,-2.21833,6.97348,-15.4951,-29.8195,42.0008,-21.1254,-1.45793,-24.8736,15.07,-13.4136,7.83928,8.70135
4.46309,17.6764,1.51599,21.0883,1.88894,-4.19914,-7.7475,-0.480386,4.73182,-13.1681,-0.3804,4.86135,-9.74608,-0.34844,2.58752,-2.76604,19.261,13.7493,10.0035,24.781,1.9039,4.85717,12.7583,0.181439,1.33186e-14,-1.74931e-14,-9.51815,-23.9937,21.3316,124.084,-58.8156,-5.26523,-47.9018,7.12502,20.5386,-76.8354,1.33186e-14,-1.74931e-14,31.7435,31.1011,-11.6232,31.8583,47.8904,-29.971,-15.7107,7.12502,-3.28941,14.2437,-9.57684,6.25039,-2.37462,7.74248,-17.9581,-28.279,44.4094,-21.09,-1.56337,-25.0198,14.8867,-13.2929,7.85105,8.667
4.462,17.6754,1.50921,21.0646,1.87448,-4.11734,-7.60117,-0.497161,4.64666,-13.1865,-0.390318,4.83915,-9.85015,-0.347177,2.61486,-2.61273,19.2712,13.6983,10.0618,24.8194,1.9399,4.84348,12.7808,0.186851,-1.0138e-14,1.35174e-14,-9.37834,-23.9863,21.1981,124.058,-58.8825,-5.74818,-47.9718,7.12502,20.0744,-76.9547,-1.0138e-14,1.35174e-14,31.3424,30.5635,-12.0754,32.1417,48.2511,-30.8899,-16.0586,7.12502,-4.17679,13.8802,-9.93544,6.24275,-2.46838,8.42332,-19.6043,-27.0134,46.0508,-20.9925,-1.56251,-25.1178,14.7182,-13.2014,7.82974,8.44633
4.45843,17.6727,1.50506,20.999,1.8174,-3.98576,-7.54592,-0.508719,4.46809,-13.1314,-0.405321,4.80598,-9.81297,-0.339296,2.67637,-2.6775,19.2185,13.7147,10.2381,24.745,1.86859,4.91759,12.7467,0.178281,-7.95139e-16,-1.43125e-14,-9.34369,-23.9974,21.1077,124.081,-58.8672,-5.89173,-48.1484,7.12502,19.9364,-77.1457,-7.95139e-16,-1.43125e-14,31.1535,30.3009,-12.2444,32.3244,48.435,-31.1428,-16.1155,7.12502,-4.42106,13.8183,-10.0606,6.27417,-2.60985,8.7641,-20.4145,-26.2898,46.9099,-20.9235,-1.53629,-25.272,14.7091,-13.1716,7.81316,8.44398
4.45419,17.6721,1.50445,20.9685,1.7556,-3.98821,-7.66338,-0.490709,4.42167,-13.0738,-0.393565,4.80631,-9.67648,-0.328378,2.69686,-2.67969,19.1489,13.7386,10.4334,24.6511,1.85102,4.98131,12.707,0.175679,2.5842e-14,-1.59028e-14,-9.34523,-23.8475,21.0466,124.132,-58.56,-5.9476,-48.0135,7.12502,19.8827,-77.0164,2.5842e-14,-1.59028e-14,31.1636,30.2286,-12.148,32.4119,48.3444,-30.8073,-15.5384,7.12502,-4.09708,14.4019,-10.1461,6.34424,-2.60655,8.89246,-20.7124,-26.0884,47.1669,-20.9604,-1.45834,-25.2766,14.8043,-13.1893,7.78834,8.7217
4.45227,17.6742,1.50186,20.9822,1.7628,-4.20407,-7.874,-0.451083,4.63887,-12.9937,-0.361716,4.86476,-9.46743,-0.328338,2.63109,-2.95173,19.1053,13.6416,10.8409,24.5407,1.98061,5.121,12.6665,0.262057,-9.93923e-15,-7.95139e-15,-9.3398,-23.6859,20.989,124.159,-58.2983,-6.22354,-47.6907,7.12502,19.6175,-76.7209,-9.93923e-15,-7.95139e-15,31.1989,30.248,-11.9873,32.4357,48.1538,-30.8903,-15.4524,7.12502,-4.17722,14.4864,-10.3011,6.40978,-2.3648,9.00462,-18.5021,-27.6583,45.0538,-21.0744,-1.38092,-25.039,14.9134,-13.1884,7.77536,8.96075
4.45229,17.6751,1.49776,20.9461,1.84108,-4.34045,-8.03507,-0.438798,4.81711,-12.8575,-0.367689,4.90709,-9.22111,-0.343464,2.56804,-3.30142,19.0144,13.6042,11.1968,24.375,1.90451,5.28704,12.5879,0.288164,-1.74931e-14,1.43125e-14,-9.25732,-23.5998,20.792,124.109,-58.1716,-6.29838,-47.5608,7.12502,19.5455,-76.5983,-1.74931e-14,1.43125e-14,31.21,30.3328,-11.8532,32.4334,47.9568,-31.2447,-15.9571,7.12502,-4.51946,13.9747,-10.3431,6.4046,-2.17752,9.13293,-15.9612,-29.0606,42.5683,-21.134,-1.39662,-24.8691,15.0465,-13.2127,7.76328,9.06131
4.44905,17.6744,1.49348,20.9283,1.86107,-4.28389,-8.09309,-0.433639,4.76244,-12.7717,-0.371495,4.88152,-9.08681,-0.340638,2.56537,-3.52293,18.8789,13.6461,11.3996,24.1736,1.7464,5.40207,12.4865,0.257867,2.44505e-14,-6.2816e-14,-9.15332,-23.4409,20.5146,124.085,-57.9997,-6.25783,-47.5579,7.12502,19.5845,-76.5915,2.44505e-14,-6.2816e-14,31.4252,30.5993,-11.4811,32.3598,47.349,-31.6128,-16.2105,7.12502,-4.87489,13.7134,-10.3761,6.37859,-2.20593,9.26379,-17.4745,-28.2539,44.1326,-21.212,-1.39996,-24.9145,15.1867,-13.2842,7.7151,9.00455
4.44179,17.6743,1.48691,20.9552,1.78538,-4.21086,-8.0683,-0.411277,4.62168,-12.7546,-0.34044,4.83826,-9.07791,-0.314709,2.59643,-3.65773,18.7986,13.6878,11.5761,24.0525,1.65945,5.48997,12.4279,0.243644,-8.54774e-15,7.95139e-16,-9.08956,-23.2482,20.3148,124.152,-57.8685,-6.62726,-47.6253,7.12502,19.2293,-76.6946,-8.54774e-15,7.95139e-16,31.6178,30.7367,-11.174,32.3418,46.8884,-32.5151,-16.4472,7.12502,-5.7461,13.4549,-10.5458,6.41579,-2.27819,9.45645,-18.4314,-27.5869,45.0754,-21.3209,-1.32026,-24.9983,15.2614,-13.292,7.67741,9.06351
4.43941,17.6758,1.47887,20.9179,1.84091,-4.22186,-7.98307,-0.423379,4.62905,-12.736,-0.351297,4.83215,-9.10546,-0.321129,2.5865,-3.79974,18.803,13.6927,11.9013,24.038,1.65802,5.61733,12.4283,0.277187,-7.55382e-15,8.74653e-15,-8.95415,-23.1986,20.0553,124.168,-57.7977,-7.09399,-47.7656,7.12502,18.7804,-76.879,-7.55382e-15,8.74653e-15,31.53,30.5474,-11.2444,32.4827,47.074,-33.2531,-16.7444,7.12502,-6.45853,13.1371,-10.6544,6.38909,-2.22291,9.72671,-18.2346,-27.5614,44.8658,-21.3476,-1.20921,-24.9952,15.2664,-13.2318,7.51802,9.17053
4.44209,17.6766,1.47564,20.8633,1.99581,-4.20106,-7.98701,-0.467305,4.66487,-12.6881,-0.41358,4.83616,-9.04797,-0.354571,2.56854,-3.88592,18.8087,13.7037,12.1984,24.0381,1.62343,5.73274,12.4338,0.29542,5.96354e-16,6.36111e-15,-8.83864,-23.2895,19.7992,124.144,-57.7748,-6.63605,-47.8309,7.12502,19.2208,-76.9011,5.96354e-16,6.36111e-15,31.2901,30.272,-11.4861,32.6676,47.3494,-32.9776,-16.5846,7.12502,-6.19258,13.3049,-10.6821,6.2664,-2.1895,10.0082,-16.3838,-28.4754,42.924,-21.2934,-1.19203,-25.012,15.2434,-13.2128,7.33336,9.20248
4.44297,17.6754,1.47731,20.828,2.01602,-4.0872,-8.10477,-0.471208,4.57929,-12.5487,-0.438142,4.79099,-8.81703,-0.359962,2.55828,-3.92049,18.7521,13.7731,12.2172,23.9809,1.39468,5.77807,12.3953,0.226589,1.66979e-14,-1.43125e-14,-8.84864,-23.4705,19.6339,124.133,-57.736,-5.66117,-47.7465,7.12502,20.158,-76.7206,1.66979e-14,-1.43125e-14,31.0082,30.0901,-11.815,32.8342,47.4459,-32.2535,-16.1602,7.12502,-5.49351,13.7486,-10.7308,6.10838,-2.29147,10.2354,-14.228,-29.2629,40.4922,-21.2126,-1.24871,-25.1326,15.2338,-13.2473,7.32241,9.32003
4.44068,17.6757,1.46931,20.7872,1.98516,-3.98094,-8.10481,-0.44953,4.49101,-12.4136,-0.419301,4.72975,-8.65969,-0.344843,2.53528,-4.22675,18.7433,13.6472,12.4329,23.9201,1.48958,5.86627,12.3682,0.301358,1.19271e-15,1.59028e-15,-8.84594,-23.5885,19.4886,124.089,-57.6391,-5.19703,-47.6271,7.12502,20.6041,-76.5536,1.19271e-15,1.59028e-15,30.8629,30.0323,-12.0047,32.991,47.6084,-31.2241,-15.6907,7.12502,-4.49954,14.2415,-10.7973,6.08623,-2.40592,10.369,-13.9035,-29.2875,39.8799,-21.2111,-1.3445,-25.2242,15.2697,-13.2727,7.4058,9.41576
4.43828,17.6769,1.45201,20.7362,2.10174,-4.00582,-7.91919,-0.468877,4.56695,-12.4249,-0.431051,4.72889,-8.78079,-0.357949,2.49632,-4.62311,18.7558,13.4371,13.0711,23.8447,1.886,6.05866,12.3591,0.500093,-1.82882e-14,3.57812e-14,-8.71963,-23.466,19.3246,124.057,-57.5449,-5.10195,-47.5346,7.12502,20.6955,-76.4511,-1.82882e-14,3.57812e-14,30.9138,29.9181,-11.8992,33.113,47.7467,-30.0109,-15.3429,7.12502,-3.32801,14.6108,-10.8211,5.99735,-2.31747,10.4628,-12.5056,-29.593,37.3793,-21.2385,-1.44214,-25.1499,15.3249,-13.2775,7.42795,9.26324
4.44043,17.6766,1.44412,20.6797,2.29321,-4.14617,-7.80542,-0.485119,4.81597,-12.4393,-0.445221,4.75553,-8.86899,-0.385866,2.3899,-4.85851,18.7195,13.3007,13.5068,23.7498,2.07375,6.19424,12.328,0.60479,2.3059e-14,-1.90833e-14,-8.61757,-23.3202,19.1983,124.108,-57.573,-5.15511,-47.4802,7.12502,20.6444,-76.4023,2.3059e-14,-1.90833e-14,31.0874,29.9269,-11.576,33.1568,47.4758,-29.422,-15.4444,7.12502,-2.75927,14.5175,-10.8269,5.77106,-2.08221,10.6299,-7.34983,-31.0191,31.1136,-21.209,-1.41807,-24.9936,15.3663,-13.2721,7.31161,9.18093
4.4408,17.6758,1.44187,20.6068,2.33943,-4.16499,-7.81119,-0.471504,4.86737,-12.3364,-0.435158,4.75016,-8.74893,-0.384231,2.35077,-5.0061,18.6995,13.2079,13.6495,23.7066,2.10154,6.24778,12.3069,0.64001,9.74045e-15,-2.78299e-14,-8.63684,-23.2098,19.1429,124.23,-57.7148,-5.69461,-47.5006,7.12502,20.1259,-76.4781,9.74045e-15,-2.78299e-14,31.1619,30.0817,-11.338,33.2768,47.3172,-29.1804,-16.1095,7.12502,-2.52591,13.8553,-10.8751,5.65501,-2.0301,10.8324,-4.84471,-31.4099,28.2465,-21.1407,-1.37808,-24.9842,15.3962,-13.2649,7.23756,9.28033
4.43293,17.6751,1.43153,20.5638,2.17013,-3.96968,-7.75518,-0.448483,4.5473,-12.2635,-0.401749,4.69696,-8.68964,-0.341884,2.4688,-5.11451,18.6904,13.2154,13.9812,23.669,2.16958,6.36454,12.2998,0.686622,1.13307e-14,-1.98785e-14,-8.6692,-23.0038,19.0574,124.334,-57.7498,-6.25486,-47.5003,7.12502,19.5873,-76.5336,1.13307e-14,-1.98785e-14,30.9862,29.8871,-11.4906,33.5645,47.6502,-28.8789,-16.9764,7.12502,-2.23477,12.9916,-11.027,5.74371,-2.27286,10.9748,-2.3519,-31.7986,25.2896,-21.1385,-1.42635,-25.1831,15.4132,-13.2138,7.34998,9.26457
4.42365,17.676,1.42018,20.5423,2.01539,-3.79048,-7.6229,-0.434804,4.24256,-12.2834,-0.368966,4.65635,-8.7818,-0.301643,2.59767,-5.05869,18.6351,13.123,14.2369,23.6035,2.25319,6.4153,12.2772,0.721239,1.2921e-14,-2.38542e-15,-8.58642,-22.8227,18.9036,124.356,-57.52,-6.34735,-47.4038,7.12502,19.4984,-76.4462,1.2921e-14,-2.38542e-15,30.8249,29.4578,-11.6733,33.8194,47.8063,-28.6371,-17.2952,7.12502,-2.00125,12.6752,-11.1855,5.89922,-2.49728,11.0955,-0.0263815,-31.9643,21.8228,-21.1942,-1.43952,-25.3626,15.4294,-13.1366,7.4335,9.35567
4.41951,17.6772,1.41626,20.4696,2.06587,-3.79688,-7.48498,-0.440344,4.24384,-12.304,-0.364566,4.65322,-8.88482,-0.30004,2.59709,-4.84484,18.5521,13.0009,14.2387,23.5373,2.26012,6.36339,12.2443,0.704644,9.14409e-15,2.38542e-15,-8.48161,-22.6151,18.7313,124.342,-57.2269,-6.55564,-47.2392,7.12502,19.2981,-76.3017,9.14409e-15,2.38542e-15,30.8061,29.0945,-11.7106,34.0074,47.9266,-28.0215,-16.8853,7.12502,-1.40663,13.0898,-11.1495,5.97528,-2.44843,11.1676,2.13952,-31.8018,17.8149,-21.1906,-1.47112,-25.3235,15.5049,-13.1294,7.43882,9.55126
4.41993,17.6753,1.4168,20.3945,2.12427,-3.98113,-7.3755,-0.400642,4.47675,-12.2798,-0.308171,4.64392,-8.92596,-0.292969,2.45865,-4.90086,18.5044,13.057,14.3754,23.4701,2.19472,6.42889,12.2124,0.688903,6.36111e-15,-1.51076e-14,-8.56626,-22.3591,18.5979,124.421,-57.2189,-6.82264,-47.1788,7.12502,19.0414,-76.2668,6.36111e-15,-1.51076e-14,30.7703,28.8455,-11.8353,34.252,48.3974,-27.4423,-16.4121,7.12502,-0.847251,13.566,-11.0038,5.8788,-2.18915,11.07,5.24409,-31.3273,12.3181,-21.1818,-1.50001,-25.1095,15.6711,-13.217,7.49229,9.76937
4.42041,17.6741,1.41652,20.2945,2.15823,-4.19618,-7.32131,-0.354442,4.72746,-12.1796,-0.251025,4.65686,-8.84841,-0.284855,2.32991,-5.1371,18.4728,13.1078,14.6104,23.4036,2.09726,6.55879,12.1778,0.689444,4.57205e-15,-5.56597e-15,-8.66755,-22.2335,18.4909,124.542,-57.2593,-6.6659,-47.2563,7.12502,19.1921,-76.3293,4.57205e-15,-5.56597e-15,30.5896,28.6794,-12.0466,34.5449,48.83,-27.6595,-16.2284,7.12502,-1.05708,13.7487,-10.7949,5.74779,-1.89338,10.8857,4.92396,-31.3303,13.6796,-21.1721,-1.44909,-24.8819,15.882,-13.3435,7.49877,9.9658
4.41903,17.6762,1.41424,20.1817,2.20231,-4.2957,-7.37711,-0.333625,4.83457,-12.0458,-0.236653,4.67592,-8.66587,-0.283888,2.28419,-5.23099,18.4126,13.0782,14.8184,23.3152,2.08269,6.63652,12.1363,0.700872,-4.96962e-15,7.15625e-15,-8.61942,-22.3244,18.365,124.556,-57.221,-6.17016,-47.3336,7.12502,19.6688,-76.3586,-4.96962e-15,7.15625e-15,30.5047,28.6275,-12.069,34.7265,48.7752,-27.9658,-16.0082,7.12502,-1.3529,13.9673,-10.6482,5.74476,-1.72862,10.8302,4.42625,-31.46,14.8151,-21.1762,-1.3795,-24.7743,16.0834,-13.4284,7.45136,9.95087
4.41627,17.6771,1.4091,20.1379,2.16658,-4.34229,-7.47749,-0.291842,4.86415,-11.9685,-0.194531,4.67329,-8.52082,-0.263949,2.25999,-5.28836,18.3354,12.9568,15.0952,23.1947,2.2294,6.69926,12.0888,0.761961,1.74931e-14,-3.02153e-14,-8.48639,-22.4508,18.1165,124.541,-57.2057,-6.07952,-47.3667,7.12502,19.7559,-76.3827,1.74931e-14,-3.02153e-14,30.5411,28.5496,-11.9466,34.8779,48.5439,-28.2934,-15.8482,7.12502,-1.66927,14.125,-10.6826,5.80195,-1.66178,10.8769,3.82684,-31.5947,15.7149,-21.2536,-1.33566,-24.7218,16.2496,-13.4685,7.47478,9.91993
4.41269,17.6759,1.39919,20.1676,2.15052,-4.35055,-7.56321,-0.257618,4.87753,-11.9306,-0.158805,4.66404,-8.42883,-0.246707,2.23978,-5.41984,18.2607,12.7312,15.4251,23.0791,2.38213,6.77874,12.0399,0.845868,-1.21259e-14,1.51076e-14,-8.35536,-22.4688,17.8638,124.534,-57.0775,-5.62494,-47.3292,7.12502,20.1929,-76.2997,-1.21259e-14,1.51076e-14,30.2917,28.1003,-12.2193,35.207,48.8553,-28.8829,-16.032,7.12502,-2.23863,13.936,-10.7935,5.66215,-1.62483,10.9636,3.34748,-31.6068,16.6489,-21.3964,-1.32953,-24.7004,16.3714,-13.4715,7.48264,10.0078
4.4127,17.6758,1.39213,20.1831,2.24712,-4.35269,-7.67435,-0.25554,4.95434,-11.8502,-0.172795,4.64568,-8.27516,-0.25928,2.17256,-5.5445,18.1978,12.6289,15.6737,22.9908,2.37944,6.86526,11.9962,0.872905,3.97569e-16,2.54444e-14,-8.27466,-22.4709,17.6828,124.505,-57.0161,-4.67947,-47.3323,7.12502,21.1014,-76.2041,3.97569e-16,2.54444e-14,30.1181,27.8306,-12.4237,35.432,48.8601,-29.0483,-16.2389,7.12502,-2.39836,13.7274,-10.8656,5.35736,-1.55127,11.1456,2.08335,-31.6312,19.2929,-21.4713,-1.34078,-24.6925,16.4415,-13.4736,7.42403,9.92182
4.41259,17.6772,1.38623,20.1101,2.32052,-4.32451,-7.67558,-0.259832,4.98807,-11.7835,-0.186127,4.59923,-8.19889,-0.270036,2.10143,-5.22631,18.1219,12.8022,15.6337,22.9546,2.13825,6.84873,11.9728,0.751317,-1.99779e-14,2.06736e-14,-8.17123,-22.3666,17.3826,124.472,-57.0113,-4.76651,-47.3575,7.12502,21.0177,-76.2386,-1.99779e-14,2.06736e-14,30.3335,27.9803,-12.089,35.4914,48.2015,-28.8629,-16.1911,7.12502,-2.21933,13.7771,-10.8748,5.18676,-1.52442,11.3453,1.06333,-31.6568,21.3529,-21.432,-1.34742,-24.7161,16.483,-13.4949,7.34618,9.92287
4.40694,17.6774,1.37815,19.9686,2.31461,-4.17317,-7.50839,-0.267809,4.81496,-11.754,-0.184938,4.5318,-8.25686,-0.258799,2.12655,-4.88261,18.0755,12.9294,15.7055,22.9479,2.03177,6.84464,11.9742,0.679517,1.09332e-15,1.90833e-14,-8.00283,-22.22,17.046,124.423,-56.8417,-4.89888,-47.352,7.12502,20.8906,-76.2472,1.09332e-15,1.90833e-14,30.2815,27.7534,-12.1564,35.7677,48.222,-28.2171,-16.2865,7.12502,-1.59558,13.6873,-10.7859,5.13218,-1.65255,11.4155,1.53411,-31.614,20.4053,-21.3534,-1.28112,-24.8743,16.5597,-13.5315,7.20566,10.0585
4.4026,17.6774,1.3688,19.8179,2.39214,-4.04828,-7.31476,-0.303681,4.69752,-11.7144,-0.220077,4.48521,-8.3199,-0.269166,2.14316,-5.09259,18.0274,12.8551,16.2442,22.828,2.26141,7.01539,11.9381,0.791927,7.55382e-15,-2.78299e-14,-7.91261,-21.9991,16.9221,124.441,-56.6503,-4.91514,-47.1825,7.12502,20.8749,-76.0794,7.55382e-15,-2.78299e-14,29.962,27.2317,-12.6458,36.1142,48.6101,-27.2133,-16.506,7.12502,-0.626108,13.4728,-10.5911,5.0144,-1.72428,11.3707,3.46259,-31.435,16.8688,-21.2968,-1.28418,-24.9882,16.6977,-13.5803,7.1102,9.98955
4.39837,17.6779,1.35841,19.7657,2.51073,-4.1629,-7.22649,-0.322208,4.81362,-11.7095,-0.238712,4.50309,-8.36755,-0.287434,2.09913,-5.28993,17.9155,12.8525,16.7031,22.6398,2.33517,7.18264,11.8602,0.83976,-7.95139e-15,2.62396e-14,-7.90752,-21.6413,16.8628,124.505,-56.5821,-5.36313,-46.8879,7.12502,20.4445,-75.8316,-7.95139e-15,2.62396e-14,29.8362,26.912,-12.835,36.3256,48.7084,-26.9368,-16.7023,7.12502,-0.359022,13.2772,-10.4986,5.02281,-1.5381,11.2837,2.42225,-31.5907,18.5212,-21.382,-1.39502,-24.8023,16.867,-13.607,7.17472,9.88507
4.39162,17.6771,1.35689,19.7457,2.57972,-4.45683,-7.24492,-0.310133,5.05561,-11.7139,-0.222536,4.59042,-8.36811,-0.294905,2.05836,-5.28888,17.8091,12.7338,16.8598,22.5115,2.33943,7.21409,11.797,0.846553,-7.25564e-15,-7.15625e-15,-7.75871,-21.4156,16.6106,124.532,-56.5737,-5.35239,-46.7549,7.12502,20.4548,-75.6974,-7.25564e-15,-7.15625e-15,29.8994,26.8597,-12.6302,36.4559,48.7331,-26.8409,-16.8319,7.12502,-0.266423,13.1477,-10.448,5.15993,-1.16689,11.1631,-2.02241,-31.794,25.5805,-21.4929,-1.40685,-24.435,17.0633,-13.6477,7.25625,9.76547
4.38954,17.6758,1.35809,19.6878,2.69206,-4.57793,-7.25504,-0.334425,5.22271,-11.7348,-0.253994,4.64321,-8.39034,-0.322023,2.02309,-5.21303,17.7124,12.3486,17.027,22.3934,2.60128,7.17522,11.7465,0.945651,-5.86415e-15,2.94201e-14,-7.54179,-21.2121,16.3817,124.626,-56.5902,-5.03126,-46.5922,7.12502,20.7634,-75.5013,-5.86415e-15,2.94201e-14,30.0598,26.932,-12.2238,36.4807,48.5202,-26.3391,-16.5457,7.12502,0.218278,13.4339,-10.2744,5.0282,-0.964012,11.0462,-5.63832,-31.4782,30.9594,-21.5417,-1.44568,-24.2774,17.2885,-13.746,7.25384,9.73862
4.39216,17.6738,1.35371,19.6766,2.77909,-4.50286,-7.2737,-0.339384,5.2709,-11.774,-0.263169,4.58661,-8.42485,-0.334058,1.9372,-5.0228,17.6656,12.0656,17.2244,22.3326,2.94207,7.13358,11.7363,1.0551,1.93815e-14,-4.21423e-14,-7.52487,-20.8956,16.3207,124.74,-56.5329,-4.83965,-46.3881,7.12502,20.9475,-75.277,1.93815e-14,-4.21423e-14,30.2193,26.9094,-11.9791,36.5229,48.262,-26.3512,-16.2356,7.12502,0.206584,13.744,-10.1644,4.65252,-0.995867,10.9954,-5.93294,-31.336,31.7033,-21.6236,-1.55076,-24.3507,17.48,-13.8327,7.26839,9.8836
4.39057,17.6724,1.35236,19.6882,2.72893,-4.51863,-7.40333,-0.282404,5.31008,-11.7687,-0.20187,4.53592,-8.34471,-0.308439,1.85897,-4.822,17.6415,11.8715,17.3489,22.2988,3.24158,7.08264,11.7384,1.14189,-7.85199e-15,4.53229e-14,-7.5943,-20.5949,16.2294,124.82,-56.4078,-4.71359,-46.4662,7.12502,21.0686,-75.3416,-7.85199e-15,4.53229e-14,30.3099,26.835,-11.883,36.645,48.1482,-26.8008,-16.2681,7.12502,-0.227685,13.7115,-10.2549,4.47982,-0.957947,11.1094,-5.13205,-31.3616,30.8729,-21.6763,-1.58236,-24.3364,17.5647,-13.8481,7.38243,9.74963
4.38329,17.6722,1.34777,19.6591,2.66928,-4.62159,-7.39681,-0.238889,5.3668,-11.775,-0.143557,4.53647,-8.35655,-0.284171,1.82857,-4.58373,17.5495,11.7962,17.4249,22.1981,3.34038,7.04465,11.6986,1.14686,-1.32192e-14,4.05521e-14,-7.58571,-20.3617,16.1056,124.935,-56.5528,-4.551,-46.7857,7.12502,21.2248,-75.6437,-1.32192e-14,4.05521e-14,30.3684,26.7046,-11.7187,36.8165,48.2261,-27.1135,-16.5819,7.12502,-0.529712,13.3972,-10.4254,4.57243,-0.81587,11.3212,-3.77485,-31.5179,28.7812,-21.6889,-1.63008,-24.1918,17.5937,-13.8129,7.53245,9.46622
4.3759,17.6714,1.33779,19.5831,2.65319,-4.59139,-7.26019,-0.238835,5.29395,-11.7182,-0.135714,4.5097,-8.36854,-0.275326,1.83997,-4.3523,17.4629,11.9851,17.41,22.1395,3.06327,7.05411,11.6615,1.02057,2.08724e-15,-9.54166e-15,-7.52915,-20.3125,15.9258,124.984,-56.7682,-4.79776,-47.0614,7.12502,20.9877,-75.9458,2.08724e-15,-9.54166e-15,30.4133,26.605,-11.5534,36.9842,48.3661,-27.5064,-16.9827,7.12502,-0.909185,12.9951,-10.5219,4.62042,-0.81027,11.4948,-0.228399,-31.7312,22.7596,-21.6769,-1.67627,-24.1932,17.6479,-13.7859,7.61139,9.51262
4.37323,17.6697,1.33548,19.5098,2.6253,-4.53032,-7.40281,-0.227059,5.22025,-11.5023,-0.147777,4.4742,-8.04028,-0.272174,1.83245,-4.60002,17.4279,12.0333,17.68,22.0785,2.92229,7.20407,11.6256,1.01111,-1.91827e-14,3.26007e-14,-7.42015,-20.5087,15.566,124.883,-56.7013,-5.23332,-47.0267,7.12502,20.5692,-75.9569,-1.91827e-14,3.26007e-14,30.3096,26.536,-11.6593,37.1483,48.4715,-27.579,-17.087,7.12502,-0.979304,12.8905,-10.5647,4.49029,-0.852862,11.668,-0.195502,-31.7081,22.52,-21.616,-1.65739,-24.2722,17.6939,-13.8178,7.63515,9.57122
4.37348,17.6679,1.3302,19.5021,2.62033,-4.57608,-7.52421,-0.180601,5.32043,-11.3891,-0.108028,4.43158,-7.84468,-0.25949,1.72593,-5.17304,17.3664,11.8922,18.3653,21.8885,3.19147,7.47244,11.5541,1.18012,1.15295e-14,-2.06736e-14,-7.30673,-20.5764,15.193,124.739,-56.4745,-5.19421,-46.7434,7.12502,20.6068,-75.6696,1.15295e-14,-2.06736e-14,30.1727,26.2811,-11.8998,37.396,48.7616,-27.0443,-16.9717,7.12502,-0.462872,13.0075,-10.6985,4.30359,-0.790882,11.9004,-2.59734,-31.5168,26.5261,-21.6215,-1.62856,-24.2416,17.691,-13.7917,7.64667,9.26953
4.36889,17.6688,1.31776,19.4824,2.65711,-4.5575,-7.38871,-0.180617,5.30933,-11.4027,-0.0973737,4.38625,-7.93659,-0.256647,1.68606,-5.50445,17.2819,11.8504,18.9451,21.7134,3.32803,7.69528,11.4862,1.2733,6.65929e-15,-3.73715e-14,-7.19213,-20.4619,14.9239,124.675,-56.3761,-4.81205,-46.4708,7.12502,20.974,-75.3567,6.65929e-15,-3.73715e-14,30.1725,26.169,-11.8738,37.6035,48.7946,-27.008,-17.1056,7.12502,-0.427778,12.8738,-10.8629,4.23353,-0.760228,12.2072,-1.48861,-31.4336,24.5773,-21.6611,-1.60665,-24.2416,17.6663,-13.6862,7.59722,9.0484
4.36146,17.6708,1.30853,19.412,2.64551,-4.43757,-7.2495,-0.216264,5.12804,-11.4066,-0.131049,4.35957,-8.0168,-0.261187,1.75983,-5.40874,17.1953,11.862,19.1898,21.6444,3.16074,7.7796,11.446,1.22225,3.18055e-15,-5.56597e-15,-6.96365,-20.3616,14.6343,124.657,-56.3816,-4.39055,-46.3372,7.12502,21.3789,-75.1777,3.18055e-15,-5.56597e-15,30.051,26.0272,-11.9129,37.8304,48.7928,-27.6459,-17.3781,7.12502,-1.04396,12.5991,-11.029,4.26102,-0.839899,12.5922,-0.0896271,-31.3509,21.8082,-21.6165,-1.56939,-24.3542,17.6355,-13.6071,7.56677,9.16852
4.35384,17.6711,1.29791,19.4137,2.51229,-4.29518,-7.14614,-0.221067,4.8939,-11.451,-0.12335,4.34054,-8.1212,-0.240831,1.87224,-5.30278,17.1363,11.7635,19.4232,21.608,3.10291,7.8339,11.424,1.21547,-9.34288e-15,2.70347e-14,-6.65558,-20.1794,14.2715,124.592,-56.1069,-4.15509,-46.274,7.12502,21.605,-75.0887,-9.34288e-15,2.70347e-14,29.8044,25.6832,-12.1351,38.1129,48.9829,-28.0237,-17.4179,7.12502,-1.4088,12.5572,-11.3558,4.35612,-1.01212,12.9943,-0.338047,-31.3593,21.9281,-21.6131,-1.47748,-24.5326,17.5858,-13.5344,7.59232,9.10919
4.34641,17.6715,1.29,19.4035,2.34113,-4.24783,-7.03068,-0.195264,4.74156,-11.5066,-0.0739075,4.33986,-8.24732,-0.20534,1.95945,-5.72249,17.1548,11.423,20.0754,21.5487,3.52553,8.03423,11.4174,1.44815,6.65929e-15,-2.46493e-14,-6.47198,-19.853,13.9925,124.575,-55.7987,-4.45445,-46.1408,7.12502,21.3175,-74.9883,6.65929e-15,-2.46493e-14,29.8513,25.6148,-11.9418,38.2345,48.7328,-27.4459,-17.3842,7.12502,-0.850781,12.5938,-11.6499,4.43684,-1.08871,13.326,0.107449,-31.3728,21.2471,-21.61,-1.37711,-24.6045,17.545,-13.501,7.60312,9.06495
4.3424,17.672,1.29148,19.2944,2.25549,-4.23977,-6.92846,-0.183625,4.6984,-11.5595,-0.0470701,4.32851,-8.36505,-0.190334,1.97446,-5.08064,17.0777,11.6345,20.0148,21.5368,3.35443,7.95015,11.418,1.30905,1.11319e-14,-6.75868e-14,-6.46304,-19.438,13.9118,124.743,-55.8487,-5.0167,-46.142,7.12502,20.7774,-75.0496,1.11319e-14,-6.75868e-14,30.0058,25.6106,-11.6033,38.3196,48.347,-25.8636,-17.2372,7.12502,0.677464,12.7415,-11.7135,4.34535,-1.06868,13.5933,0.854821,-31.2372,20.3281,-21.4908,-1.31839,-24.6248,17.5442,-13.5624,7.57611,9.24544
4.34066,17.671,1.29284,19.1815,2.29152,-4.21552,-6.8707,-0.203584,4.71359,-11.5676,-0.0706256,4.30006,-8.40743,-0.205243,1.93683,-4.71531,17.0302,11.778,20.0333,21.5326,3.21681,7.92776,11.4185,1.21981,-9.83984e-15,2.94201e-14,-6.45149,-19.217,13.819,124.93,-55.9697,-4.83095,-46.3702,7.12502,20.9558,-75.2582,-9.83984e-15,2.94201e-14,29.9634,25.4515,-11.5749,38.4875,48.1366,-24.311,-17.0476,7.12502,2.17698,12.921,-11.6732,4.1906,-1.02422,13.796,1.8597,-31.0297,18.5887,-21.3793,-1.33188,-24.6491,17.5947,-13.635,7.57653,9.10974
4.33777,17.6695,1.28492,19.1159,2.38393,-4.2361,-6.88607,-0.214153,4.76986,-11.4644,-0.094401,4.27741,-8.2825,-0.221173,1.87757,-4.38146,16.9556,11.9613,19.7363,21.5246,2.83325,7.83618,11.3926,1.03781,1.45113e-14,-4.05521e-14,-6.38226,-19.3207,13.5721,124.985,-55.8369,-4.15254,-46.5145,7.12502,21.6075,-75.329,1.45113e-14,-4.05521e-14,29.9604,25.5459,-11.4712,38.7212,48.1031,-23.7972,-17.0005,7.12502,2.67322,12.9625,-11.6515,4.10769,-0.925986,13.8998,5.09344,-30.5807,12.131,-21.3914,-1.4078,-24.5866,17.6904,-13.6416,7.61088,8.85514
4.3334,17.6697,1.2732,19.1334,2.52613,-4.27153,-6.98403,-0.225307,4.80727,-11.3237,-0.126604,4.26946,-8.06806,-0.237684,1.84203,-3.89486,16.826,12.2012,19.2037,21.4808,2.28769,7.66313,11.3387,0.770487,3.27995e-15,-7.15625e-15,-6.36824,-19.5059,13.3285,125.036,-55.6482,-3.92426,-46.5271,7.12502,21.8267,-75.3162,3.27995e-15,-7.15625e-15,30.045,25.8571,-11.2269,38.9929,48.3075,-24.3972,-16.9493,7.12502,2.09379,13.0202,-11.7113,3.96547,-0.799328,14.0024,6.86037,-30.2272,8.27746,-21.5338,-1.42656,-24.4977,17.7764,-13.6066,7.49743,8.91733
4.33183,17.6687,1.26933,19.1269,2.69656,-4.2964,-7.10881,-0.248683,4.88025,-11.1745,-0.178606,4.26223,-7.83034,-0.266438,1.78687,-3.93744,16.703,12.1852,19.2438,21.3362,2.13185,7.69242,11.2559,0.716325,-2.49475e-14,4.45278e-14,-6.35074,-19.6502,13.0872,125.12,-55.6238,-3.92983,-46.6248,7.12502,21.8213,-75.4145,-2.49475e-14,4.45278e-14,30.1598,26.1282,-10.9893,39.0988,48.2039,-24.8816,-16.888,7.12502,1.62591,13.0856,-11.7427,3.69781,-0.667239,14.2126,6.73108,-30.0763,8.12994,-21.5886,-1.42451,-24.4444,17.8181,-13.5726,7.32523,9.09311
4.32927,17.6668,1.2652,19.0427,2.7892,-4.24405,-7.14561,-0.26667,4.87698,-11.005,-0.218524,4.21928,-7.61895,-0.284954,1.73647,-4.56135,16.6726,11.9431,19.7789,21.205,2.34226,7.91963,11.195,0.878513,8.15017e-15,-2.14687e-14,-6.32051,-19.7494,12.8191,125.178,-55.6218,-4.00667,-46.7645,7.12502,21.7476,-75.5628,8.15017e-15,-2.14687e-14,30.2569,26.333,-10.82,39.1629,47.9667,-24.7336,-16.8384,7.12502,1.76883,13.1341,-11.7306,3.58181,-0.653545,14.4544,8.70189,-29.3333,3.28592,-21.5262,-1.45361,-24.4821,17.8549,-13.5312,7.24917,9.24153
4.32074,17.6675,1.25309,18.9704,2.81843,-4.19333,-7.00284,-0.259029,4.78403,-10.9279,-0.201904,4.17699,-7.61193,-0.270799,1.7424,-5.04337,16.7047,11.7655,20.2165,21.1745,2.54515,8.10451,11.1858,1.02534,7.65321e-15,-3.49861e-14,-6.44409,-19.6749,12.7347,125.283,-55.5847,-4.54975,-46.7075,7.12502,21.226,-75.5654,7.65321e-15,-3.49861e-14,30.1221,26.1019,-11.0258,39.524,48.6122,-24.4842,-16.7433,7.12502,2.00976,13.227,-11.7962,3.7125,-0.665506,14.6413,8.1907,-29.5658,4.50486,-21.5037,-1.45234,-24.5053,17.9023,-13.4785,7.26702,9.08317
4.31331,17.6688,1.2455,18.9371,2.78823,-4.23988,-6.9147,-0.195441,4.76428,-10.9255,-0.109663,4.16389,-7.65871,-0.223986,1.74063,-5.19634,16.6683,11.6107,20.4881,21.1075,2.65898,8.18894,11.1563,1.09786,9.83984e-15,-1.98785e-14,-6.68387,-19.4343,12.8294,125.463,-55.5274,-5.30941,-46.5076,7.12502,20.4961,-75.4457,9.83984e-15,-1.98785e-14,30.084,25.8469,-11.0696,39.9038,49.2829,-23.9339,-16.6285,7.12502,2.54119,13.3361,-11.9285,3.83225,-0.581908,14.8015,5.91546,-30.3156,9.72173,-21.5236,-1.47338,-24.4231,17.9623,-13.4756,7.37699,8.78622
4.31324,17.6675,1.2444,18.9287,2.77205,-4.2544,-6.94788,-0.152051,4.80478,-10.9479,-0.0543491,4.14078,-7.6652,-0.200637,1.69406,-5.03455,16.569,11.5518,20.5577,21.0249,2.55359,8.18628,11.1084,1.05154,1.23246e-14,-2.06736e-14,-6.77335,-19.1139,12.7906,125.626,-55.494,-6.03368,-46.4225,7.12502,19.8,-75.434,1.23246e-14,-2.06736e-14,30.1195,25.6529,-10.9423,40.1784,49.4137,-23.8582,-16.581,7.12502,2.61428,13.3828,-12.0366,3.70946,-0.541188,14.9972,4.82789,-30.446,11.5051,-21.5486,-1.5477,-24.3923,18.0317,-13.5455,7.3976,8.90783
4.32085,17.6609,1.24024,18.9142,2.94285,-4.14444,-6.91408,-0.215036,4.88537,-10.9891,-0.137202,4.09237,-7.73215,-0.251564,1.59964,-4.94609,16.4946,11.5287,20.7599,20.9592,2.47519,8.24334,11.0735,1.02677,-1.59028e-14,4.77083e-14,-6.60904,-18.8603,12.5902,125.683,-55.4604,-6.36253,-46.3595,7.12502,19.4838,-75.4033,-1.59028e-14,4.77083e-14,29.8147,25.1314,-11.2274,40.5744,49.8397,-24.7467,-16.8211,7.12502,1.75622,13.1514,-11.9873,3.13056,-0.604136,15.1552,4.46585,-30.1707,12.0005,-21.5679,-1.64966,-24.5246,18.1396,-13.6275,7.25933,9.18287
4.31121,17.6592,1.23841,18.9332,2.82092,-4.09064,-6.98585,-0.204866,4.66706,-10.9779,-0.125981,4.09998,-7.67454,-0.228,1.72749,-5.13133,16.4239,11.4007,21.2373,20.8329,2.62835,8.40101,11.0227,1.11697,1.77912e-14,-2.70347e-14,-6.40246,-18.8053,12.342,125.671,-55.3632,-5.70937,-46.2688,7.12502,20.1117,-75.2478,1.77912e-14,-2.70347e-14,29.6296,24.8585,-11.3409,40.8977,50.2278,-25.2017,-17.1767,7.12502,1.31679,12.799,-12.1147,3.30057,-0.663801,15.2094,2.5419,-30.4781,15.6122,-21.7224,-1.64724,-24.5603,18.2997,-13.6463,7.37702,9.35295
4.30679,17.6599,1.23195,18.9195,2.79649,-4.05743,-6.99397,-0.185518,4.58176,-10.9755,-0.100567,4.07271,-7.66536,-0.209774,1.7457,-5.10897,16.3097,11.3018,21.5043,20.6829,2.69469,8.46362,10.9556,1.14292,7.35503e-15,-3.33958e-14,-6.22125,-18.803,11.9967,125.677,-55.3091,-4.87758,-46.3632,7.12502,20.911,-75.2562,7.35503e-15,-3.33958e-14,29.5575,24.6341,-11.4099,41.2042,50.5386,-25.603,-17.231,7.12502,0.929176,12.7467,-12.0845,3.32477,-0.68084,15.1287,0.361957,-30.7377,19.9754,-21.8702,-1.61949,-24.5923,18.5021,-13.6995,7.36505,9.34355
4.30885,17.6585,1.23178,18.8215,2.94469,-4.21298,-6.96593,-0.185841,4.8397,-10.9455,-0.104996,4.07051,-7.65252,-0.231608,1.59969,-5.00615,16.2213,11.2025,21.5571,20.5787,2.73547,8.44352,10.906,1.14618,7.05686e-15,-4.77083e-15,-6.08432,-18.658,11.6701,125.724,-55.3535,-5.04338,-46.3279,7.12502,20.7517,-75.2383,7.05686e-15,-4.77083e-15,29.361,24.3318,-11.6556,41.592,50.7526,-25.8227,-17.0855,7.12502,0.716945,12.893,-11.8691,3.15473,-0.439496,15.0476,0.590879,-30.6867,19.7488,-21.8733,-1.56807,-24.4313,18.6911,-13.7904,7.23551,9.22665
4.31563,17.6552,1.24066,18.6928,3.13883,-4.405,-7.14145,-0.189922,5.2236,-10.7986,-0.141777,4.06018,-7.39609,-0.275637,1.36917,-5.05782,16.1693,11.086,21.6239,20.4994,2.80928,8.45026,10.8672,1.1797,-4.17448e-15,6.36111e-15,-6.05363,-18.484,11.4077,125.777,-55.2754,-5.67909,-46.0489,7.12502,20.1408,-75.0248,-4.17448e-15,6.36111e-15,29.3709,24.5387,-11.5234,41.826,50.5753,-25.1296,-16.9637,7.12502,1.3864,13.0115,-11.6391,2.80483,-0.147302,15.0751,3.64676,-30.1891,13.9852,-21.7637,-1.53895,-24.2388,18.827,-13.9306,7.13385,9.19759
4.31345,17.6544,1.23873,18.5947,3.20741,-4.48821,-7.27235,-0.185419,5.3239,-10.6183,-0.160586,4.06052,-7.12329,-0.287382,1.30665,-5.2772,16.1057,10.9627,21.7978,20.4013,2.81287,8.52901,10.8112,1.21323,1.78906e-15,3.18055e-15,-6.02939,-18.4674,11.1508,125.817,-55.1298,-5.88157,-45.908,7.12502,19.9462,-74.9043,1.78906e-15,3.18055e-15,29.4363,24.8794,-11.2829,42.0391,50.573,-25.1125,-17.0668,7.12502,1.40288,12.9084,-11.5764,2.67598,0.00850431,15.1838,4.51602,-29.9306,12.0541,-21.7176,-1.53513,-24.1303,18.9301,-14.0083,7.1178,9.15467
4.30202,17.655,1.21565,18.567,3.21522,-4.31705,-7.07186,-0.207843,5.02775,-10.5735,-0.171871,4.02245,-7.18122,-0.273253,1.43119,-5.69705,16.0404,10.7988,22.2151,20.2721,2.89693,8.71238,10.745,1.30534,-2.18663e-15,-7.15625e-15,-6.0483,-18.47,10.9556,125.927,-55.244,-5.6173,-45.7648,7.12502,20.2002,-74.7345,-2.18663e-15,-7.15625e-15,29.2787,24.8191,-11.3784,42.476,50.9945,-25.7198,-17.1233,7.12502,0.816354,12.8549,-11.6875,2.75341,-0.114125,15.35,2.7395,-30.2461,15.3071,-21.8342,-1.58185,-24.2534,19.0064,-13.9525,7.06632,9.05325
4.29327,17.6544,1.19387,18.5543,3.18471,-4.17022,-6.82738,-0.221539,4.77968,-10.5827,-0.167125,3.98448,-7.32545,-0.255948,1.5317,-6.06621,15.9577,10.6695,22.7575,20.126,2.97907,8.93573,10.675,1.39435,-1.04362e-14,1.51076e-14,-6.04676,-18.4113,10.7623,126.081,-55.455,-5.30384,-45.547,7.12502,20.5015,-74.4846,-1.04362e-14,1.51076e-14,29.1094,24.596,-11.5153,42.9144,51.3139,-25.8352,-16.9711,7.12502,0.704886,13.0075,-11.9501,2.84752,-0.2482,15.7053,1.7662,-30.4036,17.1271,-21.9207,-1.62085,-24.3692,19.0233,-13.8701,7.05347,9.24713
4.29253,17.6534,1.19008,18.4901,3.12279,-4.23395,-6.81882,-0.193005,4.81897,-10.5107,-0.133569,3.98574,-7.2507,-0.240804,1.50926,-5.97882,16.0592,10.8475,22.7115,20.2833,2.84338,8.94633,10.7485,1.34284,6.55989e-15,-2.38542e-15,-5.94066,-18.3496,10.514,126.157,-55.4811,-5.02371,-45.433,7.12502,20.7706,-74.3414,6.55989e-15,-2.38542e-15,29.0883,24.5156,-11.4487,43.193,51.4006,-25.4932,-16.7965,7.12502,1.03518,13.1807,-12.2199,2.86828,-0.189873,16.1955,0.999877,-30.3499,18.3768,-21.8579,-1.59271,-24.313,19.0179,-13.8718,7.11276,9.55066
4.29083,17.6516,1.18577,18.4423,2.98818,-4.13871,-6.80147,-0.16205,4.66577,-10.4706,-0.0926491,3.94599,-7.21275,-0.210283,1.55132,-5.75825,15.9036,10.9023,22.7461,20.1538,2.55498,8.95254,10.6682,1.21445,-1.25234e-14,3.4191e-14,-5.82414,-18.3004,10.2395,126.225,-55.4387,-4.58057,-45.5036,7.12502,21.1964,-74.3648,-1.25234e-14,3.4191e-14,28.9726,24.3653,-11.5016,43.5679,51.6532,-25.3367,-16.5108,7.12502,1.1864,13.4657,-12.4584,2.85706,-0.321849,16.6208,-4.39175,-30.1048,27.3829,-21.8293,-1.54287,-24.4446,19.06,-13.9103,7.17402,9.59148
4.27958,17.6514,1.16536,18.4498,2.77516,-4.03654,-6.54039,-0.129133,4.37801,-10.5443,-0.0209418,3.92859,-7.43857,-0.156668,1.69761,-5.34691,15.6665,11.2363,22.6284,19.9469,2.0226,8.92729,10.5507,0.944807,-1.37161e-14,1.90833e-14,-5.59932,-18.3428,9.85011,126.319,-55.4637,-4.24821,-45.8973,7.12502,21.5156,-74.7223,-1.37161e-14,1.90833e-14,28.7239,23.9574,-11.783,44.0321,51.9051,-25.2059,-16.5129,7.12502,1.31274,13.4628,-12.8047,3.12354,-0.46875,16.9214,-8.59794,-29.484,33.3669,-21.9772,-1.45795,-24.555,19.1572,-13.8474,7.275,9.29093
4.27084,17.6506,1.14244,18.4413,2.7055,-4.04426,-6.22046,-0.116521,4.31126,-10.617,0.0235704,3.91463,-7.70143,-0.132848,1.72511,-5.03845,15.2794,11.8068,22.6186,19.5437,1.2566,8.99722,10.3366,0.566469,-4.77083e-15,-1.03368e-14,-5.34127,-18.3365,9.41189,126.372,-55.4454,-4.37262,-46.1422,7.12502,21.3961,-74.9808,-4.77083e-15,-1.03368e-14,28.587,23.6541,-11.9189,44.4,51.8912,-25.1022,-17.2426,7.12502,1.41289,12.7324,-13.1062,3.28529,-0.458849,17.1864,-5.4863,-30.165,28.5099,-22.1022,-1.46776,-24.5222,19.2507,-13.7856,7.36032,8.92249
4.2731,17.6462,1.13536,18.3523,2.87382,-4.06316,-6.11765,-0.158316,4.45764,-10.5665,-0.0309091,3.88471,-7.70598,-0.172385,1.61202,-5.43986,15.1585,11.7446,23.1018,19.3548,1.22754,9.22341,10.238,0.601539,-1.5704e-14,8.74653e-15,-5.22977,-18.2174,9.13095,126.457,-55.5139,-4.49557,-46.0151,7.12502,21.278,-74.8671,-1.5704e-14,8.74653e-15,28.5022,23.6806,-11.8449,44.7402,51.8121,-25.5045,-18.0496,7.12502,1.02436,11.9276,-13.0761,3.01506,-0.375089,17.3937,-2.78109,-30.2626,24.0925,-22.0547,-1.62171,-24.468,19.3618,-13.8599,7.34194,8.98969
4.27716,17.6427,1.13872,18.2849,2.96578,-4.03568,-6.26559,-0.180431,4.5294,-10.4438,-0.0812417,3.85418,-7.48574,-0.201481,1.53485,-5.53614,15.2095,11.4973,23.2411,19.4102,1.40969,9.24482,10.2621,0.709366,1.5704e-14,-1.74931e-14,-5.14809,-18.0922,8.93858,126.553,-55.6001,-4.32828,-45.9991,7.12502,21.4387,-74.8329,1.5704e-14,-1.74931e-14,28.4886,23.8483,-11.6827,45.0223,51.758,-25.0678,-17.87,7.12502,1.44608,12.1048,-12.9637,2.72329,-0.369728,17.4495,-4.26578,-29.9939,26.6421,-22.0545,-1.64995,-24.5039,19.5305,-13.9519,7.2344,9.37742
4.27792,17.6406,1.13483,18.2027,2.81599,-4.0258,-6.23437,-0.11189,4.53764,-10.3648,0.00513991,3.80222,-7.41496,-0.160248,1.47305,-5.6274,15.2113,11.2287,23.4227,19.3758,1.70108,9.26179,10.2541,0.843668,1.51076e-14,-5.08889e-14,-5.0967,-17.9152,8.77768,126.631,-55.4307,-4.58106,-45.8372,7.12502,21.1959,-74.6984,1.51076e-14,-5.08889e-14,28.6546,23.9355,-11.4244,45.2509,51.7084,-24.0192,-17.1899,7.12502,2.45884,12.7756,-12.9491,2.73347,-0.421266,17.4056,-5.9053,-29.807,29.4005,-22.0787,-1.52918,-24.5549,19.7112,-14.0316,7.21717,9.67135
4.28302,17.6372,1.13262,18.0349,2.64779,-4.17835,-6.08975,0.00561918,4.76546,-10.2722,0.16317,3.76608,-7.39618,-0.099137,1.30655,-5.81252,15.1811,11.0233,23.6942,19.2899,1.94781,9.33706,10.2217,0.964164,1.6201e-14,-3.57812e-14,-5.10832,-17.8109,8.64358,126.728,-55.334,-4.7296,-45.6603,7.12502,21.0532,-74.5374,1.6201e-14,-3.57812e-14,28.8372,23.9405,-11.149,45.5661,51.8182,-24.1559,-17.1238,7.12502,2.32678,12.8432,-12.8812,2.74137,-0.309393,17.4206,-5.05292,-29.8122,28.4386,-21.9522,-1.44706,-24.4519,19.8284,-14.1602,7.42504,9.45608
4.28675,17.6357,1.13548,17.9565,2.75701,-4.23981,-6.1864,0.00793263,4.90778,-10.1605,0.1494,3.74629,-7.21894,-0.114181,1.20315,-5.96039,15.1328,10.9973,23.9347,19.2172,1.94091,9.4431,10.1841,0.982369,2.68359e-15,-1.74931e-14,-5.03344,-17.7489,8.39197,126.773,-55.3221,-4.56397,-45.7716,7.12502,21.2123,-74.6309,2.68359e-15,-1.74931e-14,28.9125,23.9782,-10.9463,45.9522,52.0526,-25.3056,-17.4507,7.12502,1.21643,12.5256,-12.8067,2.54294,-0.209454,17.552,-2.74296,-29.889,24.9691,-21.8813,-1.42356,-24.417,19.878,-14.2332,7.43678,8.93365
4.28333,17.6359,1.12926,17.9599,3.01971,-4.08546,-6.2977,-0.0876002,4.77648,-10.0849,0.00834115,3.7004,-7.0714,-0.174558,1.22474,-6.0393,15.0479,10.9992,24.0939,19.1184,1.83589,9.52044,10.1271,0.952233,6.36111e-15,-1.98785e-14,-4.90391,-17.6068,8.05634,126.802,-55.1653,-4.61099,-45.8485,7.12502,21.1671,-74.7129,6.36111e-15,-1.98785e-14,28.8935,23.972,-10.8909,46.3741,52.2367,-25.5153,-17.4824,7.12502,1.01386,12.4949,-12.7834,2.3122,-0.294065,17.7293,-1.12591,-29.9166,22.2881,-21.896,-1.45378,-24.545,19.9148,-14.1996,7.16966,8.84567
4.27834,17.6348,1.1176,17.9202,3.07072,-3.92907,-6.26204,-0.106606,4.59667,-10.0468,-0.0173597,3.62765,-7.04662,-0.177063,1.24702,-5.92155,14.9491,10.9875,24.1464,19.0138,1.76876,9.51877,10.0734,0.910985,-1.26228e-14,4.85035e-14,-4.79943,-17.4696,7.75785,126.883,-55.0471,-4.3575,-46.0516,7.12502,21.4106,-74.8886,-1.26228e-14,4.85035e-14,28.9397,23.8447,-10.8325,46.8049,52.4562,-24.4807,-17.2276,7.12502,2.01308,12.7426,-12.8745,2.24345,-0.450186,17.9631,-1.06038,-29.8587,22.1528,-21.8809,-1.50476,-24.6744,19.945,-14.1499,7.06756,9.20358
4.27326,17.6358,1.10656,17.8661,3.01249,-3.90976,-6.1651,-0.0597383,4.51606,-10.0692,0.0528213,3.58007,-7.12425,-0.139231,1.24288,-5.73118,14.8839,10.8836,24.2462,18.9376,1.88162,9.49308,10.046,0.936908,1.05356e-14,-3.10104e-14,-4.7024,-17.2227,7.47408,126.958,-54.8309,-4.57564,-46.0255,7.12502,21.2011,-74.8862,1.05356e-14,-3.10104e-14,29.1422,23.6835,-10.568,47.1599,52.5368,-24.235,-17.1779,7.12502,2.25045,12.79,-13.0671,2.36602,-0.48479,18.2477,-2.11821,-29.8286,23.9583,-21.9407,-1.50038,-24.6723,20.0006,-14.1688,7.05721,9.74616
4.26886,17.6368,1.09462,17.8126,3.00356,-3.97493,-6.07282,-0.0241814,4.53472,-10.0796,0.107223,3.56837,-7.18801,-0.114587,1.221,-5.64638,14.8397,10.6131,24.3386,18.8732,2.11002,9.45321,10.0204,1.02877,-7.85199e-15,1.98785e-14,-4.59083,-17.0065,7.11179,127.033,-54.7249,-5.35538,-45.769,7.12502,20.4519,-74.7119,-7.85199e-15,1.98785e-14,29.1341,23.4482,-10.4972,47.5903,52.5481,-24.8097,-17.4294,7.12502,1.6954,12.5436,-13.2224,2.49161,-0.409544,18.51,-3.15815,-29.8,25.9703,-22.0342,-1.44662,-24.5881,20.1149,-14.2198,7.01946,9.98506
4.26782,17.6332,1.08334,17.7464,3.03605,-4.084,-6.00399,-0.0167183,4.66345,-10.0184,0.11756,3.57581,-7.16131,-0.117639,1.15637,-5.19815,14.7834,10.6711,24.0736,18.8674,1.95069,9.3017,10.012,0.916781,2.78299e-15,-1.59028e-15,-4.4786,-17.0401,6.769,127.146,-54.9955,-4.78571,-45.9753,7.12502,20.9993,-74.8584,2.78299e-15,-1.59028e-15,28.8172,23.1769,-10.7571,48.2135,53.0051,-25.0236,-17.6974,7.12502,1.48882,12.2771,-13.3195,2.46184,-0.287942,18.7267,-3.04693,-29.7622,26.037,-22.066,-1.40859,-24.4737,20.2734,-14.296,6.99656,9.89535
4.26761,17.6283,1.07783,17.6885,3.0615,-4.15939,-6.00847,-0.0189822,4.74472,-9.92213,0.108377,3.59391,-7.05382,-0.125247,1.12801,-5.33731,14.811,10.5305,24.2372,18.8954,2.02985,9.36149,10.0202,0.982588,8.89561e-15,-2.62396e-14,-4.41999,-16.9991,6.60874,127.25,-55.1489,-3.70274,-46.1032,7.12502,22.0394,-74.8673,8.89561e-15,-2.62396e-14,28.6033,23.0897,-10.8505,48.7641,53.4724,-25.306,-18.0064,7.12502,1.21601,11.9699,-13.3828,2.37006,-0.204689,18.8871,-1.87483,-29.7353,24.109,-22.0955,-1.36144,-24.4008,20.449,-14.3979,6.93877,9.92232
4.2617,17.6287,1.07416,17.6747,2.97415,-4.19243,-6.039,0.0171893,4.66232,-9.86847,0.15285,3.60306,-6.97567,-0.0954564,1.18179,-5.83094,14.7719,10.3345,24.7496,18.7861,2.20675,9.58719,9.96636,1.11951,1.799e-14,-2.3059e-14,-4.36939,-16.8018,6.48145,127.305,-55.1494,-3.67106,-45.7721,7.12502,22.0698,-74.5327,1.799e-14,-2.3059e-14,28.6308,23.0477,-10.7274,49.1741,53.5577,-26.0846,-18.3715,7.12502,0.464057,11.6078,-13.4848,2.52969,-0.184089,18.9931,-1.16889,-29.6692,22.6253,-22.2336,-1.23421,-24.3699,20.6153,-14.3749,6.91758,9.62386
4.25889,17.6307,1.07136,17.5866,2.86018,-4.32263,-5.96636,0.0915486,4.74352,-9.86443,0.255532,3.58239,-7.01192,-0.0511941,1.11507,-6.05364,14.6132,10.2549,25.1469,18.5383,2.30512,9.74063,9.85403,1.1702,4.67144e-15,-1.51076e-14,-4.33113,-16.5653,6.28969,127.365,-55.1691,-4.02091,-45.6048,7.12502,21.7339,-74.4046,4.67144e-15,-1.51076e-14,28.801,22.9486,-10.5283,49.5439,53.6742,-25.882,-18.3483,7.12502,0.659682,11.6304,-13.5488,2.74225,-0.070469,19.1504,-0.495844,-29.5116,20.8523,-22.2626,-1.0612,-24.2567,20.7682,-14.4217,6.93431,9.3031
4.26161,17.6269,1.07586,17.3201,2.70459,-4.42761,-5.7887,0.173298,4.88077,-9.8258,0.371724,3.52803,-7.06949,-0.00579498,0.981139,-5.97886,14.456,10.2435,25.4624,18.3006,2.44978,9.81551,9.76187,1.19819,8.69683e-15,-3.89618e-14,-4.35381,-16.1286,6.11595,127.431,-54.8855,-4.45276,-45.6747,7.12502,21.3191,-74.522,8.69683e-15,-3.89618e-14,28.9699,22.8644,-10.3186,49.9048,53.9773,-25.1767,-18.2066,7.12502,1.34087,11.7689,-13.4128,2.82187,0.00782079,19.3215,0.430345,-29.2981,19.1009,-21.9909,-0.872662,-24.2027,20.9071,-14.6856,6.95909,9.57557
4.25821,17.622,1.06479,17.4816,2.99792,-4.26473,-5.90389,0.0942975,4.74365,-9.89329,0.259703,3.45385,-7.07776,-0.0554582,0.980418,-5.56459,14.3263,10.4206,25.3647,18.1803,2.27118,9.73812,9.70872,1.06316,-2.6339e-15,1.90833e-14,-4.39414,-15.7421,5.91052,127.476,-54.3912,-4.62094,-45.495,7.12502,21.1576,-74.3605,-2.6339e-15,1.90833e-14,29.0975,22.7985,-10.188,50.2781,54.129,-25.2026,-18.2416,7.12502,1.31591,11.7341,-13.5681,2.46434,-0.099697,19.5293,2.48411,-29.0866,15.2603,-22.2813,-1.0213,-24.3227,21.0197,-14.6982,6.77151,9.74043
4.2555,17.6202,1.06216,17.4897,3.04646,-4.15796,-6.04363,0.116417,4.61052,-9.8329,0.27359,3.37358,-6.92891,-0.039949,0.967764,-4.89024,14.2498,10.7208,24.8735,18.1977,1.85018,9.51626,9.70629,0.810879,3.03147e-15,7.95139e-15,-4.36428,-15.7469,5.58803,127.532,-54.2182,-4.26886,-45.3834,7.12502,21.4958,-74.2107,3.03147e-15,7.95139e-15,29.2624,22.6715,-10.0799,50.6784,54.0711,-24.718,-18.163,7.12502,1.78397,11.8093,-13.7183,2.39129,-0.216245,19.8088,3.86063,-28.7309,12.1468,-22.357,-1.07447,-24.4285,21.0632,-14.5765,6.78821,9.22706
4.24899,17.6205,1.06021,17.4668,2.87981,-4.04781,-6.11437,0.195297,4.35174,-9.79084,0.372206,3.30448,-6.83776,0.0259852,1.03763,-4.64842,14.2495,10.7714,24.8506,18.2296,1.81049,9.47573,9.72541,0.774363,2.13694e-15,2.22639e-14,-4.26711,-15.8747,5.25718,127.627,-54.4269,-3.89395,-45.644,7.12502,21.8558,-74.4297,2.13694e-15,2.22639e-14,29.4416,22.5042,-9.9122,51.1062,54.2524,-24.5086,-18.2522,7.12502,1.98617,11.7183,-14.0001,2.61377,-0.38166,20.1816,2.16867,-28.8359,15.2702,-22.3571,-1.02797,-24.5604,21.0409,-14.4426,6.91457,8.52398
4.24385,17.6191,1.05827,17.4571,2.75106,-3.92776,-6.13265,0.22493,4.09669,-9.76337,0.411289,3.27108,-6.79462,0.0624675,1.14369,-4.93657,14.243,10.4999,25.2842,18.1958,1.99116,9.63276,9.70428,0.907651,3.32964e-15,7.95139e-16,-4.16765,-15.8004,5.04837,127.735,-54.6444,-3.86987,-45.7731,7.12502,21.8789,-74.5562,3.32964e-15,7.95139e-16,29.5692,22.4929,-9.65822,51.5217,54.7042,-25.2432,-18.4135,7.12502,1.27668,11.5625,-14.1551,2.73879,-0.545031,20.3605,3.63082,-28.6729,12.5155,-22.3813,-0.986991,-24.6998,21.1099,-14.5052,6.97875,8.5865
4.24066,17.6162,1.0582,17.4096,2.67334,-3.80445,-6.15745,0.217711,3.88291,-9.69805,0.399062,3.2578,-6.70761,0.0717169,1.24735,-5.50833,14.2315,9.97557,25.8567,18.1298,2.31472,9.84831,9.65717,1.14566,-1.63997e-15,-2.62396e-14,-4.0455,-15.6258,4.8787,127.786,-54.5846,-4.01783,-45.6865,7.12502,21.7368,-74.4861,-1.63997e-15,-2.62396e-14,29.5813,22.436,-9.50914,51.9604,54.9046,-25.9186,-18.4035,7.12502,0.624385,11.5754,-14.2325,2.78192,-0.70669,20.5513,6.4007,-28.0995,6.80242,-22.3429,-1.01718,-24.8251,21.1793,-14.6189,7.01284,9.05684
4.26597,17.6129,1.04687,17.1119,3.17163,-4.10696,-5.86345,0.14073,4.69287,-9.59859,0.299731,3.25655,-6.77291,-0.0334902,0.79477,-5.41234,14.204,9.8983,25.9057,18.1188,2.29724,9.84105,9.64541,1.14217,-2.5345e-15,-2.8625e-14,-3.95942,-15.4842,4.67404,127.853,-54.439,-3.90027,-45.6085,7.12502,21.8497,-74.3949,-2.5345e-15,-2.8625e-14,29.5786,22.315,-9.43731,52.3425,54.7164,-25.6424,-18.6112,7.12502,0.891082,11.3667,-13.7983,2.05762,-0.29657,20.7032,6.40455,-27.6993,7.19966,-22.0774,-1.1839,-24.5202,21.2941,-14.6904,6.85329,9.09812
4.26429,17.6117,1.04283,17.0255,3.10021,-4.11372,-5.78568,0.16542,4.64652,-9.51789,0.333218,3.23276,-6.72727,-0.0134047,0.794121,-5.58893,14.2389,9.81345,26.1348,18.1479,2.38368,9.93927,9.6583,1.21191,6.21202e-15,-1.03368e-14,-3.94187,-15.4155,4.47864,128.002,-54.4607,-3.4229,-45.532,7.12502,22.308,-74.2643,6.21202e-15,-1.03368e-14,29.6367,22.4221,-9.25444,52.7065,54.6812,-24.2047,-18.701,7.12502,2.27965,11.2666,-13.8878,2.17597,-0.321173,20.8784,4.92229,-28.0701,10.537,-22.0704,-1.18288,-24.5225,21.4354,-14.7243,6.95621,9.1868
4.26357,17.6111,1.03673,16.9173,3.04214,-4.16022,-5.65858,0.192627,4.64195,-9.43224,0.37355,3.22215,-6.70482,0.00752246,0.784126,-5.78414,14.2294,9.84128,26.4047,18.1587,2.23732,10.0917,9.64741,1.19533,1.39646e-14,1.35174e-14,-3.8738,-15.4063,4.27971,128.12,-54.5521,-2.99997,-45.4752,7.12502,22.714,-74.1583,1.39646e-14,1.35174e-14,29.6532,22.5267,-9.11259,53.1966,54.9493,-23.7957,-18.5171,7.12502,2.67463,11.4459,-13.9806,2.34,-0.314244,21.0382,7.60124,-27.5685,4.77053,-22.0627,-1.21519,-24.4712,21.6202,-14.8442,7.02738,9.56618
4.25838,17.6126,1.02613,16.8409,2.9349,-4.21481,-5.556,0.23586,4.55546,-9.36391,0.437361,3.25,-6.687,0.0470899,0.860127,-5.53898,14.1451,9.86466,26.3734,18.1131,2.03822,10.056,9.61151,1.0993,1.05853e-14,-6.36111e-15,-3.77142,-15.3053,4.08535,128.209,-54.6911,-3.33207,-45.5872,7.12502,22.3952,-74.309,1.05853e-14,-6.36111e-15,29.5194,22.3566,-9.17828,53.7907,55.4311,-24.2813,-18.1948,7.12502,2.20571,11.7736,-14.2108,2.68149,-0.302258,21.3091,9.58952,-27.0872,0.21355,-22.1021,-1.17098,-24.4094,21.7084,-14.8076,7.11261,9.56451
4.25112,17.6141,1.01078,16.7905,2.81888,-4.25542,-5.43467,0.277492,4.41386,-9.29656,0.501716,3.29486,-6.68133,0.0910829,0.984549,-5.24957,14.0729,9.86159,26.3028,18.0568,1.96531,9.98183,9.58242,1.03988,-7.10655e-15,4.77083e-15,-3.67399,-15.2522,3.88702,128.329,-54.8139,-3.88549,-45.8144,7.12502,21.8639,-74.5991,-7.10655e-15,4.77083e-15,29.3707,22.2285,-9.23901,54.34,55.8795,-23.3034,-17.4343,7.12502,3.15009,12.5222,-14.4522,3.07088,-0.292614,21.5167,9.75505,-27.2905,-0.242383,-22.2151,-1.13096,-24.3526,21.8182,-14.6864,7.248,9.14124
4.25159,17.613,1.00348,16.7446,2.79436,-4.33195,-5.50907,0.302435,4.44613,-9.14203,0.521733,3.31422,-6.47031,0.103446,0.98427,-5.77648,14.0587,9.64701,26.6278,18.0136,2.00937,10.1666,9.53913,1.13761,1.41634e-14,-3.10104e-14,-3.55554,-15.43,3.61138,128.466,-54.8105,-3.70415,-45.9504,7.12502,22.038,-74.7147,1.41634e-14,-3.10104e-14,29.4435,22.4022,-9.04425,54.7162,55.9878,-22.5554,-17.429,7.12502,3.87246,12.5156,-14.5909,3.12799,-0.216642,21.7116,9.8098,-27.4221,0.240587,-22.2679,-1.11304,-24.2833,21.9415,-14.6728,7.32871,8.9949
4.2573,17.6118,1.00158,16.7231,2.83338,-4.45578,-5.7097,0.316819,4.6209,-8.95118,0.513646,3.32312,-6.14955,0.0941613,0.893526,-6.33321,14.0648,9.56927,26.9912,18.0008,1.97048,10.398,9.51107,1.20104,-1.2424e-15,2.62396e-14,-3.42925,-15.606,3.31981,128.571,-54.7423,-3.17404,-45.8677,7.12502,22.5469,-74.5712,-1.2424e-15,2.62396e-14,29.5245,22.6297,-8.87025,55.1014,56.2135,-23.2734,-18.2007,7.12502,3.17911,11.7554,-14.7217,2.97049,-0.0732058,21.9455,10.7056,-27.0461,-1.39289,-22.316,-1.09624,-24.175,22.084,-14.7748,7.32718,9.24346
4.25866,17.6114,0.994505,16.7237,2.89683,-4.49255,-5.7217,0.290237,4.67914,-8.89233,0.473103,3.32795,-6.07988,0.0718039,0.865185,-6.6456,14.0125,9.43523,27.3145,17.925,1.987,10.5562,9.45979,1.2576,1.07841e-14,-9.54166e-15,-3.32131,-15.3573,3.06624,128.614,-54.3769,-3.44633,-45.4089,7.12502,22.2856,-74.1439,1.07841e-14,-9.54166e-15,29.4052,22.5719,-8.96901,55.5778,56.6701,-23.7883,-18.1414,7.12502,2.68185,11.8215,-14.881,2.92666,-0.00907441,22.1661,11.7129,-26.5655,-4.56833,-22.4112,-1.16697,-24.1117,22.2199,-14.8735,7.32323,9.49576
4.25774,17.6028,0.990215,16.6926,2.9137,-4.40806,-5.66975,0.258948,4.60279,-8.91518,0.436112,3.29789,-6.13395,0.0559862,0.876343,-6.86961,13.9117,9.20805,27.7796,17.7714,2.15572,10.7232,9.38357,1.36558,1.42628e-14,-2.78299e-14,-3.25804,-14.8148,2.77192,128.623,-53.668,-4.39327,-44.8945,7.12502,21.3763,-73.7354,1.42628e-14,-2.78299e-14,29.3381,22.3145,-8.99671,55.9695,56.8382,-24.5961,-18.0485,7.12502,1.90169,11.9228,-15.017,2.90835,-0.0896307,22.4501,12.3103,-26.1714,-7.06644,-22.4669,-1.25746,-24.186,22.3631,-14.8625,7.40144,9.02736
4.26101,17.5991,0.991373,16.6673,2.89138,-4.39891,-5.77016,0.282321,4.59437,-8.87697,0.456987,3.27323,-6.03477,0.0677219,0.854634,-7.09506,13.8636,9.02304,28.254,17.6829,2.33941,10.9017,9.34221,1.4838,-2.03754e-15,6.36111e-15,-3.22453,-14.4878,2.49277,128.648,-53.2086,-4.72599,-44.5997,7.12502,21.0567,-73.4765,-2.03754e-15,6.36111e-15,29.335,22.076,-8.92805,56.3706,57.0262,-25.258,-18.8035,7.12502,1.26239,11.1725,-15.1734,2.8568,-0.100273,22.7861,13.2961,-25.4299,-10.1739,-22.4945,-1.30087,-24.2083,22.4526,-14.8004,7.48578,8.57374
4.26122,17.5985,0.985549,16.69,2.89174,-4.4199,-5.93643,0.273068,4.51935,-8.80224,0.43128,3.31111,-5.8602,0.063865,0.934665,-7.00473,13.8701,9.04931,28.4046,17.7445,2.19792,10.9615,9.3576,1.44302,-4.27387e-15,1.59028e-15,-3.08945,-14.327,2.29332,128.714,-53.0977,-4.70593,-44.2849,7.12502,21.0759,-73.1595,-4.27387e-15,1.59028e-15,29.1633,21.885,-8.99001,56.8566,57.436,-24.5244,-19.1085,7.12502,1.97094,10.8621,-15.3914,2.9126,-0.0660816,23.1088,13.841,-24.9667,-11.9536,-22.591,-1.39464,-24.1508,22.4848,-14.8468,7.45444,9.34659
4.26205,17.5979,0.979469,16.6453,2.88184,-4.316,-5.95008,0.204307,4.29698,-8.76041,0.341515,3.34902,-5.80765,0.0347276,1.09656,-6.712,13.8301,9.11748,28.4236,17.762,1.99646,10.9425,9.35449,1.34584,-3.62782e-15,-1.59028e-15,-2.76454,-14.1886,2.02751,128.806,-53.1338,-4.5765,-44.1416,7.12502,21.2003,-73.0023,-3.62782e-15,-1.59028e-15,29.083,21.8094,-8.81773,57.2085,57.4578,-23.9452,-18.8016,7.12502,2.53028,11.1631,-15.4936,3.01343,-0.174439,23.3344,14.6092,-24.5006,-13.819,-22.5491,-1.46831,-24.2502,22.445,-14.8884,7.42718,9.79885
4.26476,17.5966,0.979044,16.5446,2.86096,-4.16558,-5.87863,0.160487,4.0786,-8.68572,0.286728,3.3276,-5.76616,0.0205611,1.19406,-6.71933,13.7348,9.03936,28.4947,17.6435,1.98106,10.9589,9.29079,1.3386,6.01324e-15,2.70347e-14,-2.38014,-14.3245,1.62353,128.911,-53.4094,-4.05322,-44.4986,7.12502,21.7029,-73.3021,6.01324e-15,2.70347e-14,29.32,21.885,-8.38675,57.3758,57.1304,-24.498,-18.774,7.12502,1.99636,11.1964,-15.5137,3.06443,-0.337796,23.4917,16.1329,-23.6077,-16.6646,-22.4068,-1.49197,-24.4412,22.4128,-14.8523,7.48531,9.63768
4.26767,17.5954,0.979076,16.4468,2.90659,-4.04504,-5.85013,0.137606,3.94378,-8.55862,0.251561,3.27119,-5.64377,0.0110213,1.20776,-7.08676,13.6626,8.82198,28.6925,17.5115,2.11413,11.0606,9.21684,1.43434,1.63997e-14,-2.78299e-14,-2.07511,-14.4957,1.20611,128.97,-53.5532,-3.97419,-44.9837,7.12502,21.7787,-73.7784,1.63997e-14,-2.78299e-14,29.5931,22.0213,-8.10751,57.603,57.1647,-25.0964,-19.077,7.12502,1.4185,10.898,-15.473,3.00826,-0.444679,23.6006,16.6803,-23.4043,-16.6625,-22.3104,-1.56719,-24.5753,22.4252,-14.8434,7.48714,9.83983
4.27502,17.5925,0.97693,16.3092,3.05599,-4.12895,-5.75447,0.129579,4.14644,-8.46473,0.236976,3.22941,-5.59756,-0.00855802,1.04989,-7.40205,13.6073,8.71889,28.9668,17.4136,2.18297,11.2036,9.1628,1.49946,3.8266e-15,-1.82882e-14,-1.9812,-14.3085,0.931234,128.985,-53.3496,-4.15022,-45.0555,7.12502,21.6097,-73.8697,3.8266e-15,-1.82882e-14,29.7385,22.0947,-7.99844,58.0057,57.6919,-24.2716,-18.9455,7.12502,2.21505,11.0228,-15.3428,2.87342,-0.31292,23.6965,16.0851,-23.9535,-14.5082,-22.2109,-1.67146,-24.481,22.4961,-14.9401,7.41903,10.0617
4.28027,17.5874,0.970711,16.2501,3.15475,-4.31687,-5.75742,0.155574,4.41018,-8.3636,0.260975,3.21926,-5.4884,-0.0101147,0.89121,-7.48007,13.5488,8.88319,29.1469,17.3569,1.99073,11.3246,9.12735,1.42344,1.81391e-15,-7.95139e-16,-2.04457,-14.1021,0.762497,129.02,-53.1858,-4.09693,-44.865,7.12502,21.6609,-73.6734,1.81391e-15,-7.95139e-16,29.762,22.0891,-8.01279,58.4367,58.1642,-23.0735,-18.3491,7.12502,3.37214,11.604,-15.3105,2.87006,-0.0925256,23.7328,14.9042,-24.8812,-11.3703,-22.1976,-1.77114,-24.2697,22.5684,-15.017,7.42372,10.4371
4.28075,17.5839,0.964888,16.2631,3.14682,-4.29478,-5.83055,0.179148,4.33932,-8.27897,0.28281,3.18066,-5.35482,0.00593889,0.88912,-7.3848,13.4687,9.15069,29.2581,17.3009,1.67285,11.4103,9.09149,1.27272,-2.48481e-17,1.98785e-14,-2.07731,-14.078,0.573351,129.095,-53.2585,-4.27866,-44.7653,7.12502,21.4863,-73.5936,-2.48481e-17,1.98785e-14,29.8187,22.083,-7.98352,58.7819,58.3574,-22.8065,-18.0027,7.12502,3.62997,11.9461,-15.3586,2.93988,-0.118878,23.7645,13.8753,-25.5934,-8.76633,-22.265,-1.76103,-24.3179,22.6656,-15.0178,7.48591,10.3874
4.28922,17.5873,0.971605,16.1939,3.17508,-4.20176,-5.91362,0.183826,4.28814,-8.2034,0.277601,3.10338,-5.22575,0.00586,0.835714,-7.44673,13.3648,9.25805,29.4915,17.1895,1.49973,11.5385,9.02886,1.2024,9.41742e-15,-9.54166e-15,-2.08536,-14.0585,0.379496,129.2,-53.3766,-4.36307,-44.6795,7.12502,21.4053,-73.5171,9.41742e-15,-9.54166e-15,30.0168,22.0223,-7.79783,59.1124,58.3507,-23.0305,-17.7924,7.12502,3.41367,12.16,-15.2639,2.82638,-0.212942,23.8543,14.044,-25.4049,-9.00189,-22.1758,-1.6941,-24.4895,22.7447,-15.1362,7.46148,10.0974
4.29682,17.5831,0.979866,16.075,3.25652,-4.16633,-6.01932,0.165972,4.32111,-8.13872,0.24071,3.05399,-5.09723,-0.013863,0.764348,-7.51217,13.251,9.17203,29.7488,17.0602,1.46476,11.6402,8.95563,1.20197,1.4238e-14,1.59028e-14,-2.06309,-13.9711,0.173659,129.349,-53.4952,-3.65811,-44.867,7.12502,22.0822,-73.6262,1.4238e-14,1.59028e-14,30.0833,21.7738,-7.71604,59.5617,58.324,-23.4622,-17.9439,7.12502,2.99673,12.0148,-15.1653,2.69234,-0.236977,24.0627,13.6769,-25.6325,-7.32551,-22.0462,-1.71771,-24.5629,22.8374,-15.2868,7.42821,10.0609
4.29475,17.5779,0.972624,16.0131,3.28005,-4.16984,-5.9797,0.139302,4.26678,-8.14323,0.209379,3.05842,-5.12453,-0.0268114,0.798855,-7.37959,13.1795,9.11259,29.9048,16.9942,1.45086,11.6675,8.92077,1.1925,-6.28657e-15,5.56597e-15,-1.98941,-13.9574,-0.0566162,129.576,-53.9169,-2.88173,-45.5456,7.12502,22.8275,-74.2148,-6.28657e-15,5.56597e-15,30.0586,21.5685,-7.66409,60.0086,58.4298,-23.2257,-18.0095,7.12502,3.22512,11.9459,-15.271,2.8758,-0.218332,24.2921,11.6663,-26.5836,-4.40647,-22.0568,-1.75066,-24.5403,22.8914,-15.1856,7.45058,9.78759
4.28723,17.5694,0.959169,16.0164,3.17693,-4.16514,-5.86288,0.131806,4.11747,-8.17507,0.213029,3.09157,-5.22358,-0.0171868,0.917221,-7.409,13.1226,9.0234,30.1349,16.9297,1.47873,11.7484,8.88439,1.21899,8.94531e-16,-2.54444e-14,-1.88986,-13.8566,-0.213761,129.779,-54.1609,-2.88258,-45.7009,7.12502,22.8266,-74.3701,8.94531e-16,-2.54444e-14,30.0577,21.4873,-7.52827,60.3965,58.6361,-22.5129,-17.3275,7.12502,3.91348,12.6163,-15.5793,3.21642,-0.244867,24.5835,10.0229,-27.3974,-1.35435,-22.1797,-1.69119,-24.5297,22.9383,-15.0559,7.43478,9.78337
4.28624,17.5699,0.953808,16.0398,3.11611,-4.09915,-5.78012,0.10367,3.95026,-8.24351,0.188748,3.12329,-5.3431,-0.020786,1.04429,-7.52709,13.0421,8.76831,30.4803,16.8255,1.62213,11.8608,8.82492,1.31471,3.37934e-15,1.19271e-14,-1.78716,-13.3996,-0.285275,129.896,-53.9231,-3.33045,-45.0232,7.12502,22.3968,-73.7448,3.37934e-15,1.19271e-14,29.9008,21.2628,-7.54841,60.8577,59.1202,-23.7052,-17.7539,7.12502,2.76208,12.208,-15.8336,3.40002,-0.330951,24.9025,8.84577,-27.7879,0.8826,-22.2765,-1.62151,-24.612,22.9879,-15.0634,7.33379,10.229
4.29315,17.5754,0.955064,16.1205,3.12088,-4.04607,-5.85708,0.0792431,3.87892,-8.31488,0.156472,3.12976,-5.37627,-0.0334412,1.09131,-7.48513,12.988,8.53436,30.7464,16.7625,1.77932,11.9137,8.79153,1.40132,-1.33931e-14,0,-1.70626,-12.9591,-0.417524,129.998,-53.7782,-3.75462,-44.4219,7.12502,21.9896,-73.192,-1.33931e-14,0,29.6886,20.9335,-7.72038,61.3425,59.6817,-26.5751,-19.4352,7.12502,-0.00965909,10.5446,-16.0412,3.45089,-0.403506,25.1528,9.19473,-27.6034,-0.294828,-22.402,-1.5936,-24.7064,23.0619,-15.0926,7.28554,10.1552
4.2994,17.5724,0.954202,16.1924,3.13524,-4.04909,-5.96967,0.0886799,3.89092,-8.37016,0.163455,3.09952,-5.37203,-0.0318587,1.05367,-7.10561,12.8995,8.58396,30.7206,16.6883,1.68364,11.8411,8.76061,1.31804,-1.24986e-14,3.18055e-15,-1.70998,-12.6529,-0.653368,130.125,-53.6713,-3.95739,-44.197,7.12502,21.7949,-72.9898,-1.24986e-14,3.18055e-15,29.7262,20.5991,-7.71161,61.7229,59.658,-28.4596,-20.6306,7.12502,-1.82979,9.34135,-16.2046,3.46507,-0.423553,25.2875,10.3444,-27.2429,-2.71511,-22.511,-1.59824,-24.7426,23.1469,-15.105,7.32168,9.9086
4.30504,17.5695,0.947693,16.1512,3.26491,-4.15404,-5.97131,0.0840514,4.02955,-8.35841,0.15332,3.08444,-5.35954,-0.0450189,0.960443,-6.89509,12.8089,8.65846,30.7377,16.5998,1.56606,11.8232,8.71898,1.23852,1.04362e-15,8.74653e-15,-1.72273,-12.4183,-0.950264,130.222,-53.4892,-3.91392,-44.2657,7.12502,21.8366,-73.0536,1.04362e-15,8.74653e-15,29.9201,20.3642,-7.5173,62.0689,59.4455,-29.1742,-21.4689,7.12502,-2.51997,8.49598,-16.1863,3.44358,-0.280711,25.3659,10.8629,-27.1194,-3.7946,-22.5433,-1.65151,-24.6237,23.2628,-15.1643,7.23476,10.4376
4.31106,17.5668,0.940786,16.016,3.40301,-4.31747,-5.90106,0.0602175,4.2231,-8.22894,0.116719,3.11985,-5.26239,-0.0710386,0.887478,-7.25469,12.7937,8.51693,31.0643,16.5716,1.6218,12.0021,8.68774,1.31957,-8.19987e-15,-6.36111e-15,-1.58266,-12.4551,-1.2756,130.301,-53.4948,-3.65022,-44.4884,7.12502,22.0898,-73.2467,-8.19987e-15,-6.36111e-15,29.9982,20.2899,-7.3533,62.5015,59.6702,-29.5619,-21.9141,7.12502,-2.89436,8.04597,-16.0917,3.4246,-0.0557747,25.4736,11.7259,-26.8355,-5.60674,-22.5159,-1.67446,-24.4363,23.4141,-15.2775,7.12038,10.8163
4.31686,17.5637,0.938232,15.8613,3.48659,-4.3578,-5.7987,0.0217091,4.27254,-8.096,0.0651257,3.14766,-5.17879,-0.0967563,0.88666,-7.46051,12.7646,8.39328,31.3146,16.5535,1.60276,12.1311,8.65733,1.35706,-6.18717e-15,0,-1.3569,-12.504,-1.58646,130.363,-53.5409,-3.44125,-44.708,7.12502,22.2904,-73.4424,-6.18717e-15,0,29.9637,20.223,-7.263,63.0011,60.0803,-29.9515,-22.5832,7.12502,-3.27066,7.37144,-16.0074,3.39549,0.0252337,25.6058,12.5381,-26.6541,-6.74537,-22.4208,-1.69598,-24.404,23.5134,-15.3455,7.10333,10.7569
4.32026,17.5601,0.933729,15.8323,3.5467,-4.24287,-5.79484,-0.0187434,4.09109,-7.98928,0.00987172,3.15335,-5.06553,-0.112209,0.991181,-7.59802,12.7153,8.35509,31.5214,16.5265,1.48136,12.2494,8.62091,1.33815,6.48535e-15,-1.90833e-14,-1.16703,-12.4824,-1.89671,130.369,-53.4109,-3.53383,-44.6935,7.12502,22.2016,-73.4385,6.48535e-15,-1.90833e-14,29.8948,20.2091,-7.23363,63.4736,60.4842,-29.707,-23.179,7.12502,-3.03453,6.77917,-16.0819,3.31972,-0.0853827,25.813,12.8615,-26.5817,-7.11532,-22.4526,-1.74385,-24.5353,23.5909,-15.3908,7.06249,11.0363
4.32149,17.5562,0.925507,15.8578,3.52973,-4.14805,-5.7598,-0.023421,3.88043,-7.90735,0.00647788,3.15994,-4.99557,-0.10107,1.11414,-7.9521,12.6435,8.37059,31.8413,16.4755,1.26786,12.4731,8.56167,1.29975,6.70898e-15,-1.59028e-14,-1.08461,-12.5529,-2.16095,130.439,-53.4882,-3.61356,-44.517,7.12502,22.125,-73.2711,6.70898e-15,-1.59028e-14,29.8514,20.2477,-7.18735,63.9021,60.9364,-28.4892,-22.4863,7.12502,-1.85841,7.48539,-16.2923,3.29205,-0.201982,26.0617,13.4317,-26.2726,-8.41055,-22.5343,-1.70363,-24.6564,23.6437,-15.4215,7.0029,11.3289
4.32527,17.5478,0.918309,15.7779,3.47379,-4.14028,-5.56655,0.00752618,3.86775,-7.86615,0.0572479,3.13495,-5.05958,-0.0762643,1.09595,-8.29505,12.5518,8.26754,32.1587,16.3791,1.18964,12.6662,8.48644,1.31614,1.963e-15,-1.43125e-14,-1.06055,-12.5522,-2.41303,130.533,-53.7697,-3.39962,-44.5276,7.12502,22.3304,-73.2572,1.963e-15,-1.43125e-14,30.0048,20.2565,-6.94956,64.2351,61.1042,-27.4752,-21.6017,7.12502,-0.879062,8.37619,-16.4709,3.33182,-0.244611,26.3686,13.2835,-26.3733,-7.93756,-22.529,-1.65279,-24.6956,23.76,-15.4951,6.99845,11.4891
4.33448,17.5455,0.907743,15.7191,3.44238,-4.15963,-5.38874,0.0193665,3.9613,-7.84884,0.0804681,3.1048,-5.14164,-0.0715491,1.01312,-8.50382,12.5227,8.06048,32.3998,16.3436,1.29401,12.7735,8.45331,1.40556,1.10077e-14,-1.66979e-14,-0.932596,-12.4589,-2.7046,130.561,-53.7167,-3.15143,-44.7057,7.12502,22.5686,-73.4065,1.10077e-14,-1.66979e-14,30.2488,20.2916,-6.57797,64.4688,60.8519,-26.9263,-20.9548,7.12502,-0.348901,9.02465,-16.6847,3.33854,-0.264197,26.7072,14.0235,-25.9271,-9.75203,-22.5887,-1.67234,-24.7093,23.9258,-15.58,7.05463,11.5152
4.33875,17.5421,0.892942,15.7541,3.44042,-4.24795,-5.35084,0.00636291,4.04574,-7.85184,0.064914,3.12816,-5.16729,-0.0835383,0.990552,-8.4287,12.4953,7.92103,32.5399,16.3092,1.4063,12.788,8.43685,1.46045,-1.21756e-15,-3.73715e-14,-0.760588,-12.3415,-3.01596,130.648,-53.4912,-3.06791,-44.9953,7.12502,22.6488,-73.6864,-1.21756e-15,-3.73715e-14,30.2159,20.2317,-6.49984,64.8379,60.9442,-26.5513,-20.7766,7.12502,0.0132725,9.20319,-16.9964,3.35782,-0.178899,27.0805,13.5516,-26.1733,-8.86817,-22.7835,-1.66232,-24.6326,24.1016,-15.5372,7.08863,11.2732
4.33931,17.5392,0.881188,15.7481,3.38914,-4.27352,-5.26058,0.00062303,3.95166,-7.87737,0.0667877,3.15453,-5.24488,-0.0776985,1.07122,-8.42016,12.4358,7.73841,32.833,16.1955,1.65531,12.8588,8.39493,1.57255,1.81391e-15,-2.22639e-14,-0.689703,-12.0396,-3.31238,130.756,-53.2386,-3.32121,-44.9408,7.12502,22.4057,-73.6614,1.81391e-15,-2.22639e-14,30.1676,20.0199,-6.51391,65.2275,61.4744,-26.332,-20.9406,7.12502,0.225046,9.03904,-17.2429,3.43694,-0.139155,27.4309,11.303,-27.3596,-3.62982,-22.892,-1.60968,-24.6166,24.216,-15.4746,7.08548,11.2265
