JuanDHNZ/ProyectoFinalCD/preprocessing/sports_trials_csv/49_22.csv
root1,root2,root3,root4,root5,root6,lowerback1,lowerback2,lowerback3,upperback1,upperback2,upperback3,thorax1,thorax2,thorax3,lowerneck1,lowerneck2,lowerneck3,upperneck1,upperneck2,upperneck3,head1,head2,head3,rclavicle1,rclavicle2,rhumerus1,rhumerus2,rhumerus3,rradius1,rwrist1,rhand1,rhand2,rfingers1,rthumb1,rthumb2,lclavicle1,lclavicle2,lhumerus1,lhumerus2,lhumerus3,lradius1,lwrist1,lhand1,lhand2,lfingers1,lthumb1,lthumb2,rfemur1,rfemur2,rfemur3,rtibia1,rfoot1,rfoot2,rtoes1,lfemur1,lfemur2,lfemur3,ltibia1,lfoot1,lfoot2,ltoes1
3.51102,17.6651,2.09231,11.3717,-49.0123,9.38497,-10.5561,0.911331,-3.27571,-12.008,0.971182,-1.22337,-6.8247,0.524105,0.599849,-4.55389,19.3088,12.375,11.0977,25.0432,-0.427529,5.63226,12.7304,-0.0238356,9.68081e-14,5.24792e-14,3.43217,-24.9865,18.1937,127.051,-56.907,-6.14003,-46.3402,7.12502,19.6977,-75.3622,9.68081e-14,5.24792e-14,28.2996,26.4812,-16.663,33.2832,39.5064,-30.5965,-24.709,7.12502,-3.89346,5.23517,-7.2754,9.97386,-10.932,16.0515,-19.2003,-28.8402,38.3902,-12.5479,-6.95377,-26.5103,-1.35174e-14,-0.796719,25.836,5.8395
3.50948,17.6707,2.08007,11.5036,-49.0195,9.13567,-10.4023,0.886863,-3.1867,-12.0078,0.932711,-1.14459,-6.90672,0.503439,0.62938,-4.56747,19.3705,12.518,11.151,25.1167,-0.459402,5.67711,12.7688,-0.0310541,-3.926e-14,-1.35174e-14,3.55954,-25.0058,18.0774,127.049,-57.0514,-5.44097,-45.667,7.12502,20.3697,-74.6187,-3.926e-14,-1.35174e-14,28.2856,26.5644,-16.6079,33.3338,39.2211,-30.4748,-24.0619,7.12502,-3.77597,5.88444,-7.33626,10.1208,-10.7088,16.1705,-17.9458,-29.7405,36.4718,-12.5315,-6.88373,-26.272,1.03368e-14,-1.04377,25.8247,6.5044
3.5073,17.668,2.06938,11.3446,-49.143,9.26401,-10.3188,0.947606,-3.29922,-12.0427,1.01585,-1.10767,-6.99992,0.556845,0.732366,-4.08891,19.2778,12.5522,10.7938,25.0906,-0.791099,5.53392,12.743,-0.196403,-1.36167e-14,-3.53837e-14,3.63028,-24.9229,18.1963,127.055,-57.1149,-4.89083,-44.9738,7.12502,20.8983,-73.8681,-1.36167e-14,-3.53837e-14,28.356,26.3819,-16.4469,33.317,39.1915,-30.4032,-23.9257,7.12502,-3.70684,6.02185,-7.49535,10.0392,-10.8163,16.4285,-14.8976,-30.9258,32.4589,-12.5479,-6.7505,-26.2962,7.95139e-16,-1.3456,25.7952,7.51255
3.50494,17.6639,2.06122,11.1084,-49.2089,9.58359,-10.3784,0.984831,-3.46606,-12.0364,1.07334,-1.16751,-6.96685,0.595073,0.765373,-3.48737,19.1287,12.5041,10.1021,25.0054,-1.1671,5.25729,12.6828,-0.406093,-3.75703e-14,5.96354e-15,3.58634,-24.9214,18.2589,127.078,-57.0986,-4.6215,-44.5743,7.12502,21.157,-73.4399,-3.75703e-14,5.96354e-15,28.5883,26.46,-16.2467,33.169,39.0932,-30.3385,-24.1003,7.12502,-3.64432,5.84824,-7.61024,9.85562,-11.0717,16.6047,-12.7507,-31.4117,29.8266,-12.5827,-6.72067,-26.4856,-1.82882e-14,-1.46602,25.7574,3.81509
3.5047,17.6672,2.04706,11.0434,-49.1916,9.70045,-10.3172,0.980827,-3.59112,-12.0326,1.07065,-1.20967,-7.0002,0.602196,0.789335,-3.68392,19.1632,12.3261,10.2213,25.0089,-0.90031,5.26982,12.6912,-0.293091,1.43125e-14,1.86858e-14,3.44524,-24.9109,18.2738,127.184,-56.9825,-4.67156,-44.8579,7.12502,21.109,-73.7289,1.43125e-14,1.86858e-14,28.679,26.3439,-16.4,33.0806,39.5422,-30.1623,-24.408,7.12502,-3.47415,5.54339,-7.73903,9.87118,-11.1325,16.7912,-11.3278,-31.5354,27.7533,-12.6261,-6.75199,-26.54,3.4191e-14,-1.45944,25.7591,7.83879
3.50441,17.6674,2.03503,10.9236,-49.2262,9.84038,-10.247,0.986626,-3.70546,-12.0163,1.08117,-1.24146,-7.02497,0.615584,0.818781,-4.45152,19.2664,12.3405,11.1194,25.0155,-0.512953,5.62885,12.7133,-0.0555534,1.799e-14,2.90226e-14,3.32573,-24.857,18.3292,127.393,-56.9042,-5.6336,-45.9164,7.12502,20.1845,-74.8877,1.799e-14,2.90226e-14,28.5657,26.0258,-16.7025,33.1095,40.1675,-29.975,-24.5279,7.12502,-3.29328,5.42641,-7.80908,9.88111,-11.2224,16.9042,-11.9282,-30.994,28.6859,-12.6033,-6.74105,-26.6626,-8.74653e-15,-1.44817,25.8538,7.09566
3.50253,17.6634,2.02784,10.708,-49.2911,10.1474,-10.3009,0.939444,-3.8257,-11.9794,1.0249,-1.30477,-6.95434,0.592109,0.818339,-4.57642,19.2304,12.7326,11.2677,24.9636,-0.859382,5.78623,12.6795,-0.163837,1.56046e-14,-2.38542e-15,3.44839,-24.9239,18.1434,127.441,-56.8683,-6.24923,-46.4833,7.12502,19.5928,-75.516,1.56046e-14,-2.38542e-15,28.3377,25.9091,-16.9402,33.1603,40.2717,-30.2641,-25.1682,7.12502,-3.5725,4.78164,-7.86163,9.69941,-11.4613,16.9477,-12.9364,-30.5782,30.4241,-12.5993,-6.73062,-26.9176,7.95139e-15,-1.19552,25.9302,6.3106
3.49809,17.6632,2.022,10.6496,-49.4046,10.2275,-10.3469,0.917099,-3.80981,-11.9839,0.994057,-1.31143,-6.93182,0.573868,0.802094,-3.86057,19.1517,12.9313,10.4339,24.9842,-1.37106,5.49835,12.6706,-0.439575,2.04748e-14,2.3059e-14,3.66639,-24.9018,17.8969,127.337,-56.856,-5.97985,-46.2785,7.12502,19.8517,-75.2846,2.04748e-14,2.3059e-14,28.1389,25.8115,-17.0936,33.2419,40.0976,-30.9851,-25.8944,7.12502,-4.26872,4.04257,-7.9216,9.47356,-11.5436,16.956,-12.0581,-30.8065,29.4669,-12.5778,-6.63026,-26.9993,-3.10104e-14,-0.92088,25.9158,5.42417
3.49447,17.6682,2.01125,10.8324,-49.4576,9.95666,-10.2736,0.917115,-3.67925,-12.0458,0.984463,-1.20923,-7.03878,0.56504,0.834833,-3.34878,19.2018,12.6858,9.96232,25.1121,-1.23098,5.22764,12.7368,-0.449678,1.45113e-14,2.5842e-14,3.89104,-24.7271,17.7669,127.245,-56.834,-5.62684,-45.8939,7.12502,20.191,-74.8646,1.45113e-14,2.5842e-14,27.9529,25.5312,-17.3261,33.3601,40.2047,-31.4285,-25.5845,7.12502,-4.69688,4.34342,-7.94062,9.39826,-11.3394,16.9334,-12.9899,-30.3294,31.2387,-12.5726,-6.52666,-26.784,2.3059e-14,-0.835001,25.8857,5.13979
3.4942,17.673,1.99946,11.0328,-49.4194,9.718,-10.2072,0.877099,-3.57865,-12.1012,0.925162,-1.0924,-7.13401,0.534268,0.898195,-3.1651,19.2944,12.4282,9.88826,25.2446,-0.943742,5.1145,12.8109,-0.362297,6.27166e-14,1.55052e-14,4.22397,-24.6599,17.5259,127.143,-56.7437,-5.24415,-45.5287,7.12502,20.5588,-74.4601,6.27166e-14,1.55052e-14,27.9102,25.6015,-17.2599,33.3675,40.0065,-31.0817,-24.6957,7.12502,-4.362,5.23942,-7.9317,9.40975,-11.1305,16.8638,-13.7434,-30.0127,32.4886,-12.629,-6.51923,-26.5575,1.19271e-14,-0.960881,25.9156,5.79995
3.49214,17.6725,1.99671,11.0278,-49.4328,9.69281,-10.2607,0.854817,-3.46898,-12.0348,0.896043,-1.1044,-7.02438,0.509248,0.825135,-3.25866,19.3335,12.5562,9.98085,25.2843,-1.00533,5.18437,12.8301,-0.369105,-3.02153e-14,-3.02153e-14,4.34526,-24.7294,17.2207,127.164,-56.6572,-5.03045,-45.5075,7.12502,20.7642,-74.4165,-3.02153e-14,-3.02153e-14,27.9483,25.8741,-17.135,33.308,39.6208,-30.6588,-24.3071,7.12502,-3.9537,5.63595,-7.85652,9.31496,-11.0961,16.7851,-11.5081,-30.5132,29.3024,-12.5992,-6.48384,-26.4972,-7.95139e-15,-1.21535,25.8851,6.68514
3.48938,17.6721,1.98897,11.0295,-49.3808,9.55086,-10.2098,0.81074,-3.26005,-11.9156,0.83253,-1.13903,-6.90911,0.45943,0.670708,-4.05776,19.4432,12.921,10.9388,25.3047,-0.919163,5.64995,12.8524,-0.230266,-1.31198e-14,3.4191e-14,4.30793,-24.8207,16.9936,127.319,-56.7757,-5.41134,-45.7331,7.12502,20.3981,-74.6817,-1.31198e-14,3.4191e-14,27.8651,25.8936,-17.363,33.2782,39.6251,-30.7077,-24.3988,7.12502,-4.00083,5.54341,-7.69119,9.3835,-10.9433,16.7568,-14.4564,-29.0366,33.5906,-12.4982,-6.48666,-26.349,-9.54166e-15,-1.13386,25.7871,6.47279
3.49013,17.6716,1.97036,11.1979,-49.2426,9.2114,-10.021,0.794457,-2.98912,-11.8878,0.797548,-1.08633,-6.97405,0.425779,0.571846,-4.53629,19.5349,13.1044,11.6532,25.3525,-0.83164,5.96931,12.8853,-0.120639,8.93537e-14,2.82274e-14,4.27403,-24.8977,16.9961,127.485,-57.2338,-6.07137,-45.9566,7.12502,19.7637,-74.9718,8.93537e-14,2.82274e-14,27.965,25.9712,-17.2828,33.2083,39.5798,-30.7443,-24.3592,7.12502,-4.03619,5.58235,-7.47654,9.63293,-10.6025,16.5974,-19.2548,-26.4364,39.9606,-12.4956,-6.53135,-25.9721,2.46493e-14,-1.54408,25.7321,7.72464
3.4887,17.6635,1.95532,11.4265,-49.235,8.88071,-9.97136,0.897766,-2.73421,-11.9256,0.923786,-1.01921,-7.04144,0.473563,0.503895,-4.2551,19.4662,12.9139,11.4529,25.3099,-0.817438,5.83273,12.863,-0.148432,-6.55989e-15,-2.50469e-14,4.11185,-24.869,17.2798,127.682,-57.595,-6.63022,-46.2366,7.12502,19.2264,-75.3062,-6.55989e-15,-2.50469e-14,28.0907,25.9005,-17.1139,33.2136,39.6428,-30.9801,-24.7556,7.12502,-4.26392,5.18143,-7.39574,9.7321,-10.3248,16.4384,-18.7525,-26.7345,39.1588,-12.6531,-6.39242,-25.3969,-2.62396e-14,-4.57444,25.3837,16.5067
3.4841,17.6727,1.95313,11.6068,-49.3403,8.63068,-10.0411,0.994225,-2.54383,-11.9461,1.04745,-0.946711,-7.02461,0.523762,0.479461,-4.00252,19.3834,12.4572,11.1814,25.2262,-0.527705,5.60678,12.8268,-0.0878171,5.75482e-14,3.45885e-14,4.09242,-24.7759,17.434,127.801,-57.5962,-6.93293,-46.5988,7.12502,18.9353,-75.6971,5.75482e-14,3.45885e-14,27.8302,25.4413,-17.4028,33.372,40.1238,-31.4629,-25.8518,7.12502,-4.7301,4.07541,-7.40071,9.72314,-10.1492,16.358,-14.9983,-28.5615,33.9932,-12.527,-6.30816,-25.4521,1.51076e-14,-1.92422,25.718,9.48294
3.48356,17.6784,1.94414,11.6144,-49.3131,8.60832,-10.0296,1.01801,-2.51645,-11.9233,1.08025,-0.937629,-7.00571,0.539003,0.475013,-3.87938,19.2785,12.1328,10.8637,25.1055,-0.414774,5.42458,12.763,-0.0777828,1.88845e-15,2.66371e-14,4.07209,-24.7845,17.503,127.749,-57.6102,-6.8718,-46.7695,7.12502,18.9941,-75.8621,1.88845e-15,2.66371e-14,27.5859,24.9884,-17.7527,33.515,40.8021,-31.5622,-26.2638,7.12502,-4.826,3.66124,-7.4132,9.53131,-10.0997,16.3744,-11.6785,-29.7584,29.3237,-12.5006,-6.34211,-25.4727,-2.38542e-15,-1.09626,25.7484,7.16013
3.48566,17.6801,1.92836,11.395,-49.1677,8.95522,-9.98463,0.9482,-2.76929,-11.9103,0.997675,-0.976,-7.02107,0.516097,0.571848,-3.66631,19.1968,12.1431,10.5806,25.0483,-0.667897,5.332,12.7221,-0.191142,-1.09332e-15,2.22639e-14,4.09284,-24.8637,17.5438,127.601,-57.5792,-6.49206,-46.7287,7.12502,19.3593,-75.785,-1.09332e-15,2.22639e-14,27.3776,24.6528,-18.1279,33.5776,41.4215,-31.4244,-25.8291,7.12502,-4.69299,4.09888,-7.41305,9.14082,-10.2919,16.3714,-8.86565,-30.6718,25.0162,-12.586,-6.53695,-25.6598,-3.57812e-14,-1.06198,25.7837,7.07723
3.48562,17.6781,1.91546,11.1272,-49.1357,9.38497,-9.97226,0.834612,-3.11499,-11.934,0.861325,-0.939272,-7.06157,0.476354,0.797879,-3.53818,19.2794,12.1809,10.6872,25.1886,-0.755382,5.37002,12.7903,-0.208104,2.00773e-14,-1.35174e-14,4.42663,-24.9311,17.3728,127.427,-57.3575,-5.59431,-46.2789,7.12502,20.2223,-75.2463,2.00773e-14,-1.35174e-14,27.1148,24.5401,-18.3728,33.5417,41.5576,-31.4851,-25.7421,7.12502,-4.75155,4.18458,-7.51421,8.85501,-10.5866,16.4654,-7.44765,-30.8776,22.7021,-12.6653,-6.63589,-25.9387,-2.8625e-14,-1.10917,25.8146,6.87107
3.48295,17.6767,1.9084,11.0786,-49.229,9.40023,-9.91396,0.830713,-3.18339,-11.9382,0.861299,-0.848054,-7.10248,0.486813,0.9313,-3.55173,19.3432,12.0897,10.7883,25.2717,-0.663887,5.38587,12.8339,-0.159487,-6.53008e-14,-9.93923e-15,4.62962,-24.9112,17.2841,127.355,-57.3023,-5.74064,-46.0266,7.12502,20.0817,-75.0087,-6.53008e-14,-9.93923e-15,27.1831,24.818,-18.0692,33.4286,41.2471,-31.6231,-25.9538,7.12502,-4.88478,3.96992,-7.58749,8.73978,-10.5899,16.5635,-6.76782,-30.7316,21.8058,-12.6165,-6.53803,-25.9598,9.54166e-15,-1.08686,25.8276,6.4539
3.47894,17.6785,1.90279,11.1856,-49.2928,9.12681,-9.82262,0.895254,-3.05077,-11.9043,0.944474,-0.790485,-7.11561,0.522218,0.919886,-3.45257,19.2151,12.2714,10.5689,25.1318,-0.979944,5.35611,12.7537,-0.296949,5.36719e-15,4.37326e-15,4.5304,-24.7857,17.3533,127.396,-57.2981,-6.95252,-46.3282,7.12502,18.9165,-75.4284,5.36719e-15,4.37326e-15,27.2956,24.8917,-17.9121,33.4145,41.2853,-31.5272,-25.3674,7.12502,-4.79226,4.55844,-7.55673,8.72735,-10.3569,16.6255,-5.47524,-30.8964,19.5307,-12.4658,-6.42584,-25.8056,-7.95139e-15,-1.08736,25.8464,6.14741
3.47637,17.6816,1.89157,11.2738,-49.2883,8.97664,-9.76726,0.924346,-2.99259,-11.8847,0.980161,-0.807456,-7.1236,0.535481,0.870081,-3.22898,19.0619,12.841,10.249,24.9816,-1.61184,5.36155,12.6645,-0.571206,9.77027e-14,3.4191e-14,4.32724,-24.6516,17.4303,127.561,-57.1713,-6.61629,-46.1899,7.12502,19.2398,-75.2582,9.77027e-14,3.4191e-14,27.3763,24.8253,-17.9902,33.4215,41.354,-31.0736,-24.2398,7.12502,-4.35422,5.69539,-7.55425,8.65397,-10.1845,16.611,-3.56693,-31.1638,15.9882,-12.4455,-6.40027,-25.684,-2.78299e-14,-1.13468,25.8367,6.2117
3.47482,17.6853,1.87632,11.2792,-49.3299,8.94758,-9.73799,1.00177,-2.93631,-11.8521,1.07836,-0.902118,-7.10318,0.576116,0.741971,-3.19576,18.9983,13.2477,10.1904,24.9002,-1.87971,5.41632,12.6224,-0.693409,4.37326e-14,3.33958e-14,3.99809,-24.5697,17.6099,127.785,-57.1572,-5.80822,-45.9877,7.12502,20.0167,-74.9767,4.37326e-14,3.33958e-14,27.7058,25.0368,-17.7736,33.3488,41.0734,-30.3806,-23.5727,7.12502,-3.685,6.37518,-7.65167,8.53056,-10.1108,16.6587,-2.67872,-30.9921,14.544,-12.4817,-6.33969,-25.6163,-1.66979e-14,-1.20861,25.8565,6.55213
3.47325,17.6891,1.86328,11.2828,-49.3868,8.86361,-9.73084,1.14356,-2.75912,-11.7752,1.26075,-1.00994,-7.01851,0.64908,0.536473,-4.30996,19.1642,13.0009,11.5228,24.9047,-0.974321,5.8716,12.6607,-0.235303,-3.47873e-14,-2.94201e-14,3.62443,-24.5614,17.8173,127.818,-57.0519,-5.62606,-45.9936,7.12502,20.1918,-74.9642,-3.47873e-14,-2.94201e-14,28.0095,25.1877,-17.6015,33.3324,40.9953,-30.4651,-24.2188,7.12502,-3.76659,5.72768,-7.69918,8.72412,-10.0564,16.7959,-9.70389,-29.3454,27.3024,-12.4309,-6.26033,-25.556,3.18055e-15,-1.03937,25.888,6.04954
3.47195,17.6966,1.84956,11.446,-49.3191,8.7065,-9.76772,1.15249,-2.63525,-11.7281,1.2729,-0.990863,-6.94161,0.646626,0.489427,-6.7995,19.6868,12.2396,14.4473,25.1061,1.11543,6.86209,12.8528,0.863773,2.49475e-14,1.19271e-14,3.56333,-24.6572,17.8051,127.727,-56.8652,-5.80053,-46.321,7.12502,20.0241,-75.3092,2.49475e-14,1.19271e-14,28.1473,25.4863,-17.368,33.28,40.6738,-30.862,-25.4837,7.12502,-4.14985,4.45558,-7.91631,8.51715,-9.79382,17.0023,3.56836,-30.2894,2.74901,-12.4923,-6.3019,-25.405,1.74931e-14,-0.664795,25.867,5.10012
3.46823,17.699,1.83585,11.4935,-49.2322,8.81802,-9.88079,1.02554,-2.80306,-11.7252,1.11786,-0.903597,-6.87857,0.584761,0.67159,-4.17585,19.2451,12.5787,11.1515,25.0451,-0.858757,5.67231,12.7202,-0.189496,1.28216e-14,-9.54166e-15,3.7798,-24.8095,17.6882,127.707,-56.9707,-6.27823,-46.7045,7.12502,19.5649,-75.7401,1.28216e-14,-9.54166e-15,28.2174,25.997,-16.9102,33.1462,39.8692,-30.4653,-25.5078,7.12502,-3.76679,4.43867,-8.0627,8.26857,-9.79733,17.0689,12.5169,-27.9066,-15.7858,-12.6484,-6.40287,-25.404,-1.27222e-14,-0.596762,25.844,5.11653
3.46241,17.6981,1.82924,11.3348,-49.2676,9.14101,-10.0503,0.963407,-3.05312,-11.6977,1.05284,-0.899208,-6.76012,0.569452,0.816372,-3.06062,19.1184,12.5419,9.69886,25.0639,-1.44643,5.10705,12.7003,-0.544737,2.97183e-14,3.85642e-14,3.8564,-24.9358,17.6784,127.762,-57.2114,-6.22545,-46.3852,7.12502,19.6156,-75.4156,2.97183e-14,3.85642e-14,28.2797,26.2705,-16.6757,33.0761,39.4742,-30.3159,-25.2631,7.12502,-3.62255,4.68591,-8.25794,7.74881,-9.99079,17.1819,20.3541,-22.5719,-33.4334,-12.7188,-6.41493,-25.6018,4.77083e-14,-0.831272,25.8689,5.7271
3.45932,17.6927,1.81805,11.3136,-49.3576,9.19208,-10.1327,1.00641,-3.05554,-11.6453,1.11507,-0.924647,-6.65789,0.598716,0.795416,-3.95425,19.3174,12.112,10.7037,25.14,-0.407582,5.38323,12.7756,-0.0730053,-1.2752e-13,-4.09496e-14,3.77596,-24.9811,17.7371,127.806,-57.2873,-5.94192,-45.9033,7.12502,19.8882,-74.9057,-1.2752e-13,-4.09496e-14,28.2877,26.2382,-16.8507,33.1013,39.776,-30.6778,-25.4847,7.12502,-3.972,4.45805,-8.15558,8.26939,-10.1843,17.2219,-4.98439,-29.6937,21.4396,-12.75,-6.31996,-25.6001,1.35174e-14,-1.09974,25.8765,6.35428
3.45962,17.6997,1.79755,11.5961,-49.3358,8.81892,-9.99228,1.0288,-2.85562,-11.685,1.13449,-0.807496,-6.77633,0.60067,0.80508,-4.8947,19.4857,11.7436,11.9872,25.1776,0.534724,5.77592,12.8369,0.390876,-1.36167e-14,-2.8625e-14,3.87171,-24.9127,17.7515,127.791,-57.2907,-6.06811,-45.7598,7.12502,19.7669,-74.7747,-1.36167e-14,-2.8625e-14,28.0748,25.9078,-17.1889,33.1922,40.1777,-30.693,-25.1158,7.12502,-3.98665,4.8266,-8.32574,8.31429,-9.79334,17.2659,2.6282,-29.9216,4.93381,-12.8216,-6.26519,-25.2539,-3.33958e-14,-1.056,25.8439,6.43804
3.46055,17.7091,1.77009,11.9343,-49.2172,8.36431,-9.7602,0.98762,-2.62526,-11.7468,1.06741,-0.642752,-6.96776,0.559762,0.843145,-4.07155,19.3567,11.9934,11.1192,25.179,-0.260821,5.5032,12.8024,0.0189349,8.05078e-14,4.65156e-14,4.07604,-24.8651,17.6365,127.724,-57.2392,-6.50217,-46.1882,7.12502,19.3496,-75.2455,8.05078e-14,4.65156e-14,27.9649,25.8381,-17.1911,33.1546,40.0946,-30.1359,-24.0751,7.12502,-3.44871,5.8768,-8.37742,8.6596,-9.33762,17.2466,3.28426,-30.1391,2.60039,-12.9359,-6.28646,-24.8066,-8.74653e-15,-0.720279,25.7618,5.84321
3.45985,17.7145,1.74819,11.9961,-49.2096,8.26553,-9.68443,0.976807,-2.50237,-11.7074,1.04749,-0.661495,-6.96078,0.54004,0.753488,-3.70723,19.2971,12.4542,10.5643,25.1848,-0.953185,5.41583,12.7806,-0.273728,3.926e-14,-2.38542e-14,4.03807,-24.935,17.5125,127.702,-57.1223,-6.59761,-46.3856,7.12502,19.2578,-75.4521,3.926e-14,-2.38542e-14,28.3717,26.5372,-16.5889,32.8766,39.4634,-29.9494,-24.0984,7.12502,-3.26861,5.85629,-8.44808,8.8511,-9.18427,17.2582,4.62564,-30.1617,-1.3006,-13.0212,-6.25304,-24.6388,-1.82882e-14,-0.563666,25.6907,5.598
3.45422,17.7142,1.73986,11.9078,-49.3678,8.36532,-9.76528,0.992333,-2.50276,-11.6714,1.06877,-0.711609,-6.87532,0.547167,0.703433,-4.11864,19.3745,12.5641,11.1247,25.2093,-0.736239,5.64619,12.8066,-0.144828,-1.41137e-14,-3.33958e-14,4.03209,-25.0343,17.3972,127.716,-57.0843,-5.86408,-45.7417,7.12502,19.963,-74.7363,-1.41137e-14,-3.33958e-14,28.6745,27.0926,-16.0999,32.6863,38.9337,-30.3747,-25.3017,7.12502,-3.67927,4.64632,-8.45393,8.78533,-9.2788,17.1729,3.58405,-30.1505,0.512718,-12.9837,-6.10224,-24.7163,-2.46493e-14,-0.699267,25.746,5.91704
3.44614,17.7162,1.73555,12.0656,-49.4462,8.11418,-9.78564,0.977443,-2.37737,-11.6817,1.04654,-0.614637,-6.87279,0.530536,0.735115,-3.78958,19.3445,12.3674,10.8418,25.2202,-0.713673,5.47767,12.81,-0.173515,7.02704e-14,1.27222e-14,4.23806,-25.136,17.2232,127.614,-57.0912,-4.994,-45.3726,7.12502,20.7992,-74.2778,7.02704e-14,1.27222e-14,28.4398,26.8994,-16.3692,32.7766,39.0196,-30.3076,-25.2715,7.12502,-3.61447,4.67763,-8.37691,8.70044,-9.10346,17.0659,4.12715,-29.8313,-0.421048,-12.8827,-5.97818,-24.5586,-2.70347e-14,-0.828463,25.772,6.08769
3.44161,17.7223,1.72503,12.4375,-49.3306,7.5965,-9.72806,0.958667,-2.08596,-11.6596,1.01339,-0.521676,-6.87222,0.496863,0.668663,-3.63417,19.2897,12.2124,10.5706,25.1735,-0.721435,5.34612,12.7818,-0.201196,-2.59414e-14,9.14409e-15,4.27739,-25.2978,17.1144,127.486,-57.124,-4.17518,-45.251,7.12502,21.5857,-74.0679,-2.59414e-14,9.14409e-15,28.2913,26.7313,-16.7404,32.903,39.2061,-29.945,-24.2687,7.12502,-3.26433,5.68607,-8.28496,8.78057,-8.63878,16.96,8.08322,-29.0817,-9.5121,-12.8715,-5.9972,-24.1402,3.18055e-14,-0.796515,25.7308,6.07056
3.4385,17.7237,1.71566,12.4919,-49.295,7.58003,-9.8257,0.975487,-2.00013,-11.6149,1.03337,-0.58645,-6.76474,0.496788,0.555298,-3.60368,19.2115,12.3186,10.4158,25.0782,-0.875251,5.31956,12.7289,-0.273913,-6.65929e-15,1.43125e-14,4.11696,-25.4158,17.1746,127.546,-57.267,-3.64164,-44.8982,7.12502,22.0981,-73.6554,-6.65929e-15,1.43125e-14,28.3482,26.7938,-16.8042,32.9739,39.153,-30.0287,-24.2054,7.12502,-3.34516,5.74812,-8.28898,8.74807,-8.59057,16.9117,9.98273,-28.4458,-14.0565,-12.9306,-6.023,-24.0836,-1.82882e-14,-0.83555,25.7408,6.05847
3.43519,17.7224,1.70858,12.3051,-49.3703,7.90465,-9.93991,0.990139,-2.1364,-11.6225,1.05627,-0.672984,-6.71265,0.513278,0.542861,-3.46224,19.1818,12.5734,10.2973,25.0679,-1.14484,5.32519,12.7181,-0.389335,-5.2181e-14,-3.33958e-14,4.03981,-25.3916,17.2839,127.767,-57.4597,-4.13012,-45.1508,7.12502,21.629,-73.9628,-5.2181e-14,-3.33958e-14,28.2965,26.7537,-16.8585,33.0821,39.1314,-30.4022,-24.814,7.12502,-3.70582,5.13354,-8.39571,8.38173,-8.85019,16.9719,11.4109,-27.4846,-16.8683,-12.9981,-5.99685,-24.2912,-2.62396e-14,-0.878368,25.75,5.93756
3.43351,17.7234,1.69195,12.164,-49.4186,8.09103,-9.87085,1.00008,-2.29884,-11.6229,1.07384,-0.722425,-6.75597,0.532651,0.580914,-3.73505,19.2532,12.6829,10.608,25.1109,-1.02693,5.46747,12.747,-0.315198,4.2043e-14,4.37326e-15,3.93006,-25.3858,17.316,127.953,-57.5339,-4.95921,-45.8524,7.12502,20.8326,-74.754,4.2043e-14,4.37326e-15,28.2285,26.6325,-17.0781,33.1523,39.3513,-30.6311,-25.1451,7.12502,-3.92688,4.79847,-8.52834,8.19422,-8.97991,17.1288,10.0483,-27.701,-13.9262,-13.061,-5.9637,-24.3698,1.82882e-14,-0.710865,25.7353,5.66707
3.43192,17.7261,1.67209,12.1183,-49.4689,8.16333,-9.79215,1.04763,-2.42417,-11.6254,1.14177,-0.727653,-6.8084,0.576993,0.646265,-4.15072,19.3058,12.4846,11.092,25.0992,-0.612887,5.60869,12.7566,-0.11721,1.22253e-14,-4.77083e-15,3.75208,-25.4359,17.4103,128.059,-57.5415,-4.99771,-45.819,7.12502,20.7956,-74.7246,1.22253e-14,-4.77083e-15,28.2107,26.3467,-17.3044,33.1078,39.8901,-30.8786,-25.7175,7.12502,-4.16592,4.22154,-8.70943,8.31004,-9.01318,17.3208,7.30964,-28.4774,-8.98593,-13.1286,-5.90985,-24.3652,3.18055e-15,-0.559766,25.7199,5.5089
3.43097,17.7293,1.65391,12.0986,-49.4218,8.26647,-9.69844,0.992916,-2.61508,-11.6974,1.07648,-0.610362,-6.94776,0.565341,0.871432,-4.29223,19.3063,12.2104,11.4872,25.0866,-0.392617,5.6951,12.757,0.00279699,3.49861e-14,1.78906e-14,3.95498,-25.4518,17.4216,128.068,-57.5689,-4.13998,-45.0452,7.12502,21.6195,-73.8583,3.49861e-14,1.78906e-14,28.0182,26.0012,-17.425,33.0485,40.3832,-31.2671,-26.5505,7.12502,-4.54107,3.38086,-8.85043,8.22527,-9.02934,17.447,9.62903,-27.6589,-15.2091,-13.2302,-5.96055,-24.3626,-4.13472e-14,-0.696401,25.7673,6.20785
3.42828,17.729,1.63367,11.9637,-49.3479,8.51407,-9.68012,0.894825,-2.84028,-11.713,0.955697,-0.574328,-6.97885,0.523954,1.03051,-4.22707,19.2525,12.1381,11.5431,25.0394,-0.457669,5.70017,12.73,-0.0164836,0,-2.38542e-15,4.18655,-25.5021,17.2995,128.008,-57.5818,-3.55427,-44.5335,7.12502,22.1819,-73.2808,0,-2.38542e-15,27.8971,25.9866,-17.4016,33.0311,40.4343,-31.2856,-26.802,7.12502,-4.55894,3.12892,-8.86458,8.08196,-9.16546,17.4865,8.63046,-27.7698,-13.2197,-13.3223,-6.06075,-24.4612,-3.49861e-14,-0.693595,25.8248,6.4602
3.42126,17.7287,1.61941,12.0115,-49.4779,8.49398,-9.8662,0.974361,-2.75963,-11.6313,1.06408,-0.654255,-6.78405,0.566292,0.908838,-4.04703,19.1506,12.334,11.2735,24.9389,-0.746361,5.64132,12.6711,-0.156427,-7.5737e-14,-2.74323e-14,4.05276,-25.6267,17.2912,127.948,-57.5655,-3.97341,-44.8112,7.12502,21.7795,-73.6058,-7.5737e-14,-2.74323e-14,28.0373,26.122,-17.3422,33.0368,40.4265,-30.9833,-26.089,7.12502,-4.26697,3.84799,-8.91758,8.24652,-9.1921,17.4913,1.17985,-28.9868,3.69626,-13.3499,-5.91891,-24.4288,1.82882e-14,-0.651892,25.7958,6.2142
3.4165,17.7322,1.60621,12.2318,-49.6161,8.19752,-9.90743,1.05084,-2.59764,-11.6114,1.16342,-0.589188,-6.73875,0.606593,0.891533,-3.45463,19.0043,12.5861,10.5399,24.8642,-1.3845,5.42249,12.6104,-0.461372,-4.90004e-14,-1.31198e-14,4.16433,-25.9599,17.2811,127.902,-58.2369,-4.32895,-45.4335,7.12502,21.438,-74.2673,-4.90004e-14,-1.31198e-14,27.9508,25.9441,-17.5005,33.1068,40.6096,-30.6757,-24.7992,7.12502,-3.96998,5.14361,-8.97367,8.55354,-8.99824,17.4519,-3.34551,-28.9217,13.5718,-13.353,-5.71795,-24.1926,-1.51076e-14,-0.811181,25.767,6.65885
3.41582,17.7345,1.58878,12.2607,-49.566,8.08406,-9.69311,0.994656,-2.62907,-11.6913,1.08787,-0.424609,-6.94913,0.581077,1.07518,-2.83744,18.9193,12.4841,9.95966,24.866,-1.71232,5.17152,12.5971,-0.636943,2.39536e-14,2.22639e-14,4.54363,-26.4242,17.2525,128.024,-59.5039,-3.69317,-45.595,7.12502,22.0486,-74.3581,2.39536e-14,2.22639e-14,27.7933,25.8359,-17.4406,33.1463,40.4786,-30.2035,-23.9957,7.12502,-3.51394,5.95505,-8.87373,8.74993,-8.85805,17.362,-5.21632,-28.7757,17.0495,-13.3661,-5.72487,-24.0326,1.59028e-14,-0.681483,25.7093,6.33887
3.41572,17.7361,1.57263,12.2098,-49.4331,8.03974,-9.45817,0.959163,-2.62644,-11.7311,1.03692,-0.35849,-7.12396,0.561181,1.13763,-2.92889,18.9603,12.2234,10.2075,24.8992,-1.4204,5.19768,12.6218,-0.509462,2.44505e-14,-7.95139e-15,4.57963,-26.6677,17.3613,128.25,-59.9987,-3.17431,-45.5183,7.12502,22.5467,-74.2218,2.44505e-14,-7.95139e-15,28.0343,26.2013,-16.921,33.031,39.8377,-29.5819,-23.6547,7.12502,-2.91364,6.30517,-8.69053,8.77255,-8.736,17.296,-7.52419,-28.3441,21.7471,-13.352,-5.82275,-23.9089,3.97569e-15,-0.520703,25.6465,5.78872
3.4146,17.7404,1.55781,12.3078,-49.3132,7.8657,-9.33425,0.961404,-2.51274,-11.7003,1.03482,-0.37594,-7.15452,0.551976,1.0541,-3.31973,18.9812,12.0853,10.5876,24.8528,-1.07599,5.31588,12.6098,-0.348764,4.31363e-14,-2.38542e-15,4.45644,-26.7334,17.3409,128.281,-59.822,-2.93778,-45.3825,7.12502,22.7737,-74.0582,4.31363e-14,-2.38542e-15,28.2531,26.448,-16.7149,32.9758,39.3997,-29.3611,-23.7227,7.12502,-2.70046,6.23995,-8.57501,8.69003,-8.53257,17.2734,-9.19632,-27.7789,25.18,-13.3544,-5.8923,-23.7033,4.05521e-14,-0.733825,25.7071,6.64587
3.41324,17.7468,1.53707,12.5438,-49.1964,7.59583,-9.25009,0.961219,-2.3859,-11.6922,1.03025,-0.356598,-7.18879,0.541891,1.00237,-3.65255,19.0007,11.8714,10.9256,24.8069,-0.662751,5.39414,12.6009,-0.171569,-1.87852e-14,-7.95139e-15,4.60323,-26.6381,17.0793,128.127,-59.4132,-2.27707,-45.0045,7.12502,23.4076,-73.6009,-1.87852e-14,-7.95139e-15,28.2137,26.2755,-16.9389,33.0674,39.5422,-29.4931,-24.2178,7.12502,-2.82796,5.74324,-8.5622,8.66232,-8.24891,17.2345,-10.2885,-27.4749,27.0176,-13.4428,-5.94561,-23.4155,-1.74931e-14,-0.874992,25.755,7.4827
3.41202,17.7495,1.51608,12.6552,-49.0673,7.44742,-9.1653,0.953518,-2.3316,-11.6851,1.01955,-0.320815,-7.2269,0.535238,1.00823,-3.92164,19.0677,11.7104,11.2236,24.8307,-0.268911,5.46253,12.6278,-0.0052997,-1.17283e-14,-2.54444e-14,4.54556,-26.7897,17.1522,128.187,-59.4292,-1.84231,-44.9139,7.12502,23.8246,-73.4565,-1.17283e-14,-2.54444e-14,28.0577,25.8273,-17.3429,33.1335,39.9958,-29.8085,-24.6774,7.12502,-3.13256,5.2793,-8.51701,8.60978,-8.03759,17.1757,-11.273,-27.0902,27.8158,-13.4951,-6.03209,-23.2259,-3.02153e-14,-0.832939,25.7829,7.63416
3.40809,17.7486,1.50607,12.6275,-49.0465,7.41369,-9.16756,0.958758,-2.27612,-11.6216,1.02736,-0.344254,-7.15266,0.533865,0.953358,-3.98698,19.0503,11.9054,11.1635,24.788,-0.337699,5.4837,12.6073,-0.0420724,2.32578e-14,1.59028e-15,4.55825,-27.0288,17.047,128.113,-59.5608,-2.17641,-45.147,7.12502,23.5042,-73.7311,2.32578e-14,1.59028e-15,27.9414,25.4235,-17.7062,33.1165,40.3012,-30.2849,-25.0242,7.12502,-3.5926,4.92527,-8.45189,8.52518,-7.9652,17.1516,-9.42022,-27.4007,23.6879,-13.4364,-6.03442,-23.1757,-1.82882e-14,-0.939602,25.8033,8.04523
3.40366,17.7517,1.49808,12.7043,-49.0843,7.31938,-9.25451,0.97925,-2.14981,-11.5435,1.05284,-0.401473,-7.01256,0.533463,0.825445,-3.99924,18.9501,12.3117,10.9727,24.6631,-0.741537,5.51859,12.534,-0.20835,1.28812e-13,4.09496e-14,4.52295,-27.2772,16.8885,128.066,-59.591,-3.22189,-45.6512,7.12502,22.501,-74.3602,1.28812e-13,4.09496e-14,28.0892,25.5616,-17.6003,33.0782,40.2358,-30.4784,-25.0476,7.12502,-3.77946,4.89862,-8.49034,8.41256,-7.88159,17.184,-6.28483,-28.0271,17.9454,-13.4459,-5.97209,-23.0849,2.38542e-15,-0.8576,25.7634,7.93191
3.39984,17.7569,1.48487,12.7962,-49.015,7.28244,-9.3167,0.961329,-2.13004,-11.5186,1.03016,-0.416224,-6.94843,0.519548,0.799425,-3.93835,18.9363,12.5689,10.7682,24.6628,-1.02778,5.51104,12.5243,-0.325464,9.86966e-14,1.23246e-14,4.42778,-27.3937,16.9116,128.167,-59.5969,-3.72942,-45.9497,7.12502,22.0138,-74.7169,9.86966e-14,1.23246e-14,28.3975,25.9794,-17.2051,32.9604,39.9479,-30.4615,-24.6274,7.12502,-3.76317,5.31912,-8.52403,7.97356,-7.76621,17.1139,1.02438,-28.4843,2.04082,-13.5474,-6.02577,-22.9956,-7.15625e-15,-0.613897,25.7403,7.37393
3.39399,17.7592,1.47351,12.7999,-48.9746,7.30236,-9.31329,0.920123,-2.22879,-11.544,0.980457,-0.357198,-6.98126,0.504999,0.914867,-3.86253,19.0538,12.5681,10.7346,24.8194,-0.935386,5.48544,12.6062,-0.293191,-5.92378e-14,4.77083e-15,4.51282,-27.3736,16.9141,128.288,-59.5732,-3.22945,-45.6165,7.12502,22.4937,-74.3264,-5.92378e-14,4.77083e-15,28.5178,26.0714,-16.9682,32.8059,39.6384,-30.3834,-24.0964,7.12502,-3.68769,5.85144,-8.65806,7.23043,-7.62816,17.1494,16.0995,-23.2115,-29.2848,-13.5718,-6.06035,-22.9699,6.36111e-15,-0.602746,25.7807,7.30577
3.38918,17.7562,1.45951,12.8338,-49.0086,7.24873,-9.35746,0.909153,-2.20175,-11.5285,0.967209,-0.329961,-6.93859,0.497074,0.928849,-3.8875,19.1442,12.4081,10.8532,24.92,-0.673896,5.47989,12.6655,-0.189313,-9.56154e-14,-2.46493e-14,4.67049,-27.407,16.7906,128.349,-59.4461,-3.04027,-45.4452,7.12502,22.6753,-74.133,-9.56154e-14,-2.46493e-14,28.3932,25.9567,-17.044,32.8588,39.6655,-30.2137,-23.7383,7.12502,-3.52383,6.21232,-8.38927,7.86703,-7.773,17.1035,-8.25513,-26.9168,23.0866,-13.5812,-6.00481,-22.8975,-3.18055e-15,-0.588597,25.8097,7.21641
3.38778,17.7597,1.43694,12.8565,-48.9143,7.18471,-9.35543,0.907478,-2.10758,-11.4625,0.964569,-0.351465,-6.86292,0.488019,0.85408,-3.93471,19.1191,12.1111,10.8386,24.8801,-0.487475,5.42029,12.6463,-0.115366,-5.20816e-14,1.98785e-15,4.71708,-27.5714,16.7283,128.292,-59.348,-3.44349,-45.7888,7.12502,22.2883,-74.5234,-5.20816e-14,1.98785e-15,28.2442,25.8363,-17.2794,33.0266,39.9805,-30.1894,-23.9319,7.12502,-3.5004,6.01913,-8.53159,7.30256,-7.46992,17.1203,11.3785,-25.3735,-20.0712,-13.6363,-6.06766,-22.7662,5.1684e-14,-0.375757,25.7845,6.85217
3.38689,17.7543,1.41163,12.7484,-48.7855,7.23591,-9.21759,0.882791,-2.16412,-11.4138,0.935981,-0.347223,-6.88641,0.479936,0.887577,-4.01707,19.0697,11.9808,10.8286,24.8177,-0.518633,5.41488,12.609,-0.111197,2.77305e-14,3.02153e-14,4.80025,-27.7241,16.6849,128.161,-59.2065,-3.77631,-46.0803,7.12502,21.9688,-74.8528,2.77305e-14,3.02153e-14,28.0689,25.5957,-17.5462,33.1622,40.3133,-30.295,-24.3907,7.12502,-3.60233,5.55865,-8.2179,7.81033,-7.50426,16.9528,-4.54597,-27.6922,14.8087,-13.6541,-6.1806,-22.7098,1.90833e-14,-0.230518,25.7759,6.82595
3.3832,17.7553,1.39722,12.6143,-48.7424,7.32337,-9.06549,0.873332,-2.3439,-11.4216,0.929971,-0.310717,-6.98589,0.494036,1.02384,-4.16092,19.0565,12.174,11.0642,24.7942,-0.697406,5.55804,12.5939,-0.147678,-4.2043e-14,-7.15625e-15,4.88256,-27.772,16.6914,128.1,-59.1189,-3.97192,-46.2228,7.12502,21.7809,-75.0172,-4.2043e-14,-7.15625e-15,28.2653,25.7004,-17.1538,33.136,39.9678,-30.3125,-24.259,7.12502,-3.61926,5.68998,-8.24949,7.50045,-7.41187,16.9148,6.9437,-27.2316,-11.2506,-13.6172,-6.22277,-22.7293,1.19271e-14,-0.141257,25.7791,6.72755
3.37905,17.7529,1.38877,12.7288,-48.6786,7.16383,-9.06678,0.86282,-2.3097,-11.4559,0.918808,-0.187363,-7.02447,0.49186,1.13405,-4.35958,19.1161,12.0787,11.5195,24.8461,-0.522459,5.7042,12.6278,-0.0380308,-1.37957e-13,-6.91771e-14,5.16077,-27.8789,16.6466,128.043,-59.2136,-3.95621,-46.2222,7.12502,21.796,-75.0149,-1.37957e-13,-6.91771e-14,28.5511,25.8928,-16.535,32.908,39.1931,-30.3548,-24.3219,7.12502,-3.66013,5.62646,-7.9557,7.91569,-7.36963,16.7568,-10.7608,-26.3327,26.8483,-13.6168,-6.25119,-22.5805,7.15625e-15,0.0517713,25.7674,6.1456
3.3788,17.7551,1.37618,12.9253,-48.642,6.95755,-9.14649,0.842048,-2.14503,-11.4667,0.89146,-0.0500097,-6.9889,0.471212,1.18703,-4.27625,19.1479,11.6822,11.5426,24.9132,-0.340386,5.63027,12.6602,0.0445881,-9.0447e-14,-8.74653e-15,5.54366,-28.0976,16.543,128.032,-59.4102,-3.86199,-45.9812,7.12502,21.8865,-74.7633,-9.0447e-14,-8.74653e-15,28.1266,25.2573,-17.095,32.8464,39.7417,-30.3826,-24.6007,7.12502,-3.68692,5.34715,-8.04325,7.74516,-7.11022,16.7617,-3.69455,-27.8569,12.0005,-13.6801,-6.24004,-22.3749,1.90833e-14,0.12182,25.7763,5.99414
3.3806,17.753,1.35699,12.9548,-48.6361,6.99298,-9.18663,0.855491,-2.15759,-11.464,0.911259,-0.0418602,-6.96484,0.48223,1.20369,-3.92399,19.0429,11.7416,11.1453,24.8527,-0.723784,5.50144,12.6132,-0.129327,-2.98177e-16,-3.18055e-15,5.5931,-28.1966,16.5537,128.156,-59.5143,-4.40706,-46.1633,7.12502,21.363,-75.0057,-2.98177e-16,-3.18055e-15,27.6779,24.4355,-17.8976,33.0109,40.9854,-30.3869,-24.1971,7.12502,-3.69104,5.75069,-8.02641,7.87524,-7.12116,16.7472,-7.93771,-26.9023,20.7636,-13.7545,-6.2372,-22.3381,2.38542e-14,-0.038558,25.823,6.34483
3.38145,17.7552,1.34215,12.9554,-48.6092,7.04778,-9.27422,1.00734,-2.15468,-11.3586,1.11287,-0.263343,-6.80109,0.572971,0.976869,-4.93339,18.9943,12.1051,12.0154,24.6102,-0.491779,5.9409,12.5109,0.0311999,-1.4879e-13,-3.49861e-14,4.93314,-28.2889,16.844,128.252,-59.5238,-4.69099,-46.2669,7.12502,21.0903,-75.1399,-1.4879e-13,-3.49861e-14,28.2196,24.6138,-17.6287,32.9807,40.9822,-30.3936,-23.8719,7.12502,-3.69753,6.07573,-8.24941,7.46577,-7.05114,16.8607,4.17449,-27.345,-5.97236,-13.8188,-6.26705,-22.34,-1.98785e-14,-0.101311,25.84,6.3884
3.38309,17.7581,1.31939,12.9824,-48.4888,7.0138,-9.31708,1.21358,-2.09354,-11.1455,1.38573,-0.62122,-6.53822,0.690605,0.578478,-6.61097,18.9782,12.4967,13.1398,24.2558,0.0598586,6.52996,12.369,0.344373,2.40529e-14,-3.18055e-15,3.87218,-28.5999,17.2524,128.175,-59.5784,-4.05857,-45.8281,7.12502,21.6977,-74.6322,2.40529e-14,-3.18055e-15,29.2233,25.2711,-17.1058,32.8147,40.4497,-30.4824,-24.162,7.12502,-3.7833,5.78421,-8.31158,7.41451,-6.92366,16.9505,5.13476,-27.2712,-8.65744,-13.9219,-6.36066,-22.2156,1.82882e-14,-0.0414402,25.8509,6.64118
3.38382,17.7618,1.28863,13.1465,-48.2383,6.74696,-9.20353,1.21572,-1.9608,-11.0199,1.38531,-0.734512,-6.45479,0.677919,0.384969,-6.41157,18.8195,13.0978,12.4173,24.0837,-0.651094,6.41507,12.2553,0.0105201,-2.70844e-14,4.21423e-14,3.58476,-28.8835,17.1278,128.015,-59.4339,-3.52052,-45.5568,7.12502,22.2143,-74.3003,-2.70844e-14,4.21423e-14,29.5344,25.491,-17.1843,32.8092,40.4684,-30.3955,-24.1848,7.12502,-3.69936,5.76285,-8.24341,7.6048,-6.5907,17.0399,0.0767697,-27.9984,1.2104,-14.0282,-6.52871,-21.8601,-3.49861e-14,-0.0240973,25.902,7.08544
3.38254,17.7628,1.26801,13.2662,-48.1004,6.51256,-9.06951,1.14773,-1.87536,-11.0715,1.29223,-0.600154,-6.585,0.631812,0.471954,-5.61499,18.7054,13.3545,11.8175,24.0944,-1.28106,6.20482,12.2382,-0.298282,-2.11706e-14,-1.98785e-14,3.93363,-28.815,16.8644,128.073,-59.1188,-3.37506,-45.5956,7.12502,22.354,-74.3224,-2.11706e-14,-1.98785e-14,29.3845,25.272,-17.2658,32.8861,40.6416,-29.8888,-23.6753,7.12502,-3.21004,6.28033,-8.17962,7.56943,-6.30967,17.0901,-0.798359,-27.9372,2.62046,-14.0455,-6.60061,-21.5946,2.70347e-14,-0.00746546,25.933,7.1907
3.38207,17.7621,1.2578,13.0852,-48.0789,6.70405,-9.10192,1.18977,-1.9798,-11.1022,1.35297,-0.578428,-6.60649,0.67079,0.55499,-5.57928,18.6874,13.1675,12.0657,24.0696,-1.05296,6.22745,12.2381,-0.211114,-1.0635e-14,2.0276e-14,3.95808,-28.674,17.0039,128.272,-58.7541,-3.59437,-45.9525,7.12502,22.1434,-74.7044,-1.0635e-14,2.0276e-14,29.5645,25.1999,-16.8522,32.87,40.3856,-29.7561,-23.6501,7.12502,-3.08191,6.30734,-8.13034,7.29588,-6.40564,17.1283,0.557112,-27.5986,0.0134224,-14.0144,-6.64365,-21.6996,-3.97569e-15,0.0249429,25.9177,7.33114
3.38224,17.7627,1.24141,12.8852,-48.1039,6.90902,-9.17709,1.24058,-2.05648,-10.9794,1.42832,-0.679678,-6.43073,0.709884,0.497089,-5.72894,18.6931,12.9771,11.9814,24.0358,-0.805787,6.1677,12.2269,-0.121601,2.98177e-14,2.50469e-14,3.82236,-28.7827,16.9743,128.263,-58.2257,-3.66957,-46.1134,7.12502,22.0712,-74.8738,2.98177e-14,2.50469e-14,29.7526,25.331,-16.6917,32.8419,40.1554,-30.1936,-24.0354,7.12502,-3.50442,5.91558,-8.0802,7.19153,-6.53415,17.1119,-0.378525,-27.4525,2.32574,-13.9873,-6.63827,-21.8093,-1.43125e-14,0.0505444,25.8798,7.43871
3.38175,17.7657,1.218,13.0139,-48.1932,6.68626,-9.12024,1.26441,-1.96411,-10.9054,1.46042,-0.656863,-6.37898,0.72115,0.470403,-5.91818,18.7319,13.0031,12.0822,24.052,-0.751917,6.22753,12.2362,-0.0822988,-2.79789e-14,-5.96354e-15,3.96142,-29.0345,16.6832,128.11,-58.0733,-3.29855,-45.7178,7.12502,22.4274,-74.4357,-2.79789e-14,-5.96354e-15,29.57,25.1653,-17.0491,32.9238,40.5244,-30.4918,-24.0199,7.12502,-3.79243,5.92615,-8.15058,7.38356,-6.34093,17.0904,-1.02798,-27.7306,3.24679,-13.9832,-6.49081,-21.6046,2.94201e-14,-0.0274936,25.8499,7.66869
3.38258,17.7704,1.1977,13.3756,-48.1442,6.15301,-8.99435,1.29837,-1.64643,-10.8984,1.49572,-0.564571,-6.43347,0.72136,0.388501,-5.97872,18.6686,13.4376,12.2074,23.9659,-1.11944,6.37093,12.1861,-0.21848,2.56929e-14,1.03368e-14,4.05304,-29.3014,16.5495,128.08,-58.4213,-3.36478,-45.4,7.12502,22.3638,-74.1255,2.56929e-14,1.03368e-14,29.479,24.9694,-17.2164,32.9933,40.9155,-30.4003,-23.6852,7.12502,-3.70406,6.26233,-8.2091,7.57543,-5.87088,17.136,0.415534,-28.1462,-0.813113,-13.9883,-6.42469,-21.1481,-2.62396e-14,-0.27441,25.8687,8.37127
3.38489,17.7721,1.17701,13.4404,-47.959,6.04338,-8.91151,1.32803,-1.54317,-10.862,1.53198,-0.604493,-6.43548,0.731818,0.288825,-6.02525,18.5209,13.8196,12.0827,23.772,-1.53048,6.4221,12.077,-0.393819,-1.35174e-13,-3.97569e-14,3.84424,-29.4753,16.675,128.204,-58.5905,-4.21767,-45.5923,7.12502,21.5449,-74.4139,-1.35174e-13,-3.97569e-14,29.8578,25.2704,-16.6953,32.9059,40.6554,-30.0174,-23.6099,7.12502,-3.33423,6.34381,-8.17503,7.608,-5.70569,17.2377,-0.546654,-28.2514,0.622375,-14.0585,-6.56923,-20.9653,-1.35174e-14,-0.168453,25.8994,8.14425
3.38754,17.7722,1.15264,13.2148,-47.8173,6.41069,-8.90642,1.3135,-1.78925,-10.8369,1.52129,-0.690388,-6.41662,0.740927,0.335822,-6.97219,18.6174,13.5257,13.1099,23.7277,-0.892481,6.79215,12.0793,-0.0424169,1.04412e-13,6.16232e-14,3.7204,-29.6371,16.8028,128.289,-58.5098,-4.95786,-45.8978,7.12502,20.8339,-74.7992,1.04412e-13,6.16232e-14,30.3227,25.7777,-15.9165,32.7525,40.0821,-29.569,-23.8895,7.12502,-2.90126,6.07056,-8.20557,7.46044,-5.89765,17.3163,-1.02688,-28.173,1.41543,-14.2181,-6.75843,-21.1287,1.66979e-14,0.295499,25.8994,7.16378
3.388,17.7679,1.13143,13.0979,-47.7724,6.60866,-8.9841,1.23587,-1.92233,-10.8018,1.42716,-0.661133,-6.33812,0.704005,0.439993,-7.59897,18.7889,13.2146,13.9993,23.8513,-0.371807,7.09104,12.1595,0.263583,2.5842e-14,-9.93923e-15,4.02906,-29.8435,16.568,128.207,-58.2863,-5.33279,-46.2301,7.12502,20.4736,-75.1706,2.5842e-14,-9.93923e-15,30.1721,25.744,-15.9118,32.7293,40,-29.532,-24.201,7.12502,-2.86549,5.75945,-8.34258,7.3381,-5.96916,17.5177,0.0990787,-27.9641,-1.37072,-14.3184,-6.8194,-21.1918,1.43125e-14,0.347278,25.9082,7.29589
3.38759,17.7676,1.1105,13.1261,-47.7296,6.54433,-9.00156,1.18925,-1.90998,-10.7526,1.37064,-0.585071,-6.27447,0.678234,0.512034,-5.50836,18.4062,13.6948,11.4751,23.7772,-2.12022,6.2018,12.0433,-0.629044,-1.46604e-14,6.36111e-15,4.31947,-30.0585,16.3404,128.078,-58.1289,-5.58346,-46.5191,7.12502,20.2327,-75.4854,-1.46604e-14,6.36111e-15,29.8218,25.3573,-16.3045,32.7901,40.2207,-30.0062,-24.5884,7.12502,-3.3234,5.36549,-8.32808,7.51126,-5.8966,17.6906,-6.61921,-27.0776,12.6016,-14.3728,-6.82856,-21.0634,-8.74653e-15,0.294794,25.9181,7.50803
3.39164,17.7712,1.07794,13.255,-47.6394,6.32853,-8.8028,1.20847,-1.84648,-10.7216,1.39471,-0.562276,-6.35017,0.688839,0.49749,-6.33197,18.6463,13.4668,12.3651,23.9173,-1.33656,6.5062,12.1436,-0.242183,-5.561e-14,-1.82882e-14,4.24702,-30.2575,16.3463,128.115,-58.1083,-5.06964,-46.2067,7.12502,20.7265,-75.1199,-5.561e-14,-1.82882e-14,29.677,24.9519,-16.6686,32.8519,40.6113,-30.4589,-24.8209,7.12502,-3.76057,5.12567,-8.45279,7.45209,-5.59429,17.7799,-2.21219,-27.79,3.00113,-14.4896,-6.85158,-20.7882,1.59028e-14,0.60563,25.9066,6.86996
3.3887,17.7702,1.07185,13.3726,-47.6986,6.17304,-8.91417,1.21418,-1.72041,-10.6767,1.40189,-0.52964,-6.23559,0.684317,0.464546,-6.51673,18.8135,13.5055,12.5622,24.0729,-1.05176,6.57831,12.2363,-0.117033,-7.63333e-14,-6.75868e-15,4.41288,-30.3455,16.127,128.258,-57.9801,-4.71127,-46.0209,7.12502,21.0708,-74.8961,-7.63333e-14,-6.75868e-15,29.2943,24.3809,-17.2585,32.9567,41.2565,-30.6565,-24.704,7.12502,-3.95146,5.23912,-8.4507,7.19567,-5.4714,17.7137,0.991203,-27.6216,-3.51453,-14.4673,-6.76192,-20.68,-4.92986e-14,0.674967,25.8903,6.45478
3.38691,17.7694,1.05824,13.3791,-47.6648,6.15994,-8.93018,1.1482,-1.75337,-10.7066,1.31733,-0.43596,-6.26113,0.647792,0.578306,-6.12018,18.8047,13.6591,12.1949,24.136,-1.34176,6.4544,12.2573,-0.263569,7.30534e-15,-7.95139e-16,4.84883,-30.4042,15.8185,128.2,-57.9118,-5.04447,-46.1915,7.12502,20.7507,-75.102,7.30534e-15,-7.95139e-16,28.9197,23.887,-17.627,33.0611,41.6257,-31.005,-24.788,7.12502,-4.28801,5.14858,-8.38449,7.16688,-5.43827,17.6662,1.24857,-27.3834,-4.34206,-14.4895,-6.78059,-20.6238,7.95139e-16,0.731018,25.8419,6.11175
3.38713,17.77,1.03767,13.5575,-47.5599,5.9401,-8.97959,1.16944,-1.53138,-10.7654,1.33682,-0.372546,-6.2933,0.644145,0.521812,-5.59966,18.6232,13.523,11.7626,24.0005,-1.54751,6.23237,12.1813,-0.402565,6.13251e-14,2.62396e-14,5.14396,-30.4761,15.6729,127.947,-57.9086,-4.87108,-45.9654,7.12502,20.9173,-74.8576,6.13251e-14,2.62396e-14,28.9968,23.7205,-17.3951,33.0395,41.2943,-31.0915,-24.7125,7.12502,-4.37149,5.22236,-8.27203,7.43773,-5.24955,17.5631,-2.30783,-27.267,2.60072,-14.5843,-6.8269,-20.3777,2.38542e-15,0.965351,25.7739,5.58411
3.38649,17.7729,1.02305,13.76,-47.4172,5.65531,-9.0401,1.16618,-1.23766,-10.825,1.32141,-0.282115,-6.3181,0.618759,0.452738,-5.22974,18.5048,13.3153,11.7313,23.9099,-1.50961,6.1288,12.141,-0.423088,-8.75646e-14,-2.70347e-14,5.39822,-30.5713,15.5313,127.814,-57.9136,-4.13194,-45.3411,7.12502,21.6273,-74.1533,-8.75646e-14,-2.70347e-14,29.1618,23.7133,-16.9623,32.9143,40.616,-30.6847,-24.3991,7.12502,-3.97869,5.54353,-8.33284,7.13361,-4.85754,17.5509,7.19738,-26.1768,-17.4094,-14.6367,-6.89729,-20.0809,-6.36111e-15,1.03519,25.7607,5.89086
3.38599,17.7703,1.00518,13.5993,-47.2618,5.75171,-8.93337,1.06206,-1.31702,-10.8362,1.18807,-0.20528,-6.39143,0.56142,0.571226,-5.18642,18.5592,13.0568,11.962,23.9822,-1.2232,6.13488,12.1884,-0.303217,-4.25399e-14,1.59028e-14,5.61012,-30.7466,15.3562,127.856,-57.9453,-3.54002,-44.8694,7.12502,22.1956,-73.615,-4.25399e-14,1.59028e-14,29.063,23.5814,-16.8851,32.8405,40.362,-30.8301,-24.8555,7.12502,-4.11912,5.08442,-8.22683,7.07974,-4.80868,17.6223,7.00926,-26.2882,-17.6449,-14.6021,-7.04426,-20.0528,5.40694e-14,0.946175,25.7681,6.5684
3.38706,17.7698,0.982376,13.4563,-47.1554,5.92584,-8.84231,1.00588,-1.49916,-10.8326,1.12175,-0.180106,-6.4424,0.543118,0.695712,-5.28526,18.6108,12.7492,12.0449,24.0282,-0.919831,6.1054,12.2179,-0.172759,-1.03467e-13,-1.07344e-14,5.63246,-30.8685,15.3125,127.997,-57.9441,-3.33023,-44.8595,7.12502,22.397,-73.5811,-1.03467e-13,-1.07344e-14,29.0961,23.5825,-16.7164,32.7846,40.2095,-30.9975,-25.1926,7.12502,-4.28068,4.74412,-8.2865,7.04067,-4.83499,17.8094,5.89339,-26.6786,-16.2514,-14.6603,-7.1576,-20.0808,1.55052e-14,1.00311,25.6986,6.34125
3.38578,17.7703,0.962634,13.4408,-47.1332,6.0741,-8.97761,1.04085,-1.62085,-10.8025,1.17435,-0.235982,-6.33742,0.575299,0.70914,-5.47946,18.6335,12.6163,12.0812,24.0166,-0.717773,6.10586,12.217,-0.0860731,-6.67916e-14,-1.11319e-14,5.52297,-30.9046,15.3395,128.11,-57.8119,-3.37913,-45.1823,7.12502,22.3501,-73.9095,-6.67916e-14,-1.11319e-14,29.3857,23.796,-16.3497,32.7053,39.9301,-30.5763,-25.0528,7.12502,-3.87395,4.89172,-8.50185,6.8831,-4.87682,18.0105,6.43836,-26.49,-17.8013,-14.8125,-7.19013,-20.1157,2.62396e-14,1.08222,25.6216,5.81989
3.38174,17.766,0.9466,13.2476,-47.226,6.39039,-9.17875,1.07358,-1.81746,-10.726,1.2288,-0.326437,-6.14661,0.611477,0.730183,-5.4086,18.6367,12.6661,11.7847,24.0352,-0.841988,6.02107,12.2179,-0.147164,4.11484e-14,1.70955e-14,5.62282,-30.9996,15.1374,128,-57.4798,-3.53803,-45.5674,7.12502,22.1975,-74.3129,4.11484e-14,1.70955e-14,29.3661,23.6461,-16.4947,32.7315,40.1166,-30.5356,-25.3913,7.12502,-3.83469,4.5539,-8.61695,6.83225,-5.11521,18.1666,3.5329,-26.874,-12.7648,-14.88,-7.14477,-20.3229,-2.82274e-14,1.17043,25.6109,5.69233
3.3794,17.7627,0.928657,13.104,-47.2433,6.53298,-9.15157,1.03052,-1.96651,-10.7154,1.17924,-0.295057,-6.15399,0.598492,0.844115,-5.04641,18.612,12.7336,11.3603,24.0807,-1.16656,5.87826,12.2248,-0.297039,2.48481e-15,-2.66371e-14,5.94276,-31.1248,14.8213,127.866,-57.3454,-3.71642,-45.7141,7.12502,22.0263,-74.4798,2.48481e-15,-2.66371e-14,29.023,23.1059,-16.9463,32.8475,40.672,-30.7499,-25.4887,7.12502,-4.04167,4.45267,-8.60778,6.82538,-5.15224,18.2255,3.0358,-26.8752,-12.7703,-14.8885,-7.13698,-20.3815,1.66979e-14,1.27083,25.6281,5.79672
3.37647,17.7652,0.907769,13.2355,-47.06,6.32055,-9.01558,0.944973,-1.96686,-10.7538,1.0667,-0.175361,-6.27107,0.548432,0.963338,-4.8988,18.573,12.7467,11.3543,24.0626,-1.27486,5.8673,12.213,-0.344439,9.72057e-14,3.73715e-14,6.1524,-31.167,14.6508,127.867,-57.3712,-4.10008,-45.8013,7.12502,21.6578,-74.6099,9.72057e-14,3.73715e-14,28.6189,22.378,-17.5222,33.0266,41.4705,-30.8463,-25.229,7.12502,-4.13469,4.71067,-8.51718,6.78036,-4.82788,18.1925,5.0487,-26.6661,-17.4883,-14.9356,-7.25851,-20.1215,3.73715e-14,1.30562,25.6428,5.7898
3.37269,17.766,0.890601,13.353,-46.9125,6.13213,-9.04034,0.951672,-1.87964,-10.7104,1.0764,-0.151508,-6.20789,0.54853,0.940655,-5.15577,18.4895,12.6847,11.7119,23.9161,-1.17858,5.99521,12.1449,-0.283324,-1.37261e-13,-1.90833e-14,6.0771,-31.1845,14.6728,127.886,-57.2625,-4.61326,-46.004,7.12502,21.165,-74.8687,-1.37261e-13,-1.90833e-14,28.3416,21.652,-18.1315,33.231,42.4201,-31.4412,-25.9966,7.12502,-4.70916,3.93103,-8.34551,6.72529,-4.59243,18.0848,2.00135,-27.2538,-11.6974,-14.9599,-7.35414,-19.9045,5.1684e-15,1.37825,25.6301,5.70655
3.36937,17.7635,0.87604,13.3543,-46.9322,6.08632,-9.19248,1.06911,-1.79849,-10.6027,1.23502,-0.216867,-6.00595,0.619324,0.835911,-5.5064,18.4041,12.6287,12.0079,23.7501,-1.07385,6.11698,12.0655,-0.217557,-5.10877e-14,-1.78906e-14,5.78224,-31.2739,14.88,127.946,-57.3392,-4.92358,-46.1911,7.12502,20.8668,-75.0889,-5.10877e-14,-1.78906e-14,28.5473,21.5916,-18.0245,33.263,42.6634,-31.9068,-26.7699,7.12502,-5.15872,3.14735,-8.24268,6.51471,-4.50313,17.9593,0.611602,-27.3016,-8.53933,-14.9392,-7.31451,-19.8421,3.57812e-15,1.59325,25.5514,5.30468
3.36556,17.7649,0.857092,13.4455,-47.0323,5.88382,-9.24431,1.20827,-1.70114,-10.565,1.42056,-0.181478,-5.93924,0.707422,0.826782,-5.41463,18.2952,12.6877,11.9033,23.6292,-1.23462,6.08828,12.0001,-0.296605,3.05134e-14,-2.78299e-15,5.63147,-31.3158,15.1323,128.011,-57.474,-5.05106,-46.2265,7.12502,20.7444,-75.1377,3.05134e-14,-2.78299e-15,29.0652,22.0359,-17.1737,33.1188,41.8884,-31.5661,-25.8469,7.12502,-4.82975,4.07807,-8.25355,6.30847,-4.25258,17.8597,4.07565,-26.7756,-15.2398,-14.9047,-7.16012,-19.6605,-2.0276e-14,1.72671,25.4826,4.87308
3.36388,17.7663,0.833457,13.4673,-47.1466,5.68207,-9.11216,1.32204,-1.63203,-10.5692,1.57079,-0.113935,-6.02124,0.782089,0.861354,-5.2507,18.1803,12.8248,11.8955,23.5205,-1.49767,6.10174,11.9396,-0.41067,-2.68359e-15,-1.27222e-14,5.63927,-31.3071,15.2526,128.005,-57.3738,-4.7672,-45.8703,7.12502,21.0171,-74.7515,-2.68359e-15,-1.27222e-14,29.5415,22.4462,-16.2611,32.9398,40.8252,-31.2231,-24.847,7.12502,-4.49859,5.08524,-8.21853,6.45313,-4.01651,17.7667,5.29355,-26.5411,-17.6455,-14.8223,-6.98656,-19.4703,3.97569e-15,1.65316,25.4988,4.92954
3.3627,17.7634,0.812151,13.3969,-47.1519,5.67675,-9.05321,1.33957,-1.65245,-10.5383,1.59621,-0.117229,-6.02156,0.796765,0.869195,-5.26895,18.1153,12.8451,11.9884,23.4336,-1.5221,6.13474,11.8974,-0.422709,2.54444e-14,-1.11319e-14,5.68053,-31.3909,15.1684,127.962,-57.2749,-3.96053,-45.1311,7.12502,21.7919,-73.9242,2.54444e-14,-1.11319e-14,29.731,22.6012,-15.9283,32.861,40.3813,-31.3596,-25.1788,7.12502,-4.63038,4.75057,-8.12612,6.60466,-3.9411,17.6765,4.2011,-26.8124,-15.8308,-14.7952,-6.95868,-19.4032,2.10712e-14,1.61948,25.5175,4.98738
3.35922,17.7609,0.796982,13.5399,-47.0451,5.5261,-9.18602,1.26753,-1.53931,-10.5047,1.49905,-0.0738974,-5.90541,0.741201,0.851349,-5.22452,18.0878,12.7244,11.8816,23.3911,-1.38969,6.06017,11.8807,-0.390907,4.67144e-15,2.8625e-14,5.91658,-31.55,14.8647,127.915,-57.3126,-3.87742,-45.077,7.12502,21.8717,-73.8608,4.67144e-15,2.8625e-14,29.3829,22.1297,-16.5033,32.9774,40.9544,-31.7409,-25.6708,7.12502,-4.99852,4.25026,-8.06783,6.5966,-3.73009,17.6041,4.16161,-26.8968,-16.1746,-14.848,-7.02105,-19.2208,2.54444e-14,1.64238,25.5475,5.04577
3.35664,17.7589,0.779928,13.7134,-46.9588,5.31917,-9.30304,1.20284,-1.38238,-10.4696,1.40981,-0.00953225,-5.79635,0.687688,0.830539,-5.19568,18.1137,12.6379,11.8406,23.4194,-1.26877,6.01919,11.8988,-0.351577,-7.20594e-14,-1.11319e-14,6.22857,-31.7487,14.489,127.82,-57.2696,-4.24249,-45.7222,7.12502,21.5211,-74.5466,-7.20594e-14,-1.11319e-14,28.9926,21.6278,-17.0921,33.0937,41.4451,-31.7364,-25.2684,7.12502,-4.99418,4.65274,-8.0062,6.69852,-3.48188,17.529,3.48635,-27.1449,-15.3826,-14.8892,-7.04908,-18.9922,7.95139e-15,1.51855,25.5862,5.5185
3.35531,17.7583,0.756428,13.7501,-46.8939,5.22569,-9.25777,1.16188,-1.38101,-10.4568,1.35796,0.0535223,-5.80774,0.664564,0.892906,-5.26178,18.202,12.5208,11.9985,23.5181,-1.07082,6.04869,11.9549,-0.259133,-1.3418e-14,-1.59028e-14,6.46327,-31.8325,14.2549,127.771,-57.0935,-4.12758,-45.8324,7.12502,21.6314,-74.6441,-1.3418e-14,-1.59028e-14,28.8971,21.5345,-17.1316,33.0988,41.3561,-31.1037,-24.6287,7.12502,-4.38323,5.30596,-7.92556,6.77502,-3.33093,17.4849,1.87075,-27.3255,-12.7981,-14.9065,-7.06815,-18.8251,1.11319e-14,1.32628,25.5647,5.94567
3.35454,17.7595,0.732049,13.7639,-46.7893,5.15557,-9.14386,1.11273,-1.40216,-10.4727,1.29519,0.125996,-5.88916,0.638276,0.975835,-5.49103,18.3032,12.5693,12.387,23.6132,-0.95478,6.20801,12.0092,-0.175008,3.8266e-14,-2.38542e-15,6.67252,-31.8334,14.0957,127.838,-57.0703,-4.10937,-45.5392,7.12502,21.6489,-74.3489,3.8266e-14,-2.38542e-15,28.7175,21.25,-17.3606,33.1518,41.6028,-30.5161,-24.2641,7.12502,-3.81586,5.6815,-7.89079,6.66008,-3.17518,17.4941,1.07488,-27.3989,-11.6897,-14.937,-7.13551,-18.6795,-2.94201e-14,1.38034,25.5328,5.70055
3.3553,17.7577,0.707896,13.6295,-46.689,5.26562,-9.02139,1.05637,-1.46475,-10.4797,1.22183,0.116838,-5.9642,0.606206,0.996302,-5.79139,18.3539,12.9606,12.9102,23.6406,-1.13315,6.49635,12.0238,-0.195902,-4.6118e-14,7.95139e-16,6.8432,-31.9208,13.9018,127.859,-57.1783,-4.47065,-45.6467,7.12502,21.3019,-74.4959,-4.6118e-14,7.95139e-16,28.5595,20.8984,-17.6268,33.1935,41.838,-30.4578,-24.1166,7.12502,-3.75953,5.82995,-7.83181,6.47288,-3.1461,17.4865,0.388878,-27.5307,-10.7007,-14.9696,-7.23766,-18.682,-2.06736e-14,1.69066,25.519,5.13648
3.35507,17.7537,0.687681,13.5246,-46.6482,5.33801,-8.90911,1.00778,-1.51,-10.5318,1.15679,0.142395,-6.08372,0.578215,1.04383,-5.87547,18.3738,13.2063,13.3126,23.6653,-1.27959,6.69068,12.0369,-0.223526,1.98785e-16,1.59028e-14,7.06335,-31.9287,13.7307,127.832,-57.2864,-4.89337,-45.9399,7.12502,20.8959,-74.8345,1.98785e-16,1.59028e-14,28.5044,20.6646,-17.5258,33.2042,41.7896,-30.77,-24.5434,7.12502,-4.06102,5.39761,-7.7223,6.45315,-3.13027,17.4324,-0.553457,-27.4892,-9.24454,-14.9717,-7.27718,-18.6819,3.49861e-14,1.92447,25.5077,4.69372
3.35398,17.7519,0.672348,13.653,-46.7136,5.10728,-8.90723,1.02247,-1.30288,-10.5838,1.16828,0.239788,-6.13858,0.573215,1.03016,-5.66354,18.3712,13.0003,13.3759,23.7021,-1.17667,6.64246,12.059,-0.188401,-7.44449e-14,-4.6118e-14,7.30186,-31.8521,13.6038,127.875,-57.4709,-4.95831,-45.9454,7.12502,20.8335,-74.8469,-7.44449e-14,-4.6118e-14,28.3995,20.4239,-17.3972,33.2438,41.8744,-31.0032,-24.9357,7.12502,-4.28619,5.0009,-7.69993,6.59249,-2.91067,17.3691,0.0927,-27.4168,-10.9994,-14.9361,-7.15638,-18.4856,-1.63003e-14,1.85108,25.535,4.84104
3.35259,17.7547,0.653562,13.8898,-46.834,4.78296,-9.00647,1.08369,-0.981111,-10.5426,1.23777,0.257011,-6.03142,0.585897,0.872824,-5.58148,18.3857,12.7675,13.2999,23.7293,-1.00678,6.55708,12.0757,-0.129414,-3.44891e-14,6.36111e-15,7.34304,-31.8424,13.471,128.009,-57.7448,-5.10249,-45.8927,7.12502,20.6949,-74.8093,-3.44891e-14,6.36111e-15,28.4126,20.4877,-17.3427,33.2233,41.8411,-30.969,-24.8097,7.12502,-4.2532,5.12762,-7.84012,6.61335,-2.60409,17.3586,1.63412,-27.3334,-14.4405,-14.9476,-6.95324,-18.1977,-2.38542e-15,1.62259,25.5682,5.69396
3.34863,17.7589,0.630036,14.0465,-46.8888,4.61372,-9.0825,1.13401,-0.867384,-10.4665,1.30107,0.208766,-5.90286,0.60817,0.763002,-5.74172,18.4119,12.6734,13.2725,23.7287,-0.864712,6.54468,12.0776,-0.0677287,-4.07509e-14,7.15625e-15,7.21333,-31.8374,13.3481,128.109,-58.0077,-4.50831,-45.4783,7.12502,21.2658,-74.3317,-4.07509e-14,7.15625e-15,28.5588,20.7102,-17.3078,33.1873,41.7301,-31.1809,-25.3397,7.12502,-4.45781,4.59341,-7.99237,6.57761,-2.41231,17.4205,0.963933,-27.3435,-13.7027,-15.0205,-6.83747,-17.99,-1.47101e-14,1.71702,25.4588,5.62953
3.34514,17.7566,0.603913,13.7785,-46.9207,4.87699,-8.98778,1.18857,-1.12631,-10.4259,1.38475,0.118839,-5.91824,0.66533,0.815025,-5.84607,18.3519,12.6281,13.2884,23.6316,-0.825772,6.55061,12.0299,-0.0538214,3.3197e-14,3.97569e-14,7.04796,-31.815,13.3569,128.141,-58.2037,-4.01294,-45.3608,7.12502,21.7415,-74.1598,3.3197e-14,3.97569e-14,28.8305,20.794,-17.091,33.1405,41.502,-31.4337,-25.8552,7.12502,-4.70196,4.07264,-8.0153,6.56288,-2.52969,17.5228,0.977924,-27.2937,-14.3168,-15.0067,-6.83052,-18.1094,3.97569e-15,1.91754,25.3369,4.98307
3.34179,17.7492,0.581802,13.4094,-46.947,5.25273,-8.95788,1.23119,-1.41546,-10.3747,1.45418,0.034816,-5.88756,0.717113,0.890856,-5.78745,18.2352,12.7559,13.1816,23.5092,-1.1144,6.54995,11.9569,-0.17254,7.74266e-14,-7.95139e-16,6.92986,-31.8803,13.4646,128.199,-58.2154,-5.0297,-46.0821,7.12502,20.7649,-74.9911,7.74266e-14,-7.95139e-16,29.1851,21.0369,-16.6029,32.9947,40.8349,-30.6742,-24.6378,7.12502,-3.9685,5.30494,-8.02179,6.35993,-2.71661,17.6543,3.37655,-26.8846,-19.4637,-14.948,-6.85514,-18.3332,-9.54166e-15,1.87953,25.3478,5.13883
3.33692,17.747,0.563469,13.4954,-46.9322,5.19523,-9.16563,1.21352,-1.37376,-10.3124,1.43376,0.073919,-5.70358,0.704557,0.912648,-5.7347,18.2096,12.8434,13.1321,23.5119,-1.3733,6.56782,11.9448,-0.259702,-1.59028e-14,7.95139e-16,7.06139,-31.9728,13.3751,128.217,-57.9656,-5.74231,-46.5682,7.12502,20.0801,-75.5505,-1.59028e-14,7.95139e-16,29.1705,21.1161,-16.4605,32.9131,40.4593,-30.0485,-23.5491,7.12502,-3.36431,6.40408,-8.11154,6.21082,-2.60501,17.765,3.47733,-26.7614,-20.3847,-15.0092,-6.8426,-18.2351,-1.19271e-14,1.92014,25.362,5.38473
3.33119,17.7484,0.542655,13.7054,-46.9858,4.98378,-9.29272,1.18577,-1.31268,-10.3322,1.3969,0.191539,-5.6552,0.685508,1.00241,-5.84733,18.2816,12.7739,13.5182,23.5932,-1.23037,6.69143,11.9914,-0.169583,1.98785e-16,-1.59028e-15,7.41238,-32.0034,13.081,128.14,-57.9062,-5.51645,-46.1858,7.12502,20.2971,-75.1452,1.98785e-16,-1.59028e-15,28.9577,20.8756,-16.5168,32.9212,40.4251,-30.165,-23.6637,7.12502,-3.47681,6.28771,-8.20936,6.24755,-2.39883,17.792,2.17471,-26.8682,-18.5704,-15.1056,-6.72736,-18.0149,4.41302e-14,2.03412,25.334,5.28971
3.32458,17.746,0.522654,13.7519,-47.1166,4.84486,-9.28911,1.23292,-1.28776,-10.3581,1.45895,0.249662,-5.68828,0.717103,1.05144,-5.80578,18.268,12.61,13.7067,23.572,-1.02312,6.70007,11.9915,-0.0927459,8.3092e-14,3.97569e-14,7.63009,-31.9649,12.8678,128.102,-57.8501,-4.14222,-45.2422,7.12502,21.6174,-74.0555,8.3092e-14,3.97569e-14,28.9972,20.7682,-16.3425,32.8954,40.2419,-29.9095,-23.9095,7.12502,-3.23006,6.04573,-8.24822,6.16046,-2.24102,17.8027,2.84091,-26.5558,-20.0488,-15.0674,-6.54853,-17.8653,6.75868e-15,1.96294,25.3182,5.30933
3.32126,17.7415,0.499542,13.6593,-47.1554,4.87854,-9.31806,1.29977,-1.24622,-10.2889,1.54641,0.164482,-5.59521,0.755201,0.944056,-5.65183,18.1583,12.336,13.4392,23.4364,-0.851694,6.52611,11.9286,-0.0679434,3.27001e-14,-7.15625e-15,7.56105,-31.9763,12.8274,128.096,-57.3654,-2.67732,-44.7646,7.12502,23.0236,-73.4094,3.27001e-14,-7.15625e-15,29.1489,20.8039,-16.2778,32.8601,40.0996,-30.1341,-24.7222,7.12502,-3.44696,5.22971,-8.26435,6.05358,-2.20415,17.9052,1.87048,-26.5157,-18.4294,-15.0384,-6.49361,-17.8251,8.74653e-15,1.78145,25.4067,6.01779
3.32124,17.7368,0.474016,13.4057,-47.1088,5.16292,-9.31478,1.36059,-1.36999,-10.2226,1.63275,0.0263748,-5.52701,0.802005,0.873097,-5.48714,18.0127,11.9906,13.0349,23.2581,-0.681118,6.29637,11.8409,-0.0502444,8.24956e-15,3.73715e-14,7.28036,-32.0902,13.0336,128.095,-57.2889,-4.6289,-45.6106,7.12502,21.1499,-74.4769,8.24956e-15,3.73715e-14,29.3329,20.7329,-16.2813,32.8527,40.1657,-30.5696,-25.0346,7.12502,-3.86753,4.91006,-8.26453,6.04307,-2.34257,18.0294,0.406749,-26.5908,-16.1871,-15.0767,-6.57083,-17.9541,-8.34896e-15,1.82456,25.4804,6.27286
3.3214,17.7334,0.448781,13.2328,-47.0511,5.33806,-9.25956,1.38126,-1.50994,-10.2062,1.66738,-0.00331156,-5.54486,0.828111,0.920471,-5.35004,17.886,11.8884,12.8815,23.1188,-0.737926,6.21193,11.7676,-0.094835,-7.7526e-15,3.18055e-15,7.17429,-32.1768,13.1202,128.089,-57.7599,-2.02208,-44.3221,7.12502,23.6522,-72.8871,-7.7526e-15,3.18055e-15,29.4686,20.6513,-16.1333,32.8352,40.1765,-30.3183,-24.3762,7.12502,-3.62479,5.57272,-8.26747,5.96407,-2.37085,18.0848,2.21621,-26.317,-20.2443,-15.1102,-6.64003,-18.0062,1.82882e-14,2.13925,25.4257,5.37395
3.31896,17.7314,0.425122,13.2492,-47.0056,5.24576,-9.2329,1.30339,-1.51404,-10.1985,1.56753,0.108433,-5.55197,0.782722,1.03491,-5.27385,17.8012,12.1993,13.0803,23.0556,-1.18705,6.35116,11.7229,-0.25131,9.78021e-14,3.57812e-14,7.58941,-32.2114,12.7249,127.956,-57.6268,-5.42199,-46.0233,7.12502,20.3879,-74.973,9.78021e-14,3.57812e-14,29.2921,20.5509,-16.0434,32.8149,39.9739,-30.0133,-24.2629,7.12502,-3.3303,5.69085,-8.2609,5.86466,-2.21019,18.1473,2.73613,-26.1051,-21.4575,-15.1027,-6.64767,-17.8642,4.96962e-14,2.2859,25.3873,5.08566
3.31524,17.7282,0.404538,13.3688,-46.969,4.93644,-9.11612,1.21896,-1.375,-10.2209,1.45271,0.295772,-5.63849,0.72382,1.14575,-5.36322,17.8058,12.4033,13.5577,23.077,-1.38903,6.57063,11.7294,-0.288172,-2.73329e-14,-2.62396e-14,8.15125,-32.1259,12.2744,127.883,-56.8234,-4.96794,-46.2149,7.12502,20.8242,-75.1173,-2.73329e-14,-2.62396e-14,28.7257,19.8946,-16.5248,32.9683,40.4194,-29.9229,-24.3937,7.12502,-3.243,5.56135,-8.10411,6.09258,-1.91825,18.1286,-1.76241,-26.5346,-13.1188,-15.0204,-6.60468,-17.5577,-5.96354e-15,2.21387,25.3557,5.55755
3.31244,17.7302,0.382352,13.5102,-46.9284,4.6037,-8.98112,1.20371,-1.17559,-10.1866,1.4267,0.366418,-5.67077,0.701469,1.10477,-5.8399,17.9532,12.3761,14.1308,23.1737,-1.00482,6.79111,11.7948,-0.0877505,4.24405e-14,1.19271e-14,8.33164,-32.0636,11.9948,127.938,-56.4027,-5.18891,-46.4803,7.12502,20.6119,-75.4059,4.24405e-14,1.19271e-14,28.3879,19.3896,-17.0453,33.1264,41.0581,-29.9964,-24.4494,7.12502,-3.31393,5.50457,-8.08803,5.99199,-1.45905,18.0353,2.25012,-26.5975,-21.1197,-14.9694,-6.56174,-17.2308,1.19271e-15,2.22551,25.3217,5.71576
3.30944,17.7288,0.355066,13.574,-46.8917,4.47023,-8.95024,1.23897,-1.08806,-10.0979,1.47105,0.286541,-5.58721,0.715796,0.974237,-5.99698,18.002,12.4624,14.0629,23.1855,-0.888642,6.7909,11.8081,-0.0509948,-6.74874e-14,-1.03368e-14,8.15368,-32.1837,11.8502,127.926,-56.8034,-5.00962,-45.8596,7.12502,20.7842,-74.7665,-6.74874e-14,-1.03368e-14,28.6006,19.5582,-16.9117,33.1084,41.0706,-30.1797,-24.5237,7.12502,-3.49096,5.42749,-8.03336,6.14453,-1.23514,17.9443,3.65508,-26.5498,-23.332,-15.0048,-6.5525,-17.0547,-3.97569e-16,2.41005,25.3062,5.36168
3.30559,17.7261,0.329071,13.5652,-46.8492,4.48264,-9.02947,1.25673,-1.05801,-10.0381,1.49374,0.217584,-5.47574,0.722631,0.88857,-5.88331,17.9449,12.4808,13.9538,23.1246,-0.940783,6.74173,11.7774,-0.0923533,5.26779e-15,-5.56597e-15,8.03757,-32.4122,11.7998,127.844,-57.6921,-4.14131,-44.8038,7.12502,21.6183,-73.617,5.26779e-15,-5.56597e-15,28.7727,19.6213,-16.709,33.0976,41.0177,-30.5516,-25.0316,7.12502,-3.85016,4.91332,-8.03615,6.09387,-1.14331,17.9859,3.50325,-26.4344,-23.8833,-15.0637,-6.57217,-16.9766,-1.19271e-15,2.69191,25.1996,4.45834
3.30156,17.7257,0.309113,13.514,-46.8458,4.54693,-9.23383,1.26404,-0.947244,-9.9595,1.49863,0.1461,-5.27175,0.71461,0.757499,-6.12202,17.9509,12.4236,14.3486,23.0862,-0.744998,6.87725,11.7683,0.0089451,6.76862e-14,4.53229e-14,8.14002,-32.6593,11.6537,127.748,-58.3918,-3.97846,-44.6104,7.12502,21.7746,-73.4056,6.76862e-14,4.53229e-14,28.6417,19.2717,-17.0069,33.1515,41.0363,-31.0135,-25.3817,7.12502,-4.29621,4.55468,-8.09633,5.82375,-1.09629,18.0813,2.2886,-26.4352,-22.6106,-15.0997,-6.56506,-16.9524,1.15295e-14,2.79136,25.1822,4.10677
3.29898,17.7247,0.289446,13.3768,-46.8821,4.69694,-9.34173,1.21974,-0.918222,-9.94641,1.43745,0.135341,-5.1954,0.680802,0.729788,-5.98179,17.965,12.4643,14.4794,23.1291,-0.777266,6.90897,11.7919,-0.00437602,1.21259e-14,-1.43125e-14,8.58949,-32.7708,11.2446,127.674,-58.7791,-5.13848,-45.2236,7.12502,20.6604,-74.144,1.21259e-14,-1.43125e-14,28.278,18.6793,-17.4935,33.2105,41.0209,-30.8187,-24.7391,7.12502,-4.10808,5.20106,-8.1958,5.69379,-1.1133,18.213,1.96873,-26.7181,-22.1981,-15.1172,-6.5382,-17.0089,-5.04913e-14,2.66656,25.3147,4.98092
3.29697,17.7196,0.267606,13.1327,-46.8926,4.97932,-9.29527,1.03235,-1.12833,-10.0395,1.19824,0.289757,-5.32653,0.578702,0.996117,-5.17088,17.9818,12.2738,14.1432,23.3065,-0.980427,6.68024,11.8692,-0.118973,-1.29011e-13,-2.38542e-14,9.45933,-32.685,10.5906,127.696,-58.9421,-5.64088,-45.431,7.12502,20.1775,-74.4031,-1.29011e-13,-2.38542e-14,27.7058,18.1908,-17.711,33.2577,41.1391,-30.0559,-24.2403,7.12502,-3.37147,5.71283,-8.245,5.6375,-1.23143,18.3389,1.85961,-26.9481,-22.3425,-15.1299,-6.55866,-17.1525,7.15625e-15,2.45641,25.4204,6.04708
3.29475,17.7168,0.245707,12.9379,-46.9152,5.16724,-9.23275,1.02735,-1.34784,-10.0363,1.2034,0.309263,-5.36454,0.596559,1.13834,-5.05439,17.9397,12.0497,14.0979,23.269,-0.87146,6.60453,11.8517,-0.0861612,-4.37326e-15,-1.59028e-14,9.51124,-32.5916,10.5523,127.813,-58.7665,-4.71915,-44.7167,7.12502,21.0632,-73.5927,-4.37326e-15,-1.59028e-14,27.7161,18.055,-17.5365,33.3001,41.4972,-29.9082,-24.4807,7.12502,-3.2288,5.47463,-8.17431,5.68189,-1.33173,18.3673,-0.629359,-27.0566,-18.8107,-15.0991,-6.55147,-17.236,-1.98785e-15,2.32065,25.4575,6.18005
3.29196,17.7179,0.220512,13.148,-46.9679,4.83273,-9.2577,1.19504,-1.18754,-9.96864,1.4224,0.302695,-5.27891,0.696767,1.05222,-5.48227,17.8968,12.0572,14.4376,23.1409,-0.727751,6.76083,11.794,-0.00123006,-1.60022e-14,-3.97569e-15,9.16855,-32.5239,10.7794,127.871,-58.6077,-3.99997,-44.026,7.12502,21.754,-72.8236,-1.60022e-14,-3.97569e-15,27.9523,17.8828,-17.4216,33.3695,41.8456,-30.1193,-24.7424,7.12502,-3.43264,5.2097,-8.21546,5.66054,-0.965848,18.2734,0.848104,-27.0635,-21.4796,-15.4177,-6.41957,-16.9075,0.580851,2.27884,25.3702,5.21844
3.28698,17.7201,0.196004,13.6337,-46.9655,4.13485,-9.32026,1.16689,-0.724195,-9.98473,1.36804,0.571931,-5.25408,0.649499,1.07299,-5.05321,17.9151,12.0243,14.2363,23.2724,-1.0426,6.66761,11.8415,-0.122584,-6.08281e-14,-1.19271e-14,9.8186,-32.3859,10.2999,127.775,-58.5826,-2.97143,-43.8657,7.12502,22.7414,-72.5454,-6.08281e-14,-1.19271e-14,27.6716,17.7578,-17.2806,33.3358,41.2801,-29.7614,-24.1175,7.12502,-3.08704,5.83993,-8.19502,5.89283,-0.352549,18.1462,-0.216176,-27.3229,-19.6694,-16.2642,-6.2772,-16.2726,2.1196,1.65692,25.3475,5.00677
3.28269,17.7169,0.177284,13.6626,-46.947,3.96829,-9.35574,1.08342,-0.517623,-9.96072,1.25,0.708605,-5.20347,0.581852,1.09568,-4.01941,18.0457,12.2017,13.7886,23.6276,-1.52424,6.45711,12.0063,-0.355917,6.85807e-15,1.03368e-14,10.3761,-32.3415,9.89262,127.729,-58.6065,-1.21418,-43.7463,7.12502,24.4269,-72.209,6.85807e-15,1.03368e-14,27.4608,17.7896,-17.0611,33.2399,40.5153,-29.2839,-23.4195,7.12502,-2.6259,6.54405,-8.02774,5.89584,-0.179281,18.0312,-2.30614,-27.2896,-15.8686,-16.6232,-6.25836,-16.088,2.94279,0.941541,25.4557,6.09691
3.28117,17.7089,0.156098,13.1533,-46.9384,4.51278,-9.35322,1.04604,-0.790245,-9.86682,1.21401,0.571856,-5.10578,0.576545,1.10424,-3.92707,18.1015,12.0138,13.677,23.7029,-1.36435,6.36836,12.0465,-0.301065,-3.53837e-14,-1.59028e-15,10.4113,-32.548,9.7941,127.758,-58.7301,-1.4616,-44.2589,7.12502,24.1897,-72.7534,-3.53837e-14,-1.59028e-15,27.4093,17.6247,-17.1948,33.2905,40.6101,-29.4981,-23.3995,7.12502,-2.83274,6.56147,-7.82715,5.61885,-0.533923,17.9077,-3.69775,-26.9828,-13.3577,-16.939,-6.36003,-16.4293,3.66612,0.456168,25.5457,6.60616
3.27916,17.7037,0.132901,12.8732,-46.9252,4.77116,-9.33069,1.02831,-0.922217,-9.81889,1.19753,0.510843,-5.06782,0.574669,1.11354,-4.31707,18.0539,11.4465,13.7114,23.5553,-0.798068,6.29561,11.982,-0.0700352,7.62339e-14,2.14687e-14,10.6381,-32.7766,9.49671,127.653,-58.6252,-3.27654,-45.2227,7.12502,22.4485,-73.938,7.62339e-14,2.14687e-14,27.2993,17.3074,-17.392,33.4397,40.9408,-30.4146,-23.8517,7.12502,-3.71783,6.09557,-7.73874,5.34461,-0.633397,17.8728,-3.39912,-26.6518,-14.4142,-17.1421,-6.40073,-16.5378,4.12937,0.24843,25.5557,6.711
3.27636,17.7009,0.113755,13.0153,-46.9735,4.46164,-9.34388,1.04712,-0.647663,-9.81048,1.21014,0.589345,-5.04651,0.566725,1.04274,-3.91392,18.0005,11.328,13.4023,23.5332,-0.807541,6.11695,11.972,-0.121932,-3.16068e-14,3.97569e-15,10.9789,-32.7473,9.14744,127.581,-58.3239,-3.6116,-45.2269,7.12502,22.1269,-73.9807,-3.16068e-14,3.97569e-15,27.0771,16.8077,-17.611,33.5874,41.3209,-31.1805,-24.6456,7.12502,-4.45744,5.28747,-7.75664,5.29627,-0.298682,17.9369,-2.27535,-26.6577,-16.8894,-17.2224,-6.27736,-16.2422,4.39412,0.0766575,25.543,6.75005
3.27475,17.6965,0.0878144,13.0906,-47.0325,4.3061,-9.28892,1.137,-0.621765,-9.7834,1.32947,0.564587,-5.04908,0.624925,1.00715,-3.98608,17.7973,11.6451,13.4026,23.2705,-1.15017,6.19303,11.8346,-0.268147,7.25564e-15,-1.11319e-14,10.7694,-32.6399,9.26147,127.636,-58.2251,-3.73535,-44.9921,7.12502,22.0081,-73.76,7.25564e-15,-1.11319e-14,27.2165,16.5436,-17.6352,33.6541,41.6855,-30.8737,-24.6169,7.12502,-4.16119,5.32218,-7.80807,5.36749,-0.068175,17.9674,-1.93266,-27.0034,-17.774,-17.5094,-6.16114,-16.0283,4.87042,0.0731053,25.4852,6.03826
3.27204,17.6898,0.0612401,12.8906,-47.0812,4.50446,-9.16057,1.22162,-0.925275,-9.77703,1.45724,0.487193,-5.12317,0.706181,1.09934,-4.15928,17.5685,12.1711,13.5381,22.97,-1.65136,6.3686,11.6761,-0.467713,-1.56046e-13,-5.32743e-14,10.5163,-32.5419,9.42895,127.685,-58.3504,-4.29694,-45.2654,7.12502,21.4688,-74.0957,-1.56046e-13,-5.32743e-14,27.4517,16.3209,-17.6054,33.7192,42.0564,-30.1557,-23.7688,7.12502,-3.46777,6.1827,-7.78163,5.28785,-0.120967,17.9599,-2.08318,-26.9655,-18.9817,-17.8662,-6.12087,-16.0756,5.52109,-0.0184072,25.4292,5.60761
3.26722,17.6823,0.0425435,12.682,-47.168,4.6326,-9.02133,1.14733,-1.08955,-9.85324,1.36644,0.599802,-5.28843,0.675087,1.30149,-3.79075,17.6442,12.2515,13.7309,23.1304,-1.71682,6.39958,11.7614,-0.499055,2.29596e-14,-1.98785e-14,11.0826,-32.3371,8.98107,127.817,-58.5919,-4.63932,-45.6442,7.12502,21.1399,-74.5117,2.29596e-14,-1.98785e-14,27.0349,15.6037,-17.9634,33.8087,42.4008,-29.8133,-23.4252,7.12502,-3.13713,6.53143,-7.70763,5.15027,-0.139436,17.9932,-1.68014,-26.57,-22.4366,-18.0148,-6.04781,-16.1327,6.02576,-0.251924,25.4337,5.62549
3.26192,17.6781,0.0163751,12.7872,-47.2352,4.41428,-8.90634,1.10027,-1.00902,-9.93123,1.30075,0.737858,-5.43614,0.642252,1.39542,-3.76515,17.8347,12.0127,14.25,23.3583,-1.24614,6.49333,11.8951,-0.292204,1.799e-14,-2.94201e-14,11.5962,-32.1658,8.49573,127.908,-58.6325,-5.02094,-45.8338,7.12502,20.7733,-74.7419,1.799e-14,-2.94201e-14,26.8457,15.272,-17.9616,33.7088,42.0263,-29.2325,-23.277,7.12502,-2.57622,6.68721,-7.73075,5.24612,0.130365,18.0294,-2.18958,-26.6675,-22.466,-18.1773,-5.92154,-15.9064,6.38819,-0.517627,25.4542,5.68087
3.25518,17.6747,-0.0127876,12.9556,-47.2324,4.23247,-9.01958,1.12769,-0.876526,-9.8919,1.33104,0.70801,-5.32696,0.647408,1.29364,-4.33956,17.8929,11.6635,14.7634,23.3104,-0.603576,6.63066,11.8915,-0.00143936,5.17834e-14,4.13472e-14,11.6888,-32.1965,8.1932,127.785,-58.3778,-5.08817,-45.5836,7.12502,20.7087,-74.4987,5.17834e-14,4.13472e-14,27.0518,15.4517,-17.7636,33.5836,41.5405,-28.54,-22.9492,7.12502,-1.90743,7.02203,-7.80463,5.28985,0.375838,18.0358,-3.72201,-27.1612,-18.2424,-18.4236,-5.85939,-15.6729,6.68864,-0.546225,25.4638,5.39553
3.24994,17.6666,-0.0351591,12.7505,-47.2238,4.5192,-9.22622,1.11952,-0.977043,-9.7602,1.32465,0.550738,-5.06829,0.644115,1.19014,-5.0412,17.9305,11.377,15.2888,23.2181,-0.000320152,6.80355,11.8661,0.281752,-1.09332e-15,-1.74931e-14,11.7089,-32.3755,7.94401,127.68,-58.1537,-5.21748,-45.2681,7.12502,20.5844,-74.1967,-1.09332e-15,-1.74931e-14,27.1333,15.5951,-17.8028,33.6077,41.4604,-28.4521,-23.2158,7.12502,-1.82256,6.75614,-7.79713,5.08,0.235542,18.0276,-5.69095,-27.0469,-14.8077,-18.606,-5.8974,-15.8145,6.96557,-0.33734,25.4092,4.62028
3.24765,17.6578,-0.0616761,12.4441,-47.2039,4.82666,-9.21764,1.12388,-1.1644,-9.66139,1.34089,0.429905,-4.9688,0.660017,1.17021,-5.21411,17.8326,11.4666,15.3614,23.0712,-0.101161,6.87088,11.7894,0.24917,3.81667e-14,-1.11319e-14,11.6615,-32.5377,7.94095,127.713,-58.177,-5.35641,-45.1796,7.12502,20.4509,-74.1226,3.81667e-14,-1.11319e-14,27.2733,15.6007,-17.7168,33.58,41.2661,-28.753,-23.68,7.12502,-2.11314,6.28931,-7.73238,5.03089,0.0999885,18.0633,-7.5454,-26.5377,-13.3897,-18.6972,-5.94856,-15.9597,7.17712,-0.515203,25.3384,4.93922
3.24423,17.6531,-0.0955166,12.5235,-47.1073,4.67009,-9.19652,1.19189,-1.09497,-9.56189,1.43028,0.341163,-4.87093,0.698646,1.04342,-5.16228,17.6087,11.9635,14.949,22.8209,-0.792369,6.85533,11.6406,-0.0508949,1.73937e-14,-2.38542e-15,11.371,-32.8193,8.12271,127.727,-58.4684,-5.5316,-45.5142,7.12502,20.2826,-74.4752,1.73937e-14,-2.38542e-15,27.6862,15.8017,-17.4668,33.4752,41.1721,-28.6154,-23.3856,7.12502,-1.9803,6.58493,-7.77741,5.06336,0.378732,18.1982,-7.71812,-26.6017,-14.8325,-18.8095,-5.98047,-15.7151,7.27124,-0.746305,25.3242,5.70976
3.24147,17.648,-0.131411,12.5356,-47.042,4.69409,-9.23217,1.21808,-1.18462,-9.47035,1.47191,0.255826,-4.754,0.722407,1.0082,-5.40877,17.5282,12.2701,14.9426,22.6979,-1.10851,6.95989,11.5674,-0.161576,-5.57591e-14,-2.62396e-14,11.2596,-33.0782,8.04785,127.65,-58.6593,-6.08566,-46.0165,7.12502,19.75,-75.0331,-5.57591e-14,-2.62396e-14,28.139,16.4721,-16.8965,33.3274,40.6807,-27.9123,-22.7026,7.12502,-1.30118,7.27315,-7.94393,4.79768,0.52716,18.3526,-6.43488,-26.9303,-17.9823,-19.035,-6.00653,-15.5979,7.44809,-0.635831,25.3349,5.49883
3.23971,17.6392,-0.163127,12.1927,-47.1086,5.10963,-9.14793,1.04745,-1.58663,-9.53079,1.26542,0.380707,-4.87499,0.646827,1.35131,-5.28024,17.6561,12.0028,15.2957,22.9062,-0.949602,7.01711,11.6709,-0.056905,3.15074e-14,3.97569e-15,12.1185,-32.9492,7.35253,127.599,-58.6023,-6.23596,-45.9685,7.12502,19.6055,-75,3.15074e-14,3.97569e-15,27.8179,16.507,-16.6119,33.2663,39.9586,-27.6973,-22.4972,7.12502,-1.09354,7.47976,-8.03754,4.50794,0.34185,18.424,-5.1463,-27.1221,-20.7317,-19.2757,-5.97697,-15.8047,7.83616,-0.617988,25.3288,5.32888
3.23565,17.6295,-0.189333,12.081,-47.1724,5.15069,-9.20115,1.01811,-1.48608,-9.52525,1.22134,0.398005,-4.83553,0.618546,1.3121,-4.83916,17.6622,11.8296,15.181,22.9866,-0.960079,6.89293,11.7094,-0.0822594,3.29983e-14,2.06736e-14,12.5079,-32.8805,6.98066,127.674,-58.7194,-5.98771,-45.9119,7.12502,19.8442,-74.9189,3.29983e-14,2.06736e-14,27.6397,16.2346,-16.5804,33.2926,39.7069,-28.0185,-22.8545,7.12502,-1.40383,7.1206,-8.01735,4.57488,0.427257,18.4347,-5.21635,-27.2095,-21.133,-19.4469,-5.89064,-15.7465,8.23154,-0.877513,25.3457,5.84585
3.22888,17.6229,-0.213078,12.2877,-47.2093,4.80799,-9.24677,1.08344,-1.25232,-9.55639,1.29749,0.493428,-4.84236,0.645909,1.28492,-4.03598,17.5302,11.7624,14.5092,22.9458,-1.30014,6.57323,11.6771,-0.290858,-1.42131e-14,6.36111e-15,12.6188,-32.799,6.94077,127.785,-58.9799,-6.305,-46.3225,7.12502,19.5391,-75.3607,-1.42131e-14,6.36111e-15,27.7776,16.1493,-16.1209,33.2422,39.2613,-28.262,-23.2721,7.12502,-1.63891,6.70138,-8.00117,4.64239,0.784607,18.4024,-5.5979,-27.1621,-20.944,-19.6056,-5.78609,-15.4276,8.59466,-1.29563,25.3849,6.62392
3.22062,17.6179,-0.231781,12.287,-47.3618,4.74165,-9.30819,1.1376,-1.27248,-9.53815,1.37323,0.573171,-4.79439,0.687483,1.3842,-3.70463,17.4415,11.5353,14.2094,22.8844,-1.35557,6.39836,11.6398,-0.339638,1.13407e-13,3.49861e-14,12.8286,-32.6912,6.75201,127.844,-59.0807,-6.74054,-46.5352,7.12502,19.1203,-75.6153,1.13407e-13,3.49861e-14,27.7399,15.9904,-15.9077,33.2562,39.1747,-28.5173,-23.5316,7.12502,-1.88553,6.43982,-7.96356,4.51831,0.872205,18.2967,-5.42377,-27.1466,-22.0008,-19.736,-5.61901,-15.3878,9.01951,-1.67045,25.3552,7.04201
3.2147,17.6106,-0.252128,11.9981,-47.5641,4.97243,-9.26659,1.34596,-1.41935,-9.41425,1.6582,0.360073,-4.69193,0.832717,1.25822,-4.27674,17.2898,11.5311,14.5482,22.5816,-1.12562,6.55537,11.4991,-0.237187,-1.63997e-14,5.56597e-15,12.2766,-32.6775,7.00916,127.89,-59.0202,-7.08135,-46.5331,7.12502,18.7926,-75.6453,-1.63997e-14,5.56597e-15,28.0781,15.8636,-15.9962,33.4033,39.803,-28.6441,-23.6927,7.12502,-2.00802,6.27764,-7.86209,4.61141,0.718085,18.2102,-6.73571,-27.1188,-20.1039,-19.7551,-5.45195,-15.5636,9.32426,-1.6182,25.3384,6.2525
3.21052,17.6024,-0.281422,11.8151,-47.6561,5.05339,-9.16099,1.6074,-1.39949,-9.34979,2.00257,0.133113,-4.68272,0.998136,1.02526,-4.3533,17.0624,11.5653,14.4469,22.2563,-1.14143,6.52149,11.341,-0.281402,-9.83984e-15,-1.51076e-14,11.6052,-32.6625,7.52325,127.862,-58.9002,-7.06773,-46.2031,7.12502,18.8057,-75.314,-9.83984e-15,-1.51076e-14,28.7031,15.8436,-15.7509,33.4455,40.0865,-28.6255,-23.9963,7.12502,-1.99006,5.97415,-7.77217,4.99664,0.723531,18.1976,-9.56523,-26.8824,-14.9337,-19.7836,-5.3413,-15.5356,9.48934,-1.37712,25.3469,5.34279
3.20515,17.5964,-0.31386,11.762,-47.6659,5.12495,-9.12305,1.36198,-1.49238,-9.38539,1.68017,0.232655,-4.73895,0.844459,1.16433,-3.81398,17.247,11.8118,14.1668,22.5972,-1.48612,6.43243,11.5017,-0.428649,-5.36719e-15,-3.81667e-14,12.6631,-32.7002,6.4764,127.748,-58.7398,-6.27991,-45.4292,7.12502,19.5633,-74.4649,-5.36719e-15,-3.81667e-14,27.9559,15.3369,-16.3957,33.5422,40.3092,-28.2664,-24.0939,7.12502,-1.64323,5.87951,-7.80611,5.13637,0.768512,18.1983,-10.8702,-26.7973,-12.8885,-19.9748,-5.28422,-15.4298,9.68024,-1.6989,25.3224,6.24616
3.19934,17.5914,-0.343276,11.7411,-47.712,5.1372,-9.04725,1.1761,-1.54703,-9.52083,1.4328,0.40627,-4.9256,0.729238,1.3615,-3.63129,17.3966,11.8073,14.6656,22.8357,-1.44516,6.57458,11.625,-0.378768,-3.71727e-14,5.56597e-15,13.5526,-32.5143,5.73543,127.798,-58.7803,-5.73425,-44.8801,7.12502,20.0878,-73.8616,-3.71727e-14,5.56597e-15,27.3211,14.7087,-16.7928,33.6428,40.3811,-27.7718,-23.8469,7.12502,-1.1655,6.12964,-7.83403,5.01508,0.854959,18.1826,-10.9511,-26.7741,-13.2538,-20.0883,-5.19172,-15.3131,9.83204,-2.05725,25.2679,6.98511
3.1923,17.5855,-0.370269,11.7399,-47.8156,4.97525,-8.93267,1.27391,-1.46157,-9.49764,1.55869,0.383774,-4.96485,0.787502,1.29348,-4.20263,17.3044,11.8705,15.4901,22.6356,-1.28474,6.91329,11.5338,-0.264092,1.38155e-14,-3.97569e-15,13.4545,-32.4709,5.72363,127.811,-58.9685,-5.66829,-44.6955,7.12502,20.1512,-73.6703,1.38155e-14,-3.97569e-15,27.5329,14.5803,-16.6688,33.6347,40.3407,-27.9642,-23.6809,7.12502,-1.35136,6.29458,-7.78659,4.93475,1.07027,18.1779,-10.8013,-26.9308,-13.7123,-19.9946,-5.04322,-15.1434,9.88385,-2.02138,25.2409,6.59513
3.18439,17.579,-0.395351,11.6228,-47.9034,5.04244,-8.93308,1.3579,-1.54903,-9.4252,1.67658,0.329122,-4.89203,0.850236,1.29122,-4.34688,17.17,11.8363,15.5932,22.4463,-1.32031,6.95916,11.4362,-0.274457,-4.50247e-14,1.43125e-14,13.4359,-32.474,5.62029,127.691,-59.039,-5.66474,-44.9224,7.12502,20.1546,-73.897,-4.50247e-14,1.43125e-14,27.7487,14.5543,-16.4511,33.5851,40.2924,-28.3515,-23.6748,7.12502,-1.72535,6.29796,-7.80616,4.65126,1.11397,18.1862,-9.7323,-27.219,-15.9132,-19.9419,-4.95464,-15.1636,9.91961,-2.26645,25.2495,7.21155
3.17791,17.5727,-0.419815,11.4892,-47.9969,5.25134,-9.06932,1.3332,-1.66649,-9.3353,1.65254,0.28612,-4.72192,0.842359,1.31537,-4.36336,17.2116,11.6902,15.5191,22.4967,-1.22937,6.91277,11.4592,-0.230502,-6.7885e-14,-1.51076e-14,13.7047,-32.6001,5.2416,127.72,-59.166,-5.32886,-45.2435,7.12502,20.4774,-74.1836,-6.7885e-14,-1.51076e-14,27.5313,14.4247,-16.6065,33.6,40.182,-28.4139,-23.7857,7.12502,-1.78563,6.1866,-7.91828,4.3317,1.03603,18.2398,-9.00764,-27.1582,-17.901,-19.9368,-4.88278,-15.2997,9.87854,-2.41393,25.3098,7.89858
3.17124,17.5669,-0.447748,11.3678,-48.0963,5.41326,-9.22996,1.36471,-1.66764,-9.19068,1.69786,0.145225,-4.4747,0.859039,1.17727,-4.56153,17.2119,11.5918,15.4951,22.4581,-1.09828,6.908,11.4409,-0.17094,3.34952e-14,3.65764e-14,13.7329,-32.7893,5.00025,127.823,-59.3617,-4.84195,-45.3932,7.12502,20.9453,-74.2823,3.34952e-14,3.65764e-14,27.4436,14.2726,-16.8699,33.639,40.3266,-28.7028,-24.2922,7.12502,-2.06464,5.67759,-8.02239,4.227,0.998609,18.3736,-9.72854,-26.988,-17.3716,-19.8696,-4.78982,-15.3789,9.73182,-2.36016,25.34,8.20436
3.16305,17.5579,-0.474621,10.9595,-48.1896,5.81503,-9.23461,1.37937,-1.84963,-9.13029,1.72643,0.0182865,-4.41077,0.879092,1.1493,-4.29101,17.1263,11.5079,15.234,22.3846,-1.17299,6.77282,11.4009,-0.232268,2.13694e-14,-1.51076e-14,13.8429,-32.6129,4.78685,127.771,-58.9951,-4.5472,-45.379,7.12502,21.2284,-74.2366,2.13694e-14,-1.51076e-14,27.4027,13.9373,-17.0058,33.6724,40.7095,-28.863,-24.8193,7.12502,-2.21944,5.1489,-7.99449,4.15341,0.782101,18.4997,-10.9537,-26.7767,-15.4698,-19.7277,-4.74542,-15.6325,9.6623,-2.49895,25.3259,8.7147
3.15643,17.5502,-0.500721,10.6706,-48.3268,6.01462,-8.98683,1.32168,-2.06691,-9.23924,1.65541,0.127442,-4.67376,0.861272,1.37334,-3.96582,17.1349,11.3168,15.3752,22.4481,-1.10842,6.73986,11.4341,-0.210457,8.15017e-14,2.06736e-14,14.2931,-32.2804,4.53146,127.729,-58.5481,-4.47214,-45.0991,7.12502,21.3005,-73.9485,8.15017e-14,2.06736e-14,27.0387,13.4382,-17.095,33.7718,40.9492,-28.2558,-24.2283,7.12502,-1.63296,5.74524,-7.98514,4.20501,0.725265,18.5777,-11.1314,-26.892,-15.4337,-19.5938,-4.62677,-15.7468,9.67924,-2.28693,25.3136,8.2118
3.15428,17.5491,-0.533541,10.896,-48.3962,5.6321,-8.91749,1.38749,-1.7575,-9.18582,1.72948,0.148911,-4.64634,0.881945,1.22513,-4.12919,17.1717,11.2318,15.5415,22.4567,-0.899625,6.78705,11.4459,-0.117708,-2.25621e-14,-1.19271e-14,14.2515,-32.3042,4.5039,127.817,-58.5928,-5.21088,-44.9698,7.12502,20.5908,-73.8977,-2.25621e-14,-1.19271e-14,27.0333,13.4942,-17.0157,33.7989,40.7698,-27.8409,-23.3654,7.12502,-1.23227,6.61079,-8.09673,4.34992,1.15128,18.6306,-10.4316,-27.3654,-17.184,-19.6413,-4.4544,-15.3448,9.72324,-2.39113,25.2324,8.67863
3.1524,17.5468,-0.569658,11.0582,-48.3916,5.40959,-8.80151,1.36548,-1.63569,-9.19697,1.69326,0.1738,-4.71731,0.858424,1.17839,-3.96142,17.2174,11.3646,15.3486,22.5366,-1.00352,6.72896,11.4857,-0.177465,7.36497e-14,1.11319e-14,14.4344,-32.2569,4.17652,127.866,-58.6949,-5.57631,-44.9061,7.12502,20.2396,-73.8716,7.36497e-14,1.11319e-14,26.8373,13.1302,-17.2529,33.8557,40.8642,-28.0327,-23.2095,7.12502,-1.41751,6.76554,-8.22606,4.2899,1.45942,18.67,-9.65328,-27.6943,-18.6645,-19.812,-4.37336,-15.0391,9.84932,-2.85781,25.1852,9.92477
3.14547,17.5418,-0.599059,11.0535,-48.4559,5.41754,-8.80018,1.39975,-1.66117,-9.18235,1.73947,0.129186,-4.70333,0.881565,1.14836,-4.1755,17.1487,11.4599,15.6377,22.432,-1.08835,6.87356,11.4304,-0.186865,-4.48259e-14,-2.06736e-14,14.5417,-32.3311,3.82849,127.826,-58.7597,-5.07792,-45.0108,7.12502,20.7185,-73.9249,-4.48259e-14,-2.06736e-14,26.7886,12.9031,-17.361,33.9133,41.0476,-28.1934,-23.3465,7.12502,-1.57268,6.62741,-8.35835,4.20704,1.54793,18.7417,-9.07441,-27.837,-19.7694,-19.882,-4.29327,-15.0067,9.97587,-2.63114,25.2487,8.56437
3.1381,17.5358,-0.625236,10.9475,-48.5453,5.45629,-8.84276,1.50038,-1.6757,-9.0802,1.87709,0.0510286,-4.57248,0.94876,1.08378,-4.57285,16.9968,11.4759,16.0964,22.1976,-1.12905,7.08215,11.3086,-0.165655,2.11706e-14,8.74653e-15,14.4699,-32.4495,3.71085,127.803,-58.8503,-5.16446,-45.6133,7.12502,20.6354,-74.5364,2.11706e-14,8.74653e-15,26.9969,12.9565,-17.1692,33.8915,41.0197,-28.4126,-23.341,7.12502,-1.78441,6.6313,-8.40504,4.38882,1.58685,18.8693,-9.95938,-27.8193,-18.8211,-19.817,-4.20779,-15.0284,10.0428,-1.9695,25.2926,4.87342
3.13231,17.527,-0.656556,10.6479,-48.5789,5.68302,-8.822,1.5941,-1.83414,-8.87594,2.01463,-0.132132,-4.36893,1.02105,0.990855,-5.00636,16.8945,11.5894,16.1928,21.9945,-1.12799,7.18634,11.2081,-0.156074,9.0944e-15,5.1684e-15,14.1599,-32.6635,3.76179,127.813,-58.9262,-5.23122,-45.8199,7.12502,20.5712,-74.7499,9.0944e-15,5.1684e-15,27.3687,13.292,-16.9532,33.7986,40.7711,-28.7212,-23.2149,7.12502,-2.08243,6.75464,-8.40294,4.50383,1.52382,19.0169,-10.955,-27.8286,-17.5138,-19.7903,-3.95035,-15.1847,10.1412,-1.61742,25.0229,3.45295
3.12544,17.5184,-0.684927,10.4145,-48.5976,5.89139,-8.82263,1.64646,-1.91759,-8.75523,2.09054,-0.284384,-4.23935,1.05878,0.885095,-5.37551,16.9001,11.4979,16.3922,21.9242,-0.855167,7.26707,11.1833,-0.0322656,-2.53947e-14,-3.57812e-15,13.9695,-32.8156,3.78531,127.826,-59.103,-5.01033,-45.4854,7.12502,20.7835,-74.3924,-2.53947e-14,-3.57812e-15,27.5646,13.5622,-16.8033,33.7752,40.5916,-28.6949,-23.1165,7.12502,-2.05709,6.85335,-8.4601,4.5017,1.47661,19.2013,-11.6468,-27.8315,-16.5084,-19.8251,-3.62373,-15.3262,10.2402,-1.53279,24.6556,3.31353
3.12116,17.5092,-0.711015,10.3004,-48.5848,5.98657,-8.75041,1.5416,-1.88572,-8.87126,1.94484,-0.185816,-4.40119,0.987277,0.958776,-4.78661,16.9139,11.0955,16.3611,22.0373,-0.746292,7.1066,11.237,-0.00306057,-2.67365e-14,-1.43125e-14,14.5082,-32.4831,3.47561,127.799,-59.0271,-4.93306,-45.2662,7.12502,20.8577,-74.165,-2.67365e-14,-1.43125e-14,27.1182,13.0425,-16.9338,33.856,40.8074,-28.5565,-23.1756,7.12502,-1.92336,6.79547,-8.4465,4.69798,1.43898,19.3874,-14.3543,-27.0102,-11.5767,-19.8888,-3.50504,-15.3377,10.3216,-1.41365,24.5058,3.16526
3.11827,17.5022,-0.743219,10.2805,-48.5355,5.98838,-8.65531,1.41527,-1.86232,-8.93783,1.77315,-0.0962488,-4.52167,0.903177,1.02759,-3.97565,16.8556,11.0242,15.8007,22.1024,-1.11671,6.82735,11.2525,-0.199361,3.95581e-14,2.78299e-15,14.9485,-32.1669,3.11029,127.797,-58.7486,-4.66296,-45.0132,7.12502,21.1172,-73.8833,3.95581e-14,2.78299e-15,26.7732,12.7495,-16.9615,33.7918,40.721,-28.5766,-23.7771,7.12502,-1.9428,6.19384,-8.55387,4.5652,1.53934,19.5108,-14.0406,-27.0797,-12.4656,-20.0313,-3.47307,-15.226,10.4395,-1.33483,24.4721,3.00383
3.11103,17.4982,-0.774395,10.3411,-48.5536,5.98677,-8.78541,1.37846,-1.81507,-8.88259,1.72399,-0.14758,-4.38544,0.873044,0.949875,-3.76128,16.9051,11.1164,15.4539,22.1954,-1.25036,6.71053,11.2955,-0.274424,-4.69132e-14,1.03368e-14,15.0132,-32.1612,2.87026,127.869,-58.7965,-4.68366,-44.8418,7.12502,21.0973,-73.7141,-4.69132e-14,1.03368e-14,26.8349,13.1243,-16.6613,33.6019,40.1464,-27.966,-23.9148,7.12502,-1.3531,6.06067,-8.68537,4.49259,1.58489,19.5965,-15.4436,-26.4776,-9.69694,-20.2156,-3.46096,-15.0989,10.5629,-1.24216,24.4707,3.82888
3.10121,17.4942,-0.79717,10.3772,-48.645,6.05599,-8.98435,1.40427,-1.82173,-8.89864,1.75911,-0.17272,-4.2935,0.888585,0.933962,-4.00284,17.06,10.9571,15.8346,22.3321,-0.8038,6.81196,11.3809,-0.073519,3.13086e-14,5.1684e-15,15.151,-32.1416,2.70916,127.86,-58.9403,-5.24802,-45.1766,7.12502,20.5551,-74.1084,3.13086e-14,5.1684e-15,26.9033,13.2595,-16.3342,33.5238,39.7694,-27.6128,-23.7995,7.12502,-1.01199,6.17788,-8.87215,4.38039,1.57533,19.6973,-16.3088,-26.1077,-7.6542,-20.3229,-3.56212,-15.0293,10.607,-1.28232,24.6535,6.91571
3.09344,17.4863,-0.821825,10.2982,-48.6621,6.14443,-8.93257,1.44892,-1.96826,-8.98154,1.82327,-0.125704,-4.42045,0.930953,1.06499,-4.19032,17.0422,10.9286,16.3291,22.2762,-0.63027,6.97827,11.3628,0.0168696,-3.91606e-14,-2.14687e-14,15.1851,-31.988,2.80679,127.836,-58.882,-6.06413,-45.6022,7.12502,19.7707,-74.6167,-3.91606e-14,-2.14687e-14,26.926,12.9047,-16.1614,33.5421,39.72,-28.0339,-24.0386,7.12502,-1.41863,5.93641,-8.94069,4.18594,1.62429,19.7464,-15.6093,-26.454,-9.22848,-20.3568,-3.68585,-14.9722,10.6545,-1.3853,24.8317,4.21766
3.08778,17.4795,-0.852516,10.2078,-48.565,6.14096,-8.7087,1.42934,-2.09011,-9.08373,1.7993,-0.0111125,-4.6619,0.931818,1.24355,-3.98911,16.9169,10.9995,16.5644,22.1682,-0.855324,7.05097,11.3025,-0.0727102,-5.36719e-15,-7.15625e-15,15.2812,-31.7404,2.90251,127.856,-58.8354,-6.73164,-45.7609,7.12502,19.1289,-74.8402,-5.36719e-15,-7.15625e-15,26.8804,12.4785,-16.0565,33.5585,39.7656,-27.6105,-23.7484,7.12502,-1.00972,6.229,-8.90759,4.00279,1.801,19.7976,-14.944,-26.9151,-11.1283,-20.3486,-3.85892,-14.8113,10.6797,-1.34524,24.8703,3.23419
3.08042,17.4771,-0.88183,10.2051,-48.5308,6.0269,-8.57683,1.49482,-2.05491,-9.06776,1.88385,-0.0317384,-4.7187,0.972876,1.20259,-4.05076,16.8092,11.0842,16.6892,22.0353,-0.999858,7.12118,11.2312,-0.125576,-2.15681e-14,-1.35174e-14,15.0737,-31.7512,3.0043,127.91,-59.0825,-6.93465,-45.8499,7.12502,18.9337,-74.9484,-2.15681e-14,-1.35174e-14,27.107,12.4552,-15.894,33.585,40.0453,-26.6024,-23.4798,7.12502,-0.036099,6.49991,-8.93658,3.86352,2.06955,19.8867,-13.9602,-27.4339,-13.5928,-20.3096,-4.02542,-14.566,10.6759,-1.52678,25.0324,3.54695
3.07304,17.4731,-0.911065,10.1727,-48.55,5.98867,-8.58332,1.584,-1.95319,-8.94719,1.9995,-0.183838,-4.57963,1.01996,0.994677,-4.29154,16.7014,11.3254,16.7185,21.8793,-1.24215,7.21733,11.1456,-0.21435,5.26779e-14,3.97569e-16,14.7484,-31.893,3.02406,128.044,-59.4566,-6.64559,-45.8233,7.12502,19.2117,-74.8944,5.26779e-14,3.97569e-16,27.3994,12.7349,-15.7358,33.6115,40.1673,-26.2097,-23.6042,7.12502,0.343248,6.3753,-9.01292,3.76141,2.27119,19.968,-12.7318,-27.9607,-16.126,-20.3073,-4.1419,-14.3799,10.6949,-1.84473,25.2284,5.14856
3.06585,17.4671,-0.940868,10.229,-48.5442,5.92711,-8.70616,1.39582,-1.80616,-8.97471,1.74462,-0.0359591,-4.53214,0.887238,1.05841,-3.7005,16.7248,11.1982,16.5598,22.0359,-1.52615,7.09463,11.2048,-0.326808,-1.39149e-14,9.54166e-15,15.5713,-31.6699,2.35076,128.106,-59.4416,-5.87544,-45.5871,7.12502,19.9521,-74.5828,-1.39149e-14,9.54166e-15,26.6597,12.1719,-16.1789,33.7647,40.4395,-26.7969,-23.8347,7.12502,-0.223921,6.14497,-9.12968,3.73715,2.45676,20.0483,-12.9833,-28.1574,-15.7309,-20.3722,-4.04721,-14.2317,10.6907,-1.8378,25.1451,7.15041
3.05697,17.4621,-0.96946,10.2747,-48.4977,5.86008,-8.69657,1.40952,-1.82759,-8.94491,1.76539,-0.0423542,-4.50677,0.898902,1.06481,-3.97982,16.6505,11.102,16.8003,21.883,-1.32169,7.17601,11.1358,-0.238154,7.07673e-14,2.46493e-14,15.4698,-31.5929,2.38023,128.048,-58.9671,-5.68093,-45.4053,7.12502,20.1391,-74.3815,7.07673e-14,2.46493e-14,26.5827,11.688,-16.5272,33.8766,40.9047,-27.2632,-23.4825,7.12502,-0.674327,6.49621,-9.1986,3.66666,2.63231,20.1481,-13.7352,-28.1512,-14.4583,-20.3523,-3.78483,-14.1676,10.5821,-1.46389,24.931,6.55243
3.04991,17.4559,-0.996804,10.1215,-48.3979,5.95448,-8.58584,1.34932,-1.88615,-8.9431,1.68787,-0.0143053,-4.56648,0.865049,1.12057,-3.98736,16.6591,10.6972,16.9362,21.8726,-0.958102,7.13277,11.1366,-0.0855712,1.36167e-14,1.35174e-14,15.6399,-31.4574,2.3141,127.956,-58.5545,-6.18175,-45.4085,7.12502,19.6576,-74.4346,1.36167e-14,1.35174e-14,26.3897,11.3052,-16.696,33.8958,41.0281,-26.767,-22.4867,7.12502,-0.19502,7.49295,-9.16368,3.50381,2.71234,20.2211,-13.7672,-28.2754,-14.4167,-20.2589,-3.81385,-14.1585,10.4534,-1.1929,24.9309,5.26037
3.041,17.4496,-1.01802,9.87072,-48.3314,6.18961,-8.64985,1.28063,-1.98408,-8.81526,1.60562,-0.0911609,-4.39224,0.825866,1.09518,-4.26858,16.6735,10.7528,17.1519,21.858,-0.930366,7.25306,11.1284,-0.0474261,5.24792e-14,2.38542e-15,15.7689,-31.6119,2.07479,127.922,-58.511,-6.39373,-45.6329,7.12502,19.4538,-74.6797,5.24792e-14,2.38542e-15,26.4192,11.6909,-16.4109,33.7486,40.5552,-26.3941,-22.1265,7.12502,0.165103,7.85317,-9.11157,3.37134,2.66803,20.2806,-13.6981,-28.4312,-14.8393,-20.1526,-4.26513,-14.1264,10.3429,-1.43915,25.2997,6.72438
3.02973,17.444,-1.03633,9.6327,-48.2756,6.44153,-8.79906,1.27209,-2.11251,-8.68854,1.6062,-0.199542,-4.17555,0.828139,1.05968,-4.47494,16.6098,10.9292,17.257,21.7529,-1.04345,7.34958,11.0744,-0.086031,1.36068e-13,2.18663e-14,15.7291,-31.7437,1.90549,127.931,-58.5687,-6.34391,-46.0734,7.12502,19.5017,-75.1154,1.36068e-13,2.18663e-14,26.5893,12.0422,-16.0719,33.6588,40.1155,-26.3464,-21.7914,7.12502,0.2112,8.18828,-9.04115,3.29171,2.56005,20.3443,-14.1557,-28.4747,-14.4136,-20.0134,-4.64617,-14.147,10.1852,-1.62941,25.5918,7.15777
3.02008,17.438,-1.05966,9.55091,-48.1798,6.56161,-8.88476,1.39225,-2.20792,-8.64382,1.7725,-0.329328,-4.08575,0.912194,0.989016,-4.80728,16.4337,10.9737,17.5245,21.4582,-0.942933,7.47044,10.9372,-0.0527689,-3.67752e-15,1.59028e-15,15.236,-31.7454,2.16917,127.967,-58.6885,-5.92888,-46.1265,7.12502,19.9007,-75.1276,-3.67752e-15,1.59028e-15,27.0025,11.9864,-15.8769,33.6509,40.1554,-26.3999,-21.768,7.12502,0.159553,8.21164,-9.02971,3.26873,2.56182,20.3666,-14.6951,-28.5901,-13.5987,-20.0136,-4.68969,-14.1596,10.0911,-1.3835,25.5418,5.89877
3.01071,17.4343,-1.08333,9.49349,-48.153,6.60955,-8.95375,1.48591,-2.24037,-8.5962,1.90097,-0.412753,-3.99974,0.975344,0.929572,-5.26525,16.3185,10.9176,18.0946,21.2299,-0.713537,7.69202,10.8339,0.0634973,5.58088e-14,3.57812e-15,14.9256,-31.7483,2.31153,127.919,-58.7193,-5.62809,-45.7049,7.12502,20.1898,-74.6757,5.58088e-14,3.57812e-15,27.2789,11.7931,-15.7421,33.6058,40.3391,-26.9346,-22.8582,7.12502,-0.356883,7.12122,-9.03258,3.26564,2.62096,20.3749,-15.164,-28.5437,-12.7791,-20.1151,-4.93161,-14.0221,10.173,-1.42371,25.7629,7.86631
3.00225,17.4306,-1.10512,9.49926,-48.1941,6.52109,-9.02002,1.27295,-2.07659,-8.69182,1.60974,-0.154216,-4.05768,0.827756,1.092,-4.54514,16.4632,10.4589,18.1996,21.5666,-0.722984,7.57266,10.981,0.0896153,4.80065e-14,3.89618e-14,16.0827,-31.4023,1.49729,127.809,-58.5735,-5.67935,-45.2995,7.12502,20.1406,-74.2755,4.80065e-14,3.89618e-14,26.316,10.7081,-16.2896,33.7536,40.8321,-27.7884,-23.5645,7.12502,-1.18153,6.41198,-9.02462,3.25679,2.75864,20.4027,-15.9466,-28.213,-11.239,-20.1844,-5.15096,-13.7965,10.3418,-1.52143,26.0267,6.02637
2.99573,17.425,-1.13269,9.68996,-48.1588,6.23204,-8.94317,1.26282,-1.91883,-8.70546,1.58792,-0.081192,-4.11044,0.811538,1.07657,-4.47633,16.4489,10.5372,18.254,21.5848,-0.912718,7.61099,10.9799,0.0250955,-2.99171e-14,4.77083e-15,16.2398,-31.3419,1.30001,127.862,-58.5048,-5.92063,-45.1586,7.12502,19.9087,-74.1589,-2.99171e-14,4.77083e-15,26.1893,10.3982,-16.4357,33.8297,40.9598,-28.2822,-23.3328,7.12502,-1.65846,6.64047,-9.00993,3.31935,3.07184,20.3798,-17.0688,-27.9438,-9.09512,-20.2724,-4.94599,-13.5685,10.5362,-1.24555,25.8289,7.05682
2.98788,17.4204,-1.15758,9.8074,-48.0559,6.01043,-8.95453,1.2946,-1.78474,-8.61258,1.62773,-0.0888481,-4.0013,0.824438,0.997192,-4.63518,16.3938,10.6623,18.2507,21.5051,-1.05327,7.66253,10.9343,-0.0241005,9.54166e-15,1.19271e-14,16.0506,-31.5283,1.33229,127.957,-58.6103,-6.33941,-45.3707,7.12502,19.5061,-74.4122,9.54166e-15,1.19271e-14,26.4491,10.8351,-16.0069,33.7339,40.4166,-28.1993,-23.1373,7.12502,-1.57839,6.83656,-8.9923,3.15119,3.365,20.4405,-17.3178,-28.0598,-8.71326,-20.3462,-4.73159,-13.3878,10.7151,-1.24861,25.5738,5.27287
2.97484,17.4175,-1.16051,9.64429,-48.08,6.16874,-9.38326,1.3494,-1.62633,-8.35003,1.70412,-0.250812,-3.47761,0.847021,0.759139,-5.04733,16.424,10.7849,18.3752,21.5063,-1.1181,7.79531,10.9271,-0.0113197,-1.49138e-13,-1.31198e-14,15.9257,-31.8705,1.25042,127.949,-58.8642,-6.59471,-45.7518,7.12502,19.2606,-74.818,-1.49138e-13,-1.31198e-14,26.5831,11.2273,-15.8105,33.6715,40.0322,-28.2044,-23.6256,7.12502,-1.5833,6.34828,-8.9689,2.73281,3.28388,20.5849,-17.3375,-27.8655,-8.62815,-20.304,-4.62284,-13.5118,10.8313,-1.34049,25.438,6.86008
2.97339,17.411,-1.19736,9.46716,-48.0138,6.31619,-9.25754,1.35244,-1.74404,-8.25864,1.71764,-0.295816,-3.45251,0.859316,0.77733,-5.48096,16.4774,10.9014,18.7288,21.5334,-1.11387,8.00225,10.936,0.0395222,-5.80451e-14,6.36111e-15,15.8728,-31.9516,1.25643,127.928,-58.9101,-6.77379,-45.794,7.12502,19.0884,-74.8773,-5.80451e-14,6.36111e-15,26.6399,11.2761,-15.6693,33.6707,39.9203,-28.3306,-23.8684,7.12502,-1.70516,6.10452,-8.98183,3.12957,3.25469,20.762,-19.6348,-27.0578,-3.74688,-20.4008,-4.27694,-13.607,10.8933,-0.657313,24.985,3.67196
2.96777,17.4059,-1.22843,9.3268,-47.9199,6.3935,-9.05495,1.41881,-1.92955,-8.24377,1.81594,-0.292443,-3.5578,0.919621,0.885022,-5.78835,16.4732,11.0591,19.0181,21.4731,-1.04787,8.15974,10.9148,0.0779733,4.18939e-14,5.1684e-15,15.6777,-31.8678,1.47772,127.911,-58.6179,-6.43214,-45.4844,7.12502,19.4169,-74.5349,4.18939e-14,5.1684e-15,26.9412,11.3408,-15.194,33.6125,39.7496,-28.0756,-23.6117,7.12502,-1.45895,6.36309,-9.09302,2.85288,3.37938,20.9491,-18.2979,-27.8676,-6.42567,-20.3947,-4.18067,-13.6172,10.914,-0.364086,24.8822,4.94497
2.96006,17.3982,-1.25679,9.30163,-47.8596,6.3185,-9.00432,1.26279,-1.81241,-8.4103,1.59728,-0.078329,-3.75861,0.810636,1.02589,-4.67297,16.4081,10.1686,18.8146,21.538,-0.753221,7.76751,10.9422,0.152535,2.18663e-15,-2.06736e-14,16.5273,-31.4143,0.915607,127.863,-58.3643,-5.6544,-45.3361,7.12502,20.1645,-74.3095,2.18663e-15,-2.06736e-14,26.4115,10.7227,-15.177,33.6141,39.68,-26.9886,-22.9448,7.12502,-0.409103,7.03452,-9.1865,2.67734,3.56473,21.1923,-18.5076,-27.8787,-5.98426,-20.3305,-4.37798,-13.412,10.8589,-0.568824,25.1121,3.53126
2.9551,17.3913,-1.28447,9.26141,-47.8632,6.23571,-8.83156,1.5284,-1.80365,-8.22301,1.9509,-0.408121,-3.65322,0.979777,0.696379,-5.89465,16.2482,10.7658,19.4147,21.1088,-0.615365,8.20795,10.7583,0.219968,-5.71009e-14,-3.10104e-14,15.4345,-31.705,1.31748,127.883,-58.3672,-5.38402,-45.2781,7.12502,20.4244,-74.224,-5.71009e-14,-3.10104e-14,27.4178,11.3779,-14.7344,33.4061,39.3011,-26.0026,-22.3521,7.12502,0.543275,7.62695,-9.27212,2.61463,3.73994,21.3655,-18.5703,-27.9619,-6.17306,-20.2538,-4.47272,-13.2225,10.8032,-0.663118,25.2143,5.76649
2.94908,17.3869,-1.30606,9.15649,-47.856,6.28372,-8.81721,1.4632,-1.79388,-8.23129,1.86418,-0.339427,-3.66965,0.937725,0.756998,-5.87363,16.302,10.8131,19.7003,21.2109,-0.706323,8.32309,10.8004,0.214264,-2.10215e-14,-2.10712e-14,15.8498,-31.6102,0.9807,127.849,-58.5563,-5.17979,-45.0959,7.12502,20.6207,-74.0205,-2.10215e-14,-2.10712e-14,27.0185,10.7844,-15.0287,33.4549,39.4773,-26.2514,-22.8515,7.12502,0.302921,7.12804,-9.31306,2.4477,3.79365,21.4891,-18.2409,-28.1371,-7.22466,-20.195,-4.64514,-13.1484,10.7859,-0.6107,25.379,3.80457
2.93985,17.3837,-1.32699,9.17339,-47.8105,6.30102,-9.03601,1.31678,-1.70779,-8.27828,1.66738,-0.188733,-3.59569,0.837276,0.859383,-5.14197,16.3255,10.4772,19.4511,21.3798,-0.8324,8.09785,10.8651,0.153922,-2.48481e-14,-1.90833e-14,16.5717,-31.4634,0.538588,127.85,-58.7541,-5.16265,-45.2053,7.12502,20.6371,-74.1282,-2.48481e-14,-1.90833e-14,26.3597,9.96593,-15.4765,33.5896,39.8442,-26.6662,-23.3843,7.12502,-0.0977313,6.59547,-9.40247,2.27664,3.86049,21.6247,-18.6038,-27.9407,-6.48778,-20.2085,-4.80497,-13.0418,10.7157,-0.690239,25.5459,5.63453
2.93352,17.3798,-1.3533,9.10436,-47.7398,6.31531,-9.02029,1.25666,-1.68781,-8.28193,1.58681,-0.142617,-3.60661,0.797269,0.891149,-4.57236,16.2866,10.1998,19.0357,21.4101,-0.890544,7.83693,10.8719,0.0958712,-3.98563e-14,-2.38542e-15,16.8616,-31.2846,0.323736,127.877,-58.699,-5.67863,-45.5397,7.12502,20.1413,-74.5156,-3.98563e-14,-2.38542e-15,26.1453,9.41549,-15.6412,33.6581,40.1517,-26.6265,-23.2835,7.12502,-0.0593458,6.69619,-9.41834,2.25464,3.9498,21.7658,-19.1465,-27.7133,-5.33278,-20.1456,-4.99938,-12.9098,10.5986,-0.873991,25.7164,4.74919
2.92833,17.3728,-1.37929,8.83868,-47.6806,6.43041,-8.82013,1.26873,-1.80746,-8.23345,1.61015,-0.130084,-3.6703,0.816818,0.968249,-4.54037,16.2494,9.86401,19.086,21.3595,-0.683702,7.78293,10.8454,0.185731,-7.37491e-14,-1.03368e-14,16.9337,-31.1907,0.241962,127.846,-58.5738,-5.9634,-45.5322,7.12502,19.8675,-74.5367,-7.37491e-14,-1.03368e-14,26.0731,8.8215,-15.7933,33.7606,40.7335,-26.6297,-23.2332,7.12502,-0.0624822,6.74651,-9.33268,2.25375,3.97413,21.9129,-19.2098,-27.8721,-5.49249,-19.947,-5.48187,-12.814,10.4822,-0.645529,26.0976,6.15137
2.92025,17.3664,-1.40273,8.68667,-47.6338,6.4712,-8.75481,1.35355,-1.89107,-8.10188,1.73116,-0.231013,-3.56999,0.879309,0.917047,-5.29794,16.1887,9.93201,19.7088,21.1681,-0.442854,8.09192,10.7601,0.328509,-1.13605e-13,-3.1408e-14,16.6051,-31.3287,0.26967,127.877,-58.5728,-6.18705,-45.3702,7.12502,19.6525,-74.3968,-1.13605e-13,-3.1408e-14,26.2971,8.84169,-15.7893,33.8652,41.1481,-26.4154,-22.8435,7.12502,0.144537,7.1362,-9.3143,2.13418,4.05937,22.0537,-19.0179,-28.1534,-6.12892,-19.8029,-5.69856,-12.7391,10.3911,-0.25972,26.2539,3.56919
2.91287,17.3621,-1.42086,8.40281,-47.6293,6.6588,-8.72519,1.44029,-1.9554,-7.9901,1.85196,-0.382134,-3.46861,0.938838,0.803911,-5.85514,16.067,10.1748,20.2178,20.9369,-0.467045,8.37927,10.6491,0.344073,2.67365e-14,-9.14409e-15,16.3427,-31.36,0.268598,127.908,-58.5315,-6.18596,-45.1521,7.12502,19.6536,-74.1786,2.67365e-14,-9.14409e-15,26.4371,8.75489,-15.87,34.0266,41.5279,-26.4246,-22.3901,7.12502,0.135688,7.58959,-9.24024,1.89313,4.00491,22.1651,-19.0094,-28.1451,-6.21299,-19.6419,-5.64384,-12.8669,10.3768,-0.374677,26.2667,5.828
2.9064,17.3585,-1.43952,8.25524,-47.6247,6.64448,-8.76016,1.41734,-1.73133,-7.97159,1.81106,-0.326914,-3.42196,0.908996,0.734997,-5.34984,15.9895,9.85816,20.1167,20.942,-0.591656,8.2353,10.631,0.29066,4.35338e-14,2.26615e-14,16.8189,-31.2398,-0.123758,127.841,-58.6617,-5.38162,-44.938,7.12502,20.4267,-73.8836,4.35338e-14,2.26615e-14,26.0681,8.11017,-16.085,34.1465,41.6581,-27.0706,-22.5202,7.12502,-0.488244,7.45903,-9.13802,1.80258,4.11043,22.2484,-18.9067,-28.2582,-6.6376,-19.5068,-5.72404,-12.7895,10.4243,-0.614787,26.3983,4.83929
2.89766,17.3546,-1.45838,8.44134,-47.5579,6.33852,-8.93398,1.38357,-1.33946,-7.93265,1.74823,-0.260307,-3.27171,0.860156,0.586617,-4.96619,15.9429,9.75858,19.9864,20.9674,-0.816949,8.14034,10.6251,0.196207,-7.25564e-15,1.27222e-14,17.172,-31.2645,-0.549321,127.81,-58.9751,-4.85259,-45.176,7.12502,20.935,-74.0662,-7.25564e-15,1.27222e-14,25.9901,8.1446,-15.8256,34.0057,40.9867,-26.7186,-21.9927,7.12502,-0.14833,7.98702,-9.18342,1.7059,4.44436,22.4209,-18.7451,-28.3897,-7.23494,-19.5232,-5.69942,-12.4863,10.4788,-0.452792,26.2945,6.14532
2.88856,17.3494,-1.47096,8.31858,-47.5496,6.43054,-9.01299,1.44413,-1.36776,-7.78923,1.83483,-0.403271,-3.07458,0.901135,0.463988,-5.57561,15.8533,10.2826,20.3999,20.79,-1.07121,8.46526,10.5356,0.116685,-1.05555e-13,-4.41302e-14,16.8557,-31.4465,-0.587767,127.863,-59.0302,-5.09417,-45.5682,7.12502,20.7029,-74.4839,-1.05555e-13,-4.41302e-14,26.402,8.7702,-15.2996,33.819,40.4254,-25.9902,-21.3916,7.12502,0.555173,8.58747,-9.19532,1.38672,4.41543,22.5936,-19.1437,-27.9953,-6.53214,-19.5082,-5.72788,-12.5027,10.5874,-0.37678,26.2734,3.75957
2.89179,17.3414,-1.52255,8.42047,-47.3616,6.20322,-8.49821,1.49964,-1.56547,-7.69266,1.91971,-0.451395,-3.26269,0.955224,0.517032,-6.82827,15.7861,10.8547,21.1916,20.5443,-1.16656,9.01928,10.4145,0.143527,-3.74212e-14,3.57812e-15,16.3296,-31.6972,-0.434886,127.91,-58.7871,-5.23159,-45.7012,7.12502,20.5709,-74.6313,-3.74212e-14,3.57812e-15,26.9088,9.33431,-14.8673,33.7314,40.3888,-26.7436,-22.4679,7.12502,-0.172421,7.51177,-9.3777,1.61993,4.79699,22.8405,-19.9042,-28.1721,-5.07829,-19.7283,-5.57024,-12.1922,10.6812,-0.329466,26.0638,5.93259
2.88082,17.3344,-1.53903,8.29364,-47.3898,6.40004,-8.70043,1.42902,-1.68295,-7.69448,1.83502,-0.396946,-3.15786,0.917905,0.639838,-6.71711,15.876,10.8108,21.4568,20.7065,-1.18657,9.09927,10.4854,0.168068,-5.76476e-14,-2.3059e-14,16.827,-31.5349,-0.865718,127.899,-58.7988,-5.44697,-45.6604,7.12502,20.3639,-74.6127,-5.76476e-14,-2.3059e-14,26.7075,9.23354,-14.6396,33.6816,40.2538,-27.2129,-23.3152,7.12502,-0.625747,6.66366,-9.56155,1.33094,4.71631,23.119,-20.1399,-28.0779,-4.91676,-19.7219,-5.21633,-12.3734,10.6598,-0.387235,25.7955,4.31446
2.87135,17.3276,-1.56603,8.26876,-47.3335,6.51445,-8.84403,1.3516,-1.75234,-7.71037,1.73709,-0.388067,-3.09616,0.870964,0.685733,-6.57431,15.9799,10.6278,21.5088,20.8589,-1.02559,9.06162,10.5621,0.248225,-1.51573e-14,-7.95139e-16,17.2144,-31.4675,-1.3157,127.835,-58.8452,-5.82976,-45.4017,7.12502,19.996,-74.3928,-1.51573e-14,-7.95139e-16,26.7051,9.44664,-14.2574,33.5001,39.5039,-26.3063,-22.3991,7.12502,0.249895,7.58047,-9.81236,1.18093,4.7307,23.4334,-20.5662,-27.9735,-4.14528,-19.8088,-4.9908,-12.3983,10.5812,-0.306858,25.4843,5.36813
2.8676,17.3236,-1.59365,8.30368,-47.2695,6.41754,-8.77914,1.31063,-1.6492,-7.70917,1.67586,-0.39056,-3.12525,0.836038,0.620427,-6.52035,16.0179,10.419,21.5107,20.8973,-0.810111,9.00571,10.5875,0.337046,5.69518e-14,1.59028e-14,17.4417,-31.4033,-1.66174,127.83,-58.6887,-6.03452,-45.0445,7.12502,19.7992,-74.0561,5.69518e-14,1.59028e-14,26.6929,9.4988,-14.1122,33.3578,38.7513,-25.6238,-21.4944,7.12502,0.909063,8.4834,-9.9239,1.16484,4.9037,23.6261,-20.6206,-28.0051,-4.12627,-19.8489,-5.22288,-12.1423,10.5601,-0.435421,25.6288,6.88134
2.86111,17.3191,-1.61374,8.15567,-47.2445,6.50713,-8.70842,1.37284,-1.73824,-7.61181,1.7661,-0.469654,-3.064,0.883809,0.593287,-7.00973,15.9501,10.2408,21.8167,20.7235,-0.516811,9.13424,10.5085,0.482715,-6.05299e-14,-9.54166e-15,17.3072,-31.5683,-1.68507,127.895,-58.6829,-5.864,-44.9153,7.12502,19.9631,-73.9099,-6.05299e-14,-9.54166e-15,26.8656,9.45483,-14.1457,33.2989,38.4992,-25.2944,-21.2662,7.12502,1.22726,8.71,-9.95326,1.00496,4.91037,23.7875,-20.5578,-27.9996,-4.52121,-19.828,-5.33464,-12.1225,10.6224,-0.196839,25.6314,6.1077
