JuanDHNZ/ProyectoFinalCD/preprocessing/sports_trials_csv/49_20.csv
root1,root2,root3,root4,root5,root6,lowerback1,lowerback2,lowerback3,upperback1,upperback2,upperback3,thorax1,thorax2,thorax3,lowerneck1,lowerneck2,lowerneck3,upperneck1,upperneck2,upperneck3,head1,head2,head3,rclavicle1,rclavicle2,rhumerus1,rhumerus2,rhumerus3,rradius1,rwrist1,rhand1,rhand2,rfingers1,rthumb1,rthumb2,lclavicle1,lclavicle2,lhumerus1,lhumerus2,lhumerus3,lradius1,lwrist1,lhand1,lhand2,lfingers1,lthumb1,lthumb2,rfemur1,rfemur2,rfemur3,rtibia1,rfoot1,rfoot2,rtoes1,lfemur1,lfemur2,lfemur3,ltibia1,lfoot1,lfoot2,ltoes1
3.82301,17.6097,4.16039,21.6077,-8.19273,-3.99474,-8.26514,-1.3705,4.60664,-13.5643,-1.72767,4.55441,-9.89012,-1.07868,2.34779,-6.17616,18.5753,14.4154,14.3681,22.959,3.5582,6.60649,12.0985,1.01385,-3.22031e-14,1.59028e-15,-11.7837,-24.3414,26.7953,119.484,-60.2377,-3.55896,-44.9432,7.12502,22.1774,-73.6911,-3.22031e-14,1.59028e-15,25.7883,32.3506,-18.0543,28.2417,35.5081,-23.1389,-15.8885,7.12502,3.30895,14.0656,-6.18553,10.5062,-1.74999,8.80904,22.6135,-7.17903,-38.169,-23.5862,-7.34287,-20.772,19.9303,-15.0168,13.4499,9.53967
3.82355,17.6107,4.15897,21.6548,-8.1543,-4.06438,-8.22944,-1.36636,4.66723,-13.6171,-1.71684,4.5696,-9.97551,-1.07893,2.33565,-6.118,18.5847,14.4748,14.3546,22.9743,3.55984,6.60024,12.1086,1.00416,-4.87022e-14,-2.14687e-14,-11.7423,-24.2439,26.7551,119.499,-60.187,-3.45687,-44.8219,7.12502,22.2754,-73.558,-4.87022e-14,-2.14687e-14,25.9662,32.5573,-17.7789,28.201,35.3154,-23.2482,-16.0674,7.12502,3.20343,13.8883,-6.16211,10.4856,-1.65545,8.68433,22.7071,-7.20346,-38.1155,-23.6726,-7.32728,-20.6828,20.0012,-15.017,13.3946,9.52998
3.8242,17.6121,4.15825,21.6936,-8.13625,-4.08491,-8.35499,-1.35272,4.68841,-13.5523,-1.71194,4.56397,-9.82792,-1.07791,2.30856,-6.23867,18.6039,14.4382,14.3141,22.9874,3.53618,6.60501,12.1091,1.01181,-4.39314e-14,-1.43125e-14,-11.7912,-24.3299,26.7351,119.474,-60.2436,-3.5754,-44.6881,7.12502,22.1616,-73.4378,-4.39314e-14,-1.43125e-14,26.1799,33.0342,-17.4555,28.0998,34.9437,-23.1347,-16.0062,7.12502,3.31298,13.9478,-6.0882,10.4645,-1.62927,8.4766,22.8418,-7.22021,-38.2192,-23.7336,-7.32698,-20.6546,20.048,-14.9968,13.3949,9.16032
3.82763,17.6095,4.16615,21.6377,-8.14167,-4.06224,-8.53232,-1.35617,4.75949,-13.5229,-1.73426,4.55356,-9.69457,-1.09618,2.24921,-5.91099,18.6116,14.376,14.178,23.0638,3.5425,6.50292,12.1427,0.985486,2.34566e-14,-5.80451e-14,-11.693,-24.2325,26.6766,119.489,-60.2191,-4.0732,-44.7455,7.12502,21.6837,-73.5512,2.34566e-14,-5.80451e-14,26.107,32.9202,-17.4946,28.1279,34.9812,-23.4218,-15.9522,7.12502,3.03573,14.0059,-5.94411,10.4775,-1.67013,8.37553,22.8812,-7.22281,-38.4047,-23.6628,-7.4129,-20.7014,20.0925,-15.0459,13.5162,8.97778
3.8302,17.6073,4.16974,21.5826,-8.17077,-4.08098,-8.56257,-1.37652,4.89733,-13.73,-1.75721,4.56455,-9.92688,-1.12398,2.19752,-4.63728,18.5288,14.4759,13.8391,23.1782,3.47006,6.21461,12.1988,0.817671,-3.20043e-14,3.33958e-14,-11.3787,-23.7221,26.5742,119.619,-60.1862,-4.37222,-44.819,7.12502,21.3965,-73.6575,-3.20043e-14,3.33958e-14,25.7751,31.9231,-17.9673,28.2958,35.5424,-24.0584,-15.9381,7.12502,2.42094,14.028,-5.89015,10.528,-1.67432,8.3915,22.8478,-7.1979,-38.5015,-23.5872,-7.4191,-20.7131,20.1067,-15.1007,13.5555,9.21248
3.82777,17.6082,4.16337,21.5801,-8.24218,-4.14054,-8.5089,-1.28266,4.81597,-13.4197,-1.6414,4.52765,-9.59102,-1.05518,2.18454,-6.15606,18.6648,14.3956,14.3144,23.0778,3.61266,6.58155,12.1566,1.03912,-3.79679e-14,5.24792e-14,-11.9299,-24.1967,26.8378,119.628,-60.2247,-4.23651,-44.83,7.12502,21.5268,-73.6538,-3.79679e-14,5.24792e-14,26.102,32.9431,-17.5644,28.1068,34.9989,-24.3461,-16.008,7.12502,2.14315,13.961,-5.95784,10.6168,-1.62769,8.40351,22.8072,-7.23954,-38.4089,-23.594,-7.37107,-20.6485,20.1103,-15.1148,13.5754,9.39174
3.8262,17.608,4.16012,21.6176,-8.29266,-4.12785,-8.55046,-1.24611,4.72758,-13.2825,-1.60129,4.5063,-9.40337,-1.02567,2.20021,-6.7391,18.7377,14.3274,14.4555,23.0715,3.67361,6.70538,12.1531,1.13024,4.21423e-14,-1.74931e-14,-12.0889,-24.5388,26.8507,119.526,-60.2891,-4.04111,-44.8923,7.12502,21.7145,-73.6944,4.21423e-14,-1.74931e-14,26.3656,33.6355,-17.2165,27.9181,34.3201,-24.2847,-16.083,7.12502,2.20241,13.8854,-6.04031,10.6427,-1.6588,8.44074,22.751,-7.27161,-38.1635,-23.6442,-7.38933,-20.6451,20.1043,-15.0969,13.6107,9.48548
3.82869,17.6078,4.16019,21.7074,-8.27502,-4.0502,-8.64783,-1.2509,4.68008,-13.3022,-1.61492,4.47773,-9.36844,-1.0299,2.19313,-6.66742,18.7433,14.3285,14.3701,23.0961,3.64765,6.66981,12.1611,1.1127,-2.5842e-14,5.1684e-14,-12.0206,-24.6661,26.7164,119.408,-60.2478,-4.0323,-44.9721,7.12502,21.7229,-73.7732,-2.5842e-14,5.1684e-14,26.4505,33.8316,-17.1049,27.8514,34.0821,-24.1225,-16.0493,7.12502,2.3591,13.9174,-6.13224,10.5607,-1.76247,8.49126,22.7378,-7.24394,-38.0149,-23.7488,-7.37984,-20.7275,20.0884,-15.0897,13.5373,9.58125
3.83039,17.6087,4.15976,21.742,-8.2611,-4.03001,-8.67544,-1.23961,4.68431,-13.3165,-1.60316,4.44378,-9.37012,-1.02656,2.15411,-6.40357,18.6834,14.4795,14.1007,23.0798,3.41468,6.58363,12.1374,0.987836,7.95139e-15,3.97569e-14,-12.0846,-24.6501,26.7319,119.395,-60.2592,-4.21999,-44.9641,7.12502,21.5427,-73.786,7.95139e-15,3.97569e-14,26.55,33.9634,-17.0235,27.7996,33.8974,-23.7636,-16.2014,7.12502,2.70569,13.7612,-6.16136,10.5263,-1.79301,8.46093,22.764,-7.25877,-38.3049,-23.7998,-7.37423,-20.7499,20.0831,-15.0809,13.5123,9.50022
3.83058,17.6086,4.1653,21.7008,-8.31309,-4.079,-8.66125,-1.21854,4.71581,-13.2942,-1.57514,4.45525,-9.35364,-1.01457,2.14839,-6.39175,18.6636,14.5651,14.0667,23.0649,3.28316,6.59567,12.1235,0.938705,-3.77691e-15,-1.27222e-14,-12.1249,-24.5443,26.7756,119.475,-60.2675,-4.61011,-44.9611,7.12502,21.168,-73.8255,-3.77691e-15,-1.27222e-14,26.327,33.7143,-17.3013,27.851,34.0695,-23.4329,-16.3531,7.12502,3.02505,13.6052,-6.07716,10.6059,-1.76234,8.34402,22.7944,-7.28866,-38.7892,-23.7333,-7.41923,-20.7123,20.0929,-15.1014,13.6411,9.52386
3.831,17.6083,4.1687,21.7014,-8.3404,-4.11632,-8.62911,-1.21657,4.73104,-13.32,-1.56745,4.48724,-9.40227,-1.01083,2.1772,-6.49689,18.729,14.6061,14.2571,23.1227,3.32488,6.67789,12.1605,0.977484,-3.93594e-14,7.95139e-16,-12.0473,-24.4791,26.7293,119.501,-60.2031,-4.70047,-45.0276,7.12502,21.0812,-73.9016,-3.93594e-14,7.95139e-16,25.9931,33.2691,-17.6958,27.9781,34.5254,-23.2471,-16.0819,7.12502,3.20449,13.8738,-6.0155,10.6441,-1.73819,8.22496,22.8594,-7.31223,-38.835,-23.7134,-7.41531,-20.6833,20.0983,-15.1455,13.6701,9.79738
3.83199,17.6089,4.16625,21.727,-8.26796,-4.15124,-8.59659,-1.21786,4.77658,-13.3513,-1.56573,4.48726,-9.45961,-1.01463,2.1552,-6.30762,18.7168,14.759,14.1274,23.1499,3.14169,6.64608,12.1649,0.888805,-3.20043e-14,5.32743e-14,-12.0474,-24.5268,26.7168,119.42,-60.1027,-4.24076,-45.0909,7.12502,21.5227,-73.9151,-3.20043e-14,5.32743e-14,25.965,33.1405,-17.7604,28.014,34.605,-23.1641,-15.9094,7.12502,3.28464,14.045,-5.9859,10.5872,-1.66914,8.17777,22.8933,-7.34651,-38.7074,-23.7453,-7.35922,-20.6392,20.0857,-15.1154,13.5681,9.74809
3.8327,17.6096,4.1647,21.7192,-8.19612,-4.12118,-8.64522,-1.22745,4.75762,-13.3037,-1.58438,4.47557,-9.37558,-1.02176,2.14831,-6.37061,18.6992,14.7483,14.095,23.129,3.06187,6.65264,12.1471,0.869201,-4.96962e-15,2.70347e-14,-12.1177,-24.6134,26.7251,119.355,-59.9498,-3.93403,-45.0438,7.12502,21.8173,-73.834,-4.96962e-15,2.70347e-14,25.9547,33.2407,-17.756,28.0175,34.5473,-22.8055,-15.9082,7.12502,3.63095,14.0407,-5.97149,10.5162,-1.66429,8.23642,22.8473,-7.36344,-38.6191,-23.7366,-7.3834,-20.6638,20.0465,-15.0303,13.5555,9.53287
3.83171,17.6094,4.16408,21.7318,-8.18914,-4.05165,-8.73801,-1.25711,4.68926,-13.3404,-1.62839,4.47294,-9.36167,-1.03802,2.18173,-5.9663,18.6815,14.7384,13.8867,23.1912,2.98863,6.52992,12.1699,0.802344,-1.66979e-14,5.56597e-15,-12.0619,-24.5086,26.705,119.374,-59.8947,-4.13077,-44.972,7.12502,21.6284,-73.784,-1.66979e-14,5.56597e-15,25.5594,32.6518,-18.2855,28.1908,35.1065,-22.7382,-15.8384,7.12502,3.69596,14.1093,-6.03777,10.4776,-1.7316,8.33859,22.8239,-7.36047,-38.4791,-23.7265,-7.3934,-20.7419,19.9991,-14.9912,13.5554,9.41911
3.8308,17.6083,4.16361,21.7836,-8.19856,-4.0568,-8.79268,-1.27643,4.74931,-13.6093,-1.64858,4.4655,-9.64701,-1.05878,2.15501,-4.40704,18.5097,14.9809,13.2283,23.2643,2.64728,6.13956,12.1894,0.494491,8.94531e-15,-4.77083e-15,-11.8288,-24.0158,26.653,119.46,-59.968,-4.49074,-45.0134,7.12502,21.2826,-73.8649,8.94531e-15,-4.77083e-15,25.2246,31.5024,-18.885,28.4083,35.7952,-22.9482,-15.8828,7.12502,3.49314,14.0683,-6.1309,10.4694,-1.73332,8.41915,22.8209,-7.33699,-38.5159,-23.7364,-7.35733,-20.7404,19.9721,-15.0024,13.5368,9.17077
3.83126,17.6083,4.16385,21.8086,-8.23648,-4.07393,-8.79938,-1.2613,4.6872,-13.432,-1.63334,4.5025,-9.43237,-1.04018,2.21795,-5.58934,18.6408,14.7528,13.8649,23.2184,2.88878,6.47792,12.1808,0.737183,3.49861e-14,-5.24792e-14,-12.0049,-24.3122,26.7531,119.466,-59.9465,-4.77346,-45.1458,7.12502,21.0111,-74.0276,3.49861e-14,-5.24792e-14,25.3214,32.2218,-18.5924,28.2596,35.2348,-22.7772,-16.0833,7.12502,3.65824,13.8651,-6.19939,10.4998,-1.73679,8.48634,22.7859,-7.3296,-38.6123,-23.7536,-7.44972,-20.6957,19.9636,-15.0022,13.6256,9.31475
3.83175,17.6106,4.16255,21.8103,-8.27569,-4.114,-8.76374,-1.26542,4.74928,-13.5954,-1.62932,4.52183,-9.64645,-1.04578,2.21611,-5.07655,18.5909,14.7001,13.9693,23.2285,3.02383,6.40921,12.2022,0.735122,5.24792e-14,-7.95139e-15,-11.7986,-24.0383,26.6941,119.5,-60.1074,-4.89692,-45.2541,7.12502,20.8924,-74.1491,5.24792e-14,-7.95139e-15,25.3467,31.9665,-18.5637,28.296,35.2528,-22.3599,-16.1344,7.12502,4.06124,13.8066,-6.25452,10.5495,-1.71244,8.49753,22.7562,-7.37029,-38.6542,-23.7967,-7.60922,-20.607,19.9794,-14.995,13.7774,9.77329
3.83291,17.6122,4.15982,21.8096,-8.27341,-4.13704,-8.75355,-1.20854,4.73372,-13.4528,-1.55932,4.49403,-9.48557,-1.00837,2.18642,-5.90796,18.6209,14.5415,14.223,23.1233,3.13346,6.58825,12.1513,0.867988,-3.97569e-16,4.85035e-14,-12.0957,-24.2735,26.8782,119.475,-60.1573,-4.81834,-45.1846,7.12502,20.9679,-74.0712,-3.97569e-16,4.85035e-14,25.3219,32.1931,-18.5957,28.4016,35.7236,-22.0394,-15.8867,7.12502,4.37069,14.0482,-6.24661,10.5563,-1.6947,8.42921,22.761,-7.38711,-38.6851,-23.8355,-7.65223,-20.5722,20.0156,-14.9895,13.832,9.67045
3.83464,17.6115,4.16108,21.7783,-8.2668,-4.11556,-8.83206,-1.22705,4.7977,-13.5342,-1.58905,4.48405,-9.53854,-1.03134,2.14238,-5.24805,18.5771,14.4202,13.9289,23.1898,3.17443,6.36999,12.1797,0.810849,2.76311e-14,-2.14687e-14,-11.9137,-24.119,26.7846,119.487,-60.1897,-4.84212,-45.0728,7.12502,20.9451,-73.962,2.76311e-14,-2.14687e-14,25.1261,31.6071,-18.9355,28.5037,36.1517,-22.4227,-15.6522,7.12502,4.00056,14.29,-6.16144,10.5518,-1.72107,8.35965,22.7166,-7.35536,-38.6982,-23.7969,-7.5779,-20.6334,20.0401,-15.0028,13.7648,9.34643
3.83419,17.6111,4.16389,21.7538,-8.27084,-4.15671,-8.88519,-1.17288,4.75623,-13.2228,-1.53549,4.45111,-9.14425,-0.996919,2.10944,-6.74824,18.7004,14.2317,14.4267,23.0821,3.38905,6.72026,12.1334,1.05979,1.74931e-14,-5.08889e-14,-12.3086,-24.5907,26.8984,119.433,-60.1414,-4.89268,-44.982,7.12502,20.8965,-73.8766,1.74931e-14,-5.08889e-14,25.2875,32.3628,-18.7329,28.4068,35.852,-22.8219,-15.6473,7.12502,3.61513,14.3018,-6.12024,10.5824,-1.66657,8.35667,22.6612,-7.36771,-38.7332,-23.7503,-7.5967,-20.5908,20.0344,-14.9894,13.8089,9.34054
3.83399,17.6103,4.16393,21.7672,-8.256,-4.17254,-8.90784,-1.16009,4.75872,-13.1433,-1.52489,4.43158,-9.03966,-0.991467,2.08173,-7.3256,18.7444,14.1784,14.7801,23.0226,3.53914,6.90319,12.1172,1.18187,-7.95139e-16,2.46493e-14,-12.4368,-24.6766,26.9596,119.457,-60.0711,-4.91407,-44.8509,7.12502,20.876,-73.7477,-7.95139e-16,2.46493e-14,25.2997,32.5932,-18.7185,28.4202,35.857,-23.0509,-15.6504,7.12502,3.39395,14.3024,-6.14408,10.5721,-1.63789,8.39681,22.7244,-7.4256,-38.844,-23.7549,-7.66572,-20.5517,20.0141,-14.9911,13.8753,9.55639
3.83466,17.6096,4.15981,21.7313,-8.20048,-4.12235,-8.81957,-1.20122,4.70877,-13.1592,-1.56979,4.44847,-9.10593,-1.00868,2.13115,-7.58302,18.7889,14.0869,15.1207,23.0159,3.74744,7.02202,12.1326,1.29706,-1.43125e-14,-1.59028e-15,-12.4028,-24.6181,27.0078,119.544,-60.0253,-4.97895,-44.6898,7.12502,20.8136,-73.5935,-1.43125e-14,-1.59028e-15,25.1396,32.4508,-18.8794,28.4192,35.9941,-23.3035,-15.896,7.12502,3.15001,14.0605,-6.13647,10.517,-1.65887,8.4575,22.8414,-7.47678,-38.9837,-23.7174,-7.71293,-20.5902,19.9905,-15.0099,13.8523,9.77469
3.83453,17.6108,4.15655,21.6847,-8.14983,-4.11056,-8.7621,-1.21568,4.67273,-13.159,-1.58217,4.46719,-9.13658,-1.0103,2.17309,-7.54003,18.7495,14.1233,15.113,22.9781,3.66689,7.02512,12.1104,1.26174,-1.45113e-14,1.74931e-14,-12.3843,-24.5767,27.0291,119.564,-59.9689,-4.92576,-44.6925,7.12502,20.8647,-73.5906,-1.45113e-14,1.74931e-14,25.1955,32.519,-18.7754,28.3139,35.8653,-23.2781,-16.2551,7.12502,3.17455,13.701,-6.14547,10.487,-1.63089,8.55321,22.9027,-7.50336,-38.9997,-23.6699,-7.75933,-20.582,19.9581,-14.9582,13.8409,9.7939
3.83472,17.6116,4.1604,21.7078,-8.15552,-4.12427,-8.87944,-1.17128,4.69223,-13.1808,-1.53213,4.44433,-9.09611,-0.988384,2.13513,-7.09182,18.6299,14.2433,14.7423,22.9197,3.41381,6.87184,12.0634,1.10219,-4.09496e-14,-7.15625e-15,-12.3796,-24.4863,27.0254,119.517,-59.9269,-4.72411,-44.8139,7.12502,21.0585,-73.6905,-4.09496e-14,-7.15625e-15,25.464,32.75,-18.4508,28.2512,35.7648,-23.2964,-16.3021,7.12502,3.15683,13.6543,-6.21528,10.4895,-1.61883,8.66991,22.8965,-7.50085,-39.0131,-23.6679,-7.70992,-20.5773,19.9294,-14.9971,13.7599,10.0164
3.83384,17.6114,4.16403,21.7191,-8.22695,-4.13097,-8.97343,-1.1558,4.7012,-13.2777,-1.51537,4.43593,-9.15529,-0.982973,2.1236,-6.27086,18.5392,14.3777,14.3278,22.9557,3.21585,6.64416,12.0693,0.928579,3.77691e-14,-2.8625e-14,-12.2116,-24.3563,26.95,119.485,-60.0216,-4.42367,-44.8295,7.12502,21.3471,-73.6737,3.77691e-14,-2.8625e-14,25.5216,32.6268,-18.4042,28.2678,35.8247,-23.7905,-16.3545,7.12502,2.67966,13.6084,-6.29572,10.5496,-1.64586,8.77101,22.8562,-7.48466,-39.1127,-23.6508,-7.6524,-20.5967,19.9181,-15.0656,13.7613,10.2251
3.83294,17.6121,4.16056,21.7093,-8.27204,-4.13594,-8.95109,-1.20924,4.73598,-13.529,-1.57386,4.46673,-9.46149,-1.01836,2.15298,-4.76117,18.4259,14.5848,13.7595,23.0841,2.96257,6.27709,12.1215,0.665373,-1.98785e-16,-7.07673e-14,-11.8048,-24.0111,26.7833,119.507,-60.0822,-3.96361,-44.6878,7.12502,21.7889,-73.4813,-1.98785e-16,-7.07673e-14,25.2382,31.7289,-18.8326,28.3568,36.0582,-24.3523,-16.5577,7.12502,2.13712,13.4114,-6.38173,10.5943,-1.65804,8.8708,22.8077,-7.46985,-39.1101,-23.656,-7.63701,-20.5965,19.9112,-15.0394,13.8262,9.93654
3.83389,17.6132,4.15666,21.7004,-8.23848,-4.1434,-8.87707,-1.18799,4.6529,-13.284,-1.54755,4.47444,-9.21475,-0.992682,2.19525,-6.14518,18.5255,14.4039,14.1822,22.9785,3.07659,6.59653,12.0686,0.867915,-1.76918e-14,-2.54444e-14,-12.1438,-24.5008,26.9943,119.446,-59.9911,-3.21959,-44.5043,7.12502,22.5032,-73.2131,-1.76918e-14,-2.54444e-14,25.1452,32.106,-18.8804,28.3417,36.0998,-24.5011,-16.5091,7.12502,1.99339,13.4613,-6.41413,10.5714,-1.6359,8.96572,22.7806,-7.46947,-39.1269,-23.6763,-7.57183,-20.5969,19.9132,-15.0024,13.7611,9.47771
3.83446,17.6145,4.15614,21.6895,-8.22505,-4.16757,-8.84804,-1.17982,4.67124,-13.3016,-1.53357,4.47787,-9.25275,-0.987422,2.19098,-6.11444,18.4892,14.371,14.1822,22.9354,3.09847,6.5833,12.0487,0.868568,3.67752e-14,-3.02153e-14,-12.1235,-24.5739,27.0197,119.38,-60.0413,-2.82195,-44.4474,7.12502,22.8848,-73.1095,3.67752e-14,-3.02153e-14,25.0632,31.8523,-19.0329,28.3759,36.2158,-24.2591,-16.3917,7.12502,2.22712,13.5764,-6.41593,10.5734,-1.60501,8.99542,22.8099,-7.47692,-39.1757,-23.665,-7.46584,-20.599,19.9265,-14.9756,13.6851,9.28307
3.83405,17.6163,4.15668,21.6821,-8.234,-4.19168,-8.87908,-1.22402,4.76475,-13.5413,-1.58702,4.48507,-9.51826,-1.0268,2.16026,-4.73289,18.3967,14.56,13.7923,23.0446,3.0121,6.2728,12.1062,0.675903,-4.57205e-15,-1.03368e-14,-11.742,-24.2312,26.758,119.361,-60.0668,-2.83999,-44.2975,7.12502,22.8675,-72.9617,-4.57205e-15,-1.03368e-14,24.8648,31.0107,-19.4306,28.4661,36.4288,-24.3561,-16.4502,7.12502,2.13348,13.5188,-6.41118,10.5942,-1.57885,8.97782,22.8883,-7.48284,-39.001,-23.6477,-7.4683,-20.5741,19.9302,-14.9753,13.7071,9.43915
3.83428,17.6167,4.1605,21.6316,-8.18997,-4.18929,-8.91779,-1.22664,4.73951,-13.313,-1.6042,4.46983,-9.22914,-1.02991,2.14242,-5.72455,18.5028,14.4893,14.159,23.003,3.12374,6.52762,12.091,0.832473,-3.47873e-14,1.11319e-14,-11.9703,-24.5724,26.7952,119.324,-59.9855,-2.63283,-43.9927,7.12502,23.0663,-72.6322,-3.47873e-14,1.11319e-14,24.8532,31.4891,-19.4139,28.4198,36.3547,-24.3846,-16.3737,7.12502,2.10592,13.5957,-6.30946,10.5741,-1.55061,8.96416,22.9085,-7.4965,-38.882,-23.5787,-7.58223,-20.5519,19.9273,-15.0251,13.7396,9.6901
3.83442,17.6163,4.16196,21.5848,-8.13364,-4.19879,-8.89717,-1.26457,4.81584,-13.5216,-1.64412,4.49566,-9.4871,-1.05907,2.14139,-4.62173,18.3724,14.6011,13.8353,23.0301,2.98709,6.2765,12.1018,0.655413,-9.34288e-15,2.22639e-14,-11.6751,-24.1482,26.763,119.44,-60.0767,-2.16657,-43.811,7.12502,23.5136,-72.3938,-9.34288e-15,2.22639e-14,24.721,30.7607,-19.6327,28.5256,36.7148,-24.1113,-16.3823,7.12502,2.36986,13.5843,-6.23414,10.5463,-1.50926,8.94286,22.8704,-7.51897,-38.7978,-23.5142,-7.60021,-20.5353,19.9343,-15.0671,13.6866,9.74467
3.83469,17.615,4.15938,21.5991,-8.12327,-4.20875,-8.88076,-1.2191,4.75943,-13.2946,-1.59093,4.48469,-9.22972,-1.02369,2.14773,-5.93148,18.4793,14.4439,14.305,22.929,3.19159,6.59218,12.0606,0.877055,1.13307e-14,2.14687e-14,-12.0315,-24.4687,26.994,119.509,-60.0755,-1.767,-43.6523,7.12502,23.8969,-72.1855,1.13307e-14,2.14687e-14,24.7446,31.3309,-19.5212,28.4842,36.6601,-24.2244,-16.6664,7.12502,2.26062,13.3014,-6.25913,10.5349,-1.50629,8.93407,22.7774,-7.49592,-38.592,-23.534,-7.47582,-20.5546,19.9424,-15.0445,13.5839,9.55702
3.83591,17.6142,4.15911,21.6347,-8.16302,-4.20488,-8.9608,-1.18158,4.75001,-13.192,-1.55314,4.45629,-9.06492,-1.00369,2.11371,-6.41512,18.5112,14.3951,14.4466,22.8824,3.25442,6.70092,12.0394,0.951434,-6.06293e-14,8.5875e-14,-12.1854,-24.6018,27.0889,119.502,-60.0387,-1.7944,-43.5571,7.12502,23.8706,-72.0937,-6.06293e-14,8.5875e-14,24.8393,31.6966,-19.4005,28.4288,36.5396,-24.0402,-16.7401,7.12502,2.43851,13.2257,-6.32052,10.5523,-1.55295,8.9832,22.5503,-7.28884,-38.3596,-23.5745,-7.39533,-20.589,19.9407,-15.0517,13.5507,9.49737
3.83743,17.6156,4.15913,21.6389,-8.2036,-4.21578,-8.91651,-1.15514,4.76256,-13.2272,-1.514,4.43683,-9.13206,-0.98709,2.08982,-6.47731,18.497,14.3975,14.57,22.8408,3.32274,6.74226,12.0276,0.979782,-1.21259e-14,9.54166e-15,-12.1726,-24.5619,27.1005,119.473,-59.9302,-1.77114,-43.5715,7.12502,23.8929,-72.1052,-1.21259e-14,9.54166e-15,24.7437,31.4552,-19.5802,28.525,36.8603,-23.6109,-16.618,7.12502,2.85316,13.3427,-6.40266,10.5885,-1.57358,9.07472,22.4101,-7.12114,-38.2537,-23.5631,-7.4079,-20.5876,19.9336,-15.0592,13.5942,9.5419
3.83817,17.6171,4.15725,21.6232,-8.19701,-4.21642,-8.84426,-1.1666,4.74294,-13.2512,-1.52077,4.45743,-9.20004,-0.987958,2.1267,-6.54778,18.5095,14.3614,14.6901,22.8423,3.37241,6.78336,12.0333,1.01223,5.76476e-15,-4.92986e-14,-12.0922,-24.5806,27.0842,119.468,-59.8866,-1.50739,-43.5584,7.12502,24.1458,-72.0588,5.76476e-15,-4.92986e-14,24.4657,31.0551,-19.9238,28.6645,37.3224,-23.532,-16.5945,7.12502,2.92934,13.3651,-6.4657,10.5883,-1.57139,9.1442,22.5737,-7.24622,-38.5398,-23.5474,-7.46691,-20.5731,19.9163,-14.9862,13.6549,9.49326
3.83778,17.6191,4.15594,21.6383,-8.19123,-4.21982,-8.86035,-1.19022,4.71251,-13.2433,-1.55093,4.50141,-9.1794,-0.997573,2.18954,-6.5472,18.5255,14.3232,14.6762,22.8762,3.33115,6.78042,12.0445,1.00722,-8.74653e-15,4.29375e-14,-11.9842,-24.6711,27.06,119.46,-59.9916,-1.36489,-43.5723,7.12502,24.2824,-72.0545,-8.74653e-15,4.29375e-14,24.3048,30.93,-20.061,28.6933,37.5192,-23.7917,-16.48,7.12502,2.67855,13.4829,-6.49347,10.5792,-1.56744,9.12757,22.7542,-7.34158,-38.6648,-23.5828,-7.51131,-20.5464,19.9074,-14.9075,13.709,9.35455
3.84074,17.6231,4.15642,21.6555,-8.14232,-4.27875,-8.82678,-1.1937,4.80087,-13.2699,-1.55306,4.51608,-9.23337,-1.00649,2.1594,-6.52751,18.5076,14.3275,14.7091,22.8504,3.3567,6.7846,12.0354,1.01105,2.36554e-14,-7.15625e-15,-11.9467,-24.6802,27.0426,119.464,-60.0932,-1.42976,-43.5638,7.12502,24.2202,-72.0543,2.36554e-14,-7.15625e-15,24.3837,30.9705,-19.969,28.6598,37.6117,-24.1994,-16.3089,7.12502,2.28482,13.6587,-6.53428,10.554,-1.49255,9.1437,22.755,-7.30741,-38.5302,-23.5847,-7.44126,-20.498,19.8915,-14.9051,13.6068,9.13368
3.84558,17.6254,4.15675,21.6649,-8.0538,-4.37806,-8.78722,-1.18403,4.98134,-13.299,-1.54012,4.51065,-9.29858,-1.0177,2.05738,-6.44931,18.4795,14.3653,14.7001,22.8166,3.38211,6.76918,12.0233,1.00219,-7.95139e-15,3.18055e-15,-11.9929,-24.6164,27.0536,119.514,-60.1483,-1.87885,-43.618,7.12502,23.7896,-72.1652,-7.95139e-15,3.18055e-15,24.5285,31.0081,-19.8378,28.6426,37.7156,-23.9642,-16.1956,7.12502,2.51194,13.7694,-6.6692,10.5119,-1.37271,9.37421,22.6569,-7.2841,-38.5161,-23.53,-7.37544,-20.4103,19.8046,-14.9115,13.4738,8.90213
3.84394,17.6226,4.15359,21.6618,-8.11237,-4.31751,-8.78969,-1.16544,4.89476,-13.2982,-1.51531,4.47461,-9.29265,-0.999259,2.06626,-6.43258,18.4658,14.4112,14.7047,22.7977,3.36319,6.77492,12.0151,0.9892,1.39149e-14,4.13472e-14,-12.1178,-24.5362,27.1415,119.627,-60.1987,-2.38191,-43.8156,7.12502,23.3071,-72.4248,1.39149e-14,4.13472e-14,24.6901,31.1323,-19.6355,28.6236,37.6005,-22.9351,-15.94,7.12502,3.50579,14.0109,-6.67671,10.5369,-1.47776,9.36301,22.6934,-7.25319,-38.5164,-23.5438,-7.38411,-20.4744,19.812,-14.9302,13.5058,8.96258
3.83938,17.6206,4.14813,21.6398,-8.3108,-4.03863,-8.76779,-1.15795,4.49204,-13.3136,-1.4966,4.41051,-9.30585,-0.956221,2.22111,-6.45841,18.4482,14.4222,14.7692,22.7678,3.36239,6.80062,12.0029,0.991318,4.77083e-15,-5.56597e-15,-12.2004,-24.4475,27.2421,119.739,-60.2569,-2.66886,-43.9421,7.12502,23.0317,-72.5859,4.77083e-15,-5.56597e-15,24.924,31.4116,-19.2887,28.5147,37.0826,-22.3589,-15.7911,7.12502,4.06224,14.15,-6.67158,10.6023,-1.85335,9.21834,22.8361,-7.23668,-38.5286,-23.6032,-7.42352,-20.7756,19.8715,-14.9723,13.6014,9.29907
3.84929,17.6233,4.14716,21.5118,-8.03021,-4.35358,-8.6075,-1.16808,4.99171,-13.2617,-1.50767,4.47128,-9.35955,-1.00412,2.01367,-6.43796,18.4334,14.3518,14.7142,22.7534,3.4063,6.76498,11.9949,1.00224,-7.55382e-15,9.54166e-15,-12.2133,-24.4254,27.3014,119.76,-60.2754,-2.71801,-44.0429,7.12502,22.9846,-72.6926,-7.55382e-15,9.54166e-15,25.0891,31.6327,-19.0621,28.3914,36.659,-22.8399,-15.8138,7.12502,3.59768,14.1355,-6.37439,10.5328,-1.39817,9.15675,22.8488,-7.23815,-38.4889,-23.4526,-7.32409,-20.4638,19.9209,-15.0296,13.3505,9.3831
3.85344,17.6242,4.14992,21.4987,-7.91335,-4.5003,-8.74876,-1.15381,5.23786,-13.1734,-1.51011,4.47736,-9.18742,-1.02572,1.8744,-6.4124,18.4205,14.3096,14.5845,22.7439,3.41655,6.71123,11.9855,0.996318,-5.32743e-14,9.54166e-15,-12.2435,-24.4618,27.3178,119.741,-60.2396,-2.74858,-44.2537,7.12502,22.9552,-72.907,-5.32743e-14,9.54166e-15,25.0596,31.6325,-19.1362,28.3823,36.6742,-24.0633,-15.8466,7.12502,2.41626,14.1195,-6.29948,10.4944,-1.20163,9.15535,22.8363,-7.23668,-38.3873,-23.4142,-7.26024,-20.3255,19.9301,-15.0286,13.2492,9.29771
3.85078,17.6241,4.15029,21.5176,-7.9458,-4.48385,-8.79697,-1.15788,5.16374,-13.1784,-1.51707,4.48691,-9.16195,-1.02178,1.92399,-6.34314,18.4054,14.3446,14.6192,22.7302,3.41752,6.71514,11.9822,0.987215,4.57205e-14,-2.3059e-14,-12.1518,-24.4346,27.2495,119.712,-60.1648,-2.94644,-44.422,7.12502,22.7654,-73.0988,4.57205e-14,-2.3059e-14,24.8909,31.322,-19.3393,28.474,36.948,-25.1699,-16.0328,7.12502,1.34744,13.9427,-6.25293,10.5103,-1.22536,8.98849,22.9365,-7.28395,-38.3871,-23.4529,-7.28279,-20.3407,19.9923,-15.0319,13.3398,9.08815
3.84637,17.6213,4.15035,21.5216,-8.02439,-4.38571,-8.76242,-1.18867,4.9937,-13.3167,-1.54469,4.48828,-9.33436,-1.0226,2.02841,-5.85707,18.3527,14.4699,14.6097,22.7344,3.38119,6.65361,11.992,0.917069,3.08116e-14,1.59028e-15,-11.9174,-24.2448,27.1012,119.699,-60.0784,-3.10379,-44.5102,7.12502,22.6144,-73.2055,3.08116e-14,1.59028e-15,24.7579,30.7984,-19.4937,28.6296,37.3354,-25.5323,-16.3142,7.12502,0.997432,13.6632,-6.32598,10.5392,-1.34759,9.06873,22.9092,-7.33955,-38.4885,-23.4274,-7.28002,-20.4551,19.9585,-14.9684,13.4223,8.91149
3.84551,17.6215,4.14853,21.4794,-8.06176,-4.37111,-8.7495,-1.20193,5.02664,-13.5858,-1.55134,4.45924,-9.65804,-1.03603,1.99579,-4.3682,18.18,14.7357,14.1499,22.7649,3.19213,6.3193,12.0059,0.664814,5.26779e-14,-3.33958e-14,-11.5769,-23.701,26.8853,119.733,-60.053,-3.15471,-44.5687,7.12502,22.5655,-73.2699,5.26779e-14,-3.33958e-14,24.7177,29.9589,-19.6731,28.8292,37.7473,-25.4016,-16.4375,7.12502,1.12367,13.5393,-6.41558,10.5825,-1.35922,9.27082,22.9088,-7.38986,-38.5175,-23.3521,-7.21165,-20.4842,19.8791,-14.9287,13.3551,9.25028
3.8478,17.6254,4.14655,21.4509,-8.04872,-4.39939,-8.74237,-1.18185,5.00811,-13.3405,-1.53452,4.46546,-9.3747,-1.02071,1.99812,-5.30097,18.2687,14.5897,14.3503,22.7257,3.24886,6.50829,11.9814,0.795528,-4.27387e-14,1.11319e-14,-11.7822,-24.0545,26.8449,119.694,-59.914,-2.80774,-44.5155,7.12502,22.8985,-73.1759,-4.27387e-14,1.11319e-14,24.7473,30.5787,-19.5022,28.7585,37.4289,-25.2939,-16.4062,7.12502,1.22769,13.57,-6.51153,10.5932,-1.31731,9.41077,22.9603,-7.41048,-38.433,-23.313,-7.10126,-20.4767,19.8362,-14.9499,13.2131,9.53344
3.8514,17.625,4.14565,21.4541,-7.96371,-4.40196,-8.83444,-1.20582,5.12789,-13.4565,-1.57218,4.45398,-9.46314,-1.0536,1.92332,-4.21333,18.1496,14.7311,13.8641,22.7761,3.0325,6.21934,11.9925,0.588155,-1.94809e-14,-1.59028e-14,-11.5959,-23.8162,26.6879,119.706,-59.9176,-2.66652,-44.4947,7.12502,23.034,-73.1382,-1.94809e-14,-1.59028e-14,24.9256,30.4489,-19.2999,28.7075,37.1192,-25.5085,-16.1869,7.12502,1.02046,13.7904,-6.5048,10.517,-1.29844,9.41544,22.8855,-7.38845,-38.3902,-23.3174,-7.00406,-20.5092,19.857,-14.9355,13.0841,9.15893
3.85196,17.625,4.14135,21.4404,-7.89403,-4.43276,-8.85829,-1.1469,5.1259,-13.1296,-1.51184,4.42168,-9.06959,-1.01788,1.86969,-5.59634,18.244,14.5362,14.2681,22.6528,3.19815,6.52459,11.9345,0.801585,3.18055e-14,-5.32743e-14,-12.0187,-24.367,26.8262,119.595,-59.856,-2.97715,-44.5733,7.12502,22.7359,-73.2537,3.18055e-14,-5.32743e-14,25.3962,31.8022,-18.5385,28.4921,36.232,-24.6395,-16.0341,7.12502,1.85977,13.9376,-6.33039,10.4745,-1.22881,9.17001,22.931,-7.4112,-38.4338,-23.3922,-6.98224,-20.4652,19.96,-14.9293,13.0112,8.9842
3.85061,17.6266,4.14007,21.4067,-7.91589,-4.49593,-8.80842,-1.10503,5.13816,-13.0441,-1.4552,4.43225,-8.99916,-0.988255,1.87149,-6.12081,18.2463,14.4276,14.6027,22.5515,3.34766,6.68454,11.8967,0.915374,-4.19436e-14,-2.38542e-15,-12.0956,-24.5588,26.8621,119.522,-59.8251,-2.83553,-44.6235,7.12502,22.8718,-73.2872,-4.19436e-14,-2.38542e-15,25.6249,32.2644,-18.1567,28.4096,35.9415,-23.3786,-15.9524,7.12502,3.07743,14.0051,-6.2196,10.5329,-1.1519,9.01738,23.0333,-7.47243,-38.3925,-23.4028,-6.975,-20.3905,20.025,-14.9745,13.0185,9.13459
3.85421,17.6255,4.1541,21.4405,-7.85533,-4.71469,-8.81077,-1.09526,5.40931,-13.1454,-1.44034,4.50829,-9.12657,-1.0037,1.8098,-6.15954,18.2174,14.4161,14.966,22.4818,3.49747,6.78966,11.8848,0.978051,-1.31198e-14,8.74653e-15,-11.8441,-24.4842,26.7507,119.471,-59.8086,-2.28849,-44.5884,7.12502,23.3967,-73.1862,-1.31198e-14,8.74653e-15,25.3109,31.6093,-18.5629,28.5648,36.6444,-23.1301,-15.8599,7.12502,3.31744,14.0941,-6.09752,10.5539,-0.921153,8.89733,23.0523,-7.528,-38.257,-23.3748,-7.02779,-20.1635,20.0916,-15.0869,13.0718,9.2882
3.85261,17.6265,4.14557,21.3819,-7.94535,-4.53482,-9.02471,-1.0802,5.21005,-12.9575,-1.44812,4.40855,-8.77932,-0.990111,1.79432,-6.16097,18.1929,14.4319,14.835,22.4632,3.38876,6.76003,11.8643,0.935291,1.13307e-14,-2.62396e-14,-11.9172,-24.8105,26.6189,119.374,-59.7876,-2.12148,-44.6265,7.12502,23.5569,-73.2038,1.13307e-14,-2.62396e-14,25.0163,31.3925,-19.0288,28.7292,37.3298,-23.2679,-15.9518,7.12502,3.18443,14.0042,-6.10187,10.5818,-1.12959,8.81147,23.1823,-7.5487,-38.2375,-23.4099,-7.19947,-20.3153,20.1363,-15.0632,13.2247,9.39268
3.85156,17.6272,4.13828,21.4131,-7.95847,-4.52498,-9.03887,-1.12688,5.24331,-13.1844,-1.50217,4.40998,-9.03548,-1.02543,1.78943,-5.11237,18.0798,14.5383,14.6729,22.4993,3.28881,6.56406,11.8855,0.786964,-7.95139e-15,1.82882e-14,-11.4852,-24.5961,26.2661,119.346,-59.8707,-2.24056,-44.6391,7.12502,23.4426,-73.231,-7.95139e-15,1.82882e-14,24.6696,30.3073,-19.5666,28.9904,38.1452,-23.678,-16.0923,7.12502,2.78834,13.8692,-6.16359,10.5796,-1.13782,8.76173,23.2672,-7.54024,-38.3486,-23.5174,-7.12616,-20.3197,20.1832,-15.0816,13.1453,9.52948
3.85148,17.6265,4.13331,21.4188,-7.92461,-4.55953,-8.91773,-1.12162,5.20897,-13.0552,-1.4889,4.42934,-8.95315,-1.0119,1.82602,-6.46226,18.1709,14.2526,15.4958,22.3598,3.65194,6.97256,11.8436,1.08701,-1.59028e-14,-1.66979e-14,-11.6031,-24.9134,26.2564,119.328,-59.7794,-2.25449,-44.595,7.12502,23.4293,-73.1886,-1.59028e-14,-1.66979e-14,24.9695,30.9715,-19.0403,28.8701,37.7222,-23.2197,-16.0584,7.12502,3.2309,13.8969,-6.25094,10.5635,-1.07586,8.95674,23.1392,-7.54574,-38.3774,-23.5281,-7.01232,-20.2918,20.1689,-15.1417,12.9736,9.94939
3.85196,17.6265,4.13246,21.4405,-7.90392,-4.60593,-9.0001,-1.12644,5.31925,-13.1959,-1.49886,4.42546,-9.07435,-1.03018,1.76632,-5.72563,18.0605,14.2854,15.3675,22.3398,3.62388,6.81741,11.8377,0.991636,3.18055e-15,1.35174e-14,-11.3958,-24.6346,26.1681,119.412,-59.7756,-2.449,-44.7087,7.12502,23.2427,-73.326,3.18055e-15,1.35174e-14,25.6133,31.3155,-18.229,28.6422,36.9493,-22.0027,-15.7745,7.12502,4.40618,14.1596,-6.297,10.5576,-1.01209,9.02447,23.0477,-7.58173,-38.291,-23.5628,-7.03389,-20.23,20.2073,-15.1411,13.0004,9.8274
3.85153,17.6267,4.13015,21.5116,-7.93239,-4.62194,-9.11619,-1.09113,5.26843,-12.9609,-1.47228,4.41686,-8.7339,-1.00699,1.76793,-6.58171,18.1085,14.2158,15.4176,22.2791,3.5313,6.97197,11.7908,1.05305,2.28602e-14,-6.67916e-14,-11.5894,-25.0662,26.2094,119.377,-59.7942,-2.66414,-44.7957,7.12502,23.0363,-73.4389,2.28602e-14,-6.67916e-14,25.875,32.1076,-17.8157,28.5167,36.5215,-21.7277,-15.7077,7.12502,4.67173,14.2208,-6.40375,10.5645,-1.01063,9.01928,23.0562,-7.62476,-38.0983,-23.7014,-7.07726,-20.1888,20.2748,-15.0718,13.1076,9.45241
3.85246,17.6248,4.13136,21.554,-7.99026,-4.60244,-9.23219,-1.11755,5.30996,-13.1451,-1.51038,4.41981,-8.88276,-1.03389,1.75427,-5.09882,17.9544,14.5332,14.639,22.3743,3.02499,6.57478,11.8066,0.6954,2.18663e-14,3.97569e-15,-11.2019,-24.7395,25.8957,119.362,-59.7055,-2.93762,-44.6133,7.12502,22.7738,-73.2891,2.18663e-14,3.97569e-15,25.4273,30.9713,-18.4625,28.7669,37.2328,-22.5605,-15.8618,7.12502,3.86755,14.0828,-6.45797,10.5906,-1.07096,9.00974,23.0915,-7.64163,-37.9836,-23.7975,-6.99142,-20.2364,20.3428,-15.1105,13.0544,9.4593
3.85408,17.624,4.13263,21.5792,-7.97486,-4.63517,-9.22899,-1.10522,5.35477,-13.1732,-1.49426,4.40542,-8.91938,-1.03137,1.71609,-4.8352,17.8698,14.7429,14.4508,22.3299,2.72418,6.52728,11.771,0.548851,2.78299e-15,-3.89618e-14,-11.1819,-24.6453,25.7389,119.326,-59.4304,-3.13195,-44.2389,7.12502,22.5873,-72.9375,2.78299e-15,-3.89618e-14,25.2633,30.5055,-18.7354,28.8799,37.6918,-23.1451,-16.0168,7.12502,3.30298,13.9374,-6.44717,10.5803,-1.04416,8.99554,23.1128,-7.63401,-38.0902,-23.8599,-6.8001,-20.2511,20.407,-15.1571,12.8752,9.43216
3.85459,17.623,4.12935,21.5581,-7.875,-4.71096,-9.05369,-1.13888,5.4224,-13.2537,-1.51944,4.44809,-9.11556,-1.05009,1.73525,-4.67923,17.7772,14.7922,14.5841,22.2451,2.6082,6.56112,11.731,0.494952,4.1546e-14,-4.85035e-14,-11.0357,-24.6125,25.6243,119.308,-59.452,-2.7324,-44.0197,7.12502,22.9708,-72.6711,4.1546e-14,-4.85035e-14,25.487,30.7459,-18.3622,28.738,37.1215,-23.0801,-16.2781,7.12502,3.3657,13.6751,-6.3032,10.5331,-0.907947,8.87246,23.1528,-7.66908,-38.1363,-23.8698,-6.77458,-20.1762,20.494,-15.1667,12.8802,9.18593
3.8563,17.6214,4.12468,21.4885,-7.80086,-4.75502,-8.87105,-1.17452,5.45417,-13.277,-1.54813,4.4928,-9.24838,-1.06582,1.77361,-4.75683,17.7209,14.6553,14.8792,22.1587,2.68402,6.64222,11.6974,0.544789,9.14409e-15,2.38542e-15,-10.8957,-24.6633,25.567,119.334,-59.6276,-2.44264,-44.0788,7.12502,23.2488,-72.6954,9.14409e-15,2.38542e-15,25.828,31.338,-17.7279,28.5064,36.061,-22.9521,-16.5509,7.12502,3.48933,13.4003,-6.08864,10.512,-0.811544,8.65372,23.1613,-7.72972,-38.1449,-23.8311,-6.77407,-20.1428,20.5931,-15.1855,12.8957,9.04624
3.85998,17.6235,4.1201,21.4729,-7.70225,-4.81223,-8.79545,-1.18992,5.49338,-13.2415,-1.5619,4.53619,-9.25183,-1.073,1.79926,-5.25791,17.7264,14.3786,15.3113,22.0669,2.9572,6.79833,11.6677,0.712793,2.80286e-14,-3.49861e-14,-10.8468,-24.711,25.5318,119.362,-59.6498,-2.8679,-44.2276,7.12502,22.8407,-72.8951,2.80286e-14,-3.49861e-14,26.0245,31.6999,-17.3265,28.342,35.3811,-22.9689,-16.5506,7.12502,3.47312,13.4008,-5.94444,10.4542,-0.710785,8.46773,23.1404,-7.76061,-38.2022,-23.8891,-6.77911,-20.0643,20.6682,-15.1855,12.78,9.19933
3.86345,17.6243,4.12055,21.4895,-7.59598,-4.86502,-8.97696,-1.1745,5.59414,-13.1025,-1.56752,4.52282,-8.99202,-1.08165,1.7145,-5.76407,17.7237,14.2969,15.6524,21.972,3.03593,6.97072,11.6283,0.802545,-1.68967e-14,3.65764e-14,-10.8856,-24.8241,25.4291,119.34,-59.5046,-3.38663,-44.3017,7.12502,22.3429,-73.0298,-1.68967e-14,3.65764e-14,26.1228,31.8786,-17.224,28.2341,34.9718,-22.878,-16.4406,7.12502,3.56092,13.5094,-5.8534,10.3761,-0.621283,8.37958,23.1595,-7.76372,-38.2049,-23.9397,-6.97189,-19.9467,20.703,-15.2126,12.8227,9.32123
3.8651,17.623,4.11969,21.485,-7.55386,-4.90958,-9.15849,-1.1734,5.67982,-12.9265,-1.5956,4.50179,-8.69033,-1.09951,1.62774,-6.01539,17.7323,14.2399,15.8041,21.9392,3.07822,7.04909,11.6141,0.850142,-3.29983e-14,4.21423e-14,-10.8514,-25.0237,25.1939,119.264,-59.2817,-3.54957,-44.3022,7.12502,22.1864,-73.049,-3.29983e-14,4.21423e-14,26.0155,31.9643,-17.4204,28.198,34.8065,-21.7882,-16.197,7.12502,4.61325,13.7328,-5.85884,10.3584,-0.55952,8.44708,23.1339,-7.77966,-38.122,-23.9011,-6.91018,-19.9187,20.6842,-15.2515,12.7474,9.24784
3.86568,17.6232,4.11095,21.4523,-7.55301,-4.85398,-9.01366,-1.23773,5.56441,-12.9565,-1.66212,4.5366,-8.80164,-1.12198,1.73481,-5.83078,17.713,14.2047,15.853,21.9466,3.08997,7.03034,11.6203,0.842732,-2.08724e-14,-5.56597e-15,-10.6165,-24.9776,24.9655,119.2,-59.0624,-3.41015,-44.1756,7.12502,22.3203,-72.9064,-2.08724e-14,-5.56597e-15,25.6493,31.5136,-17.8814,28.2795,35.1549,-20.6095,-15.8081,7.12502,5.75133,14.0939,-5.95486,10.3473,-0.608102,8.64971,22.9949,-7.7989,-38.0918,-23.8679,-6.60125,-20.0517,20.6303,-15.2129,12.4448,9.01446
3.86509,17.6247,4.09871,21.3719,-7.61016,-4.65777,-8.83214,-1.25684,5.30179,-13.0641,-1.66014,4.50424,-9.0169,-1.10187,1.85763,-5.34396,17.5854,14.3151,15.7676,21.869,2.93452,6.94977,11.5805,0.725847,-1.2921e-14,-6.36111e-15,-10.4623,-24.744,24.9045,119.162,-59.0024,-3.39126,-44.1395,7.12502,22.3384,-72.8681,-1.2921e-14,-6.36111e-15,25.5554,31.0243,-18.0115,28.3465,35.4147,-20.1992,-15.918,7.12502,6.14747,13.9728,-6.08013,10.3485,-0.811736,8.91578,22.8623,-7.79243,-38.2432,-23.8248,-6.57028,-20.2776,20.5696,-15.0889,12.4082,8.73179
3.8647,17.6276,4.08836,21.3547,-7.62005,-4.63841,-8.78058,-1.20943,5.26633,-13.0685,-1.5934,4.44976,-9.05021,-1.06831,1.8212,-5.10385,17.4454,14.3901,15.66,21.7246,2.8445,6.88697,11.5082,0.645689,1.98785e-15,-7.95139e-15,-10.4759,-24.6242,24.8459,119.183,-59.1012,-3.93612,-44.4296,7.12502,21.8153,-73.22,1.98785e-15,-7.95139e-15,25.865,31.2467,-17.6063,28.2893,34.9873,-19.9814,-16.3175,7.12502,6.35779,13.5671,-6.24522,10.358,-0.812234,9.17391,22.8382,-7.80398,-38.2693,-23.8092,-6.64238,-20.2722,20.5147,-14.9958,12.4759,8.71123
3.86546,17.6308,4.0837,21.4056,-7.58426,-4.74434,-8.79406,-1.34809,5.38345,-13.4054,-1.75694,4.64109,-9.43741,-1.15767,1.98213,-3.55196,17.3347,14.2821,15.5883,21.8409,2.90424,6.59837,11.5787,0.531667,-6.7388e-14,6.52014e-14,-9.56142,-24.096,24.3547,119.296,-59.1088,-4.39384,-44.7094,7.12502,21.3757,-73.5503,-6.7388e-14,6.52014e-14,25.4745,30.4592,-17.8119,28.3351,34.6717,-20.3333,-16.2562,7.12502,6.01801,13.6383,-6.38717,10.3529,-0.679459,9.32988,22.8498,-7.82456,-38.06,-23.8683,-6.62079,-20.1323,20.4858,-14.9837,12.3974,8.9938
3.86625,17.6327,4.0819,21.4168,-7.57037,-4.77776,-8.71904,-1.23006,5.36722,-13.1678,-1.60968,4.5178,-9.20459,-1.08427,1.84694,-5.41699,17.3337,14.0961,16.705,21.4578,3.39565,7.17858,11.4347,0.895053,-1.74931e-14,3.10104e-14,-10.0825,-24.379,24.5225,119.311,-58.9314,-4.53437,-44.7552,7.12502,21.2407,-73.6114,-1.74931e-14,3.10104e-14,25.9195,31.204,-17.3981,28.2669,34.5379,-21.2794,-16.0419,7.12502,5.10455,13.8766,-6.38859,10.3516,-0.628956,9.30654,22.8213,-7.78595,-37.9123,-23.9351,-6.60401,-20.0837,20.5186,-14.9577,12.3564,8.98522
3.86654,17.6334,4.07869,21.3841,-7.50829,-4.79011,-8.74214,-1.17878,5.37705,-12.9578,-1.55649,4.45572,-8.94929,-1.05689,1.76181,-6.10172,17.2583,14.02,16.9001,21.245,3.4029,7.33721,11.3278,0.956898,-3.35946e-14,2.06736e-14,-10.3759,-24.6036,24.6372,119.309,-58.8362,-4.6997,-44.5948,7.12502,21.0819,-73.4688,-3.35946e-14,2.06736e-14,25.9635,31.4243,-17.4078,28.3395,35.0778,-22.7324,-16.1277,7.12502,3.7015,13.8199,-6.24535,10.3168,-0.559537,9.15531,22.8082,-7.77623,-37.9175,-23.9654,-6.52292,-20.0784,20.5886,-14.9406,12.2542,8.77038
3.86747,17.6333,4.07491,21.3692,-7.41147,-4.8269,-8.88379,-1.21274,5.48864,-12.9393,-1.61709,4.47825,-8.85286,-1.09508,1.71796,-5.40958,17.1345,13.8752,16.5086,21.2319,3.28562,7.08817,11.3017,0.844245,-3.43897e-14,-7.95139e-16,-10.2456,-24.5269,24.6293,119.344,-58.7902,-4.19558,-44.2701,7.12502,21.5661,-73.0893,-3.43897e-14,-7.95139e-16,25.6986,31.0481,-17.7283,28.3705,35.1027,-23.3788,-16.3052,7.12502,3.07727,13.6524,-6.10837,10.255,-0.454632,9.00384,22.8596,-7.8626,-38.101,-24.0045,-6.38056,-20.0561,20.6477,-14.9857,12.0244,8.98785
3.8707,17.6335,4.0717,21.38,-7.29424,-4.87655,-8.87988,-1.16784,5.51239,-12.7433,-1.56701,4.46459,-8.63018,-1.06761,1.6795,-6.6189,17.0977,13.6207,17.075,20.9832,3.45295,7.41822,11.186,1.03816,-2.44505e-14,-1.19271e-14,-10.5552,-24.8268,24.8837,119.346,-58.8394,-3.38729,-44.1028,7.12502,22.3422,-72.8309,-2.44505e-14,-1.19271e-14,25.6329,31.1665,-17.8271,28.3577,35.0483,-22.4761,-15.9559,7.12502,3.94904,13.9873,-6.05421,10.1689,-0.353095,8.94924,22.8987,-7.91588,-38.2011,-24.0525,-6.22341,-20.0315,20.6852,-14.9957,11.7687,9.04779
3.87186,17.6334,4.06575,21.3427,-7.23126,-4.88952,-8.65139,-1.17883,5.49133,-12.7715,-1.55712,4.49714,-8.79132,-1.06032,1.73575,-7.01987,16.9813,13.585,17.5362,20.7906,3.31277,7.6428,11.0893,1.04393,2.28602e-14,-7.95139e-15,-10.4418,-24.7896,24.8717,119.363,-58.9036,-3.37054,-44.1447,7.12502,22.3583,-72.8709,2.28602e-14,-7.95139e-15,25.4876,30.9404,-17.9191,28.432,35.229,-21.5218,-15.7682,7.12502,4.87056,14.1558,-6.05448,10.1326,-0.300788,9.03631,22.8675,-7.9349,-38.1283,-24.0317,-6.13062,-20.0355,20.6955,-14.9464,11.6493,8.75456
3.87033,17.6329,4.05636,21.3013,-7.30114,-4.80677,-8.51174,-1.21644,5.37378,-12.8088,-1.59131,4.49138,-8.90884,-1.06881,1.8013,-6.87794,16.8518,13.7066,17.72,20.6809,2.99445,7.7246,11.0241,0.922625,8.54774e-15,-1.03368e-14,-10.1346,-24.7323,24.5981,119.35,-58.864,-3.50148,-44.1564,7.12502,22.2326,-72.8977,8.54774e-15,-1.03368e-14,25.6152,31.2654,-17.6159,28.3462,34.7209,-21.341,-16.2134,7.12502,5.04507,13.7066,-6.1689,10.1764,-0.400365,9.2307,22.8071,-8.00198,-38.137,-24.0208,-6.15818,-20.114,20.6746,-14.8957,11.6858,9.00855
3.87017,17.632,4.04808,21.3077,-7.45648,-4.69008,-8.56522,-1.27416,5.25484,-12.9162,-1.66803,4.46473,-8.9973,-1.10082,1.84222,-6.10632,16.7635,13.7642,17.6811,20.6901,2.93363,7.59661,11.0352,0.825267,-1.21259e-14,3.65764e-14,-9.65684,-24.5727,24.1696,119.348,-59.0058,-3.75597,-44.3244,7.12502,21.9883,-73.0946,-1.21259e-14,3.65764e-14,25.5446,31.1236,-17.6954,28.3398,34.5681,-21.2014,-16.1268,7.12502,5.17984,13.7899,-6.40201,10.2624,-0.597489,9.46192,22.7174,-8.01925,-38.0896,-24.0699,-6.17765,-20.2461,20.6409,-14.8076,11.7943,9.15147
3.87222,17.63,4.04102,21.2912,-7.50095,-4.61308,-8.60326,-1.32731,5.20633,-13.1327,-1.72981,4.48758,-9.2235,-1.13068,1.90481,-4.81963,16.6039,13.7749,17.5244,20.694,2.86092,7.33956,11.0438,0.673261,8.94531e-15,2.38542e-15,-9.1008,-24.265,23.8328,119.316,-59.1728,-4.89291,-44.9568,7.12502,20.8963,-73.8513,8.94531e-15,2.38542e-15,25.4783,30.6084,-17.7319,28.3549,34.5126,-20.3703,-15.8341,7.12502,5.9823,14.0615,-6.52978,10.275,-0.70602,9.64051,22.5727,-7.93649,-37.8373,-24.0923,-6.13358,-20.3536,20.627,-14.7201,11.8114,8.61773
3.8751,17.6296,4.03602,21.2512,-7.36092,-4.58715,-8.55841,-1.27739,5.16142,-12.833,-1.67396,4.4378,-8.90107,-1.0946,1.85999,-6.25739,16.5718,13.6909,18.2371,20.4344,2.82844,7.80041,10.9134,0.817181,2.62396e-14,-7.95139e-16,-9.3352,-24.8719,23.8419,119.131,-59.0055,-5.07065,-45.3143,7.12502,20.7255,-74.2276,2.62396e-14,-7.95139e-16,26.041,31.8595,-16.89,28.1302,33.8174,-19.7778,-15.9961,7.12502,6.55428,13.8825,-6.49012,10.1569,-0.666547,9.75131,22.4788,-7.90744,-37.6093,-24.104,-5.98966,-20.4049,20.6413,-14.7571,11.5247,8.57272
3.87711,17.631,4.03262,21.2152,-7.21122,-4.605,-8.5756,-1.41105,5.24904,-13.0815,-1.83878,4.54142,-9.18194,-1.18435,1.93674,-4.72433,16.3594,13.8815,18.0986,20.4444,2.42741,7.5619,10.9135,0.530369,-2.84262e-14,2.8625e-14,-8.53748,-24.4888,23.428,119.045,-58.9093,-3.80536,-45.0373,7.12502,21.9409,-73.8131,-2.84262e-14,2.8625e-14,25.5449,30.724,-17.4086,28.3481,34.6116,-20.6638,-16.004,7.12502,5.69893,13.8993,-6.48687,10.0468,-0.57175,9.94125,22.4278,-7.95341,-37.6396,-24.0978,-5.87013,-20.3948,20.6326,-14.8142,11.2279,9.0411
3.87932,17.6323,4.0225,21.1809,-7.14221,-4.60308,-8.43015,-1.29681,5.13904,-12.5856,-1.70109,4.41259,-8.68964,-1.10207,1.83558,-7.32125,16.3753,13.7994,19.2085,20.0333,2.55932,8.33252,10.7147,0.829782,3.37934e-15,-1.27222e-14,-9.3532,-25.1423,23.8214,119.038,-58.9183,-3.16106,-44.8266,7.12502,22.5594,-73.5286,3.37934e-15,-1.27222e-14,25.7677,31.6039,-17.2339,28.351,34.7522,-22.0316,-16.0109,7.12502,4.37829,13.9239,-6.51265,9.99767,-0.540857,10.0442,22.4546,-7.96389,-37.6817,-24.1053,-5.89147,-20.3827,20.6239,-14.7836,11.1612,9.23353
3.87914,17.6343,4.00138,21.1123,-7.16835,-4.44692,-8.20809,-1.32057,4.89637,-12.5255,-1.71522,4.34991,-8.73719,-1.09039,1.907,-7.63144,16.2933,13.6973,19.5304,19.8762,2.61385,8.47104,10.6419,0.883027,2.32578e-14,-2.62396e-14,-9.47069,-25.1928,23.8564,119.178,-59.2378,-3.17303,-44.7349,7.12502,22.5479,-73.4383,2.32578e-14,-2.62396e-14,25.8274,31.7398,-17.1671,28.356,34.5324,-22.5399,-16.0769,7.12502,3.88738,13.8674,-6.62361,10.0019,-0.701968,10.1706,22.5128,-7.991,-37.5222,-24.1332,-5.91719,-20.5314,20.5922,-14.6782,11.1393,9.1394
3.88598,17.6319,4.00463,21.0498,-7.10972,-4.41215,-8.34164,-1.40183,5.05567,-12.82,-1.82686,4.3179,-9.00892,-1.16801,1.79674,-6.01726,16.0347,13.8322,19.3757,19.8007,2.42829,8.17367,10.6186,0.646488,-1.11319e-14,-1.74931e-14,-8.88947,-24.52,23.4858,119.285,-59.3706,-3.21097,-44.4241,7.12502,22.5115,-73.1319,-1.11319e-14,-1.74931e-14,25.7544,30.9383,-17.3343,28.4762,34.6032,-22.3792,-15.9751,7.12502,4.0426,13.9663,-6.59377,9.75586,-0.716755,10.3133,22.4639,-7.8126,-37.2292,-24.016,-5.83761,-20.6325,20.5653,-14.7186,11.008,8.98597
3.89095,17.6325,3.99638,20.9824,-7.05899,-4.4607,-8.19246,-1.4226,5.14095,-12.7671,-1.84623,4.33191,-9.03788,-1.18391,1.7677,-6.69432,15.9214,13.7334,20.1156,19.5617,2.40494,8.52233,10.5049,0.722,2.76311e-14,-1.35174e-14,-8.59579,-24.4717,23.1683,119.19,-58.8842,-3.38339,-44.0953,7.12502,22.346,-72.8231,2.76311e-14,-1.35174e-14,25.7002,30.9272,-17.3517,28.5204,34.6577,-22.4345,-15.6771,7.12502,3.9892,14.2653,-6.59651,9.70065,-0.645349,10.3998,22.4889,-7.82628,-37.1668,-23.9574,-5.84399,-20.5951,20.56,-14.7096,11.0098,8.97477
3.89468,17.6339,3.98823,20.899,-6.99193,-4.52469,-8.05856,-1.4416,5.22711,-12.7341,-1.86217,4.36103,-9.08088,-1.19759,1.75502,-6.49789,15.7296,13.8109,20.1497,19.3966,2.02915,8.53831,10.4025,0.560883,-4.56211e-14,1.43125e-14,-8.26435,-24.4021,22.8188,119.101,-58.5479,-3.98057,-44.3718,7.12502,21.7726,-73.1672,-4.56211e-14,1.43125e-14,25.6231,30.6744,-17.4463,28.5525,34.7146,-22.547,-15.6513,7.12502,3.8806,14.2931,-6.48319,9.67018,-0.549266,10.3289,22.5711,-7.86572,-37.238,-23.9385,-6.00252,-20.4963,20.612,-14.739,11.1445,8.85554
3.89878,17.6322,3.98274,20.8408,-6.87648,-4.55194,-8.02796,-1.4785,5.30131,-12.7194,-1.90992,4.37873,-9.08571,-1.22676,1.73368,-6.02562,15.5259,13.868,20.0231,19.2552,1.67399,8.44744,10.313,0.378047,1.80894e-14,-2.06736e-14,-7.95634,-24.3977,22.545,119.076,-58.6524,-4.44276,-44.9491,7.12502,21.3287,-73.7954,1.80894e-14,-2.06736e-14,25.6733,30.6503,-17.3559,28.5373,34.6098,-22.3625,-15.8452,7.12502,4.05872,14.0959,-6.40056,9.48629,-0.470124,10.3831,22.4975,-7.78979,-37.1287,-23.9177,-6.04644,-20.4636,20.652,-14.7229,11.0864,8.68365
3.90059,17.6319,3.97285,20.909,-6.79709,-4.55675,-8.04428,-1.4833,5.29909,-12.769,-1.91462,4.37966,-9.13342,-1.22968,1.73822,-6.06635,15.4303,13.5923,20.4192,19.1131,1.89926,8.52958,10.2562,0.482992,2.28602e-14,-1.74931e-14,-7.74641,-24.3505,22.4257,119.079,-58.7884,-4.26116,-45.0471,7.12502,21.5032,-73.8736,2.28602e-14,-1.74931e-14,25.7751,30.5657,-17.231,28.5652,34.7255,-22.5729,-15.8212,7.12502,3.8555,14.1237,-6.50592,9.32485,-0.434744,10.4716,22.3392,-7.82539,-37.0017,-24.0517,-6.02609,-20.4428,20.6929,-14.6361,10.9699,8.8286
3.90049,17.6332,3.96011,21.0293,-6.78032,-4.4877,-8.11694,-1.48174,5.18826,-12.8052,-1.91576,4.35468,-9.12798,-1.22206,1.77149,-6.20378,15.3937,13.1583,20.8202,19.0219,2.30222,8.59828,10.2272,0.676055,3.18055e-14,-2.78299e-14,-7.60371,-24.2586,22.3504,119.086,-58.8319,-3.92421,-45.084,7.12502,21.8267,-73.8731,3.18055e-14,-2.78299e-14,25.6961,30.1847,-17.4069,28.6389,34.9434,-22.7633,-15.7391,7.12502,3.67168,14.209,-6.68492,9.2385,-0.515233,10.5,22.3342,-7.88353,-36.765,-24.2702,-5.98275,-20.5077,20.7596,-14.6553,10.9216,8.78322
3.90226,17.6334,3.94997,21.0254,-6.73255,-4.52957,-8.09089,-1.49051,5.23026,-12.7641,-1.92878,4.34474,-9.09823,-1.23209,1.73637,-6.55468,15.284,12.833,21.3987,18.7935,2.64781,8.77798,10.136,0.851434,1.32192e-14,-4.77083e-15,-7.4063,-24.1997,22.1184,119.014,-58.7387,-3.49128,-45.3872,7.12502,22.2424,-74.1273,1.32192e-14,-4.77083e-15,25.5013,29.666,-17.7851,28.7399,35.2474,-22.6016,-15.6374,7.12502,3.8278,14.308,-6.7031,9.18066,-0.446819,10.5144,22.4931,-7.83941,-36.5288,-24.3224,-5.80796,-20.5048,20.8421,-14.7387,10.7722,8.40088
3.90515,17.6334,3.94419,20.9119,-6.60188,-4.73735,-7.97012,-1.46127,5.48162,-12.6257,-1.89153,4.32943,-9.02217,-1.23396,1.57846,-7.15583,15.0195,12.8348,22.1152,18.328,2.69354,9.10759,9.92736,0.896203,-2.52457e-14,1.59028e-15,-7.2674,-24.2609,21.8213,118.838,-58.3305,-3.15938,-45.3385,7.12502,22.561,-74.0403,-2.52457e-14,1.59028e-15,25.3321,29.1708,-18.2264,28.9608,36.2427,-22.8723,-15.4137,7.12502,3.56645,14.5362,-6.53232,9.13807,-0.143063,10.5043,22.5603,-7.80921,-36.5509,-24.262,-5.70213,-20.2921,20.9467,-14.8161,10.5743,8.51282
3.90634,17.6342,3.9382,20.8331,-6.51813,-4.88,-7.90045,-1.42794,5.63494,-12.489,-1.85071,4.3211,-8.91305,-1.22434,1.47994,-7.40488,14.7079,13.0321,22.4823,17.9254,2.26168,9.32413,9.71457,0.723738,-6.95746e-15,2.06736e-14,-7.10552,-24.3737,21.5833,118.727,-57.9527,-3.3827,-45.0216,7.12502,22.3466,-73.7492,-6.95746e-15,2.06736e-14,25.2882,29.0328,-18.3855,29.1401,37.0273,-22.9688,-15.4433,7.12502,3.4732,14.5081,-6.38617,9.12704,0.0614892,10.4262,22.6216,-7.85825,-36.6356,-24.2799,-5.65157,-20.1328,21.0795,-14.8768,10.478,8.66988
3.90782,17.638,3.92819,20.8298,-6.55401,-4.98466,-7.93355,-1.41829,5.71565,-12.3917,-1.84561,4.36341,-8.78548,-1.22415,1.47383,-7.28836,14.5405,12.9905,22.5386,17.7987,1.91099,9.34468,9.62067,0.592294,-9.74045e-15,4.37326e-14,-6.75747,-24.4571,21.2703,118.689,-57.9454,-4.05497,-45.1633,7.12502,21.7012,-73.9669,-9.74045e-15,4.37326e-14,25.5887,29.5688,-17.8735,28.9907,36.3232,-22.4335,-15.9205,7.12502,3.9902,14.0219,-6.47221,9.15821,0.156965,10.4699,22.724,-7.91927,-36.6398,-24.3651,-5.56318,-20.037,21.1668,-14.9179,10.4762,8.59685
3.91126,17.6414,3.91503,20.8395,-6.59602,-5.02732,-8.01519,-1.41375,5.7498,-12.2539,-1.85474,4.3777,-8.58255,-1.22714,1.45904,-7.59493,14.4818,12.6151,22.8049,17.7046,2.04539,9.43504,9.56165,0.704953,-8.94531e-15,-2.46493e-14,-6.42419,-24.5974,20.9364,118.601,-58.0053,-4.30703,-45.4061,7.12502,21.4591,-74.2375,-8.94531e-15,-2.46493e-14,26.2411,30.6649,-16.9027,28.6086,34.7054,-21.698,-16.3034,7.12502,4.70038,13.6245,-6.71509,9.14655,0.170974,10.7568,22.6519,-7.91938,-36.6867,-24.4399,-5.56261,-19.9921,21.1803,-14.9178,10.5046,8.88769
3.91338,17.6405,3.89802,20.7949,-6.70334,-4.83806,-7.92576,-1.4124,5.47232,-12.1594,-1.84594,4.34151,-8.51145,-1.19874,1.57089,-8.12076,14.3516,12.1651,23.2456,17.4834,2.2375,9.60812,9.44305,0.855231,-2.09718e-14,9.54166e-15,-6.15888,-24.7172,20.7189,118.485,-57.9802,-3.68092,-45.0333,7.12502,22.0603,-73.795,-2.09718e-14,9.54166e-15,26.7262,31.3621,-16.2148,28.326,33.4849,-21.5011,-16.2342,7.12502,4.89049,13.6894,-6.94841,9.14711,-0.0817081,11.067,22.5931,-7.94494,-36.8848,-24.4872,-5.64514,-20.1904,21.1985,-14.862,10.5797,9.25618
3.91339,17.638,3.87675,20.6843,-6.83077,-4.7178,-7.63155,-1.39196,5.2066,-12.1093,-1.7914,4.32697,-8.60859,-1.14922,1.71015,-8.27247,14.1171,11.8058,23.5328,17.2157,2.17878,9.69163,9.28711,0.868923,5.26779e-15,1.66979e-14,-5.95949,-24.7305,20.5658,118.442,-58.0094,-3.29115,-44.6608,7.12502,22.4345,-73.3778,5.26779e-15,1.66979e-14,26.9094,31.4099,-15.9782,28.2602,33.1813,-21.6005,-16.2616,7.12502,4.79457,13.6641,-7.08826,9.23186,-0.242167,11.2899,22.6187,-8.03399,-37.0696,-24.4913,-5.65651,-20.323,21.2611,-14.8784,10.6276,9.43509
3.9156,17.6359,3.8622,20.5928,-6.79882,-4.89148,-7.40367,-1.3163,5.34234,-12.0096,-1.67805,4.3158,-8.63163,-1.10304,1.62626,-8.60444,13.9106,11.5329,23.9885,16.9265,2.22107,9.86895,9.13677,0.92572,8.64713e-15,1.27222e-14,-6.0627,-24.7761,20.6081,118.579,-58.3219,-3.29331,-44.8058,7.12502,22.4324,-73.5231,8.64713e-15,1.27222e-14,27.1096,31.3583,-15.8371,28.3419,33.5898,-20.8229,-16.3785,7.12502,5.54534,13.5289,-7.16121,9.27075,-0.0257864,11.5461,22.5393,-8.04622,-37.0036,-24.4447,-5.48535,-20.1742,21.3155,-14.9301,10.5197,9.24135
3.91853,17.6343,3.85335,20.6018,-6.76051,-5.09649,-7.32132,-1.19503,5.51821,-11.849,-1.52185,4.25863,-8.50354,-1.03904,1.462,-9.45584,13.7556,11.4239,24.5005,16.5976,2.3152,10.1757,8.97896,1.01864,2.51463e-14,-5.56597e-15,-6.3595,-24.9989,20.7453,118.706,-58.6943,-3.25369,-45.0658,7.12502,22.4705,-73.7786,2.51463e-14,-5.56597e-15,27.2513,31.2932,-15.902,28.4739,34.1832,-20.1233,-16.3174,7.12502,6.22077,13.5713,-7.31272,9.25754,0.205725,11.8043,22.3219,-7.95829,-36.918,-24.4815,-5.31155,-19.9917,21.3446,-14.8942,10.4366,8.91023
3.91849,17.6343,3.84334,20.6278,-6.86373,-5.05307,-7.36884,-1.26178,5.37362,-11.9197,-1.60639,4.33286,-8.54945,-1.06709,1.62328,-8.91024,13.5827,11.1862,24.4446,16.4865,2.25017,10.0304,8.90913,0.963615,1.00386e-14,4.77083e-15,-5.71974,-24.8058,20.3381,118.685,-58.7717,-3.7231,-45.1598,7.12502,22.0198,-73.9263,1.00386e-14,4.77083e-15,26.5788,30.211,-16.7554,28.7285,35.0358,-20.9191,-16.4054,7.12502,5.45244,13.5044,-7.52862,9.32617,0.109958,12.0053,22.1205,-7.92176,-36.8649,-24.5689,-5.21189,-20.0639,21.3663,-14.854,10.4226,8.89399
3.92017,17.6348,3.83423,20.5777,-6.99085,-4.82495,-7.42985,-1.31047,5.08697,-11.9097,-1.67489,4.30071,-8.49045,-1.07843,1.74426,-8.68239,13.3727,10.8571,24.6162,16.2468,2.38633,9.99372,8.79119,1.00594,3.73715e-14,-1.98785e-14,-5.26503,-24.5529,20.0395,118.636,-58.6846,-4.00886,-45.0384,7.12502,21.7455,-73.837,3.73715e-14,-1.98785e-14,26.3189,29.6377,-17.1245,28.8861,35.5897,-22.0618,-16.4107,7.12502,4.34908,13.5247,-7.75186,9.33815,-0.193444,12.298,22.0537,-7.83755,-36.7246,-24.5419,-5.17885,-20.3468,21.3518,-14.845,10.3814,8.96332
3.92434,17.6343,3.81885,20.5475,-7.0594,-4.74757,-7.41235,-1.31548,4.99823,-11.8779,-1.68239,4.26732,-8.46082,-1.07591,1.75649,-8.46378,13.1588,10.682,24.7472,16.0052,2.38262,9.97288,8.66883,0.982632,1.71949e-14,-6.36111e-15,-4.96664,-24.3956,19.7944,118.565,-58.5202,-4.15851,-44.9973,7.12502,21.6017,-73.8124,1.71949e-14,-6.36111e-15,26.4284,29.6299,-17.0105,28.939,35.7818,-22.4279,-16.226,7.12502,3.99556,13.7163,-8.05865,9.23486,-0.316896,12.7102,21.9796,-7.6556,-36.6857,-24.5209,-5.18995,-20.4498,21.2886,-14.7651,10.3673,8.89945
3.92685,17.636,3.79559,20.6022,-7.10333,-4.80953,-7.28548,-1.29328,4.99194,-11.8586,-1.64369,4.26277,-8.51119,-1.05635,1.75863,-8.37945,12.9344,10.7093,24.7923,15.7795,2.04444,9.99544,8.53187,0.832474,-4.74101e-14,-2.06736e-14,-4.67649,-24.3511,19.4078,118.409,-58.221,-4.63061,-45.1226,7.12502,21.1483,-73.9891,-4.74101e-14,-2.06736e-14,26.7206,29.9634,-16.6782,28.9149,35.654,-22.6468,-16.0138,7.12502,3.78418,13.9323,-8.42341,9.19254,-0.278513,13.081,21.8786,-7.60106,-36.7568,-24.6439,-5.1347,-20.378,21.225,-14.6166,10.3348,9.00491
3.92974,17.6388,3.77638,20.6035,-7.07656,-4.77064,-7.09849,-1.27594,4.91533,-11.8157,-1.60941,4.1992,-8.56748,-1.03549,1.73737,-8.72529,12.7051,10.7957,25.1134,15.4887,1.70787,10.2001,8.36642,0.710918,-1.86858e-14,1.59028e-14,-4.45701,-24.4731,19.0871,118.24,-58.0291,-4.47,-45.0838,7.12502,21.3026,-73.933,-1.86858e-14,1.59028e-14,26.8399,29.9818,-16.7102,29.0079,35.877,-23.1216,-15.7595,7.12502,3.32569,14.1943,-8.62489,9.11584,-0.301872,13.3394,21.8022,-7.61843,-36.7757,-24.7403,-5.11591,-20.4078,21.2137,-14.5409,10.2596,9.2792
3.93539,17.64,3.76561,20.5613,-7.02808,-4.61533,-6.96592,-1.26024,4.81584,-11.8032,-1.5839,4.06598,-8.6275,-1.02102,1.65404,-8.83457,12.5023,10.8654,25.3243,15.2255,1.52683,10.3072,8.23169,0.621998,3.04141e-14,-3.18055e-15,-4.34761,-24.4759,18.9399,118.207,-58.011,-3.93879,-44.8775,7.12502,21.8127,-73.6682,3.04141e-14,-3.18055e-15,26.7368,29.4651,-17.1524,29.2675,36.6081,-22.6528,-15.5185,7.12502,3.7784,14.4277,-8.68104,8.93383,-0.451956,13.4854,21.7785,-7.55775,-36.6433,-24.7686,-5.14527,-20.5873,21.2414,-14.6213,10.1815,9.62778
3.94225,17.6421,3.75818,20.5428,-6.99184,-4.55977,-6.92605,-1.23304,4.82709,-11.8052,-1.54871,3.97995,-8.65474,-1.00884,1.55731,-8.69166,12.3448,10.7311,25.3971,15.0387,1.55499,10.2824,8.14005,0.61526,1.85864e-14,7.95139e-16,-4.23528,-24.2449,18.8519,118.278,-58.0851,-4.09171,-44.9978,7.12502,21.6659,-73.8056,1.85864e-14,7.95139e-16,26.5477,28.7158,-17.6824,29.548,37.4822,-21.5301,-15.267,7.12502,4.86254,14.6572,-8.69136,8.80341,-0.517388,13.5107,21.8233,-7.49364,-36.3967,-24.7949,-5.13979,-20.6701,21.272,-14.7195,10.0831,9.85707
3.94828,17.6446,3.75325,20.4771,-6.90354,-4.74953,-6.97782,-1.20237,5.07209,-11.6778,-1.52024,3.98643,-8.49098,-1.01193,1.42064,-8.81201,12.2047,10.4477,25.6225,14.8568,1.65247,10.3433,8.04232,0.678403,-1.23246e-14,-3.18055e-15,-4.05001,-24.1835,18.6745,118.269,-58.249,-4.67682,-45.4848,7.12502,21.1039,-74.3563,-1.23246e-14,-3.18055e-15,26.3986,28.2909,-18.0728,29.6978,37.906,-21.0571,-15.2428,7.12502,5.31919,14.6704,-8.58553,8.78027,-0.281825,13.4536,21.8777,-7.47126,-36.1484,-24.7344,-5.08909,-20.4858,21.3235,-14.7463,10.0128,9.51635
3.95122,17.6455,3.74894,20.4023,-6.84881,-4.97396,-7.06726,-1.1589,5.30019,-11.5224,-1.4797,3.99376,-8.27323,-1.00602,1.29172,-8.88232,12.0761,10.3274,25.7976,14.6965,1.63202,10.4034,7.95578,0.677719,-1.66979e-14,-8.74653e-15,-3.83533,-24.2045,18.4122,118.141,-58.1454,-4.35082,-45.5077,7.12502,21.417,-74.344,-1.66979e-14,-8.74653e-15,26.7583,28.7702,-17.6658,29.5946,37.1564,-20.5445,-15.5459,7.12502,5.81414,14.3543,-8.45059,8.86094,-0.00650008,13.3338,22.0178,-7.50213,-35.8473,-24.6831,-5.04223,-20.257,21.4265,-14.7399,10.0395,9.0725
3.95451,17.6453,3.74234,20.4106,-6.82371,-5.05663,-7.17281,-1.12434,5.3645,-11.4262,-1.44912,3.97108,-8.10677,-0.994001,1.22389,-8.97211,11.9473,10.3566,26.0151,14.5323,1.51184,10.5055,7.86969,0.625984,-3.13086e-14,0,-3.69568,-24.0845,18.2361,118.113,-57.9215,-3.82294,-45.126,7.12502,21.924,-73.9038,-3.13086e-14,0,27.3884,29.5521,-16.8718,29.4103,36.3201,-20.1003,-15.813,7.12502,6.24294,14.075,-8.34529,8.88475,0.0915892,13.1093,22.1578,-7.57883,-35.6093,-24.8112,-4.99515,-20.18,21.5949,-14.765,9.99524,9.12191
3.96106,17.6442,3.73524,20.4352,-6.72875,-5.14331,-7.23322,-1.13038,5.46816,-11.342,-1.46654,4.00448,-7.98171,-1.00678,1.19626,-9.19317,11.7256,10.5259,26.3277,14.3167,0.948367,10.7133,7.72175,0.408973,4.08502e-14,-2.22639e-14,-3.4439,-24.0362,18.0396,118.146,-57.8828,-4.35714,-44.9681,7.12502,21.411,-73.805,4.08502e-14,-2.22639e-14,27.9044,30.1697,-16.2059,29.2063,35.9366,-20.6336,-15.9118,7.12502,5.72809,13.9908,-8.2056,8.74962,0.210611,12.886,22.084,-7.5945,-35.7557,-24.9717,-4.96655,-20.0977,21.7755,-14.8416,9.88588,9.25329
3.96759,17.6424,3.72835,20.3823,-6.57869,-5.34546,-7.1463,-1.14432,5.71597,-11.2582,-1.48269,4.07543,-7.94767,-1.0293,1.13398,-9.48993,11.5349,10.6503,26.7492,14.1615,0.352701,10.978,7.59234,0.200953,9.24349e-15,1.43125e-14,-2.95153,-24.1514,17.6774,117.951,-57.803,-4.64737,-45.0435,7.12502,21.1322,-73.9119,9.24349e-15,1.43125e-14,27.9552,30.1152,-16.2238,29.2098,36.2327,-21.5505,-15.8156,7.12502,4.84276,14.109,-8.02227,8.55711,0.488486,12.766,21.779,-7.51078,-36.3709,-24.993,-4.92609,-19.8965,21.9264,-14.9313,9.77081,9.3116
3.97143,17.6426,3.71695,20.2716,-6.51594,-5.46431,-6.90902,-1.12924,5.83844,-11.1841,-1.44738,4.06839,-8.00512,-1.02091,1.0632,-9.85506,11.4836,10.4664,27.2128,14.0581,0.48897,11.1906,7.53957,0.300607,-1.67973e-14,5.56597e-15,-2.6143,-24.1846,17.4093,117.746,-57.7345,-4.24631,-45.29,7.12502,21.5174,-74.1148,-1.67973e-14,5.56597e-15,27.8666,29.6542,-16.5656,29.4065,36.8909,-22.0474,-15.5916,7.12502,4.36302,14.3435,-7.90181,8.5172,0.65728,12.6972,22.105,-7.42517,-35.5675,-24.9757,-4.84801,-19.7911,22.0669,-14.9871,9.66744,9.45345
3.97472,17.6444,3.69963,20.159,-6.49319,-5.44313,-6.67438,-1.12841,5.78917,-11.1006,-1.43112,4.02296,-8.04394,-1.00987,1.04559,-9.91707,11.4166,10.3294,27.2984,13.948,0.616503,11.2064,7.49035,0.354737,-2.6339e-14,8.74653e-15,-2.45056,-24.1515,17.2964,117.704,-57.8524,-4.48995,-45.5635,7.12502,21.2834,-74.4149,-2.6339e-14,8.74653e-15,28.1819,29.7305,-16.3202,29.3905,36.7927,-22.2357,-15.8178,7.12502,4.18115,14.1209,-7.8914,8.56625,0.663146,12.7597,21.8237,-7.58354,-36.3921,-24.9819,-4.79471,-19.8226,22.1627,-14.9756,9.61396,9.21447
3.97967,17.6449,3.68184,20.1894,-6.38528,-5.42742,-6.65609,-1.17272,5.77871,-11.0158,-1.49298,4.02771,-7.96015,-1.03724,1.05336,-9.83506,11.2871,10.2105,27.204,13.8475,0.422632,11.1525,7.41124,0.27896,2.28105e-14,-2.22639e-14,-2.15335,-24.1745,17.1118,117.64,-57.9861,-4.91604,-45.4459,7.12502,20.8741,-74.3429,2.28105e-14,-2.22639e-14,28.6496,30.2914,-15.7365,29.1438,35.8547,-22.193,-16.5082,7.12502,4.22242,13.4297,-8.06771,8.39609,0.679742,13.0552,21.9563,-7.47696,-35.6493,-25.1064,-4.7637,-19.8328,22.1736,-14.9079,9.49507,8.93324
3.98303,17.6459,3.65931,20.2901,-6.32218,-5.29694,-6.55756,-1.22691,5.60252,-11.0269,-1.55366,4.03295,-8.02216,-1.05418,1.16021,-9.88431,11.1796,9.79768,27.3546,13.7517,0.517084,11.1681,7.3388,0.363779,-2.70844e-14,4.69132e-14,-1.81748,-24.1101,16.9342,117.566,-57.7433,-4.86401,-44.9992,7.12502,20.9241,-73.8906,-2.70844e-14,4.69132e-14,29.0263,30.7001,-15.2242,29.0023,35.2116,-21.6305,-16.8132,7.12502,4.76558,13.1132,-8.41434,8.18698,0.542486,13.4401,21.8833,-7.41954,-35.4026,-25.3319,-4.73044,-19.9622,22.1481,-14.7872,9.34207,8.96642
3.98294,17.6466,3.6339,20.2906,-6.33841,-5.11593,-6.29935,-1.25683,5.32588,-11.0424,-1.5686,4.01596,-8.17572,-1.04202,1.30435,-9.81611,11.093,9.40708,27.4851,13.6771,0.669332,11.1526,7.28652,0.460725,-4.74101e-14,3.33958e-14,-1.47085,-24.0911,16.7705,117.465,-57.4263,-4.807,-44.8625,7.12502,20.9788,-73.7479,-4.74101e-14,3.33958e-14,29.1969,30.7648,-15.0209,29.1338,35.675,-20.906,-16.2499,7.12502,5.4651,13.6596,-8.71853,8.16583,0.344705,13.7845,21.9306,-7.46827,-35.2112,-25.4675,-4.69701,-20.1484,22.1543,-14.6783,9.24725,8.97168
3.98242,17.6479,3.61597,20.3116,-6.37415,-5.1438,-6.17966,-1.23708,5.26296,-11.0054,-1.53288,4.02579,-8.19926,-1.01829,1.35133,-9.60426,10.9888,9.12818,27.4223,13.5968,0.697389,11.0556,7.22957,0.48123,-1.44119e-15,2.38542e-15,-1.09077,-24.0803,16.4986,117.316,-57.3511,-4.68814,-45.0657,7.12502,21.093,-73.9385,-1.44119e-15,2.38542e-15,29.4514,30.9184,-14.7643,29.2105,35.7263,-21.2623,-15.7712,7.12502,5.12112,14.1469,-9.01602,8.24508,0.361361,14.1026,21.8725,-7.53443,-35.2595,-25.5835,-4.68343,-20.0997,22.1894,-14.6026,9.22221,9.06654
3.98333,17.6502,3.599,20.3501,-6.44269,-5.26434,-5.9722,-1.19557,5.26665,-11.0004,-1.45854,4.05648,-8.31157,-0.980895,1.38769,-9.57928,10.8992,8.92467,27.4331,13.5141,0.694022,11.0324,7.17221,0.495407,-2.97183e-14,1.35174e-14,-0.722741,-23.9226,16.2377,117.203,-57.2922,-4.62063,-45.2503,7.12502,21.1579,-74.1158,-2.97183e-14,1.35174e-14,29.7202,30.9185,-14.5629,29.1836,35.2218,-21.7643,-16.1058,7.12502,4.63638,13.8234,-9.29167,8.35392,0.453949,14.3327,21.7363,-7.59354,-35.5551,-25.7422,-4.66795,-19.9542,22.2664,-14.5327,9.29056,9.06283
3.98619,17.6505,3.5808,20.3627,-6.4967,-5.354,-5.678,-1.16752,5.24515,-10.9819,-1.3953,4.08974,-8.45824,-0.946895,1.44276,-9.87834,10.8404,8.68483,27.6484,13.4298,0.789238,11.1394,7.11697,0.57811,-1.16786e-14,2.54444e-14,-0.359495,-23.8542,16.0872,117.128,-57.3794,-4.74624,-45.2769,7.12502,21.0372,-74.1559,-1.16786e-14,2.54444e-14,30.2725,31.3135,-13.9729,29.0026,34.4478,-21.0312,-16.4879,7.12502,5.34422,13.4247,-9.4589,8.39162,0.520779,14.4843,21.7647,-7.57667,-35.7137,-25.8862,-4.67519,-19.8557,22.3832,-14.4826,9.43001,8.7822
3.99058,17.6498,3.56655,20.3898,-6.46915,-5.45424,-5.55347,-1.1516,5.2953,-10.9321,-1.36458,4.1142,-8.47555,-0.933788,1.4422,-10.1488,10.7902,8.27671,27.9213,13.3442,1.07695,11.2337,7.06767,0.752411,-1.17283e-14,7.15625e-15,-0.0212161,-23.9407,15.9188,117.028,-57.6009,-4.56646,-45.1166,7.12502,21.2099,-73.9762,-1.17283e-14,7.15625e-15,31.326,32.3323,-12.6843,28.6255,33.1058,-20.5625,-16.6355,7.12502,5.79679,13.2652,-9.58112,8.28464,0.633291,14.6426,21.6835,-7.43248,-35.653,-26.0094,-4.66905,-19.7555,22.4988,-14.4833,9.43509,8.71296
3.99171,17.6494,3.54999,20.3678,-6.43054,-5.46714,-5.49875,-1.13329,5.25285,-10.8347,-1.34125,4.09283,-8.39569,-0.917487,1.43939,-10.4073,10.618,8.08913,28.1848,13.1235,1.0667,11.3606,6.94309,0.770918,-7.90169e-15,-1.74931e-14,0.321142,-24.1372,15.6259,116.827,-57.5908,-3.99558,-45.0526,7.12502,21.7582,-73.8496,-7.90169e-15,-1.74931e-14,31.8264,32.6744,-12.224,28.5851,32.8316,-21.2339,-16.7734,7.12502,5.14847,13.1441,-9.67084,8.23914,0.670786,14.7363,21.2075,-7.36961,-36.2821,-26.1123,-4.5974,-19.7493,22.6272,-14.5052,9.31142,8.80966
3.99441,17.6485,3.53017,20.3174,-6.43887,-5.42661,-5.3759,-1.09478,5.18633,-10.7211,-1.28904,4.01767,-8.33671,-0.887436,1.39358,-10.9027,10.2646,8.18985,28.522,12.6534,0.729698,11.604,6.69095,0.612468,-2.5345e-14,1.11319e-14,0.662834,-24.2894,15.2794,116.606,-57.3652,-3.65952,-45.1436,7.12502,22.0809,-73.9029,-2.5345e-14,1.11319e-14,31.7613,32.3514,-12.6105,28.8922,33.4846,-21.7579,-16.7082,7.12502,4.64252,13.221,-9.7177,8.22337,0.618218,14.7276,21.6482,-7.40125,-35.1964,-26.2204,-4.53782,-19.8099,22.7814,-14.5008,9.25502,8.76573
4.00519,17.6491,3.51576,20.307,-6.31311,-5.53733,-5.25748,-1.07323,5.41973,-10.654,-1.25659,3.95982,-8.33994,-0.891458,1.20327,-11.2764,9.95979,8.25527,28.7903,12.2369,0.503959,11.7875,6.47555,0.492048,-6.0679e-14,4.05521e-14,0.943594,-24.2698,14.9828,116.467,-57.2113,-3.53746,-45.0372,7.12502,22.1981,-73.7826,-6.0679e-14,4.05521e-14,31.7109,31.8833,-13.0392,29.1716,34.0855,-21.7752,-16.5398,7.12502,4.62587,13.3897,-9.64027,7.99865,0.754024,14.6489,21.8107,-7.31983,-35.2275,-26.3496,-4.53529,-19.712,22.9551,-14.517,9.17088,8.7728
4.01422,17.6515,3.50557,20.375,-6.12506,-5.74294,-5.24227,-1.06828,5.7287,-10.6538,-1.24739,3.97147,-8.36118,-0.910915,1.04566,-11.4048,9.83531,8.08707,29.0753,12.0745,0.565437,11.8998,6.39015,0.531951,2.42517e-14,-5.32743e-14,1.21998,-24.1725,14.803,116.401,-57.2292,-3.71858,-45.1618,7.12502,22.0242,-73.9278,2.42517e-14,-5.32743e-14,31.5308,31.1799,-13.6315,29.4205,34.9844,-21.209,-16.5091,7.12502,5.17254,13.4078,-9.55936,7.82222,1.01643,14.5084,21.9113,-7.34767,-35.2988,-26.5504,-4.46992,-19.5019,23.1398,-14.5489,9.00379,8.72773
4.01754,17.6525,3.49695,20.4426,-6.0623,-5.94046,-5.2569,-1.05331,5.91157,-10.6537,-1.22596,4.01535,-8.3592,-0.91264,0.990652,-11.5071,9.78195,7.76027,29.3896,12.0077,0.788556,11.9988,6.35143,0.668061,1.46604e-14,-2.8625e-14,1.55559,-24.0145,14.6745,116.346,-57.2706,-4.33448,-45.3571,7.12502,21.4327,-74.1915,1.46604e-14,-2.8625e-14,31.2709,30.4823,-14.2304,29.7216,35.985,-20.4183,-16.3743,7.12502,5.93599,13.5225,-9.56548,7.83827,1.23626,14.4103,21.9617,-7.47977,-35.1886,-26.7194,-4.31961,-19.3116,23.2972,-14.5745,8.88117,8.49406
4.01858,17.6509,3.49102,20.4088,-6.13672,-5.96277,-5.2441,-1.06254,5.86176,-10.5815,-1.24181,4.01492,-8.28369,-0.91467,1.01502,-11.6494,9.71496,7.48449,29.6795,11.9039,1.00877,12.1003,6.29979,0.792089,-2.68359e-15,-4.77083e-15,2.10982,-23.9347,14.231,116.147,-57.0266,-4.81878,-45.0994,7.12502,20.9675,-73.9861,-2.68359e-15,-4.77083e-15,31.0609,29.9552,-14.7041,30.028,36.6889,-21.3453,-16.06,7.12502,5.04092,13.8601,-9.59252,7.8526,1.2469,14.4513,21.8948,-7.52621,-35.1587,-26.7497,-4.23301,-19.323,23.3973,-14.6471,8.86935,8.61749
4.01622,17.6457,3.48375,20.3546,-6.38114,-5.73939,-5.23035,-1.06942,5.48402,-10.505,-1.25816,3.95583,-8.19112,-0.893992,1.15766,-11.6076,9.63587,7.23467,29.8722,11.7888,1.22451,12.1286,6.24801,0.894748,1.88845e-15,-4.6118e-14,2.76431,-24.032,13.5909,115.92,-56.6429,-4.49008,-44.8942,7.12502,21.2833,-73.7456,1.88845e-15,-4.6118e-14,31.3411,30.034,-14.4651,30.0623,36.5333,-22.3332,-16.0246,7.12502,4.08705,13.9159,-9.73531,7.91375,0.943387,14.5914,21.851,-7.51987,-35.0082,-26.7629,-4.15673,-19.6088,23.4418,-14.6706,8.93001,8.85812
4.01554,17.6417,3.47377,20.3349,-6.46064,-5.62436,-5.23587,-1.07676,5.2796,-10.4173,-1.27504,3.92336,-8.08228,-0.885675,1.23216,-11.5099,9.52505,7.0042,29.9128,11.6572,1.32997,12.094,6.17833,0.943088,1.45113e-14,7.15625e-15,3.26108,-24.1577,13.1374,115.802,-56.4313,-3.64459,-44.8729,7.12502,22.0952,-73.6305,1.45113e-14,7.15625e-15,32.1024,30.6675,-13.5568,29.87,35.8867,-21.6958,-16.4711,7.12502,4.70247,13.4567,-9.86436,7.95831,0.803074,14.7575,21.7538,-7.61023,-35.0913,-26.8174,-4.0989,-19.7449,23.458,-14.6034,8.90718,8.86818
4.01723,17.6431,3.46443,20.3538,-6.26446,-5.62783,-5.28385,-1.12861,5.29645,-10.3379,-1.35209,3.92871,-7.96793,-0.922637,1.22501,-11.5203,9.35673,6.8854,29.8801,11.482,1.18849,12.0772,6.06869,0.882369,-1.61513e-14,3.97569e-15,3.72357,-24.1928,12.7775,115.69,-56.4044,-3.50862,-44.9768,7.12502,22.2258,-73.7189,-1.61513e-14,3.97569e-15,32.5001,30.7705,-13.1949,29.941,36.2053,-21.9287,-16.7125,7.12502,4.47764,13.2202,-9.86519,7.90404,0.889014,14.8349,21.4968,-7.81361,-35.596,-26.9339,-4.08078,-19.7159,23.5095,-14.6155,8.69492,9.03147
4.02026,17.6451,3.45645,20.4098,-6.07964,-5.60902,-5.40147,-1.16174,5.31687,-10.3079,-1.40793,3.91987,-7.86882,-0.950802,1.20029,-11.4587,9.1876,6.76938,29.8641,11.3282,0.995514,12.0567,5.96364,0.802392,-2.66371e-14,-2.54444e-14,4.09469,-24.1494,12.5567,115.621,-56.5404,-3.67843,-44.9728,7.12502,22.0627,-73.7342,-2.66371e-14,-2.54444e-14,32.736,30.5525,-13.0842,30.1508,36.8299,-22.7185,-16.288,7.12502,3.71495,13.6593,-9.82766,7.78409,0.935425,14.7831,21.281,-7.89827,-35.7724,-27.1099,-4.02207,-19.7344,23.6327,-14.7033,8.42819,9.23029
4.0275,17.6469,3.44429,20.4081,-5.90056,-5.79093,-5.40515,-1.16128,5.56214,-10.2698,-1.40805,3.95567,-7.83429,-0.966642,1.10111,-11.4388,9.02945,6.57296,30.027,11.1536,0.987804,12.0968,5.86259,0.807979,-1.03368e-14,1.74931e-14,4.4673,-24.0866,12.3962,115.555,-56.6383,-3.69157,-44.8426,7.12502,22.0501,-73.6055,-1.03368e-14,1.74931e-14,33.4818,30.8974,-12.2789,30.0134,36.0696,-22.0937,-16.2845,7.12502,4.31826,13.6515,-9.84486,7.66454,1.18765,14.874,21.2619,-7.85068,-35.4813,-27.2435,-4.01847,-19.532,23.8133,-14.7078,8.34736,8.91357
4.03388,17.6475,3.42467,20.3399,-5.78702,-6.00976,-5.22767,-1.15623,5.77608,-10.1952,-1.38758,4.00164,-7.86149,-0.969424,1.03387,-11.437,8.87148,6.38091,30.1335,10.9541,1.04366,12.114,5.75853,0.831541,3.38679e-14,-1.11319e-14,4.94169,-24.0732,12.094,115.404,-56.5813,-4.37612,-44.9609,7.12502,21.3927,-73.7999,3.38679e-14,-1.11319e-14,34.2689,31.3465,-11.4404,29.8076,34.9586,-21.609,-16.6677,7.12502,4.78634,13.2582,-9.96353,7.6437,1.46136,15.1459,21.3864,-7.84368,-35.1086,-27.2956,-4.03074,-19.2845,23.937,-14.6329,8.3964,8.41858
4.03216,17.638,3.39991,20.2877,-5.84294,-5.91039,-4.98654,-1.15058,5.54648,-10.1963,-1.35963,3.97893,-7.99171,-0.940471,1.14349,-11.3943,8.73942,6.22525,30.2872,10.8054,1.04597,12.1503,5.67481,0.837208,-2.32081e-14,-2.38542e-15,5.53288,-24.0251,11.5999,115.141,-56.3214,-4.55457,-45.0711,7.12502,21.2213,-73.9295,-2.32081e-14,-2.38542e-15,34.9484,31.6135,-10.7366,29.6844,34.2877,-21.7501,-16.5776,7.12502,4.65009,13.3514,-10.2674,7.71908,1.3299,15.5906,21.3515,-7.89543,-35.023,-27.3936,-3.94807,-19.3999,24.0286,-14.632,8.30086,8.75092
4.02931,17.6377,3.37617,20.2971,-5.96151,-5.65433,-4.72869,-1.12978,5.0878,-10.3049,-1.30715,3.94239,-8.24291,-0.884491,1.36958,-11.4449,8.56904,6.13155,30.689,10.623,0.936168,12.3173,5.56628,0.801126,2.40778e-14,-2.82274e-14,6.1169,-23.8227,11.2103,114.898,-56.0692,-3.83612,-45.1103,7.12502,21.9113,-73.8896,2.40778e-14,-2.82274e-14,35.5945,31.6591,-10.0433,29.5937,34.0467,-21.0058,-16.4362,7.12502,5.36875,13.4758,-10.7268,7.83828,1.00666,16.1411,21.0886,-7.99766,-35.2767,-27.5671,-3.93386,-19.6601,24.0672,-14.5855,8.18676,9.36166
4.02794,17.6368,3.35703,20.3451,-5.97368,-5.46058,-4.6633,-1.10237,4.77077,-10.3104,-1.26847,3.89474,-8.27471,-0.842772,1.49531,-11.5448,8.35295,6.06051,30.9397,10.3802,0.763653,12.4382,5.4251,0.725847,-1.20265e-14,3.97569e-16,6.37737,-23.6881,11.1365,114.859,-56.1749,-4.02473,-45.3525,7.12502,21.7302,-74.1528,-1.20265e-14,3.97569e-16,35.4808,30.9356,-10.4862,29.9105,35.1644,-20.8058,-16.4135,7.12502,5.56182,13.4935,-11.1229,7.82191,0.781787,16.6405,20.8562,-8.03108,-35.2551,-27.7692,-3.94626,-19.8488,24.1139,-14.4904,8.09526,9.67005
4.02926,17.6337,3.34942,20.3646,-5.89584,-5.41831,-4.79627,-1.10078,4.74238,-10.1594,-1.28674,3.84324,-8.02905,-0.84827,1.44604,-11.6882,8.23524,5.84131,31.0598,10.2321,0.835903,12.4916,5.34035,0.775814,5.57094e-14,1.55052e-14,6.66076,-23.8683,10.8626,114.813,-56.3609,-4.152,-45.525,7.12502,21.608,-74.3394,5.57094e-14,1.55052e-14,35.0321,30.1234,-11.4627,30.3903,36.7195,-21.649,-16.6958,7.12502,4.74767,13.231,-11.2406,7.69937,0.751239,16.8531,20.796,-7.93424,-34.971,-27.8576,-3.81048,-19.935,24.1807,-14.5214,7.91844,9.69395
4.03351,17.6331,3.34697,20.3376,-5.8348,-5.62236,-4.88542,-1.07339,4.9918,-9.96409,-1.26631,3.84164,-7.76956,-0.852275,1.29489,-12.0733,8.18066,5.50326,31.3335,10.122,1.14033,12.6372,5.28473,0.95461,7.45443e-17,-2.78299e-15,7.17242,-24.202,10.3441,114.626,-56.4101,-3.39166,-45.5329,7.12502,22.338,-74.2616,7.45443e-17,-2.78299e-15,34.986,29.8842,-11.8338,30.6554,37.4519,-21.373,-16.5389,7.12502,5.01422,13.3817,-11.2858,7.66109,0.977728,17.0349,20.7298,-7.8195,-35.0356,-27.8616,-3.73418,-19.7429,24.2831,-14.6106,7.89598,9.39154
4.03812,17.6342,3.34019,20.2986,-5.7979,-5.93265,-4.88445,-1.00436,5.29913,-9.79536,-1.18011,3.87813,-7.59263,-0.826132,1.15482,-12.3532,8.04074,5.34409,31.519,9.93288,1.17873,12.7539,5.18211,0.986108,-4.74598e-15,-4.09496e-14,7.71861,-24.3554,9.86463,114.396,-56.2477,-3.01561,-45.5427,7.12502,22.699,-74.2276,-4.74598e-15,-4.09496e-14,35.2296,29.9129,-11.7389,30.7882,37.4956,-20.2641,-15.8037,7.12502,6.08489,14.0889,-11.3258,7.70112,1.31597,17.1658,20.7155,-7.78106,-35.2833,-27.8861,-3.73231,-19.4009,24.4177,-14.6477,7.94932,9.31971
4.03691,17.6333,3.31163,20.2012,-6.02518,-5.84487,-4.50242,-0.949234,5.02367,-9.7409,-1.08034,3.83954,-7.74134,-0.758672,1.2724,-12.4345,7.81867,5.39571,31.6773,9.6845,0.894391,12.8519,5.03784,0.842352,-5.98839e-15,2.10712e-14,8.25183,-24.2528,9.40296,114.171,-55.8784,-3.4988,-45.3218,7.12502,22.2352,-74.0628,-5.98839e-15,2.10712e-14,35.6478,30.0701,-11.3751,30.7849,37.1691,-19.5945,-15.8622,7.12502,6.7313,14.0108,-11.527,7.94247,1.14057,17.3023,20.8542,-7.83677,-35.2474,-27.9703,-3.75277,-19.4867,24.5524,-14.5883,8.09793,9.6004
4.03797,17.6317,3.29345,20.1931,-6.11962,-5.79484,-4.3044,-0.933101,4.89034,-9.74009,-1.04502,3.81631,-7.85011,-0.733262,1.32598,-12.6008,7.58456,5.27592,32.0115,9.40514,0.78811,13.0179,4.88105,0.796711,1.72446e-14,-9.93923e-15,8.80905,-24.0497,8.95133,113.92,-55.559,-4.28852,-44.9287,7.12502,21.4769,-73.7581,1.72446e-14,-9.93923e-15,35.9144,29.888,-11.2571,30.816,37.0239,-19.8251,-16.5801,7.12502,6.50868,13.2999,-11.7612,8.05427,1.0288,17.5085,20.8974,-7.87026,-35.0347,-28.1109,-3.83679,-19.5154,24.6685,-14.5878,8.20049,9.8653
4.04002,17.6298,3.27824,20.2256,-6.06682,-5.85891,-4.15786,-0.935044,4.92685,-9.82457,-1.0297,3.84451,-8.0296,-0.729666,1.34261,-12.6083,7.43803,4.97473,32.4132,9.23736,0.91697,13.1569,4.7851,0.880905,3.84897e-14,-3.85642e-14,9.40938,-23.74,8.51737,113.689,-55.319,-4.80862,-44.7772,7.12502,20.9773,-73.6628,3.84897e-14,-3.85642e-14,36.2712,29.5219,-10.9928,30.8472,36.942,-20.1766,-16.8354,7.12502,6.16933,13.0548,-11.9801,8.06946,1.08977,17.7721,20.8169,-7.9116,-34.8721,-28.2645,-3.87753,-19.4124,24.7528,-14.5436,8.18103,9.77919
4.04445,17.6291,3.26141,20.2475,-5.99682,-5.91927,-4.02879,-0.938862,4.97443,-9.90397,-1.01752,3.88275,-8.19403,-0.727807,1.36327,-12.4961,7.32964,4.80156,32.7265,9.15611,0.86617,13.2558,4.72047,0.881222,1.61513e-14,-1.59028e-14,10.033,-23.5037,8.04564,113.572,-55.1475,-4.97474,-44.8607,7.12502,20.8177,-73.7639,1.61513e-14,-1.59028e-14,36.9984,29.5723,-10.1621,30.7008,36.5479,-20.1222,-16.431,7.12502,6.22184,13.4577,-12.1082,7.98512,1.15444,17.8885,20.767,-7.85487,-34.8786,-28.4375,-3.87039,-19.335,24.8918,-14.4782,8.13031,9.47568
4.05014,17.6302,3.24781,20.1933,-5.85797,-5.95397,-3.99256,-0.962288,5.03226,-9.84183,-1.04731,3.90013,-8.14815,-0.744815,1.34909,-12.4167,7.11681,4.56171,32.851,8.93522,0.797565,13.2748,4.5846,0.859152,-4.5969e-15,-1.39149e-14,10.6923,-23.5379,7.46761,113.442,-55.0614,-4.45861,-44.9593,7.12502,21.3135,-73.8073,-4.5969e-15,-1.39149e-14,37.3352,29.4156,-9.9252,30.7068,36.6383,-20.3227,-15.9224,7.12502,6.02831,13.9718,-12.0634,7.8677,1.22786,17.9226,20.7687,-7.81245,-34.7754,-28.5336,-3.89665,-19.2891,25.0693,-14.4978,8.04321,9.31667
4.05479,17.628,3.23672,20.0746,-5.68848,-6.05887,-3.94416,-0.970166,5.19717,-9.71644,-1.05841,3.89853,-8.04282,-0.759882,1.2527,-12.3756,6.83838,4.25656,32.97,8.58014,0.879111,13.2849,4.4011,0.886597,2.11954e-14,7.95139e-16,11.1687,-23.523,7.05701,113.288,-55.082,-4.13832,-45.0782,7.12502,21.6211,-73.8911,2.11954e-14,7.95139e-16,37.4012,28.9967,-10.1411,30.8763,37.117,-19.8963,-16.0953,7.12502,6.43995,13.7868,-11.8985,7.78194,1.39309,17.9199,20.7769,-7.79754,-34.5773,-28.5337,-3.87166,-19.1877,25.2505,-14.5425,7.94467,9.00199
4.06107,17.625,3.2258,20.0178,-5.53957,-6.20358,-3.92762,-0.961068,5.44454,-9.63347,-1.04717,3.88469,-7.9691,-0.771158,1.09807,-12.3495,6.6068,4.11786,33.1428,8.28033,0.872894,13.3394,4.24966,0.864504,8.69683e-16,1.43125e-14,11.4715,-23.3433,6.83819,113.249,-55.2865,-4.504,-45.2928,7.12502,21.2699,-74.1457,8.69683e-16,1.43125e-14,37.6308,28.6935,-10.1431,30.9801,37.2713,-19.5222,-16.7668,7.12502,6.80103,13.104,-11.8149,7.65578,1.57823,17.9175,20.7149,-7.67779,-34.6458,-28.6023,-3.78589,-19.0572,25.4186,-14.5999,7.79586,8.91193
4.06624,17.6245,3.21762,20.0286,-5.45424,-6.30534,-3.98713,-0.960623,5.60441,-9.61153,-1.05137,3.88319,-7.91619,-0.784136,1.00583,-12.1889,6.44966,3.89972,33.3188,8.09118,0.944059,13.3599,4.14887,0.896807,2.60408e-14,-3.10104e-14,11.7516,-23.129,6.61713,113.303,-55.4562,-4.68075,-45.4379,7.12502,21.1001,-74.3098,2.60408e-14,-3.10104e-14,37.8243,28.3162,-10.1173,31.0666,37.1732,-20.5324,-16.8012,7.12502,5.82584,13.0987,-11.8659,7.57048,1.69488,17.969,20.6553,-7.55586,-34.6449,-28.7411,-3.69203,-18.9684,25.5626,-14.6731,7.64415,9.17415
4.06622,17.6238,3.21199,20.0337,-5.54437,-6.30684,-4.0322,-0.93808,5.51008,-9.60335,-1.02559,3.89781,-7.87668,-0.763205,1.07095,-11.9025,6.30262,3.62388,33.4351,7.95758,0.94896,13.329,4.05825,0.914774,-6.11263e-15,4.49253e-14,12.0424,-22.9596,6.38458,113.304,-55.3109,-4.42439,-45.3235,7.12502,21.3464,-74.1678,-6.11263e-15,4.49253e-14,38.3101,28.2817,-9.5159,30.9838,36.5256,-21.1998,-16.5019,7.12502,5.18144,13.4147,-11.969,7.661,1.64964,18.0128,20.6938,-7.49677,-34.3758,-28.8416,-3.53364,-19.0145,25.6847,-14.7,7.59379,9.22347
4.06663,17.6211,3.20648,20.0137,-5.60283,-6.18189,-4.08238,-0.93162,5.28757,-9.54775,-1.02626,3.89152,-7.77811,-0.745611,1.18353,-11.9647,6.14077,3.30183,33.6938,7.80869,0.943936,13.4337,3.94825,0.953455,9.75287e-15,-8.34896e-15,12.4214,-22.8431,6.08722,113.223,-55.0438,-4.48963,-45.1336,7.12502,21.2837,-73.985,9.75287e-15,-8.34896e-15,38.9771,28.5952,-8.58184,30.845,35.6599,-21.4059,-16.6088,7.12502,4.98242,13.3126,-11.9814,7.67656,1.48028,18.0105,20.7711,-7.42981,-34.3652,-28.9114,-3.37884,-19.2076,25.8106,-14.775,7.42988,9.49718
4.07182,17.6198,3.20078,20.0093,-5.46343,-6.2253,-4.20567,-0.923997,5.38714,-9.42921,-1.03201,3.88625,-7.57935,-0.751822,1.11502,-12.5257,5.95689,2.81432,34.2238,7.5589,1.24672,13.7427,3.80571,1.15352,-5.26779e-15,-1.94809e-14,12.8421,-22.7095,5.73638,113.098,-54.8898,-5.4614,-45.081,7.12502,20.35,-74.0348,-5.26779e-15,-1.94809e-14,39.1021,28.4557,-8.51608,31.1013,35.9326,-22.4445,-16.8106,7.12502,3.97949,13.1319,-11.9183,7.53544,1.55777,17.9743,20.8158,-7.37111,-34.608,-29.0071,-3.36375,-19.1732,25.9624,-14.8124,7.27972,9.32185
4.07808,17.6213,3.18871,20.074,-5.29524,-6.53493,-4.26195,-0.881093,5.76952,-9.32179,-0.981219,3.92187,-7.44011,-0.748639,0.934483,-12.9641,5.78817,2.59943,34.5792,7.33058,1.34243,13.9797,3.68234,1.22062,3.02898e-14,-2.18663e-14,13.1765,-22.5487,5.42581,112.98,-54.6524,-6.40185,-45.0028,7.12502,19.446,-74.0504,3.02898e-14,-2.18663e-14,39.0416,28.0974,-8.80802,31.4645,36.5946,-22.3657,-16.8085,7.12502,4.05559,13.1327,-11.9161,7.46008,1.91943,17.8529,20.8112,-7.36556,-34.6763,-29.212,-3.33268,-18.8332,26.1528,-14.7677,7.24867,8.50786
4.08551,17.6216,3.17445,20.0716,-5.18325,-6.76144,-4.13455,-0.868174,6.04788,-9.24716,-0.954271,3.93907,-7.44028,-0.752745,0.798777,-13.1374,5.65267,2.6279,34.7593,7.17608,1.18195,14.1085,3.59207,1.14008,3.52967e-14,-4.69132e-14,13.5774,-22.3936,5.00676,112.829,-54.2538,-6.47556,-44.809,7.12502,19.3751,-73.8637,3.52967e-14,-4.69132e-14,39.5994,28.3504,-8.19272,31.3904,36.0489,-21.4692,-16.8709,7.12502,4.92132,13.052,-11.8194,7.38756,2.17672,17.658,20.817,-7.35996,-34.4547,-29.3711,-3.25283,-18.6122,26.3705,-14.7909,7.16711,8.27974
4.09281,17.6203,3.16629,20.0026,-5.06196,-6.8541,-4.02422,-0.905088,6.21637,-9.16893,-0.997533,3.93261,-7.42548,-0.784712,0.700093,-13.283,5.47835,2.52921,34.9969,6.95932,1.13721,14.2445,3.47352,1.11672,1.75179e-15,3.77691e-14,14.3886,-22.3857,4.14594,112.526,-53.9711,-5.75955,-44.8884,7.12502,20.0635,-73.8725,1.75179e-15,3.77691e-14,40.4173,28.8779,-7.14485,31.1325,35.0289,-21.7983,-17.1362,7.12502,4.60352,12.7938,-11.6251,7.19698,2.3132,17.5146,20.9249,-7.30973,-34.0531,-29.4338,-3.19572,-18.5517,26.5701,-14.8626,7.02829,8.46671
4.0948,17.6191,3.1589,19.9789,-4.93902,-6.90089,-4.09924,-0.953469,6.26546,-8.9913,-1.07975,3.94087,-7.19133,-0.821957,0.674965,-13.7008,5.24887,2.15459,35.2967,6.64671,1.33857,14.4456,3.30772,1.2351,1.29583e-14,2.5842e-14,14.6997,-22.283,3.80908,112.484,-53.9502,-5.58028,-44.8099,7.12502,20.2358,-73.7758,1.29583e-14,2.5842e-14,40.8411,29.2524,-6.59542,31.0885,34.5671,-20.6673,-16.9361,7.12502,5.69562,12.9673,-11.542,7.06688,2.41663,17.495,21.0134,-7.35671,-33.9561,-29.5172,-3.11882,-18.5222,26.7066,-14.9498,6.84406,8.84665
4.09499,17.6181,3.14797,19.9457,-4.89034,-6.9315,-4.12738,-0.960936,6.22952,-8.85664,-1.09935,3.96694,-7.02622,-0.823304,0.716634,-14.0179,4.98868,1.52468,35.6257,6.28316,1.77829,14.6184,3.12052,1.48314,-6.22444e-15,0,15.0934,-22.1652,3.4924,112.388,-53.6228,-5.93343,-44.9231,7.12502,19.8963,-73.9247,-6.22444e-15,0,40.8547,29.1756,-6.60215,31.2698,34.7813,-18.7107,-16.5993,7.12502,7.58436,13.2448,-11.5801,7.07236,2.47525,17.6053,20.9408,-7.44094,-34.2218,-29.5666,-3.07923,-18.4863,26.778,-14.9475,6.73304,8.89711
4.09584,17.6174,3.13291,19.9173,-4.89591,-6.91562,-3.95202,-0.932384,6.15238,-8.9274,-1.0396,3.97609,-7.19981,-0.791708,0.774712,-13.7215,4.78582,0.98252,35.7858,6.02421,2.11282,14.5857,2.98334,1.66396,2.34814e-14,-3.93594e-14,15.4289,-21.7514,3.26504,112.262,-53.4169,-6.30706,-45.0186,7.12502,19.5372,-74.057,2.34814e-14,-3.93594e-14,40.7422,28.5263,-6.88725,31.5372,35.4631,-19.0283,-16.6983,7.12502,7.27784,13.1566,-11.7139,7.10702,2.45376,17.7924,20.81,-7.41647,-34.3416,-29.6209,-3.09009,-18.4905,26.8189,-14.8548,6.70434,8.68334
4.09442,17.617,3.11531,19.9766,-4.96165,-6.80939,-3.80582,-0.892465,5.95537,-8.95793,-0.973777,3.93371,-7.30896,-0.749263,0.841805,-13.4952,4.61268,0.520207,35.8092,5.82277,2.33331,14.5161,2.86644,1.79276,9.34909e-15,1.63003e-14,15.7914,-21.5014,2.9283,112.045,-53.2293,-6.31097,-45.0343,7.12502,19.5334,-74.0731,9.34909e-15,1.63003e-14,40.8429,28.1347,-6.97334,31.6862,35.8542,-19.7567,-16.7531,7.12502,6.57474,13.1249,-11.988,7.19404,2.30735,18.0058,20.6941,-7.44051,-34.2429,-29.7846,-3.12347,-18.579,26.8363,-14.7921,6.71264,8.96736
4.09479,17.6175,3.10188,20.0297,-5.00885,-6.82628,-3.77614,-0.834329,5.90872,-8.80384,-0.904621,3.88995,-7.15356,-0.708668,0.814359,-13.6769,4.42884,0.260167,35.8096,5.60841,2.37572,14.5481,2.74332,1.82698,-1.05604e-16,0,16.2129,-21.6737,2.42558,111.835,-53.0582,-6.28359,-45.216,7.12502,19.5597,-74.2521,-1.05604e-16,0,40.8648,27.9188,-7.26781,31.8034,36.0767,-19.9693,-16.6644,7.12502,6.36948,13.2199,-12.2767,7.22737,2.31872,18.2561,20.6478,-7.56192,-34.1642,-29.9094,-3.14852,-18.5412,26.8286,-14.7349,6.76591,9.12764
4.09673,17.6175,3.09366,19.9852,-5.05007,-6.82502,-3.81559,-0.783037,5.86549,-8.58044,-0.854991,3.84353,-6.88377,-0.675327,0.779044,-13.9293,4.30793,0.301517,35.8213,5.48861,2.17478,14.624,2.66695,1.72803,7.57003e-15,-6.0033e-14,16.4083,-21.7686,2.15206,111.797,-52.9754,-6.59378,-45.4621,7.12502,19.2615,-74.5282,7.57003e-15,-6.0033e-14,40.8735,27.7098,-7.56001,31.9069,36.3312,-20.3224,-16.7584,7.12502,6.02858,13.1359,-12.4334,7.20078,2.32873,18.4834,20.5331,-7.64775,-34.4684,-29.9023,-3.14873,-18.5538,26.8263,-14.6792,6.80986,9.13386
4.09516,17.6143,3.08365,19.9189,-5.12461,-6.60957,-3.79735,-0.792764,5.54591,-8.48023,-0.876667,3.78345,-6.77597,-0.664704,0.889876,-13.9715,4.21846,0.273961,35.9244,5.39743,2.08144,14.6864,2.60838,1.68472,6.522e-14,-7.95139e-15,16.5753,-21.5185,1.99287,111.755,-52.7311,-6.68081,-45.392,7.12502,19.1778,-74.4665,6.522e-14,-7.95139e-15,41.0632,27.6018,-7.43011,31.9554,36.4961,-20.7937,-16.6445,7.12502,5.57355,13.2622,-12.4931,7.21335,2.09255,18.6131,20.3377,-7.73735,-34.8918,-29.9063,-3.15751,-18.7992,26.8596,-14.6024,6.81874,9.21005
4.09514,17.6112,3.0738,19.899,-5.08244,-6.53246,-3.75265,-0.827504,5.41048,-8.4365,-0.923223,3.76859,-6.75112,-0.678803,0.949772,-14.1176,4.08462,0.217574,36.2599,5.2327,2.03689,14.8812,2.51631,1.66522,5.34234e-15,-2.18663e-14,16.9626,-21.4748,1.58313,111.652,-52.8047,-5.62443,-45.347,7.12502,20.1934,-74.3174,5.34234e-15,-2.18663e-14,41.4026,27.6133,-7.03617,31.9436,36.4446,-21.1912,-16.6198,7.12502,5.18975,13.2967,-12.5274,7.14938,2.04971,18.7215,20.3235,-7.79939,-34.6952,-29.9738,-3.1873,-18.872,26.9168,-14.5192,6.81645,8.84657
4.09903,17.6104,3.0656,19.9157,-4.99602,-6.66702,-3.70201,-0.838257,5.53062,-8.33911,-0.936118,3.81137,-6.67785,-0.688882,0.926432,-14.7443,3.93626,0.292086,36.8803,5.07521,1.8216,15.3422,2.41298,1.57693,-2.52084e-14,1.31198e-14,17.3934,-21.5925,1.1533,111.542,-53.2264,-4.52116,-45.5424,7.12502,21.2534,-74.3971,-2.52084e-14,1.31198e-14,42.0512,28.0637,-6.08574,31.7431,35.5869,-20.8136,-16.997,7.12502,5.55436,12.9102,-12.5927,7.09594,2.23289,18.8724,20.3051,-7.8234,-34.3806,-30.0602,-3.24538,-18.7055,26.9729,-14.5455,6.86136,8.6553
4.10378,17.6083,3.05291,19.8873,-4.93834,-6.72119,-3.47196,-0.863104,5.54785,-8.29256,-0.949964,3.85499,-6.75984,-0.695644,0.966975,-15.0856,3.8517,0.324526,37.1991,5.03703,1.57436,15.593,2.35725,1.48107,9.79014e-15,-3.29983e-14,17.7569,-21.4191,0.897316,111.375,-53.3577,-4.58965,-45.5504,7.12502,21.1876,-74.4125,9.79014e-15,-3.29983e-14,42.5006,28.348,-5.34057,31.5876,34.6854,-20.0577,-17.0768,7.12502,6.28415,12.81,-12.6358,7.07181,2.3079,19.0142,20.1259,-7.88752,-34.6892,-30.1072,-3.25741,-18.6511,27.0226,-14.5737,6.83997,8.85731
4.10751,17.606,3.03718,19.8087,-4.89895,-6.565,-3.26637,-0.892664,5.36156,-8.2342,-0.978365,3.82139,-6.80973,-0.698925,1.03844,-14.8514,3.82583,0.328891,37.0019,5.08291,1.34081,15.4489,2.34914,1.37641,-7.87063e-15,7.55382e-15,17.9903,-21.1441,0.722704,111.207,-52.9648,-4.87569,-45.317,7.12502,20.9129,-74.2097,-7.87063e-15,7.55382e-15,42.4463,28.0933,-5.5195,31.6631,34.7967,-21.0832,-17.3265,7.12502,5.29398,12.5874,-12.6598,6.95526,2.16809,19.1721,19.9543,-7.95065,-35.1078,-30.1239,-3.26197,-18.8374,27.0623,-14.5222,6.73826,8.95915
4.10937,17.6053,3.02185,19.8024,-4.86917,-6.36946,-3.25595,-0.884893,5.14292,-8.21339,-0.972905,3.76005,-6.78677,-0.683899,1.09429,-14.5083,3.68152,0.262861,36.9489,4.95239,1.15932,15.3476,2.26245,1.27754,1.18153e-14,-3.26007e-14,18.1242,-20.8525,0.5819,111.111,-52.477,-4.80485,-45.2866,7.12502,20.9809,-74.1718,1.18153e-14,-3.26007e-14,42.318,27.5862,-5.94168,31.8423,35.4611,-23.3154,-17.7536,7.12502,3.13846,12.203,-12.7809,6.85572,1.98026,19.3589,19.9183,-8.0068,-35.0018,-30.2339,-3.35949,-19.0272,27.1057,-14.4466,6.68583,8.97052
4.1124,17.6053,3.00133,19.8664,-4.80739,-6.37967,-3.17719,-0.860594,5.11409,-8.31435,-0.927606,3.77308,-6.94013,-0.661906,1.12801,-14.3186,3.2913,-0.0816278,37.3103,4.4435,1.23178,15.4707,2.00312,1.28578,-3.32343e-15,-2.50469e-14,18.3492,-20.4705,0.374445,111.02,-52.1948,-4.92821,-45.429,7.12502,20.8624,-74.3273,-3.32343e-15,-2.50469e-14,42.4365,27.1929,-5.86904,31.97,35.9243,-23.4431,-17.6397,7.12502,3.01517,12.3187,-12.9893,6.8911,1.99691,19.516,19.9506,-8.10577,-34.695,-30.4489,-3.37924,-18.9935,27.1715,-14.2697,6.61574,8.5807
4.11824,17.6059,2.97911,19.8478,-4.70529,-6.55887,-2.90868,-0.875086,5.27398,-8.32332,-0.919461,3.82907,-7.10909,-0.668064,1.10503,-14.1045,3.18895,-0.0585994,37.3173,4.32908,1.09635,15.4302,1.93964,1.19955,8.98258e-15,2.78299e-15,18.7194,-20.1574,0.0189697,110.87,-51.9486,-5.33413,-45.3056,7.12502,20.4724,-74.2463,8.98258e-15,2.78299e-15,42.7975,27.2818,-5.28869,31.93,35.7926,-21.9679,-17.39,7.12502,4.4398,12.5435,-13.0527,6.97194,2.21348,19.5679,19.8752,-8.25884,-34.6008,-30.6064,-3.31634,-18.8,27.2908,-14.1481,6.49414,8.52883
4.12442,17.6062,2.96361,19.8063,-4.56168,-6.70244,-2.73274,-0.91267,5.46652,-8.26553,-0.954258,3.85004,-7.15441,-0.696808,1.02421,-14.2232,3.04439,-0.273741,37.5382,4.11527,1.26214,15.5581,1.83665,1.27951,-1.59214e-14,3.97569e-16,19.0452,-19.8877,-0.306553,110.725,-51.8991,-5.55907,-45.0703,7.12502,20.2562,-74.034,-1.59214e-14,3.97569e-16,43.0892,27.3649,-4.83411,31.8965,35.5134,-21.5519,-17.2463,7.12502,4.8415,12.6784,-12.9712,6.90305,2.42547,19.4886,19.8604,-8.38011,-34.5173,-30.7416,-3.33786,-18.6312,27.4766,-14.1766,6.41021,8.91116
4.13246,17.6054,2.95612,19.7989,-4.43496,-6.85002,-2.74649,-0.918098,5.71444,-8.21528,-0.961364,3.8548,-7.09985,-0.714731,0.890327,-14.4572,2.80728,-0.594341,37.9857,3.79731,1.43131,15.8294,1.67042,1.37066,-4.0813e-15,-1.66979e-14,19.3554,-19.588,-0.55545,110.531,-51.9369,-5.37654,-44.9751,7.12502,20.4316,-73.9202,-4.0813e-15,-1.66979e-14,43.2004,27.2027,-4.68046,31.9649,35.3596,-21.6539,-17.3531,7.12502,4.74294,12.5738,-12.8485,6.71851,2.63246,19.3369,20.0086,-8.36293,-34.1763,-30.862,-3.3498,-18.478,27.6827,-14.2508,6.35794,9.00474
4.14386,17.6024,2.95789,19.7698,-4.41556,-6.99638,-2.87548,-0.87531,5.97079,-8.12428,-0.917261,3.85306,-6.9332,-0.705443,0.738865,-14.1662,2.79324,-0.361085,37.923,3.84195,1.05906,15.7457,1.67288,1.16914,2.26118e-14,-6.24184e-14,19.6466,-19.2308,-0.772129,110.31,-51.8212,-5.303,-45.0029,7.12502,20.5023,-73.9403,2.26118e-14,-6.24184e-14,43.3541,27.038,-4.4711,32.0157,35.3016,-21.5098,-17.9025,7.12502,4.88208,12.0213,-12.6907,6.49725,2.78661,19.1928,20.0673,-8.20712,-33.8033,-30.8777,-3.29454,-18.3835,27.8586,-14.3814,6.34125,9.00072
4.15472,17.5982,2.95844,19.8055,-4.45919,-7.08185,-3.00458,-0.823037,6.12745,-8.11117,-0.859116,3.82896,-6.8478,-0.685774,0.621584,-13.8403,2.68112,-0.447971,37.9829,3.68263,1.08655,15.6959,1.59771,1.16279,-1.4238e-14,3.97569e-14,19.7793,-18.7016,-0.92667,110.169,-51.7384,-5.62882,-44.9981,7.12502,20.1891,-73.9689,-1.4238e-14,3.97569e-14,43.5079,26.7431,-4.30246,32.112,35.538,-21.7623,-18.0113,7.12502,4.63827,11.9179,-12.6735,6.25376,2.84196,19.0847,19.9807,-8.02296,-33.9988,-30.9476,-3.26499,-18.3595,27.9993,-14.471,6.39907,8.80741
4.16366,17.5967,2.94791,19.8372,-4.41237,-7.19638,-2.8871,-0.818937,6.26964,-8.13698,-0.838965,3.83222,-6.94758,-0.686681,0.549534,-13.6939,2.5475,-0.587714,38.1163,3.48267,1.18196,15.724,1.50463,1.19393,-1.7754e-14,3.97569e-14,20.0128,-18.2567,-1.19416,110.02,-51.7331,-5.57532,-44.9626,7.12502,20.2406,-73.928,-1.7754e-14,3.97569e-14,43.4515,26.3458,-4.43201,32.3019,35.8599,-21.9201,-17.5215,7.12502,4.48595,12.411,-12.7225,6.12223,2.97658,19.0188,19.9343,-7.98259,-34.2514,-31.0849,-3.30292,-18.249,28.136,-14.4927,6.42448,8.72805
4.17154,17.5974,2.9347,19.7679,-4.33941,-7.26011,-2.69694,-0.814716,6.3368,-8.0629,-0.817873,3.8443,-6.97787,-0.679127,0.526247,-13.6401,2.45538,-0.607919,38.1399,3.4101,1.02323,15.7284,1.44862,1.11658,-8.90804e-15,3.97569e-16,20.2989,-18.0591,-1.53033,109.889,-51.7187,-5.51098,-45.0486,7.12502,20.3024,-74.0075,-8.90804e-15,3.97569e-16,43.2434,25.9273,-4.77957,32.6052,36.62,-22.4519,-17.5306,7.12502,3.97241,12.4121,-12.7227,6.1239,3.07419,19.0705,20.0065,-8.13523,-33.9642,-31.1521,-3.33604,-18.1853,28.2784,-14.5204,6.3929,9.02126
4.178,17.5972,2.92434,19.7429,-4.26675,-7.38127,-2.67488,-0.79551,6.46142,-7.96457,-0.792582,3.87348,-6.88614,-0.669933,0.484362,-13.5521,2.368,-0.679672,38.1394,3.33562,0.927149,15.709,1.39381,1.0737,2.81653e-14,-2.0276e-14,20.4351,-17.8365,-1.77168,109.856,-51.7397,-5.78265,-44.9382,7.12502,20.0413,-73.9246,2.81653e-14,-2.0276e-14,43.0097,25.503,-5.12691,32.9815,37.5846,-22.9983,-17.7293,7.12502,3.44473,12.2226,-12.8745,6.16385,3.21997,19.3409,19.9939,-8.35913,-33.7019,-31.2315,-3.21159,-18.0944,28.379,-14.5936,6.23679,9.50913
4.17946,17.5945,2.90932,19.8351,-4.18967,-7.57114,-2.75922,-0.794414,6.59135,-7.88712,-0.799618,3.9334,-6.75704,-0.675657,0.471407,-13.6256,2.30215,-0.765139,38.2339,3.24201,0.980452,15.7725,1.34708,1.09911,-2.89853e-14,4.73108e-14,20.7695,-17.6044,-2.13559,109.705,-51.6456,-5.63825,-44.8317,7.12502,20.1801,-73.8035,-2.89853e-14,4.73108e-14,42.7719,25.1575,-5.40459,33.2549,37.907,-22.4214,-17.4189,7.12502,4.00189,12.5233,-13.264,6.325,3.43767,19.7865,19.3925,-9.49469,-32.0082,-31.4403,-3.00271,-17.9073,28.4311,-14.6772,5.96583,10.2622
4.17556,17.5897,2.88636,19.9264,-4.34661,-7.38151,-2.86039,-0.764775,6.19874,-7.74397,-0.786014,3.88827,-6.53073,-0.640242,0.632965,-13.9475,2.24259,-0.682989,38.4191,3.16946,0.883979,15.9514,1.30989,1.04052,2.2736e-14,-6.75868e-15,21.2119,-17.5084,-2.50646,109.417,-51.4179,-5.27424,-45.0615,7.12502,20.5299,-73.996,2.2736e-14,-6.75868e-15,43.0097,25.3029,-4.98148,33.2334,37.513,-21.6496,-17.1886,7.12502,4.74713,12.7382,-13.8035,6.58506,3.19255,20.291,19.2522,-9.43103,-32.8057,-31.6696,-2.90488,-18.1152,28.4737,-14.6762,5.91503,10.7376
4.17828,17.5833,2.87013,19.889,-4.59073,-7.05756,-2.89297,-0.713034,5.75283,-7.54502,-0.741618,3.77968,-6.2831,-0.588407,0.757025,-14.1896,2.11375,-0.694769,38.5389,3.02105,0.781349,16.0772,1.228,0.979242,1.08338e-14,-4.01545e-14,21.4216,-17.3783,-2.70559,109.217,-51.013,-5.16805,-45.2184,7.12502,20.6319,-74.1418,1.08338e-14,-4.01545e-14,43.5496,25.714,-4.09948,33.1527,37.1397,-22.0094,-17.491,7.12502,4.39964,12.4433,-14.2393,6.58166,2.80423,20.8451,19.6366,-8.31668,-34.6676,-31.6948,-2.82452,-18.5398,28.521,-14.6574,6.01172,10.1948
4.18883,17.5769,2.86321,19.7546,-4.62797,-7.04847,-2.76941,-0.680928,5.80071,-7.40534,-0.696978,3.74218,-6.20349,-0.566785,0.688227,-14.2669,1.93754,-0.856634,38.6799,2.80143,0.790968,16.1688,1.11077,0.9777,-1.12438e-14,7.95139e-15,21.6247,-17.0645,-3.01329,108.983,-50.2743,-5.5337,-45.1004,7.12502,20.2806,-74.0616,-1.12438e-14,7.95139e-15,43.8629,25.7951,-3.50105,33.2288,36.9272,-23.2945,-18.1447,7.12502,3.1587,11.8117,-14.4067,6.34651,2.83401,21.4005,19.7272,-8.10221,-34.7198,-31.5875,-2.75764,-18.6282,28.5638,-14.6284,6.01155,9.32154
4.19531,17.572,2.84837,19.678,-4.63126,-7.13873,-2.59538,-0.631346,5.89581,-7.33317,-0.618405,3.73059,-6.22556,-0.532623,0.622349,-14.146,1.73789,-0.967148,38.7401,2.53623,0.771139,16.1724,0.980435,0.941455,2.04003e-14,-7.15625e-15,21.836,-16.702,-3.33554,108.655,-49.6575,-5.60579,-44.918,7.12502,20.2113,-73.8865,2.04003e-14,-7.15625e-15,44.0609,25.667,-3.13382,33.3154,36.7043,-23.2429,-18.1122,7.12502,3.20851,11.8434,-14.5654,6.26486,2.98429,21.817,19.7643,-8.07328,-34.893,-31.6513,-2.74254,-18.5369,28.6649,-14.5744,5.97812,9.33148
4.201,17.5682,2.82794,19.6086,-4.78043,-7.13987,-2.46776,-0.558063,5.82323,-7.26423,-0.514609,3.70925,-6.21935,-0.476309,0.637175,-13.7576,1.56743,-1.09072,38.6181,2.29884,0.785061,16.0145,0.868233,0.920635,-1.41634e-14,-2.62396e-14,22.0397,-16.366,-3.60185,108.43,-49.4932,-5.21208,-45.0354,7.12502,20.5896,-73.9634,-1.41634e-14,-2.62396e-14,44.2115,25.5072,-2.81228,33.3811,36.6763,-21.5454,-17.5316,7.12502,4.84774,12.3929,-14.8536,6.33008,2.97245,22.1722,19.9657,-7.33409,-35.8989,-31.7537,-2.67648,-18.5646,28.8239,-14.557,6.00955,9.59415
4.22102,17.5621,2.80564,19.4741,-4.61682,-7.04045,-2.20192,-0.618236,5.93898,-7.28339,-0.570498,3.66138,-6.39792,-0.515482,0.53015,-13.3621,1.45804,-1.23473,38.617,2.14807,0.830923,15.9162,0.791228,0.934643,2.00151e-14,-1.66979e-14,22.235,-15.8517,-3.85914,108.397,-49.6267,-5.46771,-45.3249,7.12502,20.344,-74.2793,2.00151e-14,-1.66979e-14,44.4247,25.2735,-2.26692,33.4018,36.5346,-19.8519,-17.4425,7.12502,6.48283,12.4383,-14.9137,5.81742,2.89866,22.5139,19.6324,-7.32551,-35.2428,-31.7897,-2.78444,-18.7349,29.0066,-14.5773,5.94559,9.45221
4.23061,17.5532,2.79148,19.4549,-4.63347,-6.93428,-2.14791,-0.650997,5.84207,-7.2812,-0.612864,3.63187,-6.42585,-0.532399,0.555313,-13.0482,1.3543,-1.40864,38.6009,2.0139,0.879806,15.8302,0.716423,0.95935,1.3331e-14,-4.17448e-14,22.4124,-15.3153,-4.13043,108.4,-49.8156,-6.01182,-45.4821,7.12502,19.821,-74.4915,1.3331e-14,-4.17448e-14,44.4354,24.8645,-2.06175,33.4768,36.5927,-19.5635,-17.5168,7.12502,6.76117,12.3553,-15.1023,5.61526,2.76454,22.8358,19.1611,-8.20003,-33.4683,-31.9146,-2.81351,-18.8941,29.1757,-14.6105,5.96912,9.4995
4.23664,17.5477,2.78625,19.5109,-4.68818,-7.10114,-2.30309,-0.635026,5.94234,-7.19492,-0.607108,3.67775,-6.24556,-0.529587,0.54234,-13.446,1.36126,-1.15249,38.9943,2.05071,0.63562,16.1394,0.727845,0.824408,-3.3048e-14,2.26615e-14,22.6109,-14.9552,-4.42964,108.34,-49.9329,-5.97586,-45.5971,7.12502,19.8556,-74.6028,-3.3048e-14,2.26615e-14,44.45,24.5775,-1.91835,33.5117,36.522,-20.6482,-17.5785,7.12502,5.71405,12.3245,-15.3681,5.60175,2.95231,23.1294,19.1043,-8.40307,-33.1913,-32.0695,-2.78732,-18.7288,29.3466,-14.6754,6.03384,9.65572
4.24657,17.5462,2.78294,19.5053,-4.73047,-7.2305,-2.394,-0.591063,6.05506,-7.08332,-0.561353,3.68644,-6.07427,-0.508173,0.482845,-13.4693,1.28589,-1.21528,39.0679,1.93796,0.678672,16.1837,0.676146,0.836265,2.05742e-14,-4.05521e-14,22.6231,-14.67,-4.58868,108.285,-49.8824,-5.80208,-45.6222,7.12502,20.0226,-74.6106,2.05742e-14,-4.05521e-14,44.6411,24.4058,-1.60873,33.5282,36.4009,-21.9419,-18.0207,7.12502,4.4649,11.9122,-15.5995,5.482,3.12424,23.4715,19.2746,-7.78411,-34.5168,-32.1256,-2.78888,-18.6215,29.4968,-14.7632,6.09641,9.93728
4.25851,17.5444,2.77491,19.4583,-4.8125,-7.19482,-2.41337,-0.556929,6.0316,-6.92358,-0.530322,3.62151,-5.89006,-0.487668,0.422313,-13.588,1.17289,-1.27136,39.1089,1.74568,0.773466,16.2351,0.599607,0.856518,1.16786e-15,8.74653e-15,22.71,-14.3968,-4.86336,108.072,-49.4745,-5.83758,-45.5142,7.12502,19.9885,-74.5062,1.16786e-15,8.74653e-15,44.5888,24.1214,-1.73477,33.7524,36.998,-22.9107,-18.6846,7.12502,3.52935,11.2659,-15.7954,5.3292,3.09139,23.7904,19.4003,-7.14771,-35.2949,-32.1464,-2.80393,-18.7123,29.6242,-14.8379,6.12646,10.3383
4.26577,17.5426,2.75597,19.4621,-4.89608,-7.22297,-2.27836,-0.551047,6.00915,-6.82558,-0.517756,3.59326,-5.86138,-0.479072,0.404483,-13.9593,1.08471,-1.20878,39.3587,1.59779,0.768385,16.4633,0.541556,0.824546,8.34896e-15,-2.62396e-14,22.9163,-13.9372,-5.21029,107.779,-49.0174,-5.93879,-45.2755,7.12502,19.8912,-74.2775,8.34896e-15,-2.62396e-14,44.4105,23.7855,-1.95444,33.9639,37.5752,-22.4965,-18.7533,7.12502,3.92937,11.1903,-16.0952,5.38343,3.1193,24.1163,19.5432,-6.32963,-36.3496,-32.2892,-2.81358,-18.6845,29.7328,-14.8115,6.16619,10.3991
4.27272,17.5415,2.73686,19.4839,-4.94282,-7.35888,-2.1238,-0.531691,6.07492,-6.77513,-0.478874,3.61792,-5.89576,-0.462339,0.393822,-14.0933,1.02752,-1.20259,39.5771,1.52725,0.724471,16.6161,0.50334,0.795539,-3.42904e-15,-3.77691e-14,22.9513,-13.4023,-5.33977,107.674,-48.8939,-6.46913,-45.1915,7.12502,19.3813,-74.2456,-3.42904e-15,-3.77691e-14,44.5898,23.6444,-1.56622,33.9132,37.3488,-20.7286,-17.9996,7.12502,5.63642,11.9054,-16.4344,5.53416,3.25733,24.4979,19.51,-6.04369,-36.5852,-32.4732,-2.86284,-18.5131,29.8634,-14.7622,6.27718,10.3856
4.28239,17.5405,2.72079,19.441,-4.95463,-7.53665,-1.97068,-0.494892,6.19502,-6.69388,-0.416485,3.66348,-5.89648,-0.434981,0.373245,-13.8222,0.939536,-1.36531,39.4683,1.42192,0.765637,16.489,0.442932,0.820235,2.36305e-14,-7.55382e-14,23.0699,-13.0885,-5.54057,107.608,-48.9328,-6.83791,-45.5124,7.12502,19.0267,-74.6018,2.36305e-14,-7.55382e-14,44.9631,23.672,-0.805968,33.8435,36.81,-19.7653,-17.5496,7.12502,6.56638,12.3286,-16.6926,5.68275,3.44337,24.9013,19.3113,-6.81551,-34.7838,-32.586,-2.90257,-18.3185,30.0285,-14.7678,6.35059,10.8033
4.29023,17.5359,2.70283,19.3691,-4.98952,-7.69127,-1.72809,-0.468551,6.25572,-6.66208,-0.356157,3.732,-6.00033,-0.407537,0.411971,-13.3395,0.807824,-1.67834,39.2149,1.25705,0.888851,16.2326,0.348708,0.894016,-4.89507e-15,1.51076e-14,23.3632,-12.7747,-5.88815,107.421,-48.8209,-6.64476,-45.7315,7.12502,19.2125,-74.8025,-4.89507e-15,1.51076e-14,44.8291,23.2683,-0.749632,34.0419,36.9615,-20.1869,-17.8508,7.12502,6.15935,12.0397,-16.9307,5.84051,3.61908,25.2678,19.2629,-7.34924,-33.7614,-32.6707,-2.80193,-18.1933,30.2271,-14.8124,6.29976,11.1419
4.30069,17.5282,2.68912,19.3655,-5.11107,-7.71957,-1.62256,-0.461163,6.21725,-6.66132,-0.335252,3.77579,-6.05845,-0.39491,0.47978,-12.9614,0.760794,-1.82411,39.0968,1.23506,0.845941,16.0772,0.313323,0.892397,-5.889e-15,-3.97569e-15,23.6916,-12.2736,-6.20616,107.195,-48.4941,-6.60742,-45.6698,7.12502,19.2484,-74.7372,-5.889e-15,-3.97569e-15,44.5231,22.7359,-0.941595,34.2061,37.2092,-20.7496,-18.2521,7.12502,5.61616,11.6535,-17.2583,5.87076,3.62319,25.6088,19.3774,-6.998,-34.97,-32.7946,-2.64646,-18.2593,30.4502,-14.8867,6.27829,10.97
4.31471,17.5211,2.68005,19.3653,-5.20019,-7.73548,-1.71699,-0.469037,6.25109,-6.5322,-0.361978,3.79251,-5.86735,-0.404017,0.474865,-12.7863,0.750669,-1.92359,38.9102,1.24235,0.847132,15.9364,0.303984,0.907902,-2.21148e-15,4.41302e-14,24.0314,-11.886,-6.54318,106.956,-48.0286,-6.73791,-45.5063,7.12502,19.1229,-74.5862,-2.21148e-15,4.41302e-14,44.4619,22.5775,-0.763425,34.2276,36.9886,-20.6872,-17.9068,7.12502,5.67638,11.9972,-17.5295,5.77269,3.6145,25.9728,19.3864,-6.6483,-36.0813,-32.9044,-2.59094,-18.336,30.6758,-14.9823,6.39631,10.4591
4.325,17.5161,2.67043,19.2964,-5.12254,-7.87508,-1.81469,-0.494304,6.44873,-6.33737,-0.414169,3.80514,-5.60901,-0.431669,0.374264,-12.5294,0.676101,-2.15954,38.5655,1.09274,1.09583,15.6953,0.245539,1.02578,1.39149e-14,-2.42517e-14,24.2868,-11.6059,-6.96891,106.693,-47.535,-6.53474,-45.4194,7.12502,19.3182,-74.4798,1.39149e-14,-2.42517e-14,43.8646,21.9133,-1.56242,34.7247,38.0072,-20.5492,-16.8982,7.12502,5.80959,13.0021,-17.6534,5.73177,3.81513,26.3496,19.3827,-6.50483,-36.5004,-32.9551,-2.58543,-18.2273,30.9038,-15.088,6.48284,10.0365
