JuanDHNZ/ProyectoFinalCD/preprocessing/sports_trials_csv/49_21.csv
root1,root2,root3,root4,root5,root6,lowerback1,lowerback2,lowerback3,upperback1,upperback2,upperback3,thorax1,thorax2,thorax3,lowerneck1,lowerneck2,lowerneck3,upperneck1,upperneck2,upperneck3,head1,head2,head3,rclavicle1,rclavicle2,rhumerus1,rhumerus2,rhumerus3,rradius1,rwrist1,rhand1,rhand2,rfingers1,rthumb1,rthumb2,lclavicle1,lclavicle2,lhumerus1,lhumerus2,lhumerus3,lradius1,lwrist1,lhand1,lhand2,lfingers1,lthumb1,lthumb2,rfemur1,rfemur2,rfemur3,rtibia1,rfoot1,rfoot2,rtoes1,lfemur1,lfemur2,lfemur3,ltibia1,lfoot1,lfoot2,ltoes1
-2.81734,17.5808,21.3552,178.756,19.1393,-174.844,-5.48237,-1.56096,1.35392,-5.57588,-1.59277,3.60532,-2.6197,-0.569694,2.90312,-14.6517,-0.743618,-3.38302,34.0044,1.5737,1.84491,14.0059,1.38376,1.81231,2.04748e-14,1.94809e-14,-17.5797,39.0806,-90.8168,127.52,-12.566,-14.0784,-60.9874,7.12502,-167.946,-89.3798,2.04748e-14,1.94809e-14,66.5969,-0.391363,48.9337,89.502,95.105,-47.0308,-15.5104,7.12502,-19.7369,13.5075,-71.318,-8.73179,35.8756,83.5497,-2.10832,-8.96289,-1.85715,-9.1441,-2.03874,-24.6875,29.9764,-23.6826,16.9846,5.44371
-2.82115,17.5837,21.3517,178.721,19.1764,-174.817,-5.39886,-1.53908,1.40887,-5.51343,-1.57276,3.60085,-2.60369,-0.565231,2.86907,-14.6703,-0.755812,-3.69749,33.8046,1.45244,2.28428,13.9169,1.33788,2.01582,6.55989e-15,-1.03368e-14,-17.4774,39.2363,-90.9803,127.404,-12.3837,-13.9466,-60.7034,7.12502,-167.819,-89.6713,6.55989e-15,-1.03368e-14,66.601,-0.257642,49.2246,89.4752,95.0853,-46.8852,-14.1096,7.12502,-19.597,14.9227,-71.1592,-8.75949,35.8855,83.5186,-2.25862,-8.89856,-2.11755,-9.08119,-2.03818,-24.676,29.9495,-23.675,16.9521,5.60677
-2.82371,17.5848,21.3506,178.706,19.1802,-174.869,-5.29154,-1.52332,1.33108,-5.51112,-1.55002,3.59108,-2.65982,-0.553098,2.90573,-14.8007,-0.972176,-3.9652,34.1656,1.22986,2.40196,14.1162,1.23657,2.0933,-2.18663e-14,-3.26007e-14,-17.4863,39.4109,-91.3785,127.274,-12.392,-13.6352,-61.3,7.12502,-167.519,-89.0927,-2.18663e-14,-3.26007e-14,66.5467,-0.172794,49.5766,89.5641,94.979,-46.7689,-12.8988,7.12502,-19.4851,16.1448,-71.1061,-8.78571,35.8288,83.554,-2.33136,-8.94826,-1.84342,-9.06035,-1.96548,-24.7312,29.9049,-23.6525,16.8682,5.37429
-2.82529,17.5863,21.3504,178.788,19.1536,-174.888,-5.35631,-1.48487,1.3134,-5.49389,-1.50434,3.54851,-2.608,-0.531802,2.87117,-14.8121,-1.16662,-4.137,34.3256,0.991374,2.48421,14.2012,1.13004,2.1267,-1.23246e-14,-7.95139e-15,-17.3325,39.4955,-91.8889,126.88,-12.1561,-13.6222,-62.3538,7.12502,-167.507,-88.0397,-1.23246e-14,-7.95139e-15,66.5274,-0.172358,49.8444,89.6663,94.6081,-46.5589,-13.2457,7.12502,-19.2832,15.8182,-71.1833,-8.8072,35.8302,83.6217,-2.35689,-9.0756,-0.957183,-9.13052,-1.88423,-24.7403,29.8728,-23.7064,16.7415,5.16775
-2.82853,17.587,21.3484,178.853,19.1042,-174.889,-5.43055,-1.45463,1.37671,-5.45334,-1.4753,3.49382,-2.52852,-0.522623,2.77756,-14.7545,-1.2011,-4.26879,34.1266,0.877356,2.67247,14.1009,1.08034,2.19801,-7.61345e-14,1.47101e-14,-17.2434,39.4856,-91.9894,126.821,-12.0225,-14.1368,-62.2748,7.12502,-168.003,-88.089,-7.61345e-14,1.47101e-14,66.5425,-0.0976704,50.0715,89.787,94.8516,-46.6025,-13.762,7.12502,-19.3251,15.2977,-71.2119,-8.90138,35.8714,83.6885,-2.39068,-9.05352,-1.28467,-9.17963,-1.89455,-24.7455,29.8479,-23.7362,16.6478,5.12455
-2.83129,17.5884,21.3471,178.884,19.0645,-174.918,-5.39669,-1.41597,1.39476,-5.44907,-1.42729,3.44456,-2.54629,-0.501506,2.71856,-14.8222,-1.27481,-4.37241,34.0946,0.756921,2.76338,14.1066,1.02288,2.2328,-1.14301e-14,-3.4191e-14,-17.323,39.5422,-92.0324,126.91,-12.06,-15.0175,-61.6969,7.12502,-168.852,-88.6192,-1.14301e-14,-3.4191e-14,66.5245,-0.050057,50.4133,89.9403,95.1281,-46.6587,-12.8535,7.12502,-19.3792,16.2008,-71.2092,-9.01856,35.898,83.735,-2.35996,-8.87002,-2.01991,-9.22901,-1.90268,-24.779,29.8613,-23.7346,16.5639,5.09606
-2.83213,17.591,21.348,178.968,19.0115,-174.916,-5.31273,-1.35521,1.37875,-5.50797,-1.33897,3.40027,-2.65823,-0.456222,2.68698,-14.9222,-1.41889,-4.45421,34.201,0.557345,2.83282,14.1868,0.938309,2.24959,-7.95139e-16,-2.10712e-14,-17.375,39.6243,-92.5377,126.625,-11.8336,-15.6564,-62.1195,7.12502,-169.468,-88.1644,-7.95139e-16,-2.10712e-14,66.495,-0.154331,50.7572,90.0024,94.7909,-46.6209,-11.9039,7.12502,-19.3428,17.1541,-71.2582,-9.09515,35.9464,83.7785,-2.35405,-8.85734,-1.54045,-9.35265,-1.78088,-24.7536,29.9044,-23.7134,16.366,4.95771
-2.83289,17.5946,21.3519,179.115,18.956,-174.748,-5.21109,-1.3187,1.50397,-5.57551,-1.28034,3.40533,-2.7908,-0.427419,2.62659,-14.9061,-1.49904,-4.49661,34.1841,0.421542,2.90818,14.1818,0.884691,2.26526,-4.58199e-14,-6.36111e-15,-17.3546,39.686,-93.0581,126.363,-11.4458,-16.0627,-62.5031,7.12502,-169.86,-87.7613,-4.58199e-14,-6.36111e-15,66.4896,-0.197026,50.9204,89.9178,94.5746,-46.4392,-12.4058,7.12502,-19.1681,16.6696,-71.2608,-9.11258,36.1494,83.7619,-2.35979,-9.08731,-0.744305,-9.52318,-1.54542,-24.5344,29.9537,-23.6354,16.1206,4.69302
-2.83392,17.5982,21.3564,179.249,18.912,-174.59,-5.17548,-1.34197,1.61476,-5.58613,-1.30781,3.44837,-2.82303,-0.442183,2.60909,-14.7959,-1.57952,-4.5665,34.0038,0.289191,2.90912,14.0825,0.810445,2.247,4.67144e-15,-7.95139e-16,-17.262,39.925,-93.3863,126.207,-11.175,-16.3605,-62.3696,7.12502,-170.148,-87.8809,4.67144e-15,-7.95139e-16,66.4041,-0.0412079,50.9561,89.8388,94.4177,-45.7262,-13.4116,7.12502,-18.4823,15.7304,-71.262,-9.12456,36.3414,83.747,-2.44456,-9.2043,-0.0873467,-9.67351,-1.44335,-24.3456,30.0049,-23.5864,16.0397,4.39561
-2.83453,17.5988,21.356,179.3,18.9171,-174.667,-5.15558,-1.3444,1.48952,-5.60132,-1.30653,3.45314,-2.84657,-0.437179,2.68499,-14.5922,-1.80229,-4.74305,33.8394,-0.00527001,2.86966,13.9797,0.649511,2.20613,9.83984e-15,-9.54166e-15,-17.2353,40.2148,-93.6999,126.049,-10.9244,-16.2198,-62.6789,7.12502,-170.012,-87.5781,9.83984e-15,-9.54166e-15,66.2371,0.0872192,51.1159,89.8678,94.0494,-45.2912,-13.213,7.12502,-18.0638,15.9681,-71.313,-9.14439,36.3184,83.784,-2.51762,-9.09624,-0.0152229,-9.78387,-1.46516,-24.4288,30.0491,-23.5446,16.1068,4.17453
-2.8352,17.6001,21.3543,179.371,18.8677,-174.707,-5.15448,-1.29559,1.43755,-5.59789,-1.24404,3.40507,-2.84533,-0.40645,2.66598,-14.4995,-2.03703,-4.96999,33.8034,-0.336015,2.99151,13.9621,0.493322,2.24096,9.93923e-16,-4.77083e-14,-17.1504,40.2481,-93.9666,125.972,-10.5294,-16.0084,-63.0067,7.12502,-169.808,-87.2602,9.93923e-16,-4.77083e-14,66.2331,0.120074,51.4088,90.133,94.2627,-45.7002,-12.2896,7.12502,-18.4573,16.8548,-71.3201,-9.2349,36.3485,83.7725,-2.48389,-9.06901,-0.596413,-9.8933,-1.47689,-24.4681,30.0598,-23.5236,16.0863,3.98199
-2.83566,17.6039,21.3558,179.51,18.7235,-174.577,-5.1855,-1.23842,1.5667,-5.53713,-1.18184,3.34749,-2.77093,-0.383768,2.53406,-15.0354,-2.10343,-4.88149,34.0276,-0.458725,3.03778,14.1886,0.453401,2.23568,-8.44835e-15,-3.26007e-14,-16.9419,40.117,-94.1427,125.849,-10.0364,-16.256,-62.7166,7.12502,-170.047,-87.5387,-8.44835e-15,-3.26007e-14,66.4518,0.15628,51.5944,90.4004,94.9274,-45.8191,-12.2243,7.12502,-18.5717,16.9091,-71.3177,-9.36975,36.5372,83.7413,-2.32008,-9.20372,-1.22307,-9.98964,-1.44411,-24.32,30.0293,-23.454,15.9917,3.5602
-2.83555,17.608,21.3565,179.55,18.7024,-174.513,-5.15412,-1.19622,1.62046,-5.46113,-1.13872,3.31401,-2.71235,-0.368875,2.46989,-15.2851,-2.21013,-4.94325,34.0687,-0.604064,3.03624,14.2723,0.375045,2.22392,5.76476e-14,-1.82882e-14,-16.8264,40.1487,-94.3448,125.625,-9.67293,-16.6257,-62.2065,7.12502,-170.403,-88.032,5.76476e-14,-1.82882e-14,66.5747,0.292497,51.6144,90.4497,95.0184,-45.1712,-12.5208,7.12502,-17.9484,16.671,-71.2792,-9.40158,36.6566,83.738,-2.09356,-9.19775,-2.51038,-9.97074,-1.35319,-24.2521,29.9654,-23.2982,15.9807,3.11164
-2.83662,17.6113,21.3544,179.485,18.7515,-174.575,-5.08073,-1.19523,1.52582,-5.40639,-1.14211,3.32432,-2.69362,-0.370827,2.53408,-15.2168,-2.34939,-5.14913,34.0255,-0.729761,2.95654,14.2474,0.27989,2.20431,4.37326e-15,-3.97569e-15,-16.8161,40.3538,-94.6233,125.532,-9.55452,-16.7458,-62.0674,7.12502,-170.519,-88.1658,4.37326e-15,-3.97569e-15,66.4967,0.502059,51.6105,90.3793,94.6868,-44.6793,-12.3978,7.12502,-17.475,16.8367,-71.163,-9.41173,36.6298,83.7378,-2.03551,-9.08211,-3.42889,-9.88196,-1.32373,-24.3316,29.8869,-23.1818,16.0158,3.16385
-2.83832,17.6126,21.3517,179.396,18.7786,-174.691,-4.88511,-1.19833,1.27876,-5.44371,-1.13006,3.395,-2.83531,-0.354617,2.75017,-15.1723,-2.48439,-5.44881,34.1152,-0.831509,2.98166,14.2889,0.205585,2.2546,-2.94201e-14,-2.0276e-14,-16.9914,40.5685,-94.9079,125.664,-9.54585,-16.7121,-62.0017,7.12502,-170.487,-88.2331,-2.94201e-14,-2.0276e-14,66.3069,0.615724,51.7061,90.3701,94.6568,-45.0765,-12.0512,7.12502,-17.8573,17.1489,-71.0234,-9.4515,36.5099,83.7637,-2.15578,-8.96753,-2.8425,-9.79149,-1.35874,-24.4736,29.8146,-23.1032,16.0674,3.52492
-2.8386,17.6107,21.3534,179.362,18.7594,-174.777,-4.63574,-1.18908,1.02615,-5.51923,-1.09722,3.45444,-3.04834,-0.32604,2.95984,-15.2354,-2.56438,-5.67216,34.2064,-0.914686,3.11667,14.3535,0.162465,2.33998,-4.27387e-15,4.25399e-14,-17.2846,40.6905,-95.198,125.709,-9.39303,-16.7768,-61.5485,7.12502,-170.549,-88.6834,-4.27387e-15,4.25399e-14,66.1614,0.630018,51.8055,90.4768,94.7364,-45.5177,-12.2386,7.12502,-18.2817,16.9223,-70.9584,-9.50654,36.4338,83.8132,-2.29966,-8.90295,-1.98693,-9.76951,-1.35242,-24.567,29.7574,-23.0038,16.0715,3.55546
-2.83837,17.6096,21.3593,179.42,18.6892,-174.766,-4.61187,-1.18469,0.971792,-5.45685,-1.1005,3.43435,-2.99548,-0.330277,2.96903,-15.5589,-2.49578,-5.57484,33.9677,-0.939704,3.23847,14.3166,0.157435,2.35688,1.50082e-14,2.10712e-14,-17.2656,40.665,-95.4394,125.537,-9.09916,-17.0421,-61.201,7.12502,-170.805,-89.0194,1.50082e-14,2.10712e-14,66.3112,0.770326,51.741,90.5134,94.7453,-45.244,-12.512,7.12502,-18.0184,16.6734,-70.9743,-9.54408,36.4728,83.8526,-2.39399,-8.94317,-1.78243,-9.83999,-1.34853,-24.5406,29.7231,-22.991,15.961,3.56479
-2.83872,17.6118,21.363,179.475,18.6814,-174.74,-4.72246,-1.20321,0.990434,-5.32891,-1.14587,3.40967,-2.79892,-0.360606,2.92826,-15.8398,-2.27817,-5.4553,33.4439,-0.834652,3.47363,14.1328,0.213228,2.42412,3.23025e-14,-2.14687e-14,-17.1277,40.7,-95.6997,125.343,-8.95849,-17.3621,-61.0311,7.12502,-171.114,-89.1761,3.23025e-14,-2.14687e-14,66.4815,1.0903,51.5346,90.5085,94.8933,-45.1829,-11.8452,7.12502,-17.9596,17.3455,-70.9623,-9.50137,36.5227,83.8653,-2.35435,-8.93788,-2.29228,-9.89057,-1.37586,-24.5085,29.7152,-23.0552,15.9325,3.72511
-2.84053,17.6141,21.3636,179.51,18.6726,-174.713,-4.75568,-1.22133,1.03379,-5.27238,-1.18111,3.37689,-2.7214,-0.383596,2.86768,-15.7509,-2.14197,-5.56471,33.0069,-0.790299,3.83459,13.9153,0.248222,2.57625,1.25234e-14,-1.35174e-14,-17.1618,40.7832,-96.0261,125.236,-8.89549,-17.5663,-61.0198,7.12502,-171.311,-89.179,1.25234e-14,-1.35174e-14,66.5037,1.31134,51.3004,90.5448,95.0922,-45.3455,-11.3902,7.12502,-18.1161,17.7862,-70.9198,-9.4767,36.5538,83.8714,-2.28272,-8.80502,-2.73333,-9.91852,-1.39686,-24.4878,29.7203,-23.0081,16.0326,3.6117
-2.84408,17.6155,21.3629,179.539,18.6244,-174.613,-4.73846,-1.19403,1.17989,-5.20887,-1.15852,3.32013,-2.67008,-0.381774,2.72669,-15.6886,-2.16316,-5.63389,32.7506,-0.893975,3.99483,13.7953,0.204789,2.62389,1.97791e-14,-2.38542e-14,-17.1204,40.7318,-96.2678,125.164,-8.73354,-18.0752,-61.2737,7.12502,-171.802,-88.9053,1.97791e-14,-2.38542e-14,66.6135,1.40261,51.1262,90.5593,95.1565,-45.0824,-11.8886,7.12502,-17.863,17.311,-70.8446,-9.5046,36.6425,83.8651,-2.2682,-8.702,-2.87975,-9.93584,-1.45946,-24.3951,29.7343,-22.9394,16.0998,3.57702
-2.84762,17.6152,21.3635,179.532,18.6043,-174.547,-4.63411,-1.15024,1.20413,-5.1602,-1.10487,3.32459,-2.68026,-0.358297,2.72007,-15.8407,-2.27379,-5.66887,32.7443,-1.02511,3.90862,13.8352,0.12577,2.5736,-6.26172e-15,-2.90226e-14,-17.1117,40.5973,-96.4069,125.108,-8.55041,-18.4228,-61.3492,7.12502,-172.138,-88.817,-6.26172e-15,-2.90226e-14,66.7394,1.45032,51.0771,90.4848,94.8829,-44.7787,-12.2682,7.12502,-17.5707,16.9578,-70.7589,-9.5224,36.7184,83.8448,-2.20549,-8.72545,-3.28112,-9.93988,-1.49141,-24.3369,29.7772,-22.9767,16.0814,3.70238
-2.85035,17.6134,21.3672,179.546,18.6158,-174.543,-4.51108,-1.11062,1.10402,-5.1724,-1.04439,3.3684,-2.76137,-0.323589,2.82523,-15.9088,-2.44371,-5.80116,32.8555,-1.19547,3.82934,13.9128,0.0269206,2.54204,-6.93758e-14,-1.11319e-14,-17.2362,40.4377,-96.5325,125.071,-8.33618,-18.1683,-61.2784,7.12502,-171.892,-88.8971,-6.93758e-14,-1.11319e-14,66.8125,1.43949,51.064,90.3221,94.4837,-44.6189,-12.5613,7.12502,-17.4169,16.6784,-70.7313,-9.48383,36.7301,83.8477,-2.17909,-8.67177,-3.43761,-10.0072,-1.44918,-24.3367,29.8643,-23.0568,16.0551,3.61177
-2.85195,17.6107,21.3691,179.585,18.6324,-174.512,-4.48743,-1.09629,1.08045,-5.16896,-1.02282,3.3997,-2.77103,-0.311091,2.87171,-15.8297,-2.55567,-5.98622,32.8447,-1.32139,3.87721,13.9022,-0.0438198,2.57272,1.63997e-14,7.55382e-15,-17.3544,40.3534,-96.7124,125.03,-8.10334,-18.2433,-60.9708,7.12502,-171.964,-89.202,1.63997e-14,7.55382e-15,66.8249,1.47855,51.0318,90.3254,94.3867,-44.6552,-12.8482,7.12502,-17.4518,16.3884,-70.6961,-9.38415,36.7358,83.8743,-2.28541,-8.67791,-3.14694,-10.1042,-1.46513,-24.3106,29.9831,-23.1051,16.0949,3.55514
-2.85177,17.6058,21.3732,179.609,18.5981,-174.479,-4.43878,-1.12745,1.05999,-5.16096,-1.06338,3.42077,-2.78745,-0.3307,2.90489,-15.7636,-2.59877,-6.20233,32.8138,-1.37185,4.02259,13.8815,-0.0736013,2.65976,-1.48095e-14,-3.29983e-14,-17.4599,40.3694,-96.913,124.945,-7.86415,-18.5397,-60.3666,7.12502,-172.251,-89.7954,-1.48095e-14,-3.29983e-14,66.7973,1.59464,51.0217,90.5279,94.6094,-44.9899,-12.5184,7.12502,-17.7739,16.6893,-70.6851,-9.28377,36.7536,83.9104,-2.40766,-8.86642,-2.50698,-10.2003,-1.48593,-24.2695,30.1,-23.1206,16.1027,3.60285
-2.851,17.5995,21.3815,179.625,18.5043,-174.504,-4.31266,-1.15507,0.948135,-5.18434,-1.09671,3.39733,-2.87884,-0.344919,2.94526,-15.7542,-2.69247,-6.28651,32.8474,-1.49616,4.06503,13.9047,-0.131241,2.67294,-1.36167e-14,-1.98785e-15,-17.5588,40.2985,-97.104,124.929,-7.67375,-18.1564,-60.2512,7.12502,-171.881,-89.9247,-1.36167e-14,-1.98785e-15,66.8737,1.63968,50.9719,90.6454,94.7831,-45.3964,-11.9175,7.12502,-18.1651,17.2543,-70.765,-9.24778,36.7544,83.9651,-2.27521,-8.87931,-2.70036,-10.3032,-1.46126,-24.2751,30.1887,-23.1402,16.037,3.48703
-2.85269,17.5942,21.3857,179.604,18.4283,-174.654,-4.20408,-1.16844,0.736556,-5.2265,-1.11115,3.33696,-2.9792,-0.347218,3.00388,-15.7261,-2.76196,-6.25486,32.914,-1.5785,4.00321,13.9331,-0.16758,2.63203,1.31198e-14,1.39149e-14,-17.6691,40.1521,-97.291,125.028,-7.67648,-17.4724,-60.5771,7.12502,-171.22,-89.6255,1.31198e-14,1.39149e-14,66.9522,1.62361,50.8899,90.6736,94.7855,-45.7814,-11.6359,7.12502,-18.5354,17.501,-70.8447,-9.28173,36.6292,84.0535,-2.04151,-8.75308,-3.59098,-10.3774,-1.46988,-24.429,30.2462,-23.177,15.9812,3.22664
-2.85584,17.592,21.3888,179.593,18.4393,-174.819,-4.18286,-1.17354,0.549381,-5.25343,-1.1164,3.29532,-3.01551,-0.344983,3.0667,-15.6186,-2.77214,-6.28241,32.8956,-1.57033,3.95846,13.901,-0.172046,2.6193,-8.44835e-15,4.37326e-15,-17.7141,40.076,-97.4103,125.07,-7.70434,-17.2721,-60.6309,7.12502,-171.027,-89.5799,-8.44835e-15,4.37326e-15,66.9569,1.66934,50.8404,90.747,94.9128,-45.9685,-11.7792,7.12502,-18.7154,17.3405,-70.8901,-9.28639,36.487,84.1394,-2.02007,-8.70555,-3.66131,-10.4564,-1.49673,-24.614,30.2776,-23.2236,16.0227,3.02109
-2.85772,17.592,21.3928,179.65,18.4785,-174.858,-4.24526,-1.15727,0.499547,-5.23486,-1.0995,3.26046,-2.9615,-0.337237,3.05756,-15.6528,-2.8244,-6.31039,32.8981,-1.63866,3.95036,13.9149,-0.208116,2.60959,-5.46658e-14,-5.96354e-15,-17.6591,40.0184,-97.4594,125.091,-7.63083,-17.4224,-60.5983,7.12502,-171.172,-89.6063,-5.46658e-14,-5.96354e-15,67.0305,1.71491,50.7939,90.883,95.129,-45.9509,-12.1566,7.12502,-18.6985,16.9647,-70.9564,-9.23547,36.504,84.1887,-2.16046,-8.65463,-3.52931,-10.5572,-1.55289,-24.6599,30.2987,-23.3148,16.1276,2.8611
-2.85924,17.5938,21.3963,179.788,18.4372,-174.782,-4.35205,-1.16728,0.549914,-5.22513,-1.11558,3.24952,-2.89199,-0.347082,3.01559,-15.9327,-2.87473,-6.35583,33.1203,-1.69981,4.03177,14.082,-0.225687,2.65037,4.03533e-14,1.31198e-14,-17.6255,39.9776,-97.4773,125.167,-7.66339,-17.1627,-60.7922,7.12502,-170.922,-89.4232,4.03533e-14,1.31198e-14,67.1331,1.72651,50.7233,90.9639,95.1029,-45.9532,-12.5367,7.12502,-18.7007,16.5844,-71.0712,-9.23596,36.655,84.1841,-2.28612,-8.59233,-3.70595,-10.7127,-1.60408,-24.5746,30.3418,-23.3663,16.129,2.89853
-2.86075,17.5983,21.4016,179.933,18.3764,-174.594,-4.43097,-1.16661,0.696566,-5.23566,-1.11287,3.27459,-2.86169,-0.347661,2.9579,-16.0918,-2.9486,-6.5144,33.3521,-1.79222,4.22294,14.2332,-0.251137,2.75232,-1.68967e-14,-1.59028e-14,-17.7012,39.8986,-97.486,125.273,-7.68371,-16.448,-61.0077,7.12502,-170.232,-89.2389,-1.68967e-14,-1.59028e-14,67.2672,1.69753,50.7235,90.9775,95.0487,-46.2424,-12.0405,7.12502,-18.9789,17.0536,-71.1046,-9.25795,36.931,84.095,-2.2669,-8.56359,-3.93404,-10.877,-1.58561,-24.3552,30.4162,-23.325,16.0527,3.26057
-2.86133,17.6011,21.4067,180.051,18.4369,-174.418,-4.54589,-1.10587,0.843653,-5.22362,-1.03483,3.27833,-2.79147,-0.312305,2.87861,-15.9265,-3.05017,-6.74982,33.3636,-1.95713,4.49604,14.2206,-0.308755,2.87986,5.4964e-14,-2.36554e-14,-17.8249,39.766,-97.5101,125.407,-7.60279,-16.119,-61.0073,7.12502,-169.915,-89.2543,5.4964e-14,-2.36554e-14,67.4529,1.63446,50.7754,91.0061,95.0683,-46.402,-11.3145,7.12502,-19.1323,17.7645,-71.0823,-9.11759,37.1824,83.9562,-2.32506,-8.79563,-2.77026,-11.0077,-1.55392,-24.1564,30.5032,-23.3189,16.0702,3.40939
-2.86239,17.6006,21.4091,180.173,18.5314,-174.318,-4.71696,-1.07663,0.942846,-5.20424,-1.00056,3.28216,-2.67913,-0.297598,2.82471,-15.7607,-3.07978,-6.95215,33.2993,-2.01304,4.69654,14.1647,-0.330146,2.98574,1.46107e-14,4.37326e-15,-17.8255,39.7723,-97.4943,125.506,-7.63195,-15.963,-60.7122,7.12502,-169.764,-89.5568,1.46107e-14,4.37326e-15,67.5417,1.65761,50.7949,91.0699,95.0438,-46.0273,-11.4315,7.12502,-18.7719,17.6827,-71.1148,-8.93026,37.3353,83.8404,-2.92792,-9.46313,1.47829,-11.1359,-1.54993,-24.056,30.5852,-23.3548,16.1437,3.36706
-2.86562,17.5999,21.4102,180.222,18.5348,-174.234,-4.79181,-1.12243,1.03798,-5.15718,-1.06938,3.29469,-2.58724,-0.336078,2.78074,-15.9277,-3.0583,-6.95453,33.423,-1.9579,4.67283,14.2536,-0.309275,2.99135,-1.43622e-14,2.0276e-14,-17.6537,39.9277,-97.4236,125.508,-7.67525,-15.7904,-60.2545,7.12502,-169.598,90.0228,-1.43622e-14,2.0276e-14,67.6067,1.82532,50.8048,91.1756,95.1835,-45.7032,-11.2723,7.12502,-18.4602,17.8718,-71.1058,-8.90933,37.4863,83.7479,-2.84995,-9.52872,0.579083,-11.1905,-1.54961,-23.973,30.6467,-23.4309,16.113,3.61151
-2.86821,17.6,21.411,180.211,18.5192,-174.233,-4.79969,-1.18737,1.01768,-5.10832,-1.1646,3.26976,-2.52798,-0.386831,2.76311,-16.2657,-3.14061,-6.76712,33.9732,-1.95951,4.36918,14.5765,-0.310688,2.85983,-1.65488e-14,1.39149e-15,-17.53,40.1142,-97.4361,125.494,-7.59226,-16.1196,-60.1161,7.12502,-169.915,90.1456,-1.65488e-14,1.39149e-15,67.6952,1.98392,50.7397,91.2707,95.0932,-45.6342,-10.7137,7.12502,-18.3939,18.4366,-71.0834,-8.9452,37.5626,83.6941,-2.64839,-9.48267,-0.147609,-11.2074,-1.51877,-23.965,30.6732,-23.5441,15.9597,3.95535
-2.86994,17.6014,21.4109,180.248,18.4936,-174.265,-4.86542,-1.2254,0.960977,-5.10678,-1.21854,3.22613,-2.48686,-0.413876,2.74718,-16.4931,-3.45934,-6.70955,34.9589,-2.15306,3.94367,15.1039,-0.402022,2.68744,2.43014e-14,2.26615e-14,-17.5331,40.2507,-97.4663,125.563,-7.45884,-16.5647,-60.2955,7.12502,-170.345,270.054,2.43014e-14,2.26615e-14,67.7684,2.00606,50.7029,91.3908,94.9044,-45.9621,-10.3888,7.12502,-18.7093,18.7315,-71.1422,-8.98609,37.5861,83.7096,-2.71337,-9.51525,0.67707,-11.2725,-1.49051,-23.9906,30.6767,-23.6022,15.8308,3.94202
-2.87191,17.6042,21.4108,180.299,18.4819,-174.211,-4.91609,-1.20017,0.998509,-5.10572,-1.18783,3.19493,-2.46014,-0.400314,2.69373,-16.2769,-3.53242,-6.88615,34.8533,-2.3131,4.2051,15.0226,-0.456006,2.79709,8.52289e-14,-2.78299e-15,-17.5184,40.259,-97.3641,125.637,-7.36454,-16.5443,-60.4028,7.12502,-170.325,270.161,8.52289e-14,-2.78299e-15,67.9643,1.92844,50.7979,91.5129,95.0561,-46.3139,-10.958,7.12502,-19.0476,18.1293,-71.1622,-9.02212,37.6879,83.7288,-2.96406,-9.61534,2.07469,-11.306,-1.48559,-23.9367,30.6782,-23.649,15.7882,3.71121
-2.87341,17.6047,21.4128,180.289,18.5269,-174.139,-4.86322,-1.14679,1.02204,-5.10526,-1.11819,3.16647,-2.49289,-0.367497,2.65384,-16.0231,-3.63407,-6.94923,34.7511,-2.49975,4.3186,14.933,-0.52624,2.81975,-4.4329e-14,-2.0276e-14,-17.5748,40.1875,-97.262,125.655,-7.38373,-16.3701,-60.327,7.12502,-170.157,270.077,-4.4329e-14,-2.0276e-14,68.1804,1.79674,50.8642,91.6061,95.3053,-46.3094,-12.0085,7.12502,-19.0432,17.0793,-71.0894,-8.98717,37.7932,83.7432,-3.2116,-9.6512,3.39152,-11.2677,-1.48589,-23.8636,30.6725,-23.7349,15.7571,3.81859
-2.87567,17.6022,21.4174,180.282,18.4787,-174.158,-4.80214,-1.17533,0.942986,-5.14887,-1.15013,3.14991,-2.56958,-0.380383,2.68186,-15.8745,-3.6658,-6.84856,34.7007,-2.53728,4.17639,14.8734,-0.54825,2.73347,1.51076e-14,-2.62396e-14,-17.7119,40.2058,-97.2173,125.665,-7.47523,-16.3697,-60.1249,7.12502,-170.156,90.1251,1.51076e-14,-2.62396e-14,68.1871,1.7156,50.8678,91.7234,95.5369,-46.436,-12.3131,7.12502,-19.165,16.7626,-71.138,-9.0024,37.799,83.7993,-3.3312,-9.55748,3.98546,-11.2777,-1.54141,-23.8818,30.657,-23.8103,15.6753,3.98585
-2.87701,17.5996,21.4221,180.25,18.3516,-174.283,-4.73988,-1.27193,0.750405,-5.20474,-1.26938,3.14594,-2.65308,-0.432788,2.78484,-16.0694,-3.62054,-6.66871,34.8501,-2.40474,3.88548,14.9709,-0.506956,2.60805,-2.40032e-14,3.16068e-14,-17.8046,40.3689,-97.1937,125.708,-7.51166,-16.2351,-60.0486,7.12502,-170.027,90.2076,-2.40032e-14,3.16068e-14,68.0826,1.73366,50.8207,91.7375,95.4295,-46.4749,-12.1661,7.12502,-19.2024,16.9059,-71.2678,-9.10055,37.7111,83.8694,-3.31912,-9.46342,3.60535,-11.3103,-1.60532,-24.0042,30.6425,-23.8256,15.6179,3.67109
-2.87777,17.5982,21.4254,180.155,18.3187,-174.389,-4.65564,-1.32744,0.60446,-5.20804,-1.3431,3.11823,-2.6972,-0.467331,2.83808,-16.1459,-3.6296,-6.74732,35.074,-2.35494,3.87924,15.0942,-0.487775,2.63869,2.47984e-14,-2.24627e-14,-17.7997,40.5408,-97.1686,125.771,-7.59188,-16.4196,-59.9613,7.12502,-170.205,90.2865,2.47984e-14,-2.24627e-14,68.1083,1.7706,50.736,91.6506,95.1006,-46.5113,-11.7305,7.12502,-19.2374,17.338,-71.2812,-9.14641,37.6436,83.8952,-3.26384,-9.47076,2.94929,-11.2557,-1.60718,-24.1142,30.6219,-23.777,15.6577,3.35636
-2.8799,17.5976,21.4273,180.075,18.376,-174.424,-4.57293,-1.32567,0.5742,-5.20176,-1.34424,3.07249,-2.73694,-0.469829,2.80927,-16.1886,-3.63263,-6.86374,35.2481,-2.35642,4.05708,15.1931,-0.47012,2.74369,-2.04251e-14,1.59028e-15,-17.7413,40.616,-97.099,125.8,-7.73691,-16.5832,-59.8585,7.12502,-170.363,90.3819,-2.04251e-14,1.59028e-15,68.2081,1.7644,50.6878,91.6405,95.1385,-46.7824,-11.165,7.12502,-19.4981,17.8773,-71.2426,-9.11762,37.6517,83.8654,-3.07969,-9.46061,2.13406,-11.1719,-1.59125,-24.1559,30.586,-23.7735,15.6453,3.56908
-2.88181,17.5967,21.4314,180.036,18.3871,-174.447,-4.48277,-1.3403,0.533796,-5.23265,-1.36071,3.05282,-2.81814,-0.476706,2.81355,-16.1174,-3.679,-6.97896,35.3617,-2.39193,4.12077,15.2382,-0.483934,2.79142,-1.46604e-14,1.23246e-14,-17.6247,40.693,-96.9512,125.839,-7.83134,-16.2355,-59.9628,7.12502,-170.027,90.2934,-1.46604e-14,1.23246e-14,68.2399,1.77441,50.6788,91.7175,95.4636,-46.775,-11.2284,7.12502,-19.491,17.8147,-71.2502,-9.10903,37.676,83.8171,-2.8956,-9.37639,1.02514,-11.1326,-1.6059,-24.1791,30.5495,-23.817,15.5878,3.75716
-2.88411,17.5956,21.4394,180.043,18.3103,-174.472,-4.40904,-1.37388,0.47688,-5.29987,-1.39741,3.03699,-2.92658,-0.490904,2.83098,-16.0246,-3.69002,-7.01517,35.3136,-2.41609,4.15241,15.1965,-0.494766,2.80494,-6.90777e-15,-1.64991e-14,-17.5718,40.7772,-96.8289,125.917,-7.8772,-16.5397,-60.2236,7.12502,-170.321,90.0188,-6.90777e-15,-1.64991e-14,68.2862,1.75189,50.6875,91.8089,95.7349,-46.6181,-11.7766,7.12502,-19.3401,17.2816,-71.3431,-9.13333,37.6786,83.7838,-2.87922,-9.29333,0.466745,-11.1694,-1.64132,-24.199,30.5364,-23.863,15.5432,3.68658
-2.8877,17.5944,21.4436,180.02,18.2786,-174.499,-4.34989,-1.38625,0.454701,-5.3707,-1.40728,2.99827,-3.03327,-0.493247,2.80554,-15.8814,-3.56936,-6.86111,34.9353,-2.37141,4.22182,14.9741,-0.460806,2.79565,7.30534e-15,9.93923e-15,-17.7365,40.8003,-96.8244,125.97,-7.90692,-16.9925,-60.7891,7.12502,-170.757,-89.4334,7.30534e-15,9.93923e-15,68.3129,1.66167,50.6576,91.8923,95.8638,-46.8227,-11.8805,7.12502,-19.5368,17.1579,-71.3739,-9.1028,37.625,83.7701,-2.91959,-9.36297,1.09459,-11.1631,-1.65677,-24.2357,30.5333,-23.8834,15.5877,3.31752
-2.89089,17.5945,21.4462,180.012,18.2949,-174.433,-4.31587,-1.41485,0.51187,-5.39819,-1.44223,3.00516,-3.08078,-0.511011,2.78111,-15.5431,-3.91927,-7.02962,35.4587,-2.63485,3.88414,15.1693,-0.608482,2.66487,4.50744e-14,-1.33186e-14,-17.8213,40.8641,-96.7761,126.027,-8.05166,-16.8416,-61.1848,7.12502,-170.612,-89.0443,4.50744e-14,-1.33186e-14,68.2535,1.65386,50.5779,91.9451,95.8421,-46.9397,-11.9129,7.12502,-19.6493,17.114,-71.3202,-9.02319,37.6658,83.7194,-2.88458,-9.47203,1.33343,-11.1407,-1.64673,-24.1792,30.5305,-23.8282,15.7346,2.83656
-2.89322,17.5946,21.4532,180.04,18.287,-174.393,-4.30887,-1.46219,0.522976,-5.43228,-1.50003,3.02676,-3.11751,-0.537733,2.79697,-15.9575,-3.69021,-6.6444,35.3745,-2.3662,3.68978,15.191,-0.485286,2.55404,1.72943e-14,6.95746e-15,-17.8585,40.9738,-96.7242,126.073,-8.26362,-16.7104,-60.8032,7.12502,-170.485,-89.4316,1.72943e-14,6.95746e-15,68.1567,1.68191,50.4875,91.916,95.7819,-46.7496,-12.3021,7.12502,-19.4666,16.7434,-71.3698,-8.96771,37.7206,83.6547,-2.79542,-9.46938,0.943192,-11.2111,-1.64014,-24.1338,30.5534,-23.8059,15.7949,2.74054
-2.89666,17.5923,21.4584,179.983,18.3331,-174.451,-4.22758,-1.46523,0.473166,-5.50853,-1.49477,3.01682,-3.2417,-0.530372,2.81791,-15.8427,-3.69205,-6.61403,35.3681,-2.3171,3.52087,15.1552,-0.481682,2.48573,-5.6753e-14,1.45113e-14,-18.0934,41.0132,-96.7397,126.096,-8.37146,-16.7647,-60.3603,7.12502,-170.538,-89.8722,-5.6753e-14,1.45113e-14,68.0488,1.60802,50.4183,91.8442,95.6826,-46.6736,-12.3944,7.12502,-19.3934,16.6585,-71.4076,-8.88558,37.6477,83.6204,-2.78792,-9.54356,1.05545,-11.2235,-1.58666,-24.2036,30.6064,-23.8504,15.8066,2.8168
-2.90076,17.5897,21.4624,179.953,18.4108,-174.358,-4.05355,-1.44595,0.558244,-5.60675,-1.45393,3.05517,-3.44533,-0.506712,2.81609,-15.6465,-3.78056,-6.69452,35.4637,-2.3533,3.37867,15.1594,-0.517536,2.43911,-4.61677e-14,1.80894e-14,-18.3665,41.0282,-96.7518,126.18,-8.40765,-16.6902,-60.4907,7.12502,-170.466,-89.745,-4.61677e-14,1.80894e-14,67.9327,1.49893,50.3935,91.8242,95.4922,-46.661,-12.2305,7.12502,-19.3813,16.8236,-71.3552,-8.75988,37.7079,83.5571,-2.93463,-9.67965,1.55137,-11.199,-1.51677,-24.1193,30.6674,-23.8887,15.8224,2.9725
-2.90421,17.5881,21.4661,179.985,18.4283,-174.185,-4.02525,-1.46879,0.719253,-5.63265,-1.4776,3.11068,-3.49055,-0.520297,2.78403,-15.6541,-3.77296,-6.69401,35.5613,-2.29437,3.29478,15.2035,-0.499421,2.41822,-6.76862e-14,2.98177e-15,-18.4335,41.1262,-96.7245,126.289,-8.54195,-16.5475,-60.8965,7.12502,-170.328,-89.3455,-6.76862e-14,2.98177e-15,67.8367,1.52534,50.3738,91.8526,95.5071,-46.6883,-12.0615,7.12502,-19.4076,16.99,-71.3167,-8.68954,37.8517,83.476,-3.08076,-9.69396,2.17484,-11.2098,-1.5735,-23.9478,30.7103,-23.91,15.8713,3.12127
-2.90753,17.5877,21.466,179.966,18.4338,-174.128,-4.17669,-1.50856,0.812471,-5.55819,-1.54084,3.12464,-3.32743,-0.55751,2.74047,-15.7525,-3.7259,-6.77485,35.6759,-2.20448,3.36849,15.2789,-0.459037,2.48444,7.00716e-15,-1.09332e-14,-18.2679,41.2673,-96.602,126.276,-8.6943,-16.6998,-61.0507,7.12502,-170.475,-89.1846,7.00716e-15,-1.09332e-14,67.7972,1.6472,50.3272,91.831,95.6339,-46.5821,-12.509,7.12502,-19.3055,16.5527,-71.2744,-8.65814,37.872,83.4188,-3.14477,-9.62868,2.49592,-11.1788,-1.60841,-23.9052,30.7315,-23.948,15.9323,3.2301
-2.91031,17.5881,21.4645,179.88,18.4323,-174.181,-4.28784,-1.54346,0.785886,-5.48507,-1.59827,3.11713,-3.18572,-0.589002,2.74273,-15.7892,-3.70793,-6.84055,35.7496,-2.13407,3.34445,15.3202,-0.439617,2.5013,6.16232e-15,5.56597e-15,-18.0825,41.3747,-96.4437,126.199,-8.75043,-17.0419,-60.9062,7.12502,-170.805,-89.3143,6.16232e-15,5.56597e-15,67.7859,1.71756,50.2716,91.7194,95.5754,-46.3492,-13.334,7.12502,-19.0815,15.7499,-71.2268,-8.65611,37.7789,83.4073,-3.27092,-9.55372,2.45806,-11.0933,-1.56039,-23.9757,30.7317,-23.9918,15.9229,3.22975
-2.91231,17.589,21.4664,179.801,18.4362,-174.242,-4.34485,-1.57251,0.698364,-5.43701,-1.64275,3.12339,-3.0989,-0.610621,2.79532,-15.7697,-3.70365,-6.79584,35.7681,-2.06184,3.13611,15.3169,-0.431945,2.41776,8.41356e-14,-1.19271e-15,-17.9565,41.4368,-96.302,126.228,-8.85102,-17.2552,-60.8737,7.12502,-171.011,-89.3378,8.41356e-14,-1.19271e-15,67.7689,1.78308,50.2642,91.7153,95.6431,-46.4802,-13.3709,7.12502,-19.2075,15.7006,-71.2326,-8.63224,37.68,83.4136,-3.37696,-9.19518,2.18465,-11.0439,-1.57182,-24.0424,30.7195,-23.9533,15.8871,3.00781
-2.91401,17.591,21.472,179.797,18.4765,-174.206,-4.44863,-1.59151,0.713163,-5.36881,-1.67597,3.14909,-2.96805,-0.629716,2.80912,-15.8176,-3.68485,-6.83398,35.8273,-1.99674,3.09937,15.3534,-0.414023,2.42254,-3.54334e-14,-2.16675e-14,-17.7685,41.4855,-96.1467,126.328,-9.02958,-17.1443,-61.0324,7.12502,-170.904,-89.1837,-3.54334e-14,-2.16675e-14,67.7788,1.89349,50.2306,91.7615,95.5595,-46.6568,-12.8332,7.12502,-19.3773,16.2213,-71.2853,-8.55487,37.7104,83.3699,-3.3803,-8.63598,1.80401,-11.0727,-1.53157,-23.9949,30.7291,-23.8683,15.8489,2.84326
-2.91584,17.5901,21.476,179.775,18.498,-174.163,-4.56028,-1.61734,0.802754,-5.3149,-1.71851,3.15734,-2.85022,-0.655479,2.76262,-15.9145,-3.6488,-6.93929,36.0078,-1.90621,3.18795,15.462,-0.37098,2.50349,6.68413e-14,1.98785e-16,-17.6314,41.5355,-96.0495,126.067,-8.80662,-17.5828,-60.8227,7.12502,-171.327,-89.3755,6.68413e-14,1.98785e-16,67.7438,1.95783,50.1592,91.6925,95.2745,-46.6181,-12.5107,7.12502,-19.3401,16.5475,-71.2861,-8.48989,37.729,83.3167,-3.37935,-8.44291,1.94011,-11.0702,-1.44565,-23.9519,30.786,-23.8556,15.8672,2.76881
-2.91796,17.5851,21.4779,179.708,18.4798,-174.112,-4.63372,-1.64013,0.907318,-5.28792,-1.75354,3.16446,-2.78284,-0.676588,2.7081,-15.9765,-3.67587,-7.01554,36.2846,-1.86232,3.17035,15.613,-0.352315,2.53112,3.32964e-15,3.53837e-14,-17.6048,41.5412,-96.0062,126.103,-8.92918,-17.3325,-61.0928,7.12502,-171.085,-89.1156,3.32964e-15,3.53837e-14,67.6747,1.9424,50.1431,91.6093,95.2722,-46.4108,-12.9903,7.12502,-19.1408,16.0878,-71.217,-8.44748,37.7133,83.2785,-3.35261,-8.50791,2.22061,-11.0268,-1.36054,-23.9067,30.8811,-23.8778,15.8614,2.61748
-2.91958,17.581,21.4823,179.669,18.4431,-174.036,-4.69391,-1.67185,0.986076,-5.26096,-1.79934,3.18496,-2.72138,-0.701806,2.68194,-15.9684,-3.76278,-7.03975,36.4705,-1.90899,3.05382,15.7077,-0.382684,2.486,1.98785e-15,1.63003e-14,-17.5946,41.5971,-95.9781,126.064,-8.82611,-17.3931,-61.1727,7.12502,-171.144,-89.0331,1.98785e-15,1.63003e-14,67.6478,1.9395,50.1108,91.4948,95.2177,-46.114,-13.5487,7.12502,-18.8553,15.5574,-71.2048,-8.44519,37.7472,83.2624,-3.3395,-8.53891,2.80071,-11.0391,-1.2096,-23.813,30.989,-23.918,15.7037,2.45633
-2.92014,17.5785,21.4887,179.645,18.4641,-174.068,-4.67692,-1.69862,0.921711,-5.28998,-1.82976,3.1989,-2.7573,-0.713473,2.73278,-15.8779,-3.79212,-7.07232,36.4162,-1.93707,3.00488,15.6617,-0.407396,2.46296,5.57591e-14,9.93923e-16,-17.651,41.655,-95.9949,125.983,-8.66209,-17.3973,-61.1978,7.12502,-171.148,-89.0078,5.57591e-14,9.93923e-16,67.5743,1.92777,50.0575,91.3609,95.0477,-46.0161,-13.703,7.12502,-18.7611,15.4123,-71.2697,-8.41333,37.708,83.273,-3.22951,-8.4925,2.66916,-11.1028,-1.10335,-23.8286,31.0776,-23.9696,15.562,2.52444
-2.92165,17.5754,21.4923,179.596,18.5749,-174.094,-4.62945,-1.66643,0.897253,-5.31885,-1.78291,3.19427,-2.81512,-0.688468,2.74464,-15.7725,-3.75281,-7.10269,36.242,-1.93168,3.08905,15.5506,-0.403265,2.49751,2.15681e-14,-3.77691e-15,-17.7505,41.5974,-96.0246,125.942,-8.52648,-17.131,-61.2582,7.12502,-170.891,-88.9585,2.15681e-14,-3.77691e-15,67.5058,1.84376,50.0435,91.3092,94.926,-45.8596,-13.8873,7.12502,-18.6107,15.2425,-71.2527,-8.32319,37.6832,83.2496,-2.93861,-8.3322,0.642522,-11.1109,-1.00938,-23.8531,31.129,-23.988,15.5207,2.81327
-2.9244,17.5749,21.4949,179.493,18.6647,-174.089,-4.54053,-1.64232,0.911439,-5.35697,-1.74592,3.18718,-2.90674,-0.66936,2.73325,-15.6418,-3.73008,-7.04676,36.2388,-1.9019,3.05798,15.5142,-0.382201,2.4805,3.3048e-14,2.42517e-14,-17.9174,41.5518,-96.1147,125.902,-8.45188,-17.0217,-61.1712,7.12502,-170.786,-89.0502,3.3048e-14,2.42517e-14,67.3734,1.70024,50.053,91.3689,94.7706,-45.6386,-13.9651,7.12502,-18.398,15.1848,-71.1399,-8.28248,37.6615,83.2009,-2.68477,-8.60952,-0.731157,-11.025,-0.990168,-23.8658,31.1577,-23.9713,15.5929,2.99759
-2.92663,17.5764,21.5,179.391,18.653,-174.133,-4.49383,-1.67157,0.852507,-5.37156,-1.784,3.16424,-2.94516,-0.687299,2.74331,-15.4927,-3.75824,-7.00169,36.2361,-1.93369,2.9866,15.4781,-0.395311,2.43695,-4.08502e-14,4.57205e-15,-17.9297,41.5787,-96.1767,125.808,-8.4413,-17.0682,-61.1145,7.12502,-170.83,-89.1049,-4.08502e-14,4.57205e-15,67.2956,1.6241,49.9974,91.3834,94.7425,-45.6946,-13.9943,7.12502,-18.4519,15.1506,-71.0828,-8.32791,37.5865,83.1624,-2.63474,-9.40027,-0.256112,-10.953,-1.09936,-23.9338,31.163,-23.8506,15.7041,3.05874
-2.9291,17.5744,21.5038,179.347,18.6543,-174.065,-4.71302,-1.68662,0.974495,-5.1853,-1.83402,3.11993,-2.63198,-0.725456,2.61834,-15.5274,-3.76068,-6.96273,36.0837,-2.00497,3.0404,15.4151,-0.424304,2.43215,-3.32964e-15,1.68967e-14,-17.4739,41.6239,-96.0241,125.733,-8.46693,-16.8674,-61.2846,7.12502,-170.637,-88.9433,-3.32964e-15,1.68967e-14,67.4843,1.77005,49.8402,91.3394,94.9128,-45.8706,-13.9856,7.12502,-18.6212,15.1431,-71.028,-8.32538,37.6332,83.1192,-2.80986,-9.83003,0.510082,-10.8971,-1.09392,-23.8679,31.1354,-23.7312,15.728,3.32767
-2.93254,17.5723,21.5046,179.243,18.7091,-174.032,-4.42669,-1.6958,0.959367,-5.29983,-1.82562,3.17778,-2.90949,-0.71486,2.69696,-15.6091,-3.76683,-6.98266,36.3461,-1.94135,2.99503,15.5602,-0.3937,2.44026,4.2192e-14,2.78299e-15,-17.759,41.6988,-96.164,125.805,-8.51411,-16.5839,-61.618,7.12502,-170.363,-88.6224,4.2192e-14,2.78299e-15,67.2521,1.66437,49.8562,91.3646,94.9015,-45.8516,-13.8767,7.12502,-18.6029,15.2538,-70.9104,-8.32174,37.6416,83.0901,-2.94569,-9.8142,0.587472,-10.7685,-1.01596,-23.8467,31.0932,-23.6029,15.8204,3.50393
-2.93638,17.5724,21.5048,179.048,18.738,-174.182,-4.50906,-1.71829,0.910405,-5.1809,-1.87819,3.07669,-2.73865,-0.749387,2.61407,-15.856,-3.72182,-6.90101,36.4964,-1.90726,3.07291,15.6893,-0.35702,2.47151,-5.36222e-14,-3.08116e-14,-17.5513,41.6967,-96.1951,125.64,-8.72783,-16.8832,-61.6175,7.12502,-170.652,-88.6098,-5.36222e-14,-3.08116e-14,67.2678,1.70609,49.6478,91.2614,94.6536,-45.6665,-13.99,7.12502,-18.4249,15.1574,-70.8122,-8.44482,37.4835,83.1066,-3.00592,-9.7411,0.263718,-10.6146,-0.905286,-24.0215,31.0752,-23.4121,15.8177,3.4297
-2.93985,17.5717,21.5079,178.899,18.751,-174.307,-4.50131,-1.74911,0.812755,-5.15017,-1.92604,3.02101,-2.70731,-0.774561,2.6098,-15.9586,-3.68589,-6.7396,36.5873,-1.85981,2.98458,15.7509,-0.325352,2.41718,1.37658e-14,2.78299e-15,-17.4629,41.754,-96.2607,125.516,-8.84565,-17.164,-61.6315,7.12502,-170.923,-88.5838,1.37658e-14,2.78299e-15,67.2675,1.70341,49.4329,91.0696,94.6639,-45.881,-14.1893,7.12502,-18.6313,14.9385,-70.7695,-8.53108,37.3383,83.1439,-2.75316,-9.49418,-1.76388,-10.5204,-0.71761,-24.1515,31.0766,-23.2627,15.6613,3.31119
-2.94279,17.5704,21.5155,178.877,18.72,-174.322,-4.56988,-1.78437,0.793977,-5.14259,-1.97527,3.00555,-2.65897,-0.799276,2.60108,-15.9612,-3.65512,-6.54984,36.5975,-1.81179,2.81531,15.747,-0.302161,2.3193,7.05686e-15,-1.21259e-14,-17.4022,41.8066,-96.2963,125.421,-8.85486,-17.0169,-61.757,7.12502,-170.781,-88.4646,7.05686e-15,-1.21259e-14,67.2892,1.7045,49.3043,91.0657,94.9558,-46.4649,-14.0498,7.12502,-19.1928,15.0232,-70.827,-8.54692,37.3012,83.1515,-2.11513,-9.08547,-5.19692,-10.5622,-0.574812,-24.1564,31.1044,-23.1566,15.5502,2.94345
-2.94537,17.5692,21.5248,178.906,18.5949,-174.328,-4.76107,-1.81795,0.807457,-5.09961,-2.02941,2.95427,-2.50755,-0.829461,2.53263,-15.9185,-3.6908,-6.47825,36.5011,-1.91596,2.8261,15.6933,-0.339203,2.28795,-4.22417e-15,1.19271e-15,-17.2968,41.7401,-96.2918,125.387,-8.86316,-16.7319,-61.9928,7.12502,-170.506,-88.2411,-4.22417e-15,1.19271e-15,67.3838,1.64969,49.2228,91.0466,95.0916,-46.4848,-13.9208,7.12502,-19.2119,15.1502,-70.9443,-8.63796,37.2631,83.1583,-1.85676,-8.9066,-5.70116,-10.699,-0.515059,-24.1481,31.2015,-23.1375,15.4109,2.61114
-2.94738,17.5677,21.5327,178.902,18.4649,-174.324,-4.91968,-1.83563,0.818608,-5.05532,-2.06166,2.90893,-2.37372,-0.848509,2.473,-15.7876,-3.78953,-6.53141,36.3882,-2.10303,2.90873,15.6202,-0.416937,2.29478,-1.41634e-14,6.55989e-15,-17.2543,41.5867,-96.2979,125.381,-8.8845,-16.5911,-62.3374,7.12502,-170.37,-87.9027,-1.41634e-14,6.55989e-15,67.4946,1.53633,49.0974,90.8548,95.0372,-46.1409,-13.9846,7.12502,-18.8812,15.119,-70.9824,-8.75485,37.219,83.1592,-2.02271,-8.94074,-4.80768,-10.799,-0.472442,-24.135,31.3351,-23.0877,15.3207,2.49709
-2.94879,17.5634,21.5415,178.931,18.379,-174.264,-4.99566,-1.85641,0.841994,-5.0425,-2.09043,2.92603,-2.31732,-0.86286,2.47414,-15.6708,-3.82585,-6.6142,36.2502,-2.17726,2.96501,15.5318,-0.456695,2.31444,-2.68359e-15,-1.11319e-14,-17.2119,41.5281,-96.2821,125.384,-8.9029,-16.5811,-62.6931,7.12502,-170.36,-87.5475,-2.68359e-15,-1.11319e-14,67.5602,1.47457,48.9449,90.6421,94.902,-46.108,-13.9533,7.12502,-18.8496,15.1533,-71.0263,-8.80699,37.2782,83.1422,-2.05488,-8.9869,-5.501,-10.9325,-0.394125,-24.0567,31.47,-22.9306,15.2251,2.50523
-2.95057,17.5581,21.5527,178.953,18.2585,-174.333,-5.02486,-1.91348,0.730049,-5.06774,-2.16112,2.93242,-2.32002,-0.893757,2.54093,-15.5157,-3.81816,-6.68937,36.0492,-2.17731,2.96725,15.3982,-0.474346,2.31988,4.47266e-16,-3.04141e-14,-17.1557,41.5802,-96.2696,125.193,-8.63313,-17.1444,-62.4672,7.12502,-170.904,-87.7489,4.47266e-16,-3.04141e-14,67.5015,1.45186,48.8374,90.5585,94.7238,-46.2587,-13.5581,7.12502,-18.9945,15.5344,-71.1825,-8.88407,37.198,83.2027,-2.07148,-9.05524,-5.29775,-11.1288,-0.311898,-24.1053,31.618,-22.8047,15.0445,2.61773
-2.9534,17.5523,21.5651,178.92,18.0961,-174.496,-5.01835,-1.97754,0.553216,-5.08768,-2.24311,2.89411,-2.33537,-0.930753,2.59853,-15.4103,-3.85614,-6.68334,35.9099,-2.21508,2.83619,15.3065,-0.514102,2.25003,9.44227e-16,-2.64384e-14,-17.1123,41.5904,-96.2909,124.636,-7.78519,-18.206,-61.4986,7.12502,-171.929,-88.6755,9.44227e-16,-2.64384e-14,67.4139,1.41144,48.7322,90.5546,94.5753,-46.3878,-12.9697,7.12502,-19.1186,16.1106,-71.3434,-9.03375,36.9875,83.3067,-2.11757,-9.03616,-4.60669,-11.2959,-0.218493,-24.2568,31.7796,-22.6922,14.8725,2.5087
-2.95769,17.5457,21.5736,178.887,18.0124,-174.483,-5.0973,-1.99374,0.635391,-5.01133,-2.2778,2.85433,-2.21552,-0.954863,2.50604,-15.5082,-3.86427,-6.57756,35.8204,-2.24925,2.74445,15.284,-0.536177,2.18102,1.05356e-14,7.7526e-15,-16.8682,41.4413,-96.212,124.503,-7.65462,-18.2102,-61.3343,7.12502,-171.933,-88.8397,1.05356e-14,7.7526e-15,67.4864,1.4123,48.5371,90.4036,94.5332,-46.4291,-12.8085,7.12502,-19.1583,16.2679,-71.3542,-9.13674,36.9537,83.3548,-2.01701,-8.99344,-4.70382,-11.3923,-0.105726,-24.2338,31.9376,-22.5816,14.6983,2.45179
-2.96311,17.5425,21.579,178.82,18.0156,-174.353,-5.16966,-1.98745,0.864978,-4.90459,-2.28778,2.84384,-2.074,-0.970338,2.36158,-15.6709,-3.82258,-6.54141,35.7819,-2.24465,2.83905,15.3026,-0.523293,2.21255,-1.47101e-14,1.64991e-14,-16.7034,41.3444,-96.1621,124.437,-7.47954,-18.4787,-61.1595,7.12502,-172.192,-89.0046,-1.47101e-14,1.64991e-14,67.5953,1.44143,48.3291,90.145,94.4925,-46.3164,-13.1538,7.12502,-19.0499,15.9333,-71.2064,-9.21284,37.0444,83.3291,-1.93988,-9.006,-4.892,-11.4069,0.0129539,-24.0961,32.0913,-22.5176,14.5083,2.56964
-2.96699,17.5405,21.5906,178.753,18.0041,-174.335,-5.02334,-2.00211,0.838973,-4.92405,-2.30162,2.88304,-2.17263,-0.975349,2.42136,-15.8432,-3.82937,-6.57779,35.9157,-2.24322,2.89409,15.4101,-0.517495,2.24747,5.71506e-14,-7.95139e-16,-16.7708,41.277,-96.1646,124.381,-7.42077,-18.7019,-61.0123,7.12502,-172.407,-89.144,5.71506e-14,-7.95139e-16,67.5946,1.43884,48.1684,89.9443,94.36,-46.2412,-13.4394,7.12502,-18.9776,15.6548,-71.1651,-9.28369,37.0507,83.2809,-1.96001,-8.99183,-5.0526,-11.4779,0.187353,-24.0524,32.2504,-22.4469,14.2337,2.60851
-2.96894,17.5382,21.6025,178.708,18.0737,-174.343,-4.83717,-1.97721,0.717915,-4.97115,-2.25618,2.94641,-2.31963,-0.946337,2.56315,-16.0831,-3.85504,-6.58833,36.2014,-2.2154,2.85783,15.6063,-0.502755,2.25037,-9.87463e-14,-7.7526e-15,-16.7673,41.1433,-96.0903,124.286,-7.49027,-18.7088,-60.8988,7.12502,-172.414,-89.2572,-9.87463e-14,-7.7526e-15,67.5679,1.42314,48.0266,89.7304,94.2388,-46.3582,-13.4652,7.12502,-19.0902,15.6179,-71.1532,-9.20845,37.0178,83.2306,-2.03962,-9.03525,-4.32846,-11.5677,0.39169,-24.0285,32.3947,-22.3887,14.0147,2.80532
-2.97147,17.5383,21.6096,178.615,18.1829,-174.199,-4.71798,-1.92321,0.83447,-4.96598,-2.18202,3.011,-2.38603,-0.910656,2.57041,-16.1844,-3.83386,-6.59473,36.4118,-2.12824,2.83058,15.7296,-0.46026,2.26518,-3.23025e-14,-6.36111e-15,-16.7422,40.9528,-96.059,124.146,-7.48249,-18.8669,-60.9145,7.12502,-172.566,-89.2361,-3.23025e-14,-6.36111e-15,67.4953,1.35542,47.9825,89.6225,94.3159,-46.531,-13.4584,7.12502,-19.2564,15.6082,-70.938,-9.13605,37.1211,83.1507,-2.11451,-9.16738,-3.66323,-11.5255,0.501445,-23.8624,32.5434,-22.4223,13.9184,3.30181
-2.9761,17.5393,21.6177,178.522,18.1772,-174.004,-4.63923,-1.91088,1.07404,-4.98828,-2.16239,3.05709,-2.46187,-0.904424,2.48733,-15.9889,-3.8163,-6.57199,36.4214,-2.06817,2.74739,15.6826,-0.435282,2.23848,-4.22417e-14,-4.57205e-15,-16.939,40.8222,-96.1863,124.011,-7.28613,-19.3615,-61.0767,7.12502,-173.044,-89.0576,-4.22417e-14,-4.57205e-15,67.3498,1.21994,47.9871,89.6915,94.5369,-46.9284,-13.2183,7.12502,-19.6385,15.8097,-70.7165,-9.20602,37.2658,83.0815,-2.17214,-9.2007,-4.01022,-11.4806,0.504995,-23.6572,32.7174,-22.4902,13.8199,3.73949
-2.98138,17.5366,21.6284,178.48,18.1659,-173.84,-4.48794,-1.90229,1.23459,-5.06733,-2.13705,3.12048,-2.63373,-0.890709,2.47007,-15.9368,-3.85357,-6.47772,36.5825,-2.05121,2.55841,15.7458,-0.429515,2.1516,-3.40916e-14,6.95746e-15,-17.2686,40.7463,-96.2894,123.915,-7.11713,-19.6147,-61.0017,7.12502,-173.288,-89.1247,-3.40916e-14,6.95746e-15,67.2026,1.04256,47.9706,89.609,94.5193,-47.3189,-13.0319,7.12502,-20.0138,15.9574,-70.5756,-9.22659,37.3543,83.0539,-2.37333,-9.18136,-3.6674,-11.5228,0.561487,-23.4793,32.8876,-22.5324,13.725,3.97524
-2.98577,17.5294,21.6426,178.433,18.2563,-173.781,-4.24478,-1.90319,1.19497,-5.17744,-2.11273,3.24738,-2.87936,-0.869031,2.63417,-15.9388,-3.87314,-6.53549,36.7703,-1.96772,2.41454,15.8367,-0.411665,2.12342,-1.51076e-14,3.63776e-14,-17.5126,40.8068,-96.2514,123.855,-7.1592,-19.4542,-60.8732,7.12502,-173.133,-89.2582,-1.51076e-14,3.63776e-14,66.9549,0.949987,48.0111,89.4178,94.4213,-47.3251,-13.3562,7.12502,-20.0198,15.6325,-70.502,-9.12306,37.3666,83.0709,-2.54902,-9.19513,-2.56855,-11.6074,0.721075,-23.4019,33.0367,-22.4977,13.679,4.11472
-2.9898,17.5245,21.655,178.366,18.3787,-173.897,-4.27498,-1.95801,1.0557,-5.18206,-2.17923,3.33648,-2.85611,-0.894757,2.80227,-15.6383,-3.80064,-6.80086,36.5876,-1.8102,2.44971,15.671,-0.379591,2.20718,3.81667e-14,-2.42517e-14,-17.5228,41.0646,-96.1901,123.909,-7.23739,-18.9634,-61.0629,7.12502,-172.659,-89.0844,3.81667e-14,-2.42517e-14,66.661,1.09351,47.9938,89.3366,94.3443,-46.9859,-13.696,7.12502,-19.6937,15.3265,-70.5103,-9.02497,37.2464,83.1057,-2.47597,-9.15577,-2.56009,-11.7107,0.864132,-23.5185,33.1759,-22.4099,13.7173,3.99432
-2.99492,17.5216,21.6627,178.317,18.4515,-174.034,-4.46723,-1.98433,1.00964,-5.12746,-2.22397,3.32691,-2.68837,-0.918028,2.80961,-15.3816,-3.7308,-6.94854,36.367,-1.71588,2.50918,15.4984,-0.356545,2.26676,-7.55382e-15,-1.98785e-15,-17.4941,41.1942,-96.194,124.086,-7.26399,-18.2092,-61.3714,7.12502,-171.932,-88.8027,-7.55382e-15,-1.98785e-15,66.537,1.19944,47.8925,89.197,94.1176,-46.5994,-13.6619,7.12502,-19.3221,15.3982,-70.5161,-9.00053,37.0941,83.1251,-2.278,-9.14513,-3.45032,-11.8128,0.942063,-23.6724,33.3059,-22.4123,13.738,4.00993
-3.00075,17.5194,21.6754,178.315,18.4535,-173.967,-4.4699,-1.95739,1.13805,-5.10324,-2.19232,3.32427,-2.66829,-0.906722,2.73498,-15.4685,-3.70872,-6.86429,36.3172,-1.69821,2.45036,15.4905,-0.35084,2.22689,1.75924e-14,1.59028e-15,-17.365,41.1181,-96.1218,124.08,-7.26543,-17.9017,-61.6214,7.12502,-171.635,-88.5642,1.75924e-14,1.59028e-15,66.5776,1.16074,47.908,89.0806,94.1413,-46.8029,-12.9554,7.12502,-19.5178,16.085,-70.4707,-9.02266,37.1349,83.123,-2.13944,-9.20832,-3.92385,-11.9033,0.995461,-23.5996,33.4067,-22.4663,13.6453,4.26122
-3.00543,17.5182,21.6916,178.339,18.3988,-173.862,-4.44072,-1.93896,1.24949,-5.06881,-2.17148,3.33835,-2.65362,-0.900239,2.68772,-15.6942,-3.72783,-6.75044,36.2732,-1.73845,2.34279,15.5211,-0.377608,2.14965,1.48095e-14,-8.34896e-15,-17.1067,41.0497,-95.9576,123.947,-7.29657,-18.116,-61.9004,7.12502,-171.842,-88.2771,1.48095e-14,-8.34896e-15,66.6455,1.15046,48.0422,89.1781,94.3236,-47.4707,-11.6712,7.12502,-20.1597,17.3027,-70.4544,-9.07099,37.2042,83.1607,-2.1766,-9.27608,-3.6007,-12.0147,1.02042,-23.471,33.4965,-22.4567,13.5144,4.24454
-3.01018,17.5147,21.7024,178.31,18.3987,-174.015,-4.48966,-1.9266,1.1043,-5.05817,-2.15781,3.30491,-2.61099,-0.891201,2.73297,-15.8993,-3.78349,-6.68009,36.3519,-1.79541,2.23131,15.61,-0.410964,2.0808,2.68359e-14,-2.5842e-14,-17.0975,41.0669,-95.8755,124.065,-7.59483,-18.0239,-62.3361,7.12502,-171.753,-87.8449,2.68359e-14,-2.5842e-14,66.6615,1.16415,48.1064,89.1803,94.1794,-47.7708,-10.9379,7.12502,-20.4482,18.0054,-70.5258,-9.10325,37.0173,83.2845,-2.24911,-9.34245,-3.0429,-12.1267,1.05913,-23.6354,33.5925,-22.4497,13.4726,4.17822
-3.01577,17.5105,21.7118,178.261,18.4944,-174.153,-4.56475,-1.91768,1.00001,-5.05201,-2.14862,3.27597,-2.5598,-0.885081,2.75918,-16.0579,-3.79308,-6.51855,36.5079,-1.77316,2.05949,15.7189,-0.400382,1.98767,-5.52621e-14,3.97569e-16,-17.2256,41.1776,-95.8763,124.374,-8.15148,-17.2571,-62.7464,7.12502,-171.013,-87.465,-5.52621e-14,3.97569e-16,66.588,1.197,48.0654,89.1,93.8652,-47.4903,-11.3403,7.12502,-20.1786,17.6317,-70.5785,-9.07055,36.8886,83.4065,-2.1878,-9.39886,-2.93849,-12.1835,1.16121,-23.7925,33.663,-22.5265,13.4646,4.40688
-3.02078,17.5083,21.7246,178.278,18.5704,-174.129,-4.70615,-1.89719,1.09048,-5.0629,-2.12411,3.24945,-2.49763,-0.874789,2.67747,-15.9231,-3.79642,-6.3697,36.4879,-1.78508,1.93915,15.6724,-0.397826,1.9079,-7.15625e-14,1.63003e-14,-17.342,41.1961,-95.9302,124.109,-7.87654,-17.4392,-62.4743,7.12502,-171.188,-87.7297,-7.15625e-14,1.63003e-14,66.4818,1.13386,48.0529,89.1686,93.5886,-46.819,-12.7594,7.12502,-19.5333,16.2793,-70.627,-9.01763,36.9442,83.4772,-2.13348,-9.43165,-2.79874,-12.2504,1.22872,-23.7643,33.6868,-22.5985,13.4115,4.51634
-3.02567,17.508,21.7369,178.248,18.6592,-174.119,-4.85162,-1.82924,1.20882,-5.03223,-2.04476,3.18102,-2.39435,-0.841111,2.53748,-15.6563,-3.80962,-6.38911,36.3403,-1.87568,2.07982,15.5419,-0.417265,1.95216,2.47487e-14,-5.56597e-15,-17.3334,41.0877,-95.9311,123.942,-7.5343,-17.4594,-62.261,7.12502,-171.208,-87.9421,2.47487e-14,-5.56597e-15,66.5065,1.0136,48.1017,89.2677,93.4072,-46.0035,-14.11,7.12502,-18.749,15.0065,-70.5901,-9.00759,36.9661,83.5117,-2.25556,-9.4117,-2.43505,-12.2538,1.28892,-23.7532,33.6916,-22.6072,13.4585,4.03134
-3.03065,17.5088,21.7475,178.084,18.8372,-174.119,-4.89524,-1.74551,1.32593,-4.90832,-1.9554,3.1154,-2.25073,-0.807076,2.40286,-15.5221,-3.79384,-6.45557,36.221,-1.9403,2.31858,15.4581,-0.421989,2.05096,-1.07344e-14,-2.64384e-14,-17.1163,41.1102,-95.8321,124.013,-7.59041,-17.4247,-62.3094,7.12502,-171.174,-87.8952,-1.07344e-14,-2.64384e-14,66.5941,1.00057,48.1201,89.2673,93.3079,-45.8298,-13.8595,7.12502,-18.582,15.273,-70.3704,-8.99889,36.9717,83.512,-2.38513,-9.37142,-2.37163,-12.1039,1.42456,-23.756,33.7043,-22.6418,13.6174,3.42749
-3.03391,17.505,21.7613,177.926,18.9577,-174.162,-4.80673,-1.69853,1.30724,-4.87072,-1.89841,3.08102,-2.26319,-0.781807,2.3812,-15.5037,-3.80272,-6.3903,36.281,-1.96617,2.32532,15.483,-0.418292,2.04079,-2.08724e-15,-2.54444e-14,-17.0701,41.2378,-95.8269,124.254,-7.83521,-17.3399,-62.5962,7.12502,-171.093,-87.6118,-2.08724e-15,-2.54444e-14,66.6361,0.974637,48.1516,89.251,93.5954,-46.4245,-13.0065,7.12502,-19.1539,16.0703,-70.2208,-8.99853,36.9697,83.5064,-2.24653,-9.34429,-2.92338,-12.0102,1.51464,-23.7877,33.7224,-22.7534,13.6918,3.28948
-3.03669,17.4992,21.7767,177.872,19.0333,-174.13,-4.66004,-1.65958,1.30236,-4.91502,-1.83818,3.09498,-2.39239,-0.750178,2.40486,-15.6738,-3.80736,-6.19416,36.5093,-1.9242,2.13523,15.6274,-0.391107,1.94089,-4.17448e-15,-9.54166e-15,-17.1464,41.2583,-95.8229,124.126,-7.74738,-17.7534,-62.3954,7.12502,-171.492,-87.796,-4.17448e-15,-9.54166e-15,66.6691,0.928756,48.3008,89.4042,94.3655,-47.0707,-12.648,7.12502,-19.7752,16.3661,-70.135,-8.9813,37.0237,83.5317,-2.12097,-9.34822,-3.02504,-12.0144,1.58199,-23.736,33.7456,-22.8429,13.7144,3.15979
-3.04182,17.4969,21.788,177.843,19.179,-174.013,-4.5672,-1.61171,1.45262,-4.92162,-1.77189,3.13276,-2.4573,-0.719731,2.36396,-15.8863,-3.81203,-6.07848,36.7784,-1.86325,1.9846,15.8055,-0.361225,1.87627,1.49089e-15,-8.15017e-15,-17.167,41.3631,-95.7837,124.305,-7.94714,-17.422,-62.714,7.12502,-171.172,-87.4907,1.49089e-15,-8.15017e-15,66.6416,0.929234,48.4536,89.5705,94.6363,-47.3443,-12.0799,7.12502,-20.0383,16.9068,-69.9947,-8.91644,37.1108,83.6031,-2.22505,-9.30194,-2.50872,-11.9928,1.71623,-23.6079,33.7994,-22.9655,13.7562,2.84585
-3.04768,17.4929,21.7995,177.788,19.2454,-174.099,-4.62243,-1.63724,1.43884,-4.90478,-1.8106,3.11039,-2.40793,-0.740136,2.34584,-16.0209,-3.82757,-6.05041,36.977,-1.84032,1.92505,15.9361,-0.350145,1.85664,-2.38542e-15,-1.72943e-14,-17.1886,41.5936,-95.8403,124.424,-7.99713,-17.4894,-63.0521,7.12502,-171.237,-87.1498,-2.38542e-15,-1.72943e-14,66.5716,1.02252,48.4464,89.6128,94.4691,-47.4353,-11.4984,7.12502,-20.1257,17.4791,-69.9995,-8.93417,37.0114,83.7214,-2.31118,-9.16005,-2.76987,-12.0231,1.77543,-23.7056,33.8764,-23.1394,13.817,2.54894
-3.05097,17.4878,21.82,177.837,19.1861,-174.13,-4.82663,-1.75889,1.45896,-4.88405,-1.98037,3.09227,-2.26869,-0.825799,2.30524,-16.0263,-3.75413,-6.00292,36.9486,-1.7508,1.91363,15.9163,-0.31166,1.85761,2.47487e-14,5.96354e-15,-17.1727,41.863,-95.9651,124.293,-7.88589,-18.3018,-62.984,7.12502,-172.021,-87.1866,2.47487e-14,5.96354e-15,66.5233,1.27916,48.2573,89.5635,94.5994,-47.3636,-11.913,7.12502,-20.0568,17.0718,-70.1427,-8.97743,37.0081,83.8226,-2.33821,-9.10349,-3.1887,-12.1957,1.74117,-23.7267,33.9375,-23.1884,13.9123,2.19659
-3.05377,17.4853,21.8419,177.932,19.2249,-173.942,-5.08949,-1.83373,1.77278,-4.78583,-2.10343,3.07931,-2.02965,-0.897052,2.10274,-15.9034,-3.60579,-5.9417,36.6551,-1.64603,2.0208,15.7311,-0.258878,1.89977,-4.06515e-14,-1.05356e-14,-16.9819,42.1009,-96.0254,124.498,-8.15826,-18.2931,-62.7711,7.12502,-172.013,-87.3998,-4.06515e-14,-1.05356e-14,66.5378,1.53885,47.9842,89.4781,94.4859,-46.8056,-13.1198,7.12502,-19.5203,15.9203,-70.1675,-8.88269,37.2027,83.8812,-2.42939,-9.16609,-2.56929,-12.3475,1.76451,-23.5047,33.9734,-23.1437,14.0314,1.92516
-3.05921,17.482,21.8536,177.863,19.4211,-173.986,-4.40831,-1.82227,1.57948,-5.24187,-2.00521,3.24503,-2.87377,-0.823674,2.41494,-15.4574,-3.60101,-6.10502,36.7585,-1.52828,1.97025,15.6744,-0.214373,1.9371,-2.28602e-15,-2.0276e-14,-18.0341,42.219,-96.3883,124.643,-8.16704,-18.2812,-62.7046,7.12502,-172.001,-87.4667,-2.28602e-15,-2.0276e-14,65.9085,1.19454,48.2485,89.555,94.2473,-46.4631,-13.5861,7.12502,-19.191,15.487,-70.0912,-8.7266,37.1187,83.9837,-2.54403,-9.15829,-1.73024,-12.3376,1.85425,-23.5544,33.9938,-23.1658,14.1676,1.87137
-3.06468,17.4776,21.8661,177.744,19.4627,-174.211,-5.37683,-1.80583,1.74801,-4.68754,-2.09269,2.92702,-1.77217,-0.898371,1.94937,-15.4443,-3.51443,-6.02272,36.311,-1.63794,2.28386,15.4531,-0.234588,2.01678,-4.30369e-14,2.72335e-14,-17.0309,42.1502,-96.0686,124.358,-8.21077,-18.365,-62.5019,7.12502,-172.082,-87.6664,-4.30369e-14,2.72335e-14,66.4346,1.63122,47.9445,89.7216,94.3591,-46.7037,-13.1017,7.12502,-19.4224,15.9483,-70.1195,-8.74499,36.8608,84.1418,-2.60515,-9.00636,-1.87041,-12.331,1.86438,-23.8005,33.997,-23.2103,14.2429,1.7848
-3.06755,17.4746,21.8857,177.69,19.3235,-174.317,-5.42381,-1.87334,1.69413,-4.68702,-2.18682,2.8441,-1.74426,-0.946894,1.88904,-15.433,-3.60158,-6.03563,36.4782,-1.72839,2.25794,15.5388,-0.269722,1.99925,1.88845e-15,-2.92213e-14,-17.0306,42.1082,-96.1366,124.401,-8.38415,-18.112,-62.3927,7.12502,-171.838,-87.7849,1.88845e-15,-2.92213e-14,66.4449,1.66394,47.8046,89.682,94.2566,-46.9774,-12.5625,7.12502,-19.6855,16.4607,-70.1904,-8.88449,36.7392,84.2948,-2.65063,-8.92355,-2.29096,-12.3682,1.80659,-23.9013,33.9711,-23.2022,14.2746,1.8353
-3.0699,17.4727,21.9025,177.651,19.3095,-174.309,-5.45247,-1.9085,1.68485,-4.63163,-2.24135,2.83489,-1.66974,-0.976162,1.88055,-15.6489,-3.70418,-5.95113,36.7613,-1.80178,2.08213,15.7327,-0.306604,1.90574,1.27222e-14,4.4329e-14,-16.8889,42.1539,-96.1297,124.77,-8.60107,-17.4103,-62.7864,7.12502,-171.161,-87.4187,1.27222e-14,4.4329e-14,66.4924,1.80203,47.6673,89.6925,94.3405,-47.4161,-12.5286,7.12502,-20.1072,16.4509,-70.1479,-8.8871,36.7286,84.3956,-2.71318,-8.87346,-2.30244,-12.3702,1.78403,-23.8811,33.965,-23.2356,14.3899,2.08435
-3.07418,17.4722,21.9148,177.548,19.3715,-174.27,-5.41008,-1.89432,1.75969,-4.63001,-2.22409,2.83156,-1.69525,-0.969642,1.83727,-15.5589,-3.70955,-5.94336,36.7162,-1.82821,2.1011,15.6899,-0.313503,1.90669,2.03754e-14,4.6118e-14,-17.056,42.1159,-96.2351,124.928,-8.55792,-17.1171,-63.0653,7.12502,-170.878,-87.152,2.03754e-14,4.6118e-14,66.4321,1.81447,47.7637,90.0208,95.2023,-48.2685,-12.6669,7.12502,-20.9264,16.2243,-69.977,-8.88668,36.7414,84.4625,-2.82418,-8.62666,-2.17345,-12.3011,1.72959,-23.8385,34.015,-23.3425,14.5335,2.02204
-3.07713,17.4692,21.9342,177.47,19.4103,-174.211,-5.37889,-1.85602,1.86557,-4.63915,-2.17582,2.79504,-1.72869,-0.948858,1.74352,-15.401,-3.60769,-5.9469,36.504,-1.80616,2.36414,15.5464,-0.272303,2.017,-1.47101e-14,2.3059e-14,-17.2409,41.9989,-96.3544,124.756,-8.40379,-17.5527,-62.7774,7.12502,-171.298,-87.4219,-1.47101e-14,2.3059e-14,66.4746,1.7374,47.9338,90.3,96.0162,-48.6409,-12.864,7.12502,-21.2841,15.9873,-69.8652,-8.85483,36.7728,84.5389,-2.84541,-8.42986,-1.83186,-12.3181,1.74325,-23.755,34.1072,-23.4604,14.5232,1.82248
-3.07869,17.4618,21.9609,177.524,19.4004,-174.171,-5.49954,-1.86096,1.90771,-4.6354,-2.18693,2.77617,-1.66,-0.954892,1.69633,-15.4615,-3.48871,-5.89552,36.4935,-1.7126,2.55105,15.5494,-0.199823,2.10434,-7.50412e-14,9.34288e-15,-17.2358,41.9819,-96.3705,124.616,-8.41707,-18.1053,-62.3169,7.12502,-171.831,-87.861,-7.50412e-14,9.34288e-15,66.5365,1.73551,47.931,90.3519,95.8963,-48.0692,-13.6759,7.12502,-20.7349,15.2363,-69.9484,-8.75733,36.8083,84.6103,-2.75554,-8.50406,-1.44957,-12.548,1.84101,-23.6766,34.2428,-23.4931,14.4428,1.65926
-3.08277,17.4563,21.9833,177.568,19.4052,-174.158,-5.58312,-1.91503,1.91478,-4.72259,-2.24737,2.82373,-1.70162,-0.979801,1.73821,-15.1707,-3.41192,-6.00511,36.4356,-1.59646,2.64805,15.448,-0.145177,2.18506,1.51076e-14,0,-17.4473,42.1187,-96.4635,124.632,-8.54016,-18.281,-62.1892,7.12502,-172.001,-87.9822,1.51076e-14,0,66.3114,1.72283,47.8206,90.2838,95.3429,-47.824,-14.0491,7.12502,-20.4993,14.8887,-70.019,-8.69642,36.8279,84.6514,-2.68109,-8.59294,-1.50752,-12.764,1.85642,-23.6542,34.4157,-23.4617,14.5166,1.49801
-3.08607,17.4495,22.0067,177.561,19.4669,-174.187,-5.46779,-1.93502,1.7856,-4.8474,-2.24925,2.89896,-1.88685,-0.971894,1.89416,-14.8353,-3.42195,-6.13269,36.3741,-1.56666,2.63319,15.34,-0.144425,2.20558,3.19049e-14,-7.35503e-15,-17.7263,42.2351,-96.5284,124.791,-8.74741,-17.9192,-62.4974,7.12502,-171.652,-87.6876,3.19049e-14,-7.35503e-15,66.1221,1.66675,47.76,90.1224,95.0831,-48.1245,-13.5716,7.12502,-20.7881,15.3348,-70.0558,-8.55974,36.7984,84.68,-2.53295,-8.54778,-1.82541,-12.9451,1.82266,-23.6796,34.5949,-23.4618,14.6647,1.48229
-3.08851,17.4396,22.0324,177.576,19.4103,-174.278,-5.32973,-1.94559,1.56227,-4.93712,-2.24364,2.91958,-2.0466,-0.960964,2.04677,-14.9714,-3.51553,-5.99864,36.5722,-1.61552,2.35832,15.4686,-0.178237,2.06432,-6.72886e-14,2.60408e-14,-17.858,42.192,-96.4687,125.057,-8.9037,-17.1334,-62.9254,7.12502,-170.893,-87.2912,-6.72886e-14,2.60408e-14,66.1038,1.571,47.769,90.0674,94.9942,-47.8745,-13.8028,7.12502,-20.5478,15.1297,-70.1703,-8.51586,36.7044,84.7161,-2.38612,-8.51134,-1.78776,-13.1828,1.77555,-23.7611,34.7448,-23.4991,14.684,1.46148
-3.09359,17.4355,22.0499,177.586,19.3481,-174.256,-5.38087,-1.96447,1.60619,-4.96053,-2.26754,2.91578,-2.04394,-0.972609,2.01634,-15.1156,-3.56443,-5.80735,36.7537,-1.61665,2.07962,15.5871,-0.185505,1.91782,-1.40143e-14,-1.76918e-14,-17.9183,42.1586,-96.4569,125.2,-8.94046,-16.7599,-63.0472,7.12502,-170.533,-87.1855,-1.40143e-14,-1.76918e-14,66.0459,1.48148,47.7128,90.0769,94.8833,-47.3921,-14.7154,7.12502,-20.0842,14.2665,-70.1613,-8.58426,36.7187,84.7124,-2.38792,-8.51227,-1.75009,-13.3283,1.77341,-23.732,34.8676,-23.5862,14.642,1.29445
-3.09824,17.4351,22.067,177.49,19.367,-174.16,-5.42421,-1.98996,1.74169,-4.91426,-2.3092,2.94902,-1.97551,-0.996806,1.97096,-15.0358,-3.54463,-5.77804,36.7154,-1.55831,1.9644,15.5447,-0.17313,1.87215,6.37105e-14,1.21259e-14,-17.8969,42.2284,-96.4507,125.18,-9.01671,-16.9841,-62.7128,7.12502,-170.749,-87.5102,6.37105e-14,1.21259e-14,65.9617,1.50457,47.6447,90.1086,95.2285,-47.6571,-15.0993,7.12502,-20.3389,13.8557,-69.978,-8.61933,36.7982,84.6844,-2.48347,-8.47541,-2.15897,-13.3034,1.8318,-23.616,34.9582,-23.6578,14.6445,1.04042
-3.10164,17.4338,22.0878,177.324,19.4054,-174.073,-5.30368,-2.00504,1.80112,-4.88211,-2.32939,3.00783,-2.00912,-1.00843,2.00091,-14.9463,-3.53324,-5.87014,36.7041,-1.51309,1.9718,15.5179,-0.163627,1.89967,7.05686e-15,1.11319e-14,-17.9717,42.2659,-96.4424,125.147,-9.01716,-17.1158,-62.3628,7.12502,-170.876,-87.8546,7.05686e-15,1.11319e-14,65.8474,1.53545,47.7097,90.2619,95.8179,-48.1245,-15.1567,7.12502,-20.7881,13.7497,-69.7528,-8.62854,36.8628,84.6691,-2.56913,-8.4073,-2.63992,-13.1972,1.90432,-23.4937,35.0063,-23.6984,14.6263,0.882059
-3.10401,17.4318,22.1051,177.146,19.5488,-174.052,-5.16214,-1.96345,1.82083,-4.87758,-2.2708,3.03896,-2.08414,-0.979939,2.02854,-14.8952,-3.5254,-5.96127,36.7393,-1.48967,2.04481,15.5246,-0.151615,1.95336,-5.14852e-14,-4.13472e-14,-18.1925,42.2336,-96.5203,125.092,-8.85549,-17.2717,-62.5317,7.12502,-171.027,-87.6791,-5.14852e-14,-4.13472e-14,65.7251,1.46885,47.8024,90.3509,95.776,-48.2436,-14.786,7.12502,-20.9024,14.1079,-69.5002,-8.5495,36.8555,84.6835,-2.60031,-8.36963,-2.52849,-13.0794,2.04817,-23.4389,35.05,-23.7719,14.6516,0.725191
-3.10478,17.4269,22.1234,176.938,19.6561,-174.203,-5.0883,-1.95454,1.66176,-4.82854,-2.26241,3.02002,-2.06834,-0.975577,2.09947,-14.941,-3.49994,-6.00171,36.7671,-1.44867,2.08316,15.5482,-0.134877,1.98495,1.47101e-14,-9.54166e-15,-18.2569,42.2633,-96.6129,125.016,-8.7429,-17.6169,-62.8289,7.12502,-171.36,-87.3679,1.47101e-14,-9.54166e-15,65.6879,1.48411,47.8589,90.3201,95.4326,-48.4917,-13.5584,7.12502,-21.1408,15.309,-69.3099,-8.49588,36.6642,84.7483,-2.58165,-8.36438,-1.82248,-12.9987,2.22832,-23.5636,35.1231,-23.8164,14.6846,0.388623
-3.10815,17.42,22.1478,176.843,19.5369,-174.314,-5.07791,-2.05399,1.52152,-4.83265,-2.39165,3.02414,-2.06881,-1.03692,2.17831,-14.9511,-3.48644,-6.07434,36.8965,-1.37087,2.06193,15.6128,-0.108915,2.0079,-2.73329e-14,-2.70347e-14,-18.311,42.3867,-96.7184,124.904,-8.74074,-17.9684,-62.7048,7.12502,-171.699,-87.4783,-2.73329e-14,-2.70347e-14,65.6107,1.5578,47.9314,90.2317,95.1428,-48.442,-12.8106,7.12502,-21.0931,16.0622,-69.3035,-8.61932,36.5353,84.7962,-2.47932,-8.34483,-2.06105,-13.0834,2.27391,-23.6607,35.2342,-23.7635,14.6068,0.0470414
-3.11358,17.4143,22.1734,176.855,19.4527,-174.242,-5.07798,-2.11999,1.57995,-4.91637,-2.46688,3.07898,-2.15423,-1.07041,2.2018,-14.7386,-3.56573,-6.16123,37.137,-1.34108,1.89045,15.6837,-0.111129,1.96715,-5.58585e-14,-2.26615e-14,-18.5956,42.4278,-96.8626,124.716,-8.73898,-18.4731,-62.3979,7.12502,-172.186,-87.7665,-5.58585e-14,-2.26615e-14,65.4633,1.49322,47.9799,90.101,94.791,-47.776,-13.3967,7.12502,-20.4531,15.546,-69.3246,-8.6926,36.6176,84.8178,-2.48824,-8.3385,-2.45476,-13.2597,2.30998,-23.5692,35.3775,-23.7488,14.4723,0.0452681
-3.11581,17.4106,22.197,176.858,19.5404,-174.181,-5.10137,-2.09771,1.60912,-4.98486,-2.42623,3.12865,-2.21281,-1.04588,2.23888,-14.3981,-3.80213,-6.32596,37.5056,-1.46085,1.62778,15.8005,-0.188476,1.88093,3.95581e-14,-1.11319e-14,-18.8981,42.3476,-96.9689,124.523,-8.59709,-18.7029,-62.0774,7.12502,-172.408,-88.0789,3.95581e-14,-1.11319e-14,65.3604,1.34497,48.0405,90.0167,94.7707,-47.1915,-14.2982,7.12502,-19.8914,14.7039,-69.3108,-8.60052,36.6957,84.8602,-2.73281,-8.38271,-1.71593,-13.412,2.51904,-23.4617,35.5306,-23.8353,14.2551,0.363946
-3.11697,17.4054,22.2217,176.865,19.5363,-174.248,-5.18093,-2.12933,1.50056,-5.07104,-2.45549,3.14625,-2.2516,-1.05302,2.31608,-14.6928,-3.42784,-5.90293,37.2352,-1.09473,1.65538,15.7023,0.00797091,1.86899,7.90169e-14,7.55382e-15,-19.1084,42.3192,-97.0722,124.811,-8.9303,-17.5295,-62.2312,7.12502,-171.276,-87.9691,7.90169e-14,7.55382e-15,65.2298,1.24404,48.1454,90.0572,95.0808,-47.3544,-14.1731,7.12502,-20.048,14.8126,-69.3868,-8.58945,36.6546,84.9021,-2.9372,-8.4198,-1.30816,-13.6139,2.66486,-23.496,35.6709,-23.7858,14.0468,0.466661
-3.12176,17.3983,22.2445,176.78,19.4354,-174.4,-5.32327,-2.16931,1.4147,-5.01816,-2.52113,3.05721,-2.11513,-1.08835,2.26358,-14.9118,-3.38565,-5.66781,37.2726,-1.07387,1.56555,15.7666,0.0315027,1.79232,-1.25135e-13,-5.96354e-15,-18.9629,42.2514,-97.0692,124.925,-9.0571,-16.9427,-62.1916,7.12502,-170.709,-88.0331,-1.25135e-13,-5.96354e-15,65.2546,1.21552,48.128,90.1142,95.0771,-47.8893,-13.449,7.12502,-20.562,15.482,-69.422,-8.7211,36.5134,84.9163,-2.94491,-8.39599,-1.7473,-13.7399,2.67963,-23.6533,35.8008,-23.6031,13.9456,0.243513
-3.12689,17.3909,22.2626,176.589,19.3954,-174.541,-5.43819,-2.15093,1.36312,-4.83875,-2.52605,2.93919,-1.86726,-1.10059,2.16199,-15.1846,-3.49699,-5.52737,37.4744,-1.20697,1.42486,15.9382,-0.0240967,1.6891,5.06901e-14,1.23246e-14,-18.5649,42.111,-96.9242,124.89,-9.04707,-16.8434,-62.1178,7.12502,-170.614,-88.1112,5.06901e-14,1.23246e-14,65.411,1.1907,48.0717,90.0399,94.8124,-47.8448,-13.4772,7.12502,-20.5193,15.4585,-69.3141,-8.83483,36.3723,84.8883,-2.82111,-8.4047,-2.49247,-13.7276,2.73953,-23.7999,35.9451,-23.501,13.8433,0.238507
-3.12997,17.3871,22.2827,176.512,19.4221,-174.424,-5.42255,-2.13564,1.4893,-4.79979,-2.5115,2.96774,-1.84064,-1.09668,2.12108,-15.2729,-3.44952,-5.4816,37.5253,-1.13479,1.4149,15.981,0.0122803,1.69137,5.06901e-15,3.89618e-14,-18.5087,42.0451,-96.8862,124.794,-8.95628,-16.9773,-62.2284,7.12502,-170.743,-87.9948,5.06901e-15,3.89618e-14,65.4138,1.09066,48.1313,89.8316,94.5929,-47.4127,-13.8753,7.12502,-20.104,15.1046,-69.1395,-8.85023,36.5173,84.7804,-2.66285,-8.48804,-3.21836,-13.7639,2.83651,-23.6529,36.0962,-23.4721,13.6926,0.547118
-3.13309,17.3886,22.3053,176.555,19.4978,-174.036,-5.38465,-2.13493,1.89197,-4.85746,-2.50488,3.08246,-1.936,-1.09584,2.01749,-15.0227,-3.39471,-5.5538,37.4455,-1.05187,1.46332,15.8775,0.0494063,1.73874,3.53837e-14,1.94809e-14,-18.7971,42.0117,-97.0494,124.644,-8.82726,-17.0793,-62.2938,7.12502,-170.841,-87.9251,3.53837e-14,1.94809e-14,65.2749,0.940841,48.1613,89.5941,94.357,-47.3398,-13.6569,7.12502,-20.0339,15.3303,-68.9214,-8.79023,36.9528,84.5998,-2.54894,-8.55334,-4.07781,-13.8419,2.93293,-23.21,36.2349,-23.4169,13.5508,0.811703
-3.1372,17.39,22.3239,176.53,19.5907,-173.838,-5.46812,-2.12115,2.15657,-4.85905,-2.49172,3.11576,-1.90277,-1.09287,1.90172,-14.5684,-3.39971,-5.76342,37.3022,-1.073,1.63529,15.7015,0.0434707,1.84348,-7.7526e-14,-3.97569e-15,-18.9715,41.9557,-97.2256,124.443,-8.76048,-17.1834,-62.3475,7.12502,-170.942,-87.867,-7.7526e-14,-3.97569e-15,65.1288,0.79829,48.1809,89.4917,94.322,-47.3347,-13.6748,7.12502,-20.0291,15.3129,-68.7457,-8.75757,37.1892,84.4652,-2.45581,-8.56085,-5.18924,-13.8844,3.01711,-22.9801,36.3683,-23.3246,13.4978,0.849077
-3.14206,17.3872,22.345,176.417,19.6331,-173.96,-5.52191,-2.10856,2.09345,-4.8496,-2.47882,3.06875,-1.86218,-1.08674,1.88685,-14.3228,-3.40028,-5.91901,37.2918,-1.08099,1.80296,15.6416,0.050728,1.94329,-3.24019e-14,-1.43125e-14,-19.0468,41.8634,-97.3336,124.264,-8.8478,-17.2937,-62.3966,7.12502,-171.048,-87.8134,-3.24019e-14,-1.43125e-14,65.0428,0.669563,48.2295,89.3972,94.3482,-47.0168,-14.5474,7.12502,-19.7235,14.4719,-68.696,-8.80602,37.0963,84.4314,-2.38837,-8.53284,-5.55995,-13.9627,3.06785,-23.093,36.5119,-23.2366,13.4375,0.917521
-3.14447,17.382,22.3757,176.35,19.6556,-174.028,-5.39907,-2.15877,1.95124,-4.91477,-2.52904,3.11944,-1.98832,-1.10577,2.02257,-14.3708,-3.33621,-5.88747,37.4033,-0.942547,1.7346,15.7014,0.109546,1.93727,-5.36719e-15,-2.38542e-14,-19.2782,41.8992,-97.4561,124.239,-9.11315,-17.0682,-62.1863,7.12502,-170.831,-88.0331,-5.36719e-15,-2.38542e-14,64.8253,0.63074,48.1979,89.1802,94.0317,-46.611,-15.2903,7.12502,-19.3332,13.7687,-68.6981,-8.80776,37.0896,84.3814,-2.36895,-8.58463,-5.20572,-14.1389,3.14934,-23.1212,36.6745,-23.1714,13.2161,1.46018
-3.14431,17.3752,22.4109,176.375,19.6069,-173.917,-5.28238,-2.24451,1.95229,-4.98618,-2.62556,3.22296,-2.12105,-1.14846,2.13148,-14.489,-3.22482,-5.74818,37.3792,-0.754543,1.55115,15.7051,0.177284,1.86427,1.6201e-14,-9.14409e-15,-19.4002,41.9418,-97.5002,124.249,-9.30724,-16.689,-61.7334,7.12502,-170.465,-88.5024,1.6201e-14,-9.14409e-15,64.539,0.627393,48.1476,89.0445,93.7047,-46.4417,-15.4864,7.12502,-19.1705,13.5888,-68.7169,-8.83469,37.3154,84.2928,-2.41558,-8.74463,-4.84652,-14.4164,3.26409,-22.9416,36.9297,-23.1602,12.896,1.99448
-3.14451,17.3652,22.4439,176.325,19.4453,-173.901,-5.23967,-2.29814,1.98556,-5.0031,-2.69703,3.18126,-2.16438,-1.18622,2.06962,-14.4187,-3.2087,-5.6664,37.2814,-0.74176,1.46112,15.6367,0.178594,1.80915,-2.14687e-14,2.98177e-14,-19.4835,41.8149,-97.5578,124.258,-9.45079,-16.6909,-61.6339,7.12502,-170.466,-88.6017,-2.14687e-14,2.98177e-14,64.4312,0.56028,48.1879,89.1783,94.1121,-47.6117,-14.3608,7.12502,-20.2952,14.5989,-68.72,-9.0074,37.4303,84.2235,-2.44384,-8.84049,-4.85432,-14.6186,3.34349,-22.8783,37.1768,-23.1161,12.578,2.06373
-3.14529,17.338,22.4652,176.148,19.349,-174.068,-5.3039,-2.33427,1.94231,-4.95623,-2.75935,3.05757,-2.08199,-1.22238,1.96039,-14.1677,-3.203,-5.81454,37.2516,-0.758814,1.65519,15.5652,0.185238,1.91586,-5.54609e-14,-1.19271e-14,-19.6119,41.7696,-97.675,124.376,-9.81224,-16.7262,-62.1023,7.12502,-170.5,-88.1318,-5.54609e-14,-1.19271e-14,64.3862,0.587509,48.2109,89.3024,94.8839,-48.9878,-13.0794,7.12502,-21.6173,15.7339,-68.7805,-9.13999,37.3247,84.2799,-2.70184,-9.11754,-3.33402,-14.6848,3.41768,-23.0391,37.3616,-23.0074,12.3803,1.84152
-3.14993,17.3389,22.4836,176.047,19.4307,-174.057,-5.50911,-2.34498,2.11267,-4.84065,-2.79906,3.01329,-1.85814,-1.25008,1.80716,-14.1612,-3.19655,-5.92327,37.3409,-0.736104,1.75691,15.6094,0.197496,1.98655,-4.60187e-14,1.31198e-14,-19.5218,41.8261,-97.674,124.039,-9.73194,-17.2441,-61.6692,7.12502,-171,-88.5428,-4.60187e-14,1.31198e-14,64.3279,0.737217,48.1107,89.1886,95.0822,-48.9197,-13.1516,7.12502,-21.5519,15.6692,-68.6161,-9.17262,37.4005,84.1702,-3.75769,-9.8162,2.84519,-14.6715,3.57366,-23.0063,37.4428,-22.9335,12.2959,1.76881
-3.15437,17.3604,22.509,176.031,19.6286,-173.897,-5.57239,-2.31121,2.34644,-4.81711,-2.76167,3.05699,-1.80939,-1.23499,1.72026,-14.5324,-3.08715,-5.61397,37.6998,-0.514918,1.54811,15.8635,0.314622,1.89573,1.08139e-13,1.19271e-15,-19.4753,41.8599,-97.6606,123.787,-9.6402,-17.1614,-61.3899,7.12502,-170.92,-88.8255,1.08139e-13,1.19271e-15,64.186,0.76852,48.0054,89.0164,94.9137,-48.339,-13.5832,7.12502,-20.9941,15.3006,-68.3182,-9.11038,37.6615,83.9062,-3.9005,-9.75669,3.21628,-14.701,3.83162,-22.7827,37.5281,-22.8864,12.1772,1.93429
-3.15753,17.3588,22.5372,175.926,19.7506,-173.924,-5.53109,-2.29788,2.3712,-4.82865,-2.74185,3.06564,-1.84548,-1.22549,1.71806,-14.5458,-3.02727,-5.42092,37.6562,-0.40309,1.31035,15.8365,0.353485,1.77595,-1.04362e-14,3.26007e-14,-19.5073,41.8636,-97.6736,123.662,-9.4855,-16.7067,-61.4381,7.12502,-170.482,-88.7969,-1.04362e-14,3.26007e-14,64.0123,0.725975,47.8962,88.7999,94.6793,-47.5645,-14.2744,7.12502,-20.2499,14.69,-68.1896,-9.06435,37.7267,83.7296,-3.68907,-9.55515,2.48001,-14.7551,4.05049,-22.7564,37.6116,-22.7504,11.9377,2.18478
-3.16234,17.3373,22.5617,175.793,19.7018,-174.005,-5.77634,-2.31079,2.47768,-4.6085,-2.80286,2.94661,-1.49131,-1.26687,1.51837,-14.5315,-2.97486,-5.34694,37.3726,-0.40776,1.29736,15.6875,0.34169,1.74293,-1.66979e-14,-2.5842e-14,-19.1223,41.7569,-97.5272,123.661,-9.46383,-16.253,-61.5986,7.12502,-170.044,-88.6568,-1.66979e-14,-2.5842e-14,64.1644,0.835045,47.6613,88.5401,94.1652,-46.5647,-15.0604,7.12502,-19.2888,14.003,-68.207,-9.14638,37.7064,83.6582,-3.50742,-9.49895,1.72396,-14.8692,4.12111,-22.8251,37.7894,-22.6753,11.6975,2.55685
-3.1679,17.3302,22.59,175.777,19.6172,-174.025,-6.14146,-2.33411,2.62112,-4.39055,-2.88048,2.84076,-1.07527,-1.31395,1.30588,-14.6889,-2.892,-5.26133,37.3333,-0.357395,1.38739,15.7007,0.378131,1.77248,7.70291e-14,-3.18055e-15,-18.6427,41.6322,-97.338,123.684,-9.80307,-16.6611,-61.0846,7.12502,-170.438,-89.1524,7.70291e-14,-3.18055e-15,64.3157,0.957779,47.4741,88.4816,93.899,-46.2759,-15.6179,7.12502,-19.011,13.4731,-68.2201,-9.18861,37.7436,83.5201,-3.52327,-9.56356,1.25853,-15.1107,4.19355,-22.8242,38.0252,-22.6679,11.4707,2.6807
-3.17141,17.3205,22.6229,175.802,19.4953,-174.091,-6.18777,-2.43046,2.56158,-4.47728,-2.99612,2.8599,-1.13479,-1.36721,1.35342,-14.6454,-2.80889,-5.26841,37.4483,-0.196554,1.3852,15.7412,0.454185,1.80647,3.48867e-14,-2.18663e-14,-18.7255,41.6526,-97.3667,123.774,-10.2274,-17.5069,-60.1606,7.12502,-171.254,90.0406,3.48867e-14,-2.18663e-14,64.0014,0.929708,47.4785,88.6911,94.241,-47.0897,-15.2241,7.12502,-19.7935,13.788,-68.3478,-9.1821,37.7306,83.4266,-3.61189,-9.61444,1.48997,-15.4525,4.36892,-22.8523,38.2911,-22.6458,11.0752,2.81268
-3.17367,17.3136,22.66,175.803,19.2626,-174.196,-6.13094,-2.57275,2.46138,-4.61613,-3.16344,2.85706,-1.30367,-1.44582,1.40449,-14.4956,-2.7486,-5.30917,37.4615,-0.0802263,1.37942,15.7074,0.503701,1.83251,1.60022e-14,-9.54166e-15,-18.9046,41.7401,-97.4923,123.644,-10.0272,-17.5078,-59.9851,7.12502,-171.255,90.2161,1.60022e-14,-9.54166e-15,63.6566,0.895784,47.4535,88.8809,94.643,-48.2167,-13.5825,7.12502,-20.8766,15.3142,-68.4958,-9.28468,37.668,83.3376,-3.75505,-9.68275,2.26314,-15.7507,4.50098,-22.9158,38.49,-22.6348,10.593,3.09325
-3.17415,17.3087,22.6961,175.847,19.1334,-174.233,-6.29264,-2.66499,2.49125,-4.65576,-3.28752,2.82536,-1.25812,-1.50646,1.34321,-14.3228,-2.68163,-5.26373,37.3822,0.0214487,1.31372,15.6211,0.546062,1.81035,-4.39314e-14,-2.8625e-14,-18.896,41.8438,-97.6175,123.092,-9.3781,-17.6329,-59.8195,7.12502,-171.375,90.3767,-4.39314e-14,-2.8625e-14,63.4593,0.917543,47.3042,88.9164,94.9057,-48.7955,-12.6426,7.12502,-21.4326,16.1918,-68.624,-9.28891,37.6969,83.2398,-3.77992,-9.73381,2.25595,-16.037,4.58461,-22.9049,38.665,-22.6841,10.2359,3.35062
-3.17484,17.3055,22.7254,175.856,19.2693,-174.241,-6.41113,-2.6701,2.52186,-4.7336,-3.28649,2.86268,-1.27311,-1.50164,1.36155,-13.9394,-2.67463,-5.23378,37.2604,0.089296,1.1073,15.4674,0.559198,1.72373,6.7885e-14,6.75868e-15,-19.0741,41.8635,-97.7593,123.118,-9.79155,-17.7352,-59.2635,7.12502,-171.474,90.9287,6.7885e-14,6.75868e-15,63.1831,0.840963,47.171,88.7852,94.8491,-48.4565,-13.3051,7.12502,-21.107,15.566,-68.5786,-9.10743,37.7626,83.1125,-3.72015,-9.7216,1.64084,-16.2056,4.84601,-22.8541,38.7927,-22.7924,9.98884,3.72342
-3.17733,17.3008,22.7513,175.737,19.4648,-174.362,-6.38954,-2.62706,2.42418,-4.7968,-3.21617,2.89035,-1.34356,-1.46222,1.45065,-13.6077,-2.72505,-5.23436,37.1728,0.0783967,0.915112,15.3478,0.537037,1.63749,-5.65542e-14,9.14409e-15,-19.2582,41.8077,-97.7791,123.232,-10.0694,-18.0687,-59.0181,7.12502,-171.796,91.1612,-5.65542e-14,9.14409e-15,62.9824,0.70225,47.0882,88.5051,94.5471,-48.3916,-13.3524,7.12502,-21.0446,15.5257,-68.4321,-8.9171,37.6894,83.0082,-3.85242,-9.74412,1.81884,-16.2472,5.24224,-22.9237,38.8885,-22.8853,9.78326,3.54266
-3.18373,17.2948,22.7787,175.575,19.4788,-174.537,-6.3543,-2.62063,2.34222,-4.83417,-3.20152,2.84813,-1.39932,-1.45412,1.45619,-13.4846,-2.70462,-5.15896,37.1942,0.127813,0.837927,15.3268,0.566134,1.60139,7.95139e-15,-2.46493e-14,-19.3172,41.6986,-97.7514,123.199,-10.0229,-17.6617,-59.2177,7.12502,-171.403,90.9773,7.95139e-15,-2.46493e-14,62.8683,0.561882,46.9707,88.232,94.3789,-48.6949,-12.5822,7.12502,-21.336,16.2632,-68.3488,-8.90047,37.5442,82.9262,-4.19783,-9.82331,3.02808,-16.2936,5.52086,-23.0708,38.9742,-22.8186,9.61183,2.86901
-3.19249,17.2917,22.8059,175.501,19.4424,-174.547,-6.29378,-2.65058,2.43103,-4.92773,-3.23076,2.84769,-1.53521,-1.46818,1.41052,-13.4243,-2.6431,-4.99689,37.2777,0.237896,0.728802,15.3482,0.630523,1.54901,1.98785e-14,-2.38542e-15,-19.5292,41.6633,-97.8121,122.998,-9.87467,-16.8828,-59.7474,7.12502,-170.652,90.4799,1.98785e-14,-2.38542e-15,62.6792,0.408511,46.8183,87.9678,94.2107,-47.6612,-13.3251,7.12502,-20.3429,15.6294,-68.2692,-8.94429,37.5828,82.7611,-4.46627,-9.93025,3.97912,-16.4004,5.7333,-23.0521,39.0482,-22.7105,9.37555,2.68505
-3.19891,17.2877,22.8329,175.431,19.4807,-174.447,-6.16355,-2.65898,2.55016,-5.00975,-3.2273,2.92974,-1.6954,-1.46478,1.4373,-13.4633,-2.67305,-4.87402,37.4934,0.306408,0.465721,15.4639,0.65355,1.43602,-3.85642e-14,1.86858e-14,-19.7593,41.6738,-97.7775,122.877,-9.91562,-16.0158,-61.0161,7.12502,-169.815,-89.2505,-3.85642e-14,1.86858e-14,62.5134,0.272676,46.7813,87.7204,94.0122,-46.641,-14.2386,7.12502,-19.3621,14.8175,-68.1038,-8.91931,37.7343,82.535,-4.41319,-9.98181,3.40563,-16.468,6.00916,-22.9034,39.1205,-22.6363,9.09504,2.69686
-3.20318,17.2827,22.8652,175.27,19.3661,-174.477,-6.03904,-2.69379,2.48314,-5.00023,-3.26751,2.97124,-1.74782,-1.48352,1.52084,-13.5842,-2.73169,-4.87647,37.7095,0.306923,0.358664,15.603,0.647191,1.39939,-7.7526e-15,6.36111e-15,-19.7608,41.625,-97.6241,122.908,-10.0584,-15.9883,-61.0055,7.12502,-169.789,-89.2623,-7.7526e-15,6.36111e-15,62.503,0.173705,46.8596,87.5589,94.1421,-47.141,-14.0717,7.12502,-19.8428,14.9354,-67.9722,-9.02911,37.7248,82.342,-4.19671,-9.87756,1.89204,-16.4835,6.16292,-22.8932,39.2142,-22.5842,8.86852,2.57671
-3.20782,17.2775,22.9027,175.18,19.0942,-174.609,-6.24126,-2.77786,2.38562,-4.8589,-3.40303,2.90334,-1.48559,-1.55392,1.48513,-13.7891,-2.66603,-4.80264,37.6933,0.326608,0.473836,15.6403,0.671627,1.43739,-1.07344e-14,-1.39149e-14,-19.3969,41.5499,-97.4037,122.874,-10.1903,-16.9183,-59.6548,7.12502,-170.686,90.571,-1.07344e-14,-1.39149e-14,62.6119,0.191619,46.8398,87.483,94.3946,-48.0956,-13.8702,7.12502,-20.7603,15.0393,-68.0448,-9.22288,37.6295,82.1593,-4.0053,-9.73566,0.472867,-16.6589,6.15143,-23.0138,39.3498,-22.5664,8.59816,2.72054
-3.21288,17.2667,22.9413,175.239,18.9791,-174.601,-6.61677,-2.80669,2.53434,-4.72577,-3.4755,2.83332,-1.15291,-1.59506,1.30475,-13.9024,-2.54907,-4.67129,37.568,0.382389,0.596483,15.5984,0.718389,1.47041,-2.44505e-14,-3.06128e-14,-19.0144,41.4722,-97.181,122.767,-10.3799,-17.56,-59.245,7.12502,-171.305,90.9541,-2.44505e-14,-3.06128e-14,62.7091,0.221212,46.7642,87.4044,94.292,-48.3823,-13.6829,7.12502,-21.0357,15.1963,-68.174,-9.17199,37.707,81.9439,-3.89151,-9.73571,-0.0662066,-17.002,6.22828,-22.9919,39.5315,-22.5199,8.3303,2.97512
-3.21754,17.2551,22.9802,175.303,18.9524,-174.429,-6.68428,-2.8225,2.76034,-4.80218,-3.49279,2.89735,-1.20589,-1.60224,1.24349,-13.6397,-2.56367,-4.76274,37.5273,0.383928,0.616604,15.5163,0.71865,1.49483,-5.24792e-14,7.15625e-15,-19.2227,41.4523,-97.1392,122.789,-10.5758,-17.5478,-59.4567,7.12502,-171.293,90.7429,-5.24792e-14,7.15625e-15,62.5479,0.0863454,46.8784,87.338,94.054,-48.0665,-13.2953,7.12502,-20.7323,15.6172,-68.1952,-9.04509,37.9292,81.7446,-3.9137,-9.74522,0.495598,-17.3088,6.33683,-22.7894,39.7513,-22.4865,8.06304,3.31566
-3.22251,17.2491,23.0172,175.22,18.7993,-174.314,-6.4902,-2.88778,2.82935,-4.94138,-3.55246,2.99585,-1.45644,-1.62787,1.31751,-13.3042,-2.66468,-4.91952,37.5469,0.325269,0.542301,15.452,0.677978,1.48331,4.33351e-14,1.03368e-14,-19.6511,41.4591,-97.2029,122.841,-10.6349,-17.0982,-59.6648,7.12502,-170.859,90.5533,4.33351e-14,1.03368e-14,62.2243,-0.193934,47.2245,87.4775,93.942,-48.0041,-12.6579,7.12502,-20.6723,16.2612,-68.119,-9.12952,38.0599,81.6175,-3.91934,-9.61567,0.627158,-17.4385,6.41294,-22.6404,39.9715,-22.4279,7.62826,3.44947
-3.22661,17.2434,23.0515,174.995,18.6638,-174.294,-6.30215,-2.93874,2.84169,-4.97734,-3.60822,3.03351,-1.59633,-1.65566,1.35741,-13.064,-2.69096,-4.98889,37.4881,0.308023,0.528589,15.3677,0.667024,1.48562,-6.83819e-14,-1.11319e-14,-19.822,41.4868,-97.2113,122.817,-10.6078,-16.8536,-60.2667,7.12502,-170.623,270.038,-6.83819e-14,-1.11319e-14,62.0629,-0.433077,47.5479,87.556,94.0651,-48.3137,-12.0577,7.12502,-20.9698,16.8287,-67.9313,-9.21194,38.0879,81.5256,-3.94182,-9.642,0.694262,-17.4075,6.58226,-22.571,40.1508,-22.3587,7.18655,3.51659
-3.22974,17.2375,23.0822,174.732,18.5975,-174.349,-6.31847,-3.00899,2.85714,-4.93184,-3.70823,3.04479,-1.54013,-1.70671,1.35344,-12.7684,-2.58542,-5.02182,37.3001,0.452464,0.52226,15.2,0.725888,1.50595,-3.99557e-14,-4.49253e-14,-19.9191,41.6842,-97.2159,122.843,-10.52,-17.154,-60.3878,7.12502,-170.913,270.172,-3.99557e-14,-4.49253e-14,61.9299,-0.481574,47.6052,87.3284,94.049,-48.9718,-11.4925,7.12502,-21.602,17.3226,-67.7027,-9.2481,38.0573,81.4486,-4.07915,-9.82491,1.71658,-17.3199,6.73728,-22.5769,40.2784,-22.3576,6.95387,3.71667
-3.23455,17.2292,23.1126,174.51,18.494,-174.533,-6.47355,-3.08991,2.80128,-4.84564,-3.83241,3.00378,-1.36314,-1.76996,1.32502,-12.7078,-2.49504,-4.97306,37.2127,0.598675,0.419255,15.1383,0.778739,1.47426,3.63776e-14,1.23246e-14,-19.6928,41.5853,-97.0195,123.584,-12.2032,-15.3096,-61.2099,7.12502,-169.134,270.909,3.63776e-14,1.23246e-14,61.7678,-0.427665,47.5911,87.1467,93.807,-49.4678,-11.0656,7.12502,-22.0782,17.694,-67.621,-9.35207,37.9201,81.4315,-4.13372,-9.78077,2.41999,-17.3233,6.83423,-22.7483,40.3954,-22.3213,6.76873,3.51943
-3.24139,17.2141,23.1475,174.343,18.3155,-174.816,-6.54526,-3.14114,2.6514,-4.8221,-3.90576,2.90271,-1.29473,-1.80737,1.29575,-12.7891,-2.53158,-4.8772,37.2873,0.573253,0.297195,15.1955,0.76529,1.4044,2.10712e-14,-2.38542e-14,-19.6249,41.7431,-97.077,122.899,-11.0319,-16.1862,-60.727,7.12502,-169.979,270.469,2.10712e-14,-2.38542e-14,61.6787,-0.470088,47.6505,86.9852,93.5087,-48.9325,-11.435,7.12502,-21.5642,17.3844,-67.7499,-9.49159,37.6971,81.4916,-4.02525,-9.49047,1.83096,-17.4824,6.9046,-23.0467,40.5447,-22.2578,6.48435,3.60379
-3.24768,17.1975,23.1888,174.212,18.0576,-175.041,-6.54888,-3.2275,2.51407,-4.86661,-4.01369,2.82827,-1.33359,-1.85994,1.29123,-12.6786,-2.56726,-4.9199,37.3471,0.533089,0.337857,15.2004,0.756374,1.42538,3.33958e-14,3.18055e-15,-19.604,41.8365,-97.2109,122.548,-10.6082,-16.8811,-60.6114,7.12502,-170.65,270.384,3.33958e-14,3.18055e-15,61.6211,-0.543533,47.6815,86.569,93.0337,-48.0225,-11.8808,7.12502,-20.69,17.0363,-67.9612,-9.63676,37.5234,81.5805,-3.81648,-9.28164,0.966357,-17.7272,6.92418,-23.2862,40.7546,-22.1658,6.17999,4.04721
-3.25173,17.1853,23.2323,174.139,17.8104,-174.983,-6.54455,-3.32528,2.59579,-4.90595,-4.13896,2.86372,-1.38016,-1.92143,1.27785,-12.6038,-2.58458,-5.02389,37.5556,0.578037,0.37903,15.2857,0.78354,1.47776,-3.57812e-14,2.38542e-15,-19.5856,41.9007,-97.2368,122.596,-11.0072,-17.5128,-60.4407,7.12502,-171.259,270.24,-3.57812e-14,2.38542e-15,61.5484,-0.532534,47.8266,86.243,92.899,-48.0557,-11.2137,7.12502,-20.7219,17.6999,-68.0561,-9.71208,37.6293,81.6343,-3.62339,-9.32025,0.966255,-17.9745,6.92747,-23.2078,41.0162,-22.009,5.8891,4.10305
-3.25522,17.1742,23.2699,174.044,17.7093,-174.732,-6.49966,-3.31461,2.89513,-4.90525,-4.12948,2.92751,-1.42279,-1.92025,1.18107,-12.6342,-2.67944,-4.98214,37.8866,0.574529,0.202826,15.461,0.78541,1.40937,7.45443e-14,-2.38542e-15,-19.8725,41.7591,-96.995,122.911,-11.3945,-18.2994,-60.122,7.12502,-172.019,450.049,7.45443e-14,-2.38542e-15,61.4463,-0.639511,48.1103,86.2091,93.082,-48.7709,-9.83197,7.12502,-21.409,19.0052,-67.9389,-9.69086,37.9347,81.6715,-3.6114,-9.37284,1.38299,-18.1103,7.01272,-22.8967,41.2952,-21.9257,5.5915,4.15502
-3.25998,17.1608,23.3008,173.792,17.7232,-174.744,-6.4524,-3.24817,3.00161,-4.88198,-4.04652,2.91576,-1.43357,-1.88234,1.11606,-12.5095,-2.77659,-4.9678,37.9763,0.514537,0.0440298,15.4809,0.754077,1.33403,4.77083e-14,-3.57812e-14,-20.1757,41.6884,-96.8108,122.955,-11.0528,-18.9401,-59.7127,7.12502,-172.637,450.435,4.77083e-14,-3.57812e-14,61.2861,-0.803967,48.2293,86.0285,93.1858,-48.723,-9.71694,7.12502,-21.363,19.1254,-67.7689,-9.64312,37.9714,81.7772,-3.72353,-9.29162,1.71564,-18.1167,7.22068,-22.8577,41.5776,-21.9598,5.37798,4.24385
-3.26385,17.1445,23.3334,173.531,17.6937,-175.036,-6.39835,-3.21787,2.7536,-4.94494,-3.98991,2.88226,-1.51248,-1.84934,1.22677,-12.2508,-2.81978,-4.98823,37.8744,0.474105,-0.0367516,15.3711,0.73144,1.29446,-8.15017e-15,2.38542e-15,-19.7868,41.6787,-97.2141,122.382,-11.1292,-17.7351,-60.6486,7.12502,-171.474,270.456,-8.15017e-15,2.38542e-15,61.0704,-0.912735,48.2711,85.6317,93.1933,-48.49,-9.56196,7.12502,-21.1392,19.3056,-67.7704,-9.60159,37.7409,81.9351,-3.70601,-9.34176,1.2347,-18.2209,7.42346,-23.1283,41.8609,-21.9801,5.17147,4.25656
-3.26624,17.1241,23.3737,173.412,17.6114,-175.169,-6.62387,-3.19196,2.78379,-4.876,-3.97729,2.75785,-1.32694,-1.84717,1.06787,-12.125,-2.78593,-4.89466,37.7491,0.426079,0.0842011,15.2767,0.73997,1.31725,7.69297e-14,3.18055e-15,-19.6687,41.5971,-97.2579,122.45,-11.2291,-17.1041,-61.363,7.12502,-170.865,271.145,7.69297e-14,3.18055e-15,61.0667,-0.916957,48.2574,85.3215,93.0872,-48.5246,-8.83301,7.12502,-21.1724,20.0308,-67.8545,-9.47245,37.662,82.0555,-3.60447,-9.63158,0.487458,-18.4956,7.59295,-23.2391,42.1723,-21.9133,4.86208,4.49362
-3.27039,17.1071,23.415,173.333,17.5608,-174.981,-6.59833,-3.19211,3.04699,-4.90798,-3.97724,2.83246,-1.38886,-1.84863,1.00162,-12.0311,-2.79374,-4.97454,37.8413,0.446488,0.140524,15.3005,0.757393,1.36338,4.07509e-14,-1.35174e-14,-19.7684,41.64,-97.2863,122.474,-11.3219,-17.17,-61.612,7.12502,-170.929,271.397,4.07509e-14,-1.35174e-14,60.8541,-0.936267,48.4599,85.1361,92.9762,-47.9339,-9.40981,7.12502,-20.6049,19.5166,-67.7589,-9.25324,37.8647,82.0911,-3.50316,-9.59941,0.996024,-18.7066,7.7712,-23.0071,42.5043,-21.862,4.60938,4.78398
-3.27277,17.0922,23.4567,173.221,17.4709,-174.688,-6.52952,-3.21845,3.36361,-4.91382,-4.0126,2.95317,-1.44888,-1.86825,0.953092,-11.964,-2.86233,-4.99273,37.9194,0.43905,-0.0349643,15.327,0.737425,1.29482,-4.25399e-14,4.77083e-15,-19.7906,41.6996,-97.2819,122.517,-11.4025,-16.7165,-62.2622,7.12502,-170.491,272.028,-4.25399e-14,4.77083e-15,60.6507,-0.869555,48.6777,85.114,93.3049,-47.8139,-9.65206,7.12502,-20.4896,19.2868,-67.5732,-9.11063,38.2018,82.1127,-3.26524,-9.25975,1.69635,-18.8383,7.90526,-22.644,42.8122,-21.8166,4.34678,4.97205
-3.2725,17.077,23.5005,173.062,17.2275,-174.623,-6.71143,-3.31339,3.50621,-4.83129,-4.16114,2.94059,-1.27593,-1.94464,0.840708,-11.8942,-2.85023,-4.87633,37.842,0.480723,-0.224721,15.2712,0.744864,1.19787,-4.9895e-14,-6.36111e-15,-19.5567,41.8441,-97.3359,122.433,-11.3411,-16.0045,-63.012,7.12502,-169.804,272.745,-4.9895e-14,-6.36111e-15,60.5239,-0.689982,48.8092,85.2095,93.8331,-48.365,-8.82423,7.12502,-21.019,20.0567,-67.5135,-9.1748,38.3359,82.243,-3.04578,-9.09501,1.63167,-18.9818,7.98569,-22.5256,43.0492,-21.6835,3.94736,5.196
-3.27622,17.07,23.5368,172.831,16.9879,-174.748,-7.20375,-3.31643,3.65972,-4.57558,-4.23231,2.74713,-0.765679,-1.98746,0.515174,-11.8857,-2.80758,-4.75486,37.6418,0.43042,-0.146639,15.1677,0.738904,1.19362,-1.63003e-14,1.03368e-14,-19.0429,41.8469,-97.2578,122.054,-11.073,-16.0038,-62.824,7.12502,-169.803,272.557,-1.63003e-14,1.03368e-14,60.6868,-0.586074,48.793,85.1403,93.5841,-48.2916,-8.13354,7.12502,-20.9485,20.7552,-67.4395,-9.3422,38.236,82.4387,-2.97333,-9.01331,1.90897,-19.0037,8.07988,-22.6334,43.1948,-21.6013,3.58794,5.4991
-3.281,17.0637,23.57,172.599,16.8737,-174.835,-7.17744,-3.25568,3.71109,-4.6335,-4.14667,2.69156,-0.846954,-1.94646,0.438583,-11.7089,-2.9888,-4.82928,37.8902,0.262464,-0.186619,15.2565,0.678561,1.17414,7.27552e-14,3.65764e-14,-19.1876,41.732,-97.2929,121.658,-10.8143,-16.1662,-62.2283,7.12502,-169.96,271.969,7.27552e-14,3.65764e-14,60.5307,-0.804979,48.8661,84.9219,92.9138,-47.7866,-8.67387,7.12502,-20.4634,20.2678,-67.3125,-9.41871,38.1913,82.6522,-2.96084,-8.98386,2.47838,-18.9539,8.18019,-22.6945,43.2848,-21.5685,3.35091,5.54868
-3.2832,17.0476,23.6045,172.361,16.7293,-175.03,-7.16355,-3.28586,3.56675,-4.75941,-4.16207,2.69813,-0.973997,-1.94912,0.529553,-11.2307,-3.37771,-5.17814,38.5094,0.0708044,-0.502467,15.4723,0.568601,1.09763,-1.94809e-14,2.14687e-14,-19.3818,41.7802,-97.3771,121.955,-11.459,-15.5251,-62.6062,7.12502,-169.342,272.316,-1.94809e-14,2.14687e-14,60.1099,-0.904201,48.9231,84.7316,92.7832,-47.5778,-9.77963,7.12502,-20.2627,19.1834,-67.2692,-9.51376,38.069,82.9296,-2.9856,-8.87216,2.32145,-18.9432,8.25381,-22.8771,43.3756,-21.5154,3.10735,5.55993
-3.28616,17.0283,23.6372,172.043,16.4808,-175.346,-7.11818,-3.35944,3.27419,-4.88439,-4.22829,2.70606,-1.10621,-1.97453,0.702659,-11.506,-3.26946,-4.89911,38.7215,0.301083,-0.733929,15.6371,0.683871,0.993799,7.95139e-16,2.06736e-14,-19.5844,41.8931,-97.3999,122.114,-11.9761,-15.8688,-62.3618,7.12502,-169.673,272.088,7.95139e-16,2.06736e-14,59.6482,-0.968056,49.0594,84.5282,92.9922,-47.4949,-10.0752,7.12502,-20.183,18.8963,-67.2339,-9.72828,37.7916,83.2248,-3.06118,-8.69847,2.08974,-18.9036,8.33555,-23.2034,43.5097,-21.5075,2.80349,5.81634
-3.28701,17.0119,23.6781,171.814,16.2004,-175.389,-7.03333,-3.46741,3.18904,-4.98032,-4.34794,2.78504,-1.24133,-2.02833,0.832839,-10.5518,-3.49393,-5.59069,38.7101,0.175279,-0.682061,15.4231,0.583593,1.12612,-1.19271e-15,-8.74653e-15,-19.6802,42.1517,-97.4036,122.1,-12.3721,-16.8171,-61.9348,7.12502,-170.588,271.705,-1.19271e-15,-8.74653e-15,59.275,-0.888644,49.0783,84.2902,92.9269,-47.1894,-9.96193,7.12502,-19.8893,19.0403,-67.175,-9.89594,37.8127,83.4221,-3.1209,-8.71068,2.41816,-18.9618,8.41733,-23.2231,43.6942,-21.4699,2.41991,5.97932
-3.28416,16.9962,23.7233,171.656,15.962,-175.255,-6.97178,-3.56796,3.2373,-5.03596,-4.46708,2.89662,-1.32969,-2.08355,0.920375,-10.721,-3.50674,-5.48145,38.9766,0.304646,-0.955018,15.5977,0.631366,1.0199,6.75868e-15,2.14687e-14,-19.6214,42.4545,-97.4137,122.081,-12.7755,-17.4799,-61.6773,7.12502,-171.228,271.475,6.75868e-15,2.14687e-14,58.9743,-0.782941,48.9668,84.1372,92.5267,-47.0883,-9.80047,7.12502,-19.7922,19.2118,-67.0585,-9.97705,38.0438,83.5477,-3.03022,-8.74059,1.94846,-19.0931,8.53849,-23.0295,43.9176,-21.4129,1.98734,5.86837
-3.28237,16.9828,23.7606,171.447,15.7582,-175.235,-6.86186,-3.56958,3.20085,-5.12161,-4.44816,2.95313,-1.47199,-2.06987,1.00975,-10.5029,-3.74312,-5.6785,39.0923,0.0833721,-1.07932,15.6182,0.51268,0.972582,-7.15625e-15,3.18055e-15,-19.6422,42.493,-97.3678,122.035,-13.0782,-17.5212,-61.6409,7.12502,-171.268,271.44,-7.15625e-15,3.18055e-15,58.7643,-0.906587,48.9359,84.0295,92.3978,-47.4162,-9.60001,7.12502,-20.1073,19.3795,-66.8849,-10.0665,38.1106,83.6967,-2.89084,-8.70177,1.39996,-19.1782,8.79554,-22.9559,44.172,-21.2746,1.6746,4.80631
-3.28432,16.9691,23.7941,171.248,15.6033,-175.261,-7.38171,-3.47453,3.39429,-4.8876,-4.38249,2.83971,-0.965984,-2.04283,0.748973,-10.3555,-3.82622,-5.71004,38.9588,-0.1051,-0.974699,15.5189,0.442062,0.99035,4.37326e-15,-3.33958e-14,-19.0841,42.4262,-97.0534,121.828,-13.2059,-17.4771,-61.5909,7.12502,-171.225,271.388,4.37326e-15,-3.33958e-14,59.0427,-0.826887,48.718,83.7968,92.6866,-47.7263,-9.39356,7.12502,-20.4054,19.5543,-66.7422,-10.1534,38.1294,83.865,-2.91995,-8.65134,2.00325,-19.316,9.15238,-22.9214,44.4419,-20.8633,1.42883,2.80934
-3.28715,16.9522,23.8333,171.068,15.4445,-175.268,-7.4513,-3.44819,3.486,-4.95948,-4.34124,2.85562,-1.00833,-2.01989,0.715873,-10.6726,-3.85383,-5.52816,39.3244,-0.0393604,-1.13314,15.7793,0.491598,0.91143,0,-7.15625e-15,-19.2103,42.5302,-97.0245,121.814,-13.2578,-17.357,-61.8503,7.12502,-171.109,271.643,0,-7.15625e-15,58.891,-0.86533,48.6324,83.6358,92.9195,-47.8982,-9.18346,7.12502,-20.5706,19.7466,-66.6532,-10.2175,38.1962,84.0403,-3.01497,-8.63271,1.94995,-19.5118,9.37752,-22.8678,44.7085,-20.2916,1.16938,0.730232
-3.28823,16.9358,23.8764,170.933,15.1829,-175.288,-7.39267,-3.47317,3.44513,-5.09404,-4.34811,2.89222,-1.17473,-2.01817,0.784385,-10.9528,-3.91749,-5.34859,39.6206,-0.0371076,-1.3256,16,0.50588,0.804778,1.86858e-14,3.73715e-14,-19.4213,42.6194,-97.0142,121.915,-13.2634,-16.8409,-62.3644,7.12502,-170.611,272.135,1.86858e-14,3.73715e-14,58.6493,-0.966939,48.568,83.5249,92.8003,-48.0907,-9.03318,7.12502,-20.7556,19.8768,-66.6798,-10.3135,38.2321,84.2599,-3.09912,-8.65854,1.92368,-19.7222,9.43286,-22.8735,44.9611,-20.3307,0.77801,1.13431
-3.28895,16.9205,23.9181,170.804,14.897,-175.316,-7.59076,-3.46085,3.50592,-5.09559,-4.34101,2.84503,-1.07581,-2.01375,0.69102,-10.4283,-4.05395,-5.60141,39.2679,-0.289867,-1.23754,15.7008,0.376163,0.841771,3.93594e-14,-4.21423e-14,-19.2578,42.5604,-96.8262,121.877,-13.2156,-15.8208,-62.8168,7.12502,-169.627,272.541,3.93594e-14,-4.21423e-14,58.6569,-0.993242,48.4136,83.4117,93.0926,-49.0842,-7.71737,7.12502,-21.7099,21.0853,-66.7293,-10.4693,38.2556,84.4884,-3.29012,-8.70372,3.24358,-19.9103,9.53997,-22.905,45.2014,-20.1701,0.599524,0.360319
-3.28836,16.9029,23.9614,170.615,14.5786,-175.381,-7.78664,-3.46651,3.56391,-5.09261,-4.36001,2.76608,-0.976072,-2.02358,0.564995,-9.79313,-4.30234,-6.09845,39.0823,-0.60555,-1.14179,15.477,0.199622,0.922613,5.88403e-14,1.82882e-14,-18.9693,42.4829,-96.6653,121.689,-13.1552,-15.3903,-62.875,7.12502,-169.212,272.578,5.88403e-14,1.82882e-14,58.6052,-0.967938,48.3006,83.4685,93.9286,-50.2486,-6.39927,7.12502,-22.8277,22.2698,-66.7053,-10.7099,38.2853,84.6418,-3.3739,-8.78732,3.69658,-20.0492,9.67146,-22.9626,45.4133,-19.9981,0.273657,-0.169587
-3.28701,16.8846,24.0058,170.397,14.1918,-175.421,-7.67409,-3.53128,3.49153,-5.198,-4.42207,2.76807,-1.14262,-2.05166,0.614142,-10.2689,-4.22953,-6.03447,39.7019,-0.438138,-0.901284,15.904,0.340481,1.05927,-5.88403e-14,2.22639e-14,-18.8606,42.5287,-96.6342,121.498,-13.0869,-16.2119,-62.7051,7.12502,-170.004,272.448,-5.88403e-14,2.22639e-14,58.376,-1.07281,48.2307,83.3374,93.8332,-49.9393,-7.4547,7.12502,-22.5308,21.2507,-66.6293,-11.0343,38.3423,84.773,-3.41551,-8.87496,3.463,-20.1298,9.66826,-23.0061,45.5739,-19.8945,-0.144608,-0.210644
-3.28734,16.8727,24.0461,170.136,13.8874,-175.401,-7.59943,-3.58937,3.49737,-5.21989,-4.48988,2.82135,-1.20391,-2.08362,0.667057,-10.218,-4.34771,-6.10725,39.7393,-0.535146,-1.03396,15.9182,0.278819,1.00144,-4.77083e-15,-1.27222e-14,-18.7372,42.7404,-96.5487,121.398,-13.1332,-17.4632,-62.8468,7.12502,-171.212,272.644,-4.77083e-15,-1.27222e-14,58.2328,-1.11847,48.0014,82.8564,93.0634,-49.2154,-8.38839,7.12502,-21.8358,20.3996,-66.4761,-11.2987,38.4226,84.9605,-3.76902,-8.98466,4.43691,-20.0902,9.6463,-22.97,45.698,-19.831,-0.46763,-0.164257
-3.29014,16.864,24.0831,169.816,13.6351,-175.591,-7.8174,-3.59634,3.42916,-5.13125,-4.51655,2.78363,-0.989196,-2.09559,0.647013,-10.0804,-4.30982,-6.27694,39.703,-0.473121,-0.905051,15.8686,0.306653,1.09963,-3.53837e-14,3.57812e-14,-18.5089,42.9159,-96.3263,121.271,-13.2748,-18.3686,-62.8991,7.12502,-172.085,272.731,-3.53837e-14,3.57812e-14,58.1032,-1.09088,47.8201,82.5784,92.802,-49.17,-8.0978,7.12502,-21.7923,20.6953,-66.3701,-11.5099,38.2772,85.2064,-4.1589,-8.96796,5.17189,-19.9804,9.70696,-23.1472,45.7914,-19.7969,-0.791813,0.0856253
-3.29365,16.8478,24.1211,169.523,13.4023,-175.798,-7.93551,-3.56722,3.37434,-5.12936,-4.48235,2.69022,-0.924549,-2.0788,0.576126,-9.90278,-4.47012,-6.27578,39.6377,-0.689966,-1.02459,15.7994,0.205899,1.01328,3.97569e-16,2.14687e-14,-18.446,42.949,-96.207,121.031,-13.3928,-18.9799,-62.7248,7.12502,-172.675,272.578,3.97569e-16,2.14687e-14,57.8937,-1.20613,47.7087,82.48,92.906,-49.0489,-8.12123,7.12502,-21.676,20.6853,-66.2945,-11.6761,38.1231,85.4145,-3.98718,-8.94018,5.09034,-19.9201,9.8186,-23.348,45.9063,-19.7519,-1.13523,0.229124
-3.29698,16.8275,24.161,169.304,13.2012,-175.894,-7.90054,-3.52625,3.41894,-5.19155,-4.42197,2.62228,-1.0167,-2.05048,0.490414,-10.1936,-4.45237,-6.13394,39.9691,-0.64781,-0.930545,16.038,0.274343,1.04585,-1.03368e-14,3.73715e-14,-18.4182,42.9389,-96.0866,120.86,-13.4689,-19.0901,-62.8725,7.12502,-172.782,272.729,-1.03368e-14,3.73715e-14,57.7984,-1.33468,47.564,82.2786,93.1458,-48.8699,-8.28191,7.12502,-21.5041,20.5444,-66.214,-11.7782,38.1015,85.5025,-4.11703,-9.11385,5.51387,-19.9707,9.95766,-23.4434,46.0863,-19.7155,-1.40637,-0.0586071
-3.29982,16.8076,24.207,169.153,12.9061,-175.983,-7.85145,-3.4954,3.39186,-5.28315,-4.36417,2.59968,-1.13772,-2.01962,0.492371,-9.88029,-4.6577,-6.09184,39.7463,-0.89682,-1.26069,15.8525,0.134806,0.852107,-2.26615e-14,1.82882e-14,-18.3315,42.8361,-95.872,120.898,-13.4706,-17.8294,-63.4837,7.12502,-171.565,273.295,-2.26615e-14,1.82882e-14,57.7918,-1.50287,47.5584,82.1002,93.449,-49.0236,-8.67405,7.12502,-21.6517,20.1353,-66.2449,-11.918,38.1026,85.5324,-4.10081,-9.28791,4.99979,-20.1719,10.0109,-23.5647,46.3191,-19.6388,-1.70334,-0.141742
-3.30065,16.7879,24.2555,169.01,12.7014,-175.789,-7.83252,-3.49311,3.61509,-5.32782,-4.35757,2.6933,-1.20611,-2.01547,0.468821,-9.78634,-4.74813,-6.43219,39.9245,-0.978918,-1.02177,15.9379,0.103049,1.01161,9.54166e-15,5.96354e-14,-18.2615,42.8476,-95.7671,120.892,-13.4725,-16.4209,-63.7305,7.12502,-170.206,273.483,9.54166e-15,5.96354e-14,57.6239,-1.62346,47.557,81.9074,93.4741,-49.0507,-9.05546,7.12502,-21.6777,19.7509,-66.1593,-11.9798,38.4094,85.5257,-3.96766,-9.29462,4.24018,-20.3518,10.0485,-23.3431,46.5777,-19.56,-1.94848,-0.146688
-3.3022,16.7725,24.2992,168.797,12.5601,-175.565,-7.80868,-3.54697,3.87875,-5.35141,-4.42694,2.84775,-1.25566,-2.04841,0.480507,-9.74516,-4.71959,-6.6197,40.068,-0.86398,-0.938254,16.0071,0.152554,1.10713,-2.78299e-15,-4.21423e-14,-18.2458,43.1124,-95.6794,120.707,-13.5807,-16.5081,-63.389,7.12502,-170.29,273.145,-2.78299e-15,-4.21423e-14,57.2555,-1.60875,47.446,81.5966,93.2907,-48.5412,-9.41715,7.12502,-21.1884,19.4449,-65.9619,-12.0201,38.7238,85.542,-4.04633,-9.22476,4.29216,-20.3783,10.1049,-23.0639,46.7831,-19.524,-2.08616,-0.497337
-3.30655,16.7593,24.3407,168.574,12.285,-175.58,-7.78892,-3.60995,3.91676,-5.36862,-4.50408,2.91263,-1.2843,-2.08445,0.523571,-9.53461,-4.85756,-6.63904,39.81,-1.00737,-1.27836,15.8275,0.0367671,0.933875,-1.27222e-14,-3.18055e-15,-18.0351,43.3237,-95.3883,120.505,-13.6725,-16.7726,-63.3581,7.12502,-170.545,273.126,-1.27222e-14,-3.18055e-15,57.0694,-1.56927,47.2797,81.2134,93.2991,-48.1796,-10.3296,7.12502,-20.8409,18.5711,-65.8929,-12.1404,38.7376,85.5819,-4.1546,-9.19076,4.70916,-20.3954,10.1428,-23.094,46.9226,-19.4343,-2.30907,-0.85203
-3.31242,16.7465,24.3824,168.303,12.0408,-175.766,-7.83289,-3.58064,3.85172,-5.2471,-4.48469,2.86029,-1.13138,-2.07755,0.499019,-10.0759,-4.92626,-6.78712,40.074,-1.10988,-1.04391,16.1065,-0.00475557,1.04595,4.25399e-14,7.15625e-15,-17.4984,43.3475,-94.8986,120.361,-13.7106,-16.5942,-63.6,7.12502,-170.373,273.36,4.25399e-14,7.15625e-15,57.1787,-1.49949,47.2731,81.038,93.4786,-48.6363,-10.3046,7.12502,-21.2797,18.5472,-65.8029,-12.2462,38.5584,85.5762,-3.93251,-9.04328,3.63669,-20.3705,10.2939,-23.3063,47.0141,-19.3633,-2.5817,-1.11202
-3.31791,16.7315,24.4255,168.012,11.8055,-175.992,-7.82257,-3.54012,3.71013,-5.14825,-4.44092,2.81414,-1.02463,-2.05722,0.528822,-10.2484,-5.11219,-6.33587,39.9047,-1.32987,-1.67169,16.0491,-0.132255,0.647489,-9.93923e-15,3.65764e-14,-17.1439,43.344,-94.5183,120.262,-13.7914,-16.9877,-63.7365,7.12502,-170.753,273.514,-9.93923e-15,3.65764e-14,57.225,-1.50463,47.3638,80.9395,93.3945,-49.223,-9.11756,7.12502,-21.8432,19.6696,-65.7137,-12.3399,38.3499,85.5944,-3.53194,-8.89892,1.22281,-20.3414,10.3932,-23.5587,47.0945,-19.2843,-2.8162,-1.12527
-3.3216,16.7167,24.4703,167.818,11.5883,-175.958,-7.77229,-3.51805,3.78572,-5.17721,-4.40455,2.86608,-1.08424,-2.03782,0.547004,-10.2418,-5.25188,-6.26686,39.8554,-1.4601,-1.96307,16.0223,-0.214668,0.486608,7.43455e-14,-4.53229e-14,-17.1461,43.3024,-94.3137,120.199,-13.9081,-17.2975,-63.929,7.12502,-171.052,273.719,7.43455e-14,-4.53229e-14,57.1693,-1.62955,47.4372,80.742,93.412,-49.4396,-8.30775,7.12502,-22.0511,20.4551,-65.6438,-12.35,38.4214,85.6133,-3.21105,-8.89663,-0.893923,-20.4031,10.3952,-23.5314,47.2091,-19.1034,-3.03262,-1.20001
-3.32153,16.7067,24.5154,167.615,11.4803,-175.77,-7.68441,-3.45904,3.99746,-5.2172,-4.31834,2.97039,-1.18257,-1.99411,0.549647,-10.2565,-5.2613,-6.50687,40.0299,-1.48436,-1.62142,16.1294,-0.19561,0.680673,3.33958e-14,2.46493e-14,-17.1908,43.1384,-94.1038,120.136,-13.9794,-16.9392,-63.9493,7.12502,-170.706,273.724,3.33958e-14,2.46493e-14,57.081,-1.81541,47.5753,80.5694,93.6497,-48.9361,-9.29393,7.12502,-21.5677,19.5251,-65.4371,-12.2359,38.6435,85.5637,-2.90833,-8.80269,-2.14831,-20.4193,10.4784,-23.2799,47.3395,-18.9246,-3.20417,-1.58686
-3.32058,16.6921,24.5597,167.373,11.3239,-175.769,-7.49634,-3.48584,4.01899,-5.36132,-4.31823,3.06818,-1.4311,-1.98959,0.655233,-9.74109,-5.31915,-6.65878,39.8066,-1.51589,-1.75965,15.8937,-0.234907,0.647943,5.56597e-15,-1.51076e-14,-17.4344,43.1478,-94.1489,119.984,-13.9088,-16.4766,-63.6576,7.12502,-170.26,273.412,5.56597e-15,-1.51076e-14,56.6761,-2.06445,47.6484,80.2309,93.1706,-47.7896,-11.6158,7.12502,-20.4662,17.3255,-65.2731,-12.1179,38.6442,85.5241,-3.21755,-8.93035,0.0293139,-20.4214,10.6036,-23.2388,47.4583,-18.7556,-3.42635,-1.59721
-3.32267,16.6732,24.6043,167.179,11.0717,-175.975,-7.44416,-3.52256,3.90163,-5.46873,-4.34247,3.07266,-1.56232,-1.99691,0.730505,-9.85695,-5.36768,-6.6725,40.0845,-1.48483,-1.81,16.0695,-0.20923,0.640254,4.01545e-14,-1.35174e-14,-17.5106,43.1736,-94.1427,119.73,-13.8061,-16.1586,-63.3694,7.12502,-169.953,273.11,4.01545e-14,-1.35174e-14,56.4331,-2.23873,47.8423,79.8987,92.8028,-47.7782,-11.7382,7.12502,-20.4553,17.2044,-65.3054,-12.0632,38.4279,85.5213,-3.31242,-8.90217,0.471282,-20.5205,10.7491,-23.4835,47.5415,-18.5644,-3.69626,-1.61321
-3.32536,16.6579,24.6516,167.017,10.8236,-176.247,-7.46515,-3.55489,3.67129,-5.48231,-4.37383,3.08673,-1.54491,-2.00621,0.869164,-10.5874,-5.30959,-6.62014,40.6455,-1.28433,-1.73919,16.5459,-0.0950627,0.698828,1.27222e-14,-3.57812e-14,-17.2324,43.2293,-93.8678,119.551,-13.8163,-15.9494,-63.5272,7.12502,-169.751,273.257,1.27222e-14,-3.57812e-14,56.349,-2.18356,48.2324,79.8165,93.2154,-48.8977,-9.47574,7.12502,-21.5307,19.3475,-65.4136,-12.0121,38.166,85.5082,-3.19226,-8.8315,0.345807,-20.645,10.8986,-23.8145,47.6056,-18.3958,-3.88687,-2.02422
-3.32716,16.6462,24.6957,166.808,10.7316,-176.396,-7.60363,-3.52309,3.70789,-5.41855,-4.34619,3.10121,-1.40373,-1.99195,0.85446,-10.0436,-5.5128,-6.46692,39.962,-1.5507,-2.43278,16.0434,-0.301275,0.315607,-2.94201e-14,-2.14687e-14,-16.9128,43.2899,-93.5778,119.433,-13.9529,-15.9813,-63.9903,7.12502,-169.782,273.722,-2.94201e-14,-2.14687e-14,56.2015,-2.25043,48.4627,79.517,92.8838,-48.923,-8.86905,7.12502,-21.5551,19.9514,-65.3549,-11.8235,38.0547,85.4412,-3.90496,-9.08622,3.33861,-20.6526,11.0979,-23.952,47.6888,-18.2856,-4.04566,-2.21942
-3.32811,16.6355,24.7362,166.576,10.8054,-176.255,-7.6589,-3.40721,4.09966,-5.3989,-4.20774,3.16455,-1.37855,-1.92694,0.707842,-9.72297,-5.55801,-6.62053,39.7702,-1.65165,-2.34764,15.8733,-0.348729,0.367901,3.97569e-16,-1.11319e-14,-16.8665,43.2366,-93.4068,119.257,-14.1402,-16.385,-64.2155,7.12502,-170.171,273.966,3.97569e-16,-1.11319e-14,56.0014,-2.56671,48.5823,78.9887,92.0225,-48.0367,-10.2503,7.12502,-20.7037,18.6654,-65.0755,-11.5338,38.2604,85.2725,-3.14345,-8.86525,-0.312033,-20.5984,11.4049,-23.7078,47.81,-18.1675,-4.23005,-2.26604
