JuanDHNZ/ProyectoFinalCD/preprocessing/sports_trials_csv/55_01.csv
root1,root2,root3,root4,root5,root6,lowerback1,lowerback2,lowerback3,upperback1,upperback2,upperback3,thorax1,thorax2,thorax3,lowerneck1,lowerneck2,lowerneck3,upperneck1,upperneck2,upperneck3,head1,head2,head3,rclavicle1,rclavicle2,rhumerus1,rhumerus2,rhumerus3,rradius1,rwrist1,rhand1,rhand2,rfingers1,rthumb1,rthumb2,lclavicle1,lclavicle2,lhumerus1,lhumerus2,lhumerus3,lradius1,lwrist1,lhand1,lhand2,lfingers1,lthumb1,lthumb2,rfemur1,rfemur2,rfemur3,rtibia1,rfoot1,rfoot2,rtoes1,lfemur1,lfemur2,lfemur3,ltibia1,lfoot1,lfoot2,ltoes1
16.4784,16.8668,-19.6065,-168.077,-63.1016,164.315,4.84982,-0.795403,10.0554,-2.53434,-0.631014,10.3886,-5.39192,-0.781157,5.48197,9.20057,4.53785,17.5784,-10.1802,6.67891,-16.9979,-3.27016,3.5767,-8.58123,5.80451e-14,-8.90555e-14,33.6558,33.1113,-34.443,58.6468,-28.0743,-9.6931,15.4183,7.12502,16.2792,-13.9184,5.80451e-14,-8.90555e-14,2.66566,15.2198,-1.7336,54.2161,7.42161,-51.5225,9.41418,7.12502,-24.0497,37.9273,-33.4277,0.765477,-0.795272,23.9982,-1.49747,-7.72869,33.4888,2.13053,5.61809,-40.6047,21.4879,-20.657,-7.86832,27.8355
16.4519,16.8815,-19.6383,-167.596,-64.1048,163.907,4.84182,-0.922418,10.0649,-2.53203,-0.793517,10.3967,-5.38242,-0.857948,5.5008,8.91967,4.61555,17.8718,-10.1293,6.73811,-17.4611,-3.16424,3.60807,-8.77258,-3.81667e-14,-9.54166e-15,33.9294,32.9757,-34.2103,58.5754,-28.1222,-9.99656,15.201,7.12502,15.987,-14.1593,-3.81667e-14,-9.54166e-15,2.77008,15.2451,-1.67626,54.0922,7.56689,-51.5368,9.80291,7.12502,-24.0635,38.3142,-33.3594,0.211481,-0.512869,23.9388,-1.47168,-6.59788,30.9439,2.61446,5.22787,-40.3687,21.0125,-20.399,-8.48486,27.6943
16.4239,16.8909,-19.6762,-166.936,-65.0424,163.447,4.69363,-1.06431,9.93201,-2.57926,-1.00588,10.4584,-5.34064,-0.955238,5.658,8.85332,4.71496,17.7806,-10.2772,6.82367,-17.5728,-3.17753,3.65274,-8.79752,-9.93923e-16,-1.74931e-13,34.2499,33.0303,-33.9386,58.6537,-28.2031,-10.4483,15.0827,7.12502,15.552,-14.312,-9.93923e-16,-1.74931e-13,2.47432,15.2546,-1.6423,54.1675,7.57815,-51.4844,9.55399,7.12502,-24.0131,38.0719,-33.2401,0.637956,-0.665523,23.622,-1.81511,-6.45984,30.4652,2.93778,4.76514,-40.1602,20.587,-19.8519,-9.32258,29.7136
16.3917,16.9065,-19.7198,-166.278,-65.7623,163.08,4.44985,-1.11473,9.80732,-2.59468,-1.11275,10.4543,-5.21197,-0.998248,5.72036,8.65695,4.8449,17.763,-10.3852,6.95316,-17.5938,-3.15036,3.70736,-8.79669,-3.33958e-14,-1.27222e-14,34.4817,32.8975,-33.8991,58.6081,-28.3151,-10.4779,14.9845,7.12502,15.5234,-14.4123,-3.33958e-14,-1.27222e-14,2.28614,15.366,-1.5843,54.2842,7.5758,-51.5876,8.74506,7.12502,-24.1121,37.2499,-33.3621,1.13856,-0.757719,23.4694,-1.96483,-6.37722,30.1895,3.22522,4.60606,-39.8953,20.0232,-19.1888,-10.2789,31.9033
16.3573,16.9237,-19.7637,-165.386,-66.3434,162.28,4.36216,-1.16324,9.59867,-2.61208,-1.179,10.2738,-5.17767,-1.01428,5.63794,8.69719,4.90315,17.8892,-10.5451,7.0488,-17.5382,-3.18394,3.74642,-8.80742,-2.8625e-14,-9.22361e-14,34.5785,32.783,-34.0933,58.46,-28.4166,-9.9089,14.9445,7.12502,16.0714,-14.409,-2.8625e-14,-9.22361e-14,2.30183,15.2585,-1.76413,54.3005,7.65281,-51.859,8.89448,7.12502,-24.3724,37.3646,-33.3489,1.27629,-0.848702,23.279,-1.69788,-5.7443,26.0978,3.64398,4.67788,-39.8042,19.4731,-18.7815,-11.0436,32.3229
16.3211,16.9377,-19.8057,-164.146,-67.1698,161.162,4.20169,-1.31685,9.38111,-2.79373,-1.36945,10.0011,-5.27658,-1.09282,5.47734,9.43707,4.80339,18.428,-11.0004,7.06959,-17.6305,-3.41553,3.76561,-8.98379,-4.13472e-14,-7.63333e-14,34.4415,32.8758,-34.5233,58.3466,-28.4528,-9.51179,15.3351,7.12502,16.4537,-13.9871,-4.13472e-14,-7.63333e-14,2.3157,14.7007,-2.23247,54.279,7.69556,-52.0728,10.1015,7.12502,-24.5772,38.5438,-33.2462,1.25325,-1.05492,23.1417,-1.83963,-5.24996,23.0571,4.09448,4.37404,-39.7959,18.8695,-18.1521,-11.8313,33.1651
16.2845,16.9583,-19.8458,-163.43,-68.2204,160.77,3.86949,-1.50209,9.47143,-2.96147,-1.62775,9.82777,-5.26716,-1.2197,5.25275,9.92994,4.73415,19.0087,-11.3775,7.11319,-17.7017,-3.57731,3.78217,-9.14668,-3.71727e-14,1.17681e-13,34.3256,32.8165,-35.1307,58.1447,-28.1684,-9.38956,15.7175,7.12502,16.5714,-13.5949,-3.71727e-14,1.17681e-13,2.26012,14.3187,-2.74498,54.3804,7.82152,-52.014,10.7118,7.12502,-24.5209,39.1618,-33.2145,1.53293,-1.12014,23.1106,-2.68213,-5.38075,26.0239,4.48445,3.79878,-39.4424,18.1743,-17.5646,-12.3707,33.5643
16.2483,16.9766,-19.8903,-162.59,-69.0593,160.054,3.74659,-1.48727,9.22336,-2.96617,-1.63502,9.88509,-5.19223,-1.21026,5.44569,9.68612,4.72879,18.6838,-11.4639,7.019,-17.5275,-3.59917,3.72541,-9.02429,-3.97569e-16,1.52667e-13,34.3688,32.5824,-34.8613,58.0253,-28.0684,-9.47001,15.6631,7.12502,16.494,-13.6558,-3.97569e-16,1.52667e-13,2.27597,14.3839,-2.47409,54.5432,7.84288,-52.2616,10.5071,7.12502,-24.7582,38.9248,-33.0656,2.12543,-1.42155,23.0617,-3.54074,-5.61967,30.0642,4.97597,3.43052,-39.2313,17.5648,-17.2213,-12.7759,33.3205
16.2122,16.9878,-19.9422,-161.298,-69.7645,158.709,3.70911,-1.23543,8.56929,-2.92069,-1.34508,10.1106,-5.10743,-1.03972,6.02576,9.57203,4.58666,18.1945,-11.6266,6.67739,-17.7869,-3.69647,3.58116,-9.03064,4.87022e-14,5.08889e-14,34.301,32.2514,-33.7294,57.9885,-28.3252,-9.83465,15.3511,7.12502,16.1429,-13.9967,4.87022e-14,5.08889e-14,2.60282,14.5534,-1.32865,54.6001,7.68398,-52.9337,9.92894,7.12502,-25.4022,38.2566,-32.7427,2.63705,-1.82494,22.9276,-3.95042,-5.6622,31.1756,5.51576,3.37094,-39.1815,17.105,-16.7437,-13.4788,33.3497
16.1763,17.004,-19.9965,-160.446,-70.5706,158.039,3.48817,-1.09582,8.34603,-2.93618,-1.19673,10.1577,-4.99705,-0.954664,6.1795,9.21831,4.60344,17.7505,-11.536,6.59952,-17.6008,-3.64784,3.53656,-8.87079,-5.96354e-15,-1.17681e-13,34.2212,31.9722,-33.2159,57.9829,-28.4761,-9.96329,15.0293,7.12502,16.019,-14.3285,-5.96354e-15,-1.17681e-13,2.90383,14.6624,-0.796407,54.6431,7.54968,-53.3785,10.6863,7.12502,-25.8283,38.9527,-32.5262,2.86332,-1.77862,22.7762,-4.11596,-5.36205,30.8036,5.84754,3.32017,-38.7748,16.6943,-15.7165,-14.8078,36.0021
16.1359,17.0259,-20.0431,-159.807,-71.4999,157.844,3.08646,-1.10906,8.56985,-3.01803,-1.24487,10.029,-4.85928,-0.982703,5.902,9.19806,4.63284,17.9725,-11.7301,6.65012,-17.6141,-3.68304,3.54889,-8.92096,-7.95139e-16,8.26944e-14,34.134,31.6789,-33.4405,57.9271,-28.3236,-9.68763,15.2224,7.12502,16.2844,-14.1138,-7.95139e-16,8.26944e-14,3.01642,14.6774,-0.950352,54.8377,7.38149,-53.254,11.7369,7.12502,-25.709,40.0205,-32.5034,2.61081,-1.43868,22.6555,-4.16029,-4.85238,30.4599,5.94969,2.92171,-38.2094,16.3151,-14.2622,-16.2765,39.6798
16.0935,17.047,-20.0838,-159.015,-72.5521,157.372,2.76034,-1.18217,8.72167,-3.03824,-1.37524,9.9637,-4.69423,-1.04787,5.74048,8.91585,4.68507,18.2569,-11.7142,6.68987,-17.8543,-3.60003,3.55887,-9.03769,4.27387e-14,4.13472e-14,34.246,31.3973,-33.5245,57.6517,-28.0287,-9.56782,15.9551,7.12502,16.3998,-13.3716,4.27387e-14,4.13472e-14,3.02198,14.7601,-1.09325,54.9681,7.16678,-53.0925,10.3914,7.12502,-25.5544,38.6973,-32.3477,2.08291,-1.10823,22.5559,-4.11544,-4.16229,29.4503,6.14398,2.30022,-37.7488,15.9487,-13.3402,-17.1551,40.8335
16.0546,17.0645,-20.1347,-157.062,-73.4226,155.6,2.56737,-1.27284,8.24577,-3.01584,-1.53299,9.93022,-4.54163,-1.10104,5.9668,8.58416,4.81277,18.5103,-11.7559,6.78532,-18.3323,-3.50276,3.60572,-9.23058,1.39149e-15,1.17681e-13,34.6818,31.2326,-33.244,57.3273,-27.7493,-9.50346,16.522,7.12502,16.4618,-12.7996,1.39149e-15,1.17681e-13,2.84942,15.0096,-1.12972,55.0053,7.02274,-53.245,11.5703,7.12502,-25.7004,39.8552,-32.1637,1.9593,-1.33781,22.5153,-4.27048,-3.53573,29.784,6.4342,1.92703,-37.6492,15.4587,-12.7679,-17.7338,40.7124
16.0166,17.0815,-20.1923,-154.834,-74.1471,153.516,2.52296,-1.2922,7.68416,-3.08782,-1.56061,9.84115,-4.57789,-1.08869,6.18511,8.56603,4.85497,18.6066,-11.9754,6.81453,-18.4785,-3.54646,3.61852,-9.30604,1.64991e-14,0,34.8031,31.074,-33.1084,57.1177,-27.6595,-9.06416,16.5738,7.12502,16.8847,-12.7121,1.64991e-14,0,2.80807,14.9425,-1.08153,55.1228,7.15767,-53.3504,11.444,7.12502,-25.8014,39.7143,-31.9519,2.40022,-1.85527,22.5068,-4.48348,-3.1598,32.388,6.80473,1.65659,-37.584,14.8886,-11.7456,-18.4968,41.9372
15.9758,17.1047,-20.2466,-153.613,-74.9894,152.328,2.61201,-1.33637,7.59952,-3.15901,-1.58736,9.72366,-4.7042,-1.09516,6.11369,8.60745,4.86822,18.7038,-12.0405,6.86481,-18.3448,-3.56625,3.63367,-9.28164,2.32578e-14,-1.01778e-13,34.8237,31.1731,-32.9445,57.2325,-28.3786,-9.24291,15.996,7.12502,16.7126,-13.3046,2.32578e-14,-1.01778e-13,2.85375,14.8184,-1.13233,55.145,7.06195,-52.832,1.16819,7.12502,-25.3048,29.5097,-31.4961,3.05773,-2.08852,22.4335,-4.66879,-2.68497,33.6654,7.306,1.14584,-37.2457,14.4176,-10.7297,-19.1585,43.4473
15.9323,17.1298,-20.3009,-151.921,-75.7676,150.762,2.4739,-1.39175,7.49309,-3.11707,-1.67419,9.58223,-4.57667,-1.12748,6.0137,8.49986,4.95027,18.8711,-12.1344,6.96389,-18.4335,-3.54449,3.67412,-9.33938,4.23411e-14,-6.36111e-14,35.0394,31.0489,-32.8359,57.0586,-28.1657,-9.4239,16.2428,7.12502,16.5384,-13.0724,4.23411e-14,-6.36111e-14,2.80351,15.1043,-1.22151,55.058,6.71714,-52.053,9.26686,7.12502,-24.5583,37.7118,-31.094,3.74374,-2.38271,22.2706,-5.04652,-2.24453,33.4658,7.62237,0.695278,-37.0034,14.0653,-10.3673,-19.4666,42.9819
15.8873,17.1566,-20.3552,-150.529,-76.5503,149.631,2.24572,-1.42456,7.51199,-3.06482,-1.74676,9.52315,-4.38933,-1.15928,5.92801,8.12702,5.08566,18.9048,-12.1366,7.06796,-18.5956,-3.44945,3.71578,-9.38203,-2.38542e-14,1.145e-13,35.3564,30.9164,-32.7941,56.9869,-28.046,-9.77449,15.7943,7.12502,16.2008,-13.5487,-2.38542e-14,1.145e-13,2.64442,15.2077,-1.37622,55.1496,6.81405,-52.0462,11.0925,7.12502,-24.5518,39.5384,-30.7817,3.9118,-2.25442,22.0241,-5.13468,-1.53218,31.5422,7.7312,0.483985,-36.5464,13.8404,-9.77444,-19.9118,42.7536
15.8424,17.1859,-20.4131,-149.908,-77.4105,149.284,2.14575,-1.54891,7.62705,-3.03582,-1.92984,9.6453,-4.29346,-1.25415,6.00129,7.63279,5.34541,18.6743,-12.0264,7.30087,-18.7284,-3.28652,3.82611,-9.35614,-1.03368e-14,6.67916e-14,36.0557,30.9429,-32.6252,56.8978,-28.154,-9.55435,15.4695,7.12502,16.4128,-13.8561,-1.03368e-14,6.67916e-14,2.00952,15.2972,-1.64872,55.3401,6.54443,-51.7656,15.9327,7.12502,-24.2828,44.4148,-30.4701,3.73373,-1.75271,21.7602,-5.02825,-0.454367,30.3936,7.78531,0.194552,-35.8472,13.7276,-8.81322,-20.4036,43.41
15.7966,17.2132,-20.4762,-148.599,-78.2092,148.24,2.05683,-1.34288,7.44439,-3.23743,-1.64046,9.5567,-4.4669,-1.1037,5.99642,8.29998,5.11085,19.1265,-12.6171,7.08065,-18.9059,-3.5909,3.72735,-9.55757,-4.37326e-14,-9.54166e-15,35.3679,30.6596,-32.9014,56.6574,-28.0666,-9.18023,15.7543,7.12502,16.7729,-13.5412,-4.37326e-14,-9.54166e-15,2.59529,15.4679,-1.20004,55.2545,5.79453,-49.8107,23.335,7.12502,-22.4074,52.0553,-30.233,3.70972,-1.45998,21.5475,-4.90657,0.37859,30.2634,7.84102,-0.154809,-35.2996,13.5609,-8.0502,-20.7332,43.2696
15.7481,17.2381,-20.5369,-146.069,-78.8813,145.834,2.12368,-1.29052,7.09334,-3.37563,-1.54726,9.494,-4.64806,-1.04268,6.12955,9.28102,5.10638,18.5725,-13.6769,7.11808,-18.4208,-4.11148,3.76032,-9.39581,-9.74045e-15,-8.26944e-14,35.27,30.7198,-32.7372,56.4256,-27.797,-9.36065,16.0154,7.12502,16.5992,-13.2947,-9.74045e-15,-8.26944e-14,2.70596,15.5109,-0.935565,55.1393,5.89068,-49.5729,22.2433,7.12502,-22.1791,50.9909,-29.9557,3.19118,-1.10976,21.2893,-4.42029,1.17847,22.2741,7.94895,-0.444993,-35.0072,13.5328,-7.03808,-21.2705,43.8388
15.7,17.2672,-20.5958,-143.53,-79.452,143.272,2.24951,-1.26229,6.80887,-3.32047,-1.49162,9.32265,-4.66041,-0.997872,6.10045,9.33529,5.15381,18.2476,-14.082,7.13993,-18.1018,-4.26549,3.75827,-9.25373,4.63168e-14,-1.11319e-13,35.3292,30.5661,-32.7104,56.3936,-27.7957,-9.39201,16.0576,7.12502,16.5691,-13.2551,4.63168e-14,-1.11319e-13,2.77065,15.4188,-1.01351,55.1778,6.45836,-51.9824,7.44156,7.12502,-24.4906,35.8957,-29.1414,4.50258,-1.74928,21.0037,-4.83847,1.46914,32.5813,8.17553,-0.968004,-34.8202,13.5957,-5.85228,-21.5843,45.2521
15.6491,17.2777,-20.6616,-142.133,-80.1226,141.97,2.30569,-1.15467,6.7854,-3.34866,-1.32798,9.20194,-4.73321,-0.912901,5.97551,8.50139,5.09995,19.3058,-13.2056,7.03843,-19.1556,-3.78482,3.71038,-9.71407,1.27222e-14,-7.31528e-14,35.1236,30.3639,-32.8465,56.4357,-28.0609,-8.93892,15.9981,7.12502,17.0052,-13.2776,1.27222e-14,-7.31528e-14,2.89835,15.3665,-0.969384,55.349,6.46726,-50.8086,12.7766,7.12502,-23.365,41.3785,-28.689,4.01985,-1.01503,20.6761,-4.55606,2.3089,28.6881,8.28412,-1.3377,-34.3072,13.748,-4.74969,-21.8054,46.3307
15.5946,17.2995,-20.7302,-139.62,-80.7476,139.733,2.24657,-1.0733,6.60844,-3.50953,-1.20907,9.1178,-4.87378,-0.846265,5.98146,8.73265,5.10948,19.2359,-13.3733,7.06298,-19.1984,-3.86939,3.73604,-9.73677,1.80894e-14,-4.13472e-14,35.0677,30.5373,-32.697,56.4613,-28.3297,-9.1372,15.9423,7.12502,16.8144,-13.3497,1.80894e-14,-4.13472e-14,2.94266,15.3957,-0.817904,55.4711,6.18963,-49.745,18.4234,7.12502,-22.3443,47.1514,-28.3656,4.03498,-0.649494,20.3215,-4.52095,2.68595,26.7334,8.10998,-1.14223,-33.7512,14.0428,-4.19886,-22.3902,45.5857
15.5378,17.3334,-20.7931,-135.733,-81.35,136.085,2.14542,-1.05144,6.41521,-3.61206,-1.17813,8.96776,-4.92417,-0.820439,5.9251,9.19574,5.16946,19.4403,-13.8434,7.1811,-19.482,-4.03949,3.81292,-9.91826,-9.54166e-15,1.27222e-14,35.0166,30.7104,-32.5081,56.6847,-28.4378,-9.71716,15.9019,7.12502,16.256,-13.4367,-9.54166e-15,1.27222e-14,3.00554,15.3504,-0.817376,55.4639,6.33809,-51.2631,11.9152,7.12502,-23.801,40.4609,-27.82,4.21226,-0.636418,19.9043,-4.66312,3.03361,29.0429,7.83306,-1.31309,-33.3889,14.5543,-3.98658,-22.8071,44.7359
15.4802,17.3585,-20.8546,-131.487,-81.9864,131.987,2.12965,-1.02602,6.34592,-3.70477,-1.12942,8.82891,-5.01676,-0.791266,5.8137,8.90065,5.20606,18.9603,-13.7503,7.16144,-19.0785,-4.00571,3.79029,-9.67445,9.54166e-15,4.77083e-14,34.8273,30.6891,-32.5646,56.7663,-28.2332,-9.63198,15.858,7.12502,16.338,-13.4738,9.54166e-15,4.77083e-14,3.07501,15.1312,-0.775012,55.3889,6.61763,-51.3522,9.51477,7.12502,-23.8864,38.0493,-27.2468,3.75809,-0.261711,19.6129,-4.65737,3.63407,27.4872,7.71195,-2.00935,-33.0908,14.9351,-3.0185,-22.8182,45.5975
15.4227,17.3869,-20.9193,-128.291,-82.6287,129.03,2.09505,-0.945231,6.39326,-3.82973,-1.00852,8.80061,-5.13767,-0.733739,5.75392,8.76507,5.27993,18.648,-13.6884,7.21752,-18.9242,-3.97315,3.8193,-9.5566,-1.90833e-14,-3.18055e-15,34.8368,30.5396,-32.9209,56.1852,-27.6559,-8.92158,16.2561,7.12502,17.0219,-13.0181,-1.90833e-14,-3.18055e-15,3.06567,14.9911,-0.54876,55.3255,6.59397,-51.1419,10.0039,7.12502,-23.6847,38.5647,-26.8953,3.76094,0.256587,19.5193,-4.65079,3.86671,26.2573,7.54292,-2.30189,-32.5488,15.1601,-2.27002,-22.8125,45.1427
15.3632,17.4212,-20.9859,-124.271,-83.0709,125.222,2.07974,-0.842412,6.2844,-3.94706,-0.858124,8.66435,-5.26071,-0.653809,5.6624,8.9686,5.32488,18.6522,-13.8581,7.29071,-19.0072,-4.03892,3.86686,-9.60486,-3.89618e-14,9.54166e-14,34.7743,30.3348,-33.4081,55.5179,-26.8304,-8.32167,17.0504,7.12502,17.5993,-12.1731,-3.89618e-14,9.54166e-14,3.09859,14.9932,-0.273889,55.3696,6.45828,-51.8441,9.09474,7.12502,-24.3581,37.5668,-26.5381,4.11188,0.48773,19.5422,-4.80843,3.88638,27.0306,7.41139,-2.34123,-32.1367,15.3486,-2.15164,-22.8795,43.1961
15.298,17.4459,-21.0538,-116.661,-83.0019,117.606,2.24462,-0.819518,5.55368,-4.06118,-0.808181,8.31396,-5.46933,-0.592693,5.70028,9.33065,5.34177,18.7783,-14.0715,7.37042,-19.084,-4.13969,3.91805,-9.68313,2.42517e-14,-1.30403e-13,34.7233,30.5297,-33.4257,55.3993,-26.8612,-8.60406,17.3055,7.12502,17.3275,-11.9421,2.42517e-14,-1.30403e-13,3.03823,14.7228,-0.368245,55.4385,6.71839,-52.8698,7.86552,7.12502,-25.341,36.2019,-25.9565,4.00426,0.186146,19.6579,-5.00958,4.12424,25.8897,7.55264,-2.48407,-32.3843,15.5085,-1.70866,-22.9532,42.4066
15.2293,17.4702,-21.1211,-109.624,-83.0389,110.665,2.29343,-0.804466,4.99463,-4.21039,-0.78287,8.09278,-5.64988,-0.552484,5.78251,9.56378,5.38735,18.7964,-14.1275,7.46792,-19.147,-4.17311,3.98014,-9.72313,4.77083e-15,-3.49861e-14,34.869,31.1122,-32.8922,55.6922,-27.7249,-9.36841,16.6778,7.12502,16.5918,-12.6329,4.77083e-15,-3.49861e-14,2.90974,14.2876,-0.594794,55.4437,7.31677,-53.1158,7.93057,7.12502,-25.5766,36.2333,-25.4856,3.70615,0.213828,19.8382,-5.18071,4.29949,22.6722,7.59011,-2.74493,-32.4187,15.6817,-0.677396,-22.802,43.2911
15.161,17.496,-21.191,-104.012,-83.2838,105.266,2.2001,-0.761524,4.84972,-4.32042,-0.727531,7.96133,-5.71508,-0.517784,5.71974,9.7301,5.49142,18.699,-14.2059,7.60726,-19.2456,-4.1952,4.06685,-9.75306,-2.78299e-15,-4.77083e-14,35.0834,31.5599,-32.4771,55.9293,-28.2196,-9.6607,16.1008,7.12502,16.3104,-13.2333,-2.78299e-15,-4.77083e-14,2.85374,14.2112,-0.588961,55.4431,7.50502,-52.705,7.52266,7.12502,-25.1832,35.8813,-25.1256,3.68491,0.586921,20.0478,-5.35125,4.34427,23.3817,7.51526,-3.01167,-32.0821,15.8708,0.179594,-22.5338,43.7958
15.0921,17.52,-21.2631,-97.9524,-83.3488,99.394,2.11969,-0.72524,4.71095,-4.4133,-0.678828,7.69931,-5.76929,-0.486598,5.51211,9.87895,5.57378,18.5025,-14.3014,7.70954,-19.2224,-4.23817,4.13113,-9.72403,-1.59028e-14,-4.13472e-14,35.1281,31.7,-32.6952,55.834,-28.1896,-9.74686,16.2327,7.12502,16.2274,-13.1082,-1.59028e-14,-4.13472e-14,3.03275,14.2677,-0.539403,55.3116,7.41205,-52.328,6.87238,7.12502,-24.8219,35.2813,-24.6009,3.98622,0.712168,20.166,-5.55743,4.3505,27.469,7.42566,-3.1676,-31.8283,16.1646,0.310782,-22.481,42.7142
15.0206,17.5504,-21.3348,-91.2061,-83.4238,92.8456,2.03554,-0.631214,4.58166,-4.53623,-0.552231,7.44879,-5.85777,-0.417975,5.30825,9.70207,5.48149,18.3871,-14.3443,7.57812,-18.8265,-4.27426,4.03812,-9.56062,-2.78299e-15,-1.90833e-14,34.9549,31.6712,-32.9799,55.5504,-27.6824,-9.71596,16.78,7.12502,16.2572,-12.5584,-2.78299e-15,-1.90833e-14,3.54608,14.3305,-0.251972,55.047,7.13207,-52.3635,7.34734,7.12502,-24.8559,35.7515,-23.9497,4.5574,0.827228,20.1519,-6.03306,4.24004,28.6898,7.22655,-3.11558,-31.4278,16.5577,0.267432,-22.7058,41.0012
14.9466,17.5795,-21.413,-84.4486,-83.6299,86.1011,2.16751,-0.574737,4.47322,-4.61687,-0.458943,7.36679,-6.02426,-0.365693,5.28207,10.0031,5.64552,18.617,-14.5048,7.83294,-19.2198,-4.29011,4.18956,-9.76034,-7.15625e-15,3.49861e-14,34.9998,31.8663,-32.7979,55.5116,-27.5076,-9.41332,17.0943,7.12502,16.5485,-12.2201,-7.15625e-15,3.49861e-14,3.66946,14.3513,-0.0488593,55.0191,6.95467,-52.5112,8.23311,7.12502,-24.9974,36.6177,-23.1322,5.08076,1.35268,20.083,-6.48667,4.23398,28.021,7.24484,-2.8844,-30.7446,16.8816,0.667408,-22.9184,40.3615
14.8708,17.6062,-21.4927,-77.6296,-83.7077,79.2878,2.29694,-0.553114,4.44375,-4.69329,-0.409644,7.18427,-6.18281,-0.339754,5.10531,9.98556,5.74294,18.7737,-14.3502,7.99844,-19.3162,-4.1956,4.27463,-9.80982,1.19271e-14,-3.18055e-15,35.0085,32.1422,-32.8365,55.7212,-27.9707,-9.35898,16.8179,7.12502,16.6009,-12.4921,1.19271e-14,-3.18055e-15,3.64545,14.3159,-0.189454,55.1091,7.06753,-52.1272,8.54245,7.12502,-24.6295,36.9777,-22.4523,5.81777,1.76858,20.0442,-6.303,4.25077,30.9626,7.41596,-2.9498,-30.1549,17.0146,1.5694,-22.6499,41.0174
14.7912,17.64,-21.5677,-71.6964,-83.4758,73.5223,2.24695,-0.468106,4.34932,-4.80607,-0.29466,6.82253,-6.27808,-0.280424,4.76356,9.92683,5.90325,19.2502,-14.1421,8.28875,-19.5375,-4.0303,4.41403,-9.9499,7.95139e-16,2.54444e-14,34.8074,32.2236,-33.2496,55.7196,-28.0224,-9.13439,16.7431,7.12502,16.8171,-12.5486,7.95139e-16,2.54444e-14,3.91633,14.3128,-0.297321,55.0654,6.99618,-51.7573,8.55073,7.12502,-24.2748,37.0339,-22.1928,6.85209,1.75791,20.0532,-5.81021,3.611,34.2606,7.53428,-3.24908,-29.8777,16.9762,2.53567,-22.2043,41.7503
14.7061,17.673,-21.6425,-66.4917,-83.2389,68.4276,2.22568,-0.369242,4.21324,-4.91338,-0.162726,6.53986,-6.38422,-0.210594,4.53031,10.2196,5.84769,19.0761,-14.5061,8.21171,-19.4292,-4.21868,4.38244,-9.92106,2.38542e-15,1.27222e-14,34.794,32.4175,-33.3262,55.6475,-27.913,-8.87167,17.0287,7.12502,17.07,-12.2413,2.38542e-15,1.27222e-14,4.04782,14.0268,-0.483781,55.0329,7.07567,-51.9104,8.77279,7.12502,-24.4216,37.2363,-21.9468,7.40609,1.9085,20.0618,-5.62894,2.45846,33.6634,7.75014,-3.42199,-29.5937,16.8819,2.76395,-21.9698,40.6083
14.6213,17.7033,-21.7118,-60.865,-83.1194,62.783,2.36614,-0.223776,4.20645,-5.05433,0.0529027,6.39168,-6.62531,-0.105871,4.36732,10.3227,5.77743,19.0846,-14.3891,8.12647,-19.5968,-4.20945,4.36042,-9.98141,8.34896e-15,-5.725e-14,34.7793,32.7778,-32.9643,55.7244,-28.0548,-9.12246,16.9559,7.12502,16.8286,-12.3349,8.34896e-15,-5.725e-14,4.1817,13.6366,-0.455584,55.0014,7.01241,-51.7205,9.25182,7.12502,-24.2396,37.7397,-21.4338,7.36806,2.36958,20.0212,-5.68506,1.24941,30.5044,8.09691,-3.70011,-29.1803,16.8325,3.16086,-21.4559,39.7225
14.5368,17.7324,-21.7796,-55.6416,-82.9746,57.4882,2.60858,-0.0226085,4.25134,-5.2182,0.355351,6.26874,-6.95389,0.0381302,4.19647,10.4121,5.66188,19.0583,-14.1627,7.96587,-19.8812,-4.17628,4.31237,-10.0707,2.78299e-15,-3.49861e-14,34.5589,33.0916,-32.6315,55.8322,-27.9425,-9.05256,16.8513,7.12502,16.8958,-12.4338,2.78299e-15,-3.49861e-14,4.52534,13.5758,-0.00618209,54.9395,6.62011,-51.2739,8.5347,7.12502,-23.8113,37.0791,-20.9658,6.37057,3.20934,19.9824,-5.51125,0.329438,19.0697,8.43909,-4.01489,-28.7175,16.9193,4.4425,-20.5849,41.9836
14.4497,17.7597,-21.8544,-50.4172,-82.8155,52.2824,2.68276,0.111119,4.33875,-5.32625,0.550913,6.11929,-7.11819,0.12648,3.97538,10.5106,5.67569,18.9684,-14.1259,7.98153,-19.9628,-4.17862,4.3365,-10.0874,-9.14409e-15,-9.54166e-15,34.533,33.2844,-32.4787,55.8437,-27.6229,-8.57626,17.1686,7.12502,17.3543,-12.0767,-9.14409e-15,-9.54166e-15,4.84515,13.7581,0.254318,54.9137,6.46196,-51.0473,7.61527,7.12502,-23.5939,36.1878,-20.2468,8.0851,3.12026,19.8764,-6.24201,-1.23859,31.764,8.49141,-3.92245,-28.0561,17.2818,5.14165,-20.2252,43.2686
14.3646,17.7834,-21.9275,-44.8747,-82.5672,46.8478,2.67206,0.133898,4.32786,-5.39745,0.584517,6.05858,-7.18882,0.142473,3.91581,10.2917,5.89735,18.864,-13.9269,8.2604,-19.9231,-4.03086,4.47187,-10.0283,-1.19271e-14,-3.18055e-15,34.9538,33.4546,-32.1617,55.7888,-27.336,-8.32076,17.2913,7.12502,17.6002,-11.9321,-1.19271e-14,-3.18055e-15,4.74048,13.8502,0.151688,54.9036,6.50265,-50.8423,8.9085,7.12502,-23.3973,37.5062,-19.629,8.44651,3.35771,19.6234,-6.76157,-1.5393,38.2453,8.20672,-3.81213,-27.3891,18.029,4.98608,-20.2745,42.281
14.2841,17.793,-22.0022,-40.7516,-82.0138,42.8782,2.67056,0.141473,4.05824,-5.48402,0.584135,5.90346,-7.27954,0.155724,3.90379,10.1581,6.06258,18.7998,-13.7096,8.4498,-20.1647,-3.89244,4.58344,-10.0787,1.11319e-14,0,35.3373,33.6147,-31.8845,55.8076,-27.2544,-8.32491,17.0995,7.12502,17.5962,-12.1242,1.11319e-14,0,4.59658,13.889,0.0585639,54.8553,6.70031,-50.976,9.49753,7.12502,-23.5255,38.0789,-19.0001,7.22562,3.67025,19.1498,-6.4885,-0.723442,38.708,7.64484,-4.04058,-27.079,19.2251,4.63561,-20.291,41.4758
14.204,17.7955,-22.0725,-37.2318,-81.3256,39.5761,2.62791,0.161872,3.85618,-5.63822,0.600362,5.626,-7.41694,0.169946,3.72325,10.2714,6.13075,18.8186,-13.8913,8.53542,-20.2684,-3.93966,4.63427,-10.1336,-2.14687e-14,-1.59028e-14,35.5919,33.925,-31.6501,55.9025,-27.6334,-8.49725,17.0766,7.12502,17.4303,-12.1619,-2.14687e-14,-1.59028e-14,4.7079,14.0248,0.100108,54.8438,6.91863,-51.4614,7.98913,7.12502,-23.9911,36.51,-18.6491,4.87736,4.15152,18.8987,-6.01762,0.694758,33.9271,7.10709,-4.55172,-26.8919,20.2719,4.55845,-19.9058,41.7828
14.126,17.7846,-22.132,-32.5374,-80.8372,35.0559,2.606,0.182797,4.1637,-5.77385,0.645957,5.40796,-7.5456,0.167921,3.31786,10.561,6.17908,18.7287,-14.3522,8.59058,-20.2418,-4.11904,4.66913,-10.1518,-7.15625e-15,-3.18055e-15,36.0058,34.2018,-31.2112,55.9774,-27.8965,-8.4772,17.2074,7.12502,17.4496,-12.0294,-7.15625e-15,-3.18055e-15,4.77977,14.223,0.0515285,54.9287,6.88301,-51.4069,8.13363,7.12502,-23.9388,36.6613,-18.5786,1.48996,5.32113,18.7861,-5.7269,2.32647,18.4647,6.62779,-5.02202,-26.3586,21.2302,4.4927,-19.3039,41.9534
14.0429,17.8231,-22.1944,-28.0934,-80.3771,30.6485,2.64795,0.216547,4.54435,-5.81049,0.713767,5.16896,-7.60373,0.173099,2.84528,10.6488,6.23522,18.737,-14.6349,8.65544,-20.2386,-4.20311,4.69987,-10.1731,-7.95139e-16,-2.22639e-14,36.3886,34.1964,-30.9868,55.9143,-27.8047,-8.36709,17.5496,7.12502,17.5556,-11.6778,-7.95139e-16,-2.22639e-14,4.8571,14.4201,-0.148185,54.96,6.56006,-50.8689,9.45454,7.12502,-23.4228,38.049,-17.8668,1.78559,5.507,18.7917,-6.08094,2.8621,33.4303,6.33946,-5.13969,-25.6612,22.0457,4.13942,-19.0825,40.8473
13.9546,17.8476,-22.2685,-25.4427,-79.8103,28.0232,2.67057,0.331096,4.42062,-5.86547,0.860172,4.94439,-7.67438,0.247741,2.66332,10.6496,6.21256,18.9457,-14.5612,8.64153,-20.4649,-4.15996,4.70129,-10.2841,4.77083e-15,8.26944e-14,36.4432,34.186,-30.9462,55.8989,-27.805,-8.41684,17.8109,7.12502,17.5077,-11.4208,4.77083e-15,8.26944e-14,5.07889,14.3963,-0.225117,54.8901,6.47523,-50.6921,9.41782,7.12502,-23.2532,38.0338,-17.3461,1.64355,5.7621,18.9014,-6.48447,3.05203,36.4138,6.1704,-5.36053,-25.2346,22.7934,3.4956,-18.8979,39.3113
13.8684,17.8633,-22.3395,-22.4732,-79.2519,25.1429,2.58505,0.487668,4.36239,-5.92147,1.05965,4.82586,-7.68522,0.346454,2.55238,10.7712,6.17741,19.0657,-14.556,8.59677,-20.7808,-4.16314,4.70212,-10.4239,1.11319e-14,-3.18055e-14,36.4448,34.199,-30.713,56.0273,-27.7977,-8.61512,17.6634,7.12502,17.3169,-11.5851,1.11319e-14,-3.18055e-14,5.27531,14.3549,-0.0965317,54.9225,6.81348,-51.062,9.57543,7.12502,-23.6081,38.1461,-17.1577,0.862758,6.32108,19.2703,-6.70263,3.41176,36.8773,6.00197,-5.74477,-24.7021,23.3164,3.57782,-18.5564,39.4217
13.7866,17.8812,-22.4032,-19.2306,-78.6737,21.9633,2.57599,0.592791,4.54055,-5.92929,1.20751,4.67411,-7.68314,0.405356,2.27821,10.6172,6.22632,19.2767,-14.5475,8.64171,-21.0549,-4.09544,4.72671,-10.5461,4.37326e-15,-2.54444e-14,36.5424,34.0025,-30.6935,55.9662,-27.3905,-8.28598,17.6742,7.12502,17.6337,-11.5462,4.37326e-15,-2.54444e-14,5.44563,14.6826,0.0938188,54.948,6.7804,-51.4609,10.2259,7.12502,-23.9907,38.7467,-16.8797,0.00485115,7.02986,19.4847,-7.02231,3.63239,36.4401,5.67519,-5.87862,-23.9836,24.0524,3.98987,-18.3155,39.4998
13.7059,17.8993,-22.4675,-17.1063,-78.0256,19.9149,2.66298,0.584533,4.49622,-5.96116,1.20056,4.54355,-7.76529,0.401617,2.16548,10.3447,6.35319,19.3636,-14.443,8.76452,-21.3081,-3.96872,4.78984,-10.6245,3.81667e-14,3.18055e-14,36.9447,33.876,-30.7034,55.7607,-26.8933,-7.56021,18.087,7.12502,18.332,-11.0692,3.81667e-14,3.18055e-14,5.29502,15.1714,0.191398,54.9409,6.32025,-51.3172,10.5661,7.12502,-23.8528,39.1051,-16.5042,-0.625717,7.53491,19.4808,-7.42361,3.48234,35.1104,5.22325,-5.80179,-23.4046,25.0172,4.66369,-18.0528,39.8694
13.6257,17.9124,-22.5312,-14.3852,-77.4029,17.1775,2.76992,0.329224,4.64068,-5.95825,0.884682,4.7327,-7.82676,0.24223,2.31575,10.4853,6.83043,18.226,-14.63,9.25876,-21.0748,-4.01448,5.07752,-10.3552,-1.59028e-14,-2.8625e-14,38.3686,34.4305,-29.9394,55.8208,-27.1513,-7.88972,18.2589,7.12502,18.0149,-10.9268,-1.59028e-14,-2.8625e-14,3.99305,15.3157,-0.236498,55.3018,6.33029,-51.2289,10.7989,7.12502,-23.7681,39.3489,-16.007,-0.926623,8.22633,19.3895,-7.85802,3.03744,34.2503,4.76342,-5.69827,-22.6091,26.0941,5.13509,-17.9794,39.7618
13.5432,17.9288,-22.5968,-11.1169,-76.7103,13.8588,2.86153,0.648268,4.93151,-5.98958,1.33223,4.46637,-7.9045,0.436925,1.82894,10.0296,6.80293,18.5,-14.4243,9.22909,-20.9831,-3.87278,5.02733,-10.3291,-1.19271e-15,4.77083e-15,37.5318,33.9834,-30.1415,56.1085,-27.457,-8.4311,18.1071,7.12502,17.494,-11.1258,-1.19271e-15,4.77083e-15,4.87463,15.3147,0.0652081,55.6129,6.62547,-51.3923,10.4692,7.12502,-23.9248,38.9987,-15.4443,-0.961726,9.11825,19.2814,-8.417,2.23796,33.8942,4.26316,-5.90755,-21.6897,27.2201,4.72952,-17.7132,38.1397
13.4633,17.9508,-22.6686,-8.95814,-75.8363,11.7423,2.96782,0.732603,4.91571,-6.07282,1.45438,4.32392,-8.05257,0.492253,1.67596,9.88969,6.8645,18.629,-14.3813,9.30151,-21.127,-3.80353,5.06194,-10.388,2.90226e-14,3.02153e-14,37.34,33.8267,-30.041,56.3704,-27.5153,-8.47967,17.8789,7.12502,17.4473,-11.3581,2.90226e-14,3.02153e-14,5.09261,15.3784,0.167921,55.7328,6.71343,-51.3377,9.71023,7.12502,-23.8725,38.2466,-14.8791,-1.03524,9.76053,19.0317,-8.91163,1.25804,32.9541,3.54368,-6.28955,-21.0153,28.5215,4.2323,-17.2185,36.2778
13.3869,17.9653,-22.733,-8.05576,-74.925,10.9456,3.01527,0.675495,4.67751,-6.13564,1.3674,4.21323,-8.14946,0.461195,1.70043,9.99846,7.00298,18.7653,-14.4926,9.47962,-21.4954,-3.78344,5.17234,-10.5485,-1.03368e-14,-2.06736e-14,37.6716,33.8237,-30.0348,56.3578,-27.4089,-8.5454,17.7624,7.12502,17.384,-11.4802,-1.03368e-14,-2.06736e-14,4.9054,15.4116,0.141019,55.7271,6.80401,-51.2207,10.3129,7.12502,-23.7603,38.8639,-14.4093,-1.67023,10.1666,18.6361,-9.08563,0.373163,27.9967,2.66055,-6.35467,-20.614,30.0032,3.7156,-17.073,32.453
13.3107,17.9604,-22.7881,-7.46458,-73.9564,10.5764,2.85861,0.617306,4.47365,-6.19686,1.26077,4.04574,-8.12191,0.417907,1.6481,10.2083,7.19208,18.6469,-14.7478,9.7043,-21.7011,-3.83703,5.31053,-10.6227,-6.12257e-14,1.74931e-14,38.0003,33.7577,-30.0628,56.299,-27.4009,-8.42078,17.9176,7.12502,17.5039,-11.3144,-6.12257e-14,1.74931e-14,4.59727,15.2392,-0.0782006,55.841,7.2095,-51.0975,11.8442,7.12502,-23.6421,40.4105,-14.2257,-3.20817,10.6161,18.2663,-8.94891,-0.531879,15.4583,1.62778,-6.23846,-20.3246,31.5481,2.9281,-17.0472,27.6876
13.2382,17.9507,-22.8444,-6.12676,-72.9999,9.33227,2.83228,0.577167,4.59019,-6.25212,1.2103,3.9048,-8.16117,0.381289,1.43966,10.4138,7.33754,18.4918,-14.9819,9.87216,-21.8256,-3.90405,5.4177,-10.663,2.54444e-14,7.95139e-15,38.205,33.6786,-29.9267,56.3707,-27.5334,-8.34469,18.0745,7.12502,17.5772,-11.1509,2.54444e-14,7.95139e-15,4.41816,15.1437,-0.333664,55.8816,7.5218,-51.1536,12.2882,7.12502,-23.6959,40.8475,-13.8561,-4.12493,11.206,17.9354,-8.94757,-1.50043,7.31199,0.673707,-6.15644,-19.7801,33.1245,1.85585,-16.9134,23.8727
13.1678,17.9576,-22.9013,-4.63731,-72.068,7.7496,3.08768,0.639929,4.7387,-6.31305,1.32617,3.81609,-8.3726,0.423437,1.25166,10.381,7.34482,18.4133,-14.9421,9.86494,-21.8562,-3.8905,5.42068,-10.6559,3.53837e-14,7.95139e-15,38.0421,33.466,-29.9469,56.4001,-27.5278,-8.50824,17.9352,7.12502,17.4198,-11.3043,3.53837e-14,7.95139e-15,4.71324,15.2667,-0.138267,55.7389,7.45712,-51.2145,12.697,7.12502,-23.7543,41.2488,-13.147,-4.04673,11.7198,17.6441,-9.21862,-2.05799,12.2903,-0.100059,-5.99973,-19.0529,34.6429,1.04146,-16.799,21.9348
13.0976,17.966,-22.9557,-4.02012,-71.0885,7.10387,3.34788,0.772212,4.51913,-6.40562,1.51018,3.69693,-8.6252,0.521374,1.22828,10.1668,7.3242,18.3545,-14.6444,9.82292,-21.8934,-3.77642,5.40042,-10.6274,6.75868e-14,-1.27222e-14,37.7394,33.2966,-29.7876,56.5359,-27.8289,-8.69813,17.8575,7.12502,17.237,-11.398,6.75868e-14,-1.27222e-14,5.0996,15.5113,0.473208,55.7901,7.18002,-51.0531,13.0362,7.12502,-23.5996,41.608,-12.5614,-4.31474,12.013,17.4722,-9.52849,-2.62664,14.3112,-0.839583,-5.83088,-18.6286,35.9831,0.0161022,-16.5857,18.5816
13.0273,17.97,-23.0067,-3.44139,-70.1816,6.53315,3.47441,0.791446,4.39096,-6.45484,1.5376,3.63189,-8.75392,0.54028,1.22735,10.0413,7.47374,17.7096,-14.488,9.95333,-21.6061,-3.73874,5.47406,-10.3954,9.93923e-15,3.97569e-14,37.9122,33.3044,-29.4902,56.602,-27.9245,-8.53532,18.1234,7.12502,17.3937,-11.1183,9.93923e-15,3.97569e-14,4.939,15.7408,0.816723,56.0001,6.98072,-50.9225,12.3272,7.12502,-23.4742,40.9151,-12.1562,-4.88992,12.364,17.433,-9.86676,-3.26312,11.9015,-1.50613,-5.76083,-18.3311,37.1304,-1.57065,-15.6206,13.2745
12.9537,17.9871,-23.056,-2.07692,-69.3117,5.1048,3.51162,0.830003,4.53729,-6.42612,1.60859,3.71421,-8.74414,0.568994,1.22486,10.1133,7.56595,16.6478,-14.7507,9.94353,-21.0595,-3.92943,5.48618,-10.0485,-1.59028e-15,2.22639e-14,38.1335,33.1229,-29.3051,56.4011,-27.5373,-8.09596,18.4749,7.12502,17.8165,-10.7289,-1.59028e-15,2.22639e-14,4.70981,15.9266,1.10505,56.1261,6.78074,-50.9249,11.9696,7.12502,-23.4766,40.5572,-11.7683,-5.15616,13.046,17.4729,-10.1953,-3.92768,12.3967,-2.12125,-5.61219,-17.6624,38.153,-2.64342,-14.0787,12.0097
12.8779,18.0033,-23.1023,-0.603531,-68.4781,3.67871,3.40572,1.03435,4.60828,-6.39178,1.88288,3.76283,-8.6413,0.702465,1.2079,10.1658,7.54774,16.5174,-15.0062,9.85449,-21.2098,-4.02739,5.46057,-10.0994,-1.21259e-14,-1.11319e-14,38.0519,32.7561,-29.0014,56.3564,-27.6045,-8.15805,18.4747,7.12502,17.7568,-10.7346,-1.21259e-14,-1.11319e-14,4.90439,16.1244,1.63061,56.2691,6.54991,-50.811,12.566,7.12502,-23.3673,41.1676,-11.5688,-5.23988,13.7732,17.6047,-10.569,-4.53998,14.4978,-2.83245,-5.15056,-16.9036,39.0389,-3.88125,-12.5453,10.5878
12.8067,18.0059,-23.1421,0.0593851,-67.6436,3.17816,3.32422,1.10196,4.60289,-6.4246,1.96279,3.62707,-8.62241,0.738289,1.05954,10.196,7.67294,16.8352,-15.0399,10.0273,-21.6868,-3.95415,5.56542,-10.3172,5.36719e-15,-2.38542e-14,38.2319,32.6074,-28.9003,56.3441,-27.7787,-8.54408,18.3258,7.12502,17.3853,-10.9167,5.36719e-15,-2.38542e-14,4.82219,16.0079,1.46284,56.3639,6.79442,-50.5494,12.4822,7.12502,-23.1163,41.1154,-11.5301,-5.71573,14.1594,17.8226,-10.9402,-4.89856,14.2611,-3.59003,-4.47925,-16.5544,39.7781,-5.73455,-10.875,5.25369
12.7385,18.0162,-23.1807,0.0646033,-66.7402,3.24915,3.45278,1.05883,4.58357,-6.48814,1.90492,3.37506,-8.75887,0.701468,0.807635,10.3184,7.80916,16.9891,-15.0469,10.2254,-21.9938,-3.90494,5.68408,-10.4527,-9.02482e-14,3.33958e-14,38.3998,32.5123,-29.272,56.1493,-27.5046,-8.54445,18.4964,7.12502,17.3849,-10.7462,-9.02482e-14,3.33958e-14,4.63409,15.8061,0.985758,56.2726,6.94646,-50.3104,12.0802,7.12502,-22.887,40.742,-11.3534,-6.36204,14.2782,18.06,-11.3127,-5.15862,14.6808,-4.255,-3.84349,-16.5024,40.4124,-7.35504,-9.07159,-0.480407
12.6683,18.0274,-23.2206,0.322451,-65.8448,3.06361,3.51728,1.20342,4.73219,-6.53993,2.09637,2.96881,-8.82836,0.770701,0.272477,10.3217,7.77904,17.458,-15.0829,10.2409,-22.198,-3.86951,5.68457,-10.6054,4.35338e-14,9.54166e-15,37.8591,32.0329,-30.0401,55.9934,-27.155,-8.26368,18.6479,7.12502,17.6551,-10.5705,4.35338e-14,9.54166e-15,5.12853,15.68,0.927284,56.1691,6.8815,-50.1045,12.6933,7.12502,-22.6894,41.3794,-11.2176,-6.82292,14.5233,18.3613,-11.7551,-5.56568,14.9679,-4.91388,-3.19177,-16.347,40.9589,-8.78205,-7.04785,-5.681
12.6012,18.0208,-23.263,0.685241,-64.8896,2.85602,3.39816,1.30518,4.85491,-6.51834,2.21209,2.58652,-8.70977,0.81004,-0.211003,10.1766,7.84943,17.8892,-15.1179,10.3682,-22.3935,-3.78589,5.73434,-10.7342,-6.22196e-14,-3.81667e-14,37.6051,31.4716,-30.6467,55.7562,-26.888,-8.03438,18.6917,7.12502,17.8758,-10.5067,-6.22196e-14,-3.81667e-14,5.3866,15.325,0.596727,56.1853,7.22935,-50.0287,13.1007,7.12502,-22.6167,41.7957,-11.2178,-7.19582,14.8316,18.6779,-12.1537,-6.3075,12.9857,-5.70039,-2.49131,-16.1485,41.4455,-9.9403,-4.9344,-10.0152
12.5375,18.0117,-23.3063,0.810457,-63.9417,2.82559,3.30247,1.25822,4.66416,-6.39814,2.12227,2.51128,-8.52646,0.783716,-0.17372,10.0772,8.13834,17.7241,-15.1107,10.6973,-22.6626,-3.68395,5.92071,-10.7792,2.60408e-14,3.65764e-14,38.1991,31.2479,-30.4252,55.5697,-26.8252,-8.20093,18.6974,7.12502,17.7155,-10.5156,2.60408e-14,3.65764e-14,4.93734,14.9614,0.105021,56.1845,7.47719,-50.3374,12.8675,7.12502,-22.9129,41.5261,-11.0616,-7.5183,15.0389,18.8621,-12.5397,-6.91318,12.8076,-6.46337,-1.72862,-16.0457,41.9005,-10.814,-3.19674,-14.1239
12.4715,18.0104,-23.3382,1.20945,-63.0982,2.38259,3.49473,1.31132,4.54351,-6.45018,2.20737,2.59234,-8.70135,0.832699,-0.0340183,10.0318,8.35589,17.4522,-14.7743,10.9715,-22.8375,-3.5237,6.08311,-10.7579,-5.10877e-14,-4.77083e-15,38.4274,31.2958,-30.0394,55.5638,-26.8795,-8.41796,18.5358,7.12502,17.5066,-10.696,-5.10877e-14,-4.77083e-15,4.66209,14.5493,0.0326088,56.1981,7.59894,-50.7764,12.7083,7.12502,-23.3341,41.3141,-10.7367,-7.8234,15.4023,18.9439,-12.8918,-7.31139,13.5074,-7.08759,-0.918048,-15.8177,42.3041,-11.625,-1.58331,-18.1912
12.4056,18.004,-23.3635,1.69758,-62.3095,1.82143,3.71124,1.39568,4.77753,-6.5077,2.34879,2.43509,-8.87375,0.876864,-0.350894,9.96915,8.4533,17.5815,-14.4889,11.1456,-22.965,-3.37518,6.17192,-10.7939,-1.98785e-16,-2.22639e-14,38.3395,31.1738,-30.2617,55.4645,-26.6642,-8.2946,18.4832,7.12502,17.6254,-10.7379,-1.98785e-16,-2.22639e-14,4.71507,14.4555,-0.110759,56.273,7.7972,-50.5728,12.2182,7.12502,-23.1388,40.8486,-10.4296,-8.13864,15.8189,19.0455,-13.2976,-7.63074,13.982,-7.68084,0.0972597,-15.549,42.61,-12.2765,0.0712534,-22.5272
12.3405,17.9944,-23.392,1.86233,-61.4973,1.6029,3.9336,1.49189,4.77983,-6.53596,2.48942,2.29712,-9.02442,0.937881,-0.519962,9.92508,8.49828,17.7068,-14.2906,11.2264,-23.1883,-3.26725,6.22096,-10.8733,-2.50469e-14,-1.90833e-14,38.274,31.0054,-30.4037,55.3786,-26.6005,-8.17448,18.4997,7.12502,17.7409,-10.711,-2.50469e-14,-1.90833e-14,4.85275,14.6487,0.0231156,56.3002,7.73443,-49.9638,11.6507,7.12502,-22.5544,40.3532,-10.1326,-8.42596,16.0818,19.1934,-13.7886,-7.85146,16.06,-8.26817,1.22935,-15.4513,42.7896,-12.8459,1.34139,-26.0235
12.2759,17.9893,-23.4201,2.08207,-60.5175,1.42327,3.99978,1.57674,4.76364,-6.57,2.60047,2.14705,-9.08942,0.986786,-0.684756,9.86622,8.528,18.0023,-14.0535,11.3034,-23.5565,-3.12334,6.26885,-11.0287,-6.36111e-15,3.18055e-15,38.0956,30.7283,-30.6721,55.2985,-26.7929,-8.24267,18.5795,7.12502,17.6753,-10.6372,-6.36111e-15,3.18055e-15,5.2487,15.022,0.393663,56.1928,7.18953,-50.0094,11.6943,7.12502,-22.5981,40.3915,-9.96977,-8.77537,16.3613,19.4125,-14.1365,-8.37832,17.0165,-9.02687,2.02495,-15.4118,42.8965,-13.4986,1.82257,-25.757
12.2118,17.9799,-23.4452,2.43853,-59.4913,1.17136,4.00407,1.59599,4.82521,-6.65835,2.62726,2.01477,-9.17938,0.987661,-0.862919,9.88822,8.62519,18.3083,-13.8143,11.4787,-24.0411,-2.96022,6.37612,-11.228,-2.08724e-14,-1.74931e-14,38.0973,30.66,-30.8076,55.1974,-26.8633,-8.52793,18.679,7.12502,17.4008,-10.5621,-2.08724e-14,-1.74931e-14,5.47671,15.152,0.532167,56.0396,6.61464,-50.567,11.4721,7.12502,-23.1332,40.1032,-9.98298,-9.13286,16.6902,19.7946,-14.4754,-9.16333,16.1254,-9.9023,2.72823,-15.3685,42.961,-14.2254,2.1599,-24.6115
12.149,17.9676,-23.468,2.75359,-58.5553,0.907024,4.23741,1.54418,4.75908,-6.84776,2.58077,2.07775,-9.5362,0.960587,-0.761791,10.2487,8.77467,18.1581,-13.7988,11.683,-24.415,-2.95242,6.52805,-11.3492,8.34896e-15,-3.97569e-15,38.4633,31.0266,-30.5217,55.1066,-26.9241,-8.71762,18.5415,7.12502,17.2182,-10.7156,8.34896e-15,-3.97569e-15,5.03709,14.937,0.392196,56.0693,6.5617,-50.4369,10.7585,7.12502,-23.0083,39.4052,-10.0045,-9.33274,17.0049,20.3173,-15.049,-9.8054,16.0417,-10.6974,3.62997,-15.3664,42.9795,-14.9323,2.65422,-25.3114
12.088,17.9547,-23.4912,2.80348,-57.6619,0.916982,4.53769,1.53602,4.51535,-7.03119,2.57623,2.06479,-9.92818,0.9645,-0.649126,10.6068,8.79332,18.1561,-13.8583,11.7243,-24.7276,-2.99727,6.58896,-11.4889,-8.48811e-14,-1.11319e-14,38.5485,31.1974,-30.5503,55.0454,-26.8871,-8.53131,18.4931,7.12502,17.3976,-10.7483,-8.48811e-14,-1.11319e-14,4.58215,14.6998,0.148413,56.2596,6.73409,-49.9675,10.932,7.12502,-22.5579,39.6342,-10.017,-9.62954,17.161,20.859,-15.6681,-10.1126,16.9516,-11.4475,4.5852,-15.5833,42.9723,-15.5576,2.95726,-27.4322
12.024,17.9461,-23.5123,2.69464,-56.7953,1.12526,4.48834,1.6569,4.34149,-6.96682,2.70265,1.82717,-9.8148,1.03438,-0.820022,10.3687,8.75449,18.3526,-13.7386,11.6616,-24.9761,-2.90117,6.55335,-11.5883,4.21423e-14,9.54166e-15,38.2774,30.7664,-30.7355,55.1518,-26.584,-8.3064,18.5262,7.12502,17.614,-10.696,4.21423e-14,9.54166e-15,4.76965,14.7648,0.023047,56.3003,6.6921,-50.0876,11.807,7.12502,-22.6731,40.4951,-9.9998,-10.0848,17.191,21.3078,-16.1066,-10.3025,17.7497,-12.2149,5.40259,-15.9168,42.9366,-16.3666,2.58214,-26.1012
11.9612,17.9461,-23.5275,2.98962,-55.8982,0.988674,4.0344,1.77438,4.49106,-6.68041,2.82196,1.61332,-9.203,1.09396,-1.12693,9.58023,8.86512,18.4666,-13.4638,11.7257,-25.2889,-2.63413,6.55653,-11.6363,1.47101e-14,7.15625e-15,38.3764,30.0893,-30.6312,55.23,-26.3582,-8.32018,18.5326,7.12502,17.6007,-10.6907,1.47101e-14,7.15625e-15,5.20598,15.4136,0.117778,56.0862,6.40946,-50.4122,12.1967,7.12502,-22.9847,40.8463,-10.0439,-10.5843,17.4372,21.6322,-16.3956,-10.619,18.1827,-13.1816,6.08223,-16.06,42.8971,-17.1619,1.49568,-18.2633
11.9029,17.9456,-23.5362,3.43038,-54.9112,0.631778,3.803,1.83497,4.67739,-6.54475,2.89623,1.54685,-8.90123,1.12565,-1.29924,9.0011,9.08166,18.3925,-13.1085,11.9672,-25.4769,-2.36461,6.65798,-11.6077,4.31363e-14,3.57812e-14,38.6032,29.7907,-30.3417,55.1758,-26.5828,-8.40703,18.6827,7.12502,17.5172,-10.5481,4.31363e-14,3.57812e-14,5.36919,15.8589,0.238354,55.9227,6.22145,-50.6344,12.0291,7.12502,-23.1978,40.6521,-10.0107,-10.9098,17.803,21.9088,-16.7814,-10.9213,19.9279,-14.1088,6.67195,-16.1679,42.8581,-17.6324,1.10282,-14.4491
11.8455,17.9361,-23.5422,3.69371,-53.8883,0.174456,4.02043,1.8851,4.88613,-6.54859,2.99737,1.53494,-9.02,1.15786,-1.44721,9.16849,9.25459,17.8684,-13.2272,12.1655,-25.1661,-2.44626,6.77262,-11.4146,2.08724e-14,3.18055e-15,38.5971,29.7499,-30.1154,55.1083,-26.8375,-8.51604,18.82,7.12502,17.4123,-10.4202,2.08724e-14,3.18055e-15,5.38143,15.8761,0.287508,55.9296,6.1308,-50.6208,12.4552,7.12502,-23.1848,41.0798,-9.71746,-11.1607,18.1891,22.2549,-17.2981,-11.1469,21.1657,-14.7004,7.23311,-16.2539,42.7859,-18.0997,1.42645,-17.3778
11.7864,17.9207,-23.5506,4.03657,-52.9015,-0.296682,4.14717,1.95195,5.1116,-6.54041,3.11109,1.45037,-9.06527,1.19435,-1.67959,9.19852,9.30812,17.7078,-13.2779,12.2306,-24.9937,-2.47774,6.80571,-11.3279,7.69297e-14,3.97569e-15,38.5001,29.4558,-30.3902,54.9721,-26.7105,-8.70054,18.9144,7.12502,17.2347,-10.3413,7.69297e-14,3.97569e-15,5.63872,16.0697,0.302758,55.8834,6.15163,-50.5176,12.9414,7.12502,-23.0858,41.5785,-9.61223,-11.6937,18.6411,22.7079,-17.6767,-11.5871,19.3491,-15.3972,7.90783,-16.3312,42.6455,-18.48,1.82373,-20.6422
11.7281,17.9047,-23.5565,4.31652,-51.8691,-0.403921,4.02251,2.04065,5.09137,-6.5615,3.20943,1.27367,-8.99833,1.23964,-1.86159,8.92487,9.23884,18.0859,-13.1452,12.1535,-25.2364,-2.36137,6.7514,-11.4534,1.65985e-14,-1.51076e-14,38.2613,29.0383,-30.832,54.8791,-26.4769,-8.84514,18.8892,7.12502,17.0955,-10.3786,1.65985e-14,-1.51076e-14,6.1421,16.3401,0.317472,55.7212,6.26161,-50.6102,12.6744,7.12502,-23.1747,41.3003,-9.83676,-12.2246,18.8967,23.2678,-18.105,-11.9641,19.0187,-16.3092,8.4475,-16.701,42.3938,-18.6319,2.28606,-23.222
11.6724,17.8879,-23.5546,4.39254,-50.7966,-0.380946,4.04857,2.07132,5.06209,-6.6657,3.24486,1.13389,-9.11924,1.24876,-2.00042,9.11751,9.25041,18.0593,-13.2672,12.1772,-25.2582,-2.42424,6.7789,-11.4772,-4.87022e-15,7.95139e-15,38.0207,29.0231,-30.9513,54.8609,-26.4694,-9.08188,18.7575,7.12502,16.8676,-10.53,-4.87022e-15,7.95139e-15,6.41898,16.3566,0.283448,55.5351,6.20581,-50.5611,12.7093,7.12502,-23.1275,41.3411,-9.9515,-12.5552,18.9944,23.938,-18.7512,-12.0756,21.1834,-17.0063,8.75883,-17.1806,42.0612,-18.8866,2.63697,-23.8417
11.6153,17.8721,-23.5503,4.45247,-49.8024,-0.432996,4.16338,2.087,5.10105,-6.79021,3.27516,1.03155,-9.31534,1.24891,-2.14155,9.04885,9.43552,17.8825,-12.8621,12.4732,-25.1269,-2.25631,6.921,-11.3517,1.50082e-14,2.70347e-14,37.8911,29.1429,-30.9888,54.8035,-26.6828,-9.2374,18.8313,7.12502,16.7179,-10.4688,1.50082e-14,2.70347e-14,6.53108,16.3604,0.228943,55.3748,6.11865,-50.433,13.3496,7.12502,-23.0046,41.9968,-9.97393,-12.9321,19.1402,24.583,-19.3281,-12.4017,21.5552,-17.6041,9.10795,-17.6027,41.7042,-19.3948,2.66718,-22.97
11.5587,17.8536,-23.5501,4.76695,-48.8871,-0.633377,4.01013,2.18362,5.13998,-6.75078,3.39003,0.924165,-9.16362,1.30444,-2.28201,8.30744,9.58926,18.0289,-12.1958,12.695,-25.2357,-1.86939,6.98602,-11.3027,3.42904e-14,-8.74653e-15,37.923,28.7511,-31.2045,54.5908,-26.7888,-8.8829,18.8821,7.12502,17.0592,-10.3889,3.42904e-14,-8.74653e-15,6.88665,16.8201,0.313198,55.189,5.95335,-50.2673,13.7476,7.12502,-22.8456,42.4145,-10.1338,-13.3052,19.476,25.062,-19.4853,-13.1034,19.7586,-18.3922,9.58634,-17.9521,41.3822,-19.8485,2.64538,-21.5112
11.5032,17.838,-23.5477,5.26932,-47.9276,-1.07581,3.74931,2.3004,5.29844,-6.62759,3.53748,0.900179,-8.85267,1.37802,-2.39558,7.63595,9.62897,18.1338,-11.8056,12.714,-25.4226,-1.6139,6.96053,-11.3116,-1.73937e-14,-2.22639e-14,37.9485,28.1782,-31.4187,54.3699,-26.5941,-8.54322,18.8437,7.12502,17.3861,-10.3987,-1.73937e-14,-2.22639e-14,7.33064,17.3832,0.510419,54.9817,5.88296,-50.2043,13.7051,7.12502,-22.7852,42.3794,-10.24,-13.6361,19.9835,25.452,-19.4746,-13.6925,18.1201,-19.2344,9.97414,-18.1294,41.1388,-20.1274,2.5028,-17.2993
11.4471,17.8293,-23.5424,5.51413,-46.9061,-1.36761,3.70394,2.35381,5.39054,-6.57451,3.6136,0.902867,-8.75718,1.41414,-2.44814,7.28021,9.61518,18.004,-11.58,12.6574,-25.4774,-1.50628,6.91801,-11.2749,5.18828e-14,2.46493e-14,37.8478,27.9366,-31.45,54.3441,-26.4022,-8.9219,18.7815,7.12502,17.0216,-10.4927,5.18828e-14,2.46493e-14,7.5324,17.6015,0.531386,54.837,6.1371,-50.4811,13.6732,7.12502,-23.0508,42.3146,-10.1778,-14.0242,20.3437,25.8727,-19.6667,-14.1327,16.9808,-19.968,10.3503,-18.3925,40.9466,-20.3979,2.45142,-12.8354
11.3939,17.8111,-23.5402,5.63578,-45.9202,-1.53281,3.87451,2.34702,5.42148,-6.67153,3.62381,0.894956,-8.96247,1.40836,-2.48592,7.23704,9.51586,17.9482,-11.2989,12.5324,-25.722,-1.43174,6.86465,-11.3446,4.81059e-14,-3.18055e-15,37.8416,28.0183,-31.4402,54.2924,-26.4975,-9.37391,18.6147,7.12502,16.5865,-10.6965,4.81059e-14,-3.18055e-15,7.45067,17.5191,0.315694,54.8293,6.40719,-50.4491,13.5335,7.12502,-23.0201,42.1788,-10.1244,-14.3329,20.6385,26.2813,-19.7779,-14.8553,15.4474,-20.6641,11.0775,-18.8347,40.7882,-20.5993,3.30599,-14.1242
11.3411,17.782,-23.5333,5.89625,-44.9227,-1.78914,3.98711,2.35058,5.54621,-6.86092,3.65271,0.865039,-9.22854,1.39978,-2.60035,7.27935,9.33388,18.2661,-10.7442,12.3781,-26.2783,-1.25015,6.79928,-11.5862,1.23545e-13,1.35174e-14,37.7823,28.1089,-31.594,54.0941,-26.6291,-9.30141,18.7104,7.12502,16.6563,-10.5949,1.23545e-13,1.35174e-14,7.38927,17.2936,0.0670102,54.9561,6.65788,-50.1219,13.6914,7.12502,-22.7061,42.3755,-10.1684,-14.6788,21.0106,26.7226,-19.725,-15.5901,13.8666,-21.3768,11.9621,-19.327,40.6095,-20.7461,4.6951,-17.9758
11.2847,17.7585,-23.5175,6.23349,-43.9516,-2.22233,4.02941,2.3414,5.85837,-6.95199,3.66905,0.79046,-9.33347,1.37712,-2.85892,7.03656,9.33803,18.7441,-10.3015,12.466,-26.5832,-1.00355,6.82154,-11.7322,-4.55217e-14,-1.74931e-14,37.7286,28.0949,-31.9382,53.8654,-26.6597,-9.29233,18.9231,7.12502,16.665,-10.3815,-4.55217e-14,-1.74931e-14,7.41036,17.1145,-0.425126,54.9907,7.14194,-49.9969,14.0924,7.12502,-22.5861,42.7911,-10.1596,-15.0322,21.4704,27.2426,-19.9854,-15.8589,13.9318,-22.0076,12.867,-19.6854,40.3597,-20.8779,5.92584,-19.9823
11.2307,17.7369,-23.4951,6.43751,-42.8979,-2.60844,4.03482,2.29401,6.16406,-6.90906,3.62734,0.727158,-9.27453,1.33618,-3.09059,7.64286,9.57379,17.8087,-11.3923,12.6545,-25.5828,-1.52439,6.95279,-11.298,-5.46658e-16,-1.63003e-14,37.7426,27.931,-32.2796,53.6355,-26.6454,-9.24023,19.0612,7.12502,16.7152,-10.2391,-5.46658e-16,-1.63003e-14,7.57836,17.3162,-0.805924,54.8437,7.52114,-50.1233,14.1944,7.12502,-22.7075,42.8783,-10.0052,-15.4681,21.8409,27.73,-20.5303,-15.9329,14.7266,-22.5444,13.7104,-20.0845,40.0384,-20.7399,6.95731,-21.0376
11.18,17.719,-23.4726,6.4157,-41.8066,-2.65585,3.9701,2.32161,6.03786,-6.80302,3.64648,0.723409,-9.12218,1.36369,-3.02066,7.5974,9.67297,17.4312,-11.8265,12.6906,-25.3254,-1.67911,6.97582,-11.1598,-3.28989e-14,3.97569e-16,37.7117,27.5592,-32.3836,53.4066,-26.5601,-9.05729,19.1213,7.12502,16.8913,-10.1641,-3.28989e-14,3.97569e-16,8.03303,17.8948,-0.489819,54.6003,7.30303,-50.1932,14.5915,7.12502,-22.7745,43.2672,-9.82068,-15.9309,21.9392,28.1432,-20.9437,-16.1368,14.6356,-23.0384,14.4971,-20.8054,39.6729,-20.6528,7.63098,-20.6012
11.129,17.712,-23.4564,6.46709,-40.8905,-2.79771,4.02619,2.3773,5.82589,-6.73309,3.71489,0.823477,-9.08877,1.41958,-2.80549,7.14625,9.71963,17.2926,-11.666,12.696,-25.4247,-1.5551,6.96136,-11.1276,-1.1281e-14,-8.34896e-15,37.7904,27.2911,-32.3639,53.2245,-26.5502,-9.19958,19.1097,7.12502,16.7543,-10.1874,-1.1281e-14,-8.34896e-15,8.4148,18.3879,-0.0888891,54.2384,6.82137,-49.9013,14.7868,7.12502,-22.4944,43.4967,-9.68047,-16.1443,22.1443,28.5581,-21.3115,-16.0602,15.8889,-23.4874,15.5498,-21.4545,39.3014,-20.9395,8.07406,-17.3295
11.0789,17.7078,-23.4353,6.67186,-39.9265,-3.01912,4.00282,2.36571,5.78313,-6.7934,3.70475,0.922518,-9.15149,1.41844,-2.67605,6.78024,9.65729,17.4832,-11.2468,12.6238,-25.832,-1.34024,6.91127,-11.2595,-6.76365e-14,-5.1684e-15,37.9152,27.28,-32.3802,53.0049,-26.5717,-9.25387,19.1873,7.12502,16.7021,-10.1142,-6.76365e-14,-5.1684e-15,8.48823,18.6867,-0.0374598,53.9846,6.65502,-49.6338,13.4495,7.12502,-22.2376,42.1902,-9.66517,-16.4575,22.4456,28.972,-21.7072,-15.7797,17.6187,-24.043,16.5257,-22.0859,38.9545,-21.1694,9.01422,-14.6595
11.0279,17.698,-23.4021,6.78888,-38.9078,-3.0455,3.74626,2.37493,5.731,-6.83972,3.6919,0.873289,-9.05054,1.41726,-2.68577,6.15419,9.44319,18.3615,-10.4267,12.4211,-26.7675,-0.902708,6.77244,-11.6755,8.62725e-14,1.03368e-14,37.9173,27.234,-32.4078,52.7906,-26.6111,-9.3321,19.1773,7.12502,16.6267,-10.1305,8.62725e-14,1.03368e-14,8.59833,18.9357,-0.153719,53.9214,6.81628,-49.6583,12.148,7.12502,-22.2611,40.8859,-9.64342,-16.9264,22.5696,29.339,-21.8867,-15.8707,17.1953,-24.6013,17.188,-22.9209,38.667,-21.1981,10.577,-15.2577
10.9781,17.6794,-23.3661,6.78465,-37.968,-3.13697,3.5225,2.44935,5.92148,-6.69853,3.76851,0.629645,-8.72908,1.44808,-3.04142,6.80254,9.51554,17.3029,-11.586,12.381,-25.4385,-1.54093,6.78797,-11.1298,-6.11263e-15,1.05356e-14,37.7291,26.8379,-32.6871,52.6844,-26.7725,-9.71977,19.1697,7.12502,16.2535,-10.1691,-6.11263e-15,1.05356e-14,9.19154,19.2698,-0.350842,53.6989,6.82059,-49.7711,12.6615,7.12502,-22.3694,41.3864,-9.4135,-17.4271,22.6728,29.6903,-21.7462,-16.1775,15.5751,-24.897,17.8493,-23.6227,38.4395,-21.3488,11.8659,-14.3494
10.9304,17.6675,-23.3306,6.82461,-36.9756,-3.31237,3.29161,2.38725,6.31019,-6.60471,3.68031,0.434338,-8.46632,1.38437,-3.44027,5.85836,9.43202,18.4381,-10.297,12.4116,-26.4305,-0.842149,6.73404,-11.5424,1.04362e-15,2.74323e-14,37.782,26.5824,-33.2791,52.4229,-26.8196,-10.021,19.2591,7.12502,15.9634,-10.1031,1.04362e-15,2.74323e-14,9.47037,19.4701,-0.782305,53.4064,6.69764,-49.7399,13.6196,7.12502,-22.3394,42.3481,-9.17152,-18.0257,22.8189,30.0328,-21.6122,-16.3807,13.9163,-25.12,18.4032,-24.1916,38.2429,-21.8065,12.6232,-9.63407
10.8832,17.6626,-23.2954,6.8648,-35.9176,-3.4865,3.14016,2.32672,6.51273,-6.5528,3.59399,0.334405,-8.31356,1.33304,-3.64121,6.48021,9.43178,17.7197,-11.0746,12.3371,-25.668,-1.30268,6.73846,-11.2364,2.98674e-14,-8.74653e-15,37.8714,26.3232,-33.7341,52.0342,-26.8137,-10.2726,19.2505,7.12502,15.7211,-10.1309,2.98674e-14,-8.74653e-15,9.71108,19.7481,-1.04347,53.1949,6.64693,-49.5348,14.1315,7.12502,-22.1426,42.8835,-8.9084,-18.3096,22.9814,30.3278,-21.9932,-16.2829,14.9695,-25.3332,18.8075,-24.74,38.0768,-21.9108,13.9684,-7.33125
10.8372,17.6484,-23.2619,6.96556,-34.8458,-3.80428,3.04616,2.29667,6.74224,-6.48589,3.55764,0.281034,-8.1755,1.30639,-3.81529,6.47707,9.34996,17.8032,-11.225,12.2106,-25.6587,-1.36721,6.67568,-11.2648,-4.17696e-14,-3.45885e-14,37.8621,26.1336,-33.8745,51.8323,-26.731,-10.4011,19.1482,7.12502,15.5973,-10.243,-4.17696e-14,-3.45885e-14,9.99907,20.0786,-1.22902,53.0655,6.71049,-49.3945,14.394,7.12502,-22.0078,43.1619,-8.59386,-18.3384,23.2903,30.6013,-22.7439,-15.6335,19.0681,-25.5091,19.0807,-25.102,37.9292,-21.8148,15.4667,-6.51135
10.7901,17.6308,-23.2246,7.14599,-33.73,-4.23671,3.02926,2.29056,6.93215,-6.54856,3.56904,0.334883,-8.22834,1.29825,-3.86578,5.74356,9.18027,18.5922,-10.2749,12.0692,-26.3552,-0.892373,6.55246,-11.5649,8.62228e-15,1.43125e-14,37.6375,26.0317,-34.0435,51.7004,-26.6748,-10.237,18.8347,7.12502,15.7554,-10.544,8.62228e-15,1.43125e-14,10.2508,20.1017,-1.26644,53.0069,6.95481,-49.4878,14.2499,7.12502,-22.0974,43.0073,-8.31818,-18.6611,23.6831,30.9196,-23.0867,-15.0076,21.3017,-25.6437,19.0281,-25.2454,37.7816,-22.2383,16.6321,-3.96011
10.7433,17.6201,-23.1827,7.15261,-32.6146,-4.60773,3.45012,2.2847,6.76157,-6.89352,3.62225,0.633692,-8.87814,1.31123,-3.49085,6.4844,9.01554,17.9344,-10.4251,11.8735,-25.9104,-1.19543,6.50537,-11.3687,4.74226e-14,1.14301e-14,37.2841,26.4512,-33.9295,51.5466,-27.0685,-10.1756,18.5697,7.12502,15.8145,-10.8044,4.74226e-14,1.14301e-14,10.3008,19.5436,-1.01206,52.9687,7.24378,-49.5439,14.1721,7.12502,-22.1512,42.9231,-7.94752,-19.1055,23.9701,31.2804,-22.6253,-15.2914,19.5568,-25.5417,18.7497,-25.2755,37.6487,-23.0581,17.5613,-0.836177
10.6981,17.6119,-23.1412,7.11868,-31.5505,-4.91933,3.9573,2.31591,6.4319,-7.2544,3.72594,0.987588,-9.60991,1.36229,-2.97835,6.88613,8.83643,17.6026,-10.241,11.6754,-25.8361,-1.29118,6.43624,-11.3213,-3.9906e-14,-4.17448e-14,36.8658,26.9605,-33.5586,51.4223,-27.3142,-10.4202,18.78,7.12502,15.5789,-10.6125,-3.9906e-14,-4.17448e-14,10.4963,19.0865,-0.586816,52.7928,7.40104,-49.2952,14.3269,7.12502,-21.9125,43.106,-7.60367,-19.2558,24.2395,31.6654,-22.237,-15.68,18.407,-25.3766,18.4226,-25.2511,37.5355,-24.1759,17.9691,3.48522
10.6548,17.6005,-23.0941,7.17077,-30.5342,-5.19367,3.91396,2.29959,6.55684,-7.26191,3.71467,1.0087,-9.58933,1.34976,-3.02185,6.56589,8.79423,17.6324,-9.94294,11.6209,-25.9104,-1.15694,6.38811,-11.3216,7.70788e-14,2.49475e-14,36.7567,26.8608,-33.6817,51.2383,-27.1472,-10.657,18.881,7.12502,15.3509,-10.5292,7.70788e-14,2.49475e-14,10.9025,19.3068,-0.627221,52.4869,7.44892,-49.134,14.1659,7.12502,-21.7577,42.963,-7.39316,-19.3041,24.5074,32.1079,-22.203,-15.8001,18.2646,-25.269,18.0851,-25.2294,37.423,-25.0314,18.4878,7.50489
10.6138,17.5839,-23.0377,7.11652,-29.5107,-5.40353,3.82223,2.28026,6.57507,-7.23511,3.69074,1.11332,-9.51333,1.34553,-2.91267,6.24895,8.78785,17.3806,-9.61945,11.5972,-25.8504,-1.03951,6.35739,-11.2228,3.36443e-14,2.77305e-14,36.7847,26.8856,-33.5537,51.1167,-27.3026,-10.8158,18.7171,7.12502,15.1979,-10.7047,3.36443e-14,2.77305e-14,11.2237,19.5304,-0.459792,52.1223,7.33938,-49.1633,13.824,7.12502,-21.7858,42.6179,-7.12575,-19.6238,24.6487,32.6177,-21.8983,-15.9617,17.141,-24.9782,17.498,-25.1167,37.3336,-25.3694,19.2349,9.42117
10.5713,17.5718,-22.9774,6.98297,-28.4502,-5.53265,3.77657,2.2499,6.51401,-7.28393,3.64867,1.16485,-9.55096,1.32994,-2.81842,6.18328,8.76029,17.0882,-9.40001,11.5674,-25.5837,-1.01603,6.33314,-11.0666,-5.27898e-14,-2.31584e-14,36.6423,27.1004,-33.4489,50.8877,-27.6793,-11.0541,19.0464,7.12502,14.9683,-10.3926,-5.27898e-14,-2.31584e-14,11.5545,19.6505,-0.287631,51.781,7.13531,-48.8938,13.5335,7.12502,-21.5271,42.3572,-6.82429,-19.9645,24.6756,33.181,-21.9595,-15.6628,18.0683,-24.5485,16.51,-24.8549,37.3409,-25.8318,19.2104,12.0532
10.5286,17.5654,-22.9152,6.88086,-27.4135,-5.71506,3.72601,2.25177,6.52705,-7.3048,3.64884,1.14257,-9.54202,1.32887,-2.84742,6.0033,8.6968,17.0545,-9.07565,11.5109,-25.4487,-0.921081,6.28476,-10.9925,-1.33434e-14,-2.89729e-14,36.4392,27.0299,-33.7363,50.4109,-27.5783,-11.1027,19.5427,7.12502,14.9216,-9.89981,-1.33434e-14,-2.89729e-14,11.9297,19.7607,-0.266132,51.5812,6.96816,-48.6538,13.5759,7.12502,-21.2965,42.4258,-6.58791,-20.1138,24.7678,33.8372,-22.1345,-15.4991,19.0629,-24.12,15.4749,-24.4381,37.4896,-26.051,19.1022,12.187
10.49,17.5407,-22.8577,6.72448,-26.3451,-5.93832,3.78523,2.26631,6.55191,-7.25847,3.67691,1.15699,-9.52297,1.34399,-2.85097,5.67086,8.60281,17.0498,-8.85722,11.3749,-25.3786,-0.838639,6.19168,-10.9467,4.07757e-14,1.27471e-14,36.3386,26.5434,-34.4025,49.8197,-26.8614,-10.9563,19.5847,7.12502,15.0626,-9.84732,4.07757e-14,1.27471e-14,12.3547,19.8369,-0.257099,51.3964,7.03405,-48.6782,13.9585,7.12502,-21.3199,42.8057,-6.42222,-20.3786,24.9661,34.6585,-21.4823,-16.273,16.2918,-23.7189,14.4974,-23.9301,37.76,-25.7016,19.5578,7.13247
10.4514,17.5054,-22.8074,6.51025,-25.2944,-6.08017,3.87762,2.22718,6.49287,-7.20197,3.62785,1.17027,-9.52341,1.32703,-2.8025,5.47546,8.50452,16.956,-8.91251,11.1979,-25.3004,-0.870907,6.09372,-10.9054,1.82552e-14,-1.14488e-14,36.4072,26.2255,-34.8655,49.3048,-26.3553,-11.0131,19.5359,7.12502,15.0078,-9.90025,1.82552e-14,-1.14488e-14,12.6496,19.9182,-0.357808,51.1632,7.16756,-48.646,14.2174,7.12502,-21.2891,43.0681,-6.35946,-20.7041,25.118,35.6721,-21.0678,-16.8034,13.7106,-23.351,13.6372,-23.4495,38.1141,-25.7339,19.1857,4.52387
10.412,17.4822,-22.751,6.2462,-24.4135,-6.1514,3.91699,2.17956,6.43616,-7.16083,3.5575,1.11406,-9.50643,1.29677,-2.82452,5.49798,8.43377,16.8869,-8.91553,11.098,-25.232,-0.907728,6.04559,-10.8783,3.53837e-14,2.27608e-14,36.5374,26.423,-34.7879,49.1216,-26.6378,-11.297,19.5761,7.12502,14.7343,-9.88019,3.53837e-14,2.27608e-14,12.7725,19.979,-0.608577,51.0266,7.09938,-48.577,14.5114,7.12502,-21.2228,43.3696,-6.36989,-20.9748,25.0902,36.8933,-21.5401,-16.355,15.6229,-22.9121,13.0596,-23.0319,38.5013,-25.8781,18.2554,3.31012
10.3734,17.4591,-22.6835,5.9678,-23.554,-6.10555,3.89513,2.1688,6.27746,-7.20826,3.52742,1.06794,-9.55296,1.2898,-2.78252,5.60687,8.36676,16.7419,-8.6367,11.0553,-25.0965,-0.879803,6.02497,-10.8051,6.91895e-14,2.28602e-14,36.4916,26.8292,-34.5175,49.2103,-27.1755,-11.4195,19.4592,7.12502,14.6163,-10.0057,6.91895e-14,2.28602e-14,12.8751,19.8268,-0.819262,50.9247,7.19168,-48.3518,14.3,7.12502,-21.0064,43.1824,-6.53922,-21.3094,24.9175,38.3593,-21.5343,-16.2516,16.351,-22.5106,12.5181,-22.7635,38.8403,-25.5571,17.8708,-0.158851
10.3346,17.4328,-22.6163,5.66367,-22.6207,-5.97157,3.88287,2.14981,5.98953,-7.24531,3.47725,1.04241,-9.60228,1.28383,-2.64499,5.81542,8.25239,16.524,-8.66323,10.9013,-24.9956,-0.979448,5.96423,-10.7568,-7.86318e-14,-2.47487e-14,36.4293,26.9809,-34.5466,49.1055,-27.2206,-11.3106,19.3321,7.12502,14.7212,-10.1252,-7.86318e-14,-2.47487e-14,13.0399,19.738,-0.940802,50.7229,7.39826,-47.787,13.6162,7.12502,-20.4638,42.5579,-6.83828,-21.6491,24.6857,40.0298,-20.69,-16.9298,13.9708,-22.1705,12.0463,-22.6251,39.1293,-25.2917,17.5534,-2.67043
10.299,17.4104,-22.5511,5.22556,-21.7285,-5.67378,3.93053,2.15587,5.62652,-7.17991,3.44354,0.879596,-9.56593,1.29074,-2.61424,6.03062,8.10378,16.4409,-8.99448,10.6642,-24.9113,-1.172,5.86585,-10.755,-1.87603e-14,1.26228e-14,36.3577,26.7934,-34.9188,48.7687,-26.8744,-11.2235,19.3379,7.12502,14.8052,-10.1132,-1.87603e-14,1.26228e-14,13.3753,19.9796,-0.900493,50.5826,7.24635,-47.1414,13.5714,7.12502,-19.8432,42.5784,-7.22903,-22.068,24.2027,41.9602,-19.1303,-17.9882,9.6326,-21.6785,11.7957,-22.7011,39.2747,-24.9806,17.1357,-5.02875
10.2682,17.3876,-22.4824,4.84854,-20.9084,-5.34959,4.45604,2.29345,4.83087,-7.55306,3.62152,0.996307,-10.331,1.41226,-2.1044,6.0424,7.91129,16.2507,-8.21333,10.5053,-24.8706,-1.00886,5.77605,-10.6888,-2.81777e-14,-1.40143e-14,35.7689,27.1763,-34.941,48.4906,-26.534,-10.9909,19.3387,7.12502,15.0293,-10.0958,-2.81777e-14,-1.40143e-14,13.5895,19.5147,-0.310021,50.594,6.99045,-46.8249,13.7039,7.12502,-19.5389,42.7421,-7.77698,-22.4064,23.6916,44.042,-17.6909,-18.6307,6.50116,-21.2387,11.6249,-22.8682,39.3896,-24.6461,16.7449,-6.67938
10.2358,17.3932,-22.4101,4.59945,-20.1418,-5.02997,4.75115,2.38399,4.37418,-7.83631,3.71831,0.859855,-10.8371,1.4703,-2.03176,5.78248,7.80081,16.2826,-7.39452,10.4582,-24.77,-0.753428,5.71607,-10.6175,-1.48343e-14,1.13307e-14,35.2856,27.2769,-35.5355,48.1696,-26.1011,-10.542,19.3182,7.12502,15.4616,-10.0834,-1.48343e-14,1.13307e-14,13.8602,19.1531,-0.274559,50.5224,6.99438,-46.8812,13.2661,7.12502,-19.593,42.2989,-8.27049,-21.6803,22.9752,46.2673,-22.2031,-12.5681,32.9868,-20.8627,11.5816,-23.0625,39.4093,-24.5202,16.3079,-7.58956
10.2056,17.3713,-22.3409,4.3225,-19.326,-4.6788,4.84299,2.44203,4.15035,-7.88395,3.74816,0.488652,-10.9303,1.48198,-2.31578,5.50069,7.7154,16.6162,-7.15172,10.375,-24.7698,-0.635077,5.64611,-10.6567,-9.93923e-16,7.55382e-15,35.0435,27.1241,-36.0801,47.9159,-25.9472,-10.575,19.4186,7.12502,15.4298,-9.98552,-9.93923e-16,7.55382e-15,14.4623,19.292,-0.410286,50.2991,6.97971,-46.7464,12.7776,7.12502,-19.4635,41.8235,-8.95756,-21.7367,22.3513,48.4819,-21.5956,-11.5904,36.4423,-20.5117,11.5574,-23.3175,39.4585,-24.7245,15.4908,-7.01384
10.1779,17.34,-22.2675,3.96923,-18.4957,-4.44464,4.91994,2.45373,4.12779,-7.83343,3.73563,0.167083,-10.8991,1.46394,-2.64934,5.3552,7.67624,16.6984,-7.02391,10.3338,-24.6473,-0.586924,5.60935,-10.6181,-7.09661e-14,-2.22639e-14,35.1228,27.0958,-36.4196,47.5562,-25.891,-10.9664,19.7165,7.12502,15.0528,-9.7163,-7.09661e-14,-2.22639e-14,14.9148,19.5101,-0.58551,50.0724,6.81516,-46.3144,12.7201,7.12502,-19.0481,41.8074,-9.57946,-21.8927,21.872,50.6529,-19.8105,-12.4347,34.4929,-19.9809,11.3457,-23.4344,39.5197,-26.3577,13.1866,3.13535
10.1521,17.3178,-22.1897,3.71318,-17.7597,-4.17553,4.8283,2.41864,4.09535,-7.80761,3.6572,-0.077658,-10.8049,1.42046,-2.87759,5.3784,7.66267,16.4285,-6.94125,10.3122,-24.4592,-0.601983,5.59841,-10.5047,3.26007e-14,1.35174e-14,35.3942,27.2505,-36.6528,47.3593,-25.8454,-11.127,19.8399,7.12502,14.8982,-9.60436,3.26007e-14,1.35174e-14,14.9073,19.642,-0.893608,49.9839,6.58821,-46.0074,12.7889,7.12502,-18.7528,41.905,-10.3882,-22.0077,21.3718,52.7308,-17.0576,-14.0932,29.2194,-19.5691,11.0037,-23.6092,39.6838,-27.7035,11.2945,11.161
10.1274,17.2928,-22.117,3.56395,-16.9999,-3.92696,4.18853,2.36965,4.11819,-7.43663,3.52754,-0.337799,-9.99262,1.37658,-3.10381,4.8469,7.61193,16.6958,-6.82437,10.2015,-25.001,-0.446811,5.52128,-10.7151,6.85807e-15,2.38542e-15,36.1019,27.2329,-36.1743,47.6093,-26.1503,-11.4326,19.6883,7.12502,14.6037,-9.77753,6.85807e-15,2.38542e-15,15.0533,20.7114,-0.956345,49.783,6.01275,-45.8949,12.8116,7.12502,-18.6446,41.9381,-11.3046,-22.1308,20.8984,54.7238,-14.6599,-14.9196,26.4422,-19.3171,10.8144,-23.7808,39.8378,-26.7448,12.2053,2.92565
10.1027,17.2639,-22.046,3.29022,-16.0807,-3.80952,4.30679,2.39474,4.15054,-7.39644,3.54957,-0.583926,-9.99973,1.37453,-3.3926,4.14618,7.45478,17.1606,-6.07661,10.0412,-25.4526,-0.0956272,5.38677,-10.9091,-2.127e-14,-3.57812e-15,36.0511,27.3828,-35.9253,47.8434,-26.3812,-11.5091,19.6513,7.12502,14.53,-9.81989,-2.127e-14,-3.57812e-15,15.6454,21.2824,-0.724141,49.5742,5.68803,-45.4647,12.8065,7.12502,-18.2308,41.9722,-11.8942,-22.1341,20.4716,56.5943,-14.1703,-13.9869,31.6269,-18.8818,10.7612,-23.7754,39.9433,-25.516,13.4148,-6.96578
10.0774,17.2488,-21.9716,2.96302,-15.0385,-3.62149,4.58484,2.36577,4.14065,-7.40152,3.5014,-0.852565,-10.1608,1.33422,-3.68519,4.12484,7.45475,16.8394,-6.06747,10.0246,-25.0489,-0.13917,5.37309,-10.7075,2.32578e-14,1.07344e-14,36.0371,27.3389,-36.1812,47.7001,-26.3289,-11.3665,19.7569,7.12502,14.6675,-9.70433,2.32578e-14,1.07344e-14,15.9649,21.4471,-0.832021,49.5799,5.97177,-44.3612,12.3145,7.12502,-17.1689,41.576,-12.5005,-22.203,19.9891,58.339,-12.4296,-13.7558,29.9123,-18.3288,10.5371,-23.8041,40.0016,-25.6617,12.8381,-6.55615
10.0492,17.2336,-21.8998,2.68299,-13.9685,-3.25762,4.79564,2.27761,3.85313,-7.48542,3.34973,-1.04336,-10.3982,1.26484,-3.72611,4.65933,7.45743,16.2588,-6.43317,10.0015,-24.6562,-0.399001,5.4029,-10.5068,-1.45113e-14,-3.1408e-14,36.2598,27.4953,-36.3708,47.4964,-26.0909,-11.3378,19.7457,7.12502,14.6951,-9.71348,-1.45113e-14,-3.1408e-14,15.8954,21.4714,-0.960609,49.6954,6.13938,-43.4441,11.8735,7.12502,-16.286,41.2096,-13.1668,-22.0789,19.4078,59.9194,-10.72,-13.3677,25.6014,-17.8921,10.1916,-24.0145,40.043,-26.1795,11.6678,-3.53695
10.021,17.2094,-21.8301,2.44353,-12.8676,-2.93851,4.95149,2.18901,3.59061,-7.60566,3.19956,-1.1937,-10.645,1.19588,-3.73543,5.13401,7.30982,15.9201,-6.54569,9.80914,-24.5888,-0.579225,5.34356,-10.4648,5.96354e-16,1.27222e-14,36.3443,27.7614,-36.4488,47.6028,-25.814,-10.9831,19.5051,7.12502,15.0368,-9.92889,5.96354e-16,1.27222e-14,15.8591,21.5337,-0.863877,49.8376,6.10415,-43.3351,12.2107,7.12502,-16.1811,41.5553,-13.7314,-21.7138,18.9184,61.282,-9.71468,-12.5111,22.7245,-17.5258,9.87592,-24.1988,40.0847,-26.6617,10.6054,-1.22682
9.99027,17.1897,-21.7568,2.27414,-11.7449,-2.90006,4.97964,2.123,3.62248,-7.57388,3.10471,-1.31334,-10.627,1.14313,-3.87014,3.50278,7.85161,15.4757,-4.61049,10.6687,-23.9486,0.352845,5.61795,-9.96668,-4.42296e-14,5.56597e-15,36.5572,27.9786,-36.0641,47.9438,-25.9097,-11.0701,19.3251,7.12502,14.953,-10.1152,-4.42296e-14,5.56597e-15,15.982,21.7969,-0.676585,50.0009,6.29131,-43.5298,12.442,7.12502,-16.3685,41.7713,-14.281,-21.1972,18.7819,62.3606,-8.73359,-11.5825,17.864,-17.1631,9.60498,-24.0579,40.1668,-26.9589,9.59472,0.499944
9.95687,17.17,-21.6796,2.08744,-10.5792,-2.85703,4.88271,2.07462,3.66889,-7.41352,3.02421,-1.48063,-10.3847,1.10375,-4.05417,2.88195,7.91944,15.4945,-4.11384,10.7767,-24.0821,0.631602,5.62483,-9.96342,-9.34288e-15,-1.11319e-14,36.9064,27.9423,-35.7223,48.0667,-26.1986,-11.6472,19.4608,7.12502,14.397,-10.0199,-9.34288e-15,-1.11319e-14,16.2796,22.3557,-0.399427,50.0648,6.42122,-43.5472,12.0408,7.12502,-16.3852,41.3687,-14.7332,-20.4565,18.6192,63.1658,-8.64536,-10.0456,18.1109,-16.8054,9.26317,-23.9206,40.298,-26.718,9.58331,-3.10337
9.9245,17.1498,-21.6029,1.83972,-9.42932,-2.62535,4.94884,2.05024,3.51842,-7.39622,2.9616,-1.68065,-10.4074,1.07571,-4.18019,3.00795,7.64393,15.808,-4.02931,10.441,-24.6877,0.622286,5.47176,-10.2589,-4.17448e-15,-7.95139e-16,36.9133,27.7887,-36.0169,48.0767,-26.2011,-11.4417,19.332,7.12502,14.595,-10.1344,-4.17448e-15,-7.95139e-16,16.5578,22.6903,-0.0635878,50.199,6.49662,-43.302,11.7889,7.12502,-16.1492,41.1361,-15.0968,-19.591,18.2208,63.7783,-9.06542,-8.09883,21.9586,-16.4406,8.85215,-24.0155,40.441,-26.0904,10.691,-11.9038
9.89133,17.1336,-21.5273,1.64792,-8.29138,-2.45512,5.12857,2.0314,3.36156,-7.50297,2.9167,-1.81271,-10.6407,1.05091,-4.24337,3.13145,7.38229,16.0038,-3.8021,10.1435,-25.2094,0.644703,5.33357,-10.5016,-1.31198e-14,-1.59028e-15,36.7949,27.8581,-36.2189,48.2413,-26.0071,-10.8382,19.0622,7.12502,15.1764,-10.3612,-1.31198e-14,-1.59028e-15,16.684,22.6617,0.217949,50.507,7.00209,-42.8546,11.9796,7.12502,-15.7183,41.3612,-15.5027,-18.7906,17.9703,64.1992,-9.58735,-6.48026,21.3947,-16.113,8.47055,-24.0273,40.5932,-25.776,11.294,-18.2061
9.8561,17.1158,-21.4489,1.51929,-7.06685,-2.32164,5.22821,1.97038,3.27542,-7.59273,2.81814,-1.94813,-10.8094,0.996877,-4.33781,3.59267,7.13023,16.0967,-3.96695,9.82553,-25.7085,0.4851,5.21881,-10.7462,3.29983e-14,-5.56597e-15,36.6458,28.1445,-35.9766,48.7533,-26.0923,-10.4985,19.1579,7.12502,15.5036,-10.2405,3.29983e-14,-5.56597e-15,16.7219,22.6867,0.453348,50.8279,7.49694,-42.6099,11.9609,7.12502,-15.4827,41.3609,-15.9316,-18.1263,17.8139,64.4444,-10.5412,-5.27621,19.2506,-15.8311,7.97701,-23.9894,40.7415,-25.8983,11.0837,-20.1651
9.81809,17.1008,-21.3709,1.44746,-5.80727,-2.14333,5.25963,1.9,3.15652,-7.65154,2.69864,-2.10447,-10.9046,0.937425,-4.42858,4.03194,6.9106,16.0537,-4.18631,9.52981,-26.1022,0.302905,5.11622,-10.9275,3.47873e-14,-4.77083e-15,36.4693,28.4104,-35.6285,49.421,-26.5463,-10.3881,19.2412,7.12502,15.6099,-10.149,3.47873e-14,-4.77083e-15,16.6625,22.8722,0.701467,51.2557,7.70089,-42.5258,11.6944,7.12502,-15.4017,41.1007,-16.443,-17.3882,17.6661,64.5546,-11.7099,-4.54116,19.1591,-15.6436,7.31339,-24.0007,40.9007,-26.2956,10.3234,-18.9232
9.77878,17.0911,-21.2942,1.35029,-4.51038,-2.01765,5.3384,1.8052,3.07005,-7.67452,2.54951,-2.26891,-10.99,0.861377,-4.54332,3.90706,6.82225,15.9941,-4.0759,9.41058,-26.2964,0.337115,5.05158,-10.9864,4.77083e-14,-1.35174e-14,36.5849,28.7784,-35.1593,49.8956,-27.2299,-10.514,19.2074,7.12502,15.4886,-10.1922,4.77083e-14,-1.35174e-14,16.6604,23.1482,0.937628,51.7107,8.26943,-41.881,11.4432,7.12502,-14.7805,40.8961,-16.9371,-16.5248,17.6235,64.5457,-12.9935,-4.2342,20.6518,-15.4044,6.68261,-23.9287,41.0397,-26.4005,9.80828,-19.6328
9.73672,17.0821,-21.2149,1.20733,-3.23276,-1.98415,5.20144,1.70018,3.06936,-7.51503,2.39135,-2.41154,-10.7371,0.789302,-4.66209,3.47935,6.82565,15.9404,-3.81821,9.41444,-26.4525,0.491641,5.02257,-11.0067,-4.96962e-15,2.38542e-15,37.0842,29.0617,-34.5573,50.3053,-27.9362,-10.6127,19.0897,7.12502,15.3936,-10.3172,-4.96962e-15,2.38542e-15,16.5422,23.0151,1.00691,51.6962,6.50841,-44.1519,14.2519,7.12502,-16.9674,43.5308,-17.3465,-15.6685,17.6653,64.4474,-14.3861,-4.13455,21.9354,-15.081,6.14254,-23.7319,41.1298,-26.4538,9.39071,-20.9314
9.69167,17.0741,-21.1376,1.03845,-1.91997,-1.80998,5.2357,1.62388,2.84879,-7.46047,2.25581,-2.53422,-10.7125,0.737644,-4.65186,3.42036,6.76526,15.7055,-3.59338,9.35538,-26.5271,0.54156,4.9874,-10.9877,3.55825e-14,-1.59028e-14,37.3699,29.3796,-34.1574,50.6554,-28.4173,-10.8739,18.9503,7.12502,15.1419,-10.4757,3.55825e-14,-1.59028e-14,16.4066,22.9641,1.18222,52.0592,6.1934,-44.9501,15.3871,7.12502,-17.7357,44.5983,-17.7397,-14.918,17.5202,64.287,-15.7655,-4.29537,20.9974,-14.7417,5.55262,-23.6751,41.1821,-26.5697,9.02131,-22.3451
9.64696,17.0635,-21.0609,0.830634,-0.487527,-1.50169,5.42868,1.55871,2.51371,-7.45087,2.11824,-2.73903,-10.8357,0.68473,-4.67541,3.37789,6.5802,15.8254,-3.27,9.16447,-26.893,0.621795,4.8862,-11.15,4.53229e-14,-1.74931e-14,37.2959,29.599,-33.9507,51.0395,-28.7367,-11.0824,18.8047,7.12502,14.9411,-10.6364,4.53229e-14,-1.74931e-14,16.3628,22.8072,1.33449,52.6343,6.51239,-44.8775,15.8384,7.12502,-17.6658,45.0558,-18.0782,-14.1639,17.2153,64.0491,-17.1962,-4.4535,20.5759,-14.291,4.90408,-23.748,41.1764,-26.7249,8.33022,-22.6354
9.60092,17.0457,-20.9794,0.815435,0.891522,-1.27955,5.38112,1.51853,2.19507,-7.47053,2.0148,-2.90941,-10.843,0.652444,-4.66491,3.33065,6.42867,16.1287,-2.97677,9.02869,-27.3807,0.723012,4.81328,-11.3909,-1.2921e-14,-1.03368e-14,37.0871,29.7353,-33.7175,51.6181,-28.8664,-11.0012,18.6693,7.12502,15.0193,-10.766,-1.2921e-14,-1.03368e-14,16.4191,22.8219,1.65174,53.0323,6.69993,-44.6055,15.4891,7.12502,-17.404,44.73,-18.6057,-13.3031,17.062,63.7283,-18.4745,-4.66588,21.0865,-13.9885,4.23772,-23.7341,41.1076,-26.9059,7.25624,-20.7962
9.55399,17.0391,-20.8956,0.937075,2.13324,-1.045,5.23842,1.44958,1.86974,-7.54152,1.87287,-3.05883,-10.8548,0.602429,-4.62044,3.43778,6.41541,16.1045,-2.88783,9.04608,-27.5653,0.740997,4.83075,-11.4582,-2.78299e-15,0,37.1817,30.0268,-33.4859,52.0702,-28.8013,-11.0595,18.6993,7.12502,14.9631,-10.7401,-2.78299e-15,0,16.1516,22.7541,1.61784,53.3381,7.06015,-44.3317,14.6672,7.12502,-17.1405,43.9311,-19.2396,-12.3015,16.888,63.2811,-19.5818,-4.86695,22.8571,-13.8024,3.65347,-23.7304,40.9506,-26.878,6.83358,-21.7459
9.50936,17.0472,-20.8119,0.988725,3.36397,-0.854929,5.21785,1.36356,1.77778,-7.61058,1.72421,-3.31197,-10.9316,0.522809,-4.82606,3.23633,6.3688,16.1553,-2.44094,9.05363,-27.6905,0.909875,4.80768,-11.4996,7.95139e-15,-1.11319e-14,37.2573,30.3619,-33.6117,52.3487,-28.7247,-11.0668,18.6856,7.12502,14.9561,-10.7544,7.95139e-15,-1.11319e-14,15.796,22.4518,1.25448,53.7891,7.41077,-44.2284,14.5188,7.12502,-17.0411,43.7913,-19.7103,-11.0802,16.6856,62.6278,-20.6755,-4.88514,26.2769,-13.4796,3.17041,-23.6667,40.6701,-26.785,6.58223,-23.5207
9.46232,17.0571,-20.7252,0.998781,4.6937,-0.872618,5.12001,1.30754,1.78199,-7.58503,1.63835,-3.44954,-10.8491,0.477544,-4.9612,2.86044,6.31289,16.0601,-1.96972,9.02853,-27.7912,1.10042,4.75611,-11.4991,-3.10104e-14,8.74653e-15,37.2495,30.4974,-33.6966,52.7807,-28.744,-10.7843,18.5285,7.12502,15.2282,-10.891,-3.10104e-14,8.74653e-15,15.6487,22.3526,1.31606,54.2471,7.61109,-44.4733,14.3722,7.12502,-17.2767,43.6243,-20.0359,-9.74644,16.7055,61.7435,-21.6916,-5.17499,27.5597,-13.0469,2.6658,-23.3521,40.2242,-26.6807,5.92517,-23.865
9.41348,17.0765,-20.6303,0.878141,6.08748,-0.945709,5.15172,1.28629,1.72426,-7.5318,1.60323,-3.487,-10.8122,0.466089,-4.9636,2.59571,6.25452,15.7367,-1.68608,8.96809,-27.8263,1.1961,4.70144,-11.4406,3.29983e-14,-3.65764e-14,37.2869,30.7888,-33.1489,53.3075,-29.1784,-10.7556,18.7205,7.12502,15.2559,-10.697,3.29983e-14,-3.65764e-14,15.5318,22.1051,1.47185,54.6841,7.93626,-45.0213,14.7994,7.12502,-17.8042,44.0044,-20.1245,-8.44379,16.7431,60.662,-22.4224,-5.44046,27.2716,-12.3612,2.13411,-22.9342,39.5965,-26.5116,5.17339,-24.0828
9.36578,17.1001,-20.5324,0.72935,7.4468,-0.798228,5.35002,1.28453,1.67913,-7.54928,1.57409,-3.75031,-10.9522,0.43877,-5.23206,2.40537,6.08075,15.7599,-1.29248,8.7897,-27.9327,1.30211,4.58832,-11.4871,-2.14687e-14,-1.74931e-14,37.1593,31.1399,-32.7895,53.6901,-29.6488,-11.1059,19.2028,7.12502,14.9184,-10.24,-2.14687e-14,-1.74931e-14,15.4644,21.6323,1.33958,55.1845,8.20687,-45.0215,15.8207,7.12502,-17.8044,45.0257,-20.1675,-7.2031,16.4423,59.5002,-22.6511,-5.59389,24.8237,-11.5424,1.62924,-22.7465,38.8498,-26.4034,4.43268,-24.6251
9.31379,17.1258,-20.4398,0.862267,8.70965,-0.525286,5.33502,1.29315,1.50275,-7.61288,1.53794,-4.07902,-11.0178,0.417304,-5.49013,2.27212,5.93807,15.8565,-1.00302,8.64101,-27.9904,1.37722,4.49696,-11.5311,3.99557e-14,-2.70347e-14,37.0542,31.2644,-32.8413,54.0877,-29.7638,-11.1379,19.4553,7.12502,14.8876,-9.98978,3.99557e-14,-2.70347e-14,15.4778,21.4982,1.34108,55.5105,8.24975,-44.3413,15.1996,7.12502,-17.1497,44.4628,-20.5318,-5.85018,16.0235,58.293,-22.7644,-5.91547,21.226,-11.0052,1.16833,-22.6895,38.0062,-26.3108,3.52654,-24.5525
9.26014,17.1624,-20.3465,1.12199,10.0123,-0.391031,5.16359,1.27988,1.28599,-7.69162,1.48376,-4.24775,-11.0106,0.401085,-5.54089,2.08749,5.95322,15.4217,-0.682002,8.68609,-27.6098,1.46537,4.49323,-11.2912,5.56597e-14,-4.92986e-14,37.2107,31.6745,-32.2692,54.59,-30.1546,-10.8929,19.5388,7.12502,15.1237,-9.88868,5.56597e-14,-4.92986e-14,15.3972,21.4432,1.42842,55.7392,8.29767,-43.8131,13.6871,7.12502,-16.6413,42.9937,-20.9709,-4.34081,15.7724,56.9805,-23.29,-6.29587,19.8463,-10.6415,0.677178,-22.4651,37.102,-25.9052,2.79601,-25.2424
9.20776,17.2071,-20.2456,1.10481,11.4579,-0.535682,5.11005,1.21682,1.32606,-7.68172,1.40004,-4.31548,-10.9745,0.356091,-5.62379,1.92602,5.94679,14.9588,-0.299907,8.7181,-27.2878,1.56492,4.48266,-11.0718,3.65764e-14,-7.95139e-15,37.4808,32.3262,-31.319,55.0863,-30.7413,-10.9817,19.5682,7.12502,15.0381,-9.86569,3.65764e-14,-7.95139e-15,15.2417,21.1967,1.38956,56.0342,8.36266,-43.7487,12.8269,7.12502,-16.5792,42.1387,-21.0218,-2.80775,15.7652,55.5481,-24.0131,-6.67203,20.0286,-10.0173,0.139086,-21.8989,36.1876,-25.3765,1.79749,-25.8919
9.15359,17.2531,-20.1434,0.903679,12.8801,-0.806765,5.17804,1.15364,1.50746,-7.59475,1.33053,-4.39292,-10.9215,0.306968,-5.8016,1.97617,5.81222,15.0679,-0.253206,8.56201,-27.5579,1.55236,4.41145,-11.2065,-2.38542e-14,1.43125e-14,37.6708,32.8348,-30.7153,55.4717,-30.974,-11.3066,19.6942,7.12502,14.7251,-9.76281,-2.38542e-14,1.43125e-14,15.1311,21.0655,1.37585,56.285,8.24341,-43.5989,12.1862,7.12502,-16.4351,41.51,-20.824,-1.30424,15.8391,54.0197,-24.435,-6.9397,19.9432,-9.21027,-0.354697,-21.1723,35.2532,-24.9624,0.234381,-24.4119
9.09979,17.2916,-20.0455,0.931418,14.2523,-0.734605,5.16837,1.12633,1.36328,-7.56164,1.26745,-4.55473,-10.8861,0.282792,-5.88685,1.83298,5.66642,15.2106,-0.12607,8.3906,-27.8729,1.59682,4.31665,-11.3588,2.22639e-14,-2.70347e-14,37.9027,33.1973,-30.2809,55.735,-30.931,-11.4599,19.6571,7.12502,14.5774,-9.8106,2.22639e-14,-2.70347e-14,15.0423,21.1263,1.50322,56.5035,8.43703,-43.1364,10.7495,7.12502,-15.9897,40.1096,-20.7926,-0.0156694,15.4568,52.4499,-24.5129,-6.90086,19.0869,-8.58562,-0.860128,-20.8335,34.291,-24.5632,-1.30128,-22.9879
9.0445,17.3309,-19.9443,1.07096,15.726,-0.484452,5.12326,1.09422,1.02504,-7.54488,1.1756,-4.74681,-10.8536,0.259109,-5.89005,1.53029,5.53566,15.1943,0.111326,8.24005,-28.0756,1.69125,4.21554,-11.4313,3.18055e-15,-4.29375e-14,38.2282,33.5126,-29.5895,56.0617,-30.6779,-11.4295,19.499,7.12502,14.6068,-9.9666,3.18055e-15,-4.29375e-14,15.0302,21.2058,1.6512,56.6742,8.93106,-42.6941,8.74432,7.12502,-15.5637,38.1381,-20.809,1.14561,14.8474,50.8317,-24.6089,-6.3984,20.7667,-8.03248,-1.35452,-20.6393,33.2876,-23.9666,-2.94044,-21.9346
8.98683,17.3846,-19.8386,1.0825,17.1955,-0.527267,5.13017,1.06401,0.954964,-7.52248,1.11749,-4.90224,-10.8394,0.230889,-6.01294,1.49969,5.40279,15.1889,0.242869,8.08668,-28.1703,1.70067,4.13563,-11.4758,3.1408e-14,-1.59028e-14,38.3788,33.8263,-28.9379,56.3033,-29.9931,-11.4127,20.1497,7.12502,14.6229,-9.31473,3.1408e-14,-1.59028e-14,15.0256,20.9402,1.63319,56.8512,8.7212,-42.8386,8.59216,7.12502,-15.7029,37.975,-20.7785,2.46063,14.549,49.1876,-24.6826,-5.67666,24.4153,-7.43139,-1.79799,-20.0808,32.2399,-23.0743,-4.56305,-20.6236
8.93136,17.4501,-19.7342,1.18244,18.6013,-0.631463,5.05095,1.08538,0.980082,-7.50853,1.13898,-5.07947,-10.7722,0.234082,-6.22199,1.42272,5.29118,15.1323,0.495889,7.97735,-28.137,1.75286,4.06847,-11.4569,4.81059e-14,3.97569e-14,38.3893,33.9214,-28.5934,56.4802,-29.719,-10.9296,20.7095,7.12502,15.0883,-8.72064,4.81059e-14,3.97569e-14,15.0547,20.4997,1.64855,57.1179,8.17574,-43.3689,9.75446,7.12502,-16.2136,39.0964,-20.9098,3.64261,14.257,47.539,-24.3919,-5.10876,25.6691,-6.99311,-2.41541,-19.487,31.1913,-21.9981,-6.03616,-18.9458
8.87523,17.5143,-19.6286,1.34156,20.1688,-0.589383,5.00265,1.0695,0.876361,-7.44435,1.09835,-5.25527,-10.6759,0.219452,-6.34587,1.06475,5.24198,14.9175,0.803812,7.93618,-28.023,1.87713,4.01221,-11.3621,-1.63003e-14,6.04305e-14,38.547,33.8941,-28.1025,56.795,-30.2739,-10.0684,20.6247,7.12502,15.9178,-8.74116,-1.63003e-14,6.04305e-14,15.0954,20.4248,1.86129,57.352,7.97734,-43.5317,10.0268,7.12502,-16.3704,39.3559,-20.9718,4.41274,13.8152,45.8694,-23.9364,-5.05309,23.5883,-6.61331,-3.16668,-19.0368,30.1564,-20.9267,-7.58599,-16.7297
8.81523,17.5715,-19.5203,1.25515,21.8276,-0.866223,5.14591,0.962755,1.02547,-7.52948,0.965383,-5.28503,-10.8743,0.135302,-6.45863,1.11777,5.12551,14.6539,1.18494,7.85479,-27.9055,1.93373,3.96102,-11.2745,-3.02153e-14,-3.33958e-14,38.7188,34.4144,-27.5276,56.9814,-30.6162,-9.97508,20.9372,7.12502,16.0076,-8.42143,-3.02153e-14,-3.33958e-14,14.8817,20.1378,1.95212,57.5338,7.85756,-43.3613,10.1016,7.12502,-16.2063,39.4442,-20.7739,5.22635,13.7405,44.1598,-23.4389,-5.1226,21.9815,-6.14863,-3.79975,-18.2056,29.1802,-19.8744,-9.23286,-14.5267
8.75408,17.6274,-19.4122,1.16231,23.4313,-1.16767,5.28394,0.873581,1.16553,-7.71877,0.851979,-5.3316,-11.1875,0.0552579,-6.59347,1.44895,4.91211,14.5471,1.57972,7.67696,-27.9739,1.93624,3.88222,-11.3042,1.51076e-14,6.04305e-14,38.8001,35.2131,-27.015,57.0803,-30.6705,-10.2551,20.844,7.12502,15.738,-8.5361,1.51076e-14,6.04305e-14,14.7078,19.6046,1.94344,57.7571,8.12472,-42.9994,9.89744,7.12502,-15.8578,39.2681,-20.5501,6.43864,13.5785,42.3915,-22.9194,-3.97941,25.0573,-5.80005,-4.31482,-17.3662,28.3386,-18.6001,-10.7428,-12.8891
8.69138,17.6746,-19.3059,1.26398,25.052,-1.08639,5.2522,0.87114,0.986083,-7.56727,0.822277,-5.51838,-11.0012,0.0560916,-6.68386,1.15825,4.78086,14.3752,1.66208,7.49216,-28.0343,1.96489,3.76994,-11.2958,8.78628e-14,1.27222e-14,38.9874,35.2537,-26.2983,57.2834,-30.7816,-10.3344,20.4897,7.12502,15.6616,-8.89637,8.78628e-14,1.27222e-14,14.9183,19.699,2.23769,57.9964,9.00539,-42.8815,9.21049,7.12502,-15.7442,38.5901,-20.2939,7.69916,12.9603,40.6338,-22.2674,-1.83786,28.2491,-5.57849,-4.80873,-16.9536,27.5702,-17.2421,-12.062,-10.7464
8.62731,17.7286,-19.1978,1.26532,26.6385,-1.11321,5.17736,0.889282,0.944512,-7.13489,0.845978,-5.68973,-10.4638,0.0864165,-6.82409,0.186203,4.74482,14.0965,1.81686,7.38797,-27.919,2.14666,3.64548,-11.1742,-9.58142e-14,2.54444e-14,39.3221,34.726,-25.5484,57.5416,-30.8159,-10.3076,20.6448,7.12502,15.6875,-8.73923,-9.58142e-14,2.54444e-14,15.207,20.1945,2.62567,58.2046,9.64655,-43.2716,9.26732,7.12502,-16.1199,38.6169,-19.9694,8.66257,12.5597,38.9371,-20.9113,-0.817668,26.0367,-5.3273,-5.398,-16.4349,26.8009,-15.9056,-13.0764,-8.24013
8.56637,17.7997,-19.0877,1.34748,28.2214,-1.02872,5.07051,0.875006,0.798286,-6.82791,0.812171,-5.89031,-10.0604,0.0901555,-6.93498,-1.02045,4.70502,13.6984,2.67103,7.39482,-27.5249,2.57109,3.52734,-10.9196,2.14687e-14,-2.22639e-14,39.4826,34.476,-25.0923,57.867,-30.7869,-10.2683,20.5791,7.12502,15.7253,-8.80199,2.14687e-14,-2.22639e-14,15.435,20.5884,3.03159,58.3537,9.38341,-43.6454,10.0054,7.12502,-16.4798,39.3254,-19.8005,9.31858,12.0531,37.3252,-19.0213,-0.231901,23.4706,-5.1582,-5.95099,-16.0485,26.1037,-14.3795,-13.8261,-5.85222
8.5063,17.8563,-18.9794,1.53559,29.7847,-0.976603,4.97446,0.869194,0.634544,-6.82311,0.781627,-6.07441,-10.0033,0.0834346,-7.03696,-1.46895,4.59112,13.3905,3.41276,7.3384,-27.1406,2.81524,3.43779,-10.7157,1.19271e-15,5.88403e-14,39.2831,34.6914,-24.8883,58.2261,-30.9338,-10.4961,20.4572,7.12502,15.5058,-8.941,1.19271e-15,5.88403e-14,15.649,20.6849,3.53064,58.4299,9.01789,-43.577,9.63909,7.12502,-16.414,38.9646,-19.7486,10.0102,11.5155,35.7449,-16.9478,1.23984,23.9613,-5.20369,-6.17453,-15.6283,25.5373,-12.7075,-14.6996,-3.78954
8.44407,17.8969,-18.8701,1.57355,31.2616,-1.2789,5.02199,0.89119,0.757481,-6.95594,0.817777,-6.13058,-10.1758,0.083829,-7.18623,-0.76283,4.40986,13.3648,3.02878,7.06648,-27.1432,2.51704,3.37363,-10.7427,-5.56597e-15,-9.54166e-15,39.0377,35.0286,-24.7345,58.479,-30.9584,-10.4011,20.887,7.12502,15.5974,-8.50415,-5.56597e-15,-9.54166e-15,15.6934,20.4495,3.85207,58.5343,9.64334,-43.2682,8.06554,7.12502,-16.1166,37.4154,-19.6688,11.0088,11.3205,34.195,-14.6961,3.01675,25.7724,-5.29747,-6.32739,-14.8519,24.9886,-11.0569,-15.6018,-2.72274
8.38174,17.944,-18.7596,1.61707,32.8022,-1.47519,5.00091,0.937956,0.702573,-6.94249,0.883729,-6.09365,-10.1394,0.12517,-7.12029,0.00643391,4.16997,13.2029,2.43559,6.68693,-27.2981,2.12813,3.26935,-10.8061,-3.06128e-14,5.08889e-14,39.097,35.2914,-24.1563,58.5924,-30.6327,-10.0735,21.4007,7.12502,15.9128,-7.96557,-3.06128e-14,5.08889e-14,15.5413,19.7488,4.19609,58.8337,8.86398,-44.8474,12.2506,7.12502,-17.6368,41.4707,-19.5373,11.8803,11.0672,32.7391,-12.4926,4.6457,27.6985,-5.33105,-6.7709,-14.2009,24.3993,-9.50341,-16.1703,-1.43754
8.31662,17.9969,-18.6473,1.59818,34.403,-1.59815,5.03178,0.980599,0.5279,-6.81974,0.93228,-6.08355,-10.0153,0.169827,-7.00835,-0.133847,3.97834,13.0282,2.90248,6.52025,-27.3461,2.24031,3.15928,-10.7999,-4.73108e-14,2.38542e-14,39.2394,35.486,-23.3866,58.7725,-30.479,-10.1681,21.3775,7.12502,15.8217,-7.99596,-4.73108e-14,2.38542e-14,15.6972,19.8799,4.88175,58.8222,8.69429,-44.6982,12.37,7.12502,-17.4932,41.603,-19.3173,12.5195,10.8157,31.3692,-10.4799,6.25513,28.817,-5.26002,-7.28347,-13.6239,23.7725,-7.94948,-16.5732,0.748564
8.25,18.0456,-18.5286,1.5513,35.9325,-1.59932,5.17816,1.01308,0.424124,-6.64973,0.956911,-6.28537,-9.91138,0.18768,-7.17283,-0.685581,3.83239,12.596,3.20933,6.33961,-27.131,2.36405,3.01842,-10.6349,-5.725e-14,-3.65764e-14,39.128,35.396,-23.0847,59.0852,-30.7731,-10.3103,20.5379,7.12502,15.6849,-8.84636,-5.725e-14,-3.65764e-14,16.0718,20.3082,5.30364,58.7027,9.29742,-43.3984,10.0567,7.12502,-16.242,39.3964,-19.012,13.1871,10.5307,30.1493,-9.2046,7.91421,25.8107,-4.99977,-7.673,-13.1533,23.0273,-6.33573,-16.8933,3.47441
8.18545,18.0939,-18.4094,1.59407,37.4229,-1.41936,5.46569,1.04783,0.510796,-6.57867,0.977464,-6.75918,-10.0027,0.170572,-7.7664,-1.01059,3.67274,12.5688,3.65743,6.15732,-26.7273,2.49188,2.89094,-10.4872,1.0138e-13,-2.06736e-14,38.5953,35.2918,-23.4603,59.3599,-31.3575,-10.1363,19.3235,7.12502,15.8524,-10.0475,1.0138e-13,-2.06736e-14,16.5639,20.5158,5.37072,58.7528,10.6296,-41.803,7.30564,7.12502,-14.7053,36.7641,-18.6798,13.8829,10.1206,29.0649,-8.45694,9.84717,20.7619,-4.67873,-8.17744,-12.8325,22.2006,-4.70867,-16.9955,6.25924
8.11976,18.1358,-18.2922,1.56055,38.9131,-1.44959,5.62742,0.901151,0.640112,-6.45752,0.775609,-7.0456,-9.99448,0.0530529,-8.13808,-1.30275,3.71367,12.5461,3.9329,6.22957,-26.4112,2.62486,2.89825,-10.3588,-1.19271e-14,-5.40694e-14,38.845,35.3583,-23.5511,59.5014,-31.6977,-9.86715,18.9894,7.12502,16.1116,-10.3608,-1.19271e-14,-5.40694e-14,16.1322,20.1378,4.74257,59.0908,10.0249,-43.0031,9.76876,7.12502,-15.8613,39.1391,-18.3671,14.6542,9.84298,28.0283,-7.13961,11.9943,21.0981,-4.49578,-8.60147,-12.3358,21.4909,-3.20513,-17.232,8.59598
8.0526,18.1663,-18.1686,1.48821,40.3784,-1.72471,5.52535,0.914148,0.612277,-6.3108,0.80191,-7.07799,-9.76538,0.0784499,-8.1465,-1.34217,3.6045,12.2735,3.89386,6.06511,-26.2163,2.57066,2.81831,-10.2419,6.52014e-14,6.99722e-14,38.9585,35.3539,-23.1898,59.5262,-31.7755,-10.0386,19.2976,7.12502,15.9465,-10.0659,6.52014e-14,6.99722e-14,16.0456,20.0337,4.92453,59.2106,9.79655,-43.3782,10.5875,7.12502,-16.2225,39.9288,-18.0884,15.5739,9.74847,27.0841,-5.52673,13.6385,25.4014,-4.54978,-8.7443,-11.6389,20.9758,-2.30745,-17.5004,7.87687
7.9803,18.2007,-18.0468,1.21743,41.859,-2.3502,5.654,0.937623,0.906018,-6.33685,0.859864,-7.1134,-9.86143,0.0810655,-8.37472,-1.19493,3.45095,12.1339,3.94493,5.86378,-26.0083,2.50374,2.73045,-10.1527,5.12864e-14,3.81667e-14,38.743,35.4325,-23.1968,59.5098,-32.0552,-10.0759,19.2781,7.12502,15.9106,-10.0883,5.12864e-14,3.81667e-14,16.2231,19.8526,5.23536,59.136,9.98969,-43.5544,10.5628,7.12502,-16.3922,39.8901,-17.838,16.5643,10.0273,26.3487,-3.968,14.3865,28.9547,-4.76344,-9.15777,-10.5481,20.5462,-1.42352,-17.4375,7.44286
7.90738,18.2352,-17.9308,0.857551,43.4246,-2.86982,5.95651,0.905083,1.20045,-6.30042,0.836606,-7.20282,-10.0052,0.0399471,-8.65967,-1.15934,3.31141,12.1334,4.11915,5.69488,-25.8177,2.50371,2.64686,-10.0943,-2.62396e-14,4.13472e-14,38.5315,35.4701,-23.2291,59.6592,-32.2698,-9.79136,19.1263,7.12502,16.1846,-10.218,-2.62396e-14,4.13472e-14,16.3201,19.6969,5.38374,59.0701,10.2503,-43.6992,10.0041,7.12502,-16.5316,39.3199,-17.4571,16.8909,10.3543,25.8512,-2.32165,15.1702,31.3221,-4.88463,-9.87237,-9.56889,20.1414,0.651112,-17.3358,15.2094
7.84211,18.2562,-17.8093,0.820824,45.0692,-2.81471,6.17773,0.798932,1.09046,-6.20953,0.671175,-7.37797,-10.0655,-0.039068,-8.77753,-1.06639,3.21146,11.974,4.19383,5.56561,-25.5653,2.46791,2.58902,-9.98055,-1.10922e-13,5.08889e-14,38.611,35.6826,-22.9676,59.7888,-32.3375,-10.2425,19.0612,7.12502,15.7502,-10.318,-1.10922e-13,5.08889e-14,16.2486,19.5101,5.34538,58.9564,10.3895,-43.7787,9.46639,7.12502,-16.6081,38.7758,-16.9142,16.7196,10.2625,25.5417,-0.62986,16.1328,33.4529,-4.90966,-10.3163,-9.1946,19.7334,0.483063,-17.6236,9.5126
7.77617,18.2703,-17.6804,0.939499,46.6772,-2.79959,6.16038,0.692172,0.904113,-6.17073,0.506132,-7.49835,-10.0404,-0.106722,-8.77902,-1.04524,3.13391,11.8206,4.4127,5.49367,-25.3328,2.49845,2.54823,-9.87317,7.55382e-15,3.49861e-14,38.7898,35.8811,-22.7113,59.7891,-32.4131,-10.8748,19.0193,7.12502,15.1411,-10.4068,7.55382e-15,3.49861e-14,16.034,19.122,5.06828,58.9132,11.0494,-44.1012,9.19384,7.12502,-16.9186,38.4769,-16.5062,16.7811,10.1954,25.3528,0.654516,16.7967,34.7727,-5.10816,-10.5164,-8.73012,19.2566,0.451568,-18.0231,3.78517
7.70997,18.2812,-17.5478,1.21488,48.2945,-2.69067,5.95683,0.569362,0.59681,-6.00026,0.321057,-7.60676,-9.75836,-0.16317,-8.67451,-1.25981,3.13273,11.5711,4.42858,5.46357,-24.9741,2.51835,2.52116,-9.6938,1.39149e-14,-6.67916e-14,39.0366,35.7281,-22.6102,59.7447,-32.3157,-11.2173,19.1844,7.12502,14.8112,-10.2663,1.39149e-14,-6.67916e-14,15.7009,18.8292,4.64523,59.0543,12.4302,-44.6158,8.84677,7.12502,-17.4139,38.0867,-16.1375,16.5924,10.1291,25.1162,1.74599,17.6929,36.7985,-5.4687,-10.875,-8.27074,18.848,1.1717,-18.2072,4.91142
7.64827,18.2871,-17.4146,1.37591,49.9544,-2.51147,5.88051,0.480248,0.277483,-5.7381,0.179962,-7.7641,-9.44426,-0.198055,-8.62551,-1.17534,3.15017,11.3441,3.89067,5.35347,-24.4365,2.30939,2.49935,-9.45941,1.51076e-14,4.45278e-14,39.1392,35.5496,-22.4655,59.7284,-32.3158,-11.5887,19.6536,7.12502,14.4533,-9.82303,1.51076e-14,4.45278e-14,15.6932,18.782,4.58428,59.3367,13.1863,-44.3309,10.6912,7.12502,-17.1397,39.9552,-15.4533,16.1261,10.1308,24.7408,2.90339,18.7409,39.3475,-5.75136,-11.323,-7.89746,18.6575,1.36486,-18.4655,5.84251
7.58597,18.2806,-17.2859,1.12219,51.5916,-2.82065,6.02876,0.515129,0.364328,-5.69618,0.22653,-7.96107,-9.48318,-0.187081,-8.91186,-0.601104,2.94044,11.6696,3.55263,5.00675,-24.2011,2.04567,2.38631,-9.45981,-4.11484e-14,-4.13472e-14,38.6629,35.6207,-22.4825,59.7806,-32.5553,-11.7353,20.0305,7.12502,14.312,-9.45624,-4.11484e-14,-4.13472e-14,16.3423,19.1325,5.10366,58.642,12.1124,-43.5075,8.03789,7.12502,-16.3471,37.3689,-14.7233,15.6187,10.5447,24.3465,3.47904,19.8252,40.1362,-5.9914,-11.6374,-7.19715,18.4675,1.3445,-18.7597,5.47226
7.52386,18.2645,-17.1589,0.923929,53.2336,-3.16182,6.16341,0.537561,0.506668,-5.71322,0.260121,-8.16163,-9.5819,-0.189593,-9.23856,-0.296277,2.61766,12.0442,3.79487,4.62593,-24.3107,1.99482,2.21459,-9.59196,-4.29375e-14,5.725e-14,38.1787,35.6692,-22.5907,59.8223,-32.6961,-11.7933,19.8107,7.12502,14.2562,-9.67997,-4.29375e-14,5.725e-14,16.9412,19.2469,5.53331,58.1565,11.5556,-43.0068,6.4577,7.12502,-15.8649,35.8278,-14.1415,15.0095,10.9723,23.965,3.46022,20.8298,40.0049,-6.33162,-11.8694,-6.51275,18.2259,1.104,-18.7854,3.01281
7.46576,18.2643,-17.0283,1.12694,54.8604,-2.95598,6.10386,0.457686,0.236883,-5.50021,0.135638,-8.33422,-9.3321,-0.222457,-9.2423,-0.550911,2.46779,12.1427,4.18539,4.48145,-24.4001,2.12487,2.11579,-9.64801,9.93923e-16,-9.54166e-15,38.238,35.4493,-22.4681,59.8518,-32.6316,-11.7807,19.6415,7.12502,14.2683,-9.84833,9.93923e-16,-9.54166e-15,17.032,19.1104,5.48462,58.1807,11.784,-43.7553,8.66656,7.12502,-16.5856,37.9778,-13.4381,14.574,11.0487,23.5565,2.56144,21.5969,38.2982,-6.69236,-12.1593,-6.22396,18.1491,0.900262,-18.365,2.97056
7.40883,18.2596,-16.8991,1.4379,56.4608,-2.84264,5.82508,0.313456,-0.0562985,-5.34451,-0.0622976,-8.38492,-9.02477,-0.285393,-9.07763,-0.655289,2.43584,11.9891,4.32414,4.45434,-24.259,2.17027,2.09198,-9.56941,-8.94531e-15,-4.13472e-14,38.6202,35.2805,-22.078,59.9439,-32.6649,-11.5679,20.0156,7.12502,14.4734,-9.45964,-8.94531e-15,-4.13472e-14,16.8595,19.5423,5.44532,57.6048,9.80112,-44.2936,8.45301,7.12502,-17.1038,37.7201,-12.8971,13.9771,11.2275,23.1403,1.41328,22.433,35.9699,-7.26011,-12.4254,-5.81381,18.2272,0.745634,-17.5608,5.78633
7.35415,18.2269,-16.7729,1.5503,58.0787,-3.20295,5.50378,0.177762,-0.068147,-5.38513,-0.226946,-8.39537,-8.90557,-0.359787,-9.0513,-0.554661,2.38457,11.917,4.3929,4.38852,-24.0008,2.15081,2.06617,-9.46839,-6.54002e-14,3.18055e-15,38.8587,35.3558,-21.767,60.013,-32.7929,-11.616,20.2195,7.12502,14.427,-9.2591,-6.54002e-14,3.18055e-15,16.6415,19.5395,5.26289,57.3909,8.93967,-45.8498,8.30593,7.12502,-18.6012,37.4366,-12.6233,12.8335,11.7796,22.6865,1.41098,23.2082,37.1036,-8.07812,-12.5263,-5.12633,18.4419,-0.259628,-16.6843,3.31385
7.30093,18.1843,-16.649,1.79597,59.6185,-3.33664,5.26692,0.0850406,-0.15016,-5.42517,-0.347386,-8.50555,-8.83098,-0.411994,-9.10773,-0.504696,2.31748,12.0651,4.55828,4.31017,-23.7881,2.17092,2.02971,-9.42634,-2.50469e-14,1.27222e-14,38.979,35.4466,-21.6002,59.9971,-32.8153,-11.9614,20.0715,7.12502,14.0942,-9.43048,-2.50469e-14,1.27222e-14,16.5456,19.2673,4.96928,57.5025,10.8949,-46.4916,6.94634,7.12502,-19.2185,36.0168,-12.2933,11.8999,12.2343,22.2267,2.29614,23.4109,41.3022,-8.86572,-12.7806,-4.63411,18.855,-1.74478,-15.3679,-1.02921
7.24372,18.1384,-16.5282,1.98165,61.0128,-3.51481,5.17017,0.00892252,-0.252308,-5.53422,-0.454427,-8.50939,-8.91009,-0.458926,-9.0425,-0.275218,2.27301,11.843,4.64725,4.26489,-23.4401,2.13362,2.01988,-9.26705,2.78299e-15,9.54166e-15,39.144,35.5312,-21.3834,60.0077,-32.7721,-11.9261,19.9127,7.12502,14.1282,-9.58692,2.78299e-15,9.54166e-15,16.3482,19.291,4.89592,57.5772,13.8626,-44.9142,3.5632,7.12502,-17.7011,32.7775,-12.0448,11.4221,12.7158,21.9555,2.46777,23.2813,44.1562,-9.52101,-12.6516,-4.15948,19.1707,-3.19305,-13.6577,-2.98178
7.18764,18.1006,-16.4053,2.04136,62.3285,-3.77324,5.17038,-0.0325115,-0.292314,-5.63474,-0.514126,-8.51124,-9.03062,-0.488044,-9.02061,0.0648339,2.22079,11.5006,4.51121,4.17062,-23.0025,2.00114,1.99929,-9.05594,8.94531e-15,-1.59028e-14,39.1031,35.4812,-21.3548,60.1342,-32.5208,-11.6075,19.9174,7.12502,14.4352,-9.56055,8.94531e-15,-1.59028e-14,16.0864,18.9997,4.70317,57.633,14.4052,-44.1638,3.53496,7.12502,-16.9789,32.8129,-11.9829,10.7491,13.3117,22.0987,0.766989,23.3995,43.9261,-9.83011,-11.5856,-3.83811,19.0527,-5.19858,-11.454,-10.5465
7.13821,18.092,-16.2828,2.55118,63.542,-3.51511,5.1572,-0.033387,-0.458744,-5.7287,-0.535266,-8.69994,-9.13454,-0.493811,-9.1425,0.460663,2.13436,11.557,4.27866,4.02186,-22.7851,1.83476,1.96111,-8.99902,3.00165e-14,-8.90555e-14,38.8352,35.3936,-21.5612,60.3173,-32.2557,-11.4904,20.3412,7.12502,14.5481,-9.12865,3.00165e-14,-8.90555e-14,15.7796,17.8578,4.14449,57.9591,11.9542,-45.673,11.4679,7.12502,-18.4311,40.6147,-12.0882,10.2509,13.5727,22.5898,-1.54567,23.3239,43.7577,-9.86142,-10.7371,-3.88443,18.7452,-6.94869,-8.12947,-17.7759
7.09169,18.0918,-16.1683,3.00415,64.6485,-3.39668,5.15575,-0.0301964,-0.524149,-5.91476,-0.547949,-8.8888,-9.34899,-0.507177,-9.33338,0.646257,2.07168,11.8479,4.35663,3.9568,-22.7384,1.81584,1.94247,-9.04224,5.96354e-16,2.54444e-14,38.5693,35.4339,-21.8374,60.4232,-32.1846,-11.4315,20.7297,7.12502,14.6048,-8.73609,5.96354e-16,2.54444e-14,15.5814,17.5007,3.83376,57.8362,11.4584,-45.7089,11.0571,7.12502,-18.4657,40.2007,-12.2618,9.62083,13.9306,23.1128,-4.62909,22.9212,41.3718,-9.95853,-10.2836,-3.84699,18.6759,-8.21357,-4.35459,-18.1074
7.04206,18.0481,-16.0607,3.24574,65.6225,-3.47834,5.11804,0.0741342,-0.584829,-5.98185,-0.410748,-8.96665,-9.3807,-0.436886,-9.40858,0.215808,1.9741,11.9138,4.83263,3.8735,-22.708,2.01069,1.86351,-9.04493,2.98177e-14,6.36111e-15,38.4425,35.2822,-21.8236,60.4972,-32.3321,-11.4987,20.7365,7.12502,14.54,-8.73394,2.98177e-14,6.36111e-15,15.3391,17.2264,3.62592,58.0999,11.8589,-45.462,9.92339,7.12502,-18.2281,39.0893,-12.7039,8.09539,14.6676,23.9615,-7.29811,22.4591,39.3749,-9.84208,-9.45211,-3.73946,18.3189,-9.12888,-0.709153,-15.9673
6.98914,17.9586,-15.9585,3.85697,66.4504,-3.14621,5.05068,0.308765,-0.83573,-5.92706,-0.104423,-9.03312,-9.22851,-0.261665,-9.36823,-0.381187,1.83589,11.5687,5.22129,3.70455,-22.5114,2.18567,1.73181,-8.91441,-3.18055e-15,-6.36111e-14,38.2632,34.8566,-21.5733,60.6741,-32.5409,-11.6229,20.5653,7.12502,14.4204,-8.91369,-3.18055e-15,-6.36111e-14,15.5859,17.3061,3.77637,57.9205,12.0353,-44.8897,8.84595,7.12502,-17.6775,38.0624,-13.3332,6.78711,15.2515,24.7101,-6.48251,22.747,46.1151,-9.81469,-8.5433,-3.84829,18.2596,-10.0673,3.40175,-17.2847
6.94095,17.9448,-15.8527,4.15342,67.3279,-3.23181,4.98213,0.443032,-0.841978,-5.95834,0.0831932,-9.07633,-9.19326,-0.166957,-9.43689,-0.589219,1.80942,11.2461,5.22504,3.64358,-22.2104,2.20264,1.68964,-8.74976,1.19271e-14,-1.27222e-14,38.1036,34.5187,-21.5341,60.8912,-32.5548,-11.5916,20.4886,7.12502,14.4505,-8.98832,1.19271e-14,-1.27222e-14,15.5568,17.7496,4.16104,58.0958,11.5854,-44.251,8.76444,7.12502,-17.0628,38.0351,-13.6484,6.2214,15.873,25.4194,-11.0866,21.4384,40.7296,-9.95429,-8.06608,-3.81672,18.529,-11.2974,7.61871,-16.9975
6.89373,17.9085,-15.7509,3.66971,68.3013,-4.06709,5.02168,0.449524,-0.647834,-6.07231,0.106644,-9.00197,-9.33936,-0.171679,-9.48001,-0.509748,1.83282,11.1236,5.12956,3.65649,-22.0108,2.15866,1.70549,-8.6575,-3.04141e-14,2.22639e-14,38.0823,34.4337,-21.6332,60.9285,-32.5412,-11.587,20.807,7.12502,14.4549,-8.6696,-3.04141e-14,2.22639e-14,15.0176,17.747,4.14827,58.5716,12.012,-44.2623,8.98607,7.12502,-17.0737,38.2558,-14.0003,5.27446,16.9467,26.057,-13.9884,19.9053,36.9215,-9.9971,-7.88551,-3.39056,18.8594,-13.3577,10.0489,-7.50246
6.84716,17.8583,-15.6475,3.48087,69.1941,-4.47443,5.12588,0.468824,-0.708289,-6.14318,0.122585,-8.96125,-9.4769,-0.161551,-9.41034,-0.436786,1.83889,10.925,5.10453,3.64943,-21.7007,2.12911,1.70828,-8.51501,-1.0635e-14,-8.90555e-14,38.0516,34.3521,-21.8801,60.858,-32.4351,-11.6716,20.9959,7.12502,14.3734,-8.48646,-1.0635e-14,-8.90555e-14,14.5832,17.8714,4.32855,58.9131,12.7688,-44.5835,9.38682,7.12502,-17.3829,38.6295,-14.5566,4.3195,17.8549,26.9343,-15.5649,18.6886,36.4511,-9.69964,-7.39285,-3.18192,18.7871,-14.9156,11.4163,-1.75384
6.79623,17.7978,-15.5476,3.80302,70.0044,-4.39371,5.17229,0.519107,-0.889027,-6.19647,0.170201,-9.06093,-9.55829,-0.128464,-9.43194,-0.485672,1.82939,10.9159,5.16889,3.621,-21.4122,2.14628,1.69267,-8.41576,-2.48481e-14,-4.45278e-14,37.9058,34.1722,-22.4044,60.9076,-32.3547,-11.915,20.9323,7.12502,14.1389,-8.56661,-2.48481e-14,-4.45278e-14,14.3461,18.3044,4.41218,59.0209,12.7018,-44.5409,9.16822,7.12502,-17.3418,38.4146,-15.2394,3.99225,18.407,27.736,-16.2177,18.308,38.8025,-9.65545,-6.42591,-3.24275,18.8919,-14.7878,13.4787,-9.65916
6.74097,17.7508,-15.4507,4.20615,70.8638,-4.2252,5.27832,0.593586,-1.0869,-6.25459,0.243125,-9.22403,-9.67863,-0.0845208,-9.5244,-0.483276,1.73291,11.2989,5.15592,3.47729,-21.4644,2.12408,1.62841,-8.5086,-1.03169e-13,6.67916e-14,37.4933,33.9217,-23.0773,60.9809,-32.411,-12.1751,20.9186,7.12502,13.8883,-8.59763,-1.03169e-13,6.67916e-14,14.1776,17.9361,4.13541,59.8649,14.6649,-47.1156,12.6075,7.12502,-19.8185,41.6171,-15.8943,4.2891,18.8209,28.5985,-17.4048,17.5255,39.6835,-9.60352,-5.82507,-3.27503,18.9976,-14.4737,14.9553,-15.6195
6.68707,17.7185,-15.3535,5.09841,71.8723,-3.49053,5.42104,0.55613,-1.52784,-6.20482,0.146793,-9.34165,-9.72543,-0.0998789,-9.39219,-0.490269,1.72573,11.4768,4.88662,3.42083,-21.5107,2.04318,1.61148,-8.55632,3.49861e-14,6.36111e-15,37.3052,33.5756,-23.6064,61.0316,-32.4414,-12.0612,20.8002,7.12502,13.998,-8.70855,3.49861e-14,6.36111e-15,13.9663,18.439,4.05396,60.0165,14.8715,-46.3155,12.1349,7.12502,-19.0491,41.2221,-16.5196,4.53762,19.0172,29.6045,-19.0237,16.0396,38.0531,-9.45517,-5.86526,-3.44219,19.0661,-15.2648,15.0055,-13.1276
6.63659,17.6798,-15.256,5.80826,72.9425,-2.92111,5.61245,0.415745,-1.9373,-6.15283,-0.0876284,-9.33508,-9.81557,-0.183024,-9.11855,-0.801365,1.89347,11.2343,4.91053,3.62594,-21.2707,2.13344,1.69421,-8.42017,2.75814e-14,-2.22639e-14,37.4265,33.3799,-24.0263,61.0918,-32.3824,-11.9733,20.5958,7.12502,14.0827,-8.90702,2.75814e-14,-2.22639e-14,13.3185,18.7422,3.80518,60.2817,15.6169,-46.4273,11.1499,7.12502,-19.1566,40.2265,-17.2578,4.5632,19.2395,30.8016,-20.0892,14.9749,36.2248,-9.27236,-5.73504,-3.51263,19.1029,-15.9642,14.0747,-9.42434
6.59028,17.6409,-15.1614,5.75156,74.0481,-3.10667,5.89648,0.32761,-2.06452,-6.19195,-0.238309,-9.29686,-10.0506,-0.250528,-8.997,-1.19385,1.9928,10.8922,5.32307,3.78173,-20.8204,2.33277,1.73745,-8.19886,-5.26282e-14,9.54166e-15,37.2331,33.3796,-24.597,61.2065,-32.26,-12.2064,20.4949,7.12502,13.8581,-9.0234,-5.26282e-14,9.54166e-15,12.8176,18.9361,3.80354,60.4072,15.6145,-46.8326,10.3784,7.12502,-19.5463,39.4158,-17.9463,4.15442,19.7435,32.0141,-16.6222,17.6902,50.9241,-9.12634,-5.562,-3.31258,19.3588,-16.2947,13.0471,-9.18748
6.54412,17.609,-15.0685,5.48663,75.3586,-3.48386,6.20114,0.205925,-2.07991,-6.19826,-0.425088,-9.33526,-10.27,-0.34556,-9.02207,-1.05622,1.9872,10.6881,5.20312,3.72781,-20.3075,2.25335,1.72483,-7.99074,-5.96354e-16,-3.18055e-14,36.7582,33.2926,-25.3748,61.4482,-32.3887,-12.284,20.64,7.12502,13.7833,-8.8834,-5.96354e-16,-3.18055e-14,12.6114,19.4935,3.99304,60.3898,13.5696,-46.614,12.1874,7.12502,-19.3362,41.2461,-18.6086,3.21514,20.4105,33.2732,-17.7964,16.592,49.8643,-9.11176,-5.73841,-3.04931,19.7487,-16.7004,12.0182,-8.28515
6.49624,17.5588,-14.9686,5.55363,76.8264,-3.44353,6.49031,0.0417955,-2.34406,-6.06239,-0.683988,-9.38251,-10.3265,-0.45015,-8.88631,-0.879969,1.99608,10.6262,4.82967,3.66385,-19.9422,2.09908,1.71632,-7.85808,4.83295e-14,-3.81667e-14,36.2435,32.9777,-26.2482,61.6419,-32.5179,-12.1993,20.7738,7.12502,13.865,-8.74408,4.83295e-14,-3.81667e-14,12.5733,20.4777,4.22758,59.987,10.9032,-46.0612,12.0107,7.12502,-18.8046,41.1217,-19.273,2.72706,20.8353,34.516,-17.7502,16.7386,51.2161,-9.0849,-5.73362,-2.8736,20.0778,-16.5357,10.9092,-8.90972
6.45689,17.5141,-14.8651,6.37976,78.2253,-2.50196,6.73363,-0.0637721,-2.94832,-5.80431,-0.886056,-9.41429,-10.2003,-0.494362,-8.52863,-1.02718,1.96629,11.0195,4.67525,3.59284,-20.1765,2.08005,1.68175,-8.00751,-4.41053e-15,-3.18055e-15,35.8191,32.5983,-26.9838,61.7149,-32.4858,-12.1079,20.763,7.12502,13.953,-8.74881,-4.41053e-15,-3.18055e-15,12.6116,21.2754,4.49132,59.3732,10.3259,-46.1055,7.77553,7.12502,-18.8471,36.8825,-19.7762,2.31285,21.0495,35.7778,-18.6113,16.3746,50.8448,-8.77462,-5.4096,-2.95083,20.2269,-15.82,10.3194,-15.2676
6.42443,17.4771,-14.769,8.10177,79.5324,-0.710666,6.93682,-0.171213,-3.5151,-5.68796,-1.09644,-9.55753,-10.2139,-0.552478,-8.33132,-0.470262,1.86126,11.8273,4.12783,3.41998,-20.7207,1.82018,1.64764,-8.3457,-3.44146e-15,9.85972e-14,35.3305,32.5592,-27.7083,61.8843,-32.6874,-12.2233,20.7706,7.12502,13.8418,-8.74881,-3.44146e-15,9.85972e-14,12.5967,21.5261,4.67014,59.2873,11.1851,-46.6682,6.78636,7.12502,-19.3883,35.8398,-20.2459,1.77649,21.11,36.9037,-20.53,15.241,48.0004,-8.39256,-5.19493,-3.20302,20.3066,-15.5528,9.83834,-19.5671
