JuanDHNZ/ProyectoFinalCD/preprocessing/sports_trials_csv/55_07.csv
root1,root2,root3,root4,root5,root6,lowerback1,lowerback2,lowerback3,upperback1,upperback2,upperback3,thorax1,thorax2,thorax3,lowerneck1,lowerneck2,lowerneck3,upperneck1,upperneck2,upperneck3,head1,head2,head3,rclavicle1,rclavicle2,rhumerus1,rhumerus2,rhumerus3,rradius1,rwrist1,rhand1,rhand2,rfingers1,rthumb1,rthumb2,lclavicle1,lclavicle2,lhumerus1,lhumerus2,lhumerus3,lradius1,lwrist1,lhand1,lhand2,lfingers1,lthumb1,lthumb2,rfemur1,rfemur2,rfemur3,rtibia1,rfoot1,rfoot2,rtoes1,lfemur1,lfemur2,lfemur3,ltibia1,lfoot1,lfoot2,ltoes1
27.3274,17.2671,-30.7342,34.1895,-30.694,5.98197,21.683,-1.68763,1.32793,0.704156,-1.72731,1.50353,-11.3979,-0.832781,1.44893,2.40373,5.52001,14.529,12.1614,8.79054,-16.0356,4.52975,4.32417,-7.13515,-6.04305e-14,-9.93923e-15,-39.8113,-6.35215,-73.3593,49.9542,-3.71198,-16.9625,16.855,7.12502,9.27155,-12.9212,-6.04305e-14,-9.93923e-15,-46.902,-1.55347,81.1712,58.1518,19.1164,-19.1597,28.4416,7.12502,7.15097,58.3008,-59.6585,4.42161,-1.71718,43.8118,-20.0981,-14.5967,-18.0225,-61.6359,-2.17219,-22.5108,39.1389,-13.812,-4.75768,-26.4664
27.3078,17.2973,-30.6867,34.0046,-30.8812,5.73741,21.286,-1.67408,1.17603,0.627813,-1.75518,1.50131,-11.2581,-0.83902,1.52987,2.01662,5.52051,14.8152,11.9723,8.75711,-16.2312,4.55478,4.30093,-7.23809,1.82882e-14,7.63333e-14,-40.0936,-6.68957,-73.1384,49.1877,-3.91693,-16.8657,16.7566,7.12502,9.36496,-13.0154,1.82882e-14,7.63333e-14,-47.0758,-1.35637,80.9326,56.1237,18.0162,-18.3462,28.6205,7.12502,7.93617,58.4515,-59.0047,4.57323,-1.40533,43.3644,-19.9889,-14.2711,-17.4869,-61.0274,-2.00533,-22.3669,38.9756,-13.3265,-5.06096,-24.6432
27.2896,17.3199,-30.6492,34.0298,-31.0435,5.50623,20.769,-1.84052,0.939248,0.403366,-2.02226,1.6273,-11.2059,-0.946645,1.87252,1.93011,5.67323,14.4543,11.7685,8.93065,-16.1302,4.5171,4.37244,-7.12514,-5.76476e-14,-3.10104e-14,-40.2987,-6.38468,-73.0199,48.4049,-4.05766,-16.9318,16.3897,7.12502,9.30114,-13.3851,-5.76476e-14,-3.10104e-14,-47.5884,-0.405619,80.5302,54.42,17.3026,-18.0664,28.5271,7.12502,8.20628,58.3478,-58.6683,4.64409,-1.10965,42.9945,-19.5921,-14.1643,-17.0558,-60.6906,-1.85899,-22.1926,38.7934,-13.0544,-5.11996,-24.4834
27.2675,17.3499,-30.6101,33.8124,-31.2372,5.3299,20.5364,-1.91754,0.708743,0.192729,-2.17144,1.69286,-11.2989,-0.999804,2.1185,1.9396,5.73571,14.3883,11.4999,9.006,-16.23,4.4484,4.40725,-7.13965,-7.59357e-14,2.06736e-14,-40.6288,-6.46982,-72.7563,47.5571,-4.08931,-16.9051,16.4221,7.12502,9.3269,-13.3516,-7.59357e-14,2.06736e-14,-48.0469,0.334296,80.0833,52.88,16.841,-18.4845,28.4778,7.12502,7.80275,58.3138,-58.0896,4.82001,-0.842744,42.6106,-19.2671,-13.9394,-16.3685,-60.0644,-1.696,-22.0642,38.6042,-12.7624,-5.06058,-23.537
27.2388,17.3885,-30.5638,33.38,-31.3016,5.21598,20.3706,-1.97046,0.585219,0.042652,-2.27293,1.675,-11.3684,-1.03954,2.19722,2.04185,5.61568,14.719,11.1703,8.85625,-16.5399,4.33486,4.34633,-7.31062,4.77083e-15,-1.98785e-14,-41.1192,-7.03712,-72.4044,46.8253,-3.964,-16.6845,16.5375,7.12502,9.53981,-13.2266,4.77083e-15,-1.98785e-14,-48.3077,0.466189,79.6845,51.143,16.6793,-18.5154,28.7456,7.12502,7.77293,58.5827,-57.1566,5.05454,-0.596331,42.1534,-19.2036,-13.6639,-15.6927,-59.1114,-1.4822,-22.069,38.2427,-12.216,-5.43946,-20.9883
27.215,17.4171,-30.5241,33.5166,-31.2452,4.87024,19.7108,-2.05317,0.71133,-0.17992,-2.35724,1.71025,-11.2486,-1.0868,2.1672,1.867,5.46287,14.9499,11.0186,8.62953,-16.6693,4.29686,4.23514,-7.40203,-1.14898e-13,3.73715e-14,-41.5391,-7.73033,-72.0473,46.2454,-3.73553,-16.7348,16.3458,7.12502,9.49125,-13.4205,-1.14898e-13,3.73715e-14,-48.4535,0.440122,79.3853,49.3013,16.5982,-18.4353,28.5911,7.12502,7.85023,58.4253,-56.7559,5.16409,-0.167475,41.6912,-18.6383,-13.7784,-16.4285,-58.8147,-1.26106,-21.8204,38.0414,-11.8743,-5.7343,-21.0567
27.1756,17.4879,-30.4543,31.8128,-30.5759,5.04441,20.8674,-2.49555,0.914082,-0.0642949,-2.8641,1.74375,-11.7659,-1.32333,2.29264,1.59647,5.43554,14.9425,10.9621,8.56114,-16.6862,4.31538,4.18998,-7.40212,5.08889e-14,-1.47101e-14,-41.8895,-7.99771,-71.7734,45.7258,-3.74312,-16.9734,16.3209,7.12502,9.26106,-13.4557,5.08889e-14,-1.47101e-14,-48.8284,0.903729,78.984,47.8932,16.3737,-18.2338,28.7209,7.12502,8.04468,58.5478,-54.107,5.47026,0.264131,41.163,-18.4159,-14.2839,-17.4472,-56.5088,-1.63165,-21.7477,37.7471,-12.1131,-5.92525,-23.5247
27.1634,17.4979,-30.4273,32.5928,-31.3273,4.3568,19.8794,-2.29343,0.65306,-0.435096,-2.66977,1.80368,-11.6173,-1.21944,2.4133,1.50561,5.39569,14.8333,10.7481,8.46916,-16.5783,4.24312,4.14318,-7.34778,-3.04141e-14,7.11649e-14,-42.2125,-8.2298,-71.5486,45.179,-3.68526,-17.279,16.1234,7.12502,8.96617,-13.6661,-3.04141e-14,7.11649e-14,-49.2361,1.40617,78.5259,46.6554,16.3146,-18.0153,28.9484,7.12502,8.25557,58.7671,-54.6846,5.77001,0.582859,40.7326,-17.7155,-13.683,-18.2314,-56.834,-1.00145,-21.3624,37.7004,-12.1865,-5.38719,-26.4541
27.1318,17.5291,-30.3875,32.4185,-31.4055,4.25962,19.4175,-2.40543,0.442934,-0.590716,-2.87181,1.81064,-11.5134,-1.30303,2.58083,1.47469,5.32746,14.7504,10.4252,8.33673,-16.4867,4.12355,4.08109,-7.30691,-1.11319e-14,-4.17448e-15,-42.4296,-8.58612,-71.3684,44.6582,-3.48577,-17.7786,15.434,7.12502,8.48397,-14.3756,-1.11319e-14,-4.17448e-15,-49.5315,1.54481,78.2319,45.1816,16.0485,-18.281,28.6032,7.12502,7.99911,58.4318,-54.1191,5.89849,0.756106,40.3641,-17.4278,-13.3522,-17.9285,-56.2848,-0.79742,-21.3311,37.5202,-12.0232,-5.653,-26.4122
27.1055,17.5542,-30.3514,32.2093,-31.6609,3.88956,19.2566,-2.48961,0.243839,-0.7325,-3.01951,1.90179,-11.5613,-1.35583,2.83436,1.47446,5.32557,14.7363,10.1788,8.33437,-16.7137,4.05777,4.075,-7.37862,3.00165e-14,2.88238e-14,-42.6697,-8.69331,-71.135,44.2482,-3.41146,-18.0498,15.2307,7.12502,8.22223,-14.5893,3.00165e-14,2.88238e-14,-49.9847,1.91415,77.9201,43.8856,15.7013,-18.1826,28.7782,7.12502,8.09406,58.6032,-53.5876,6.08228,1.19179,40.1421,-17.1543,-12.7325,-17.6029,-55.6541,-0.427084,-21.1255,37.4795,-11.5934,-5.8679,-25.1661
27.0807,17.5857,-30.315,32.0285,-31.8075,3.50567,19.1399,-2.5641,0.102282,-0.936851,-3.13402,2.04457,-11.7056,-1.39195,3.10852,1.44795,5.26548,14.8227,10.1007,8.27752,-17.0868,4.04656,4.03768,-7.52166,1.80894e-14,1.18277e-14,-43.0602,-8.75574,-70.7931,43.9004,-3.48446,-17.9856,15.795,7.12502,8.28422,-14.0226,1.80894e-14,1.18277e-14,-50.4492,2.32539,77.5913,42.7262,15.5003,-17.7681,29.0643,7.12502,8.4941,58.8734,-53.105,6.22608,1.67494,40.0056,-16.6893,-12.2029,-17.8448,-54.9445,-0.206006,-20.7916,37.2544,-11.2608,-5.73553,-25.9174
27.0557,17.6186,-30.2818,31.9091,-31.8314,3.29469,18.8991,-2.63279,0.0689179,-1.17258,-3.23418,2.04395,-11.8288,-1.43351,3.15216,1.41634,5.0883,15.0191,9.93138,8.02937,-17.2347,3.97286,3.91936,-7.61891,1.47101e-14,-1.60022e-14,-43.5346,-9.08275,-70.5638,43.6525,-3.71674,-17.8148,16.2368,7.12502,8.44903,-13.5742,1.47101e-14,-1.60022e-14,-50.6711,2.2206,77.3004,41.4159,15.2566,-17.724,28.8161,7.12502,8.53666,58.6235,-52.7296,6.17402,2.05979,39.9079,-16.2068,-11.7454,-18.3868,-54.3938,-0.0462874,-20.5979,37.0005,-11.0388,-5.62059,-27.7926
27.0293,17.6512,-30.2529,31.7003,-31.9008,3.21449,18.6757,-2.7569,-0.0808837,-1.36568,-3.44073,1.98815,-11.9045,-1.52044,3.22901,1.43371,5.02294,15.1313,9.61431,7.91154,-17.2319,3.86092,3.87094,-7.64175,9.49197e-15,-4.82053e-15,-43.9027,-9.24771,-70.5303,43.5899,-4.10464,-17.4783,16.3448,7.12502,8.77378,-13.4529,9.49197e-15,-4.82053e-15,-50.8616,2.30783,76.8514,40.1583,14.8287,-17.6757,28.5138,7.12502,8.5833,58.3193,-52.3479,6.09625,2.28826,39.8097,-15.718,-11.1776,-17.8935,-53.8347,0.13509,-20.5726,36.7532,-10.8355,-5.72567,-27.8933
26.9973,17.6938,-30.2243,31.4939,-32.0655,3.02844,18.4168,-2.96468,-0.426748,-1.50425,-3.782,2.11264,-11.8641,-1.65379,3.64765,1.42741,5.18709,15.0504,9.37343,8.13691,-17.51,3.83692,3.97304,-7.70518,3.38136e-14,3.91357e-15,-43.9372,-9.04204,-70.4675,43.374,-4.11805,-16.8097,16.9517,7.12502,9.419,-12.8178,3.38136e-14,3.91357e-15,-51.179,3.08295,76.3035,39.0182,14.5761,-17.4409,28.1787,7.12502,8.80985,57.9748,-51.978,6.28913,2.46705,39.7253,-14.9225,-10.6573,-17.8724,-53.2196,0.33556,-20.4188,36.513,-10.6778,-5.77661,-27.2771
26.9669,17.7412,-30.194,31.4337,-32.3003,2.5684,18.1598,-3.1874,-0.692058,-1.65772,-4.10756,2.38669,-11.831,-1.77929,4.18067,1.63627,5.36687,14.773,8.99928,8.40608,-17.9524,3.74261,4.09706,-7.7925,-2.74323e-14,-1.31198e-14,-43.8079,-8.82521,-70.235,42.8969,-3.52462,-16.3768,17.9932,7.12502,9.8366,-11.7571,-2.74323e-14,-1.31198e-14,-51.6139,4.06664,75.8098,38.0037,14.6224,-17.2207,27.8596,7.12502,9.02236,57.6466,-51.6797,6.51027,2.90526,39.6936,-13.9668,-10.029,-19.6991,-52.6159,0.647024,-20.0294,36.2505,-10.382,-5.7648,-27.0816
26.9455,17.7842,-30.1588,31.2595,-32.4459,2.2325,18.018,-3.38813,-0.768687,-1.82295,-4.37765,2.51701,-11.9019,-1.89284,4.44098,1.82569,5.41275,14.6722,8.61977,8.47694,-18.2944,3.62011,4.13378,-7.88892,4.77083e-14,2.85256e-14,-43.8669,-8.90919,-70.0341,42.5835,-3.25919,-16.6048,18.525,7.12502,9.61666,-11.2355,4.77083e-14,2.85256e-14,-52.0098,4.65815,75.3252,37.1072,14.4479,-17.129,27.7198,7.12502,9.11086,57.503,-51.3097,6.38121,3.35713,39.7521,-13.4929,-8.8117,-19.0485,-51.9087,0.882405,-19.7778,35.9604,-10.0958,-5.79929,-26.8316
26.9216,17.8242,-30.1249,30.8692,-32.581,2.15123,17.9011,-3.46723,-0.912593,-1.88245,-4.52474,2.43818,-11.8862,-1.95594,4.46831,1.51478,5.3534,15.0136,8.55624,8.38585,-18.6442,3.66766,4.07726,-8.06323,3.77691e-15,-2.36554e-14,-44.1095,-9.28523,-70.0411,42.671,-3.65781,-16.7498,18.5168,7.12502,9.47679,-11.2501,3.77691e-15,-2.36554e-14,-52.0594,4.78388,74.7994,36.1187,13.8484,-16.9004,27.8765,7.12502,9.33143,57.65,-50.8797,6.2793,3.5123,39.9236,-13.0878,-7.52133,-16.272,-51.07,1.02044,-19.7295,35.6635,-9.83868,-5.93105,-26.0595
26.8937,17.8621,-30.0982,30.5396,-32.8494,1.96221,17.7863,-3.46015,-1.16184,-1.93942,-4.57684,2.38939,-11.8647,-1.96675,4.5626,1.31668,5.26614,15.3224,8.42781,8.26568,-19.0744,3.67266,4.00909,-8.26544,-4.09496e-14,-5.80451e-14,-44.4147,-9.76219,-69.8849,42.7492,-3.19435,-16.231,18.9812,7.12502,9.9773,-10.7623,-4.09496e-14,-5.80451e-14,-51.9966,4.89287,74.2904,35.1891,13.2485,-16.5145,28.486,7.12502,9.70377,58.2424,-50.6233,6.29884,3.75016,40.198,-12.1107,-6.62173,-16.7684,-50.2602,1.13762,-19.4978,35.365,-9.40856,-5.92319,-25.108
26.8713,17.8976,-30.0729,30.4095,-33.1045,1.63492,17.6131,-3.54733,-1.25495,-2.10432,-4.71172,2.4168,-11.9313,-2.01987,4.67745,1.4871,5.24294,15.3244,8.11215,8.2474,-19.4674,3.56308,4.00292,-8.404,-4.73108e-14,2.8625e-14,-44.6381,-10.5095,-69.3168,42.3048,-1.62299,-14.8423,20.681,7.12502,11.3169,-8.99373,-4.73108e-14,2.8625e-14,-52.1739,5.20612,73.7332,34.4894,12.8999,-16.1595,28.7386,7.12502,10.0463,58.4788,-50.6092,6.1222,4.18835,40.5337,-11.0853,-5.58888,-17.9946,-49.6175,1.24724,-19.1325,35.0893,-9.00352,-5.67944,-25.6027
26.8501,17.9304,-30.0495,30.3903,-33.2352,1.1697,17.4414,-3.69909,-1.18171,-2.28393,-4.88805,2.51901,-12.0189,-2.09969,4.79342,1.47717,5.25481,15.0623,7.97882,8.25615,-19.5967,3.52154,3.99642,-8.4,-2.96189e-14,-4.96962e-14,-44.7556,-10.7691,-69.1777,42.0746,-1.74783,-13.8199,21.2472,7.12502,12.3027,-8.3709,-2.96189e-14,-4.96962e-14,-52.5096,5.59553,73.1627,33.9769,12.6861,-15.7158,28.3863,7.12502,10.4743,58.1054,-50.6496,5.97152,4.72552,40.9232,-10.1957,-4.48521,-18.3698,-49.0281,1.47252,-18.6957,34.8174,-8.75057,-5.55543,-26.7849
26.8211,17.9593,-30.0334,30.3393,-33.5377,0.752344,17.3047,-3.81504,-1.40266,-2.42345,-5.07957,2.63135,-12.0526,-2.16825,5.08995,1.37532,5.25677,14.6494,7.8146,8.22154,-19.5127,3.46453,3.966,-8.29549,-3.95581e-14,2.10712e-14,-44.7888,-10.013,-69.868,42.5043,-3.58173,-14.3794,19.6882,7.12502,11.7633,-9.96143,-3.95581e-14,2.10712e-14,-52.806,6.14185,72.5468,33.5383,12.4497,-15.4809,28.1957,7.12502,10.7009,57.9031,-50.7867,6.02007,5.10593,41.3689,-9.20592,-3.34352,-18.934,-48.4056,1.88842,-18.363,34.5,-8.33486,-5.73401,-26.4643
26.7887,17.9895,-30.0234,30.0864,-34.0723,0.734409,17.1529,-3.80349,-2.07528,-2.52778,-5.21489,2.59639,-12.0139,-2.1883,5.45738,1.35684,5.1725,14.5833,7.36808,8.06338,-19.6803,3.31357,3.8907,-8.34624,-2.46493e-14,3.1408e-14,-44.8309,-9.86536,-70.2367,42.7018,-4.16859,-15.1951,18.8744,7.12502,10.9766,-10.8187,-2.46493e-14,3.1408e-14,-52.9054,6.45991,71.9926,33.1308,12.1007,-15.4428,28.477,7.12502,10.7376,58.1826,-51.0113,6.09174,4.97718,41.8405,-8.07012,-1.91083,-17.412,-47.7709,2.36156,-18.4768,34.1587,-7.76791,-6.00619,-25.0945
26.7592,18.0237,-30.0115,29.7337,-34.4913,0.621458,17.1273,-3.71961,-2.54836,-2.56234,-5.21339,2.53011,-12.0028,-2.1579,5.6497,1.18865,5.03341,14.8397,7.07904,7.84955,-20.0922,3.24635,3.78058,-8.53889,-1.07145e-13,4.73108e-14,-44.8709,-10.7998,-69.9111,42.3822,-3.31105,-15.5525,19.3287,7.12502,10.6319,-10.3823,-1.07145e-13,4.73108e-14,-52.8134,6.31793,71.6647,32.8058,11.9668,-15.4472,28.9841,7.12502,10.7335,58.6899,-51.0405,6.25791,4.88192,42.2766,-6.76374,-0.505096,-13.6514,-46.9898,2.76325,-18.4732,33.831,-7.30947,-6.05993,-24.9938
26.7346,18.0557,-29.9927,29.5404,-34.8147,0.228749,17.0353,-3.80828,-2.6089,-2.57178,-5.34746,2.50017,-11.9429,-2.22118,5.67599,1.03091,5.0468,14.919,6.93544,7.85091,-20.3591,3.24651,3.77128,-8.63936,-5.96354e-14,-1.31198e-14,-44.7645,-11.4217,-69.7877,42.094,-2.31369,-15.9785,19.8637,7.12502,10.2209,-9.86804,-5.96354e-14,-1.31198e-14,-52.8788,6.43214,71.1858,32.6558,12.0582,-15.5913,29.11,7.12502,10.5944,58.823,-51.0323,6.30243,5.12919,42.6433,-5.45465,0.851604,-10.8852,-46.2181,3.09508,-18.1634,33.517,-6.98137,-5.86656,-27.3874
26.7141,18.0894,-29.9727,29.3024,-35.0599,0.0459829,16.9744,-3.98611,-2.70552,-2.69431,-5.60971,2.47866,-12.0121,-2.33428,5.77569,1.00152,5.09153,14.9597,6.79368,7.91094,-20.6781,3.23656,3.79457,-8.75134,-3.53837e-14,2.38542e-15,-44.8268,-11.5476,-69.8421,42.0829,-1.86325,-15.9547,20.2501,7.12502,10.2438,-9.48045,-3.53837e-14,2.38542e-15,-53.1853,6.76979,70.5523,32.7018,12.0662,-15.1775,29.2615,7.12502,10.9936,58.9536,-50.9916,6.06896,5.24537,42.9554,-4.33551,2.32825,-8.45912,-45.5097,3.28829,-18.0151,33.208,-6.85426,-5.72007,-29.7768
26.6873,18.1279,-29.9594,28.8924,-35.2108,-0.0474811,17.1108,-4.08589,-2.99554,-2.82655,-5.80519,2.53064,-12.1881,-2.3925,6.07056,0.785188,5.08147,15.0665,6.85646,7.91067,-21.127,3.31461,3.77152,-8.92178,3.06128e-14,3.93594e-14,-44.9545,-11.8533,-69.641,41.9507,-1.49779,-15.4264,20.6701,7.12502,10.7535,-9.03469,3.06128e-14,3.93594e-14,-53.3152,7.02888,70.0563,32.6847,12.052,-14.7976,29.8274,7.12502,11.3599,59.4997,-50.8059,6.06195,5.17862,43.2319,-3.25752,3.46893,-5.65632,-44.666,3.43889,-17.8849,32.8815,-6.53636,-5.80699,-30.7582
26.6535,18.1628,-29.9536,28.5962,-35.3732,-0.160058,17.08,-4.17559,-3.36089,-2.92278,-6.00027,2.58541,-12.2148,-2.45332,6.39008,0.687946,5.06796,14.9948,6.68649,7.87225,-21.3312,3.28092,3.74347,-8.97812,4.65156e-14,-5.725e-14,-44.928,-12.2098,-69.5164,41.7317,-0.900269,-15.0128,21.058,7.12502,11.1524,-8.62567,4.65156e-14,-5.725e-14,-53.2937,7.24107,69.6212,32.666,12.0707,-15.1273,30.3093,7.12502,11.042,59.9988,-50.8068,6.27521,5.0358,43.4895,-2.36343,4.35659,-6.83914,-43.9175,3.64317,-17.7117,32.4621,-5.93573,-6.05861,-32.1599
26.6196,18.1928,-29.9467,28.4218,-35.5169,-0.197076,16.8748,-4.26706,-3.71383,-3.03963,-6.1949,2.60831,-12.1649,-2.5209,6.64835,0.761812,5.00074,14.8415,6.243,7.73369,-21.4299,3.11206,3.68387,-8.99081,7.51406e-14,-4.21423e-14,-44.9693,-12.3693,-69.5606,41.7844,-0.628794,-14.7782,21.1135,7.12502,11.3786,-8.55783,7.51406e-14,-4.21423e-14,-53.2093,7.28625,69.2877,32.7455,12.1758,-15.563,30.184,7.12502,10.6217,59.8956,-50.9518,6.32111,4.86811,43.7169,-1.64115,5.44221,-8.85181,-43.3117,3.77808,-17.5826,31.9352,-5.49086,-6.25007,-33.2562
26.5837,18.2261,-29.9333,28.1803,-35.6759,-0.313732,16.6808,-4.35934,-3.97004,-3.10285,-6.37024,2.60768,-12.0732,-2.59066,6.8166,0.65363,4.95101,14.9054,6.15346,7.65847,-21.7375,3.10564,3.63623,-9.11105,4.77083e-14,0,-45.0403,-12.57,-69.6211,41.8624,-0.474676,-14.476,21.08,7.12502,11.6701,-8.57495,4.77083e-14,0,-53.1624,7.20735,69.076,32.9075,12.4349,-16.3369,29.6675,7.12502,9.87511,59.4159,-50.894,6.3811,4.77889,43.8675,-0.882478,6.56316,-8.71805,-42.5274,3.82903,-17.3341,31.3432,-4.9643,-6.35367,-32.4506
26.5445,18.258,-29.9262,27.9562,-35.7256,-0.496385,16.533,-4.51719,-4.05933,-3.20445,-6.60524,2.55838,-12.0671,-2.69681,6.85915,0.519103,4.97145,15.1108,6.32675,7.71142,-22.0269,3.20902,3.64651,-9.24574,-4.45278e-14,-1.82882e-14,-45.2006,-12.9244,-69.7183,41.8525,-0.0890252,-13.9502,21.1403,7.12502,12.1771,-8.48527,-4.45278e-14,-1.82882e-14,-53.3152,7.00954,68.7583,33.2057,12.6667,-17.2302,29.5225,7.12502,9.01325,59.31,-50.7325,6.65006,4.64838,43.9366,-0.179512,7.71997,-7.93521,-41.7498,3.84007,-16.9765,30.7363,-4.31988,-6.45437,-32.5729
26.5039,18.287,-29.9193,27.6352,-35.7404,-0.536041,16.4581,-4.65586,-4.19662,-3.30353,-6.83003,2.48287,-12.1001,-2.793,6.90474,0.334519,4.99161,15.1934,6.43095,7.74309,-22.1867,3.28766,3.64568,-9.31188,8.74653e-15,4.77083e-14,-45.381,-13.2989,-69.8255,41.9044,0.258918,-13.3802,20.9951,7.12502,12.7267,-8.59707,8.74653e-15,4.77083e-14,-53.3515,6.79844,68.3693,33.7483,13.1326,-17.5717,29.6469,7.12502,8.68366,59.4483,-50.5055,6.97296,4.32185,43.927,0.51548,8.92199,-5.03285,-40.9774,3.87508,-16.7912,30.1792,-3.844,-6.57311,-33.4757
26.463,18.3198,-29.9071,27.1945,-35.8894,-0.4468,16.4139,-4.7094,-4.54391,-3.36795,-6.98328,2.4252,-12.0943,-2.84212,7.07034,0.271368,4.97894,15.0132,6.35245,7.71225,-22.2557,3.26594,3.62122,-9.30265,-3.22031e-14,-7.95139e-16,-45.4759,-13.57,-69.8839,41.9402,0.595541,-13.0657,20.7884,7.12502,13.0298,-8.78464,-3.22031e-14,-7.95139e-16,-53.2374,6.64153,68.102,34.5134,13.9611,-17.5242,30.2137,7.12502,8.72952,60.0132,-50.2098,7.2348,3.91804,43.8601,0.823111,9.90703,-4.03541,-40.1363,3.93394,-16.7811,29.6993,-3.25486,-6.70131,-32.4627
26.4214,18.3523,-29.906,27.0119,-35.8433,-0.453753,16.2557,-4.83176,-4.74361,-3.51838,-7.19191,2.40686,-12.1228,-2.92357,7.20327,0.312811,4.97576,14.8958,6.30777,7.71189,-22.3769,3.24598,3.61675,-9.32478,6.79844e-14,1.59028e-15,-45.6343,-13.8109,-69.9549,41.9318,1.08713,-12.9191,20.8722,7.12502,13.1712,-8.69179,6.79844e-14,1.59028e-15,-53.1527,6.43188,67.8163,35.3011,14.7433,-17.5724,30.9437,7.12502,8.68297,60.7451,-50.0426,7.39476,3.69477,43.7637,0.494293,10.5451,-6.7417,-39.617,4.02233,-16.6692,29.2629,-2.65435,-6.90986,-32.9943
26.3783,18.3838,-29.91,26.9269,-35.54,-0.506063,16.0173,-5.01347,-4.75492,-3.66685,-7.43536,2.40231,-12.1164,-3.03761,7.24309,0.0446931,4.95332,15.0807,6.624,7.71653,-22.7039,3.40537,3.58874,-9.47268,1.04958e-13,-3.10104e-14,-45.8373,-14.2314,-69.9837,41.9383,1.47341,-12.6498,21.1346,7.12502,13.4308,-8.41242,1.04958e-13,-3.10104e-14,-53.0461,6.23045,67.4798,36.1507,15.1822,-17.5292,30.9742,7.12502,8.72465,60.7738,-49.8402,7.47574,3.59347,43.6294,0.0190243,10.7521,-8.08116,-39.2637,4.16652,-16.5036,28.8388,-2.23471,-7.39505,-33.6953
26.3347,18.4109,-29.9084,26.6507,-35.3364,-0.409631,15.852,-5.09628,-4.92215,-3.77829,-7.58458,2.35997,-12.1101,-3.09737,7.31105,-0.177968,4.87394,15.2503,6.85974,7.636,-23.027,3.51554,3.52341,-9.62387,7.43455e-14,4.05521e-14,-46.0861,-14.7364,-69.853,41.9325,1.82953,-12.5797,21.4429,7.12502,13.4983,-8.09967,7.43455e-14,4.05521e-14,-52.9036,5.99745,67.1793,37.2553,16.0081,-17.1628,31.1828,7.12502,9.07823,60.9674,-49.5126,7.63043,3.32733,43.4894,-0.31143,10.6061,-7.85484,-38.7668,4.14448,-16.4241,28.4131,-1.73627,-7.71519,-32.2884
26.2901,18.4323,-29.9072,26.3844,-35.2189,-0.343537,15.7135,-5.18587,-5.0845,-3.89796,-7.7452,2.3006,-12.13,-3.16149,7.36367,-0.105958,4.79729,15.1137,6.78167,7.52884,-23.0826,3.45492,3.47039,-9.6262,-2.82274e-14,-1.59028e-15,-46.3154,-14.9397,-69.8608,41.9515,2.09753,-12.8461,21.2782,7.12502,13.2415,-8.28121,-2.82274e-14,-1.59028e-15,-52.8262,5.93724,66.6863,38.6001,17.6156,-17.1381,31.8396,7.12502,9.1021,61.6232,-49.1689,7.83958,3.07681,43.3342,-0.666664,10.2358,-8.28232,-38.2319,3.98223,-16.2675,27.9476,-1.0072,-7.71688,-30.7591
26.2434,18.4549,-29.9148,26.2073,-34.9329,-0.406149,15.6071,-5.39356,-5.0987,-3.98434,-8.02578,2.30698,-12.1213,-3.29288,7.43391,-0.208028,4.82304,14.8163,6.75748,7.5481,-23.0049,3.45573,3.46681,-9.53874,-1.57835e-13,2.8625e-14,-46.3341,-15.0518,-70.0214,41.8746,2.4227,-13.0528,21.1882,7.12502,13.0423,-8.38402,-1.57835e-13,2.8625e-14,-52.8324,6.12249,66.1995,39.9535,18.6401,-17.733,31.9806,7.12502,8.52801,61.7883,-48.7783,7.92857,3.07536,43.1475,-1.17005,9.65113,-9.48762,-37.7507,3.98821,-16.0178,27.4459,-0.148023,-7.87457,-28.5751
26.1971,18.4824,-29.9225,26.0389,-34.5756,-0.465365,15.6239,-5.53657,-5.10386,-4.12929,-8.22448,2.33185,-12.264,-3.37304,7.52502,-0.445644,4.85508,14.7548,6.96291,7.6067,-23.093,3.57016,3.46943,-9.55289,-6.36111e-15,1.27222e-14,-46.5174,-15.3607,-69.9749,41.7535,2.9147,-12.9842,21.7245,7.12502,13.1084,-7.84351,-6.36111e-15,1.27222e-14,-52.9193,6.04972,65.9727,41.4981,19.3228,-18.278,32.5181,7.12502,8.00206,62.3466,-48.3396,7.9835,3.1128,42.9171,-1.76148,8.67485,-11.5101,-37.3089,4.05876,-15.7912,26.98,0.43675,-8.09925,-27.5984
26.1504,18.5127,-29.9264,25.9143,-34.3237,-0.476061,15.6716,-5.60044,-5.178,-4.38005,-8.34233,2.32776,-12.5555,-3.39815,7.6207,-0.558581,4.82271,14.6656,7.26389,7.59816,-23.1164,3.67182,3.44364,-9.54811,3.97569e-16,-2.78299e-14,-46.9592,-15.4124,-69.9196,41.7604,3.12286,-13.2079,22.3612,7.12502,12.8928,-7.22054,3.97569e-16,-2.78299e-14,-53.065,5.95654,65.6244,43.3093,20.3381,-18.2482,33.4814,7.12502,8.03081,63.3088,-47.962,8.09995,3.06731,42.6291,-2.34762,7.31261,-14.0073,-36.9484,4.05036,-15.6067,26.5874,0.789684,-8.27165,-29.2658
26.0998,18.5386,-29.9335,25.8679,-34.1051,-0.572266,15.6124,-5.69914,-5.27232,-4.56723,-8.49698,2.3774,-12.6928,-3.44903,7.77301,-0.543696,4.81044,14.2227,7.29629,7.57936,-22.9087,3.64882,3.42535,-9.39321,8.62725e-14,1.59028e-15,-47.2071,-15.1758,-70.0183,41.79,3.07481,-13.7706,23.0227,7.12502,12.3503,-6.59252,8.62725e-14,1.59028e-15,-53.1597,6.16046,65.1912,45.1094,21.2853,-18.546,33.2365,7.12502,7.74333,63.0747,-47.6276,8.18654,3.12823,42.3198,-2.60579,6.0042,-13.1137,-36.6119,3.96937,-15.3166,26.2322,1.2469,-8.33383,-31.0866
26.0475,18.562,-29.9429,25.7978,-33.8101,-0.74775,15.5367,-5.78166,-5.30061,-4.64732,-8.60986,2.42134,-12.7119,-3.49602,7.85938,-0.57531,4.75802,13.9151,7.25596,7.49395,-22.7872,3.60908,3.37633,-9.29683,1.51076e-14,-3.97569e-15,-47.3238,-15.1413,-70.1187,41.7938,2.89411,-13.735,23.2652,7.12502,12.3846,-6.34793,1.51076e-14,-3.97569e-15,-52.9207,6.15702,65.0693,46.5684,21.6571,-20.1315,31.8934,7.12502,6.21288,61.7823,-47.1809,8.25369,3.28243,42.0205,-2.71795,4.72506,-9.978,-36.23,3.79535,-14.9104,25.8871,1.86783,-8.44539,-31.7817
26.0052,18.5901,-29.9557,25.6864,-33.3767,-0.61049,15.51,-5.87188,-5.32108,-4.83942,-8.75339,2.35892,-12.9047,-3.54783,7.85003,-0.747896,4.6835,14.0191,7.45416,7.41679,-22.9824,3.69286,3.31769,-9.39087,-1.43125e-13,1.43125e-14,-47.5566,-15.3134,-70.1257,41.6827,2.81682,-13.4803,23.2359,7.12502,12.6302,-6.36222,-1.43125e-13,1.43125e-14,-52.6257,5.8186,65.1525,48.1022,22.3136,-22.3515,30.7497,7.12502,4.0693,60.6905,-46.7819,8.06226,3.19414,41.6992,-2.86008,3.35072,-8.70659,-36.0853,3.58776,-14.8213,25.5129,2.45345,-8.74835,-31.5513
25.9676,18.6172,-29.9762,25.7114,-32.9408,-0.351235,15.4146,-5.95298,-5.36592,-5.14112,-8.89838,2.26172,-13.188,-3.59214,7.81787,-0.737675,4.60079,14.1389,7.53102,7.32751,-23.2016,3.70777,3.26778,-9.49988,-8.3092e-14,2.46493e-14,-47.8868,-15.4583,-70.1113,41.584,2.87868,-13.5627,23.3032,7.12502,12.5507,-6.29987,-8.3092e-14,2.46493e-14,-52.6221,5.61403,64.9374,50.1939,23.8674,-23.3316,30.7566,7.12502,3.12288,60.7134,-46.6353,7.64009,3.07856,41.3646,-2.7729,2.14502,-7.26721,-36.1847,3.45671,-14.856,25.1191,2.95496,-8.78223,-31.1419
25.9102,18.644,-29.9751,25.5976,-32.9655,-0.649773,15.3424,-5.8317,-5.38117,-5.14776,-8.74471,2.18259,-13.1874,-3.52318,7.69432,-0.61639,4.51646,13.8924,7.37058,7.18863,-23.0122,3.5955,3.2108,-9.3942,6.75868e-15,-4.05521e-14,-48.0679,-15.5866,-70.1728,41.503,2.86638,-13.2787,23.5068,7.12502,12.8246,-6.07926,6.75868e-15,-4.05521e-14,-52.5743,5.77793,64.4076,52.4618,24.7034,-22.3877,31.4843,7.12502,4.03442,61.4259,-46.1331,7.81477,3.41547,40.9588,-2.44028,1.21617,-5.22567,-35.5216,3.43775,-14.3657,24.693,3.3612,-8.20108,-30.8916
25.8498,18.6662,-29.9912,25.6663,-32.684,-1.02645,15.2275,-5.7599,-5.31167,-5.14579,-8.62087,2.23508,-13.1362,-3.47314,7.6701,-0.790674,4.45936,13.4004,7.38354,7.08185,-22.6304,3.57728,3.14516,-9.16931,7.95139e-14,6.36111e-15,-48.0366,-15.8329,-70.079,41.1369,2.96143,-12.7936,23.9117,7.12502,13.2922,-5.64439,7.95139e-14,6.36111e-15,-52.3813,5.88347,64.1343,54.8088,25.372,-21.3308,31.6456,7.12502,5.05491,61.5653,-45.7614,7.94474,3.89022,40.55,-1.92956,0.339523,-3.65189,-35.1298,3.42009,-13.7312,24.2102,4.08841,-7.86599,-28.5484
25.7982,18.6874,-30.0225,25.7955,-32.1498,-1.0839,15.1557,-5.75072,-5.26783,-5.28366,-8.60358,2.24207,-13.2625,-3.45774,7.65479,-1.16633,4.34486,13.2722,7.63963,6.9355,-22.6293,3.68485,3.03861,-9.15121,1.47101e-14,1.98785e-14,-48.0983,-15.9813,-70.0532,40.8174,2.97595,-12.9795,24.0383,7.12502,13.113,-5.52947,1.47101e-14,1.98785e-14,-52.0794,5.74064,64.022,57.0789,26.193,-20.9736,31.1993,7.12502,5.39983,61.1105,-45.5686,7.82969,4.08495,40.1049,-1.44719,-0.380567,-1.73495,-35.1363,3.28896,-13.3547,23.7025,4.96132,-7.79862,-26.48
25.7476,18.708,-30.0512,25.8015,-31.8032,-0.831595,15.1429,-5.73091,-5.46982,-5.51859,-8.65121,2.1058,-13.5183,-3.44738,7.6481,-1.55638,4.26984,13.581,8.00793,6.87232,-22.9621,3.87104,2.97014,-9.33198,-4.65156e-14,-1.66979e-14,-48.3444,-15.6483,-70.392,40.8102,2.59142,-13.3462,23.6995,7.12502,12.7595,-5.89058,-4.65156e-14,-1.66979e-14,-51.975,5.89648,63.8057,59.3454,26.2193,-20.7653,31.071,7.12502,5.60092,60.977,-45.4187,7.68184,3.91944,39.6526,-0.907786,-0.87418,0.253477,-35.1404,3.131,-13.3183,23.2246,5.56887,-8.0222,-28.6125
25.6952,18.7258,-30.0651,25.6919,-31.716,-0.687509,15.1857,-5.6143,-5.60931,-5.71617,-8.56634,1.89513,-13.8072,-3.38166,7.49875,-1.89852,4.23023,13.8236,8.43788,6.85722,-23.0792,4.06595,2.93176,-9.4243,1.33981e-13,3.65764e-14,-48.6927,-15.3372,-70.6213,40.7192,2.66132,-13.243,23.6142,7.12502,12.8589,-5.96967,1.33981e-13,3.65764e-14,-51.9483,5.95894,63.6003,61.591,26.2218,-19.329,31.747,7.12502,6.98758,61.6116,-45.0971,7.6678,3.83051,39.1562,-0.302447,-1.09993,1.44856,-34.8131,2.88038,-13.187,22.7748,5.80992,-7.95365,-31.1772
25.6408,18.7443,-30.0796,25.6149,-31.6069,-0.761947,15.2901,-5.46785,-5.57871,-5.85769,-8.39828,1.73996,-14.0952,-3.2901,7.30127,-1.97849,4.12008,13.6599,8.64685,6.72485,-22.9338,4.10286,2.85476,-9.35338,1.19271e-15,2.38542e-14,-49.0105,-15.2535,-70.5227,40.3745,3.54531,-14.2521,17.4575,7.12502,11.886,-12.1852,1.19271e-15,2.38542e-14,-51.6278,5.45154,63.115,63.7272,25.9855,-16.4857,33.0461,7.12502,9.73162,62.8013,-44.6958,7.79198,3.95017,38.5988,0.279359,-1.31128,2.62204,-34.4424,2.48168,-12.7654,22.3833,6.04278,-7.467,-31.9546
25.5862,18.7616,-30.1084,25.6674,-31.3951,-0.788182,15.3424,-5.39075,-5.64652,-6.00323,-8.33073,1.67715,-14.3128,-3.23732,7.27542,-1.98066,4.04362,13.2028,8.62962,6.61859,-22.7396,4.05512,2.79407,-9.20419,4.57205e-14,4.6118e-14,-49.0053,-14.6539,-70.889,40.1669,3.39192,-12.8488,22.8516,7.12502,13.239,-6.70794,4.57205e-14,4.6118e-14,-51.715,6.57063,62.743,66.3857,23.4274,-14.8868,34.771,7.12502,11.2739,64.448,-44.4473,7.68329,4.09552,37.9729,0.890173,-1.18068,3.9038,-34.4209,2.35579,-12.4633,22.1031,6.56183,-7.27912,-31.8044
25.5331,18.773,-30.1477,25.8226,-31.0931,-0.793328,15.3636,-5.32262,-5.66101,-6.15077,-8.27138,1.54991,-14.5308,-3.19766,7.14536,-2.14441,3.99151,13.0025,8.67104,6.53522,-22.5555,4.06756,2.74329,-9.10429,-1.47101e-13,3.65764e-14,-48.8233,-14.0747,-71.5824,39.8787,2.66829,-12.6755,24.1247,7.12502,13.406,-5.42391,-1.47101e-13,3.65764e-14,-51.5346,6.70592,62.4922,69.0492,22.5365,-14.0176,37.0681,7.12502,12.1121,66.6976,-44.3215,7.38434,4.299,37.3192,1.63068,-0.647043,5.77379,-34.5878,2.54559,-12.2963,21.8765,7.16528,-7.42362,-31.6892
25.4804,18.7848,-30.1831,25.9344,-30.6824,-0.834296,15.4285,-5.25114,-5.50107,-6.26573,-8.17616,1.37772,-14.7727,-3.15966,6.86316,-2.33717,3.91595,13.0013,8.78597,6.42728,-22.4534,4.11106,2.68072,-9.07404,-5.80451e-14,-9.54166e-15,-48.7682,-14.002,-71.7229,39.2282,3.41725,-12.1023,25.1262,7.12502,13.9584,-4.3852,-5.80451e-14,-9.54166e-15,-51.235,6.11875,62.7963,71.4631,24.3438,-15.4974,36.8662,7.12502,10.685,66.5745,-44.0927,7.2286,4.50987,36.6699,2.70957,-0.185813,8.05023,-34.6509,2.45277,-11.9887,21.6211,7.65833,-7.37732,-32.0795
25.4262,18.8017,-30.2124,25.965,-30.3465,-0.744099,15.4309,-5.15218,-5.44324,-6.35753,-8.06477,1.17685,-14.9409,-3.11333,6.58867,-2.53946,3.83441,12.978,8.9247,6.32298,-22.4543,4.16674,2.61334,-9.07707,7.27552e-14,2.38542e-14,-48.8379,-13.7169,-71.91,38.8754,4.17991,-11.5972,25.7993,7.12502,14.4452,-3.67792,7.27552e-14,2.38542e-14,-51.0758,5.33707,63.6899,73.7541,28.6641,-21.7104,32.0906,7.12502,4.68842,62.0187,-43.8414,7.08476,4.57503,36.0229,4.09918,0.412699,9.68261,-34.6758,2.29416,-11.7975,21.3519,8.08472,-7.22886,-32.8316
25.3727,18.8135,-30.2399,25.9436,-30.1371,-0.498725,15.4423,-5.04192,-5.53639,-6.48968,-7.98174,0.933786,-15.1464,-3.06557,6.36046,-2.61703,3.7572,12.8889,8.93245,6.21934,-22.4772,4.1609,2.55449,-9.07442,6.67916e-14,1.59028e-14,-48.8842,-13.0697,-72.5349,38.8911,3.90857,-12.0686,25.0037,7.12502,13.9909,-4.50544,6.67916e-14,1.59028e-14,-50.9356,5.53475,63.2967,76.0649,26.9515,-19.5141,31.0494,7.12502,6.80893,60.9199,-43.6486,6.91647,4.45073,35.3917,5.227,1.071,11.9038,-34.6951,2.2037,-11.8173,21.0512,8.42474,-7.06536,-33.43
25.319,18.8135,-30.2691,25.9894,-29.907,-0.327136,15.4944,-4.99027,-5.60724,-6.66169,-7.96459,0.798878,-15.4036,-3.03926,6.26616,-2.58391,3.74391,12.5459,8.84741,6.20003,-22.3733,4.11287,2.54184,-8.97279,1.86858e-14,1.11319e-14,-48.7974,-12.2176,-73.0703,38.8292,3.74707,-11.8466,24.458,7.12502,14.2048,-5.03633,1.86858e-14,1.11319e-14,-50.9425,5.53533,63.2395,78.101,26.8767,-19.3371,27.8267,7.12502,6.97976,57.6916,-43.4758,6.72322,4.43849,34.7989,5.65535,1.71716,12.3934,-34.7463,1.90858,-11.6584,20.7549,8.90997,-6.53334,-31.8474
25.2638,18.8124,-30.3076,26.121,-29.5574,-0.273248,15.5476,-4.95178,-5.56546,-6.78567,-7.93036,0.708193,-15.6134,-3.0176,6.151,-2.87532,3.78049,12.273,9.04497,6.26932,-22.2892,4.22515,2.54554,-8.88811,-8.66701e-14,-1.59028e-15,-48.6612,-11.5758,-73.3548,38.6252,4.31662,-10.6801,25.3479,7.12502,15.3286,-4.06399,-8.66701e-14,-1.59028e-15,-50.8575,5.35571,63.3822,80.1932,27.3132,-19.9408,26.335,7.12502,6.39697,56.2184,-43.3079,6.39646,4.68007,34.2706,5.75255,2.35921,11.204,-34.9609,1.71264,-11.3523,20.5659,9.45892,-6.0457,-29.2672
25.2091,18.816,-30.3522,26.3226,-29.0602,-0.279284,15.6066,-4.91556,-5.34461,-6.8911,-7.86145,0.593238,-15.8358,-3.00016,5.90038,-3.31555,3.80604,12.2669,9.34357,6.33811,-22.4498,4.41018,2.53629,-8.94141,5.36719e-14,-3.18055e-15,-48.6099,-11.1792,-73.5736,38.4861,5.21597,-9.99483,26.2582,7.12502,15.9886,-3.10198,5.36719e-14,-3.18055e-15,-50.5406,5.11223,63.5346,82.2672,27.5078,-20.5239,26.5543,7.12502,5.834,56.454,-43.1225,6.10889,4.97714,33.8041,5.92132,2.58781,11.4301,-35.4002,1.69243,-11.0337,20.5185,10.0338,-5.88992,-27.4767
25.1542,18.8188,-30.3943,26.5014,-28.5582,-0.221867,15.7306,-4.87004,-5.14876,-7.0471,-7.79687,0.457799,-16.1618,-2.97671,5.65323,-3.51031,3.78974,12.3784,9.45049,6.34187,-22.7421,4.49091,2.51493,-9.06754,-5.88403e-14,3.65764e-14,-48.6662,-10.6398,-73.8816,38.4993,5.95805,-9.89136,26.2641,7.12502,16.0883,-3.08805,-5.88403e-14,3.65764e-14,-50.2095,4.92546,63.6913,84.1384,27.3335,-20.8238,26.6,7.12502,5.54449,56.5075,-42.9215,5.803,5.24648,33.405,5.99941,2.54549,11.6836,-35.884,1.70219,-10.8305,20.5574,10.6239,-5.91255,-26.9379
25.0996,18.8156,-30.4385,26.597,-28.0799,-0.0926767,15.997,-4.75284,-5.04236,-7.21922,-7.67072,0.286761,-16.6014,-2.91074,5.41539,-3.57854,3.73044,12.3496,9.54901,6.28296,-22.822,4.52232,2.47494,-9.09693,-8.70677e-14,1.59028e-14,-48.8325,-10.1528,-74.1102,38.6351,6.53647,-9.59241,26.1862,7.12502,16.3761,-3.14243,-8.70677e-14,1.59028e-14,-50.0665,4.58026,63.9342,86.1829,26.8253,-20.7663,26.6553,7.12502,5.60002,56.5613,-42.6979,5.35088,5.56949,33.0219,6.01521,2.46966,11.3706,-36.3135,1.6393,-10.6862,20.6947,10.9318,-6.18475,-29.043
25.0447,18.8084,-30.4875,26.7136,-27.5939,-0.0209013,16.2893,-4.61284,-4.90346,-7.35633,-7.49822,0.153585,-17.0185,-2.82764,5.18686,-3.64529,3.69938,12.0633,9.60892,6.26041,-22.7528,4.53659,2.45082,-9.02052,-1.18078e-13,-3.81667e-14,-48.9094,-9.77278,-74.1975,38.7549,7.18093,-8.89226,26.2994,7.12502,17.0501,-2.97237,-1.18078e-13,-3.81667e-14,-50.0007,4.21442,64.2391,88.3429,26.2294,-20.6911,26.6652,7.12502,5.67262,56.5693,-42.4689,4.8317,6.00492,32.5922,6.02749,2.55322,10.6213,-36.8234,1.58597,-10.4716,20.9689,11.1399,-6.41843,-30.8431
24.9859,18.8038,-30.5322,26.8042,-27.2237,-0.0406541,16.5276,-4.48345,-4.74919,-7.36878,-7.31835,0.0410123,-17.2435,-2.75633,4.95162,-4.42901,3.84381,12.3153,10.0156,6.51491,-23.2798,4.87561,2.49952,-9.24443,-1.03368e-14,-1.11319e-14,-48.6656,-9.5387,-74.2625,38.6456,7.95309,-8.27441,26.7115,7.12502,17.6448,-2.50784,-1.03368e-14,-1.11319e-14,-49.7461,3.9548,64.4638,90.3064,25.7067,-20.8647,26.0478,7.12502,5.50496,55.9563,-42.1681,4.35917,6.5226,32.1524,5.67319,2.88341,9.08942,-37.2895,1.7394,-10.2602,21.3283,11.4963,-6.4183,-29.436
24.9264,18.7999,-30.5735,26.9674,-26.8503,-0.128273,16.6584,-4.36526,-4.51029,-7.30665,-7.1196,-0.0699501,-17.3152,-2.6978,4.64629,-5.78664,4.12718,13.0053,10.6967,6.97523,-24.1696,5.48031,2.60086,-9.6799,1.43125e-14,-2.54444e-14,-48.3303,-9.50898,-74.2847,38.5954,8.64998,-7.70858,27.2865,7.12502,18.1892,-1.88306,1.43125e-14,-2.54444e-14,-49.5059,3.7412,64.7463,92.2437,25.0036,-21.3184,24.7583,7.12502,5.06692,54.6777,-41.926,3.80422,7.16113,31.7357,5.11848,3.13287,8.15503,-37.8162,1.88922,-9.95813,21.737,11.8189,-6.59956,-28.2949
24.8688,18.7879,-30.6278,27.4067,-26.3743,-0.0906074,16.5249,-4.31912,-4.29575,-7.32654,-7.01629,-0.175303,-17.3052,-2.68643,4.36494,-6.44526,4.26708,13.0955,10.735,7.16523,-24.4987,5.67348,2.63952,-9.80087,5.60573e-14,7.95139e-15,-48.0585,-9.36016,-74.3996,38.8445,9.09283,-7.09504,27.5429,7.12502,18.7794,-1.57058,5.60573e-14,7.95139e-15,-49.5062,3.64647,65.087,94.338,24.2528,-21.6854,24.1834,7.12502,4.71254,54.111,-42.0932,2.99905,7.788,31.3356,4.75806,3.16382,7.75596,-38.8393,2.1369,-9.79163,22.2058,12.1376,-7.01231,-28.7399
24.8116,18.7712,-30.6913,27.8003,-25.8829,0.071651,16.4473,-4.30846,-4.16708,-7.37632,-6.98972,-0.289561,-17.3527,-2.69676,4.15116,-6.24887,4.21613,12.5524,10.1117,7.0352,-24.3139,5.39846,2.60221,-9.61561,-1.19271e-14,-2.70347e-14,-47.8254,-8.94364,-74.6236,39.1751,9.33251,-6.6291,27.5699,7.12502,19.2275,-1.49961,-1.19271e-14,-2.70347e-14,-49.4221,3.55742,65.2929,96.2431,23.606,-21.8789,24.5288,7.12502,4.52567,54.4604,-42.3018,2.20339,8.31427,30.9731,4.28343,3.16581,6.54719,-39.9704,2.4711,-9.81014,22.6889,12.7491,-6.92171,-26.6528
24.7553,18.7641,-30.7481,27.9125,-25.3732,0.197817,16.7396,-4.23127,-3.99372,-7.41953,-6.88052,-0.403016,-17.643,-2.65851,3.92719,-5.58789,4.10332,11.8478,9.32998,6.82277,-24.0465,4.96768,2.55956,-9.37893,5.20816e-14,3.18055e-15,-47.8573,-8.5013,-74.6879,39.5948,9.45522,-6.4337,27.3443,7.12502,19.4154,-1.70641,5.20816e-14,3.18055e-15,-49.1917,3.36086,65.4782,97.7913,22.9199,-21.765,24.6769,7.12502,4.6357,54.6062,-42.1707,1.60834,8.80459,30.6598,3.68392,3.09462,5.3103,-40.7235,2.67558,-9.7911,23.0984,13.8181,-6.5003,-21.8443
24.6971,18.7629,-30.8018,27.9841,-24.8303,0.341277,17.0713,-4.1356,-3.76166,-7.44616,-6.74199,-0.579389,-17.9561,-2.61939,3.59004,-5.21158,4.02766,11.5272,8.88304,6.68477,-23.9731,4.72681,2.52861,-9.29216,6.83819e-14,2.70347e-14,-47.9381,-8.24996,-74.6957,40.0506,9.46101,-6.44323,26.936,7.12502,19.4062,-2.11565,6.83819e-14,2.70347e-14,-49.1012,3.155,65.7162,99.4087,22.1844,-21.197,24.2,7.12502,5.18415,54.1166,-42.0533,1.06221,9.25264,30.4614,3.18308,2.99726,4.56214,-41.3733,2.96231,-9.88556,23.4848,14.6679,-7.03339,-21.9908
24.635,18.7626,-30.8453,27.7712,-24.4256,0.563737,17.5235,-4.0085,-3.63625,-7.31422,-6.59515,-0.848112,-18.1451,-2.57904,3.20078,-5.37259,3.91459,11.608,8.75352,6.51233,-24.1914,4.69641,2.43594,-9.39519,-2.22639e-14,0,-47.8084,-8.15815,-74.7535,40.4017,9.33763,-6.28518,26.5887,7.12502,19.5582,-2.44756,-2.22639e-14,0,-49.218,2.82037,66.0456,101.252,21.0127,-21.6016,23.8473,7.12502,4.79345,53.773,-41.5982,0.517512,9.62268,30.1467,2.65686,3.14448,3.95308,-41.6521,3.1649,-10.0125,23.9255,15.4632,-6.62033,-18.6522
24.5817,18.7484,-30.9308,28.3227,-23.5695,0.936609,17.4266,-4.06489,-3.38582,-7.424,-6.64259,-1.01361,-18.2732,-2.63996,2.88376,-5.56825,3.81425,11.6675,8.59517,6.35767,-24.4723,4.66917,2.3474,-9.51508,4.37326e-14,2.38542e-14,-47.6256,-8.1894,-74.6905,40.7048,8.9741,-6.0016,26.5482,7.12502,19.8308,-2.46015,4.37326e-14,2.38542e-14,-49.3411,2.49726,66.4089,103.023,19.6108,-22.5891,24.2804,7.12502,3.83987,54.2256,-42.0953,-0.164311,9.82406,29.8727,2.25099,2.83439,3.15528,-43.2464,3.19996,-10.0751,24.4213,17.1017,-4.68543,-5.47503
24.526,18.7436,-30.9745,28.2774,-23.3654,0.895664,17.8235,-3.88017,-3.16758,-7.29731,-6.36331,-1.13278,-18.4262,-2.54244,2.56495,-5.63556,3.9278,11.4281,8.24245,6.48502,-24.5707,4.60192,2.41066,-9.48438,-5.52621e-14,-3.33958e-14,-47.4253,-7.95384,-74.6098,41.0763,8.25654,-5.98482,26.4827,7.12502,19.847,-2.52394,-5.52621e-14,-3.33958e-14,-49.5409,2.71205,66.7321,104.563,18.4428,-22.8508,24.7006,7.12502,3.58721,54.6501,-41.8105,-0.297359,10.2097,29.5936,1.59997,2.93188,1.80968,-43.7052,3.43675,-9.92506,24.9682,17.7745,-3.60305,0.038823
24.4694,18.7295,-31.0433,28.6101,-23.0032,1.11512,17.9582,-3.75603,-3.16347,-7.33369,-6.21771,-1.22357,-18.5817,-2.47938,2.42342,-5.61623,4.00829,11.2474,7.7685,6.54921,-24.7433,4.47604,2.45425,-9.4948,7.67309e-14,2.8625e-14,-47.2565,-7.68488,-74.5142,41.5279,7.54624,-5.94467,25.9913,7.12502,19.8855,-3.01139,7.67309e-14,2.8625e-14,-49.8856,2.83557,67.1231,105.979,17.251,-23.2352,24.3129,7.12502,3.21599,54.2684,-42.1343,-0.38601,10.2939,29.3683,0.875191,2.7326,-0.465896,-44.9558,3.90701,-10.1698,25.6132,18.7611,-3.69042,1.4533
24.4187,18.7141,-31.1196,29.0781,-22.4866,1.51895,17.9143,-3.70551,-3.11742,-7.40822,-6.16856,-1.3791,-18.6786,-2.4747,2.20099,-5.66904,4.00116,11.2553,7.3972,6.49659,-25.0209,4.38065,2.43432,-9.59145,-6.59965e-14,-2.8625e-14,-47.0486,-7.73646,-74.2539,41.8695,7.1237,-5.59267,25.8902,7.12502,20.2239,-3.07698,-6.59965e-14,-2.8625e-14,-50.1996,2.56193,67.4957,107.268,16.0368,-23.8096,23.9065,7.12502,2.66129,53.8696,-42.6252,-0.652337,10.2044,29.0171,0.313132,2.46783,-2.72515,-46.5782,4.12999,-10.4878,26.3362,20.2639,-3.31201,6.86392
24.3738,18.6986,-31.1834,29.4118,-22.0108,1.77928,17.9999,-3.65945,-2.8855,-7.453,-6.07659,-1.51032,-18.8401,-2.46823,1.89825,-5.66705,4.03421,11.1558,7.10768,6.51793,-25.2056,4.30631,2.45056,-9.63079,-1.17283e-13,-4.45278e-14,-46.8814,-7.76574,-73.9151,42.1623,6.68004,-5.57214,26.0326,7.12502,20.2436,-2.93249,-1.17283e-13,-4.45278e-14,-50.5369,2.43347,67.8591,108.303,14.9207,-24.0769,23.8523,7.12502,2.40313,53.8185,-42.9158,-1.14165,10.3493,28.7064,-0.0444973,2.60802,-4.84992,-47.9566,4.16261,-10.5755,27.1019,21.4848,-2.70308,11.2111
24.3236,18.685,-31.2393,29.6121,-21.7308,1.84523,18.2646,-3.46745,-2.65566,-7.44973,-5.79395,-1.67335,-19.0658,-2.37796,1.50563,-5.57708,4.0164,11.2535,6.81583,6.4617,-25.4629,4.20891,2.43907,-9.74174,-1.17283e-13,-2.54444e-14,-46.8825,-7.91555,-73.5951,42.5908,6.2519,-6.10581,25.7875,7.12502,19.7306,-3.23109,-1.17283e-13,-2.54444e-14,-50.8713,2.24451,68.1666,109.154,13.8553,-24.1782,23.4941,7.12502,2.30528,53.4614,-43.0089,-1.50884,10.6719,28.4459,-0.470437,2.89778,-6.19887,-49.0375,4.54644,-10.6532,27.8827,22.6649,-2.35329,13.2321
24.271,18.6691,-31.3044,29.938,-21.4365,1.94883,18.4173,-3.30422,-2.49486,-7.44667,-5.55592,-1.7962,-19.201,-2.30025,1.20201,-5.50867,4.02138,11.3505,6.42232,6.42231,-25.8031,4.09379,2.43673,-9.8796,1.35174e-14,2.06736e-14,-46.7877,-7.94621,-73.303,43.093,5.78522,-6.49113,25.6149,7.12502,19.3602,-3.44137,1.35174e-14,2.06736e-14,-51.2162,2.04133,68.3881,109.933,12.9121,-24.5783,23.21,7.12502,1.91887,53.1812,-43.3099,-1.64692,10.8364,28.2526,-0.999666,2.71621,-6.02349,-50.3235,4.99267,-10.8001,28.642,24.1782,-1.35091,15.9004
24.227,18.6417,-31.3846,30.4017,-20.8678,2.36309,18.3284,-3.34517,-2.33854,-7.43085,-5.58141,-1.88157,-19.1483,-2.34167,1.01705,-5.56735,4.09474,11.1453,6.02144,6.48172,-26.0153,4.00583,2.47123,-9.90333,-2.34566e-14,-4.92986e-14,-46.4096,-7.76354,-73.0606,43.5141,4.88222,-6.77826,25.724,7.12502,19.0841,-3.3597,-2.34566e-14,-4.92986e-14,-51.4116,2.11557,68.6211,110.549,12.01,-25.1563,23.2337,7.12502,1.36066,53.2092,-43.9236,-1.94137,10.6994,28.154,-1.56206,2.26802,-6.37998,-52.0496,4.95939,-11.0309,29.3715,25.5358,1.07881,20.9072
24.1853,18.6172,-31.4641,30.6933,-20.2821,3.01129,18.3205,-3.36003,-2.29853,-7.34183,-5.61775,-2.06563,-19.0549,-2.38305,0.788136,-5.76711,4.12595,10.9305,5.73439,6.48672,-26.0795,3.95853,2.47053,-9.87597,1.98785e-15,1.35174e-14,-46.0215,-7.75026,-72.7955,43.9617,3.85541,-7.40789,25.4045,7.12502,18.4785,-3.73787,1.98785e-15,1.35174e-14,-51.5082,2.26526,68.9128,111.072,11.1853,-25.8983,23.5366,7.12502,0.644003,53.5154,-44.4392,-2.45749,10.418,28.0996,-2.22978,2.07737,-8.2204,-53.715,4.9177,-11.5921,30.1298,26.5887,3.03386,23.8992
24.1391,18.5974,-31.5316,30.8049,-20.0243,3.45633,18.5104,-3.15524,-2.37128,-7.21638,-5.39192,-2.27333,-19.0386,-2.29383,0.516661,-5.79349,4.0363,10.8471,5.38273,6.30893,-26.173,3.82909,2.39891,-9.89927,-1.90833e-14,-6.20208e-14,-45.779,-7.91166,-72.3703,44.4611,3.0701,-7.97546,24.308,7.12502,17.9325,-4.88526,-1.90833e-14,-6.20208e-14,-51.7253,2.26674,69.2248,111.476,10.5933,-26.5113,23.687,7.12502,0.0518867,53.6668,-44.6921,-2.9631,10.3751,27.9496,-2.93287,2.296,-9.529,-54.9648,5.22508,-12.1575,30.9643,27.4793,4.2097,25.9129
24.0942,18.5788,-31.5877,30.7657,-19.8824,3.48536,18.9964,-2.8948,-2.18185,-7.05458,-5.02034,-2.42844,-19.1858,-2.16192,0.123407,-5.7113,3.90008,10.8809,5.05201,6.06829,-26.3271,3.67908,2.30343,-9.97392,6.32135e-14,-2.46493e-14,-45.6174,-8.05852,-71.9078,44.9399,2.2303,-8.35427,23.4475,7.12502,17.5679,-5.77878,6.32135e-14,-2.46493e-14,-52.0439,2.0944,69.3608,111.673,10.2318,-26.2138,22.8119,7.12502,0.339298,52.7914,-44.6252,-3.30002,10.7348,27.764,-3.55559,2.51898,-8.87743,-55.7453,5.4743,-12.1275,31.8757,27.9006,5.65234,29.3242
24.0498,18.5715,-31.6286,30.3555,-19.8423,3.4218,19.9281,-2.64559,-1.91178,-6.81327,-4.6567,-2.60143,-19.524,-2.0399,-0.321457,-5.81763,3.83677,10.9724,4.91331,5.95531,-26.4879,3.64622,2.24821,-10.0552,-3.37934e-14,3.26007e-14,-45.5093,-8.06009,-71.5499,45.5148,1.45592,-8.93803,23.1854,7.12502,17.0061,-6.09015,-3.37934e-14,3.26007e-14,-52.5006,1.9344,69.3749,111.715,9.84174,-26.0612,21.928,7.12502,0.486679,51.9072,-44.0452,-3.34571,11.0562,27.5482,-4.15912,2.55756,-7.88116,-55.9439,5.6284,-11.9069,32.8567,27.8716,6.02441,29.7021
24.0163,18.5426,-31.6895,30.4655,-19.4419,3.6709,20.2881,-2.59731,-1.55381,-6.72128,-4.52577,-2.75625,-19.6854,-2.03837,-0.741256,-5.91567,3.85692,11.0185,4.7008,5.94901,-26.6446,3.61143,2.24896,-10.1171,-1.23246e-14,-1.59028e-15,-45.2893,-8.10643,-71.1576,46.0385,0.887081,-9.71061,22.7278,7.12502,16.2623,-6.61023,-1.23246e-14,-1.59028e-15,-52.8636,2.0461,69.4748,111.464,9.18096,-26.6614,22.0385,7.12502,-0.0930284,52.0182,-44.2089,-3.61903,11.0522,27.4745,-4.58338,2.32031,-8.12538,-57.0659,5.36916,-11.9078,33.9129,27.6639,5.87301,28.3396
23.9849,18.5161,-31.7507,30.459,-19.2073,4.00124,20.5559,-2.46358,-1.36888,-6.80573,-4.3447,-3.01665,-19.3903,-1.96665,-1.02943,-5.83671,3.86387,11.0023,4.34607,5.90786,-26.7955,3.49458,2.2518,-10.1662,-2.34566e-14,-1.43125e-14,-44.9854,-8.24233,-70.6314,46.4788,0.231217,-10.4625,22.2122,7.12502,15.5383,-7.18356,-2.34566e-14,-1.43125e-14,-53.118,2.20361,69.7376,111.079,8.57497,-27.2035,22.2684,7.12502,-0.616651,52.2472,-44.4251,-3.92534,10.9754,27.5704,-5.13338,2.23103,-8.90439,-58.0391,5.42224,-12.252,34.9458,27.5608,5.35998,27.1304
23.964,18.4789,-31.832,31.0937,-18.9405,4.52634,20.3978,-2.32892,-1.32366,-6.61777,-4.15744,-3.11706,-19.6704,-1.94466,-1.43446,-5.70885,3.77638,11.1044,4.05618,5.74384,-27.0294,3.36849,2.19464,-10.2802,-2.18663e-14,0,-44.7692,-8.49005,-70.0138,46.9732,-0.32045,-11.132,21.8219,7.12502,14.8933,-7.62269,-2.18663e-14,0,-53.2814,2.08295,69.8486,110.51,8.43331,-27.1759,21.676,7.12502,-0.589932,51.6549,-45.6557,-4.27788,10.6796,27.9736,-5.67371,1.82426,-9.57901,-59.8718,5.15285,-12.5475,35.9278,27.8148,4.7918,24.3522
23.9403,18.4359,-31.9006,31.3939,-18.8746,4.90812,20.4103,-2.13019,-1.27062,-6.83186,-3.93381,-3.42107,-19.3757,-1.83866,-1.69569,-5.60181,3.67996,11.3243,3.75963,5.55918,-27.3347,3.24611,2.12665,-10.4455,1.59028e-14,-2.54444e-14,-44.5589,-8.78653,-69.3773,47.5066,-0.76604,-11.7561,21.4661,7.12502,14.292,-8.02203,1.59028e-14,-2.54444e-14,-53.3344,1.99576,69.8673,109.569,8.42232,-27.6949,21.2382,7.12502,-1.09126,51.2151,-46.4928,-4.5158,10.5269,28.4034,-6.3328,1.56203,-9.78974,-61.1047,4.96475,-12.7184,36.8965,27.5444,5.11324,23.5428
23.9168,18.3918,-31.9646,31.5762,-18.9003,5.12116,20.7198,-1.93325,-1.26373,-6.77846,-3.68569,-3.50797,-19.4915,-1.73648,-1.87893,-5.36656,3.65489,11.2256,3.37398,5.47165,-27.4178,3.07704,2.12024,-10.4581,-3.22031e-14,-3.4191e-14,-44.2743,-8.83295,-68.7861,48.0195,-1.26618,-12.5063,21.0706,7.12502,13.5691,-8.46727,-3.22031e-14,-3.4191e-14,-53.6974,2.21546,69.9787,108.657,8.26244,-28.8505,21.4641,7.12502,-2.2073,51.4324,-47.1542,-4.66459,10.5607,28.7917,-7.03501,1.32752,-10.0471,-62.0591,4.96431,-12.8578,37.8883,26.4701,6.53746,27.7195
23.8996,18.3622,-32.0251,31.8016,-18.9941,5.26288,20.9289,-1.73347,-1.1726,-6.71225,-3.40566,-3.59998,-19.5349,-1.63309,-2.13229,-4.86109,3.6031,10.8018,2.85125,5.33239,-27.176,2.78698,2.11809,-10.2904,-7.55382e-15,2.38542e-15,-43.9493,-8.95625,-68.1844,48.4251,-1.6301,-13.3062,20.7249,7.12502,12.798,-8.86279,-7.55382e-15,2.38542e-15,-54.2188,2.49655,70.0079,107.804,7.95402,-28.8723,21.3312,7.12502,-2.22839,51.2993,-47.8091,-4.79307,10.6747,29.0811,-7.5968,1.11189,-10.6326,-62.9908,5.02585,-12.9483,38.8881,25.6749,6.87618,29.1414
23.8856,18.3343,-32.0827,32.0417,-19.0635,5.31514,21.1006,-1.50688,-0.991848,-6.61837,-3.06028,-3.6986,-19.5213,-1.51364,-2.47046,-4.60236,3.56365,10.6776,2.48393,5.22006,-27.0799,2.60669,2.10495,-10.2351,7.95139e-15,3.69739e-14,-43.628,-9.1915,-67.5431,48.9055,-2.03864,-13.8242,20.6058,7.12502,12.2986,-9.01251,7.95139e-15,3.69739e-14,-54.5874,2.71798,70.0462,106.692,7.4457,-28.0577,20.8878,7.12502,-1.44168,50.8626,-48.3983,-4.83584,10.8424,29.3265,-8.12207,0.989716,-10.4477,-63.9248,5.22802,-13.0765,39.8987,25.6911,5.78279,25.9667
23.8727,18.3057,-32.1399,32.2804,-19.1699,5.46855,21.3012,-1.32011,-0.869374,-6.57774,-2.79358,-3.80983,-19.5907,-1.42249,-2.76184,-4.75471,3.63934,10.99,2.47777,5.32184,-27.4133,2.67613,2.14463,-10.4116,-2.76311e-14,-7.27552e-14,-43.285,-9.29572,-66.883,49.3883,-2.37072,-14.0663,20.4611,7.12502,12.0651,-9.17108,-2.76311e-14,-7.27552e-14,-55.1477,2.82266,69.9904,105.498,7.24412,-27.6101,20.8453,7.12502,-1.0093,50.8227,-48.9537,-4.72921,10.7588,29.5028,-8.57066,0.827359,-9.72168,-64.9044,5.36394,-13.3156,40.9003,25.9485,4.56798,22.4891
23.8638,18.2771,-32.1973,32.4525,-19.251,5.80294,21.548,-1.19543,-0.742158,-6.49207,-2.62516,-4.00309,-19.6404,-1.38114,-3.112,-4.95966,3.71044,11.2657,2.44935,5.40827,-27.6799,2.74327,2.17523,-10.5571,1.41137e-14,1.78906e-14,-42.7914,-9.70521,-66.1872,49.6647,-2.31488,-14.4013,20.3154,7.12502,11.7422,-9.33551,1.41137e-14,1.78906e-14,-55.6726,2.79324,69.9041,104.293,7.31208,-27.7818,21.1273,7.12502,-1.1752,51.1038,-49.4893,-4.64286,10.4409,29.687,-8.94866,0.358591,-9.74275,-65.8253,5.28118,-13.6627,41.8239,26.2467,3.81907,20.3391
23.8563,18.2476,-32.255,32.6005,-19.2676,6.15887,21.7827,-1.08235,-0.622414,-6.35189,-2.46631,-4.17369,-19.6094,-1.33995,-3.42877,-5.05614,3.76869,11.319,2.29524,5.45745,-27.7096,2.7318,2.20446,-10.572,2.5842e-15,3.57812e-15,-42.2541,-10.193,-65.4774,50.003,-2.33205,-14.843,20.1719,7.12502,11.3161,-9.50277,2.5842e-15,3.57812e-15,-55.872,2.87099,69.8354,102.695,7.19063,-28.1443,21.0316,7.12502,-1.52526,51.0059,-50.0206,-4.65712,10.1564,29.9248,-9.41023,-0.177827,-9.83792,-66.6504,5.2806,-14.1708,42.5867,26.7892,2.445,18.1171
23.847,18.2169,-32.3105,32.751,-19.3421,6.43176,22.0418,-0.961438,-0.589035,-6.27853,-2.30665,-4.23681,-19.663,-1.27942,-3.57676,-4.83359,3.82664,11.2984,2.02098,5.50323,-27.8102,2.62803,2.25845,-10.6014,3.35946e-14,3.97569e-16,-41.8175,-10.3457,-64.7641,50.4856,-2.65762,-14.8759,20.2845,7.12502,11.2844,-9.39197,3.35946e-14,3.97569e-16,-56.159,3.08191,69.6401,100.788,7.25309,-27.9073,19.979,7.12502,-1.29634,49.9548,-50.5608,-4.51027,9.83744,30.205,-9.98466,-0.635832,-8.71781,-67.2887,5.51307,-14.8047,43.1633,27.5032,0.5116,16.5278
23.8419,18.1899,-32.3571,32.7792,-19.4231,6.68663,22.401,-0.895478,-0.476635,-6.19007,-2.19602,-4.27826,-19.7602,-1.2477,-3.72603,-4.58834,3.89428,11.1949,1.74094,5.56568,-27.9148,2.51986,2.32159,-10.6158,-7.07673e-14,8.34896e-15,-41.3307,-10.4676,-64.1275,50.916,-2.85804,-14.7816,20.6515,7.12502,11.3754,-9.01998,-7.07673e-14,8.34896e-15,-56.6019,3.35511,69.4582,98.8132,7.47519,-27.3612,19.5919,7.12502,-0.768951,49.5702,-50.9606,-4.30817,9.46215,30.4796,-10.6202,-1.05885,-7.01291,-67.5957,5.51283,-15.2419,43.5812,27.9409,-0.159702,17.1253
23.8457,18.1653,-32.3985,32.872,-19.4975,7.12588,22.5981,-0.847892,-0.312278,-6.10409,-2.11498,-4.45017,-19.7797,-1.24702,-4.04398,-4.61396,3.96436,11.1547,1.69951,5.66277,-27.9383,2.53362,2.37152,-10.6095,-4.41302e-14,2.0276e-14,-40.8361,-11.0328,-63.5554,51.2691,-2.70394,-15.0147,20.9776,7.12502,11.1506,-8.70616,-4.41302e-14,2.0276e-14,-56.8402,3.57218,69.3732,96.5588,7.37101,-27.243,20.7625,7.12502,-0.65479,50.7412,-51.4233,-4.45804,9.03013,30.662,-11.2803,-1.33288,-7.02498,-67.9651,5.09939,-15.5988,43.8961,28.0617,0.221088,18.9567
23.8517,18.1343,-32.4428,33.1842,-19.5294,7.47188,22.6694,-0.76028,-0.10065,-6.08392,-1.95764,-4.58941,-19.802,-1.21831,-4.38467,-4.72865,4.01335,11.3201,1.7814,5.74556,-28.0606,2.60563,2.40156,-10.6818,-7.15625e-15,1.94809e-14,-40.3631,-11.703,-62.9046,51.6486,-2.58997,-15.4197,20.9002,7.12502,10.76,-8.80426,-7.15625e-15,1.94809e-14,-56.9101,3.74351,69.3289,93.9659,7.18828,-27.5921,20.8777,7.12502,-0.99199,50.8552,-51.9897,-4.58463,8.65827,30.7127,-11.9213,-1.70623,-7.99349,-68.6264,4.78227,-15.8982,44.171,28.3584,-0.117307,17.3257
23.8583,18.1044,-32.4853,33.5094,-19.4998,7.60633,22.7412,-0.715372,0.177038,-6.02755,-1.80002,-4.54924,-19.7658,-1.17988,-4.55687,-4.79309,4.15336,11.5128,1.71882,5.93545,-28.3605,2.66115,2.49331,-10.8184,-2.64881e-14,-9.49197e-14,-39.6703,-11.9728,-62.2393,52.0201,-2.73664,-15.8585,20.3047,7.12502,10.3367,-9.42128,-2.64881e-14,-9.49197e-14,-57.0741,3.95467,69.2371,91.5553,7.82372,-27.5414,20.3466,7.12502,-0.943,50.3242,-52.3877,-4.35751,8.26602,30.6455,-12.4135,-2.22017,-7.70585,-69.2626,4.55954,-15.9388,44.4201,28.5833,-0.546347,14.4373
23.8735,18.0699,-32.5184,33.7988,-19.5253,7.8805,22.6028,-0.709184,0.434377,-5.88634,-1.70382,-4.56578,-19.5074,-1.16523,-4.7545,-4.74311,4.29606,11.7421,1.40309,6.08219,-28.7527,2.62327,2.58597,-10.9994,-2.65874e-15,2.71093e-14,-38.8554,-12.2355,-61.6395,52.406,-2.83298,-16.2722,19.5371,7.12502,9.93759,-10.2083,-2.65874e-15,2.71093e-14,-57.2111,4.01714,69.1802,89.2067,8.71588,-26.8437,20.508,7.12502,-0.269137,50.4876,-52.7469,-4.32493,7.76926,30.5124,-12.8824,-2.61568,-7.3416,-69.7686,4.13064,-16.009,44.5971,28.3873,-0.592516,13.4389
23.8895,18.0224,-32.5506,34.0951,-19.5292,8.02853,22.5514,-0.678084,0.77892,-5.75309,-1.54383,-4.5496,-19.3038,-1.13043,-4.98928,-4.68235,4.36055,11.9269,1.10853,6.12186,-29.0982,2.56297,2.62622,-11.1632,2.6339e-15,1.83379e-14,-38.1685,-12.4185,-61.018,52.927,-2.99882,-16.9511,19.373,7.12502,9.28251,-10.4026,2.6339e-15,1.83379e-14,-57.3001,4.09533,69.2913,86.4801,9.05091,-26.5381,20.1532,7.12502,0.0260444,50.1329,-53.0987,-4.48782,7.64314,30.3533,-13.3966,-3.01666,-8.54035,-70.1128,3.81207,-16.0017,44.6605,28.2556,-0.529536,14.3366
23.8986,17.982,-32.5894,34.2708,-19.5448,8.0203,22.8059,-0.613287,1.12301,-5.6423,-1.33392,-4.48002,-19.2944,-1.0721,-5.18438,-4.81432,4.36162,11.9542,1.11358,6.12472,-29.2359,2.59743,2.61783,-11.2196,4.57205e-15,-3.86636e-14,-37.5616,-12.4076,-60.483,53.4897,-3.61282,-17.6717,20.0276,7.12502,8.58714,-9.77774,4.57205e-15,-3.86636e-14,-57.2892,4.23765,69.3071,83.6227,9.75455,-26.2069,20.302,7.12502,0.345906,50.2815,-53.3643,-4.37214,7.61375,30.2911,-13.826,-3.51594,-10.1311,-70.2054,3.67784,-15.8721,44.5765,28.4109,-0.133234,16.9773
23.918,17.9527,-32.6225,34.5089,-19.6993,8.23927,22.8416,-0.545651,1.3434,-5.55472,-1.17942,-4.52993,-19.1961,-1.0319,-5.4238,-4.97203,4.38711,11.9412,1.19147,6.17222,-29.1977,2.65668,2.62738,-11.1972,2.28602e-15,9.54166e-15,-36.8868,-12.5164,-60.0304,54.0204,-4.23575,-18.007,20.1274,7.12502,8.26353,-9.69095,2.28602e-15,9.54166e-15,-57.1559,4.16655,69.2686,80.6462,10.5496,-25.8996,21.4871,7.12502,0.642715,51.4659,-53.8736,-4.35255,7.236,30.3703,-14.0669,-3.86897,-11.0354,-70.3738,3.16811,-15.7582,44.393,28.351,0.192559,17.131
23.9332,17.9221,-32.6574,34.907,-20.0095,8.33601,22.8563,-0.383162,1.35657,-5.5304,-0.947751,-4.5046,-19.1456,-0.929666,-5.49077,-4.67068,4.53167,11.831,0.909212,6.34135,-29.1426,2.55407,2.75242,-11.1428,-2.92213e-14,-1.68967e-14,-36.17,-12.7675,-59.4642,54.5538,-4.50979,-18.328,19.9073,7.12502,7.95379,-9.92305,-2.92213e-14,-1.68967e-14,-57.0994,4.08067,69.4164,77.5643,11.0352,-25.8043,22.183,7.12502,0.734786,52.1615,-54.6661,-4.3043,7.02545,30.5601,-14.1307,-4.16287,-12.1189,-70.545,3.02366,-15.7731,44.1326,27.5299,0.300971,14.5911
23.9494,17.8892,-32.6953,35.4764,-20.2878,8.1902,22.8133,-0.233005,1.50317,-5.55133,-0.677827,-4.40069,-19.1134,-0.821514,-5.56008,-3.93572,4.66422,11.6615,0.232395,6.43446,-29.2209,2.24981,2.89427,-11.1394,-6.55989e-15,2.84262e-14,-35.4698,-12.9741,-58.9615,55.1856,-4.83885,-18.6831,19.8567,7.12502,7.61108,-9.98633,-6.55989e-15,2.84262e-14,-57.0245,4.10328,69.4946,74.4116,11.6673,-25.1932,22.0667,7.12502,1.32501,52.0423,-55.5972,-4.0575,6.96156,30.7766,-14.0382,-4.49305,-12.8369,-70.7627,3.14409,-15.6964,43.8166,26.015,0.176521,9.96573
23.9699,17.8619,-32.7351,35.9819,-20.5651,8.12646,22.8261,-0.173428,1.62708,-5.58027,-0.539449,-4.29738,-19.1383,-0.769092,-5.56756,-3.41398,4.82667,11.6842,-0.29948,6.58547,-29.4907,2.05539,3.04002,-11.2441,3.24019e-14,2.0276e-14,-34.6921,-12.8057,-58.6105,55.8997,-5.26372,-19.1403,19.2961,7.12502,7.16973,-10.5625,3.24019e-14,2.0276e-14,-57.0793,4.21014,69.4842,71.2831,12.2659,-24.5414,21.871,7.12502,1.95448,51.8418,-56.4668,-3.87436,6.78005,30.9697,-14.0268,-4.56373,-12.3023,-70.9595,3.21167,-15.6674,43.4666,24.803,-0.715008,4.81532
23.9859,17.8434,-32.7723,36.255,-20.924,7.94619,23.1779,-0.117103,1.70315,-5.57468,-0.406757,-4.12271,-19.3105,-0.710597,-5.46789,-3.06629,5.04428,11.6575,-0.691376,6.83412,-29.6479,1.94662,3.21378,-11.2877,-1.92821e-14,-1.39149e-14,-33.7877,-12.321,-58.2532,56.476,-5.69632,-19.6636,18.7695,7.12502,6.66458,-11.1056,-1.92821e-14,-1.39149e-14,-57.4607,4.42484,69.6309,68.3636,12.6554,-24.3928,22.0997,7.12502,2.09797,52.0691,-57.0512,-3.56734,6.7003,31.1319,-14.2429,-4.45135,-11.2893,-70.8176,3.37164,-15.5043,43.1174,23.8062,-1.41431,2.17103
24.0055,17.8342,-32.7945,36.4046,-21.4058,7.71889,23.5544,-0.027918,1.79463,-5.4916,-0.227376,-3.98027,-19.3943,-0.632783,-5.42939,-2.62147,5.22426,11.6034,-1.28635,6.98658,-29.7752,1.74052,3.36106,-11.325,-1.07344e-14,4.73108e-14,-32.8425,-11.9611,-57.9084,57.025,-6.18473,-19.8089,19.0214,7.12502,6.52435,-10.8581,-1.07344e-14,4.73108e-14,-57.7181,4.69705,69.8297,65.3529,12.7908,-24.1769,22.5798,7.12502,2.30652,52.547,-57.4664,-3.07959,6.52035,31.3489,-14.4991,-4.45631,-11.3448,-70.4853,3.61879,-15.4222,42.8427,22.528,-2.43967,-1.6451
24.0329,17.8151,-32.8181,36.7219,-21.7829,7.59151,23.7322,0.0357182,1.91573,-5.41898,-0.0840848,-3.89625,-19.3845,-0.576761,-5.45808,-2.47434,5.39362,11.8508,-1.69204,7.15018,-30.075,1.66703,3.47984,-11.4816,-3.93594e-14,3.97569e-15,-32.0024,-11.902,-57.62,57.7173,-6.57679,-19.7151,19.7862,7.12502,6.6149,-10.0905,-3.93594e-14,3.97569e-15,-57.6194,4.93652,69.8717,62.0532,12.7371,-23.3775,22.7915,7.12502,3.07855,52.749,-58.0188,-2.81883,6.32571,31.4452,-14.5992,-4.48213,-12.3841,-70.5144,3.79734,-15.45,42.6591,21.1765,-3.13427,-0.766928
24.0603,17.7685,-32.8725,37.5557,-21.9473,7.54449,23.5733,0.0789384,1.93785,-5.55258,0.00438284,-3.7633,-19.4495,-0.535195,-5.35687,-2.35451,5.5158,12.0393,-1.9359,7.27882,-30.1925,1.62282,3.56907,-11.5585,9.54166e-15,-2.22639e-14,-31.3334,-11.9707,-57.2824,58.4446,-6.71219,-19.4994,20.2791,7.12502,6.8231,-9.59093,9.54166e-15,-2.22639e-14,-57.4639,4.9043,69.8688,58.5908,12.9074,-22.2589,22.711,7.12502,4.15881,52.6501,-59.2886,-2.87033,6.22457,31.6057,-14.4744,-4.51987,-12.6052,-71.4244,3.94368,-15.4576,42.5614,20.0649,-2.99767,5.36797
24.0796,17.7632,-32.8701,37.1245,-22.6966,7.296,24.5931,0.253749,1.78763,-5.35121,0.212293,-3.69225,-19.7436,-0.427267,-5.28398,-1.94499,5.67502,12.1884,-2.46731,7.41117,-30.2597,1.44334,3.69986,-11.618,1.27222e-14,-3.37934e-14,-30.5659,-11.8875,-57.0123,59.167,-6.87799,-19.1213,20.4938,7.12502,7.18806,-9.36417,1.27222e-14,-3.37934e-14,-57.4845,4.76373,69.8404,55.3872,13.5833,-21.287,22.5184,7.12502,5.09722,52.4371,-59.0826,-2.4584,6.17481,31.7926,-14.7263,-4.16058,-12.5036,-70.456,4.068,-15.2654,42.5008,18.1192,-3.0338,5.13183
24.102,17.7444,-32.8861,37.2359,-23.1406,7.21563,24.9765,0.255709,1.72796,-5.25253,0.211035,-3.62087,-19.8306,-0.415239,-5.1711,-1.70974,5.93573,12.4476,-2.99231,7.68407,-30.4002,1.34122,3.88618,-11.7132,-7.15625e-15,-1.03368e-14,-29.6437,-11.6036,-56.9588,59.9038,-7.23515,-19.0061,20.5095,7.12502,7.29925,-9.34458,-7.15625e-15,-1.03368e-14,-57.7472,4.74026,69.8133,52.7495,14.1668,-20.7402,22.4611,7.12502,5.62523,52.3664,-59.581,-2.28362,6.01006,32.1525,-14.8541,-4.11671,-13.0412,-70.3524,4.23361,-15.3888,42.4624,16.6995,-3.38255,1.67901
24.1291,17.712,-32.918,37.7648,-23.2297,7.184,24.862,0.179476,1.88122,-5.21825,0.17965,-3.517,-19.7239,-0.434104,-5.12204,-1.70924,6.14435,12.6374,-3.31051,7.91626,-30.4728,1.32327,4.02172,-11.7625,1.59028e-15,1.43125e-14,-28.8879,-11.2879,-56.8726,60.7865,-7.56101,-19.6984,20.1471,7.12502,6.63093,-9.7291,1.59028e-15,1.43125e-14,-57.9251,4.78232,69.9564,50.1367,13.9859,-20.3828,22.8726,7.12502,5.97028,52.7685,-60.5554,-2.47403,6.00954,32.5728,-14.8497,-4.13056,-13.9518,-70.9219,4.44407,-15.6654,42.4125,15.8672,-3.98479,-1.81029
24.1565,17.6705,-32.97,38.4607,-22.992,7.23187,24.645,0.0346371,2.16587,-5.22094,0.0985218,-3.40376,-19.6128,-0.489464,-5.1171,-1.67626,6.27053,12.8715,-3.66911,8.02343,-30.5031,1.25921,4.09938,-11.8156,4.6118e-14,-2.22639e-14,-28.2781,-11.025,-56.7019,61.7451,-7.9769,-20.8995,19.6798,7.12502,5.47142,-10.2295,4.6118e-14,-2.22639e-14,-57.7529,4.79313,70.0487,47.1718,13.4906,-19.7396,23.3459,7.12502,6.59117,53.2233,-61.8079,-2.62796,5.83618,33.2319,-14.9415,-4.50471,-13.9237,-71.9043,4.57864,-16.0469,42.3477,14.9277,-5.7434,-11.935
24.1804,17.6311,-33.0217,39.152,-22.7073,7.40236,24.411,-0.17649,2.37173,-5.28272,-0.103028,-3.29928,-19.5811,-0.591098,-5.03251,-1.41176,6.42813,13.1525,-4.08487,8.17843,-30.5216,1.14977,4.22035,-11.8791,5.1684e-15,-1.63003e-14,-27.5937,-10.6869,-56.7288,62.5574,-8.36037,-21.9596,19.5751,7.12502,4.44781,-10.3582,5.1684e-15,-1.63003e-14,-57.751,4.79973,69.9684,44.3007,12.7996,-18.7291,23.5055,7.12502,7.56663,53.3501,-63.0605,-2.62404,5.32798,33.9716,-15.0996,-5.10656,-13.0776,-72.9066,4.54046,-16.4462,42.2365,13.8447,-7.0127,-19.3711
24.2017,17.6005,-33.0616,39.7268,-22.5364,7.57382,24.2694,-0.403826,2.42866,-5.39906,-0.359683,-3.10978,-19.6727,-0.69604,-4.74847,-0.900134,6.6354,13.3794,-4.48648,8.42512,-30.7329,1.03045,4.40656,-12.0101,-9.54166e-15,-2.54444e-14,-26.7919,-10.2857,-56.8849,63.2672,-8.29391,-22.4597,19.4613,7.12502,3.96483,-10.4815,-9.54166e-15,-2.54444e-14,-58.2839,5.03573,69.9982,41.8315,11.3097,-17.7817,23.5906,7.12502,8.481,53.4003,-64.1564,-2.64573,4.85983,34.6896,-15.2816,-5.56785,-12.5383,-73.6244,4.40825,-16.6711,42.0595,13.1889,-6.8926,-18.367
24.2243,17.5727,-33.0944,40.1531,-22.414,7.65685,24.3749,-0.589557,2.50323,-5.48123,-0.546554,-2.90012,-19.8509,-0.772582,-4.48018,-0.613075,6.82483,13.5435,-4.79494,8.65257,-30.9437,0.971655,4.56165,-12.1212,-1.90833e-14,2.74323e-14,-26.1211,-10.1247,-56.9072,64.0375,-7.88329,-22.1277,19.1526,7.12502,4.28546,-10.784,-1.90833e-14,2.74323e-14,-58.9169,5.51005,69.7623,39.995,10.7078,-15.9532,24.0283,7.12502,10.2453,53.7588,-65.0422,-2.63778,4.51675,35.3135,-15.4348,-5.90908,-11.9823,-74.0841,4.25007,-16.6914,41.8237,12.6543,-6.34774,-16.4067
24.2451,17.5415,-33.1141,40.4376,-22.4984,7.73167,24.3622,-0.671552,2.5148,-5.36447,-0.641325,-2.84265,-19.7024,-0.802977,-4.37864,-0.48933,6.97636,13.7082,-5.22664,8.79025,-30.9255,0.873961,4.66419,-12.1458,3.26007e-14,1.07344e-14,-25.5297,-10.177,-56.9856,64.9224,-7.47322,-21.9593,19.3496,7.12502,4.4481,-10.5837,3.26007e-14,1.07344e-14,-59.2105,5.76512,69.5876,38.227,9.35612,-14.6004,23.8129,7.12502,11.5501,53.4747,-65.764,-2.58059,4.15234,35.8387,-15.542,-6.06118,-11.2811,-74.3052,4.1992,-16.8244,41.5624,12.0992,-5.86918,-15.6604
24.2638,17.5158,-33.1277,40.5947,-22.6505,7.77041,24.5226,-0.702381,2.59892,-5.26246,-0.663302,-2.90166,-19.6685,-0.824037,-4.48236,-0.222974,7.06424,13.9951,-5.61777,8.86146,-30.8172,0.745005,4.73782,-12.1717,-1.11319e-14,2.50469e-14,-25.1509,-10.1966,-57.1752,65.8479,-7.13511,-22.3472,19.4174,7.12502,4.07348,-10.5234,-1.11319e-14,2.50469e-14,-59.4131,5.92219,69.1186,36.7368,8.31976,-12.8144,24.002,7.12502,13.2721,53.5594,-66.3206,-2.57229,3.92597,36.3086,-15.6692,-6.01659,-10.8078,-74.3138,4.2313,-17.0079,41.3209,11.5199,-5.67627,-15.82
24.2875,17.4929,-33.1442,40.7782,-22.6022,7.79659,24.7652,-0.670274,2.72245,-5.19439,-0.558485,-2.822,-19.7052,-0.786691,-4.50305,-0.27296,7.09929,14.2453,-5.72822,8.89551,-30.8166,0.747034,4.75508,-12.2172,2.06736e-14,3.97569e-14,-24.9097,-10.2679,-57.043,66.7732,-6.90633,-22.6253,19.3615,7.12502,3.80496,-10.5843,2.06736e-14,3.97569e-14,-59.5928,6.00075,68.8408,35.5957,7.8504,-10.9171,24.9506,7.12502,15.1004,54.3798,-66.8446,-2.61707,3.75084,36.7875,-15.7988,-6.16122,-10.828,-74.421,4.17906,-17.1153,41.119,10.7682,-5.8017,-17.558
24.3122,17.4605,-33.1646,41.1332,-22.5347,7.87341,24.7366,-0.703015,2.93502,-5.1219,-0.534384,-2.83188,-19.5976,-0.797995,-4.64171,-0.325609,7.1747,14.489,-5.94848,8.96463,-30.705,0.720535,4.79359,-12.2165,-1.11319e-14,6.99722e-14,-24.8039,-10.3327,-57.0003,67.803,-6.62314,-22.8577,19.7219,7.12502,3.58048,-10.2277,-1.11319e-14,6.99722e-14,-59.7858,6.18913,68.33,34.6357,7.22016,-9.07881,25.9328,7.12502,16.8706,55.22,-67.596,-2.65363,3.44061,37.3014,-15.871,-6.42898,-10.9613,-74.7935,4.16483,-17.352,40.9716,9.80933,-6.09753,-19.9387
24.3327,17.4195,-33.1894,41.5793,-22.5208,7.85218,24.7197,-0.745266,3.1064,-5.09865,-0.527671,-2.79235,-19.5588,-0.810426,-4.69539,-0.278439,7.25857,14.5308,-6.28118,9.02515,-30.4996,0.624928,4.84233,-12.1475,7.95139e-16,3.02153e-14,-24.7616,-10.2247,-56.9686,68.9624,-6.35611,-22.9278,19.803,7.12502,3.51281,-10.1478,7.95139e-16,3.02153e-14,-60.0963,6.71821,67.6471,33.5653,5.74399,-7.56734,26.2355,7.12502,18.3251,55.3923,-68.4717,-2.54707,3.12751,37.8312,-15.9086,-6.69807,-11.0633,-75.2367,4.29165,-17.5954,40.8818,8.88142,-6.52264,-23.3447
24.351,17.3808,-33.2117,41.9391,-22.5202,7.76689,24.7776,-0.764253,3.19241,-5.01373,-0.495647,-2.65169,-19.4755,-0.7909,-4.59388,-0.246813,7.32028,14.45,-6.72192,9.02482,-30.4423,0.492202,4.87046,-12.1197,2.26615e-14,-3.37934e-14,-24.4857,-10.118,-56.9926,69.9991,-6.20141,-23.0191,19.73,7.12502,3.4247,-10.2222,2.26615e-14,-3.37934e-14,-60.4183,7.21666,67.296,32.4437,3.76771,-7.06992,26.1456,7.12502,18.8036,55.2567,-69.2094,-2.37043,2.87469,38.3634,-15.9908,-7.05726,-11.3668,-75.5881,4.46509,-17.8015,40.8593,8.04736,-6.93576,-26.981
24.3725,17.348,-33.224,42.2564,-22.603,7.57213,24.8987,-0.766014,3.29434,-4.96048,-0.428154,-2.48189,-19.4629,-0.758514,-4.48417,0.121129,7.38055,14.3993,-7.20365,9.03888,-30.5363,0.302077,4.93582,-12.1734,2.82274e-14,1.19271e-15,-24.1928,-9.8945,-57.0384,70.8446,-5.96634,-23.0756,20.0437,7.12502,3.37011,-9.90937,2.82274e-14,1.19271e-15,-61.0004,7.50083,67.0749,31.7285,2.42197,-6.61381,26.1649,7.12502,19.2422,55.2329,-69.8729,-2.29078,2.89503,38.8805,-16.1326,-7.12036,-11.5069,-75.8525,4.65377,-17.8606,40.8945,7.15836,-6.79298,-28.5385
24.4063,17.3089,-33.2392,42.8001,-22.668,7.23475,24.9848,-0.759375,3.60948,-5.05218,-0.280672,-2.31645,-19.609,-0.72548,-4.53693,0.460247,7.44094,14.2528,-7.39563,9.11024,-30.4699,0.191279,5.01011,-12.1346,3.97569e-15,3.53837e-14,-24.266,-9.53974,-56.9098,71.792,-5.6744,-23.0085,20.4657,7.12502,3.43494,-9.48638,3.97569e-15,3.53837e-14,-61.7959,7.63428,66.8231,31.3868,1.69581,-5.77282,26.2591,7.12502,20.0507,55.2445,-70.8152,-2.41322,3.22798,39.3915,-16.2687,-6.77016,-11.5152,-76.4139,4.81496,-17.7229,41.002,6.36446,-6.17289,-27.2592
24.4147,17.2845,-33.2676,43.1741,-22.7017,7.02259,25.1567,-0.663323,3.5528,-5.08178,-0.131719,-2.15048,-19.7205,-0.646011,-4.37848,0.490706,7.51441,14.2253,-7.45837,9.20859,-30.4125,0.186517,5.0657,-12.1016,1.82882e-14,-4.77083e-14,-24.4496,-9.3342,-56.8112,72.7687,-5.37331,-23.2431,20.5298,7.12502,3.20832,-9.42579,1.82882e-14,-4.77083e-14,-62.2871,7.88237,66.2049,31.8495,3.36028,-2.99925,28.7168,7.12502,22.7147,57.3998,-71.5474,-2.19859,3.17999,39.9135,-16.4593,-6.88898,-11.3185,-76.8723,5.19041,-17.9402,41.139,5.71753,-6.07764,-26.0831
24.432,17.2526,-33.2919,43.5777,-22.7811,6.95207,25.1914,-0.597365,3.50737,-5.06513,-0.0433689,-2.0828,-19.707,-0.597032,-4.31138,0.544209,7.59495,14.4405,-7.6617,9.29579,-30.5528,0.166264,5.12476,-12.1974,-1.82882e-14,4.21423e-14,-24.457,-9.31104,-56.8847,73.5434,-4.97435,-23.3099,20.894,7.12502,3.14383,-9.06258,-1.82882e-14,4.21423e-14,-62.5354,7.85249,65.9933,31.8429,3.94033,-1.741,30.0131,7.12502,23.9218,58.5431,-72.3583,-2.21665,3.08703,40.451,-16.6269,-6.90175,-10.9075,-77.4435,5.46237,-18.3536,41.3094,5.19878,-6.2116,-28.83
24.4488,17.2131,-33.3074,43.9985,-22.9185,6.85719,25.1367,-0.495417,3.45521,-5.02451,0.0878778,-2.01804,-19.6092,-0.52652,-4.25955,0.774514,7.61037,14.5748,-8.01257,9.27046,-30.6593,0.0392644,5.14958,-12.2883,1.35174e-14,-1.98785e-14,-24.5353,-9.33138,-56.9092,74.3003,-4.46213,-23.1294,21.6849,7.12502,3.31815,-8.26898,1.35174e-14,-1.98785e-14,-62.8057,7.51164,66.2821,31.4598,3.31676,-1.82853,29.4808,7.12502,23.8378,58.0218,-73.184,-2.26131,3.04772,40.9867,-16.6909,-6.83908,-11.0222,-77.9877,5.70715,-18.6872,41.4898,4.75621,-6.21924,-30.8122
24.463,17.177,-33.3203,44.298,-23.0531,6.7154,25.2871,-0.381495,3.398,-5.00967,0.244133,-1.93156,-19.6557,-0.447874,-4.19349,1.00913,7.58976,14.6711,-8.3016,9.20561,-30.7266,-0.0868702,5.15085,-12.3596,1.74931e-14,3.10104e-14,-24.7522,-9.16873,-56.9461,75.1542,-4.07171,-23.1535,22.1161,7.12502,3.2949,-7.8382,1.74931e-14,3.10104e-14,-63.2587,7.08765,66.7321,30.9674,2.17513,-2.66235,28.3599,7.12502,23.038,57.003,-73.8583,-2.2284,3.05802,41.4874,-16.7852,-6.75324,-11.334,-78.3832,5.84835,-18.7169,41.6992,4.3416,-5.81638,-28.6369
24.479,17.1466,-33.3393,44.6506,-23.0211,6.49693,25.4411,-0.374896,3.47383,-5.00191,0.311915,-1.78429,-19.7216,-0.417995,-4.0977,1.10278,7.64616,14.7656,-8.48538,9.26208,-30.7686,-0.130844,5.19572,-12.3996,-5.00937e-14,3.81667e-14,-24.8279,-8.79381,-57.1211,75.8899,-3.68922,-23.3729,22.5484,7.12502,3.08301,-7.40909,-5.00937e-14,3.81667e-14,-63.6973,6.99998,66.8756,30.7433,1.9569,-2.98493,27.8675,7.12502,22.7284,56.5488,-74.5385,-2.25879,3.26173,41.9528,-17.0486,-6.58705,-10.5472,-78.9135,5.98742,-18.6439,41.9191,4.01749,-5.60353,-27.9197
24.4971,17.1181,-33.361,45.0115,-22.8892,6.45189,25.483,-0.453712,3.53645,-4.94331,0.260562,-1.6137,-19.6728,-0.430494,-3.91628,1.02802,7.7892,14.6624,-8.70595,9.41504,-30.7276,-0.147879,5.28188,-12.3522,1.51076e-14,3.97569e-14,-24.7306,-8.4783,-57.3125,76.4714,-3.09016,-23.7602,22.6208,7.12502,2.70894,-7.34169,1.51076e-14,3.97569e-14,-63.9155,7.09079,67.0151,30.6937,2.54008,-2.95784,27.8526,7.12502,22.7544,56.5307,-75.2352,-2.54974,3.4639,42.409,-17.2479,-6.41671,-10.2859,-79.5626,5.99431,-18.7519,42.1363,3.76232,-5.66462,-29.5064
24.516,17.09,-33.373,45.0905,-22.8932,6.59774,25.6703,-0.473311,3.45827,-4.81632,0.23028,-1.52399,-19.6158,-0.422857,-3.75599,0.95181,7.9186,14.566,-8.92105,9.54993,-30.7333,-0.16399,5.36059,-12.3256,-1.82882e-14,-1.35174e-14,-24.729,-8.30189,-57.4032,77,-2.64855,-24.1787,22.3255,7.12502,2.30473,-7.6418,-1.82882e-14,-1.35174e-14,-64.0294,6.89455,67.4667,30.7435,3.13949,-3.07551,27.9681,7.12502,22.6415,56.6601,-75.6926,-2.87949,3.45338,42.8931,-17.3656,-6.25249,-10.8428,-79.8254,5.69417,-18.6809,42.3346,3.27523,-5.22508,-27.8367
24.5344,17.0618,-33.3817,45.0106,-22.8792,6.72943,26.0407,-0.487084,3.42546,-4.69062,0.223332,-1.46413,-19.6581,-0.415953,-3.66653,1.07852,7.9883,14.6375,-9.1767,9.6117,-30.861,-0.226598,5.41887,-12.3983,7.15625e-15,2.38542e-15,-24.8606,-8.13601,-57.4687,77.4732,-2.37388,-24.3689,22.5474,7.12502,2.1211,-7.42175,7.15625e-15,2.38542e-15,-64.1452,6.65672,67.8535,30.8723,3.46742,-3.0391,28.0864,7.12502,22.6764,56.7741,-75.9953,-3.12509,3.40833,43.43,-17.6047,-6.06648,-10.4691,-79.8553,5.34703,-18.4569,42.5121,2.76681,-4.66548,-23.3663
24.5531,17.0303,-33.3976,45.1027,-22.6619,6.87506,26.4019,-0.554129,3.50599,-4.67321,0.192316,-1.36492,-19.834,-0.434675,-3.58862,1.16035,8.02733,14.7382,-9.32465,9.64949,-30.97,-0.257313,5.45422,-12.4659,-3.49861e-14,3.18055e-14,-25.0512,-8.09832,-57.5674,77.9145,-1.64537,-24.26,22.4753,7.12502,2.22624,-7.49282,-3.49861e-14,3.18055e-14,-64.1896,6.55283,68.0004,30.9244,3.92289,-2.96974,28.1116,7.12502,22.743,56.7911,-76.4743,-3.48879,3.4401,44.002,-17.8184,-5.95057,-10.0616,-80.2037,5.10168,-18.5091,42.6726,2.53699,-4.73418,-23.9972
24.574,16.9894,-33.4219,45.5113,-22.3437,6.96956,26.4542,-0.580989,3.66326,-4.73881,0.235243,-1.25319,-19.9407,-0.430176,-3.56969,1.23989,8.00494,14.827,-9.41178,9.61462,-30.9699,-0.298554,5.44624,-12.4939,6.36111e-15,4.77083e-15,-25.331,-8.21685,-57.7088,78.1009,-0.6947,-24.2679,22.1384,7.12502,2.21865,-7.82977,6.36111e-15,4.77083e-15,-64.1129,6.31881,68.128,30.9769,4.76829,-3.27568,28.0965,7.12502,22.4494,56.8118,-77.3124,-3.96895,3.63213,44.5813,-17.8554,-5.90652,-10.6738,-81.0046,4.94566,-18.6668,42.8438,2.30675,-5.10735,-30.0516
24.5892,16.9501,-33.4457,45.9234,-22.1928,6.89322,26.4361,-0.56094,3.70856,-4.73539,0.305446,-1.10944,-19.9184,-0.393901,-3.4605,1.42635,8.02,14.7359,-9.64948,9.60401,-30.8945,-0.411378,5.46929,-12.4669,-3.97569e-15,-3.57812e-14,-25.4994,-8.06805,-57.9661,78.0844,-0.310261,-24.718,22.5068,7.12502,1.7839,-7.46548,-3.97569e-15,-3.57812e-14,-64.0415,6.14769,68.3916,31.2566,5.55665,-3.66014,27.9436,7.12502,22.0803,56.7029,-78.1323,-4.17757,3.83326,45.1253,-17.8292,-5.97516,-11.6148,-81.684,4.92915,-18.5442,43.0368,2.14416,-5.05859,-30.5966
24.6,16.9188,-33.4586,46.0468,-22.2608,6.81696,26.6508,-0.550006,3.59325,-4.61955,0.305407,-1.01388,-19.886,-0.369884,-3.28597,1.39631,8.1085,14.6488,-9.72439,9.71229,-30.8449,-0.40883,5.52798,-12.4216,-3.73715e-14,3.89618e-14,-25.5961,-7.73118,-58.4034,78.303,-0.0947616,-25.2594,23.0403,7.12502,1.261,-6.93573,-3.73715e-14,3.89618e-14,-63.9251,6.13841,68.6525,31.609,6.12307,-3.86431,27.831,7.12502,21.8843,56.6133,-78.6197,-4.12869,3.77752,45.6321,-17.913,-5.99745,-11.542,-81.8879,4.86008,-18.2108,43.2442,2.02016,-4.53207,-23.9871
24.6147,16.8905,-33.4661,46.0422,-22.2306,6.79929,26.9453,-0.57356,3.64988,-4.46713,0.306182,-0.993422,-19.8491,-0.370849,-3.29316,1.22027,8.13747,14.7433,-9.6311,9.76602,-30.8229,-0.333647,5.53461,-12.4127,-2.70347e-14,-2.06736e-14,-25.7977,-7.65579,-58.8588,78.505,0.228268,-25.3152,23.5042,7.12502,1.20711,-6.47217,-2.70347e-14,-2.06736e-14,-63.6564,5.95478,68.9155,31.777,6.53915,-4.39757,27.3903,7.12502,21.3721,56.2317,-78.9143,-4.17161,3.7146,46.1175,-18.124,-5.85003,-10.7705,-81.9774,4.67228,-17.9408,43.4708,1.68472,-4.12534,-20.8908
24.6266,16.8564,-33.4787,46.241,-22.0003,6.66631,27.0907,-0.567873,3.8223,-4.37593,0.405832,-0.852271,-19.7997,-0.335161,-3.26988,1.17814,8.11355,14.7855,-9.61511,9.7342,-30.8598,-0.323719,5.51628,-12.4351,-4.37326e-14,-1.90833e-14,-25.978,-7.6549,-59.1079,78.3883,0.522957,-25.2611,23.9112,7.12502,1.25935,-6.06481,-4.37326e-14,-1.90833e-14,-63.4081,5.77084,69.1303,32.1078,7.25679,-4.46975,26.8515,7.12502,21.3028,55.7007,-79.3443,-4.19651,3.80542,46.5967,-18.3178,-5.87697,-10.2383,-82.3885,4.65391,-17.812,43.7269,1.38985,-4.18497,-24.0057
24.635,16.8172,-33.4961,46.5974,-21.8006,6.52295,27.108,-0.550868,3.81989,-4.40043,0.470814,-0.639613,-19.8339,-0.292545,-3.05504,1.41455,8.10307,14.7927,-9.72588,9.71561,-30.9267,-0.396231,5.53353,-12.4819,-2.14687e-14,-2.54444e-14,-26.1778,-7.26405,-59.3997,78.204,0.766074,-25.8983,24.0835,7.12502,0.643976,-5.89522,-2.14687e-14,-2.54444e-14,-63.3652,5.94624,69.0457,32.6308,7.86855,-4.26524,26.7595,7.12502,21.4992,55.5863,-79.9637,-4.14219,3.82457,47.0669,-18.4556,-6.18168,-10.1902,-83.0512,4.79986,-17.892,44.0302,1.17755,-4.36143,-26.0001
24.6431,16.7861,-33.5126,46.8457,-21.7035,6.39341,27.2625,-0.577731,3.79801,-4.39166,0.455637,-0.527716,-19.9066,-0.289345,-2.91015,1.69439,8.13444,14.7799,-10.0407,9.72486,-30.833,-0.538807,5.57314,-12.4702,-4.13472e-14,-1.35174e-14,-26.3683,-6.78514,-59.8581,78.006,0.780195,-26.4753,24.4007,7.12502,0.0867307,-5.579,-4.13472e-14,-1.35174e-14,-63.2562,6.09756,69.0399,33.2078,8.11158,-4.96729,26.9868,7.12502,20.8248,55.8892,-80.4799,-4.07503,3.84639,47.5005,-18.5403,-6.39194,-10.4206,-83.5676,4.99566,-18.0532,44.3698,0.948723,-4.39836,-25.9577
24.6507,16.7626,-33.5281,46.9963,-21.659,6.2969,27.549,-0.535966,3.73021,-4.31659,0.512634,-0.453969,-19.9592,-0.252365,-2.81317,1.76097,8.14608,14.8518,-10.2754,9.70805,-30.8102,-0.615538,5.57994,-12.4895,-1.19271e-14,1.98785e-14,-26.5208,-6.66355,-60.2361,77.6681,0.913612,-26.54,24.667,7.12502,0.0241702,-5.31272,-1.19271e-14,1.98785e-14,-62.916,5.88182,69.4467,33.9525,8.64034,-5.91623,27.6652,7.12502,19.9129,56.665,-80.8926,-4.04333,3.88936,47.8929,-18.5775,-6.52248,-11.0246,-83.9727,5.16498,-18.2481,44.7328,0.559824,-4.49067,-28.6746
24.666,16.7387,-33.5389,47.0385,-21.5615,6.30453,27.8749,-0.505926,3.68085,-4.25295,0.565167,-0.36503,-20.0471,-0.219348,-2.70802,1.76995,8.14302,15.0904,-10.2579,9.71789,-30.9901,-0.580402,5.58494,-12.6042,0,5.56597e-15,-26.7688,-6.65064,-60.5796,77.3325,1.24289,-26.4157,24.74,7.12502,0.144208,-5.23973,0,5.56597e-15,-62.5945,5.59472,69.9008,34.6797,9.17857,-6.77986,28.0138,7.12502,19.0825,57.0977,-81.1793,-4.1699,3.9273,48.2582,-18.7158,-6.56322,-11.3359,-84.2778,5.10246,-18.3665,45.0818,0.0284943,-4.46042,-32.4779
24.6822,16.7121,-33.5456,47.0937,-21.3784,6.19154,28.1956,-0.564247,3.80915,-4.17337,0.564683,-0.267203,-20.1129,-0.227223,-2.6684,1.78777,8.21255,15.2231,-10.2943,9.8219,-31.0245,-0.55635,5.63858,-12.6357,-1.51076e-14,-1.82882e-14,-27.0081,-6.44719,-61.0496,77.0359,1.6029,-26.6656,24.7851,7.12502,-0.0971097,-5.19464,-1.51076e-14,-1.82882e-14,-62.2828,5.52169,70.0664,35.4909,9.72398,-7.44136,27.8833,7.12502,18.4463,57.0287,-81.457,-4.29345,4.14879,48.7131,-18.9672,-6.38535,-10.6601,-84.5112,5.00556,-18.1752,45.4221,-0.292799,-4.28872,-32.5368
24.6878,16.686,-33.5609,47.3383,-21.1984,5.92824,28.4146,-0.567172,3.86829,-4.11153,0.621529,-0.11096,-20.144,-0.198378,-2.54832,1.9806,8.26765,15.1316,-10.5844,9.86376,-30.8692,-0.678274,5.68702,-12.5767,2.62396e-14,-5.40694e-14,-27.1189,-6.1758,-61.553,76.4918,2.08013,-27.5794,25.1725,7.12502,-0.979718,-4.80502,2.62396e-14,-5.40694e-14,-61.8769,5.51386,70.2559,36.4223,10.5262,-7.99293,27.5479,7.12502,17.9156,56.7427,-81.9023,-4.20654,4.38342,49.1354,-19.0763,-6.41349,-10.3563,-84.918,5.12353,-17.9089,45.7071,-0.4382,-4.20669,-30.9974
24.6917,16.6187,-33.6137,48.5032,-20.9334,5.8244,27.6068,-0.534869,3.65177,-4.26038,0.606736,0.151323,-19.9141,-0.15552,-2.12196,2.21051,8.29409,14.9347,-10.8902,9.85473,-30.7362,-0.829107,5.71753,-12.515,3.89618e-14,-8.74653e-15,-27.0209,-5.93731,-62.0338,75.7107,2.527,-28.0642,25.9027,7.12502,-1.44791,-4.07217,3.89618e-14,-8.74653e-15,-61.4696,5.63843,70.5986,37.2774,11.1124,-8.92585,27.3151,7.12502,17.0178,56.5896,-83.6194,-4.39797,4.50016,49.6557,-18.8508,-6.75762,-10.672,-86.6757,5.44112,-18.1568,45.9731,-0.463853,-4.52921,-31.2204
24.7077,16.6055,-33.6097,48.2925,-20.827,5.69634,28.1031,-0.67157,3.70983,-4.04575,0.489243,0.294145,-19.9088,-0.197131,-1.94094,2.14337,8.41822,14.8434,-10.9472,10.0122,-30.6916,-0.802974,5.79735,-12.4637,-3.26007e-14,4.29375e-14,-26.8921,-5.61685,-62.5172,75.0557,2.79181,-27.9768,26.2787,7.12502,-1.36348,-3.69672,-3.26007e-14,4.29375e-14,-61.0829,5.91804,70.8659,38.2153,11.4411,-9.8762,27.7038,7.12502,16.1029,57.0548,-83.5775,-4.51393,4.83665,50.0798,-19.1142,-6.55417,-11.0387,-86.4744,5.30604,-17.8379,46.2081,-1.04002,-4.24795,-32.1442
24.7217,16.5963,-33.6073,47.984,-20.6511,5.68736,28.8031,-0.807373,3.78946,-3.88581,0.384386,0.389682,-20.0751,-0.243615,-1.83032,2.17365,8.48812,14.8304,-10.9508,10.1168,-30.6455,-0.788704,5.85206,-12.4357,1.82882e-14,-1.03368e-14,-27.1295,-5.35593,-62.8606,74.5781,2.96745,-28.1028,26.763,7.12502,-1.48517,-3.21159,1.82882e-14,-1.03368e-14,-60.6846,5.94866,71.2079,39.3106,11.6987,-10.6878,28.1822,7.12502,15.3212,57.5947,-83.4478,-4.69131,5.06083,50.5788,-19.5034,-6.33946,-10.5924,-86.2026,5.06221,-17.58,46.446,-1.50161,-4.09833,-32.1819
24.731,16.5504,-33.6404,48.5197,-20.4166,5.70998,28.6983,-0.802608,3.67146,-3.9838,0.379847,0.55909,-20.149,-0.221571,-1.57131,2.35864,8.44158,14.6191,-11.0002,10.0508,-30.4369,-0.883616,5.83438,-12.336,-2.62396e-14,7.15625e-15,-27.4153,-5.29492,-63.2797,73.9069,3.45873,-28.582,27.3931,7.12502,-1.94802,-2.57771,-2.62396e-14,7.15625e-15,-60.2878,5.77895,71.7046,40.4566,12.0168,-11.6509,28.468,7.12502,14.3934,57.9489,-84.3725,-4.90955,5.1174,51.0132,-19.5152,-6.49323,-10.0728,-87.0928,5.08631,-17.6635,46.6523,-1.81798,-4.1888,-32.3892
24.7441,16.4946,-33.6766,49.3357,-20.1838,5.75185,28.2024,-0.929053,3.57291,-4.08216,0.183883,0.70223,-20.0276,-0.278732,-1.27045,2.39527,8.53959,14.4291,-11.1154,10.1686,-30.2231,-0.923288,5.90063,-12.2153,-4.29375e-14,3.10104e-14,-27.3911,-4.94568,-63.9796,73.1429,3.94693,-29.3485,27.2737,7.12502,-2.68827,-2.68912,-4.29375e-14,3.10104e-14,-59.8794,5.83652,72.0165,41.7701,12.4295,-12.5207,28.537,7.12502,13.5552,58.0758,-85.6466,-5.29936,5.29314,51.4285,-19.3793,-6.6166,-10.9144,-88.3331,5.0974,-17.7565,46.8188,-2.10369,-4.25037,-33.0245
24.7536,16.4923,-33.6628,49.0113,-20.1925,5.45785,28.7972,-0.821275,3.67597,-3.77522,0.359343,0.583901,-19.9333,-0.222303,-1.5355,1.97882,8.51962,15.1505,-10.887,10.198,-30.3222,-0.721221,5.85303,-12.35,-1.90833e-14,3.02153e-14,-27.8414,-5.15646,-64.4049,72.6155,4.18398,-30.1611,27.2241,7.12502,-3.473,-2.72733,-1.90833e-14,3.02153e-14,-59.031,5.12945,72.4189,43.2208,12.8883,-13.4151,28.714,7.12502,12.6931,58.3082,-85.3333,-5.1425,5.61792,51.7034,-19.5656,-6.50638,-12.0091,-87.7947,5.00757,-17.0752,46.9631,-2.67524,-3.73822,-33.4102
24.7544,16.4896,-33.6547,48.5674,-20.0954,5.20005,29.6702,-0.772334,3.69743,-3.5593,0.472034,0.611043,-20.0984,-0.177507,-1.56416,1.95182,8.4542,15.5022,-10.7671,10.1513,-30.2739,-0.676096,5.80756,-12.3962,-1.59028e-14,-7.15625e-15,-28.269,-5.23144,-64.8574,71.9575,4.5083,-30.688,28.1465,7.12502,-3.98188,-1.79599,-1.59028e-14,-7.15625e-15,-58.48,4.65258,72.8503,44.7317,13.4716,-14.7441,29.0123,7.12502,11.4116,58.6817,-84.8417,-4.88768,5.81633,51.928,-19.7321,-6.55407,-12.2249,-87.1272,4.94149,-16.5062,47.0579,-3.26328,-3.44833,-33.9981
24.762,16.4476,-33.6743,49.0153,-20.0187,5.05341,29.5647,-0.76527,3.55511,-3.58855,0.443181,0.703855,-20.0861,-0.166397,-1.36762,2.09705,8.43501,15.3741,-10.7794,10.1396,-29.9688,-0.742805,5.80448,-12.2666,1.82882e-14,-1.19271e-14,-28.4924,-5.07319,-65.4886,71.2134,4.54337,-31.0079,28.8483,7.12502,-4.29075,-1.08827,1.82882e-14,-1.19271e-14,-58.1325,4.64139,73.0672,46.306,13.8758,-15.3805,29.1691,7.12502,10.7978,58.8715,-85.5585,-4.89772,5.92671,52.1984,-19.722,-6.61156,-11.7,-87.6859,5.07343,-16.3742,47.1319,-3.67343,-3.41017,-34.4016
24.7723,16.4253,-33.6825,49.1539,-20.0309,4.94994,29.6974,-0.799676,3.37866,-3.53561,0.348614,0.764854,-20.0925,-0.180332,-1.15851,2.26889,8.44794,15.1251,-10.793,10.1704,-29.5997,-0.81735,5.82628,-12.0891,-7.15625e-15,-7.07673e-14,-28.7021,-4.69944,-66.1011,70.4991,4.3896,-31.5353,28.9762,7.12502,-4.79999,-0.949382,-7.15625e-15,-7.07673e-14,-57.7111,4.89559,73.1614,47.8648,14.0527,-15.2587,29.5179,7.12502,10.9152,59.2142,-85.9061,-4.84203,5.90129,52.5045,-19.8742,-6.61511,-10.8627,-87.7767,5.0186,-16.0564,47.1425,-4.15032,-3.05683,-33.7603
24.7808,16.4005,-33.6972,49.3174,-19.8727,4.90527,29.8812,-1.15983,3.16468,-3.47466,-0.137831,1.07991,-20.1287,-0.3311,-0.46499,2.69544,8.71413,14.1896,-11.1585,10.4667,-29.2077,-1.01953,6.04049,-11.786,6.44062e-14,-2.54444e-14,-28.3837,-3.39839,-66.8806,69.7005,4.20659,-32.2189,29.3587,7.12502,-5.46013,-0.550941,6.44062e-14,-2.54444e-14,-57.4579,6.1638,73.1628,49.4078,14.3139,-15.8073,29.8378,7.12502,10.3861,59.5612,-86.2994,-4.90126,5.94095,52.89,-19.9221,-6.7183,-10.8802,-87.9906,4.93294,-15.8553,47.1505,-4.61281,-2.92909,-33.0579
24.788,16.3625,-33.7153,49.7153,-19.7682,4.81106,29.8153,-1.14165,2.9876,-3.40826,-0.166697,1.16976,-20.0109,-0.31495,-0.253761,2.53112,8.7761,14.3027,-11.0795,10.5635,-29.2462,-0.93471,6.07282,-11.7983,3.18055e-15,2.22639e-14,-28.4548,-3.38164,-67.471,68.95,3.9109,-32.5269,29.5211,7.12502,-5.75746,-0.380725,3.18055e-15,2.22639e-14,-56.6365,6.15957,73.4956,50.8973,14.7592,-16.6766,29.9039,7.12502,9.54736,59.6676,-86.9814,-4.93072,5.99506,53.2679,-19.849,-6.98466,-11.7527,-88.5254,5.09171,-15.9361,47.1715,-4.95154,-3.17779,-32.1429
24.795,16.3263,-33.7234,50.0539,-19.751,4.55776,29.709,-0.407547,3.06473,-3.42226,0.751202,0.784321,-19.94,0.0239786,-1.14117,2.08583,8.16609,16.3236,-10.0917,9.957,-29.7145,-0.559973,5.63871,-12.3397,1.11319e-14,-6.36111e-15,-29.881,-5.69334,-67.6701,68.2186,3.92592,-32.7979,29.7245,7.12502,-6.01908,-0.170046,1.11319e-14,-6.36111e-15,-55.3109,3.42006,74.4037,52.4117,15.5799,-18.0093,29.7009,7.12502,8.26138,59.5194,-87.5657,-4.85279,6.22661,53.629,-19.9563,-7.01425,-12.0025,-88.9278,5.37424,-15.8869,47.2622,-5.40217,-3.37708,-30.1772
24.8034,16.3027,-33.7252,50.0686,-19.6099,4.23129,29.9706,-0.834992,3.02385,-3.22444,0.236741,1.09207,-19.8413,-0.156967,-0.54131,2.35976,8.54265,15.3581,-10.4658,10.3993,-29.3698,-0.694577,5.91721,-12.0181,2.38542e-15,2.66371e-14,-29.3068,-4.36327,-68.762,67.1693,3.73826,-33.4225,30.2521,7.12502,-6.62212,0.37566,2.38542e-15,2.66371e-14,-55.0554,4.44556,74.5055,54.4765,16.3834,-19.9627,29.9673,7.12502,6.37578,59.8513,-87.7159,-4.82716,6.76227,53.959,-20.2553,-6.67256,-11.3949,-88.9057,5.50872,-15.5089,47.4083,-6.15399,-3.26164,-28.542
24.8141,16.2806,-33.73,50.024,-19.457,3.95293,30.3155,-0.828726,3.10416,-3.06983,0.288646,1.11332,-19.8142,-0.14181,-0.583413,2.08772,8.4726,15.7309,-10.2082,10.3447,-29.3442,-0.565744,5.845,-12.0561,3.18055e-14,-4.17448e-14,-29.601,-4.21531,-69.3036,66.5036,3.19247,-34.1797,30.0863,7.12502,-7.35302,0.234025,3.18055e-14,-4.17448e-14,-54.3389,3.98911,74.9313,56.5669,16.9846,-21.2315,31.0572,7.12502,5.15084,60.9746,-87.7887,-4.78308,7.1544,54.2445,-20.4641,-6.4904,-10.9626,-88.7687,5.4749,-14.9757,47.5244,-6.86028,-2.91842,-27.3558
24.8293,16.2516,-33.7337,50.1343,-19.3119,3.64418,30.4918,-0.785833,3.27582,-2.98422,0.409944,1.09219,-19.7862,-0.111556,-0.755494,1.80979,8.36649,16.2117,-9.79848,10.2735,-29.2185,-0.40074,5.75036,-12.0735,-3.89618e-14,1.74931e-14,-29.9719,-4.30426,-69.8834,65.7735,2.76638,-35.0293,29.769,7.12502,-8.17307,-0.05297,-3.89618e-14,1.74931e-14,-53.6538,3.56342,75.246,58.5333,17.4032,-22.0493,31.5804,7.12502,4.36117,61.5155,-87.9925,-4.65521,7.39426,54.4893,-20.5627,-6.68028,-11.6497,-88.782,5.43039,-14.4186,47.5811,-7.56423,-2.46556,-26.9204
24.8408,16.2329,-33.7319,50.1255,-19.1382,3.30729,30.7623,-0.826517,3.42133,-2.86594,0.425387,1.12329,-19.7669,-0.1178,-0.806374,1.87699,8.30347,16.4122,-9.6096,10.2439,-28.9879,-0.375365,5.71637,-12.0248,2.38542e-15,-1.94809e-14,-30.1773,-4.17498,-70.5803,64.8917,2.30173,-35.5538,30.0663,7.12502,-8.67926,0.26477,2.38542e-15,-1.94809e-14,-53.1236,3.50471,75.4531,60.6604,17.9173,-22.9389,31.3753,7.12502,3.50209,61.3263,-87.9587,-4.39876,7.54078,54.7047,-20.7539,-7.00507,-12.3001,-88.6183,5.46657,-14.0264,47.5823,-8.3674,-2.07345,-27.7677
24.843,16.2183,-33.7333,50.0539,-19.0358,2.9993,31.155,-0.934137,3.28142,-2.7298,0.267758,1.24224,-19.7942,-0.158333,-0.522175,1.96375,8.40288,16.3567,-9.53289,10.4098,-28.8001,-0.349547,5.7972,-11.9312,-7.95139e-15,-5.56597e-15,-30.181,-3.34453,-71.2478,64.0171,1.49017,-35.236,30.0395,7.12502,-8.37253,0.225447,-7.95139e-15,-5.56597e-15,-52.7912,3.8165,75.5349,63.1096,18.7128,-23.4166,31.2867,7.12502,3.04077,61.2447,-87.8999,-4.09657,7.67417,54.9329,-21.0043,-7.17805,-12.167,-88.3527,5.57534,-13.7266,47.5856,-9.12645,-1.697,-28.958
24.8441,16.1887,-33.7444,50.218,-19.1327,2.75237,31.3007,-0.936546,2.8329,-2.63327,0.121007,1.367,-19.7509,-0.160697,-0.067707,2.0349,8.538,16.3155,-9.4911,10.6115,-28.817,-0.304133,5.90409,-11.9135,1.23246e-14,-1.55052e-14,-30.1419,-2.49477,-71.8794,63.1785,0.788852,-34.7827,29.7896,7.12502,-7.93503,-0.0415061,1.23246e-14,-1.55052e-14,-52.4337,4.05386,75.6835,65.6126,19.7056,-23.7649,31.4101,7.12502,2.70437,61.3727,-88.2851,-3.8823,7.81118,55.2067,-21.106,-7.15063,-12.0563,-88.4174,5.71109,-13.4123,47.6471,-9.69683,-1.19445,-29.8178
24.8575,16.1557,-33.7522,50.2886,-19.1857,2.77017,31.4218,-1.00509,2.54002,-2.5678,-0.0763287,1.3762,-19.7316,-0.208893,0.193552,2.42425,8.59729,16.1557,-9.63717,10.7035,-28.7117,-0.41177,5.98447,-11.8655,-1.15295e-14,-7.7526e-15,-30.2798,-2.0159,-72.5286,62.3857,0.479223,-34.7098,30.0326,7.12502,-7.86469,0.198888,-1.15295e-14,-7.7526e-15,-51.988,4.0471,75.9346,67.9652,20.6443,-24.3333,31.2143,7.12502,2.15543,61.1831,-88.6396,-3.98027,7.81957,55.528,-21.0999,-7.18159,-12.5624,-88.5763,5.54273,-13.2306,47.8069,-10.1286,-0.638484,-31.2984
24.8781,16.1356,-33.7481,50.0277,-19.02,2.86833,31.873,-1.04477,2.67949,-2.47819,-0.0978698,1.18649,-19.8345,-0.245806,-0.084382,2.35645,8.52829,16.4583,-9.37255,10.678,-28.3941,-0.340683,5.93458,-11.7928,-4.57205e-14,-5.56597e-15,-30.8447,-2.32344,-73.123,61.7322,0.22635,-34.5302,30.5132,7.12502,-7.69133,0.673059,-4.57205e-14,-5.56597e-15,-51.2255,3.24059,76.2559,70.1037,21.5879,-24.8941,30.8022,7.12502,1.61381,60.7758,-88.519,-4.19738,7.84827,55.8515,-21.1887,-7.64568,-14.2173,-88.4735,5.13865,-12.9672,48.1141,-10.5118,-0.136425,-33.0843
24.89,16.1179,-33.7407,49.7846,-18.8759,2.7452,32.4022,-1.02001,2.76472,-2.37174,-0.0410629,1.05782,-19.9497,-0.241209,-0.299065,2.2586,8.44681,16.6854,-9.14881,10.617,-28.0567,-0.290143,5.8689,-11.7024,1.03368e-14,6.36111e-15,-31.3883,-2.51182,-73.6265,61.065,-0.0380648,-34.4651,31.1645,7.12502,-7.62846,1.32211,1.03368e-14,6.36111e-15,-50.4675,2.34773,76.5642,72.381,22.5868,-25.4379,31.2611,7.12502,1.08864,61.2381,-88.3257,-4.09987,7.86413,56.1652,-21.4058,-8.42638,-16.1837,-88.3794,4.97898,-12.5617,48.5316,-10.7888,0.0530251,-32.9841
24.8973,16.0949,-33.7303,49.5859,-18.862,2.50511,32.8824,-0.873806,2.66322,-2.25642,0.116889,1.02343,-20.026,-0.169536,-0.352784,2.34743,8.28728,16.8213,-9.01331,10.4333,-27.9882,-0.309964,5.77035,-11.7199,3.57812e-15,2.88238e-14,-31.8699,-2.57434,-73.9458,60.3919,-0.201871,-34.3737,31.426,7.12502,-7.5403,1.58039,3.57812e-15,2.88238e-14,-49.8158,1.56105,76.9675,74.7463,23.4532,-25.9046,32.1294,7.12502,0.637933,62.1082,-88.198,-3.82622,7.8654,56.5049,-21.6436,-8.85252,-17.1647,-88.3314,5.0338,-12.2088,48.9939,-11.1226,0.0208693,-31.8124
24.9034,16.0731,-33.7363,49.5106,-18.7952,2.45387,33.2524,-1.68489,2.04888,-2.10371,-1.04991,1.62998,-20.0119,-0.531273,1.22059,3.06587,9.07406,14.4828,-9.96672,11.3038,-27.5584,-0.689241,6.35278,-11.1441,-2.26615e-14,5.9536e-14,-30.8278,0.751897,-74.95,59.5136,-0.602108,-33.9251,30.6136,7.12502,-7.10728,0.752913,-2.26615e-14,5.9536e-14,-49.9924,4.55929,76.7547,77.1838,23.7904,-26.2985,32.194,7.12502,0.257456,62.1736,-88.3402,-3.78384,7.87724,56.8921,-21.7603,-9.04778,-17.5699,-88.5095,4.97715,-11.9406,49.4265,-11.4867,-0.0627052,-30.7528
24.907,16.0404,-33.7708,49.8886,-18.4042,2.62679,33.2163,-1.50386,2.02905,-2.23159,-0.842321,1.52066,-20.1615,-0.452701,1.01232,2.70665,8.78133,15.4523,-9.50419,10.9972,-27.7727,-0.48333,6.13195,-11.3802,-1.55052e-14,1.87852e-14,-31.5365,0.0208833,-75.2873,59.0095,-0.84549,-33.2788,29.6946,7.12502,-6.48332,-0.186149,-1.55052e-14,1.87852e-14,-49.1944,3.29215,77.2275,79.5071,24.1684,-26.5724,32.1606,7.12502,-0.0071418,62.1404,-89.1099,-4.12563,7.96457,57.349,-21.8398,-9.30556,-17.7311,-89.3931,4.75427,-11.689,49.7745,-11.4993,-0.33252,-29.1971
24.9125,16.003,-33.7965,50.2698,-18.0735,2.74797,33.0842,-1.62992,1.94041,-2.28809,-1.04716,1.50759,-20.1711,-0.526198,1.14089,2.94245,8.78447,15.3702,-9.74351,10.9895,-27.5138,-0.619699,6.1457,-11.297,-1.86858e-14,9.64106e-15,-31.8547,0.332142,-75.8833,58.382,-0.8579,-32.3723,29.3899,7.12502,-5.60821,-0.515841,-1.86858e-14,9.64106e-15,-48.6845,2.85258,77.3926,82.1054,24.8446,-26.7749,32.6583,7.12502,-0.202724,62.6379,-89.8546,-4.41758,8.04231,57.8262,-21.984,-9.41618,-17.7109,-90.2259,4.58899,-11.502,50.0833,-11.4265,-0.450182,-28.9267
24.9232,15.9794,-33.802,50.3323,-18.0569,2.70839,33.2054,-1.61612,1.79869,-2.21412,-1.11089,1.37494,-20.1325,-0.545905,1.09826,3.09447,8.71754,15.4875,-9.84887,10.9058,-27.3917,-0.696939,6.10871,-11.2953,-9.54166e-15,-2.6339e-14,-32.2169,0.444938,-76.4316,57.8958,-0.789623,-31.2588,29.2225,7.12502,-4.53301,-0.708974,-9.54166e-15,-2.6339e-14,-48.0766,2.26602,77.602,84.5543,25.4237,-26.9136,33.1215,7.12502,-0.336656,63.101,-90.1566,-4.40451,8.01246,58.2499,-22.1231,-9.54738,-18.1162,-90.4732,4.55596,-11.3658,50.3871,-11.7339,-0.266868,-29.7453
24.9376,15.9499,-33.8112,50.6209,-18.03,2.53803,33.1308,-1.55527,1.66711,-2.17306,-1.09641,1.33116,-20.0435,-0.529783,1.11115,2.9914,8.66488,15.6349,-9.7822,10.8433,-27.3508,-0.667893,6.06148,-11.3033,1.73937e-14,-5.08889e-14,-32.4963,0.653373,-76.8063,57.406,-0.805182,-30.0297,28.9494,7.12502,-3.34612,-1.00407,1.73937e-14,-5.08889e-14,-47.4318,1.82091,77.9182,86.7276,25.7117,-26.8491,33.0564,7.12502,-0.274299,63.036,-90.6917,-4.32649,8.07058,58.6318,-22.2541,-9.69929,-17.9301,-90.9462,4.67439,-11.1922,50.6988,-11.9979,-0.212451,-29.9965
24.948,15.915,-33.8236,51.0223,-17.9669,2.40369,32.8844,-1.56903,1.45476,-2.1245,-1.2009,1.35785,-19.861,-0.549205,1.29985,3.02994,8.73066,15.3589,-10.0103,10.8917,-27.1356,-0.761963,6.09819,-11.184,-6.65929e-15,4.02539e-15,-32.5438,1.07306,-77.2442,56.8107,-0.454761,-28.6553,28.7107,7.12502,-2.01883,-1.2595,-6.65929e-15,4.02539e-15,-46.7984,1.58204,78.2621,88.7625,26.1851,-27.0748,32.2286,7.12502,-0.492335,62.2078,-91.3635,-4.29157,8.11977,58.9777,-22.3024,-9.9633,-17.6863,-91.6098,4.84694,-11.1171,51.0408,-12.021,-0.383951,-30.3101
24.9532,15.8952,-33.828,51.1415,-17.955,2.36465,33.0347,-1.57703,1.1729,-2.14067,-1.32393,1.33443,-19.9468,-0.569855,1.48884,3.3279,8.75334,15.149,-10.2323,10.9058,-27.0063,-0.897525,6.13455,-11.1274,3.47873e-16,-5.04416e-14,-32.7495,1.14369,-77.7411,56.183,0.358926,-27.0296,28.392,7.12502,-0.448718,-1.58732,3.47873e-16,-5.04416e-14,-46.4229,1.22843,78.5418,90.8245,26.3499,-26.983,31.538,7.12502,-0.403705,61.5173,-91.6774,-4.24327,8.0883,59.2737,-22.3477,-10.3469,-18.3142,-91.9397,4.94284,-11.1572,51.4092,-12.1843,-0.531696,-30.9328
24.9656,15.8795,-33.822,51.1109,-17.9586,2.22701,33.3423,-1.52578,1.06896,-2.15053,-1.30944,1.24944,-20.1037,-0.556975,1.44979,3.38806,8.65414,15.2472,-10.0617,10.8047,-26.9912,-0.878785,6.07612,-11.1446,-2.3464e-15,-3.71938e-14,-33.0717,0.9042,-78.2004,55.5658,1.1309,-25.377,27.6168,7.12502,1.14747,-2.35987,-2.3464e-15,-3.71938e-14,-46.0958,0.620514,78.7984,92.8696,26.3599,-26.4697,31.4905,7.12502,0.0920892,61.4702,-91.7591,-4.18372,8.23583,59.5416,-22.4055,-10.6536,-19.4101,-92.0629,5.00614,-11.0643,51.8384,-12.4959,-0.503856,-31.2157
24.9816,15.8509,-33.8165,51.2781,-17.9438,1.84574,33.3346,-1.50297,1.1242,-2.07303,-1.27269,1.18324,-20.0029,-0.55377,1.32481,3.33528,8.63237,15.368,-10.0312,10.7757,-27.0911,-0.851358,6.05709,-11.1996,4.7758e-14,-1.09332e-14,-33.4088,1.5979,-78.6046,55.3109,1.19254,-24.0158,26.321,7.12502,2.46207,-3.64454,4.7758e-14,-1.09332e-14,-45.5755,0.0187543,79.0584,94.7488,28.2276,-27.3909,30.2598,7.12502,-0.797662,60.2381,-91.9819,-4.00248,8.585,59.6833,-22.3542,-10.8575,-19.9176,-92.3475,5.23,-10.7058,52.273,-12.6801,-0.413475,-31.0308
24.9879,15.8084,-33.8266,51.7989,-17.914,1.57671,33.0264,-1.53154,0.95403,-2.09065,-1.38151,1.19513,-19.8765,-0.580593,1.47603,3.4903,8.75014,15.1649,-10.3359,10.8919,-27.0601,-0.952512,6.14344,-11.1651,-1.81888e-14,2.52953e-14,-33.4722,2.24688,-79.148,54.758,1.74453,-22.659,25.3402,7.12502,3.77244,-4.60614,-1.81888e-14,2.52953e-14,-45.1519,-0.498615,79.5282,96.1652,30.7477,-29.9942,26.9183,7.12502,-3.31186,56.8723,-92.6293,-3.84835,8.71883,59.6538,-22.2034,-10.8953,-19.0205,-93.0952,5.54173,-10.5019,52.606,-12.6157,-0.483214,-30.8444
24.9963,15.8551,-33.7769,50.4955,-18.1556,1.35438,34.7917,-1.54018,0.696922,-1.83779,-1.48852,1.09919,-20.3597,-0.595504,1.59084,3.50356,8.87171,14.8027,-10.3667,11.0416,-26.8085,-0.974957,6.22274,-11.0017,2.10712e-14,5.46658e-15,-33.4251,2.51811,-79.5424,53.8916,2.54786,-20.7294,24.1841,7.12502,5.63566,-5.72095,2.10712e-14,5.46658e-15,-44.763,-0.391445,79.5543,97.6416,28.3604,-27.5443,29.872,7.12502,-0.945755,59.8497,-90.7961,-3.4098,8.70504,59.3652,-22.5978,-10.6874,-18.3613,-91.3027,5.218,-9.97168,52.7661,-13.1264,0.0064755,-30.4734
25.0132,15.9674,-33.6671,47.9833,-18.8664,0.904996,37.8506,-1.36432,0.357845,-1.37278,-1.42822,0.847155,-21.0917,-0.542393,1.50812,3.34754,8.96131,14.704,-10.2389,11.1664,-26.7563,-0.895562,6.27196,-10.9403,1.43125e-14,3.28989e-14,-33.5074,2.8588,-79.8515,53.2123,3.00119,-18.8434,22.8421,7.12502,7.45628,-7.00652,1.43125e-14,3.28989e-14,-44.355,-0.537941,79.7886,98.6052,27.0707,-27.2408,31.2316,7.12502,-0.652621,61.2103,-87.2176,-2.60228,8.7966,58.8097,-23.3046,-10.2402,-18.5126,-87.5583,4.55037,-9.11923,52.7788,-14.2022,1.31727,-30.7615
25.0245,15.9791,-33.647,47.5663,-18.9801,0.950453,38.5061,-1.36521,0.0430035,-1.32023,-1.58617,0.756682,-21.2894,-0.572572,1.66622,3.5513,8.98649,14.811,-10.6596,11.1467,-27.0104,-1.02347,6.29909,-11.0815,3.22031e-14,-3.08116e-14,-33.6934,3.25301,-80.1723,52.7589,3.19126,-17.5401,22.4145,7.12502,8.71418,-7.38565,3.22031e-14,-3.08116e-14,-43.9533,-0.794623,80.0667,99.2785,26.8027,-28.1447,31.5124,7.12502,-1.52568,61.4867,-86.6352,-2.57044,8.70686,58.5586,-23.2019,-10.174,-18.1561,-87.033,4.33002,-9.08547,52.792,-14.4278,1.67844,-31.5262
25.0356,15.9867,-33.6222,47.2734,-18.9883,0.908928,39.0419,-1.43525,-0.103406,-1.31273,-1.75151,0.704512,-21.4954,-0.619719,1.78088,3.83198,9.01628,14.7597,-11.0344,11.1388,-27.1567,-1.16973,6.33616,-11.1601,-1.90833e-14,1.23246e-14,-33.8462,3.52783,-80.498,52.1652,3.48445,-16.1508,22.7933,7.12502,10.0547,-6.94649,-1.90833e-14,1.23246e-14,-43.7438,-1.02261,80.3747,99.6972,26.2858,-28.905,30.9086,7.12502,-2.26,60.8763,-86.1443,-2.53093,8.7177,58.3514,-23.1023,-10.1364,-17.7077,-86.6187,4.15287,-8.94696,52.8427,-14.6383,1.80743,-31.3509
25.0479,15.9926,-33.5947,47.066,-19.0197,0.780663,39.5092,-1.46982,-0.202314,-1.32854,-1.85013,0.659672,-21.7045,-0.645252,1.84396,3.63523,9.07483,14.4679,-10.7728,11.2274,-26.9794,-1.07782,6.35999,-11.0139,-2.70347e-14,-1.98785e-14,-34.0436,3.68523,-80.7405,51.6148,3.7424,-13.9739,23.76,7.12502,12.1543,-5.86691,-2.70347e-14,-1.98785e-14,-43.4914,-1.19324,80.6704,99.7758,25.6848,-28.9082,31.4295,7.12502,-2.26305,61.3972,-85.8147,-2.50402,8.87204,58.3337,-23.0909,-10.156,-18.1457,-86.2975,4.07081,-8.80802,53.0006,-14.8928,1.98683,-31.8061
25.0619,15.9979,-33.5686,46.9156,-19.0665,0.67,39.9015,-1.44144,-0.276004,-1.33923,-1.8681,0.571679,-21.8788,-0.646566,1.79977,3.44616,9.06513,14.4869,-10.6655,11.2082,-27.076,-1.0092,6.3375,-11.0355,-4.09496e-14,5.56597e-14,-34.3199,3.62969,-80.8956,51.2071,3.80129,-11.5443,24.7763,7.12502,14.4961,-4.69726,-4.09496e-14,5.56597e-14,-43.0876,-1.55591,80.8984,99.4521,25.1598,-28.9451,32.3008,7.12502,-2.2987,62.2681,-85.5521,-2.41815,8.88291,58.3238,-23.0521,-10.2624,-18.6364,-86.0753,4.01178,-8.74056,53.1921,-15.08,2.24146,-32.8143
25.076,15.999,-33.5432,46.8306,-19.0327,0.579323,40.1435,-1.48334,-0.282207,-1.32807,-1.94038,0.501449,-21.9619,-0.676406,1.76436,3.6085,9.0694,14.7048,-11.0771,11.1546,-27.4893,-1.11339,6.34899,-11.2539,6.32135e-14,-1.21259e-14,-34.5327,3.63737,-81.083,50.6909,3.92636,-9.96873,25.3554,7.12502,16.0138,-4.00278,6.32135e-14,-1.21259e-14,-42.8085,-1.821,81.0634,98.9164,24.4795,-29.7232,32.1485,7.12502,-3.05013,62.1065,-85.3263,-2.31094,8.79958,58.3331,-23.0412,-10.4549,-18.4278,-85.9644,3.89951,-8.61422,53.4081,-15.3203,2.29877,-32.4199
25.0883,15.9956,-33.515,46.8161,-19.0644,0.52263,40.208,-1.56651,-0.359785,-1.31811,-2.09725,0.439975,-21.9701,-0.731244,1.81856,3.73869,9.12861,14.5264,-11.4516,11.1671,-27.5449,-1.24437,6.38873,-11.2668,-1.98785e-15,5.28767e-14,-34.6232,3.83315,-81.3286,50.0088,4.06127,-8.9727,25.5697,7.12502,16.9727,-3.70875,-1.98785e-15,5.28767e-14,-42.6954,-1.73874,81.1981,98.109,23.4577,-30.636,32.333,7.12502,-3.93167,62.2765,-85.2084,-2.25094,8.71592,58.3682,-23.1315,-10.5366,-18.1626,-85.9166,3.80094,-8.54174,53.6038,-15.5706,2.43962,-32.3339
25.0985,15.9904,-33.483,46.8531,-19.1564,0.527086,40.1603,-1.66213,-0.531115,-1.35365,-2.31068,0.395712,-21.9887,-0.79549,1.97206,3.77672,9.24953,14.0548,-11.6355,11.2771,-27.3668,-1.3255,6.46403,-11.1225,7.95139e-15,4.21423e-14,-34.7839,4.27951,-81.5455,49.3479,3.9198,-7.92355,25.6568,7.12502,17.9824,-3.53189,7.95139e-15,4.21423e-14,-42.6765,-1.41278,81.2879,96.9363,22.5545,-31.9949,32.0501,7.12502,-5.24381,61.9652,-85.1749,-2.11945,8.43071,58.432,-23.2151,-10.8221,-18.7045,-85.92,3.6764,-8.51343,53.7931,-15.7473,2.69856,-32.6611
25.1085,15.9901,-33.4476,46.8368,-19.2185,0.603028,40.1875,-1.27225,-0.482346,-1.43577,-1.86451,0.0869186,-22.1363,-0.653123,1.35491,3.40008,8.87368,15.3063,-11.2639,10.8494,-27.9613,-1.11486,6.18826,-11.551,-8.74653e-15,-4.45278e-14,-35.5475,2.85946,-81.3667,48.8736,4.02325,-7.06968,25.921,7.12502,18.8038,-3.19013,-8.74653e-15,-4.45278e-14,-42.3426,-2.92861,81.5812,95.3074,21.761,-32.8264,30.8074,7.12502,-6.0466,60.7011,-85.0403,-1.88244,7.89774,58.4619,-23.0601,-11.5441,-19.8915,-85.8555,3.39752,-8.39246,53.9507,-16.0255,3.07116,-32.9872
25.1141,15.9765,-33.4219,47.279,-19.4028,0.500421,39.7307,-0.793199,-0.658871,-1.58427,-1.38281,-0.113142,-22.1622,-0.46758,0.959746,3.35071,8.50764,16.4059,-11.2103,10.3871,-28.6603,-1.06834,5.93991,-12.0429,1.98785e-15,7.15625e-15,-36.1793,1.55562,-81.1875,48.1999,4.10217,-6.22504,26.3923,7.12502,19.616,-2.63811,1.98785e-15,7.15625e-15,-42.1653,-4.16401,81.7917,93.364,20.591,-32.8285,30.1495,7.12502,-6.04867,60.0432,-85.4671,-1.60203,7.52379,58.5151,-22.785,-12.0778,-20.5617,-86.2475,3.41149,-8.18398,54.1544,-16.3239,3.40389,-33.2393
25.1358,15.9827,-33.3833,47.2967,-19.4027,0.56004,39.8263,-1.45035,-0.734085,-1.58509,-2.22412,0.0306012,-22.1776,-0.763567,1.61232,3.70296,9.06964,14.8249,-12.2778,10.9076,-28.4079,-1.42863,6.32118,-11.6891,3.18055e-15,-1.78906e-14,-35.623,3.26124,-81.633,47.1803,3.69668,-4.9001,26.9648,7.12502,20.8894,-1.93048,3.18055e-15,-1.78906e-14,-42.4403,-2.12642,81.377,91.5159,19.2159,-32.9793,30.3406,7.12502,-6.19419,60.23,-85.3477,-1.78135,7.46884,58.5389,-22.795,-11.9355,-20.1581,-86.2447,3.06789,-8.03484,54.3104,-16.6076,3.48744,-32.2807
