JuanDHNZ/ProyectoFinalCD/preprocessing/sports_trials_csv/55_08.csv
root1,root2,root3,root4,root5,root6,lowerback1,lowerback2,lowerback3,upperback1,upperback2,upperback3,thorax1,thorax2,thorax3,lowerneck1,lowerneck2,lowerneck3,upperneck1,upperneck2,upperneck3,head1,head2,head3,rclavicle1,rclavicle2,rhumerus1,rhumerus2,rhumerus3,rradius1,rwrist1,rhand1,rhand2,rfingers1,rthumb1,rthumb2,lclavicle1,lclavicle2,lhumerus1,lhumerus2,lhumerus3,lradius1,lwrist1,lhand1,lhand2,lfingers1,lthumb1,lthumb2,rfemur1,rfemur2,rfemur3,rtibia1,rfoot1,rfoot2,rtoes1,lfemur1,lfemur2,lfemur3,ltibia1,lfoot1,lfoot2,ltoes1
9.79242,15.4237,-23.0526,20.44,-1.83465,-4.26984,21.5728,-1.65057,1.53402,10.4311,-1.8845,-0.965988,-0.781433,-0.8646,-1.49197,4.09619,7.42399,15.3824,0.795931,10.6858,-18.5909,1.42685,5.50145,-8.08559,1.35174e-14,7.95139e-16,-26.7705,24.3889,-80.2929,32.0805,7.41723,-5.87854,25.5255,7.12502,19.9491,-3.47056,1.35174e-14,7.95139e-16,38.3391,-30.9659,11.3904,69.8944,15.1186,-22.0609,19.6741,7.12502,4.35001,49.6095,-41.7309,-1.32172,-5.92554,40.8201,-23.154,-4.54679,-31.6215,-56.5013,10.3815,0.423021,65.1247,-25.9361,1.52204,-45.7099
9.80794,15.4092,-23.0577,20.5388,-1.69338,-4.52871,21.694,-1.60781,1.5122,10.3959,-1.83063,-0.942115,-0.876501,-0.840213,-1.4629,4.90789,7.36957,15.7713,-0.290934,10.6231,-19.2169,1.02781,5.53174,-8.41627,1.51076e-14,-8.74653e-15,-27.0167,24.889,-80.078,31.4293,8.20992,-3.27725,26.416,7.12502,22.4479,-2.29943,1.51076e-14,-8.74653e-15,38.798,-30.5841,11.1376,71.5986,15.6596,-21.4974,20.5441,7.12502,4.89405,50.4676,-41.8491,-1.27893,-5.71612,40.8921,-23.0689,-4.83003,-31.8262,-56.8369,10.3892,0.671503,65.3844,-26.0177,1.53707,-46.0878
9.82213,15.3982,-23.0606,20.7098,-1.57629,-4.63221,21.6156,-1.50171,1.49558,10.4276,-1.70254,-1.05842,-0.801236,-0.773392,-1.6075,4.3803,7.31134,15.7329,0.121686,10.5152,-18.6731,1.18097,5.44144,-8.20492,-2.06736e-14,1.90833e-14,-27.2437,25.272,-79.9711,30.7129,9.03826,-1.61843,27.5671,7.12502,24.0393,-0.947369,-2.06736e-14,1.90833e-14,39.5988,-30.1129,10.6782,73.2679,15.9445,-21.0364,20.9597,7.12502,5.33921,50.8724,-42.0419,-1.32171,-5.65294,41.0053,-23.0359,-5.19767,-32.4717,-57.2043,10.4165,0.730323,65.5965,-26.0917,1.4919,-46.1011
9.83516,15.3879,-23.0639,20.8423,-1.45697,-4.72135,21.5292,-1.42872,1.47547,10.4759,-1.61769,-1.19082,-0.705581,-0.72722,-1.75787,4.56025,7.32646,15.9339,-0.301946,10.5267,-18.8261,1.05233,5.46343,-8.30359,1.90833e-14,-1.59028e-14,-27.5255,25.9758,-79.904,30.2676,9.16257,0.248925,28.3497,7.12502,25.8288,0.0834153,1.90833e-14,-1.59028e-14,40.1497,-29.5953,10.4932,74.7865,15.9934,-21.4278,19.5414,7.12502,4.96133,49.4633,-42.1969,-1.36964,-5.59381,41.1539,-23.0995,-5.27982,-32.5727,-57.5258,10.5027,0.768784,65.821,-26.1173,1.4052,-45.9903
9.84519,15.3733,-23.067,21.0034,-1.16126,-4.8897,21.4237,-1.42998,1.56032,10.4737,-1.60393,-1.20649,-0.657344,-0.715998,-1.82742,4.15733,7.25085,15.5139,0.494811,10.4213,-18.093,1.26315,5.37315,-7.9682,1.59028e-15,3.18055e-15,-27.659,26.4659,-79.6016,29.6454,9.46755,2.34424,29.3849,7.12502,27.8338,1.42658,1.59028e-15,3.18055e-15,40.4679,-29.1813,10.3836,76.4263,16.2841,-21.7235,18.914,7.12502,4.67576,48.8424,-42.3264,-1.51119,-5.39704,41.3537,-23.1262,-5.50975,-32.8567,-57.9883,10.5099,0.942262,66.0529,-26.0859,1.29218,-46.2224
9.84998,15.3564,-23.0735,21.2032,-0.836629,-5.02868,21.4051,-1.36643,1.62002,10.4046,-1.50973,-1.19664,-0.720194,-0.66786,-1.87053,4.48012,7.15422,15.4782,0.0965005,10.2881,-18.1655,1.07414,5.32693,-8.01513,2.38542e-15,-1.03368e-14,-27.7793,26.7548,-79.2365,28.9253,9.87609,4.05846,30.3683,7.12502,29.4715,2.68661,2.38542e-15,-1.03368e-14,41.2126,-28.9848,9.70461,78.2214,17.3319,-21.6204,20.7618,7.12502,4.7753,50.688,-42.5253,-1.65873,-5.23355,41.5885,-23.0307,-5.82861,-33.4699,-58.5399,10.4918,1.09798,66.2801,-26.079,1.16621,-46.3448
9.85257,15.3427,-23.0809,21.2772,-0.71625,-5.05541,21.5958,-1.21864,1.47171,10.383,-1.34624,-1.25283,-0.829661,-0.591297,-1.87884,4.93683,7.0379,15.7424,-0.748007,10.1204,-18.5739,0.764342,5.28027,-8.23772,7.95139e-15,1.27222e-14,-27.8847,27.325,-78.9171,28.4811,9.76985,5.81576,30.6206,7.12502,31.1477,3.24736,7.95139e-15,1.27222e-14,41.9922,-28.8564,8.96864,79.857,18.4648,-21.8496,21.7253,7.12502,4.55404,51.6563,-42.7011,-1.6789,-5.24353,41.8423,-22.9903,-5.88254,-33.6719,-58.8487,10.5261,1.10579,66.4708,-26.0654,1.09969,-46.0423
9.85698,15.3347,-23.088,21.2907,-0.661012,-4.92017,21.7553,-1.08698,1.23302,10.4435,-1.22264,-1.3575,-0.835642,-0.534616,-1.88075,5.08619,6.96372,15.7238,-1.16455,9.99536,-18.6925,0.604206,5.23236,-8.29483,-3.49861e-14,-1.35174e-14,-27.8577,27.7776,-78.3954,28.2449,9.78935,7.33194,30.8707,7.12502,32.5916,3.78517,-3.49861e-14,-1.35174e-14,42.4884,-28.6015,8.76091,81.2104,19.0717,-21.8846,20.9456,7.12502,4.52024,50.8774,-42.8042,-1.80622,-5.41322,42.0793,-23.0981,-5.65046,-33.2437,-59.022,10.4494,0.937389,66.5972,-26.0573,1.12807,-45.8603
9.86083,15.3274,-23.0935,21.2958,-0.454269,-4.72009,21.7831,-1.03529,1.12025,10.5544,-1.17901,-1.50013,-0.727418,-0.510289,-1.97935,5.3129,6.85763,15.7812,-1.5979,9.83856,-18.8127,0.424564,5.17205,-8.37092,1.90833e-14,3.97569e-15,-27.8401,28.0405,-77.8322,28.2932,9.98884,8.25768,31.0339,7.12502,33.472,4.13446,1.90833e-14,3.97569e-15,42.8847,-28.2385,8.80144,82.4386,19.2783,-21.4444,20.3132,7.12502,4.9453,50.2355,-42.7771,-2.08675,-5.59344,42.2524,-23.1993,-5.53951,-32.9354,-59.2057,10.2271,0.736814,66.6813,-26.1525,1.11356,-46.2084
9.86225,15.3204,-23.0953,21.2204,-0.0813909,-4.64834,21.9085,-1.06143,1.23465,10.6823,-1.19098,-1.64454,-0.654275,-0.504991,-2.19627,5.28026,6.78761,16.0668,-1.87223,9.73128,-19.0014,0.358094,5.12305,-8.48988,-8.74653e-15,-7.15625e-15,-27.776,28.2458,-77.3649,28.3404,9.89886,9.42061,30.8537,7.12502,34.5766,4.19983,-8.74653e-15,-7.15625e-15,43.1087,-27.9281,8.75053,83.8705,19.3435,-20.9509,20.6326,7.12502,5.42179,50.5432,-42.5524,-2.35156,-5.56734,42.3588,-23.1898,-5.83384,-33.5589,-59.3696,9.9666,0.726147,66.7667,-26.2132,0.99224,-46.4497
9.86126,15.3123,-23.0988,21.2894,0.159709,-4.78605,22.0077,-1.04987,1.39372,10.7301,-1.14625,-1.70816,-0.651856,-0.474287,-2.36437,4.59743,6.90203,15.7529,-1.24474,9.84743,-18.6176,0.634979,5.13759,-8.26092,-3.97569e-15,1.43125e-14,-27.5548,28.7077,-76.8205,28.0665,9.63774,10.5984,30.4312,7.12502,35.6937,4.04003,-3.97569e-15,1.43125e-14,43.0696,-27.6872,8.65129,85.4432,19.6539,-20.6977,21.3539,7.12502,5.66625,51.2581,-42.6042,-2.38757,-5.37078,42.4507,-22.7625,-6.74452,-35.5852,-59.6534,9.92444,0.919669,66.8925,-26.1591,0.881259,-46.2662
9.8573,15.3024,-23.1034,21.5435,0.275076,-5.04033,21.8773,-0.961627,1.514,10.7737,-1.01195,-1.69086,-0.533761,-0.402688,-2.44514,4.13821,6.77162,15.1168,-0.624543,9.63811,-17.8447,0.777719,4.99562,-7.88116,3.97569e-15,-4.77083e-15,-27.1144,29.2536,-76.0283,27.7993,9.36617,11.6506,29.7849,7.12502,36.6902,3.64099,3.97569e-15,-4.77083e-15,43.0612,-27.4072,8.3828,86.9944,20.0189,-20.7193,21.3437,7.12502,5.64541,51.2485,-42.9722,-2.29251,-5.10792,42.5906,-22.3319,-7.62921,-37.2059,-60.0721,10.1133,1.19385,67.0531,-26.1501,0.803395,-46.2048
9.85014,15.2907,-23.1092,21.6778,0.486867,-5.16642,21.8506,-0.860427,1.65995,10.8589,-0.856565,-1.74726,-0.420425,-0.316252,-2.62326,3.52404,6.68184,14.9395,0.105094,9.5008,-17.2386,1.02531,4.88586,-7.62313,-8.74653e-15,5.56597e-15,-26.5211,29.0275,-75.1055,27.6576,8.92568,12.7462,29.4177,7.12502,37.7261,3.54449,-8.74653e-15,5.56597e-15,43.4418,-27.2353,7.84538,88.4007,20.2581,-21.091,20.8022,7.12502,5.28649,50.7163,-43.1649,-2.31109,-4.95393,42.8129,-22.7048,-7.34391,-36.0693,-60.4037,10.1325,1.3837,67.1764,-26.1405,0.753169,-46.5213
9.84077,15.2749,-23.1185,21.7107,0.683827,-5.22403,22.0198,-0.745237,1.87525,10.8395,-0.672486,-1.92066,-0.515721,-0.212659,-2.97167,3.39981,6.5644,14.9929,0.51616,9.35976,-16.7819,1.11966,4.80214,-7.48004,-1.82882e-14,0,-26.2363,28.6587,-74.4589,27.3613,8.75943,12.7,29.6959,7.12502,37.6825,3.81099,-1.82882e-14,0,43.8109,-27.302,7.42757,89.7004,20.4902,-21.5635,20.4117,7.12502,4.83025,50.3367,-43.2949,-2.38018,-4.86219,43.1076,-23.0332,-6.98585,-35.0037,-60.6353,10.0827,1.52588,67.2659,-26.0856,0.651074,-46.7422
9.83346,15.2651,-23.1176,21.6918,0.640407,-5.27386,22.1742,-0.571207,1.94605,10.7867,-0.443257,-2.12087,-0.634154,-0.0931748,-3.27789,3.65962,6.44542,15.0711,0.690581,9.2419,-16.4974,1.09639,4.74968,-7.41536,8.74653e-15,1.43125e-14,-26.0358,28.5466,-73.8717,26.8383,9.68177,12.0919,29.932,7.12502,37.1076,3.89548,8.74653e-15,1.43125e-14,43.7639,-27.4405,7.28339,91.0319,20.5976,-21.6566,20.4995,7.12502,4.7404,50.4265,-43.4724,-2.36686,-4.81116,43.4416,-23.0883,-6.98154,-35.1439,-60.6297,10.188,1.57807,67.3392,-26.099,0.59949,-46.444
9.82763,15.261,-23.1115,21.6563,0.712792,-5.21167,22.2242,-0.547839,1.76525,10.9087,-0.445284,-2.13316,-0.525443,-0.0970883,-3.18777,3.31033,6.533,14.6514,1.17481,9.34045,-16.2532,1.27754,4.77716,-7.2414,-7.95139e-16,1.59028e-14,-25.1576,28.9595,-72.7657,26.4098,10.5053,12.0595,29.3755,7.12502,37.077,3.33097,-7.95139e-16,1.59028e-14,43.1328,-27.3712,7.45757,92.2712,20.6293,-21.697,20.4364,7.12502,4.70134,50.3643,-43.5313,-2.46317,-4.83528,43.7595,-23.2306,-7.02635,-35.0205,-60.6077,10.1264,1.54185,67.3696,-26.1357,0.634718,-46.1555
9.81463,15.2544,-23.1188,21.7178,1.16565,-5.11858,22.1403,-0.637764,1.73345,11.1055,-0.558581,-2.06902,-0.276049,-0.148941,-3.07618,2.85556,6.57107,14.3122,1.46064,9.35014,-16.046,1.41074,4.75909,-7.09613,1.74931e-14,3.65764e-14,-24.1408,29.4798,-71.5508,26.1932,10.4094,12.2247,28.8027,7.12502,37.2332,2.79893,1.74931e-14,3.65764e-14,42.6869,-27.3017,7.51082,93.3935,20.7946,-21.3678,19.2149,7.12502,5.01919,49.1355,-43.5493,-2.78103,-4.75273,44.0449,-22.9703,-7.76792,-36.4261,-60.9296,9.85987,1.57655,67.3564,-26.0216,0.545336,-46.1956
9.79551,15.2454,-23.1296,21.8499,1.52257,-5.02108,22.0671,-0.613068,1.76061,11.2021,-0.520124,-2.1227,-0.131594,-0.122563,-3.15796,2.95686,6.44312,14.4814,1.1744,9.1684,-16.0044,1.28894,4.67667,-7.12772,2.14687e-14,4.77083e-15,-23.2785,29.2188,-70.4436,25.89,10.3403,12.2033,28.8425,7.12502,37.213,2.83343,2.14687e-14,4.77083e-15,42.5347,-27.4217,7.40893,94.5437,21.0861,-20.1751,17.7165,7.12502,6.1708,47.6066,-43.7126,-3.05993,-4.69928,44.3022,-22.5755,-8.48928,-37.9529,-61.3171,9.69908,1.58721,67.3307,-25.8744,0.399457,-46.3911
9.77783,15.2382,-23.1358,21.9063,1.67657,-4.97845,22.1599,-0.43876,1.91841,11.2298,-0.27132,-2.27828,-0.127912,0.0132279,-3.46985,4.06034,6.10061,15.4831,-0.258074,8.76558,-16.9951,0.722012,4.54241,-7.69711,3.97569e-15,2.8625e-14,-22.5025,28.0472,-69.3683,25.4372,10.7465,11.3387,28.8247,7.12502,36.395,2.60617,3.97569e-15,2.8625e-14,42.6138,-27.6816,7.06566,95.7428,21.3272,-19.4824,17.2812,7.12502,6.83949,47.1507,-43.8634,-3.18766,-4.66462,44.5225,-22.5207,-8.63001,-38.1101,-61.4805,9.65901,1.62306,67.3058,-25.8649,0.27348,-46.5722
9.76329,15.2352,-23.1377,21.8592,1.84249,-5.03312,22.3183,-0.270366,2.23879,11.3672,0.00201135,-2.41066,-0.0286288,0.17038,-3.85659,2.74058,6.11529,15.1217,1.39282,8.73733,-15.9151,1.34462,4.45508,-7.21415,-1.59028e-15,2.70347e-14,-21.5213,26.9311,-68.1869,24.9767,11.0761,10.4226,28.2126,7.12502,35.527,1.78131,-1.59028e-15,2.70347e-14,42.6694,-27.8055,6.6661,96.8138,21.2267,-19.514,17.4593,7.12502,6.80895,47.3298,-43.8701,-3.25866,-4.51259,44.7277,-22.4926,-8.84922,-38.6934,-61.4978,9.61796,1.76591,67.2907,-25.8686,0.178133,-46.543
9.74727,15.2378,-23.1349,21.7993,1.91126,-4.99631,22.4814,-0.191596,2.27192,11.3919,0.109522,-2.46857,-0.0708776,0.22709,-3.96343,2.79772,6.05228,14.923,1.64105,8.66682,-15.6415,1.37384,4.41837,-7.09589,-1.03368e-14,-6.36111e-15,-20.6395,26.8057,-66.9778,24.6412,11.0623,9.53953,27.5253,7.12502,34.6895,0.89731,-1.03368e-14,-6.36111e-15,41.9511,-28.1786,6.78745,97.8547,21.0477,-19.2559,17.6086,7.12502,7.05809,47.471,-43.8667,-3.24219,-4.51828,44.9406,-22.8156,-8.49664,-37.972,-61.4212,9.54504,1.80565,67.2565,-25.8262,0.189757,-46.4179
9.72783,15.2393,-23.1332,21.7571,1.91403,-4.87621,22.6318,-0.044406,2.24659,11.4595,0.290399,-2.61378,-0.0519325,0.322457,-4.14752,2.52013,6.03438,14.8872,1.97559,8.62615,-15.2886,1.4928,4.38523,-6.96445,2.06736e-14,-9.14409e-15,-19.7473,26.1668,-65.8276,24.29,11.2563,7.36761,27.2606,7.12502,32.6255,0.18208,2.06736e-14,-9.14409e-15,41.498,-28.5224,6.69582,98.8735,21.3611,-19.0027,17.6176,7.12502,7.30256,47.4716,-43.9235,-3.25161,-4.6223,45.2006,-23.3073,-7.8545,-36.2205,-61.323,9.48866,1.75354,67.1999,-25.8184,0.2046,-46.2254
9.7075,15.2309,-23.1352,21.8306,2.11506,-4.68799,22.8384,-0.0907172,2.09445,11.3397,0.206562,-2.60003,-0.295018,0.269274,-4.03036,2.53839,6.12976,14.4742,2.35994,8.76888,-15.0234,1.5924,4.4508,-6.80121,-2.06736e-14,1.11319e-14,-18.8262,26.0034,-64.5178,24.0378,11.3125,7.75357,27.1038,7.12502,32.9927,0.102088,-2.06736e-14,1.11319e-14,40.2218,-29.1321,7.09483,99.7752,21.7,-18.4486,17.5866,7.12502,7.83736,47.4214,-44.0733,-3.57244,-4.68855,45.5259,-23.3547,-7.79161,-36.1007,-61.5007,9.36918,1.64234,67.1322,-25.7648,0.131663,-46.3655
9.68625,15.224,-23.1398,21.981,2.4546,-4.50674,23.0452,0.200963,2.70949,11.1856,0.685929,-3.00154,-0.498678,0.539529,-4.93303,1.82293,5.69481,15.8406,3.32951,8.18801,-14.8575,1.95452,4.14721,-6.96685,8.74653e-15,3.29983e-14,-18.8109,23.4283,-63.8597,23.5852,12.2712,7.09334,26.8931,7.12502,32.3645,-0.239093,8.74653e-15,3.29983e-14,41.0802,-29.947,6.24467,100.606,21.7509,-18.0386,18.3791,7.12502,8.23312,48.1987,-44.2812,-4.04144,-4.6786,45.8974,-23.2821,-7.8553,-36.4261,-61.8239,9.19604,1.56198,67.0167,-25.6241,-0.00900574,-46.7628
9.66109,15.2211,-23.1477,22.1116,2.77538,-4.4889,22.9531,-0.196781,2.21006,11.2751,0.100863,-2.6025,-0.429914,0.221257,-4.07743,1.79939,6.1449,14.1527,3.31597,8.75961,-14.5986,1.95761,4.41106,-6.57618,0,1.47101e-14,-16.626,25.3223,-61.8368,23.4778,12.3528,5.18078,26.2992,7.12502,30.5424,-1.1885,0,1.47101e-14,37.9037,-30.1062,8.07048,101.244,21.3404,-19.5151,20.1732,7.12502,6.80788,50.0438,-44.5036,-4.34239,-4.49981,46.2974,-23.5251,-8.02413,-36.6409,-62.1046,9.13066,1.66978,66.8914,-25.4671,-0.191103,-46.7743
9.63358,15.2161,-23.1573,22.2132,3.0625,-4.45383,22.6481,-0.542084,1.78811,11.685,-0.401214,-2.21973,0.124294,-0.0419811,-3.30745,1.44298,6.65315,12.3155,2.93785,9.34668,-14.3049,1.89257,4.67541,-6.14432,-1.35174e-14,-5.56597e-15,-13.8662,26.7,-59.4941,23.4123,12.171,3.10344,25.4231,7.12502,28.5594,-2.41555,-1.35174e-14,-5.56597e-15,35.1444,-29.7152,9.72696,101.745,21.1553,-19.1026,20.6128,7.12502,7.20613,50.4701,-44.7061,-4.44377,-4.41107,46.6888,-23.837,-8.15502,-36.6062,-62.3492,9.04986,1.77916,66.7663,-25.2766,-0.372653,-46.5246
9.60654,15.2138,-23.1612,22.2872,3.2232,-4.32868,22.3885,0.00385554,2.45673,11.8205,0.406571,-2.56528,0.479587,0.409871,-4.23515,1.36803,6.01741,13.7514,3.08582,8.50444,-14.2051,1.89028,4.27026,-6.38535,-7.15625e-15,5.1684e-15,-13.8475,23.67,-58.7832,22.9683,12.6785,1.69833,24.69,7.12502,27.216,-3.36671,-7.15625e-15,5.1684e-15,36.6471,-30.4591,8.56471,102.368,21.4249,-19.1097,21.3049,7.12502,7.1993,51.1624,-44.9009,-4.51329,-4.45197,47.0556,-23.9337,-8.12248,-36.3184,-62.4471,8.94262,1.78198,66.6297,-25.138,-0.46505,-46.3307
9.57856,15.215,-23.1585,22.3279,3.3322,-4.22642,22.3779,-0.123713,2.13646,11.7805,0.193329,-2.31171,0.411736,0.278775,-3.73232,2.01154,6.16746,12.5927,2.874,8.7307,-13.9027,1.68916,4.39529,-6.1155,7.95139e-15,5.1684e-15,-12.1627,24.7228,-56.943,22.8698,11.843,0.760645,23.9104,7.12502,26.3187,-4.28363,7.95139e-15,5.1684e-15,34.2224,-31.1831,9.70292,102.936,21.2324,-18.5724,22.1643,7.12502,7.71793,52.0035,-45.053,-4.66173,-4.42596,47.4009,-24.0741,-7.97438,-35.7656,-62.4244,8.89437,1.78862,66.4758,-25.1441,-0.455768,-46.3593
9.54899,15.2161,-23.1569,22.283,3.44184,-4.16074,22.9233,0.538261,2.79865,11.5124,1.15202,-2.71183,-0.0343307,0.785422,-4.76638,1.93608,5.40112,15.0864,3.36036,7.77434,-14.1738,1.82202,3.9416,-6.64649,2.38542e-15,1.31198e-14,-12.8912,21.3416,-56.5839,22.4304,12.9805,-0.89529,23.6279,7.12502,24.7326,-4.7933,2.38542e-15,1.31198e-14,35.9307,-32.8188,8.29331,103.341,21.9379,-18.1069,22.6239,7.12502,8.16717,52.4461,-45.1225,-4.73715,-4.35893,47.7207,-24.3393,-7.85578,-35.014,-62.3239,8.88877,1.82488,66.3018,-25.1292,-0.522323,-46.3907
9.51738,15.2163,-23.1591,22.2995,3.54338,-4.05036,23.2908,0.565903,2.86551,11.3816,1.20342,-2.76832,-0.347972,0.8067,-4.89024,1.99519,5.37461,14.9587,3.39925,7.73789,-13.935,1.80377,3.9255,-6.55239,-2.38542e-14,-4.77083e-15,-11.7863,20.4009,-55.3383,22.1455,13.4756,-2.38827,23.1549,7.12502,23.3009,-5.45502,-2.38542e-14,-4.77083e-15,34.7095,-34.0368,8.64327,103.545,23.2615,-18.7616,22.2182,7.12502,7.53523,52.064,-45.2668,-4.79776,-4.3467,48.0143,-24.5107,-7.92057,-34.6319,-62.3208,8.903,1.79824,66.1259,-25.0254,-0.724352,-46.2667
9.48554,15.2162,-23.1625,22.4444,3.78165,-4.02858,23.681,0.655344,3.66672,11.0453,1.46825,-3.14726,-0.832401,0.962804,-5.84611,2.04919,5.04736,15.4617,3.64391,7.30792,-13.42,1.80261,3.72395,-6.48919,-1.82882e-14,3.97569e-14,-11.6172,18.4584,-54.8158,21.8384,13.9073,-3.29724,22.6181,7.12502,22.4287,-6.09966,-1.82882e-14,3.97569e-14,34.6771,-35.5105,7.90583,103.601,24.0879,-19.2933,21.7862,7.12502,7.02207,51.6497,-45.5079,-4.99197,-4.1907,48.2948,-24.5581,-7.94515,-34.5678,-62.5226,8.88305,1.90511,65.9496,-24.9001,-0.922858,-46.34
9.45383,15.2149,-23.1669,22.5045,4.01255,-4.11952,23.9266,0.382352,3.78574,10.9361,1.1569,-3.02829,-1.11254,0.799129,-5.72148,2.15639,5.27008,14.484,3.63831,7.5927,-13.0662,1.77429,3.85834,-6.20764,-1.19271e-14,4.92986e-14,-9.86199,18.6261,-53.4657,21.7947,13.7861,-4.3719,21.8846,7.12502,21.3968,-6.95398,-1.19271e-14,4.92986e-14,32.2602,-36.3658,8.78432,103.671,24.5082,-19.1359,21.7529,7.12502,7.174,51.6113,-45.7066,-5.17057,-3.89609,48.5804,-24.6377,-7.89748,-34.6694,-62.6158,8.83946,2.18406,65.7765,-24.7206,-1.03731,-46.5529
9.423,15.2163,-23.1681,22.4964,4.06789,-3.90768,23.6448,0.222518,3.11653,11.2464,0.829928,-2.6839,-0.704551,0.620137,-4.86857,2.20766,5.59002,13.4814,3.35859,8.00403,-13.318,1.71123,4.05059,-6.11023,2.3059e-14,-6.75868e-15,-7.25291,18.9406,-51.4547,21.7516,13.7878,-6.0876,21.2598,7.12502,19.7481,-7.75701,2.3059e-14,-6.75868e-15,29.2994,-36.6614,10.4894,103.688,25.124,-19.0864,22.0691,7.12502,7.22171,51.9259,-45.8351,-5.40275,-3.95505,48.905,-24.8249,-7.55598,-34.3168,-62.5151,8.66527,2.12444,65.5756,-24.6216,-1.04891,-46.6898
9.39279,15.2188,-23.1666,22.5962,4.1603,-3.71431,23.0796,0.52883,3.08628,11.5089,1.20667,-2.6618,-0.100137,0.825182,-4.89396,2.28834,5.28837,14.3935,3.21172,7.63486,-13.8868,1.66104,3.87824,-6.45954,-5.1684e-15,-7.55382e-15,-6.16298,17.1047,-50.1686,21.4604,14.3085,-7.75237,21.0456,7.12502,18.1471,-8.12786,-5.1684e-15,-7.55382e-15,28.8912,-37.5569,10.6016,103.439,25.8998,-19.7752,22.238,7.12502,6.55684,52.1165,-46.0477,-5.62852,-4.00494,49.288,-25.0323,-7.20397,-33.687,-62.5362,8.5328,2.05599,65.3568,-24.566,-1.07843,-46.8037
9.3603,15.2206,-23.1679,22.7708,4.28592,-3.70458,22.9084,0.71762,3.59084,11.5334,1.53291,-2.91828,0.0788816,1.0236,-5.5297,2.10518,5.05365,15.4011,3.28312,7.32332,-14.036,1.71017,3.7284,-6.68026,1.98785e-14,-3.1408e-14,-5.3908,14.7717,-49.5392,21.2245,15.0519,-8.67973,20.7728,7.12502,17.2547,-8.48114,1.98785e-14,-3.1408e-14,28.7414,-38.8395,10.0274,103.031,26.62,-20.693,21.7809,7.12502,5.67081,51.6851,-46.3858,-5.68053,-3.89625,49.6842,-25.2497,-7.20263,-33.2564,-62.666,8.54167,2.17656,65.1403,-24.3907,-1.1314,-46.7385
9.32586,15.2238,-23.1709,22.9006,4.30349,-3.43747,22.6575,1.05118,3.79667,11.8591,1.9869,-3.168,0.644708,1.29352,-6.00233,1.17595,4.84398,16.306,3.29152,6.92824,-14.1198,1.84253,3.51196,-6.84703,-3.4191e-14,-2.84262e-14,-4.32878,11.5727,-48.7777,20.9661,15.9997,-9.69413,20.1707,7.12502,16.2782,-9.166,-3.4191e-14,-2.84262e-14,29.0151,-39.523,9.44441,102.477,27.1764,-20.9552,21.411,7.12502,5.41759,51.3217,-46.7003,-5.75405,-4.08689,50.0704,-25.3935,-7.1349,-32.7528,-62.6962,8.49095,2.0054,64.9035,-24.2021,-1.16396,-46.3806
9.28851,15.2265,-23.1737,23.0186,4.35703,-3.19633,23.0448,0.906626,3.57971,11.6008,1.76979,-3.14479,0.127704,1.15395,-5.82628,1.6003,4.94575,15.6482,3.0948,7.09683,-13.8793,1.70862,3.60345,-6.66684,9.14409e-15,1.72943e-14,-2.77767,10.942,-47.788,20.84,16.3911,-11.0306,19.5834,7.12502,14.9911,-9.85396,9.14409e-15,1.72943e-14,26.4381,-40.6614,10.7856,101.96,27.4673,-20.9021,22.0788,7.12502,5.46887,51.9882,-46.9656,-5.86077,-4.20499,50.4226,-25.5329,-7.06808,-32.4271,-62.7348,8.4622,1.86837,64.6656,-24.0541,-1.24687,-46.1952
9.24965,15.2283,-23.1765,23.1439,4.42742,-3.17575,23.1322,0.79274,3.3747,11.5044,1.59348,-2.93006,-0.0635796,1.04204,-5.43971,1.76822,5.1054,14.8713,3.08516,7.32014,-13.7491,1.67784,3.71203,-6.49253,-2.14687e-14,2.98177e-15,-0.974724,11.0498,-46.4681,20.9341,15.8142,-12.1779,19.1146,7.12502,13.8856,-10.4018,-2.14687e-14,2.98177e-15,23.8834,-41.3286,12.4024,101.264,27.7362,-21.0799,23.1025,7.12502,5.29723,53.0163,-47.265,-5.88337,-4.08151,50.7458,-25.7811,-7.09787,-32.0473,-62.7847,8.53819,1.97261,64.4363,-23.9613,-1.32992,-46.459
9.21454,15.229,-23.1771,23.1675,4.53904,-3.1438,22.9834,0.70039,3.18174,11.675,1.44749,-2.63926,0.160122,0.9604,-4.97172,1.44083,5.27952,13.9118,3.24653,7.51261,-13.5897,1.76447,3.7869,-6.2641,-2.5842e-14,3.97569e-16,1.12157,10.6428,-45.0515,21.0335,15.1846,-13.1089,18.713,7.12502,12.9882,-10.8627,-2.5842e-14,3.97569e-16,21.6107,-41.6595,14.0045,100.342,28.0616,-21.76,22.4337,7.12502,4.64051,52.3628,-47.4678,-5.97466,-3.95309,51.0757,-25.9986,-7.04531,-31.5007,-62.7433,8.54661,2.07218,64.2039,-23.9097,-1.43755,-46.6605
9.18076,15.2298,-23.1741,23.1886,4.79064,-2.95062,22.711,0.885834,3.53516,11.8363,1.74624,-2.71317,0.525436,1.1422,-5.30709,1.50607,4.93071,14.5003,3.07659,7.04553,-13.6102,1.65996,3.56426,-6.39087,-2.28602e-14,1.33186e-14,1.9319,7.8098,-44.4855,20.9983,15.9298,-14.0295,18.2878,7.12502,12.1006,-11.3423,-2.28602e-14,1.33186e-14,21.5136,-42.6008,13.9823,99.2154,28.2517,-22.7,20.8408,7.12502,3.7328,50.7878,-47.5396,-6.24782,-3.9345,51.4063,-26.1818,-7.21295,-31.8274,-62.7603,8.39509,2.0333,63.9674,-23.791,-1.55414,-46.5483
9.14237,15.2308,-23.1746,23.2387,4.96091,-2.77729,22.6534,0.96549,3.81075,11.8868,1.89643,-2.85341,0.649154,1.24136,-5.64684,1.61364,4.75021,15.1394,2.87825,6.81351,-13.7533,1.57811,3.45861,-6.55626,2.14687e-14,9.24349e-15,2.95028,5.6632,-44.0947,21.0818,16.3593,-15.3119,17.7188,7.12502,10.8639,-11.9802,2.14687e-14,9.24349e-15,20.8393,-43.576,14.1832,98.056,28.3471,-23.2807,20.0228,7.12502,3.17206,49.9789,-47.6941,-6.40202,-3.92078,51.738,-26.2805,-7.51093,-32.5736,-62.7789,8.34103,2.00584,63.7412,-23.66,-1.6681,-46.4672
9.10321,15.2331,-23.1795,23.2364,5.02489,-2.68986,22.7984,1.04319,4.09545,11.8873,2.0489,-2.99657,0.622532,1.33655,-6.0051,1.25846,4.67012,15.657,3.18022,6.68806,-13.8773,1.72813,3.38986,-6.67496,-3.3197e-14,-2.48481e-15,4.07589,3.56387,-43.8307,21.147,16.5863,-16.1577,17.5166,7.12502,10.048,-12.2236,-3.3197e-14,-2.48481e-15,20.0667,-44.5404,14.3587,96.8429,28.8884,-22.8991,20.7705,7.12502,3.5405,50.7209,-47.8802,-6.47728,-3.83653,52.0513,-26.0333,-7.60835,-33.1159,-62.7042,8.35802,2.04642,63.4998,-23.5352,-1.80743,-46.477
9.06344,15.2375,-23.1799,23.2811,5.04557,-2.61413,22.8211,1.11991,4.17724,11.8813,2.16294,-2.98023,0.624359,1.39672,-6.05927,1.14223,4.62047,15.5355,3.27353,6.60645,-13.7322,1.75325,3.34552,-6.60793,-4.37326e-15,3.16068e-14,5.5141,1.7272,-43.3824,21.1659,16.5182,-16.0861,17.4426,7.12502,10.1171,-12.2941,-4.37326e-15,3.16068e-14,18.807,-45.3552,15.1309,95.5181,29.3261,-21.1496,23.0073,7.12502,5.22991,52.9228,-48.0857,-6.54078,-3.74398,52.3327,-25.7301,-7.70042,-33.5779,-62.6096,8.388,2.09454,63.2303,-23.3808,-1.92851,-46.6018
9.02067,15.2463,-23.1739,23.3196,5.01276,-2.50661,22.8005,1.16561,4.02195,11.9021,2.19464,-2.85349,0.645447,1.40115,-5.83634,1.28233,4.61519,15.0773,3.07479,6.59914,-13.6283,1.65207,3.34189,-6.50409,5.86415e-15,-3.08613e-14,7.14936,0.933682,-42.6664,21.3164,15.6893,-16.3338,17.3612,7.12502,9.87815,-12.3871,5.86415e-15,-3.08613e-14,16.9894,-45.9898,16.5289,94.0814,29.2319,-19.6249,24.6149,7.12502,6.7019,54.4888,-48.2567,-6.41886,-3.74629,52.5904,-25.7937,-7.80447,-33.365,-62.4175,8.42287,2.11874,62.9334,-23.272,-1.95637,-46.7462
8.98168,15.251,-23.1694,23.3143,5.07005,-2.30192,22.8027,1.10864,3.91438,11.9746,2.10557,-2.78655,0.7034,1.35334,-5.68121,1.20339,4.63137,14.8612,3.12695,6.61875,-13.7561,1.67999,3.3458,-6.50582,1.60022e-14,3.8763e-15,8.79811,0.00229354,-42.2306,21.6333,15.0873,-17.3245,17.4185,7.12502,8.92221,-12.3729,1.60022e-14,3.8763e-15,15.3281,-46.6202,17.7633,92.4294,29.2618,-19.7455,24.5416,7.12502,6.58551,54.4192,-48.351,-6.38772,-3.84125,52.86,-25.7629,-8.10214,-33.7095,-62.2496,8.28993,2.08277,62.6311,-23.1749,-1.95484,-46.7028
8.94321,15.2463,-23.1736,23.3364,5.1854,-2.1637,22.8265,1.03709,4.01322,12.0124,2.03542,-2.78623,0.730167,1.32587,-5.72328,1.04282,4.62994,14.8078,3.33601,6.61106,-13.7497,1.76425,3.33602,-6.48957,5.91384e-15,-2.75814e-15,10.3585,-1.59758,-42.2148,21.9647,15.0256,-18.1792,17.4422,7.12502,8.09741,-12.3827,5.91384e-15,-2.75814e-15,14.1497,-47.3074,18.4841,90.5829,29.6823,-20.1297,23.5863,7.12502,6.21458,53.4752,-48.5437,-6.44532,-3.8328,53.168,-25.6351,-8.44722,-34.4562,-62.1997,8.15215,2.15129,62.3547,-22.9717,-2.02152,-46.5967
8.90151,15.2448,-23.1824,23.4036,5.28218,-2.06952,22.8648,1.07035,4.19505,11.9864,2.11346,-2.78974,0.703462,1.37281,-5.85018,0.941955,4.56649,14.8766,3.48821,6.52207,-13.7007,1.81288,3.28979,-6.48549,1.73315e-14,-4.79195e-14,11.605,-3.03889,-42.1155,22.3525,14.6282,-18.9759,17.1538,7.12502,7.32844,-12.6993,1.73315e-14,-4.79195e-14,13.4065,-48.1379,18.9716,88.676,30.3385,-19.9605,23.6527,7.12502,6.37794,53.5367,-48.8325,-6.46222,-3.78742,53.522,-25.7663,-8.28535,-33.8627,-62.1905,8.10767,2.23584,62.0581,-22.6881,-2.08537,-46.4941
8.85948,15.2473,-23.1852,23.5766,5.32158,-1.94545,22.6728,1.17954,4.34196,11.9872,2.27468,-2.79201,0.828661,1.46449,-5.96216,0.700943,4.48418,15.1159,3.68965,6.40167,-13.8578,1.90661,3.22371,-6.57352,-2.63887e-14,-3.8266e-15,12.6779,-4.00081,-41.79,23.0045,13.6464,-19.7912,16.3856,7.12502,6.54136,-13.4934,-2.63887e-14,-3.8266e-15,12.9563,-48.9896,19.3539,86.8436,31.2772,-19.9423,25.0167,7.12502,6.3955,54.9002,-49.2391,-6.55502,-3.75358,53.8965,-25.8414,-8.15622,-33.4914,-62.2309,8.12815,2.2486,61.7314,-22.5263,-2.10717,-46.4812
8.81833,15.255,-23.1782,23.6278,5.37196,-1.8445,22.455,1.23783,4.53787,12.0689,2.37861,-2.82729,1.0551,1.53748,-6.12273,0.594482,4.4236,15.4102,3.69979,6.31242,-14.0038,1.92805,3.17832,-6.67067,8.94531e-15,5.03919e-14,13.7362,-4.9332,-41.6326,24.0055,12.6102,-19.658,15.6919,7.12502,6.67001,-14.1831,8.94531e-15,5.03919e-14,12.6204,-49.6922,19.5311,84.8779,32.0388,-20.2489,25.448,7.12502,6.09956,55.3402,-49.4475,-6.70705,-3.64299,54.2276,-25.9738,-8.13454,-33.4255,-62.1012,8.1194,2.28515,61.3685,-22.4501,-2.16344,-46.5217
8.78176,15.266,-23.1722,23.4461,5.49764,-1.51587,22.6214,1.16152,4.616,12.1073,2.30239,-2.90414,1.01536,1.50842,-6.24323,0.866984,4.37446,15.4371,3.45846,6.26119,-13.9109,1.80275,3.16308,-6.65535,5.26779e-15,-2.17669e-14,14.7868,-5.68439,-41.6442,25.1077,11.6644,-19.5741,15.5363,7.12502,6.75093,-14.3361,5.26779e-15,-2.17669e-14,11.9503,-50.2891,19.9967,82.4901,31.9008,-20.4974,24.2115,7.12502,5.85956,54.1105,-49.2732,-6.93545,-3.77377,54.5325,-26.1116,-8.04813,-33.3786,-61.7647,7.88155,2.08306,60.9873,-22.2848,-2.28951,-46.5074
8.74662,15.2694,-23.1733,23.4205,5.46057,-1.00109,22.7718,1.16213,4.44147,12.0862,2.27538,-2.99686,0.909501,1.48765,-6.24612,0.88149,4.33319,15.2678,3.44177,6.19931,-13.7243,1.77503,3.13256,-6.57017,2.80286e-14,-3.60794e-14,15.9804,-6.01715,-41.4164,26.008,10.2131,-20.034,15.6612,7.12502,6.30697,-14.2249,2.80286e-14,-3.60794e-14,11.267,-50.693,20.6467,79.9715,31.3818,-20.4358,22.6139,7.12502,5.91905,52.5112,-49.3317,-7.08381,-4.21476,54.843,-26.145,-8.11062,-33.9419,-61.5499,7.66161,1.65035,60.6391,-22.1087,-2.31855,-46.485
8.70595,15.2703,-23.1776,23.5291,5.38984,-0.847895,22.7007,1.23356,4.56841,12.0836,2.3863,-3.04075,0.968303,1.55312,-6.38691,0.728549,4.26298,15.2825,3.5623,6.09273,-13.7045,1.81943,3.07528,-6.56627,3.61788e-14,-1.81888e-14,17.1321,-6.58835,-41.382,26.8567,9.04549,-20.5576,15.896,7.12502,5.80146,-14.0046,3.61788e-14,-1.81888e-14,11.0567,-51.0684,20.9683,77.4437,31.3207,-19.6528,21.4567,7.12502,6.67502,51.3315,-49.6765,-7.0323,-4.2954,55.1847,-26.4506,-7.90424,-33.3638,-61.4707,7.69443,1.61137,60.3156,-21.9565,-2.32652,-46.4586
8.66019,15.2721,-23.1846,23.6585,5.40192,-0.817674,22.5653,1.21527,4.67667,12.0678,2.37975,-2.99307,1.01945,1.55435,-6.38972,0.924033,4.22227,15.1974,3.35955,6.05568,-13.8433,1.72378,3.06078,-6.6039,-9.93923e-15,3.77691e-14,18.1722,-7.17127,-41.8117,28.0361,8.51497,-21.1373,15.8778,7.12502,5.24174,-14.0373,-9.93923e-15,3.77691e-14,10.5406,-51.51,21.5463,74.7713,31.0989,-18.153,20.6525,7.12502,8.12269,50.4764,-50.0719,-7.0439,-4.1674,55.5673,-26.6826,-7.60449,-32.5907,-61.4551,7.7859,1.74682,59.996,-21.7747,-2.40448,-46.4081
8.6173,15.2723,-23.1893,23.9271,5.36084,-0.479272,22.2754,1.22756,4.47215,12.0328,2.35018,-3.00012,1.10508,1.53163,-6.26104,1.04301,4.2035,15.1421,3.26402,6.04723,-14.0401,1.67895,3.05827,-6.66163,2.06736e-14,6.26172e-15,19.7192,-6.3421,-40.9298,29.003,5.90778,-21.076,15.0798,7.12502,5.30097,-14.8339,2.06736e-14,6.26172e-15,10.0002,-51.9571,22.0951,72.1812,30.4502,-16.8345,21.6491,7.12502,9.39508,51.4197,-50.5454,-7.22687,-4.3668,55.9339,-26.6377,-7.68692,-32.9079,-61.5526,7.75896,1.54059,59.6631,-21.5504,-2.39577,-46.1961
8.5783,15.2749,-23.1885,24.0283,5.52204,-0.280782,22.0943,1.20498,4.69688,12.0488,2.35805,-3.0305,1.22885,1.55396,-6.41666,0.838868,4.18388,15.263,3.56767,6.01846,-14.0875,1.80186,3.03828,-6.69195,-3.06128e-14,1.39149e-14,20.7495,-6.2468,-40.5953,30.2057,3.81777,-21.6219,14.6941,7.12502,4.77383,-15.2321,-3.06128e-14,1.39149e-14,9.99448,-52.3449,22.2061,69.7203,30.012,-16.0419,21.4319,7.12502,10.1597,51.1666,-50.7208,-7.36083,-4.39606,56.2485,-26.7436,-7.78922,-32.7145,-61.5384,7.62958,1.50729,59.3006,-21.332,-2.46652,-45.97
8.5369,15.2805,-23.1857,23.9358,5.69481,-0.285837,22.1172,1.1254,5.00479,12.1135,2.31492,-2.98042,1.30002,1.55144,-6.5304,0.695832,4.25201,15.1683,3.53513,6.0828,-13.9271,1.81839,3.06594,-6.61853,-5.84427e-14,2.90226e-14,21.7654,-6.3337,-40.6451,31.5647,2.41087,-22.7708,14.7681,7.12502,3.66441,-15.1801,-5.84427e-14,2.90226e-14,9.78661,-52.5955,22.4919,67.2306,29.6694,-15.4932,20.8002,7.12502,10.6891,50.5082,-50.737,-7.2972,-4.23532,56.5254,-26.9878,-7.61534,-31.9357,-61.3043,7.61149,1.66872,58.9121,-21.1848,-2.63506,-45.8806
8.49499,15.2867,-23.1867,23.8787,5.68605,-0.186136,22.2356,1.0744,5.03527,12.1401,2.26037,-2.9544,1.2637,1.52463,-6.51349,0.656168,4.32942,15.1073,3.2814,6.16344,-13.9098,1.76105,3.10422,-6.59965,5.40694e-14,-1.98785e-14,22.9102,-6.37044,-40.7091,32.9819,1.7221,-23.0182,14.7994,7.12502,3.42552,-15.1528,5.40694e-14,-1.98785e-14,9.60059,-52.8937,22.8003,64.4893,28.8297,-14.9322,20.5299,7.12502,11.2301,50.2093,-50.8684,-7.2338,-4.21102,56.7764,-27.1064,-7.59135,-31.6268,-61.0221,7.6659,1.66695,58.499,-20.9567,-2.71559,-45.5563
8.45622,15.2927,-23.19,23.7677,5.76026,0.0126814,22.4723,0.981696,5.16898,12.1387,2.1754,-3.02422,1.14584,1.48927,-6.66119,0.538044,4.31666,15.3612,3.36854,6.14421,-14.1037,1.8171,3.09195,-6.70195,-3.18055e-15,-8.54774e-15,23.9102,-6.02318,-40.4001,34.4221,0.641384,-22.6616,14.5227,7.12502,3.76991,-15.4237,-3.18055e-15,-8.54774e-15,9.78551,-53.0774,22.8719,61.5534,27.202,-13.9097,20.2973,7.12502,12.2162,49.9206,-50.8544,-7.36902,-4.22712,57.0201,-27.2221,-7.63921,-31.4311,-60.7365,7.56044,1.59836,58.1009,-20.6976,-2.77811,-45.3185
8.41928,15.2968,-23.1902,23.7189,5.756,0.227548,22.5264,0.981604,5.2794,12.183,2.19691,-3.09629,1.18391,1.51256,-6.81009,0.377751,4.2631,15.5523,3.44596,6.06094,-14.2292,1.86337,3.04635,-6.77373,5.28767e-14,-2.26615e-14,24.805,-5.56846,-39.8532,35.8084,-1.26518,-22.3603,14.6675,7.12502,4.06081,-15.2736,5.28767e-14,-2.26615e-14,9.97876,-52.9098,22.977,58.8121,25.1101,-12.3744,19.9286,7.12502,13.6961,49.4579,-50.901,-7.48035,-4.30735,57.2671,-27.4714,-7.31409,-30.4031,-60.4987,7.4721,1.51652,57.7659,-20.5491,-2.81187,-45.4157
8.38412,15.2979,-23.1898,23.7058,5.71862,0.231413,22.4891,0.922176,5.32285,12.1108,2.13037,-2.94062,1.10384,1.46906,-6.65047,0.768901,4.29774,15.0759,3.31062,6.15005,-14.1972,1.75631,3.09859,-6.69,-1.66979e-14,-8.74653e-15,25.9074,-4.53887,-39.1585,37.3623,-3.28242,-21.7093,15.2704,7.12502,4.68946,-14.6577,-1.66979e-14,-8.74653e-15,9.09126,-52.7246,24.1398,56.1087,22.7185,-10.878,19.4275,7.12502,15.138,48.8538,-51.0683,-7.45893,-4.1906,57.5064,-27.6459,-7.05336,-29.6049,-60.3049,7.52567,1.64932,57.4855,-20.4177,-2.85606,-45.4378
8.3517,15.2999,-23.1926,23.6707,5.77568,0.295887,22.5078,0.839879,5.48678,12.132,2.05783,-2.89674,1.11455,1.44087,-6.68268,0.568566,4.34655,15.0549,3.47746,6.2049,-14.2452,1.84725,3.11822,-6.69396,8.74653e-15,2.22639e-14,26.9373,-3.83446,-38.6669,39.0163,-4.36619,-20.9058,14.8286,7.12502,5.4653,-15.081,8.74653e-15,2.22639e-14,9.15895,-52.5794,24.4854,53.2002,19.9756,-9.74882,18.7933,7.12502,16.2255,48.1343,-51.1729,-7.55641,-4.11079,57.7442,-27.6406,-7.17438,-30.2419,-60.1469,7.5113,1.70452,57.2213,-20.3049,-2.92481,-45.3646
8.31684,15.3074,-23.1955,23.7644,5.75671,0.637331,22.4259,0.809113,5.44133,12.1306,2.0062,-3.00191,1.14799,1.41938,-6.7584,0.580152,4.30436,15.2039,3.43208,6.1453,-14.2413,1.82774,3.09094,-6.72066,-8.34896e-15,1.45113e-14,27.7627,-3.26822,-38.3373,40.6082,-4.85872,-20.8603,14.2987,7.12502,5.50924,-15.6096,-8.34896e-15,1.45113e-14,9.46696,-52.3661,24.5445,50.3302,16.9293,-8.57689,18.0501,7.12502,17.3537,47.2954,-51.3467,-7.65186,-4.38052,57.9821,-27.709,-6.9845,-30.0127,-60.0681,7.42112,1.44216,56.9321,-20.2419,-2.93517,-45.3421
8.27955,15.313,-23.1962,23.9069,5.71846,0.882676,22.3401,0.761457,5.33049,12.0777,1.92187,-3.03818,1.11248,1.37043,-6.71487,0.688511,4.31219,15.2372,3.38277,6.16691,-14.2633,1.80036,3.1056,-6.73529,8.74653e-15,9.34288e-15,28.6637,-2.62468,-38.1219,42.2697,-5.5345,-21.5626,14.6572,7.12502,4.83114,-15.2677,8.74653e-15,9.34288e-15,9.15364,-51.7469,25.1888,47.567,13.5483,-7.23628,16.9628,7.12502,18.6436,46.0894,-51.5844,-7.59814,-4.57436,58.2136,-27.9228,-6.4209,-28.3474,-60.0252,7.36879,1.30874,56.6386,-20.22,-2.94062,-45.468
8.24645,15.3113,-23.1982,23.9354,5.77234,0.908247,22.3591,0.6658,5.41012,12.0613,1.81656,-2.99602,1.0704,1.31825,-6.6945,0.557306,4.38684,15.4298,3.55786,6.27009,-14.4414,1.90055,3.15288,-6.81667,1.03368e-14,-3.83654e-14,29.6818,-1.96547,-37.9132,43.8896,-6.22448,-21.9667,15.0252,7.12502,4.44091,-14.9082,1.03368e-14,-3.83654e-14,8.79251,-50.751,26.0384,44.7701,9.64144,-6.45108,15.7507,7.12502,19.3987,44.8031,-51.7219,-7.52534,-4.51223,58.4093,-28.0484,-6.40376,-28.3918,-59.9533,7.39996,1.39287,56.3808,-20.1768,-3.04399,-45.5684
8.21749,15.3101,-23.2006,23.8625,5.85215,0.812669,22.407,0.597144,5.70154,12.0756,1.78501,-2.95691,1.07257,1.31631,-6.81534,0.630378,4.39379,15.6615,3.43376,6.28252,-14.532,1.86465,3.16367,-6.88659,-1.78906e-14,-3.57812e-15,30.4391,-1.14921,-37.3301,45.4867,-6.7798,-21.9582,15.1355,7.12502,4.44916,-14.7978,-1.78906e-14,-3.57812e-15,8.95985,-49.8201,26.4062,42.1156,5.63428,-5.91205,15.0206,7.12502,19.9169,44.02,-51.7527,-7.37264,-4.33526,58.5527,-28.034,-6.9226,-29.7048,-59.8104,7.51562,1.56198,56.1632,-20.0771,-3.18919,-45.3476
8.19117,15.3152,-23.2029,23.9503,5.79223,0.889251,22.2262,0.565022,5.79381,12.1102,1.75151,-2.9837,1.20114,1.31128,-6.88385,0.755033,4.3986,15.8084,3.11289,6.28702,-14.6705,1.76072,3.17086,-6.96045,-6.75868e-15,1.59028e-14,31.2223,-0.188705,-36.4994,47.163,-7.38704,-21.9887,15.1335,7.12502,4.4197,-14.8004,-6.75868e-15,1.59028e-14,8.95285,-48.6826,26.7455,39.8053,1.8837,-5.26661,14.5002,7.12502,20.5372,43.4339,-51.9421,-7.31241,-4.36072,58.6456,-28.0206,-7.0931,-29.8071,-59.7662,7.58135,1.53539,55.9465,-19.9642,-3.13436,-44.9372
8.16842,15.3198,-23.2061,24.2061,5.52926,1.23923,21.8838,0.549856,5.42837,12.1706,1.65026,-3.0367,1.40223,1.25291,-6.69673,0.602343,4.52043,15.8283,3.0746,6.43718,-14.9007,1.80702,3.23856,-7.02815,-1.47101e-14,2.62396e-14,32.3684,0.681731,-35.7888,48.9335,-8.09496,-21.8303,15.3727,7.12502,4.57267,-14.5579,-1.47101e-14,2.62396e-14,8.4419,-47.1078,27.5797,37.5578,-1.7824,-5.00818,13.5887,7.12502,20.7856,42.4954,-52.3247,-7.44354,-4.7021,58.7031,-28.0326,-6.69968,-28.9133,-59.7946,7.62401,1.16127,55.7048,-19.8964,-2.95791,-44.8372
8.1506,15.3245,-23.2073,24.2541,5.30886,1.55259,21.8272,0.50185,5.13887,12.2185,1.53483,-3.07803,1.45182,1.18504,-6.54942,0.57975,4.61718,15.8347,3.05965,6.56606,-14.9682,1.82948,3.30136,-7.04476,-3.65764e-14,5.58585e-14,33.3755,1.48395,-35.139,50.889,-8.84708,-21.5826,15.7092,7.12502,4.81178,-14.2161,-3.65764e-14,5.58585e-14,8.26459,-45.7806,28.203,35.2823,-4.8039,-5.30392,12.8973,7.12502,20.5014,41.8349,-52.4281,-7.48104,-5.03277,58.7011,-28.0072,-6.18665,-27.9136,-59.5871,7.65187,0.811286,55.4387,-19.824,-2.89106,-45.1334
8.13555,15.3387,-23.2066,24.0299,5.4145,1.66978,22.1492,0.351228,5.24441,12.2492,1.37651,-3.03767,1.30696,1.10703,-6.54541,0.690574,4.61055,15.9691,2.94869,6.56635,-15.0521,1.78624,3.3064,-7.09805,-2.54444e-14,3.47873e-14,34.1068,2.39213,-34.3352,52.6329,-8.78324,-21.6637,15.7033,7.12502,4.7335,-14.2238,-2.54444e-14,3.47873e-14,8.34624,-44.5428,28.6442,33.1318,-6.84896,-5.7374,12.8172,7.12502,20.0848,41.799,-52.0607,-7.45035,-5.08057,58.616,-27.9288,-6.15356,-27.915,-59.2131,7.53681,0.74923,55.1469,-19.6958,-3.01437,-45.3205
8.1214,15.356,-23.2072,23.8084,5.60669,1.59607,22.5552,0.132259,5.47999,12.2333,1.16139,-2.90714,1.06267,0.998176,-6.50766,0.633929,4.69762,15.9829,3.06879,6.69222,-15.2149,1.85668,3.36565,-7.14539,3.97569e-15,-1.09332e-14,34.8952,3.57478,-33.4627,53.9213,-7.60125,-21.7773,16.2564,7.12502,4.62386,-13.6731,3.97569e-15,-1.09332e-14,7.91745,-42.6576,29.5751,31.1634,-8.66913,-5.63928,12.7177,7.12502,20.1791,41.6896,-51.7003,-7.3844,-4.88713,58.4915,-27.8352,-6.41784,-28.4362,-58.9058,7.40682,0.918102,54.862,-19.6157,-3.14992,-45.3133
8.11143,15.3673,-23.2094,23.7435,5.56344,1.60847,22.7314,-0.0154519,5.53941,12.2104,0.992813,-2.86649,0.925896,0.909804,-6.46772,0.605442,4.82999,15.9604,3.18831,6.88111,-15.3245,1.92961,3.45706,-7.16693,1.78906e-14,-1.31198e-14,35.7122,4.74736,-32.6074,55.89,-7.91554,-22.7268,16.4281,7.12502,3.70696,-13.5194,1.78906e-14,-1.31198e-14,7.3333,-40.3236,30.5799,29.5467,-10.3119,-4.88253,12.7961,7.12502,20.9063,41.6895,-51.6251,-7.36202,-4.84733,58.3756,-27.8629,-6.36766,-28.7723,-58.7064,7.39964,0.913105,54.6249,-19.4889,-3.11391,-45.1881
8.10624,15.3756,-23.21,23.7223,5.35463,1.75171,22.6522,-0.0856246,5.43658,12.2368,0.879169,-2.89135,0.972914,0.851013,-6.40923,0.875482,4.88366,15.9791,3.11281,6.98534,-15.3753,1.88186,3.51866,-7.18951,-3.33958e-14,2.18663e-14,36.5092,5.88208,-31.6937,57.7085,-7.8084,-22.9891,16.9987,7.12502,3.45367,-12.9531,-3.33958e-14,2.18663e-14,6.92366,-38.0388,31.3555,28.2275,-11.3072,-4.43215,13.3149,7.12502,21.3389,42.16,-51.6455,-7.41295,-4.98868,58.2815,-27.8792,-6.1802,-29.5378,-58.5019,7.52341,0.671809,54.4668,-19.3665,-3.0821,-44.9125
8.09837,15.3813,-23.2099,23.6862,5.14447,1.57839,22.4801,-0.0783684,5.54835,12.3325,0.898899,-2.833,1.16981,0.872652,-6.40823,0.931835,4.93036,16.0216,3.16043,7.05714,-15.3267,1.89767,3.5571,-7.17869,-2.70347e-14,1.35174e-14,37.2159,6.67118,-30.9976,59.3197,-7.69047,-22.4565,18.1505,7.12502,3.96798,-11.7923,-2.70347e-14,1.35174e-14,7.01724,-35.8829,31.7968,26.9281,-11.7846,-4.73597,13.6583,7.12502,21.0471,42.5361,-51.7366,-7.20558,-4.82242,58.1974,-27.6297,-6.48425,-30.5899,-58.319,7.86377,0.750361,54.3895,-19.4118,-3.15066,-44.7116
8.08994,15.384,-23.2091,23.7269,4.96081,1.30556,22.2812,-0.0922489,5.62506,12.4265,0.884879,-2.68248,1.3682,0.871414,-6.27816,0.892571,5.0492,15.888,3.11293,7.20854,-15.3331,1.91043,3.62954,-7.1501,-3.93594e-14,1.70955e-14,37.9875,7.50555,-30.2236,60.957,-7.66275,-22.0229,19.288,7.12502,4.38664,-10.6466,-3.93594e-14,1.70955e-14,6.99876,-33.1449,32.5232,25.5789,-12.4643,-4.86103,13.9719,7.12502,20.9269,42.8631,-51.9125,-6.9373,-4.55271,58.1024,-27.6279,-6.38919,-29.5973,-58.2586,8.23265,0.963232,54.3502,-19.5102,-3.19661,-44.7708
8.08961,15.3879,-23.2079,23.846,4.79743,1.25622,22.1563,-0.0550382,5.66836,12.3483,0.933257,-2.62112,1.34894,0.890796,-6.24322,1.06012,5.04532,16.1543,3.13394,7.23503,-15.5112,1.90919,3.65045,-7.25623,2.38542e-14,-1.66979e-14,38.2813,8.43904,-29.3705,62.7267,-7.41391,-21.8427,20.057,7.12502,4.56065,-9.87394,2.38542e-14,-1.66979e-14,7.0861,-30.5848,33.2635,24.3588,-13.0956,-4.59232,14.7622,7.12502,21.1851,43.6246,-52.0706,-6.8965,-4.50912,57.9684,-27.7837,-5.97469,-28.1576,-58.2808,8.42426,0.953282,54.2973,-19.5175,-3.41818,-44.4702
8.09396,15.3945,-23.2084,23.8383,4.66753,1.34101,22.2723,-0.106589,5.56078,12.2772,0.855198,-2.53305,1.19324,0.834474,-6.07253,0.953548,5.14884,16.2418,3.405,7.39099,-15.7039,2.0416,3.72273,-7.32141,1.74931e-14,-3.67752e-14,38.8544,9.47962,-28.3399,64.5587,-7.59831,-21.314,20.4585,7.12502,5.07121,-9.46085,1.74931e-14,-3.67752e-14,7.03239,-28.0807,34.0151,23.3821,-13.2184,-4.29312,15.5034,7.12502,21.4725,44.3333,-52.0025,-6.84442,-4.63785,57.8066,-27.5818,-6.24107,-28.762,-58.1773,8.47597,0.802513,54.2502,-19.4641,-3.46186,-44.5931
8.10295,15.4112,-23.2041,23.5888,4.65639,1.62984,22.5194,-0.272251,5.31728,12.3208,0.615117,-2.46414,1.07452,0.697957,-5.8125,1.00303,5.25707,16.1502,3.52066,7.55726,-15.7922,2.09408,3.80485,-7.32714,3.85642e-14,-5.36719e-15,39.5365,10.5663,-27.3189,66.3436,-7.8717,-20.8338,20.641,7.12502,5.53483,-9.26675,3.85642e-14,-5.36719e-15,6.87549,-25.4311,34.6975,22.6889,-13.1839,-3.77153,16.1091,7.12502,21.9733,44.8811,-51.4913,-6.83428,-4.98509,57.6076,-27.3932,-6.37944,-29.1033,-57.8249,8.23267,0.474215,54.1877,-19.4391,-3.45678,-44.6278
8.11763,15.4129,-23.2081,23.745,4.1817,1.59884,22.2694,-0.176009,5.11902,12.3017,0.686268,-2.43132,1.1772,0.722131,-5.67188,1.17757,5.28786,15.991,3.54359,7.61687,-15.6542,2.06963,3.84003,-7.25747,1.11319e-14,1.59028e-15,39.9695,11.438,-26.5426,68.0779,-7.49726,-20.3276,20.9885,7.12502,6.02356,-8.90587,1.11319e-14,1.59028e-15,6.95355,-22.8176,35.3278,22.0548,-13.1496,-3.23571,16.4169,7.12502,22.4877,45.1275,-51.8104,-6.70506,-5.11967,57.3862,-27.2114,-6.05101,-28.9559,-57.8468,8.61332,0.273329,54.2343,-19.4396,-3.39687,-44.4466
8.13614,15.4144,-23.2088,23.7656,3.9309,1.53817,22.1572,-0.176365,5.09862,12.3762,0.67523,-2.36469,1.31124,0.717867,-5.58211,1.04816,5.33158,15.8809,3.57682,7.65675,-15.5571,2.09945,3.85432,-7.20115,3.97569e-16,1.15295e-14,40.3044,12.0901,-25.9893,69.8804,-6.74986,-19.6554,21.4737,7.12502,6.67251,-8.40112,3.97569e-16,1.15295e-14,7.33677,-20.7339,35.7114,21.5208,-12.4372,-3.00285,16.8328,7.12502,22.7112,45.5163,-51.8502,-6.64993,-5.14808,57.1183,-26.8141,-6.22104,-29.6037,-57.8356,8.88104,0.148688,54.2943,-19.4166,-3.47719,-44.2429
8.15938,15.4216,-23.2064,23.6749,3.69687,1.38264,22.1778,-0.200699,5.20011,12.3842,0.66147,-2.27871,1.30959,0.711466,-5.54429,1.20341,5.35374,15.782,3.47646,7.69484,-15.4807,2.04366,3.87884,-7.16312,-1.66979e-14,1.19271e-14,40.5083,12.9765,-25.3657,71.6836,-6.3532,-18.86,22.2339,7.12502,7.4403,-7.61526,-1.66979e-14,1.19271e-14,7.63468,-19.1572,35.9758,21.2087,-11.2852,-2.99712,17.8843,7.12502,22.7167,46.5671,-51.7258,-6.46728,-5.09779,56.7915,-26.5097,-6.16209,-29.0425,-57.6917,9.07422,0.160928,54.3869,-19.3979,-3.50417,-44.2848
8.18312,15.435,-23.205,23.7622,3.42304,1.24952,22.0286,-0.131744,5.27395,12.3998,0.75295,-2.19884,1.41324,0.759567,-5.51474,1.08542,5.39185,15.6916,3.57434,7.72912,-15.2767,2.0858,3.89178,-7.07576,-5.1684e-15,2.38542e-15,40.7207,13.8264,-24.4244,73.3461,-6.75548,-18.3399,22.8277,7.12502,7.94228,-7.00306,-5.1684e-15,2.38542e-15,8.13044,-17.594,36.2585,21.0379,-10.4042,-2.85042,18.5366,7.12502,22.8575,47.202,-51.7664,-6.25879,-5.11436,56.4177,-26.5017,-6.23091,-29.9716,-57.6715,9.22427,0.167065,54.4628,-19.407,-3.38626,-44.4108
8.207,15.4521,-23.2038,23.7473,3.19164,1.28223,21.9578,-0.0764887,5.25168,12.4201,0.813666,-2.1972,1.47811,0.790318,-5.51048,1.08732,5.37794,15.9387,3.66588,7.71723,-15.268,2.11964,3.88887,-7.1143,3.97569e-15,9.34288e-15,40.845,14.7689,-23.5132,74.9308,-7.56366,-18.5372,22.9702,7.12502,7.75188,-6.86773,3.97569e-15,9.34288e-15,8.64254,-16.4454,36.3809,21.0593,-9.52182,-2.36092,18.7722,7.12502,23.3272,47.3788,-51.6097,-6.10558,-5.29931,56.0186,-26.5471,-6.16876,-30.4271,-57.5544,9.26441,0.00552868,54.5352,-19.4688,-3.3099,-44.344
8.23654,15.4636,-23.2009,23.6184,3.09867,1.14922,22.0202,-0.112143,5.48938,12.4124,0.811777,-2.16177,1.44713,0.798631,-5.60956,1.12922,5.36541,16.2923,3.75718,7.72118,-15.436,2.16039,3.89523,-7.22865,2.78299e-14,-3.77691e-15,40.7568,15.7484,-22.8645,76.5254,-8.13056,-18.4601,23.4246,7.12502,7.82631,-6.41053,2.78299e-14,-3.77691e-15,9.07161,-15.677,36.3873,21.3247,-8.42881,-1.85045,19.2535,7.12502,23.8168,47.7972,-51.2869,-5.9852,-5.26587,55.6071,-26.4561,-5.95764,-29.8726,-57.4116,9.2675,0.0436068,54.629,-19.4365,-3.2617,-44.0845
8.26997,15.4693,-23.1976,23.5151,2.98656,0.936432,22.1185,-0.178904,5.74794,12.3764,0.776798,-2.08178,1.36184,0.786534,-5.66648,0.992835,5.42175,16.2849,4.0116,7.7946,-15.3551,2.26566,3.92671,-7.19157,-1.43125e-14,3.97569e-15,40.6927,16.7443,-22.4521,78.0706,-8.28637,-17.8195,24.0194,7.12502,8.44449,-5.79181,-1.43125e-14,3.97569e-15,9.48406,-15.0364,36.4321,21.633,-7.43185,-1.37604,19.6885,7.12502,24.2717,48.1721,-51.0233,-5.91514,-5.12577,55.2011,-26.3321,-5.90236,-30.2621,-57.3064,9.25994,0.178052,54.732,-19.4075,-3.17317,-43.8593
8.30117,15.4764,-23.1947,23.2906,2.73388,0.957733,22.3827,-0.237548,5.5663,12.2596,0.6828,-2.07996,1.08165,0.716616,-5.54788,1.35927,5.44683,16.4034,4.15212,7.8862,-15.3102,2.26306,3.98722,-7.20256,1.90833e-14,-2.127e-14,40.6588,18.213,-22.3387,79.5685,-8.31071,-17.4906,23.9635,7.12502,8.76191,-5.83459,1.90833e-14,-2.127e-14,9.74582,-14.8315,36.3375,21.8164,-6.4473,-1.14277,19.8093,7.12502,24.4954,48.2628,-50.669,-5.83427,-5.26371,54.7961,-26.2732,-5.71644,-30.1802,-57.0084,9.2005,0.0515238,54.8342,-19.5533,-3.12765,-43.8282
8.33553,15.4874,-23.1944,23.2281,2.47469,1.06905,22.3714,-0.279843,5.26213,12.2469,0.572288,-2.07116,1.0465,0.643556,-5.34058,1.45596,5.51293,16.705,4.24553,8.01129,-15.6011,2.31869,4.05411,-7.34375,-7.95139e-16,-8.94531e-15,40.5542,19.7123,-22.4192,81.021,-7.99032,-17.3991,23.5893,7.12502,8.85022,-6.20508,-7.95139e-16,-8.94531e-15,10.1743,-14.7637,36.1119,22.0558,-5.40404,-1.37666,19.8725,7.12502,24.2711,48.3562,-50.4876,-5.69926,-5.57499,54.3785,-26.3538,-5.05787,-27.7544,-56.8837,9.14522,-0.187744,54.9388,-19.7037,-3.05767,-43.7984
8.37844,15.4989,-23.1922,23.3595,2.27366,0.982072,22.0938,-0.343247,5.14916,12.2311,0.459048,-1.93139,1.14267,0.576872,-5.0955,1.55188,5.62162,16.8073,4.22604,8.18649,-15.9179,2.34363,4.14306,-7.45812,-9.93923e-15,1.27222e-14,41.1401,20.572,-21.2061,82.4388,-8.39481,-17.3134,23.1398,7.12502,8.93289,-6.65112,-9.93923e-15,1.27222e-14,10.4881,-14.4218,36.135,22.4181,-4.85637,-1.47124,19.9748,7.12502,24.1805,48.4706,-50.4473,-5.49363,-5.70791,53.9266,-26.0959,-5.1289,-27.6226,-56.9803,9.16871,-0.239828,55.0724,-19.8374,-2.89624,-43.6199
8.42386,15.5062,-23.184,23.2848,2.11245,0.815063,22.0213,-0.365565,5.27449,12.264,0.44774,-1.86743,1.21617,0.577021,-5.09414,1.50887,5.66807,16.948,4.23079,8.24028,-15.8548,2.36495,4.17083,-7.45632,7.95139e-16,-1.90833e-14,41.0841,21.5742,-20.6533,83.7113,-7.7875,-17.3306,22.9888,7.12502,8.91637,-6.80279,7.95139e-16,-1.90833e-14,11.0784,-14.2796,36.0449,22.825,-4.70527,-1.34248,19.7529,7.12502,24.3039,48.2322,-50.1172,-5.32018,-5.69746,53.4471,-25.8258,-5.50683,-29.3731,-56.8855,9.19337,-0.219034,55.2618,-19.9393,-2.78881,-43.4547
8.46767,15.5119,-23.1751,23.1301,1.94027,0.792105,22.0733,-0.387056,5.19769,12.2638,0.409158,-1.79081,1.18143,0.548973,-4.95995,1.70708,5.66513,16.8981,4.1,8.24708,-15.7366,2.28794,4.18227,-7.41602,-3.18055e-15,-1.19271e-15,40.7485,22.7118,-20.6567,84.7614,-7.16548,-16.3664,23.1515,7.12502,9.84672,-6.59826,-3.18055e-15,-1.19271e-15,11.4673,-14.6536,35.8519,23.4515,-4.28412,-1.53978,19.3873,7.12502,24.1147,47.8918,-49.6982,-5.23287,-5.82316,52.9684,-25.4626,-6.10081,-31.7782,-56.7485,9.19636,-0.37394,55.4964,-20.0589,-2.77216,-43.2511
8.5113,15.519,-23.1708,23.083,1.68297,0.767101,22.0752,-0.409869,4.94908,12.2014,0.336879,-1.67631,1.09227,0.490339,-4.67912,1.91044,5.71131,16.7303,4.06376,8.33265,-15.7224,2.24992,4.23004,-7.38564,1.41137e-14,-3.97569e-16,40.408,23.8733,-20.8407,86.0885,-7.97875,-13.8779,23.5342,7.12502,12.2468,-6.08722,1.41137e-14,-3.97569e-16,11.6963,-15.489,35.5245,24.2826,-3.36339,-2.13889,19.4891,7.12502,23.5402,48.0686,-49.4588,-5.0193,-6.02483,52.4777,-25.1969,-6.57378,-32.6516,-56.7124,9.24207,-0.527158,55.7712,-20.3101,-2.64747,-43.1504
8.56064,15.5248,-23.1667,23.0168,1.39142,0.667423,22.1168,-0.462416,4.82073,12.0892,0.248526,-1.62709,0.932227,0.429332,-4.53547,2.103,5.77986,16.657,4.19754,8.45804,-15.6658,2.27195,4.29829,-7.35382,-1.05356e-14,1.19271e-14,40.0757,25.1456,-20.9173,87.4149,-9.04583,-12.0189,24.0402,7.12502,14.0388,-5.46566,-1.05356e-14,1.19271e-14,12.0607,-16.5056,34.9876,25.0816,-2.46561,-2.84885,20.0427,7.12502,22.859,48.708,-49.2171,-4.76303,-6.18016,51.9592,-25.1249,-6.7628,-32.8402,-56.6433,9.30978,-0.622502,56.0662,-20.5685,-2.61064,-42.7791
8.61573,15.5317,-23.1571,22.9193,1.16256,0.469706,22.0152,-0.544742,4.9195,12.0383,0.154865,-1.6055,0.916898,0.383635,-4.54832,2.50045,5.81929,16.8211,4.11093,8.56668,-15.7892,2.21108,4.36854,-7.42985,-9.93923e-15,9.93923e-17,39.9158,26.5825,-20.8247,88.2511,-9.30253,-11.8073,23.9957,7.12502,14.2427,-5.49594,-9.93923e-15,9.93923e-17,12.4977,-17.3386,34.4043,25.9495,-1.89726,-3.6955,20.2102,7.12502,22.0463,48.9736,-48.9032,-4.59266,-6.18562,51.4046,-24.7892,-7.17622,-34.3246,-56.5465,9.40224,-0.647056,56.3593,-20.8463,-2.2909,-43.174
8.66861,15.5418,-23.1486,22.7728,0.968779,0.236388,21.9255,-0.611448,5.05936,12.1892,0.0857395,-1.58514,1.12394,0.363606,-4.59056,2.22439,5.9693,16.8346,4.02793,8.72011,-15.7181,2.25704,4.43525,-7.39074,-3.18055e-15,4.96962e-16,39.7291,27.6079,-20.908,88.9514,-9.43379,-11.345,23.9198,7.12502,14.6882,-5.53992,-3.18055e-15,4.96962e-16,13.2633,-17.7408,33.8489,26.8565,-1.30107,-4.6419,19.9625,7.12502,21.1374,48.8303,-48.5239,-4.3814,-6.13888,50.8207,-24.3426,-7.5426,-35.7444,-56.403,9.48919,-0.612008,56.6414,-21.0643,-2.07606,-43.3461
8.71953,15.5508,-23.1439,22.6251,0.67748,0.138159,21.9979,-0.543385,5.02562,12.1246,0.167224,-1.60787,1.02568,0.397583,-4.6136,2.39216,5.93996,16.8853,4.01196,8.68726,-15.4017,2.20751,4.4281,-7.30376,-2.08724e-14,1.45113e-14,38.6957,28.7755,-21.5313,89.528,-9.43223,-10.7242,24.5452,7.12502,15.2861,-4.86996,-2.08724e-14,1.45113e-14,14.221,-18.8025,33.1932,27.6959,-0.292595,-5.44773,20.3362,7.12502,20.3632,49.2886,-48.1689,-4.15067,-6.27377,50.2286,-24.3359,-7.15309,-35.1656,-56.2463,9.53886,-0.719988,56.9006,-21.2263,-1.62832,-44.1026
8.77109,15.5591,-23.1348,22.525,0.334881,0.124318,21.9115,-0.477251,4.75483,12.1643,0.196456,-1.58184,1.1083,0.399348,-4.43535,2.26471,5.98971,16.9669,4.15853,8.74966,-15.429,2.28676,4.45518,-7.31702,1.19271e-14,-1.18277e-14,38.0617,30.0952,-21.7832,89.8665,-9.7681,-10.7227,24.5842,7.12502,15.2876,-4.83077,1.19271e-14,-1.18277e-14,15.1377,-19.6099,32.5283,28.5532,0.511916,-6.28854,21.052,7.12502,19.555,50.0886,-47.8423,-3.94346,-6.51192,49.6268,-24.3269,-6.74471,-34.2763,-56.0838,9.56559,-0.91769,57.1546,-21.4599,-1.2839,-44.3743
8.82275,15.5639,-23.1245,22.4717,0.196623,0.0146558,21.7884,-0.522893,4.64818,12.1906,0.113514,-1.5167,1.18523,0.351872,-4.28579,2.22321,6.0541,17.1061,4.18548,8.84469,-15.6368,2.33309,4.50111,-7.40075,-1.35174e-14,1.03368e-14,37.5431,31.5331,-21.9247,90.2292,-10.0501,-10.6323,24.2595,7.12502,15.3747,-5.14883,-1.35174e-14,1.03368e-14,15.8959,-20.2893,31.8102,29.5571,0.969267,-7.52451,21.2701,7.12502,18.3663,50.423,-47.4748,-3.79225,-6.60855,49.0106,-23.9449,-7.06251,-34.7308,-56.0307,9.58588,-0.991855,57.3963,-21.6977,-1.21669,-44.1056
8.87385,15.5661,-23.1184,22.398,0.158414,-0.207674,21.7125,-0.625644,4.73182,12.2133,-0.00663134,-1.45822,1.23567,0.295114,-4.24549,2.26674,6.12561,16.9824,4.04714,8.92592,-15.4689,2.28634,4.54258,-7.32315,6.4605e-15,2.48481e-15,36.8928,32.8506,-22.2431,90.5169,-10.046,-10.3989,24.3897,7.12502,15.5994,-5.00124,6.4605e-15,2.48481e-15,16.7417,-21.1021,30.9783,30.5308,1.61524,-8.94397,21.363,7.12502,17.0004,50.6391,-47.0639,-3.60502,-6.56596,48.3708,-23.4099,-7.64355,-35.5604,-56.0106,9.61838,-0.931542,57.5979,-21.8649,-1.08007,-44.6263
8.92518,15.5776,-23.1111,22.2558,-0.0512255,-0.337094,21.6666,-0.638337,4.65258,12.2398,-0.0413134,-1.456,1.28227,0.274361,-4.19051,2.32527,6.15082,16.8536,3.94849,8.94777,-15.2524,2.23599,4.55531,-7.233,1.93815e-14,-1.5207e-14,36.057,34.0607,-22.8267,90.6576,-10.3919,-9.68893,24.8859,7.12502,16.2832,-4.45042,1.93815e-14,-1.5207e-14,17.6613,-21.8497,30.2164,31.5434,2.26848,-9.76606,21.9145,7.12502,16.2089,51.2569,-46.6194,-3.29565,-6.66106,47.693,-22.947,-7.85105,-35.8898,-55.809,9.66058,-0.99663,57.7474,-22.0232,-0.961455,-45.1545
8.97943,15.5971,-23.1005,22.1067,-0.309003,-0.405305,21.6973,-0.611814,4.56103,12.1548,-0.0239956,-1.49178,1.17312,0.273875,-4.18076,2.51469,6.11998,16.8406,3.93202,8.92519,-15.128,2.18972,4.55147,-7.19885,2.43511e-15,6.48535e-15,34.7258,35.3364,-23.8251,90.7099,-10.4972,-8.93883,25.1982,7.12502,17.0053,-4.07749,2.43511e-15,6.48535e-15,18.4769,-22.4415,29.7142,32.621,2.4561,-10.5483,22.5343,7.12502,15.4556,51.9364,-46.1667,-3.00605,-6.8342,46.9785,-22.5691,-7.7402,-36.0093,-55.5606,9.74067,-1.18538,57.8668,-22.1234,-0.812012,-45.3626
9.03374,15.6153,-23.0879,21.9977,-0.455998,-0.610088,21.6752,-0.66361,4.52401,12.2962,-0.100102,-1.40471,1.33151,0.23658,-4.0501,1.66884,6.34953,16.5023,4.28104,9.12819,-14.9129,2.44029,4.61864,-7.02772,-1.26477e-14,-7.31776e-15,34.1456,36.6069,-23.9915,90.7168,-11.3047,-9.59947,24.3963,7.12502,16.3693,-4.93288,-1.26477e-14,-7.31776e-15,19.4308,-22.3481,29.4444,33.4576,2.61349,-12.0812,22.7383,7.12502,13.9787,52.2483,-45.71,-2.76608,-6.82414,46.2582,-22.2906,-7.81319,-36.3379,-55.3851,9.85376,-1.22022,57.9861,-22.2317,-0.205685,-46.5954
9.08585,15.6268,-23.0777,21.9271,-0.601281,-0.754215,21.5396,-0.639942,4.47713,12.1353,-0.0821989,-1.34855,1.21987,0.233679,-3.9657,2.11513,6.26383,16.4819,4.44291,9.08033,-14.822,2.40003,4.61077,-7.01333,2.60905e-15,8.44214e-15,32.8841,38.2662,-24.6507,90.5266,-11.2227,-9.61831,24.0799,7.12502,16.3512,-5.25079,2.60905e-15,8.44214e-15,20.3302,-23.0854,29.016,34.2667,3.12957,-13.5645,22.7815,7.12502,12.549,52.3846,-45.3026,-2.61728,-6.85788,45.5564,-22.1217,-7.84779,-36.4748,-55.2657,9.89239,-1.27086,58.1032,-22.3753,0.151295,-47.3284
9.1336,15.6368,-23.067,21.8292,-0.827527,-0.759243,21.3559,-0.636847,4.15945,12.2918,-0.144011,-1.33427,1.47204,0.194215,-3.75582,1.63651,6.40632,16.2553,4.59948,9.2108,-14.7103,2.53085,4.65584,-6.91336,-3.72721e-16,3.72721e-15,32.119,39.3225,-25.1411,90.121,-10.8018,-9.14685,23.8807,7.12502,16.8051,-5.41206,-3.72721e-16,3.72721e-15,21.3994,-23.0933,28.4608,35.144,3.58452,-14.3517,23.0715,7.12502,11.79,52.7197,-44.9008,-2.47134,-7.04891,44.878,-22.0093,-7.47971,-35.8444,-55.0789,9.90426,-1.47368,58.193,-22.5042,0.0602874,-46.924
9.17744,15.6527,-23.0525,21.5931,-1.02487,-0.93622,21.3415,-0.606981,4.04984,12.3345,-0.128062,-1.33962,1.52634,0.197449,-3.7022,1.80483,6.38942,16.2006,4.47087,9.19651,-14.6334,2.45682,4.6547,-6.88771,3.8266e-15,1.3418e-15,31.0674,40.6368,-25.6966,89.6523,-10.8653,-9.05562,23.4974,7.12502,16.8929,-5.78789,3.8266e-15,1.3418e-15,22.367,-23.4439,27.8898,36.2092,4.24667,-15.1916,23.362,7.12502,10.98,53.0549,-44.3393,-2.10181,-7.06754,44.1908,-21.8852,-7.18221,-34.8525,-54.6692,9.98342,-1.46998,58.2162,-22.5499,0.00999897,-46.4583
9.21986,15.6697,-23.0397,21.241,-1.11079,-1.1967,21.4891,-0.589336,3.99169,12.3546,-0.110171,-1.23949,1.47589,0.1975,-3.56577,2.07308,6.3565,16.1134,4.33835,9.18091,-14.6909,2.36937,4.65455,-6.90405,3.8763e-15,1.78906e-15,29.9985,42.0554,-26.114,89.1703,-11.2849,-9.28346,23.1805,7.12502,16.6736,-6.12343,3.8763e-15,1.78906e-15,23.2807,-24.0186,27.3171,37.3717,5.18844,-16.7529,23.4573,7.12502,9.47377,53.2244,-43.6072,-1.64142,-6.97387,43.4597,-21.6191,-7.31919,-34.5235,-54.1555,10.0329,-1.31767,58.1713,-22.5832,0.0668839,-46.3467
9.26163,15.6879,-23.0247,21.0634,-1.26932,-1.24797,21.3968,-0.558013,3.65358,12.4,-0.13149,-1.14319,1.56377,0.166906,-3.26534,2.13433,6.40274,15.9263,4.2675,9.25336,-14.8627,2.34894,4.68835,-6.92759,1.05356e-14,-6.65929e-15,29.0127,43.3492,-26.4815,88.6911,-11.4856,-9.4918,23.0028,7.12502,16.473,-6.31782,1.05356e-14,-6.65929e-15,24.11,-24.1772,26.927,38.5729,5.8065,-18.2473,23.7406,7.12502,8.03167,53.5679,-43.0086,-1.35125,-7.09301,42.674,-21.1863,-7.62242,-35.0978,-53.8181,10.091,-1.45946,58.1141,-22.6282,0.211241,-46.374
9.3043,15.7083,-23.0096,21.0258,-1.4463,-1.26836,21.2574,-0.52271,3.4473,12.3434,-0.127108,-1.1735,1.56702,0.157727,-3.18082,2.13317,6.37445,15.8782,4.35521,9.22501,-14.9314,2.37092,4.67243,-6.94284,-9.34288e-15,4.96962e-15,27.5068,44.552,-27.4352,88.1535,-11.2442,-9.43172,23.0981,7.12502,16.5308,-6.21772,-9.34288e-15,4.96962e-15,25.119,-24.4828,26.309,39.7622,6.43954,-18.9911,24.301,7.12502,7.31371,54.1546,-42.5379,-1.27955,-7.20193,41.8704,-20.7595,-7.78243,-36.1397,-53.6186,10.1178,-1.65127,58.0707,-22.7355,0.381183,-46.5976
9.34656,15.7314,-22.9992,21.0247,-1.40071,-1.37654,21.1327,-0.52707,3.54113,12.2385,-0.120329,-1.22275,1.51447,0.165255,-3.28768,2.0042,6.29795,15.8494,4.58635,9.11038,-14.7043,2.42985,4.61192,-6.8651,-5.06901e-15,-9.93923e-17,25.7787,45.7288,-28.5487,87.4605,-11.1652,-9.60784,22.9448,7.12502,16.3613,-6.38505,-5.06901e-15,-9.93923e-17,26.5848,-25.2432,25.178,40.92,7.61063,-19.1848,24.5605,7.12502,7.12676,54.4205,-42.1138,-1.29473,-7.16186,41.2582,-20.5529,-7.78473,-36.4136,-53.5957,9.98201,-1.66831,58.1383,-22.8884,0.464516,-47.0254
9.38422,15.7539,-22.9887,21.0485,-1.40672,-1.34273,20.818,-0.526422,3.34413,12.2265,-0.162081,-1.2589,1.6508,0.138027,-3.20505,1.97114,6.32176,15.5617,4.55954,9.11501,-14.3589,2.39921,4.612,-6.70574,-7.95139e-16,3.67752e-15,24.648,47.027,-28.9918,86.6435,-11.5189,-10.3438,22.6986,7.12502,15.6526,-6.68823,-7.95139e-16,3.67752e-15,27.8411,-25.5115,24.3893,42.0747,8.42649,-19.2188,24.5559,7.12502,7.09393,54.417,-41.7462,-1.2412,-7.32189,40.6866,-20.4697,-7.67908,-35.7288,-53.5903,9.83974,-1.84403,58.1955,-22.9112,0.605006,-47.2391
9.40849,15.7177,-22.9748,20.8634,-1.49196,-1.47884,20.7121,-0.53236,3.10761,12.3121,-0.212789,-1.22678,1.79098,0.101994,-3.02654,2.05246,6.38161,15.119,4.30551,9.17333,-14.1662,2.29086,4.63939,-6.57389,9.93923e-15,-8.05078e-15,23.6849,48.252,-29.3176,85.7968,-11.4862,-10.8765,22.6249,7.12502,15.1394,-6.80139,9.93923e-15,-8.05078e-15,28.7209,-25.3635,24.0104,43.3367,8.75554,-19.3964,24.994,7.12502,6.92248,54.8608,-41.3565,-0.943799,-7.39813,40.2994,-20.6955,-7.45417,-34.2052,-53.4649,9.93699,-1.7411,58.3855,-23.004,0.659317,-47.3896
9.43333,15.7287,-22.9595,20.6456,-1.52947,-1.78651,20.7651,-0.520936,3.03204,12.3496,-0.209562,-1.13426,1.80525,0.0956093,-2.8855,1.8736,6.43741,14.8856,4.39868,9.23066,-14.1499,2.34459,4.65783,-6.51999,-4.37326e-15,1.07344e-14,22.3772,49.2317,-30.0058,84.8698,-11.1401,-10.8061,22.7828,7.12502,15.2073,-6.63831,-4.37326e-15,1.07344e-14,29.7667,-25.3889,23.478,44.6098,9.27908,-19.5542,25.2039,7.12502,6.77021,55.0757,-40.8167,-0.49263,-7.21527,39.814,-20.9919,-7.1977,-32.3361,-53.1071,10.0634,-1.5162,58.3524,-23.1307,0.688913,-47.6787
9.45692,15.749,-22.9461,20.5582,-1.59359,-1.87838,20.6403,-0.47482,2.83017,12.198,-0.185868,-1.14097,1.69871,0.0925657,-2.78194,2.10033,6.38878,14.9485,4.62858,9.21597,-14.2693,2.38005,4.65662,-6.57579,-3.77691e-15,5.96354e-15,20.7506,50.4111,-30.9612,83.8203,-11.102,-10.6105,23.2773,7.12502,15.3956,-6.12947,-3.77691e-15,5.96354e-15,30.8913,-25.8748,22.5977,45.9739,10.2293,-19.3866,25.2283,7.12502,6.932,55.0948,-40.4613,-0.231718,-7.22569,39.3485,-21.0334,-6.83996,-31.0161,-52.8601,10.0679,-1.52523,58.2617,-23.1371,0.803269,-47.736
9.47726,15.772,-22.9344,20.517,-1.55067,-2.01166,20.4438,-0.432729,2.78337,12.1244,-0.144565,-1.2182,1.71772,0.112976,-2.84481,1.78423,6.30693,15.236,5.14209,9.11144,-14.3436,2.58368,4.59555,-6.63692,-1.39149e-15,1.09332e-14,19.294,51.4176,-31.8157,82.6193,-11.044,-10.5032,23.6507,7.12502,15.4991,-5.7481,-1.39149e-15,1.09332e-14,32.3762,-26.4074,21.1812,47.5113,11.3895,-19.4863,25.7857,7.12502,6.8357,55.6554,-40.0293,-0.0649979,-7.11885,38.6878,-20.5358,-7.08191,-32.0317,-52.656,9.97569,-1.43753,58.0471,-23.0333,0.902869,-47.656
9.4984,15.7992,-22.9187,20.4579,-1.4956,-2.13107,20.2389,-0.41139,2.77133,12.0927,-0.124675,-1.32087,1.78671,0.127022,-2.95045,1.53479,6.25378,15.3362,5.3981,9.01728,-14.1667,2.6827,4.54364,-6.59129,-4.37326e-15,-1.21259e-14,18.0297,52.3379,-32.4644,81.4295,-10.7338,-10.7977,24.0215,7.12502,15.2153,-5.39896,-4.37326e-15,-1.21259e-14,33.8182,-26.8315,19.7986,49.0327,12.2355,-20.1019,25.988,7.12502,6.24144,55.876,-39.5208,-0.0472294,-6.95743,38.002,-20.3231,-7.29522,-32.7791,-52.4329,9.90152,-1.39738,57.8488,-22.9595,1.0002,-47.6379
9.51798,15.8252,-22.9041,20.2173,-1.44074,-2.32232,20.233,-0.437147,2.7799,12.0954,-0.156866,-1.36946,1.79059,0.113285,-3.00136,1.58047,6.25189,15.1745,5.29477,9.00026,-13.9589,2.62563,4.53691,-6.50156,1.59028e-15,1.55052e-14,17.0437,53.2407,-32.8884,80.1572,-10.6036,-11.5352,24.5158,7.12502,14.5049,-4.95715,1.59028e-15,1.55052e-14,34.9945,-27.0469,18.7755,50.4625,12.8447,-20.3818,25.5399,7.12502,5.97124,55.4358,-38.8382,0.0468893,-6.71738,37.3177,-20.1639,-7.42163,-33.3712,-51.9896,9.84954,-1.25309,57.654,-22.9539,1.07431,-47.6598
9.53344,15.8435,-22.8894,19.984,-1.32018,-2.58908,20.2023,-0.467144,2.8583,12.0728,-0.182954,-1.36241,1.77975,0.103574,-3.03347,1.46967,6.20924,15.1276,5.5325,8.94785,-13.9815,2.70452,4.50506,-6.49882,-7.95139e-16,-6.16232e-15,16.0074,54.1844,-33.3327,78.702,-10.6995,-11.7105,24.8933,7.12502,14.336,-4.59171,-7.95139e-16,-6.16232e-15,36.2519,-27.2806,17.7789,51.8675,13.8306,-19.9071,25.533,7.12502,6.42951,55.4154,-38.1446,0.26003,-6.44545,36.6495,-20.0548,-7.33209,-32.7051,-51.5722,9.80018,-0.973741,57.4625,-23.1062,1.06146,-47.76
9.54608,15.8633,-22.8737,19.8381,-1.2268,-2.6019,20.0448,-0.433161,2.70499,11.9916,-0.165813,-1.38504,1.76849,0.103962,-2.97298,1.38852,6.10263,15.1849,5.91636,8.83142,-14.1157,2.82108,4.44226,-6.55338,-1.19271e-15,1.23246e-14,14.8616,55.1626,-33.6857,77.2928,-10.8785,-11.2228,25.3595,7.12502,14.8059,-4.09162,-1.19271e-15,1.23246e-14,37.6496,-27.6875,16.6336,53.3337,15.0512,-19.4138,26.1305,7.12502,6.90567,55.9978,-37.5444,0.311059,-6.42532,36.0368,-20.3746,-7.18408,-31.5563,-51.2525,9.5957,-0.954168,57.239,-23.2398,1.19855,-47.8556
9.55433,15.8817,-22.8638,19.6995,-1.05885,-2.7557,19.8923,-0.413406,2.73002,11.9296,-0.138505,-1.39261,1.7786,0.118858,-2.99947,1.44824,5.99221,15.1841,6.05524,8.70188,-14.1281,2.8324,4.3795,-6.56641,-5.56597e-15,7.95139e-15,13.9426,56.0258,-33.8561,75.8644,-11.0802,-10.9504,26.1,7.12502,15.0683,-3.33158,-5.56597e-15,7.95139e-15,39.0373,-28.0355,15.3914,54.8546,15.7141,-19.2927,26.188,7.12502,7.0226,56.0515,-36.9764,0.398202,-6.21303,35.4831,-19.9455,-6.31417,-28.4431,-50.9816,9.40091,-0.753008,57.001,-23.2202,1.31812,-47.9179
9.55807,15.8988,-22.8529,19.6806,-0.899398,-3.01766,19.6122,-0.388835,2.87493,11.8902,-0.0905866,-1.42262,1.88123,0.152831,-3.12097,1.36641,5.93843,15.1016,6.15585,8.6139,-13.9264,2.85023,4.33461,-6.4899,4.77083e-15,-2.78299e-15,13.0481,56.7405,-34.127,74.374,-11.1033,-10.7865,26.7347,7.12502,15.2261,-2.68499,4.77083e-15,-2.78299e-15,40.2784,-28.1206,14.3565,56.33,15.5155,-18.8926,25.3423,7.12502,7.4088,55.1926,-36.5829,0.543263,-5.90441,34.9828,-19.7562,-6.25548,-27.5702,-50.8062,9.33562,-0.444898,56.7555,-23.1956,1.32719,-48.055
9.5594,15.9229,-22.8349,19.6424,-0.861238,-3.07719,19.3542,-0.323415,2.79637,11.8141,-0.0245508,-1.52223,1.93199,0.18536,-3.19267,1.24404,5.91071,14.9705,6.37679,8.55736,-13.6204,2.90885,4.30461,-6.36831,-1.59028e-15,5.56597e-15,11.8642,57.3566,-34.7216,72.9285,-10.9459,-9.93576,27.2257,7.12502,16.0455,-2.12992,-1.59028e-15,5.56597e-15,41.4026,-28.1217,13.5253,57.7126,14.8968,-18.1209,24.5183,7.12502,8.1537,54.341,-36.2226,0.610919,-5.78463,34.5073,-19.3638,-6.42086,-28.0021,-50.5115,9.24627,-0.374819,56.4805,-23.1856,1.41647,-48.1964
9.55713,15.947,-22.8179,19.4466,-0.776358,-3.07853,19.2564,-0.27111,2.7097,11.7437,0.0280501,-1.62582,1.90756,0.210015,-3.2623,1.26756,5.81495,14.7876,6.56005,8.4265,-13.3404,2.92021,4.24147,-6.25619,5.1684e-15,1.19271e-14,10.595,57.8789,-35.352,71.5085,-10.7309,-8.41703,27.4788,7.12502,17.5075,-1.75285,5.1684e-15,1.19271e-14,42.6178,-28.1709,12.5779,59.1291,14.5449,-17.4924,24.3396,7.12502,8.76019,54.1378,-35.6705,0.678168,-5.66298,34.0378,-18.9134,-7.21028,-30.9097,-50.0675,9.06613,-0.332165,56.1591,-23.0685,1.51181,-48.1903
9.55068,15.9684,-22.8043,19.2551,-0.49783,-3.12797,19.181,-0.271095,2.75957,11.6759,0.0361718,-1.6927,1.87305,0.218662,-3.36279,1.31843,5.66891,14.7254,6.61966,8.23126,-13.1881,2.89213,4.14822,-6.20966,1.59028e-15,-2.22639e-14,9.74937,58.4732,-35.5219,70.0026,-10.5953,-7.40601,27.6333,7.12502,18.4803,-1.50884,1.59028e-15,-2.22639e-14,43.9147,-28.2964,11.5111,60.6279,14.4974,-17.7313,24.325,7.12502,8.52966,54.1327,-35.0134,0.740988,-5.46999,33.5815,-18.7229,-7.82189,-32.6441,-49.7103,8.79749,-0.184032,55.7802,-22.9528,1.50571,-48.165
9.54428,15.9916,-22.7942,19.1155,-0.128659,-3.23185,19.0769,-0.359218,2.8249,11.6141,-0.0666946,-1.73543,1.85042,0.172191,-3.42722,1.31532,5.5948,14.888,6.68256,8.14167,-13.2802,2.90846,4.10586,-6.27054,-7.95139e-16,6.36111e-15,9.67812,59.1686,-35.1507,68.3822,-10.3824,-7.15416,28.1348,7.12502,18.7225,-0.984202,-7.95139e-16,6.36111e-15,44.9053,-28.3789,10.5411,62.1311,14.4614,-18.0102,24.0069,7.12502,8.26048,53.8254,-34.397,0.823957,-5.23175,33.1492,-18.2647,-8.7769,-35.2494,-49.4381,8.50804,0.0401257,55.3573,-22.8481,1.43086,-48.2026
9.53822,16.0159,-22.7832,18.9424,0.131149,-3.32392,18.9445,-0.431481,2.81481,11.5933,-0.16189,-1.74421,1.88651,0.125569,-3.414,1.25215,5.58994,14.8658,6.87001,8.14751,-13.375,2.9775,4.10389,-6.29453,1.98785e-15,-8.74653e-15,9.82592,59.7327,-34.5265,66.8709,-9.92907,-6.20077,28.5909,7.12502,19.6393,-0.437034,1.98785e-15,-8.74653e-15,45.6264,-28.3948,9.84094,63.5869,14.4659,-16.6635,22.8059,7.12502,9.56002,52.569,-33.8491,0.900587,-5.01148,32.7532,-17.7853,-8.9964,-35.3707,-49.0739,8.28283,0.223623,54.8921,-22.7299,1.40218,-48.4027
9.52767,16.0425,-22.7658,18.7979,0.268967,-3.2942,18.7106,-0.358233,2.69231,11.6576,-0.0889657,-1.71339,2.07995,0.159223,-3.3228,0.776876,5.59186,14.4337,7.2897,8.11026,-13.1454,3.14818,4.06348,-6.13605,-1.15295e-14,-5.56597e-15,9.68329,59.9129,-33.8698,65.4618,-9.40727,-4.51377,28.8952,7.12502,21.2605,0.0412226,-1.15295e-14,-5.56597e-15,46.7181,-28.2912,9.17439,64.9148,14.6791,-18.8911,22.8639,7.12502,7.41027,52.7141,-33.4118,0.874309,-4.9124,32.4174,-17.2436,-8.87598,-35.4155,-48.6335,8.11968,0.243868,54.3884,-22.6422,1.42161,-48.5873
9.51129,16.0745,-22.7497,18.5465,0.379579,-3.28054,18.6367,-0.254271,2.56909,11.7403,0.0267021,-1.75812,2.21624,0.216128,-3.31916,0.25714,5.56075,14.3343,7.71663,8.02726,-12.9962,3.33976,4.00602,-6.06012,-9.93923e-15,7.55382e-15,9.30697,59.9193,-33.6711,63.9342,-8.83595,-3.30276,29.1224,7.12502,22.4234,0.404,-9.93923e-15,7.55382e-15,47.8746,-28.1725,8.22821,66.3692,14.9139,-17.5441,20.1858,7.12502,8.71034,49.9861,-32.9356,0.970995,-4.79647,32.1833,-16.9959,-8.65154,-34.8209,-48.0109,7.94619,0.306561,53.8361,-22.5492,1.41704,-48.5132
9.49349,16.1074,-22.7381,18.1992,0.588429,-3.68505,18.6587,-0.296015,2.80292,11.6917,0.00772527,-1.79331,2.15373,0.218892,-3.48644,0.48213,5.51094,14.7464,7.76293,8.00832,-13.3116,3.34171,4.0071,-6.23749,-1.27222e-14,5.1684e-15,9.07572,60.2613,-33.7196,62.392,-8.25505,-2.02485,29.1819,7.12502,23.6496,0.616573,-1.27222e-14,5.1684e-15,48.4383,-28.3353,7.29801,67.9834,14.7977,-17.5421,19.6067,7.12502,8.71223,49.4069,-32.4322,1.28157,-4.21091,32.0613,-17.1535,-8.34294,-33.0032,-47.3236,7.87994,0.854311,53.2458,-22.401,1.30084,-48.5295
9.47771,16.1399,-22.7248,18.0177,0.829603,-4.08791,18.4425,-0.375942,3.07349,11.5731,-0.0599904,-1.73855,2.13071,0.195183,-3.5693,0.856972,5.48256,14.7679,7.81668,8.03871,-13.5444,3.30819,4.02894,-6.32586,-7.15625e-15,7.15625e-15,9.28627,60.71,-33.1368,60.9284,-7.61896,-4.28424,29.8169,7.12502,21.481,0.987919,-7.15625e-15,7.15625e-15,48.8054,-28.5879,6.81046,69.4205,14.683,-17.8617,20.1679,7.12502,8.40381,49.9807,-32.1181,1.48071,-3.63136,31.995,-17.6741,-7.54284,-28.4474,-46.8429,7.83397,1.37495,52.6145,-22.1226,1.18967,-48.5061
9.4638,16.175,-22.7091,17.8808,0.987981,-3.87832,18.3121,-0.398286,2.82153,11.5227,-0.125202,-1.72403,2.1328,0.14883,-3.39943,0.666027,5.54828,14.2016,8.21031,8.12199,-13.2919,3.43539,4.05256,-6.14007,3.18055e-15,-4.37326e-15,9.98039,60.9661,-31.841,59.3699,-6.90094,-4.41897,30.3982,7.12502,21.3516,1.55457,3.18055e-15,-4.37326e-15,49.1194,-28.5778,6.76407,70.7594,14.8708,-18.052,20.1412,7.12502,8.2202,49.9613,-31.818,1.35858,-3.7215,31.9336,-17.3971,-7.29459,-27.7778,-46.3579,7.53693,1.2053,51.9527,-21.9652,1.28366,-48.4191
9.44979,16.2059,-22.6962,17.6983,1.22324,-3.58467,18.327,-0.418858,2.67849,11.4025,-0.169131,-1.82682,1.98888,0.120311,-3.42024,0.745795,5.53619,13.832,8.38986,8.10368,-12.9232,3.44337,4.04457,-5.96401,-1.11319e-14,-1.82882e-14,9.90408,61.0976,-31.4827,57.6891,-6.17134,-2.44438,30.2228,7.12502,23.2471,1.60605,-1.11319e-14,-1.82882e-14,49.5911,-28.7238,6.43618,72.1895,14.8272,-18.1061,19.0452,7.12502,8.16798,48.8674,-31.4168,1.05393,-3.83965,31.8706,-17.8488,-6.89691,-25.2851,-45.8514,7.09589,0.990531,51.3024,-21.8602,1.43509,-48.6965
9.43095,16.2312,-22.6868,17.5836,1.47531,-3.63753,18.1613,-0.432719,2.8272,11.3187,-0.168004,-1.90783,1.98377,0.130953,-3.59025,0.934936,5.48807,13.9542,8.39524,8.06491,-12.9853,3.4151,4.03372,-6.01215,4.77083e-15,5.96354e-15,9.47645,60.7555,-31.6792,56.0877,-5.37046,-0.342301,29.9606,7.12502,25.2625,1.61314,4.77083e-15,5.96354e-15,50.1916,-28.8989,5.82186,73.6414,14.5376,-17.9598,18.2794,7.12502,8.30917,48.096,-31.1237,0.891836,-3.58257,31.7941,-16.5609,-7.50066,-30.9532,-45.4554,6.83773,1.17194,50.676,-21.603,1.45735,-48.9694
9.40906,16.2589,-22.674,17.4928,1.54365,-3.5601,17.8665,-0.349145,2.75487,11.3255,-0.0758943,-2.01193,2.14954,0.180592,-3.67324,1.05775,5.40551,14.3734,8.43558,8.00127,-13.4012,3.42954,4.0081,-6.22292,7.95139e-15,6.36111e-15,9.02362,60.0569,-31.7769,54.6645,-4.58864,0.651283,30.017,7.12502,26.214,1.80734,7.95139e-15,6.36111e-15,50.6768,-28.9722,5.34623,75.1792,14.5554,-18.7419,19.0964,7.12502,7.55429,48.9415,-30.9491,0.753166,-3.53008,31.6997,-16.0915,-7.07231,-30.8033,-45.0012,6.66844,1.17844,50.064,-21.4539,1.51364,-48.9293
9.39093,16.293,-22.6545,17.3879,1.5881,-3.39865,17.6317,-0.269104,2.67654,11.2518,0.0126751,-2.12513,2.19695,0.225089,-3.76141,1.25517,5.30383,14.587,8.4379,7.90961,-13.6709,3.40165,3.96939,-6.35695,-2.78299e-14,-1.51076e-14,8.41136,59.4556,-31.9353,53.3282,-4.02858,1.21627,29.9819,7.12502,26.7548,1.85376,-2.78299e-14,-1.51076e-14,50.9845,-29.1738,4.99505,76.7889,14.8657,-19.2262,19.3536,7.12502,7.08684,49.215,-30.729,0.568364,-3.58046,31.6025,-15.9568,-6.36179,-28.4539,-44.4739,6.4953,1.06346,49.4406,-21.3269,1.54412,-48.8417
9.37282,16.328,-22.6354,17.28,1.69427,-3.53542,17.4365,-0.241242,2.91022,11.0958,0.0762516,-2.17892,2.13645,0.267355,-3.95965,1.50117,5.22381,14.6643,8.50624,7.843,-13.7423,3.37601,3.94557,-6.40422,0,1.35174e-14,7.88769,58.8952,-32.1714,51.9094,-3.43411,1.41609,30.0161,7.12502,26.946,1.91734,0,1.35174e-14,51.3368,-29.5035,4.57138,78.2305,15.0539,-18.7704,18.9254,7.12502,7.52674,48.7715,-30.4995,0.628452,-3.32148,31.496,-15.5164,-6.29604,-29.2583,-43.9467,6.51015,1.25108,48.7803,-21.0648,1.40071,-48.8342
9.35414,16.36,-22.624,17.097,1.93436,-3.63729,17.4066,-0.301567,3.22851,10.9968,0.041292,-2.27554,2.04651,0.266765,-4.23821,1.51035,5.1974,14.8172,8.82483,7.82944,-13.7143,3.47188,3.94393,-6.4222,-8.74653e-15,1.19271e-15,7.61344,58.1086,-32.3026,50.364,-2.28025,0.700619,30.1789,7.12502,26.2613,1.97628,-8.74653e-15,1.19271e-15,51.5836,-29.7498,4.26147,79.5213,15.1053,-18.9375,19.016,7.12502,7.36548,48.8678,-30.1439,0.599672,-3.05611,31.3634,-15.1814,-6.0998,-28.2977,-43.4426,6.27397,1.47158,48.1015,-20.8064,1.41209,-48.8754
9.33348,16.3937,-22.6186,16.9585,2.2062,-3.41502,17.4301,-0.372281,3.2359,10.9115,-0.0467287,-2.39477,1.93383,0.224653,-4.35617,1.29732,5.22587,14.9108,9.26057,7.87418,-13.7128,3.64726,3.96089,-6.42963,-3.97569e-15,3.97569e-16,7.40856,57.0641,-32.3047,48.8552,-0.990267,-0.0204412,30.2262,7.12502,25.5708,1.92268,-3.97569e-15,3.97569e-16,51.5642,-29.9553,4.22697,80.8334,15.3047,-19.6202,19.0877,7.12502,6.70644,48.9615,-29.7761,0.437306,-3.15217,31.2473,-14.8447,-6.00754,-27.5086,-43.0362,5.75948,1.37733,47.4172,-20.5524,1.58167,-48.9962
9.30543,16.4246,-22.6111,16.9741,2.27778,-3.21554,17.216,-0.33349,2.98158,10.8412,-0.0346099,-2.42275,1.96517,0.218746,-4.24119,1.1494,5.29724,14.9152,9.44692,7.98094,-13.8583,3.74862,4.0039,-6.46783,-1.59028e-15,9.54166e-15,7.6634,55.9157,-31.9764,47.3142,-0.309951,-0.272637,30.157,7.12502,25.3292,1.81894,-1.59028e-15,9.54166e-15,51.4228,-30.1198,4.22028,82.1415,15.5103,-20.1321,18.9728,7.12502,6.21227,48.8617,-29.6907,0.477731,-3.29108,31.1644,-14.4868,-6.06244,-27.8893,-42.6771,5.52666,1.25998,46.7201,-20.2642,1.66963,-49.0786
9.27667,16.4534,-22.5999,16.9418,2.38549,-3.24339,17.0569,-0.316808,2.92308,10.7346,-0.0235111,-2.38018,1.93083,0.217399,-4.16277,1.25718,5.32224,14.9054,9.39462,8.04006,-14.0182,3.7288,4.03209,-6.51794,1.03368e-14,2.70347e-14,7.99608,54.7008,-31.7455,45.6926,0.425989,-0.739755,29.9633,7.12502,24.8816,1.56261,1.03368e-14,2.70347e-14,51.0588,-30.4266,4.30928,83.4929,15.5578,-20.4188,18.5456,7.12502,5.93548,48.4425,-29.5883,0.51002,-3.11853,31.0988,-14.1993,-6.02393,-27.6715,-42.2311,5.40085,1.39766,45.9997,-19.9105,1.7607,-49.1216
9.25338,16.4866,-22.5877,16.7812,2.54024,-3.12324,17.0788,-0.364307,2.82462,10.6248,-0.0966096,-2.3575,1.79171,0.171163,-4.07127,1.31002,5.34191,14.7215,9.48381,8.08645,-14.0465,3.74629,4.04958,-6.49564,4.77083e-15,1.03368e-14,8.25334,53.4738,-31.4813,44.1846,1.25447,-1.70765,29.648,7.12502,23.9538,1.12227,4.77083e-15,1.03368e-14,50.5664,-30.9022,4.49359,85.0089,15.9169,-21.022,18.6923,7.12502,5.35308,48.6046,-29.311,0.502245,-3.09937,31.0527,-13.9401,-5.94494,-27.0485,-41.6498,5.13736,1.37194,45.2371,-19.5843,1.73683,-49.0162
9.23091,16.5189,-22.5748,16.5895,2.61313,-2.9367,17.0267,-0.417365,2.67613,10.6314,-0.185008,-2.37099,1.81602,0.121325,-3.98736,1.21764,5.44878,14.5258,9.62746,8.24009,-14.1023,3.82122,4.11272,-6.4696,-1.03368e-14,3.10104e-14,8.67525,51.9156,-31.1635,42.7441,1.78779,-2.23096,28.878,7.12502,23.4519,0.287228,-1.03368e-14,3.10104e-14,50.1652,-31.269,4.58026,86.3995,16.6614,-21.9373,19.3161,7.12502,4.46929,49.249,-29.0103,0.468862,-3.1731,31.0046,-13.6313,-5.90252,-27.6327,-41.0222,4.89014,1.25205,44.4606,-19.3167,1.52242,-48.6047
9.2032,16.5472,-22.5578,16.437,2.745,-2.93615,16.8765,-0.36381,2.88105,10.4961,-0.0916963,-2.45166,1.75827,0.177382,-4.20285,1.7656,5.29152,14.9061,9.49175,8.10351,-14.3602,3.69255,4.07206,-6.64215,2.38542e-15,2.94201e-14,7.89043,49.7156,-32.1039,41.3293,2.73098,-1.77379,27.9496,7.12502,23.8903,-0.584406,2.38542e-15,2.94201e-14,50.1433,-31.9448,4.42411,87.6537,17.3087,-22.3587,18.9749,7.12502,4.06241,48.916,-28.7039,0.395043,-2.99379,30.9176,-13.178,-5.9909,-29.514,-40.4663,4.72695,1.35702,43.7018,-19.039,1.48768,-48.345
9.17318,16.5736,-22.5431,16.3243,2.9324,-3.01087,16.7553,-0.351812,3.06545,10.3938,-0.0538028,-2.43888,1.71583,0.20222,-4.299,1.88384,5.19047,15.0382,9.52788,7.9941,-14.4575,3.67498,4.02478,-6.70645,-5.56597e-15,-3.97569e-15,7.66505,47.4694,-32.5476,39.9524,3.74111,-1.80247,27.5206,7.12502,23.8628,-1.01706,-5.56597e-15,-3.97569e-15,49.8881,-32.4566,4.2751,88.9986,17.8149,-22.0065,18.4221,7.12502,4.40248,48.3563,-28.4243,0.36014,-2.7118,30.7964,-12.7309,-6.0561,-30.4565,-39.9984,4.55322,1.57975,42.9899,-18.7758,1.55461,-48.4343
9.14461,16.5984,-22.5371,16.234,3.04094,-3.09886,16.6558,-0.296551,3.2629,10.4427,0.041977,-2.48142,1.83354,0.264641,-4.47056,1.19666,5.1985,15.4043,9.96238,7.96203,-14.5604,3.93424,3.99274,-6.78603,1.03368e-14,-6.36111e-15,7.7078,44.9414,-32.9408,38.4743,4.68229,-3.0036,27.0418,7.12502,22.7105,-1.64176,1.03368e-14,-6.36111e-15,49.9152,-32.6274,3.80132,90.2215,18.125,-21.0123,18.3203,7.12502,5.36247,48.2324,-28.2447,0.367828,-2.45292,30.6778,-12.668,-5.75281,-28.221,-39.5605,4.38349,1.81793,42.3224,-18.4694,1.49836,-48.5137
9.11807,16.6227,-22.528,16.1349,3.06667,-3.14426,16.542,-0.426337,3.21,10.3864,-0.135808,-2.39885,1.81152,0.168667,-4.32528,1.15828,5.38186,15.2208,10.1469,8.25272,-14.8452,4.04349,4.11729,-6.83113,4.77083e-15,7.95139e-15,8.38525,42.578,-32.9713,37.1723,5.85975,-4.14836,26.3114,7.12502,21.6115,-2.50262,4.77083e-15,7.95139e-15,48.6735,-33.0575,4.33682,91.312,18.1524,-20.2932,18.03,7.12502,6.05671,47.9234,-28.0787,0.429371,-2.28519,30.5889,-12.6607,-5.44057,-26.1449,-39.0468,4.3296,1.95331,41.6434,-18.2773,1.18537,-47.9905
9.09111,16.6482,-22.5121,15.9842,3.16098,-3.08761,16.4178,-0.509596,3.1561,10.3511,-0.252869,-2.33964,1.82497,0.105416,-4.21366,1.15536,5.50301,14.9272,10.1886,8.42522,-14.8392,4.07054,4.19092,-6.76865,-1.03368e-14,-4.77083e-15,8.75265,39.8259,-33.2509,36.0456,7.07039,-4.85699,25.5454,7.12502,20.9308,-3.3453,-1.03368e-14,-4.77083e-15,47.5874,-33.4609,4.91501,92.3886,18.2644,-20.717,17.6653,7.12502,5.64762,47.57,-27.7909,0.42924,-2.19473,30.5268,-13.2986,-5.13974,-22.2487,-38.4735,4.24926,1.9673,40.9519,-18.1791,0.910972,-47.5062
9.06108,16.6709,-22.5009,15.8716,3.27986,-2.81619,16.3165,-0.403007,3.04903,10.2299,-0.129783,-2.41772,1.75769,0.161493,-4.25277,1.47418,5.35981,15.1868,10.0781,8.25195,-14.776,3.96514,4.13073,-6.81155,-2.78299e-15,1.66979e-14,8.36778,36.9393,-34.0517,34.8757,7.80583,-5.77397,24.5588,7.12502,20.0496,-4.42676,-2.78299e-15,1.66979e-14,47.4078,-34.0134,4.81614,93.4327,18.5436,-21.3097,17.6935,7.12502,5.07527,47.6128,-27.5457,0.367131,-2.33953,30.4641,-12.6863,-5.2955,-24.5016,-37.9943,3.94544,1.80415,40.2714,-17.9029,1.07037,-47.7692
9.03012,16.6888,-22.4925,15.7847,3.25483,-2.71947,16.2048,-0.368196,2.92073,10.1798,-0.103367,-2.42973,1.76271,0.168272,-4.19549,1.54015,5.3953,15.396,9.96153,8.31369,-14.9516,3.94465,4.16649,-6.90229,-5.56597e-15,2.3059e-14,8.67285,34.1758,-34.5354,33.7346,8.21896,-7.20923,23.5717,7.12502,18.6696,-5.55241,-5.56597e-15,2.3059e-14,46.6078,-34.4849,4.99767,94.4427,18.448,-21.5072,18.0702,7.12502,4.88461,47.9939,-27.4352,0.523354,-2.35512,30.4023,-12.4013,-5.32479,-25.2434,-37.5106,3.77722,1.82653,39.631,-17.5482,1.21943,-47.8743
9.00104,16.7037,-22.4841,15.6725,3.24479,-3.00347,16.1315,-0.40841,3.14357,10.1587,-0.129553,-2.31787,1.7772,0.161303,-4.1993,1.42537,5.50221,15.3995,9.84123,8.4583,-15.1933,3.96077,4.22666,-6.96952,7.15625e-15,-1.74931e-14,9.24808,31.5913,-34.7744,32.843,8.62208,-8.96331,22.7245,7.12502,16.9818,-6.55318,7.15625e-15,-1.74931e-14,45.6282,-34.9834,5.20813,95.4224,18.1818,-18.0786,12.703,7.12502,8.19449,42.5241,-27.3109,0.923492,-1.96562,30.3592,-11.9523,-5.77295,-28.5538,-37.0288,3.83151,2.24624,39.0514,-17.2904,1.17606,-47.7012
8.97438,16.7159,-22.4815,15.5929,3.43717,-3.01782,16.1293,-0.492559,3.28651,10.0859,-0.219822,-2.2462,1.69171,0.11768,-4.1913,1.23148,5.53359,15.3108,9.9207,8.50045,-15.3306,4.02514,4.23244,-6.99198,2.78299e-15,-1.43125e-14,9.64543,29.0124,-35.0633,32.1278,8.89913,-10.8722,21.6352,7.12502,15.1436,-7.79074,2.78299e-15,-1.43125e-14,44.9762,-35.5472,5.18509,96.4733,18.3913,-17.3711,11.5455,7.12502,8.87725,41.3387,-27.0888,1.06034,-1.82764,30.3084,-12.0778,-6.12395,-29.0534,-36.7547,3.62797,2.40209,38.5311,-17.1026,1.34334,-48.114
8.9508,16.7301,-22.4795,15.5978,3.71294,-2.60999,16.0831,-0.588514,3.16761,10.0303,-0.358789,-2.33091,1.64122,0.044558,-4.19311,0.784389,5.57345,15.2886,10.1639,8.51094,-15.2131,4.17022,4.22197,-6.93634,6.36111e-15,1.23246e-14,10.0177,26.3075,-35.5659,31.3944,8.94681,-12.7699,20.309,7.12502,13.315,-9.24562,6.36111e-15,1.23246e-14,44.3405,-35.9759,5.24017,97.5204,18.7896,-17.3464,12.3589,7.12502,8.90107,42.1512,-26.873,0.67066,-2.09929,30.2524,-11.9245,-6.37169,-31.232,-36.6353,3.18636,2.09025,38.0443,-16.905,1.55003,-48.413
8.92857,16.7434,-22.4763,15.5477,4.01904,-2.42807,16.0473,-0.643719,3.414,9.84431,-0.39977,-2.4336,1.4571,0.031553,-4.43581,1.09241,5.44653,15.5275,10.0586,8.35818,-15.1502,4.06977,4.17088,-6.97459,-1.27222e-14,7.95139e-15,9.94591,23.7114,-36.3284,30.7065,8.96887,-14.3936,19.2779,7.12502,11.7495,-10.3725,-1.27222e-14,7.95139e-15,43.8046,-36.7523,5.20186,98.4457,19.0195,-17.1309,12.6956,7.12502,9.10901,42.4789,-26.653,0.308324,-2.12955,30.2451,-11.8289,-6.2677,-31.457,-36.4295,2.72305,2.0496,37.5497,-16.67,1.59824,-48.2033
8.90339,16.7523,-22.4723,15.3584,4.29072,-2.53014,16.1434,-0.718683,3.65974,9.77066,-0.461112,-2.29902,1.32261,0.00341756,-4.42356,1.35492,5.38675,15.73,9.79143,8.32968,-15.5955,3.96574,4.16275,-7.16532,6.75868e-15,-3.18055e-15,10.2968,21.1135,-36.7263,30.2508,8.9079,-15.8565,18.5333,7.12502,10.3386,-11.1926,6.75868e-15,-3.18055e-15,42.9493,-37.4023,5.35175,99.243,19.0316,-17.9591,13.348,7.12502,8.30984,43.1645,-26.3677,0.290493,-1.88457,30.2833,-11.9941,-6.20115,-30.4988,-36.0587,2.29737,2.35143,37.066,-16.5324,1.54535,-47.6813
8.87766,16.7628,-22.4689,15.1814,4.48393,-2.5135,16.2584,-0.878387,3.63298,9.76742,-0.665912,-2.11778,1.23805,-0.10698,-4.18489,1.34742,5.46293,15.5386,9.60708,8.45139,-15.9286,3.93624,4.207,-7.2347,-2.38542e-15,6.36111e-15,11.1915,19,-36.838,30.0339,8.37338,-17.3986,17.6616,7.12502,8.85068,-12.1328,-2.38542e-15,6.36111e-15,41.5975,-37.8586,5.81938,100.007,19.0345,-19.5949,15.257,7.12502,6.73092,45.13,-26.0874,0.217831,-1.75078,30.3448,-12.1952,-6.30075,-30.7609,-35.7086,1.86758,2.50932,36.6261,-16.4603,1.66794,-47.4725
8.85542,16.7693,-22.4697,15.1963,4.66214,-2.47745,16.1978,-0.969699,3.79974,9.63849,-0.7639,-2.09302,1.12114,-0.154642,-4.23806,1.30845,5.4274,15.4121,9.70666,8.39519,-15.7752,3.95163,4.17747,-7.16517,7.95139e-16,-1.51076e-14,11.5885,17.0233,-37.2371,29.9765,7.55933,-19.1112,16.7759,7.12502,7.19779,-13.0817,7.95139e-16,-1.51076e-14,40.6894,-38.5058,5.94098,100.791,19.0536,-16.2634,12.6568,7.12502,9.94604,42.4018,-26.0504,-0.00711148,-1.64548,30.447,-12.2619,-6.34735,-30.8834,-35.6058,1.50041,2.64547,36.2398,-16.2986,1.82404,-47.3821
8.83574,16.7716,-22.4641,15.5171,4.46002,-2.3176,15.7992,-0.885273,3.67442,9.40905,-0.68472,-2.1296,1.08976,-0.125355,-4.21697,1.57752,5.33945,15.4524,9.49765,8.29643,-15.8404,3.83149,4.14113,-7.20685,3.57812e-15,-5.1684e-15,11.8308,15.0147,-37.7745,30.1121,6.69923,-20.8893,15.847,7.12502,5.48118,-14.0621,3.57812e-15,-5.1684e-15,39.7973,-39.2687,6.09215,101.524,18.7594,-15.8328,12.4117,7.12502,10.3615,42.1364,-26.5458,-0.17214,-1.78573,30.5994,-12.4229,-6.14233,-30.4884,-35.6333,1.56185,2.54225,35.8971,-16.1795,1.87138,-46.7893
8.81471,16.7725,-22.454,15.7548,4.03161,-1.98908,15.4853,-0.686026,3.29683,9.23117,-0.485112,-2.26552,1.08144,-0.0415833,-4.17451,1.91814,5.23144,15.8519,9.03624,8.17979,-16.1873,3.64756,4.1052,-7.40535,1.31198e-14,-2.3059e-14,12.0442,13.111,-38.3541,30.327,5.6714,-22.5444,15.0846,7.12502,3.88309,-14.8598,1.31198e-14,-2.3059e-14,39.078,-39.9419,6.14422,102.14,18.3901,-17.2479,14.3481,7.12502,8.99616,44.1363,-27.0038,-0.192913,-2.15365,30.7757,-12.845,-5.81831,-29.7012,-35.4556,1.8157,2.17304,35.6028,-16.1982,1.95782,-46.5885
8.7897,16.7707,-22.4538,15.7114,4.05394,-1.83887,15.4722,-0.666313,3.21948,9.19368,-0.469057,-2.26047,1.04929,-0.0379696,-4.12723,1.84247,5.23119,16.05,8.92331,8.17568,-16.3716,3.64171,4.10291,-7.49809,-1.23246e-14,7.95139e-16,12.4885,11.5498,-38.6646,30.5059,4.58802,-24.8511,14.996,7.12502,1.65537,-14.9773,-1.23246e-14,7.95139e-16,38.3682,-40.4282,6.22948,102.613,17.905,-17.4483,15.5422,7.12502,8.80272,45.3386,-27.0282,-0.113348,-2.24145,30.9703,-13.1579,-5.88062,-28.6829,-35.2487,1.77279,2.11027,35.3391,-16.1097,2.04034,-47.1269
8.76634,16.7711,-22.4588,15.6223,4.19305,-1.84542,15.5251,-0.714628,3.34348,9.1672,-0.51384,-2.1799,0.98938,-0.0591581,-4.10588,1.70734,5.25674,15.9386,8.94938,8.18929,-16.2883,3.66703,4.10268,-7.44633,3.97569e-16,2.26615e-14,12.966,10.1029,-38.9248,30.786,3.5702,-27.2838,15.114,7.12502,-0.694212,-14.8646,3.97569e-16,2.26615e-14,37.6363,-40.9496,6.32667,103.009,17.1005,-16.647,15.3997,7.12502,9.57596,45.162,-26.9726,-0.0384426,-2.13196,31.1527,-13.4621,-6.10064,-29.0752,-35.0905,1.65546,2.2472,35.1117,-15.9559,2.08583,-47.4082
8.74652,16.772,-22.4601,15.561,4.16881,-1.84615,15.5448,-0.728023,3.38378,9.17298,-0.525394,-2.13077,0.984347,-0.0647543,-4.07512,1.39346,5.34019,15.6557,9.08004,8.24086,-15.8906,3.74152,4.11579,-7.25317,4.37326e-15,-1.27222e-14,13.4874,8.68373,-39.2546,31.3098,2.22892,-28.2959,14.5741,7.12502,-1.67172,-15.3991,4.37326e-15,-1.27222e-14,36.8445,-41.3212,6.42059,103.406,16.3734,-15.7549,15.1118,7.12502,10.4366,44.8328,-26.9468,0.0341842,-2.06639,31.3041,-13.8703,-6.0578,-29.0389,-34.9267,1.58129,2.34059,34.9774,-15.9683,2.02386,-47.0513
8.72702,16.7647,-22.4602,15.5401,4.25972,-1.9802,15.4775,-0.795594,3.51718,9.21878,-0.597266,-1.98929,1.06243,-0.0967394,-3.99107,0.89616,5.44993,15.3076,9.09074,8.32489,-15.7883,3.82478,4.12862,-7.13954,-2.38542e-15,-4.37326e-15,14.1509,7.36084,-39.557,32.0188,1.05662,-28.6778,13.4319,7.12502,-2.04056,-16.5381,-2.38542e-15,-4.37326e-15,35.9044,-41.5255,6.64719,103.821,15.7156,-14.9118,14.9338,7.12502,11.2498,44.6122,-26.9585,0.0841912,-1.84263,31.4545,-14.0906,-6.29859,-30.0142,-34.9452,1.5454,2.59926,34.9561,-16.0578,1.96213,-47.1767
8.70994,16.7463,-22.464,15.5523,4.37148,-2.12993,15.4419,-0.835631,3.72332,9.1705,-0.623573,-1.85636,1.02778,-0.107118,-3.96362,0.959526,5.38578,15.6232,9.13283,8.26205,-15.974,3.83646,4.10535,-7.26138,-7.15625e-15,-6.36111e-15,14.6465,6.46769,-39.6801,32.7647,0.106802,-29.2107,12.5644,7.12502,-2.55517,-17.4,-7.15625e-15,-6.36111e-15,35.2123,-41.9166,6.77314,104.19,15.2957,-13.9267,14.8897,7.12502,12.1998,44.5139,-27.0256,0.0413251,-1.60016,31.6083,-13.9617,-6.70859,-32.3381,-35.0811,1.60694,2.86502,35.0219,-16.1558,1.82007,-47.2847
8.69544,16.7309,-22.4717,15.5912,4.40478,-2.06474,15.4955,-0.791303,3.82085,9.06666,-0.551489,-1.86468,0.895843,-0.0720581,-4.03781,0.965468,5.29841,15.8196,9.06013,8.13512,-15.9765,3.80126,4.05052,-7.30355,6.75868e-15,1.90833e-14,14.7722,5.73669,-39.7625,33.673,-0.909982,-29.8408,12.047,7.12502,-3.16369,-17.9092,6.75868e-15,1.90833e-14,35.0403,-42.5552,6.45599,104.53,15.9622,-13.8127,14.8609,7.12502,12.3097,44.4786,-27.1441,-0.0758628,-1.63399,31.7595,-14.061,-6.71424,-32.881,-35.233,1.62735,2.86289,35.1425,-16.2762,1.54595,-46.68
8.68272,16.7252,-22.4772,15.5397,4.37218,-1.98553,15.6628,-0.739689,3.92928,9.01115,-0.465365,-1.93069,0.75792,-0.0274561,-4.18194,0.859935,5.2147,15.9034,8.98709,7.97413,-15.7022,3.76478,3.97832,-7.23285,-1.03368e-14,5.96354e-15,14.7272,4.91886,-40.024,34.8476,-2.09884,-30.725,11.5766,7.12502,-4.01763,-18.3652,-1.03368e-14,5.96354e-15,34.9463,-43.3803,5.92818,104.868,17.0744,-14.676,14.6447,7.12502,11.4772,44.3105,-27.2453,-0.13698,-1.70185,31.9542,-14.4321,-6.4327,-31.7424,-35.2468,1.65315,2.80131,35.2818,-16.4722,1.4259,-46.2315
8.67029,16.7146,-22.4822,15.4354,4.27897,-2.02854,15.815,-0.706557,4.07182,9.01248,-0.399179,-1.93987,0.687674,0.00930395,-4.283,0.710389,5.17539,15.9626,8.95079,7.88797,-15.6058,3.76444,3.93506,-7.21171,-8.34896e-15,-1.23246e-14,14.9151,4.42315,-40.1606,35.9289,-3.47419,-30.4415,11.3614,7.12502,-3.74384,-18.5855,-8.34896e-15,-1.23246e-14,34.5171,-44.0844,5.7348,105.119,17.0943,-14.5635,14.3141,7.12502,11.5857,43.9738,-27.3939,-0.0584435,-1.64612,32.1862,-14.6831,-6.41539,-31.0262,-35.1792,1.84427,2.84611,35.402,-16.5734,1.5788,-46.8489
8.65587,16.6968,-22.4914,15.3979,4.13452,-2.00846,15.8302,-0.625385,4.11547,9.05564,-0.28829,-1.9427,0.738169,0.0682355,-4.32766,0.689564,5.13161,16.0047,8.79817,7.81124,-15.6025,3.71188,3.89876,-7.22103,-1.19271e-14,7.55382e-15,15.1099,4.20791,-40.0924,37.1101,-5.1305,-30.6083,10.9157,7.12502,-3.90492,-19.0283,-1.19271e-14,7.55382e-15,34.143,-44.589,5.57213,105.361,16.5771,-13.6617,14.2328,7.12502,12.4552,43.8417,-27.6415,0.0353158,-1.66784,32.4059,-15.0525,-6.46471,-29.7924,-35.1925,2.11356,2.8171,35.5396,-16.5527,1.89717,-48.1577
8.64255,16.6812,-22.5004,15.3259,4.01686,-1.85305,15.901,-0.536896,4.06174,9.09033,-0.178512,-1.99254,0.749782,0.123369,-4.36675,0.737687,5.04729,16.1786,8.67691,7.68784,-15.5862,3.65394,3.84654,-7.25342,-6.75868e-15,6.75868e-15,15.0914,4.27237,-39.9377,38.5176,-7.21883,-31.1137,10.2964,7.12502,-4.39296,-19.6381,-6.75868e-15,6.75868e-15,33.8975,-45.1476,5.26732,105.655,16.4486,-12.9547,14.5597,7.12502,13.1369,44.1259,-27.7733,0.0167114,-1.81404,32.6375,-15.3825,-6.44877,-29.0966,-35.204,2.25386,2.65769,35.7377,-16.6641,1.94175,-48.4076
8.63267,16.6636,-22.5059,15.2554,4.00831,-1.66402,15.9554,-0.652458,3.81168,9.24512,-0.358488,-1.91539,0.866087,0.0281744,-4.11582,0.361623,5.19984,16.0235,8.71645,7.85296,-15.612,3.75213,3.90702,-7.21491,1.23246e-14,1.19271e-14,15.8276,4.83503,-39.5707,39.7994,-9.19973,-31.512,9.93806,7.12502,-4.77753,-19.9881,1.23246e-14,1.19271e-14,32.7036,-45.3674,5.82993,105.783,16.2569,-12.634,14.7211,7.12502,13.446,44.2671,-27.8017,-0.18351,-1.95978,32.9066,-15.2934,-6.72635,-31.7223,-35.2773,2.30326,2.48349,35.9807,-16.797,1.81669,-48.3173
8.62416,16.643,-22.515,15.2863,3.8885,-1.48915,15.9666,-0.68618,3.57573,9.30674,-0.432622,-1.89556,0.917383,-0.0162525,-3.94958,0.193471,5.28434,15.9501,8.71075,7.9421,-15.5697,3.78966,3.943,-7.17769,8.34896e-15,7.95139e-16,16.3327,5.48027,-39.2668,41.1123,-11.0121,-31.6818,9.95982,7.12502,-4.94153,-19.9626,8.34896e-15,7.95139e-16,31.7106,-45.6098,6.22068,105.765,15.7823,-12.6262,14.4857,7.12502,13.4535,44.0313,-28.0036,-0.354562,-2.13623,33.1985,-15.1624,-6.92625,-34.3297,-35.4455,2.44037,2.29906,36.2652,-16.9458,1.81874,-48.6911
8.61667,16.6245,-22.5289,15.3274,3.69405,-1.33814,16.1135,-0.645148,3.41843,9.27458,-0.396233,-1.92408,0.808777,-0.0065571,-3.89588,0.121326,5.29625,15.9294,8.67848,7.93673,-15.4683,3.7872,3.93996,-7.13849,7.95139e-15,-2.18663e-14,16.5449,6.06191,-39.0385,42.4345,-12.5991,-31.7187,10.4395,7.12502,-4.97708,-19.482,7.95139e-15,-2.18663e-14,31.0378,-46.0251,6.32234,105.772,15.46,-12.5939,14.0503,7.12502,13.4846,43.5938,-28.2985,-0.289556,-2.34418,33.4892,-15.4727,-7.03119,-34.6376,-35.6294,2.61076,2.12566,36.5886,-17.2798,1.70225,-48.5569
8.61158,16.6056,-22.5392,15.3454,3.6876,-1.40098,16.2232,-0.635927,3.59566,9.25635,-0.357357,-1.88525,0.736908,0.0166358,-3.9617,0.0622447,5.27091,16.0501,8.63678,7.88572,-15.4474,3.7809,3.91728,-7.1534,1.90833e-14,1.98785e-14,16.6335,6.60106,-38.7365,43.6964,-13.7404,-31.6274,10.9089,7.12502,-4.88895,-19.0147,1.90833e-14,1.98785e-14,30.7447,-46.5933,6.31709,105.785,15.521,-12.2695,13.8722,7.12502,13.7973,43.3947,-28.4941,-0.21179,-2.28725,33.7823,-16.2455,-7.08323,-33.1725,-35.864,2.69827,2.23212,36.9184,-17.5862,1.45192,-48.0436
8.60905,16.5855,-22.5446,15.3867,3.77549,-1.54722,16.2118,-0.639552,3.90055,9.26845,-0.321254,-1.80805,0.76172,0.0449947,-4.05892,0.0779152,5.21143,16.142,8.52609,7.78681,-15.3594,3.72993,3.87515,-7.14591,1.47101e-14,-1.27222e-14,16.6275,7.29058,-38.3172,45.05,-14.7567,-31.5476,11.0219,7.12502,-4.81187,-18.9034,1.47101e-14,-1.27222e-14,30.5224,-47.1205,6.33534,105.798,15.5033,-11.4943,14.0605,7.12502,14.5443,43.5306,-28.6339,-0.239332,-2.1295,34.0291,-16.9723,-6.72979,-30.3305,-36.1559,2.76141,2.441,37.2566,-17.6464,1.33408,-47.9541
8.60694,16.5667,-22.5474,15.3898,3.6956,-1.33505,16.2288,-0.621919,3.73183,9.3151,-0.320373,-1.82526,0.801632,0.0413541,-3.9814,0.13796,5.16963,16.1054,8.36646,7.71481,-15.2465,3.65535,3.84451,-7.10759,7.7526e-15,1.59028e-15,16.6509,8.29389,-37.791,46.5957,-15.854,-31.4063,11.017,7.12502,-4.6755,-18.9114,7.7526e-15,1.59028e-15,29.9515,-47.5323,6.44315,105.878,15.4705,-10.8603,14.1945,7.12502,15.155,43.6196,-28.7184,-0.27681,-2.3909,34.2084,-17.3278,-6.57746,-29.6647,-36.3234,2.86075,2.19957,37.6319,-17.7271,1.39581,-48.046
8.60395,16.5442,-22.5498,15.2891,3.45733,-1.1401,16.3792,-0.569783,3.50548,9.38593,-0.279362,-1.87396,0.801703,0.0555757,-3.9111,0.182229,5.12679,16.1723,8.23599,7.65487,-15.3052,3.60422,3.81738,-7.14276,7.35503e-15,-3.18055e-15,16.6933,9.36204,-37.2497,48.1972,-16.9085,-30.9945,11.0697,7.12502,-4.2778,-18.8671,7.35503e-15,-3.18055e-15,29.4256,-47.971,6.43693,105.902,15.4922,-11.0418,14.2169,7.12502,14.9803,43.655,-28.7464,-0.244751,-2.62639,34.361,-17.6373,-6.82116,-31.7404,-36.3076,3.09664,1.9435,38.0325,-18.0795,1.45022,-48.1882
8.60103,16.5158,-22.5557,15.149,3.35995,-1.33575,16.6441,-0.537281,3.75016,9.40355,-0.196262,-1.83456,0.693318,0.103067,-4.02265,0.335893,4.995,16.4134,8.11202,7.4907,-15.4157,3.52756,3.74694,-7.2342,1.25234e-14,-1.86858e-14,16.6017,10.4097,-36.7627,49.7844,-17.8294,-30.4588,10.7299,7.12502,-3.76055,-19.2166,1.25234e-14,-1.86858e-14,29.1626,-48.551,6.28298,105.763,15.0829,-11.2865,14.0027,7.12502,14.7445,43.4583,-28.7259,-0.201421,-2.37642,34.5241,-18.2091,-6.9714,-32.4337,-36.3582,3.42059,2.14593,38.4382,-18.3886,1.39566,-48.5676
8.59896,16.4899,-22.5654,15.1465,3.34625,-1.39769,16.7476,-0.516839,3.85952,9.42462,-0.151045,-1.7949,0.667796,0.128519,-4.0505,0.362204,4.92324,16.6246,8.11073,7.39219,-15.4166,3.51453,3.70568,-7.27706,4.77083e-15,-1.61016e-14,16.528,11.4992,-36.252,51.4444,-18.6812,-30.0546,10.2393,7.12502,-3.37023,-19.7138,4.77083e-15,-1.61016e-14,28.9204,-48.9941,6.20635,105.529,14.5759,-11.077,13.6292,7.12502,14.9463,43.0699,-28.8601,-0.246968,-2.27437,34.7318,-18.6505,-7.16937,-32.0342,-36.6453,3.62196,2.22366,38.8716,-18.4897,1.14535,-48.4294
8.59705,16.4703,-22.5745,15.2592,3.16133,-1.25079,16.6835,-0.459914,3.65137,9.50313,-0.108883,-1.80746,0.787313,0.145789,-3.9516,0.132291,4.99756,16.6273,8.19107,7.4566,-15.3021,3.58468,3.73163,-7.22962,-8.34896e-15,-7.55382e-15,16.5921,12.4681,-35.8285,53.1104,-19.1541,-29.5949,11.0977,7.12502,-2.92622,-18.8619,-8.34896e-15,-7.55382e-15,28.4287,-49.2142,6.42013,105.324,14.3935,-10.9991,13.5389,7.12502,15.0214,42.974,-29.2209,-0.263934,-2.45988,34.9646,-18.5176,-7.54715,-33.0014,-36.9697,3.81596,2.04274,39.3322,-18.7336,0.930261,-47.9709
8.59742,16.4472,-22.5833,15.3016,2.93189,-1.2122,16.6862,-0.416021,3.58126,9.61362,-0.0632157,-1.8312,0.908656,0.170795,-3.94402,0.00470043,5.05465,16.5831,8.09698,7.50354,-15.2448,3.58307,3.75006,-7.19611,-1.19271e-15,1.11319e-14,16.7577,13.3347,-35.5092,54.5808,-19.4348,-28.7297,12.9288,7.12502,-2.09064,-17.0407,-1.19271e-15,1.11319e-14,27.9135,-49.4459,6.67516,105.092,14.4375,-11.1568,13.4944,7.12502,14.8694,42.9408,-29.5284,-0.287459,-2.5184,35.1904,-19.2122,-7.26549,-31.0346,-37.1947,4.10922,1.96114,39.8098,-19.0501,0.913971,-47.9731
8.60039,16.4198,-22.5904,15.3354,2.7978,-1.10645,16.7074,-0.401514,3.53284,9.70536,-0.0515997,-1.87263,0.99738,0.179373,-3.96237,-0.052211,5.05029,16.6114,8.07613,7.48807,-15.261,3.58574,3.7406,-7.20562,1.76918e-14,-2.20651e-14,16.9699,14.4537,-34.9916,55.9781,-19.9027,-27.9555,13.4756,7.12502,-1.34296,-16.5,1.76918e-14,-2.20651e-14,27.5052,-49.7228,6.85579,104.806,14.6417,-10.9552,13.0619,7.12502,15.0636,42.4938,-29.7666,-0.424814,-2.63939,35.3816,-19.5641,-7.59,-31.9395,-37.4768,4.29365,1.82314,40.3192,-19.2162,0.78997,-47.8321
8.60414,16.3966,-22.5959,15.3616,2.71912,-1.09365,16.8392,-0.402128,3.60263,9.68567,-0.0397303,-1.9021,0.910248,0.186589,-4.03615,0.0927244,4.98749,16.7026,8.11917,7.41853,-15.1949,3.56347,3.71626,-7.20756,2.5842e-15,-3.18055e-15,16.8925,15.8667,-34.4138,57.7192,-20.129,-27.8094,12.0537,7.12502,-1.20182,-17.9226,2.5842e-15,-3.18055e-15,26.9556,-50.1456,7.04668,104.641,14.6914,-10.3814,12.9696,7.12502,15.6163,42.3592,-29.9428,-0.534152,-2.65786,35.5259,-19.5911,-7.99629,-33.1551,-37.7767,4.42381,1.79602,40.8667,-19.3637,0.613701,-47.6964
8.61052,16.3739,-22.6038,15.2379,2.66407,-1.17097,17.1369,-0.444154,3.76121,9.6947,-0.0635386,-1.90733,0.765865,0.17809,-4.13034,0.432349,4.90922,16.7727,7.91305,7.33836,-15.1532,3.43309,3.69248,-7.21839,1.78906e-15,-1.11319e-14,16.6406,17.1694,-33.9592,59.7894,-20.3594,-27.2046,11.2345,7.12502,-0.617704,-18.7443,1.78906e-15,-1.11319e-14,26.317,-50.6256,7.25778,104.519,14.5561,-10.1566,13.3984,7.12502,15.8328,42.771,-29.9016,-0.604,-2.57414,35.6226,-19.7319,-8.05512,-33.2475,-37.9375,4.5624,1.86716,41.4372,-19.6006,0.321616,-47.3373
8.61744,16.3433,-22.6115,15.1905,2.53884,-1.05364,17.2656,-0.472173,3.68422,9.7955,-0.107843,-1.94387,0.803052,0.156758,-4.11901,0.413343,4.87116,16.6751,7.91887,7.27686,-15.0458,3.42049,3.66126,-7.16951,2.18663e-15,-7.15625e-15,16.6185,18.3966,-33.5028,61.6707,-20.7935,-25.9725,12.253,7.12502,0.57235,-17.726,2.18663e-15,-7.15625e-15,25.5801,-50.9777,7.6752,104.313,14.4271,-9.93439,13.5774,7.12502,16.0468,42.9329,-29.9457,-0.667499,-2.76076,35.6998,-20.2075,-8.02929,-32.7953,-38.1787,4.68541,1.72117,41.9978,-19.8921,0.0895903,-46.6921
8.62504,16.313,-22.6158,15.3337,2.35426,-0.998412,17.1938,-0.475637,3.67049,9.84793,-0.118527,-1.99727,0.895907,0.155138,-4.16585,0.152619,4.84135,16.3337,8.27554,7.19168,-14.542,3.52665,3.61331,-6.94518,4.37326e-15,-1.78906e-14,16.7511,19.7068,-33.0738,63.2134,-20.9442,-25.1416,13.2014,7.12502,1.37478,-16.7739,4.37326e-15,-1.78906e-14,24.7277,-51.2765,8.25857,104.098,14.2119,-9.65211,13.6161,7.12502,16.3186,42.9495,-30.2233,-0.692107,-2.92501,35.7992,-20.6206,-8.18973,-33.025,-38.5554,4.79895,1.65369,42.5187,-20.1204,0.145581,-46.3916
8.63344,16.2948,-22.6218,15.3912,2.15984,-1.01606,17.3262,-0.479813,3.66586,9.89382,-0.121906,-1.99767,0.876854,0.153284,-4.16394,-0.0921662,4.8668,16.011,8.53632,7.183,-14.125,3.61846,3.6025,-6.74888,3.97569e-16,3.97569e-15,16.8353,20.9626,-32.6613,64.8358,-20.8707,-24.3836,13.6857,7.12502,2.10688,-16.2836,3.97569e-16,3.97569e-15,23.9873,-51.496,8.69637,103.921,14.0334,-10.0599,13.8344,7.12502,15.9259,43.1996,-30.4252,-0.694476,-3.01045,35.924,-20.721,-8.11185,-33.9618,-38.7604,4.85339,1.6664,42.9782,-20.3121,0.233164,-46.2471
8.63988,16.2826,-22.631,15.3642,1.95175,-0.961282,17.6593,-0.458233,3.50907,9.94795,-0.107093,-1.97545,0.763342,0.151824,-4.05548,-0.205661,4.84862,16.089,8.57267,7.15554,-14.2658,3.65141,3.5832,-6.80741,4.57205e-15,4.96962e-15,16.7881,22.2488,-32.1624,66.6076,-20.8311,-23.2632,14.2976,7.12502,3.18897,-15.6583,4.57205e-15,4.96962e-15,23.3251,-51.6766,9.02001,103.808,13.8974,-10.7948,14.1744,7.12502,15.2182,43.5947,-30.5611,-0.679132,-3.17421,36.1065,-20.9209,-7.77253,-34.2573,-38.85,4.85968,1.59368,43.3654,-20.5345,0.31869,-46.2829
8.64775,16.2675,-22.6374,15.4377,1.75891,-1.03254,17.8151,-0.425332,3.53599,9.98606,-0.0576089,-1.97937,0.729825,0.177182,-4.08436,0.0599305,4.76333,16.5573,8.16169,7.08428,-14.8561,3.50948,3.55458,-7.09052,-1.92821e-14,-2.38542e-15,16.6497,23.5363,-31.7294,68.2459,-20.693,-22.1268,15.2398,7.12502,4.28631,-14.6968,-1.92821e-14,-2.38542e-15,22.6428,-51.8719,9.41808,103.714,13.7587,-11.2626,14.5568,7.12502,14.7675,44.0107,-30.8714,-0.766314,-3.17373,36.3858,-21.4108,-7.34065,-33.6055,-39.0378,4.93418,1.66044,43.7134,-20.7181,0.329269,-46.0744
8.65588,16.2456,-22.6408,15.5646,1.48269,-0.943946,17.8243,-0.346214,3.40886,10.0504,0.0236377,-2.06168,0.801764,0.217169,-4.11324,0.577424,4.72753,16.9488,7.48354,7.08536,-15.3244,3.25204,3.5727,-7.32195,8.54774e-15,-1.59028e-14,16.463,24.7243,-31.4828,69.8184,-20.4438,-20.9761,16.1095,7.12502,5.39739,-13.8017,8.54774e-15,-1.59028e-14,21.9347,-51.9528,9.85307,103.654,13.7192,-10.9513,14.6666,7.12502,15.0674,44.0983,-31.3212,-1.06301,-3.32706,36.7307,-21.8664,-6.70184,-32.7564,-39.26,5.09625,1.51977,44.0782,-20.8635,0.547735,-46.1871
