JuanDHNZ/ProyectoFinalCD/preprocessing/sports_trials_csv/55_05.csv
root1,root2,root3,root4,root5,root6,lowerback1,lowerback2,lowerback3,upperback1,upperback2,upperback3,thorax1,thorax2,thorax3,lowerneck1,lowerneck2,lowerneck3,upperneck1,upperneck2,upperneck3,head1,head2,head3,rclavicle1,rclavicle2,rhumerus1,rhumerus2,rhumerus3,rradius1,rwrist1,rhand1,rhand2,rfingers1,rthumb1,rthumb2,lclavicle1,lclavicle2,lhumerus1,lhumerus2,lhumerus3,lradius1,lwrist1,lhand1,lhand2,lfingers1,lthumb1,lthumb2,rfemur1,rfemur2,rfemur3,rtibia1,rfoot1,rfoot2,rtoes1,lfemur1,lfemur2,lfemur3,ltibia1,lfoot1,lfoot2,ltoes1
17.1275,18.0757,7.97889,6.96021,1.07418,0.612227,4.755,-2.6335,0.112917,-2.94499,-3.55211,-0.668066,-5.77225,-1.7759,-0.411723,7.98957,5.92634,14.6278,-34.8223,4.66381,-22.7,-11.2822,3.02911,-12.2567,9.4547e-15,-5.96354e-16,-48.0397,17.0478,-55.4782,139.692,2.39002,-19.8016,23.6344,7.12502,6.53132,-6.24493,9.4547e-15,-5.96354e-16,-47.1233,-28.9366,42.5344,139.961,21.602,1.57796,8.83978,7.12502,27.1009,36.9145,-9.60796,-1.68228,18.8671,20.1418,-18.1362,6.12477,31.3095,-8.95868,-1.77081,-20.9428,17.3987,-14.7064,2.85111,-34.7228
17.123,18.086,7.97723,6.814,1.16741,0.701571,5.05605,-2.63542,0.068556,-3.00791,-3.5667,-0.789776,-6.01644,-1.78288,-0.494823,7.94252,5.90087,14.8246,-34.4644,4.63769,-22.9059,-11.1144,3.02528,-12.3243,5.37961e-14,0,-46.48,13.6655,-52.6093,140.261,-0.0929176,-20.2035,22.2807,7.12502,6.14333,-7.61022,5.37961e-14,0,-45.0947,-26.6616,39.3567,140.079,23.6122,-2.2883,9.66571,7.12502,23.3969,38.2635,-9.43544,-1.39654,18.7983,20.1159,-18.0473,5.68148,31.2495,-8.80484,-1.85986,-21.0103,17.4089,-14.6444,2.51332,-33.2374
17.1154,18.1033,7.98017,6.932,1.30674,0.465729,5.08943,-2.64963,0.317913,-3.24292,-3.56885,-0.774316,-6.29844,-1.79398,-0.608928,8.1616,5.87038,14.8895,-34.1361,4.63451,-23.024,-11.0231,3.04552,-12.3556,-9.0447e-15,3.97569e-16,-45.5016,10.553,-49.9989,140.81,-1.7695,-20.7655,21.2668,7.12502,5.60075,-8.63917,-9.0447e-15,3.97569e-16,-43.2405,-24.5774,36.3718,140.206,25.7262,-5.91764,10.7647,7.12502,19.9115,39.7646,-9.55661,-1.31792,19.106,20.1004,-17.9516,5.36306,31.0988,-9.04356,-1.89077,-20.6914,17.5778,-14.7104,2.19666,-32.1195
17.1133,18.1269,7.98734,7.22075,1.46104,0.14348,4.77093,-2.65076,0.718421,-3.45582,-3.53996,-0.734818,-6.36271,-1.79772,-0.803522,8.33764,5.88826,14.8235,-33.8052,4.69722,-23.0485,-10.9166,3.10181,-12.3168,1.09083e-14,-3.97569e-15,-44.8905,7.89405,-47.6288,141.378,-2.94175,-21.5262,20.6427,7.12502,4.86632,-9.28146,1.09083e-14,-3.97569e-15,-41.4643,-22.5044,33.5756,140.226,27.97,-8.72702,11.9454,7.12502,17.2092,41.2034,-9.83568,-1.44156,19.4712,20.109,-17.9192,5.40527,31.2092,-9.47375,-1.95047,-20.2843,17.7479,-14.7385,1.93666,-31.3268
17.1164,18.1422,7.9974,7.66896,1.5414,-0.107243,4.20257,-2.63467,1.09357,-3.61133,-3.49543,-0.732721,-6.22288,-1.79415,-1.0381,8.27283,5.93219,14.8665,-33.3915,4.77627,-23.1542,-10.7128,3.15583,-12.3019,4.70747e-14,1.43125e-14,-44.1147,5.66379,-45.5976,141.779,-2.98087,-22.1378,20.0577,7.12502,4.27574,-9.87911,4.70747e-14,1.43125e-14,-39.999,-20.5787,31.3124,140.101,29.9559,-10.9766,12.3769,7.12502,15.043,41.8104,-10.3189,-1.55307,19.7276,20.2254,-17.6835,5.6353,31.3944,-9.98973,-2.04263,-19.9785,17.833,-14.5184,1.67112,-29.8296
17.1201,18.1551,8.00926,8.1718,1.53553,-0.033872,3.59788,-2.63633,1.07134,-3.69452,-3.50796,-0.801759,-5.967,-1.80231,-1.12327,7.85479,5.98295,15.0143,-32.9145,4.82198,-23.3452,-10.41,3.17895,-12.3059,4.22666e-14,1.19271e-14,-43.3541,4.02933,-44.1184,141.902,-1.88201,-22.6534,19.9783,7.12502,3.77783,-9.96796,4.22666e-14,1.19271e-14,-39.0095,-19.026,29.62,140.14,31.2911,-12.8738,12.6437,7.12502,13.2149,42.2048,-10.9228,-1.72117,19.6098,20.4056,-17.1626,5.93454,30.6129,-10.4923,-2.07137,-20.0611,17.8033,-14.1384,1.57017,-29.3198
17.1237,18.1818,8.0246,8.64993,1.57812,0.162556,2.96664,-2.65399,0.909904,-3.77918,-3.54907,-0.870245,-5.6899,-1.81863,-1.12944,7.60178,5.96293,15.0821,-32.5931,4.75956,-23.5086,-10.2375,3.15715,-12.3211,3.01904e-14,0,-43.0173,3.30549,-43.2138,141.932,-0.529861,-22.822,20.4442,7.12502,3.61498,-9.50489,3.01904e-14,0,-38.475,-18.1344,28.4837,140.332,31.8622,-13.8802,12.6088,7.12502,12.2446,42.2303,-11.5372,-2.1783,19.3608,20.5595,-16.6203,6.34046,30.0931,-10.9754,-2.11544,-20.2825,17.7815,-13.7977,1.6418,-30.4531
17.1253,18.216,8.0413,9.04493,1.62421,0.211781,2.49932,-2.66252,0.921002,-3.96119,-3.56458,-0.88995,-5.61645,-1.82914,-1.17278,7.63022,5.94246,15.1098,-32.3766,4.71943,-23.6615,-10.1619,3.1566,-12.3629,-2.2736e-15,-2.78299e-15,-43.1685,3.75809,-43.0715,142.133,0.807761,-22.1832,20.6849,7.12502,4.23187,-9.25277,-2.2736e-15,-2.78299e-15,-38.4737,-18.1053,28.1287,140.561,31.7133,-14.0027,12.1109,7.12502,12.1265,41.7395,-12.0274,-2.49513,19.2922,20.6797,-16.1916,6.62109,30.5622,-11.3513,-2.2906,-20.3205,17.7268,-13.3902,1.68626,-30.6258
17.1238,18.2409,8.05364,9.33795,1.60378,0.109684,2.30753,-2.6716,0.988954,-4.16981,-3.57308,-0.830357,-5.72699,-1.8368,-1.15186,7.43325,6.06135,15.0677,-32.0003,4.88035,-23.7355,-9.93584,3.24644,-12.314,3.42407e-14,-1.98785e-15,-43.5631,5.33521,-43.7564,142.409,2.04796,-21.4278,20.422,7.12502,4.96132,-9.49996,3.42407e-14,-1.98785e-15,-39.0919,-18.929,28.7103,140.95,30.7005,-13.8191,11.8788,7.12502,12.3035,41.4968,-12.3288,-2.41128,19.4038,20.7709,-15.8055,6.47283,30.0941,-11.6128,-2.44342,-20.1803,17.6187,-12.8647,1.66476,-29.4206
17.1225,18.2592,8.06688,9.51263,1.64367,-0.0892172,2.1379,-2.67168,1.10353,-4.31581,-3.56259,-0.693446,-5.78156,-1.83458,-1.07895,7.36277,6.14435,14.8959,-31.7324,4.99061,-23.7253,-9.80254,3.31988,-12.2314,5.13113e-15,-3.97569e-16,-44.1357,7.62991,-45.0662,142.453,2.99673,-20.656,20.4275,7.12502,5.7065,-9.47565,5.13113e-15,-3.97569e-16,-40.1273,-20.5836,30.1942,141.405,29.2379,-13.3672,11.7233,7.12502,12.7392,41.3147,-12.516,-2.4441,19.6217,20.823,-15.287,6.50013,30.5644,-11.7569,-2.44963,-19.9543,17.5599,-12.4803,1.73054,-29.5325
17.1221,18.2776,8.08508,9.66856,1.68645,-0.161207,1.91901,-2.66026,1.12776,-4.48705,-3.54548,-0.629634,-5.8335,-1.82718,-1.03362,7.61094,6.07254,14.8851,-31.6808,4.91245,-23.7545,-9.85431,3.29601,-12.255,8.97637e-15,1.03368e-14,-45.1768,10.4085,-47.0646,142.326,3.41618,-19.723,21.0074,7.12502,6.60723,-8.86954,8.97637e-15,1.03368e-14,-41.5118,-22.9615,32.2363,141.833,28.2833,-12.5819,11.4646,7.12502,13.4962,41.0072,-12.7402,-2.81065,19.6857,20.9303,-14.7734,7.0171,31.0584,-11.8461,-2.35763,-19.8974,17.4933,-12.1896,1.87571,-30.7039
17.1221,18.2893,8.09925,9.81065,1.61879,-0.0937452,1.65256,-2.63574,1.02773,-4.50736,-3.52206,-0.684875,-5.69869,-1.81278,-1.04958,7.57469,6.0299,15.1692,-31.6691,4.86222,-23.9168,-9.83246,3.25569,-12.3749,2.31646e-14,3.18055e-15,-46.5498,13.4631,-49.7731,142.071,3.39091,-18.938,21.7066,7.12502,7.36504,-8.14518,2.31646e-14,3.18055e-15,-43.2092,-25.6657,34.7393,142.237,27.635,-11.7847,10.9892,7.12502,14.2644,40.4793,-13.0044,-3.20733,19.5885,21.1415,-14.3332,7.52097,29.8374,-11.8498,-2.36734,-20.0017,17.3053,-11.8056,2.12664,-31.2093
17.1212,18.2986,8.10546,9.81675,1.53483,0.0446485,1.42476,-2.60193,0.828382,-4.32514,-3.48851,-0.757544,-5.36758,-1.78782,-1.03264,7.35307,6.082,15.3106,-31.7751,4.90605,-24.0025,-9.80171,3.26099,-12.4357,-5.57094e-14,-1.94809e-14,-48.1596,16.7048,-52.9525,141.641,3.40547,-18.6448,22.2135,7.12502,7.64796,-7.62823,-5.57094e-14,-1.94809e-14,-45.0626,-28.4735,37.8343,142.401,26.8484,-11.0448,10.206,7.12502,14.9773,39.6444,-13.1571,-3.41617,19.4238,21.4162,-14.1068,7.68605,28.7957,-11.6949,-2.42134,-20.1732,17.0347,-11.4629,2.19803,-31.5953
17.118,18.3113,8.10917,9.73861,1.5196,0.0868697,1.23737,-2.57554,0.690839,-4.0731,-3.4569,-0.759043,-4.98671,-1.76471,-0.976019,7.23577,6.15799,15.1146,-32.0708,4.98651,-23.7983,-9.88692,3.29218,-12.343,9.72802e-15,8.34896e-15,-49.7029,19.6652,-56.0725,141.089,3.55512,-18.2701,22.5401,7.12502,8.00961,-7.28811,9.72802e-15,8.34896e-15,-46.9349,-31.1294,41.2452,142.175,25.7992,-9.87233,9.39979,7.12502,16.1066,38.7505,-13.2029,-3.44992,19.3786,21.6811,-14.1579,7.61516,28.8333,-11.4962,-2.3825,-20.2218,16.8224,-11.2446,2.02644,-31.5128
17.1151,18.3181,8.11044,9.60972,1.54169,0.0528781,1.08049,-2.55195,0.634486,-3.77599,-3.42417,-0.741061,-4.58121,-1.74394,-0.944049,7.06971,6.19626,14.8996,-32.3016,5.03534,-23.4965,-9.95433,3.2989,-12.1929,-2.17669e-14,0,-50.9347,22.068,-58.8496,140.336,3.81296,-17.544,22.8772,7.12502,8.71039,-6.92311,-2.17669e-14,0,-48.7456,-33.5248,44.6049,141.738,24.396,-8.26434,8.89593,7.12502,17.6545,38.1144,-13.1159,-3.43284,19.4129,21.836,-14.2426,7.52532,29.1237,-11.3015,-2.43963,-20.1788,16.7675,-11.1447,2.10566,-31.0813
17.1082,18.3108,8.10571,9.44231,1.52347,0.089174,1.23582,-2.5233,0.460354,-3.63248,-3.39068,-0.748358,-4.50885,-1.72012,-0.853043,6.68834,6.21457,14.9125,-32.0505,5.07508,-23.3735,-9.77937,3.29424,-12.0772,2.45623e-14,5.96354e-15,-52.2523,24.1471,-61.4686,139.376,4.53309,-16.942,23.5142,7.12502,9.29131,-6.26108,2.45623e-14,5.96354e-15,-50.6174,-35.8448,47.8026,141.35,23.0788,-7.24865,8.86977,7.12502,18.6317,37.9975,-12.9376,-3.31211,19.3738,21.8822,-14.3526,7.45673,28.5137,-11.1588,-2.51819,-20.189,16.8385,-11.1906,2.2226,-30.9264
17.0975,18.2986,8.09976,9.26661,1.49922,-0.0680278,1.49766,-2.48966,0.463592,-3.54421,-3.34338,-0.713889,-4.56255,-1.69526,-0.811912,6.32324,6.23218,15.0042,-31.7166,5.11086,-23.3571,-9.5696,3.29168,-12.0127,-5.89397e-14,-1.94809e-14,-53.3606,25.7047,-63.648,138.447,5.25931,-15.8531,24.3293,7.12502,10.3419,-5.39638,-5.89397e-14,-1.94809e-14,-52.1706,-37.5625,50.2712,140.954,21.5154,-6.42067,8.55433,7.12502,19.4279,37.6038,-12.7591,-2.98228,19.5604,21.8541,-14.5984,7.24422,27.6496,-11.099,-2.43405,-19.9663,17.0241,-11.354,2.10841,-30.8415
17.0946,18.2922,8.09302,9.09397,1.51329,-0.196616,1.66589,-2.45549,0.525285,-3.39816,-3.29344,-0.701894,-4.50762,-1.67142,-0.832817,6.16342,6.22748,15.0447,-31.6022,5.11722,-23.3076,-9.49512,3.28175,-11.972,-1.94064e-14,3.97569e-15,-54.0233,26.6725,-65.101,137.785,5.79611,-14.4235,24.9535,7.12502,11.7208,-4.69857,-1.94064e-14,3.97569e-15,-52.9193,-38.3625,51.5889,140.497,19.4336,-4.90703,7.74692,7.12502,20.8827,36.643,-12.5018,-2.80438,19.6921,21.7248,-14.8318,7.1067,27.1174,-11.0792,-2.28282,-19.8106,17.3442,-11.6384,1.95839,-31.1955
17.0936,18.2755,8.0796,8.85324,1.5286,-0.0738061,2.04771,-2.43323,0.329459,-3.31251,-3.27266,-0.744223,-4.62613,-1.65422,-0.75323,6.16849,6.20136,15.0382,-31.5136,5.11193,-23.2207,-9.47157,3.27302,-11.9234,-2.04251e-14,3.57812e-15,-54.433,27.2413,-65.8537,137.342,6.65725,-13.5602,25.3901,7.12502,12.5531,-4.21283,-2.04251e-14,3.57812e-15,-53.049,-38.5944,51.9906,140.173,17.5864,-3.16939,7.1714,7.12502,22.5514,35.8743,-12.1476,-2.73294,19.5431,21.4841,-14.9937,7.13331,26.9956,-11.0167,-2.15201,-19.9306,17.7325,-12.1553,1.7532,-31.1093
17.0873,18.2534,8.06385,8.50461,1.62744,-0.244209,2.52562,-2.44177,0.415302,-3.14884,-3.27866,-0.734519,-4.73165,-1.6587,-0.772888,6.16557,6.17049,14.9791,-31.4596,5.10252,-23.0627,-9.46692,3.25991,-11.8396,4.57205e-15,1.15295e-14,-54.2255,27.2603,-65.7931,137.034,7.48577,-13.2265,25.9255,7.12502,12.8748,-3.65742,4.57205e-15,1.15295e-14,-52.3887,-38.2649,51.2372,140.045,16.3682,-1.0591,6.89332,7.12502,24.5756,35.3359,-11.7151,-2.54499,19.7562,21.2088,-15.2098,7.03762,27.6,-10.8926,-2.05264,-19.6755,18.0827,-12.8455,1.35121,-30.4739
17.0813,18.2388,8.04556,8.14268,1.74713,-0.567756,3.04099,-2.47817,0.697736,-2.99359,-3.31015,-0.709956,-4.8785,-1.68243,-0.882785,6.13215,6.19424,14.8797,-31.2712,5.19727,-22.8197,-9.38959,3.2932,-11.6924,-3.78436e-14,-6.75868e-15,-53.4643,26.8107,-65.0491,137.018,7.77226,-13.182,26.3111,7.12502,12.9178,-3.26903,-3.78436e-14,-6.75868e-15,-51.2219,-37.3931,49.5828,140.091,15.9769,0.723173,6.80552,7.12502,26.2829,35.0049,-11.208,-2.19276,20.1265,20.9507,-15.3372,6.78995,28.7381,-10.7562,-2.01661,-19.2574,18.3638,-13.3964,1.0903,-30.8363
17.0768,18.2182,8.02212,7.81964,1.81629,-0.656663,3.58359,-2.52271,0.7714,-2.91237,-3.36529,-0.756819,-5.11137,-1.71241,-0.944592,6.37444,6.22163,14.8216,-31.179,5.32455,-22.6027,-9.39253,3.34865,-11.5979,-8.82107e-15,1.03368e-14,-52.4966,26.0729,-63.9158,137.29,7.56902,-13.7851,25.9541,7.12502,12.3363,-3.66196,-8.82107e-15,1.03368e-14,-49.7243,-35.9956,47.2698,140.208,16.6879,0.829356,6.80196,7.12502,26.3845,34.9862,-10.7743,-1.63504,20.2093,20.7673,-15.4785,6.49027,29.5734,-10.5778,-2.02114,-19.1336,18.5096,-13.6382,1.116,-32.1078
17.0728,18.1906,8.00202,7.52488,1.92224,-0.685034,3.93035,-2.5569,0.779865,-2.75182,-3.40975,-0.796777,-5.14522,-1.7342,-0.974807,6.68438,6.1535,14.8647,-31.1675,5.27992,-22.587,-9.46182,3.33299,-11.6221,5.78463e-14,-3.57812e-15,-51.2672,24.9644,-62.3067,137.761,6.79649,-15.2967,24.9802,7.12502,10.8785,-4.71799,5.78463e-14,-3.57812e-15,-47.7999,-34.1791,44.5304,140.307,18.5166,-0.0599224,6.95057,7.12502,25.533,35.2596,-10.4705,-1.2073,20.2226,20.7661,-15.9369,6.35516,29.5787,-10.283,-2.13581,-19.0901,18.431,-13.6612,1.38712,-33.7261
17.0688,18.1693,7.98594,7.25536,2.00092,-0.496181,4.24145,-2.59594,0.510319,-2.62595,-3.47921,-0.842348,-5.17899,-1.75886,-0.854282,6.93624,6.09131,14.8686,-30.9513,5.23004,-22.6449,-9.44369,3.32778,-11.6378,-4.09496e-14,-6.36111e-15,-49.6814,23.5599,-60.1236,138.31,5.22826,-16.9926,23.9979,7.12502,9.24246,-5.7795,-4.09496e-14,-6.36111e-15,-46.0449,-32.2566,41.9165,140.444,21.0315,-1.62136,7.51504,7.12502,24.0365,36.0299,-10.206,-1.13105,20.0087,20.8824,-16.449,6.32041,28.8513,-9.9,-2.29348,-19.3075,18.2238,-13.6902,1.67584,-34.3239
17.0659,18.1572,7.968,7.01168,2.03328,-0.0917255,4.73387,-2.63174,0.0656312,-2.66353,-3.56554,-0.979399,-5.48242,-1.78724,-0.715346,7.3654,6.07056,14.8516,-30.7301,5.28142,-22.622,-9.4424,3.37095,-11.6289,-1.6201e-14,-8.74653e-15,-48.1227,21.8037,-57.7526,138.805,3.27296,-18.3198,23.2119,7.12502,7.96172,-6.61815,-1.6201e-14,-8.74653e-15,-44.4666,-30.2932,39.2918,140.544,23.5265,-3.97842,8.23215,7.12502,21.7747,37.0273,-9.98219,-1.21872,19.5695,20.9876,-16.7404,6.2571,27.903,-9.55388,-2.46356,-19.7837,18.0212,-13.7823,1.82221,-33.3527
17.0635,18.1484,7.94764,6.83149,2.1614,0.112856,5.28806,-2.66995,-0.118564,-2.78883,-3.64086,-1.06853,-5.9266,-1.8174,-0.66662,7.67692,5.99739,14.9309,-30.4097,5.25618,-22.6523,-9.39248,3.36926,-11.6387,6.98231e-15,-3.18055e-15,-46.7473,19.4667,-55.3369,139.3,1.33268,-18.909,22.453,7.12502,7.39304,-7.39781,6.98231e-15,-3.18055e-15,-42.8639,-28.2452,36.7299,140.577,25.6778,-6.68889,9.50016,7.12502,19.17,38.5754,-9.85555,-1.23751,19.3707,21.0632,-16.8774,6.19614,27.7304,-9.36012,-2.70967,-20.0159,17.8617,-13.7978,1.84124,-32.1157
17.062,18.1463,7.92966,6.74894,2.38126,0.040326,5.60914,-2.7171,-0.0453661,-2.85357,-3.69878,-1.01726,-6.18092,-1.84645,-0.629968,7.6382,5.90765,14.9725,-29.7896,5.16747,-22.7519,-9.17782,3.33987,-11.606,2.25124e-14,7.95139e-15,-45.1881,16.5908,-52.7672,139.703,-0.588114,-18.4708,21.7562,7.12502,7.81593,-8.07929,2.25124e-14,7.95139e-15,-41.3525,-26.0341,34.4703,140.577,27.5209,-8.99711,11.3354,7.12502,16.9492,40.6159,-9.80126,-1.3409,19.4781,21.0443,-16.8328,6.22728,28.3258,-9.35443,-2.87818,-19.9284,17.8442,-13.7871,1.74511,-31.7255
17.0605,18.1526,7.9151,6.80454,2.49115,0.0221295,5.74248,-2.7075,-0.0504251,-2.95798,-3.68687,-0.981038,-6.36475,-1.83886,-0.581129,7.56627,5.80501,14.8819,-29.0378,5.09206,-22.6653,-8.9273,3.31012,-11.4563,-1.00883e-14,-6.75868e-15,-43.7875,13.6489,-50.386,140.023,-1.5916,-18.367,21.0082,7.12502,7.91617,-8.82362,-1.00883e-14,-6.75868e-15,-39.9765,-23.8949,32.4864,140.49,29.4087,-10.276,12.6671,7.12502,15.7179,42.0487,-9.86754,-1.36711,19.5138,20.9451,-16.6126,6.22601,29.0321,-9.55196,-3.02677,-19.9127,17.9611,-13.7365,1.85962,-31.9195
17.0554,18.1634,7.90055,7.10696,2.4973,-0.117329,5.74446,-2.66509,0.0753427,-3.2384,-3.62374,-0.975244,-6.66968,-1.81288,-0.644326,7.71072,5.70022,14.7912,-28.4993,5.07063,-22.3654,-8.79734,3.2885,-11.2653,9.0944e-15,-1.59028e-15,-43.088,11.1882,-48.5286,140.552,-1.30597,-19.3241,19.8523,7.12502,6.99226,-10.0122,9.0944e-15,-1.59028e-15,-38.9075,-22.2157,30.7515,140.36,31.3612,-11.2214,12.9533,7.12502,14.8072,42.4043,-10.2261,-1.00867,19.7189,20.8776,-16.4637,5.75324,28.76,-10.0423,-3.085,-19.7193,18.0711,-13.5216,1.8725,-31.4353
17.0503,18.177,7.89117,7.55164,2.48721,-0.301545,5.46749,-2.60297,0.293992,-3.49214,-3.52591,-0.993177,-6.7927,-1.77639,-0.802621,7.84187,5.63662,14.7615,-28.1029,5.09396,-22.1079,-8.69896,3.28508,-11.1209,2.51214e-14,-4.37326e-15,-42.8633,9.0448,-46.839,140.775,-0.806413,-19.839,20.3294,7.12502,6.49525,-9.55096,2.51214e-14,-4.37326e-15,-38.1467,-21.0334,29.4895,140.252,32.6601,-12.2007,12.6861,7.12502,13.8636,42.204,-10.795,-0.720283,19.9735,20.8446,-16.3324,5.21345,27.7921,-10.6483,-3.07758,-19.4556,18.1463,-13.1544,1.951,-32.452
17.0503,18.1969,7.88504,7.87295,2.51028,-0.210466,5.12637,-2.53186,0.256141,-3.52056,-3.43727,-1.06399,-6.62654,-1.73394,-0.88062,7.55406,5.57921,14.784,-27.5237,5.06695,-21.9999,-8.45589,3.25383,-10.9985,7.45443e-16,2.78299e-15,-42.8412,7.40905,-45.6231,140.958,0.0845925,-20.2264,20.9553,7.12502,6.12125,-8.9363,7.45443e-16,2.78299e-15,-37.5996,-20.3307,28.9387,140.192,32.8677,-12.832,12.3684,7.12502,13.2551,41.9269,-11.2744,-0.888135,19.8887,20.847,-15.8776,5.09667,27.6247,-11.0591,-3.20573,-19.5226,18.1632,-12.8088,2.05857,-33.9155
17.0526,18.226,7.88064,8.14863,2.67263,-0.269764,4.74676,-2.53035,0.334555,-3.44552,-3.42404,-1.01969,-6.33004,-1.73063,-0.899272,7.09082,5.5663,14.7,-26.9486,5.04861,-21.9499,-8.18085,3.23526,-10.871,7.95139e-15,5.56597e-15,-42.8064,6.49654,-45.1458,140.993,1.13006,-20.0143,21.3612,7.12502,6.32606,-8.5243,7.95139e-15,5.56597e-15,-37.5772,-20.2705,29.1747,140.261,32.0086,-13.2179,11.9481,7.12502,12.8831,41.5305,-11.6654,-1.19955,19.9662,20.9012,-15.291,5.14339,28.0582,-11.375,-3.3709,-19.4039,18.0839,-12.4843,1.70614,-32.0694
17.0511,18.2564,7.88307,8.50815,2.79386,-0.270795,4.26628,-2.53747,0.369785,-3.46471,-3.42934,-1.00879,-6.07578,-1.73573,-0.929042,6.76669,5.58163,14.5828,-26.3821,5.09198,-21.8593,-7.92901,3.2493,-10.7349,-7.20594e-15,1.19271e-14,-43.078,6.69753,-45.5633,141.2,1.97766,-19.3665,21.1511,7.12502,6.95139,-8.71473,-7.20594e-15,1.19271e-14,-38.1233,-21.128,30.0805,140.443,30.6087,-12.9809,11.5843,7.12502,13.1116,41.1521,-12.0845,-1.32207,19.9798,20.9799,-14.9141,5.06842,28.0177,-11.7088,-3.3387,-19.3504,17.9357,-12.076,1.40573,-30.6643
17.0525,18.2845,7.88646,8.88483,2.84298,-0.202821,3.77731,-2.51504,0.438027,-3.52099,-3.39892,-1.0925,-5.86339,-1.72682,-1.07807,6.33047,5.57329,14.6539,-25.6221,5.14236,-21.7633,-7.5863,3.24351,-10.609,1.08835e-14,1.39149e-14,-43.8023,8.03916,-46.8629,141.471,3.18535,-19.5178,20.6731,7.12502,6.80528,-9.19753,1.08835e-14,1.39149e-14,-39.0782,-22.8799,31.565,140.701,29.1984,-12.2336,11.4157,7.12502,13.8319,40.9358,-12.5008,-1.61098,19.9001,21.0359,-14.5083,5.21552,27.641,-12.0473,-3.14331,-19.41,17.7885,-11.6191,1.26241,-32.2696
17.0579,18.311,7.89066,9.16255,2.92554,-0.282345,3.3192,-2.49811,0.604239,-3.46768,-3.36415,-1.08078,-5.5532,-1.71647,-1.18408,5.75599,5.60274,14.6704,-24.9761,5.21146,-21.652,-7.25732,3.24378,-10.4742,-1.73937e-16,6.75868e-15,-44.7298,10.149,-48.7356,141.588,4.1162,-20.034,20.272,7.12502,6.30703,-9.61414,-1.73937e-16,6.75868e-15,-40.6006,-25.2488,33.857,140.945,27.8125,-11.5363,10.8679,7.12502,14.5038,40.341,-12.7861,-2.1299,19.9836,21.0142,-13.9813,5.5842,27.0216,-12.3346,-3.05716,-19.3154,17.726,-11.1486,1.14122,-34.2972
17.0601,18.3305,7.89387,9.33424,3.02813,-0.235419,2.98819,-2.50684,0.55527,-3.36621,-3.37585,-1.05423,-5.2532,-1.71937,-1.14637,5.23624,5.64146,14.6361,-24.4354,5.27012,-21.5932,-6.97717,3.24954,-10.3662,1.68222e-14,-7.55382e-15,-45.8847,12.6333,-50.8883,141.34,4.19555,-19.3445,20.7953,7.12502,6.97259,-9.06987,1.68222e-14,-7.55382e-15,-42.5887,-27.9978,36.8429,140.949,26.6969,-10.7813,10.0951,7.12502,15.2312,39.5145,-12.9256,-2.39521,19.9276,20.9071,-13.462,5.71616,26.6143,-12.579,-3.11244,-19.3401,17.7533,-10.8771,0.955921,-34.8727
17.0596,18.3432,7.89325,9.46591,3.13069,-0.40709,2.70037,-2.55183,0.776778,-3.28567,-3.42346,-1.04575,-5.019,-1.75079,-1.27298,4.97637,5.65485,14.7336,-23.9683,5.34272,-21.4914,-6.76667,3.25675,-10.2901,-4.2043e-14,-1.43125e-14,-47.3927,15.5883,-53.7714,140.951,4.56819,-19.1912,21.9481,7.12502,7.12062,-7.91211,-4.2043e-14,-1.43125e-14,-44.7332,-30.8688,39.9746,140.645,25.9418,-10.0177,9.83291,7.12502,15.9666,39.1949,-13.0823,-2.34224,20.0912,20.8154,-12.9724,5.81405,27.2608,-12.7987,-3.20171,-19.0933,17.7555,-10.6953,0.593749,-33.788
17.0559,18.3576,7.89377,9.50574,3.08152,-0.560343,2.50373,-2.57082,0.916462,-3.20644,-3.443,-1.07201,-4.83508,-1.76544,-1.38792,4.88175,5.66288,14.9176,-23.6425,5.42919,-21.3568,-6.62908,3.26749,-10.2405,-2.48978e-14,1.59028e-15,-48.8711,18.4655,-56.7684,140.475,4.64564,-18.3813,22.8533,7.12502,7.90235,-6.979,-2.48978e-14,1.59028e-15,-47.1551,-33.8135,43.2771,140.246,25.1316,-9.24224,9.62043,7.12502,16.7132,38.921,-13.2111,-2.0944,20.2151,20.8028,-12.6391,5.92204,28.6363,-12.8444,-3.16288,-18.8823,17.6893,-10.428,0.192792,-31.6852
17.048,18.3724,7.89406,9.53993,2.92828,-0.274846,2.28711,-2.49035,0.470442,-3.0345,-3.35637,-1.13395,-4.5067,-1.70656,-1.22401,4.66799,5.60776,14.987,-23.4696,5.35878,-21.3261,-6.54838,3.2164,-10.216,-6.70898e-15,2.38542e-15,-50.3875,21.1454,-59.5454,140.05,5.03232,-17.6435,22.8047,7.12502,8.61439,-6.99953,-6.70898e-15,2.38542e-15,-49.6659,-36.4508,46.8419,139.896,23.8515,-8.56578,9.51552,7.12502,17.3644,38.7599,-13.2619,-1.88417,19.862,20.787,-12.4481,5.9859,29.6748,-12.8766,-3.0884,-19.1686,17.6611,-10.2155,0.0117658,-30.0296
17.0384,18.3822,7.89475,9.63858,2.82757,-0.14407,1.96854,-2.35733,0.164713,-2.84797,-3.18726,-1.13264,-4.1098,-1.6116,-1.08188,4.48354,5.52588,14.8565,-23.3559,5.25671,-21.1124,-6.51666,3.15283,-10.0944,-2.43511e-15,1.15295e-14,-51.8581,23.2054,-61.7543,139.49,5.32624,-16.2686,23.427,7.12502,9.94101,-6.31822,-2.43511e-15,1.15295e-14,-51.7579,-38.538,49.9918,139.467,22.1751,-7.33093,9.26411,7.12502,18.5525,38.3994,-13.3676,-1.9553,19.7225,20.797,-12.3502,6.1313,29.1319,-12.9842,-3.13525,-19.2588,17.647,-10.1239,0.0327491,-29.2058
17.0313,18.3803,7.89402,9.60308,2.84811,-0.415659,1.87311,-2.29771,0.375236,-2.74203,-3.0961,-1.08729,-3.95241,-1.57129,-1.16441,4.30216,5.49252,14.8173,-22.9081,5.28852,-20.8041,-6.35569,3.13861,-9.92849,-2.00773e-14,-1.07344e-14,-53.1773,24.8465,-63.6687,138.945,5.90428,-14.9521,24.4897,7.12502,11.211,-5.19078,-2.00773e-14,-1.07344e-14,-53.3905,-40.2729,52.2025,139.037,20.4838,-4.89875,8.37854,7.12502,20.8907,37.2737,-13.3799,-2.1567,20.0651,20.8474,-12.3276,6.22151,28.1915,-12.9323,-3.13473,-18.9063,17.6451,-10.3072,-0.0410901,-28.8879
17.0291,18.3643,7.88335,9.38763,2.89287,-0.662622,1.97186,-2.31565,0.627942,-2.51657,-3.10814,-1.08108,-3.78822,-1.5829,-1.29946,4.00788,5.47953,14.9304,-22.447,5.33023,-20.6165,-6.15619,3.12231,-9.82964,-3.72721e-15,-1.98785e-14,-53.7422,26.1304,-64.8974,138.392,6.5146,-13.7534,25.5738,7.12502,12.3668,-4.04043,-3.72721e-15,-1.98785e-14,-54.2847,-41.2606,53.146,138.82,18.7254,-0.811563,7.5627,7.12502,24.8128,35.9729,-13.2336,-2.23994,20.3453,20.9215,-12.3679,6.33385,28.1809,-12.6956,-3.08532,-18.6081,17.6654,-10.7311,-0.161334,-29.7521
17.0298,18.3429,7.86233,9.23682,2.9024,-0.67773,1.99351,-2.33255,0.63896,-2.21176,-3.12869,-1.12569,-3.48862,-1.59149,-1.35693,3.94535,5.43788,14.9581,-22.3863,5.31543,-20.3835,-6.1414,3.0919,-9.7427,2.52953e-14,0,-53.4401,26.9074,-64.9898,138.043,7.10342,-12.7688,26.4699,7.12502,13.316,-3.08462,2.52953e-14,0,-54.168,-41.3622,52.8002,138.829,17.0412,0.0672098,6.91764,7.12502,25.6547,35.2091,-13.251,-2.22467,20.3218,21.0665,-12.6254,6.59493,28.4794,-12.538,-3.06742,-18.5791,17.6352,-11.2091,-0.176478,-30.5188
17.031,18.3194,7.83225,9.19628,2.94921,-0.413185,1.98747,-2.33661,0.363694,-1.98247,-3.14465,-1.24168,-3.24028,-1.59239,-1.32773,4.07067,5.37133,14.9123,-22.3035,5.2951,-20.0868,-6.16172,3.06745,-9.62768,8.84592e-15,-7.95139e-16,-52.5672,26.9027,-64.0355,137.925,7.92553,-12.1146,27.3036,7.12502,13.9465,-2.20868,8.84592e-15,-7.95139e-16,-52.9821,-40.9114,51.2764,138.999,16.0038,3.59641,6.49417,7.12502,29.0303,34.2527,-13.4034,-2.29066,19.9804,21.2627,-13.0702,6.90813,28.6699,-12.5565,-3.03836,-18.872,17.5638,-11.7634,-0.218939,-30.3771
17.0349,18.2989,7.7938,9.08247,2.89674,-0.20302,2.30103,-2.32648,0.15619,-1.91442,-3.14296,-1.3669,-3.34275,-1.58786,-1.32868,4.14452,5.35756,15.0164,-21.7734,5.39873,-19.8259,-6.00251,3.09289,-9.51753,-4.85532e-14,-1.03368e-14,-51.5384,26.4514,-62.6157,137.961,8.76556,-12.8804,27.6388,7.12502,13.2085,-1.92278,-4.85532e-14,-1.03368e-14,-51.2335,-39.9075,48.7614,139.352,16.2243,4.69611,6.55644,7.12502,30.0801,34.1292,-13.4202,-2.48183,19.7121,21.4155,-13.6025,7.16187,27.8306,-12.54,-3.14503,-19.1279,17.5246,-12.2954,-0.00425665,-30.249
17.0404,18.2726,7.75315,8.78657,2.72019,-0.503165,2.8429,-2.27075,0.416732,-1.81541,-3.05737,-1.30902,-3.55458,-1.55011,-1.39865,4.02241,5.38353,15.154,-21.0504,5.53067,-19.6973,-5.73513,3.13329,-9.43897,-2.41026e-14,-7.95139e-15,-49.9713,25.5274,-60.399,138.558,7.6479,-13.2823,27.321,7.12502,12.8211,-2.26525,-2.41026e-14,-7.95139e-15,-49.0883,-38.393,45.5963,139.81,17.5546,4.40089,7.06069,7.12502,29.7984,34.6843,-13.2631,-2.44454,19.9978,21.4859,-13.9921,7.48968,28.5034,-12.2941,-3.25237,-18.849,17.5204,-12.7863,0.586507,-30.8985
17.0417,18.2307,7.71589,8.34923,2.67734,-1.08663,3.3063,-2.22902,0.873381,-1.5322,-2.9706,-1.09311,-3.53257,-1.51276,-1.42444,3.82922,5.3627,15.1596,-20.4138,5.54966,-19.6454,-5.50496,3.13169,-9.36887,-5.06901e-15,-7.95139e-15,-47.855,24.0337,-57.5156,138.961,6.3229,-14.647,26.196,7.12502,11.5052,-3.46825,-5.06901e-15,-7.95139e-15,-46.297,-36.4763,41.9917,140.211,19.6351,2.39247,8.11502,7.12502,27.8799,36.0659,-12.9283,-2.13733,20.6083,21.4428,-14.1779,7.7605,31.01,-11.9319,-3.17619,-18.2651,17.568,-13.4907,1.08091,-32.1883
17.0403,18.1879,7.68435,7.92157,2.76039,-1.39701,3.72533,-2.24712,1.06648,-1.35785,-2.97787,-0.977803,-3.59271,-1.51806,-1.40002,4.05938,5.25863,15.1537,-19.8017,5.52188,-19.475,-5.37615,3.11543,-9.27853,2.09718e-14,-5.56597e-15,-45.8633,22.1469,-54.6023,139.449,4.24273,-16.2316,24.0087,7.12502,9.97677,-5.73484,2.09718e-14,-5.56597e-15,-43.5447,-34.1025,38.3012,140.466,22.3122,1.99037,8.29783,7.12502,27.4954,36.3105,-12.3946,-1.85338,20.9597,21.1527,-14.5718,7.55559,31.2959,-11.7033,-3.24847,-17.978,17.8324,-14.2432,1.66125,-33.4862
17.0381,18.1543,7.65497,7.61021,2.70838,-1.28265,4.15646,-2.23781,0.834143,-1.3702,-2.97736,-1.02644,-3.83937,-1.51358,-1.3024,4.4413,5.10945,15.2233,-19.0411,5.4821,-19.2425,-5.23355,3.08932,-9.17895,-1.4561e-14,7.95139e-16,-44.2879,19.9102,-51.8715,139.982,2.28817,-17.9265,22.0399,7.12502,8.3413,-7.77539,-1.4561e-14,7.95139e-16,-41.1873,-31.3509,34.8115,140.538,25.0849,-2.62817,9.49023,7.12502,23.0708,38.1292,-11.8359,-1.6531,20.8449,20.6972,-15.3447,7.18663,29.4094,-11.5967,-3.53952,-18.1767,18.2056,-14.5744,2.56763,-34.3666
17.0351,18.1288,7.62642,7.31535,2.62324,-1.3356,4.60497,-2.21058,0.731674,-1.38681,-2.94483,-1.00532,-4.10254,-1.49497,-1.20741,4.62152,4.96688,15.262,-18.0544,5.43974,-19.0265,-4.98806,3.05781,-9.05893,-3.35946e-14,4.77083e-15,-42.8027,17.1426,-49.2518,140.223,0.744197,-18.733,21.0207,7.12502,7.56284,-8.82412,-3.35946e-14,4.77083e-15,-39.1079,-28.3067,31.6844,140.477,27.7412,-6.01138,10.4699,7.12502,19.8214,39.4792,-11.3951,-1.6662,20.9652,20.3215,-16.3551,6.68445,26.7101,-11.4356,-3.65848,-18.184,18.4039,-14.6047,3.06321,-34.3742
17.0366,18.1093,7.60472,6.97881,2.67989,-1.47033,4.97034,-2.24479,0.79671,-1.34433,-2.98258,-0.95084,-4.26652,-1.5144,-1.17046,4.73558,4.82846,15.0293,-17.001,5.39289,-18.6387,-4.73042,3.02674,-8.82847,1.27719e-14,6.36111e-15,-41.4626,14.2063,-47.0228,140.219,-0.390779,-19.0374,20.4933,7.12502,7.26903,-9.36184,1.27719e-14,6.36111e-15,-37.3379,-25.153,29.0859,140.259,30.3068,-8.61501,11.6147,7.12502,17.317,40.8633,-10.9661,-1.88329,21.1952,20.0792,-17.2433,6.01079,24.1354,-11.1511,-3.59092,-18.0937,18.4236,-14.5413,3.13755,-34.5044
17.0369,18.0989,7.59249,6.78146,2.71153,-0.951013,5.07895,-2.25774,0.221789,-1.2749,-3.04194,-1.07373,-4.23388,-1.53017,-0.968123,4.4561,4.72164,14.5496,-15.7719,5.36648,-17.9557,-4.36997,2.98488,-8.43453,-1.05853e-14,8.74653e-15,-40.5389,11.4111,-45.4227,140.265,-0.523404,-19.2762,20.0764,7.12502,7.03852,-9.78654,-1.05853e-14,8.74653e-15,-35.8357,-22.1447,27.1868,139.881,32.4914,-10.1883,12.609,7.12502,15.8023,41.984,-10.6117,-1.84041,20.6595,19.9141,-17.7677,5.42704,23.2769,-10.9383,-3.59251,-18.7011,18.4044,-14.4928,3.08038,-34.1665
17.0292,18.1025,7.58014,6.76232,2.70082,-0.147905,5.15778,-2.21032,-0.716392,-1.31508,-3.05067,-1.27127,-4.2821,-1.51273,-0.6433,3.70973,4.59029,14.1419,-14.0516,5.31054,-17.163,-3.79196,2.89979,-7.98812,-5.91384e-15,1.59028e-15,-40.2495,9.07915,-44.4245,140.333,0.498136,-19.2346,19.9454,7.12502,7.07869,-9.91625,-5.91384e-15,1.59028e-15,-34.8764,-19.7623,26.0597,139.501,33.8088,-11.1636,12.8118,7.12502,14.8629,42.2587,-10.5102,-1.43344,19.8232,19.944,-17.9535,4.84523,24.4624,-10.879,-3.36518,-19.5612,18.2446,-14.5732,2.51686,-32.5319
17.0198,18.1092,7.56237,6.83721,2.8038,0.237651,5.37082,-2.19554,-1.11961,-1.5661,-3.07532,-1.4353,-4.65229,-1.51416,-0.570935,2.83993,4.36601,13.9324,-11.7211,5.16807,-16.4201,-3.02356,2.762,-7.58448,2.46493e-14,1.03368e-14,-40.6825,7.88393,-44.173,140.167,2.30773,-19.6166,20.6503,7.12502,6.70995,-9.22334,2.46493e-14,1.03368e-14,-34.583,-18.4348,25.4963,139.272,34.1592,-11.8595,12.659,7.12502,14.1924,42.1542,-10.682,-1.08609,19.4735,20.184,-17.9696,4.42956,26.1251,-10.9051,-2.85494,-19.9346,17.8916,-14.4934,1.72031,-32.0224
17.0124,18.1175,7.55363,7.08397,2.98216,0.380313,5.26565,-2.2391,-1.15562,-1.82374,-3.14643,-1.57141,-4.86773,-1.54934,-0.683483,1.78373,4.15032,13.6173,-9.17275,5.01934,-15.6045,-2.17032,2.61985,-7.15217,4.83544e-14,2.54444e-14,-41.4796,8.04125,-44.97,140.272,4.317,-20.7706,20.5622,7.12502,5.59587,-9.34393,4.83544e-14,2.54444e-14,-34.74,-18,25.583,139.19,33.6316,-12.2252,12.8563,7.12502,13.84,42.3759,-11.0561,-0.933548,19.3866,20.375,-17.8389,4.1551,27.1687,-11.1356,-2.49096,-20.0207,17.6316,-14.3659,0.910689,-32.0639
17.0096,18.1355,7.5593,7.46261,3.12902,0.487845,4.75837,-2.30728,-1.1171,-1.98781,-3.23299,-1.68823,-4.76066,-1.59675,-0.835573,0.600036,3.93937,13.268,-6.76387,4.8338,-14.7917,-1.3427,2.4629,-6.74206,1.67476e-14,1.51076e-14,-42.3095,9.16569,-46.5642,140.263,6.22177,-21.8783,20.3264,7.12502,4.52631,-9.60529,1.67476e-14,1.51076e-14,-35.2345,-18.4502,26.4062,139.16,32.5364,-12.5235,13.4221,7.12502,13.5525,42.961,-11.4882,-0.992433,19.2845,20.3997,-17.5754,4.15428,28.2016,-11.5576,-2.37833,-20.0665,17.6203,-14.3704,0.315713,-31.7192
17.0127,18.1479,7.56792,7.75764,3.25546,0.336702,4.16817,-2.37957,-0.748594,-2.07651,-3.29957,-1.7632,-4.5442,-1.64429,-1.13626,-0.691772,3.68,13.0674,-4.23062,4.56447,-14.0658,-0.464391,2.26668,-6.40517,-3.54334e-14,7.15625e-15,-43.1751,10.941,-48.6546,140.025,6.65099,-21.4636,20.7158,7.12502,4.92674,-9.20695,-3.54334e-14,7.15625e-15,-36.0602,-19.7687,27.8054,139.126,31.166,-11.9993,13.4684,7.12502,14.0577,42.9729,-11.8413,-1.18567,19.4298,20.3492,-17.4871,4.26958,27.5826,-11.9363,-2.41873,-19.8586,17.7176,-14.3327,0.117539,-31.363
17.0187,18.155,7.57339,8.01019,3.40584,-0.0535672,3.62289,-2.4614,-0.114438,-2.14942,-3.36667,-1.77595,-4.34975,-1.69827,-1.52015,-2.02194,3.36213,12.7794,-1.61213,4.20066,-13.2863,0.433417,2.03235,-6.06114,2.08724e-15,-1.19271e-14,-44.2363,13.0463,-50.8641,139.47,5.93362,-19.3697,22.2414,7.12502,6.94824,-7.62452,2.08724e-15,-1.19271e-14,-37.3452,-21.9231,29.8649,139.069,29.5925,-10.9258,12.7123,7.12502,15.092,42.1421,-12.1501,-1.40108,19.8544,20.2912,-17.4881,4.2955,26.3079,-12.3096,-2.64498,-19.3874,17.8478,-14.1954,0.0435234,-30.288
17.0274,18.1625,7.57942,8.26794,3.52803,-0.171019,3.10367,-2.54124,0.246333,-2.16791,-3.45381,-1.86686,-4.10499,-1.7542,-1.83199,-3.34944,2.9594,12.4677,0.760434,3.68627,-12.5341,1.24908,1.73431,-5.7518,1.49585e-14,-3.97569e-15,-45.6269,15.7931,-53.7092,139.156,6.65733,-18.8444,22.3582,7.12502,7.45538,-7.49039,1.49585e-14,-3.97569e-15,-39.0028,-24.6419,32.5207,138.888,28.2627,-10.2955,11.8702,7.12502,15.6991,41.2534,-12.4163,-1.77583,19.9703,20.2013,-17.3901,4.53366,25.7408,-12.6799,-3.00335,-19.2318,18.048,-14.1652,0.158813,-29.5781
17.038,18.1605,7.58788,8.36086,3.55822,-0.0485743,2.57572,-2.58211,0.32942,-1.9619,-3.50149,-2.01124,-3.60909,-1.78043,-2.05383,-4.71525,2.50658,12.2549,2.75704,3.05788,-11.9472,1.96303,1.38716,-5.5367,3.62285e-14,8.74653e-15,-46.6194,18.3162,-56.5518,138.59,7.31828,-18.5947,22.6778,7.12502,7.69636,-7.16213,3.62285e-14,8.74653e-15,-40.7983,-27.4178,35.492,138.598,27.3564,-9.48735,11.1836,7.12502,16.4773,40.5039,-12.4796,-2.25164,19.8041,20.1068,-17.3003,4.93244,24.8284,-12.8268,-3.24626,-19.3945,18.2443,-14.2106,0.394428,-29.052
17.0474,18.1584,7.59697,8.29344,3.49975,-0.256546,2.19345,-2.59763,0.607444,-1.71851,-3.50336,-1.9684,-3.15599,-1.78429,-2.18917,-5.76477,2.02308,11.932,4.38101,2.39737,-11.4272,2.52074,1.03845,-5.34397,-2.40529e-14,-1.27222e-14,-47.5183,20.745,-59.084,137.967,7.63401,-18.2742,23.113,7.12502,8.0057,-6.71543,-2.40529e-14,-1.27222e-14,-42.8815,-30.2406,38.7529,138.285,26.4916,-8.2199,10.5506,7.12502,17.6972,39.7653,-12.3425,-2.63431,19.9915,20.0077,-17.1617,5.38496,24.4332,-12.7814,-3.38483,-19.2182,18.3799,-14.2346,0.705988,-28.1992
17.0539,18.1612,7.59834,8.31239,3.37055,-0.630637,1.88285,-2.59466,0.916264,-1.54231,-3.48094,-1.79239,-2.80562,-1.77443,-2.20121,-6.64275,1.51578,11.4414,5.78033,1.71476,-10.8559,2.98863,0.687437,-5.11921,4.45278e-14,2.38542e-14,-48.2919,22.8289,-60.9599,137.407,8.03374,-17.0463,24.1582,7.12502,9.19063,-5.62152,4.45278e-14,2.38542e-14,-45.0025,-32.9405,42.1894,137.849,25.2375,-7.28693,9.83155,7.12502,18.5948,38.9628,-12.3094,-2.82791,20.3712,19.8226,-17.1173,5.69636,23.7925,-12.8528,-3.54702,-18.8379,18.5202,-14.4526,1.2339,-28.2449
17.0607,18.1575,7.59476,8.3478,3.19781,-0.847095,1.51991,-2.5668,1.12872,-1.27028,-3.43378,-1.7446,-2.32879,-1.74892,-2.29759,-7.63904,0.974887,11.1686,7.11907,0.949566,-10.3464,3.46127,0.300522,-4.96436,-5.01931e-14,0,-48.6583,24.247,-62.2852,136.955,8.73425,-15.5547,25.6847,7.12502,10.6298,-4.02647,-5.01931e-14,0,-46.7146,-35.2169,45.1203,137.384,23.5889,-6.29802,8.91421,7.12502,19.5458,37.9517,-12.3168,-2.9214,20.5896,19.597,-17.141,5.99309,23.6066,-12.936,-3.63555,-18.637,18.6317,-14.7057,1.92281,-29.5626
17.0722,18.1425,7.60293,8.11284,3.01054,-0.790295,1.21697,-2.55067,1.14572,-0.854685,-3.41004,-1.87146,-1.73919,-1.73012,-2.46419,-8.49576,0.387794,11.1012,8.34321,0.0952594,-9.82757,3.87641,-0.113475,-4.85408,1.09332e-15,1.27222e-14,-48.6258,25.0721,-63.0938,136.672,9.56525,-14.8088,26.9584,7.12502,11.3491,-2.71454,1.09332e-15,1.27222e-14,-48.1245,-36.9204,47.2539,137.182,21.9747,-4.21927,8.39401,7.12502,21.5434,37.2158,-11.921,-3.2605,20.4616,19.4015,-17.0019,6.77192,25.4471,-12.6211,-3.42633,-18.8028,18.6915,-15.0042,2.21765,-30.6491
17.0844,18.1265,7.61217,7.81148,2.86619,-0.529079,0.921725,-2.5574,0.875741,-0.38887,-3.41879,-1.99616,-1.0879,-1.7233,-2.46861,-9.15031,-0.189733,10.9716,9.28087,-0.755008,-9.20023,4.18089,-0.510804,-4.70079,1.2921e-14,7.95139e-16,-48.1788,25.2846,-63.1778,136.588,10.3867,-14.3733,27.7214,7.12502,11.7692,-1.92791,1.2921e-14,7.95139e-16,-49.1014,-38.1563,48.7899,137.166,20.334,-1.88864,8.40177,7.12502,23.7802,36.9502,-11.3771,-3.95408,20.0756,19.2475,-16.7339,7.99082,28.6879,-12.179,-2.92652,-19.2033,18.7344,-15.4639,1.82475,-30.5713
17.0931,18.1168,7.60714,7.64244,2.85115,-0.46371,0.776869,-2.60311,0.800808,-0.088142,-3.47633,-2.04231,-0.699793,-1.74628,-2.48885,-9.67735,-0.748913,10.9316,10.1481,-1.58326,-8.66817,4.45195,-0.890575,-4.59442,-1.65985e-14,-5.56597e-15,-47.6309,24.8936,-62.6921,136.767,10.8338,-13.7787,27.8705,7.12502,12.3424,-1.74519,-1.65985e-14,-5.56597e-15,-49.7425,-38.8622,49.5823,137.33,18.5003,0.375035,8.15774,7.12502,25.9495,36.4064,-11.1045,-4.71937,19.9461,19.1901,-16.7895,8.98796,30.5359,-11.9418,-2.4109,-19.3336,18.6985,-15.5852,1.23228,-30.2634
17.0964,18.105,7.59006,7.57162,2.85863,-0.376164,0.897436,-2.66142,0.677152,-0.0124604,-3.5549,-2.1025,-0.689963,-1.78453,-2.47622,-9.7546,-1.38519,10.797,10.8494,-2.47529,-8.09527,4.59893,-1.29142,-4.45635,-7.07673e-14,-7.15625e-15,-47.0223,24.0411,-61.7033,137.123,10.7149,-14.149,27.8967,7.12502,11.9854,-1.74012,-7.07673e-14,-7.15625e-15,-49.9741,-38.7018,49.3759,137.74,16.8767,3.2666,7.72018,7.12502,28.7153,35.5325,-11.1378,-5.12909,19.8418,19.3293,-17.0045,9.53503,31.6867,-11.8415,-1.75383,-19.464,18.4994,-15.5142,0.588754,-31.0832
17.0967,18.0982,7.56479,7.61174,2.90481,-0.0116327,0.997288,-2.74915,0.215903,0.0289541,-3.67724,-2.19947,-0.686728,-1.8438,-2.31208,-9.46853,-2.0854,10.3575,11.2135,-3.41586,-7.28645,4.59512,-1.71061,-4.18211,6.85807e-15,-2.38542e-15,-46.0152,22.7681,-60.2841,137.556,10.0111,-15.7196,27.6948,7.12502,10.4707,-2.0244,6.85807e-15,-2.38542e-15,-49.274,-38.0821,48.1052,138.225,16.1898,5.55449,7.69289,7.12502,30.8987,35.1136,-11.3389,-5.33856,19.4472,19.5392,-17.0592,9.78796,32.4113,-11.8867,-0.992051,-19.8933,18.208,-15.4636,-0.334466,-31.5695
17.1038,18.1015,7.52795,7.70779,3.09623,0.491612,1.15003,-2.91634,-0.284347,0.0192727,-3.90908,-2.31502,-0.766642,-1.95831,-2.13852,-9.20082,-2.77926,9.86131,11.7409,-4.34318,-6.48899,4.6594,-2.12369,-3.90577,4.24405e-14,-1.03368e-14,-44.7956,21.1394,-58.734,138.075,8.55807,-17.4381,26.2842,7.12502,8.81257,-3.51176,4.24405e-14,-1.03368e-14,-48.101,-36.9687,46.1807,138.687,16.4949,6.47798,7.71443,7.12502,31.7787,34.9645,-11.5299,-5.94742,18.8868,19.6389,-17.256,10.0133,31.0367,-12.0333,-0.495146,-20.4862,17.9218,-15.2075,-1.2734,-30.4274
17.1065,18.0996,7.5041,7.31144,3.20236,0.783707,1.70434,-3.03511,-0.671543,0.104277,-4.08217,-2.38987,-0.974401,-2.04298,-1.96692,-8.91774,-3.4247,9.57769,12.5011,-5.21573,-5.88356,4.79855,-2.50751,-3.7274,1.11319e-14,-1.27222e-14,-43.5974,18.9453,-57.0279,138.562,6.64429,-18.7075,24.4793,7.12502,7.58749,-5.36456,1.11319e-14,-1.27222e-14,-46.9355,-35.0578,44.0938,139.151,17.8353,6.33044,7.56175,7.12502,31.6381,34.8396,-11.1331,-6.18672,18.5107,19.6809,-17.5707,10.0538,30.1951,-11.5208,-0.461824,-20.8114,17.6152,-15.008,-1.46833,-30.1289
17.0938,18.0907,7.51025,6.26819,3.19094,0.53623,2.53585,-3.07429,-0.712096,0.433685,-4.14386,-2.39679,-1.10131,-2.07206,-1.91234,-8.85998,-4.00637,9.47451,13.572,-6.05304,-5.32344,5.07706,-2.86085,-3.60702,6.86801e-14,3.97569e-15,-42.4868,16.048,-55.2602,138.885,4.68021,-19.7621,23.645,7.12502,6.56949,-6.2331,6.86801e-14,3.97569e-15,-45.8167,-33.0429,41.9673,139.808,20.6166,2.42007,10.2053,7.12502,27.9063,38.1519,-9.96103,-5.60535,18.7161,19.6789,-17.882,9.59077,30.4168,-10.2089,-0.571042,-20.4744,17.3409,-15.1054,-1.24673,-30.9411
17.0851,18.0859,7.50836,5.49026,3.20478,0.276041,3.10807,-3.10292,-0.617949,0.721135,-4.18382,-2.43868,-1.13739,-2.09117,-1.98232,-9.1586,-4.62256,9.10563,15.0083,-6.97944,-4.56663,5.54985,-3.24323,-3.41499,2.5842e-14,5.56597e-15,-41.6672,12.8522,-53.6798,139.172,2.95978,-20.3944,22.8739,7.12502,5.95906,-7.02228,2.5842e-14,5.56597e-15,-43.2973,-29.5457,37.8807,139.29,21.4637,3.69511,7.77716,7.12502,29.1246,35.5194,-9.01589,-5.1835,18.9639,19.4903,-17.8379,9.23648,30.5301,-9.37756,-0.5157,-20.1475,17.3053,-15.2705,-1.22794,-31.5687
17.0832,18.0864,7.49153,5.14756,3.27044,0.225959,3.41457,-3.10868,-0.644583,0.842655,-4.19518,-2.43938,-1.18246,-2.09611,-1.95398,-9.38379,-5.24721,8.50658,16.4448,-7.87443,-3.94756,6.03005,-3.62505,-3.23369,2.06736e-14,-6.36111e-15,-41.133,9.89132,-52.2035,139.519,1.77987,-20.123,21.6992,7.12502,6.22106,-8.18946,2.06736e-14,-6.36111e-15,-41.8273,-27.1956,35.6021,139.643,24.0977,-0.625958,9.17242,7.12502,24.9907,37.558,-8.52477,-4.95303,18.9937,19.1642,-17.4343,8.99335,30.5066,-9.20383,-0.590826,-20.0849,17.5254,-15.3058,-1.23377,-31.514
17.0799,18.0893,7.47565,5.0441,3.37563,-0.0483188,3.5593,-3.12492,-0.484265,0.789424,-4.21298,-2.28133,-1.31809,-2.10545,-1.86989,-9.48238,-5.76861,7.96416,17.919,-8.58216,-3.68075,6.5068,-3.93634,-3.16425,-2.44505e-14,9.54166e-15,-40.7497,7.45277,-50.8806,139.801,1.29623,-19.9761,20.9547,7.12502,6.36293,-8.92976,-2.44505e-14,9.54166e-15,-40.6439,-24.7006,33.6879,139.688,26.226,-4.38999,10.3184,7.12502,21.3794,39.1589,-8.3736,-4.79651,19.3181,18.9607,-17.2026,8.62312,29.6298,-9.31191,-0.739418,-19.7661,17.7915,-15.3281,-1.24187,-31.0693
17.0773,18.0929,7.46335,5.27711,3.4419,-0.382204,3.33153,-3.16222,-0.199342,0.629124,-4.25092,-2.14506,-1.3668,-2.1263,-1.89456,-9.67564,-6.23184,7.6031,19.4191,-9.22819,-3.58408,7.00632,-4.21814,-3.18455,-7.55382e-15,7.95139e-15,-40.6039,5.73421,-50.1218,139.929,1.79231,-20.4474,20.9126,7.12502,5.90792,-8.98505,-7.55382e-15,7.95139e-15,-39.6135,-22.1492,31.8462,139.494,28.0886,-7.07266,11.1222,7.12502,18.8009,40.2336,-8.68985,-4.79187,19.7338,18.8575,-17.0074,8.45415,28.8579,-9.78361,-0.949586,-19.387,18.0572,-15.3194,-1.03122,-31.2064
17.0753,18.0973,7.45682,5.63624,3.432,-0.434349,2.89297,-3.18735,-0.179484,0.475966,-4.28046,-2.08428,-1.27656,-2.14181,-1.86294,-9.79543,-6.67233,7.29146,20.7243,-9.8258,-3.59407,7.43285,-4.48762,-3.23869,-6.04305e-14,-7.95139e-15,-40.728,4.97424,-49.8536,139.957,3.13112,-21.0588,21.1506,7.12502,5.31754,-8.76265,-6.04305e-14,-7.95139e-15,-38.8419,-19.7444,30.4454,139.268,29.8694,-9.03136,12.1632,7.12502,16.9162,41.4465,-9.16086,-4.4431,19.8249,18.8206,-16.6897,8.19561,29.3621,-10.3379,-1.28593,-19.3311,18.3081,-15.1956,-0.604274,-31.2785
17.0753,18.1088,7.45198,6.03564,3.3872,-0.459783,2.3313,-3.21603,-0.166419,0.405944,-4.31168,-2.01195,-1.03069,-2.15742,-1.82673,-9.87271,-7.03294,6.94089,21.7019,-10.3072,-3.55423,7.7626,-4.70894,-3.25171,-6.84813e-14,2.38542e-15,-40.8177,5.17828,-50.1057,139.855,4.60711,-21.3231,21.3633,7.12502,5.06236,-8.55627,-6.84813e-14,2.38542e-15,-38.3944,-17.6049,29.4061,139.115,31.4631,-10.3449,13.1071,7.12502,15.6515,42.4939,-9.74778,-3.95297,19.8711,19.0036,-16.5512,7.8651,30.0269,-10.8193,-1.69096,-19.3035,18.3736,-15.0368,-0.260717,-30.5069
17.0803,18.1194,7.44818,6.42606,3.32574,-0.461793,1.77895,-3.27239,-0.0776632,0.410405,-4.37824,-2.01091,-0.725941,-2.19048,-1.90731,-10.2557,-7.28727,6.85083,22.5929,-10.6787,-3.67177,8.10537,-4.87387,-3.36288,-1.32192e-14,1.43125e-14,-40.834,6.2435,-51.0723,139.711,5.23291,-20.597,21.6226,7.12502,5.76343,-8.27902,-1.32192e-14,1.43125e-14,-38.101,-16.054,28.5238,138.994,32.378,-10.7852,13.2471,7.12502,15.2274,42.6667,-10.4179,-3.98493,19.8821,19.3071,-16.5719,7.82354,29.037,-11.1855,-2.1691,-19.3133,18.2696,-14.8471,0.218341,-30.0589
17.0876,18.1279,7.44758,6.77988,3.24011,-0.137855,1.31185,-3.35579,-0.30178,0.415987,-4.48713,-2.10103,-0.452765,-2.24402,-1.90268,-10.8409,-7.50947,6.92893,23.4955,-10.9969,-4.04402,8.46767,-5.02437,-3.59422,-1.21656e-13,-1.90833e-14,-41.1714,8.26385,-52.5978,139.715,5.3434,-19.5672,21.6603,7.12502,6.75764,-8.21182,-1.21656e-13,-1.90833e-14,-38.1726,-15.4377,28.2776,138.946,32.1749,-10.7685,12.8633,7.12502,15.2435,42.2817,-10.9637,-4.17673,19.5221,19.5459,-16.8004,7.76813,27.1109,-11.4658,-2.53069,-19.704,18.1511,-14.521,0.722216,-29.9377
17.0937,18.1381,7.45257,7.10561,3.13339,0.0105083,0.84003,-3.42376,-0.346581,0.384111,-4.57193,-2.13249,-0.223368,-2.28614,-1.93833,-11.1447,-7.74384,6.99578,24.053,-11.3024,-4.3827,8.66598,-5.17991,-3.78395,3.50855e-14,1.82882e-14,-42.0073,10.9716,-54.4557,139.575,5.97474,-19.5155,21.8438,7.12502,6.80755,-8.02678,3.50855e-14,1.82882e-14,-38.667,-15.9428,28.7754,138.981,31.0624,-10.2445,12.4964,7.12502,15.7482,41.8757,-11.3955,-3.96225,19.3487,19.7252,-17.022,7.55589,26.7409,-11.7256,-2.75768,-19.8901,18.0473,-14.3671,1.06134,-29.8132
17.0981,18.1466,7.45948,7.37428,2.95455,-0.201457,0.458627,-3.41212,-0.0246622,0.281406,-4.55179,-2.06917,-0.134559,-2.27648,-2.07332,-11.0235,-7.99268,6.98524,24.1858,-11.6066,-4.53668,8.65875,-5.33879,-3.85637,-2.74323e-14,4.77083e-15,-43.1677,13.8498,-56.4844,139.093,6.61513,-19.807,22.6587,7.12502,6.52609,-7.22072,-2.74323e-14,4.77083e-15,-39.4333,-17.541,29.8306,139.073,29.8054,-9.32739,11.9648,7.12502,16.6313,41.2722,-11.7437,-3.4798,19.5843,19.7792,-16.8706,7.2651,27.3279,-11.9966,-2.86805,-19.6674,18.047,-14.4223,1.39763,-30.4233
17.1019,18.1507,7.46364,7.58219,2.72277,-0.35487,0.215355,-3.37211,0.199106,0.180833,-4.49742,-2.01802,-0.112658,-2.2499,-2.15756,-10.795,-8.28361,6.91099,24.0771,-11.9805,-4.51918,8.56197,-5.52624,-3.84904,-1.41137e-14,1.11319e-14,-44.4055,16.783,-58.6852,138.472,6.95606,-19.4484,23.2365,7.12502,6.87228,-6.632,-1.41137e-14,1.11319e-14,-40.5436,-19.9088,31.4043,139.214,28.8176,-8.50312,11.2039,7.12502,17.4247,40.4429,-11.9105,-3.07063,19.7465,19.6313,-16.4264,7.21802,28.7901,-12.2856,-2.814,-19.5186,18.2281,-14.4163,1.58036,-30.4245
17.1061,18.1431,7.46623,7.66796,2.51442,-0.53624,-0.00790523,-3.37974,0.397879,0.251886,-4.50489,-1.95304,0.0746321,-2.25206,-2.21888,-10.7083,-8.56129,6.90669,23.733,-12.3755,-4.39985,8.41414,-5.71417,-3.81628,3.69739e-14,7.95139e-15,-45.3321,19.6051,-60.7333,137.867,7.21759,-18.8623,23.7564,7.12502,7.43809,-6.09287,3.69739e-14,7.95139e-15,-42.0503,-22.6967,33.5114,139.36,27.9872,-7.85692,10.4452,7.12502,18.0465,39.6279,-11.9155,-2.92396,19.9397,19.4332,-16.1497,7.38999,30.1148,-12.4472,-2.63854,-19.3445,18.4465,-14.5268,1.56472,-29.6289
17.1081,18.1307,7.46814,7.54503,2.29293,-0.699607,-0.0855089,-3.39895,0.520851,0.447785,-4.52765,-1.88334,0.313922,-2.26026,-2.22888,-10.6842,-8.77828,7.01737,23.2778,-12.691,-4.34913,8.23293,-5.8665,-3.81389,-1.73937e-14,-1.59028e-15,-45.9985,22.078,-62.3983,137.322,7.48173,-18.2353,24.6015,7.12502,8.04325,-5.22544,-1.73937e-14,-1.59028e-15,-43.7192,-25.7766,35.9888,139.408,27.387,-7.11631,9.79531,7.12502,18.759,38.9108,-11.7954,-2.77079,20.1229,19.4049,-16.2504,7.35768,29.9719,-12.3073,-2.40642,-19.1856,18.4808,-14.7603,1.55518,-29.7867
17.111,18.123,7.46744,7.33014,2.06946,-0.704018,0.175361,-3.42246,0.488767,0.509274,-4.55921,-1.84365,0.235416,-2.27625,-2.15554,-10.7309,-8.931,7.25914,23.1677,-12.8882,-4.61964,8.15314,-5.97444,-3.94652,1.92821e-14,7.95139e-15,-46.6655,24.2368,-63.717,136.701,7.91641,-17.2962,25.3583,7.12502,8.94956,-4.43191,1.92821e-14,7.95139e-15,-45.5772,-29.0968,38.7435,139.354,26.905,-6.17283,9.50182,7.12502,19.6662,38.5271,-11.6656,-2.59165,20.105,19.6264,-16.4353,7.40119,30.1834,-11.9407,-2.06084,-19.2194,18.2463,-14.8917,1.53031,-31.1227
17.1244,18.1228,7.45995,7.25364,1.94689,-0.253028,0.392687,-3.50197,0.105456,0.534039,-4.6661,-1.91593,0.159391,-2.33082,-2.00283,-10.8184,-9.05364,7.52183,23.1496,-13.0254,-5.01791,8.1022,-6.06242,-4.1253,-5.88403e-14,0,-46.9206,26.1076,-64.4775,136.063,8.40017,-16.3054,25.982,7.12502,9.90554,-3.76494,-5.88403e-14,0,-47.5658,-32.0859,41.6253,139.255,25.9272,-5.35915,9.50523,7.12502,20.4483,38.4485,-11.6927,-3.10469,19.5399,19.956,-16.688,8.01761,30.8386,-11.6319,-1.63762,-19.8117,17.8703,-14.8707,1.27518,-32.0872
17.142,18.1219,7.45038,7.20258,1.89587,0.55926,0.497851,-3.61608,-0.620276,0.637463,-4.81821,-2.07271,0.247378,-2.40778,-1.75794,-10.6852,-9.22907,7.61137,22.8367,-13.2148,-5.22933,7.93575,-6.18082,-4.19091,-9.64106e-15,-5.56597e-15,-46.6789,27.6389,-64.5825,135.61,8.75478,-15.5915,26.1073,7.12502,10.5942,-3.60567,-9.64106e-15,-5.56597e-15,-49.4219,-34.4405,44.1748,139.144,24.1742,-4.21274,9.19811,7.12502,21.5497,38.0192,-11.7606,-4.03885,18.5494,20.3088,-17.0209,8.91015,31.2313,-11.3166,-1.36005,-20.8165,17.4467,-14.6245,0.870892,-31.6953
17.1496,18.1085,7.44638,7.01044,1.78973,0.80944,0.711835,-3.65485,-0.960338,0.713325,-4.8731,-1.98602,0.239917,-2.43604,-1.46987,-10.3967,-9.45121,7.46895,22.4973,-13.4319,-5.35,7.75492,-6.32229,-4.18281,5.46658e-15,-1.19271e-14,-46.2281,28.6825,-64.0267,135.264,8.91447,-15.2051,25.862,7.12502,10.9669,-3.83153,5.46658e-15,-1.19271e-14,-51.1924,-36.5111,46.5825,139.113,22.5033,-3.00318,8.56467,7.12502,22.7109,37.2481,-11.7559,-4.34624,18.218,20.6127,-17.2849,9.30967,30.74,-10.9001,-1.14501,-21.1356,17.0443,-14.2823,0.597837,-30.853
17.1518,18.0948,7.44033,6.7412,1.61731,0.831384,0.9426,-3.62893,-1.09122,0.821693,-4.84158,-1.85595,0.244606,-2.42069,-1.25386,-10.1701,-9.64007,7.32066,22.2522,-13.6273,-5.40062,7.6256,-6.44197,-4.15947,1.91827e-14,-1.19271e-14,-45.5163,29.1408,-63.0842,134.966,8.71596,-15.424,25.8664,7.12502,10.7558,-3.83824,1.91827e-14,-1.19271e-14,-53.3939,-38.9878,49.6424,139.489,23.2054,-5.37208,8.35438,7.12502,20.4359,37.299,-11.5749,-4.33628,18.1631,20.647,-17.3676,9.45391,29.9786,-10.5723,-0.845515,-21.1799,16.9126,-14.2862,0.443275,-30.8092
17.1534,18.0901,7.4319,6.24373,1.44517,0.773845,1.41203,-3.63867,-1.0259,0.993562,-4.8604,-1.85957,0.152397,-2.42959,-1.26754,-9.98842,-9.73084,7.39548,22.1425,-13.7424,-5.42948,7.54157,-6.49936,-4.16743,-2.21645e-14,1.03368e-14,-44.5453,29.1885,-62.0954,134.82,8.22479,-16.0426,25.9101,7.12502,10.159,-3.82461,-2.21645e-14,1.03368e-14,-52.0794,-38.9215,47.9138,139.09,19.7136,3.00194,7.27138,7.12502,28.4624,35.1263,-10.9038,-4.14999,18.1741,20.3694,-17.3155,9.4895,30.0947,-10.1506,-0.76381,-21.1206,17.1145,-14.4857,0.479652,-30.9626
17.1565,18.0865,7.42864,5.57652,1.32921,0.165546,1.99887,-3.68917,-0.350067,1.22216,-4.92447,-1.76693,0.00925124,-2.45881,-1.51279,-9.87167,-9.79402,7.57568,22.164,-13.824,-5.57014,7.49733,-6.53976,-4.23497,1.05356e-14,3.4191e-14,-43.2937,28.8292,-60.7611,134.812,7.5388,-16.6943,25.4328,7.12502,9.5303,-4.33172,1.05356e-14,3.4191e-14,-51.4872,-39.1994,46.9241,139.145,19.1044,5.73193,6.98381,7.12502,31.0678,34.3723,-9.98654,-3.75468,18.7879,20.0141,-17.2865,9.32377,30.2004,-9.55683,-0.889415,-20.4391,17.3845,-14.6185,0.724947,-30.7199
17.1654,18.0855,7.4215,5.16746,1.2761,-0.137586,2.28739,-3.76542,0.100745,1.42741,-5.01813,-1.7529,0.019074,-2.50293,-1.73309,-9.7321,-9.91142,7.63603,22.1569,-13.9748,-5.61994,7.45117,-6.61392,-4.25747,3.15074e-14,2.14687e-14,-41.8311,28.1176,-58.9876,135.001,6.42637,-17.2886,24.2963,7.12502,8.95688,-5.49361,3.15074e-14,2.14687e-14,-50.3354,-38.8618,45.215,139.228,19.14,6.24635,7.09562,7.12502,31.558,34.3892,-9.38136,-3.68012,19.0501,19.6688,-17.1552,9.3898,30.2457,-9.24564,-0.898973,-20.1267,17.664,-14.8892,0.840162,-30.6812
17.1736,18.0849,7.40769,5.05799,1.1941,-0.0328612,2.30294,-3.83829,0.138986,1.55546,-5.11303,-1.8503,0.126584,-2.54896,-1.85557,-9.57296,-10.0308,7.5891,22.1668,-14.146,-5.49335,7.42955,-6.68739,-4.21082,4.12478e-14,-3.18055e-15,-40.1418,27.096,-56.9506,135.281,4.90034,-17.206,23.0362,7.12502,9.03656,-6.75028,4.12478e-14,-3.18055e-15,-48.5431,-37.9634,42.6648,139.286,20.0347,5.89492,7.2212,7.12502,31.2232,34.5799,-9.14463,-3.73835,18.8818,19.3145,-16.918,9.5301,30.0227,-9.30713,-0.910187,-20.2741,17.9874,-15.1764,0.941667,-31.1084
17.1763,18.0793,7.39607,5.02015,1.07503,-0.159712,2.20262,-3.89412,0.348213,1.69756,-5.18143,-1.87592,0.305247,-2.58018,-2.00936,-9.63808,-10.1171,7.65879,22.3651,-14.2907,-5.49096,7.49194,-6.74429,-4.24441,9.14409e-15,-7.95139e-15,-38.2897,25.6731,-54.8248,135.544,3.01018,-17.6268,22.175,7.12502,8.63052,-7.62856,9.14409e-15,-7.95139e-15,-46.4335,-36.655,39.7875,139.338,21.8053,5.12307,7.74162,7.12502,30.4874,35.2395,-9.11151,-3.5247,19.0176,19.1249,-16.7442,9.43823,29.6654,-9.41526,-0.97318,-20.1447,18.1874,-15.1337,1.13757,-31.1871
17.1778,18.0787,7.38762,4.98276,0.970538,-0.322555,2.17663,-3.91413,0.567354,1.76065,-5.20395,-1.85302,0.366402,-2.58919,-2.11118,-9.76257,-10.2212,7.74017,22.6797,-14.4445,-5.61502,7.59012,-6.81307,-4.33046,-3.33958e-14,-1.59028e-15,-36.7997,24.1467,-52.8746,135.814,1.39729,-17.8483,21.7018,7.12502,8.4167,-8.11044,-3.33958e-14,-1.59028e-15,-44.2302,-35.2905,36.9411,139.351,23.9177,2.75431,8.74261,7.12502,28.2258,36.6369,-9.1152,-3.12146,19.2,19.1014,-16.6074,9.20386,30.129,-9.45753,-1.02625,-19.9622,18.273,-14.9475,1.2195,-30.2175
17.184,18.0865,7.38179,5.00908,0.833596,-0.288295,2.14149,-3.89983,0.621777,1.74582,-5.18432,-1.8659,0.365637,-2.57905,-2.15675,-9.90771,-10.3156,7.72169,22.9857,-14.5897,-5.64489,7.70608,-6.8754,-4.37436,3.84648e-14,-1.51076e-14,-35.7407,22.7563,-51.2303,135.918,0.905076,-18.6942,21.4444,7.12502,7.60029,-8.39908,3.84648e-14,-1.51076e-14,-42.0536,-33.7729,34.1712,139.317,26.3979,-0.64684,9.72395,7.12502,24.9707,38.1123,-9.19484,-2.89705,19.1325,19.1758,-16.5103,9.13136,30.7127,-9.47186,-1.1231,-20.0272,18.2714,-14.9226,1.30386,-29.4864
17.1939,18.0928,7.37747,5.10318,0.711207,-0.208096,2.06127,-3.8925,0.659315,1.68591,-5.17477,-1.87556,0.345159,-2.57456,-2.19077,-9.87541,-10.3888,7.65461,23.1236,-14.6907,-5.60753,7.74791,-6.92032,-4.36524,-2.79292e-14,-1.27222e-14,-35.0871,21.4853,-49.8623,136.082,0.792027,-19.2444,21.3613,7.12502,7.06927,-8.5006,-2.79292e-14,-1.27222e-14,-40.2154,-31.7369,31.6969,139.196,28.9165,-3.34935,10.3723,7.12502,22.3787,39.0961,-9.42433,-2.89453,19.0063,19.3392,-16.4584,9.20812,30.6521,-9.48623,-1.19442,-20.1605,18.1518,-14.9173,1.38898,-29.5556
17.201,18.0963,7.3743,5.24546,0.645417,-0.0413684,1.87443,-3.87876,0.593155,1.63934,-5.15763,-1.89301,0.406596,-2.56633,-2.18436,-9.6738,-10.463,7.53687,23.0827,-14.7819,-5.48131,7.71324,-6.96251,-4.29761,2.14687e-14,1.27222e-14,-34.8013,20.3336,-48.7519,136.424,0.500576,-19.2617,21.2404,7.12502,7.05257,-8.62212,2.14687e-14,1.27222e-14,-38.5643,-29.2142,29.4885,138.936,31.063,-5.27068,11.0475,7.12502,20.5333,39.9817,-9.71107,-2.79136,18.8074,19.5086,-16.4755,9.07282,30.5495,-9.57048,-1.26416,-20.3688,18.0318,-14.7476,1.47324,-29.3445
17.2075,18.104,7.37092,5.49453,0.591745,0.0838926,1.55944,-3.87393,0.592029,1.61454,-5.15087,-1.89617,0.557134,-2.56204,-2.20968,-9.70072,-10.4822,7.51727,23.0418,-14.8156,-5.43624,7.70789,-6.97645,-4.28232,-1.22253e-14,7.15625e-15,-34.663,19.5188,-48.0406,136.846,0.521273,-19.6091,20.9352,7.12502,6.71716,-8.93826,-1.22253e-14,7.15625e-15,-37.2439,-26.5567,27.7213,138.677,33.0409,-6.55161,11.5534,7.12502,19.302,40.6155,-10.0722,-2.36895,18.6627,19.6604,-16.5503,8.59983,30.6091,-9.82072,-1.17941,-20.5258,17.9517,-14.549,1.35838,-28.8919
17.2125,18.113,7.36649,5.86418,0.565261,-0.0640837,1.24049,-3.86323,0.838993,1.51044,-5.13639,-1.7566,0.620332,-2.5535,-2.223,-9.83177,-10.4931,7.42963,22.976,-14.8191,-5.45349,7.71381,-6.98793,-4.28093,-4.45278e-14,-2.62396e-14,-34.693,19.0724,-47.7108,137.235,0.772985,-20.071,20.7132,7.12502,6.27128,-9.17394,-4.45278e-14,-2.62396e-14,-36.4936,-24.2463,26.7048,138.543,34.6002,-7.44971,11.4085,7.12502,18.4383,40.5547,-10.5763,-1.84836,18.8432,19.808,-16.6065,7.98036,30.3677,-10.2177,-1.0704,-20.3657,17.8619,-14.4064,1.17088,-28.3664
17.2127,18.1204,7.36587,6.19842,0.517226,-0.169575,0.881515,-3.81801,0.965036,1.50922,-5.07709,-1.61879,0.82387,-2.52141,-2.17962,-10.2421,-10.4933,7.37935,22.841,-14.8457,-5.41627,7.74698,-7.00196,-4.28564,-2.82274e-14,-7.95139e-16,-34.8703,18.7599,-47.7588,137.43,0.960564,-19.773,20.8613,7.12502,6.55897,-9.01713,-2.82274e-14,-7.95139e-16,-35.9185,-22.2964,26.1253,138.543,35.2957,-7.52441,10.8689,7.12502,18.3664,40.0218,-11.0044,-1.55229,18.9854,19.885,-16.5878,7.57439,29.7941,-10.5781,-1.15435,-20.24,17.8262,-14.3088,1.22559,-27.8717
17.2126,18.1286,7.36706,6.46008,0.416945,-0.120835,0.678239,-3.82745,0.909961,1.48286,-5.091,-1.53904,0.921782,-2.52843,-2.08187,-10.5062,-10.4022,7.54007,22.4641,-14.7397,-5.49255,7.65594,-6.95891,-4.32167,1.25234e-14,7.95139e-15,-35.3808,19.0444,-48.39,137.643,1.29875,-19.3689,21.2759,7.12502,6.94901,-8.59005,1.25234e-14,7.95139e-15,-35.9379,-20.8874,26.0865,138.739,35.0501,-7.14434,10.2625,7.12502,18.732,39.3806,-11.3109,-1.28828,18.9314,19.8835,-16.3859,7.43273,29.851,-10.886,-1.13172,-20.3028,17.8696,-14.2869,1.2611,-27.6329
17.213,18.1366,7.36714,6.72074,0.287941,-0.106532,0.575707,-3.89579,0.917529,1.35307,-5.18395,-1.45907,0.848743,-2.5767,-2.00577,-10.4337,-10.2829,7.72295,22.0135,-14.5581,-5.62856,7.47985,-6.88953,-4.34619,6.10269e-14,-5.56597e-15,-36.2724,20.0656,-49.6597,137.946,1.76434,-19.703,21.5503,7.12502,6.62658,-8.326,6.10269e-14,-5.56597e-15,-36.6489,-20.1708,26.6627,139.095,34.4292,-8.06815,10.2113,7.12502,17.8433,39.4127,-11.6536,-0.992622,18.9152,19.8936,-16.2074,7.27515,30.2939,-11.1804,-1.12795,-20.3324,17.8913,-14.1933,1.42614,-27.1235
17.214,18.1401,7.36862,6.94076,0.181518,-0.203993,0.471289,-3.93218,1.07321,1.26319,-5.23432,-1.3773,0.806659,-2.60188,-2.01176,-10.5884,-10.2337,7.83516,21.8066,-14.4959,-5.73011,7.42539,-6.8688,-4.38834,-6.77856e-14,1.59028e-15,-37.4199,21.3123,-51.3703,138.107,2.394,-20.1481,21.7386,7.12502,6.19679,-8.15081,-6.77856e-14,1.59028e-15,-37.4997,-20.0777,27.7172,139.53,33.7219,-9.52266,10.8541,7.12502,16.4433,40.1772,-11.94,-0.921989,19.0285,19.9333,-16.2972,7.15541,30.3827,-11.4017,-1.21973,-20.2342,17.8645,-14.0686,1.71347,-26.7785
17.2158,18.1355,7.37129,7.13611,0.0560963,-0.21735,0.582824,-3.91858,1.12977,1.02279,-5.21722,-1.28918,0.501735,-2.59773,-1.93334,-10.5366,-10.2451,7.83011,21.5295,-14.4785,-5.8232,7.31796,-6.8809,-4.39473,7.95139e-15,1.59028e-15,-38.8831,22.7071,-53.3939,138.166,3.11948,-19.8183,21.9327,7.12502,6.51519,-7.94706,7.95139e-15,1.59028e-15,-38.6624,-20.8999,29.4121,140.011,32.7858,-9.76672,10.8719,7.12502,16.2083,40.2143,-12.2029,-0.915423,19.0297,19.9924,-16.3752,7.23376,30.744,-11.5566,-1.20923,-20.2409,17.7963,-14.0378,1.95944,-27.5244
17.2174,18.132,7.37428,7.39828,-0.122947,0.0162584,0.612173,-3.90684,0.929981,0.724574,-5.20353,-1.2638,0.200285,-2.59643,-1.78141,-10.0876,-10.2792,7.72862,20.9769,-14.4622,-5.78064,7.07092,-6.89752,-4.30154,6.09275e-14,1.59028e-14,-40.5517,24.2238,-55.8303,138.142,3.72756,-19.2758,21.8301,7.12502,7.03889,-8.03282,6.09275e-14,1.59028e-14,-40.2025,-22.3507,31.6565,140.488,31.9345,-9.51829,10.3001,7.12502,16.4475,39.6229,-12.547,-0.73499,18.7496,20.0384,-16.4058,7.17809,30.6343,-11.7689,-1.13281,-20.5315,17.7338,-14.0496,2.24032,-28.9344
17.2195,18.1373,7.37877,7.55044,-0.276982,0.172124,0.526744,-3.90803,0.863838,0.619006,-5.2064,-1.30709,0.141583,-2.59922,-1.79058,-9.67353,-10.2986,7.67075,20.3296,-14.473,-5.54376,6.81368,-6.90694,-4.15515,-1.0625e-13,-3.18055e-15,-42.4125,25.5898,-58.7378,137.905,4.36349,-18.986,21.7204,7.12502,7.31871,-8.13298,-1.0625e-13,-3.18055e-15,-41.7906,-23.8936,34.2251,140.798,31.13,-9.53921,9.934,7.12502,16.4273,39.2584,-12.7063,-0.537861,18.5582,20.1142,-16.5702,7.03488,30.1118,-11.8506,-1.08177,-20.7261,17.6303,-14.0041,2.43182,-29.7043
17.2197,18.1392,7.38153,7.44277,-0.378112,-0.0288413,0.745869,-3.91573,1.16342,0.622211,-5.21453,-1.30816,-0.00453207,-2.60374,-1.93999,-9.51402,-10.2806,7.73818,19.8238,-14.4637,-5.37974,6.63337,-6.89971,-4.07482,3.63776e-14,-3.97569e-15,-44.2217,26.7246,-61.775,137.548,4.94673,-18.5902,21.5122,7.12502,7.70074,-8.32761,3.63776e-14,-3.97569e-15,-43.5162,-25.6103,37.1787,140.935,30.228,-9.04781,9.53854,7.12502,16.9004,38.8232,-12.6107,-0.356571,18.7749,20.2498,-16.6522,7.00158,30.281,-11.6188,-1.06526,-20.5086,17.4116,-13.8791,2.5298,-29.8601
17.2193,18.1341,7.38533,7.33151,-0.492581,-0.0866347,1.03992,-3.95756,1.24892,0.587872,-5.26767,-1.27687,-0.210947,-2.63213,-1.93024,-9.64545,-10.2505,7.67395,19.6638,-14.4293,-5.32336,6.61647,-6.88717,-4.04727,-9.08446e-14,-6.36111e-15,-45.7014,27.7864,-64.5562,137.11,5.23842,-18.612,23.0169,7.12502,7.67965,-6.82365,-9.08446e-14,-6.36111e-15,-45.6552,-27.4795,40.6779,141.047,29.2339,-8.53011,9.19509,7.12502,17.3987,38.4364,-12.5447,-0.346952,18.8361,20.3661,-16.8061,7.00683,29.7955,-11.3499,-0.987335,-20.4622,17.1732,-13.8515,2.49959,-29.8515
17.2215,18.13,7.39123,7.28665,-0.6862,0.223971,1.21978,-3.98907,0.922882,0.52551,-5.31217,-1.29799,-0.349733,-2.65593,-1.75456,-9.75128,-10.219,7.50056,19.5481,-14.3797,-5.2362,6.62094,-6.87013,-3.99495,1.2921e-15,-6.75868e-15,-46.9067,28.7226,-67.0257,136.535,5.50005,-18.6133,23.7965,7.12502,7.67844,-6.04415,1.2921e-15,-6.75868e-15,-47.8632,-29.2594,44.2958,141,27.7581,-8.35905,8.87113,7.12502,17.5633,38.0978,-12.5177,-0.64737,18.4795,20.4264,-17.0616,7.28883,28.4855,-11.1495,-0.870738,-20.8407,16.9848,-14.0217,2.43641,-29.8265
17.2237,18.1263,7.39172,7.16556,-0.878749,0.402376,1.49921,-4.00961,0.705328,0.499938,-5.34162,-1.29561,-0.513065,-2.67152,-1.60895,-9.67984,-10.1599,7.45007,19.2448,-14.2877,-5.17554,6.52604,-6.83343,-3.94328,-7.43455e-14,8.34896e-15,-47.7872,29.4392,-69.1233,135.876,6.09129,-18.5769,23.5348,7.12502,7.71356,-6.30456,-7.43455e-14,8.34896e-15,-49.8454,-30.7834,47.6385,140.745,25.8831,-7.78011,8.44777,7.12502,18.1204,37.6237,-12.4301,-0.882835,18.2683,20.4684,-17.1061,7.76521,28.3919,-10.8902,-0.767075,-21.0629,16.7988,-14.096,2.52647,-30.0358
17.2253,18.1221,7.39338,6.98819,-1.031,0.441445,1.79914,-4.07743,0.625183,0.51345,-5.43259,-1.27438,-0.660274,-2.71734,-1.51809,-9.64022,-10.0536,7.47765,19.0836,-14.1397,-5.17675,6.47505,-6.76554,-3.92876,1.90833e-14,-1.27222e-14,-48.4994,29.8305,-70.8495,135.269,6.72587,-18.515,23.6538,7.12502,7.77325,-6.18334,1.90833e-14,-1.27222e-14,-51.6712,-31.7902,50.629,140.408,23.8451,-6.29231,7.76181,7.12502,19.5513,36.7987,-12.2463,-0.979815,18.2031,20.4476,-17.0354,8.14302,29.103,-10.6026,-0.782003,-21.1191,16.6779,-13.9543,2.72808,-30.1019
17.2297,18.118,7.39792,6.85202,-1.15045,0.399434,1.91993,-4.1533,0.729227,0.575547,-5.53134,-1.30119,-0.679659,-2.76661,-1.59297,-9.63594,-9.95857,7.51603,19.0601,-14.0309,-5.09739,6.4781,-6.70401,-3.90345,7.36497e-14,-2.10712e-14,-49.0271,29.8553,-72.3296,134.713,7.23914,-18.239,24.2903,7.12502,8.03964,-5.53683,7.36497e-14,-2.10712e-14,-53.0452,-32.3423,52.88,139.943,21.5511,-3.52143,6.51552,7.12502,22.2135,35.2591,-12.0556,-1.20281,18.2213,20.3296,-16.8793,8.59061,29.6027,-10.4071,-0.848844,-21.0913,16.6809,-13.9181,2.90294,-30.1671
17.2358,18.1165,7.39631,6.71848,-1.24567,0.1679,1.99875,-4.15998,1.08696,0.722853,-5.53206,-1.30032,-0.606271,-2.76595,-1.78943,-9.64346,-9.92365,7.56073,18.8523,-14.0144,-4.93752,6.42461,-6.68484,-3.85021,8.39865e-14,6.36111e-15,-49.2231,29.6623,-73.3785,134.254,7.64039,-18.2377,24.1787,7.12502,8.04092,-5.64837,8.39865e-14,6.36111e-15,-53.7246,-32.7295,54.3992,139.455,19.6264,-4.16182,6.26416,7.12502,21.5986,35.0797,-11.8537,-1.41359,18.4511,20.1807,-16.758,9.01656,29.6049,-10.2539,-0.785124,-20.8527,16.7395,-14.0831,2.88416,-29.9902
17.2399,18.1145,7.39468,6.52779,-1.39996,0.119419,2.16056,-4.15362,1.18356,0.877196,-5.51965,-1.31347,-0.548187,-2.75814,-1.85089,-9.56403,-9.88306,7.59794,18.5149,-13.986,-4.73155,6.32006,-6.66081,-3.76902,-3.11098e-14,0,-49.1637,29.2386,-73.9715,133.9,7.78311,-18.306,23.8208,7.12502,7.97505,-6.00872,-3.11098e-14,0,-54.0669,-32.8781,55.4633,139.113,18.4682,-3.33416,6.07914,7.12502,22.3932,34.8012,-11.5703,-1.49389,18.468,19.9955,-16.6828,9.37639,29.7789,-10.0892,-0.579782,-20.8162,16.8727,-14.3152,2.7716,-29.8563
17.2406,18.1099,7.39851,6.36165,-1.58851,0.234872,2.32867,-4.20092,1.06203,0.942116,-5.58424,-1.3912,-0.574294,-2.79015,-1.85063,-9.45855,-9.7951,7.78699,18.3955,-13.8964,-4.66971,6.26201,-6.60441,-3.75993,-1.94809e-14,-3.18055e-15,-48.8778,28.5897,-74.2429,133.631,7.71574,-18.0471,23.8366,7.12502,8.2249,-5.98329,-1.94809e-14,-3.18055e-15,-54.2254,-32.7564,55.8217,138.848,17.9032,-2.22391,6.02009,7.12502,23.4586,34.61,-11.3354,-1.53494,18.3097,19.8283,-16.5989,9.68138,30.0249,-9.94559,-0.385386,-20.9534,17.0086,-14.5105,2.71995,-30.0694
17.2409,18.1108,7.40022,6.24492,-1.72543,0.098052,2.21768,-4.25099,1.14538,1.18591,-5.64813,-1.37387,-0.27123,-2.81801,-1.89777,-9.61599,-9.71198,7.99042,18.3489,-13.8238,-4.69047,6.26319,-6.55902,-3.79956,3.84648e-14,-2.38542e-15,-48.1468,28.0168,-73.8513,133.591,7.47362,-18.0836,23.7427,7.12502,8.18966,-6.0786,3.84648e-14,-2.38542e-15,-53.6973,-32.3104,55.3606,138.593,17.8589,-1.12287,6.01143,7.12502,24.5144,34.4624,-11.1755,-1.52679,18.4524,19.7735,-16.7975,9.64878,28.7224,-9.7915,-0.32685,-20.7986,17.0365,-14.57,2.73257,-29.652
17.2441,18.1135,7.3997,6.17084,-1.86106,0.0090863,1.91638,-4.25946,1.19102,1.53573,-5.65879,-1.34811,0.25336,-2.81636,-1.93876,-9.85143,-9.68613,7.88238,18.3462,-13.8442,-4.39166,6.33417,-6.54703,-3.71046,2.68359e-15,-1.51076e-14,-47.1716,27.4072,-73.0656,133.617,7.03985,-17.9675,23.4593,7.12502,8.3017,-6.35761,2.68359e-15,-1.51076e-14,-52.7011,-31.6966,54.4323,138.379,18.2531,-0.999512,6.04351,7.12502,24.6327,34.4783,-11.1043,-1.55862,18.5299,19.813,-16.9538,9.70665,28.0798,-9.64343,-0.309175,-20.7191,16.9867,-14.525,2.89548,-29.652
17.246,18.1116,7.40029,6.14163,-2.01715,0.129067,1.90617,-4.23635,1.12187,1.55015,-5.629,-1.43624,0.272881,-2.80146,-1.99269,-9.93638,-9.68465,7.80124,18.6884,-13.8906,-4.16657,6.48043,-6.54174,-3.65685,3.98563e-14,2.78299e-14,-46.4707,26.5922,-72.3751,133.57,6.52749,-17.549,22.9139,7.12502,8.70554,-6.88656,3.98563e-14,2.78299e-14,-51.8232,-31.3404,53.2275,138.239,19.2081,-1.75861,6.46316,7.12502,23.9049,34.9953,-11.1521,-1.57492,18.3771,19.8869,-16.77,9.98551,28.9928,-9.56356,-0.270038,-20.8754,16.9207,-14.4626,3.09494,-30.5526
17.2466,18.1121,7.40233,6.11512,-2.12059,0.249649,1.78535,-4.22984,0.925716,1.64832,-5.62265,-1.44019,0.459516,-2.79746,-1.90405,-10.2109,-9.63016,7.92784,18.9768,-13.8569,-4.24767,6.60701,-6.51273,-3.73053,2.48481e-14,-1.51076e-14,-45.4788,25.6573,-71.2169,133.613,6.11688,-17.7687,22.2727,7.12502,8.49352,-7.5365,2.48481e-14,-1.51076e-14,-50.4965,-30.7485,51.6409,138.106,20.4503,-2.5651,7.11636,7.12502,23.1313,35.7477,-11.1926,-1.47124,18.2305,19.9873,-16.5823,10.1216,29.9507,-9.48695,-0.252252,-21.0219,16.8438,-14.4064,3.27172,-31.4031
17.2465,18.116,7.4044,6.12472,-2.22574,0.244238,1.49798,-4.24284,0.777457,1.85939,-5.64106,-1.36705,0.8572,-2.80388,-1.78252,-10.3342,-9.59827,7.91568,18.973,-13.8411,-4.14323,6.63787,-6.49496,-3.70412,5.03919e-14,-2.38542e-14,-44.3932,24.8292,-69.7618,133.811,5.87167,-18.1179,22.1123,7.12502,8.15652,-7.71024,5.03919e-14,-2.38542e-14,-48.9672,-29.7721,49.7674,138.033,21.6491,-3.83319,7.44211,7.12502,21.9141,36.221,-11.2248,-1.15454,18.2249,20.1114,-16.6254,9.88915,30.0829,-9.43339,-0.266285,-21.0222,16.7604,-14.3287,3.31874,-31.1939
17.2438,18.1182,7.40596,6.1439,-2.40257,0.0523382,1.47786,-4.21242,0.991988,1.78252,-5.59976,-1.36771,0.770635,-2.78226,-1.89923,-9.88416,-9.65583,7.63092,18.9758,-13.9135,-3.72491,6.61223,-6.51261,-3.51206,-4.23411e-14,-1.98785e-14,-43.5935,24.3052,-68.4626,133.924,5.77407,-18.0083,22.2133,7.12502,8.26231,-7.60515,-4.23411e-14,-1.98785e-14,-47.865,-29.0329,47.7919,138.097,22.9062,-5.62642,7.87362,7.12502,20.1914,36.8442,-11.3101,-0.732332,18.446,20.2546,-16.6611,9.53711,29.8373,-9.37035,-0.287121,-20.8065,16.6575,-14.1938,3.29726,-30.0145
17.2438,18.1197,7.41057,6.17972,-2.54444,-0.0375471,1.36912,-4.17164,1.14551,1.70346,-5.54557,-1.39223,0.73556,-2.75449,-2.01416,-9.5388,-9.68899,7.37935,19.1409,-13.9427,-3.4803,6.64244,-6.51728,-3.39007,3.74709e-14,-6.36111e-15,-42.5393,23.7051,-66.9187,133.704,5.75543,-18.1563,23.1651,7.12502,8.1195,-6.65888,3.74709e-14,-6.36111e-15,-46.809,-28.4081,45.8269,138.198,24.2004,-7.64835,8.69398,7.12502,18.2472,37.8581,-11.4388,-0.614372,18.5471,20.3829,-16.6135,9.51596,29.8532,-9.32726,-0.384806,-20.7216,16.5821,-14.1028,3.54522,-29.7081
17.2437,18.1236,7.41496,6.28594,-2.65527,0.1492,1.20906,-4.18975,0.930244,1.61809,-5.57204,-1.44603,0.751178,-2.76999,-1.95902,-9.37686,-9.65622,7.34636,19.4092,-13.891,-3.48449,6.70595,-6.48677,-3.38695,6.02318e-14,-3.18055e-15,-41.5508,23.1403,-65.3514,133.463,5.90351,-18.6474,24.5121,7.12502,7.64549,-5.32969,6.02318e-14,-3.18055e-15,-45.7769,-27.7328,43.9017,138.219,25.3964,-9.17718,9.13545,7.12502,16.7759,38.4307,-11.6861,-0.525356,18.3367,20.5514,-16.6263,9.53421,29.8361,-9.37318,-0.462284,-20.9457,16.4874,-14.0376,3.838,-30.1428
17.2373,18.127,7.41553,6.36131,-2.87096,0.221807,1.16615,-4.18876,0.684742,1.51575,-5.57274,-1.4274,0.695142,-2.77363,-1.80359,-9.30563,-9.6205,7.33629,19.7482,-13.8438,-3.52227,6.80348,-6.45688,-3.40699,4.1546e-14,-7.15625e-15,-40.5991,22.8229,-63.8547,133.55,5.9683,-18.9029,24.2281,7.12502,7.39888,-5.62257,4.1546e-14,-7.15625e-15,-44.7181,-27.0929,42.0462,138.19,26.5405,-10.8401,9.39983,7.12502,15.1746,38.8234,-11.9347,-0.0473924,18.2776,20.7514,-16.6806,9.19353,29.5848,-9.37678,-0.497519,-21.0179,16.3496,-13.9198,4.03207,-30.1579
17.239,18.1285,7.4125,6.60014,-2.88555,0.421438,1.08694,-4.23239,0.358947,1.27795,-5.63464,-1.36179,0.531047,-2.80949,-1.55195,-9.22051,-9.60229,7.29366,20.1305,-13.7891,-3.69453,6.9039,-6.43701,-3.46413,6.76862e-14,2.70347e-14,-39.7196,22.6717,-62.2169,133.842,5.63139,-19.0195,23.0735,7.12502,7.28631,-6.78106,6.76862e-14,2.70347e-14,-43.8237,-26.5456,40.4095,138.24,27.8852,-12.8646,9.95847,7.12502,13.2237,39.519,-12.3344,-0.206296,18.0412,20.9743,-16.6917,9.25274,29.6305,-9.55435,-0.653787,-21.2644,16.1752,-13.7399,4.14279,-30.1604
17.2386,18.1294,7.4152,6.73988,-2.91344,0.524946,1.64455,-4.29932,0.04895,0.609293,-5.7359,-1.20225,-0.421722,-2.86716,-1.13818,-8.58733,-9.59205,7.13656,20.6407,-13.6672,-3.98404,6.95238,-6.40539,-3.50819,1.73937e-14,3.97569e-16,-39.6057,23.0287,-60.7642,134.242,5.31328,-19.6424,22.3872,7.12502,6.68501,-7.48724,1.73937e-14,3.97569e-16,-43.7026,-26.3909,39.248,138.353,29.2629,-13.8437,10.4417,7.12502,12.2798,40.0612,-12.5673,-0.13694,17.9095,21.1075,-16.6943,9.19088,29.8474,-9.66946,-0.759439,-21.3866,16.1094,-13.664,4.25237,-30.073
17.2377,18.128,7.41855,6.75953,-2.98122,0.636996,1.48843,-4.29955,-0.174836,0.637823,-5.73799,-1.20725,-0.284036,-2.86799,-1.03517,-8.47375,-9.59094,7.12233,20.758,-13.6738,-3.91465,6.9774,-6.39985,-3.48411,-4.74101e-14,-1.31198e-14,-38.6631,22.7486,-59.2672,134.456,5.18342,-20.131,21.7902,7.12502,6.2133,-8.09872,-4.74101e-14,-1.31198e-14,-42.4948,-25.7812,37.661,138.253,30.4569,-14.4189,10.8795,7.12502,11.7251,40.5314,-12.6401,0.00997709,17.7787,21.1713,-16.6985,9.10067,29.8711,-9.6931,-0.629032,-21.5201,16.1251,-13.7246,4.13465,-29.3803
17.2356,18.124,7.41804,6.78692,-3.0577,0.603272,1.20647,-4.33644,-0.255782,0.802494,-5.78353,-1.20829,0.0491042,-2.89019,-1.02332,-8.56662,-9.53404,7.19419,20.8362,-13.6398,-3.80773,7.02546,-6.36466,-3.47012,-2.80286e-14,-1.07344e-14,-37.3415,22.3826,-57.779,134.377,4.94593,-19.5223,21.3685,7.12502,6.80095,-8.50231,-2.80286e-14,-1.07344e-14,-41.3902,-25.1128,36.03,138.195,31.5334,-15.7424,11.2879,7.12502,10.4486,41.0083,-12.7046,0.284866,17.8239,21.1755,-16.6026,8.92086,30.3422,-9.73832,-0.612594,-21.4839,16.1829,-13.7001,4.22868,-28.6115
17.2342,18.1203,7.41737,6.77951,-3.11329,0.543102,0.813531,-4.37969,-0.316214,1.1233,-5.83383,-1.22691,0.600415,-2.91411,-1.05888,-8.83729,-9.44815,7.39047,20.8375,-13.6075,-3.6498,7.07552,-6.31726,-3.46604,-1.27023e-13,-4.77083e-15,-35.8407,21.8645,-56.4986,134.076,4.67878,-19.6798,21.3993,7.12502,6.64898,-8.47635,-1.27023e-13,-4.77083e-15,-40.1675,-24.3971,34.322,138.162,32.5587,-17.2333,11.8663,7.12502,9.01023,41.6538,-12.7067,0.449797,17.9011,21.149,-16.4736,8.86972,30.9971,-9.73855,-0.718075,-21.4168,16.2469,-13.6051,4.48427,-28.8282
17.2336,18.118,7.42032,6.71678,-3.16628,0.566565,0.764992,-4.39667,-0.509345,1.19027,-5.85566,-1.1671,0.721348,-2.92626,-0.900339,-8.88134,-9.41373,7.41593,20.9283,-13.5758,-3.63444,7.11437,-6.29499,-3.47073,3.926e-14,-1.82882e-14,-34.8551,21.6754,-55.3158,133.999,4.39309,-20.4739,21.3293,7.12502,5.88225,-8.56904,3.926e-14,-1.82882e-14,-39.2661,-24.0932,33.1395,138.118,33.5094,-18.486,12.5197,7.12502,7.80123,42.3558,-12.6148,0.375414,17.8752,21.0742,-16.3311,9.02679,31.3189,-9.69527,-0.77782,-21.4554,16.3692,-13.6162,4.67137,-29.5779
17.2318,18.1204,7.42395,6.63969,-3.18647,0.443174,0.85568,-4.43028,-0.561964,1.15753,-5.90247,-1.02956,0.656407,-2.95057,-0.722557,-8.80458,-9.38362,7.30147,21.0593,-13.5078,-3.67598,7.15165,-6.27061,-3.4647,-2.36554e-14,0,-34.1305,21.5855,-54.1572,134.023,4.19992,-19.8874,21.322,7.12502,6.44852,-8.55987,-2.36554e-14,0,-38.6666,-23.9464,32.318,137.997,34.2768,-19.3019,12.5253,7.12502,7.01376,42.3891,-12.4723,0.385703,18.0078,21.0187,-16.2277,9.09719,31.5166,-9.61922,-0.919326,-21.3157,16.4705,-13.6399,4.91022,-30.2666
17.2287,18.1231,7.42486,6.56356,-3.21046,0.257508,1.06286,-4.474,-0.572171,1.05757,-5.96453,-0.874286,0.455398,-2.98214,-0.536106,-8.63193,-9.33514,7.20563,21.1841,-13.408,-3.72775,7.16982,-6.23199,-3.45625,3.88624e-14,1.03368e-14,-33.6297,21.6362,-53.2065,133.931,4.23094,-19.4713,21.5904,7.12502,6.85019,-8.2788,3.88624e-14,1.03368e-14,-38.3496,-23.8293,31.7064,137.906,34.7138,-19.6957,12.4185,7.12502,6.63363,42.2946,-12.3599,0.394688,18.2508,21.0359,-16.3392,8.91684,30.3207,-9.5286,-0.998253,-21.0921,16.4581,-13.5944,5.06653,-30.6506
17.2267,18.1197,7.42324,6.43567,-3.35019,0.339151,1.96644,-4.51694,-0.946247,0.468179,-6.04413,-0.69337,-0.594835,-3.0196,-0.0369267,-8.14725,-9.28066,7.02195,21.5853,-13.2291,-4.01064,7.21461,-6.17878,-3.49594,3.83654e-14,4.37326e-15,-33.6611,22.3863,-52.3679,133.981,4.0643,-19.6996,21.7583,7.12502,6.62981,-8.1179,3.83654e-14,4.37326e-15,-38.776,-24.2803,31.5756,138.008,35.0353,-20.3731,12.628,7.12502,5.9796,42.5236,-12.274,0.297655,18.1987,21.0495,-16.451,8.86237,28.9803,-9.38604,-1.06276,-21.1783,16.4288,-13.5878,5.08374,-29.6451
17.227,18.1192,7.42318,6.28893,-3.49789,0.507363,1.86849,-4.46582,-1.1606,0.689055,-5.97595,-0.797611,-0.303471,-2.98724,-0.047294,-8.33296,-9.24729,7.14471,21.543,-13.2324,-3.92474,7.23237,-6.1625,-3.49727,1.61016e-14,7.95139e-16,-32.9542,22.1369,-51.7056,133.923,3.89508,-19.9327,22.0022,7.12502,6.40482,-7.88099,1.61016e-14,7.95139e-16,-37.8108,-24.232,30.8076,137.921,35.2995,-21.4173,12.8235,7.12502,4.9714,42.7452,-12.164,0.328525,17.9851,21.0362,-16.3334,9.12969,29.837,-9.19288,-1.21177,-21.3718,16.4316,-13.6445,5.14535,-28.253
17.2285,18.1221,7.42766,6.28207,-3.52912,0.499089,1.62402,-4.48188,-1.11896,0.828687,-5.99085,-0.872015,-0.0361283,-2.99611,-0.173884,-8.17993,-9.17518,7.2979,21.3097,-13.1622,-3.79039,7.13448,-6.11363,-3.45292,7.23576e-14,-8.74653e-15,-32.5635,22.0241,-51.4187,133.895,4.08013,-20.4725,22.1446,7.12502,5.88365,-7.75371,7.23576e-14,-8.74653e-15,-37.1253,-24.3052,30.2191,137.857,35.4525,-22.109,12.8693,7.12502,4.30347,42.8055,-12.1653,0.351744,17.9593,21.0709,-16.1945,9.35334,30.751,-9.08202,-1.29931,-21.3761,16.3432,-13.6595,5.22452,-27.9466
17.2295,18.1205,7.43449,6.34049,-3.525,0.441561,1.60621,-4.53572,-1.10417,0.702334,-6.06389,-0.834708,-0.152814,-3.03192,-0.137907,-7.47629,-9.10126,7.24818,20.9459,-13.0191,-3.6003,6.91985,-6.04881,-3.31769,-7.45443e-15,-9.14409e-15,-32.6376,22.2413,-51.3298,133.892,4.40963,-21.1821,21.8377,7.12502,5.19854,-8.07852,-7.45443e-15,-9.14409e-15,-36.9372,-24.5875,30.0285,137.862,35.6463,-22.4276,13.0261,7.12502,3.99581,42.9684,-12.295,0.231668,18.0214,21.206,-16.1333,9.57927,31.2372,-8.95097,-1.36878,-21.3221,16.0587,-13.4954,5.38949,-28.4367
17.2301,18.1194,7.44574,6.28965,-3.54292,0.542865,1.5034,-4.5556,-1.23512,0.744774,-6.08985,-0.876952,-0.042823,-3.04568,-0.120347,-7.76309,-9.04841,7.38629,21.3109,-12.9805,-3.73565,7.07127,-6.01845,-3.41321,-5.05907e-14,-9.14409e-15,-32.8079,22.3235,-51.3076,133.456,4.78662,-21.5237,21.9949,7.12502,4.86864,-7.92915,-5.05907e-14,-9.14409e-15,-36.5421,-24.8615,29.9354,137.77,35.6503,-22.9888,13.3864,7.12502,3.45388,43.3382,-12.3024,-0.0520114,17.9091,21.3785,-16.1675,9.88003,31.1357,-8.66649,-1.27059,-21.4421,15.6899,-13.3695,5.35421,-28.6519
17.2312,18.1268,7.46289,6.1864,-3.56192,0.833377,0.987412,-4.53172,-1.43457,1.13805,-6.04291,-1.10298,0.644099,-3.02644,-0.30796,-7.84111,-9.01705,7.68597,21.029,-13.0009,-3.606,6.98365,-6.00272,-3.4094,1.11717e-13,6.36111e-15,-32.5401,21.6338,-51.2206,132.953,3.80652,-20.1831,24.5482,7.12502,6.16304,-5.34215,1.11717e-13,6.36111e-15,-35.754,-24.9281,29.7211,137.561,35.5557,-23.5874,13.3596,7.12502,2.87582,43.32,-12.1668,-0.498701,17.5645,21.5635,-16.6457,10.0154,28.7705,-8.31597,-1.09432,-21.7814,15.328,-13.4079,5.02884,-28.2266
17.2321,18.1325,7.47813,6.08871,-3.5726,1.02324,0.579545,-4.50258,-1.53502,1.44517,-5.98856,-1.27033,1.17902,-3.00198,-0.475425,-7.93858,-8.99247,7.82922,20.8937,-13.0184,-3.4638,6.95844,-5.99094,-3.38711,1.12313e-13,6.36111e-15,-32.4898,21.4914,-51.7048,132.89,4.50688,-20.4454,24.2077,7.12502,5.90983,-5.68992,1.12313e-13,6.36111e-15,-35.1626,-25.1441,29.7577,137.428,35.5979,-23.9393,13.2374,7.12502,2.53594,43.2021,-12.1129,-0.818057,17.3281,21.7721,-17.1926,10.0876,26.7223,-7.95172,-1.05866,-22.0121,14.9664,-13.3502,4.88286,-27.9539
17.2332,18.1258,7.49006,5.96314,-3.61259,1.10908,0.44439,-4.50082,-1.6007,1.58823,-5.97945,-1.33988,1.40072,-2.99878,-0.52982,-7.92687,-8.97025,7.87095,20.8616,-13.0028,-3.40734,6.94895,-5.97633,-3.37282,-5.07895e-14,3.97569e-15,-32.1874,21.6633,-52.0751,132.694,4.66125,-20.6233,24.1945,7.12502,5.73801,-5.70783,-5.07895e-14,3.97569e-15,-34.9146,-25.58,30.0777,137.358,35.6029,-24.2544,13.2255,7.12502,2.23169,43.1936,-12.0966,-1.04321,17.2247,21.9022,-17.3585,10.26,26.1955,-7.63959,-0.917502,-22.1393,14.766,-13.3706,4.83983,-28.4854
17.2308,18.1203,7.49001,5.97398,-3.64362,1.07154,0.295456,-4.53853,-1.68914,1.71493,-6.02356,-1.29046,1.62879,-3.02323,-0.45238,-7.8644,-8.91449,7.94362,20.6857,-12.9186,-3.4281,6.87939,-5.93922,-3.37288,7.65321e-15,1.27222e-14,-30.7383,22.3484,-52.0605,132.3,4.20055,-20.6221,23.5323,7.12502,5.73922,-6.36996,7.65321e-15,1.27222e-14,-34.9432,-25.8524,30.6377,137.277,35.4963,-24.3044,12.9433,7.12502,2.1834,42.9119,-12.1552,-0.929258,17.295,21.8743,-17.3491,10.0367,25.5096,-7.71677,-0.873245,-22.0967,14.8662,-13.4315,4.98486,-29.7355
17.2233,18.1219,7.47587,6.16749,-3.67649,0.796502,0.581622,-4.58198,-1.61045,1.39632,-6.09657,-1.07745,1.15706,-3.05752,-0.236957,-7.53685,-8.87811,7.7646,20.7796,-12.8016,-3.51436,6.8635,-5.90345,-3.35147,5.32743e-14,-7.95139e-16,-30.6514,22.9449,-52.2356,132.216,3.53703,-19.7655,24.1049,7.12502,6.56619,-5.77329,5.32743e-14,-7.95139e-16,-35.7132,-26.4762,31.7314,137.289,35.3409,-24.2357,12.5708,7.12502,2.24974,42.5387,-12.3687,-0.278002,17.6463,21.7597,-16.945,9.53017,26.7205,-8.14827,-1.03775,-21.7366,15.1325,-13.3254,5.30681,-30.201
17.2195,18.1237,7.47171,6.29943,-3.76937,0.558067,1.63443,-4.63681,-1.483,0.425151,-6.2094,-0.842382,-0.412594,-3.10264,0.0806135,-6.69642,-8.84825,7.41888,21.326,-12.6121,-3.80448,6.9034,-5.85413,-3.35553,7.81721e-14,6.36111e-15,-31.2425,24.8029,-52.9462,132.587,3.46169,-19.2304,22.8007,7.12502,7.08275,-7.06075,7.81721e-14,6.36111e-15,-37.4635,-27.9032,33.3848,137.41,35.1725,-24.4996,12.2767,7.12502,1.99483,42.2471,-12.4551,0.095614,17.913,21.6266,-16.2619,9.62945,29.8585,-8.43895,-1.10297,-21.452,15.404,-13.3212,5.49625,-30.0254
17.22,18.1293,7.47633,6.34965,-3.82931,0.431585,0.861894,-4.52952,-1.12678,0.993141,-6.03888,-1.06195,0.538171,-3.02202,-0.437398,-7.19822,-8.81246,7.78421,21.1056,-12.6933,-3.55953,6.9121,-5.84629,-3.35812,4.94974e-14,-2.06736e-14,-30.7616,24.6483,-53.8331,132.454,3.68098,-18.9718,22.1249,7.12502,7.33233,-7.72806,4.94974e-14,-2.06736e-14,-36.6644,-28.1085,33.5996,137.194,35.1029,-24.5772,12.0426,7.12502,1.91992,42.0137,-12.3712,0.0241121,18.0426,21.4622,-15.8943,9.93187,31.0337,-8.59419,-1.07646,-21.3239,15.6838,-13.4464,5.56445,-30.0709
17.2208,18.1371,7.48025,6.38469,-3.8301,0.29843,0.550408,-4.52705,-1.00648,1.24597,-6.02636,-1.05259,0.959862,-3.01603,-0.534908,-7.58476,-8.74028,7.95758,21.1655,-12.6518,-3.57742,6.98949,-5.80959,-3.4132,9.49197e-14,2.22639e-14,-30.7305,24.8541,-54.5793,132.211,3.8108,-18.8697,22.3314,7.12502,7.43095,-7.51813,9.49197e-14,2.22639e-14,-36.762,-28.4727,34.5222,137.059,34.8252,-23.7607,11.4335,7.12502,2.70847,41.3961,-12.2803,-0.0601389,18.1908,21.3291,-15.9308,9.95057,30.2069,-8.70581,-1.11467,-21.1791,15.8978,-13.5486,5.59539,-29.7199
17.2208,18.1388,7.48388,6.39632,-3.81217,0.14322,0.606432,-4.52359,-0.850593,1.19996,-6.02372,-0.991759,0.871856,-3.01354,-0.55084,-7.79259,-8.73646,7.90952,21.5431,-12.6537,-3.68641,7.14325,-5.8092,-3.47081,1.21259e-14,7.15625e-15,-31.2065,25.2657,-55.3868,132.103,3.87874,-18.6003,22.5691,7.12502,7.69093,-7.27108,1.21259e-14,7.15625e-15,-37.3849,-29.1685,35.9061,136.954,34.6293,-22.6062,10.5104,7.12502,3.82335,40.4558,-12.2281,-0.00211367,18.3665,21.2554,-16.0441,9.87647,29.8292,-8.76814,-1.21271,-21.0053,16.0221,-13.5252,5.69454,-29.5711
17.2198,18.1378,7.48574,6.37149,-3.80827,0.0724051,0.708711,-4.50597,-0.714666,1.1636,-6.00191,-1.02219,0.760332,-3.00141,-0.644744,-8.00848,-8.73081,7.91831,21.9397,-12.6774,-3.72755,7.30633,-5.80796,-3.51904,-1.14401e-13,7.95139e-16,-31.7609,25.7057,-56.4143,131.947,3.97988,-18.5814,22.9104,7.12502,7.70917,-6.92904,-1.14401e-13,7.95139e-16,-38.1019,-29.977,37.352,136.794,34.2052,-22.0722,9.81663,7.12502,4.33901,39.7522,-12.1821,0.0590348,18.4548,21.2019,-15.9752,9.87246,30.521,-8.80262,-1.32871,-20.9221,16.1594,-13.5227,5.86227,-29.6603
17.2192,18.138,7.48931,6.35572,-3.81353,0.00633229,0.987432,-4.5496,-0.728536,0.995916,-6.06598,-0.93934,0.442986,-3.03354,-0.519354,-8.15615,-8.6719,7.9597,22.3495,-12.5948,-3.92753,7.45371,-5.76929,-3.61232,1.64991e-14,-1.59028e-15,-32.3082,26.4914,-57.3955,131.742,4.06744,-18.3154,23.2323,7.12502,7.96595,-6.5976,1.64991e-14,-1.59028e-15,-39.4021,-30.7628,39.2352,136.598,33.2475,-21.8766,9.32229,7.12502,4.52788,39.2539,-12.1285,0.0760581,18.5403,21.1602,-15.9357,9.78181,30.5897,-8.82395,-1.40809,-20.8422,16.3148,-13.6343,5.96087,-29.2557
17.2174,18.1334,7.49181,6.33873,-3.83104,-0.0990319,0.0663549,-4.53921,-0.697556,1.82942,-6.03128,-0.970085,1.80627,-3.01554,-0.695053,-9.16015,-8.56684,8.2939,22.1346,-12.6057,-3.81907,7.54818,-5.73548,-3.6788,5.40694e-14,1.51076e-14,-31.5658,26.2257,-58.0276,131.366,4.35064,-17.8412,23.377,7.12502,8.42359,-6.43502,5.40694e-14,1.51076e-14,-39.0626,-30.5733,40.136,136.18,32.5868,-21.5295,8.85038,7.12502,4.86312,38.7746,-12.0472,0.235637,18.6753,21.1195,-16.075,9.44887,29.4111,-8.85516,-1.3911,-20.7167,16.4567,-13.6315,6.02686,-29.5373
17.2147,18.1273,7.4942,6.28603,-3.91173,-0.1012,0.749443,-4.57028,-0.622578,1.36055,-6.08559,-1.03008,0.928702,-3.04244,-0.710145,-8.89718,-8.54023,8.29613,22.5869,-12.5492,-3.92067,7.64707,-5.70526,-3.71496,-6.22196e-14,3.97569e-15,-32.7703,27.1814,-59.3995,131.237,4.59228,-17.5059,23.6111,7.12502,8.74717,-6.18768,-6.22196e-14,3.97569e-15,-40.5979,-31.6255,41.8618,136.018,32.0914,-20.977,8.65136,7.12502,5.39658,38.5626,-11.9644,0.4217,18.69,21.0639,-16.1674,9.23724,28.5452,-8.85591,-1.387,-20.7176,16.5962,-13.6141,6.17301,-30.1672
17.2137,18.1263,7.50087,6.27337,-4.00577,-0.100266,0.857858,-4.57813,-0.60016,1.27876,-6.09815,-1.0527,0.779444,-3.04854,-0.731038,-8.9421,-8.49118,8.25994,22.8099,-12.4915,-3.92301,7.73521,-5.67227,-3.72109,1.5704e-14,1.27222e-14,-33.345,27.9196,-60.3993,131.037,4.64778,-17.3079,23.848,7.12502,8.93824,-5.94268,1.5704e-14,1.27222e-14,-41.6915,-32.1968,43.4533,135.774,31.3134,-20.3091,8.80203,7.12502,6.04137,38.6959,-11.9425,0.505314,18.6908,21.0267,-16.2257,9.19966,27.8966,-8.84719,-1.46014,-20.7275,16.6876,-13.6134,6.33867,-30.0128
17.2147,18.127,7.5081,6.29646,-4.04137,-0.123899,0.704896,-4.59318,-0.601578,1.41978,-6.115,-1.0197,1.01307,-3.05693,-0.718396,-9.37781,-8.41893,8.21618,22.9942,-12.4405,-3.89175,7.88325,-5.63673,-3.73748,-1.5704e-13,2.06736e-14,-33.622,28.495,-61.1094,130.864,4.83033,-17.2226,24.1849,7.12502,9.02059,-5.60226,-1.5704e-13,2.06736e-14,-42.5973,-32.4894,44.9664,135.434,30.4435,-19.5033,8.63086,7.12502,6.81933,38.501,-11.9459,0.499656,18.7144,21.0231,-16.209,9.23782,27.4924,-8.84355,-1.41625,-20.7133,16.693,-13.6068,6.38011,-30.2405
17.2159,18.1304,7.51322,6.26921,-4.04584,-0.0666662,0.752267,-4.63804,-0.687493,1.47645,-6.17469,-1.01184,1.05429,-3.08764,-0.662626,-9.50569,-8.35415,8.18595,22.9972,-12.374,-3.81992,7.91918,-5.59856,-3.71387,3.17062e-14,1.27222e-14,-34.0259,29.1202,-61.7997,130.703,5.05594,-16.973,24.498,7.12502,9.26135,-5.27857,3.17062e-14,1.27222e-14,-43.7487,-32.8012,46.4779,135.209,30.2094,-19.0913,8.36401,7.12502,7.217,38.2209,-11.9263,0.485871,18.6419,21.0386,-16.0028,9.46677,29.2079,-8.78304,-1.32401,-20.7917,16.6568,-13.6934,6.36359,-31.0793
17.2164,18.1349,7.52019,6.26528,-4.10041,-0.033492,0.963068,-4.65271,-0.676856,1.32981,-6.19842,-1.03693,0.782206,-3.09934,-0.666404,-9.26016,-8.35458,8.12025,22.9599,-12.361,-3.72612,7.87529,-5.59213,-3.65699,-3.97569e-14,-4.77083e-15,-34.8139,30.012,-62.5904,130.549,5.2352,-16.7289,24.5122,7.12502,9.49697,-5.25384,-3.97569e-14,-4.77083e-15,-45.2107,-33.3993,48.0635,135.221,30.5535,-19.1887,8.30912,7.12502,7.12301,38.1693,-11.9446,0.535233,18.5896,21.0753,-15.8856,9.61107,30.5906,-8.72425,-1.34259,-20.8388,16.6147,-13.7321,6.38435,-30.9986
17.217,18.1337,7.52649,6.33582,-4.21201,-0.0572093,1.19206,-4.61143,-0.588929,1.09012,-6.14867,-1.03546,0.399945,-3.07384,-0.679022,-9.17228,-8.39886,7.89372,23.1717,-12.4173,-3.59306,7.95196,-5.61658,-3.5904,-2.73329e-14,2.8625e-14,-35.7454,30.9757,-63.1871,130.528,5.26223,-16.4753,24.3215,7.12502,9.74158,-5.43315,-2.73329e-14,2.8625e-14,-46.5162,-34.0323,49.5251,135.119,30.4953,-18.8163,7.99083,7.12502,7.48243,37.8385,-12.0263,0.641238,18.5974,21.0936,-16.0668,9.51486,29.7615,-8.75193,-1.31364,-20.8224,16.5982,-13.7244,6.4272,-30.2931
17.2173,18.129,7.52921,6.37114,-4.30214,-0.126464,1.37826,-4.5911,-0.531275,0.985034,-6.12443,-1.00428,0.185943,-3.06146,-0.656647,-9.2469,-8.40291,7.75326,23.2687,-12.4457,-3.442,8.01745,-5.62137,-3.53306,3.52843e-14,-1.35174e-14,-36.2468,31.8309,-63.3303,130.599,4.94284,-16.0872,24.2491,7.12502,10.1161,-5.48774,3.52843e-14,-1.35174e-14,-47.414,-34.4361,50.5405,134.835,29.8962,-18.0972,7.50348,7.12502,8.1765,37.3253,-12.053,0.760135,18.6634,21.0909,-16.2347,9.36741,28.8142,-8.77295,-1.30209,-20.7484,16.6078,-13.7645,6.52455,-30.0674
17.2183,18.1253,7.53397,6.39846,-4.35058,-0.219872,1.32332,-4.58471,-0.403128,1.08936,-6.11295,-1.03187,0.307225,-3.05501,-0.76521,-9.22668,-8.40809,7.7362,22.9274,-12.5035,-3.11566,7.92375,-5.62963,-3.41317,1.75924e-14,4.77083e-15,-36.3458,32.5814,-63.2691,130.53,4.75607,-15.6614,24.557,7.12502,10.5268,-5.15935,1.75924e-14,4.77083e-15,-47.8442,-34.7193,50.9204,134.631,29.4066,-16.8844,7.16808,7.12502,9.34688,36.9409,-12.0653,0.852909,18.7548,21.0897,-16.1223,9.41514,29.3665,-8.79255,-1.32597,-20.645,16.6339,-13.8663,6.50766,-29.1808
17.2202,18.1252,7.54134,6.38668,-4.43972,-0.146963,1.15953,-4.56174,-0.367201,1.27892,-6.07816,-1.1743,0.5741,-3.03658,-0.954339,-9.41478,-8.42858,7.71379,22.7336,-12.6265,-2.70576,7.92105,-5.65302,-3.29101,2.68359e-14,3.33958e-14,-36.3506,33.3757,-63.1836,130.329,4.62872,-15.2356,25.1879,7.12502,10.9375,-4.50725,2.68359e-14,3.33958e-14,-48.0029,-35.0672,50.8017,134.599,29.2783,-15.2517,6.77516,7.12502,10.922,36.4711,-12.0413,0.802563,18.6543,21.068,-16.1808,9.52286,29.3645,-8.76355,-1.31451,-20.7457,16.6883,-13.9558,6.53252,-28.5431
17.222,18.1237,7.54738,6.32647,-4.56574,-0.104041,1.19657,-4.53829,-0.340497,1.34222,-6.04609,-1.28304,0.604303,-3.01988,-1.07949,-9.73955,-8.43787,7.72141,22.9668,-12.7238,-2.53873,8.0664,-5.66792,-3.27729,-8.13029e-14,9.54166e-15,-36.4835,34.3636,-62.8948,130.268,4.13804,-14.8784,25.9626,7.12502,11.2821,-3.71401,-8.13029e-14,9.54166e-15,-48.3513,-35.6067,50.593,134.681,29.3177,-14.3324,6.1032,7.12502,11.8086,35.7503,-11.9312,0.689265,18.6002,21.0301,-16.3582,9.54973,28.218,-8.67873,-1.41113,-20.8168,16.7534,-14.0103,6.79272,-28.9022
17.223,18.1198,7.55595,6.27256,-4.62916,-0.305021,1.33798,-4.47841,-0.117407,1.28011,-5.9668,-1.26243,0.442475,-2.97927,-1.16541,-9.65719,-8.53627,7.6877,23.0649,-12.872,-2.45836,8.08586,-5.72993,-3.25742,2.88238e-14,6.36111e-15,-36.7705,35.3786,-62.2295,130.386,3.63347,-14.4826,26.6579,7.12502,11.6637,-2.99744,2.88238e-14,6.36111e-15,-48.6267,-36.28,50.2647,134.839,29.5191,-13.4896,5.55877,7.12502,12.6212,35.1575,-11.7813,0.729331,18.8257,21.0145,-16.2187,9.67589,28.5088,-8.5619,-1.46345,-20.6052,16.7753,-14.0985,6.92449,-29.0213
17.2222,18.1143,7.56611,6.24027,-4.68375,-0.407243,1.36442,-4.40939,-0.0382156,1.25687,-5.87464,-1.26546,0.397406,-2.93289,-1.2094,-9.54876,-8.6544,7.62315,23.0961,-13.0604,-2.26944,8.08745,-5.80519,-3.19681,1.08039e-13,4.77083e-15,-36.8744,36.4256,-61.2725,130.548,3.23764,-14.1015,27.0396,7.12502,12.0313,-2.59455,1.08039e-13,4.77083e-15,-48.4323,-36.9056,49.3888,134.98,29.6529,-12.5284,5.43507,7.12502,13.5478,34.9743,-11.6913,0.759523,18.9407,20.9969,-16.1034,9.85394,29.0138,-8.47419,-1.36113,-20.5009,16.7901,-14.1478,6.9063,-29.3766
17.2224,18.1099,7.57256,6.22174,-4.73114,-0.293947,1.32755,-4.39277,-0.173452,1.28516,-5.85287,-1.34044,0.453096,-2.92243,-1.21641,-9.70559,-8.68239,7.5881,23.3149,-13.1524,-2.14196,8.19857,-5.82672,-3.17853,-3.42904e-14,8.74653e-15,-36.6236,37.5771,-60.1579,130.731,2.76869,-13.8481,26.8719,7.12502,12.2756,-2.74785,-3.42904e-14,8.74653e-15,-48.0031,-37.6017,48.0277,135.033,29.5456,-12.5435,5.29975,7.12502,13.5332,34.84,-11.6552,0.680571,18.808,20.9523,-16.0842,9.98947,29.0313,-8.45989,-1.33613,-20.6374,16.8383,-14.1329,6.97294,-29.792
17.2242,18.1123,7.5755,6.22568,-4.70967,-0.190301,1.29706,-4.38865,-0.287644,1.30316,-5.84764,-1.37341,0.496613,-2.92032,-1.19101,-9.79317,-8.67404,7.47218,23.4472,-13.1662,-2.01674,8.27696,-5.82204,-3.13475,1.35174e-14,3.18055e-15,-36.267,38.6239,-58.7311,130.972,2.05296,-13.8736,26.3993,7.12502,12.251,-3.22188,1.35174e-14,3.18055e-15,-47.406,-38.4765,46.497,135.166,29.7438,-12.9924,5.16615,7.12502,13.1006,34.7347,-11.6435,0.643173,18.6864,20.9554,-16.1025,10.0211,29.263,-8.46276,-1.37319,-20.7564,16.8195,-14.1544,6.97709,-29.4506
17.2237,18.1154,7.5761,6.26453,-4.69494,-0.233951,1.24073,-4.35483,-0.261913,1.29142,-5.80203,-1.36405,0.515252,-2.89736,-1.20026,-9.69624,-8.67188,7.24132,23.4952,-13.1719,-1.77756,8.311,-5.8171,-3.02187,-1.53064e-14,-1.27222e-14,-35.902,39.4995,-56.9988,131.274,1.08088,-14.0673,26.0355,7.12502,12.0642,-3.5967,-1.53064e-14,-1.27222e-14,-46.5727,-39.3527,44.7419,135.433,30.3624,-13.076,5.27361,7.12502,13.0199,34.8473,-11.6899,0.710881,18.7402,20.9994,-16.1824,9.9456,29.4905,-8.47592,-1.37352,-20.6951,16.7407,-14.1926,6.86605,-29.1797
17.2232,18.1181,7.5799,6.25467,-4.72224,-0.274274,1.18818,-4.32397,-0.201948,1.26051,-5.76044,-1.38973,0.505146,-2.87621,-1.26237,-9.60458,-8.65246,7.08373,23.7444,-13.1401,-1.71822,8.39622,-5.79919,-2.98371,2.54444e-14,-7.15625e-15,-35.1834,40.45,-55.0752,131.521,0.0543658,-14.249,25.7116,7.12502,11.889,-3.93083,2.54444e-14,-7.15625e-15,-45.7101,-40.1553,42.71,135.749,31.2507,-13.2376,5.41796,7.12502,12.8642,35.0015,-11.6923,0.725121,18.7747,21.01,-16.1283,10.0674,30.1532,-8.45133,-1.40418,-20.6433,16.7372,-14.2401,6.79761,-28.9558
17.2251,18.1217,7.58505,6.26254,-4.71509,-0.299933,1.09945,-4.32049,-0.143335,1.22699,-5.75519,-1.39262,0.51437,-2.87327,-1.30317,-9.71438,-8.57395,7.07421,24.1355,-13.0138,-1.93565,8.53793,-5.745,-3.0671,-3.98563e-14,8.74653e-15,-34.0699,41.3007,-52.8684,131.701,-0.949972,-14.3048,25.5719,7.12502,11.8352,-4.07368,-3.98563e-14,8.74653e-15,-44.7206,-40.9679,40.5329,135.972,32.2126,-13.4019,5.29865,7.12502,12.7058,34.8921,-11.7043,0.669557,18.791,21.0213,-16.0815,10.1892,30.1315,-8.47367,-1.47114,-20.6247,16.7823,-14.2939,6.84703,-28.9893
17.2264,18.1188,7.58789,6.28471,-4.68546,-0.360969,1.03173,-4.30225,-0.090039,1.18039,-5.73078,-1.33968,0.505112,-2.86103,-1.28214,-9.74524,-8.49807,6.99076,24.3761,-12.8766,-2.07778,8.6258,-5.6916,-3.10275,1.65985e-14,1.27222e-14,-32.963,41.8291,-50.4398,131.945,-1.99979,-14.2971,25.6284,7.12502,11.8427,-4.01671,1.65985e-14,1.27222e-14,-43.8357,-42.0383,38.7557,136.345,33.5353,-14.0418,5.54562,7.12502,12.0888,35.1764,-11.7055,0.606877,18.8694,21.058,-16.1438,10.0956,29.2483,-8.4841,-1.54067,-20.5637,16.7793,-14.3033,6.89216,-29.344
17.228,18.1139,7.59292,6.21012,-4.7147,-0.305289,1.01005,-4.24781,-0.129088,1.16595,-5.65837,-1.3701,0.504652,-2.82505,-1.29332,-9.61385,-8.43852,6.85025,24.4583,-12.7806,-1.99946,8.65022,-5.64785,-3.04513,-2.60408e-14,1.11319e-14,-31.8092,42.1045,-47.9658,132.235,-3.18865,-14.2272,25.4258,7.12502,11.91,-4.21548,-2.60408e-14,1.11319e-14,-42.6882,-42.8734,36.6989,136.659,34.5283,-14.5448,5.77386,7.12502,11.6038,35.4326,-11.6336,0.523242,18.8057,21.1158,-16.1172,10.1095,29.0833,-8.33199,-1.5957,-20.6393,16.732,-14.2612,6.91478,-28.8113
17.2315,18.1205,7.59803,6.17473,-4.7311,-0.375178,0.947355,-4.20869,0.00479194,1.16338,-5.60521,-1.40759,0.521612,-2.79752,-1.41024,-9.53443,-8.32215,6.77924,24.524,-12.6311,-1.88465,8.67952,-5.56903,-2.98423,9.93923e-15,1.59028e-15,-30.3888,41.9389,-45.4651,132.504,-4.59699,-13.6378,25.0373,7.12502,12.4784,-4.57013,9.93923e-15,1.59028e-15,-41.2636,-43.4014,34.3842,136.905,35.6684,-15.147,6.33003,7.12502,11.023,36.0206,-11.6588,0.515119,18.8549,21.2234,-15.9574,10.2587,30.0494,-8.19306,-1.58745,-20.5875,16.6451,-14.1911,7.03487,-28.8799
17.2326,18.1312,7.60058,6.23988,-4.77744,-0.401057,0.853758,-4.17988,0.00608433,1.11612,-5.56679,-1.38817,0.528164,-2.77849,-1.39681,-9.49978,-8.14611,6.7785,24.5621,-12.3684,-1.95015,8.69287,-5.45084,-2.98385,-7.09661e-14,5.56597e-15,-28.9629,41.3006,-43.0885,132.747,-5.9747,-12.7316,24.7895,7.12502,13.3519,-4.76275,-7.09661e-14,5.56597e-15,-40.0131,-43.6168,32.5037,137.039,37.0588,-15.518,7.05057,7.12502,10.6651,36.7599,-11.814,0.706312,18.8569,21.3978,-15.9609,10.1377,30.1412,-8.15713,-1.58722,-20.5751,16.4704,-14.0761,7.2706,-29.9986
17.2322,18.1327,7.60303,6.28054,-4.85623,-0.189761,0.73374,-4.14573,-0.250435,1.09589,-5.52105,-1.4136,0.597188,-2.75698,-1.29098,-9.46998,-7.97209,6.83184,24.5308,-12.0788,-2.15674,8.66976,-5.3332,-3.03195,9.74045e-15,2.38542e-15,-27.774,40.2791,-41.1612,132.929,-7.05028,-11.8024,24.4199,7.12502,14.2474,-5.07136,9.74045e-15,2.38542e-15,-39.1445,-43.6091,31.214,137.155,38.3873,-15.8584,7.57096,7.12502,10.3368,37.2969,-11.9658,0.90365,18.6123,21.597,-16.1152,9.86547,29.4612,-8.11189,-1.68079,-20.8138,16.2431,-13.8796,7.39873,-30.2407
17.2353,18.1321,7.60501,6.27207,-4.86533,-0.0125808,0.626135,-4.15006,-0.408045,1.12939,-5.52526,-1.43868,0.703935,-2.75974,-1.24043,-9.52023,-7.78493,6.88481,24.466,-11.7806,-2.34296,8.65268,-5.20943,-3.07603,-3.08116e-15,1.35174e-14,-26.6559,39.0217,-39.7217,133.073,-8.00965,-11.1047,23.5764,7.12502,14.9196,-5.86629,-3.08116e-15,1.35174e-14,-38.57,-43.3975,30.4275,137.329,39.638,-16.3906,8.09406,7.12502,9.82332,37.8449,-12.0781,0.864919,18.4093,21.7684,-16.1654,9.86001,29.7974,-8.01463,-1.81682,-21.0171,16.0456,-13.8091,7.27671,-29.1982
17.2391,18.1363,7.60795,6.3233,-4.87198,0.138489,0.526025,-4.16165,-0.568158,1.10731,-5.53979,-1.4183,0.754112,-2.76813,-1.13901,-9.84353,-7.56957,6.92344,24.6903,-11.479,-2.53942,8.78687,-5.07187,-3.14966,-2.23633e-14,8.74653e-15,-25.9043,37.6797,-38.829,133.276,-8.79945,-11.0682,22.7812,7.12502,14.9548,-6.65885,-2.23633e-14,8.74653e-15,-38.4621,-43.0107,30.4014,137.561,40.7678,-17.5542,8.67498,7.12502,8.70054,38.4757,-12.2306,0.72669,18.2339,21.8735,-16.09,10.0379,30.4302,-8.01012,-1.86187,-21.1936,15.9406,-13.8187,7.12398,-28.2767
17.2415,18.1464,7.60897,6.41112,-4.88062,0.107394,0.517841,-4.11644,-0.547014,1.00306,-5.48133,-1.32183,0.66013,-2.73928,-1.04813,-10.254,-7.43116,6.80632,25.1571,-11.274,-2.73661,9.02691,-4.98384,-3.2234,-1.51076e-14,1.59028e-15,-26.0396,36.1623,-38.6149,133.6,-9.09621,-11.5074,22.5657,7.12502,14.5317,-6.90539,-1.51076e-14,1.59028e-15,-38.8371,-42.6171,31.2198,137.828,41.4644,-19.2538,8.81456,7.12502,7.06013,38.6768,-12.346,0.712513,18.266,21.8625,-15.9372,10.0803,30.7967,-8.13244,-1.82153,-21.1603,15.9848,-13.688,7.0861,-28.2689
17.2445,18.1577,7.60563,6.46896,-4.88281,-0.081654,0.68044,-4.06167,-0.369488,0.890298,-5.41193,-1.15732,0.45415,-2.70436,-0.96015,-10.323,-7.31363,6.60727,25.1636,-11.0429,-2.85922,9.05531,-4.90479,-3.21701,-2.5345e-14,-1.51076e-14,-26.605,34.5818,-38.9248,134.115,-9.02483,-12.1869,22.4242,7.12502,13.8769,-7.09284,-2.5345e-14,-1.51076e-14,-39.6167,-42.206,32.8664,138.112,41.675,-21.5079,9.08023,7.12502,4.8839,39.0039,-12.3496,0.830984,18.4767,21.7459,-15.8858,9.852,30.6037,-8.30141,-1.83613,-20.9458,16.1556,-13.6715,7.01996,-27.7413
17.2491,18.1635,7.60495,6.65227,-4.88079,-0.278945,0.637185,-4.05014,-0.111349,0.849201,-5.39628,-1.07394,0.42067,-2.69558,-1.01866,-10.219,-7.08257,6.77172,24.6692,-10.6904,-2.95981,8.86556,-4.75407,-3.21691,1.16289e-14,7.95139e-16,-27.1383,32.931,-39.8338,134.706,-8.55732,-12.8949,22.168,7.12502,13.1946,-7.39445,1.16289e-14,7.95139e-16,-40.6794,-41.7262,34.997,138.514,41.6856,-24.3226,9.6739,7.12502,2.16584,39.6427,-12.4241,0.852714,18.7047,21.5688,-15.8192,9.61972,30.4288,-8.6391,-1.88664,-20.7251,16.4137,-13.8121,6.93203,-26.9182
17.2523,18.1685,7.60766,6.87287,-4.87837,-0.448196,0.449556,-4.01028,0.233985,0.843952,-5.34196,-1.09893,0.487179,-2.6665,-1.24838,-10.2427,-6.86624,7.07062,24.2462,-10.4055,-3.04127,8.71741,-4.61698,-3.24824,-7.73272e-14,-4.77083e-15,-28.0583,31.2289,-41.4067,135.285,-7.39787,-13.634,22.266,7.12502,12.482,-7.34124,-7.73272e-14,-4.77083e-15,-41.8479,-41.1844,37.322,139.072,41.6113,-26.0292,9.58682,7.12502,0.517534,39.5659,-12.5234,0.932621,18.9116,21.3813,-15.4803,9.46798,31.5886,-9.03679,-1.98335,-20.5318,16.7348,-13.8971,6.97659,-26.6198
17.2533,18.1705,7.61004,6.94953,-4.86955,-0.519124,0.592451,-3.93559,0.434317,0.686859,-5.24365,-1.07233,0.233275,-2.61831,-1.31344,-10.1638,-6.80236,6.90924,24.0252,-10.2757,-3.00177,8.64464,-4.57329,-3.18538,1.87852e-14,-1.03368e-14,-29.5915,29.8653,-43.3617,135.986,-5.78862,-14.3718,22.6525,7.12502,11.7706,-6.99673,1.87852e-14,-1.03368e-14,-43.4328,-40.6979,40.43,139.556,40.9199,-26.3077,8.87429,7.12502,0.248565,38.8539,-12.4933,1.00618,19.0158,21.2103,-14.9971,9.41917,32.7784,-9.29214,-2.08437,-20.4396,17.0667,-14.0623,7.00034,-26.2077
17.2556,18.164,7.61232,7.05588,-4.80083,-0.677982,0.762729,-3.90893,0.724456,0.481095,-5.20793,-0.996539,-0.0903801,-2.60249,-1.37374,-10.0592,-6.7492,6.63008,23.8998,-10.1485,-2.93628,8.60754,-4.5349,-3.09897,-1.13009e-13,1.74931e-14,-31.1235,28.598,-45.6388,136.624,-3.92862,-14.4729,23.2858,7.12502,11.6731,-6.36906,-1.13009e-13,1.74931e-14,-45.4564,-40.1269,44.1656,139.955,39.5872,-26.5032,8.16469,7.12502,0.0597826,38.1444,-12.5063,0.756573,19.2262,21.0728,-14.5981,9.64851,33.1906,-9.51611,-2.04785,-20.2592,17.3162,-14.3344,6.90805,-26.0408
17.2583,18.1572,7.61658,7.24699,-4.68896,-0.872584,0.722006,-3.9382,1.10038,0.344964,-5.24556,-0.971434,-0.239438,-2.62294,-1.55126,-9.88425,-6.62401,6.67364,23.602,-9.93184,-3.0322,8.47595,-4.45048,-3.09772,2.87244e-14,1.03368e-14,-32.6529,27.3913,-48.4403,137.097,-1.97059,-14.2808,23.9223,7.12502,11.8583,-5.72192,2.87244e-14,1.03368e-14,-47.7184,-39.3343,47.9952,140.38,38.1642,-26.6686,7.40921,7.12502,-0.0999838,37.3889,-12.6285,0.417542,19.494,20.9858,-14.5432,9.75838,33.0112,-9.77391,-1.89966,-20.0518,17.4759,-14.4699,6.8588,-26.8799
17.257,18.1547,7.62105,7.36154,-4.61191,-0.893323,0.817234,-4.01378,1.24803,0.184958,-5.34546,-1.04197,-0.480306,-2.67611,-1.68757,-9.60192,-6.48389,7.01211,23.1842,-9.69501,-3.31295,8.25986,-4.356,-3.19174,1.68967e-15,-2.38542e-15,-34.4942,26.8373,-51.9043,137.523,-0.562403,-14.5309,24.0399,7.12502,11.6172,-5.61806,1.68967e-15,-2.38542e-15,-50.2171,-38.4934,51.9909,140.643,36.6892,-26.5168,6.21443,7.12502,0.0466436,36.1942,-12.7051,0.354206,19.5749,20.9331,-14.9023,9.38955,32.0028,-9.95187,-1.8452,-20.0347,17.6109,-14.4789,6.98571,-27.9888
17.2539,18.1503,7.62362,7.4352,-4.55205,-0.908942,0.961307,-4.07578,1.3511,0.0926515,-5.42681,-1.12306,-0.676,-2.7195,-1.80929,-9.61844,-6.3871,7.30731,22.9144,-9.55721,-3.52345,8.15169,-4.2971,-3.28509,-6.85807e-14,8.74653e-15,-36.1824,26.7205,-55.5225,137.798,0.0712963,-14.7403,24.1475,7.12502,11.4152,-5.5218,-6.85807e-14,8.74653e-15,-52.3758,-37.6139,55.9041,140.608,35.0909,-26.2612,4.755,7.12502,0.293479,34.7345,-12.7746,0.5237,19.6391,20.9518,-15.4386,8.87322,31.3566,-10.0479,-1.88813,-20.0019,17.6434,-14.572,7.02329,-28.027
17.2523,18.1364,7.62585,7.49782,-4.50252,-0.907173,0.963047,-4.08712,1.40208,0.11973,-5.44132,-1.12868,-0.655111,-2.72654,-1.84386,-9.83895,-6.327,7.29892,22.6976,-9.46581,-3.58783,8.12002,-4.26602,-3.29874,5.12864e-14,-7.95139e-15,-37.7459,26.7821,-58.9411,137.955,0.397802,-14.6324,24.3323,7.12502,11.5192,-5.33118,5.12864e-14,-7.95139e-15,-54.0512,-36.6273,59.5874,140.41,33.417,-25.8452,3.69328,7.12502,0.695236,33.6719,-12.892,0.613607,19.6672,21.0816,-15.8693,8.71121,31.9309,-10.0376,-1.73524,-19.9927,17.479,-14.6525,6.85975,-27.8309
