JuanDHNZ/ProyectoFinalCD/preprocessing/sports_trials_csv/55_02.csv
root1,root2,root3,root4,root5,root6,lowerback1,lowerback2,lowerback3,upperback1,upperback2,upperback3,thorax1,thorax2,thorax3,lowerneck1,lowerneck2,lowerneck3,upperneck1,upperneck2,upperneck3,head1,head2,head3,rclavicle1,rclavicle2,rhumerus1,rhumerus2,rhumerus3,rradius1,rwrist1,rhand1,rhand2,rfingers1,rthumb1,rthumb2,lclavicle1,lclavicle2,lhumerus1,lhumerus2,lhumerus3,lradius1,lwrist1,lhand1,lhand2,lfingers1,lthumb1,lthumb2,rfemur1,rfemur2,rfemur3,rtibia1,rfoot1,rfoot2,rtoes1,lfemur1,lfemur2,lfemur3,ltibia1,lfoot1,lfoot2,ltoes1
2.9604,17.2554,-27.07,2.51125,-3.13644,-5.95572,3.85054,1.07078,4.92185,-2.62546,1.81169,1.92999,-4.79782,0.768859,-0.899345,6.14691,4.66753,15.774,-14.424,5.47061,-20.6113,-4.09104,3.20137,-9.56936,4.77549e-15,-2.50966e-14,-2.98307,25.8157,-80.0164,89.6846,-22.0499,-17.0119,10.8984,7.12502,9.22384,-18.8798,4.77549e-15,-2.50966e-14,15.8898,18.4965,6.75836,72.0976,-3.2077,-49.6373,12.4562,7.12502,-22.2409,41.1965,-4.27689,-1.89834,29.9089,26.7605,-24.2862,7.1073,35.6682,-20.4413,-1.07232,-13.9895,43.2823,-23.0896,3.36516,-24.2879
2.97405,17.2523,-27.0365,2.27192,-2.40749,-5.28753,3.85019,0.783609,4.48941,-2.58593,1.39275,1.74773,-4.78045,0.573279,-0.814942,7.01202,4.81438,15.0101,-15.2734,5.66835,-20.0014,-4.51091,3.34277,-9.30446,2.5081e-15,4.67144e-15,-3.12827,26.2376,-80.0551,89.7806,-22.2824,-17.0756,10.6779,7.12502,9.16241,-19.103,2.5081e-15,4.67144e-15,15.5841,18.2189,6.88934,72.4265,-2.27916,-49.5719,12.5148,7.12502,-22.1781,41.2626,-4.49907,-1.49343,29.3506,27.7431,-25.2002,5.33628,33.3504,-19.9642,-1.5387,-14.7869,42.8619,-23.3117,3.08187,-24.5418
2.98627,17.2438,-27.0006,2.15886,-1.70222,-4.84656,3.69218,0.545812,4.33226,-2.53853,1.04579,1.54898,-4.65498,0.405958,-0.904266,6.80325,4.76511,14.9979,-14.9946,5.59449,-20.0637,-4.40313,3.30058,-9.29898,1.04222e-14,-1.5704e-14,-3.41308,26.4827,-80.2458,89.9063,-22.1228,-16.9744,10.2056,7.12502,9.26,-19.571,1.04222e-14,-1.5704e-14,15.4736,18.0044,6.98389,72.743,-1.01268,-49.1944,12.5984,7.12502,-21.8157,41.3888,-4.95495,-0.939297,29.0635,29.0228,-25.9515,3.80982,32.0344,-19.6662,-1.95686,-15.299,42.4529,-23.3086,2.54737,-23.5508
2.99828,17.2361,-26.9936,2.24264,-1.29193,-4.62826,3.72877,0.497607,4.39808,-2.63343,0.981975,1.33743,-4.77349,0.365016,-1.15601,5.88364,4.46997,15.8431,-13.8432,5.19971,-20.9196,-3.91276,3.0668,-9.64982,8.46233e-15,-2.8948e-15,-3.88094,26.2684,-80.5288,90.0272,-21.6705,-16.7112,9.78474,7.12502,9.51404,-19.9805,8.46233e-15,-2.8948e-15,15.7655,17.8204,7.34547,73.079,0.74769,-48.3497,12.2871,7.12502,-21.0043,41.1697,-5.75582,-0.00596506,29.0237,30.4045,-26.3641,2.76598,32.0831,-19.6999,-2.03364,-15.5247,41.9785,-22.9848,2.1688,-23.3575
3.01255,17.2356,-26.9701,2.10869,-0.716837,-3.2685,3.66169,0.455219,3.36257,-2.50846,0.834221,0.788963,-4.61377,0.320217,-1.13234,5.58167,4.32077,16.1226,-13.653,4.98345,-21.1264,-3.8291,2.94328,-9.75214,-1.25646e-14,-6.01324e-15,-4.07837,25.9646,-80.6303,90.1911,-22.1903,-16.858,9.62521,7.12502,9.37239,-20.1464,-1.25646e-14,-6.01324e-15,16.2345,17.7767,7.83677,73.5812,2.9584,-47.5943,12.4131,7.12502,-20.2785,41.3745,-6.31163,0.290043,27.6018,31.935,-26.8888,2.05565,31.5939,-19.328,-2.24272,-17.0982,41.4347,-22.7535,1.9338,-24.0996
3.02773,17.2306,-26.9478,2.11675,-0.140888,-1.99099,3.55276,0.363245,2.47358,-2.41706,0.632309,0.241567,-4.46575,0.241688,-1.18392,5.90909,4.40925,15.6268,-14.2104,5.10631,-20.4403,-4.07034,3.00741,-9.46256,-5.96354e-16,1.08338e-14,-4.24945,25.8821,-80.7467,90.3609,-22.8931,-16.7695,9.56344,7.12502,9.45776,-20.2043,-5.96354e-16,1.08338e-14,16.5616,17.6809,8.21786,74.1779,5.05693,-47.4421,14.1317,7.12502,-20.1323,43.1086,-7.09714,0.395913,26.244,33.5905,-27.2456,1.44607,31.1282,-19.1017,-2.36751,-18.5688,40.9287,-22.4577,1.43085,-24.2778
3.04669,17.223,-26.927,2.32759,0.307656,-1.31172,3.38833,0.285312,2.33769,-2.60288,0.498705,-0.240739,-4.56783,0.168578,-1.59618,7.02931,4.41325,15.1202,-15.0175,5.20842,-19.5685,-4.5422,3.08165,-9.15809,5.60635e-15,3.27995e-15,-4.81476,25.8338,-81.1667,90.5107,-23.1857,-16.458,9.27563,7.12502,9.75828,-20.4783,5.60635e-15,3.27995e-15,17.0371,17.287,8.58513,74.6027,7.2352,-47.1542,16.0266,7.12502,-19.8555,45.0324,-8.14013,0.499102,25.4855,35.31,-27.3656,1.23741,31.8264,-19.081,-2.28758,-19.3813,40.3961,-22.0944,1.1256,-25.0643
3.06498,17.2115,-26.8971,2.30481,0.770521,-0.520697,3.38618,0.154962,2.03321,-2.53505,0.289566,-0.665489,-4.50427,0.0685022,-1.84933,6.70769,4.48586,14.8328,-14.9002,5.28651,-19.2333,-4.45963,3.09976,-8.97117,-1.78285e-15,-1.35174e-14,-4.75156,25.9389,-81.2638,90.6358,-23.6383,-16.2677,8.48813,7.12502,9.94188,-21.2571,-1.78285e-15,-1.35174e-14,17.478,17.3813,9.03593,74.9681,9.55344,-46.3983,17.1926,7.12502,-19.1287,46.272,-8.84345,0.4288,24.5622,37.0574,-27.5452,0.920782,31.8024,-18.7319,-2.20742,-20.3411,39.8916,-22.0286,0.736113,-25.3412
3.07419,17.2064,-26.8653,2.23253,1.43082,0.361049,3.30658,-0.00700041,1.52091,-2.4199,0.0283465,-1.05456,-4.35091,-0.0492339,-1.94463,5.89262,4.38865,14.9355,-14.1422,5.12067,-19.4197,-4.1113,2.98661,-8.98041,-3.17745e-15,1.64991e-14,-4.82505,25.9379,-81.2857,90.8298,-24.2244,-16.0178,8.37249,7.12502,10.183,-21.3611,-3.17745e-15,1.64991e-14,17.7691,17.6022,9.47126,75.5453,11.9471,-45.5263,18.0108,7.12502,-18.29,47.1709,-9.4615,0.246189,23.6208,38.8527,-27.7685,0.333443,31.0362,-18.319,-2.15462,-21.3187,39.3939,-22.0924,-0.388663,-24.255
3.08306,17.2071,-26.8419,2.30799,2.13615,1.1305,3.11847,-0.176417,1.17137,-2.32583,-0.233105,-1.46136,-4.15863,-0.172761,-2.15044,5.45312,4.27223,15.0424,-13.8744,4.92543,-19.5917,-3.98058,2.87488,-9.02766,6.45429e-15,-6.95746e-15,-4.95792,25.6895,-81.3352,90.9101,-24.7592,-15.0423,9.67169,7.12502,11.124,-20.0135,6.45429e-15,-6.95746e-15,18.0492,17.8882,9.85103,76.2439,14.6235,-45.0072,19.0013,7.12502,-17.7906,48.2075,-10.33,0.110912,22.8317,40.7006,-27.9031,-0.252115,30.4165,-18.085,-2.02514,-22.1293,38.816,-21.8243,-1.76077,-23.1485
3.09818,17.1998,-26.8304,2.32837,2.79721,1.78983,3.2838,-0.283121,1.13031,-2.33961,-0.397229,-1.97545,-4.27916,-0.262715,-2.64899,5.43302,4.04999,15.2512,-14.0426,4.59955,-19.7523,-4.07429,2.71339,-9.12705,-4.25523e-15,-3.10104e-14,-5.05463,25.4319,-81.4629,90.9879,-24.8236,-14.839,9.96025,7.12502,11.32,-19.7143,-4.25523e-15,-3.10104e-14,18.7111,17.9799,10.4357,76.8868,17.1415,-44.8869,20.3259,7.12502,-17.6748,49.5425,-11.2635,-0.121936,22.1008,42.5743,-27.8423,-0.732398,29.0402,-17.7692,-1.93542,-22.856,38.14,-21.3985,-2.69816,-22.7833
3.1167,17.1992,-26.82,2.38213,3.62183,2.52056,3.54276,-0.463359,1.05738,-2.40748,-0.661652,-2.43715,-4.5177,-0.402883,-3.06856,5.81266,3.89386,14.9482,-14.5793,4.36142,-19.5411,-4.36051,2.61872,-9.03859,6.14369e-15,-3.97569e-16,-5.07703,25.4322,-81.4463,90.9615,-24.7501,-14.8662,10.0379,7.12502,11.2938,-19.638,6.14369e-15,-3.97569e-16,19.2985,18.0089,11.1537,77.4495,19.1903,-44.8627,21.7752,7.12502,-17.6515,50.994,-12.2291,-0.71345,21.2218,44.4261,-27.5805,-1.03647,26.9165,-17.3984,-2.06681,-23.6892,37.398,-21.188,-3.26939,-23.3614
3.13169,17.2079,-26.7993,2.49822,4.45649,3.52012,3.55534,-0.707664,0.559707,-2.30592,-1.02948,-2.81893,-4.44072,-0.575203,-3.15738,6.08755,4.07367,14.0205,-15.1029,4.55636,-18.9196,-4.57868,2.74061,-8.69632,-1.37907e-15,-3.73715e-14,-4.99913,25.6966,-81.1895,91.105,-24.4725,-14.6965,10.1998,7.12502,11.4574,-19.4671,-1.37907e-15,-3.73715e-14,19.5564,18.264,11.7201,77.9769,21.0572,-44.9121,23.04,7.12502,-17.6991,52.2545,-13.1428,-1.38659,20.0253,46.2196,-27.3514,-1.20284,25.552,-16.9996,-2.1245,-24.8085,36.6239,-21.0649,-3.75404,-24.6187
3.1377,17.2093,-26.7739,2.54123,5.02558,4.44842,3.56603,-0.82387,-0.00737713,-2.18307,-1.22799,-3.20391,-4.32817,-0.661271,-3.22345,5.91715,4.21404,13.5607,-15.0281,4.7183,-18.6664,-4.52116,2.82209,-8.51918,-6.08778e-16,0,-4.95381,25.7545,-81.0247,91.2534,-24.3364,-14.2858,10.1077,7.12502,11.8535,-19.5368,-6.08778e-16,0,20.0337,18.5199,12.3134,78.4106,22.7862,-45.2813,23.9746,7.12502,-18.0543,53.1567,-13.905,-1.75776,18.9334,47.8944,-27.1765,-1.36159,25.2728,-16.5222,-1.78063,-25.8103,35.8486,-20.8995,-4.61784,-24.6893
3.14262,17.209,-26.7531,2.51885,5.41247,5.06568,3.68681,-0.827612,-0.221013,-2.16618,-1.26174,-3.58555,-4.3867,-0.678173,-3.49754,5.60382,4.1183,13.7561,-14.4676,4.59494,-18.9757,-4.30373,2.75321,-8.61896,4.24902e-15,2.06736e-14,-5.02182,25.7186,-80.9818,91.246,-24.0714,-14.2558,9.96755,7.12502,11.8824,-19.6753,4.24902e-15,2.06736e-14,20.8654,18.7551,13.2935,78.7099,23.8989,-45.3589,24.4535,7.12502,-18.129,53.6286,-14.5907,-1.9718,18.173,49.3948,-26.7561,-1.57267,23.8039,-16.0161,-1.36712,-26.4636,35.1095,-20.7941,-5.41738,-25.3273
3.15042,17.2122,-26.7353,2.43721,5.89905,5.50933,3.82832,-0.891327,-0.170569,-2.13783,-1.36055,-3.93166,-4.4551,-0.734939,-3.8795,4.9492,3.96365,14.258,-13.2955,4.41026,-19.6742,-3.83676,2.63859,-8.86826,8.69683e-15,-1.51076e-14,-5.07895,25.7942,-80.8776,91.2509,-23.872,-14.2985,10.0812,7.12502,11.8413,-19.564,8.69683e-15,-1.51076e-14,21.6304,19.0015,14.3667,78.964,24.4313,-44.9529,24.4489,7.12502,-17.7383,53.6599,-15.1231,-2.24359,17.5939,50.7337,-26.2728,-1.66184,22.1918,-15.5001,-1.1587,-26.9438,34.4595,-20.6326,-6.1779,-25.8211
3.15994,17.217,-26.7137,2.29659,6.56024,5.95684,4.00115,-1.08929,-0.0905062,-2.06428,-1.63494,-4.23151,-4.50821,-0.878894,-4.2159,4.24222,3.868,14.5531,-12.2103,4.28663,-20.3052,-3.3887,2.5526,-9.06661,-1.52878e-14,-6.36111e-15,-5.01952,26.0194,-80.8286,91.2788,-23.6951,-14.2545,10.1633,7.12502,11.8837,-19.4794,-1.52878e-14,-6.36111e-15,22.0416,19.1449,15.0832,79.2408,24.8031,-45.0737,24.7349,7.12502,-17.8546,53.9353,-15.4267,-2.57894,17.0038,51.8916,-26.1417,-1.72289,22.6075,-14.8942,-1.08877,-27.4452,33.8175,-20.4394,-6.92694,-26.0253
3.18269,17.2176,-26.6979,2.26471,6.9993,6.50696,4.20222,-1.18645,0.0803312,-2.0354,-1.77561,-4.62407,-4.6235,-0.961997,-4.71257,4.64566,3.77597,14.2471,-12.6646,4.13737,-20.1444,-3.63292,2.50892,-8.98889,1.24986e-14,1.94809e-14,-4.94477,26.1199,-80.8225,91.2683,-23.3965,-14.2656,10.5967,7.12502,11.873,-19.0466,1.24986e-14,1.94809e-14,22.5382,19.232,15.7697,79.5468,25.0538,-45.346,25.4637,7.12502,-18.1165,54.64,-15.9441,-2.81671,16.1977,52.9717,-26.2624,-2.00263,22.3036,-14.3848,-1.10599,-28.1339,33.162,-20.256,-7.31316,-26.5076
3.18718,17.2229,-26.6706,2.29576,7.81049,7.13152,4.14643,-1.30752,-0.0667775,-1.92613,-1.95581,-5.00664,-4.50375,-1.05142,-5.01899,5.74317,3.6406,13.7878,-13.8794,3.93346,-19.6545,-4.24838,2.46776,-8.82862,4.82053e-15,5.48646e-14,-4.96455,25.9725,-80.6705,91.3091,-23.1274,-14.1365,11.3113,7.12502,11.9975,-18.3248,4.82053e-15,5.48646e-14,23.2208,19.3043,16.5301,79.9022,25.2684,-45.379,25.6062,7.12502,-18.1483,54.7795,-16.3125,-3.07902,15.4793,53.9269,-26.7696,-2.4441,22.6022,-13.8401,-1.15566,-28.7637,32.4717,-20.0854,-8.08499,-26.5599
3.18623,17.2304,-26.6491,2.41803,8.61662,7.67691,4.00257,-1.43484,-0.238141,-1.82792,-2.1388,-5.31182,-4.34304,-1.13989,-5.23205,5.87979,3.59028,13.6985,-13.89,3.85901,-19.7258,-4.28927,2.44664,-8.84176,8.79001e-15,3.29983e-14,-4.92079,25.9142,-80.3829,91.4147,-22.9448,-14.4266,11.4794,7.12502,11.7177,-18.1728,8.79001e-15,3.29983e-14,23.8378,19.4584,17.2827,80.2082,25.2429,-45.9857,25.5447,7.12502,-18.7319,54.6627,-16.7791,-3.29699,14.8724,54.7649,-27.1991,-2.89284,23.6438,-13.4294,-1.18672,-29.2765,31.7536,-19.8209,-8.93544,-26.358
3.18957,17.2336,-26.6295,2.55982,9.27001,8.32208,4.03576,-1.48622,-0.362112,-1.85124,-2.23255,-5.71493,-4.40922,-1.19082,-5.58185,4.99033,3.51959,14.1164,-12.5389,3.812,-20.2543,-3.71792,2.37572,-9.00828,-2.34007e-14,-7.95139e-15,-5.05874,25.787,-80.2364,91.5078,-22.8539,-14.761,11.3891,7.12502,11.3952,-18.2813,-2.34007e-14,-7.95139e-15,24.6261,19.4308,18.2186,80.3658,24.7724,-46.4071,25.5471,7.12502,-19.1372,54.6255,-17.2654,-3.51013,14.0777,55.4665,-27.4154,-3.96807,22.7452,-13.0024,-1.40024,-29.9552,31.0256,-19.5243,-9.45617,-26.2917
3.19279,17.2408,-26.6061,2.59198,9.89674,8.95792,4.19166,-1.75453,-0.493671,-1.8591,-2.61668,-5.95934,-4.5509,-1.38463,-5.73188,4.21521,3.63616,13.8713,-11.3792,3.9818,-20.5524,-3.21134,2.4307,-8.99411,2.53202e-14,-3.33958e-14,-4.97664,26.3471,-80.1601,91.5272,-22.7414,-14.4775,11.2564,7.12502,11.6686,-18.3987,2.53202e-14,-3.33958e-14,24.5861,19.5281,18.6514,80.5337,24.2983,-46.0199,24.915,7.12502,-18.7649,54.0299,-17.5415,-3.58193,13.2728,56.0169,-27.7476,-5.26131,21.216,-12.4403,-1.69364,-30.6318,30.3672,-19.2259,-9.81582,-26.2433
3.19582,17.2503,-26.5843,2.61111,10.526,9.34654,4.12308,-1.88724,-0.437492,-1.69697,-2.78739,-6.16475,-4.37395,-1.47133,-5.97097,4.48933,3.65788,13.4428,-11.6023,3.97812,-20.5127,-3.33702,2.46231,-8.92067,9.17515e-15,3.26007e-14,-4.69345,26.4291,-79.9016,91.5568,-22.6517,-14.0422,11.2158,7.12502,12.0884,-18.415,9.17515e-15,3.26007e-14,24.9154,19.5895,19.1136,80.7981,23.9124,-45.9615,24.5979,7.12502,-18.7087,53.7182,-17.7808,-3.57813,12.7422,56.4293,-28.2547,-6.1097,21.3556,-11.9651,-1.93106,-31.026,29.7937,-18.982,-10.2268,-26.1784
3.19637,17.2513,-26.5635,2.71185,11.1077,9.61652,3.96315,-1.96193,-0.299772,-1.54716,-2.87104,-6.33874,-4.15261,-1.5156,-6.23398,5.37243,3.68152,12.8848,-12.6544,3.93691,-20.2524,-3.82837,2.51446,-8.80393,-1.99468e-14,-3.97569e-15,-4.41378,26.4452,-79.4473,91.7334,-22.6994,-13.3787,10.9771,7.12502,12.7282,-18.6149,-1.99468e-14,-3.97569e-15,25.3849,19.6278,19.6238,81.0366,23.3394,-46.2164,24.7515,7.12502,-18.9538,53.848,-18.1272,-3.57893,12.3648,56.7193,-28.6734,-6.97209,22.6943,-11.6839,-2.0228,-31.2737,29.3179,-18.8362,-10.7638,-25.9898
3.19668,17.253,-26.5457,2.90949,11.6109,9.82612,3.9003,-2.04352,-0.0825957,-1.59551,-2.97522,-6.49363,-4.20023,-1.57811,-6.51824,5.71331,3.64721,12.6781,-12.9157,3.85638,-20.3458,-3.98196,2.51072,-8.82154,-9.62863e-16,-7.31528e-14,-4.46813,26.6433,-79.0991,91.9348,-22.7301,-12.7935,10.6389,7.12502,13.2922,-18.9172,-9.62863e-16,-7.31528e-14,25.806,19.5425,20.2524,81.1052,22.6251,-46.2502,24.1955,7.12502,-18.9863,53.2889,-18.6185,-3.49993,12.0573,56.9009,-28.891,-8.04753,23.3194,-11.5968,-2.04793,-31.4523,28.9487,-18.6694,-11.2947,-25.6063
3.19538,17.2546,-26.5284,3.19873,12.0571,10.1543,3.77522,-2.05479,0.0219672,-1.66768,-2.9917,-6.69821,-4.2253,-1.59465,-6.80099,5.38254,3.56912,12.801,-12.2754,3.76601,-20.796,-3.73614,2.45757,-8.95907,-3.52284e-14,-2.78299e-14,-4.61454,26.5554,-78.9165,92.0083,-22.7916,-12.8202,10.896,7.12502,13.2665,-18.6618,-3.52284e-14,-2.78299e-14,26.3217,19.3954,21.064,81.2524,21.9883,-46.3356,23.3629,7.12502,-19.0685,52.4481,-19.1405,-3.36217,11.601,57.0284,-29.1406,-8.92208,23.3348,-11.5703,-2.04278,-31.7442,28.5592,-18.4931,-11.8355,-25.1841
3.1884,17.2527,-26.5065,3.46473,12.4147,10.6075,3.75969,-2.0163,0.00150048,-1.78673,-2.95805,-6.98438,-4.35427,-1.58633,-7.10203,5.52588,3.51025,12.8289,-12.0339,3.70109,-21.1094,-3.69377,2.44333,-9.06705,-2.17421e-14,-3.97569e-15,-4.81208,26.3323,-78.9068,92.1357,-22.7855,-12.3497,11.1223,7.12502,13.72,-18.4054,-2.17421e-14,-3.97569e-15,26.6917,19.0655,21.5344,81.5902,21.541,-46.5193,22.8279,7.12502,-19.2451,51.8957,-19.6294,-3.20011,11.0018,57.1372,-29.3953,-9.87771,22.3529,-11.4505,-1.89082,-32.1379,28.1303,-18.4457,-12.4573,-24.8032
3.18205,17.2536,-26.4836,3.64183,12.7765,11.2047,3.8657,-2.02076,-0.132177,-1.82993,-2.99086,-7.31972,-4.47864,-1.60757,-7.38391,6.01244,3.53038,12.5717,-12.4366,3.69124,-21.1134,-3.90577,2.48328,-9.05613,8.24956e-15,3.33958e-14,-4.87329,26.1991,-78.8605,92.312,-22.8699,-11.2152,11.3096,7.12502,14.8132,-18.1409,8.24956e-15,3.33958e-14,26.981,18.9026,21.7828,81.9132,21.1501,-46.7766,22.6816,7.12502,-19.4925,51.7246,-19.9917,-3.09771,10.2246,57.15,-29.6237,-10.8515,21.7779,-11.1512,-1.75878,-32.6875,27.6677,-18.4015,-13.0826,-24.3607
3.17645,17.2489,-26.47,4.13586,12.5693,11.7693,3.84506,-1.86821,-0.375403,-2.0442,-2.82094,-7.54588,-4.67169,-1.52569,-7.50548,5.89437,3.65084,12.3762,-12.2092,3.84536,-21.2466,-3.79187,2.56502,-9.05432,-5.00937e-14,-4.69132e-14,-4.9343,26.2146,-78.6895,92.4861,-23.0942,-10.8985,11.6439,7.12502,15.1183,-17.784,-5.00937e-14,-4.69132e-14,27.2083,18.8099,22.1226,82.1195,20.7169,-47.05,22.5386,7.12502,-19.7554,51.5547,-20.8925,-2.56842,9.4192,57.1517,-29.9905,-11.0466,23.6456,-11.394,-1.37573,-33.262,27.3727,-18.2683,-13.4753,-24.0175
3.15836,17.2423,-26.4443,3.96408,13.5983,12.1128,4.27819,-2.138,-0.486393,-1.94347,-3.20606,-7.59463,-4.86019,-1.7163,-7.44909,5.52498,3.79283,12.2858,-11.5798,4.04788,-21.6871,-3.49617,2.65896,-9.15223,-3.47003e-14,-6.12257e-14,-4.78763,26.4382,-78.3055,92.6399,-23.049,-10.9914,11.5302,7.12502,15.0288,-17.9044,-3.47003e-14,-6.12257e-14,27.3193,18.6584,22.4631,82.2237,20.1052,-47.0257,21.8672,7.12502,-19.732,50.8857,-20.4549,-2.70939,9.02249,56.9484,-30.8218,-11.0773,25.3928,-10.8424,-1.27725,-33.4128,27.1645,-18.2567,-14.5844,-24.0047
3.14864,17.2316,-26.4339,4.38063,13.8062,12.1673,3.33454,-2.14352,-0.248171,-1.56607,-3.12871,-7.62175,-3.93141,-1.66541,-7.64955,5.33337,3.90536,12.1429,-11.8336,4.09813,-22.137,-3.51449,2.71191,-9.28715,2.28633e-14,5.48646e-14,-3.69037,26.3669,-77.5425,92.7624,-23.345,-10.4925,11.2226,7.12502,15.5093,-18.1753,2.28633e-14,5.48646e-14,27.7665,19.1459,22.8443,82.3569,19.2769,-46.9004,21.3929,7.12502,-19.6115,50.4238,-21.1659,-2.41835,8.85952,56.7305,-30.8868,-11.7454,25.726,-11.2464,-0.944899,-33.3789,27.1156,-18.2151,-15.2369,-23.9166
3.13739,17.228,-26.4156,4.70714,14.0403,12.3271,3.09446,-2.07636,-0.116371,-1.61608,-3.02673,-7.70456,-3.84641,-1.61877,-7.83127,5.56652,3.89112,12.1254,-11.8992,4.04929,-22.5346,-3.57228,2.72434,-9.43489,-4.01297e-14,-4.05521e-14,-3.77946,26.1548,-77.2896,93.1033,-23.526,-10.0033,11.0381,7.12502,15.9805,-18.3228,-4.01297e-14,-4.05521e-14,27.9789,18.9533,23.1896,82.6563,18.6259,-47.1203,21.2115,7.12502,-19.8229,50.2206,-21.6436,-2.14272,8.58825,56.3923,-30.8444,-12.6985,26.7047,-11.4928,-0.844614,-33.4516,27.1237,-18.2207,-15.6337,-23.7375
3.12389,17.2235,-26.3981,4.93099,14.4004,12.6365,3.35156,-2.0723,0.0132899,-1.7872,-3.04507,-7.88461,-4.19392,-1.64419,-8.09617,5.52284,3.9266,11.9992,-11.5827,4.10804,-22.7806,-3.45879,2.76048,-9.4829,-1.05604e-14,-5.56597e-14,-4.15759,26.2295,-77.391,93.4972,-22.3091,-10.7438,10.5165,7.12502,15.2673,-18.9001,-1.05604e-14,-5.56597e-14,28.1331,18.7043,23.4973,82.9034,18.0878,-47.2556,20.7577,7.12502,-19.9529,49.7534,-21.9074,-1.93325,8.10301,56.0015,-31.2492,-12.9798,27.6676,-11.5718,-0.904869,-33.6729,27.1361,-18.278,-15.9888,-23.6987
3.10261,17.2077,-26.386,5.22319,14.8363,13.1537,3.69067,-2.15523,-0.0529566,-1.96575,-3.19744,-8.11944,-4.60994,-1.73427,-8.29534,5.45166,4.08249,11.5573,-11.3109,4.32186,-22.7313,-3.34337,2.87007,-9.37038,-5.40446e-16,-1.82882e-14,-4.34984,25.8624,-77.4665,93.9293,-23.508,-9.27794,11.0729,7.12502,16.6789,-18.2305,-5.40446e-16,-1.82882e-14,28.1778,18.5741,23.6131,83.1369,17.7051,-47.0776,20.3582,7.12502,-19.7819,49.3716,-22.0957,-1.74431,7.43609,55.5522,-31.7466,-13.3249,27.6954,-11.6215,-0.914009,-34.074,27.0214,-18.2724,-16.5316,-23.5864
3.081,17.1946,-26.374,5.54202,15.2196,13.7321,3.85519,-2.1753,-0.187895,-2.12173,-3.26456,-8.4626,-4.89577,-1.77908,-8.5875,3.10082,3.85842,13.081,-8.39282,4.28075,-24.7408,-1.99425,2.65005,-10.1718,8.01351e-15,-4.21423e-14,-4.93342,25.6225,-77.6352,94.3952,-23.6632,-9.01326,11.2353,7.12502,16.9337,-18.0465,8.01351e-15,-4.21423e-14,28.3731,18.2695,23.5178,83.4136,17.5062,-47.1007,20.1908,7.12502,-19.8041,49.2019,-22.2261,-1.56277,6.7196,55.063,-31.7537,-14.0802,27.4074,-11.6633,-0.771771,-34.5352,26.8768,-18.2406,-17.171,-23.2885
3.06323,17.1926,-26.3636,5.80782,15.4663,14.0609,3.94119,-1.99725,-0.0769001,-2.24047,-3.04359,-8.79078,-5.06658,-1.68507,-9.03924,6.73836,3.82919,11.9762,-12.0525,3.9308,-23.4213,-3.82959,2.79007,-9.77417,-4.06266e-15,3.33958e-14,-5.45833,25.0447,-77.7461,94.6641,-23.227,-8.73665,11.2755,7.12502,17.1999,-17.9833,-4.06266e-15,3.33958e-14,28.9492,17.7832,23.6799,83.7011,17.2382,-47.2776,19.5192,7.12502,-19.9741,48.5126,-22.4183,-1.3188,6.23391,54.5498,-31.6565,-14.5246,27.8196,-11.7574,-0.467786,-34.7696,26.7501,-18.1639,-17.7941,-22.8744
3.03982,17.1916,-26.354,6.19455,15.6324,14.3216,3.99213,-2.13556,-0.0876059,-2.27152,-3.23261,-8.68789,-5.15083,-1.77977,-8.89902,5.78179,4.16802,11.4929,-11.5095,4.30383,-24.1735,-3.41853,2.96535,-9.89105,4.4975e-15,4.77083e-15,-4.52768,25.4962,-77.3421,94.7028,-23.0173,-8.11052,11.2207,7.12502,17.8025,-17.9845,4.4975e-15,4.77083e-15,28.4567,18.2566,23.7225,84.0686,16.7426,-47.245,18.7826,7.12502,-19.9428,47.7793,-22.7911,-0.97855,5.85687,54.0864,-31.9656,-14.48,29.1952,-12.0186,-0.271033,-34.9175,26.6067,-18.0577,-18.2691,-22.6251
3.01202,17.1905,-26.34,6.62266,15.8835,14.616,3.9064,-1.97362,-0.109706,-2.52125,-3.03301,-8.79904,-5.34211,-1.69009,-9.03433,6.34032,4.19796,11.5461,-11.0461,4.43837,-24.5178,-3.35079,3.06263,-10.0266,-1.22377e-14,3.73715e-14,-4.85003,25.174,-77.3195,94.9728,-22.7532,-7.81745,11.4458,7.12502,18.0845,-17.7334,-1.22377e-14,3.73715e-14,28.6557,17.7816,24.132,84.4671,16.1562,-47.0478,18.581,7.12502,-19.7533,47.5973,-23.1157,-0.74608,5.51194,53.7392,-32.1849,-14.6711,29.5331,-12.308,-0.214611,-35.0644,26.4872,-18.071,-18.7517,-22.602
2.98289,17.1929,-26.3268,6.88338,16.2132,14.8019,3.98791,-2.00219,-0.0733478,-2.39901,-3.06617,-8.86219,-5.27083,-1.70515,-9.12052,5.56817,4.45799,11.3981,-10.7583,4.7636,-24.8659,-3.05703,3.19261,-10.0779,-4.58882e-14,-3.33958e-14,-4.34571,25.1059,-77.0335,95.1799,-22.7401,-8.07436,11.8395,7.12502,17.8373,-17.3625,-4.58882e-14,-3.33958e-14,28.9292,18.1049,24.4301,84.8085,15.7013,-46.8945,18.1964,7.12502,-19.6058,47.2278,-23.1954,-0.608912,5.33567,53.5639,-32.0721,-15.0601,28.0075,-12.4601,-0.151633,-35.0975,26.406,-18.0563,-19.2669,-22.7416
2.95249,17.1947,-26.3167,7.10374,16.5561,14.8979,4.15868,-1.94697,0.119686,-2.39331,-2.99182,-8.96088,-5.3686,-1.67929,-9.35025,5.19714,4.40282,11.7719,-10.693,4.64503,-25.7911,-2.94932,3.14152,-10.466,6.27104e-14,1.00187e-13,-4.23284,24.818,-76.932,95.5769,-22.8625,-8.33584,11.8283,7.12502,17.5857,-17.3963,6.27104e-14,1.00187e-13,29.432,18.1246,24.8899,85.0474,15.3253,-46.8081,17.6819,7.12502,-19.5228,46.7218,-23.1687,-0.576855,5.28703,53.5595,-31.8224,-14.9757,26.6315,-12.5582,-0.230656,-35.038,26.2755,-17.9853,-19.5841,-22.4896
2.9249,17.189,-26.3068,7.3926,16.966,15.1238,4.31394,-1.89906,0.220419,-2.50387,-2.9387,-9.01749,-5.57639,-1.66487,-9.47878,6.10696,4.53101,11.5653,-11.2458,4.73488,-26.1982,-3.24753,3.29474,-10.6406,5.69518e-14,7.39479e-14,-4.48623,24.7119,-76.8289,96.1326,-22.5231,-8.59956,11.6379,7.12502,17.3319,-17.6093,5.69518e-14,7.39479e-14,29.6682,17.9421,25.4386,85.3058,14.8667,-46.8446,16.8679,7.12502,-19.5578,45.9042,-23.0909,-0.823625,5.10459,53.6801,-31.6983,-14.337,26.7102,-12.6437,-0.526361,-35.1101,26.1066,-17.9565,-19.774,-22.0096
2.89356,17.1867,-26.2971,7.64639,17.3779,15.4854,4.51787,-1.93889,0.170623,-2.5327,-3.01074,-9.08656,-5.739,-1.70478,-9.5175,4.62877,4.64025,12.093,-9.41743,5.12091,-27.2982,-2.3241,3.34392,-10.9978,2.59103e-14,2.3059e-14,-4.62476,24.9399,-76.7241,96.5481,-21.3461,-9.39105,11.6155,7.12502,16.57,-17.6971,2.59103e-14,2.3059e-14,29.6027,17.9456,25.6993,85.6831,14.5196,-47.0552,16.2853,7.12502,-19.7603,45.3008,-22.9863,-0.909121,4.78943,53.8341,-31.8634,-13.5694,27.6709,-12.6778,-0.825466,-35.3074,25.9772,-17.8429,-19.9993,-21.9286
2.85476,17.1917,-26.2889,7.97618,17.6948,15.7045,4.57573,-1.9684,0.168122,-2.52312,-3.05425,-9.1282,-5.77248,-1.7278,-9.55767,4.81091,4.90507,11.8494,-9.58282,5.44336,-27.5675,-2.33295,3.54434,-11.059,9.75132e-15,6.75868e-14,-4.45459,24.7518,-76.671,97.2422,-22.0243,-8.4637,11.001,7.12502,17.4626,-18.2347,9.75132e-15,6.75868e-14,29.6467,18.1219,25.8846,86.0837,14.1161,-47.2323,16.3717,7.12502,-19.9306,45.3697,-23.128,-0.619276,4.63372,53.9219,-31.7829,-13.2182,27.7855,-12.8922,-1.19485,-35.3305,25.8948,-17.6488,-20.1214,-21.7272
2.81521,17.1921,-26.279,8.37672,17.9384,15.7478,4.43303,-1.90877,0.277195,-2.54661,-2.95932,-9.11743,-5.70451,-1.68295,-9.62299,5.55936,5.14714,11.2408,-10.4881,5.60423,-27.4877,-2.71602,3.73676,-10.9839,4.20344e-14,3.02153e-14,-4.30118,24.6507,-76.5613,97.712,-22.0026,-8.5933,10.8729,7.12502,17.3379,-18.3738,4.20344e-14,3.02153e-14,29.7971,18.2875,26.3034,86.5358,13.6503,-47.1804,15.744,7.12502,-19.8807,44.7471,-23.3894,-0.18894,4.632,53.8862,-31.7634,-12.7408,28.2008,-13.2614,-1.75655,-35.165,25.8734,-17.5937,-19.9689,-21.184
2.7752,17.1903,-26.2679,8.61237,18.0721,15.7388,4.49312,-1.78144,0.445221,-2.5908,-2.78195,-9.13066,-5.76535,-1.60332,-9.75695,5.68725,5.2604,11.0847,-10.6007,5.7188,-27.7941,-2.741,3.83011,-11.0778,3.55825e-14,-6.20208e-14,-4.3899,24.5109,-76.4696,97.9405,-21.588,-9.00657,11.8204,7.12502,16.9401,-17.4609,3.55825e-14,-6.20208e-14,29.9012,18.3611,26.6938,87.0999,13.3371,-47.0647,15.127,7.12502,-19.7695,44.1416,-23.4767,0.401438,4.66847,53.7139,-32.0639,-12.4185,28.5748,-13.5509,-2.20561,-34.9622,25.9823,-17.6936,-19.672,-21.0343
2.73353,17.1877,-26.2603,8.72983,18.2527,15.7284,4.79676,-1.67923,0.630529,-2.63449,-2.64863,-9.14453,-5.97386,-1.55067,-9.896,5.76533,5.33543,11.5627,-10.2918,5.89174,-28.6884,-2.57533,3.93175,-11.4928,4.45371e-14,-7.95139e-15,-4.54556,24.4788,-76.5631,98.239,-21.3765,-9.51902,12.3384,7.12502,16.4468,-16.9844,4.45371e-14,-7.95139e-15,29.9232,18.3408,26.9347,87.7265,13.0034,-47.5013,15.2945,7.12502,-20.1892,44.2654,-23.4261,0.905398,4.75699,53.4636,-32.2161,-12.7281,27.668,-13.7827,-2.68311,-34.7635,26.1967,-17.7806,-19.305,-21.333
2.69274,17.1784,-26.25,8.8375,18.625,15.8037,5.07754,-1.65927,0.703583,-2.62482,-2.62704,-9.13441,-6.1246,-1.54592,-9.92849,5.83817,5.55482,11.6987,-10.0477,6.24842,-29.243,-2.41226,4.12335,-11.7139,-1.06518e-13,4.85035e-14,-4.65708,24.2845,-76.7689,98.3616,-21.2041,-9.40179,12.5438,7.12502,16.5596,-16.7696,-1.06518e-13,4.85035e-14,29.8926,18.3084,27.1801,88.3116,12.683,-48.1388,14.8092,7.12502,-20.8018,43.7141,-23.2271,1.0818,4.8378,53.1996,-32.2606,-12.9012,27.4421,-13.9493,-3.28968,-34.6351,26.4464,-17.8925,-19.009,-21.4943
2.65195,17.1732,-26.236,9.0132,18.9898,15.8979,5.20995,-1.63897,0.69032,-2.58888,-2.59979,-9.07952,-6.15308,-1.5292,-9.8593,5.78646,5.74101,11.5148,-10.0938,6.46528,-29.712,-2.35343,4.26096,-11.8516,-2.76932e-14,-4.69132e-14,-4.71453,23.9444,-76.819,98.2146,-20.6471,-8.73707,13.3045,7.12502,17.1995,-15.9543,-2.76932e-14,-4.69132e-14,29.887,18.3183,27.456,88.8423,12.3709,-48.7917,14.66,7.12502,-21.429,43.4949,-23.0569,1.12826,4.93093,52.9159,-32.4629,-12.6739,28.3047,-14.1928,-3.7104,-34.504,26.7549,-18.1193,-18.8772,-21.6049
2.60974,17.1744,-26.2244,9.34345,19.3401,15.7935,5.13421,-1.57908,0.893964,-2.60297,-2.49644,-9.00184,-6.11084,-1.48291,-9.90518,6.30196,5.75746,11.7301,-10.7273,6.35993,-30.6179,-2.59779,4.31975,-12.3119,1.73005e-14,-1.66979e-14,-4.51834,23.8399,-76.5939,98.3527,-20.1738,-8.69763,13.6147,7.12502,17.2375,-15.6408,1.73005e-14,-1.66979e-14,30.0022,18.3248,27.7469,89.4141,11.8928,-49.4635,15.2278,7.12502,-22.074,43.9879,-23.1262,1.1313,5.24786,52.6107,-32.9134,-12.2365,29.8285,-14.7404,-4.2386,-34.1415,27.157,-18.2928,-18.6531,-21.6759
2.56782,17.1685,-26.211,9.53624,19.7295,15.5483,5.08475,-1.55389,1.1988,-2.57675,-2.43049,-8.89751,-6.05038,-1.45764,-9.97594,6.88366,5.87769,12.1431,-11.1419,6.48253,-31.4151,-2.73643,4.47254,-12.7653,6.22444e-15,2.54444e-14,-4.17927,23.8027,-76.5098,98.4815,-20.3759,-8.87515,14.1854,7.12502,17.0666,-15.085,6.22444e-15,2.54444e-14,30.0736,18.4486,28.1045,90.0636,11.5764,-49.2559,14.4811,7.12502,-21.8748,43.2646,-23.028,1.15492,5.75822,52.2844,-33.375,-12.0342,30.9819,-15.2303,-4.92586,-33.6434,27.6319,-18.4277,-18.2817,-21.4113
2.52679,17.158,-26.1952,9.58203,20.0364,15.3651,5.08548,-1.53704,1.28066,-2.44018,-2.38287,-8.71544,-5.88832,-1.42349,-9.81958,6.94057,6.12896,12.3551,-11.1179,6.85307,-32.0668,-2.60708,4.68732,-13.0609,4.24902e-15,-3.57812e-14,-3.72298,23.9307,-76.3181,98.432,-20.9217,-9.06447,15.1016,7.12502,16.8844,-14.1844,4.24902e-15,-3.57812e-14,30.1129,18.7187,28.5879,90.7073,11.505,-48.9664,13.2518,7.12502,-21.5967,42.0675,-22.772,1.18243,6.21001,51.9438,-33.7423,-12.2099,31.1487,-15.5644,-5.53717,-33.2417,28.1584,-18.6251,-17.8528,-20.9818
2.48434,17.1481,-26.1838,9.76963,20.3894,15.3375,5.08681,-1.52236,1.20074,-2.42649,-2.3613,-8.59985,-5.8597,-1.40449,-9.64256,7.16418,6.30474,12.5762,-11.0371,7.14537,-32.6277,-2.51465,4.86706,-13.3341,-3.14328e-14,1.19271e-14,-3.45883,23.9962,-76.1103,98.4514,-21.0083,-9.05294,15.6063,7.12502,16.8955,-13.6788,-3.14328e-14,1.19271e-14,30.1475,18.7183,28.8868,91.2682,11.3681,-49.4024,12.7289,7.12502,-22.0154,41.496,-22.6863,1.03027,6.49441,51.6252,-34.057,-12.4179,31.5744,-16.0201,-6.29222,-32.9739,28.72,-18.8359,-17.3694,-20.8486
2.4361,17.1367,-26.1749,9.84429,20.8368,15.3588,5.30301,-1.53807,1.08601,-2.45006,-2.39689,-8.54765,-6.00713,-1.42012,-9.51048,7.63648,6.43199,12.9038,-10.9968,7.3917,-33.1219,-2.48834,5.03707,-13.6249,-9.41742e-15,1.15295e-14,-3.4619,23.7457,-76.2358,98.4631,-20.8186,-8.68337,16.0699,7.12502,17.2512,-13.1844,-9.41742e-15,1.15295e-14,30.1267,18.6096,29.055,91.7978,11.0771,-49.3453,12.1055,7.12502,-21.9606,40.879,-22.459,0.855097,6.75359,51.3235,-34.2908,-12.2323,33.134,-16.3466,-7.08911,-32.7319,29.2932,-19.0863,-16.8777,-21.2045
2.38459,17.1273,-26.1643,9.76994,21.1542,15.2444,5.60415,-1.50195,1.0787,-2.38647,-2.34946,-8.44307,-6.09741,-1.39349,-9.39051,7.98197,6.60146,13.1128,-11.0561,7.65806,-33.6263,-2.46256,5.22049,-13.895,-7.69794e-14,7.15625e-14,-3.50201,23.3769,-76.3052,98.3586,-20.5024,-7.97815,16.9783,7.12502,17.9299,-12.2152,-7.69794e-14,7.15625e-14,30.2121,18.6274,29.3736,92.3287,10.6504,-49.0404,11.6322,7.12502,-21.6678,40.4397,-22.1895,0.855209,7.13081,51.0602,-34.4936,-11.8139,34.8105,-16.6002,-7.54454,-32.3843,29.8569,-19.3218,-16.5507,-21.8462
2.33382,17.1271,-26.154,9.78766,21.2786,14.7972,5.73682,-1.42382,1.27482,-2.39616,-2.22283,-8.22301,-6.15809,-1.33454,-9.27344,8.23263,6.8261,13.1642,-11.1991,7.96622,-33.9777,-2.44493,5.42083,-14.0645,1.9307e-14,9.14409e-15,-3.30299,22.9453,-76.2334,97.8372,-19.3546,-6.67868,18.816,7.12502,19.1798,-10.2583,1.9307e-14,9.14409e-15,30.1876,18.6051,29.5073,92.8926,10.1604,-50.1268,12.7021,7.12502,-22.7108,41.3856,-22.3166,1.11398,7.81096,50.8603,-34.5451,-11.9061,35.308,-17.1271,-7.89959,-31.6884,30.4314,-19.4698,-16.117,-22.2131
2.28494,17.1256,-26.1414,9.7862,21.4601,14.3597,5.81611,-1.38784,1.36214,-2.33253,-2.15135,-7.93296,-6.11088,-1.29197,-9.00559,7.97128,7.02601,13.1301,-11.0672,8.26313,-34.3605,-2.258,5.56593,-14.1774,3.72597e-14,3.97569e-15,-2.94992,23.5911,-76.0048,98.156,-20.6924,-7.6586,16.613,7.12502,18.2373,-12.5521,3.72597e-14,3.97569e-15,30.029,18.6455,29.5563,93.4989,9.84752,-51.2452,13.3635,7.12502,-23.7838,41.9114,-22.4637,1.18078,8.48328,50.7329,-34.4146,-12.196,35.0026,-17.63,-8.56357,-30.9751,31.0771,-19.6294,-15.3836,-22.4151
2.23899,17.1147,-26.1262,9.70452,21.8485,14.2367,5.97225,-1.39999,1.25761,-2.17278,-2.16196,-7.76409,-6.01808,-1.28176,-8.74929,7.69,7.17904,13.2418,-10.7265,8.56453,-34.7661,-1.99812,5.69359,-14.3168,6.24929e-15,1.05753e-13,-2.77577,23.461,-75.8452,97.8145,-20.4701,-7.28772,17.2207,7.12502,18.5941,-11.9106,6.24929e-15,1.05753e-13,30.0276,18.6572,29.7215,94.025,9.52929,-51.7325,12.7766,7.12502,-24.251,41.263,-22.3325,0.68314,8.84332,50.6493,-34.2258,-12.1558,34.7629,-17.9403,-9.32551,-30.6077,31.8178,-19.8423,-14.7973,-22.6048
2.19292,17.1082,-26.1137,9.621,22.2153,13.8532,6.25614,-1.39363,1.54559,-2.26507,-2.1405,-7.70891,-6.28584,-1.29114,-8.86217,8.45345,7.40233,13.5177,-10.7662,8.96942,-34.8192,-2.02634,5.94923,-14.4276,8.7341e-15,5.24792e-14,-3.24498,23.2912,-76.3328,97.6365,-20.2512,-7.25758,17.433,7.12502,18.6231,-11.6956,8.7341e-15,5.24792e-14,30.1718,18.3552,29.8027,94.4557,8.85382,-52.0961,12.8033,7.12502,-24.5996,41.2426,-22.288,0.258058,9.46799,50.5225,-34.0706,-12.0437,34.6916,-18.431,-9.83627,-29.985,32.6519,-19.9811,-14.3001,-22.8481
2.14712,17.1059,-26.1034,9.52801,22.4039,13.2717,6.19349,-1.31402,1.80109,-2.16516,-1.99245,-7.47884,-6.11642,-1.21497,-8.772,8.42418,7.49878,13.9105,-10.5306,9.22052,-35.206,-1.8366,6.06693,-14.6447,3.28989e-14,-6.0033e-14,-2.92935,23.2175,-76.2196,97.2329,-20.2454,-7.35767,17.2069,7.12502,18.5268,-11.9308,3.28989e-14,-6.0033e-14,30.5972,18.4766,30.3134,94.7964,8.15876,-51.9188,12.6947,7.12502,-24.4296,41.157,-22.318,0.141272,10.2572,50.3159,-33.9587,-11.8835,34.7716,-19.0378,-10.1458,-29.178,33.5583,-20.1456,-13.6208,-23.4686
2.101,17.1016,-26.0897,9.24888,22.5406,12.7216,6.44428,-1.25896,2.03168,-2.08393,-1.88994,-7.28882,-6.15609,-1.16773,-8.70715,8.67882,7.66125,14.0101,-10.6688,9.45937,-35.2609,-1.84559,6.21493,-14.6975,-3.61043e-14,-6.08281e-14,-2.54354,23.2144,-76.0067,96.78,-20.3622,-7.53498,16.6633,7.12502,18.3562,-12.4906,-3.61043e-14,-6.08281e-14,30.8643,18.4764,30.5166,95.1098,7.78803,-51.9862,12.0007,7.12502,-24.4943,40.4544,-22.119,-0.084512,10.9955,50.0445,-33.755,-11.6264,34.7724,-19.3953,-10.4195,-28.4345,34.4182,-20.4842,-12.9334,-23.8529
2.05226,17.0989,-26.0692,8.76957,22.7976,11.9202,6.67271,-1.26123,2.40026,-1.91009,-1.84035,-6.97334,-6.09239,-1.14424,-8.57632,9.11355,7.82046,14.0869,-11.0035,9.65376,-35.2716,-1.95861,6.36507,-14.7551,3.18055e-15,-3.85642e-14,-2.47254,23.2683,-75.9858,96.6633,-20.0649,-7.73374,16.1666,7.12502,18.165,-13.0052,3.18055e-15,-3.85642e-14,31.0443,18.5055,30.5607,95.3028,7.34957,-52.0008,10.331,7.12502,-24.5083,38.7828,-21.7394,-0.514623,12.0478,49.739,-33.5017,-11.4394,34.5739,-19.5968,-10.6841,-27.442,35.1659,-20.764,-12.4196,-23.8993
2.00609,17.1043,-26.0492,8.51981,23.0495,11.4803,6.62305,-1.25165,2.29343,-1.65479,-1.80687,-6.63292,-5.76711,-1.09958,-8.13532,7.38774,7.63682,14.7254,-9.48712,9.73061,-35.8552,-1.11211,6.18661,-14.9291,-5.22307e-14,6.36111e-15,-2.6407,23.3555,-76.0064,96.8694,-19.5788,-7.43746,15.7414,7.12502,18.45,-13.4036,-5.22307e-14,6.36111e-15,31.2092,18.7561,30.706,95.4055,6.82095,-51.8684,8.89651,7.12502,-24.3814,37.3654,-21.4462,-0.953713,12.7048,49.4324,-33.2149,-11.4605,34.2905,-19.8377,-10.9028,-26.8686,35.8505,-20.8583,-11.9214,-24.173
1.96594,17.1136,-26.0338,8.48419,23.2284,11.3887,6.66595,-1.22825,1.99938,-1.56877,-1.78882,-6.47378,-5.6799,-1.07161,-7.78801,9.54378,8.17909,13.943,-11.2076,10.1478,-35.1484,-1.97761,6.65844,-14.677,4.57205e-14,-3.1408e-14,-2.50532,23.437,-75.9617,96.6027,-19.3934,-6.98737,15.0729,7.12502,18.883,-14.0305,4.57205e-14,-3.1408e-14,31.2297,18.8135,30.6102,95.567,6.36417,-51.9917,8.72815,7.12502,-24.4996,37.1811,-21.2634,-1.37699,12.9382,49.1071,-32.9431,-11.5754,33.6343,-20.1579,-11.1002,-26.6903,36.5184,-20.893,-11.229,-24.3301
1.92405,17.1177,-26.02,8.27389,23.366,10.751,6.76599,-1.23646,2.26241,-1.58119,-1.76807,-6.23717,-5.74629,-1.06832,-7.68477,10.2438,8.23348,14.1379,-11.3866,10.2605,-35.1937,-2.11255,6.77444,-14.7984,4.4975e-14,3.57812e-14,-2.55523,23.6545,-76.1246,96.4779,-19.1923,-6.83468,14.0813,7.12502,19.0298,-15.0078,4.4975e-14,3.57812e-14,31.1085,18.7652,30.3389,95.7281,5.91395,-52.0569,8.46,7.12502,-24.5621,36.9044,-21.1376,-1.74192,13.7448,48.7503,-32.6883,-11.5355,32.8111,-20.6361,-10.9756,-25.9434,37.2074,-20.7908,-10.5667,-23.9339
1.88012,17.122,-26.0051,7.97683,23.3675,9.97092,6.82282,-1.2053,2.442,-1.50808,-1.69017,-5.86079,-5.68006,-1.02514,-7.38607,10.962,8.35373,14.0954,-12.2674,10.2537,-35.5039,-2.46956,6.90145,-15.0463,4.12727e-14,1.98785e-15,-2.10455,23.8898,-75.8512,96.2627,-19.2014,-6.73326,12.9204,7.12502,19.1273,-16.159,4.12727e-14,1.98785e-15,30.963,18.8769,30.1846,95.7691,5.38412,-52.2998,7.98367,7.12502,-24.7949,36.3963,-20.9963,-1.92798,14.6957,48.3402,-32.3206,-11.4331,31.937,-21.1084,-10.5173,-25.0961,37.9517,-20.7469,-10.0709,-23.2976
1.84126,17.1282,-25.9899,7.79512,23.4217,9.57332,6.82368,-1.14533,2.24207,-1.25925,-1.60121,-5.52575,-5.38489,-0.954203,-6.91261,10.4772,8.55125,14.046,-11.8887,10.6038,-35.4393,-2.183,7.01665,-14.9078,1.03617e-14,-5.88403e-14,-1.40401,23.9864,-75.2947,95.8844,-18.9662,-6.76071,12.4512,7.12502,19.1009,-16.6308,1.03617e-14,-5.88403e-14,31.1959,19.1905,30.3462,95.5741,4.66178,-52.588,7.71976,7.12502,-25.071,36.0941,-20.7618,-2.23608,15.2233,47.8527,-31.9897,-10.9802,31.9253,-21.5076,-10.318,-24.6682,38.7432,-20.8266,-9.53376,-23.3918
1.80793,17.1424,-25.978,7.64053,23.5601,9.07538,6.79895,-1.11612,2.4339,-1.22799,-1.53337,-5.28312,-5.32552,-0.920452,-6.76894,10.6419,8.59316,14.0213,-11.6785,10.7296,-35.2941,-2.13702,7.07206,-14.8307,-4.88513e-14,4.59193e-14,-1.75996,24.2579,-75.4394,95.8595,-18.3676,-7.31983,12.3911,7.12502,18.5632,-16.7432,-4.88513e-14,4.59193e-14,31.361,19.0534,30.3492,95.2806,3.89613,-52.8797,7.81041,7.12502,-25.3505,36.1454,-20.5431,-2.71803,15.8194,47.3092,-31.7325,-10.135,32.6055,-21.9781,-10.3307,-24.1435,39.4946,-20.8776,-8.55478,-25.227
1.77393,17.1643,-25.9614,7.33069,23.5789,8.30668,6.80343,-1.08797,2.78105,-1.11014,-1.44871,-4.97574,-5.19179,-0.87837,-6.64693,10.7282,8.70431,13.9295,-11.8659,10.8393,-35.24,-2.1841,7.14562,-14.7976,2.08227e-14,-6.44062e-14,-1.79408,24.5647,-75.4777,95.8737,-18.1525,-7.68636,12.0811,7.12502,18.2106,-17.0865,2.08227e-14,-6.44062e-14,31.5231,19.035,30.2138,94.9652,3.24085,-53.4017,8.02956,7.12502,-25.8505,36.2927,-20.2338,-2.94616,16.695,46.7263,-31.5421,-9.46836,32.8752,-22.3552,-10.1912,-23.381,40.1986,-21.2355,-7.45776,-26.6428
1.73923,17.1778,-25.9377,7.08517,23.4764,7.76697,6.72437,-1.00341,2.71791,-0.946522,-1.32205,-4.65434,-4.94565,-0.798465,-6.27783,10.9181,8.76861,14.0998,-11.7556,11.0059,-35.1892,-2.13545,7.22757,-14.8053,1.2921e-14,-1.55052e-14,-1.52402,24.7545,-75.2434,95.5989,-18.0187,-7.55402,12.4128,7.12502,18.3379,-16.7428,1.2921e-14,-1.55052e-14,31.616,19.1021,30.1677,94.6632,2.52233,-53.7859,8.27138,7.12502,-26.2184,36.4804,-19.8978,-3.10525,17.34,46.1378,-31.3789,-8.89341,33.372,-22.6609,-9.89246,-22.8881,40.8912,-21.8289,-6.31714,-28.0372
1.71076,17.1851,-25.9185,6.9439,23.2876,7.3745,6.61132,-0.85519,2.56845,-0.842482,-1.12187,-4.38274,-4.7356,-0.683356,-5.92239,11.2238,8.74688,14.4322,-11.4978,11.1186,-35.2133,-2.06643,7.28205,-14.8856,5.26779e-15,3.53837e-14,-1.4549,24.8693,-75.1008,95.2341,-16.8899,-8.06314,12.9966,7.12502,17.8481,-16.2043,5.26779e-15,3.53837e-14,31.7406,19.0422,30.2105,94.3418,1.91045,-53.5876,8.33369,7.12502,-26.0285,36.5707,-19.6423,-3.40389,17.8021,45.5364,-31.1072,-8.48439,33.5261,-23.0131,-9.66432,-22.5811,41.5534,-22.0218,-5.30738,-29.0212
1.681,17.196,-25.9013,6.58286,23.101,6.74076,6.68955,-0.734708,2.69903,-0.711567,-0.933536,-4.07115,-4.61506,-0.583485,-5.68459,11.2923,8.70243,14.7366,-11.2922,11.1601,-35.4234,-1.97275,7.30006,-15.03,-3.52843e-15,-2.10712e-14,-1.08898,24.8188,-74.801,94.9413,-17.3303,-7.58535,13.2357,7.12502,18.3078,-15.9228,-3.52843e-15,-2.10712e-14,31.8624,19.0322,30.1404,94.0016,1.67478,-53.4762,8.62043,7.12502,-25.9219,36.8731,-19.2237,-3.55601,18.5461,44.9001,-30.8526,-8.36364,33.124,-23.2469,-9.52424,-22.0164,42.177,-22.0304,-4.80802,-28.2105
1.64546,17.209,-25.8796,6.17334,22.8828,6.11558,6.83286,-0.651163,2.73493,-0.576258,-0.801135,-3.73886,-4.5329,-0.509706,-5.36533,11.2034,8.69545,14.9164,-11.0491,11.2322,-35.5747,-1.84415,7.31953,-15.1045,-2.21893e-14,-1.39149e-15,-0.724161,25.0454,-74.5779,94.7086,-17.5017,-7.59209,12.7515,7.12502,18.3013,-16.4076,-2.21893e-14,-1.39149e-15,31.781,19.1265,29.9201,93.7059,1.57699,-53.4881,8.70571,7.12502,-25.9332,36.9567,-18.7121,-3.6065,19.3118,44.2321,-30.5174,-8.20666,32.8663,-23.4259,-9.19171,-21.4589,42.747,-22.2155,-4.50117,-27.8646
1.61586,17.2241,-25.8575,5.95381,22.5456,5.51221,6.64881,-0.547143,2.70286,-0.441994,-0.651007,-3.40062,-4.26574,-0.421866,-5.00332,10.9521,8.81727,14.8632,-10.6109,11.4935,-35.3595,-1.62651,7.39358,-14.9262,-3.04886e-14,-2.88238e-15,-0.700012,25.5869,-74.7341,94.8255,-16.8737,-8.33781,11.3742,7.12502,17.5838,-17.8506,-3.04886e-14,-2.88238e-15,31.6244,19.3561,29.552,93.2883,1.5406,-53.0209,7.77482,7.12502,-25.4858,36.0906,-18.3925,-3.7142,20.0048,43.5217,-29.9823,-8.03601,32.102,-23.7683,-8.75439,-20.9543,43.2562,-22.408,-4.4402,-27.566
1.59631,17.2459,-25.8401,5.85721,22.202,4.91258,6.33788,-0.442524,2.83382,-0.312303,-0.492567,-3.10403,-3.93589,-0.333412,-4.77956,10.4521,9.03066,14.6353,-9.95461,11.8967,-34.8578,-1.30304,7.49465,-14.5446,-4.50123e-14,1.59028e-15,-0.512069,25.9095,-74.8009,94.9049,-16.9265,-8.39271,10.5953,7.12502,17.5309,-18.6343,-4.50123e-14,1.59028e-15,31.5586,19.5208,29.1142,92.7626,1.4453,-52.8813,7.5878,7.12502,-25.3521,35.9226,-18.209,-3.92114,20.6371,42.7754,-29.4687,-7.65819,31.7393,-24.1977,-8.46208,-20.4778,43.713,-22.3333,-4.5252,-26.0859
1.57758,17.2692,-25.8241,5.76833,21.9196,4.48975,6.21003,-0.376879,2.88218,-0.202467,-0.393043,-2.84429,-3.73707,-0.276188,-4.54243,10.4326,9.13506,14.5702,-9.80497,12.0743,-34.6936,-1.22951,7.56568,-14.4353,-4.56894e-14,1.39149e-15,0.14499,25.997,-74.4902,94.4762,-17.8253,-7.78814,11.1299,7.12502,18.1127,-18.0468,-4.56894e-14,1.39149e-15,31.4471,19.5272,28.901,92.3218,1.18452,-53.2337,8.58353,7.12502,-25.6896,36.87,-17.9218,-4.23676,21.0802,41.9897,-29.0367,-7.05016,32.4302,-24.554,-8.18668,-20.2133,44.1342,-22.0874,-4.17459,-26.4313
1.55756,17.2896,-25.8062,5.48444,21.5494,3.79128,6.22645,-0.30328,3.14905,-0.115202,-0.262623,-2.50278,-3.64175,-0.209788,-4.34784,11.0507,9.09595,14.8071,-10.2636,11.9867,-34.9889,-1.44915,7.60706,-14.6965,-4.07571e-14,1.17531e-14,0.699203,26.0938,-74.2207,94.2782,-18.742,-6.93685,10.9861,7.12502,18.9316,-18.1126,-4.07571e-14,1.17531e-14,31.197,19.4743,28.812,91.932,0.968026,-53.3256,9.11001,7.12502,-25.7776,37.3837,-17.4825,-4.40366,21.8178,41.1725,-28.5436,-6.85276,32.0038,-24.8102,-7.71172,-19.6868,44.5464,-22.0965,-3.68427,-27.945
1.53943,17.3054,-25.7876,5.07433,20.9981,2.8893,6.37433,-0.303142,3.70897,-0.263653,-0.203837,-2.12302,-3.87442,-0.196215,-4.27523,12.2896,9.05223,14.7233,-10.6821,11.8902,-35.0025,-1.83079,7.67946,-14.8369,-4.03262e-14,7.38609e-15,0.361458,26.7268,-74.5551,94.2345,-18.9106,-6.5568,11.4105,7.12502,19.297,-17.6521,-4.03262e-14,7.38609e-15,30.3413,19.3833,28.2163,91.5926,1.12299,-53.0247,8.64068,7.12502,-25.4894,36.9559,-16.9381,-4.37056,22.749,40.279,-27.9135,-6.92749,30.7521,-24.9321,-7.1287,-18.9579,44.8719,-22.2973,-3.54785,-28.1439
1.53629,17.316,-25.7821,4.95305,20.4078,2.41238,6.46509,-0.136423,4.07633,-0.379374,0.05433,-2.01006,-4.02008,-0.0803333,-4.39207,12.5797,9.00679,14.7916,-10.2842,11.9599,-34.5634,-1.79126,7.68153,-14.6613,-3.33409e-14,-1.65271e-14,-0.142698,26.7719,-75.0474,94.2327,-18.9943,-6.01018,12.1642,7.12502,19.8226,-16.8449,-3.33409e-14,-1.65271e-14,30.1395,19.2738,27.7312,91.2348,1.48052,-52.4024,8.13571,7.12502,-24.8932,36.5348,-16.6282,-4.58937,23.1331,39.4144,-27.1487,-6.26988,30.7223,-25.2043,-6.82177,-18.7089,45.1246,-22.2372,-3.74768,-27.249
1.5112,17.3402,-25.7465,4.78046,20.1706,2.2141,6.39836,-0.023692,3.71441,-0.306825,0.18153,-1.82277,-3.89389,-0.00306306,-4.00143,12.4021,9.03346,14.8685,-9.71433,12.144,-34.0585,-1.58953,7.69344,-14.3979,-6.83742e-14,1.12313e-14,-0.255819,26.8205,-75.2019,94.1643,-18.9972,-5.6396,12.398,7.12502,20.1788,-16.574,-6.83742e-14,1.12313e-14,30.0925,19.0943,27.3771,90.714,1.64784,-52.0064,8.17555,7.12502,-24.5137,36.6266,-15.9362,-4.75019,23.3962,38.5452,-26.7605,-5.64298,31.5625,-25.123,-6.74264,-18.6136,45.2128,-22.115,-4.32592,-25.3427
1.50487,17.3604,-25.7336,4.63137,19.7275,1.96516,6.50085,0.110624,3.65206,-0.285043,0.364457,-1.68398,-3.91212,0.0904781,-3.83943,12.3727,8.9399,15.2827,-9.34936,12.1708,-33.8865,-1.45984,7.66086,-14.3818,1.28868e-14,4.24902e-15,-0.130394,27.0103,-75.0863,94.0707,-18.7818,-5.80547,12.1266,7.12502,20.0193,-16.8621,1.28868e-14,4.24902e-15,30.1293,18.7964,27.2325,90.0069,1.45172,-52.1984,8.32808,7.12502,-24.6977,36.754,-15.4416,-5.10946,23.5969,37.7581,-26.2588,-5.04723,31.1647,-25.1775,-6.67168,-18.5997,45.2291,-22.047,-3.91163,-25.8454
1.49639,17.3849,-25.7163,4.68327,19.1788,1.70755,6.21308,0.263875,3.51193,-0.206169,0.555087,-1.50188,-3.65287,0.196904,-3.58343,12.2383,8.78962,15.6631,-8.97278,12.0962,-33.905,-1.32331,7.58402,-14.4401,-5.33426e-14,1.19271e-15,0.253299,27.209,-74.8311,93.99,-18.5981,-5.82174,11.7273,7.12502,20.0037,-17.263,-5.33426e-14,1.19271e-15,30.0844,18.6665,27.0833,89.3964,1.26741,-52.3593,8.3587,7.12502,-24.8519,36.7635,-15.1652,-5.26704,23.836,36.9795,-25.814,-4.70091,30.2298,-25.4194,-6.36109,-18.5481,45.1576,-22.2229,-3.24377,-28.4971
1.48787,17.4129,-25.6954,4.65065,18.6033,1.34056,5.91937,0.401297,3.45181,-0.0739903,0.732313,-1.24324,-3.33873,0.297233,-3.29022,11.7094,8.89866,15.2525,-8.47573,12.2545,-33.29,-1.13092,7.57313,-14.0186,-2.85008e-14,-9.24349e-15,0.670918,27.4269,-74.5836,93.8538,-18.4463,-5.99702,11.94,7.12502,19.8352,-17.0678,-2.85008e-14,-9.24349e-15,29.8603,18.6878,26.7175,88.8565,1.33241,-52.1289,8.37678,7.12502,-24.631,36.8118,-14.888,-5.29147,24.1718,36.2849,-25.4606,-4.08546,30.1498,-25.5572,-6.06255,-18.3567,45.0698,-22.3387,-3.16508,-29.2449
1.47979,17.4347,-25.677,4.54806,17.9892,0.896697,5.76506,0.498336,3.48798,0.0370918,0.865187,-1.0151,-3.1289,0.370613,-3.08115,11.5172,9.09437,14.7421,-8.42026,12.4519,-32.2891,-1.14887,7.60915,-13.4763,4.70374e-14,-3.27995e-15,1.14441,27.7238,-74.4717,93.5277,-18.4152,-6.54657,12.9243,7.12502,19.3069,-16.1373,4.70374e-14,-3.27995e-15,29.6783,18.7375,26.2723,88.1541,1.18982,-51.9933,8.7657,7.12502,-24.5011,37.2184,-14.5858,-5.30757,24.5888,35.6161,-25.0488,-3.38622,29.9081,-25.662,-5.84381,-18.091,44.9789,-22.3197,-3.31618,-29.3201
1.47014,17.4497,-25.6566,4.50307,17.3515,0.479297,5.56701,0.601417,3.47346,0.0990142,0.998927,-0.851669,-2.94616,0.443206,-2.91008,11.9882,8.97179,15.1316,-8.67394,12.3257,-31.9355,-1.33396,7.55859,-13.4695,-8.58998e-14,7.55382e-15,1.37912,28.021,-74.6365,93.3424,-18.2824,-6.9505,13.3501,7.12502,18.9184,-15.7499,-8.58998e-14,7.55382e-15,29.5626,18.774,25.7665,87.4239,0.839339,-52.1066,9.39305,7.12502,-24.6097,37.831,-14.307,-5.35269,25.0009,34.9183,-24.6705,-2.77862,29.1175,-25.809,-5.69163,-17.8127,44.9044,-22.3062,-3.43168,-29.3001
1.45992,17.4618,-25.633,4.46899,16.7553,-0.0649668,5.48723,0.77265,3.66122,-0.0304018,1.24152,-0.731602,-3.0157,0.558564,-2.91017,12.2755,8.66101,15.7981,-8.47016,12.0692,-31.6245,-1.37209,7.40212,-13.5055,-4.43663e-14,8.15017e-15,1.07787,28.1003,-74.991,93.3646,-18.0746,-6.91031,13.2605,7.12502,18.9571,-15.8357,-4.43663e-14,8.15017e-15,29.5259,18.5705,25.2249,86.8173,0.770045,-52.0313,9.42693,7.12502,-24.5375,37.8747,-14.0282,-5.48199,25.5407,34.2004,-24.2662,-1.87158,29.03,-25.9746,-5.55398,-17.3743,44.849,-22.2915,-3.4179,-29.4394
1.4516,17.4751,-25.6078,4.30417,16.1737,-0.798756,5.49806,0.931532,4.03821,-0.164461,1.48653,-0.532097,-3.13787,0.671217,-2.93658,10.9903,8.66209,15.5781,-6.82276,12.272,-30.1425,-0.773076,7.26509,-12.6915,2.60967e-14,-1.18277e-14,0.916307,28.2109,-75.1276,93.2911,-18.1945,-6.65896,13.2445,7.12502,19.1988,-15.8279,2.60967e-14,-1.18277e-14,29.4264,18.3124,24.7232,86.2521,0.839002,-51.8519,9.24132,7.12502,-24.3655,37.7123,-13.6481,-5.6132,26.2749,33.506,-23.791,-0.941979,29.2632,-26.0549,-5.23108,-16.7732,44.7657,-22.41,-3.20121,-30.8717
1.44755,17.491,-25.5839,4.10064,15.5117,-1.35745,5.49952,1.03184,4.15948,-0.1772,1.63684,-0.272562,-3.14419,0.745636,-2.74777,11.1522,8.44742,15.6989,-6.77189,12.0103,-29.6912,-0.879071,7.1166,-12.5705,6.61767e-14,-1.14798e-14,0.934743,28.5549,-75.1193,93.2647,-18.2392,-6.65337,13.0294,7.12502,19.2042,-16.0425,6.61767e-14,-1.14798e-14,29.1417,18.2563,24.2723,85.6039,0.498989,-51.7318,9.34904,7.12502,-24.2503,37.8355,-13.2233,-5.75549,26.7977,32.8756,-23.3582,-0.202294,29.0168,-25.9979,-4.86931,-16.3616,44.6124,-22.595,-3.18575,-31.4879
1.44943,17.5077,-25.5685,4.13716,14.7855,-1.5385,5.38387,1.13687,3.97384,-0.167784,1.7643,-0.117377,-3.06976,0.814995,-2.48948,11.5324,8.3085,15.7662,-7.17237,11.7826,-29.3399,-1.13302,7.023,-12.5092,-6.80465e-14,1.21259e-14,1.08246,28.8967,-75.0353,93.297,-18.1231,-6.56996,12.6869,7.12502,19.2844,-16.377,-6.80465e-14,1.21259e-14,28.8678,18.3073,23.8279,84.9438,0.0303999,-51.4181,9.10665,7.12502,-23.9496,37.6329,-13.0111,-6.00115,26.8811,32.3238,-22.8232,0.771131,28.6106,-26.0526,-4.66231,-16.3256,44.3983,-22.5989,-3.13229,-31.0717
1.45131,17.5158,-25.5614,4.18259,14.0447,-1.69127,5.34635,1.27019,3.83877,-0.146896,1.9332,-0.0533312,-3.02146,0.90295,-2.35867,10.9773,8.15646,16.4391,-6.54304,11.7394,-29.0509,-0.845961,6.90961,-12.4571,-5.95671e-14,-1.35671e-14,1.46818,29.0272,-74.9536,93.1734,-18.2095,-6.01399,12.7372,7.12502,19.8189,-16.2724,-5.95671e-14,-1.35671e-14,28.6652,18.3583,23.2459,84.4738,-0.0653885,-51.0171,8.81741,7.12502,-23.565,37.3937,-12.8544,-6.25938,26.9439,31.8211,-22.2097,1.75552,27.746,-26.12,-4.46763,-16.3026,44.1458,-22.3564,-3.13007,-30.4661
1.44704,17.5172,-25.5472,4.00063,13.2123,-2.20018,5.5639,1.43709,4.01961,-0.211525,2.18157,0.0380156,-3.19075,1.01959,-2.39238,10.1189,7.74886,17.5397,-5.21215,11.4748,-28.8622,-0.335995,6.64327,-12.4995,3.18552e-14,6.21202e-15,1.58811,29.051,-75.109,92.9915,-18.0825,-5.26234,13.1496,7.12502,20.5413,-15.7837,3.18552e-14,6.21202e-15,28.6103,18.3115,22.7111,83.9034,-0.236452,-50.8852,9.05311,7.12502,-23.4384,37.6456,-12.557,-6.22795,27.4284,31.366,-21.7448,2.40153,27.1735,-26.0024,-4.12931,-15.8467,43.9007,-22.1799,-3.60088,-28.9268
1.44865,17.5227,-25.5161,3.89176,12.4714,-3.00232,5.39293,1.5529,4.4938,-0.256274,2.36609,0.240574,-3.11834,1.10622,-2.45735,9.8562,7.68417,17.1238,-5.45004,11.2475,-28.0621,-0.492832,6.49074,-12.122,7.21961e-14,1.89218e-14,1.58111,29.1462,-75.249,92.8867,-17.6664,-4.52859,13.4126,7.12502,21.2463,-15.4429,7.21961e-14,1.89218e-14,28.5666,18.3969,22.3605,83.1201,-0.750866,-51.065,9.64339,7.12502,-23.611,38.2137,-12.3026,-6.39606,28.2039,30.8895,-21.378,3.26957,27.6843,-25.9447,-3.9387,-15.0222,43.6179,-22.1951,-3.90055,-27.4307
1.44963,17.5265,-25.5042,3.79372,11.6685,-3.60052,5.34523,1.66664,4.70453,-0.216839,2.53506,0.481685,-3.04033,1.19127,-2.33581,9.98363,7.59456,16.3731,-5.96962,10.9468,-26.8932,-0.856089,6.32592,-11.5947,-2.48046e-14,1.64867e-14,1.87999,29.2863,-75.133,92.8419,-17.5456,-4.07014,13.49,7.12502,21.6866,-15.3154,-2.48046e-14,1.64867e-14,28.2762,18.57,21.9138,82.5069,-1.12925,-51.1859,10.4579,7.12502,-23.7269,39.0133,-12.1083,-6.55036,28.7693,30.4527,-20.8935,4.11753,28.1733,-25.8502,-3.95793,-14.3786,43.2242,-22.215,-3.60648,-28.2301
1.45817,17.537,-25.471,3.69625,10.9486,-3.73898,5.05335,1.75147,4.44939,-0.124708,2.61858,0.660276,-2.79425,1.24537,-2.00194,10.359,7.2693,16.1987,-6.19516,10.4797,-26.1094,-1.15344,6.08878,-11.3353,3.11533e-14,-1.56543e-14,2.21411,29.627,-74.9092,92.8367,-17.817,-3.91976,13.6018,7.12502,21.831,-15.1868,3.11533e-14,-1.56543e-14,27.7662,18.549,21.2785,82.0889,-1.16128,-51.2574,11.3552,7.12502,-23.7955,39.9016,-11.7089,-7.22587,28.7625,30.0612,-20.3892,5.44175,29.2699,-25.4081,-4.10402,-14.2713,42.6668,-22.2697,-3.31279,-29.8943
1.46639,17.5432,-25.4376,3.58762,10.1194,-3.88545,5.35995,1.7705,4.53967,-0.482902,2.67362,0.51649,-3.32315,1.2521,-2.22451,10.7271,7.01891,16.3414,-5.95355,10.2529,-25.0712,-1.25748,5.93655,-11.0117,-4.53136e-14,-9.39258e-15,1.67928,30.1332,-75.6767,92.807,-18.0263,-3.95198,13.8759,7.12502,21.8001,-14.9163,-4.53136e-14,-9.39258e-15,27.1385,17.994,20.1181,81.7083,-1.02852,-51.5204,12.1975,7.12502,-24.0477,40.7109,-11.3144,-7.72302,28.7548,29.7384,-19.8077,6.875,30.953,-24.8833,-4.16307,-14.1074,42.0026,-22.1096,-3.22013,-29.7756
1.47529,17.5426,-25.4049,3.47026,9.34128,-4.42954,5.30458,1.79709,4.71798,-0.565311,2.728,0.733244,-3.37642,1.27524,-2.10401,10.4428,6.89675,16.0663,-5.6397,10.082,-24.0573,-1.2336,5.78606,-10.5801,-1.43373e-14,-9.93923e-16,1.80094,30.7038,-75.696,92.7265,-18.3371,-4.47366,13.8932,7.12502,21.2991,-14.9564,-1.43373e-14,-9.93923e-16,26.7139,17.9822,19.6782,81.2106,-1.05442,-51.6534,12.3356,7.12502,-24.1752,40.832,-10.9972,-8.18525,29.1897,29.399,-19.3786,8.04635,31.4226,-24.4348,-4.15999,-13.4693,41.3184,-21.8357,-2.88431,-30.0718
1.48627,17.5424,-25.371,3.28327,8.64502,-5.01846,5.11057,1.89246,4.90824,-0.475149,2.86218,1.02808,-3.17074,1.34771,-1.90562,10.4123,6.59204,16.007,-5.71227,9.65327,-23.3689,-1.38153,5.54159,-10.3435,-1.43995e-14,-1.69464e-14,2.21653,30.9527,-75.2487,92.6331,-18.5209,-4.88984,13.8527,7.12502,20.8993,-15.0415,-1.43995e-14,-1.69464e-14,26.6218,18.1212,19.6268,80.6593,-1.16648,-51.5735,11.8711,7.12502,-24.0986,40.3778,-10.5542,-8.6457,29.6783,29.0311,-19.0024,8.89991,31.6572,-23.9404,-4.15935,-12.8012,40.7084,-21.4648,-2.45991,-30.1353
1.4962,17.5382,-25.3491,3.00355,7.87847,-5.48728,5.10815,2.00786,4.96058,-0.342498,3.02378,1.33512,-3.03517,1.43506,-1.62634,10.2733,6.32845,15.7969,-5.7936,9.2517,-22.6631,-1.51252,5.30755,-10.0674,-4.68518e-14,-2.17048e-14,2.6733,30.9792,-74.6878,92.5848,-18.2187,-4.41948,14.0829,7.12502,21.3511,-14.7608,-4.68518e-14,-2.17048e-14,26.4091,18.2787,19.4849,80.1579,-1.296,-51.6028,12.3162,7.12502,-24.1267,40.8191,-9.96741,-8.94625,30.0511,28.6424,-18.4621,9.64706,32.4808,-23.3736,-4.23017,-12.2551,40.1831,-21.155,-2.06925,-28.5897
1.50596,17.5282,-25.3274,2.77765,7.03613,-6.02173,4.94673,2.08247,4.99689,-0.131736,3.11721,1.7092,-2.73958,1.49402,-1.25568,9.47255,6.24141,15.4346,-5.36962,9.07188,-21.869,-1.35135,5.14206,-9.67583,7.60973e-15,-3.05134e-14,3.24708,31.1877,-74.1694,92.6408,-17.8684,-3.70556,14.3465,7.12502,22.0367,-14.418,7.60973e-15,-3.05134e-14,26.032,18.6059,19.2419,79.6907,-1.30621,-51.5895,12.9513,7.12502,-24.114,41.4559,-9.48341,-9.25058,30.4938,28.3112,-18.0995,10.4064,32.6936,-22.8193,-4.17022,-11.6178,39.7363,-21.062,-1.62645,-27.6553
1.52015,17.5197,-25.2914,2.7051,6.29941,-6.49981,4.58933,2.09128,4.96565,0.00187027,3.10719,2.07322,-2.42345,1.50108,-0.84488,9.29573,6.12636,15.3991,-5.41031,8.89616,-21.4115,-1.39164,5.02738,-9.5095,7.52338e-14,2.78299e-14,3.76705,31.5989,-73.7232,92.672,-17.863,-3.20408,14.8812,7.12502,22.5181,-13.8258,7.52338e-14,2.78299e-14,25.5655,18.8929,19.0147,79.2404,-1.22164,-51.5445,12.7735,7.12502,-24.0708,41.2838,-9.18355,-9.76786,30.8423,28.0998,-17.924,11.3062,32.5752,-22.3129,-4.02998,-11.0613,39.3848,-21.0803,-1.5701,-26.5133
1.53649,17.5086,-25.2532,2.61398,5.54927,-6.90979,4.4526,1.97557,4.95321,-0.0305921,2.95476,2.44359,-2.40836,1.42761,-0.443576,9.94389,5.97242,15.2657,-6.03826,8.66941,-21.1482,-1.74342,4.94601,-9.45742,1.61637e-14,8.94531e-16,4.18217,32.3695,-73.3578,92.6172,-17.9987,-3.1945,15.3255,7.12502,22.5273,-13.3803,1.61637e-14,8.94531e-16,24.6434,19.0692,18.6005,78.7624,-1.09555,-51.559,13,7.12502,-24.0847,41.5085,-8.89362,-10.3019,31.074,27.9903,-17.5682,12.4796,32.6722,-21.6951,-3.95893,-10.627,39.1478,-21.1699,-1.29774,-25.4182
1.55489,17.4896,-25.224,2.49699,4.77141,-7.46316,4.36639,1.87239,5.34027,-0.0457225,2.83742,2.67086,-2.37414,1.3663,-0.414506,9.95841,5.76155,15.2964,-6.18626,8.3806,-20.7699,-1.85989,4.78593,-9.34482,5.30507e-15,1.04362e-14,4.64819,32.8462,-73.1948,92.5062,-17.8675,-3.14564,15.3859,7.12502,22.5742,-13.3142,5.30507e-15,1.04362e-14,23.9776,19.2602,18.1825,78.2749,-1.04692,-51.427,13.6234,7.12502,-23.9581,42.1485,-8.62382,-10.77,31.4388,27.961,-17.1713,13.7074,33.0484,-21.0811,-3.86073,-10.076,39.0261,-21.3766,-0.957369,-24.1279
1.57427,17.4743,-25.2003,2.43118,4.1244,-7.9573,4.2339,2.12485,5.75629,-0.0421663,3.18157,2.61054,-2.25511,1.53507,-0.720116,9.35279,5.30298,16.2656,-5.88468,7.85308,-20.4258,-1.74438,4.45371,-9.36298,2.4289e-15,1.32689e-14,4.80599,31.9424,-73.0969,92.4346,-17.5291,-2.27225,15.6002,7.12502,23.4122,-12.9956,2.4289e-15,1.32689e-14,24.7268,19.1649,18.4481,77.8558,-1.06928,-51.3357,13.9249,7.12502,-23.8706,42.4615,-8.4304,-11.1198,31.7813,27.9608,-17.0661,14.4029,32.7467,-20.6301,-3.7458,-9.60981,39.0254,-21.9161,-1.22299,-21.9482
1.5941,17.469,-25.1847,2.37718,3.36189,-8.24908,4.36927,1.97512,5.94873,-0.357726,3.02677,2.7948,-2.66697,1.44152,-0.641209,11.099,5.28541,15.6732,-6.79042,7.89845,-19.7464,-2.34793,4.54371,-9.14757,-1.70768e-14,-3.68746e-14,4.74592,32.6936,-73.1851,92.488,-17.5392,-1.77836,15.9339,7.12502,23.886,-12.6007,-1.70768e-14,-3.68746e-14,23.6751,18.935,17.8486,77.5904,-0.800362,-51.2667,14.0097,7.12502,-23.8044,42.555,-8.24487,-11.0959,31.9426,27.8846,-17.0986,14.6879,31.1695,-20.2755,-3.43354,-9.42185,39.1409,-22.5459,-1.02017,-22.0243
1.61593,17.4613,-25.1757,2.29653,2.60426,-8.63079,4.77357,2.09985,6.1583,-0.366808,3.24265,2.89881,-2.88751,1.5402,-0.680127,9.53568,5.12122,16.232,-5.85967,7.66456,-19.5394,-1.84531,4.32884,-9.06663,-1.36975e-14,-2.01269e-14,5.07948,32.5025,-72.969,92.6359,-17.6124,-2.0755,15.9643,7.12502,23.601,-12.6073,-1.36975e-14,-2.01269e-14,23.8567,19.1,17.8846,77.2321,-0.519054,-51.3561,14.8521,7.12502,-23.8901,43.3862,-8.01492,-10.8511,32.2089,27.7367,-17.066,14.8888,30.0077,-20.0183,-2.97214,-9.165,39.3153,-22.8194,0.0871435,-24.9012
1.63712,17.4512,-25.1594,2.2328,2.16314,-9.21655,4.77119,2.03268,6.52722,-0.231561,3.17309,3.16772,-2.74612,1.50778,-0.59902,8.94703,5.11342,16.4451,-5.85696,7.60009,-19.5788,-1.74544,4.26735,-9.08965,1.59463e-14,-7.05686e-15,5.75137,32.5083,-72.5689,92.682,-17.6857,-2.11135,15.5762,7.12502,23.5666,-12.9999,1.59463e-14,-7.05686e-15,23.7183,19.4964,17.9208,76.9445,-0.241397,-51.7185,16.1757,7.12502,-24.2377,44.6638,-7.79435,-10.561,32.7507,27.6229,-16.9935,14.7765,29.834,-19.8794,-2.74932,-8.62904,39.46,-22.7618,0.814174,-26.0118
1.65901,17.4499,-25.1397,2.34629,1.7077,-9.62357,4.54541,1.89407,6.834,-0.412924,3.0023,3.37082,-2.81355,1.41483,-0.542761,8.068,4.74192,16.9686,-4.82755,7.13217,-19.8502,-1.36151,3.98826,-9.21036,-6.42944e-15,-1.87852e-14,5.82224,32.7959,-72.5687,92.6205,-17.7892,-1.19346,16.004,7.12502,24.4468,-12.456,-6.42944e-15,-1.87852e-14,23.0473,19.3933,17.6378,76.7462,0.0918829,-51.7405,16.845,7.12502,-24.2587,45.3304,-7.75337,-10.1562,33.1259,27.5842,-16.6965,14.738,30.0821,-19.8786,-2.64503,-8.27635,39.5129,-22.6071,0.896252,-24.2535
1.68668,17.457,-25.1139,2.56077,1.2487,-9.33222,4.82209,1.80827,6.58143,-0.918498,2.93382,3.31125,-3.50874,1.35707,-0.480345,10.5958,4.8615,16.1252,-7.05628,7.34512,-18.8207,-2.46213,4.18773,-8.89823,6.79595e-14,3.8763e-14,5.28389,32.981,-72.8552,92.5944,-17.7708,-0.223227,16.9923,7.12502,25.3765,-11.339,6.79595e-14,3.8763e-14,22.4039,18.8827,17.3595,76.5941,0.3792,-51.4437,17.4255,7.12502,-23.9742,45.9486,-7.85205,-9.99479,32.6721,27.6588,-16.2419,15.128,31.1974,-19.861,-2.62562,-8.75966,39.4996,-22.5022,1.20383,-23.2785
1.71721,17.4631,-25.0684,2.55759,0.928723,-8.75424,4.41474,1.71694,6.05876,-0.765035,2.73095,3.23269,-3.14847,1.27779,-0.241909,10.6362,4.86473,15.7979,-7.78741,7.25691,-18.4496,-2.72387,4.13656,-8.7457,5.15598e-15,-3.95581e-14,5.73362,32.9305,-72.4438,92.5837,-17.6356,-0.648863,16.8113,7.12502,24.9687,-11.5773,5.15598e-15,-3.95581e-14,22.2744,19.2815,17.5702,76.3559,0.633772,-51.258,17.9448,7.12502,-23.796,46.4912,-7.71974,-10.1307,31.8182,27.8538,-16.0256,15.5785,32.9866,-19.479,-2.71611,-9.59972,39.4342,-22.5567,1.74785,-23.6823
1.73555,17.4544,-25.0502,2.30054,0.449215,-8.78095,4.64362,1.60969,6.00341,-0.700898,2.60317,3.30511,-3.22268,1.21482,-0.134764,9.93935,4.75974,16.1644,-7.39473,7.09325,-18.7291,-2.49579,4.02951,-8.85574,-3.46258e-14,-4.04527e-14,5.69497,32.9448,-72.4964,92.6461,-17.3246,-1.19655,16.8498,7.12502,24.4438,-11.6107,-3.46258e-14,-4.04527e-14,21.9523,19.5607,17.5923,76.3191,1.06225,-51.2184,18.1932,7.12502,-23.7581,46.7445,-7.49221,-9.3882,31.8041,28.1916,-16.2846,14.8689,32.5935,-18.9675,-2.57063,-9.66058,39.3618,-22.4951,2.05918,-23.3993
1.759,17.4442,-25.031,2.13224,0.0797962,-8.97258,4.83116,1.47619,6.20561,-0.755407,2.4593,3.36256,-3.38647,1.13492,-0.183863,9.72351,4.72863,16.3494,-7.28938,7.06215,-18.6504,-2.43057,3.99557,-8.8474,8.89561e-15,1.33186e-14,5.55165,32.9651,-72.7567,92.6398,-17.2831,-0.979267,17.461,7.12502,24.6521,-10.9712,8.89561e-15,1.33186e-14,21.5048,19.639,17.4935,76.3351,1.26967,-51.2313,18.5421,7.12502,-23.7705,47.0917,-7.40607,-8.97715,31.9547,28.6097,-16.5975,14.3494,31.1586,-18.5583,-2.43823,-9.5324,39.2668,-22.4037,2.10242,-22.567
1.78741,17.445,-25.009,2.14643,-0.242906,-8.68209,4.7981,1.39901,5.94732,-0.826827,2.34212,3.34959,-3.45657,1.07903,-0.0458062,10.1332,4.78346,15.9528,-7.86821,7.1077,-18.2342,-2.69128,4.02538,-8.6789,-3.31598e-14,-5.04913e-14,6.17061,33.0074,-72.2015,92.5089,-17.846,-0.866565,17.4164,7.12502,24.7601,-11.001,-3.31598e-14,-5.04913e-14,21.2579,19.7093,17.7385,76.225,1.38901,-51.2936,19.0222,7.12502,-23.8302,47.5641,-7.55617,-8.67683,31.5674,29.099,-17.0579,13.9689,30.1598,-18.2918,-2.33252,-9.97367,39.1321,-22.3916,2.27558,-22.8094
1.81863,17.4521,-24.9842,2.2257,-0.694158,-8.13102,4.65608,1.41896,5.48716,-0.846932,2.32714,3.25703,-3.41069,1.08077,0.118363,10.649,4.81356,15.4874,-8.80883,7.08687,-17.8516,-3.08914,4.02904,-8.53104,-2.67862e-14,-5.38706e-14,6.19725,33.0451,-71.9768,92.8399,-17.8031,-1.27102,17.3158,7.12502,24.3724,-11.1543,-2.67862e-14,-5.38706e-14,21.1934,19.6737,18.077,76.1344,1.7139,-51.4785,19.6737,7.12502,-24.0075,48.1924,-7.79974,-8.26047,30.8918,29.6535,-17.5817,13.4374,27.4495,-18,-2.03992,-10.7431,38.9151,-22.4346,2.68905,-23.8225
1.85259,17.4564,-24.9653,2.2533,-1.03128,-7.77237,4.68931,1.35464,5.35113,-0.910312,2.23495,3.12209,-3.49781,1.03357,0.0593497,10.9618,4.83882,15.3084,-9.55586,7.08367,-17.6272,-3.37685,4.03174,-8.47037,1.55114e-14,2.56432e-14,5.70066,32.5949,-72.401,92.806,-17.4732,-1.5446,17.8654,7.12502,24.1101,-10.6397,1.55114e-14,2.56432e-14,21.0631,19.6233,18.1559,76.0344,1.93827,-51.5432,20.3069,7.12502,-24.0695,48.8174,-8.13024,-7.81828,30.4581,30.3182,-17.7837,12.7983,24.4748,-17.7033,-1.84471,-11.296,38.6322,-22.4257,3.01988,-24.5417
1.88591,17.4609,-24.9595,2.33376,-1.24378,-7.73933,4.77126,1.17386,5.54306,-0.930844,2.01168,3.08457,-3.56623,0.916265,-0.0719027,10.7465,5.02055,15.0914,-9.91349,7.25627,-17.4288,-3.43139,4.10453,-8.3734,-3.05383e-14,-5.1684e-15,5.70308,32.6483,-72.4764,92.994,-17.5542,-2.09913,17.7779,7.12502,23.5783,-10.7966,-3.05383e-14,-5.1684e-15,20.9402,19.983,18.2512,75.8493,2.02112,-51.5499,20.9511,7.12502,-24.076,49.4607,-8.62904,-7.15915,30.4602,31.0958,-17.8563,11.9413,22.9826,-17.5585,-1.84021,-11.4441,38.2792,-22.4051,3.13157,-24.7855
1.92112,17.4618,-24.954,2.43337,-1.57052,-7.74443,4.83919,1.07074,5.84144,-0.948315,1.89507,2.98362,-3.61527,0.84929,-0.334919,10.401,5.14514,15.0714,-10.1108,7.37379,-17.3033,-3.41594,4.1427,-8.32071,1.42069e-14,4.1546e-14,5.80634,32.6679,-72.5522,93.2044,-17.7925,-2.55917,17.4676,7.12502,23.137,-11.163,1.42069e-14,4.1546e-14,20.9803,20.3014,18.4663,75.7807,2.12414,-51.6713,21.521,7.12502,-24.1924,50.0152,-9.18058,-6.52527,30.4716,32.0017,-17.9047,11.2047,21.6879,-17.3707,-1.67447,-11.5626,37.8323,-22.3594,3.16759,-24.7413
1.95624,17.4672,-24.9302,2.38343,-1.89584,-7.22674,5.00755,1.04124,5.66146,-1.08339,1.85507,2.67915,-3.84747,0.822492,-0.551706,8.48585,4.82764,16.5497,-8.15452,6.97071,-18.5423,-2.47991,3.88675,-8.82049,1.60643e-14,-1.68967e-14,5.40489,32.3328,-73.1102,93.2206,-17.6483,-2.72329,17.3037,7.12502,22.9795,-11.3467,1.60643e-14,-1.68967e-14,21.1261,20.1877,18.7803,75.7787,2.18751,-51.4971,21.6172,7.12502,-24.0253,50.1335,-9.6103,-6.24164,29.8404,33.0168,-18.0481,10.5899,19.9647,-16.8655,-1.32279,-12.3009,37.2669,-22.2759,3.26008,-25.288
1.98971,17.4801,-24.903,2.44696,-2.31826,-6.43677,4.94489,1.0433,5.11207,-1.23724,1.81526,2.39747,-3.97967,0.807352,-0.534392,8.83839,4.8002,16.7989,-8.48386,6.96465,-18.7922,-2.61537,3.90283,-8.97562,4.41053e-15,3.20043e-14,5.0364,32.2684,-73.5223,93.1813,-17.2992,-3.28117,17.3046,7.12502,22.4441,-11.4113,4.41053e-15,3.20043e-14,21.2253,20.016,19.0413,75.6089,2.30569,-51.3557,21.7319,7.12502,-23.8898,50.266,-10.2229,-5.95163,28.93,34.1136,-18.3507,9.65186,16.6595,-16.3991,-0.915013,-13.3427,36.6436,-22.2812,3.3347,-25.623
2.02617,17.484,-24.8802,2.61046,-2.77531,-5.93543,4.7087,1.0263,4.90537,-1.35422,1.76123,2.21406,-3.96969,0.782079,-0.600615,10.3622,4.94826,16.0577,-10.3444,7.14616,-18.1912,-3.43681,4.04364,-8.79213,-7.29912e-16,4.96962e-15,4.91392,32.4246,-73.6881,93.1108,-17.0677,-4.22965,17.3861,7.12502,21.5334,-11.4368,-7.29912e-16,4.96962e-15,21.1968,19.9127,19.1639,75.4854,2.57959,-51.4988,21.5539,7.12502,-24.027,50.07,-10.9865,-5.52939,28.3495,35.2941,-18.4809,8.6635,13.6249,-16.0577,-0.659032,-14.0689,36.0217,-22.1812,3.34331,-24.2834
2.06655,17.4808,-24.859,2.52226,-2.76552,-5.68117,4.81141,0.825352,5.07525,-1.43684,1.50957,2.07038,-4.11756,0.64676,-0.82669,11.2242,5.06058,15.5619,-11.6893,7.25106,-17.8193,-3.99689,4.12006,-8.68705,8.62539e-15,-2.18663e-14,4.72626,32.4562,-73.9002,93.0047,-16.8409,-5.03868,17.474,7.12502,20.7563,-11.436,8.62539e-15,-2.18663e-14,21.1672,19.9166,19.4568,75.4694,2.74093,-51.5895,21.4027,7.12502,-24.1139,49.9073,-11.5387,-5.40222,28.0485,36.5442,-18.5112,7.66417,11.9422,-15.6127,-0.851388,-14.507,35.5085,-22.0153,3.35052,-23.0086
2.10466,17.4851,-24.8452,2.33535,-2.61437,-5.41436,5.09597,0.551627,5.27689,-1.47264,1.17251,1.88705,-4.3261,0.466594,-1.10579,11.2842,5.27879,15.7651,-11.9162,7.55251,-18.0173,-4.00151,4.27504,-8.80525,-7.22769e-15,-2.14687e-14,4.72517,32.5306,-74.0772,92.8079,-16.9771,-5.70965,17.5619,7.12502,20.1114,-11.4171,-7.22769e-15,-2.14687e-14,21.1937,19.9814,19.6927,75.3711,2.64528,-51.758,21.8999,7.12502,-24.2755,50.383,-12.0691,-5.40245,27.7535,37.8706,-18.5988,6.44511,11.2916,-15.1833,-1.09153,-14.9431,35.1245,-21.9721,3.42885,-23.7645
2.13624,17.4934,-24.8357,2.38567,-2.61792,-5.22122,6.16978,0.451173,4.86734,-2.29818,1.13878,2.19137,-5.81931,0.424726,-0.572065,11.4219,5.18138,15.4293,-11.6707,7.37645,-18.2437,-3.98815,4.2229,-8.81863,-3.47951e-15,1.66979e-14,3.49478,32.9857,-73.9437,92.8991,-17.5881,-6.16358,17.6342,7.12502,19.6751,-11.3901,-3.47951e-15,1.66979e-14,20.6507,18.9389,20.2923,75.296,2.55299,-51.9558,22.7207,7.12502,-24.4652,51.1783,-12.9182,-5.18082,27.5849,39.2982,-18.6036,5.18193,12.9757,-15.0166,-1.06668,-15.2822,34.7333,-21.8023,3.55855,-25.2469
2.16679,17.5012,-24.8226,2.69384,-2.57734,-4.95893,5.80524,0.238018,5.04114,-2.33095,0.831843,1.9585,-5.65379,0.265344,-0.875766,10.8425,5.42006,15.7769,-11.397,7.68786,-18.4833,-3.72434,4.35657,-8.91726,-7.5313e-15,1.98785e-16,3.80593,32.9415,-73.8159,92.9648,-18.0452,-6.49203,17.4733,7.12502,19.3593,-11.5831,-7.5313e-15,1.98785e-16,20.9324,19.1394,20.336,75.0626,2.57856,-51.936,23.2701,7.12502,-24.4461,51.7303,-14.0727,-5.04227,27.3472,40.8128,-18.6788,4.2199,14.7358,-15.1144,-1.00117,-15.682,34.262,-21.5735,3.59564,-25.8072
2.19966,17.5168,-24.7999,2.93806,-2.50294,-4.2409,4.34546,-0.0650394,5.33525,-1.58733,0.277573,1.18107,-4.06768,0.0158533,-1.79107,8.61227,5.65793,17.219,-10.3032,7.932,-19.4643,-2.86185,4.39239,-9.32793,-9.41587e-15,3.08116e-15,5.52372,32.59,-73.7925,92.7777,-18.3164,-6.77495,17.0284,7.12502,19.0873,-12.055,-9.41587e-15,3.08116e-15,21.7924,20.3691,19.9274,74.7467,2.5584,-51.7831,22.9495,7.12502,-24.2996,51.4294,-15.1136,-5.09108,26.5381,42.3199,-18.9111,3.64459,14.2811,-15.0711,-0.894943,-16.6065,33.7248,-21.3525,3.48407,-26.067
2.23149,17.5298,-24.7757,2.97523,-2.41149,-3.49514,4.46227,-0.230346,4.63916,-1.87953,0.0339149,1.1925,-4.45306,-0.0987578,-1.36974,8.76931,5.77355,17.0335,-10.3063,8.05976,-19.8246,-2.85364,4.48918,-9.42499,-3.01904e-15,-8.15017e-15,5.37976,33.0026,-73.3413,92.8342,-18.5882,-7.3765,16.603,7.12502,18.5087,-12.5365,-3.01904e-15,-8.15017e-15,21.526,19.9758,20.3296,74.7086,2.52516,-51.9025,23.0033,7.12502,-24.414,51.4678,-15.8952,-5.23458,25.6789,43.7381,-19.0251,3.00046,12.3446,-14.7715,-0.789595,-17.5694,33.1539,-20.9857,3.38342,-26.6575
2.26253,17.5322,-24.7541,2.93381,-2.25906,-3.11781,4.58705,-0.467887,4.53044,-2.08914,-0.276804,1.14928,-4.7604,-0.259113,-1.32559,11.0175,6.12773,15.4861,-12.7157,8.49497,-18.6571,-3.99582,4.78386,-9.0037,-1.16553e-14,2.00773e-14,5.27902,33.4414,-73.1247,92.9169,-18.5948,-8.43904,16.4002,7.12502,17.4864,-12.8333,-1.16553e-14,2.00773e-14,21.3397,19.6809,20.4931,74.684,2.59216,-52.0003,23.1643,7.12502,-24.5078,51.6162,-16.5741,-5.38991,25.2322,45.0275,-18.9412,2.264,12.2422,-14.4213,-0.677356,-18.0996,32.576,-20.7606,3.17702,-26.9902
2.28943,17.5378,-24.7336,2.95982,-2.15211,-2.82126,4.52826,-0.71089,4.63577,-2.24149,-0.598966,1.00467,-4.90816,-0.429537,-1.50527,10.037,6.00967,16.3187,-11.5665,8.33253,-19.7765,-3.41852,4.70288,-9.41042,1.6392e-15,1.43125e-14,5.29991,33.7737,-73.105,92.8699,-18.6132,-9.24728,16.3421,7.12502,16.7084,-12.9588,1.6392e-15,1.43125e-14,21.3745,19.601,20.5106,74.4603,2.73747,-51.7447,22.6145,7.12502,-24.2627,51.0993,-17.335,-5.23367,24.8976,46.16,-18.8555,1.55063,14.7383,-14.1711,-0.352011,-18.5089,32.0209,-20.7258,2.86855,-28.3333
2.30912,17.5482,-24.7168,3.05946,-2.11885,-2.4025,4.24519,-0.899527,4.60558,-2.21755,-0.881374,0.755976,-4.7428,-0.569331,-1.72546,10.6005,6.13653,16.0912,-12.6652,8.43729,-19.7521,-3.827,4.78582,-9.45086,-4.18147e-15,-5.76476e-15,5.85725,33.838,-72.936,92.6605,-18.8061,-9.831,16.2174,7.12502,16.1464,-13.13,-4.18147e-15,-5.76476e-15,21.6979,19.76,20.4276,74.1945,2.82775,-51.4916,22.2482,7.12502,-24.02,50.7652,-18.1605,-4.93731,24.5094,47.0982,-19.0323,0.34811,15.4352,-13.965,-0.031648,-19.0324,31.4755,-20.6172,2.63646,-30.2921
2.32818,17.5559,-24.6977,3.0491,-1.98759,-1.85228,3.97274,-1.12866,4.57155,-2.04954,-1.2279,0.327687,-4.444,-0.738826,-2.12792,12.4213,6.58652,14.9558,-15.4648,8.97324,-18.5627,-4.99952,5.07903,-9.12773,3.58278e-15,-1.14301e-14,6.5903,33.7239,-72.9457,92.5246,-18.8405,-10.5307,15.9263,7.12502,15.4726,-13.4745,3.58278e-15,-1.14301e-14,22.1364,20.042,20.1689,74.0464,2.7551,-51.368,22.1305,7.12502,-23.9015,50.6631,-18.726,-4.82923,23.9884,47.8134,-19.507,-1.08965,14.6411,-13.5959,0.0820511,-19.6941,30.9008,-20.5064,2.27645,-30.8092
2.3485,17.565,-24.6743,3.02314,-1.78929,-1.49818,3.95045,-1.38235,4.38521,-2.09757,-1.57932,0.282412,-4.50228,-0.910358,-2.04151,12.1852,6.71757,15.1453,-15.3217,9.10362,-19.081,-4.84855,5.16703,-9.31217,3.11067e-15,7.7526e-15,6.8508,33.9686,-72.7043,92.6033,-18.8794,-11.0081,15.974,7.12502,15.0127,-13.4618,3.11067e-15,7.7526e-15,22.1154,20.1331,20.2989,73.9534,2.78653,-51.1347,21.5848,7.12502,-23.6778,50.1465,-19.1214,-4.75299,23.6254,48.2904,-20.1215,-1.96573,16.5971,-13.2039,0.29137,-20.1246,30.2882,-20.4063,1.72151,-30.63
2.36422,17.5783,-24.6534,3.0629,-1.62091,-1.45485,4.87908,-1.53614,3.9046,-2.85992,-1.72462,0.801774,-5.8083,-0.987735,-1.18359,12.2545,6.74062,14.9331,-14.6529,9.10026,-19.5821,-4.64291,5.22021,-9.41063,6.95746e-16,1.64991e-14,5.83326,34.6704,-72.2597,92.7667,-19.1104,-11.4187,16.4748,7.12502,14.6171,-12.9901,6.95746e-16,1.64991e-14,21.5276,19.2907,20.9699,73.8473,2.8303,-50.8584,20.8396,7.12502,-23.4128,49.4354,-19.543,-4.50971,23.5919,48.5467,-20.8314,-2.32316,19.1907,-12.8642,0.544619,-20.1858,29.6187,-20.154,1.16111,-30.2607
2.37609,17.5909,-24.6338,3.01433,-1.44639,-1.22002,3.93783,-1.83374,4.35472,-2.10241,-2.18509,0.264905,-4.54195,-1.2111,-1.9923,11.3611,6.96576,15.4491,-15.1488,9.31071,-19.8768,-4.5447,5.28458,-9.56925,-4.7553e-15,1.45113e-14,7.43953,34.2899,-72.1966,92.5501,-19.1005,-11.9783,16.4812,7.12502,14.0779,-13.022,-4.7553e-15,1.45113e-14,22.4401,20.2463,20.5114,73.4905,2.47347,-50.9337,20.8903,7.12502,-23.4851,49.4768,-19.8805,-4.1271,23.3708,48.6274,-21.6334,-2.89235,18.5216,-12.4382,0.679005,-20.4481,28.9505,-19.8419,0.607935,-29.5061
2.39137,17.6005,-24.6083,2.92883,-1.3299,-0.588712,4.43628,-1.94384,3.59301,-2.43873,-2.3461,0.317328,-5.15164,-1.27951,-1.47434,11.4752,7.06682,15.1764,-15.2399,9.38553,-20.0353,-4.58188,5.35224,-9.59041,2.61269e-15,6.55989e-15,7.14383,34.5591,-71.8935,92.6328,-19.1065,-12.5469,16.1347,7.12502,13.53,-13.4057,2.61269e-15,6.55989e-15,22.4395,19.8307,20.9868,73.3712,2.21474,-51.3643,21.6418,7.12502,-23.898,50.1748,-20.1385,-3.76126,22.6913,48.5593,-22.3189,-3.6507,16.6071,-11.9607,0.738437,-21.1891,28.3539,-19.6722,0.119122,-28.6001
2.40814,17.6107,-24.579,2.90109,-1.20113,-0.0867264,4.39916,-2.10404,3.55089,-2.53222,-2.57912,-0.0189339,-5.25556,-1.40272,-1.77666,11.1459,7.036,15.4826,-14.9929,9.34605,-20.3066,-4.4237,5.32366,-9.69752,1.47357e-14,-1.05356e-14,6.95229,34.5558,-72.1963,92.7734,-19.124,-13.0096,15.7727,7.12502,13.084,-13.7969,1.47357e-14,-1.05356e-14,22.7462,19.6097,21.0155,73.3168,2.09969,-51.6869,22.1447,7.12502,-24.2073,50.6369,-20.3328,-3.40948,22.1243,48.3531,-22.9223,-3.83774,16.2231,-11.5325,0.711507,-21.7847,27.8225,-19.566,-0.577929,-26.839
2.41945,17.6198,-24.552,2.84942,-0.957081,0.0446188,4.53193,-2.3099,3.73392,-2.72229,-2.84013,-0.151245,-5.56408,-1.54815,-1.98096,12.207,7.21784,14.832,-16.1311,9.56757,-19.7531,-4.97923,5.46339,-9.54271,-3.83095e-14,-4.96962e-15,6.62212,34.5839,-72.4873,92.9465,-19.078,-13.2818,15.5533,7.12502,12.8216,-14.033,-3.83095e-14,-4.96962e-15,22.8328,19.297,21.1665,73.3081,1.98965,-51.6082,21.5505,7.12502,-24.1319,50.0528,-20.4136,-3.0118,21.9758,48.0229,-23.4191,-3.55906,16.5627,-11.1729,0.786005,-21.9315,27.4046,-19.49,-1.12579,-26.2618
2.42645,17.6212,-24.5283,2.73469,-0.732693,0.164155,4.56522,-2.52449,3.88592,-2.69469,-3.1235,-0.30421,-5.59105,-1.69724,-2.19548,12.4476,7.33675,14.6214,-16.8788,9.66035,-19.6646,-5.24591,5.51987,-9.5446,9.24193e-15,-7.95139e-15,6.90763,34.4484,-72.6193,92.8446,-19.0027,-13.9012,16.1007,7.12502,12.2244,-13.5221,9.24193e-15,-7.95139e-15,23.0646,19.2711,21.2624,73.2344,1.99566,-51.5298,20.8203,7.12502,-24.0568,49.3325,-20.4427,-2.65067,21.8499,47.6004,-23.6842,-3.61003,13.1436,-10.8639,0.934893,-22.0791,27.1285,-19.5114,-1.01001,-28.2323
2.43455,17.6191,-24.5097,2.75315,-0.58017,0.404742,4.58569,-2.67293,3.88543,-2.75525,-3.32833,-0.454966,-5.69074,-1.80433,-2.3283,12.4658,7.40021,14.5618,-17.3829,9.68425,-19.7064,-5.39654,5.53694,-9.58545,-3.15835e-14,-1.05356e-14,7.00853,34.3673,-72.6721,92.7704,-19.1257,-14.6567,16.614,7.12502,11.4959,-13.0507,-3.15835e-14,-1.05356e-14,23.3872,19.1587,21.4598,73.1208,1.81152,-51.7898,20.975,7.12502,-24.306,49.454,-20.6438,-2.25113,21.591,47.0617,-23.8415,-3.88718,8.8706,-10.772,1.03953,-22.3597,26.9736,-19.416,-1.25587,-28.7024
2.44151,17.6196,-24.4949,2.90949,-0.71761,0.603289,4.58416,-2.70997,3.7634,-2.87605,-3.38562,-0.46436,-5.81418,-1.83193,-2.26065,12.3978,7.55017,14.4906,-17.5048,9.84143,-19.822,-5.38742,5.62543,-9.61697,-6.69345e-14,1.98785e-15,7.12298,34.4308,-72.3721,92.7183,-19.4664,-14.9424,16.8053,7.12502,11.2203,-12.8746,-6.69345e-14,1.98785e-15,23.5917,19.0757,21.7636,73.0529,1.57081,-52.239,21.0623,7.12502,-24.7366,49.4829,-21.0068,-1.3996,21.3545,46.3898,-24.1265,-3.56572,9.60003,-10.8524,1.2676,-22.5971,26.8661,-19.2322,-1.5292,-28.77
2.44305,17.6178,-24.4667,2.89544,-0.836229,0.534118,4.57678,-2.74997,3.81816,-2.89365,-3.42996,-0.364139,-5.82881,-1.85415,-2.1821,12.1349,7.68717,14.4861,-17.3242,9.98529,-20.0365,-5.24393,5.70578,-9.65745,8.54774e-15,-1.35174e-14,7.38507,34.4841,-72.0174,92.5478,-19.7487,-15.0084,16.571,7.12502,11.1567,-13.1124,8.54774e-15,-1.35174e-14,23.7101,19.0166,22.102,73.097,1.5893,-52.3546,20.4574,7.12502,-24.8474,48.8627,-21.0527,-0.443046,21.4222,45.6286,-24.4189,-2.93189,10.8473,-10.7121,1.3614,-22.5251,26.7751,-19.1975,-1.41047,-29.8505
2.44499,17.6078,-24.4193,2.73753,-0.204698,0.679421,3.99672,-3.02779,4.00176,-2.58159,-3.82928,-0.592472,-5.22739,-2.05046,-2.52073,11.9156,7.77714,14.7253,-17.4382,10.0999,-20.1796,-5.19228,5.7514,-9.73747,1.00169e-14,3.08116e-15,7.73822,34.2022,-72.1337,92.5339,-20.0036,-14.8042,16.2327,7.12502,11.3536,-13.44,1.00169e-14,3.08116e-15,24.2631,19.2407,22.4372,73.1708,1.39812,-51.8963,19.8784,7.12502,-24.4081,48.3437,-20.7236,-0.209897,21.2889,44.8537,-24.4975,-2.34282,11.961,-10.3336,1.00634,-22.6313,26.6515,-19.2649,-1.85227,-29.6671
2.4408,17.5917,-24.3861,2.78611,-0.167492,1.264,2.56299,-3.38579,4.36448,-1.68819,-4.3954,-1.48441,-3.62855,-2.31579,-3.71148,11.2648,8.23661,14.8526,-18.2013,10.6631,-19.8336,-5.21567,5.96346,-9.64201,2.90195e-14,-7.70291e-15,9.34365,33.8947,-72.8344,92.4782,-20.3371,-14.7581,16.7436,7.12502,11.398,-12.9266,2.90195e-14,-7.70291e-15,24.9216,20.3658,21.4858,73.1423,1.10394,-51.6593,20.2051,7.12502,-24.1808,48.7008,-20.7997,0.30347,20.6408,44.1497,-24.5055,-1.61393,11.699,-10.1755,1.06664,-23.2504,26.5262,-19.3064,-2.19682,-29.2317
2.43475,17.5795,-24.3604,2.78804,0.0370056,1.85876,2.13365,-3.60588,4.09781,-1.43977,-4.73061,-1.89429,-3.17555,-2.46951,-4.00032,10.841,8.41937,14.8887,-18.2955,10.8706,-19.772,-5.13166,6.04187,-9.59929,8.5788e-15,1.85864e-14,9.86653,33.8046,-73.0651,92.4333,-20.5266,-15.4196,16.7614,7.12502,10.76,-12.943,8.5788e-15,1.85864e-14,25.2452,20.4564,21.3014,73.114,0.941507,-51.928,20.8341,7.12502,-24.4384,49.2953,-20.8054,0.650371,19.9961,43.4712,-24.8066,-1.49963,7.67242,-10.0182,0.997995,-23.8585,26.3897,-19.2366,-2.71529,-28.0182
2.42855,17.5715,-24.3288,2.7218,0.14334,2.08931,2.10737,-3.65337,3.87298,-1.46359,-4.80424,-1.95654,-3.17925,-2.50295,-3.93541,10.6649,8.42695,14.84,-18.1901,10.8552,-19.7952,-5.07272,6.03316,-9.5785,2.59398e-14,3.67752e-15,9.87577,33.7021,-73.0404,92.2241,-20.5149,-16.2496,15.5303,7.12502,9.95939,-14.2141,2.59398e-14,3.67752e-15,25.5673,20.1619,21.7463,73.08,0.73284,-51.9587,20.5224,7.12502,-24.4679,48.9797,-20.7061,1.22088,19.7248,42.788,-24.8057,-1.34606,8.08343,-9.77395,1.02236,-24.07,26.2703,-19.2164,-3.00785,-27.5867
2.42087,17.5684,-24.2924,2.60098,0.135148,2.11955,2.51445,-3.56528,3.59411,-1.79017,-4.67747,-1.78005,-3.6961,-2.4455,-3.56714,10.7079,8.32134,14.8077,-17.8219,10.7213,-19.929,-4.98689,5.98328,-9.59708,7.51002e-14,2.51463e-14,9.23369,33.6591,-72.9374,92.0823,-20.4517,-16.8828,16.9852,7.12502,9.34839,-12.7875,7.51002e-14,2.51463e-14,25.6479,19.4267,22.3059,73.0558,0.529604,-51.7195,19.8802,7.12502,-24.2386,48.3682,-20.5218,1.93373,19.6666,42.0528,-24.2334,-0.922401,13.9548,-9.45664,1.0937,-24.0679,26.1814,-19.2929,-2.93666,-28.3682
2.41088,17.5653,-24.2569,2.52077,0.201163,2.23536,3.72129,-3.45567,2.82077,-2.72116,-4.51346,-1.2442,-5.22761,-2.36441,-2.48622,10.7433,8.19005,14.5825,-16.6604,10.5714,-20.2268,-4.66748,5.95026,-9.58473,3.21721e-14,9.64106e-15,7.62688,34.1294,-72.6597,92.3025,-20.6922,-17.2325,16.6389,7.12502,9.01101,-13.1487,3.21721e-14,9.64106e-15,25.0593,17.9981,23.2166,73.1165,0.369238,-51.9136,20.0908,7.12502,-24.4247,48.5538,-20.2912,2.28063,19.5652,41.3077,-23.6933,-1.02149,17.3613,-9.21075,1.21845,-24.1335,26.1312,-19.299,-3.24879,-27.5509
2.40017,17.5595,-24.2242,2.55081,0.323706,2.41862,3.85475,-3.49926,2.33939,-2.90808,-4.58738,-1.02859,-5.44598,-2.38262,-1.97394,10.2377,8.29511,14.3695,-16.0831,10.659,-20.3781,-4.39304,5.99681,-9.52403,5.74954e-14,1.36167e-14,7.51146,34.2546,-72.3265,92.2519,-21.0477,-16.9657,17.2376,7.12502,9.26844,-12.5387,5.74954e-14,1.36167e-14,24.9251,17.628,23.7197,73.1756,0.355577,-52.2871,20.0751,7.12502,-24.7827,48.4894,-20.1846,2.33075,19.4167,40.6507,-23.5305,-1.4462,19.5687,-9.11121,1.4653,-24.2584,26.0961,-19.3306,-3.65437,-27.1505
2.38822,17.5487,-24.1939,2.56887,0.43104,2.659,3.65419,-3.58458,2.22411,-2.88949,-4.7219,-1.21927,-5.32697,-2.44862,-2.10838,10.077,8.36184,14.5676,-16.0431,10.7632,-20.4354,-4.31655,6.03483,-9.55941,-7.19787e-14,-4.96962e-16,7.55726,34.0276,-72.5897,91.9221,-20.8269,-16.505,17.9494,7.12502,9.71299,-11.8066,-7.19787e-14,-4.96962e-16,25.1022,17.3654,23.6592,73.2445,0.273934,-52.2909,19.4345,7.12502,-24.7863,47.8484,-20.0508,2.36341,19.2223,40.1659,-23.4327,-1.80471,22.1103,-8.97668,1.56413,-24.4615,26.015,-19.4242,-3.86008,-26.9897
2.37315,17.5363,-24.1633,2.5306,0.485838,2.88651,3.59371,-3.62174,1.99139,-2.9984,-4.79377,-1.3523,-5.40292,-2.4805,-2.11031,10.4711,8.31538,14.8021,-16.209,10.753,-20.5586,-4.41282,6.04188,-9.67904,-9.93923e-16,-9.54166e-15,7.4029,34.1869,-72.7722,91.8029,-20.7345,-16.605,16.9705,7.12502,9.61645,-12.79,-9.93923e-16,-9.54166e-15,25.2526,16.9577,23.745,73.2289,-0.0485924,-52.1632,19.037,7.12502,-24.664,47.4676,-19.7905,2.41428,19.1012,39.8851,-23.2875,-2.27412,23.2447,-8.77327,1.63735,-24.6473,25.9058,-19.5154,-4.09743,-26.0405
2.35924,17.5332,-24.1267,2.53845,0.605459,3.0984,3.31309,-3.65008,1.82544,-2.97455,-4.85201,-1.50333,-5.22059,-2.50576,-2.18883,10.3806,8.2627,15.0427,-16.1276,10.7027,-20.6856,-4.35765,6.00956,-9.75043,6.08778e-16,3.52843e-15,7.52004,34.3622,-72.8217,91.7399,-20.9045,-17.2372,16.005,7.12502,9.00651,-13.7827,6.08778e-16,3.52843e-15,25.6104,16.7602,23.886,73.1153,-0.195818,-51.7773,18.5339,7.12502,-24.294,47.0145,-19.5231,2.09362,19.0434,39.7499,-23.0616,-2.99961,22.5072,-8.56096,1.79396,-24.8186,25.7492,-19.6969,-4.33224,-25.8308
2.33831,17.5257,-24.1144,2.51459,0.631778,3.49373,3.34104,-3.70996,1.55472,-2.98768,-4.96099,-1.78197,-5.25862,-2.55649,-2.31502,9.66552,8.19504,15.6099,-15.3649,10.6528,-21.0176,-3.95732,5.94857,-9.85652,2.80158e-14,-2.42269e-15,7.51788,34.4217,-73.1848,91.4882,-20.7005,-17.9833,16.0075,7.12502,8.28649,-13.81,2.80158e-14,-2.42269e-15,25.776,16.4915,23.5921,73.07,-0.214967,-51.2305,18.4206,7.12502,-23.7697,46.9703,-19.3311,1.87696,18.8389,39.7275,-22.8567,-3.48666,21.9692,-8.42957,1.62252,-25.197,25.6117,-19.7561,-4.06195,-25.5184
2.32323,17.511,-24.0699,2.41687,0.679547,3.86848,3.58125,-3.76328,1.05685,-3.33506,-5.06457,-1.75476,-5.71908,-2.59245,-1.97265,9.32962,8.11084,15.8568,-14.3698,10.5963,-21.4058,-3.57657,5.91814,-9.94557,-3.80486e-14,-8.94531e-15,6.80527,35.0284,-73.268,91.4071,-20.6114,-18.6585,15.242,7.12502,7.6348,-14.6001,-3.80486e-14,-8.94531e-15,25.2951,15.6904,23.5402,73.2047,-0.278026,-50.8045,18.8129,7.12502,-23.361,47.4153,-18.8124,1.42484,18.5668,39.6656,-23.2163,-2.89377,23.7038,-8.06734,1.63464,-25.5833,25.5037,-19.9705,-3.99509,-24.2983
2.30089,17.4967,-24.0434,2.29995,0.653486,4.0209,3.62876,-3.8037,0.847852,-3.33937,-5.13666,-1.85051,-5.74451,-2.62195,-1.94606,9.62189,8.18322,15.5696,-14.7989,10.6613,-21.2099,-3.7716,5.96452,-9.8761,-4.84817e-14,-1.51822e-14,6.84055,35.265,-73.3118,91.2731,-20.591,-18.3455,13.9214,7.12502,7.9369,-15.9096,-4.84817e-14,-1.51822e-14,25.2719,15.3655,23.3,73.2504,-0.407978,-50.5876,18.664,7.12502,-23.153,47.2926,-18.4089,1.44048,18.5825,39.5093,-23.6681,-2.5825,25.9559,-7.84429,1.83108,-25.6581,25.5055,-20.1981,-4.09829,-23.5762
2.2812,17.4838,-24.0202,2.29098,0.594642,3.99561,3.46446,-3.79817,0.907475,-3.23152,-5.12812,-1.9434,-5.55122,-2.6215,-2.09136,9.50978,8.24013,15.3869,-15.0595,10.6945,-20.9715,-3.85018,5.96887,-9.77254,5.84955e-14,1.99406e-15,7.2287,35.0976,-73.3123,91.0853,-20.6655,-17.4608,13.7229,7.12502,8.79072,-16.074,5.84955e-14,1.99406e-15,25.4736,15.2751,23.0768,73.1458,-0.453433,-50.816,18.0436,7.12502,-23.3721,46.6445,-18.1685,1.52139,18.7898,39.2368,-23.9809,-2.81644,27.1588,-7.74531,1.86192,-25.5547,25.5087,-20.406,-3.99444,-23.8888
2.26097,17.4704,-23.9972,2.28573,0.382144,4.04485,3.51719,-3.71152,0.830763,-3.29952,-5.02063,-1.99001,-5.64512,-2.567,-2.10071,10.0552,8.40393,14.7156,-15.6336,10.899,-20.2868,-4.16912,6.0783,-9.5027,6.52342e-14,2.20216e-14,7.24732,35.0534,-73.4082,90.9867,-20.813,-17.0656,13.9221,7.12502,9.17202,-15.8584,6.52342e-14,2.20216e-14,25.4621,14.9549,22.9068,73.0817,-0.36985,-51.1461,17.7515,7.12502,-23.6888,46.3118,-17.9661,1.84783,18.8927,38.9188,-24.0797,-3.10577,27.5583,-7.6665,1.82986,-25.5639,25.5332,-20.6224,-3.50836,-25.1361
2.2432,17.4623,-23.9663,2.22153,0.15165,4.3499,3.58432,-3.6196,0.527204,-3.41899,-4.92584,-2.11974,-5.79023,-2.51189,-2.06692,8.08759,8.03889,16.8262,-12.9703,10.5386,-22.3728,-2.8376,5.84248,-10.274,-2.02768e-14,5.7896e-15,6.95963,35.153,-73.6301,90.7407,-20.8679,-17.1204,13.9846,7.12502,9.1192,-15.7983,-2.02768e-14,5.7896e-15,25.2599,14.4409,22.7124,73.151,-0.46165,-51.4118,18.2555,7.12502,-23.9435,46.7826,-17.6763,2.07137,18.6535,38.6154,-24.1725,-2.96327,27.4323,-7.47502,1.78779,-25.8869,25.5764,-20.8844,-3.01392,-25.5971
2.22817,17.4635,-23.9372,2.13154,-0.0529746,4.26796,3.51748,-3.51485,0.689229,-3.35556,-4.77718,-2.18191,-5.69771,-2.44599,-2.24118,9.70151,8.22252,15.4162,-15.0966,10.6921,-20.9876,-3.89221,5.97505,-9.79875,1.48545e-14,-5.96354e-16,7.00953,35.187,-73.5788,90.4943,-21.2508,-17.2526,13.9038,7.12502,8.99155,-15.8846,1.48545e-14,-5.96354e-16,25.2647,14.15,22.6699,73.2933,-0.578348,-51.6447,18.9316,7.12502,-24.1669,47.4291,-17.3735,2.14979,18.822,38.3905,-24.3352,-2.84397,27.1214,-7.24577,1.44677,-25.8215,25.6572,-21.0549,-2.36305,-25.0799
2.21163,17.4615,-23.9112,2.01469,-0.337574,3.92885,3.56328,-3.35286,1.0281,-3.22825,-4.53429,-2.12394,-5.6,-2.33629,-2.39257,9.86061,8.33431,14.8715,-15.7837,10.7583,-20.5344,-4.17631,6.01104,-9.60978,2.25217e-14,-1.14798e-14,7.27145,35.079,-73.365,90.4042,-21.4087,-16.8451,13.695,7.12502,9.38476,-16.0761,2.25217e-14,-1.14798e-14,25.3518,14.007,22.7159,73.4486,-0.552193,-51.402,18.729,7.12502,-23.9341,47.2573,-17.096,2.26177,19.2751,38.2587,-24.4457,-2.79601,27.0465,-7.04223,1.08066,-25.472,25.7915,-21.1828,-1.5445,-24.9316
2.19524,17.4505,-23.8852,1.95265,-0.700115,3.8558,3.6792,-3.16815,1.06058,-3.25114,-4.28423,-2.09962,-5.67695,-2.21338,-2.40087,9.35521,8.2732,15.1636,-15.3666,10.652,-20.9627,-3.93471,5.95261,-9.74192,7.97623e-15,-1.49089e-15,7.23173,34.9255,-73.4074,90.4431,-21.0461,-16.2481,13.306,7.12502,9.96078,-16.4383,7.97623e-15,-1.49089e-15,25.238,13.6928,22.6368,73.6254,-0.516337,-50.5828,17.6972,7.12502,-23.1484,46.3264,-16.9396,2.31367,19.4012,38.1793,-24.4016,-2.46386,27.7169,-7.02092,1.20582,-25.3643,26.0922,-21.402,-1.22129,-25.0425
2.17963,17.4432,-23.8615,1.8956,-1.03081,3.77495,3.75732,-2.99669,1.12277,-3.30124,-4.05028,-2.07317,-5.76386,-2.10011,-2.42413,7.86885,7.96227,16.4105,-13.7253,10.2639,-22.2501,-3.10414,5.71098,-10.2003,2.13383e-15,1.3418e-15,7.06027,34.8168,-73.551,90.4572,-20.8583,-15.8904,13.0853,7.12502,10.3058,-16.6422,2.13383e-15,1.3418e-15,25.0489,13.3306,22.4951,73.8767,-0.399773,-50.0081,17.0191,7.12502,-22.5969,45.7165,-16.8343,2.22781,19.5133,38.1295,-24.2931,-1.8906,28.9413,-7.0749,1.38848,-25.2285,26.541,-21.6638,-1.24062,-24.4301
2.16405,17.4408,-23.8416,1.81652,-1.29514,3.42049,3.84578,-2.8358,1.33659,-3.24915,-3.80968,-1.87943,-5.74651,-1.98403,-2.36141,9.03558,8.08238,15.3099,-15.3108,10.3151,-21.4888,-3.87872,5.80203,-9.92771,-1.16592e-14,-4.96962e-15,7.08872,34.8034,-73.3742,90.3984,-21.0706,-15.5294,12.7939,7.12502,10.6542,-16.916,-1.16592e-14,-4.96962e-15,24.8491,13.1581,22.4173,74.1105,-0.283201,-50.2455,17.3074,7.12502,-22.8248,45.9769,-16.7276,2.14286,19.9432,38.1269,-24.2223,-1.48802,29.2879,-7.1068,1.30526,-24.8134,27.0235,-21.8201,-1.06608,-22.8374
2.14987,17.4371,-23.8255,1.78272,-1.59191,3.03039,3.78994,-2.71861,1.95384,-3.11624,-3.61695,-1.95732,-5.61036,-1.91281,-2.81146,9.67443,8.19395,14.7482,-16.4113,10.4242,-20.7705,-4.38022,5.86423,-9.70398,-2.49133e-14,-1.68967e-15,7.1787,34.7554,-73.5774,90.3335,-21.4362,-15.3562,12.2588,7.12502,10.8212,-17.4424,-2.49133e-14,-1.68967e-15,24.7477,13.0695,21.8815,74.271,-0.321916,-50.6606,17.4579,7.12502,-23.223,46.0777,-16.6785,2.05371,20.4097,38.1264,-24.1062,-1.13744,28.908,-7.22427,1.43179,-24.3484,27.5401,-21.8524,-0.816323,-22.4986
2.13625,17.4301,-23.8094,1.7382,-1.88108,3.01578,4.16229,-2.56429,1.98596,-3.35234,-3.40746,-1.96405,-6.06088,-1.81741,-2.83483,8.93055,7.92104,15.7092,-15.1697,10.1435,-21.5911,-3.82159,5.69799,-10.0187,5.59082e-17,2.38542e-15,6.55194,34.7908,-73.8795,90.1923,-21.3204,-15.2505,12.4461,7.12502,10.9231,-17.2498,5.59082e-17,2.38542e-15,24.3466,12.5303,21.5732,74.4511,-0.374856,-50.9926,17.1166,7.12502,-23.5415,45.6959,-16.6248,1.76746,20.4378,38.1036,-23.9686,-0.406222,29.256,-7.39264,1.62043,-24.2941,28.1209,-21.9952,-0.454665,-23.763
2.12068,17.4263,-23.7927,1.71064,-2.04293,3.10272,4.38684,-2.43975,1.79753,-3.4893,-3.25069,-1.92269,-6.30972,-1.73425,-2.68993,9.9384,7.92462,15.0299,-16.1441,10.1161,-21.0928,-4.36715,5.73106,-9.86802,4.97645e-14,1.61016e-14,6.14414,34.6953,-73.9808,90.0823,-20.8127,-15.058,12.9737,7.12502,11.1088,-16.7123,4.97645e-14,1.61016e-14,23.9925,12.12,21.2723,74.5916,-0.2818,-51.3419,17.0158,7.12502,-23.8765,45.5517,-16.5565,1.41219,20.3646,38.0517,-23.8622,0.324726,29.4409,-7.64901,1.56458,-24.3523,28.7691,-22.2235,-0.352027,-22.761
2.10096,17.4268,-23.7747,1.78056,-2.19318,2.9553,4.02148,-2.3883,2.05488,-3.29013,-3.16866,-1.97823,-5.90273,-1.70027,-2.91903,8.591,7.70071,16.1376,-14.8731,9.82099,-22.2217,-3.66939,5.54342,-10.2766,-4.10863e-14,-3.67752e-15,6.46012,34.6137,-74.0061,90.0964,-20.621,-14.8967,13.2715,7.12502,11.2644,-16.4061,-4.10863e-14,-3.67752e-15,23.8455,12.1435,20.6444,74.6389,-0.216999,-51.5349,17.0891,7.12502,-24.0616,45.6006,-16.5522,1.19258,20.5826,37.9302,-23.7808,0.591366,28.7696,-8.04068,1.53122,-24.1296,29.5257,-22.3038,-0.5783,-20.3213
2.07708,17.4268,-23.7548,1.90895,-2.40496,2.73887,3.56756,-2.35899,2.49188,-3.07485,-3.11424,-2.12846,-5.44723,-1.68666,-3.34825,9.26952,7.83023,15.5767,-15.9684,9.94431,-21.618,-4.15908,5.62659,-10.0853,2.0363e-14,-2.08724e-15,6.82919,34.6222,-74.1863,90.0899,-20.6059,-14.7032,13.3268,7.12502,11.451,-16.3405,2.0363e-14,-2.08724e-15,23.755,12.2233,19.7825,74.6571,-0.112288,-51.3999,16.872,7.12502,-23.9322,45.4006,-16.5567,1.24074,20.9022,37.7225,-23.7825,0.685839,28.5937,-8.54691,1.72268,-23.8091,30.4206,-22.2065,-0.594535,-19.888
2.05132,17.4302,-23.7401,2.00582,-2.53744,2.4357,3.8658,-2.21222,2.5179,-3.29624,-2.9016,-1.91465,-5.82292,-1.58501,-3.14415,9.37799,7.7525,15.4379,-15.9126,9.8412,-21.5581,-4.19537,5.58345,-10.0479,2.08848e-14,1.81888e-14,6.45351,34.6472,-74.1058,90.1092,-20.8624,-14.3581,13.3116,7.12502,11.7838,-16.3369,2.08848e-14,1.81888e-14,23.4645,11.7752,19.5516,74.7279,-0.073213,-50.771,16.0842,7.12502,-23.329,44.6906,-16.4489,1.42449,21.328,37.4679,-23.8531,0.867043,29.174,-9.12403,1.97679,-23.3743,31.3916,-22.0212,-0.47279,-20.1391
2.02816,17.4357,-23.7262,2.05963,-2.48902,2.09058,4.07033,-2.11839,2.65298,-3.3807,-2.75377,-1.73579,-6.01526,-1.51648,-3.03887,9.4161,7.68479,15.3012,-16.1032,9.71598,-21.4959,-4.29509,5.52699,-10.0213,-6.19028e-15,-1.56046e-14,6.2967,34.4966,-74.0665,90.0361,-21.2734,-13.9153,13.5568,7.12502,12.2108,-16.0668,-6.19028e-15,-1.56046e-14,23.2835,11.5415,19.3602,74.7268,-0.410166,-49.9957,15.4868,7.12502,-22.585,44.1856,-16.2604,1.35255,21.7849,37.1795,-23.8302,1.07673,29.7153,-9.69977,2.0758,-22.911,32.4414,-21.8498,-0.220019,-21.4959
2.01399,17.4388,-23.7037,2.17329,-2.31778,2.01601,3.88291,-2.11629,2.66312,-3.33248,-2.74944,-1.65609,-5.85258,-1.51004,-2.96889,9.23234,7.67181,15.3278,-16.1191,9.65934,-21.6465,-4.26573,5.50109,-10.0674,5.9946e-16,-1.93815e-15,6.37928,34.503,-73.9598,90.0223,-21.1598,-13.9858,13.7145,7.12502,12.1428,-15.9131,5.9946e-16,-1.93815e-15,23.0961,11.5308,19.1174,74.7121,-0.733285,-49.5772,15.3262,7.12502,-22.1833,44.0733,-16.0948,0.954733,21.8835,36.8198,-23.7118,1.40635,30.2736,-10.3499,2.11553,-22.8065,33.6201,-21.7751,0.142903,-24.8206
2.00092,17.4411,-23.6825,2.25993,-2.25723,1.7914,3.75952,-2.07291,2.83653,-3.31243,-2.67667,-1.5405,-5.75802,-1.47682,-2.95701,7.9241,7.45289,16.2181,-14.6964,9.39813,-22.4352,-3.56696,5.31278,-10.3236,2.7923e-15,7.85199e-15,6.35934,34.5776,-73.8217,90.1737,-20.7624,-14.3969,13.5975,7.12502,11.7464,-16.0531,2.7923e-15,7.85199e-15,22.9334,11.4769,18.919,74.7766,-0.756334,-49.5476,14.8263,7.12502,-22.1548,43.5768,-15.8695,0.690188,22.1481,36.4209,-23.6153,1.69775,30.6065,-11.0419,2.13792,-22.558,34.9068,-21.7924,0.333207,-26.3623
1.97655,17.4445,-23.6642,2.15889,-2.27806,1.16292,4.03508,-2.02119,3.27357,-3.36284,-2.55802,-1.28949,-5.96954,-1.43358,-2.94166,8.27996,7.38845,16.024,-14.8944,9.31819,-22.2963,-3.72444,5.29196,-10.2797,3.27715e-14,9.93923e-16,6.07969,34.6738,-73.8123,90.3708,-20.8684,-14.4117,13.467,7.12502,11.7321,-16.1844,3.27715e-14,9.93923e-16,22.6842,11.355,18.6882,74.8541,-0.737892,-49.6785,14.287,7.12502,-22.2805,43.0225,-15.411,0.652143,22.94,35.9669,-23.4808,1.67394,30.2867,-11.6635,2.11083,-21.7985,36.3623,-21.7306,0.405725,-25.4805
1.94917,17.4407,-23.6491,1.96805,-2.20483,0.809182,4.41854,-1.98581,3.41319,-3.40188,-2.48183,-1.1662,-6.22598,-1.40294,-2.88591,9.1928,7.38656,15.4554,-15.7986,9.30937,-21.688,-4.22516,5.32148,-10.0883,2.12156e-14,5.51627e-15,5.72371,34.5638,-73.9705,90.558,-21.071,-13.9623,13.0143,7.12502,12.1654,-16.6119,2.12156e-14,5.51627e-15,22.5461,11.2261,18.3296,74.8595,-0.789328,-49.715,14.4636,7.12502,-22.3155,43.195,-14.8468,0.475259,23.4382,35.4388,-23.2418,1.63482,29.7848,-12.2985,2.18656,-21.3048,37.977,-21.632,0.340673,-24.6753
1.92479,17.4378,-23.6434,1.91607,-2.14193,0.350746,4.78261,-1.85164,3.57233,-3.42936,-2.26551,-0.957479,-6.44525,-1.30122,-2.76841,9.08196,7.2409,15.3773,-15.8953,9.08457,-21.5652,-4.29119,5.20165,-10.036,3.42997e-14,6.31141e-15,5.48812,34.0433,-73.993,90.7245,-20.9042,-13.3007,12.6602,7.12502,12.8033,-16.9272,3.42997e-14,6.31141e-15,22.6921,11.1132,18.1842,74.7696,-0.937518,-49.4618,14.8338,7.12502,-22.0725,43.5941,-14.4616,0.389905,24.0407,34.894,-22.8681,1.59916,29.546,-13.1369,2.37234,-20.7186,39.5948,-21.5805,0.638386,-25.9673
1.9036,17.4472,-23.6336,2.00251,-2.12811,-0.298433,5.07297,-1.69418,3.85599,-3.54202,-1.99733,-0.582082,-6.70813,-1.17775,-2.55437,8.52552,7.03513,15.4806,-15.3244,8.77854,-21.8329,-4.06336,5.03652,-10.0813,1.91668e-14,-2.09345e-15,5.25989,33.6328,-73.8532,90.7621,-20.9007,-12.8771,13.3177,7.12502,13.2116,-16.2436,1.91668e-14,-2.09345e-15,22.6791,10.9376,18.2123,74.751,-0.9708,-49.1141,15.1814,7.12502,-21.7386,43.9807,-14.235,0.239101,24.8317,34.3609,-22.5781,1.59152,29.0566,-14.1128,2.60999,-19.9347,41.0992,-21.4747,0.844722,-25.7842
1.88893,17.4588,-23.6101,2.08802,-2.10832,-0.397854,5.00393,-1.59541,3.76015,-3.5657,-1.86643,-0.440279,-6.67412,-1.10487,-2.36812,7.52714,6.82235,16.3524,-14.0139,8.53399,-22.7935,-3.44977,4.8783,-10.4359,-1.05527e-14,-3.3048e-15,5.2143,33.492,-73.6651,90.715,-21.3172,-12.8262,14.2608,7.12502,13.2607,-15.2973,-1.05527e-14,-3.3048e-15,22.4909,10.9254,18.0564,74.8966,-0.723099,-48.8442,15.6098,7.12502,-21.4793,44.439,-13.9878,-0.306421,24.9515,33.8095,-22.4156,1.99895,28.65,-14.9661,2.84184,-19.7992,42.4213,-21.5628,0.932997,-24.4848
1.87491,17.4743,-23.5839,2.15382,-2.05999,-0.525115,4.84258,-1.55539,3.79839,-3.55499,-1.81104,-0.347806,-6.56369,-1.07501,-2.30297,9.16242,6.89129,15.2783,-15.7413,8.58654,-21.7587,-4.35313,4.9794,-10.091,-1.59338e-14,1.05853e-14,5.13289,33.4324,-73.6494,90.7726,-21.5261,-12.9994,14.6531,7.12502,13.0938,-14.9159,-1.59338e-14,1.05853e-14,22.2113,10.9463,17.7004,75.0321,-0.390753,-48.7415,15.5964,7.12502,-21.3808,44.4368,-13.6984,-0.855768,25.1017,33.2485,-22.1241,2.46497,28.8246,-15.6538,2.97212,-19.6673,43.5163,-21.9003,1.77075,-26.4566
1.86133,17.4908,-23.5625,2.15486,-2.02335,-0.926562,4.94441,-1.5177,4.13558,-3.6142,-1.71901,-0.188713,-6.68614,-1.04383,-2.33226,9.13027,6.72782,15.4411,-15.4978,8.37824,-22.0073,-4.29432,4.88277,-10.1924,2.37237e-14,-1.3418e-15,4.85037,33.3087,-73.8266,90.7735,-21.3145,-13.0887,15.2293,7.12502,13.0077,-14.3452,2.37237e-14,-1.3418e-15,21.9687,10.8104,17.3963,75.0403,-0.186746,-48.8347,15.2989,7.12502,-21.4703,44.1291,-13.3592,-1.27765,25.5601,32.7324,-21.8161,2.7724,29.0423,-16.2083,3.08556,-19.237,44.3601,-22.1497,2.69941,-28.1136
1.84818,17.5021,-23.5393,2.14051,-1.99885,-1.0725,5.02356,-1.42217,4.17034,-3.59637,-1.57958,-0.102519,-6.70088,-0.974337,-2.27551,8.82591,6.62393,15.5548,-15.2818,8.2251,-22.1273,-4.19471,4.79446,-10.2246,2.4025e-14,-1.83876e-15,4.76274,32.9296,-73.8688,90.6527,-21.1691,-12.7228,16.234,7.12502,13.3604,-13.3176,2.4025e-14,-1.83876e-15,21.9581,10.8147,17.2823,74.9915,-0.127743,-48.8724,15.0352,7.12502,-21.5065,43.8612,-12.9883,-1.64917,25.723,32.2362,-21.5468,3.33199,29.9926,-16.702,3.27962,-19.0713,44.9863,-22.4857,2.84484,-26.8034
1.82952,17.5147,-23.5121,2.23544,-1.95962,-1.19668,4.84033,-1.31023,4.05188,-3.54952,-1.44112,0.0213243,-6.52744,-0.893748,-2.09917,8.6786,6.55052,15.7183,-15.254,8.11373,-22.2966,-4.16426,4.73604,-10.3041,1.49461e-14,-1.88845e-15,4.65376,32.5594,-73.8543,90.7539,-21.1333,-12.4836,16.3296,7.12502,13.5909,-13.2067,1.49461e-14,-1.88845e-15,22.0503,10.9341,17.1892,74.8774,-0.114715,-48.7835,15.0478,7.12502,-21.4211,43.8836,-12.7355,-1.91881,25.8957,31.8192,-21.3795,3.8688,31.0176,-17.2424,3.51072,-18.9034,45.3999,-22.9312,2.41934,-24.9388
1.81187,17.5252,-23.4889,2.33939,-1.95088,-1.36253,4.66236,-1.21321,4.01385,-3.57686,-1.31483,0.142026,-6.44066,-0.82569,-1.96819,8.03694,6.36441,16.1551,-14.4466,7.90149,-22.6013,-3.81999,4.59255,-10.4061,-3.926e-15,-7.7526e-15,4.31963,32.4096,-73.9403,91.0169,-21.1092,-12.9504,16.2085,7.12502,13.141,-13.3574,-3.926e-15,-7.7526e-15,22.0727,10.9832,17.0587,74.7615,-0.0785203,-48.5935,14.9991,7.12502,-21.2386,43.8556,-12.5955,-2.09756,26.1186,31.5461,-21.3874,3.98004,30.8946,-17.7697,3.66343,-18.7266,45.6006,-23.0145,2.20186,-23.9222
1.80252,17.5258,-23.47,2.3973,-1.8515,-1.25834,4.50773,-1.16488,3.96571,-3.589,-1.26533,0.0623507,-6.36166,-0.80007,-2.03231,8.35738,6.23537,15.9997,-14.454,7.75704,-22.4363,-3.92745,4.53382,-10.3427,-5.94801e-15,-2.98177e-15,4.08081,32.172,-74.176,91.0932,-21.1011,-13.3349,16.9105,7.12502,12.7704,-12.679,-5.94801e-15,-2.98177e-15,22.0357,10.9909,16.7629,74.7277,0.0658018,-48.6408,14.9783,7.12502,-21.284,43.8296,-12.468,-2.2829,26.0088,31.3218,-21.3629,4.16257,31.3624,-18.1904,3.57914,-18.9036,45.6128,-23.1102,2.2262,-23.9763
1.79559,17.5207,-23.4525,2.39065,-1.85815,-1.16615,4.19754,-1.1333,4.14997,-3.37653,-1.24342,-0.199672,-5.96852,-0.793424,-2.41929,7.79715,6.02419,16.6547,-13.8704,7.51184,-22.8233,-3.65771,4.37318,-10.536,-2.32361e-14,6.21202e-15,4.29607,31.7068,-74.5825,90.9865,-21.0677,-13.1448,17.4523,7.12502,12.9536,-12.1256,-2.32361e-14,6.21202e-15,22.1038,11.2528,16.1031,74.7218,0.35887,-48.8233,15.3145,7.12502,-21.4593,44.146,-12.273,-2.43687,25.9029,31.0809,-21.3112,4.50874,32.0214,-18.4476,3.48736,-19.0743,45.4662,-23.683,2.22132,-24.5067
1.78605,17.5245,-23.4274,2.36268,-1.96716,-1.32789,4.66821,-0.972369,3.89767,-3.68434,-1.00014,0.114533,-6.53471,-0.669134,-1.96361,9.26097,6.0153,15.6659,-15.0473,7.49473,-21.9744,-4.35899,4.43693,-10.2129,2.88859e-15,-5.96354e-15,3.64677,31.6022,-74.5209,91.0372,-21.1009,-13.0887,17.6717,7.12502,13.0077,-11.9028,2.88859e-15,-5.96354e-15,21.7465,10.8559,16.2254,74.8335,0.521956,-48.6672,15.2302,7.12502,-21.3093,44.0786,-12.0414,-2.67001,26.076,30.8623,-21.2889,4.69268,31.7307,-18.6521,3.52245,-18.9417,45.1945,-24.3073,2.1004,-24.4746
1.78001,17.5336,-23.3879,2.42779,-1.87177,-1.61163,4.5492,-0.908362,4.08743,-3.6933,-0.896672,0.264558,-6.47043,-0.621918,-1.9254,8.85914,5.98054,15.6445,-14.636,7.44618,-21.9451,-4.1798,4.39097,-10.1511,-1.14612e-14,9.34288e-15,3.53869,31.2774,-74.5466,90.9751,-21.0934,-12.9249,17.8588,7.12502,13.1655,-11.7056,-1.14612e-14,9.34288e-15,21.6353,10.8289,16.0661,74.9262,0.702529,-48.4748,14.9729,7.12502,-21.1245,43.8421,-11.8097,-3.15454,26.3494,30.6078,-21.2375,5.00549,31.9429,-18.8859,3.32485,-18.7009,44.7403,-24.7096,1.96965,-25.4233
1.77087,17.5319,-23.3817,2.3531,-1.84781,-1.76821,4.76473,-0.890642,4.19261,-3.58368,-0.854027,0.31272,-6.47703,-0.602784,-1.9368,8.26933,5.9836,15.6821,-14.3111,7.42212,-21.9405,-3.98316,4.34716,-10.1037,2.11457e-14,2.78299e-15,3.76313,30.8282,-74.6746,90.7482,-20.7987,-12.449,18.307,7.12502,13.6243,-11.2271,2.11457e-14,2.78299e-15,21.5335,11.0278,15.625,74.9208,0.944988,-48.378,14.8106,7.12502,-21.0316,43.6901,-11.5916,-2.79961,26.5916,30.3568,-21.1616,4.64483,31.9604,-19.1227,2.86691,-18.5694,44.1663,-24.7885,1.68886,-26.4124
1.76754,17.5331,-23.3484,2.20062,-1.63475,-1.56635,4.68155,-0.915513,4.00966,-3.42855,-0.911899,0.262259,-6.26495,-0.618414,-1.88362,7.48009,5.88983,16.093,-13.5767,7.28498,-22.4419,-3.61191,4.24716,-10.271,2.73329e-16,5.86415e-15,3.82764,30.2483,-74.8895,90.4651,-19.9329,-11.9635,19.3811,7.12502,14.0922,-10.1211,2.73329e-16,5.86415e-15,21.4232,11.1317,15.1965,74.8562,1.01785,-48.5094,15.2383,7.12502,-21.1578,44.1037,-11.1981,-2.85435,26.3648,30.1537,-21.3503,4.65996,32.2203,-19.0897,2.22823,-18.8642,43.4309,-24.993,1.23905,-27.3242
1.76432,17.5342,-23.3098,2.1018,-1.38044,-1.32001,4.58555,-0.91693,3.72731,-3.40815,-0.94157,0.22709,-6.18405,-0.62008,-1.76055,7.20367,5.77116,16.3467,-13.0934,7.1491,-22.7357,-3.42545,4.16747,-10.3826,1.85118e-14,-2.48481e-15,3.46192,30.4303,-75.1695,90.9689,-21.4578,-12.7897,18.3306,7.12502,13.2959,-11.2252,1.85118e-14,-2.48481e-15,21.3305,10.9915,14.7758,74.8566,1.16901,-48.9029,16.3458,7.12502,-21.5358,45.1685,-10.8872,-3.12635,26.0793,30.0652,-21.5897,4.82194,32.7529,-19.0846,1.60781,-19.2105,42.6122,-25.2358,0.864127,-29.2177
