JuanDHNZ/ProyectoFinalCD/preprocessing/sports_trials_csv/55_09.csv
root1,root2,root3,root4,root5,root6,lowerback1,lowerback2,lowerback3,upperback1,upperback2,upperback3,thorax1,thorax2,thorax3,lowerneck1,lowerneck2,lowerneck3,upperneck1,upperneck2,upperneck3,head1,head2,head3,rclavicle1,rclavicle2,rhumerus1,rhumerus2,rhumerus3,rradius1,rwrist1,rhand1,rhand2,rfingers1,rthumb1,rthumb2,lclavicle1,lclavicle2,lhumerus1,lhumerus2,lhumerus3,lradius1,lwrist1,lhand1,lhand2,lfingers1,lthumb1,lthumb2,rfemur1,rfemur2,rfemur3,rtibia1,rfoot1,rfoot2,rtoes1,lfemur1,lfemur2,lfemur3,ltibia1,lfoot1,lfoot2,ltoes1
11.5743,13.9971,-18.8171,15.3694,21.7249,-2.49313,27.8822,1.21859,1.38706,8.92773,1.95118,-1.48406,-5.31001,1.03431,-3.04863,6.38464,7.8203,15.9964,-23.1373,8.80782,-24.0191,-5.80001,5.38462,-11.426,5.36719e-14,-3.99557e-14,-31.0198,1.31802,-69.3877,112.367,-53.3258,-26.2429,14.8626,7.12502,0.311191,-15.1169,5.36719e-14,-3.99557e-14,-48.3409,5.97295,61.668,92.5216,25.3147,-6.17241,19.7794,7.12502,19.6666,48.8046,-40.9373,-24.1687,1.68776,74.9301,-36.8938,-14.7769,-32.6444,-68.0824,12.9574,5.37534,61.0363,-11.7937,-5.61355,-50.2693
11.6143,13.9796,-18.7977,15.8156,21.6657,-2.61379,27.909,1.28685,1.23019,9.20944,1.99345,-1.59776,-5.00667,1.06488,-3.09015,6.25891,7.77354,15.9011,-23.8682,8.65065,-23.9967,-6.0436,5.32245,-11.4689,-7.2954e-14,4.4329e-14,-32.8969,1.97164,-71.3215,110.55,-53.2851,-27.7603,14.5928,7.12502,-1.1544,-15.3838,-7.2954e-14,4.4329e-14,-48.6166,5.71766,63.1757,89.7279,24.8796,-3.18101,22.931,7.12502,22.5402,51.6353,-41.355,-24.552,1.79085,74.9278,-37.0905,-14.0914,-32.1619,-68.8066,13.3564,5.24596,61.749,-12.3627,-4.4182,-49.4108
11.6581,13.9636,-18.769,16.2914,21.8151,-2.59334,27.7914,1.35513,1.0255,9.50075,2.02845,-1.68792,-4.62761,1.0929,-3.06998,6.37624,7.66966,15.7277,-24.6141,8.4621,-23.7989,-6.36588,5.24319,-11.4562,8.34896e-15,-2.18663e-15,-34.9665,2.40956,-73.1355,108.713,-53.3124,-28.7628,14.3988,7.12502,-2.12258,-15.5704,8.34896e-15,-2.18663e-15,-48.6666,5.29493,64.6737,86.0971,23.8618,-0.724557,24.3856,7.12502,24.8962,52.7842,-41.4922,-25.0134,1.72085,74.8418,-37.579,-12.9521,-30.7881,-69.5661,13.5498,5.00988,62.4763,-12.7824,-3.29169,-48.1748
11.7075,13.9379,-18.7384,16.7554,21.8214,-2.73011,27.8512,0.942661,0.51801,9.92579,1.39494,-1.64864,-4.23289,0.790989,-2.53469,5.21112,8.35603,13.9078,-25.0838,9.13513,-23.1056,-6.3163,5.64092,-10.8147,-4.25399e-14,-1.33186e-14,-35.6762,4.63273,-75.0652,106.317,-53.9453,-30.1019,15.2243,7.12502,-3.41584,-14.7281,-4.25399e-14,-1.33186e-14,-49.0467,6.95282,65.7605,82.239,22.6745,1.12408,25.7205,7.12502,26.6666,53.8621,-41.8159,-25.2383,1.82892,74.7476,-37.7527,-12.4796,-30.4757,-70.315,14.0844,4.75966,63.1898,-13.2272,-1.92896,-48.351
11.7607,13.9191,-18.7073,16.9655,21.8624,-3.12838,27.9608,1.35017,0.981288,9.85359,2.00693,-1.85849,-4.30902,1.09545,-3.22264,6.28688,7.68401,15.0812,-25.4444,8.39045,-23.3329,-6.70151,5.23316,-11.2499,-2.5842e-14,7.35503e-15,-38.5085,3.59537,-76.6356,104.439,-54.2005,-31.2627,13.1296,7.12502,-4.53677,-16.8018,-2.5842e-14,7.35503e-15,-48.9886,4.9784,66.7488,78.0397,21.4343,3.65539,25.6613,7.12502,29.0866,53.4102,-41.9279,-25.342,2.18809,74.5586,-37.7396,-12.4989,-30.8954,-70.8672,14.6957,4.73216,63.861,-13.5885,-0.513148,-49.5178
11.822,13.9164,-18.6714,17.1278,22.1422,-3.40695,28.1993,1.32036,1.03216,9.99542,1.98563,-1.89645,-4.26013,1.09076,-3.29272,6.23176,7.6574,15.2093,-25.6164,8.35423,-23.3274,-6.74676,5.20594,-11.286,1.90833e-14,-4.92986e-14,-40.1965,4.03443,-78.0504,102.253,-55.0688,-32.6256,11.7198,7.12502,-5.85276,-18.1794,1.90833e-14,-4.92986e-14,-49.1056,4.52987,67.5488,73.877,19.8658,5.88291,25.2912,7.12502,31.2117,52.6521,-41.6369,-25.6443,2.3985,74.2067,-37.7065,-12.6563,-31.1715,-71.4084,14.9657,4.66105,64.4935,-13.6689,0.451128,-49.3479
11.8892,13.9205,-18.6298,17.3593,22.3501,-3.71867,28.2287,1.16182,0.982625,10.1585,1.77447,-1.97199,-4.10344,0.994943,-3.28014,6.29762,7.78384,15.1237,-26.0654,8.50631,-23.2601,-6.8794,5.29273,-11.2938,-1.19271e-14,4.73108e-14,-41.5321,5.04228,-79.42,99.9307,-56.1381,-33.7423,10.6973,7.12502,-6.93079,-19.1693,-1.19271e-14,4.73108e-14,-49.3882,4.76261,68.0164,70.0065,18.5745,7.69076,25.6651,7.12502,32.933,52.6795,-41.401,-25.8174,2.66068,73.7164,-37.5909,-12.9729,-31.4921,-71.9824,15.3251,4.56282,65.0952,-13.924,0.588234,-48.1749
11.956,13.9251,-18.5799,17.4445,22.4305,-4.14346,28.4095,1.1037,0.677739,10.3164,1.63153,-1.91515,-4.03162,0.922438,-3.00081,5.96984,8.01318,14.9701,-26.2166,8.74833,-23.3245,-6.81619,5.42757,-11.2727,2.78299e-15,2.62396e-14,-42.6281,6.20512,-80.5067,97.4038,-57.041,-34.0949,11.5624,7.12502,-7.27113,-18.2927,2.78299e-15,2.62396e-14,-49.8003,5.35855,68.2802,66.3447,17.7605,9.88721,26.5246,7.12502,35.0194,53.0761,-41.0679,-25.7239,2.99707,73.1277,-37.3887,-13.4953,-32.1329,-72.3725,15.8973,4.49684,65.6756,-14.3624,0.274772,-47.6128
12.0265,13.9342,-18.521,17.4997,22.415,-4.1885,28.5707,1.17581,0.242604,10.5594,1.60564,-2.11384,-3.84108,0.9131,-2.96133,5.41139,8.0572,14.7278,-26.1861,8.8299,-22.7437,-6.74774,5.41225,-10.9669,-1.70955e-14,-4.92986e-14,-43.7354,6.73654,-81.6262,94.6577,-57.3453,-34.3343,13.1809,7.12502,-7.50223,-16.6661,-1.70955e-14,-4.92986e-14,-50.0042,5.68129,68.0846,62.933,16.8962,12.166,28.2226,7.12502,37.1777,54.2409,-40.462,-25.611,2.82083,72.4826,-37.0749,-14.0832,-32.9906,-72.5437,16.2768,4.126,66.2468,-14.7623,-0.0582078,-46.6065
12.1071,13.9468,-18.4646,17.6452,22.4627,-4.25419,28.4991,1.23717,0.0269166,10.799,1.62089,-2.39541,-3.53395,0.930746,-3.14436,5.17403,8.01577,14.6208,-26.3048,8.83136,-22.1909,-6.79464,5.36111,-10.7414,3.18055e-15,9.93923e-15,-44.8989,7.24815,-82.6172,91.7232,-57.0889,-34.3573,13.5055,7.12502,-7.52448,-16.3407,3.18055e-15,9.93923e-15,-50.0399,5.99207,67.4906,59.5356,15.5181,14.8513,28.9343,7.12502,39.7116,54.2467,-39.8721,-25.491,2.64612,71.789,-37.0394,-14.0728,-32.7683,-72.834,16.5777,3.73797,66.7887,-15.0801,0.0324897,-46.478
12.1972,13.9533,-18.414,17.7603,22.744,-4.71783,28.3906,1.15471,0.343847,10.801,1.58576,-2.62833,-3.46566,0.927607,-3.5696,5.59925,7.83301,14.8872,-26.5503,8.71729,-21.7989,-6.99492,5.25305,-10.7067,2.54444e-14,-6.59965e-14,-46.3047,8.09413,-83.5906,88.6735,-56.3718,-34.7086,12.5408,7.12502,-7.86349,-17.293,2.54444e-14,-6.59965e-14,-50.3507,6.09459,66.5258,56.1824,14.2319,17.8765,29.1276,7.12502,42.552,53.53,-39.3133,-25.4001,2.92386,71.04,-37.1135,-13.92,-32.0738,-73.338,16.8971,3.6926,67.3238,-15.244,0.509444,-47.6853
12.2924,13.9634,-18.3556,17.8862,23.0036,-5.20008,28.1489,1.0699,0.745868,10.6882,1.56014,-2.92636,-3.45834,0.929237,-4.11732,6.70586,7.51198,15.3206,-27.0926,8.50243,-21.4008,-7.43449,5.09491,-10.7837,2.46493e-14,-1.66979e-14,-47.7013,8.55702,-84.3386,85.5623,-54.3166,-33.5882,10.7895,7.12502,-6.78208,-19.0819,2.46493e-14,-1.66979e-14,-50.8491,6.47489,65.05,53.0496,12.9325,20.6516,29.9391,7.12502,45.1416,53.3827,-38.7446,-25.293,3.24756,70.2173,-36.9595,-14.1092,-31.6924,-73.7824,17.1469,3.8336,67.8824,-15.5061,-0.102448,-46.0652
12.393,13.9775,-18.2813,18.2084,22.9991,-5.23079,27.6352,1.15469,0.46968,10.6857,1.58365,-3.24728,-3.2158,0.945575,-4.29995,7.53386,7.28077,15.4381,-27.6111,8.37357,-20.8893,-7.82737,4.98407,-10.7378,2.06736e-14,-1.66979e-14,-48.9429,9.18963,-84.9309,82.1153,-52.2265,-31.1249,14.6906,7.12502,-4.40375,-15.2436,2.06736e-14,-1.66979e-14,-51.4191,7.49264,63.2312,50.3964,11.3861,22.7458,31.1739,7.12502,47.0838,53.8031,-38.1628,-25.1148,3.03463,69.3268,-36.8384,-13.9008,-30.4381,-74.0639,17.4154,3.44414,68.4239,-15.8187,-0.357563,-45.5749
12.4969,13.9901,-18.2013,18.5322,22.9755,-5.10685,27.2356,1.28272,0.0265324,10.7038,1.62393,-3.61533,-3.00396,0.967699,-4.44615,7.63376,7.16623,15.5437,-27.6224,8.37063,-20.3078,-7.89363,4.90763,-10.5503,4.85035e-14,-3.81667e-14,-50.1828,9.78872,-85.5316,78.9586,-50.8887,-29.5152,18.8081,7.12502,-2.84928,-11.1526,4.85035e-14,-3.81667e-14,-52.0276,8.22834,61.2069,48.2831,9.96831,24.0809,32.4765,7.12502,48.316,54.5405,-37.4004,-24.9018,2.63185,68.3134,-36.5739,-14.1242,-29.6254,-74.3,17.7031,2.74864,68.9245,-15.887,0.236707,-47.4023
12.5993,14.0125,-18.1286,18.5401,23.1464,-5.62098,27.1024,1.31188,0.121537,10.6895,1.6754,-3.79341,-2.94292,0.999966,-4.70753,7.41098,7.12694,15.4712,-27.3772,8.41362,-19.7313,-7.8121,4.86587,-10.283,7.71285e-14,-6.99722e-14,-51.1797,10.3068,-85.8559,75.9337,-49.4884,-28.523,19.7723,7.12502,-1.89103,-10.199,7.71285e-14,-6.99722e-14,-52.5555,8.97989,59.0321,46.282,8.67949,25.3727,33.1898,7.12502,49.5031,54.6695,-36.5543,-24.4667,3.0034,67.1156,-36.049,-15.4416,-30.7546,-74.5215,18.0723,2.80471,69.3822,-15.8959,-0.411466,-46.1342
12.7061,14.0458,-18.0577,18.4002,23.471,-6.2847,27.0144,1.31169,0.470777,10.7019,1.75674,-3.88782,-2.86492,1.05237,-5.03301,7.48188,6.99765,15.4392,-27.4078,8.31759,-19.3427,-7.8889,4.77977,-10.1448,6.12257e-14,-1.59028e-14,-52.0284,10.6083,-85.7667,72.7577,-47.5943,-26.4418,19.6069,7.12502,0.119048,-10.3728,6.12257e-14,-1.59028e-14,-52.9411,9.71583,56.7358,44.4553,7.63544,26.2914,34.0325,7.12502,50.3441,55.0727,-35.5414,-23.9041,3.50816,65.8109,-35.5894,-16.6117,-32.0054,-74.574,18.2323,3.10461,69.7337,-15.9761,-1.10989,-44.5035
12.8232,14.0772,-17.9787,18.4307,23.7832,-6.5151,26.7637,1.37274,0.607733,10.741,1.86443,-4.08917,-2.67875,1.11927,-5.35339,7.55539,6.80086,15.5363,-27.4118,8.14933,-18.9627,-7.96408,4.64633,-10.0294,8.66701e-14,-3.18055e-14,-52.9003,10.5811,-85.3774,69.5825,-45.5228,-23.2729,19.8946,7.12502,3.17953,-10.0614,8.66701e-14,-3.18055e-14,-53.1346,10.4187,54.2444,42.8974,6.64797,26.4165,35.2515,7.12502,50.4584,56.2301,-34.3471,-23.5229,3.50304,64.4665,-35.3451,-17.1177,-32.1155,-74.5773,18.1617,2.95479,70.0208,-15.9886,-1.22891,-44.3986
12.9464,14.1072,-17.8934,18.6895,23.9936,-6.61454,26.2084,1.47868,0.59478,10.7344,1.99351,-4.33894,-2.39885,1.19449,-5.63196,7.65497,6.65773,15.5883,-27.3848,8.06871,-18.5312,-8.02232,4.55541,-9.88575,-7.07673e-14,1.19271e-14,-53.7672,10.5689,-84.8709,66.5425,-43.5501,-19.5884,20.0821,7.12502,6.73713,-9.79072,-7.07673e-14,1.19271e-14,-53.2628,11.1091,51.5208,41.4942,5.92098,26.4573,36.257,7.12502,50.4957,57.2156,-33.2753,-23.2695,3.36906,63.0551,-35.3588,-16.6572,-30.5363,-74.7467,18.2235,2.58218,70.3043,-16.0924,-1.47582,-44.2843
13.0679,14.143,-17.8067,18.8418,24.2326,-6.86681,25.7822,1.50629,0.600314,10.5491,2.01692,-4.57944,-2.3877,1.2083,-5.89255,8.24314,6.55313,15.7594,-27.4911,8.10081,-18.209,-8.18157,4.52721,-9.85057,-5.40694e-14,8.0309e-14,-54.7687,10.8206,-84.4601,63.5045,-41.3501,-15.6328,20.0796,7.12502,10.5543,-9.63536,-5.40694e-14,8.0309e-14,-53.7455,11.4825,48.5204,40.3357,6.06877,26.3342,37.1121,7.12502,50.3832,58.1313,-32.1604,-22.8062,3.3724,61.5492,-35.4763,-15.9454,-28.2714,-74.8324,18.3653,2.28543,70.5626,-16.5131,-1.18119,-46.0874
13.1875,14.1881,-17.7161,18.8432,24.4087,-7.0525,25.5869,1.5804,0.468735,10.2952,2.06024,-4.81244,-2.56503,1.22265,-6.08438,8.81413,6.38841,15.9946,-27.3299,8.07104,-17.8673,-8.2581,4.45956,-9.79002,9.70069e-14,-6.99722e-14,-55.6214,11.0046,-83.8545,60.1325,-38.8214,-11.2236,21.0282,7.12502,14.8051,-8.42295,9.70069e-14,-6.99722e-14,-54.2375,11.822,45.2883,39.3271,6.68428,26.0948,37.8334,7.12502,50.1643,58.9694,-30.8345,-22.0958,3.30804,59.8986,-35.1482,-16.4595,-27.6298,-74.6319,18.4952,1.91805,70.8049,-17.0511,-0.388889,-48.8118
13.3109,14.2392,-17.6184,18.91,24.4786,-7.02911,25.0869,1.8364,0.200965,10.3196,2.33474,-4.92466,-2.27301,1.35995,-6.09792,8.81393,6.19714,15.681,-27.052,7.85364,-17.4001,-8.25715,4.33308,-9.53579,6.04305e-14,-5.24792e-14,-55.9387,10.8649,-82.6213,56.6726,-36.376,-6.84996,22.3406,7.12502,19.0151,-6.74995,6.04305e-14,-5.24792e-14,-53.9538,12.6143,42.2323,38.2013,7.02696,26.3193,38.248,7.12502,50.3695,59.2745,-29.4215,-21.3556,3.04567,58.0888,-34.3312,-17.3629,-27.7087,-74.3134,18.5807,1.42313,71.0506,-17.562,-0.567609,-48.7851
13.4389,14.2835,-17.5155,18.8587,24.7144,-7.23673,24.4039,2.08869,0.335322,10.4789,2.71546,-4.88828,-1.721,1.56504,-6.18671,8.8247,5.94226,15.1299,-27.005,7.47648,-17.0138,-8.36822,4.16045,-9.29027,-2.8625e-14,-2.38542e-14,-56.185,10.6267,-81.1727,53.3936,-33.7274,-3.33123,23.3181,7.12502,22.396,-5.40359,-2.8625e-14,-2.38542e-14,-53.175,13.6789,39.2522,36.9219,7.16618,26.5454,38.3511,7.12502,50.5761,59.266,-27.8485,-20.7671,3.05604,56.1774,-33.525,-18.0671,-27.691,-74.033,18.6275,1.21147,71.2966,-18.0081,-1.06522,-47.8694
13.5693,14.3377,-17.4112,18.6888,25.0663,-7.54011,24.0766,2.64199,1.11826,10.4105,3.58182,-5.15836,-1.46319,2.03273,-7.13074,8.71451,5.20363,16.229,-26.556,6.67401,-16.8338,-8.31686,3.64288,-9.34844,-1.51076e-14,-1.59028e-15,-57.1409,8.77007,-80.0186,50.2376,-30.777,-0.106633,24.2484,7.12502,25.4882,-4.06702,-1.51076e-14,-1.59028e-15,-50.9713,13.3008,36.4123,35.6629,7.85016,26.3478,38.4697,7.12502,50.3956,59.4822,-26.0716,-20.2213,3.21151,54.2073,-32.7191,-18.8765,-27.7099,-73.6865,18.5845,1.14965,71.5087,-18.4933,-1.68604,-46.5181
13.6965,14.4112,-17.3092,18.6146,25.3247,-7.58756,23.7913,2.90682,1.17606,10.2275,3.92526,-5.28634,-1.46492,2.20446,-7.37398,8.61746,4.88249,16.3455,-25.8309,6.36221,-16.309,-8.14464,3.42603,-9.09753,1.27222e-14,2.78299e-14,-57.8832,8.6734,-78.8723,47.1576,-27.8989,3.06889,24.9752,7.12502,28.5264,-2.86904,1.27222e-14,2.78299e-14,-49.92,13.5364,33.4547,34.7617,9.07313,25.667,38.8778,7.12502,49.7729,60.219,-24.373,-19.4347,3.15645,52.2905,-31.9485,-19.317,-26.5604,-73.1946,18.4609,0.920205,71.6353,-18.9856,-3.17269,-42.7785
13.8229,14.4723,-17.208,18.4987,25.5804,-7.6555,23.2814,3.054,1.0303,10.1417,4.09446,-5.2189,-1.30586,2.28313,-7.21699,8.64881,4.69484,16.212,-25.1443,6.14988,-16.0364,-7.98213,3.31173,-8.91154,-3.18055e-15,1.90833e-14,-58.3201,9.47062,-77.6378,44.1075,-24.6576,5.77878,25.4755,7.12502,31.1125,-1.90448,-3.18055e-15,1.90833e-14,-49.1942,14.2697,30.6428,33.9211,10.3964,24.8751,39.1035,7.12502,49.0465,60.8128,-22.766,-18.5516,3.11317,50.4944,-31.3081,-19.3509,-23.7112,-72.6632,18.4129,0.607017,71.6802,-19.5616,-3.58938,-41.942
13.9535,14.5228,-17.1054,18.217,25.9114,-7.792,22.7515,3.01928,0.892854,10.1943,4.04908,-4.969,-1.02894,2.25602,-6.80681,8.73261,4.74172,15.4937,-24.6657,6.16897,-15.7501,-7.8762,3.36167,-8.64885,-4.37326e-14,8.26944e-14,-58.3524,11.0311,-76.3042,41.1327,-20.9952,8.33961,25.8867,7.12502,33.5499,-0.995827,-4.37326e-14,8.26944e-14,-48.797,15.6068,27.7917,33.094,11.4116,24.3115,39.2494,7.12502,48.5283,61.2119,-21.0449,-17.7193,3.10972,48.8223,-30.1297,-19.8047,-21.7306,-72.027,18.3048,0.320865,71.6781,-20.1993,-3.1695,-44.0661
14.0855,14.5937,-17.0042,17.9655,26.2798,-7.89209,22.3322,2.54639,0.368575,10.2158,3.3692,-4.53126,-0.953623,1.88776,-5.84428,8.57371,5.38983,13.5359,-24.1586,6.84731,-15.1754,-7.66848,3.80781,-8.08122,1.13705e-13,-2.14687e-14,-57.8323,14.3395,-75.0683,38.337,-16.7045,10.0318,26.5717,7.12502,35.1565,0.0523286,1.13705e-13,-2.14687e-14,-49.8499,17.6913,24.413,32.2927,12.2984,23.3216,39.3595,7.12502,47.6159,61.7496,-19.4396,-16.7132,3.20376,47.333,-28.6623,-20.8164,-20.3068,-71.3195,18.027,0.130326,71.6221,-20.6815,-3.80811,-43.2531
14.2186,14.6715,-16.9031,17.6379,26.6246,-8.12383,22.1578,2.50887,0.742176,9.90799,3.38059,-4.58868,-1.17621,1.89577,-6.12418,8.9036,5.29579,13.8259,-23.5481,6.85243,-15.0222,-7.5268,3.77503,-8.04838,-4.77083e-15,2.38542e-14,-58.4041,15.2853,-74.1879,35.6713,-11.1295,11.2821,27.5761,7.12502,36.3413,1.34419,-4.77083e-15,2.38542e-14,-48.6925,18.0112,21.4251,31.3052,13.3325,21.7006,38.9124,7.12502,46.1159,61.9585,-18.034,-15.601,3.49614,46.1157,-28.1298,-21.2355,-14.0557,-70.5135,17.762,0.120307,71.5363,-21.1869,-4.2674,-42.1424
14.3525,14.7368,-16.8025,17.3645,26.8254,-8.24809,21.8861,2.6087,1.06053,9.61296,3.55717,-4.70325,-1.31404,1.98606,-6.46426,9.2334,5.0746,14.2176,-22.987,6.72549,-14.7348,-7.42832,3.65638,-7.9862,3.33958e-14,-2.46493e-14,-58.876,15.9558,-73.0469,33.132,-4.97819,13.1998,28.6561,7.12502,38.1546,2.89913,3.33958e-14,-2.46493e-14,-46.9808,18.3007,18.706,30.4332,13.9098,19.9173,38.4077,7.12502,44.458,62.1176,-16.9625,-14.7207,3.62617,45.2619,-24.5365,-22.984,-14.1337,-69.6497,17.5913,-0.0823011,71.3963,-21.7827,-3.52019,-43.7318
14.4847,14.8059,-16.7031,17.4226,26.9078,-7.99615,21.3671,2.90755,1.33196,9.32989,3.97861,-5.04007,-1.26277,2.20773,-7.05386,9.33181,4.60911,15.0578,-22.3269,6.31234,-14.4466,-7.28805,3.36013,-7.97137,-3.65764e-14,5.80451e-14,-59.4395,15.9097,-71.8067,30.8065,1.62079,15.2059,29.9021,7.12502,40.0455,4.68976,-3.65764e-14,5.80451e-14,-44.2081,18.5961,16.413,29.6099,14.2266,18.0895,38.2787,7.12502,42.7513,62.6119,-16.3359,-13.941,3.43639,44.7779,-23.2439,-23.6431,-8.07016,-68.8742,17.3354,-0.680595,71.1659,-22.2221,-2.66243,-44.8784
14.6176,14.8848,-16.6057,17.3625,26.9885,-7.83885,20.9561,2.68126,1.154,9.23426,3.65758,-5.06406,-1.21519,2.04206,-6.88437,8.69425,4.88356,14.5814,-21.5859,6.59974,-14.1775,-6.91749,3.50829,-7.72464,-4.05521e-14,3.97569e-14,-58.761,18.0378,-70.4497,28.6303,7.84486,17.0587,31.2107,7.12502,41.7858,6.54928,-4.05521e-14,3.97569e-14,-43.43,19.4455,13.9926,29.2613,14.9092,15.3166,38.0933,7.12502,40.1496,63.274,-15.8662,-12.9749,3.41573,44.5947,-22.1109,-23.9087,0.146796,-67.9267,16.9709,-1.06928,70.8714,-22.6436,-2.47813,-44.256
14.7534,14.9692,-16.5111,16.9118,27.0521,-8.02939,20.8902,2.65542,1.56276,8.93288,3.68271,-5.1509,-1.47118,2.05321,-7.22905,8.9915,4.79812,15.0536,-21.1506,6.60217,-14.2118,-6.81372,3.4832,-7.80183,1.27222e-14,4.37326e-14,-58.632,19.1056,-68.878,26.6168,14.2692,18.9908,32.6855,7.12502,43.5938,8.65279,1.27222e-14,4.37326e-14,-41.7093,18.8934,12.3096,29.1233,15.9842,11.8781,37.9044,7.12502,36.9054,63.9933,-15.4337,-12.0104,3.78429,44.6495,-22.6526,-24.227,11.4836,-66.6348,16.6407,-1.01911,70.5249,-23.0515,-2.7172,-43.0668
14.8877,15.0601,-16.4144,16.5495,27.0265,-7.96041,20.8091,2.79664,1.75345,8.59681,3.881,-5.26726,-1.74446,2.14225,-7.51741,9.52216,4.46968,15.8442,-20.7941,6.33952,-14.3251,-6.80698,3.31509,-7.96797,6.75868e-14,4.37326e-14,-58.5541,19.6263,-66.895,24.7561,20.4209,20.9638,34.1319,7.12502,45.4318,10.8045,6.75868e-14,4.37326e-14,-39.4092,18.2973,10.8928,28.8561,16.883,8.52643,37.8539,7.12502,33.7274,64.6978,-15.1802,-11.5165,3.89226,44.9232,-14.9857,-27.0774,-2.83876,-65.2234,16.233,-1.1637,70.1116,-23.2399,-4.03011,-39.4346
15.0147,15.141,-16.3229,16.3858,27.0555,-7.68512,20.3099,3.14919,1.77953,8.58485,4.34869,-5.32011,-1.43029,2.38679,-7.64491,9.09473,3.9825,16.9678,-20.1673,5.7428,-14.6689,-6.58009,2.96867,-8.19745,-1.4074e-13,3.33958e-14,-58.1569,19.3818,-64.3359,23.0822,25.7457,22.7898,35.0211,7.12502,47.1245,12.4099,-1.4074e-13,3.33958e-14,-36.1565,19.0545,9.90077,28.2195,16.6226,5.00759,37.3893,7.12502,30.3772,64.9076,-15.1345,-11.4146,3.78215,45.4259,-13.012,-27.0689,-2.23735,-63.9895,15.7478,-1.5917,69.6195,-23.634,-4.17921,-38.5391
15.137,15.2098,-16.2392,16.1019,27.1989,-7.75251,19.8523,2.56239,1.53831,8.69016,3.57071,-4.92831,-1.2465,1.98925,-6.88248,8.35345,4.66216,15.5469,-19.7473,6.38696,-14.4907,-6.25696,3.36406,-7.85259,-6.2816e-14,-3.10104e-14,-55.707,22.0083,-61.2826,21.7604,29.9973,24.5995,35.4469,7.12502,48.7932,13.6128,-6.2816e-14,-3.10104e-14,-36.4548,20.8543,7.76655,27.9772,15.8327,1.35324,36.4938,7.12502,26.8859,64.6018,-15.2652,-11.3239,4.06375,46.122,-13.8226,-24.8214,7.64247,-62.8791,15.3895,-1.7994,69.0877,-24.0354,-4.0442,-38.7148
15.261,15.2869,-16.1499,15.8449,27.1301,-7.80295,19.3828,2.21266,1.42982,8.62649,3.1078,-4.70178,-1.1606,1.74874,-6.45404,8.36864,5.01442,15.077,-19.737,6.76787,-14.6749,-6.19918,3.60149,-7.84555,1.04163e-13,-1.19271e-13,-53.3568,23.3531,-57.6514,20.5724,34.3531,25.8944,35.46,7.12502,49.981,14.2273,1.04163e-13,-1.19271e-13,-35.975,21.3251,6.19014,28.0005,15.6878,-2.50303,35.8536,7.12502,23.1908,64.4774,-15.6817,-11.3272,4.36007,46.95,-12.8912,-23.8293,7.39729,-61.6438,15.1799,-1.99585,68.5342,-24.3398,-3.87693,-38.6138
15.3819,15.3635,-16.0619,15.597,26.9858,-7.65247,19.0961,1.90124,1.16239,8.45486,2.65888,-4.50152,-1.28152,1.50486,-5.98489,8.67436,5.30137,14.4395,-19.7143,7.09329,-14.7055,-6.21555,3.81465,-7.77038,-4.13472e-14,2.70347e-14,-50.8892,24.5016,-53.8017,19.5681,37.9684,26.9597,34.7339,7.12502,50.954,14.0269,-4.13472e-14,2.70347e-14,-35.3088,21.0437,4.87116,28.1926,15.6119,-5.83666,35.9205,7.12502,19.9894,64.9123,-16.089,-11.6949,4.5407,47.8344,-11.2113,-22.6305,-0.774565,-60.3198,14.818,-2.26036,67.9989,-24.4933,-3.57963,-38.2159
15.4957,15.4456,-15.9802,15.2939,26.9448,-7.45331,18.9136,2.1591,1.54846,8.24053,3.04588,-4.67098,-1.34045,1.70468,-6.46122,8.91532,4.83282,15.6215,-19.4445,6.61803,-15.0372,-6.19037,3.53119,-8.06501,6.36111e-15,2.70347e-14,-49.8134,23.0763,-50.0679,18.5505,41.665,27.497,33.8473,7.12502,51.4432,13.4166,6.36111e-15,2.70347e-14,-31.7941,20.5181,4.68145,28.3402,15.4083,-8.75711,36.3785,7.12502,17.1802,65.639,-16.3651,-11.7164,4.63499,48.8071,-13.0769,-20.0695,0.748829,-58.9463,14.2983,-2.47764,67.4083,-24.597,-3.24199,-37.7577
15.6206,15.5408,-15.8885,15.0373,26.4851,-7.14728,18.546,1.99641,1.12612,8.21492,2.77053,-4.51323,-1.24654,1.55335,-5.97418,8.89727,5.08962,15.079,-19.3978,6.85124,-15.2045,-6.14278,3.69822,-8.03197,6.36111e-15,4.77083e-15,-47.0465,24.1036,-46.4693,17.8359,43.3789,27.5824,32.5561,7.12502,51.5209,12.1701,6.36111e-15,4.77083e-15,-31.0452,19.8096,4.09597,29.2554,16.3439,-12.422,36.9181,7.12502,13.6503,66.4505,-17.1056,-11.7312,4.64379,49.8896,-13.8475,-18.6776,0.469094,-57.3023,14.099,-2.93825,66.729,-24.9954,-2.75182,-37.4814
15.7433,15.6259,-15.7987,14.6729,25.9773,-6.96751,18.1682,2.23867,1.66824,7.9599,3.15521,-4.87075,-1.22407,1.76026,-6.73063,9.79061,4.6021,16.2087,-19.3854,6.44214,-15.4598,-6.31522,3.45658,-8.34407,1.90833e-14,-4.13472e-14,-45.8899,22.666,-43.0088,17.3037,46.1557,27.3576,31.1205,7.12502,51.3164,10.6174,1.90833e-14,-4.13472e-14,-28.218,18.2448,3.9454,30.205,17.1692,-15.8478,37.3728,7.12502,10.347,67.0983,-17.9213,-11.8648,4.80124,51.0812,-14.6763,-17.3894,3.02794,-55.59,14.0406,-3.37958,65.9794,-25.3376,-2.35808,-37.4248
15.8402,15.7032,-15.726,14.3219,25.9597,-6.88254,18.0563,1.85896,1.44509,8.05713,2.63809,-4.62487,-1.15568,1.49508,-6.23189,8.71507,5.17678,15.78,-18.717,7.03601,-15.4979,-5.8251,3.76521,-8.20154,-6.12257e-14,4.53229e-14,-42.655,23.3388,-39.5718,17.3073,46.9243,26.9659,29.6599,7.12502,50.9596,8.956,-6.12257e-14,4.53229e-14,-27.385,19.348,2.8682,30.5473,15.9146,-18.0482,37.3094,7.12502,8.22386,67.1293,-18.7824,-12.1347,5.31501,52.3168,-15.1859,-16.2032,4.05151,-54.2002,13.7653,-3.62252,65.1399,-25.2941,-2.20286,-37.3192
15.9368,15.7971,-15.6474,14.0343,25.7696,-6.66876,17.8622,1.56085,1.23756,7.86661,2.21278,-4.49482,-1.32668,1.26587,-5.88995,9.15914,5.44514,15.5113,-18.5423,7.42426,-15.5233,-5.79304,3.98694,-8.18382,-2.38542e-14,1.59028e-14,-40.1312,25.0829,-37.0468,17.6128,46.3286,25.9149,27.9521,7.12502,49.9998,6.72926,-2.38542e-14,1.59028e-14,-25.951,19.7223,1.94864,30.6696,14.7124,-20.2422,37.3222,7.12502,6.10601,67.2142,-19.758,-12.1182,5.77984,53.4465,-15.3536,-15.4127,1.73799,-52.6739,13.4647,-3.88188,64.2281,-25.2523,-1.8958,-37.108
16.0452,15.8976,-15.5589,13.6139,25.2873,-6.4038,17.6438,1.46661,1.32435,7.69486,2.09333,-4.61279,-1.40147,1.20426,-6.03999,9.93549,5.45956,15.8682,-18.4857,7.56677,-15.7841,-5.85945,4.07247,-8.37222,-1.27222e-14,2.70347e-14,-38.0054,26.0249,-34.6926,17.9592,45.777,24.3502,26.3853,7.12502,48.5639,4.43992,-1.27222e-14,2.70347e-14,-24.6901,18.749,1.4555,32.024,15.0129,-22.5369,37.5388,7.12502,3.89028,67.483,-20.5811,-12.0005,6.11289,54.4141,-15.9176,-14.6366,0.347164,-50.7911,13.2165,-4.19027,63.2724,-25.2444,-1.47124,-36.7116
16.1566,15.9921,-15.4692,13.0661,24.8452,-6.28928,17.4267,1.19388,1.3276,7.72011,1.74325,-4.50268,-1.30668,1.02914,-5.84967,10.0817,5.79883,15.8051,-18.226,7.98999,-16.1731,-5.71034,4.32489,-8.49176,4.29375e-14,-6.99722e-14,-34.8568,26.9895,-31.8875,18.5047,45.0278,22.6614,25.4489,7.12502,47.0059,2.78528,4.29375e-14,-6.99722e-14,-24.0175,18.6825,0.901688,33.2732,14.8496,-23.9793,37.366,7.12502,2.49739,67.3312,-21.3614,-12.1488,6.62403,55.2139,-16.4303,-14.0518,-1.39238,-48.8567,13.1244,-4.4813,62.2841,-25.1908,-1.17926,-36.2778
16.2715,16.0905,-15.378,12.5305,24.35,-6.3095,17.0882,0.930706,1.40308,7.74088,1.41828,-4.28857,-1.15023,0.866264,-5.59111,10.0908,6.0943,15.7915,-17.6851,8.33092,-16.7299,-5.45135,4.54596,-8.64728,-1.59028e-15,1.27222e-14,-31.7941,28.6593,-29.3048,19.4853,43.4764,20.9881,24.7544,7.12502,45.4544,1.43608,-1.59028e-15,1.27222e-14,-23.2629,18.7325,0.550654,34.3101,14.5121,-25.0604,36.7055,7.12502,1.45319,66.6803,-22.2027,-12.3432,7.33305,55.8222,-17.0965,-13.2866,-2.80821,-46.9529,13.1108,-4.62272,61.3141,-25.2168,-0.97011,-35.4548
16.3838,16.1919,-15.29,12.0708,23.8054,-6.11414,16.8902,0.721172,1.38316,7.65409,1.14034,-4.14471,-1.17472,0.720309,-5.37121,10.1245,6.32656,15.7901,-16.8848,8.62617,-17.1842,-5.13246,4.7345,-8.75302,3.18055e-14,1.74931e-14,-28.9504,30.4797,-26.7878,20.7614,41.4,18.3319,23.8639,7.12502,42.9781,-0.389757,3.18055e-14,1.74931e-14,-22.3326,18.0998,0.405862,35.5313,14.8835,-25.9132,36.1583,7.12502,0.629619,66.1371,-22.9788,-12.4168,7.86948,56.2719,-18.0259,-12.2445,-2.56036,-45.0234,12.872,-4.8309,60.3888,-24.9964,-3.13958,-26.2676
16.4938,16.2793,-15.1988,11.6784,23.204,-5.66231,16.6808,0.492351,1.17497,7.59793,0.808661,-4.10562,-1.16488,0.547237,-5.14683,10.2224,6.66894,15.665,-16.2256,9.0826,-17.4826,-4.85624,4.99681,-8.79801,-5.64548e-14,2.06736e-14,-25.7408,31.616,-24.0383,22.1265,39.1649,15.3573,23.1033,7.12502,40.1879,-2.06579,-5.64548e-14,2.06736e-14,-21.5659,17.2507,0.189926,37.0576,15.5765,-26.1303,35.8657,7.12502,0.419886,65.845,-23.7334,-12.4359,8.13681,56.5362,-18.5494,-11.5434,-2.65193,-43.0967,12.5645,-5.33615,59.5183,-24.6838,-3.3119,-24.044
16.6073,16.3627,-15.1025,11.3993,22.4779,-5.20708,16.1997,0.241815,0.987616,7.61191,0.456265,-4.10744,-0.935461,0.369447,-4.96987,10.3067,7.08152,15.6293,-15.6435,9.61869,-17.9998,-4.56764,5.30958,-8.93255,4.21423e-14,-2.22639e-14,-22.2146,32.4003,-21.2449,23.6205,36.5977,13.9506,23.0036,7.12502,38.863,-2.55557,4.21423e-14,-2.22639e-14,-20.9894,16.517,-0.0590011,38.6422,16.4385,-25.9641,35.3939,7.12502,0.580433,65.3729,-24.633,-12.4078,8.39611,56.6151,-19.2628,-10.7941,-2.67827,-41.3341,12.3639,-5.92902,58.7414,-24.2759,-1.54864,-29.4272
16.7212,16.4617,-15.0081,11.0216,21.7573,-5.02776,15.8678,-0.0320724,1.04248,7.55876,0.105037,-3.992,-0.851789,0.191288,-4.81432,10.2976,7.53401,15.5137,-14.8895,10.198,-18.5557,-4.20497,5.64619,-9.0464,-4.77083e-14,-7.95139e-15,-18.7152,33.5436,-18.4619,25.3584,33.503,12.6097,23.0258,7.12502,37.5971,-2.88193,-4.77083e-14,-7.95139e-15,-20.5282,15.6914,-0.159348,40.2579,17.5304,-25.3958,34.7528,7.12502,1.12925,64.7296,-25.549,-12.1596,9.01005,56.5639,-20.221,-9.82662,-0.403194,-39.6711,12.1776,-6.18791,58.0786,-23.4956,-0.640863,-31.2471
16.8303,16.561,-14.9105,10.4728,21.0088,-4.99203,15.8063,-0.212571,1.20902,7.41786,-0.113669,-3.8013,-0.989917,0.07547,-4.67007,10.3203,7.90611,15.3584,-14.0016,10.7018,-18.9636,-3.8358,5.93284,-9.09662,-1.43125e-14,3.81667e-14,-15.6037,34.6128,-15.6857,27.3932,30.4923,10.0556,22.7568,7.12502,35.1791,-3.75724,-1.43125e-14,3.81667e-14,-19.8081,14.6866,-0.0449763,41.9945,18.5037,-24.2026,34.198,7.12502,2.28173,64.1656,-26.3781,-11.7308,9.84585,56.3801,-20.7513,-9.51719,-0.608065,-37.9846,12.0052,-6.24298,57.5716,-22.5499,0.71561,-35.0697
16.9363,16.6472,-14.8112,10.0991,20.0896,-4.66966,15.6419,-0.327405,1.11806,7.32201,-0.281548,-3.70502,-1.02063,-0.0164157,-4.48634,10.1788,8.31095,15.132,-13.0867,11.2353,-19.3355,-3.43357,6.22572,-9.10837,0,2.22639e-14,-12.4375,35.0171,-12.8797,29.5592,28.0411,7.30322,22.7613,7.12502,32.5643,-4.32987,0,2.22639e-14,-19.0714,13.6899,0.0996002,43.8941,19.4739,-22.7385,33.8792,7.12502,3.69567,63.8269,-27.3549,-11.2485,10.4162,56.0661,-21.1016,-9.52844,-5.32656,-36.4804,11.8225,-6.58729,57.2843,-21.3946,1.73162,-38.159
17.0386,16.7316,-14.7136,9.90442,19.0936,-4.24741,15.3342,-0.422758,0.855077,7.23144,-0.445491,-3.59028,-0.967694,-0.109251,-4.18522,10.0706,8.78198,14.6508,-12.3754,11.8253,-19.6118,-3.11177,6.55001,-9.0583,-2.62396e-14,4.77083e-15,-9.08682,35.3101,-10.012,31.7483,25.6524,4.61509,22.9186,7.12502,30.0028,-4.66818,-2.62396e-14,4.77083e-15,-18.6856,12.6551,0.330532,46.0479,20.5719,-21.1783,33.8131,7.12502,5.20218,63.7293,-28.4836,-10.5231,10.9002,55.632,-21.1385,-9.42254,-9.27033,-35.3009,11.6393,-7.01652,57.2174,-19.9202,2.51724,-40.8924
17.1364,16.8227,-14.6142,9.46282,18.1149,-4.03785,15.2068,-0.442284,0.745299,7.18795,-0.486429,-3.39099,-0.948746,-0.138174,-3.90403,10.0371,9.11189,14.3229,-11.7705,12.2496,-19.9168,-2.85348,6.78721,-9.05652,6.2816e-14,-3.49861e-14,-6.02419,35.4059,-7.29008,34.0074,23.2416,1.79963,22.4821,7.12502,27.3129,-5.55937,6.2816e-14,-3.49861e-14,-18.0115,11.583,0.670914,48.0394,21.7135,-19.5855,33.5262,7.12502,6.73996,63.399,-29.3082,-9.57467,11.574,55.1006,-21.101,-9.11761,-11.6034,-34.084,11.5444,-7.15447,57.324,-18.2646,2.54881,-42.2807
17.2352,16.9121,-14.5125,8.91222,17.1591,-3.8295,15.2029,-0.471561,0.710359,7.17999,-0.5301,-3.224,-0.957584,-0.165602,-3.7004,9.92474,9.40289,14.3169,-11.0703,12.6596,-20.4412,-2.518,7.01136,-9.16496,1.27222e-14,0,-3.15909,35.0764,-4.78262,36.4222,21.1125,-0.603242,22.2255,7.12502,25.0124,-6.157,1.27222e-14,0,-17.1887,10.5657,0.944024,49.8608,22.8286,-18.3356,33.0271,7.12502,7.94648,62.8577,-29.8894,-8.69386,12.2251,54.5087,-21.4734,-8.35297,-12.9435,-32.8324,11.5196,-7.25679,57.5767,-16.6473,1.71786,-42.0783
17.3332,16.985,-14.4045,8.66965,16.2422,-3.3514,15.0184,-0.546177,0.436152,7.06793,-0.668019,-3.12183,-0.985328,-0.245689,-3.41397,9.98162,9.78299,14.1043,-10.5081,13.1819,-20.8312,-2.25558,7.2968,-9.21104,1.59028e-14,1.11319e-14,-0.255383,34.8344,-2.2811,39.0369,19.0939,-2.11699,22.51,7.12502,23.5612,-6.06672,1.59028e-14,1.11319e-14,-16.7909,9.68689,1.19341,51.969,23.4444,-16.5552,32.6036,7.12502,9.66453,62.3619,-30.7213,-8.00691,12.6184,53.8612,-21.8963,-7.42015,-14.1394,-31.9133,11.4628,-7.66131,57.9648,-14.8704,0.463152,-40.482
17.4295,17.0538,-14.2924,8.47529,15.3506,-2.85929,14.7741,-0.600988,0.172608,6.97518,-0.776987,-3.05746,-0.957424,-0.309365,-3.17912,10.1727,10.116,13.8147,-10.2661,13.6234,-21.0488,-2.14229,7.54378,-9.21862,7.95139e-15,3.49861e-14,2.4701,34.5333,0.0500002,41.6415,17.3432,-4.0963,22.362,7.12502,21.6615,-6.4462,7.95139e-15,3.49861e-14,-16.3703,8.85617,1.41719,54.1769,23.7895,-14.336,32.2638,7.12502,11.8051,61.9111,-31.5951,-7.37129,13.0069,53.0837,-21.9327,-6.91992,-17.5846,-31.2425,11.4851,-8.07261,58.525,-12.6504,-1.04398,-37.471
17.5287,17.1327,-14.1791,8.10132,14.4337,-2.5709,14.6351,-0.662799,0.204944,6.94409,-0.856732,-3.03974,-0.92137,-0.350553,-3.16672,10.2463,10.3893,13.8951,-9.99079,14.02,-21.4634,-1.96249,7.76109,-9.33689,-8.74653e-15,0,4.91162,33.7133,1.87021,44.1075,16.1819,-6.47869,21.9504,7.12502,19.3721,-7.10465,-8.74653e-15,0,-15.652,7.65958,1.38798,56.1279,24.5048,-12.9414,31.787,7.12502,13.1497,61.3523,-32.1852,-6.72346,13.5835,52.1877,-21.9588,-6.07468,-19.7197,-30.6258,11.6732,-8.2621,59.2784,-10.1301,-2.46183,-33.4074
17.6298,17.208,-14.0604,7.67405,13.5044,-2.31172,14.5313,-0.729609,0.309381,6.92721,-0.934422,-3.04313,-0.890008,-0.388683,-3.218,10.1716,10.6713,14.0396,-9.59184,14.4396,-21.9259,-1.70685,7.98073,-9.45911,1.74931e-14,-2.38542e-15,7.14481,32.3686,3.21841,46.5033,15.5263,-8.02614,21.7646,7.12502,17.8837,-7.43315,1.74931e-14,-2.38542e-15,-14.7798,6.1336,1.12936,57.9471,25.5801,-12.224,31.2975,7.12502,13.8411,60.817,-32.5948,-6.07536,14.1544,51.2252,-22.4218,-4.14096,-18.4963,-30.0482,11.9252,-8.40791,60.1687,-7.49338,-3.35197,-30.5046
17.7285,17.2686,-13.94,7.26396,12.5838,-2.02602,14.4236,-0.75599,0.382721,6.93398,-0.962443,-3.05535,-0.828475,-0.401944,-3.26878,9.9878,10.9153,14.2776,-9.1531,14.8219,-22.3735,-1.41994,8.17089,-9.57987,1.35174e-14,-1.90833e-14,8.76984,30.2813,3.90012,49.1734,15.6085,-8.57209,21.8947,7.12502,17.3583,-7.3502,1.35174e-14,-1.90833e-14,-13.8903,4.8622,0.934598,59.9043,26.6734,-11.8673,31.0103,7.12502,14.1849,60.506,-32.9729,-5.44587,14.6948,50.2118,-22.4562,-2.3153,-18.2012,-29.597,12.1975,-8.5123,61.174,-4.61937,-4.23492,-24.6509
17.8274,17.3185,-13.8191,6.95046,11.7127,-1.66868,14.2681,-0.794324,0.456061,6.92559,-1.00711,-3.11417,-0.759265,-0.422749,-3.36639,9.74903,11.1541,14.639,-8.7145,15.2134,-22.8414,-1.10733,8.3591,-9.71872,7.95139e-15,2.46493e-14,9.92644,27.8347,4.07364,52.3142,15.669,-7.97339,22.2896,7.12502,17.9344,-6.90345,7.95139e-15,2.46493e-14,-13.3455,4.03787,0.911134,62.2017,27.1902,-11.3124,30.9473,7.12502,14.7196,60.4047,-33.3965,-4.96532,15.1655,49.1937,-21.9042,-1.27888,-20.4873,-29.3129,12.3619,-8.64422,62.2489,-2.0961,-4.80221,-20.7907
17.9312,17.3636,-13.6971,6.6829,10.9555,-1.24952,14.0558,-0.899147,0.531711,6.97392,-1.13553,-3.13436,-0.605021,-0.484257,-3.41346,9.5579,11.4319,14.6759,-8.51379,15.5943,-23.2246,-0.904689,8.55405,-9.79451,5.56597e-15,3.18055e-15,11.4793,25.8429,4.5201,55.2148,14.9815,-7.35713,22.6155,7.12502,18.5273,-6.52221,5.56597e-15,3.18055e-15,-13.2459,3.30239,0.94201,64.762,27.3842,-10.8932,31.0913,7.12502,15.1234,60.5187,-33.7072,-4.54137,15.5065,48.1759,-21.6503,-0.0759841,-21.2989,-29.1334,12.3778,-8.82316,63.3393,-0.16054,-5.55466,-19.5854
18.0329,17.4006,-13.5778,6.21209,10.2444,-0.979036,14.001,-0.952972,0.774588,6.9651,-1.17933,-3.10809,-0.591565,-0.502326,-3.51776,9.78039,11.5508,14.811,-8.25415,15.82,-23.6124,-0.776201,8.68722,-9.93011,2.06736e-14,-1.59028e-15,12.933,24.4568,5.05448,57.9227,14.0856,-7.15321,22.5598,7.12502,18.7235,-6.55914,2.06736e-14,-1.59028e-15,-12.4334,2.04031,0.801058,66.818,27.9549,-11.3099,31.0613,7.12502,14.7219,60.5185,-33.6794,-4.04098,15.9604,47.1986,-21.529,1.2094,-19.382,-28.8388,12.3681,-8.72224,64.4303,2.0509,-6.7453,-14.2121
18.13,17.4301,-13.4557,5.63934,9.60115,-0.849036,13.9955,-0.989085,1.15198,6.86057,-1.18576,-3.04451,-0.704171,-0.5021,-3.66351,10.1144,11.6125,14.9721,-7.79372,16.0161,-23.8707,-0.625777,8.79836,-10.0311,2.62396e-14,3.02153e-14,13.9647,23.1971,5.4149,60.8783,13.5074,-7.08376,22.6002,7.12502,18.7903,-6.51228,2.62396e-14,3.02153e-14,-10.9782,0.543126,0.518542,68.3134,28.4547,-11.9275,30.961,7.12502,14.1268,60.4607,-33.4732,-3.53083,16.5412,46.3195,-21.0451,2.13819,-15.0031,-28.4699,12.2647,-8.36504,65.4639,4.73655,-7.83494,-8.38984
18.2259,17.4613,-13.325,5.22796,8.9993,-0.475478,13.7677,-1.00444,1.3161,6.72792,-1.19217,-3.04386,-0.725462,-0.505236,-3.75589,10.8355,11.5437,15.2194,-7.82636,16.0152,-24.2376,-0.70051,8.84855,-10.254,1.15295e-14,2.38542e-15,14.893,22.0688,5.76352,63.9142,13.1015,-7.29363,23.0606,7.12502,18.5884,-6.07129,1.15295e-14,2.38542e-15,-9.88184,-0.845835,0.226892,70.0941,28.3972,-12.6511,30.7926,7.12502,13.4295,60.3397,-33.3681,-3.00554,16.7781,45.5663,-20.1004,3.14232,-12.3501,-28.2006,12.0591,-8.29748,66.3744,7.16873,-8.74886,-5.62437
18.3178,17.4839,-13.1915,4.90194,8.31449,0.255764,13.5401,-0.968984,1.06164,6.56372,-1.18431,-3.14882,-0.773801,-0.509105,-3.72315,11.7499,11.4037,15.6467,-8.07352,15.9321,-24.7854,-0.851969,8.87988,-10.6008,4.21423e-14,2.3059e-14,16.004,21.1534,6.12882,66.8192,12.579,-7.72113,23.2617,7.12502,18.1771,-5.90898,4.21423e-14,2.3059e-14,-9.14002,-2.19073,-0.170154,72.2683,28.2262,-13.1626,30.1639,7.12502,12.9365,59.7428,-33.3053,-2.35698,16.5312,44.9679,-19.0916,3.89526,-8.1596,-27.9296,11.9472,-8.63057,67.1663,9.12729,-9.45232,-1.70788
18.4075,17.4798,-13.0628,4.51119,7.77439,0.905991,13.4068,-0.988961,0.846649,6.46806,-1.24063,-3.18719,-0.804201,-0.543488,-3.63355,12.1093,11.4239,15.9106,-7.88083,16.0592,-25.182,-0.770551,8.97284,-10.7876,-4.77083e-15,-1.19271e-14,17.1849,20.1199,6.46321,69.378,12.0649,-8.30163,23.442,7.12502,17.6186,-5.77969,-4.77083e-15,-1.19271e-14,-8.33636,-3.27301,-0.543482,74.3851,27.972,-13.083,29.0545,7.12502,13.0132,58.6286,-33.1012,-1.72274,16.3074,44.5704,-18.5028,3.92812,-6.63623,-27.6852,11.7972,-8.82051,67.9204,10.4913,-10.0918,2.13867
18.4987,17.4679,-12.9331,3.98843,7.40735,1.29043,13.3195,-1.0733,0.926898,6.51941,-1.34042,-3.10487,-0.710485,-0.591942,-3.57986,11.9541,11.5535,15.9109,-7.55389,16.2686,-25.4159,-0.585072,9.07347,-10.8195,1.63003e-14,-4.77083e-15,18.2782,19.2995,7.03163,71.4797,13.5094,-11.3617,22.5466,7.12502,14.672,-6.91426,1.63003e-14,-4.77083e-15,-7.53885,-3.97016,-0.752467,76.4323,27.3972,-13.7641,28.3538,7.12502,12.3566,57.9686,-32.6625,-1.23134,16.3288,44.4384,-17.9077,3.50732,-4.38384,-27.3849,11.5099,-8.68456,68.6632,10.9924,-10.2774,2.00441
18.589,17.4688,-12.7964,3.46404,6.93043,1.74351,13.195,-1.07085,1.00243,6.5172,-1.32984,-3.09769,-0.646693,-0.585369,-3.61797,12.0417,11.559,16.001,-7.45167,16.3158,-25.6249,-0.532737,9.10854,-10.9035,4.37326e-15,-3.02153e-14,19.2724,18.0042,7.32708,74.4198,11.0592,-9.4247,23.9338,7.12502,16.5376,-5.3815,4.37326e-15,-3.02153e-14,-6.66846,-4.65561,-1.01317,78.5787,26.6761,-14.9505,28.5747,7.12502,11.2125,58.2551,-32.1143,-0.802358,16.213,44.6375,-16.9673,2.63971,-0.593084,-26.9395,11.3366,-8.65627,69.3413,10.8821,-9.22521,-0.608687
18.6777,17.4556,-12.6597,3.08134,6.42983,2.17875,12.952,-1.08939,1.0391,6.45111,-1.3524,-3.05962,-0.587403,-0.597673,-3.59762,12.1273,11.6097,16.0473,-7.32866,16.421,-25.8655,-0.462257,9.17454,-10.9854,-1.05356e-14,2.62396e-14,20.2991,16.8973,7.48149,77.1871,10.3242,-9.75134,24.2415,7.12502,16.2231,-5.09976,-1.05356e-14,2.62396e-14,-5.96908,-5.22559,-1.33209,80.7457,25.7897,-15.2062,28.6679,7.12502,10.9659,58.3615,-31.6181,-0.311719,16.0101,45.1534,-16.3065,0.918333,2.71814,-26.654,11.3791,-8.60664,69.9874,10.7758,-7.51225,-1.3734
18.767,17.4196,-12.5266,2.73187,6.07519,2.67834,12.6791,-1.18012,0.981395,6.40006,-1.47958,-3.00867,-0.501218,-0.663782,-3.49712,12.116,11.7301,16.0997,-7.09747,16.6313,-26.1351,-0.317991,9.28571,-11.0548,3.18055e-15,1.59028e-15,21.3191,15.6776,7.306,79.7725,10.3868,-10.0323,24.1176,7.12502,15.9525,-5.24542,3.18055e-15,1.59028e-15,-5.42494,-5.61996,-1.59824,82.8495,24.8138,-15.335,28.1387,7.12502,10.8417,57.8388,-31.0213,0.0989005,15.6029,45.8862,-16.5734,-1.10411,5.23067,-26.5419,11.3882,-8.59575,70.5587,10.4583,-6.41463,-3.79978
18.8587,17.3833,-12.3919,2.24868,5.76779,3.39518,12.5563,-1.2512,0.729129,6.38191,-1.60185,-3.0041,-0.456636,-0.730672,-3.33477,12.0489,11.8621,16.096,-6.8089,16.8557,-26.3265,-0.157795,9.39574,-11.0798,2.42517e-14,4.77083e-15,22.3123,14.4568,7.12922,82.3255,10.1558,-9.34456,24.1971,7.12502,16.6147,-5.11168,2.42517e-14,4.77083e-15,-4.80544,-5.93628,-1.80825,84.8483,23.9936,-15.972,27.4074,7.12502,10.2271,57.1388,-30.1801,0.32789,14.8105,46.6891,-17.612,-2.26302,4.97093,-26.2634,11.2696,-8.79381,70.9483,9.30968,-5.94379,-10.4581
18.9511,17.3466,-12.253,1.60829,5.51287,3.89555,12.5932,-1.31181,0.704449,6.35784,-1.6848,-2.90389,-0.503795,-0.775296,-3.20407,11.9384,11.9779,16.077,-6.44175,17.067,-26.497,0.0253814,9.49324,-11.0892,-2.08724e-14,-7.55382e-15,23.2506,13.3561,7.09301,84.7961,10.2284,-9.12395,25.1005,7.12502,16.8271,-4.19043,-2.08724e-14,-7.55382e-15,-4.1909,-6.32394,-1.9873,86.9369,23.349,-16.8262,26.9095,7.12502,9.40308,56.6797,-29.1884,0.58215,14.1045,47.4278,-18.8587,-2.54098,5.16842,-25.734,11.0936,-8.66445,71.138,8.02881,-5.17332,-14.2858
19.0426,17.3038,-12.1113,1.00956,5.35301,4.36752,12.6339,-1.35534,0.771253,6.27097,-1.73686,-2.8287,-0.619641,-0.803371,-3.15438,11.9858,11.9961,16.2095,-6.18493,17.1684,-26.6961,0.144051,9.54671,-11.1623,-7.8023e-15,-7.95139e-16,23.9405,12.4401,6.97144,87.2746,10.6591,-10.5444,26.224,7.12502,15.4593,-3.17786,-7.8023e-15,-7.95139e-16,-3.63669,-6.71489,-2.19564,89.2349,22.6006,-17.5179,26.4252,7.12502,8.73557,56.2244,-28.1903,0.776727,13.3347,48.0312,-20.0728,-2.98423,4.19818,-25.2104,10.8146,-8.48087,71.1472,7.32917,-4.04045,-14.3417
19.1357,17.2494,-11.9721,0.574307,5.13227,4.99101,12.6271,-1.39009,0.701556,6.09176,-1.79571,-2.82733,-0.805382,-0.838141,-3.10319,12.1102,11.9845,16.3998,-5.96187,17.2412,-26.9436,0.244646,9.59268,-11.2729,2.28851e-14,8.44835e-15,24.6128,11.6602,6.664,89.7822,10.8171,-11.9163,26.1453,7.12502,14.1376,-3.35372,2.28851e-14,8.44835e-15,-3.15058,-6.93264,-2.49918,91.5124,21.8346,-17.7932,25.5767,7.12502,8.46991,55.3869,-27.3363,0.874587,12.3429,48.5076,-21.26,-3.83705,-0.966534,-24.9036,10.5665,-8.49123,71.0598,6.61799,-3.00345,-15.4904
19.2309,17.1851,-11.8357,0.186505,4.84574,5.44065,12.719,-1.42587,0.779656,5.8122,-1.84176,-2.79355,-1.15152,-0.86666,-3.10013,12.0473,12.0215,16.7053,-5.43318,17.4352,-27.1824,0.500364,9.67541,-11.3575,3.91357e-15,1.2424e-15,25.2371,10.9073,6.14125,92.1753,10.613,-11.7439,26.2495,7.12502,14.3038,-3.23784,3.91357e-15,1.2424e-15,-2.61588,-7.07479,-2.82692,93.5923,21.3246,-17.8333,24.8265,7.12502,8.43121,54.6382,-26.6485,0.90884,11.533,48.9626,-22.4872,-4.60059,-5.63003,-24.7182,10.4567,-8.28133,70.8991,5.64007,-2.12827,-16.7714
19.3291,17.124,-11.693,-0.224397,4.56369,5.81052,12.7475,-1.40074,0.968477,5.58881,-1.79198,-2.73966,-1.40127,-0.844805,-3.15405,12.0543,12.0419,16.9621,-5.11004,17.5736,-27.3617,0.664378,9.73971,-11.4345,1.20513e-14,9.83984e-15,25.6191,10.0416,5.47896,94.4318,10.4874,-11.5238,27.0576,7.12502,14.5158,-2.41456,1.20513e-14,9.83984e-15,-2.11491,-7.08985,-2.98782,95.6523,20.9903,-18.1742,24.2969,7.12502,8.10217,54.1216,-25.9923,0.658336,10.847,49.5119,-23.7332,-5.18168,-8.59707,-24.4261,10.3966,-7.99246,70.5595,4.44782,-1.35032,-18.4194
19.431,17.0591,-11.5485,-0.672685,4.12246,6.04831,12.6848,-1.35285,1.11597,5.43716,-1.71041,-2.51166,-1.51851,-0.807926,-3.00951,12.2026,12.1212,16.8461,-5.08029,17.6992,-27.5135,0.68096,9.82083,-11.469,-2.78299e-14,2.66371e-14,26.3188,9.04797,4.7449,96.8416,10.8746,-11.1407,26.9662,7.12502,14.8849,-2.47903,-2.78299e-14,2.66371e-14,-2.14411,-6.99174,-2.98802,97.9988,20.8501,-18.4272,23.8094,7.12502,7.85805,53.6434,-25.3967,0.28281,10.3353,50.2321,-24.6843,-5.46745,-10.8551,-23.9798,10.423,-7.54472,70.0564,3.10145,-0.626252,-19.9213
19.5336,16.993,-11.4087,-1.13774,3.59458,5.95291,12.7596,-1.35373,1.35661,5.26521,-1.67447,-2.03031,-1.72923,-0.796122,-2.64417,12.2498,12.2657,16.5435,-5.05,17.8769,-27.803,0.72348,9.93107,-11.5071,1.23246e-14,-6.36111e-15,27.3736,8.06098,4.16522,99.3937,10.9353,-10.2786,26.2208,7.12502,15.7154,-3.16109,1.23246e-14,-6.36111e-15,-2.50361,-6.69916,-2.83168,100.343,21.0242,-18.2404,23.1206,7.12502,8.03832,52.9477,-24.9457,-0.0511384,10.1901,51.0853,-25.3082,-5.10048,-10.4787,-23.5669,10.4182,-6.69827,69.462,1.11751,-0.119635,-23.0237
19.6381,16.938,-11.2708,-1.40653,3.14863,5.82812,12.5805,-1.35231,1.64434,5.18015,-1.62825,-1.50631,-1.71169,-0.775849,-2.26862,12.2776,12.3577,16.3707,-5.26827,17.962,-28.4402,0.730311,10.0178,-11.7039,3.8763e-15,-1.19271e-14,28.1774,7.15552,3.84814,101.701,10.1341,-10.1759,25.5773,7.12502,15.8142,-3.79677,3.8763e-15,-1.19271e-14,-2.68775,-5.9724,-2.47163,102.329,21.2628,-17.6201,22.1035,7.12502,8.63691,51.9068,-24.7838,-0.459688,10.0265,51.9534,-25.8362,-4.74923,-9.89797,-23.3713,10.2304,-5.90688,68.6957,-2.06551,-0.0797106,-20.7241
19.7445,16.8868,-11.1376,-1.49113,2.65377,5.73946,12.2368,-1.31456,1.95148,5.04724,-1.53793,-1.04846,-1.65517,-0.732952,-1.98219,12.3582,12.4362,16.3056,-5.47542,18.0522,-29.0115,0.737258,10.1063,-11.9001,-4.17448e-15,-1.11319e-14,28.6751,6.42274,3.26722,103.878,10.0696,-10.8757,25.3337,7.12502,15.1402,-4.09249,-4.17448e-15,-1.11319e-14,-2.79393,-5.22844,-2.17032,104.24,21.6783,-16.4201,21.3973,7.12502,9.79482,51.1495,-24.8135,-0.706446,9.75722,52.7358,-26.344,-4.70633,-11.2483,-23.3214,10.0083,-5.23096,67.7483,-3.2084,0.294863,-20.3414
19.8533,16.8345,-11.0066,-1.63623,2.07182,5.60942,12.1987,-1.26224,2.33115,4.79071,-1.41699,-0.680248,-1.89525,-0.677786,-1.82754,12.5342,12.5464,16.1866,-5.72346,18.1722,-29.1892,0.675105,10.1993,-11.9563,-1.90833e-14,-6.36111e-15,28.9635,5.89623,2.25699,106.157,10.6276,-11.5639,25.2123,7.12502,14.4772,-4.26264,-1.90833e-14,-6.36111e-15,-2.95256,-4.70332,-2.12664,106.311,22.7872,-16.2214,20.8763,7.12502,9.98656,50.6193,-24.6412,-0.727036,9.46483,53.395,-26.9191,-4.49035,-12.885,-23.1486,9.78068,-4.52799,66.6253,-4.20512,0.883381,-22.484
19.9612,16.788,-10.8704,-1.81706,1.49433,5.49822,12.2359,-1.2224,2.64216,4.53854,-1.3159,-0.318386,-2.17133,-0.633961,-1.63713,12.828,12.6733,16.0203,-6.11363,18.2892,-29.3218,0.543019,10.3031,-12.0071,-2.5842e-15,-1.11319e-14,29.0869,5.6131,1.3063,108.575,10.2064,-12.0334,25.3081,7.12502,14.0248,-4.19873,-2.5842e-15,-1.11319e-14,-3.24077,-4.13634,-2.18305,108.356,24.1577,-16.3587,19.8804,7.12502,9.85407,49.6298,-24.3006,-0.577713,9.13662,53.9273,-27.6002,-4.19539,-13.784,-22.8547,9.48256,-3.87238,65.2811,-5.37431,1.44865,-22.3965
20.0688,16.7496,-10.7291,-1.96451,0.938086,5.52061,12.1112,-1.18888,2.75018,4.33885,-1.25053,0.0332598,-2.30324,-0.606988,-1.34136,13.0537,12.7322,16.0597,-6.37192,18.367,-29.6899,0.497843,10.3867,-12.1676,7.55382e-15,-1.66979e-14,28.9832,5.48295,0.378211,111.026,9.42439,-12.8387,25.9431,7.12502,13.2486,-3.61583,7.55382e-15,-1.66979e-14,-3.59184,-3.37942,-2.26899,110.125,25.5595,-15.3446,18.5845,7.12502,10.8324,48.2852,-23.9312,-0.399692,8.66973,54.3545,-28.4248,-3.90622,-14.5537,-22.4833,9.09337,-3.41438,63.713,-6.49222,1.94094,-22.5484
20.1806,16.7096,-10.5883,-2.08205,0.365228,5.69123,11.8768,-1.11993,2.74657,4.20266,-1.15894,0.277542,-2.30887,-0.56464,-1.10056,13.1551,12.751,16.1485,-6.66768,18.3755,-29.9389,0.439314,10.4218,-12.2906,-1.63003e-14,1.59028e-14,28.7268,5.24938,-0.92305,113.338,9.26366,-13.9715,26.596,7.12502,12.1566,-3.03076,-1.63003e-14,1.59028e-14,-3.78665,-2.41526,-2.48771,111.607,27.4556,-13.9699,17.3057,7.12502,12.1581,46.9324,-23.6209,-0.395555,8.02176,54.7046,-29.2294,-3.96758,-16.2974,-22.0398,8.65028,-3.16795,62.0002,-6.98304,2.5999,-22.8923
20.2912,16.6705,-10.4523,-2.16326,-0.0605714,5.77927,11.7203,-1.11736,2.79072,4.02099,-1.14608,0.509243,-2.40865,-0.562288,-0.88713,13.2372,12.8203,16.1601,-6.98093,18.4333,-30.0159,0.363798,10.4724,-12.3327,-4.57205e-15,7.95139e-15,28.4609,5.1127,-2.46127,115.676,9.5487,-14.4612,26.7248,7.12502,11.6844,-2.92936,-4.57205e-15,7.95139e-15,-3.94516,-1.44078,-2.90719,112.881,29.7373,-12.7265,15.9959,7.12502,13.3568,45.5478,-23.3051,-0.32635,7.48234,54.9503,-29.8752,-4.06305,-16.6419,-21.7162,8.05033,-2.86554,60.237,-7.27592,3.09014,-21.0263
20.3961,16.6429,-10.3213,-2.24713,-0.251343,5.93285,11.6914,-1.19652,2.67242,3.81348,-1.25464,0.710428,-2.60647,-0.621205,-0.594871,13.1077,12.9017,16.4331,-7.01809,18.5916,-30.2455,0.471561,10.5503,-12.4243,-1.13307e-14,1.11319e-14,27.9119,5.32055,-4.01597,118.284,9.99905,-14.4366,26.011,7.12502,11.7081,-3.64187,-1.13307e-14,1.11319e-14,-4.16241,-0.540904,-3.47672,113.872,31.8924,-12.0389,14.6075,7.12502,14.0195,44.1147,-22.7728,-0.128786,6.88102,55.0771,-30.4182,-3.71325,-15.2113,-21.5884,7.32719,-2.69408,58.412,-7.61035,3.66879,-23.0413
20.5019,16.626,-10.1933,-2.28759,-0.391054,5.86404,11.6051,-1.25905,2.78529,3.69026,-1.31704,0.949909,-2.68632,-0.654639,-0.401067,12.7116,12.9567,16.8775,-6.96409,18.7366,-30.5656,0.678094,10.6008,-12.5441,1.49089e-14,-1.11319e-14,27.033,5.5557,-5.60208,121.003,9.9726,-15.0047,25.4687,7.12502,11.1602,-4.21454,1.49089e-14,-1.11319e-14,-4.19019,0.626537,-4.01031,114.536,34.1351,-10.6354,13.5094,7.12502,15.3717,42.9179,-22.1937,0.0946717,6.55724,55.0205,-30.7826,-3.92503,-15.5462,-21.601,6.67319,-2.31575,56.5224,-7.55042,4.59749,-29.581
20.6139,16.6159,-10.0621,-2.16511,-0.511835,5.63364,11.4004,-1.22976,3.1001,3.55773,-1.23792,1.24564,-2.70975,-0.61742,-0.28403,12.0625,12.9834,17.2602,-6.92843,18.7985,-30.8352,0.891662,10.5907,-12.6211,-1.61016e-14,3.49861e-14,25.6694,5.68739,-7.07742,123.535,9.43591,-15.9051,25.7826,7.12502,10.2917,-3.94556,-1.61016e-14,3.49861e-14,-3.8102,2.1786,-4.38865,114.907,36.7173,-7.361,13.0238,7.12502,18.5236,42.1618,-21.7671,0.322646,6.41932,54.7907,-31.0744,-4.79157,-17.7366,-21.6819,5.94906,-1.8062,54.5241,-7.05361,5.34599,-33.1067
20.7233,16.6099,-9.93184,-1.97126,-0.605681,5.80436,11.3065,-1.14398,2.87224,3.2538,-1.13643,1.50499,-2.96305,-0.572074,0.10147,11.4507,13.042,17.4231,-6.7203,18.9,-30.8929,1.10637,10.5888,-12.5806,-5.96354e-15,-6.36111e-15,23.925,6.08739,-8.29888,125.995,9.02422,-16.5881,25.8119,7.12502,9.63274,-3.94783,-5.96354e-15,-6.36111e-15,-3.60559,3.52135,-4.78611,115.067,39.1785,-3.93404,12.4976,7.12502,21.8173,41.2878,-21.3015,0.630416,5.82991,54.4713,-31.2843,-5.59948,-19.8525,-21.7176,5.17835,-1.7487,52.3701,-6.6294,5.51959,-32.0522
20.8288,16.6176,-9.80374,-1.8335,-0.67978,5.95826,11.2931,-1.18395,2.56184,2.80509,-1.19952,1.83356,-3.41173,-0.608027,0.632359,11.4051,13.1255,17.295,-6.50149,19.0468,-30.8215,1.18799,10.6486,-12.5023,-1.33186e-14,3.18055e-15,22.3908,6.93678,-9.3224,128.441,8.40142,-17.1311,25.7266,7.12502,9.10885,-4.05674,-1.33186e-14,3.18055e-15,-4.00129,4.44783,-5.33379,115.107,41.5834,-0.949847,12.0262,7.12502,24.6803,40.4546,-20.6552,1.00026,5.30678,54.0559,-31.4139,-6.00134,-20.6967,-21.6732,4.52069,-1.67119,50.1099,-6.24124,5.46223,-31.2354
20.9411,16.6379,-9.67034,-1.70531,-0.747949,6.18629,11.0836,-1.24229,2.28629,2.43413,-1.29424,2.11522,-3.67181,-0.65522,1.09497,11.5905,13.1819,16.9699,-6.60771,19.0787,-30.7231,1.08609,10.6833,-12.4352,-1.45113e-14,0,20.8627,7.77946,-10.2261,130.768,7.25652,-17.0587,26.0417,7.12502,9.17868,-3.7385,-1.45113e-14,0,-4.35556,5.57871,-5.87057,114.965,44.1008,2.64687,12.8941,7.12502,28.1231,40.8053,-19.9804,1.32474,4.67781,53.5288,-31.4548,-6.26263,-21.4145,-21.6018,3.80293,-1.77304,47.8151,-5.6347,5.64756,-33.5033
21.0612,16.6526,-9.53652,-1.49405,-0.817626,6.57736,10.7344,-1.1878,1.94109,2.18404,-1.26025,2.2783,-3.72897,-0.635576,1.44983,11.5243,13.2173,16.7028,-6.96764,19.0127,-30.6335,0.94223,10.6607,-12.3753,-5.76476e-15,3.81667e-14,18.8393,8.41859,-11.0019,133.012,6.27797,-16.6557,26.2795,7.12502,9.56753,-3.48332,-5.76476e-15,3.81667e-14,-4.31478,7.17322,-6.40979,114.498,46.4356,7.15861,14.8316,7.12502,32.4267,41.9511,-19.3627,1.63617,3.80673,52.8809,-31.3675,-6.66503,-22.2631,-21.6716,3.0486,-2.11678,45.5742,-5.18236,5.73052,-34.8897
21.1849,16.6627,-9.4033,-1.19752,-0.846161,6.62301,10.2996,-1.11276,1.93513,1.97439,-1.1607,2.52758,-3.70269,-0.585694,1.69234,11.3645,13.1798,16.7113,-7.31586,18.8889,-30.8489,0.871885,10.6127,-12.4658,1.0138e-14,-1.59028e-14,16.4071,9.41471,-11.3473,134.768,7.7541,-19.5105,26.5788,7.12502,6.81241,-3.29157,1.0138e-14,-1.59028e-14,-4.10498,8.84509,-6.92637,113.544,48.7751,11.4518,16.5361,7.12502,36.502,42.7277,-18.6916,1.90806,3.31796,52.1236,-31.3957,-7.0821,-22.3235,-21.9129,2.582,-2.09643,43.4309,-4.68193,5.50772,-36.4362
21.3098,16.6798,-9.26423,-0.919817,-0.848649,6.58762,9.78908,-1.02962,1.95717,1.75973,-1.04702,2.86138,-3.63905,-0.528493,2.00444,11.388,13.0509,16.7717,-7.7084,18.6572,-31.3364,0.76927,10.5402,-12.7013,-1.5704e-14,-1.74931e-14,13.945,9.26241,-11.602,137.139,4.95305,-17.6195,28.4307,7.12502,8.63749,-1.37257,-1.5704e-14,-1.74931e-14,-3.84501,10.299,-7.25896,112.127,51.2026,15.1832,18.0141,7.12502,40.0241,43.2329,-17.9042,2.17947,2.93703,51.3159,-31.4947,-7.49872,-22.3392,-22.1378,2.29268,-2.03589,41.3819,-3.9868,5.2076,-38.9429
21.4325,16.7003,-9.12499,-0.648821,-0.866037,6.60778,9.34785,-0.984999,1.83847,1.50678,-0.994447,3.20913,-3.65012,-0.499511,2.42138,11.2771,13.0357,16.6086,-8.03106,18.5461,-31.6343,0.691949,10.5101,-12.7998,-8.94531e-15,2.70347e-14,11.5146,9.69108,-11.7307,139.028,3.98432,-17.8723,29.6274,7.12502,8.39355,-0.185822,-8.94531e-15,2.70347e-14,-3.69478,11.7715,-7.66369,110.447,52.9405,20.3391,19.5712,7.12502,44.8508,43.1292,-17.1424,2.4874,2.50866,50.4853,-31.3626,-7.74675,-22.3697,-22.3441,2.04679,-2.06082,39.412,-3.291,4.90613,-40.6788
21.5557,16.7147,-8.99126,-0.345435,-0.961573,6.50216,9.06297,-0.978739,1.79034,1.19459,-0.975084,3.58963,-3.80975,-0.4866,2.84272,10.856,13.1958,16.2232,-8.04613,18.6776,-31.6013,0.74929,10.5518,-12.6629,-6.95746e-15,-7.95139e-15,9.54262,10.2827,-11.951,140.149,3.26325,-17.5635,30.4563,7.12502,8.69156,0.655191,-6.95746e-15,-7.95139e-15,-3.67737,13.3175,-8.39309,108.567,54.2563,26.6024,21.5501,7.12502,50.6281,42.4367,-16.497,2.85117,2.22018,49.6078,-31.3078,-7.74039,-21.8961,-22.5856,1.95187,-1.94928,37.509,-2.2528,4.69348,-42.1639
21.6835,16.7247,-8.85667,0.00431658,-1.00808,6.43581,8.75231,-1.00715,1.72613,0.842242,-1.00284,3.94472,-3.99522,-0.495643,3.2536,10.5623,13.322,16.0043,-8.10658,18.7977,-31.8147,0.817886,10.6078,-12.6589,1.78906e-15,-4.13472e-14,7.63683,10.7356,-12.0416,141.188,2.3105,-16.8505,30.9461,7.12502,9.37958,1.17478,1.78906e-15,-4.13472e-14,-3.64697,14.6592,-9.3625,106.459,55.775,31.2043,24.7983,7.12502,54.7863,43.0905,-15.8802,3.01155,1.84313,48.6874,-31.3665,-7.6163,-21.5098,-22.9373,1.78486,-1.88724,35.6831,-0.976236,4.67844,-42.5824
21.8148,16.7421,-8.71877,0.444394,-0.989127,6.34044,8.2743,-1.0483,1.72391,0.487681,-1.04834,4.29255,-4.08914,-0.51387,3.62029,10.5485,13.364,16.0556,-8.47469,18.8085,-32.3735,0.800443,10.6561,-12.8808,0,-1.27222e-14,5.64989,10.7342,-11.9643,142.272,0.850784,-15.2495,31.5045,7.12502,10.9241,1.80863,0,-1.27222e-14,-3.52051,15.7411,-10.3623,104.135,56.8216,34.5565,28.2101,7.12502,57.7502,44.1536,-15.3225,2.9339,1.48926,47.7037,-30.7611,-8.17154,-23.0337,-23.3868,1.47027,-1.7906,33.9356,0.149449,4.74946,-40.8943
21.9488,16.7677,-8.58218,0.903859,-1.00671,6.19079,7.77591,-1.06882,1.7432,0.136688,-1.06481,4.65609,-4.16872,-0.517331,3.98799,10.4818,13.4594,16.0941,-8.78197,18.8993,-32.7588,0.806964,10.7291,-13.018,-1.68967e-14,1.59028e-14,3.73865,10.6294,-11.6732,143.054,-0.513588,-13.2408,32.4168,7.12502,12.861,2.83308,-1.68967e-14,1.59028e-14,-3.32019,16.5277,-11.3795,101.544,57.2528,37.6829,30.6425,7.12502,60.4482,43.9435,-14.8132,2.89188,1.21155,46.6782,-29.7868,-9.00075,-25.7205,-23.764,1.13261,-1.6264,32.2563,1.32573,4.93327,-39.22
22.0823,16.801,-8.44757,1.2731,-1.02464,6.00322,7.35222,-1.10187,1.71839,-0.161175,-1.10034,5.03575,-4.23213,-0.528847,4.40162,10.2278,13.6135,16.1126,-8.91425,19.0901,-33.011,0.901564,10.8222,-13.06,-1.03368e-14,-4.77083e-14,1.96597,10.5177,-11.2371,143.427,-1.59052,-11.5712,33.625,7.12502,14.4702,4.14951,-1.03368e-14,-4.77083e-14,-2.98257,17.1717,-12.3585,98.5292,57.1834,39.9794,32.8801,7.12502,62.3781,43.8952,-14.1813,3.03684,0.954968,45.6429,-29.3678,-7.87006,-23.8546,-24.043,0.67155,-1.38757,30.6632,2.72547,5.25767,-39.3497
22.2167,16.8386,-8.31198,1.56126,-1.02142,5.73801,7.06611,-1.16027,1.67246,-0.532785,-1.15657,5.49867,-4.44651,-0.546604,4.92602,10.2478,13.7315,15.9957,-9.16988,19.2032,-33.1726,0.866349,10.9025,-13.0943,1.74931e-14,1.59028e-14,0.43411,10.4475,-10.6004,143.516,-2.63353,-10.092,34.948,7.12502,15.895,5.58034,1.74931e-14,1.59028e-14,-2.55851,17.5909,-13.2307,95.3243,56.7627,41.3231,35.1015,7.12502,63.4825,44.6183,-13.4411,3.29002,0.814007,44.5875,-28.8602,-6.64791,-20.4016,-24.2808,0.0713044,-1.03973,29.2023,4.132,5.54168,-39.6829
22.3563,16.8669,-8.17314,1.79479,-0.929948,5.61802,6.8163,-1.32821,1.53301,-0.980575,-1.36149,5.91506,-4.7476,-0.633088,5.47699,10.6799,13.8078,15.8204,-9.66236,19.2269,-33.3141,0.660707,10.9822,-13.1827,2.42517e-14,-5.40694e-14,-0.806655,10.5376,-9.87205,143.45,-3.31054,-9.02217,35.9427,7.12502,16.9251,6.66018,2.42517e-14,-5.40694e-14,-2.26968,17.5615,-14.354,92.2469,56.2844,41.5979,36.6747,7.12502,63.7058,45.869,-12.5535,3.18796,0.517997,43.5558,-28.071,-7.13962,-21.3863,-24.4741,-0.932312,-0.793707,27.9031,4.98579,6.31327,-37.3624
22.4976,16.8909,-8.03365,1.99726,-0.859002,5.46062,6.37501,-1.51291,1.46155,-1.24572,-1.60618,6.26614,-4.74484,-0.745702,5.9107,11.0588,13.898,15.7621,-10.3727,19.2345,-33.5959,0.434644,11.0651,-13.3481,1.86858e-14,-9.54166e-14,-1.84145,10.2819,-9.25526,143.039,-4.3001,-7.46744,36.6457,7.12502,18.4212,7.49789,1.86858e-14,-9.54166e-14,-1.88278,17.4889,-15.578,89.1082,55.169,40.7733,37.115,7.12502,63.033,47.2604,-11.6326,3.02207,0.249591,42.5548,-27.2523,-7.85126,-22.8938,-24.6383,-2.48116,-0.350555,26.8036,5.39887,7.7882,-34.4989
22.6386,16.919,-7.89955,2.31173,-0.892626,5.01077,5.83199,-1.63813,1.6213,-1.50676,-1.7583,6.64205,-4.69177,-0.818999,6.22426,11.3358,13.991,15.8654,-11.0186,19.278,-33.8056,0.263463,11.1454,-13.494,-2.48481e-14,8.90555e-14,-2.87996,9.88978,-8.69592,142.46,-5.36156,-5.60018,36.7984,7.12502,20.2167,7.83043,-2.48481e-14,8.90555e-14,-1.29318,17.3735,-16.796,85.8016,53.2966,39.5792,36.3233,7.12502,62.0454,47.7605,-10.9761,3.0879,0.343983,41.5889,-26.0763,-8.4225,-24.1793,-24.9439,-4.08903,0.502875,25.9259,5.69307,9.38153,-32.0698
22.7787,16.9449,-7.76752,2.60881,-1.02566,4.52829,5.49071,-1.7794,1.76099,-1.91523,-1.91264,7.0415,-4.90589,-0.887129,6.59161,11.8414,14.0352,15.9647,-11.6004,19.284,-33.9452,0.0488532,11.2164,-13.6468,-2.38542e-14,0,-3.79649,9.64495,-7.88645,141.886,-5.8566,-4.48076,36.5942,7.12502,21.2922,7.74385,-2.38542e-14,0,-0.774402,16.9133,-18.1158,82.4215,51.1859,37.7598,34.8847,7.12502,60.5136,48.1142,-10.3509,3.30666,0.410801,40.6611,-25.1527,-7.49677,-22.7081,-25.214,-5.58898,1.38233,25.2615,5.85766,10.8013,-29.2411
22.9179,16.9648,-7.63377,2.63207,-1.24327,4.15947,5.4716,-1.88336,1.69544,-2.31882,-2.0126,7.44013,-5.2972,-0.917599,7.091,12.5778,13.9839,16.0153,-12.3022,19.1376,-34.1461,-0.277545,11.2399,-13.8778,-4.48259e-14,7.63333e-14,-4.49938,9.49631,-6.85437,141.041,-6.61989,-3.47522,37.5821,7.12502,22.2578,8.84384,-4.48259e-14,7.63333e-14,0.00969262,16.2784,-19.2242,78.9153,48.9008,34.8672,33.3543,7.12502,58.0214,49.0565,-9.50461,3.79763,0.284262,39.7751,-24.6608,-5.31876,-17.3426,-25.1551,-7.05984,2.06997,24.7672,5.81109,12.088,-24.3069
23.0628,16.9793,-7.50153,2.55074,-1.41485,3.79969,5.57407,-1.97651,1.65611,-2.73371,-2.08913,7.76465,-5.77681,-0.934355,7.50539,13.0557,13.9201,16.3564,-12.6175,19.0968,-34.2769,-0.400578,11.2622,-14.0621,1.06847e-14,3.18055e-15,-5.25264,10.0398,-5.86235,140.191,-6.07419,-3.86882,37.2894,7.12502,21.8799,8.50652,1.06847e-14,3.18055e-15,1.12365,15.6653,-20.227,75.3785,46.3367,31.7383,32.0919,7.12502,55.2626,50.0389,-8.68089,3.99302,0.216975,38.973,-23.4563,-5.76217,-19.9294,-25.023,-8.54255,2.70428,24.387,5.77144,13.3207,-18.2657
23.2124,16.9916,-7.36865,2.56503,-1.55481,3.44479,5.46515,-2.09202,1.63258,-3.07022,-2.21542,8.03322,-6.04897,-0.981005,7.84105,13.0042,13.9803,16.7815,-12.6114,19.2764,-34.1882,-0.302068,11.3202,-14.0568,-2.63141e-14,6.04305e-14,-6.04073,10.2781,-4.73755,139.567,-5.9269,-3.60497,37.0499,7.12502,22.1333,8.29681,-2.63141e-14,6.04305e-14,2.20056,15.1899,-21.2829,71.9684,43.7691,27.9301,31.0292,7.12502,51.8367,51.2313,-8.02681,3.78259,0.16626,38.2566,-21.5965,-7.77844,-27.6251,-25.039,-9.99022,3.29849,24.1197,6.21715,14.3342,-15.082
23.3601,17.0026,-7.2332,2.57267,-1.71932,3.30727,5.175,-2.20249,1.38768,-3.32074,-2.37658,8.20411,-6.11399,-1.04296,8.18472,12.992,14.0754,17.0269,-12.7533,19.4391,-33.9634,-0.295332,11.3756,-13.9871,-3.54458e-14,1.27222e-14,-6.8077,10.3386,-3.7644,138.852,-5.9154,-3.40375,37.3025,7.12502,22.3264,8.5724,-3.54458e-14,1.27222e-14,3.50539,14.8786,-22.2354,68.3433,40.9701,23.9757,29.4591,7.12502,48.2191,51.569,-7.32805,3.85506,-0.213948,37.6583,-20.5712,-7.42007,-27.8381,-25.0362,-11.1623,3.50539,24.0188,7.0789,14.8439,-16.2869
23.5065,17.0022,-7.09548,2.39546,-1.8974,3.2457,5.00794,-2.21327,1.07276,-3.42446,-2.41517,8.30572,-6.10728,-1.04551,8.4797,12.5309,14.1818,17.1447,-12.7947,19.5638,-33.7078,-0.211732,11.3768,-13.8318,2.92213e-14,-2.54444e-14,-7.52841,10.091,-2.91209,137.901,-5.6105,-3.52224,37.29,7.12502,22.2127,8.54631,2.92213e-14,-2.54444e-14,5.24298,15.0567,-22.8637,64.4184,37.5795,20.9852,27.4229,7.12502,45.4517,50.7422,-6.49597,4.19408,-0.718374,37.2081,-20.0417,-5.97093,-24.1236,-24.7431,-11.8079,3.38098,24.1235,6.32964,15.3405,-15.4518
23.6547,16.9865,-6.96417,2.08583,-2.08249,2.72894,5.09368,-2.07964,1.10548,-3.3131,-2.22458,8.5311,-6.05898,-0.949415,8.69274,11.0602,14.386,17.2712,-12.6129,19.7648,-33.4249,0.128699,11.3292,-13.5201,4.22914e-14,-8.90555e-14,-8.31513,9.42555,-1.84553,136.819,-5.35245,-3.7545,37.4476,7.12502,21.9897,8.67755,4.22914e-14,-8.90555e-14,7.19139,15.6855,-23.1654,60.5678,34.2448,17.0451,25.9324,7.12502,41.7731,50.598,-5.64577,4.51751,-0.666484,36.8569,-19.2412,-5.37175,-23.6494,-24.2631,-11.286,3.39702,24.4973,5.19674,14.6669,-18.2349
23.8017,16.9642,-6.84197,1.87663,-2.26345,2.24628,5.08115,-2.05749,1.03803,-3.51122,-2.17485,8.76074,-6.26243,-0.907617,8.99742,11.1653,14.3276,17.5979,-12.9034,19.6932,-33.2875,0.0326763,11.2865,-13.5581,-3.77691e-15,-5.40694e-14,-8.94855,9.47688,-0.847167,135.797,-4.99757,-4.56995,37.3292,7.12502,21.2066,8.46919,-3.77691e-15,-5.40694e-14,9.19271,15.5837,-23.5407,56.8179,31.4022,11.6263,25.0886,7.12502,36.6672,51.2384,-4.93425,4.69866,-0.652107,36.5663,-18.4163,-5.23293,-25.6779,-23.9439,-9.63372,3.10706,25.2516,4.76451,12.6812,-26.2554
23.9431,16.9425,-6.71549,1.78754,-2.43709,2.0465,4.71823,-2.09775,0.624532,-3.63118,-2.26855,8.92,-6.14762,-0.934111,9.41169,11.075,14.3385,17.7401,-13.2109,19.6605,-33.1077,-0.0511288,11.2518,-13.5234,-1.56046e-14,-1.90833e-14,-9.32583,9.2826,0.0253099,134.73,-4.77638,-5.22925,36.4114,7.12502,20.5731,7.48159,-1.56046e-14,-1.90833e-14,11.1399,15.6194,-24.0034,52.9211,28.5135,6.76198,24.4827,7.12502,32.0491,51.6788,-4.38883,4.84854,-0.970285,36.3461,-17.751,-5.01689,-26.5561,-23.7654,-7.4613,2.41455,26.3523,3.59453,10.6661,-31.7752
24.0831,16.9132,-6.58727,1.64643,-2.5005,1.50166,4.29046,-2.19949,0.519971,-3.63627,-2.42674,9.19042,-5.86888,-1.01136,9.76306,10.6898,14.4278,17.5637,-13.4628,19.6604,-32.7338,-0.124916,11.2085,-13.3276,3.42904e-14,-6.36111e-15,-9.49398,8.91811,0.987732,133.529,-4.71968,-5.34186,36.0268,7.12502,20.4649,7.0853,3.42904e-14,-6.36111e-15,13.0546,15.932,-24.3811,48.8421,25.2342,2.41956,24.2265,7.12502,27.9058,52.1732,-3.78323,5.16129,-0.845453,36.2025,-17.0642,-4.71262,-25.8699,-23.6885,-5.0212,2.04946,27.7059,2.45832,8.39176,-38.7823
24.2206,16.8767,-6.46732,1.41238,-2.38614,1.00418,4.23132,-2.29127,0.41099,-3.77202,-2.5436,9.37424,-5.95062,-1.05555,10.051,10.2338,14.4539,17.4294,-13.4301,19.6276,-32.2769,-0.124761,11.1276,-13.094,0,-6.36111e-15,-9.86142,8.79609,2.01135,132.375,-4.60795,-5.57318,36.2799,7.12502,20.2426,7.31474,0,-6.36111e-15,15.3487,16.5558,-24.368,44.653,21.7559,-2.56638,24.4896,7.12502,23.1301,53.1211,-3.04388,5.45017,-0.742224,36.0991,-16.366,-4.10269,-25.0266,-23.8089,-2.79233,1.63238,29.2826,1.26522,6.18991,-45.9526
24.3541,16.8405,-6.35209,1.18598,-2.17366,0.703937,4.49864,-2.41394,0.16215,-4.19164,-2.67868,9.42584,-6.52126,-1.0816,10.3207,10.1593,14.4181,17.4811,-13.4003,19.5832,-31.8349,-0.171325,11.0621,-12.943,-4.9895e-14,1.36764e-13,-10.1116,8.985,2.91344,131.312,-4.58743,-5.65662,36.3593,7.12502,20.1624,7.38557,-4.9895e-14,1.36764e-13,17.8444,16.9936,-24.2361,40.6799,18.5123,-7.34988,25.2086,7.12502,18.5343,54.3457,-2.27954,5.61543,-0.858765,36.0118,-15.7023,-3.27296,-24.3572,-24.1648,-0.86017,1.0689,31.0377,-0.779007,4.76701,-47.928
24.4843,16.8042,-6.23807,0.94098,-2.00365,0.0610084,4.6595,-2.59032,0.147993,-4.47365,-2.87892,9.61064,-6.87715,-1.15636,10.5947,10.1218,14.4723,17.4269,-13.7393,19.5825,-31.4623,-0.315465,11.0406,-12.8184,3.4191e-14,-1.90833e-14,-9.98889,8.79244,3.51523,130.144,-4.63458,-5.1629,36.5724,7.12502,20.6369,7.64951,3.4191e-14,-1.90833e-14,20.0494,17.6052,-24.1711,36.9909,15.5449,-11.4147,26.1056,7.12502,14.621,55.5702,-1.54203,5.87546,-0.535578,35.9484,-14.7633,-2.86658,-23.6732,-24.6414,0.94882,1.00321,32.9169,-3.181,3.53115,-45.8025
24.6076,16.7652,-6.12753,0.626092,-1.87554,-0.581845,4.59226,-2.70076,0.0356117,-4.36815,-3.0435,9.75168,-6.68304,-1.2393,10.8232,9.46528,14.5381,17.3397,-14.2764,19.4733,-31.2769,-0.408806,10.9414,-12.711,5.42682e-14,-2.8625e-14,-10.0416,7.99537,3.8562,128.921,-4.61871,-4.91208,37.0187,7.12502,20.8779,8.12212,5.42682e-14,-2.8625e-14,22.2541,19.2827,-23.8111,33.5407,12.8567,-15.6147,27.502,7.12502,10.5718,57.2161,-0.818806,6.33731,-0.132602,35.8808,-13.875,-2.85532,-23.46,-25.1415,2.50561,1.0296,34.9268,-5.06497,2.31349,-44.5627
24.7261,16.7212,-6.02421,0.326129,-1.5663,-0.894924,4.57809,-2.8303,-0.387568,-4.28375,-3.26334,9.72736,-6.52149,-1.33827,11.0565,8.97081,14.5059,17.4425,-15.0043,19.2307,-31.3409,-0.558076,10.8016,-12.7707,4.69132e-14,-2.54444e-14,-10.2118,7.29286,4.19649,127.751,-4.72186,-5.01646,37.4312,7.12502,20.7776,8.5236,4.69132e-14,-2.54444e-14,24.6036,21.6952,-22.895,30.6699,10.5768,-19.593,28.9314,7.12502,6.7327,58.8044,-0.067631,6.72031,-0.058542,35.8091,-13.4388,-2.81768,-24.5175,-25.8056,3.62569,0.734576,37.0484,-6.38672,1.50248,-45.7751
24.8446,16.6831,-5.92314,0.0183072,-1.13023,-1.13435,4.70761,-3.0448,-0.909485,-4.34285,-3.58893,9.71367,-6.56851,-1.47331,11.3952,8.88985,14.4771,17.524,-15.8324,19.0239,-31.4149,-0.799916,10.7119,-12.8814,-3.37934e-15,-5.725e-14,-10.1981,6.78774,4.65521,126.673,-5.13211,-4.74217,37.7708,7.12502,21.0411,8.89234,-3.37934e-15,-5.725e-14,26.9577,24.3648,-21.3668,28.591,9.01301,-22.9751,30.2973,7.12502,3.46714,60.2489,0.775638,6.98534,-0.0658042,35.7748,-12.9909,-2.39613,-24.6362,-26.5457,4.33724,0.432368,39.1903,-7.61586,0.862623,-46.7964
24.9605,16.649,-5.8187,-0.318641,-0.827084,-1.39634,4.79131,-3.19526,-1.45997,-4.34472,-3.83775,9.71417,-6.53529,-1.57327,11.7531,8.57702,14.4785,17.3116,-16.5624,18.8148,-31.1817,-1.05223,10.5942,-12.8127,1.98785e-14,3.18055e-14,-10.213,6.01082,5.13763,125.692,-5.49058,-3.9866,38.0846,7.12502,21.7668,9.28858,1.98785e-14,3.18055e-14,29.6011,27.48,-19.0037,27.2987,8.64631,-26.4661,32.4513,7.12502,0.0955379,62.431,1.56975,7.48935,-0.00330264,35.8117,-12.3501,-1.86935,-22.4651,-27.1591,4.74734,0.304983,41.2631,-8.87557,0.0514014,-46.4025
25.0707,16.6118,-5.71614,-0.54245,-0.71328,-1.66753,4.75661,-3.22195,-1.99847,-4.31096,-3.92754,9.66358,-6.42927,-1.60047,12.0184,8.23968,14.3679,17.1833,-17.444,18.4205,-31.144,-1.34975,10.3969,-12.8625,-3.57812e-14,1.27222e-14,-10.3471,4.97983,5.42886,124.73,-5.50671,-3.14842,38.316,7.12502,22.5715,9.61557,-3.57812e-14,1.27222e-14,32.9039,31.0936,-15.5232,26.7467,9.33634,-30.559,34.6331,7.12502,-3.85729,64.578,2.06755,8.21583,0.111315,35.925,-11.6719,-1.59483,-19.946,-27.7225,4.98409,0.333011,43.1799,-9.99567,-0.925608,-45.2903
25.1745,16.5736,-5.61502,-0.732578,-0.636131,-1.95471,4.85353,-3.26097,-2.4783,-4.40197,-4.02039,9.5605,-6.53975,-1.61836,12.2126,8.36939,14.1425,17.3731,-18.589,17.9053,-31.4455,-1.7499,10.1844,-13.1726,7.95139e-16,1.27222e-14,-10.3281,4.21291,5.5617,123.801,-5.58767,-2.69986,38.3887,7.12502,23.002,9.74121,7.95139e-16,1.27222e-14,37.2788,34.8969,-10.5651,26.52,9.83773,-35.0769,36.3786,7.12502,-8.21901,66.1987,2.49551,8.91546,0.265903,36.0764,-11.0406,-1.44007,-18.0338,-28.194,5.18945,0.452743,44.879,-11.0188,-1.94333,-44.2125
25.2765,16.5307,-5.51536,-1.00754,-0.526367,-2.44975,5.12441,-3.37166,-2.60607,-4.58413,-4.17361,9.42742,-6.86,-1.66953,12.1906,8.43737,14.0091,17.4748,-19.4232,17.5803,-31.3561,-2.0733,10.0263,-13.2779,-7.15625e-15,4.45278e-14,-10.1138,3.67231,5.57954,122.855,-5.85254,-2.31917,38.638,7.12502,23.3672,10.0365,-7.15625e-15,4.45278e-14,41.975,37.7398,-5.39654,26.7044,10.8179,-39.5401,38.958,7.12502,-12.5244,68.5626,3.02701,9.55357,0.68985,36.2215,-10.4022,-1.31322,-17.3917,-28.4636,5.29478,0.866217,46.364,-12.0192,-3.11051,-42.0439
25.3808,16.4884,-5.42084,-1.33516,-0.489583,-2.91243,5.38165,-3.46376,-2.62497,-4.70274,-4.30177,9.20707,-7.12226,-1.72109,11.9936,8.42397,13.9006,17.424,-20.2145,17.2745,-31.1392,-2.4012,9.86839,-13.3017,5.76476e-14,-6.36111e-15,-9.90376,2.9917,5.53675,121.941,-6.18392,-1.79478,38.995,7.12502,23.8702,10.4583,5.76476e-14,-6.36111e-15,45.9234,39.2504,-1.49043,27.4782,13.4719,-43.1428,42.6026,7.12502,-15.9959,71.9622,3.55406,10.2325,1.06733,36.3567,-9.70812,-1.22261,-17.5919,-28.5364,5.2447,1.27823,47.6896,-13.0851,-4.04248,-40.1969
25.483,16.4476,-5.32398,-1.64829,-0.537871,-3.24953,5.5546,-3.50269,-2.79153,-4.80368,-4.37676,8.97427,-7.32007,-1.74261,11.8575,8.66368,13.6633,17.4123,-21.178,16.776,-31.1962,-2.8305,9.65369,-13.5043,2.22639e-14,6.36111e-15,-9.62469,2.37728,5.63104,121.1,-6.73612,-1.43279,38.6586,7.12502,24.2173,10.1678,2.22639e-14,6.36111e-15,49.8125,40.2675,2.41238,28.5149,16.421,-45.1837,46.4475,7.12502,-17.9604,75.6382,4.05353,11.0294,1.31117,36.5105,-9.05421,-1.22994,-17.0972,-28.4814,5.24935,1.53962,48.8866,-14.2806,-4.57463,-40.4487
25.5805,16.3982,-5.22566,-1.79124,-0.616504,-3.81946,5.63869,-3.52835,-2.69235,-5.02654,-4.39982,8.81409,-7.6247,-1.74097,11.6457,8.37069,13.5015,17.2561,-21.4429,16.444,-30.8718,-2.99526,9.4516,-13.402,7.55382e-15,3.81667e-14,-9.18408,1.94079,5.61321,120.146,-7.2912,-0.81077,38.0512,7.12502,24.8136,9.64111,7.55382e-15,3.81667e-14,52.9266,40.5216,5.58957,30.1344,20.1317,-46.464,49.9642,7.12502,-19.192,79.0373,4.38256,11.8457,1.82575,36.6851,-8.35249,-1.27641,-17.6134,-28.5174,5.51487,2.04931,49.962,-15.5645,-5.37047,-40.2882
25.6765,16.3445,-5.13241,-1.88487,-0.696715,-4.26598,5.75833,-3.54401,-2.63078,-5.26969,-4.41633,8.5843,-7.97673,-1.73354,11.3825,7.18587,13.5141,16.8018,-20.9157,16.3792,-30.0193,-2.81075,9.2896,-12.8605,4.21423e-14,-9.54166e-15,-8.72417,1.42452,5.37376,119.1,-7.65767,0.0312915,37.8213,7.12502,25.6203,9.52485,4.21423e-14,-9.54166e-15,54.9605,40.2793,7.62401,32.4969,24.8438,-47.2771,51.6463,7.12502,-19.9737,80.6398,4.61599,12.6543,2.18311,36.8789,-7.43062,-1.23608,-17.2916,-28.5014,5.82802,2.38789,50.8932,-17.0126,-5.7911,-40.7316
25.7715,16.2961,-5.03777,-2.06025,-0.681891,-4.37845,5.80442,-3.56591,-2.90457,-5.39407,-4.49069,8.24556,-8.12789,-1.75378,11.179,5.97927,13.457,16.5223,-20.4586,16.2085,-29.4464,-2.61097,9.09015,-12.4738,-2.94201e-14,3.97569e-14,-8.24449,0.784931,5.18583,117.99,-8.21809,0.831342,37.7699,7.12502,26.3864,9.586,-2.94201e-14,3.97569e-14,56.5196,40.0245,9.1901,35.3105,29.762,-46.861,51.7499,7.12502,-19.5736,80.7846,4.94792,13.4092,2.17742,37.0889,-6.43088,-1.06768,-14.9656,-28.3114,5.97641,2.27987,51.6688,-18.4043,-5.85108,-40.9398
25.8605,16.2495,-4.94076,-2.21622,-0.536521,-4.41474,5.70625,-3.64443,-3.25521,-5.5489,-4.65353,7.86843,-8.20698,-1.81791,10.9732,5.50774,13.2702,16.4918,-20.4904,15.8758,-29.2082,-2.64733,8.87645,-12.3847,-2.42517e-14,7.63333e-14,-7.58761,0.21074,5.1065,116.816,-9.16198,1.62358,37.7405,7.12502,27.1445,9.67262,-2.42517e-14,7.63333e-14,57.4396,39.5095,10.1067,38.5511,34.6572,-45.5941,50.9762,7.12502,-18.3553,80.1302,5.34823,13.9776,2.09017,37.2699,-5.71773,-0.69972,-15.3245,-28.127,6.01514,2.01528,52.3668,-19.9041,-5.76728,-40.5033
25.9442,16.2051,-4.85032,-2.33757,-0.418962,-4.65713,5.65342,-3.70373,-3.30902,-5.7769,-4.75697,7.49761,-8.42752,-1.86013,10.608,5.3138,13.078,16.3125,-20.6562,15.5478,-28.8016,-2.80495,8.68195,-12.2527,-2.22639e-14,3.18055e-15,-6.91971,-0.305452,4.92428,115.64,-10.2034,2.69964,37.6025,7.12502,28.1735,9.69961,-2.22639e-14,3.18055e-15,57.9881,38.7649,10.712,42.1374,39.1441,-44.2142,48.9966,7.12502,-17.0274,78.2703,5.71434,14.5486,2.26509,37.3918,-5.15521,-0.383349,-16.3337,-27.9644,6.04949,1.96218,53.0729,-21.3685,-5.65964,-39.7734
26.0227,16.171,-4.76766,-2.3972,-0.293237,-5.25457,5.69796,-3.70908,-2.99013,-6.03152,-4.74298,7.20451,-8.78143,-1.85773,10.1178,4.72723,12.8796,15.961,-20.5595,15.2026,-28.2123,-2.85952,8.44961,-11.9721,-2.10712e-14,5.24792e-14,-6.38437,-0.788692,4.62821,114.4,-11.1263,4.32692,37.436,7.12502,29.7278,9.79979,-2.10712e-14,5.24792e-14,58.5654,38.0222,11.4033,45.7753,43.0695,-42.3286,46.9807,7.12502,-15.2117,76.4014,5.97501,15.1282,2.91887,37.5075,-4.45027,-0.272338,-14.9969,-28.0277,6.05153,2.35487,53.8834,-22.3683,-5.60701,-39.4329
26.0947,16.139,-4.68834,-2.40818,-0.00943305,-5.8825,5.87499,-3.72251,-2.72882,-6.3822,-4.73898,6.96721,-9.31212,-1.84424,9.75216,4.03012,12.6027,15.6953,-20.2226,14.7691,-27.8036,-2.81196,8.17276,-11.7485,-1.80894e-14,7.95139e-15,-5.83452,-1.15484,4.50733,112.992,-12.0505,5.91086,37.382,7.12502,31.2384,10.0262,-1.80894e-14,7.95139e-15,58.8742,37.1282,11.9527,49.4162,46.515,-40.0817,45.6256,7.12502,-13.0465,75.1976,6.20109,15.5176,3.61547,37.6785,-3.62181,-0.0641552,-13.3867,-28.3822,5.89967,2.83311,54.8303,-22.9606,-5.59726,-39.2948
26.1636,16.1056,-4.61273,-2.43228,0.340985,-6.28254,6.00152,-3.74779,-2.72719,-6.67153,-4.78566,6.69252,-9.72168,-1.84901,9.48997,3.32229,12.2808,15.57,-19.8787,14.2706,-27.6155,-2.73293,7.87082,-11.6297,1.98785e-15,-1.90833e-14,-5.16947,-1.73414,4.45641,111.391,-12.9314,7.38931,37.5625,7.12502,32.6462,10.4883,1.98785e-15,-1.90833e-14,58.7993,36.2626,12.0439,52.9434,49.493,-38.114,44.1793,7.12502,-11.1492,73.8631,6.42178,15.8836,4.05899,37.8793,-2.79261,0.188485,-12.6202,-28.7992,5.67164,3.07689,55.8267,-23.5279,-5.60024,-39.1604
26.2278,16.0748,-4.53941,-2.47002,0.624902,-6.67283,5.953,-3.77188,-2.72068,-6.83003,-4.83742,6.39557,-9.88279,-1.87545,9.16864,2.40169,12.0187,15.4054,-19.496,13.8462,-27.3245,-2.6028,7.58798,-11.4415,-1.61016e-14,-1.66979e-14,-4.47531,-2.49612,4.26067,109.753,-13.6406,9.03207,37.8687,7.12502,34.2077,11.1313,-1.61016e-14,-1.66979e-14,58.5089,35.5934,11.6683,56.2358,52.0501,-36.1979,42.7684,7.12502,-9.30073,72.5433,6.60922,16.3189,4.56392,38.1144,-1.99343,0.31514,-12.651,-29.1709,5.4531,3.34545,56.8069,-24.181,-5.65021,-39.2761
26.2884,16.0486,-4.46496,-2.56185,0.904714,-7.112,6.02505,-3.78471,-2.57428,-7.04797,-4.8624,6.03806,-10.2038,-1.89244,8.71681,1.86249,11.7176,15.2703,-19.3631,13.3847,-26.9739,-2.62093,7.30968,-11.2947,-1.98785e-15,-1.11319e-14,-3.94548,-2.90379,4.08548,108.15,-14.3683,10.4253,38.025,7.12502,35.5297,11.5943,-1.98785e-15,-1.11319e-14,58.055,34.7611,11.0188,59.3989,53.9207,-34.0627,41.4548,7.12502,-7.24013,71.311,6.83356,16.5932,5.13491,38.4193,-1.04476,0.510203,-12.5466,-29.4359,5.14278,3.66952,57.7105,-24.7619,-5.64168,-39.5237
26.3471,16.0265,-4.39516,-2.63818,1.17274,-7.52451,6.0953,-3.73401,-2.46964,-7.20247,-4.80895,5.67559,-10.4635,-1.87405,8.26895,0.780413,11.4919,14.6437,-18.9258,13.0423,-25.9699,-2.54095,7.04476,-10.77,-3.43897e-14,3.02153e-14,-3.50946,-3.3651,4.13405,106.423,-15.2556,11.7067,38.1696,7.12502,36.7433,12.0392,-3.43897e-14,3.02153e-14,57.6578,34.0484,10.4368,62.5012,55.1321,-31.9126,40.2444,7.12502,-5.16435,70.1614,6.90967,16.662,5.59692,38.802,-0.0238268,0.762488,-11.7804,-29.6842,4.8309,3.94485,58.5507,-25.3023,-5.58205,-39.6265
26.4042,16.0048,-4.33328,-2.52644,1.29676,-7.89024,5.87167,-3.5816,-2.45647,-7.22008,-4.62857,5.34117,-10.4013,-1.80584,7.8458,0.363023,11.1722,14.1953,-19.7127,12.4348,-25.4765,-2.90466,6.73522,-10.61,-1.45113e-14,1.39149e-14,-3.07971,-4.16034,4.29564,104.528,-16.1492,13.1269,38.4128,7.12502,38.0857,12.6369,-1.45113e-14,1.39149e-14,57.3341,33.6233,9.73854,65.4212,56.0889,-30.2044,39.2772,7.12502,-3.51486,69.228,6.62716,16.688,5.88321,39.2476,0.751666,0.935639,-9.0533,-30.0421,4.60658,4.16695,59.3445,-25.7717,-5.42526,-39.6496
26.4588,15.9832,-4.2752,-2.29352,1.34257,-8.34351,5.62227,-3.42174,-2.25431,-7.34477,-4.41851,4.96954,-10.4618,-1.73201,7.28049,0.061287,10.8455,13.9229,-20.3436,11.8681,-25.0543,-3.21173,6.44333,-10.4947,2.97183e-14,-1.41137e-14,-2.57974,-4.73978,4.29079,102.42,-16.7055,14.3269,38.5909,7.12502,39.2177,13.1336,2.97183e-14,-1.41137e-14,56.5931,33.0044,8.22982,68.2524,56.9027,-29.1139,38.2648,7.12502,-2.46173,68.2303,6.14901,16.6005,6.16989,39.7552,1.50018,0.968729,-6.01411,-30.492,4.46712,4.49448,60.072,-26.1243,-5.24236,-39.6446
26.5087,15.9643,-4.21608,-2.16837,1.43452,-8.87206,5.52658,-3.34622,-1.92283,-7.57027,-4.31014,4.57956,-10.7219,-1.70934,6.66025,3.25404,9.9927,15.2064,-23.9768,10.3785,-26.8119,-4.89581,5.97217,-11.9991,2.03506e-14,-1.03368e-14,-1.81782,-5.01377,4.09018,100.114,-17.2021,15.4342,38.5312,7.12502,40.2602,13.3842,2.03506e-14,-1.03368e-14,55.387,32.2302,6.19835,71.2137,57.4088,-28.3322,37.3553,7.12502,-1.70679,67.3282,5.77116,16.3761,6.5877,40.3334,2.32449,0.759976,-5.55164,-30.799,4.32474,4.93367,60.7046,-26.587,-5.14399,-39.6953
26.5551,15.9513,-4.15651,-2.16866,1.65015,-9.0542,5.48614,-3.31157,-1.94081,-7.73122,-4.30672,4.09519,-10.9117,-1.71962,6.14833,2.2728,9.92852,14.7711,-23.1207,10.402,-25.695,-4.59643,5.86897,-11.3627,-5.03919e-14,1.88845e-14,-0.999231,-5.23665,3.87732,97.7964,-17.9449,16.4639,38.4095,7.12502,41.2278,13.566,-5.03919e-14,1.88845e-14,54.3031,31.523,4.45611,74.1386,57.3019,-27.5916,36.5984,7.12502,-0.991475,66.5759,5.58572,16.0552,6.69803,40.9268,2.94019,0.470358,-4.9515,-30.8979,4.03154,4.97947,61.198,-27.0486,-4.99902,-39.63
26.5967,15.9409,-4.1062,-2.19413,1.87812,-8.9324,5.53184,-3.21887,-2.33871,-7.80494,-4.27604,3.54299,-11.038,-1.69277,5.77417,1.94762,9.57264,14.9432,-23.2984,9.86018,-25.5888,-4.70635,5.56804,-11.3857,-3.8763e-15,-1.15295e-14,-0.382012,-5.51963,3.74253,95.469,-18.4318,17.017,38.4498,7.12502,41.7467,13.7755,-3.8763e-15,-1.15295e-14,53.4811,30.8979,3.00212,76.9819,56.8804,-27.3819,35.9981,7.12502,-0.788919,65.9764,5.39287,15.6134,6.41742,41.5425,3.44569,0.225022,-3.03244,-30.9489,3.72693,4.68261,61.5882,-27.3405,-4.85808,-39.3239
26.6339,15.9327,-4.05952,-2.19557,1.96016,-8.98841,5.61074,-3.05718,-2.59832,-7.89402,-4.13276,3.05824,-11.2198,-1.61714,5.38499,1.72826,9.18756,15.0858,-23.5575,9.27281,-25.5058,-4.87092,5.25574,-11.4295,4.47266e-14,1.82882e-14,0.167984,-5.75459,3.77483,93.0553,-18.7587,17.3506,38.3976,7.12502,42.0594,13.8275,4.47266e-14,1.82882e-14,52.8105,30.1434,1.82361,79.8012,56.1912,-27.5471,35.5025,7.12502,-0.948512,65.4801,5.07854,15.241,6.33393,42.1841,3.9033,-0.0202183,-2.53932,-30.968,3.54037,4.62086,61.9208,-27.6311,-4.77802,-39.3154
26.6676,15.9243,-4.01167,-2.20517,2.09764,-9.34161,5.65266,-2.91272,-2.53388,-7.87525,-3.96737,2.66847,-11.2713,-1.56055,4.90394,1.37964,8.89067,14.9329,-23.8739,8.8024,-25.1492,-5.04727,4.99825,-11.3073,-6.16232e-15,-2.38542e-15,0.787319,-6.19218,4.00189,90.5483,-19.3572,17.8293,38.1036,7.12502,42.5078,13.686,-6.16232e-15,-2.38542e-15,52.1303,29.6195,0.733868,82.6245,55.3145,-27.5686,35.0688,7.12502,-0.969267,65.0463,4.8021,14.942,6.72123,42.8367,4.27676,-0.281936,-2.2788,-31.0162,3.39053,4.91197,62.2293,-27.9422,-4.77782,-39.6283
26.7018,15.9174,-3.97057,-2.28588,2.40177,-9.551,5.83074,-2.81106,-2.52836,-7.7154,-3.87541,2.20784,-11.2371,-1.54272,4.3916,0.732705,8.63578,14.6327,-24.4204,8.32605,-24.723,-5.2537,4.7328,-11.1323,2.78299e-15,3.4191e-14,1.43227,-6.85952,4.0978,87.8976,-19.745,18.144,37.9041,7.12502,42.8024,13.5887,2.78299e-15,3.4191e-14,51.3212,29.5532,-0.606748,85.4209,54.8655,-27.5476,35.0031,7.12502,-0.949017,64.9808,4.69663,14.436,6.95599,43.4744,4.72965,-0.493342,-0.0477879,-31.0472,3.11956,5.00699,62.497,-28.2668,-4.78076,-40.0479
26.7349,15.9157,-3.93454,-2.36455,2.76128,-9.60682,6.13474,-2.72993,-2.54991,-7.71489,-3.83189,1.62213,-11.4635,-1.54134,3.78454,0.75129,8.24258,14.4786,-25.3178,7.70596,-24.2977,-5.71081,4.42212,-11.0666,-7.95139e-15,3.26007e-14,2.05427,-7.2434,3.99025,85.1794,-19.7013,18.2427,37.7332,7.12502,42.8946,13.4502,-7.95139e-15,3.26007e-14,50.555,29.1808,-2.0323,88.1537,54.6529,-27.5557,35.1531,7.12502,-0.956781,65.1307,4.61911,13.7174,6.95016,44.093,5.1083,-0.687994,1.59018,-31.0736,2.71267,4.91274,62.7152,-28.5557,-4.70132,-40.0005
26.7622,15.921,-3.89859,-2.38881,3.11197,-9.74688,6.49808,-2.63467,-2.51387,-7.8995,-3.76509,1.08496,-11.9415,-1.52274,3.20583,1.06323,7.80459,14.4323,-26.0005,7.09914,-23.8979,-6.1468,4.12166,-11.0248,3.4191e-14,-1.11319e-14,2.67461,-7.34657,4.04274,82.462,-19.5961,18.3237,37.2979,7.12502,42.9704,13.0415,3.4191e-14,-1.11319e-14,49.7899,28.3891,-3.32132,90.9841,54.2853,-27.5653,35.2786,7.12502,-0.966073,65.2561,4.4516,13.0082,7.05443,44.724,5.26677,-1.08005,4.26902,-31.1693,2.28492,4.9275,62.8926,-28.6912,-4.59214,-39.2238
26.7869,15.9243,-3.86373,-2.47335,3.36258,-10.0793,6.91013,-2.52055,-2.27318,-7.9565,-3.6432,0.604104,-12.3159,-1.49999,2.55852,0.576458,7.45655,14.5516,-26.0794,6.58899,-23.6784,-6.20309,3.82659,-10.965,-4.77083e-15,1.59028e-14,3.27825,-7.58955,4.17636,79.6278,-19.4918,18.2701,36.9395,7.12502,42.9203,12.6655,-4.77083e-15,1.59028e-14,49.0934,27.8438,-4.3289,93.7252,54.0174,-27.5088,35.129,7.12502,-0.911481,65.1068,4.26647,12.3741,7.39027,45.367,5.23604,-1.63684,6.56743,-31.19,2.03761,5.20037,63.0594,-28.8504,-4.59828,-38.9345
26.8099,15.9168,-3.83342,-2.61911,3.4849,-10.5231,7.18321,-2.39646,-1.78551,-7.77516,-3.47531,0.045965,-12.3487,-1.49476,1.6615,-0.52204,7.17718,14.8714,-25.8882,6.13832,-23.5311,-6.03496,3.51925,-10.9071,-2.5842e-14,-3.49861e-14,3.75985,-8.1932,4.1266,76.6635,-19.1436,17.9562,36.8549,7.12502,42.6266,12.4783,-2.5842e-14,-3.49861e-14,48.6497,27.7133,-5.17157,96.1736,54.1436,-27.3813,34.935,7.12502,-0.788314,64.9133,4.05114,11.7859,7.82269,46.0227,4.82557,-2.1527,4.52333,-31.131,1.93633,5.63977,63.2312,-29.0882,-4.7165,-39.1427
26.8322,15.9119,-3.80417,-2.66319,3.68667,-10.73,7.28591,-2.28819,-1.46673,-7.59503,-3.35326,-0.583649,-12.2681,-1.50215,0.779931,-1.4685,6.96871,14.8889,-25.8404,5.80656,-23.1366,-5.94781,3.28673,-10.7223,-3.93594e-14,-2.38542e-14,4.2589,-8.94472,3.97146,73.605,-18.4403,17.4795,36.7529,7.12502,42.1802,12.2235,-3.93594e-14,-2.38542e-14,48.2056,27.6056,-6.03029,98.58,54.5353,-27.0534,35.4822,7.12502,-0.471631,65.4614,3.79681,11.0915,7.93581,46.6743,4.46153,-2.45098,3.43893,-31.1811,1.69437,5.7743,63.3723,-29.2154,-4.7582,-38.9593
26.8521,15.9128,-3.7724,-2.59757,4.04309,-10.7679,7.32462,-2.21181,-1.30808,-7.55874,-3.294,-1.18666,-12.3011,-1.52117,0.0281675,-2.36218,6.81701,14.5045,-25.5363,5.59664,-22.5991,-5.79056,3.14016,-10.3894,-2.66371e-14,0,4.90441,-9.40328,3.96156,70.5223,-17.8377,16.9028,36.2136,7.12502,41.6396,11.5039,-2.66371e-14,0,47.541,27.3068,-6.89057,101.066,55.0536,-26.4464,36.3969,7.12502,0.114582,66.3766,3.54437,10.2806,7.85725,47.3172,4.1823,-2.65445,4.44145,-31.3667,1.32437,5.6961,63.5009,-29.2728,-4.68206,-38.8415
26.8658,15.9161,-3.74307,-2.50299,4.28201,-10.7127,7.41256,-2.05051,-1.23448,-7.57116,-3.13994,-1.84237,-12.4187,-1.49009,-0.749174,-3.47458,6.67186,14.192,-24.8807,5.42678,-22.0522,-5.47408,2.99484,-10.0336,-7.15625e-15,4.77083e-15,5.49408,-9.78603,4.03656,67.3313,-17.2353,16.0408,35.6226,7.12502,40.8304,10.6526,-7.15625e-15,4.77083e-15,46.9398,27.019,-7.76227,103.459,55.8576,-25.9727,36.6501,7.12502,0.572084,66.6291,3.20574,9.64961,7.70879,47.9372,3.46428,-2.99609,4.37628,-31.5094,1.07962,5.54984,63.5989,-29.3751,-4.59875,-39.0087
26.8732,15.9171,-3.7199,-2.41627,4.42589,-10.6336,7.51373,-1.85088,-1.22944,-7.48792,-2.94349,-2.52274,-12.4281,-1.43572,-1.52623,-4.59054,6.5763,13.6871,-24.5824,5.33928,-21.1787,-5.28392,2.88978,-9.56014,2.06736e-14,-1.27222e-14,6.13033,-10.6503,3.95969,63.7979,-16.2289,14.4981,35.3101,7.12502,39.379,9.89968,2.06736e-14,-1.27222e-14,46.344,26.9537,-8.71364,105.739,56.8462,-25.6605,36.4692,7.12502,0.873637,66.4471,2.80855,9.06952,7.51678,48.5001,2.95684,-3.32277,5.22532,-31.6139,0.927184,5.41705,63.6556,-29.4583,-4.58153,-38.9407
26.882,15.9183,-3.69532,-2.30173,4.62983,-10.5842,7.45809,-1.70293,-1.2155,-7.35245,-2.79641,-3.09791,-12.272,-1.40011,-2.19008,-2.39853,5.46345,13.8443,-27.9381,3.68529,-21.0159,-7.07613,2.18906,-9.94334,-1.19271e-14,2.8625e-14,7.00168,-11.8204,3.84866,60.0941,-15.0005,13.4341,34.9235,7.12502,38.3757,9.22754,-1.19271e-14,2.8625e-14,45.6157,26.8001,-9.43788,107.881,57.4129,-25.1501,36.3357,7.12502,1.36662,66.3111,2.49748,8.47758,7.34875,48.9583,2.78757,-3.55023,6.30936,-31.7468,0.701045,5.30539,63.6742,-29.4342,-4.55653,-38.7304
26.895,15.927,-3.66676,-2.25965,4.82917,-10.5029,7.47199,-1.54079,-1.19796,-7.26861,-2.62718,-3.61673,-12.2119,-1.35026,-2.79762,-2.95131,5.18947,13.7742,-27.8492,3.29187,-20.8079,-7.03997,1.9735,-9.82848,3.33958e-14,3.49861e-14,7.94102,-12.8212,3.86509,56.5031,-13.9098,13.7542,34.4209,7.12502,38.6777,8.80928,3.33958e-14,3.49861e-14,44.8939,26.3514,-9.91899,109.892,57.5908,-24.5714,36.1889,7.12502,1.92553,66.16,2.40861,8.20219,7.2557,49.2543,2.25248,-3.99444,7.06212,-31.7293,0.415899,5.12239,63.6505,-29.4333,-4.49979,-38.4519
26.9036,15.9313,-3.64383,-2.22753,5.11499,-10.5699,7.57657,-1.4167,-1.04022,-7.25497,-2.49154,-4.07908,-12.291,-1.32628,-3.41796,-6.10275,5.82412,12.6308,-24.8157,4.34731,-19.7779,-5.40679,2.36299,-8.86513,-1.35174e-14,-2.54444e-14,8.8878,-13.5715,3.9243,52.9637,-12.9522,13.3422,33.6451,7.12502,38.2889,7.9251,-1.35174e-14,-2.54444e-14,44.0151,25.7919,-10.5095,111.926,57.8581,-24.3695,36.1332,7.12502,2.12051,66.1024,2.36938,7.98761,7.40655,49.4013,1.38209,-4.64275,7.55477,-31.8224,0.103394,5.13272,63.6544,-29.4598,-4.50813,-38.1481
26.9082,15.9278,-3.6272,-2.1324,5.43257,-10.7319,7.65277,-1.30795,-0.755283,-7.27336,-2.35519,-4.49382,-12.3903,-1.31191,-4.06246,-6.06945,5.54882,12.373,-25.0837,4.00241,-19.4513,-5.58459,2.20814,-8.73205,-4.77083e-15,1.59028e-14,9.95283,-14.645,3.76246,49.2501,-11.427,11.9731,32.9238,7.12502,36.9952,6.85809,-4.77083e-15,1.59028e-14,43.068,25.1995,-11.0006,113.885,58.1883,-24.6042,36.0673,7.12502,1.89387,66.0386,2.23754,7.70912,7.65334,49.4518,0.502358,-5.19756,6.20757,-32.0862,-0.158601,5.2897,63.7001,-29.52,-4.5437,-38.3201
26.9118,15.9253,-3.61381,-2.09263,5.60782,-10.6843,7.81872,-1.12183,-0.620582,-7.21784,-2.14261,-4.99169,-12.449,-1.25252,-4.72995,-6.97249,5.25922,11.8128,-24.5696,3.69612,-18.7737,-5.37639,2.02854,-8.33799,-1.59028e-15,-3.49861e-14,10.9774,-16.1308,3.4644,45.5465,-9.75693,10.7076,32.005,7.12502,35.7972,5.6389,-1.59028e-15,-3.49861e-14,42.3464,24.792,-11.2546,115.749,58.7335,-24.2645,35.998,7.12502,2.2219,65.9661,2.13808,7.62925,7.66966,49.445,-0.282344,-5.65454,5.01923,-32.1908,-0.371252,5.21672,63.7471,-29.6758,-4.52901,-38.598
26.9122,15.9226,-3.59923,-1.94384,5.83106,-10.4225,7.83507,-0.945754,-0.706918,-7.08958,-1.97261,-5.58043,-12.3277,-1.19609,-5.36577,-8.30587,5.06946,11.313,-23.9264,3.51621,-18.0731,-5.03443,1.88696,-7.93428,7.15625e-15,-3.18055e-15,12.051,-18.045,2.87849,41.9183,-7.8751,9.3192,30.9556,7.12502,34.4803,4.27976,7.15625e-15,-3.18055e-15,41.7555,24.4849,-11.5795,117.453,59.1733,-23.5832,35.5521,7.12502,2.87988,65.5124,2.0093,7.54815,7.43224,49.3878,-1.1281,-6.28507,5.73934,-32.386,-0.626564,4.89223,63.7724,-29.7508,-4.54946,-38.5009
26.9134,15.9208,-3.58065,-1.72296,6.10171,-10.1915,7.76349,-0.793075,-0.702187,-7.01143,-1.81793,-6.1529,-12.212,-1.15434,-6.03643,-9.98115,4.80878,9.54683,-22.9981,3.53344,-15.8877,-4.62965,1.85194,-6.78966,2.54444e-14,3.18055e-15,13.4613,-20.6784,1.69494,38.2058,-4.9287,8.04248,30.3646,7.12502,33.2674,3.4212,2.54444e-14,3.18055e-15,41.0277,23.9512,-12.1811,119.013,59.1515,-23.3519,34.9524,7.12502,3.10329,64.9096,1.86559,7.43328,7.22077,49.2426,-2.05946,-7.37062,7.66244,-32.6397,-0.860109,4.59906,63.7879,-29.8469,-4.54265,-38.1976
26.9143,15.9216,-3.56168,-1.58044,6.25413,-10.1075,7.80114,-0.599344,-0.527751,-7.02627,-1.5829,-6.60985,-12.2584,-1.0866,-6.69886,-11.8138,4.28238,5.06495,-21.9044,3.86845,-10.6115,-4.31799,2.05055,-4.21254,-7.95139e-16,-2.22639e-14,14.9365,-23.5726,0.532858,34.7458,-1.78069,6.89847,29.4772,7.12502,32.179,2.30734,-7.95139e-16,-2.22639e-14,40.1685,23.3495,-12.7753,120.595,59.1262,-22.79,35.0414,7.12502,3.64591,64.9899,1.77756,7.50477,7.21219,48.9907,-2.82345,-8.74823,7.90436,-32.7655,-0.979514,4.49595,63.8244,-30.0542,-4.47765,-37.7833
26.9115,15.9219,-3.54096,-1.42338,6.48606,-10.1023,7.87586,-0.394927,-0.358253,-7.2555,-1.33183,-6.90846,-12.5617,-1.01156,-7.1996,-11.4422,4.05421,5.40329,-21.8471,3.4323,-11.5238,-4.34712,1.86448,-4.5724,-1.82882e-14,9.54166e-15,16.2075,-26.0433,-0.174567,31.8736,0.864843,5.66565,28.0667,7.12502,31.0047,0.666129,-1.82882e-14,9.54166e-15,39.4652,22.348,-12.9272,122.021,58.9591,-22.0856,35.1014,7.12502,4.32609,65.0372,1.77392,7.61092,7.32174,48.643,-3.67589,-9.94114,7.27076,-32.9897,-1.09599,4.49383,63.8919,-30.2083,-4.48486,-37.4069
26.9103,15.9174,-3.52222,-1.22343,6.84577,-10.1455,7.90885,-0.249686,-0.0459164,-7.51366,-1.14598,-7.25222,-12.8867,-0.988398,-7.83042,-10.53,3.7621,6.3496,-22.1534,2.80315,-12.8728,-4.5677,1.58315,-5.20431,-7.95139e-16,-1.59028e-14,17.4719,-28.6205,-1.23031,29.4729,3.44952,4.26079,26.379,7.12502,29.6647,-1.26851,-7.95139e-16,-1.59028e-14,38.8095,21.1752,-13.2182,123.355,58.6034,-21.9471,34.8541,7.12502,4.45981,64.7871,1.79186,7.59031,7.45664,48.228,-4.72073,-10.8625,7.39067,-33.3697,-1.26645,4.54088,64.001,-30.2995,-4.56773,-37.1999
26.9086,15.9125,-3.50877,-0.971368,7.1826,-10.2897,7.77377,-0.14712,0.38865,-7.55429,-0.980697,-7.60421,-12.8558,-0.974503,-8.52298,-10.6031,3.6002,6.97578,-22.1152,2.46378,-13.5204,-4.5423,1.4036,-5.52676,0,7.63333e-14,19.1835,-32.307,-3.10599,27.3342,6.59609,2.85819,24.6988,7.12502,28.325,-3.17903,0,7.63333e-14,37.9799,20.3551,-13.9162,124.683,58.3687,-22.1639,34.5324,7.12502,4.25046,64.4698,1.66026,7.56013,7.70997,47.7556,-5.25093,-11.786,6.22945,-33.8281,-1.35575,4.71811,64.1104,-30.4531,-4.70575,-37.1804
26.9001,15.9136,-3.49414,-0.673491,7.52351,-10.3845,7.56567,0.00718178,0.564779,-7.5609,-0.75873,-7.80862,-12.712,-0.89306,-8.89803,-11.3133,3.45161,6.76214,-21.5612,2.30903,-13.4817,-4.28138,1.315,-5.44978,-3.97569e-14,7.63333e-14,20.8114,-35.8362,-4.64495,25.7722,9.15959,1.11624,22.708,7.12502,26.6591,-5.43475,-3.97569e-14,7.63333e-14,37.304,19.4241,-14.2271,125.746,57.9876,-22.1146,34.2988,7.12502,4.29814,64.2352,1.47011,7.56187,7.95051,47.211,-5.34406,-12.5799,4.78892,-34.2836,-1.39555,4.86289,64.1732,-30.5869,-4.8175,-37.0125
26.887,15.9081,-3.4773,-0.354175,7.90868,-10.2593,7.38091,0.188614,0.497697,-7.61724,-0.542748,-8.07685,-12.6371,-0.798617,-9.20748,-11.9701,3.25015,6.56956,-20.8424,2.11113,-13.3814,-3.9853,1.19772,-5.35528,1.98785e-14,-7.31528e-14,21.9318,-38.4947,-5.72066,24.7925,10.3866,-1.34279,20.1995,7.12502,24.3036,-8.27984,1.98785e-14,-7.31528e-14,36.9032,18.6169,-14.3483,126.732,57.7387,-21.6722,34.5569,7.12502,4.72532,64.4842,1.41291,7.55604,7.92229,46.5613,-5.62276,-13.1307,2.89092,-34.7679,-1.47233,4.76639,64.2268,-30.5613,-4.89579,-36.5992
26.8768,15.9003,-3.45936,0.00308365,8.37504,-9.92981,7.22402,0.321907,0.358177,-7.71899,-0.415732,-8.44636,-12.6506,-0.751427,-9.58333,-12.1891,3.05586,6.24475,-20.5196,1.96429,-12.9339,-3.88785,1.12317,-5.14441,-6.36111e-15,0,23.4414,-41.2209,-7.47839,24.0315,11.1992,-4.07797,17.8363,7.12502,21.6791,-10.9699,-6.36111e-15,0,36.5823,18.0334,-14.6472,127.719,57.9539,-21.3425,34.5898,7.12502,5.04364,64.5098,1.53431,7.52477,7.64574,45.7844,-6.14803,-13.8032,-0.0918112,-35.3241,-1.64865,4.41837,64.2955,-30.5065,-5.02189,-36.21
26.8698,15.8956,-3.44227,0.238056,8.93707,-9.76733,7.03979,0.393353,0.441472,-7.59929,-0.317438,-8.73402,-12.3915,-0.716783,-9.9694,-12.7152,2.9097,5.78715,-20.3949,1.87102,-12.4728,-3.80132,1.08091,-4.91017,1.35174e-14,-8.26944e-14,25.36,-44.141,-9.57589,23.5729,11.479,-7.18303,15.6183,7.12502,18.6948,-13.5033,1.35174e-14,-8.26944e-14,36.2468,17.4393,-14.9355,128.372,57.6692,-21.1769,34.22,7.12502,5.20358,64.1361,1.84145,7.51264,7.59822,44.9187,-6.72162,-14.4963,-1.07996,-35.8268,-1.88219,4.24754,64.3935,-30.5267,-5.25821,-35.9126
26.8585,15.8818,-3.42733,0.265148,9.50193,-9.92414,6.85662,0.436324,0.790943,-7.22856,-0.191335,-8.86919,-11.8327,-0.662215,-10.3152,-14.0318,2.83224,5.58855,-19.9708,1.80779,-12.3671,-3.4871,1.0196,-4.82202,-8.74653e-15,-1.90833e-14,27.1096,-46.5754,-11.2039,23.4939,10.854,-10.8316,13.4031,7.12502,15.1828,-16.0199,-8.74653e-15,-1.90833e-14,35.6884,17.0895,-15.261,128.947,57.1564,-20.9087,33.9911,7.12502,5.46252,63.9007,2.27149,7.62806,7.93779,44.0298,-7.12175,-14.7564,-0.753861,-36.2129,-2.04991,4.45628,64.5304,-30.6175,-5.55976,-35.7645
26.8464,15.8668,-3.41092,0.300911,10.0344,-9.95257,6.77151,0.460419,0.982709,-6.90541,-0.118302,-8.98986,-11.3995,-0.622543,-10.5511,-15.309,2.84146,5.50105,-19.5416,1.84924,-12.2959,-3.16906,1.00308,-4.76442,-8.74653e-15,5.40694e-14,28.6071,-48.1444,-12.4541,23.7045,9.2506,-14.7819,11.2957,7.12502,11.3751,-18.3758,-8.74653e-15,5.40694e-14,34.9566,16.968,-15.7751,129.66,57.1305,-20.6424,33.89,7.12502,5.71962,63.7928,2.77263,7.74615,8.11497,43.1783,-7.54611,-14.5964,-0.410266,-36.564,-2.24466,4.52821,64.6585,-30.7271,-5.7604,-35.8033
26.8356,15.8552,-3.396,0.463139,10.5596,-9.87023,6.69447,0.547187,1.09065,-7.15174,-0.00868182,-9.10971,-11.6208,-0.601853,-10.7943,-13.8686,2.68059,5.41908,-20.0764,1.66592,-12.1442,-3.56617,0.970698,-4.72903,3.18055e-15,3.18055e-15,28.8914,-47.846,-12.5412,24.3389,6.65354,-18.8134,9.65745,7.12502,7.48525,-20.1901,3.18055e-15,3.18055e-15,34.6374,15.9832,-16.2689,130.304,56.9538,-20.1381,34.0257,7.12502,6.20651,63.9147,3.13171,7.83287,8.15683,42.4056,-8.00113,-14.4616,0.0370599,-37.037,-2.37437,4.48668,64.7844,-30.8031,-6.01701,-35.8369
26.8221,15.848,-3.38285,0.712784,11.1224,-9.77669,6.62942,0.353626,1.02673,-6.94898,-0.252223,-9.00043,-11.3907,-0.691039,-10.5658,-15.6435,2.82158,4.55925,-19.4344,2.03428,-11.5351,-3.1117,1.12874,-4.35004,-2.14687e-14,1.04958e-13,30.9509,-48.6218,-14.1402,24.9719,4.75163,-22.7751,8.8075,7.12502,3.66026,-21.1408,-2.14687e-14,1.04958e-13,33.4803,15.8236,-17.0362,130.631,56.4142,-19.1338,34.2728,7.12502,7.176,64.1311,3.23104,7.93966,8.197,41.7119,-8.80345,-15.0122,-1.60286,-37.6132,-2.47442,4.44438,64.9046,-30.8638,-6.35145,-35.5223
26.808,15.8388,-3.37095,1.01388,11.701,-9.51498,6.43974,0.439777,0.849511,-7.09279,-0.161059,-9.07293,-11.4223,-0.63905,-10.5621,-15.1578,2.67825,4.44749,-19.3118,1.90566,-11.3319,-3.16211,1.07946,-4.26994,1.74931e-14,-1.27222e-14,30.4109,-47.8766,-13.1176,26.1152,1.62038,-26.5682,8.37867,7.12502,-0.00308253,-21.6011,1.74931e-14,-1.27222e-14,33.3546,15.1585,-17.2691,130.906,56.1585,-18.3915,34.4975,7.12502,7.89253,64.3302,3.3914,7.9223,8.012,41.1207,-9.73186,-15.3932,-1.8984,-38.1954,-2.68372,4.20747,65.028,-30.9022,-6.56974,-34.9678
26.7967,15.8232,-3.35926,1.23368,12.2321,-9.38622,6.13546,0.437072,0.814304,-6.98776,-0.142214,-9.03563,-11.1094,-0.606406,-10.4736,-15.6222,2.7513,4.47539,-19.0213,2.01035,-11.4159,-2.9949,1.11371,-4.28902,2.3059e-14,-1.74931e-13,30.1373,-47.3227,-12.2628,27.5889,-1.70556,-29.7133,8.44324,7.12502,-3.04057,-21.5148,2.3059e-14,-1.74931e-13,32.8643,14.9328,-17.5988,131.157,55.9629,-17.9592,34.3501,7.12502,8.30967,64.1667,3.76985,7.81826,7.95775,40.6526,-8.93396,-14.2005,5.56949,-38.7419,-2.86458,4.10996,65.2001,-30.9411,-6.82985,-34.5674
26.7846,15.8081,-3.34766,1.28032,12.7973,-9.50079,5.91801,0.40211,1.09539,-6.80742,-0.127003,-8.94832,-10.768,-0.596882,-10.5146,-15.7708,2.86071,4.41854,-19.2402,2.15179,-11.4267,-3.03046,1.19265,-4.28293,1.07344e-14,-8.26944e-14,29.7363,-46.7248,-11.391,29.3362,-4.6822,-32.3207,8.67426,7.12502,-5.55838,-21.2328,1.07344e-14,-8.26944e-14,32.3872,14.8603,-17.9204,131.316,55.8291,-17.5498,33.7749,7.12502,8.70478,63.5754,4.23242,7.74533,8.23425,40.3194,-9.50687,-15.6494,-6.49017,-39.2175,-3.04644,4.30049,65.39,-31.0122,-7.18277,-34.5133
26.7686,15.7884,-3.33635,1.26749,13.3419,-9.48939,5.94198,0.472537,1.272,-6.88054,-0.0127573,-8.92766,-10.845,-0.558911,-10.6205,-14.8652,2.78687,4.39685,-19.6971,2.05095,-11.393,-3.31064,1.1824,-4.2885,1.66979e-14,6.99722e-14,28.5972,-45.3962,-9.85893,31.3592,-7.7504,-34.4777,8.89752,7.12502,-7.64067,-20.9445,1.66979e-14,6.99722e-14,32.4394,14.4453,-18.0597,131.328,55.7988,-17.1303,33.7813,7.12502,9.10962,63.5646,4.68159,7.74218,8.37421,40.113,-8.69309,-14.9353,-6.9299,-39.5932,-3.22543,4.35978,65.5775,-31.0564,-7.48345,-34.6297
26.7525,15.7651,-3.32057,1.26931,13.7384,-9.35695,6.14231,0.578987,1.22341,-7.25856,0.108974,-8.79906,-11.3724,-0.520877,-10.5017,-13.7619,2.70545,4.29458,-19.7248,1.96716,-11.4288,-3.48735,1.1772,-4.29253,-1.70955e-14,-5.725e-14,27.5178,-43.4405,-8.2284,33.5956,-10.6844,-36.1419,9.16382,7.12502,-9.24674,-20.6134,-1.70955e-14,-5.725e-14,32.3941,13.6834,-18.2911,131.384,55.7237,-16.3661,34.1338,7.12502,9.84694,63.8836,5.13239,7.89911,8.3628,39.9532,-8.29307,-13.9254,-4.98256,-39.8273,-3.33772,4.27669,65.7574,-31.1796,-7.70715,-34.733
26.7375,15.7467,-3.30611,1.32963,14.1071,-9.12886,6.24441,0.563109,0.990214,-7.41548,0.0736155,-8.51805,-11.6114,-0.514095,-10.0452,-14.22,2.78739,3.65023,-19.0571,2.20824,-11.2416,-3.21256,1.29958,-4.09747,-6.75868e-15,-1.90833e-14,27.7597,-42.4376,-7.75875,35.7811,-12.4679,-37.4145,9.53025,7.12502,-10.4745,-20.1888,-6.75868e-15,-1.90833e-14,31.7631,13.4876,-18.5649,131.37,55.6324,-15.3954,33.9564,7.12502,10.7833,63.6596,5.64857,8.13477,8.28926,39.7535,-8.20894,-13.7864,-6.4876,-40.0764,-3.46189,4.09448,65.924,-31.3341,-7.95058,-34.6399
26.7284,15.7298,-3.29739,1.45914,14.5224,-8.76709,6.19038,0.535947,0.838397,-7.30933,0.0445619,-8.34894,-11.4538,-0.494251,-9.73963,-15.2899,2.83755,2.94626,-18.3208,2.44135,-10.9257,-2.83746,1.40168,-3.84749,-7.95139e-16,6.36111e-15,28.165,-42.1427,-7.58653,38.0645,-13.8532,-37.713,9.96447,7.12502,-10.7625,-19.7398,-7.95139e-16,6.36111e-15,31.3261,13.9464,-18.5333,131.119,55.7001,-14.4316,33.9138,7.12502,11.7129,63.5663,6.12913,8.1657,7.98136,39.4795,-8.09007,-13.681,-7.15234,-40.45,-3.68031,3.73501,66.1111,-31.3249,-8.13779,-34.3554
26.7265,15.7086,-3.28617,1.50283,14.845,-8.55477,5.73074,0.590777,1.0605,-6.93613,0.191148,-8.28685,-10.7185,-0.397612,-9.76493,-15.6408,2.83001,2.72621,-18.3858,2.47634,-10.7863,-2.81329,1.4258,-3.76463,-3.02153e-14,4.77083e-14,28.108,-42.1439,-7.07156,40.5152,-15.3857,-37.1654,10.8564,7.12502,-10.2342,-18.8747,-3.02153e-14,4.77083e-14,31.1784,14.935,-18.3103,130.672,55.9486,-13.2096,34.2046,7.12502,12.8912,63.7865,6.55884,8.14834,7.72745,39.1365,-8.36202,-13.554,-6.50261,-40.7211,-3.89483,3.50773,66.3212,-31.3195,-8.20402,-34.2364
26.7201,15.6909,-3.26986,1.47281,15.0431,-8.29918,5.64575,0.686465,1.31367,-6.82552,0.354745,-8.34204,-10.5135,-0.329515,-9.98912,-15.3735,2.85211,2.92499,-18.5572,2.47486,-10.7884,-2.90051,1.42641,-3.8047,-3.97569e-16,-1.59028e-14,27.749,-41.801,-6.64224,43.0988,-16.4627,-35.9601,11.6738,7.12502,-9.07135,-18.1111,-3.97569e-16,-1.59028e-14,31.2969,15.6197,-18.2511,130.196,56.2027,-11.3193,34.0951,7.12502,14.7129,63.553,7.10467,8.38703,7.52346,38.7444,-8.78582,-13.9573,-8.59676,-40.7754,-4.02822,3.24528,66.5247,-31.4359,-8.27103,-34.1505
26.7044,15.673,-3.25827,1.34785,15.2165,-7.9674,6.50215,0.839964,1.67268,-7.39735,0.523173,-8.61274,-11.668,-0.362997,-10.6484,-14.3195,2.92822,4.10353,-18.1194,2.41492,-11.382,-2.88316,1.34963,-4.19057,-2.90226e-14,4.77083e-14,26.4144,-40.1916,-5.88319,45.9522,-17.3609,-34.2509,11.9499,7.12502,-7.42177,-17.8999,-2.90226e-14,4.77083e-14,32.0893,15.4141,-18.2918,129.74,56.4576,-8.35418,33.1162,7.12502,17.568,62.3425,7.7912,8.78519,7.37308,38.3323,-9.69509,-13.2384,-10.9806,-40.737,-4.12934,2.93254,66.7496,-31.5215,-8.4258,-34.0222
26.6857,15.6441,-3.25117,1.14651,15.4332,-7.72286,6.26825,0.824902,1.39065,-7.1729,0.524341,-8.22523,-11.2549,-0.287937,-9.98812,-13.9769,3.47901,5.63843,-18.2554,2.79274,-13.162,-2.85121,1.49679,-5.01089,1.27222e-14,-2.22639e-14,26.9115,-39.7841,-5.74627,48.7833,-18.1782,-32.612,12.1321,7.12502,-5.8396,-17.7674,1.27222e-14,-2.22639e-14,31.4168,16.1609,-18.0781,129.038,56.7677,-4.90791,31.7468,7.12502,20.8819,60.6429,8.49567,9.2219,7.36463,37.929,-10.1044,-13.2646,-13.1095,-40.7458,-4.22434,2.72655,67.0196,-31.5763,-8.63193,-34.1922
26.672,15.609,-3.24339,1.0944,15.6363,-7.44946,6.95333,0.917816,1.60116,-7.7562,0.632691,-8.16296,-12.3317,-0.31669,-10.1544,-12.966,3.44752,5.47588,-17.883,2.82937,-13.0747,-2.89169,1.53856,-4.95361,4.13472e-14,-1.90833e-14,26.1797,-38.1137,-4.9406,51.7955,-19.3164,-30.8336,12.2657,7.12502,-4.12247,-17.6741,4.13472e-14,-1.90833e-14,31.7451,15.997,-17.9305,128.348,57.3076,-1.89592,30.7328,7.12502,23.7732,59.2822,9.03066,9.54471,7.20032,37.5479,-10.7411,-13.3343,-14.2722,-40.8847,-4.29628,2.47928,67.3389,-31.7301,-8.76316,-34.1733
26.6649,15.5768,-3.23824,1.19985,15.7784,-7.07328,6.69198,1.00391,1.67258,-7.69728,0.785968,-8.00692,-12.0679,-0.223641,-10.0144,-12.7555,3.55775,5.34729,-17.9649,2.96408,-13.33,-2.9286,1.62826,-5.01314,7.35503e-14,-1.59028e-14,26.3927,-37.822,-4.81143,54.5942,-19.9457,-28.6454,12.6289,7.12502,-2.00921,-17.3414,7.35503e-14,-1.59028e-14,31.687,16.703,-17.7192,127.339,57.5096,1.00765,29.8498,7.12502,26.5552,58.0083,9.41597,9.69608,6.76232,37.1857,-11.5644,-13.259,-14.7071,-41.1382,-4.35502,2.10597,67.7137,-31.7566,-8.79864,-33.8399
