JuanDHNZ/ProyectoFinalCD/preprocessing/sports_trials_csv/55_04.csv
root1,root2,root3,root4,root5,root6,lowerback1,lowerback2,lowerback3,upperback1,upperback2,upperback3,thorax1,thorax2,thorax3,lowerneck1,lowerneck2,lowerneck3,upperneck1,upperneck2,upperneck3,head1,head2,head3,rclavicle1,rclavicle2,rhumerus1,rhumerus2,rhumerus3,rradius1,rwrist1,rhand1,rhand2,rfingers1,rthumb1,rthumb2,lclavicle1,lclavicle2,lhumerus1,lhumerus2,lhumerus3,lradius1,lwrist1,lhand1,lhand2,lfingers1,lthumb1,lthumb2,rfemur1,rfemur2,rfemur3,rtibia1,rfoot1,rfoot2,rtoes1,lfemur1,lfemur2,lfemur3,ltibia1,lfoot1,lfoot2,ltoes1
9.69032,17.5865,-33.1907,1.57022,-0.572812,-0.28402,0.275586,-2.13397,-0.652099,-1.09746,-2.8472,0.476928,-1.22184,-1.41421,0.889676,-3.13046,0.983183,12.5442,8.75545,1.99097,-16.9277,3.3493,0.721567,-7.30213,-4.55737e-14,-1.3418e-15,-32.7378,4.68068,-91.333,20.7463,15.9832,-15.5713,20.3413,7.12502,10.6137,-9.37071,-4.55737e-14,-1.3418e-15,-39.6138,-10.0802,94.3707,27.5891,11.4444,-20.7239,24.8822,7.12502,5.64095,54.7871,-8.98946,-6.99705,21.7282,27.733,-23.922,-2.44557,-1.92168,-11.5323,2.45737,-21.3484,28.4229,-19.7493,0.60944,-25.517
9.69261,17.5872,-33.1899,1.59739,-0.507031,-0.31168,0.189073,-2.12344,-0.583471,-1.0518,-2.83223,0.46128,-1.13096,-1.40808,0.830477,-3.05538,0.996166,12.5412,8.66094,2.00437,-16.9071,3.31078,0.733547,-7.29236,-3.61582e-14,-4.62174e-15,-32.8177,4.85161,-91.3992,20.996,15.689,-15.3013,20.0321,7.12502,10.8742,-9.66639,-3.61582e-14,-4.62174e-15,-39.5001,-10.0674,94.2767,27.5272,11.013,-20.568,26.2294,7.12502,5.79149,56.1303,-8.96272,-6.97574,21.7654,27.6471,-23.8977,-2.52224,-2.45069,-11.6153,2.34356,-21.3196,28.5191,-19.7569,0.489938,-24.4752
9.69352,17.5877,-33.1879,1.67722,-0.592075,-0.399942,0.0638485,-2.12639,-0.495641,-1.04443,-2.83462,0.50683,-1.05513,-1.41026,0.822645,-2.88654,1.07876,12.5182,8.47691,2.11963,-16.9533,3.24612,0.797917,-7.29585,-1.89898e-14,5.91384e-15,-33.2048,5.87377,-91.7925,21.7269,14.818,-15.3179,19.8171,7.12502,10.8582,-9.88216,-1.89898e-14,5.91384e-15,-39.4046,-9.7353,94.0768,27.4994,10.5047,-20.4533,27.115,7.12502,5.90219,57.0128,-9.0504,-7.03133,21.8502,27.6562,-23.9117,-2.25719,-1.99626,-11.6902,2.39388,-21.2327,28.5132,-19.7,0.563046,-24.727
9.69288,17.5873,-33.186,1.72891,-0.752383,-0.328962,0.00235365,-2.12763,-0.611951,-1.05904,-2.83663,0.526356,-1.02902,-1.41023,0.905224,-2.6746,1.14997,12.4921,8.2439,2.21957,-17.0229,3.15758,0.856484,-7.30665,1.15982e-14,-7.45443e-16,-32.9702,5.25944,-91.4698,21.1117,15.7659,-15.7494,20.5619,7.12502,10.4419,-9.15876,1.15982e-14,-7.45443e-16,-39.4411,-9.59301,94.0829,27.5576,10.9265,-20.5087,26.4637,7.12502,5.84873,56.363,-9.12433,-7.10374,21.7504,27.6571,-23.8636,-2.04319,-1.59057,-11.7405,2.55096,-21.3247,28.5228,-19.6801,0.699008,-25.3435
9.69232,17.5882,-33.187,1.77248,-0.758347,-0.218062,-0.0191864,-2.1077,-0.729886,-1.07893,-2.81104,0.481223,-1.03445,-1.3965,0.924292,-2.56859,1.12845,12.5674,8.1093,2.18537,-17.0758,3.09589,0.846686,-7.33673,4.55729e-15,-1.2275e-14,-32.9793,4.96746,-91.3808,21.0327,15.9907,-15.729,20.6715,7.12502,10.4616,-9.04817,4.55729e-15,-1.2275e-14,-39.5252,-9.83752,94.202,27.6026,11.566,-20.582,25.4897,7.12502,5.77789,55.3909,-9.20054,-7.03751,21.6324,27.686,-23.8519,-2.0799,-0.782712,-11.7893,2.57433,-21.4497,28.5095,-19.7384,0.619677,-25.2415
9.69525,17.5882,-33.1858,1.78333,-0.677878,-0.207553,0.00862766,-2.11372,-0.698063,-1.09824,-2.81929,0.454269,-1.07251,-1.40077,0.880732,-2.60045,1.14548,12.6447,8.16013,2.21078,-17.1196,3.12113,0.858006,-7.36497,1.80199e-14,-6.75868e-15,-33.011,5.0572,-91.4504,21.0212,15.9002,-15.5295,20.1991,7.12502,10.654,-9.51077,1.80199e-14,-6.75868e-15,-39.5944,-9.83768,94.1492,27.6349,11.5895,-20.7645,24.6803,7.12502,5.60171,54.5862,-9.20648,-7.00195,21.6128,27.7109,-23.9172,-2.0497,0.207777,-11.7982,2.58579,-21.4698,28.4984,-19.7948,0.540784,-25.3618
9.69941,17.5877,-33.1836,1.7524,-0.656763,-0.230807,-0.0183863,-2.1354,-0.623212,-1.01826,-2.84763,0.443046,-0.979072,-1.41637,0.824572,-2.79158,1.28619,12.6917,8.32273,2.40452,-17.1564,3.23285,0.943322,-7.38071,1.27822e-14,-9.59136e-15,-32.8682,5.12889,-91.4762,20.8898,15.9839,-15.4573,19.891,7.12502,10.7237,-9.81532,1.27822e-14,-9.59136e-15,-39.4374,-9.43555,93.7967,27.6698,10.6984,-20.6275,24.4196,7.12502,5.734,54.322,-9.17232,-7.07757,21.6138,27.7285,-23.9241,-1.99342,-0.329989,-11.7559,2.66629,-21.4577,28.4943,-19.7891,0.593641,-25.8239
9.70102,17.5909,-33.1877,1.84948,-0.68593,-0.298402,-0.103398,-2.15433,-0.541595,-0.984536,-2.87185,0.469927,-0.899082,-1.42953,0.802228,-2.95511,1.43066,12.6558,8.39936,2.59862,-17.1589,3.31396,1.02985,-7.36835,4.54273e-14,2.68359e-15,-32.6195,5.02854,-91.4169,20.5837,16.1374,-15.5489,19.9922,7.12502,10.6353,-9.71862,4.54273e-14,2.68359e-15,-39.1486,-8.7573,93.2453,27.5316,8.9588,-19.2001,25.7028,7.12502,7.11195,55.5634,-9.32785,-6.96566,21.707,27.7658,-23.8285,-2.17654,-1.6383,-11.8743,2.68673,-21.3878,28.4737,-19.7585,0.417364,-25.0794
9.70407,17.5928,-33.1924,1.98251,-0.715464,-0.221657,-0.0639195,-2.15332,-0.632697,-1.09994,-2.87104,0.489913,-1.03395,-1.42729,0.878071,-2.85403,1.47606,12.6134,8.29826,2.66614,-17.2033,3.27763,1.06621,-7.37134,2.85605e-14,-1.18774e-14,-32.6534,4.98678,-91.3457,20.4243,16.2253,-15.5422,20.1951,7.12502,10.6418,-9.51545,2.85605e-14,-1.18774e-14,-39.118,-8.1776,92.9172,27.3685,7.72483,-17.9104,26.6828,7.12502,8.35679,56.4975,-9.5185,-6.98648,21.6152,27.8147,-23.8417,-2.14438,-2.18461,-12.0317,2.63432,-21.4937,28.4424,-19.685,0.292807,-24.4684
9.70957,17.5899,-33.1887,1.93649,-0.759818,-0.0485916,0.0664761,-2.13661,-0.808177,-1.15934,-2.8509,0.474796,-1.16055,-1.4147,0.967319,-2.74638,1.52038,12.6614,8.23089,2.73816,-17.3304,3.25253,1.10451,-7.41852,-1.67033e-14,2.18663e-15,-32.8603,5.13148,-91.3384,20.5588,16.2184,-15.4208,20.2626,7.12502,10.7589,-9.44189,-1.67033e-14,2.18663e-15,-39.2228,-7.95077,92.8341,27.3386,7.30228,-17.572,27.1745,7.12502,8.68335,56.9759,-9.47151,-7.18481,21.3615,27.8451,-23.9776,-1.85998,-1.28991,-11.948,2.54762,-21.723,28.4256,-19.6495,0.577638,-25.4353
9.71548,17.5866,-33.1828,1.78173,-0.692898,-0.0545753,0.18543,-2.16868,-0.749317,-1.10516,-2.89396,0.467759,-1.174,-1.43694,0.931362,-2.84031,1.67607,12.7191,8.32281,2.95542,-17.3812,3.33154,1.20633,-7.43786,1.23083e-14,-1.68967e-15,-32.9019,5.33732,-91.4089,20.663,16.102,-15.3249,20.1493,7.12502,10.8513,-9.5503,1.23083e-14,-1.68967e-15,-39.2644,-8.04568,92.9188,27.2292,8.00797,-18.4324,26.5238,7.12502,7.85298,56.3579,-9.27135,-7.20347,21.3259,27.8564,-24.0625,-1.90125,0.326465,-11.7441,2.47929,-21.7328,28.4189,-19.6954,0.666518,-25.9474
9.71815,17.5861,-33.1821,1.74091,-0.546996,-0.119724,0.179004,-2.20507,-0.661961,-1.03878,-2.94161,0.471424,-1.10554,-1.46216,0.88486,-2.88559,1.85007,12.7714,8.33865,3.18961,-17.376,3.38233,1.3218,-7.43522,-7.75377e-15,4.32357e-15,-32.8195,5.33192,-91.406,20.6854,16.0483,-15.2345,20.1493,7.12502,10.9385,-9.54573,-7.75377e-15,4.32357e-15,-39.3299,-8.63594,93.37,27.2478,10.1331,-20.4454,24.7801,7.12502,5.90978,54.6777,-9.19403,-7.16957,21.4061,27.8516,-24.0642,-2.16531,0.282129,-11.7226,2.51295,-21.6514,28.4331,-19.6875,0.46806,-25.4807
9.72027,17.5898,-33.1814,1.89569,-0.681248,-0.213956,-0.0258244,-2.14719,-0.576388,-1.0183,-2.86256,0.505989,-0.97375,-1.424,0.862542,-2.80221,1.95181,12.8068,8.21925,3.32911,-17.4511,3.35709,1.39483,-7.45886,-9.77986e-15,-8.24956e-15,-32.696,5.25844,-91.3412,20.6329,16.1557,-15.3136,20.3844,7.12502,10.8623,-9.31469,-9.77986e-15,-8.24956e-15,-39.3843,-9.04604,93.6647,27.4424,11.3091,-21.3781,24.1476,7.12502,5.00929,54.0684,-9.34531,-7.09006,21.5083,27.791,-23.9978,-2.06116,-0.744342,-11.9117,2.54015,-21.5763,28.4953,-19.7161,0.688201,-25.7206
9.72696,17.5852,-33.1761,1.75289,-0.328754,-0.240298,0.0833583,-2.22414,-0.479449,-0.964449,-2.96533,0.464235,-0.984935,-1.47644,0.769906,-2.66317,1.96175,12.9851,8.02239,3.33779,-17.6148,3.28214,1.40834,-7.5428,-1.37563e-14,-1.36167e-14,-32.6521,5.10618,-91.3295,20.5449,16.2642,-15.4039,20.5704,7.12502,10.7752,-9.13318,-1.37563e-14,-1.36167e-14,-39.4434,-9.23358,93.6765,27.5036,11.3106,-21.4187,24.1919,7.12502,4.97004,54.1136,-9.06981,-7.22758,21.5104,27.6924,-23.9842,-2.23777,-1.40179,-11.8048,2.31026,-21.5495,28.5894,-19.8462,0.552625,-25.6205
9.72787,17.5828,-33.1776,1.7132,-0.246278,-0.362357,0.190131,-2.19903,-0.398018,-0.956615,-2.93133,0.489041,-1.04005,-1.4598,0.754017,-2.51327,1.98937,13.1665,7.72676,3.35955,-17.7664,3.179,1.43108,-7.62143,3.17269e-15,-6.90777e-15,-32.7056,5.02169,-91.3094,20.5974,16.1971,-15.5773,20.7381,7.12502,10.6079,-8.97414,3.17269e-15,-6.90777e-15,-39.4696,-9.35213,93.7107,27.4627,11.2913,-21.5866,24.0784,7.12502,4.80799,54.0039,-8.97437,-7.19142,21.6574,27.6114,-23.9442,-2.34471,-1.78078,-11.8112,2.19642,-21.4091,28.6584,-19.8552,0.410185,-24.633
9.72824,17.5848,-33.1802,1.74722,-0.279332,-0.539595,0.171481,-2.18694,-0.303005,-0.910562,-2.91359,0.600571,-0.981648,-1.45159,0.812774,-2.47462,2.16631,13.2144,7.57172,3.59767,-17.8938,3.16943,1.55042,-7.66023,-6.01911e-16,8.24956e-15,-32.6846,5.1732,-91.2767,20.7235,16.0216,-15.8443,20.7848,7.12502,10.3504,-8.94046,-6.01911e-16,8.24956e-15,-39.4106,-9.23577,93.7261,27.4911,11.1103,-21.4712,24.1992,7.12502,4.91938,54.1221,-8.99301,-7.01082,21.8738,27.5686,-23.9036,-2.33415,-1.87643,-11.8839,2.12899,-21.2149,28.7016,-19.8283,0.381774,-23.8095
9.73145,17.5877,-33.1807,1.77934,-0.257445,-0.456189,0.125994,-2.21277,-0.396571,-0.860795,-2.94862,0.61968,-0.898946,-1.46876,0.881396,-2.58383,2.38907,13.2084,7.71054,3.91822,-17.9772,3.28294,1.69867,-7.67364,1.20677e-14,-1.12313e-14,-32.5889,5.39031,-91.283,20.7361,15.8178,-15.8469,20.7242,7.12502,10.3478,-9.00117,1.20677e-14,-1.12313e-14,-39.3266,-9.11879,93.7116,27.5016,11.0016,-21.2822,24.2397,7.12502,5.10185,54.1583,-9.02127,-6.96186,21.7739,27.5464,-23.8796,-2.26484,-0.810626,-11.9348,2.23536,-21.3118,28.7167,-19.876,0.212385,-23.7116
9.73632,17.5872,-33.1832,1.80151,-0.16891,-0.358665,0.14307,-2.21044,-0.467661,-0.834613,-2.94623,0.596148,-0.879407,-1.46728,0.896995,-2.73574,2.51714,13.202,7.86717,4.09797,-17.9617,3.38426,1.77833,-7.6596,6.57911e-14,-8.74653e-15,-32.5675,5.37465,-91.2253,20.7952,15.8094,-15.8569,20.6558,7.12502,10.3382,-9.07008,6.57911e-14,-8.74653e-15,-39.1695,-8.83744,93.4755,27.3561,10.1675,-20.9098,24.875,7.12502,5.4614,54.7846,-9.04739,-7.13058,21.6446,27.5272,-23.8734,-2.17443,0.799256,-11.9868,2.36923,-21.4295,28.7205,-19.8629,0.142797,-24.6938
9.73988,17.5847,-33.1828,1.8056,-0.104539,-0.379111,0.173499,-2.04286,-0.447477,-0.839229,-2.72339,0.500744,-0.910859,-1.3562,0.787987,-2.68894,2.48107,13.7016,7.82934,4.03089,-18.0758,3.36573,1.75959,-7.7906,-2.34756e-14,-2.93207e-15,-32.6631,4.79441,-91.1268,20.8972,15.9921,-15.9778,20.4264,7.12502,10.2216,-9.30521,-2.34756e-14,-2.93207e-15,-39.1792,-9.16557,93.3625,27.315,9.44357,-20.537,25.9556,7.12502,5.82134,55.8556,-9.02378,-7.17191,21.6569,27.5141,-23.8681,-2.30057,-0.033578,-11.9842,2.36394,-21.4193,28.7189,-19.7572,0.220089,-25.2404
9.74296,17.586,-33.179,1.84707,-0.0738843,-0.465123,0.222459,-2.17176,-0.421676,-0.852958,-2.89398,0.656426,-0.942799,-1.44094,0.936421,-2.53429,2.76226,13.569,7.53669,4.41962,-18.2094,3.31983,1.95504,-7.78983,-4.47576e-15,3.8763e-15,-32.6863,5.46987,-91.1903,20.9913,15.9156,-15.9331,20.4217,7.12502,10.2647,-9.30787,-4.47576e-15,3.8763e-15,-39.2938,-9.00057,93.5955,27.5317,10.4274,-20.8959,25.4413,7.12502,5.47485,55.3506,-9.01451,-7.12623,21.7509,27.4767,-23.8652,-2.51106,-1.77552,-12.0149,2.4172,-21.3334,28.7403,-19.8503,0.028555,-24.8665
9.7478,17.5882,-33.1747,1.93402,-0.101099,-0.546331,0.188415,-2.17381,-0.344221,-0.914211,-2.89546,0.71543,-0.987217,-1.44171,0.953697,-2.35918,2.88926,13.6024,7.42778,4.60625,-18.2962,3.29195,2.05543,-7.81603,-7.10578e-15,-8.74653e-15,-32.7693,5.58664,-91.1648,21.042,15.9005,-15.9514,20.8546,7.12502,10.247,-8.87585,-7.10578e-15,-8.74653e-15,-39.4226,-8.95805,93.6646,27.6943,10.6515,-20.7875,25.8321,7.12502,5.57952,55.7386,-9.06482,-7.29464,21.812,27.4049,-23.9083,-2.39136,-1.6137,-12.1224,2.60134,-21.2621,28.7849,-20.0182,-0.185245,-24.9438
9.75283,17.5889,-33.1717,1.97708,-0.0905572,-0.555884,0.135083,-2.11302,-0.292,-0.934333,-2.81429,0.671261,-0.984159,-1.4017,0.877054,-2.26442,2.91591,13.79,7.382,4.64311,-18.3513,3.2739,2.08263,-7.86682,1.52486e-15,1.03368e-14,-32.735,5.56703,-91.2231,20.96,15.5987,-16.0796,20.9087,7.12502,10.1234,-8.82775,1.52486e-15,1.03368e-14,-39.4043,-8.88131,93.4655,27.7138,9.99645,-20.3761,27.0616,7.12502,5.9767,56.9574,-9.07248,-7.44409,21.7897,27.3382,-23.9438,-2.16175,-0.450206,-12.1768,2.57575,-21.2716,28.8245,-20.0142,-0.166052,-24.5529
9.75363,17.5887,-33.1728,1.97589,-0.0219202,-0.603142,0.156872,-2.09845,-0.250682,-0.912905,-2.79487,0.641791,-0.978179,-1.39251,0.824113,-2.1423,2.97399,14.0729,7.17792,4.71425,-18.5468,3.21678,2.12888,-7.97885,9.3124e-15,8.49804e-15,-32.7151,5.61866,-91.3308,20.9779,15.3656,-16.1896,20.7024,7.12502,10.0172,-9.0392,9.3124e-15,8.49804e-15,-39.4705,-9.35682,93.6546,27.8034,11.0804,-20.9483,25.9029,7.12502,5.42424,55.8135,-9.02893,-7.22033,21.8666,27.2839,-23.8854,-2.31978,0.116205,-12.1952,2.39921,-21.2172,28.8617,-20.0219,-0.139581,-23.7728
9.75431,17.5888,-33.1718,2.02393,-0.0534916,-0.629592,0.147909,-2.11241,-0.295757,-0.910029,-2.81344,0.690537,-0.965325,-1.4013,0.898736,-2.00442,3.15567,14.1818,6.99106,4.96552,-18.7011,3.18888,2.26109,-8.03723,7.05996e-15,3.18055e-15,-32.7422,5.81998,-91.3832,21.1066,15.303,-16.3156,20.8838,7.12502,9.89566,-8.86368,7.05996e-15,3.18055e-15,-39.5752,-9.62282,93.9033,27.9065,12.0169,-21.3519,24.6621,7.12502,5.03456,54.5823,-9.05445,-6.99687,21.9187,27.2456,-23.8133,-2.52558,-0.777464,-12.2611,2.45866,-21.1914,28.8899,-20.0276,-0.057492,-24.4276
9.76035,17.5886,-33.1681,2.07667,-0.0231576,-0.685987,0.153323,-2.13607,-0.259825,-0.967775,-2.84391,0.763655,-1.02503,-1.41617,0.955381,-1.78965,3.35497,14.2306,6.8737,5.25593,-18.7872,3.1719,2.4158,-8.06161,-9.86042e-15,-1.05356e-14,-32.8203,5.8927,-91.3364,21.15,15.2939,-16.2089,20.7977,7.12502,9.99865,-8.94484,-9.86042e-15,-1.05356e-14,-39.6876,-9.57426,94.0082,27.9111,11.9792,-21.2702,24.7194,7.12502,5.11347,54.6377,-9.10378,-7.11575,21.9614,27.2368,-23.7631,-2.54312,-1.15461,-12.3269,2.50923,-21.1527,28.8994,-19.9965,-0.00611557,-25.1517
9.76703,17.5881,-33.1668,2.09969,0.0462257,-0.674514,0.124016,-2.15651,-0.242277,-0.953094,-2.87106,0.772863,-0.993471,-1.43001,0.953617,-1.72753,3.58353,14.2343,6.79097,5.56635,-18.7499,3.19105,2.57497,-8.03289,8.09038e-15,5.66536e-15,-32.7007,5.68513,-91.2033,21.0139,15.4853,-15.9291,20.2317,7.12502,10.2686,-9.49765,8.09038e-15,5.66536e-15,-39.6286,-9.54756,94.0315,27.7969,11.8939,-21.2777,24.8286,7.12502,5.10618,54.7471,-9.12531,-7.06467,21.9388,27.2636,-23.7374,-2.64117,0.136424,-12.3647,2.55944,-21.1808,28.8897,-20.0118,-0.288967,-24.4541
9.77462,17.589,-33.1634,2.07925,0.00591149,-0.498511,0.103361,-2.1336,-0.352402,-0.878879,-2.84212,0.696496,-0.904928,-1.4155,0.933953,-1.87881,3.82727,14.1831,6.82478,5.88305,-18.6162,3.27763,2.72631,-7.95842,3.50109e-14,5.1684e-15,-32.5093,5.66328,-91.1912,20.8917,15.4582,-15.9414,19.8289,7.12502,10.2567,-9.90099,3.50109e-14,5.1684e-15,-39.5293,-9.5053,93.9612,27.7098,11.782,-21.2384,24.566,7.12502,5.14417,54.4836,-9.10589,-6.99093,21.7088,27.2957,-23.7639,-2.64699,-0.0717763,-12.3178,2.6683,-21.399,28.8781,-20.0452,-0.507386,-23.7038
9.78338,17.5879,-33.1562,2.0106,-0.0756481,-0.443639,0.165342,-2.0636,-0.334264,-0.860351,-2.74918,0.634366,-0.926264,-1.36935,0.861751,-1.79791,3.9938,14.2472,6.78592,6.11188,-18.5714,3.29294,2.84707,-7.94235,-1.68831e-14,-1.39149e-14,-32.4998,5.79183,-91.3064,20.9124,15.1027,-15.9425,19.9343,7.12502,10.2557,-9.79569,-1.68831e-14,-1.39149e-14,-39.649,-9.65494,93.9926,27.781,11.8099,-20.9962,24.6373,7.12502,5.37804,54.549,-9.03533,-7.1533,21.5801,27.3181,-23.7945,-2.55059,-1.44601,-12.1875,2.72354,-21.4948,28.8693,-20.1145,-0.431405,-23.8702
9.79063,17.5845,-33.1517,1.99049,-0.101615,-0.555529,0.223904,-2.01885,-0.223828,-0.885589,-2.68833,0.668517,-0.989381,-1.33935,0.837498,-1.42536,4.18399,14.3277,6.48132,6.38311,-18.6549,3.19283,3.00401,-7.97337,1.47322e-14,9.34288e-15,-32.6167,5.8686,-91.3506,21.0696,14.9284,-15.9514,20.2093,7.12502,10.2471,-9.52115,1.47322e-14,9.34288e-15,-39.7848,-9.68953,93.9935,27.9325,11.4754,-20.6796,25.708,7.12502,5.68366,55.6118,-9.00924,-7.24104,21.6651,27.3445,-23.8132,-2.57286,-1.54166,-12.1329,2.9059,-21.3888,28.8502,-20.1887,-0.49761,-24.3394
9.79638,17.5834,-33.1527,2.00416,-0.0414193,-0.628928,0.356298,-1.98823,-0.202775,-0.948153,-2.64654,0.710924,-1.12727,-1.31784,0.875394,-1.0985,4.36932,14.5902,6.19644,6.65673,-18.9617,3.12102,3.15868,-8.11228,-9.95243e-15,1.54058e-14,-32.8883,5.7637,-91.2547,21.293,15.2241,-16.3636,20.6496,7.12502,9.8494,-9.10006,-9.95243e-15,1.54058e-14,-39.8518,-9.67749,93.9342,28.0033,10.7944,-20.5261,26.6581,7.12502,5.83186,56.5579,-9.02067,-7.20827,21.7406,27.3624,-23.8682,-2.66256,-1.65644,-12.1487,2.91514,-21.3239,28.8338,-20.2376,-0.510755,-24.6695
9.80227,17.5848,-33.1546,1.95582,0.00207909,-0.550442,0.585285,-1.98281,-0.281149,-0.989474,-2.64012,0.68395,-1.29581,-1.31325,0.901448,-1.0087,4.55454,14.8455,6.11794,6.92416,-19.1919,3.14767,3.29721,-8.22111,-3.05686e-14,1.42131e-14,-33.1051,5.78039,-91.2508,21.44,15.3744,-16.5422,20.9999,7.12502,9.67701,-8.75779,-3.05686e-14,1.42131e-14,-39.8873,-9.62491,93.8417,27.9899,10.3187,-20.2534,26.9931,7.12502,6.09519,56.8854,-8.99502,-7.14297,21.6342,27.3926,-23.941,-2.6033,-1.7499,-12.077,2.7425,-21.4364,28.8034,-20.2194,-0.35488,-24.9034
9.80915,17.5858,-33.1555,1.90273,0.057292,-0.41656,0.763636,-2.04387,-0.368127,-0.980581,-2.72327,0.645117,-1.38311,-1.35375,0.918559,-1.16859,4.75316,14.9613,6.1681,7.19165,-19.2915,3.24649,3.4209,-8.25544,-1.05655e-14,7.95139e-15,-33.1457,5.92234,-91.318,21.5912,15.2387,-16.1602,20.6365,7.12502,10.0456,-9.10373,-1.05655e-14,7.95139e-15,-39.8023,-8.90895,93.3505,27.8581,9.01885,-18.8631,27.1474,7.12502,7.43734,56.9966,-8.98723,-7.13162,21.4547,27.4578,-23.9647,-2.56972,-1.10195,-11.9919,2.74424,-21.6109,28.7335,-20.1129,-0.321315,-25.4082
9.8143,17.5849,-33.1558,1.96313,0.123161,-0.28081,0.804416,-2.10036,-0.532223,-1.01545,-2.80103,0.650799,-1.43224,-1.39052,1.01984,-1.32218,4.88459,15.2017,6.26519,7.38583,-19.603,3.35776,3.50536,-8.38911,-3.94921e-14,8.74653e-15,-33.3103,6.05214,-91.3092,21.9568,15.206,-16.053,20.3362,7.12502,10.1491,-9.39904,-3.94921e-14,8.74653e-15,-39.771,-8.15322,92.9389,27.7591,7.69747,-17.179,27.3613,7.12502,9.06265,57.1466,-9.09721,-7.09754,21.3034,27.5615,-23.9745,-2.7637,-0.980067,-12.0227,2.81386,-21.7842,28.6211,-20.0377,-0.399966,-25.616
9.81808,17.5849,-33.1537,2.04475,0.0784306,-0.136373,0.77814,-2.11892,-0.754116,-1.06797,-2.82876,0.673022,-1.45899,-1.40153,1.16704,-1.14627,4.9749,15.3986,6.15093,7.5392,-19.9476,3.34374,3.58816,-8.53571,1.90096e-14,1.98785e-16,-33.3582,6.17949,-91.298,22.0298,15.2788,-16.3173,20.4743,7.12502,9.89404,-9.27321,1.90096e-14,1.98785e-16,-39.8447,-7.86725,92.9097,27.7434,7.40429,-16.7781,27.4815,7.12502,9.44941,57.2496,-9.22799,-6.95392,21.1483,27.6642,-23.9814,-2.94473,-1.38425,-12.0456,2.77417,-21.9605,28.5134,-19.9826,-0.514514,-24.5086
9.82553,17.5884,-33.1496,2.09271,-0.049789,-0.0401248,0.661713,-2.10029,-0.830429,-1.01625,-2.80469,0.643773,-1.33912,-1.38987,1.17306,-0.882879,5.07778,15.495,5.75103,7.6699,-20.103,3.21779,3.67204,-8.60102,4.3655e-15,-1.35174e-14,-32.8487,5.95855,-91.2316,21.3885,15.5459,-16.4092,20.3638,7.12502,9.80537,-9.38788,4.3655e-15,-1.35174e-14,-39.8154,-7.82388,92.8825,27.7762,7.46013,-17.1089,27.5126,7.12502,9.13022,57.295,-9.297,-6.82049,21.01,27.71,-23.9724,-2.88577,-0.665458,-12.0423,2.67861,-22.1095,28.4693,-19.9662,-0.418141,-24.0668
9.83567,17.59,-33.1433,2.20408,-0.198888,-0.0843211,0.43585,-2.04249,-0.699709,-0.940286,-2.72502,0.619088,-1.14394,-1.35298,1.06263,-0.771516,5.21438,15.5418,5.39632,7.82698,-20.1371,3.13011,3.76217,-8.61083,-1.29365e-14,7.85199e-15,-32.4217,5.67603,-91.1417,20.9938,15.8419,-16.444,20.3585,7.12502,9.77177,-9.39478,-1.29365e-14,7.85199e-15,-39.8243,-8.15621,93.0488,28.0788,8.25326,-17.5973,27.7067,7.12502,8.65899,57.5092,-9.39815,-6.73795,21.0212,27.6764,-23.9332,-2.85137,-0.331779,-12.1447,2.59984,-22.128,28.506,-19.9917,-0.111039,-24.4666
9.84578,17.589,-33.1372,2.34841,-0.320572,-0.299037,0.255036,-1.95931,-0.39076,-0.924594,-2.61039,0.64423,-1.0417,-1.29884,0.907189,-0.675372,5.36979,15.5522,5.20911,8.03052,-20.1482,3.09943,3.87127,-8.60405,8.11756e-15,5.76476e-15,-32.4248,5.65995,-91.1588,21.2191,15.8061,-16.4577,20.6447,7.12502,9.75857,-9.10924,8.11756e-15,5.76476e-15,-39.822,-8.40276,93.1508,28.2647,8.72546,-17.857,27.6336,7.12502,8.40838,57.4462,-9.50175,-6.70938,21.227,27.5708,-23.9133,-2.8576,-0.944204,-12.3435,2.66737,-21.9418,28.6234,-19.9895,-0.0620952,-24.0609
9.85663,17.5906,-33.1304,2.43732,-0.288249,-0.498389,0.180559,-1.92115,-0.113474,-0.923597,-2.55709,0.673455,-1.01066,-1.2745,0.778967,-0.643853,5.53542,15.6529,5.17692,8.2634,-20.213,3.1362,3.98953,-8.62866,-1.6965e-14,1.51076e-14,-32.5307,5.82514,-91.2598,21.5288,15.3692,-16.31,20.2019,7.12502,9.9011,-9.54531,-1.6965e-14,1.51076e-14,-39.7988,-8.57601,93.2029,28.2717,8.97024,-18.5331,27.3258,7.12502,7.75577,57.1635,-9.51109,-6.79222,21.4159,27.4548,-23.8979,-2.77986,-1.03051,-12.5031,2.86912,-21.7514,28.7636,-20.1258,-0.350178,-24.0696
9.868,17.5897,-33.1209,2.44079,-0.132783,-0.68363,0.169562,-1.97661,0.132568,-0.911324,-2.62894,0.718595,-0.999875,-1.31229,0.687832,-0.582162,5.69063,15.7758,5.13336,8.48691,-20.3245,3.16619,4.10433,-8.67439,3.81729e-15,2.14687e-14,-32.5086,5.86393,-91.2676,21.4909,15.251,-16.2218,19.7928,7.12502,9.98615,-9.95034,3.81729e-15,2.14687e-14,-39.9548,-9.03163,93.5631,28.4538,10.404,-19.7232,26.6172,7.12502,6.60702,56.4941,-9.42415,-7.03865,21.574,27.3756,-23.9175,-2.65007,-0.887015,-12.5346,2.87442,-21.5772,28.8649,-20.2962,-0.458077,-24.5697
9.87773,17.5858,-33.1148,2.4668,-0.12265,-0.720169,0.104572,-2.0054,0.190087,-0.888963,-2.66729,0.73826,-0.941852,-1.33196,0.673109,-0.37406,5.82817,15.8528,4.92329,8.68437,-20.4633,3.11775,4.21554,-8.72688,1.1823e-14,-1.59028e-15,-32.4107,5.83454,-91.2199,21.309,15.5034,-16.3957,20.0737,7.12502,9.81839,-9.6774,1.1823e-14,-1.59028e-15,-40.0844,-9.31933,93.8795,28.5832,11.8676,-20.2787,25.345,7.12502,6.07074,55.238,-9.39719,-7.1943,21.5516,27.3168,-24.0088,-2.44658,-1.30821,-12.5738,2.77976,-21.5852,28.9354,-20.2932,-0.34273,-24.4612
9.88722,17.5848,-33.1118,2.48676,-0.0956309,-0.540482,0.0369901,-2.00184,-0.0154376,-0.841416,-2.66453,0.716915,-0.846982,-1.32937,0.762058,-0.31392,5.92059,15.8743,4.77734,8.80941,-20.5874,3.09673,4.2814,-8.76547,-1.61031e-14,-1.65985e-14,-32.3869,5.94466,-91.2014,21.2932,15.5549,-16.5429,20.1524,7.12502,9.67634,-9.6053,-1.61031e-14,-1.65985e-14,-40.0574,-9.22907,93.9064,28.604,11.9024,-20.4077,25.1536,7.12502,5.94623,55.0501,-9.38748,-7.31241,21.3006,27.2574,-24.0142,-2.35192,-2.32465,-12.6127,2.7656,-21.8246,28.9971,-20.3035,-0.442204,-23.9172
9.89749,17.5838,-33.1062,2.37371,0.126827,-0.595556,0.146253,-2.03929,0.0294466,-0.783343,-2.71381,0.756476,-0.848268,-1.35425,0.780718,-0.379585,5.97151,15.8396,4.67373,8.86245,-20.6373,3.08985,4.30459,-8.76998,-1.09953e-15,-9.24349e-15,-32.406,5.88396,-91.1014,21.3156,15.6491,-16.3411,19.9303,7.12502,9.87107,-9.81827,-1.09953e-15,-9.24349e-15,-40.0958,-9.17276,93.8903,28.7034,11.4692,-20.5499,25.5198,7.12502,5.80891,55.4202,-9.22801,-7.47485,21.3277,27.2455,-23.9786,-2.56255,-2.33715,-12.4962,2.66792,-21.7749,29.0164,-20.3445,-0.616239,-23.3412
9.90358,17.5815,-33.0993,2.26904,0.186635,-0.783786,0.305243,-2.0133,0.172237,-0.782728,-2.6768,0.81387,-0.940995,-1.33635,0.765718,-0.283805,6.02916,15.9449,4.5874,8.94681,-20.7131,3.0735,4.35383,-8.81124,2.00322e-14,-1.90833e-14,-32.528,5.83004,-91.0451,21.3787,15.722,-16.2032,19.9159,7.12502,10.0041,-9.82637,2.00322e-14,-1.90833e-14,-40.3329,-9.48217,94.089,28.8653,12.0871,-20.7313,24.4886,7.12502,5.63374,54.3937,-9.08759,-7.33728,21.5306,27.2606,-24.0168,-2.98673,-2.40384,-12.3603,2.54088,-21.5735,29.0092,-20.3338,-0.549744,-23.0108
9.90845,17.578,-33.0928,2.23512,0.111151,-0.651148,0.374921,-1.96712,0.00140659,-0.804388,-2.61665,0.760355,-0.997759,-1.30503,0.808915,-0.373342,6.13428,16.2674,4.86708,9.13153,-20.9235,3.23097,4.43754,-8.92528,-1.78673e-14,1.68967e-14,-32.5002,5.88198,-91.1225,21.2152,15.6761,-16.5133,20.3566,7.12502,9.70491,-9.3998,-1.78673e-14,1.68967e-14,-40.5223,-9.62807,94.1533,28.9395,12.324,-21.017,24.0283,7.12502,5.35789,53.9405,-9.02517,-7.20867,21.36,27.2448,-24.0667,-3.10038,-3.06287,-12.2938,2.50896,-21.7353,29.0185,-20.323,-0.517673,-22.5912
9.91691,17.5782,-33.0894,2.20054,0.188572,-0.486486,0.532297,-1.98137,-0.177111,-0.871123,-2.63708,0.71677,-1.14804,-1.31337,0.871958,-0.428983,6.24266,16.532,5.08234,9.3173,-21.1264,3.3624,4.52386,-9.02744,1.84901e-14,1.19271e-15,-32.6712,6.01486,-91.2128,21.4949,15.4249,-16.2495,20.4261,7.12502,9.95947,-9.31826,1.84901e-14,1.19271e-15,-40.5835,-9.2268,93.9104,28.8587,11.0466,-20.8826,25.1515,7.12502,5.48774,55.0604,-8.96513,-7.14954,21.1487,27.2417,-24.0255,-3.05326,-2.85301,-12.256,2.501,-21.9352,29.0096,-20.3007,-0.663676,-22.1241
9.92357,17.5835,-33.0917,2.23127,0.296861,-0.550657,0.722338,-2.01034,-0.213945,-0.959917,-2.67443,0.811438,-1.33879,-1.33032,0.999531,-0.128975,6.34516,16.4022,4.79338,9.45747,-21.0767,3.2463,4.61328,-8.98468,4.08751e-15,2.15681e-14,-33.5134,6.79242,-91.4007,23.0537,14.6606,-15.3297,19.8807,7.12502,10.8467,-9.81918,4.08751e-15,2.15681e-14,-40.6075,-8.85901,93.8077,28.7928,10.1136,-20.3273,25.899,7.12502,6.02385,55.7934,-9.01834,-6.94368,21.2355,27.2858,-23.9385,-3.2453,-3.08315,-12.3119,2.62101,-21.8811,28.9642,-20.2529,-0.783964,-22.6416
9.93101,17.5844,-33.0888,2.32235,0.319187,-0.635121,0.660149,-2.03908,-0.206834,-0.925283,-2.71179,0.917223,-1.26299,-1.34898,1.10096,-0.078859,6.46491,16.1184,4.51519,9.58837,-20.9787,3.1649,4.68225,-8.89084,3.36567e-14,1.98785e-16,-32.686,6.73929,-91.2001,21.759,14.9263,-15.845,20.6581,7.12502,10.3497,-9.06724,3.36567e-14,1.98785e-16,-40.5184,-8.84971,93.933,28.8236,10.3935,-20.4541,26.0677,7.12502,5.90142,55.9655,-9.12255,-6.97365,21.3132,27.3163,-23.9479,-3.30096,-3.30998,-12.4021,2.77702,-21.8197,28.9417,-20.2796,-0.816304,-23.3789
9.94466,17.58,-33.0777,2.37114,0.338413,-0.617453,0.495949,-2.05269,-0.194359,-0.828083,-2.73057,0.941352,-1.07041,-1.35945,1.10982,-0.497779,6.54857,16.128,4.70159,9.68942,-21.1178,3.31968,4.70322,-8.91809,1.53313e-14,7.35503e-15,-32.3838,6.79057,-91.1399,21.4746,14.8206,-16.1727,20.6827,7.12502,10.0336,-9.05814,1.53313e-14,7.35503e-15,-40.3553,-8.8887,94.0132,28.82,10.8093,-20.9176,26.2298,7.12502,5.45392,56.1396,-9.13523,-7.19806,21.2213,27.3249,-24.0281,-3.19726,-2.80168,-12.3952,2.6675,-21.8969,28.9471,-20.4257,-0.802175,-23.2092
9.95684,17.5761,-33.0677,2.3505,0.386729,-0.570058,0.484947,-2.03126,-0.228033,-0.784941,-2.70286,0.913076,-1.02042,-1.34575,1.09783,-1.17579,6.57924,16.571,5.37278,9.76183,-21.4792,3.68825,4.68981,-9.09672,1.43249e-14,-2.18663e-15,-32.4236,6.59199,-91.0718,21.5712,14.8547,-15.8868,20.0706,7.12502,10.3094,-9.65668,1.43249e-14,-2.18663e-15,-40.3129,-8.93094,94.0134,28.8766,10.9466,-21.0282,26.5521,7.12502,5.34711,56.4646,-9.08591,-7.23084,21.1186,27.3812,-24.0697,-3.28378,-3.00745,-12.3091,2.57544,-21.9881,28.9184,-20.5147,-0.925785,-22.356
9.96772,17.5754,-33.0606,2.32658,0.420589,-0.520121,0.557677,-1.97865,-0.253324,-0.806995,-2.63339,0.837834,-1.08755,-1.31076,1.03758,-0.967944,6.59298,16.7046,5.24641,9.78583,-21.4742,3.6268,4.71893,-9.12279,-2.9417e-14,-1.32192e-14,-32.4808,6.05046,-90.9485,21.5624,15.3395,-15.8228,19.7621,7.12502,10.3711,-9.96213,-2.9417e-14,-1.32192e-14,-40.4215,-8.967,93.9467,28.9586,10.9258,-20.999,26.5254,7.12502,5.37533,56.4372,-9.05508,-7.10083,21.0346,27.4641,-24.0879,-3.39795,-3.40981,-12.2316,2.70217,-22.0714,28.8604,-20.4494,-1.13191,-21.8286
9.97936,17.575,-33.0563,2.37256,0.454138,-0.395224,0.594215,-1.95069,-0.319038,-0.873077,-2.59755,0.73796,-1.17811,-1.29214,0.974675,-0.454941,6.62525,16.5106,4.74476,9.80149,-21.1217,3.36665,4.76775,-8.97923,-1.2202e-14,-8.54774e-15,-32.8171,5.65402,-90.9039,22.0405,15.7461,-16.0519,19.8286,7.12502,10.1501,-9.90661,-1.2202e-14,-8.54774e-15,-40.5927,-8.98716,93.8637,29.0011,10.8544,-20.7782,26.0724,7.12502,5.58848,55.9788,-9.09929,-6.91274,20.869,27.5143,-24.0848,-3.50619,-3.38902,-12.2392,2.76839,-22.2556,28.814,-20.4016,-1.20654,-21.9872
9.98883,17.5753,-33.0478,2.45209,0.398544,-0.373178,0.546477,-1.93386,-0.329144,-0.923394,-2.57525,0.719192,-1.20373,-1.28076,0.960173,0.264117,6.7048,15.9809,4.06334,9.87215,-20.533,3.00053,4.85452,-8.70283,5.23394e-14,1.05356e-14,-32.6136,5.43005,-90.8435,21.465,16.006,-16.3749,20.0163,7.12502,9.83851,-9.73386,5.23394e-14,1.05356e-14,-40.7357,-8.91681,93.8169,29.1261,10.8,-20.4344,26.0876,7.12502,5.92045,55.9849,-9.16075,-6.80885,20.8063,27.5156,-24.0516,-3.49505,-3.16969,-12.2831,2.82031,-22.3271,28.8067,-20.4791,-1.1697,-22.1117
9.99781,17.5767,-33.0342,2.44518,0.252412,-0.478485,0.510493,-1.91508,-0.233696,-0.916207,-2.54878,0.755,-1.17921,-1.26836,0.941599,-1.72329,6.62646,17.3901,6.24234,9.91333,-22.102,4.14426,4.72097,-9.44078,-9.41587e-15,-4.57205e-15,-32.6456,5.6138,-90.9054,21.4988,15.8216,-16.4132,19.728,7.12502,9.80152,-10.0239,-9.41587e-15,-4.57205e-15,-40.8065,-8.73709,93.7664,29.2226,10.9541,-20.5502,26.3975,7.12502,5.80858,56.2979,-9.09851,-6.65573,20.8799,27.4623,-24.0245,-3.47596,-3.28066,-12.2406,2.97482,-22.2461,28.8594,-20.6242,-1.21132,-21.8658
10.0087,17.5748,-33.0284,2.39614,0.351125,-0.622086,0.609292,-1.94826,-0.06841,-0.908563,-2.59073,0.768953,-1.23269,-1.29058,0.86786,0.100907,6.75931,16.3353,4.38687,9.99693,-20.9197,3.18557,4.90145,-8.88171,2.99777e-14,6.06293e-15,-33.0557,6.31096,-91.2389,22.3124,15.0101,-16.4453,19.3852,7.12502,9.77054,-10.3681,2.99777e-14,6.06293e-15,-40.9131,-8.91959,93.8708,29.3128,11.5724,-20.8831,26.3531,7.12502,5.48725,56.262,-8.95537,-6.38313,21.0366,27.3635,-24.0108,-3.87199,-3.97206,-12.2356,2.95177,-22.1055,28.9628,-20.6709,-1.41881,-21.1087
10.0252,17.5707,-33.0261,2.4051,0.686958,-0.811875,0.794139,-2.00248,0.155657,-0.98824,-2.65816,0.806384,-1.42539,-1.32565,0.791501,-0.365482,6.78637,16.7518,4.91747,10.0615,-21.1544,3.467,4.90208,-9.01503,-3.27839e-15,1.30204e-14,-32.8745,6.033,-91.118,21.701,15.199,-16.545,20.0679,7.12502,9.67433,-9.68998,-3.27839e-15,1.30204e-14,-41.059,-9.25951,94.0779,29.3268,12.1685,-20.5957,25.8507,7.12502,5.76468,55.7522,-8.87043,-6.5201,21.2294,27.2525,-24.0099,-4.21505,-5.06843,-12.3384,2.71879,-21.9305,29.0799,-20.7471,-1.67244,-20.7474
10.0413,17.5665,-33.014,2.37102,0.837063,-0.908217,0.974786,-1.98606,0.230211,-1.10429,-2.63246,0.846264,-1.6475,-1.31277,0.800163,-0.558367,6.7964,16.9338,5.28229,10.1032,-21.2036,3.62623,4.90855,-9.0556,-1.55922e-15,-1.87852e-14,-32.8655,5.67803,-90.9259,21.2634,15.4473,-16.507,20.8762,7.12502,9.71103,-8.87988,-1.55922e-15,-1.87852e-14,-41.2309,-9.29108,94.1571,29.2151,12.209,-19.9995,25.4697,7.12502,6.34032,55.3548,-8.74967,-6.71126,21.2743,27.1733,-24.0109,-4.23028,-4.68939,-12.3056,2.66145,-21.8697,29.165,-21.0012,-1.83757,-21.0942
10.0527,17.5644,-32.9974,2.3632,0.739172,-0.921248,0.957329,-1.94303,0.197192,-1.15145,-2.57523,0.861684,-1.68456,-1.28355,0.83349,-0.386613,6.81467,16.8821,5.24105,10.1392,-21.1042,3.58302,4.93746,-9.01479,-1.23371e-14,1.08338e-14,-33.1217,5.87927,-91.0108,21.5946,15.1222,-16.448,20.795,7.12502,9.76798,-8.95846,-1.23371e-14,1.08338e-14,-41.3604,-9.02335,94.0346,29.2085,11.5609,-19.6143,25.9611,7.12502,6.71217,55.8347,-8.65697,-6.33766,21.2568,27.1526,-24.0018,-4.37618,-3.12739,-12.2297,2.83176,-21.8942,29.1904,-21.0725,-1.84764,-21.1152
10.0646,17.5643,-32.984,2.4322,0.588504,-0.86287,0.75959,-1.93343,0.121016,-1.10875,-2.56528,0.861341,-1.52662,-1.27817,0.866771,-0.100832,6.85686,16.6662,4.95529,10.1887,-20.9766,3.44216,4.9805,-8.93752,-1.61528e-14,7.65321e-15,-33.2716,6.39112,-91.1907,22.129,14.5385,-16.1149,19.9647,7.12502,10.0894,-9.77337,-1.61528e-14,7.65321e-15,-41.3235,-8.66773,93.8095,29.2829,10.5755,-19.3848,26.908,7.12502,6.93369,56.7745,-8.67442,-5.9199,21.1698,27.1858,-24.0422,-4.52991,-2.95701,-12.2222,2.87729,-22.0149,29.1622,-20.9702,-1.65689,-20.5882
10.0787,17.5602,-32.9704,2.41189,0.462943,-0.732098,0.617936,-1.94701,-0.000989915,-0.994671,-2.58665,0.860436,-1.32461,-1.28832,0.926095,0.145105,6.91639,16.3514,4.62296,10.2523,-20.8689,3.29364,5.02698,-8.84814,-8.94065e-15,-5.96354e-15,-33.1971,6.62865,-91.1638,22.3074,14.4143,-15.8011,19.554,7.12502,10.3921,-10.1691,-8.94065e-15,-5.96354e-15,-41.2018,-8.42605,93.7269,29.3346,10.3223,-19.6307,27.6262,7.12502,6.69637,57.5003,-8.65289,-5.89275,20.9581,27.2609,-24.0993,-4.50745,-3.48628,-12.1,2.82519,-22.2211,29.0919,-20.9865,-1.51472,-20.1652
10.0938,17.5571,-32.9616,2.42372,0.392423,-0.647802,0.575057,-1.82713,-0.0513035,-0.93586,-2.42902,0.760083,-1.24497,-1.20987,0.846083,0.143247,6.82505,16.4427,4.46912,10.0957,-20.7903,3.21955,4.95552,-8.84954,-7.35969e-15,-1.55052e-14,-33.0431,5.94138,-90.9577,22.0662,14.9232,-15.6729,19.477,7.12502,10.5157,-10.24,-7.35969e-15,-1.55052e-14,-41.1015,-8.69209,93.7051,29.2016,10.5291,-20.1462,27.705,7.12502,6.19868,57.5943,-8.7132,-5.96972,20.8,27.3435,-24.0976,-4.58026,-3.93092,-12.0509,2.90661,-22.3691,29.022,-21.0886,-1.6536,-20.2597
10.108,17.5604,-32.9555,2.49533,0.259429,-0.520499,0.608751,-1.80479,-0.215322,-0.972553,-2.40121,0.743995,-1.29583,-1.19423,0.92279,0.193348,6.84064,16.3732,4.28657,10.0957,-20.7467,3.1526,4.96093,-8.82391,1.71296e-14,-1.68967e-15,-33.015,5.77755,-90.8646,21.8669,15.3251,-15.5138,19.2581,7.12502,10.6692,-10.4511,1.71296e-14,-1.68967e-15,-41,-8.1723,93.3577,28.8962,9.65293,-19.8906,27.6536,7.12502,6.4454,57.5355,-8.82537,-5.83671,20.5995,27.4063,-24.1512,-4.57944,-3.45443,-12.0748,2.98338,-22.5776,28.9858,-21.1475,-1.61138,-20.2127
10.1207,17.5615,-32.9441,2.49738,0.158884,-0.473006,0.666077,-1.74715,-0.322274,-0.9881,-2.32571,0.73675,-1.34125,-1.15523,0.97622,0.137213,6.82584,16.5774,4.30466,10.0816,-20.9265,3.18578,4.95145,-8.92053,2.12513e-14,1.21259e-14,-32.9367,5.4751,-90.7132,21.6126,15.5933,-15.5803,19.6136,7.12502,10.605,-10.0988,2.12513e-14,1.21259e-14,-41.0987,-8.10408,93.3139,28.8845,9.55001,-19.5473,27.5541,7.12502,6.7768,57.4257,-8.77937,-5.64376,20.4854,27.4193,-24.269,-4.49724,-2.35162,-12.0283,3.18644,-22.6863,29.0041,-21.1629,-1.47278,-20.5888
10.1321,17.5591,-32.9328,2.51635,0.079722,-0.621087,0.612835,-1.71251,-0.229304,-0.964587,-2.27777,0.795121,-1.28945,-1.13218,0.980867,0.0649296,6.79112,16.657,4.39856,10.0463,-21.0646,3.23016,4.92764,-8.98264,7.92654e-15,1.2921e-14,-32.7002,5.05473,-90.4893,21.2834,15.956,-15.7429,20.4472,7.12502,10.4482,-9.27321,7.92654e-15,1.2921e-14,-41.2931,-8.41236,93.6295,29.0083,10.7962,-19.7437,26.7631,7.12502,6.58729,56.6407,-8.72774,-5.4676,20.6194,27.3771,-24.2882,-4.47014,-1.97415,-12.0519,3.52524,-22.557,29.0749,-21.2687,-1.59288,-21.3064
10.1466,17.5552,-32.9182,2.50638,-0.12611,-0.779478,0.457938,-1.69137,-0.0626002,-0.86338,-2.24805,0.847965,-1.10374,-1.11949,0.933995,-0.0185937,6.81074,16.4401,4.45336,10.0644,-20.9531,3.24626,4.9287,-8.90156,1.91408e-14,1.64991e-14,-32.5087,5.09768,-90.4566,21.2738,15.9757,-15.8663,20.9079,7.12502,10.3292,-8.81844,1.91408e-14,1.64991e-14,-41.1978,-8.13107,93.4637,28.9086,10.3833,-19.2749,26.5956,7.12502,7.03979,56.4586,-8.64819,-5.28133,20.7403,27.3115,-24.227,-4.45233,-2.67039,-12.0327,3.57291,-22.4518,29.1828,-21.4833,-1.52711,-21.2347
10.164,17.5509,-32.901,2.41415,-0.17915,-0.902,0.522888,-1.64706,0.0784396,-0.834118,-2.18724,0.855553,-1.11614,-1.09025,0.863686,-0.256497,6.80619,16.5318,4.77665,10.069,-20.9226,3.38435,4.91443,-8.89877,5.31128e-16,-4.57205e-15,-32.6955,5.29319,-90.5292,21.569,15.6323,-16.1153,20.8712,7.12502,10.0889,-8.86697,5.31128e-16,-4.57205e-15,-41.2102,-8.16946,93.3941,28.868,9.85819,-19.5023,26.9315,7.12502,6.82029,56.8017,-8.46055,-5.23059,20.8002,27.2696,-24.1936,-4.65189,-4.66437,-11.9066,3.45615,-22.3846,29.2968,-21.6732,-1.42919,-20.708
10.176,17.5474,-32.8923,2.35874,0.0686971,-0.928576,0.794327,-1.68699,0.0207032,-0.93875,-2.23886,0.874884,-1.37184,-1.11456,0.927708,-0.487992,6.83598,16.8497,5.21315,10.1443,-21.0213,3.58752,4.9359,-8.97574,-6.46982e-15,-1.0635e-14,-32.9541,5.02169,-90.3765,21.6835,15.8353,-16.3191,20.8309,7.12502,9.89232,-8.91667,-6.46982e-15,-1.0635e-14,-41.5091,-8.88999,93.9739,28.9753,11.5907,-21.5988,26.7432,7.12502,4.79613,56.6689,-8.34343,-5.07811,20.8296,27.3102,-24.1866,-5.22922,-5.82658,-11.8546,3.58756,-22.3525,29.351,-21.7351,-1.80378,-20.545
10.1856,17.5421,-32.8871,2.36143,0.321028,-0.794276,0.915998,-1.81183,-0.183408,-0.975446,-2.40801,0.865354,-1.46712,-1.19661,1.04031,-0.486955,6.91192,16.8561,5.31676,10.2603,-20.966,3.63765,4.99254,-8.94799,-8.63005e-15,1.67973e-14,-32.896,4.61395,-90.1411,21.5468,16.3714,-16.2676,21.0317,7.12502,9.94198,-8.71355,-8.63005e-15,1.67973e-14,-41.3413,-8.00043,93.3383,28.6234,9.36864,-19.991,26.7349,7.12502,6.34846,56.6198,-8.32283,-4.73604,20.7147,27.4174,-24.2161,-5.71751,-5.22845,-11.874,3.89219,-22.4882,29.357,-21.7163,-2.31019,-20.6599
10.1967,17.5358,-32.8757,2.33357,0.347091,-0.523718,0.89429,-1.86564,-0.460738,-0.901877,-2.48588,0.760679,-1.37096,-1.23386,1.08715,-0.359896,6.9069,16.7289,5.15422,10.2372,-20.8251,3.54917,4.99088,-8.88275,1.34164e-14,-1.55052e-14,-32.6891,4.35182,-90.0755,21.3528,16.5749,-16.0005,21.2535,7.12502,10.1997,-8.47922,1.34164e-14,-1.55052e-14,-41.3298,-7.96026,93.3014,28.533,9.81251,-20.5893,26.508,7.12502,5.77087,56.4094,-8.29107,-4.36197,20.4129,27.5534,-24.223,-5.93707,-4.93826,-11.8084,4.0156,-22.8177,29.358,-21.7602,-2.46565,-20.6896
10.2102,17.5297,-32.864,2.28542,0.255465,-0.444726,0.884177,-1.83437,-0.533034,-0.797387,-2.44638,0.686785,-1.25926,-1.21469,1.04846,-0.377384,6.87486,16.7413,5.00958,10.1655,-20.7846,3.49487,4.95797,-8.87577,5.15287e-15,1.67973e-14,-32.4316,4.19489,-90.0899,21.1679,16.5385,-15.6813,21.1323,7.12502,10.5076,-8.58509,5.15287e-15,1.67973e-14,-41.2571,-8.2773,93.3459,28.671,10.2414,-20.2004,27.38,7.12502,6.14632,57.2708,-8.2443,-3.98922,20.2993,27.6737,-24.2061,-6.12933,-5.50678,-11.7157,3.95626,-22.9558,29.3935,-21.8891,-2.54176,-20.0243
10.2255,17.5274,-32.8597,2.33332,0.171816,-0.669017,0.933514,-1.81347,-0.332918,-0.791604,-2.41459,0.76751,-1.28645,-1.20014,1.02034,-0.407538,6.90219,16.6598,4.97396,10.194,-20.7591,3.48984,4.96982,-8.84891,2.33355e-14,-8.94531e-15,-32.3163,4.37443,-90.1076,21.1504,16.3074,-15.6439,21.0182,7.12502,10.5437,-8.69735,2.33355e-14,-8.94531e-15,-41.0784,-8.10133,93.1409,28.9767,8.84098,-17.324,29.2432,7.12502,8.92275,59.0345,-8.33098,-3.70902,20.5282,27.7773,-24.1873,-6.41446,-6.84378,-11.7763,4.07033,-22.7489,29.4511,-21.9665,-2.94678,-18.6499
10.238,17.5275,-32.8566,2.45038,0.185259,-0.945946,0.928511,-1.83431,-0.10941,-0.837891,-2.43749,0.869861,-1.33549,-1.21289,1.00153,-0.294541,6.92638,16.483,4.92983,10.2257,-20.5857,3.44427,4.99203,-8.75961,-3.50902e-14,-1.83876e-14,-32.3151,4.56919,-90.1526,21.1749,16.1187,-15.7278,21.2029,7.12502,10.4628,-8.51669,-3.50902e-14,-1.83876e-14,-40.9778,-7.8941,93.0123,28.1713,9.14211,-18.5201,26.6361,7.12502,7.7684,56.4734,-8.51767,-3.41007,20.8587,27.9395,-24.15,-6.89376,-7.82802,-11.9271,4.2411,-22.4608,29.4918,-21.9733,-3.51791,-17.363
10.2512,17.5268,-32.8478,2.47035,0.248815,-1.06219,0.967408,-1.83698,0.0101891,-0.844999,-2.43932,0.837712,-1.37092,-1.21497,0.903506,-0.158434,6.86466,16.5142,4.86285,10.1359,-20.4443,3.37729,4.95943,-8.72902,1.13742e-14,-2.5842e-15,-32.3321,4.46472,-90.2213,21.2767,15.9943,-15.6054,21.1099,7.12502,10.5808,-8.60375,1.13742e-14,-2.5842e-15,-40.8798,-7.6784,92.7038,27.6781,8.68116,-19.1573,26.2932,7.12502,7.15335,56.1523,-8.61738,-3.09225,21.0018,28.2077,-24.1592,-7.34642,-7.99723,-11.9284,4.25327,-22.3541,29.5053,-22.0384,-3.95346,-16.0614
10.2689,17.5232,-32.8349,2.39851,0.175718,-0.841165,1.10151,-1.79128,-0.201131,-0.830159,-2.38299,0.727591,-1.42781,-1.18508,0.912172,-0.142518,6.77128,16.6403,4.89193,10.0138,-20.497,3.3684,4.90102,-8.78011,3.16021e-14,-1.98785e-15,-32.4519,4.24427,-90.164,21.7401,15.7484,-15.2864,20.9306,7.12502,10.8885,-8.76707,3.16021e-14,-1.98785e-15,-40.8062,-7.60666,92.5589,27.4128,8.36916,-19.0453,26.5866,7.12502,7.26145,56.4421,-8.71389,-2.98868,20.6988,28.6134,-24.2338,-7.53089,-7.97914,-11.7629,4.37366,-22.647,29.4699,-22.1637,-4.16366,-15.1133
10.2844,17.5163,-32.8196,2.36324,-0.0660091,-0.653885,1.12013,-1.76296,-0.460486,-0.792544,-2.34986,0.732893,-1.38966,-1.16623,1.06153,-0.95144,6.75657,16.9096,5.61901,10.0079,-20.8405,3.75116,4.84099,-8.92101,-1.52288e-14,1.22253e-14,-32.4257,4.22958,-90.0116,22.0535,15.6105,-14.9632,20.6129,7.12502,11.2002,-9.06818,-1.52288e-14,1.22253e-14,-40.8151,-7.61193,92.6898,27.3437,8.57889,-18.5994,26.7416,7.12502,7.69178,56.5817,-8.95877,-2.90271,20.4149,29.1539,-24.3312,-7.53156,-7.82346,-11.6061,4.77319,-22.8976,29.3825,-22.288,-4.39039,-14.8305
10.2945,17.5067,-32.8055,2.35215,-0.305531,-0.600847,1.178,-1.73602,-0.644073,-0.812607,-2.3168,0.775158,-1.43442,-1.14739,1.20907,-0.580902,6.82171,16.5281,5.26641,10.0809,-20.514,3.56084,4.90156,-8.74592,1.92107e-15,4.17448e-15,-32.3938,4.31211,-89.9408,22.0527,15.6374,-14.6559,19.7784,7.12502,11.4966,-9.88635,1.92107e-15,4.17448e-15,-40.982,-7.65633,92.8371,27.3347,8.74382,-18.7975,27.1586,7.12502,7.50063,57.0056,-9.26482,-2.59281,20.3304,29.7802,-24.3714,-7.73508,-8.63143,-11.4847,5.18962,-22.976,29.2546,-22.2984,-4.57303,-15.366
10.3046,17.4964,-32.7942,2.28864,-0.419782,-0.398491,1.34491,-1.70753,-0.951574,-0.788955,-2.28655,0.706655,-1.49542,-1.12918,1.31535,-0.328796,6.85421,16.4334,4.91328,10.1003,-20.3677,3.40601,4.93147,-8.68535,1.00852e-14,1.3418e-14,-32.497,4.21463,-89.9333,22.267,15.7225,-14.4104,19.3387,7.12502,11.7333,-10.3127,1.00852e-14,1.3418e-14,-41.0417,-7.84343,92.9252,27.4089,8.94801,-19.6304,27.7019,7.12502,6.69658,57.576,-9.49792,-2.21785,20.1099,30.4344,-24.4996,-8.00216,-9.41026,-11.3182,5.37905,-23.2103,29.1158,-22.2091,-4.77374,-15.0794
10.3182,17.4946,-32.7843,2.24275,-0.457303,-0.203405,1.38157,-1.69994,-1.14376,-0.641333,-2.2818,0.59799,-1.36176,-1.12724,1.30955,-0.676374,6.90255,16.5621,4.91051,10.1217,-20.4172,3.47994,4.92499,-8.7097,8.32721e-15,-3.97569e-16,-32.3214,4.09174,-89.9716,22.365,15.7175,-14.4818,19.3014,7.12502,11.6645,-10.3539,8.32721e-15,-3.97569e-16,-40.7969,-8.09143,92.9419,27.4632,9.15645,-19.393,27.7651,7.12502,6.92578,57.6318,-9.76501,-1.94132,19.8724,31.1367,-24.7889,-7.88856,-7.44952,-11.1326,5.42722,-23.4474,28.9595,-22.1703,-5.06156,-13.8913
10.333,17.4966,-32.773,2.15538,-0.372725,-0.113045,1.42695,-1.7214,-1.19352,-0.519943,-2.31261,0.508756,-1.26357,-1.144,1.24573,-0.928475,6.92622,16.735,5.03118,10.1377,-20.4801,3.57473,4.91956,-8.75112,2.52853e-14,4.82053e-15,-32.0016,3.82916,-89.9469,22.0359,15.7758,-14.2417,19.3867,7.12502,11.8961,-10.2554,2.52853e-14,4.82053e-15,-40.5089,-8.13363,92.7655,27.1028,8.63152,-18.0637,26.995,7.12502,8.20881,56.8155,-10.0348,-1.91637,19.736,31.9373,-25.0126,-7.75595,-5.09075,-10.8805,5.56328,-23.5479,28.7655,-22.1119,-5.56738,-12.9048
10.3463,17.4875,-32.758,1.86207,-0.119357,0.0402555,1.77926,-1.84879,-1.35157,-0.476156,-2.4911,0.421182,-1.40807,-1.23116,1.26047,-0.827008,6.9328,16.8919,5.06471,10.1674,-20.5594,3.58537,4.94051,-8.80713,2.59255e-14,1.97542e-15,-31.9571,3.53973,-89.8917,21.7829,16.0718,-13.6345,19.9349,7.12502,12.4815,-9.67238,2.59255e-14,1.97542e-15,-40.4848,-7.89717,92.4577,26.6923,7.90272,-17.8292,26.4509,7.12502,8.43518,56.2625,-10.0853,-1.99473,19.557,32.798,-25.1027,-8.04301,-4.34527,-10.4353,5.74879,-23.6583,28.5718,-21.9878,-6.52199,-10.7886
10.3593,17.4792,-32.7499,1.882,-0.612929,0.218544,1.93164,-1.7684,-1.59368,-0.531915,-2.3934,0.353282,-1.54684,-1.17876,1.33025,-0.751276,6.92247,16.9089,4.99673,10.1521,-20.55,3.54993,4.93841,-8.81073,1.38288e-14,-1.4033e-14,-32.0955,3.63159,-89.9516,21.9506,16.1047,-13.606,20.7512,7.12502,12.509,-8.85436,1.38288e-14,-1.4033e-14,-40.541,-7.62489,92.2054,26.5946,7.69194,-18.6938,26.6348,7.12502,7.60066,56.4783,-10.6673,-1.55899,19.3048,33.7393,-24.9459,-8.05358,-3.65879,-10.3365,6.14909,-23.8979,28.3924,-21.9838,-6.87024,-9.36377
10.3712,17.4765,-32.7435,1.79321,-0.826482,0.236919,2.12888,-1.701,-1.6701,-0.470765,-2.30869,0.336442,-1.59534,-1.13565,1.35872,-0.74925,6.86763,16.8275,4.82093,10.0466,-20.468,3.46925,4.88917,-8.77679,1.30161e-16,-1.81639e-14,-32.2252,3.87807,-90.0359,22.4665,15.5344,-13.656,20.6688,7.12502,12.4607,-8.93978,1.30161e-16,-1.81639e-14,-40.4085,-7.62704,92.1272,26.4372,7.66,-19.2851,27.1451,7.12502,7.02995,57.0084,-11.1007,-1.23931,19.2713,34.7487,-24.7663,-8.17985,-3.29212,-10.1384,6.50266,-23.9287,28.251,-22.169,-7.00379,-9.81111
10.3789,17.4761,-32.7351,1.6388,-0.944951,0.250553,2.40953,-1.72865,-1.78376,-0.379566,-2.3522,0.394557,-1.65069,-1.15605,1.49104,-0.626191,6.93647,16.4665,4.48599,10.1143,-20.3857,3.34133,4.9291,-8.68344,-7.58992e-15,3.60297e-16,-32.2211,4.24389,-90.083,22.943,15.1059,-14.0538,19.9307,7.12502,12.0772,-9.70075,-7.58992e-15,3.60297e-16,-40.2259,-7.48933,92.127,26.2132,7.67014,-19.2531,27.4147,7.12502,7.06084,57.2769,-11.4857,-0.939664,19.2909,35.8229,-24.5438,-8.57389,-2.64361,-9.89471,6.90785,-23.9145,28.165,-22.339,-7.11303,-10.4255
10.3866,17.4681,-32.7238,1.54404,-1.12616,0.362149,2.6456,-1.73672,-1.98246,-0.410757,-2.37451,0.372879,-1.80723,-1.1632,1.58975,-0.138439,6.94727,16.3046,4.03258,10.1322,-20.3642,3.12022,4.96883,-8.66462,-1.64923e-14,8.96395e-15,-32.3201,4.17502,-90.0943,23.1377,15.3248,-15.5013,20.0125,7.12502,10.6812,-9.69596,-1.64923e-14,8.96395e-15,-40.4199,-7.51207,92.1499,26.2235,7.67417,-18.5148,27.2012,7.12502,7.77351,57.0383,-11.9803,-0.639168,19.1948,36.9469,-24.3101,-8.8754,-1.81488,-9.70193,7.29059,-24.0179,28.0679,-22.3031,-7.37815,-9.97434
10.3958,17.4547,-32.7128,1.48361,-1.24977,0.400235,2.81652,-1.81098,-2.05944,-0.425372,-2.48002,0.368166,-1.91076,-1.21363,1.63864,0.38581,7.03564,16.0383,3.48229,10.2399,-20.2233,2.87051,5.05679,-8.58312,7.83375e-15,-1.88845e-14,-32.389,4.41974,-90.2353,23.3231,15.2979,-16.4355,19.812,7.12502,9.77999,-9.94087,7.83375e-15,-1.88845e-14,-40.6045,-7.32417,92.0553,26.2436,7.44788,-17.7546,27.2122,7.12502,8.50719,57.0208,-12.5429,-0.543428,19.1626,38.1281,-23.9965,-9.08667,-2.11085,-9.51528,7.53039,-24.0604,27.9241,-22.1995,-7.66491,-9.05272
10.4065,17.453,-32.6981,1.37552,-1.4244,0.487009,2.93063,-1.83757,-2.13025,-0.296753,-2.52032,0.305737,-1.84072,-1.23522,1.61716,0.468895,7.13395,15.9305,3.18692,10.3456,-20.2078,2.78544,5.11695,-8.55497,-3.17842e-15,-3.54085e-16,-32.2292,4.6026,-90.3736,23.4957,15.2115,-16.6009,19.3765,7.12502,9.62038,-10.3838,-3.17842e-15,-3.54085e-16,-40.3772,-7.22626,91.8735,25.9965,7.28025,-18.1485,27.5197,7.12502,8.127,57.3434,-13.1203,-0.487977,19.0572,39.38,-23.6211,-9.23867,-2.29901,-9.24831,7.70729,-24.1706,27.7682,-22.2464,-7.73914,-8.45106
10.4185,17.4584,-32.6819,1.25751,-1.60629,0.626175,3.09605,-1.78264,-2.24884,-0.186321,-2.4563,0.18384,-1.82321,-1.20372,1.55946,0.198981,7.11643,16.2603,3.28323,10.3147,-20.4782,2.88755,5.08684,-8.69451,1.14255e-14,1.963e-15,-32.0454,4.19706,-90.3531,23.5348,15.5155,-16.7532,19.4052,7.12502,9.47344,-10.3619,1.14255e-14,1.963e-15,-40.1515,-7.5157,91.8461,25.7629,7.49952,-19.5422,27.9557,7.12502,6.78173,57.8271,-13.7257,-0.454585,18.8876,40.6743,-23.2302,-9.36022,-2.06547,-8.94996,7.73968,-24.355,27.5896,-22.2909,-7.60198,-8.32492
10.4297,17.4529,-32.6754,1.21286,-1.66773,0.763275,3.35311,-1.79109,-2.39833,-0.241453,-2.48223,0.108152,-2.02002,-1.21224,1.57725,0.0553448,7.04424,16.6296,3.52706,10.2524,-20.879,3.0132,5.04394,-8.89456,-1.95663e-14,8.59744e-15,-32.1439,3.79349,-90.2807,23.6169,15.846,-16.9471,19.4868,7.12502,9.28643,-10.2887,-1.95663e-14,8.59744e-15,-40.2578,-7.61919,91.8497,25.6997,7.70851,-19.8511,28.0143,7.12502,6.48356,57.8951,-14.4663,-0.520846,18.7436,41.9974,-22.5921,-9.744,-2.55147,-8.71672,7.34227,-24.5759,27.3274,-22.1473,-7.21757,-8.19493
10.4381,17.4505,-32.6698,1.27305,-1.79796,0.913592,3.49507,-1.68348,-2.63658,-0.0329536,-2.35084,0.0316505,-1.88485,-1.14841,1.62637,-0.635581,7.15925,16.5815,3.33574,10.2878,-20.7864,3.07842,5.02805,-8.82388,1.04548e-14,8.05078e-15,-31.5682,3.07921,-90.0107,23.5053,16.1962,-16.8632,19.609,7.12502,9.3673,-10.1628,1.04548e-14,8.05078e-15,-39.6706,-8.06535,91.8305,25.4798,7.73627,-18.7481,27.275,7.12502,7.54832,57.1203,-15.355,-0.387917,18.6173,43.3024,-21.9133,-10.2516,-4.20217,-8.58683,7.12707,-24.8112,27.0325,-22.0315,-6.97817,-8.0769
10.4446,17.4582,-32.6531,1.29082,-1.91531,1.0104,3.52215,-1.7776,-2.89288,-0.025891,-2.48523,0.145661,-1.87068,-1.21295,1.89359,-0.528056,7.22642,16.4076,3.17775,10.3949,-21.0629,3.04305,5.08291,-8.88345,-3.13428e-14,-1.91579e-14,-31.4779,3.32586,-89.849,23.4097,16.2522,-16.3778,19.3778,7.12502,9.83571,-10.3724,-3.13428e-14,-1.91579e-14,-39.6716,-7.76505,91.8878,25.3266,7.56274,-18.0156,26.7223,7.12502,8.2553,56.5411,-16.1085,-0.115214,18.5503,44.5474,-21.7328,-10.1645,-2.84272,-8.40147,7.40621,-24.925,26.7545,-22.0597,-7.04184,-8.83098
10.4517,17.4666,-32.6315,1.28292,-1.99843,1.03393,3.62742,-1.92463,-2.95511,-0.0972663,-2.68794,0.170829,-1.98829,-1.31063,1.96938,-0.00230131,7.2938,16.2462,2.71679,10.4989,-21.1681,2.83844,5.16812,-8.90462,3.06097e-15,4.47266e-15,-31.6374,3.88004,-90.0659,23.5424,15.9687,-16.2065,18.9003,7.12502,10.0009,-10.8421,3.06097e-15,4.47266e-15,-40.0424,-7.38333,91.7485,25.4639,7.30445,-17.9297,26.8567,7.12502,8.33813,56.6722,-16.808,0.13424,18.5169,45.7084,-21.6589,-9.51155,2.10019,-8.17474,7.54833,-24.9626,26.4746,-22.0734,-6.9958,-9.3446
10.4604,17.4739,-32.6108,1.26337,-2.10255,0.957173,3.79904,-2.08001,-2.81736,-0.19229,-2.89661,0.149955,-2.17866,-1.41204,1.89087,0.868777,7.35918,15.9338,1.91032,10.5787,-21.075,2.45098,5.26813,-8.85263,2.74556e-14,-1.49089e-15,-31.8743,4.36545,-90.3931,23.8377,15.5094,-16.1494,18.5045,7.12502,10.056,-11.2353,2.74556e-14,-1.49089e-15,-40.3812,-7.03485,91.4873,25.5425,7.10282,-17.9332,26.7196,7.12502,8.33478,56.5351,-17.5001,0.284182,18.6065,46.773,-21.335,-9.35854,3.72696,-7.92956,7.28771,-24.9314,26.2208,-22.0264,-6.658,-9.04325
10.47,17.4744,-32.5894,1.18615,-2.12697,0.820101,3.98343,-2.07172,-2.58803,-0.143252,-2.88109,0.0937194,-2.24642,-1.40653,1.7111,0.939313,7.38859,15.7955,1.58975,10.5734,-20.9101,2.32931,5.27544,-8.77854,2.25217e-14,6.55989e-15,-31.9705,4.11501,-90.405,24.2756,15.1078,-16.1624,18.8335,7.12502,10.0435,-10.9069,2.25217e-14,6.55989e-15,-40.185,-7.29754,91.3909,25.2195,7.06103,-17.9437,26.1384,7.12502,8.32471,55.9544,-18.0472,0.222184,18.8155,47.7543,-21.1268,-9.6674,2.14176,-7.61623,7.13354,-24.8117,25.963,-21.9688,-6.40646,-9.24495
10.477,17.4711,-32.5686,1.19981,-2.07014,0.789074,4.02479,-2.08636,-2.50638,-0.066958,-2.8978,0.0474892,-2.19669,-1.41746,1.6188,0.629766,7.42332,15.8932,1.67679,10.6019,-21.028,2.42593,5.27108,-8.81872,3.81977e-14,6.06293e-15,-31.9672,3.81743,-90.32,24.5265,14.8719,-17.0351,20.6342,7.12502,9.20146,-9.14505,3.81977e-14,6.06293e-15,-39.9187,-7.52597,91.3487,24.8965,6.87797,-17.9802,26.1974,7.12502,8.28943,56.0148,-18.667,0.154482,18.912,48.6284,-21.081,-9.71557,2.14508,-7.4047,7.20721,-24.7781,25.6718,-21.8593,-6.66531,-8.776
10.4814,17.48,-32.5456,1.28748,-1.83226,1.00934,3.9311,-2.22558,-2.72557,0.00982895,-3.09104,-0.029446,-2.04923,-1.51488,1.66592,0.284938,7.49602,16.2188,1.90186,10.7159,-21.4758,2.61838,5.30332,-9.00131,2.81218e-14,-1.13307e-14,-31.7931,3.73986,-90.3133,24.4795,14.8337,-16.0449,19.4705,7.12502,10.1568,-10.2643,2.81218e-14,-1.13307e-14,-39.74,-7.47697,91.2473,24.7216,6.56136,-18.0031,26.7624,7.12502,8.26731,56.5806,-19.3799,0.0394797,18.7255,49.3916,-21.1333,-9.55512,3.53428,-7.3016,7.11739,-25.0176,25.4095,-21.7649,-7.03356,-7.98952
10.4895,17.4946,-32.5187,1.37479,-1.31839,1.20209,3.93485,-2.42566,-2.88959,0.055898,-3.36556,-0.0881885,-1.98504,-1.65192,1.70961,-0.158086,7.58739,16.3953,2.12568,10.8319,-21.711,2.80737,5.33077,-9.08214,3.97569e-15,2.88238e-15,-31.6914,3.79106,-90.3375,24.549,14.6684,-15.6998,19.8279,7.12502,10.4897,-9.89034,3.97569e-15,2.88238e-15,-39.5108,-7.45338,91.1841,24.4276,6.39782,-18.0447,26.9868,7.12502,8.22717,56.8066,-20.0345,-0.352703,18.5614,50.0141,-21.2875,-9.24327,4.25927,-7.20293,6.85075,-25.2389,25.1608,-21.7362,-7.20775,-8.39593
10.4946,17.496,-32.4994,1.50824,-1.47063,1.16757,4.02309,-2.39121,-2.9192,0.0372805,-3.32351,-0.0500944,-2.05177,-1.62916,1.76797,-0.384261,7.63364,16.3047,2.11906,10.873,-21.8052,2.85428,5.33641,-9.0853,-8.18744e-15,1.12313e-14,-31.7288,3.89419,-90.3436,24.7535,14.3105,-15.3726,20.1592,7.12502,10.8054,-9.54289,-8.18744e-15,1.12313e-14,-39.2792,-7.60141,91.2553,24.0253,6.34654,-18.2064,26.5578,7.12502,8.0711,56.3837,-20.8644,-0.180331,18.6331,50.5238,-21.2684,-8.73202,4.11171,-7.14082,6.87784,-25.2635,24.9021,-21.7536,-6.95937,-9.10358
10.5002,17.4908,-32.4746,1.55615,-1.57243,1.19315,4.0045,-2.3704,-2.9655,0.0803545,-3.29679,-0.0670966,-1.99681,-1.61683,1.77277,-0.12962,7.60258,16.1429,1.63498,10.7916,-21.8124,2.64792,5.31946,-9.07963,2.65626e-14,1.48095e-14,-31.8239,4.03627,-90.4477,24.978,13.6469,-16.7012,19.8625,7.12502,9.52367,-9.90227,2.65626e-14,1.48095e-14,-39.0641,-7.74605,91.2661,23.6673,6.11018,-18.3094,25.9823,7.12502,7.97175,55.8119,-21.5047,-0.0657957,18.6483,50.9092,-21.2704,-8.65492,2.43655,-6.96722,6.69891,-25.3444,24.6862,-21.7473,-6.78005,-8.79398
10.5083,17.4859,-32.4433,1.5581,-1.62448,1.31837,3.95723,-2.38454,-3.07921,0.133143,-3.31903,-0.113289,-1.91122,-1.62909,1.78592,0.105793,7.61718,16.0678,1.2439,10.785,-21.8394,2.4927,5.33725,-9.08864,1.10388e-14,-1.09332e-15,-31.9567,4.25807,-90.578,25.0675,12.7978,-14.7985,19.5013,7.12502,11.3591,-10.171,1.10388e-14,-1.09332e-15,-38.8229,-7.59609,91.1512,23.328,5.70334,-18.0538,26.1544,7.12502,8.21841,55.9746,-22.047,-0.0989044,18.5427,51.175,-21.3607,-8.67902,0.00227385,-6.74624,6.36166,-25.5444,24.5519,-21.7826,-6.54497,-7.87785
10.5151,17.4878,-32.4106,1.61096,-1.59489,1.38404,3.26897,-2.48892,-3.12991,0.629126,-3.42569,-0.155883,-1.01038,-1.70313,1.72548,0.0325824,7.75886,16.1022,0.737923,10.9107,-22.1091,2.40812,5.40539,-9.17548,-1.16351e-14,-8.05078e-15,-31.1676,4.31984,-90.6161,24.7343,12.5445,-14.0953,19.6483,7.12502,12.0372,-9.98549,-1.16351e-14,-8.05078e-15,-37.821,-7.40913,90.8527,22.9204,5.30883,-17.6657,26.6831,7.12502,8.59295,56.4882,-22.6385,-0.0516658,18.5057,51.2843,-21.3994,-8.30064,0.163072,-6.61869,6.30708,-25.6474,24.4397,-21.885,-6.39348,-8.12581
10.5187,17.4932,-32.3765,1.68548,-1.60016,1.31623,3.07375,-2.60111,-3.06095,0.755197,-3.56285,-0.108356,-0.765805,-1.77726,1.72604,0.109709,7.85962,15.8404,0.402054,11.0101,-22.121,2.30569,5.46523,-9.13148,2.23509e-14,1.2424e-14,-30.9331,4.51291,-90.6129,24.569,12.7066,-14.4147,20.644,7.12502,11.7293,-9.00758,2.23509e-14,1.2424e-14,-37.3953,-6.98603,90.6297,22.5482,4.74503,-17.5841,26.9045,7.12502,8.67165,56.7064,-23.2444,0.155368,18.6337,51.2365,-21.2904,-7.98558,1.99754,-6.58144,6.35811,-25.5984,24.4192,-22.1114,-5.87515,-10.8461
10.5201,17.4982,-32.3461,1.89359,-1.63938,1.11034,3.0494,-2.64511,-2.87428,0.685619,-3.61524,-0.024848,-0.827091,-1.80203,1.71023,-0.345844,7.85967,15.8413,0.615473,10.9934,-22.257,2.45129,5.42487,-9.15717,2.73515e-14,1.61016e-14,-31.1784,4.72778,-90.6292,24.8487,12.6875,-14.8063,20.9473,7.12502,11.3515,-8.72548,2.73515e-14,1.61016e-14,-37.2211,-6.67154,90.4795,22.2082,4.19162,-17.6574,26.8402,7.12502,8.60097,56.645,-23.9767,0.380168,18.9312,51.0484,-21.0371,-7.9598,1.14993,-6.71822,6.23535,-25.4244,24.4579,-22.2945,-5.24388,-13.2039
10.5197,17.4961,-32.3191,2.14089,-1.6151,0.786495,3.05191,-2.63481,-2.59976,0.530978,-3.59469,0.0449651,-1.00068,-1.78823,1.63359,-1.18038,7.74921,16.6319,1.5403,10.9048,-22.915,2.93114,5.3099,-9.49017,-3.39798e-14,-1.77912e-14,-31.6518,4.60196,-90.6104,25.1055,12.6203,-15.7868,20.952,7.12502,10.4058,-8.7705,-3.39798e-14,-1.77912e-14,-37.2978,-6.87312,90.5125,22.0038,4.20456,-17.7989,26.5882,7.12502,8.46443,56.3986,-24.719,0.550949,19.3755,50.7583,-20.6607,-8.01074,-0.682667,-6.89834,6.07462,-25.1014,24.4844,-22.3417,-5.10391,-13.3971
10.5213,17.4937,-32.2851,2.16872,-1.43905,0.686968,3.1527,-2.68892,-2.53921,0.462937,-3.66827,0.0817676,-1.12482,-1.8227,1.64765,0.100297,7.83866,16.0806,0.422965,10.9938,-22.3524,2.33975,5.456,-9.25282,2.61153e-14,1.68967e-14,-31.9138,4.32253,-90.4375,25.1397,13.2219,-16.6872,20.864,7.12502,9.53717,-8.90018,2.61153e-14,1.68967e-14,-37.3505,-6.89631,90.5358,21.801,4.22231,-18.1048,26.2286,7.12502,8.16921,56.0507,-25.1421,0.617728,19.5387,50.3611,-20.3591,-7.94145,0.341323,-6.82698,5.81988,-24.9974,24.5367,-22.4265,-4.99239,-13.252
10.527,17.4911,-32.2459,2.18531,-1.14024,0.877833,3.1706,-2.78349,-2.69736,0.503538,-3.79989,0.0485305,-1.07902,-1.88894,1.70557,0.408227,7.86589,15.893,-0.112806,10.9884,-22.3628,2.12435,5.48317,-9.24294,6.33626e-14,8.15017e-15,-31.8787,4.02587,-90.1993,25.1543,14.1672,-16.6096,20.0661,7.12502,9.61201,-9.6946,6.33626e-14,8.15017e-15,-37.0326,-6.65785,90.435,21.4296,3.71011,-18.3676,26.3187,7.12502,7.91555,56.1505,-25.4809,0.593469,19.3391,49.8442,-20.139,-8.02937,0.928758,-6.68651,5.67046,-25.1984,24.5432,-22.5484,-5.13981,-12.4816
10.531,17.4804,-32.2038,2.28519,-0.957305,0.840618,3.14597,-2.8193,-2.65823,0.522418,-3.84494,0.070879,-1.04472,-1.91227,1.70613,0.262046,7.82509,15.8857,-0.299007,10.889,-22.4393,2.08265,5.43002,-9.27121,-1.70209e-14,1.48095e-14,-31.9628,3.9443,-90.0813,25.2397,14.3912,-16.3242,19.4062,7.12502,9.88739,-10.3416,-1.70209e-14,1.48095e-14,-36.611,-6.5693,90.4246,20.9533,3.30047,-18.4682,26.6472,7.12502,7.81846,56.4826,-25.8776,0.611212,19.4099,49.2076,-19.8957,-8.41925,-0.905092,-6.54336,5.61445,-25.1557,24.4086,-22.6136,-5.28767,-12.119
10.5315,17.478,-32.1586,2.34132,-0.99362,0.747984,3.19869,-2.78405,-2.65522,0.521638,-3.79888,0.11562,-1.07437,-1.88879,1.75167,0.171176,7.89199,15.9681,-0.232793,10.9794,-22.3784,2.13582,5.46844,-9.25207,1.81639e-14,-1.85864e-14,-32.2082,3.92941,-89.9788,25.4215,14.3819,-15.8733,19.5881,7.12502,10.3224,-10.1385,1.81639e-14,-1.85864e-14,-36.3879,-6.5413,90.4275,20.6532,3.03479,-18.3506,26.3792,7.12502,7.93196,56.2104,-26.2592,0.864191,19.5393,48.4774,-19.8313,-8.52949,-0.976735,-6.35088,5.62803,-25.0629,24.243,-22.7047,-4.9905,-13.3424
10.5302,17.4846,-32.1172,2.47564,-1.00058,0.866856,3.21496,-2.77414,-2.8258,0.452865,-3.79352,0.0831517,-1.14547,-1.88367,1.81628,0.0662129,7.91072,16.2475,-0.0181215,11.0333,-22.5526,2.25361,5.48438,-9.34855,3.94463e-14,-2.68359e-15,-32.5062,3.83273,-89.912,25.5677,14.4924,-15.3169,19.8808,7.12502,10.859,-9.81841,3.94463e-14,-2.68359e-15,-36.3503,-6.43822,90.3246,20.5661,2.69155,-18.1767,26.1703,7.12502,8.09983,55.9951,-26.7571,1.22247,19.4072,47.6979,-19.8004,-8.35777,0.458348,-6.29815,5.63235,-25.1948,24.1184,-22.8286,-4.90214,-13.5023
10.5261,17.4852,-32.0789,2.59531,-0.795718,0.837015,3.31899,-2.89335,-2.81741,0.324194,-3.95694,0.122967,-1.32516,-1.961,1.86856,0.130286,7.86742,16.3095,0.00103046,10.9918,-22.7372,2.25572,5.46653,-9.4292,5.30507e-15,-1.82882e-14,-32.8011,3.92091,-89.9255,25.459,14.4817,-15.1028,19.5961,7.12502,11.0656,-10.0922,5.30507e-15,-1.82882e-14,-36.3547,-5.99263,90.1447,20.4277,2.30387,-18.2207,26.3872,7.12502,8.05734,56.2136,-27.1815,1.50344,19.4499,46.8821,-19.575,-8.56708,0.175802,-6.17734,5.39523,-25.1376,23.8946,-22.8422,-5.03197,-12.6068
10.5225,17.4824,-32.0371,2.568,-0.68264,0.71488,3.51147,-2.99582,-2.7765,0.283109,-4.09703,0.220688,-1.46342,-2.02829,1.96405,0.409248,7.90181,16.1535,-0.278276,11.0307,-22.7365,2.12745,5.50817,-9.41372,-4.34841e-16,5.36719e-15,-32.8877,3.99895,-89.8336,25.104,14.6511,-15.1498,19.4923,7.12502,11.0202,-10.1984,-4.34841e-16,5.36719e-15,-36.2443,-5.63926,90.0885,20.2279,2.27649,-18.2316,26.2621,7.12502,8.04681,56.0889,-27.4183,1.81058,19.5958,46.0208,-19.3623,-8.88035,-0.0101644,-5.80813,5.22921,-24.9752,23.5863,-22.8258,-5.11644,-11.9189
10.524,17.4853,-31.9915,2.59326,-0.678856,0.841969,3.57451,-2.99942,-2.96426,0.314048,-4.11037,0.236141,-1.45187,-2.0343,2.0872,0.523364,7.96429,16.0133,-0.535003,11.0885,-22.6567,2.03361,5.54965,-9.36487,-2.06674e-14,-1.26228e-14,-32.8487,3.99972,-89.6591,24.8144,14.8078,-15.3187,19.6462,7.12502,10.8574,-10.0531,-2.06674e-14,-1.26228e-14,-35.9489,-5.55649,90.1746,20.092,2.42719,-17.871,26.1935,7.12502,8.39483,56.0067,-27.7279,1.96303,19.4348,45.0927,-19.232,-8.71136,1.2356,-5.49664,5.18987,-25.1224,23.3248,-22.8775,-5.20511,-11.0285
10.5246,17.4931,-31.9431,2.72829,-0.613442,0.920218,3.5359,-2.96701,-3.05058,0.296289,-4.06996,0.213498,-1.44649,-2.01352,2.10866,0.430629,7.96592,16.071,-0.441734,11.0934,-22.6295,2.0784,5.54474,-9.35979,3.67441e-14,-4.57205e-15,-33.0319,3.92234,-89.5653,24.7648,14.7545,-15.5841,19.945,7.12502,10.6014,-9.76762,3.67441e-14,-4.57205e-15,-35.8047,-5.62427,90.2366,20.1306,2.27778,-17.5924,26.6356,7.12502,8.66367,56.4379,-28.1643,1.98222,19.3172,44.1051,-19.0833,-8.29817,1.77721,-5.33315,5.11231,-25.2249,23.0686,-22.9712,-5.05813,-11.343
10.5176,17.4982,-31.8939,2.84337,-0.62359,0.680336,3.59188,-2.86606,-2.8846,0.23723,-3.93134,0.234886,-1.55612,-1.94271,2.03846,0.0674293,7.91189,16.4585,-0.0247277,11.043,-22.7388,2.27891,5.48975,-9.44836,3.70361e-14,-1.799e-14,-33.4082,3.50268,-89.4997,24.8463,14.6844,-15.9661,20.3799,7.12502,10.2328,-9.35119,3.70361e-14,-1.799e-14,-35.8787,-6.11581,90.3597,20.2777,2.30748,-17.825,26.7663,7.12502,8.4392,56.5776,-28.5665,2.16305,19.5862,43.0819,-18.71,-7.87337,2.48785,-5.1371,5.22492,-24.9306,22.7767,-23.0881,-4.84419,-12.6495
10.5145,17.4989,-31.8444,2.9402,-0.588148,0.499212,3.74581,-2.86509,-2.75324,0.123763,-3.92962,0.319101,-1.76188,-1.93783,2.06474,0.0552023,7.89797,16.5038,3.46712e-05,11.0278,-22.7754,2.29006,5.48099,-9.46949,1.70706e-14,-7.05686e-15,-33.743,3.25845,-89.3752,24.7009,14.666,-16.4303,20.1749,7.12502,9.78502,-9.57774,1.70706e-14,-7.05686e-15,-35.9621,-6.38185,90.6201,20.3548,2.65804,-18.4202,26.5559,7.12502,7.86479,56.3896,-28.9249,2.27885,19.788,42.067,-18.1003,-7.57992,2.60071,-4.88105,5.30998,-24.6993,22.4563,-23.1022,-4.79251,-13.2092
10.5178,17.5023,-31.7906,3.02968,-0.40412,0.459191,3.75688,-3.0099,-2.64871,0.109909,-4.1171,0.40085,-1.77337,-2.03173,2.09981,0.306836,7.9303,16.1637,-0.447757,11.0331,-22.7428,2.09951,5.50801,-9.41413,3.35511e-14,-1.78906e-15,-33.7281,3.25084,-89.2031,24.2401,15.0556,-16.4585,19.5736,7.12502,9.7578,-10.1803,3.35511e-14,-1.78906e-15,-35.877,-6.39497,90.9017,20.4461,3.14599,-18.8029,26.3145,7.12502,7.49541,56.1617,-29.2653,2.18052,19.8115,41.0831,-17.6448,-7.37787,0.0164509,-4.56919,5.12185,-24.6486,22.0903,-23.0535,-4.73068,-13.367
10.5191,17.5079,-31.7374,3.0718,-0.256502,0.592482,3.7659,-3.06972,-2.74325,0.306312,-4.19856,0.378403,-1.56696,-2.07731,2.12587,-0.603254,7.97126,16.2627,-0.30654,11.0093,-22.9845,2.31645,5.43927,-9.47316,4.36767e-14,-7.7526e-15,-33.394,3.21841,-89.1373,23.9242,14.8932,-15.6013,18.8125,7.12502,10.5848,-10.9009,4.36767e-14,-7.7526e-15,-35.4772,-7.04467,91.3199,20.5821,4.46733,-19.5083,25.7517,7.12502,6.81447,55.6221,-29.5929,2.04427,19.664,40.1284,-17.306,-6.95689,-1.36556,-4.20893,4.95284,-24.7823,21.7097,-23.1094,-4.59936,-13.8045
10.5199,17.5082,-31.6865,3.16833,-0.297667,0.861688,3.77212,-3.05861,-3.02809,0.290464,-4.19684,0.335777,-1.56967,-2.07441,2.24114,0.363797,8.01436,15.6989,-1.45587,10.9921,-22.5007,1.75535,5.51581,-9.26859,4.57329e-14,-9.64106e-15,-33.5169,3.44666,-89.2041,23.7228,13.8259,-14.0795,16.8599,7.12502,12.0525,-12.773,4.57329e-14,-9.64106e-15,-35.429,-7.4539,91.6856,20.6646,5.39507,-20.2029,25.5033,7.12502,6.14391,55.3942,-30.0655,1.96707,19.3822,39.1879,-16.8371,-6.36595,-0.0405854,-3.93324,5.09155,-25.0676,21.3237,-23.2061,-4.5881,-14.4185
10.5182,17.5007,-31.633,3.29792,-0.380596,0.852306,3.84871,-3.01096,-3.0366,0.216832,-4.13666,0.37829,-1.68809,-2.04113,2.29442,-0.501429,7.94686,16.2303,-0.584152,10.9463,-23.0082,2.20784,5.42119,-9.48831,-7.61097e-14,-1.12313e-14,-33.6355,3.14654,-88.943,23.4318,14.283,-18.0034,17.8496,7.12502,8.26708,-11.9687,-7.61097e-14,-1.12313e-14,-35.3503,-7.27694,91.6832,20.8285,4.6269,-19.3482,26.2093,7.12502,6.96899,56.0745,-30.5852,1.86601,19.437,38.2443,-16.2345,-5.86229,0.798263,-3.64802,5.33714,-25.032,20.8851,-23.1591,-4.8182,-14.1247
10.5144,17.4949,-31.5785,3.39069,-0.287126,0.835979,4.06489,-3.02289,-3.0266,0.0869836,-4.16045,0.41644,-1.93912,-2.04661,2.34742,-0.0139544,7.96862,16.0811,-0.985915,10.9679,-22.8163,1.99233,5.47064,-9.4209,-3.41661e-15,1.88845e-15,-33.9788,2.73988,-88.6057,23.2299,15.2847,-19.4454,18.3022,7.12502,6.87524,-11.5661,-3.41661e-15,1.88845e-15,-35.4512,-7.47329,91.8516,21.1359,4.25966,-18.4223,26.7201,7.12502,7.86272,56.5539,-31.0308,1.62412,19.4969,37.3123,-15.6057,-5.21729,1.36245,-3.29639,5.29233,-24.9835,20.4208,-23.0333,-4.98374,-13.2901
10.5131,17.4984,-31.5222,3.50563,-0.163916,1.04718,4.16252,-3.01849,-3.16502,0.047236,-4.16726,0.309951,-2.03244,-2.04666,2.32307,0.0404539,7.94637,16.2992,-1.14989,10.9229,-22.9032,1.94683,5.45558,-9.49688,2.14253e-14,7.55382e-15,-34.1491,2.39869,-88.5023,22.8635,15.0564,-20.1454,19.6078,7.12502,6.19943,-10.2815,2.14253e-14,7.55382e-15,-35.5158,-8.20822,92.1237,21.5117,4.67255,-18.3542,26.7836,7.12502,7.92845,56.6149,-31.5381,1.32813,19.2785,36.3822,-14.9516,-4.37856,1.98812,-2.97159,5.07522,-25.2176,19.9665,-22.9688,-4.90482,-12.9909
10.5155,17.5042,-31.4616,3.59798,-0.0378815,1.11103,4.16404,-3.02519,-3.0906,0.176933,-4.17168,0.242388,-1.90977,-2.05362,2.20793,-0.422488,8.02295,16.2498,-1.19505,10.9618,-22.818,2.01416,5.44924,-9.43451,1.66606e-14,-7.95139e-15,-33.8792,1.87527,-88.2982,22.4363,15.1485,-20.2845,20.1823,7.12502,6.06515,-9.71093,1.66606e-14,-7.95139e-15,-35.2857,-8.66929,92.2467,21.8826,4.84466,-18.368,27.0017,7.12502,7.91515,56.8335,-31.9506,1.06907,19.2203,35.45,-14.3749,-3.78512,1.83454,-2.56175,4.92054,-25.2943,19.4503,-22.9674,-4.72027,-13.3924
10.5153,17.507,-31.4009,3.62663,0.114403,1.00546,4.15003,-3.16009,-2.95702,0.12945,-4.34315,0.356652,-1.94161,-2.13894,2.26006,0.285202,8.03999,15.9005,-1.62359,11.0005,-22.6555,1.74672,5.5201,-9.35363,3.48556e-14,-2.03754e-15,-34.1512,1.9413,-88.1037,22.4398,15.4075,-19.536,19.0809,7.12502,6.78771,-10.7903,3.48556e-14,-2.03754e-15,-35.4002,-8.57681,92.5018,22.0742,5.12903,-18.7087,27.0003,7.12502,7.58628,56.8443,-32.1693,1.04577,19.303,34.4879,-14.1564,-3.45075,2.3488,-2.07508,4.82052,-25.1525,18.9027,-22.9591,-4.5344,-14.3315
10.5104,17.5093,-31.3416,3.62053,0.22489,0.870298,4.24841,-3.20842,-2.88629,0.160967,-4.40417,0.476685,-1.95642,-2.16974,2.3519,0.589661,8.04688,15.783,-1.99623,10.9895,-22.6548,1.58049,5.54179,-9.35383,2.61837e-14,-9.64106e-15,-34.4197,1.85171,-87.8515,22.6573,15.7311,-18.6982,18.2093,7.12502,7.59642,-11.6343,2.61837e-14,-9.64106e-15,-35.3482,-8.8417,92.8802,22.2856,5.7357,-19.2556,26.9584,7.12502,7.05846,56.8207,-32.3774,0.992277,19.4423,33.4945,-13.9483,-3.16413,2.09815,-1.58739,4.73272,-24.9615,18.4134,-22.9645,-4.39985,-15.0758
10.5071,17.5094,-31.28,3.66452,0.23559,0.732008,4.45245,-3.20511,-2.71443,0.177504,-4.39524,0.550749,-2.06106,-2.16477,2.34486,0.362581,8.0716,15.7612,-2.0845,10.9865,-22.7735,1.60201,5.53023,-9.38081,-5.28332e-15,5.46658e-15,-34.4265,1.59555,-87.5694,22.4196,16.211,-18.5723,18.3627,7.12502,7.71795,-11.4765,-5.28332e-15,5.46658e-15,-35.3046,-9.15807,93.1926,22.6249,6.23415,-19.4537,26.9089,7.12502,6.86724,56.7776,-32.7177,0.740805,19.6532,32.5124,-13.6302,-2.84684,2.13087,-1.15771,4.68647,-24.788,17.9777,-22.9867,-4.31413,-15.0736
10.5035,17.5062,-31.2139,3.75131,0.0979356,0.711539,4.55997,-3.10605,-2.63037,-0.0193067,-4.26592,0.494943,-2.34194,-2.09406,2.24897,0.912808,7.88311,16.1703,-2.21031,10.7833,-22.9867,1.46889,5.4636,-9.57,2.94698e-14,-1.89342e-14,-34.696,0.853448,-87.2669,21.7366,16.8224,-18.8205,18.6248,7.12502,7.4784,-11.223,2.94698e-14,-1.89342e-14,-35.7008,-9.6449,93.4589,22.8543,6.55671,-19.3322,26.4812,7.12502,6.98444,56.346,-33.1075,0.690733,19.6994,31.5609,-13.5461,-2.503,3.8519,-0.773496,4.62077,-24.7743,17.5583,-22.9124,-4.09951,-14.897
10.4991,17.5004,-31.1455,3.8267,0.122316,0.739848,4.66416,-3.11079,-2.6156,-3.39955e-05,-4.27417,0.485415,-2.38174,-2.09778,2.23742,0.810452,7.9345,16.2275,-2.39384,10.816,-22.9948,1.44637,5.4782,-9.57773,-6.04119e-14,1.62506e-14,-34.5633,0.189197,-86.9122,21.228,17.6933,-18.2656,19.2572,7.12502,8.01403,-10.5709,-6.04119e-14,1.62506e-14,-35.5858,-10.0141,93.66,23.0128,6.9406,-19.4387,26.0166,7.12502,6.88165,55.8848,-33.4376,0.638624,19.6485,30.7029,-13.46,-2.59331,1.99907,-0.315999,4.4574,-24.7959,17.0115,-22.7655,-4.03067,-14.6536
10.4971,17.4951,-31.0801,3.92618,0.340336,0.748235,4.713,-3.16238,-2.5044,-0.0913952,-4.33946,0.483139,-2.50799,-2.12846,2.18407,1.19455,7.84576,16.3529,-2.58926,10.7161,-23.1203,1.3206,5.45579,-9.67254,1.62041e-14,-4.42296e-15,-34.9068,0.0450433,-86.8128,21.2067,17.7851,-16.9192,21.8323,7.12502,9.31332,-7.94197,1.62041e-14,-4.42296e-15,-35.7701,-10.2081,93.8509,23.3954,6.96521,-19.3025,26.0755,7.12502,7.01315,55.9393,-33.8168,0.497621,19.5917,29.9776,-13.3944,-3.0597,1.04013,0.187524,4.34572,-24.7648,16.2855,-22.5977,-4.18752,-14.4748
10.4942,17.4978,-31.011,3.90511,0.453562,0.903806,4.7766,-3.14978,-2.61416,-0.043981,-4.33065,0.446654,-2.48996,-2.12362,2.20924,1.04573,7.7431,16.6533,-2.47492,10.5832,-23.3621,1.38494,5.37899,-9.81018,3.25727e-14,-4.47266e-16,-35.155,0.0151235,-86.7768,21.2406,17.6577,-17.3813,21.223,7.12502,8.86737,-8.57068,3.25727e-14,-4.47266e-16,-35.8046,-10.5137,94.0513,23.9242,7.02899,-18.7808,26.6474,7.12502,7.51675,56.4939,-34.106,0.410324,19.365,29.3404,-13.5313,-3.09533,4.85124,0.839702,4.16256,-24.9171,15.5526,-22.4618,-3.9247,-15.2144
10.4893,17.5033,-30.9348,3.83766,0.582259,1.05182,4.87759,-3.17913,-2.7691,0.102685,-4.37856,0.460763,-2.37999,-2.14911,2.31316,1.16301,7.80848,16.3375,-2.89422,10.6155,-23.1907,1.22484,5.4125,-9.70549,1.54307e-14,7.03201e-15,-35.1157,-0.113546,-86.5483,21.0151,18.0529,-17.2421,21.2418,7.12502,9.00176,-8.5461,1.54307e-14,7.03201e-15,-35.6376,-11.0729,94.4794,24.3,8.02421,-19.0327,26.8403,7.12502,7.27362,56.6953,-34.2958,0.104061,19.2019,28.7262,-13.7043,-2.77414,5.07703,1.55587,3.92404,-25.0567,14.8707,-22.3433,-3.81044,-15.1714
10.485,17.5004,-30.8592,3.90604,0.768829,1.02576,4.85286,-3.26538,-2.61084,0.203898,-4.48214,0.472285,-2.2669,-2.20557,2.23752,1.04279,7.87775,16.133,-3.03124,10.6693,-23.05,1.19723,5.43585,-9.61369,9.307e-14,-5.7896e-15,-35.0331,-0.164428,-86.4515,20.7391,18.1631,-16.9277,21.4283,7.12502,9.30513,-8.34638,9.307e-14,-5.7896e-15,-35.4606,-11.6091,94.8604,24.4509,9.0892,-20.0659,26.3837,7.12502,6.27622,56.2707,-34.6244,-0.428092,19.3134,28.1478,-13.9419,-2.59498,2.32809,2.14724,3.84543,-24.9842,14.1326,-22.1772,-4.07848,-14.4907
10.4787,17.49,-30.7826,3.99954,0.79873,1.0337,4.96165,-3.27392,-2.52071,0.106696,-4.49293,0.462954,-2.43499,-2.20787,2.19006,1.20125,7.86431,16.1436,-3.08451,10.6618,-23.0039,1.15065,5.44197,-9.60917,1.22082e-14,1.39895e-14,-35.3187,-0.0788623,-86.4991,20.5813,17.671,-16.8695,21.5671,7.12502,9.36122,-8.20506,1.22082e-14,1.39895e-14,-35.6135,-11.7127,94.9948,24.6954,8.93097,-20.1394,26.4469,7.12502,6.20528,56.336,-35.0428,-0.739259,19.3962,27.6071,-13.9124,-2.73083,0.78469,2.68969,3.71757,-24.9897,13.4331,-22.0412,-3.8712,-15.3813
10.4728,17.4807,-30.7039,4.12209,0.715773,1.07839,5.09483,-3.24425,-2.61709,-0.0356387,-4.46122,0.585241,-2.64104,-2.18504,2.38178,1.32249,7.84866,15.9623,-3.12688,10.6447,-23.0362,1.10597,5.44341,-9.59673,-3.9934e-14,-9.91439e-15,-35.6298,0.226091,-86.4032,20.3115,16.9892,-16.9109,21.7487,7.12502,9.32128,-8.02523,-3.9934e-14,-9.91439e-15,-35.7951,-11.5183,95.228,25.0037,8.56203,-19.3881,26.4693,7.12502,6.93051,56.3359,-35.4747,-0.807103,19.367,27.0685,-13.7158,-2.60607,-0.416374,3.15001,3.49337,-25.0743,12.8686,-21.9864,-3.42407,-16.535
10.4692,17.4702,-30.6223,4.20389,0.764847,1.14298,5.00905,-3.31019,-2.67464,0.114167,-4.54455,0.720251,-2.41819,-2.23125,2.54514,0.986746,7.94595,15.4791,-3.28244,10.7039,-22.9432,1.09876,5.46078,-9.46267,-2.842e-14,7.55382e-15,-35.334,0.583291,-86.2447,19.9396,16.7088,-16.8845,21.8376,7.12502,9.3468,-7.93517,-2.842e-14,7.55382e-15,-35.4809,-11.5108,95.5525,25.2056,8.90721,-19.2514,25.8551,7.12502,7.06252,55.7173,-35.7997,-1.17911,19.3617,26.5639,-13.8302,-2.08603,1.03186,3.68764,3.25231,-25.1542,12.2775,-21.9428,-3.30897,-16.2409
10.4634,17.46,-30.5364,4.17127,0.945548,1.15355,5.04839,-3.26821,-2.55133,0.139626,-4.48414,0.642584,-2.43328,-2.20274,2.39509,1.13292,7.80648,15.7727,-3.34205,10.5259,-22.9882,1.04107,5.38046,-9.55119,-5.65418e-14,-2.98177e-15,-35.4834,0.119814,-86.0866,19.863,17.008,-16.3655,21.628,7.12502,9.84759,-8.1217,-5.65418e-14,-2.98177e-15,-35.654,-12.4014,95.9634,25.5461,9.74847,-19.5016,25.812,7.12502,6.82094,55.6821,-35.9483,-1.51826,19.3893,26.1103,-14.1453,-2.05031,1.46854,4.41332,2.87198,-25.1526,11.6123,-21.8487,-3.07869,-16.1537
10.4526,17.4546,-30.4527,4.15754,1.12592,1.06214,5.25299,-3.28318,-2.40989,0.127292,-4.5002,0.663827,-2.56864,-2.20954,2.35392,1.00326,7.79777,16.0271,-3.19777,10.5278,-23.0885,1.12564,5.36955,-9.62066,4.53478e-14,-7.90169e-15,-35.6917,-0.00836458,-85.9884,19.8403,17.1994,-16.3098,21.6963,7.12502,9.90132,-8.05085,4.53478e-14,-7.90169e-15,-35.797,-12.9465,96.2506,25.9079,10.335,-19.6121,26.0514,7.12502,6.7143,55.9249,-36.1023,-1.34214,19.3292,25.6919,-14.6443,-2.43283,1.36618,5.12026,2.46136,-25.0378,10.9439,-21.7078,-2.44859,-18.0124
10.4392,17.4424,-30.3687,4.16355,1.27869,1.07863,5.35823,-3.30743,-2.47711,0.170136,-4.53688,0.723061,-2.57125,-2.22708,2.45971,0.965108,7.80514,16.0177,-3.25698,10.5244,-23.0609,1.11272,5.36716,-9.60905,9.8709e-15,-7.40473e-15,-35.8626,-0.116054,-85.7691,19.809,17.685,-16.6719,21.5084,7.12502,9.55197,-8.25507,9.8709e-15,-7.40473e-15,-35.6839,-13.0353,96.3809,26.0977,9.98535,-19.246,26.7033,7.12502,7.06766,56.5653,-36.3482,-1.38525,19.2172,25.3847,-15.1141,-2.33645,2.83095,6.02072,2.16736,-25.0194,9.83863,-21.3699,-2.00907,-20.0307
10.4293,17.429,-30.2778,4.1411,1.24157,1.12213,5.42793,-3.28609,-2.51229,0.0837154,-4.51274,0.744989,-2.6964,-2.21123,2.5086,1.57816,7.66869,15.9051,-3.57252,10.3575,-22.9922,0.873136,5.32711,-9.61463,-1.43622e-14,1.68967e-14,-36.3157,-0.438796,-85.4194,19.8545,18.7049,-16.893,21.49,7.12502,9.33858,-8.28311,-1.43622e-14,1.68967e-14,-35.9017,-13.1309,96.638,26.3321,9.90051,-19.0404,27.2602,7.12502,7.26616,57.1155,-36.5126,-1.62585,19.2029,25.0102,-15.1741,-1.84852,4.41165,6.77212,2.06448,-25.0611,9.06404,-21.2116,-1.78593,-20.9958
10.4085,17.4422,-30.1604,3.56193,3.0606,1.07954,6.02711,-3.85393,-2.31707,0.332331,-5.26526,0.788473,-2.74291,-2.58935,2.53066,1.13,7.73723,15.8926,-3.48228,10.4122,-22.9678,0.985115,5.32659,-9.57635,-2.39039e-14,-3.77691e-15,-36.2571,-0.805052,-85.1836,19.7408,19.1988,-18.0174,23.101,7.12502,8.25352,-6.71774,-2.39039e-14,-3.77691e-15,-35.7572,-13.2866,96.736,26.4444,10.0199,-19.093,26.7236,7.12502,7.21539,56.5806,-35.5109,-1.5092,18.535,24.71,-15.3319,-3.80612,3.99182,8.22868,0.148696,-24.716,8.18037,-20.8542,-1.77765,-20.7734
10.4145,17.4209,-30.095,4.25688,1.96809,0.919174,5.73445,-3.52422,-2.05762,0.103228,-4.80274,0.88101,-2.85587,-2.35793,2.43735,0.999875,7.84424,15.8661,-3.48459,10.5456,-23.0003,1.03489,5.38637,-9.56612,2.60905e-16,0,-36.2988,-0.598455,-85.1136,19.8479,18.786,-16.0929,21.1883,7.12502,10.1106,-8.54876,2.60905e-16,0,-35.588,-12.8624,96.7217,26.451,9.57962,-18.7856,26.5169,7.12502,7.51206,56.3635,-36.7902,-1.81613,19.097,24.3596,-14.952,-2.00019,3.19503,8.23285,1.06526,-24.7851,7.28933,-20.5604,-1.64114,-20.7276
10.401,17.4118,-29.9969,4.33305,2.10801,0.785594,5.69044,-3.57368,-1.97247,0.0502894,-4.85784,1.04431,-2.87578,-2.38497,2.56093,1.09405,7.82022,15.8733,-3.4117,10.5363,-23.0966,1.04386,5.3866,-9.6042,-8.79995e-14,-1.68967e-15,-36.5484,-0.453106,-84.9184,19.9519,18.5202,-15.1833,20.535,7.12502,10.988,-9.15742,-8.79995e-14,-1.68967e-15,-35.6883,-12.8628,97.0605,26.622,9.86553,-18.404,27.1285,7.12502,7.88043,56.9616,-37.0062,-1.78035,19.1309,24.2062,-15.0757,-1.6467,4.2738,9.50022,0.784979,-24.6077,5.44556,-19.8865,-1.61639,-20.6256
10.3884,17.3992,-29.9021,4.35332,2.1243,0.662581,5.76144,-3.56785,-1.78794,-0.0153599,-4.83758,1.09817,-2.99501,-2.37446,2.52095,0.853223,7.71288,16.1827,-2.97895,10.4342,-23.3766,1.22209,5.31155,-9.74322,-5.63306e-14,1.33186e-14,-36.7541,-1.01935,-84.5375,19.6759,19.1027,-15.2532,20.8508,7.12502,10.9206,-8.84525,-5.63306e-14,1.33186e-14,-35.9373,-13.312,97.4653,26.8093,10.7285,-18.6571,26.9789,7.12502,7.6361,56.821,-37.0921,-1.56461,19.1122,23.9371,-15.0104,-1.61487,4.87105,10.2177,0.633208,-24.462,4.73486,-19.648,-1.19563,-21.9799
10.3548,17.3976,-29.7795,3.62277,3.39258,0.710259,6.42743,-3.91297,-1.90708,0.209494,-5.3129,1.11026,-3.09723,-2.60872,2.67655,1.46456,7.66986,15.8969,-3.62672,10.3391,-22.9827,0.873049,5.31363,-9.60681,1.45361e-14,-6.95746e-15,-36.8789,-1.63363,-84.2273,19.4668,19.6874,-15.6756,21.2045,7.12502,10.5131,-8.51261,1.45361e-14,-6.95746e-15,-36.0428,-13.585,97.6704,26.9435,11.0645,-19.2568,26.2953,7.12502,7.05726,56.1576,-36.0229,-1.19607,18.4328,23.8861,-15.1588,-3.38621,4.27852,12.4425,-0.734835,-24.3065,2.78673,-18.8094,-0.701975,-24.3612
10.3578,17.3803,-29.6968,4.41116,2.49742,0.828646,5.873,-3.49992,-1.91012,-0.0310574,-4.75894,1.03585,-3.07334,-2.33221,2.52767,1.6106,7.54057,16.0016,-3.87304,10.1434,-22.8298,0.73521,5.22753,-9.59939,-3.96575e-14,3.97569e-16,-37.0305,-2.10932,-83.9662,19.4437,19.9325,-15.7458,21.3295,7.12502,10.4454,-8.39104,-3.96575e-14,3.97569e-16,-36.0893,-13.8704,97.8262,27.0638,10.7465,-18.9992,26.567,7.12502,7.30589,56.4208,-37.3274,-1.72426,18.7205,23.9028,-14.8186,-1.75273,3.29351,13.3997,-0.0386707,-24.5955,5.725e-14,-17.6578,-0.506137,-25.6853
10.3465,17.368,-29.5921,4.36866,2.5596,0.798297,5.95291,-3.46179,-1.84481,0.0411178,-4.70349,1.06061,-3.04961,-2.30637,2.51523,1.48535,7.55053,16.1422,-3.89027,10.1447,-22.8738,0.763274,5.22092,-9.6331,-1.12313e-14,-1.39149e-15,-37.0375,-2.61913,-83.5869,19.3952,20.3594,-15.2982,20.557,7.12502,10.8771,-9.14126,-1.12313e-14,-1.39149e-15,-36.0265,-14.1394,98.0228,27.1412,10.9009,-19.0844,26.8375,7.12502,7.22367,56.6942,-37.2964,-1.54896,18.5749,23.9947,-14.8641,-1.58962,3.91883,13.8439,-0.236441,-24.5518,-3.81667e-14,-17.8894,-0.276604,-25.9328
10.3116,17.3575,-29.4659,4.00041,3.55522,0.784367,6.15999,-3.93841,-1.99014,0.291086,-5.34336,1.27018,-2.83881,-2.62803,2.86282,1.21277,7.78485,15.8642,-3.85534,10.435,-22.9188,0.866721,5.35273,-9.56416,4.52732e-14,-4.37326e-15,-36.8089,-2.26278,-83.4592,19.3434,20.4698,-15.0796,20.5301,7.12502,11.088,-9.157,4.52732e-14,-4.37326e-15,-35.7874,-13.8649,98.1383,27.1841,11.284,-19.9882,26.3544,7.12502,6.3512,56.2391,-36.4852,-0.690112,17.8582,23.9415,-15.2038,-3.13054,5.91042,14.6482,-1.35593,-24.3626,3.18055e-15,-17.8725,0.10233,-27.2182
10.2875,17.3358,-29.3569,4.13354,3.65871,0.739063,6.08601,-4.0956,-2.07256,0.32027,-5.5519,1.45438,-2.72847,-2.73287,3.10478,0.935965,7.97272,15.6352,-3.72505,10.6771,-22.9155,0.986372,5.45663,-9.48823,-3.57564e-14,1.90833e-14,-36.5937,-1.76945,-83.421,19.1658,20.5378,-15.5843,22.3289,7.12502,10.6012,-7.38375,-3.57564e-14,1.90833e-14,-35.6439,-13.499,98.1696,27.1985,10.7649,-19.8048,26.2241,7.12502,6.52829,56.1035,-36.6223,-0.417995,17.7357,24.0657,-15.3041,-3.6304,6.07844,14.8798,-1.61824,-24.242,2.22639e-14,-17.7094,0.423309,-28.5353
10.2819,17.3092,-29.2631,4.65207,2.99559,0.602089,5.74593,-3.77438,-1.84157,0.149931,-5.10448,1.45961,-2.76347,-2.51063,2.93178,1.01777,7.91101,15.8377,-3.73757,10.605,-22.929,0.96682,5.42425,-9.5379,3.8266e-15,-1.33186e-14,-36.746,-2.08246,-83.2209,19.1077,20.6442,-16.0938,23.3191,7.12502,10.1097,-6.41804,3.8266e-15,-1.33186e-14,-35.7765,-13.9042,98.3824,27.2931,10.4336,-18.8995,26.5727,7.12502,7.40212,56.4232,-37.3813,-0.52629,18.1062,24.2388,-15.2144,-3.30283,4.53271,14.7115,-1.12798,-24.1425,4.13472e-14,-17.6651,0.426235,-28.4308
10.2501,17.3067,-29.1307,4.137,3.90364,0.462845,6.11801,-3.93646,-1.72832,0.281795,-5.31616,1.46225,-2.83206,-2.61706,2.91043,1.3727,7.75177,16.1385,-4.02416,10.3934,-22.9838,0.803638,5.34359,-9.64849,-6.39838e-14,5.56597e-15,-37.1196,-2.22461,-83.2691,19.3368,19.9144,-16.1745,22.3183,7.12502,10.0318,-7.42263,-6.39838e-14,5.56597e-15,-36.0622,-14.3768,98.5653,27.5761,10.7272,-18.4382,26.8814,7.12502,7.84745,56.7158,-36.379,-0.169023,17.8775,24.4707,-15.458,-4.88088,3.42754,15.7665,-2.14929,-23.8265,-2.22639e-14,-17.6489,0.191025,-26.8726
10.2283,17.2931,-29.0074,3.95338,4.14281,0.411801,6.23932,-4.00748,-1.70764,0.305357,-5.40912,1.50573,-2.86754,-2.66291,2.95944,1.611,7.65423,16.2826,-4.19504,10.267,-23.0831,0.703887,5.29791,-9.73234,1.22501e-14,-1.09332e-14,-37.3228,-1.841,-83.4586,19.4742,19.0686,-16.0655,20.8126,7.12502,10.137,-8.92324,1.22501e-14,-1.09332e-14,-36.2649,-14.029,98.5013,27.8393,10.69,-18.3195,26.9566,7.12502,7.962,56.7867,-35.9701,-0.0916655,17.885,24.7805,-15.2399,-5.11643,3.80498,16.4509,-2.52476,-23.7122,-2.54444e-14,-17.5605,0.154775,-26.153
10.2099,17.268,-28.8906,4.08769,3.99587,0.634405,6.14555,-3.99734,-1.99926,0.347112,-5.414,1.54183,-2.7413,-2.66467,3.14784,1.06004,7.73865,16.321,-3.83557,10.3707,-23.1612,0.928474,5.31066,-9.72365,-5.7896e-15,-6.95746e-15,-37.2359,-1.39916,-83.5069,19.4902,19.035,-16.2696,20.4206,7.12502,9.94004,-9.32468,-5.7896e-15,-6.95746e-15,-36.1447,-13.6238,98.4703,28.0054,10.6681,-18.259,26.8024,7.12502,8.02039,56.6302,-36.1009,-0.193722,17.7717,25.2023,-14.8694,-4.84227,4.24185,16.776,-2.54464,-23.9372,2.8625e-14,-17.4675,0.271955,-26.5129
10.1886,17.2537,-28.7715,4.30786,3.98371,0.642298,5.94662,-4.04233,-2.02951,0.325128,-5.47185,1.60292,-2.64034,-2.69497,3.2158,0.641546,7.80662,16.4011,-3.49656,10.4659,-23.2146,1.12334,5.32586,-9.72185,-2.86498e-14,1.98785e-14,-37.3482,-1.21662,-83.4704,19.6937,19.1914,-16.6417,21.2123,7.12502,9.5811,-8.5498,-2.86498e-14,1.98785e-14,-36.2655,-13.7933,98.659,28.2416,11.1498,-18.4132,26.6508,7.12502,7.8715,56.4842,-36.2193,-0.373929,17.9309,25.6152,-14.6775,-4.80953,4.48606,16.9813,-2.69878,-23.8939,1.90833e-14,-17.266,0.349157,-27.0189
10.1642,17.2424,-28.6439,4.39427,4.17467,0.432074,5.87494,-4.09454,-1.80428,0.271399,-5.52298,1.69333,-2.66465,-2.72178,3.18463,0.651927,7.78078,16.3564,-3.57539,10.4174,-23.1119,1.07997,5.30353,-9.68471,7.95139e-16,-1.21259e-14,-37.6427,-1.24652,-83.4244,20.1605,18.8166,-16.3053,21.3307,7.12502,9.90566,-8.41626,7.95139e-16,-1.21259e-14,-36.6173,-14.2396,99.0017,28.4352,12.0246,-19.2751,26.4956,7.12502,7.03959,56.3585,-36.0525,-0.322521,18.212,26.1032,-14.434,-5.23576,4.95663,17.3414,-3.03782,-23.5874,-1.59028e-14,-16.9996,0.724529,-29.2531
10.1338,17.2242,-28.5087,4.26058,4.38358,0.435644,6.02547,-4.06713,-1.8741,0.262125,-5.49274,1.69315,-2.75374,-2.70393,3.23421,0.675581,7.71227,16.3034,-3.59982,10.3177,-22.8434,1.02701,5.25354,-9.59329,2.48481e-14,2.98177e-15,-37.8765,-1.36,-83.4235,20.3855,18.4365,-16.0304,20.3761,7.12502,10.1708,-9.35807,2.48481e-14,2.98177e-15,-36.9169,-14.4961,99.1783,28.6189,12.4265,-19.4013,26.6905,7.12502,6.9178,56.5575,-35.6427,-0.231899,18.2888,26.6832,-14.0874,-5.96155,4.05342,17.9978,-3.39647,-23.509,3.81667e-14,-16.7751,1.07153,-30.8903
10.1019,17.2181,-28.3714,4.24474,4.57911,0.459949,6.00382,-4.0654,-1.96421,0.234271,-5.49716,1.67025,-2.76397,-2.70467,3.26041,0.607984,7.64795,16.3891,-3.44109,10.2429,-22.6992,1.0625,5.20669,-9.55895,-2.78547e-14,-1.05356e-14,-38.0025,-1.47636,-83.4466,20.3307,18.1897,-16.0185,19.7745,7.12502,10.1824,-9.95911,-2.78547e-14,-1.05356e-14,-37.1458,-14.41,99.0676,28.8498,12.1041,-18.6819,27.0036,7.12502,7.61221,56.8466,-35.4393,-0.205319,18.4199,27.328,-13.3532,-6.85049,2.53798,18.5018,-3.75101,-23.4472,-4.77083e-14,-16.4912,1.23731,-31.2485
10.0725,17.2241,-28.2324,4.3821,4.6488,0.373797,5.75611,-4.11523,-1.89859,0.170434,-5.555,1.7255,-2.68841,-2.73522,3.26717,0.703067,7.61322,16.473,-3.45471,10.2076,-22.8141,1.04747,5.19516,-9.62029,5.61567e-14,-1.76918e-14,-38.2563,-1.39475,-83.4094,20.5337,17.9957,-15.6554,19.9044,7.12502,10.5326,-9.81171,5.61567e-14,-1.76918e-14,-37.4515,-14.2893,99.1117,29.0356,12.5613,-19.5495,26.2351,7.12502,6.77473,56.1067,-35.4842,0.0270836,18.6223,27.994,-12.0597,-7.62339,1.01056,18.8193,-3.98336,-23.2673,5.725e-14,-16.1239,1.60205,-33.1007
10.0465,17.2285,-28.0955,4.53155,4.44054,0.346705,5.57133,-4.09926,-1.87607,0.0551655,-5.5287,1.79206,-2.70159,-2.72094,3.31172,0.913575,7.59743,16.4356,-3.51018,10.2045,-22.8779,0.997008,5.20768,-9.64673,4.57205e-15,3.77691e-15,-38.5892,-1.1269,-83.3357,20.7899,18.0129,-15.7352,20.0473,7.12502,10.4556,-9.67267,4.57205e-15,3.77691e-15,-37.7762,-14.1038,99.2136,29.1582,12.8668,-20.1871,25.5488,7.12502,6.15922,55.4393,-35.633,-0.0371285,18.8853,28.5922,-10.942,-7.36225,-0.0841443,19.1618,-3.94199,-23.1772,-1.27222e-14,-15.7577,1.86337,-35.0526
10.0209,17.2299,-27.961,4.7032,4.31859,0.339301,5.4869,-4.11578,-1.8739,-0.15238,-5.54819,1.85434,-2.86163,-2.72524,3.37983,1.47264,7.57128,16.2353,-3.71222,10.2024,-22.6734,0.81814,5.24188,-9.57273,1.9133e-14,-9.14409e-15,-38.781,-1.19841,-83.1192,20.6148,18.3927,-16.1943,20.4669,7.12502,10.0127,-9.27495,1.9133e-14,-9.14409e-15,-38.1296,-13.7393,99.1527,29.2816,12.1581,-19.2103,25.9291,7.12502,7.10218,55.79,-35.8176,-0.399839,19.1525,29.1082,-10.3861,-6.5249,-0.515471,19.4619,-3.98937,-23.0979,-3.18055e-15,-15.3591,1.75293,-35.5422
9.99231,17.2231,-27.8275,4.74989,4.28757,0.0959661,5.42325,-4.12179,-1.64982,-0.204548,-5.53878,1.93318,-2.8939,-2.72226,3.33389,1.74357,7.58206,16.1851,-3.80703,10.2354,-22.5144,0.737827,5.27371,-9.52258,2.4202e-14,-1.39149e-14,-38.699,-1.72302,-82.8184,20.2463,19.0224,-16.5912,21.1465,7.12502,9.62982,-8.61339,2.4202e-14,-1.39149e-14,-38.2705,-13.5821,99.0109,29.3331,11.7212,-18.499,26.1524,7.12502,7.78877,55.9889,-35.8343,-0.764555,19.6745,29.5722,-10.1945,-5.84151,-1.42884,19.8689,-4.11121,-22.7431,9.54166e-15,-14.8086,1.57117,-35.5333
9.96566,17.2164,-27.6944,4.78919,4.03213,-0.198854,5.29498,-4.02402,-1.37242,-0.082948,-5.38788,2.02125,-2.72348,-2.65477,3.24374,1.05646,7.69029,16.2512,-3.39591,10.3611,-22.5493,1.00294,5.28921,-9.49527,6.23687e-14,-2.14687e-14,-38.3942,-1.85719,-82.7665,20.0603,18.9869,-16.7858,21.0289,7.12502,9.44198,-8.73957,6.23687e-14,-2.14687e-14,-38.0629,-13.4582,98.8009,29.2586,11.5994,-18.7198,26.0276,7.12502,7.5756,55.8719,-35.8248,-1.05194,20.2881,29.9942,-10.022,-5.10871,-2.0945,20.3035,-4.00694,-22.3505,4.45278e-14,-14.2024,1.32065,-34.8851
9.9413,17.222,-27.5564,4.89378,3.70346,-0.302209,5.23976,-3.85099,-1.28541,-0.16576,-5.15015,2.05974,-2.79724,-2.53525,3.21944,0.265549,7.61667,16.7071,-2.54411,10.2965,-22.9358,1.41602,5.19385,-9.66083,3.68249e-14,-1.98785e-14,-38.4584,-1.98537,-82.6895,20.0472,18.5344,-16.4469,20.5943,7.12502,9.76898,-9.15913,3.68249e-14,-1.98785e-14,-38.2897,-13.319,98.7391,29.2488,11.4028,-19.5253,25.904,7.12502,6.79804,55.7748,-35.8118,-1.04048,20.5661,30.4245,-9.68906,-4.56271,-2.42937,20.6861,-3.84548,-22.163,1.59028e-14,-13.5105,0.675334,-32.4445
9.91397,17.226,-27.4122,4.89233,3.40519,-0.391358,5.29076,-3.75554,-1.24105,-0.324116,-5.01788,2.11072,-2.99692,-2.46488,3.25064,0.994859,7.57984,16.2966,-2.99699,10.259,-22.5451,1.10611,5.22598,-9.49958,-4.1049e-14,-4.77083e-15,-38.7407,-2.14666,-82.483,20.1135,18.6091,-16.3275,20.449,7.12502,9.88423,-9.29899,-4.1049e-14,-4.77083e-15,-38.7464,-12.8022,98.562,29.3761,10.886,-19.6481,26.0959,7.12502,6.6795,55.9705,-35.6386,-0.958204,20.7968,30.9139,-9.54063,-4.25314,-1.95882,21.1814,-3.71566,-21.979,-5.40694e-14,-12.5932,0.0587064,-30.3602
9.88349,17.2253,-27.2661,4.80546,3.19309,-0.613103,5.33571,-3.7741,-1.07608,-0.383526,-5.02887,2.2036,-3.08867,-2.47033,3.26222,1.4119,7.67227,16.0065,-3.22999,10.3961,-22.3244,0.965252,5.32225,-9.38811,-4.77083e-14,1.27222e-14,-38.803,-2.04054,-82.3716,19.9247,19.0582,-16.8539,20.7887,7.12502,9.3763,-8.98274,-4.77083e-14,1.27222e-14,-39.1288,-12.2123,98.3249,29.6494,11.0905,-19.5074,26.218,7.12502,6.81532,56.0883,-35.3327,-1.02097,21.2284,31.4281,-9.69418,-4.21377,-3.35937,21.7461,-3.66447,-21.6377,-7.95139e-14,-11.5932,-0.251904,-30.5647
9.8545,17.228,-27.1217,4.71362,2.96719,-0.77128,5.39305,-3.74119,-1.00053,-0.245571,-4.9788,2.28002,-2.98086,-2.44899,3.29307,0.785776,7.83516,15.8694,-3.08352,10.5618,-22.1994,1.13134,5.36652,-9.27665,-7.00716e-15,-1.70955e-14,-38.2806,-2.02193,-82.3096,19.5999,18.9437,-16.4645,21.1689,7.12502,9.75206,-8.58531,-7.00716e-15,-1.70955e-14,-39.1603,-11.9757,98.1607,29.9624,11.9247,-20.2593,25.6689,7.12502,6.08949,55.5614,-34.9695,-1.15886,21.6183,31.8885,-9.84367,-4.29097,-6.94678,19.5988,-3.55358,-21.3732,5.15486,-12.8975,-0.267499,-30.6575
9.82644,17.2285,-26.9814,4.64927,2.68038,-0.668509,5.38943,-3.6816,-1.19198,-0.357336,-4.91103,2.28116,-3.08246,-2.40968,3.40107,1.35245,7.72026,15.8194,-3.26821,10.443,-22.1504,0.951958,5.34251,-9.29139,3.03147e-14,-7.95139e-16,-38.2917,-1.92748,-82.294,19.9753,17.5499,-13.5036,19.6585,7.12502,12.6077,-9.94101,3.03147e-14,-7.95139e-16,-39.7321,-11.5501,98.036,30.2504,12.0113,-20.8216,25.1851,7.12502,5.54658,55.0926,-34.6847,-1.30141,21.7098,32.2918,-9.8685,-4.06548,-7.76485,18.3124,-3.40637,-21.4188,8.64391,-13.1824,-0.310241,-30.295
9.79526,17.2307,-26.8428,4.60151,2.56323,-0.681334,5.34339,-3.64271,-1.21614,-0.344748,-4.86128,2.26786,-3.046,-2.38538,3.3931,1.23003,7.69347,15.9958,-3.03452,10.4291,-22.1928,1.04832,5.32275,-9.32693,5.46658e-16,7.15625e-15,-38.1341,-2.98334,-81.6391,19.1926,20.1487,-14.0496,20.6807,7.12502,12.0813,-8.95052,5.46658e-16,7.15625e-15,-40.0055,-11.3487,97.8383,30.3362,12.1226,-20.5496,25.1532,7.12502,5.80925,55.0535,-34.4043,-1.41926,21.8976,32.6221,-9.8878,-3.82129,-7.22968,17.3741,-3.43123,-21.3,11.3088,-12.8503,-0.326565,-30.8938
9.76251,17.2434,-26.696,4.52381,2.51695,-0.844066,5.20086,-3.58415,-1.10699,-0.217085,-4.77757,2.25813,-2.8493,-2.34987,3.29958,0.714977,7.66032,16.5376,-2.57341,10.3996,-22.463,1.30894,5.26837,-9.48245,-2.23633e-15,-4.37326e-15,-37.7458,-3.51412,-81.5665,19.2126,19.9252,-12.5689,18.4956,7.12502,13.5087,-11.0462,-2.23633e-15,-4.37326e-15,-40.0209,-11.2546,97.4979,30.3441,12.2957,-20.0722,25.4216,7.12502,6.27007,55.3088,-33.9634,-1.57354,22.2873,32.8842,-10.0892,-3.60248,-8.00665,16.5684,-3.23418,-20.9001,13.7328,-12.328,-0.859854,-30.6377
9.72938,17.2635,-26.5451,4.39346,2.44577,-0.912992,5.10093,-3.57288,-1.10403,-0.0977373,-4.76373,2.25077,-2.67182,-2.34705,3.27613,0.570157,7.65438,16.8526,-2.46358,10.3983,-22.7198,1.39957,5.25723,-9.61674,-1.89839e-14,2.62396e-14,-37.3173,-3.81974,-81.5115,18.9293,20.0662,-12.5107,17.9513,7.12502,13.5648,-11.5868,-1.89839e-14,2.62396e-14,-40.0786,-11.0139,97.0588,30.5081,12.1116,-19.645,25.9467,7.12502,6.68257,55.8213,-33.3747,-1.68653,22.5603,33.1071,-10.5186,-3.19573,-7.17288,15.8453,-3.0204,-20.6169,16.0932,-11.5151,-1.35888,-29.3648
9.69676,17.285,-26.3998,4.19014,2.62417,-1.07555,5.23381,-3.71013,-0.950426,-0.0595986,-4.93529,2.32887,-2.70216,-2.43401,3.29079,0.753635,7.73568,16.5874,-2.63277,10.504,-22.5962,1.31884,5.32418,-9.53087,3.96078e-14,-1.82882e-14,-37.0448,-3.7836,-81.478,18.6765,20.487,-13.3499,18.9309,7.12502,12.7559,-10.6594,3.96078e-14,-1.82882e-14,-40.3428,-10.8558,96.9205,30.7002,12.6852,-19.9336,26.0353,7.12502,6.40397,55.9185,-32.6468,-1.91025,22.8819,33.2554,-11.0554,-2.65414,-2.93919,15.0888,-2.90952,-20.1706,18.5224,-10.5086,-1.8057,-28.9745
9.66243,17.3032,-26.2594,4.00909,2.92077,-1.28874,5.34331,-3.83221,-0.74527,-0.0834267,-5.08251,2.39785,-2.79054,-2.50815,3.26783,1.10128,7.69686,16.3986,-2.78251,10.4657,-22.3982,1.18475,5.32725,-9.45278,4.30866e-14,3.57812e-15,-36.9753,-3.82532,-81.4512,18.655,20.667,-14.2469,20.3377,7.12502,11.891,-9.30467,4.30866e-14,3.57812e-15,-40.6379,-10.9229,96.9215,30.779,13.5125,-20.4213,26.139,7.12502,5.93311,56.036,-31.8845,-2.17981,23.2611,33.255,-11.6245,-2.30087,0.280783,14.1239,-2.79167,-19.632,21.1839,-9.55771,-2.36277,-29.5106
9.62468,17.3291,-26.1168,3.90522,2.9714,-1.47515,5.30193,-3.82026,-0.649344,-0.107778,-5.0589,2.45716,-2.79687,-2.49717,3.27209,1.1974,7.55637,16.5082,-2.64129,10.3066,-22.4708,1.18612,5.25046,-9.51111,-3.76697e-14,1.51076e-14,-36.8312,-4.07129,-81.3364,18.5781,20.6746,-14.273,21.5029,7.12502,11.8658,-8.14089,-3.76697e-14,1.51076e-14,-40.8667,-10.7851,96.6487,30.9451,12.9865,-19.6598,26.7086,7.12502,6.66823,56.5836,-31.0708,-2.02725,23.5872,33.0185,-12.1215,-2.354,1.9927,12.8521,-2.36936,-19.1224,24.1759,-8.22457,-2.81242,-30.6958
9.59558,17.3608,-25.9766,3.88799,2.79413,-1.75627,5.22866,-3.79647,-0.435899,-0.108696,-5.01025,2.61266,-2.76406,-2.47562,3.30488,1.09022,7.57647,16.2976,-2.48047,10.3389,-22.439,1.2422,5.25824,-9.45354,-1.21259e-14,7.15625e-15,-36.5419,-4.62613,-80.7936,17.7859,23.1002,-16.241,23.4263,7.12502,9.96762,-6.31765,-1.21259e-14,7.15625e-15,-41.0089,-10.1956,96.2813,31.2136,12.185,-18.7161,26.7373,7.12502,7.57919,56.5815,-30.2754,-1.78175,24.0142,32.5828,-12.4039,-2.32253,3.80198,11.3561,-1.76977,-18.5881,27.3059,-6.42002,-3.20649,-31.097
9.58514,17.3785,-25.8524,4.03332,2.29181,-2.04712,5.15219,-3.64342,0.0222198,-0.182211,-4.77598,2.66096,-2.84398,-2.36318,3.0825,1.16652,7.64166,16.0804,-2.40941,10.4411,-22.2274,1.2429,5.31133,-9.33864,-6.65929e-14,1.27222e-14,-36.1621,-4.35866,-81.1032,18.4372,21.1634,-13.9866,20.3088,7.12502,12.142,-9.31886,-6.65929e-14,1.27222e-14,-41.0762,-9.97092,96.0492,31.2796,12.2577,-18.5346,26.4382,7.12502,7.75441,56.276,-29.8273,-1.8476,24.5295,32.0477,-12.4575,-1.89759,1.74797,9.6178,-0.845957,-18.1835,30.4455,-4.76257,-3.6137,-27.873
9.562,17.3981,-25.7173,3.83942,2.33283,-2.17566,5.20848,-3.52131,0.29014,-0.122496,-4.59914,2.56326,-2.85187,-2.27917,2.82228,1.16588,7.54114,16.2324,-2.21972,10.3291,-22.0755,1.27192,5.24983,-9.31899,2.70347e-14,-3.73715e-14,-35.9716,-5.40462,-80.7765,17.8815,22.9757,-15.49,21.0968,7.12502,10.6921,-8.61113,2.70347e-14,-3.73715e-14,-41.1352,-10.7324,96.1253,31.2164,13.0893,-19.0414,26.2115,7.12502,7.26515,56.0667,-28.8881,-2.05832,24.836,31.5211,-12.688,-1.98346,-0.943106,8.28597,-0.129236,-17.704,33.403,-2.93439,-3.94046,-21.1637
9.53986,17.428,-25.5835,3.71524,2.34698,-2.20241,5.15008,-3.40685,0.445708,-0.0560843,-4.44175,2.47159,-2.77663,-2.20416,2.62321,1.12974,7.40448,16.2981,-2.03419,10.1589,-21.899,1.28813,5.15806,-9.27889,-5.62312e-14,-1.59028e-15,-35.7325,-5.80386,-80.7376,17.68,23.5124,-16.0922,21.3992,7.12502,10.1112,-8.33785,-5.62312e-14,-1.59028e-15,-41.2934,-11.4688,96.2542,31.3613,13.8611,-19.7387,26.0077,7.12502,6.59212,55.8851,-27.9023,-1.91943,24.8965,31.0265,-12.9623,-1.96808,0.17574,6.92197,0.423727,-17.4258,36.203,-0.606906,-3.5882,-15.8154
9.51741,17.465,-25.4492,3.70029,2.43277,-2.27903,5.00404,-3.43925,0.610317,-0.0498529,-4.4788,2.44936,-2.70136,-2.22555,2.50104,1.27377,7.36212,16.2181,-1.98714,10.1189,-21.6852,1.25029,5.14388,-9.20156,-6.17475e-14,8.34896e-15,-35.4817,-5.6177,-80.9214,17.7372,23.3867,-16.0936,21.0076,7.12502,10.1098,-8.7295,-6.17475e-14,8.34896e-15,-41.3419,-11.3879,95.8937,31.4678,13.3256,-19.2906,26.176,7.12502,7.02462,56.0395,-27.0285,-1.59796,24.965,30.5307,-13.2027,-2.0547,1.90316,5.44555,0.83139,-17.1563,38.9054,1.29047,-3.20623,-13.3909
9.49515,17.5051,-25.3208,3.66484,2.55251,-2.49786,4.95884,-3.46694,0.923084,-0.0391844,-4.49762,2.47853,-2.68616,-2.23881,2.35533,1.38801,7.33682,16.138,-1.99872,10.0924,-21.5591,1.20971,5.13657,-9.15251,-6.87546e-14,2.66371e-14,-35.1978,-5.37595,-81.1241,17.7859,23.1804,-15.9772,20.4482,7.12502,10.2222,-9.28341,-6.87546e-14,2.66371e-14,-41.2042,-11.1434,95.4303,31.3941,12.3338,-18.4159,26.2886,7.12502,7.86895,56.1222,-26.1715,-1.47467,25.2457,29.9783,-13.3642,-1.97231,4.67423,3.9417,1.22,-16.7289,41.614,2.1213,-2.77802,-11.3419
9.47358,17.5331,-25.1996,3.63106,2.63577,-2.9293,4.98466,-3.39018,1.45195,0.00298073,-4.36138,2.5832,-2.69293,-2.17681,2.16037,0.993109,7.28761,15.997,-1.65398,10.0156,-21.3689,1.33988,5.07012,-9.04659,-9.51682e-15,-2.26615e-14,-34.8351,-5.33735,-81.1812,17.7775,23.2031,-16.4578,20.2666,7.12502,9.75847,-9.48734,-9.51682e-15,-2.26615e-14,-41.0397,-11.2989,95.2768,31.4679,12.0966,-18.2737,26.356,7.12502,8.0062,56.1844,-25.2567,-1.48083,25.8072,29.3206,-13.4988,-1.85091,6.20074,2.37574,1.5726,-16.0945,44.3273,2.20811,-2.12515,-11.0365
9.45376,17.5525,-25.0761,3.56029,2.74853,-3.347,5.05373,-3.35233,1.95224,0.0283709,-4.27654,2.68373,-2.73665,-2.13991,1.98424,0.403932,7.2633,15.9381,-1.0419,9.98762,-21.2096,1.59479,5.01256,-8.9507,2.70347e-14,-5.1684e-15,-34.4439,-5.36432,-81.2052,17.7613,23.4037,-17.4111,20.9035,7.12502,8.83864,-8.89144,2.70347e-14,-5.1684e-15,-40.917,-11.3466,95.066,31.6441,11.9754,-18.0881,27.0366,7.12502,8.18527,56.8581,-24.2837,-1.67515,26.3796,28.5902,-13.7771,-1.84024,3.94804,0.815456,1.87608,-15.5256,46.9675,1.89764,-1.36384,-14.1862
9.4381,17.5767,-24.9525,3.37642,2.86628,-3.43169,5.14306,-3.33052,2.037,0.101121,-4.23929,2.74798,-2.71359,-2.1219,2.00346,0.135261,7.20811,15.9511,-0.645904,9.9341,-21.26,1.74585,4.96412,-8.9578,-6.76862e-14,4.69132e-14,-34.0132,-4.91243,-81.3887,17.9322,22.8568,-17.2885,21.1527,7.12502,8.95698,-8.63721,-6.76862e-14,4.69132e-14,-40.8141,-11.3073,94.9948,31.7342,12.224,-18.2826,27.5102,7.12502,7.99761,57.3389,-23.2,-1.92111,26.5564,27.8467,-14.1313,-1.86653,2.18402,-0.581428,2.08855,-15.4018,49.4279,1.05825,-0.60846,-18.175
9.42222,17.6026,-24.8322,3.22766,2.98642,-3.37293,5.15998,-3.24869,1.87884,0.165644,-4.13879,2.83852,-2.64029,-2.06962,2.17506,0.186926,7.05986,15.8885,-0.50407,9.75652,-21.3039,1.74163,4.87635,-8.97581,2.56929e-14,9.93923e-15,-33.7191,-4.20122,-81.5757,18.3106,21.9765,-16.7306,21.2814,7.12502,9.49532,-8.48463,2.56929e-14,9.93923e-15,-40.7661,-11.6921,95.2753,31.8057,13.1218,-19.0646,27.114,7.12502,7.24277,56.9701,-22.1608,-1.9356,26.5361,27.1228,-14.4034,-2.01385,2.82559,-1.98128,2.27854,-15.4483,51.6736,-0.0594078,0.187151,-20.2021
9.40512,17.6295,-24.7125,3.16413,3.2093,-3.52023,5.22253,-3.21539,2.05461,0.121134,-4.07775,2.90773,-2.72991,-2.0407,2.15042,0.35025,6.94841,15.8587,-0.424394,9.63235,-21.2632,1.70754,4.82218,-8.97199,3.86139e-14,-3.06128e-14,-33.5316,-3.68274,-81.7841,18.5378,21.5213,-17.0273,22.1425,7.12502,9.20899,-7.6364,3.86139e-14,-3.06128e-14,-40.7858,-11.8721,95.2001,31.9717,12.9479,-18.6449,26.9377,7.12502,7.64789,56.7794,-21.2549,-1.97412,26.74,26.4429,-14.5662,-2.11701,3.44741,-3.48116,2.44923,-15.2494,53.7246,-1.02245,1.04914,-21.0448
9.39118,17.6512,-24.5928,3.08634,3.40046,-3.73051,5.28136,-3.2109,2.39433,0.0986987,-4.0463,2.93988,-2.80803,-2.02882,1.99776,0.339155,6.90829,15.7538,-0.238784,9.59538,-21.1016,1.73948,4.79961,-8.89953,3.67752e-15,-1.39149e-14,-33.1929,-3.11168,-82.0676,18.6054,21.0562,-17.0456,23.3879,7.12502,9.19137,-6.39174,3.67752e-15,-1.39149e-14,-40.7979,-11.4813,94.7774,32.2567,11.9312,-17.7113,26.8943,7.12502,8.54899,56.7012,-20.368,-2.1676,27.0228,25.8121,-14.6864,-2.10787,3.34272,-4.93281,2.58301,-15.0279,55.6194,-1.87721,1.74921,-21.7508
9.37354,17.6663,-24.4728,3.02422,3.3761,-3.79802,5.32235,-3.12363,2.4408,0.0425778,-3.9221,2.97823,-2.89129,-1.96745,2.00692,0.381411,6.773,15.6807,0.0189423,9.44437,-20.985,1.76504,4.72189,-8.85754,4.35338e-14,-1.19271e-14,-32.8644,-2.81899,-82.1035,18.6129,21.005,-16.7214,23.6186,7.12502,9.50413,-6.14711,4.35338e-14,-1.19271e-14,-41.0322,-11.2024,94.5815,32.8093,11.5216,-17.6827,26.8054,7.12502,8.57654,56.6112,-19.4991,-2.25614,27.171,25.2155,-14.8566,-2.00956,4.08209,-6.41245,2.89403,-15.0061,57.3483,-2.47388,2.5038,-19.9712
9.35457,17.6816,-24.3564,2.97105,3.36121,-3.78023,5.40401,-3.03289,2.37917,0.012973,-3.80012,2.98318,-2.96506,-1.90588,2.04296,0.334687,6.63413,15.7555,0.276412,9.28355,-21.0284,1.82072,4.63478,-8.89245,1.04362e-14,-1.07344e-14,-32.4072,-2.92208,-82.0286,18.5039,21.3606,-16.7396,23.0754,7.12502,9.48661,-6.69107,1.04362e-14,-1.07344e-14,-41.1967,-11.1915,94.4099,33.5065,11.4771,-17.8082,27.087,7.12502,8.45543,56.8977,-18.7089,-2.37057,27.2324,24.7046,-15.1051,-1.87558,4.81646,-7.98461,3.2706,-15.1206,58.8914,-2.73666,3.39838,-18.8863
