JuanDHNZ/ProyectoFinalCD/preprocessing/sports_trials_csv/55_03.csv
root1,root2,root3,root4,root5,root6,lowerback1,lowerback2,lowerback3,upperback1,upperback2,upperback3,thorax1,thorax2,thorax3,lowerneck1,lowerneck2,lowerneck3,upperneck1,upperneck2,upperneck3,head1,head2,head3,rclavicle1,rclavicle2,rhumerus1,rhumerus2,rhumerus3,rradius1,rwrist1,rhand1,rhand2,rfingers1,rthumb1,rthumb2,lclavicle1,lclavicle2,lhumerus1,lhumerus2,lhumerus3,lradius1,lwrist1,lhand1,lhand2,lfingers1,lthumb1,lthumb2,rfemur1,rfemur2,rfemur3,rtibia1,rfoot1,rfoot2,rtoes1,lfemur1,lfemur2,lfemur3,ltibia1,lfoot1,lfoot2,ltoes1
18.7401,17.2458,-14.752,-2.96787,-4.98736,-2.23177,-8.99188,-2.77131,1.79177,-13.0932,-3.8818,-1.26359,-9.12682,-2.19894,-2.37054,-13.4242,8.13564,14.7737,2.98653,9.61165,-15.9368,4.62885,4.15902,-6.57146,8.15017e-15,-1.19271e-15,-22.204,-51.9588,12.4635,65.5951,-42.1916,-13.4089,27.5753,7.12502,12.699,-2.0186,8.15017e-15,-1.19271e-15,-12.0142,14.9028,-6.84639,78.1285,96.6757,2.60601,8.58656,7.12502,28.084,36.5042,2.50837,-6.93072,23.5572,29.1789,-26.785,13.0787,34.4478,3.10608,-2.32046,-18.6734,29.2853,-28.7942,7.04051,-20.0834
18.7374,17.2533,-14.7597,-2.95319,-5.03879,-1.96613,-9.06619,-2.66712,1.20389,-13.1194,-3.72502,-1.25376,-9.05712,-2.06541,-2.03729,-13.3241,7.9237,14.6326,2.3219,9.32215,-16.3668,4.39016,4.00566,-6.72816,1.05356e-14,3.37934e-14,-22.1928,-50.7388,12.3459,61.6547,-39.7524,-13.7612,28.2212,7.12502,12.3594,-1.39351,1.05356e-14,3.37934e-14,-12.0529,13.3393,-5.00868,76.5022,96.6215,2.38225,8.3518,7.12502,27.8701,36.3043,2.33246,-6.75199,23.3099,29.3713,-26.7784,12.9684,34.4788,3.16056,-2.1244,-18.9027,29.0155,-28.5975,7.31748,-22.7666
18.7368,17.2578,-14.7654,-2.99484,-5.00452,-2.04722,-9.44573,-2.65308,1.20889,-12.8432,-3.70309,-1.30171,-8.52736,-2.05201,-2.11812,-13.6126,7.80471,14.3922,1.67404,9.09681,-16.5243,4.20779,3.87785,-6.76188,-4.53229e-14,-1.59028e-14,-22.2975,-50.0091,11.9982,57.8507,-37.0225,-13.6463,28.2588,7.12502,12.4702,-1.34915,-4.53229e-14,-1.59028e-14,-12.2821,12.1554,-3.7229,75.0132,96.1915,1.88699,7.3124,7.12502,27.3965,35.3407,2.39881,-6.63101,23.4349,29.2768,-26.7106,12.672,34.0158,3.17547,-2.0785,-18.7736,29.0375,-28.5912,7.40772,-23.4358
18.7369,17.2637,-14.7728,-2.90158,-4.99642,-2.27685,-9.74008,-2.92241,1.77833,-12.603,-4.10603,-1.72831,-8.19857,-2.32447,-2.91576,-13.954,8.21756,15.8716,1.33254,9.33397,-16.7776,4.28052,3.98161,-7.05625,4.63168e-14,2.0276e-14,-21.7706,-49.3943,10.142,53.8888,-34.6879,-13.468,27.633,7.12502,12.642,-1.96438,4.63168e-14,2.0276e-14,-12.7929,10.7181,-3.99506,73.5748,95.6836,1.66003,5.91037,7.12502,27.1794,33.9728,2.26783,-6.46203,23.7478,29.2575,-26.4256,12.754,34.4611,3.07631,-2.07109,-18.5039,28.9914,-28.4511,7.90458,-25.0734
18.7378,17.271,-14.7805,-2.79806,-4.99583,-2.44086,-9.58925,-2.73735,1.43752,-12.9021,-3.82658,-1.32187,-8.54081,-2.13659,-2.2738,-13.8918,7.75548,14.7848,1.29079,8.91347,-16.9576,4.15553,3.76317,-6.98668,-2.36554e-14,-4.37326e-15,-21.4936,-48.0003,10.8914,50.1006,-32.7366,-13.2164,26.7492,7.12502,12.8846,-2.83306,-2.36554e-14,-4.37326e-15,-13.1842,8.33436,-1.50637,72.0541,94.7686,2.13034,3.09129,7.12502,27.6292,31.0826,2.15066,-6.37507,23.953,29.1978,-26.088,12.9703,34.839,2.91331,-2.05273,-18.3195,29.0042,-28.3067,8.4883,-26.9879
18.7412,17.2735,-14.7847,-2.86702,-5.00294,-2.33178,-9.45647,-2.8259,1.33349,-12.9771,-3.95514,-1.5257,-8.71996,-2.20594,-2.4252,-13.31,7.62396,15.351,0.665993,8.66051,-17.1628,3.87207,3.66855,-7.19204,1.03368e-14,2.70347e-14,-21.1871,-47.5973,9.9369,46.314,-30.249,-12.6917,26.2898,7.12502,13.3904,-3.25992,1.03368e-14,2.70347e-14,-13.4703,7.62232,-0.822871,70.7688,93.3994,2.97199,6.59255,7.12502,28.4338,34.4523,2.21051,-6.44661,23.759,29.1877,-26.0816,13.0947,34.4124,2.97637,-2.07395,-18.4689,28.9945,-28.3537,8.29275,-26.2467
18.7471,17.2717,-14.7913,-2.92911,-5.06215,-2.28813,-9.38093,-2.99696,1.5597,-13.004,-4.21636,-1.89121,-8.86638,-2.38193,-2.93735,-12.6129,7.72096,16.1441,-0.228484,8.657,-17.0968,3.52236,3.71007,-7.3219,-3.04141e-14,-4.77083e-15,-20.802,-47.9765,8.38734,42.5104,-27.7465,-11.9522,26.0125,7.12502,14.1031,-3.48892,-3.04141e-14,-4.77083e-15,-13.943,6.53869,-0.676068,69.545,92.6784,3.37825,8.77104,7.12502,28.8219,36.5653,2.23953,-6.50517,23.6354,29.2004,-26.0753,13.2695,34.3672,3.05895,-2.03467,-18.5374,28.9695,-28.4829,7.95112,-25.4327
18.7525,17.2739,-14.804,-2.88752,-5.12304,-2.30459,-9.29869,-3.06548,1.65841,-13.111,-4.32501,-2.04572,-9.07005,-2.45913,-3.14995,-12.1037,7.71811,16.288,-0.973867,8.61338,-16.9494,3.20957,3.71898,-7.31822,-6.32135e-14,-1.63003e-14,-20.5863,-48.5146,7.59936,38.7967,-25.49,-11.5346,25.6959,7.12502,14.5054,-3.77708,-6.32135e-14,-1.63003e-14,-14.4963,5.27862,0.0836373,68.2461,91.777,3.8378,9.67435,7.12502,29.2608,37.3929,2.11605,-6.47742,23.6515,29.2191,-26.012,13.2489,34.2276,2.98857,-1.93536,-18.5059,28.9334,-28.4546,8.01811,-26.0047
18.7547,17.2799,-14.8182,-2.85004,-5.18396,-2.34881,-9.21338,-3.05781,1.62279,-13.1983,-4.31949,-2.08937,-9.22055,-2.45872,-3.16949,-12.135,7.58872,16.2074,-0.908462,8.4518,-16.9471,3.20376,3.6385,-7.32007,5.20816e-14,1.27222e-14,-20.8461,-49.615,7.60411,35.3257,-22.4792,-11.2974,25.3582,7.12502,14.7339,-4.09816,5.20816e-14,1.27222e-14,-14.8562,4.6857,1.30559,66.6271,90.2123,4.71979,9.90166,7.12502,30.1027,37.4703,1.99992,-6.43079,23.7144,29.2363,-25.8555,13.3281,34.491,2.90612,-1.88543,-18.4453,28.8957,-28.348,8.1961,-26.3823
18.7542,17.2836,-14.8325,-2.82466,-5.33107,-2.42694,-9.21053,-3.03003,1.61509,-13.1761,-4.28639,-2.14355,-9.19842,-2.4448,-3.2235,-12.3769,7.48606,16.2477,-0.749237,8.29252,-17.0318,3.2702,3.54653,-7.36545,-6.04305e-14,-8.34896e-15,-21.6566,-51.8724,8.13781,32.1069,-18.7698,-10.5815,24.8893,7.12502,15.4236,-4.51527,-6.04305e-14,-8.34896e-15,-15.0441,4.60816,2.46212,64.87,89.1087,5.08887,10.0809,7.12502,30.4547,37.5848,1.90764,-6.36146,23.8016,29.2524,-25.6104,13.6098,35.2353,2.87918,-1.96326,-18.3981,28.8525,-28.278,8.40096,-26.3461
18.7553,17.2827,-14.8453,-2.85017,-5.60229,-2.34972,-9.18048,-2.97531,1.52244,-13.074,-4.21953,-2.28947,-9.09811,-2.4102,-3.32888,-12.5754,7.51011,16.3215,-1.14285,8.23529,-16.9929,3.17696,3.51093,-7.36947,-2.10712e-14,-1.78906e-14,-23.0123,-54.7786,9.06924,29.169,-15.43,-10.2457,24.3572,7.12502,15.747,-5.02215,-2.10712e-14,-1.78906e-14,-15.1643,4.53018,3.38408,63.1223,88.6378,4.87574,10.3367,7.12502,30.2514,37.8782,1.85406,-6.33601,23.6684,29.2691,-25.4959,13.8527,35.3966,2.945,-2.01758,-18.5522,28.8079,-28.2055,8.46103,-25.7223
18.7578,17.2822,-14.8552,-2.96077,-5.90347,-2.28392,-8.97432,-2.90859,1.47605,-12.9989,-4.14065,-2.44913,-9.13365,-2.3761,-3.46407,-12.9214,7.60233,16.5353,-1.27225,8.26557,-17.1237,3.21597,3.50514,-7.43906,-5.32743e-14,-5.40694e-14,-25.0946,-58.0401,10.7006,26.5669,-12.1383,-10.2839,23.8481,7.12502,15.7102,-5.53422,-5.32743e-14,-5.40694e-14,-15.2271,4.35031,4.16955,61.3029,88.42,4.53922,10.8404,7.12502,29.9304,38.4403,1.90169,-6.29996,23.5305,29.2896,-25.5156,14.0309,35.2358,3.08522,-1.91513,-18.6693,28.7798,-27.9919,8.73555,-26.1608
18.7593,17.2856,-14.8668,-3.04172,-6.10738,-2.39941,-8.81807,-2.88127,1.53073,-12.949,-4.10996,-2.49992,-9.17214,-2.36868,-3.54139,-13.1301,7.56184,16.7034,-1.09265,8.18672,-17.3737,3.31186,3.44851,-7.55348,5.96354e-15,1.03368e-14,-28.3301,-61.9002,13.6625,24.3361,-8.60923,-10.019,23.5811,7.12502,15.9653,-5.78099,5.96354e-15,1.03368e-14,-15.3137,4.07662,4.94261,59.4003,88.3285,4.06652,11.1555,7.12502,29.4792,38.8358,1.94032,-6.22794,23.6381,29.2956,-25.5266,14.1023,35.0036,3.15422,-1.80771,-18.5617,28.7903,-27.7843,9.2247,-27.6102
18.7602,17.2897,-14.8855,-3.00459,-6.25638,-2.56112,-8.75462,-2.86644,1.56497,-12.9194,-4.09056,-2.48214,-9.17354,-2.36064,-3.5385,-13.1793,7.47628,16.5631,-1.11059,8.08023,-17.333,3.28841,3.39552,-7.52713,-2.5842e-14,-7.95139e-16,-33.2278,-65.9742,18.4019,22.496,-5.38623,-9.76984,23.2394,7.12502,16.2053,-6.10331,-2.5842e-14,-7.95139e-16,-15.3778,4.06055,5.78644,57.3671,88.0198,3.8297,11.1759,7.12502,29.2531,38.8959,1.85133,-6.15015,23.8458,29.257,-25.4423,14.0667,34.9275,3.06205,-1.7688,-18.3782,28.8424,-27.7828,9.36717,-27.895
18.7588,17.2939,-14.9061,-2.91911,-6.39564,-2.8276,-8.64838,-2.85928,1.67446,-12.8862,-4.08059,-2.42125,-9.19851,-2.36157,-3.52903,-13.2059,7.44635,16.27,-1.28445,8.04856,-17.1201,3.21124,3.38587,-7.41121,-3.97569e-16,-3.26007e-14,-39.558,-69.2507,24.4694,21.1513,-3.24607,-9.93158,22.632,7.12502,16.0495,-6.72327,-3.97569e-16,-3.26007e-14,-15.377,4.42002,6.56342,55.1995,87.6831,3.82794,11.4953,7.12502,29.2514,39.2156,1.7232,-6.12208,24.1804,29.2116,-25.3814,13.9475,34.8315,2.93678,-1.78796,-18.0634,28.8787,-27.8717,9.07312,-26.7364
18.7568,17.2984,-14.9211,-2.85859,-6.54014,-3.00587,-8.54027,-2.82079,1.69122,-12.8256,-4.03003,-2.43289,-9.18816,-2.33733,-3.54642,-13.0675,7.34619,16.1707,-1.72811,7.90013,-17.1532,3.03253,3.31983,-7.42681,1.23246e-14,-6.36111e-15,-46.0833,-70.8449,30.3989,20.4996,-3.02236,-9.99094,21.965,7.12502,15.9924,-7.39485,1.23246e-14,-6.36111e-15,-15.2944,4.86744,7.2254,53.1414,87.5465,3.59252,12.0972,7.12502,29.0266,39.8564,1.65781,-6.24663,24.3498,29.109,-25.1988,14.0706,34.7091,2.83307,-1.82757,-17.8805,28.9532,-28.0215,8.8477,-25.3454
18.7569,17.3039,-14.9318,-2.77924,-6.76811,-2.85872,-8.49181,-2.7359,1.46918,-12.7717,-3.9233,-2.61303,-9.14254,-2.27407,-3.61481,-13.2061,7.31757,16.3755,-2.02067,7.78472,-17.3491,2.96949,3.25116,-7.53774,-4.21423e-14,-5.725e-14,-52.521,-71.5095,35.9573,20.2339,-3.74265,-9.35489,21.0606,7.12502,16.6048,-8.24906,-4.21423e-14,-5.725e-14,-15.2158,5.14575,7.67325,51.2676,87.5385,3.12243,12.3355,7.12502,28.5775,40.1711,1.57108,-6.31634,24.1323,28.9512,-24.8746,14.4684,35.1314,2.68952,-1.77351,-18.0923,29.0608,-28.0796,9.18366,-25.5579
18.7517,17.3074,-14.9389,-2.68336,-7.12547,-3.19865,-8.40323,-2.64369,1.65971,-12.737,-3.80448,-2.57851,-9.15504,-2.23035,-3.68041,-13.798,7.58048,16.4822,-1.42308,8.09681,-17.2859,3.29129,3.37609,-7.4862,-5.84427e-14,-4.45278e-14,-58.5523,-71.978,41.3203,19.8766,-4.4197,-8.78964,20.261,7.12502,17.1489,-9.00221,-5.84427e-14,-4.45278e-14,-15.2435,5.29864,7.98446,49.2841,87.4179,2.95695,12.2716,7.12502,28.4194,40.1337,1.51778,-6.06635,24.5611,28.8453,-24.8739,14.509,35.0894,2.65457,-1.69757,-17.7466,29.1011,-27.9764,9.69707,-26.5186
18.7425,17.3123,-14.9466,-2.55819,-7.48385,-3.5668,-8.26986,-2.51219,1.65033,-12.7791,-3.61345,-2.30304,-9.23692,-2.11847,-3.37314,-14.891,8.06908,15.9473,0.161784,8.83881,-16.8711,4.00859,3.69553,-7.1446,2.90226e-14,-1.19271e-14,-62.8363,-71.9333,45.5392,19.5911,-5.45933,-8.54125,19.639,7.12502,17.388,-9.60327,2.90226e-14,-1.19271e-14,-15.2762,6.11915,8.70049,47.2225,86.4613,3.18754,12.9654,7.12502,28.6397,40.7905,1.40701,-5.77912,25.0508,28.7844,-24.9067,14.4509,34.7481,2.5992,-1.68478,-17.3674,29.1005,-27.8648,10.1036,-27.0854
18.7405,17.3214,-14.9599,-2.36198,-7.68267,-3.19406,-8.29027,-2.4527,1.03091,-12.8188,-3.52229,-2.30087,-9.21627,-2.01639,-3.02636,-13.2241,7.14613,15.4364,-2.48916,7.64558,-17.5029,2.78833,3.18264,-7.44724,1.19271e-15,1.74931e-14,-61.4994,-70.4264,43.6887,19.3274,-8.54731,-8.34547,19.2321,7.12502,17.5764,-9.99342,1.19271e-15,1.74931e-14,-15.3124,7.33493,9.19694,45.3908,85.2352,3.00739,14.0482,7.12502,28.4676,41.9022,1.1032,-5.81378,24.6177,28.7164,-24.5984,14.8303,35.1756,2.33304,-1.70457,-17.8444,29.0988,-27.7435,10.4481,-27.3667
18.7385,17.3285,-14.9739,-2.12003,-7.90479,-3.10352,-8.34772,-2.44545,0.855406,-12.7407,-3.51501,-2.40784,-9.08904,-2.00206,-3.04694,-15.6474,8.38818,15.6572,0.516753,9.25072,-16.854,4.28803,3.85644,-7.02371,3.49861e-14,3.02153e-14,-54.7933,-66.9074,35.4914,19.0723,-14.5279,-8.52574,18.8261,7.12502,17.4029,-10.4149,3.49861e-14,3.02153e-14,-15.2685,8.23301,9.09448,43.6539,84.7131,2.50518,14.4547,7.12502,27.9876,42.3881,0.766811,-5.77829,24.5192,28.6901,-24.3403,15.118,35.5618,2.0917,-1.73589,-18.0081,29.0434,-27.5515,10.8598,-27.7851
18.7314,17.3379,-14.9855,-1.89618,-8.24322,-3.38911,-8.27289,-2.36472,0.949332,-12.6669,-3.40252,-2.29108,-9.03555,-1.94639,-2.9722,-15.5627,8.23363,15.3817,-0.187822,9.02451,-16.8987,4.01841,3.75096,-7.02566,-6.59965e-14,-4.45278e-14,-49.6923,-63.0785,29.124,19.1838,-20.5234,-8.92511,18.1658,7.12502,17.0185,-11.1087,-6.59965e-14,-4.45278e-14,-15.2801,9.03176,9.08353,41.9699,84.5209,2.1497,14.7266,7.12502,27.6478,42.7149,0.487834,-5.58434,24.8814,28.6869,-24.2187,15.2126,35.5505,1.95531,-1.77787,-17.7438,28.9411,-27.3637,11.3153,-28.4815
18.7253,17.3454,-14.9983,-1.71519,-8.52638,-3.52239,-8.12006,-2.35616,0.927407,-12.6555,-3.38689,-2.18448,-9.09854,-1.93072,-2.83934,-15.2422,8.00009,15.0052,-1.01112,8.7224,-16.8632,3.65628,3.6245,-6.9984,6.87795e-14,3.49861e-14,-48.5841,-61.3063,27.3212,19.3151,-23.5781,-8.95262,18.0194,7.12502,16.992,-11.2574,6.87795e-14,3.49861e-14,-15.5607,9.87464,8.80914,40.5086,84.3188,2.12243,15.647,7.12502,27.6217,43.6395,0.274619,-5.47904,25.0408,28.6202,-23.8174,15.5712,36.1572,1.81816,-1.89607,-17.6592,28.8801,-27.3158,11.6323,-28.4234
18.7216,17.3529,-15.0074,-1.48608,-8.70995,-3.73306,-7.96231,-2.49569,1.19088,-12.7096,-3.58943,-2.25256,-9.29115,-2.06334,-3.04933,-15.1976,8.34095,15.4227,-1.15147,9.09112,-16.7925,3.67771,3.80878,-7.00276,-1.90833e-14,-4.77083e-15,-51.0244,-62.0335,29.2816,19.1802,-23.4385,-8.59804,18.1327,7.12502,17.3333,-11.1144,-1.90833e-14,-4.77083e-15,-15.938,10.7881,7.75843,39.1053,83.652,2.9643,16.6358,7.12502,28.4264,44.4967,0.076262,-5.40628,25.265,28.5079,-23.2173,16.0392,37.4788,1.62177,-2.13478,-17.5047,28.8635,-27.363,11.8549,-27.5414
18.7209,17.3648,-15.0125,-1.16444,-8.87864,-3.87998,-7.97473,-2.65184,1.45777,-12.8151,-3.81573,-2.33066,-9.45208,-2.21079,-3.27794,-14.7314,8.53707,15.7362,-1.34191,9.33054,-16.5369,3.58053,3.95696,-6.95388,-1.39149e-14,-2.70347e-14,-55.4788,-63.7763,33.6554,19.0662,-21.9267,-8.22443,17.8644,7.12502,17.6929,-11.3506,-1.39149e-14,-2.70347e-14,-16.3758,11.5969,6.5088,37.7733,82.8398,3.70073,17.1828,7.12502,29.1299,44.9241,-0.264878,-5.39657,25.3973,28.4518,-22.8531,16.4169,38.3317,1.33572,-2.37823,-17.4354,28.8093,-27.2625,12.1097,-27.1178
18.7189,17.3758,-15.0232,-0.866523,-9.09503,-4.02176,-7.90622,-2.68932,1.42494,-12.8752,-3.85801,-2.1607,-9.54606,-2.22035,-3.07213,-14.9847,8.597,15.0041,-0.92007,9.50896,-15.91,3.69586,4.05398,-6.59902,1.59028e-14,1.27222e-14,-59.1864,-64.8159,37.8781,19.0854,-21.2557,-8.0006,17.343,7.12502,17.9083,-11.8525,1.59028e-14,1.27222e-14,-16.7397,12.4079,5.84118,36.7126,82.7228,3.23471,17.4129,7.12502,28.6848,45.2304,-0.659498,-5.33083,25.5523,28.4954,-22.6109,16.6864,38.4357,1.11769,-2.37521,-17.314,28.6727,-27.0392,12.3396,-27.2863
18.713,17.3897,-15.035,-0.628986,-9.34926,-4.06564,-7.67385,-2.72723,1.28975,-12.8141,-3.90927,-2.17339,-9.6032,-2.23348,-2.99918,-14.4706,8.3915,15.4902,-1.98191,9.1508,-16.7087,3.32325,3.87763,-7.00236,-1.03368e-14,-1.51076e-14,-60.3481,-64.5556,39.0614,18.9855,-22.586,-8.2065,16.9441,7.12502,17.7101,-12.2694,-1.03368e-14,-1.51076e-14,-16.7889,13.8041,4.86046,35.7701,82.6806,2.80728,17.5953,7.12502,28.2764,45.4812,-1.03635,-5.14544,25.633,28.6411,-22.5175,16.6088,37.6872,1.00198,-2.27426,-17.2636,28.4389,-26.8845,12.5531,-27.4857
18.7103,17.4055,-15.0403,-0.354977,-9.5958,-3.74607,-7.67946,-2.79605,1.03426,-12.6876,-4.01682,-2.46014,-9.46809,-2.27956,-3.16578,-15.192,8.57105,16.0355,-1.2967,9.26072,-16.5977,3.67188,3.89904,-7.02081,-2.34566e-14,3.4191e-14,-62.6783,-64.6464,41.2982,18.8427,-23.4068,-8.21595,16.6464,7.12502,17.701,-12.5679,-2.34566e-14,3.4191e-14,-16.7232,15.7051,3.4634,34.8824,82.1435,2.72402,18.2498,7.12502,28.1968,46.1488,-1.51983,-5.06973,25.2568,28.8567,-22.393,16.6885,36.9096,0.836252,-2.41102,-17.6941,28.1389,-26.6683,12.9309,-27.6347
18.711,17.4211,-15.0447,-0.0641541,-9.80017,-3.4759,-7.65413,-2.8562,0.810488,-12.6908,-4.10568,-2.58076,-9.4864,-2.3119,-3.16797,-14.9312,8.46448,16.0831,-1.82861,9.08497,-16.5475,3.44292,3.82825,-7.04352,3.4191e-14,4.77083e-14,-63.8144,-64.5273,42.8394,18.6872,-24.2691,-8.34902,15.5552,7.12502,17.573,-13.6706,3.4191e-14,4.77083e-14,-16.8525,16.9405,2.27317,34.2438,81.7714,1.95854,19.2764,7.12502,27.4649,47.2939,-2.07121,-5.19367,24.8829,29.1079,-22.0094,17.2586,36.6934,0.693057,-2.724,-18.1156,27.7966,-26.3912,13.2361,-27.2054
18.7094,17.4379,-15.0511,0.200147,-10.079,-3.32305,-7.58738,-2.97368,0.795905,-12.6445,-4.28053,-2.78097,-9.5042,-2.4114,-3.36922,-14.4868,8.36887,16.295,-2.73681,8.87706,-16.3494,3.0652,3.753,-7.05677,7.95139e-15,-1.51076e-14,-65.2456,-64.66,44.4892,18.5346,-24.7531,-8.73834,14.2056,7.12502,17.1983,-15.0533,7.95139e-15,-1.51076e-14,-16.9736,18.0871,0.575406,33.6195,81.3178,1.30192,20.2335,7.12502,26.8368,48.3491,-2.61906,-5.27464,24.6541,29.3526,-21.5103,17.8948,36.8149,0.6194,-3.01422,-18.4045,27.4562,-26.298,13.4333,-26.4797
18.7087,17.4515,-15.0564,0.390667,-10.4613,-3.17353,-7.53914,-3.02682,0.772252,-12.5037,-4.36455,-2.97715,-9.39468,-2.46197,-3.56521,-14.9202,8.63616,16.5873,-2.40405,9.14371,-16.1788,3.27257,3.86764,-7.00484,1.43125e-14,9.54166e-15,-67.3147,-64.8951,46.924,18.45,-25.1475,-8.76614,13.4692,7.12502,17.1715,-15.7921,1.43125e-14,9.54166e-15,-16.9858,19.9921,-1.15164,32.8583,80.3932,1.00643,20.9592,7.12502,26.554,49.1179,-3.00062,-5.18842,24.4255,29.5157,-21.0682,18.4083,36.9197,0.570518,-3.24062,-18.703,27.2179,-26.2235,13.8391,-25.9857
18.7095,17.4661,-15.0627,0.524162,-10.6857,-3.2192,-7.27433,-3.08698,0.82206,-12.4836,-4.45101,-2.96396,-9.53463,-2.50956,-3.56254,-14.341,8.30746,16.5258,-3.06552,8.73497,-16.1706,2.91885,3.69366,-7.05945,-2.90226e-14,-4.05521e-14,-68.5179,-64.9689,48.9793,18.3808,-25.6207,-8.50365,12.9186,7.12502,17.4242,-16.3205,-2.90226e-14,-4.05521e-14,-17.1481,21.4448,-2.57099,32.2542,79.9673,-0.0340067,21.5954,7.12502,25.5578,49.9008,-3.20661,-4.99695,24.445,29.6117,-20.7033,18.5631,36.3654,0.487554,-3.54523,-18.7511,27.0699,-25.9723,14.2217,-25.421
18.7071,17.489,-15.0728,0.689745,-10.8269,-3.42112,-6.92707,-3.20913,1.02147,-12.5006,-4.62248,-2.92101,-9.78421,-2.61279,-3.60272,-13.6832,8.07929,16.653,-3.64966,8.45619,-16.254,2.61104,3.58197,-7.1598,2.26615e-14,-6.36111e-15,-68.7207,-64.9221,50.0608,18.3289,-26.3616,-8.23141,13.5573,7.12502,17.6862,-15.6583,2.26615e-14,-6.36111e-15,-17.318,22.6102,-4.11338,31.7291,79.7332,-1.19628,21.8557,7.12502,24.4441,50.3161,-3.46772,-4.73283,24.69,29.6992,-20.01,18.5496,35.8687,0.379609,-3.84756,-18.5782,26.9269,-25.6506,14.3728,-24.7272
18.7051,17.5145,-15.0848,0.875524,-11.1033,-3.52943,-6.54266,-3.26669,1.10849,-12.5174,-4.70666,-2.88528,-10.0393,-2.66264,-3.58662,-14.4002,8.35897,16.5323,-2.59665,8.83275,-15.959,3.06775,3.74638,-6.97384,1.78906e-14,-8.74653e-15,-67.1949,-64.3976,49.3469,18.4536,-28.3194,-8.56877,15.4865,7.12502,17.3615,-13.7581,1.78906e-14,-8.74653e-15,-17.3522,24.1904,-5.65554,31.0949,79.1866,-1.67374,21.605,7.12502,23.9863,50.1264,-3.8304,-4.60166,24.7795,29.7835,-19.0897,18.9573,36.127,0.305608,-4.02622,-18.5283,26.7633,-25.2126,14.6761,-24.8633
18.7049,17.5454,-15.0947,1.12948,-11.3806,-3.48664,-6.17198,-3.24003,0.985439,-12.6224,-4.67541,-2.79554,-10.3538,-2.633,-3.39795,-14.4547,8.18862,16.3734,-2.40753,8.651,-16.1466,3.11075,3.65061,-7.02619,2.18663e-14,3.97569e-14,-64.9362,-63.5341,48.2256,18.7077,-30.8007,-9.66212,16.6189,7.12502,16.309,-12.7152,2.18663e-14,3.97569e-14,-17.2848,25.3811,-6.89115,30.4413,78.979,-2.21212,21.5889,7.12502,23.4699,50.1774,-4.31323,-4.61423,24.6525,29.8337,-18.0747,19.6843,37.1275,0.104281,-4.10869,-18.633,26.6292,-24.6065,15.0002,-25.3834
18.7031,17.585,-15.1047,1.48974,-11.5819,-3.611,-5.91272,-3.2062,0.966573,-12.7097,-4.62424,-2.61347,-10.582,-2.59608,-3.17576,-14.3166,7.76662,15.9146,-2.67898,8.15964,-16.3171,2.9256,3.41352,-7.06572,-1.07344e-14,-1.11319e-14,-62.9738,-62.6696,47.707,18.9785,-32.8569,-10.549,16.465,7.12502,15.455,-12.9372,-1.07344e-14,-1.11319e-14,-17.2248,25.8372,-7.97326,29.9777,79.3247,-2.62776,22.1084,7.12502,23.0712,50.7473,-4.86182,-4.40072,24.7538,29.8577,-16.6948,20.1595,38.512,-0.25382,-4.09309,-18.4876,26.5447,-23.8612,15.0365,-24.9932
18.7004,17.6198,-15.1182,1.65924,-11.7531,-4.02545,-5.54073,-3.28124,1.32329,-12.5535,-4.71291,-2.49491,-10.6468,-2.66374,-3.22298,-14.2448,7.61688,15.7828,-3.10864,7.94112,-16.2694,2.7451,3.31189,-7.05731,-1.43125e-14,-5.08889e-14,-64.0578,-63.0781,50.3825,18.8551,-32.8506,-10.7197,16.5509,7.12502,15.2905,-12.8639,-1.43125e-14,-5.08889e-14,-17.3077,26.7204,-9.62015,29.6435,79.3498,-2.39372,22.8944,7.12502,23.2957,51.505,-5.11542,-4.00036,25.1948,29.8977,-15.137,20.4158,39.4731,-0.402827,-4.0875,-18.0272,26.4635,-22.9663,15.2911,-25.3085
18.6982,17.6538,-15.1305,1.63202,-11.9832,-4.24906,-5.04008,-3.40229,1.56996,-12.4041,-4.87189,-2.47732,-10.8047,-2.76249,-3.30531,-14.0295,7.61135,16.0693,-3.35058,7.90035,-16.4287,2.65482,3.29472,-7.16803,-2.70347e-14,-1.59028e-15,-64.7101,-63.4393,52.3844,18.8448,-32.7625,-10.9335,16.7421,7.12502,15.0846,-12.6883,-2.70347e-14,-1.59028e-15,-17.5141,27.6732,-11.5415,29.3267,79.4675,-2.69366,22.8717,7.12502,23.0079,51.5185,-5.19413,-3.64845,25.388,29.9685,-13.8508,20.6458,39.6154,-0.372581,-3.9386,-17.8085,26.3728,-21.8856,15.7486,-26.8885
18.6998,17.6989,-15.1416,1.66496,-12.3439,-4.1311,-4.58848,-3.4882,1.50455,-12.4825,-4.99575,-2.45286,-11.167,-2.81896,-3.20445,-13.1962,7.45275,16.1316,-3.79102,7.76209,-16.5332,2.3829,3.26094,-7.24804,-3.69739e-14,-3.26007e-14,-64.4247,-63.7173,53.7,18.8654,-32.3859,-11.3037,16.8847,7.12502,14.7279,-12.5721,-3.69739e-14,-3.26007e-14,-17.7902,28.1219,-13.3236,29.0781,80.0478,-3.87279,22.2972,7.12502,21.8761,51.0805,-5.46026,-3.45123,25.1404,30.0631,-12.6575,20.9137,39.8694,-0.398109,-3.64816,-18.0037,26.2841,-20.6625,16.1083,-28.2696
18.7037,17.7512,-15.1526,1.67685,-12.7511,-3.90294,-4.14735,-3.54427,1.33545,-12.5186,-5.08428,-2.46657,-11.4653,-2.84817,-3.09024,-12.5253,7.28645,15.9138,-4.30926,7.60888,-16.2711,2.07738,3.22317,-7.16138,2.90226e-14,-2.38542e-15,-63.8745,-63.9105,54.7739,18.9005,-32.0917,-11.7306,17.7275,7.12502,14.3166,-11.7589,2.90226e-14,-2.38542e-15,-17.9263,29.381,-15.1394,28.7082,79.5698,-4.58184,22.4271,7.12502,21.1951,51.2884,-5.7736,-3.44118,24.7226,30.1884,-11.1424,21.3511,40.2227,-0.394218,-3.39021,-18.3195,26.1599,-19.5646,16.196,-28.1256
18.7061,17.8128,-15.1645,1.69671,-13.0502,-3.67251,-3.82444,-3.60462,1.1265,-12.4117,-5.18178,-2.57244,-11.5317,-2.87984,-3.06418,-12.4547,7.24613,16.2159,-4.43767,7.51335,-16.3991,2.03221,3.17308,-7.26567,-5.88403e-14,-3.18055e-14,-63.6729,-63.9406,55.9754,18.9697,-31.9671,-12.201,18.8343,7.12502,13.8633,-10.6836,-5.88403e-14,-3.18055e-14,-17.8653,30.8949,-16.9195,28.3965,78.7681,-5.1317,22.3991,7.12502,20.6669,51.3187,-6.08858,-3.38692,24.3359,30.3094,-9.53474,21.6123,39.4169,-0.490838,-3.15666,-18.5668,26.0187,-18.7404,15.8034,-26.3802
18.709,17.8848,-15.18,1.84584,-13.3031,-3.50931,-3.6618,-3.68316,0.943202,-12.2794,-5.29849,-2.64852,-11.4723,-2.92114,-3.02958,-12.476,7.22872,16.5607,-4.62474,7.42281,-16.5548,1.98791,3.11982,-7.38484,6.44062e-14,3.02153e-14,-64.0579,-64.1322,57.7401,19.138,-31.6062,-12.314,19.1135,7.12502,13.7544,-10.4118,6.44062e-14,3.02153e-14,-17.8698,31.9626,-18.6052,28.2997,78.3442,-6.28116,21.6762,7.12502,19.5621,50.7121,-6.54531,-3.25037,24.0456,30.3672,-7.44798,21.7852,39.6604,-0.810924,-3.0005,-18.7161,25.943,-17.7388,15.4498,-25.5612
18.7127,17.9579,-15.1956,2.07265,-13.6492,-3.49725,-3.50725,-3.71597,0.875642,-12.1753,-5.33851,-2.58115,-11.4295,-2.92722,-2.90891,-12.6026,7.12659,16.2979,-4.86856,7.26955,-16.3125,1.88754,3.04572,-7.27691,-5.96354e-15,-6.36111e-15,-63.4297,-64.172,58.5714,19.4362,-32.1983,-12.1441,18.4225,7.12502,13.9181,-11.0917,-5.96354e-15,-6.36111e-15,-18.0032,33.0853,-20.159,28.1288,77.7881,-7.1195,21.0194,7.12502,18.7559,50.1352,-7.02316,-3.24557,23.8701,30.3279,-4.70379,22.1085,41.8034,-1.19036,-2.73595,-18.6994,25.979,-16.2583,15.3263,-25.8207
18.7159,18.0335,-15.2118,2.27609,-14.0661,-3.60351,-3.25962,-3.76495,0.971324,-12.1164,-5.39621,-2.47739,-11.5109,-2.95712,-2.82972,-12.6505,7.00525,16.1003,-5.07621,7.10048,-16.1782,1.79265,2.96439,-7.21756,4.77083e-15,-9.54166e-15,-61.6765,-64.0119,58.1127,19.7774,-33.2724,-11.7784,17.2829,7.12502,14.2705,-12.2068,4.77083e-15,-9.54166e-15,-18.2498,33.7109,-21.8559,27.9769,77.7835,-7.72241,20.6821,7.12502,18.1759,49.8529,-7.39081,-3.41108,23.8237,30.1839,-2.21285,22.3134,42.7041,-1.54058,-2.46381,-18.5481,26.1165,-15.1465,14.8295,-22.4072
18.7191,18.1182,-15.2273,2.42148,-14.4927,-3.57979,-3.0307,-3.86645,0.977387,-12.0464,-5.53328,-2.44029,-11.5728,-3.02146,-2.76812,-12.6794,6.99582,16.2345,-5.24778,7.04694,-16.2775,1.74904,2.93163,-7.27915,-4.81059e-14,-6.36111e-15,-61.2062,-64.338,58.9477,20.0541,-32.7252,-11.932,17.4934,7.12502,14.1226,-12.0067,-4.81059e-14,-6.36111e-15,-18.5969,34.1868,-23.7569,27.9757,78.1473,-8.47239,20.7013,7.12502,17.4543,49.9377,-7.77584,-3.67386,23.6697,30.0241,0.196017,22.3947,42.9208,-1.906,-2.26539,-18.5042,26.2427,-14.6911,13.8301,-14.6869
18.7264,18.2061,-15.2399,2.55401,-14.8636,-3.60537,-2.87317,-3.97625,1.0836,-11.9275,-5.66909,-2.34874,-11.5381,-3.09041,-2.70916,-12.8624,7.01477,16.0777,-5.27427,7.06037,-16.267,1.76631,2.93146,-7.24516,-2.10712e-14,-3.65764e-14,-61.3699,-65.0123,60.4991,20.3951,-31.876,-11.6496,17.5353,7.12502,14.3946,-11.9456,-2.10712e-14,-3.65764e-14,-19.0636,35.2625,-25.6545,27.9604,77.9695,-8.84085,21.118,7.12502,17.0996,50.3855,-8.17343,-4.02871,23.5345,29.9034,3.15891,22.4073,44.5677,-2.21341,-1.9394,-18.3772,26.2949,-13.5285,13.2255,-10.3279
18.7356,18.2901,-15.2553,2.65916,-15.2276,-3.62657,-2.75111,-4.13524,1.25149,-11.8337,-5.86783,-2.23266,-11.5207,-3.19547,-2.6539,-13.0044,7.0348,15.8931,-5.04047,7.11387,-16.2777,1.86001,2.9534,-7.20686,7.95139e-15,1.11319e-14,-60.9062,-65.8086,61.2519,20.862,-31.6662,-11.7082,17.8971,7.12502,14.3382,-11.5878,7.95139e-15,1.11319e-14,-19.6526,36.1524,-27.6677,27.9046,77.6241,-9.03059,20.8188,7.12502,16.917,50.1021,-8.53638,-4.21708,23.4064,29.7953,5.88407,22.1922,45.6534,-2.46,-1.59163,-18.2536,26.3199,-11.8782,12.8808,-9.71094
18.7436,18.3708,-15.271,2.61895,-15.6171,-3.25721,-2.59282,-4.24475,0.970559,-11.7814,-6.02839,-2.23435,-11.5331,-3.24529,-2.47783,-13.3952,7.12103,16.1716,-4.25527,7.22441,-16.7582,2.20757,2.97723,-7.38316,4.77083e-15,-1.98785e-14,-59.9346,-66.2336,61.4914,21.3355,-31.7602,-11.8671,18.4381,7.12502,14.1851,-11.0576,4.77083e-15,-1.98785e-14,-19.9224,36.5695,-29.3275,27.8672,77.616,-9.41471,19.7402,7.12502,16.5472,49.0547,-8.82922,-4.38923,22.8965,29.6755,8.26557,21.8865,45.7179,-2.69159,-1.28964,-18.5484,26.3496,-9.89482,12.6219,-11.9232
18.7527,18.4481,-15.2825,2.65943,-16.0739,-3.04856,-2.4709,-4.2346,0.836234,-11.6799,-6.01964,-2.24313,-11.4716,-3.22664,-2.40854,-12.8393,6.89578,15.3236,-4.91374,7.03775,-15.9973,1.8241,2.93586,-7.02864,-1.0297e-13,-5.725e-14,-58.7471,-66.1722,61.4358,21.872,-32.4307,-12.3047,18.7204,7.12502,13.7634,-10.8044,-1.0297e-13,-5.725e-14,-19.9171,37.1977,-30.6568,27.9022,77.8391,-9.90002,19.2635,7.12502,16.0799,48.6163,-9.16347,-4.74203,22.5647,29.4989,10.8244,21.4285,46.4961,-2.98278,-0.858575,-18.6553,26.4157,-7.53229,12.3632,-15.1002
18.7607,18.5261,-15.2946,2.88027,-16.636,-3.24239,-2.49397,-4.24702,1.18391,-11.5143,-6.01874,-2.23548,-11.3042,-3.25867,-2.59873,-12.6268,6.79418,15.1454,-5.36358,6.90287,-15.613,1.61002,2.88705,-6.8969,3.29983e-14,2.14687e-14,-59.5304,-67.0424,63.3423,22.1741,-31.9833,-12.4924,18.7075,7.12502,13.5825,-10.8294,3.29983e-14,2.14687e-14,-20.0953,38.5534,-32.3761,27.9446,77.5959,-9.99407,19.6518,7.12502,15.9894,49.012,-9.55207,-4.66472,22.7262,29.2692,13.0051,20.4448,47.1986,-3.37831,-0.426831,-18.3016,26.5236,-5.05412,12.0859,-20.5239
18.7695,18.6138,-15.3099,2.98275,-17.201,-3.27785,-2.44645,-4.32972,1.49777,-11.3508,-6.13254,-2.40317,-11.2125,-3.35479,-2.94337,-12.3192,6.77318,15.3996,-5.74225,6.84383,-15.2412,1.42813,2.87134,-6.83627,-1.34776e-13,-7.39479e-14,-60.8242,-68.1454,65.5743,22.3481,-31.072,-11.9863,18.6067,7.12502,14.0702,-10.897,-1.34776e-13,-7.39479e-14,-20.1427,39.4869,-34.2275,27.964,77.2609,-9.89186,19.8508,7.12502,16.0878,49.2029,-9.79299,-4.44759,22.7503,29.0054,14.8666,19.399,47.2282,-3.7322,-0.275252,-18.1143,26.6301,-2.49192,11.735,-25.1586
18.7808,18.7016,-15.3291,2.99924,-17.7012,-2.97407,-2.42871,-4.51571,1.65529,-11.1014,-6.41612,-2.86878,-11.0454,-3.53702,-3.5137,-12.1931,6.96103,16.6448,-6.01714,6.92745,-15.3207,1.3833,2.89298,-7.06889,3.4191e-14,3.18055e-15,-62.8041,-69.2406,67.9198,22.5074,-29.9586,-11.5233,18.6364,7.12502,14.5164,-10.8357,3.4191e-14,3.18055e-15,-20.0458,39.4495,-36.3588,28.0865,77.8003,-9.99141,19.5004,7.12502,15.9919,48.8603,-10.0804,-4.67799,22.435,28.7756,16.5334,18.7647,46.4507,-4.05154,-0.137527,-18.2634,26.6223,-0.0924992,11.1387,-25.3818
18.7927,18.7842,-15.3469,3.10407,-18.1267,-2.75226,-2.14472,-4.35228,1.24885,-11.4942,-6.20362,-2.55325,-11.5589,-3.38081,-2.93156,-11.2446,6.45397,16.1274,-5.97765,6.46946,-15.8534,1.19267,2.71058,-7.21055,1.39149e-14,9.54166e-15,-59.5548,-69.2292,66.9205,22.8861,-29.8834,-11.7764,18.5592,7.12502,14.2725,-10.9303,1.39149e-14,9.54166e-15,-19.4009,39.6909,-36.3461,28.1038,77.3628,-9.84559,19.6896,7.12502,16.1323,49.0382,-10.5521,-4.82898,22.2331,28.665,17.9081,17.8937,45.9565,-4.38126,-0.00608479,-18.2955,26.4469,1.99112,10.4096,-25.663
18.8078,18.8686,-15.3579,3.24205,-18.593,-2.58644,-2.18972,-4.31971,1.25586,-11.5928,-6.15861,-2.46633,-11.6324,-3.35737,-2.8454,-10.5039,6.17414,15.9427,-6.07285,6.21813,-16.1501,1.02062,2.61824,-7.31046,7.95139e-15,1.35174e-14,-58.3355,-69.8899,67.2161,23.1957,-29.453,-12.0893,18.7356,7.12502,13.971,-10.7749,7.95139e-15,1.35174e-14,-19.1636,41.0672,-37.149,28.0372,75.9036,-9.75032,19.9337,7.12502,16.2241,49.2749,-11.153,-4.81293,22.0344,28.6898,19.8697,15.9627,48.1718,-4.64776,-0.228357,-18.3083,26.1391,3.82466,9.69051,-27.846
18.8254,18.9371,-15.3711,3.3661,-19.2092,-2.2442,-2.47117,-4.31353,1.23504,-11.3859,-6.14302,-2.48171,-11.2179,-3.34675,-2.88228,-10.5167,6.08174,15.3944,-6.11053,6.14545,-15.9394,0.97321,2.59276,-7.15516,1.00187e-13,6.99722e-14,-60.7427,-71.5356,70.8338,23.3908,-28.1225,-12.0552,19.1637,7.12502,14.0038,-10.3446,1.00187e-13,6.99722e-14,-19.3932,42.0791,-38.3511,28.0159,75.0736,-9.89119,19.3296,7.12502,16.0884,48.6817,-11.8439,-4.93613,21.6558,28.8295,21.7314,13.9406,50.0048,-4.86175,-0.55692,-18.5356,25.7488,4.69965,9.20313,-24.7735
18.8421,18.9867,-15.3906,3.49614,-19.9234,-2.20211,-2.66841,-4.19299,1.34313,-11.1414,-5.95572,-2.3806,-10.7986,-3.25422,-2.8733,-10.6422,5.92166,14.8791,-6.08756,5.96857,-15.8751,0.954805,2.50942,-7.05741,6.36111e-15,1.43125e-14,-63.6316,-72.9416,75.0686,23.6134,-26.6376,-11.8465,19.5742,7.12502,14.205,-9.92004,6.36111e-15,1.43125e-14,-19.3713,42.1223,-39.0684,28.0743,75.3232,-10.4149,18.4663,7.12502,15.584,47.8585,-12.4017,-4.95231,21.6848,28.9743,22.5921,13.0715,49.7608,-4.97556,-0.703684,-18.4384,25.4172,4.72958,9.28654,-13.8454
18.8601,19.0268,-15.4086,3.49449,-20.5707,-2.2252,-2.66564,-4.05034,1.46422,-10.9737,-5.74766,-2.32198,-10.5956,-3.15591,-2.89917,-10.3893,5.72756,14.8148,-6.13873,5.74348,-15.9985,0.870494,2.40921,-7.10744,3.29983e-14,-1.90833e-14,-64.2463,-73.6787,76.971,23.8741,-25.5918,-11.8923,19.9038,7.12502,14.1608,-9.59353,3.29983e-14,-1.90833e-14,-18.9635,42.6836,-39.4855,28.0757,74.8779,-10.3668,18.6674,7.12502,15.6304,48.056,-12.7163,-4.88262,21.8019,29.1142,22.7378,12.7699,48.9552,-4.98355,-0.75969,-18.2829,25.2012,5.83505,8.89658,-10.2437
18.8811,19.0659,-15.4237,3.53759,-21.244,-2.10396,-2.76741,-3.97723,1.60529,-10.8209,-5.64549,-2.37961,-10.374,-3.11989,-3.0591,-10.6277,5.81417,14.6972,-5.62505,5.89388,-15.7551,1.06384,2.47834,-6.98664,7.67309e-14,2.22639e-14,-66.3975,-74.8852,80.2399,23.9228,-23.9386,-11.8741,20.4049,7.12502,14.1783,-9.09128,7.67309e-14,2.22639e-14,-18.7312,43.4922,-40.231,28.1184,74.0392,-9.77605,19.4085,7.12502,16.1993,48.7517,-13.0314,-4.68702,21.7482,29.2838,22.6723,12.0494,48.6195,-5.1983,-0.978268,-18.2944,25.0619,7.89916,7.58828,-15.2484
18.9017,19.1064,-15.4404,3.70173,-22.1264,-2.00982,-2.98257,-3.9111,1.86581,-10.6802,-5.55674,-2.48753,-10.1201,-3.10507,-3.34499,-11.1452,6.06114,14.5871,-4.86278,6.24315,-15.3385,1.39385,2.63698,-6.7886,2.82274e-14,1.59028e-15,-72.2986,-76.6952,87.0617,23.7453,-21.5071,-11.4991,21.1289,7.12502,14.5397,-8.34157,2.82274e-14,1.59028e-15,-18.5611,44.1243,-41.1952,28.1841,73.4274,-10.0479,18.9966,7.12502,15.9376,48.3608,-13.4409,-4.1853,21.7432,29.4968,22.5288,11.0563,49.2226,-5.56045,-1.31447,-18.2812,24.9602,8.63165,6.59926,-17.2241
18.9232,19.1275,-15.4638,3.78111,-22.9834,-1.90942,-3.11564,-3.88347,2.08068,-10.5356,-5.51835,-2.55624,-9.90534,-3.10699,-3.55411,-10.9623,6.20277,14.8518,-4.76982,6.43808,-15.4133,1.43281,2.73611,-6.84416,8.8658e-14,1.27222e-14,-75.4214,-78.0054,90.7639,23.789,-20.05,-11.2481,21.6274,7.12502,14.7815,-7.82552,8.8658e-14,1.27222e-14,-18.493,44.1049,-42.1165,28.3244,73.2367,-10.8811,18.0695,7.12502,15.135,47.4961,-13.728,-3.68433,21.7905,29.7532,21.6715,10.7744,49.2516,-5.75929,-1.45978,-18.2696,24.9172,7.56437,5.63564,-20.0132
18.9472,19.1343,-15.4955,3.76484,-23.6758,-1.79023,-3.10514,-3.92409,2.18605,-10.3771,-5.56304,-2.50774,-9.74093,-3.13119,-3.56203,-10.6383,6.30119,15.0149,-4.66515,6.6105,-15.6146,1.45405,2.82976,-6.92763,4.77083e-15,-1.27222e-14,-75.714,-79.091,91.6705,23.844,-19.4693,-10.807,21.9944,7.12502,15.2064,-7.42681,4.77083e-15,-1.27222e-14,-18.5808,43.46,-42.9737,28.2813,73.1554,-10.9387,18.0355,7.12502,15.0796,47.4663,-13.8018,-3.23707,21.8543,30.0526,19.8986,10.5941,48.3139,-5.86194,-1.69373,-18.2394,24.9259,9.00706,5.1773,-12.7696
18.9708,19.1413,-15.5286,3.7339,-24.3413,-1.64276,-2.93807,-3.93089,2.14491,-10.3259,-5.56557,-2.41689,-9.76521,-3.1226,-3.43154,-10.7521,6.39631,14.9078,-3.86389,6.81491,-15.4179,1.7218,2.93223,-6.81735,-1.27222e-14,-2.3059e-14,-75.4585,-80.1409,92.2176,23.7847,-18.8733,-10.3034,22.4455,7.12502,15.6915,-6.93827,-1.27222e-14,-2.3059e-14,-18.4401,42.9006,-43.4292,28.2711,72.8189,-10.6804,18.4484,7.12502,15.3283,47.8603,-13.8583,-2.77716,21.8858,30.501,17.5332,10.0658,46.9516,-6.0114,-2.09065,-18.1848,24.8993,9.29844,5.20616,-5.11052
18.9941,19.1366,-15.554,3.73218,-25.0482,-1.64704,-2.73909,-3.87032,2.24228,-10.3626,-5.47696,-2.32426,-9.91589,-3.0842,-3.37656,-10.6924,6.44967,15.0379,-3.03922,6.96376,-15.3358,1.97477,3.01107,-6.79167,-8.44835e-14,-2.8625e-14,-77.3246,-81.3295,94.849,23.706,-17.4469,-10.1015,22.8976,7.12502,15.8859,-6.4708,-8.44835e-14,-2.8625e-14,-18.0807,43.9682,-43.672,28.2669,70.7983,-10.5504,18.7784,7.12502,15.4536,48.1806,-13.8601,-2.30397,22.0552,31.0408,14.8422,9.37045,44.9078,-6.14707,-2.23544,-17.9805,24.9357,9.18951,5.07724,0.509778
19.0187,19.1109,-15.5783,3.50901,-25.8501,-1.46125,-2.54475,-3.80853,2.21269,-10.2219,-5.38826,-2.31009,-9.85717,-3.03291,-3.3424,-10.3442,6.32993,15.1632,-2.86962,6.85697,-15.3953,1.95982,2.97181,-6.84554,6.7388e-14,1.98785e-14,-81.7795,-82.5228,99.7637,23.6697,-15.8759,-9.75552,23.2396,7.12502,16.2191,-6.10192,6.7388e-14,1.98785e-14,-17.8789,45.0134,-43.9525,28.1976,68.7476,-10.442,18.5582,7.12502,15.558,47.9524,-13.6467,-1.70913,22.045,31.5737,12.3177,8.00126,42.9896,-6.09823,-1.75209,-18.0322,25.1506,9.47026,3.34206,-2.48662
19.0444,19.0768,-15.6085,3.16238,-26.6981,-1.20335,-2.30861,-3.76445,2.09276,-9.9172,-5.32024,-2.31883,-9.63238,-2.97951,-3.28428,-10.1532,6.10647,14.8731,-2.84721,6.60945,-15.034,1.87016,2.86712,-6.70402,1.66979e-14,1.43125e-14,-84.243,-83.3692,102.466,23.6341,-14.9634,-9.19,23.559,7.12502,16.7635,-5.73727,1.66979e-14,1.43125e-14,-17.9042,45.6541,-44.4452,27.9837,67.2425,-10.0561,17.9785,7.12502,15.9296,47.3434,-13.3166,-1.25333,22.0217,32.1327,9.68807,6.53936,41.2199,-5.96406,-1.09463,-18.1893,25.4755,9.54308,0.373103,-13.7179
19.0683,19.0425,-15.6338,2.98222,-27.543,-1.27668,-2.1041,-3.71948,2.29086,-9.70076,-5.23803,-2.2339,-9.51233,-2.94398,-3.30256,-9.94046,6.07079,14.8393,-2.44905,6.63009,-14.8289,1.94361,2.89205,-6.6307,7.67309e-14,3.81667e-14,-82.2079,-84.0248,100.704,23.5415,-14.3162,-8.5927,23.8369,7.12502,17.3385,-5.40977,7.67309e-14,3.81667e-14,-17.9689,46.3032,-44.9079,27.8985,65.7162,-9.78324,18.0416,7.12502,16.1924,47.3853,-12.9709,-1.1637,22.3538,32.718,6.93518,5.41142,39.2041,-5.86701,-0.711043,-18.0332,25.8054,8.93459,-1.16729,-19.6678
19.0902,18.9999,-15.6544,2.77614,-28.3963,-1.33726,-1.92649,-3.67461,2.55808,-9.58085,-5.1608,-2.18612,-9.49783,-2.92223,-3.39713,-9.35878,6.08396,15.2419,-2.00145,6.73831,-15.0434,2.02047,2.96527,-6.76528,7.41467e-14,3.57812e-14,-74.6749,-84.5851,93.4349,23.4388,-13.7674,-8.27559,23.7715,7.12502,17.6437,-5.44797,7.41467e-14,3.57812e-14,-17.8498,46.8119,-45.1938,27.8752,64.195,-9.54336,18.5698,7.12502,16.4233,47.8945,-12.5982,-1.19391,22.6606,33.3225,4.70034,4.31709,37.0831,-5.64236,-0.199871,-17.9162,26.0723,7.83044,-1.95484,-24.1006
19.1114,18.9537,-15.6748,2.42592,-29.2055,-1.19933,-1.75262,-3.61701,2.637,-9.3776,-5.07488,-2.22089,-9.37561,-2.88149,-3.47951,-9.02738,6.05981,15.5269,-1.52203,6.77346,-15.0837,2.12313,2.99714,-6.82514,-6.57977e-14,-4.45278e-14,-71.7036,-85.1935,90.684,23.2464,-12.7533,-8.04406,23.7371,7.12502,17.8664,-5.46221,-6.57977e-14,-4.45278e-14,-17.6311,47.0231,-45.3646,27.7296,63.1427,-9.05842,18.7611,7.12502,16.8902,48.0466,-12.184,-1.27914,22.7509,33.949,3.01956,3.25016,35.5862,-5.22617,0.247942,-17.9968,26.2013,6.60317,-2.12433,-23.615
19.1321,18.9024,-15.6895,2.12831,-30.0125,-0.975223,-1.80388,-3.54671,2.63891,-8.98824,-4.97049,-2.26298,-8.90389,-2.81752,-3.54943,-9.38177,6.14036,15.6488,-0.881201,6.87471,-14.9526,2.38047,3.03873,-6.78216,3.49861e-14,2.0276e-14,-74.8044,-85.7705,93.8915,23.022,-11.5525,-7.96266,23.8106,7.12502,17.9448,-5.38152,3.49861e-14,2.0276e-14,-17.8297,46.7013,-45.5369,27.8198,63.1632,-9.14716,18.4803,7.12502,16.8048,47.7731,-11.8925,-1.43763,22.7257,34.5972,1.72399,2.38359,34.7024,-4.76771,0.551294,-18.2272,26.1567,5.63711,-1.90285,-21.7139
19.1534,18.8448,-15.7038,1.88638,-30.7978,-0.735042,-1.94795,-3.5284,2.67403,-8.52946,-4.93353,-2.29319,-8.31316,-2.78547,-3.62801,-9.99699,6.34499,15.9655,-0.199178,7.09282,-15.06,2.72967,3.12198,-6.83382,-5.9039e-14,-2.54444e-14,-74.7654,-86.1522,93.7575,22.9416,-10.9962,-8.17929,23.4201,7.12502,17.7363,-5.79099,-5.9039e-14,-2.54444e-14,-18.5205,47.1462,-46.0821,27.8965,62.7262,-9.25736,18.0928,7.12502,16.6987,47.3946,-11.6566,-1.50332,22.6972,35.1792,0.681998,1.65683,33.4811,-4.3511,0.889514,-18.5447,26.0568,4.56307,-1.66322,-22.8445
19.1756,18.7857,-15.7192,1.55449,-31.4746,-0.543796,-1.8601,-3.518,2.69542,-8.2227,-4.90423,-2.24759,-8.02042,-2.75851,-3.59796,-10.3715,6.55739,16.4537,0.517498,7.35628,-15.5104,3.08339,3.22787,-7.02671,-7.95139e-14,-2.90226e-14,-73.4263,-86.5735,92.4448,22.8878,-10.4757,-8.01483,23.2295,7.12502,17.8946,-5.96718,-7.95139e-14,-2.90226e-14,-19.0223,46.5353,-46.2127,27.9999,63.0822,-8.8961,17.7331,7.12502,17.0465,47.0052,-11.2332,-1.62149,22.7186,35.5739,-0.100986,1.02138,32.383,-3.9012,1.14574,-18.8425,26.0767,3.08116,-1.07233,-24.495
19.1977,18.7195,-15.735,1.37947,-32.0758,-0.531498,-1.7389,-3.47137,2.8277,-8.12147,-4.82414,-2.11627,-7.9713,-2.71837,-3.53346,-10.0892,6.53781,16.5682,1.04897,7.42917,-15.7693,3.22352,3.27068,-7.12746,4.6615e-14,1.31198e-14,-63.6864,-86.7596,82.8458,22.8256,-10.1466,-7.63549,23.4662,7.12502,18.2595,-5.69677,4.6615e-14,1.31198e-14,-19.0614,45.2142,-45.6886,28.0598,63.8701,-8.48589,17.2812,7.12502,17.4413,46.5188,-10.8231,-1.77964,22.9077,35.7319,-0.458375,0.420449,31.1461,-3.52448,1.41728,-18.9795,26.243,1.5505,-0.582715,-25.8875
19.218,18.6478,-15.7594,1.45406,-32.6105,-0.666141,-1.55602,-3.47519,3.10398,-8.26969,-4.81379,-1.96679,-8.25184,-2.73317,-3.51275,-9.321,6.38041,16.4221,1.49438,7.3943,-15.6863,3.21318,3.29007,-7.0931,-4.22417e-14,-1.82882e-14,-43.8836,-86.378,62.9139,22.8985,-10.4248,-7.56852,23.4799,7.12502,18.324,-5.677,-4.22417e-14,-1.82882e-14,-18.8946,44.5993,-45.0962,28.0455,63.7383,-8.23868,17.1433,7.12502,17.6792,46.3596,-10.5502,-1.8211,23.2651,35.6903,-0.842394,0.208154,30.0588,-3.27327,1.73667,-18.9317,26.4365,0.129758,-0.346869,-25.9183
19.235,18.5751,-15.7811,1.45714,-33.126,-0.705668,-1.35331,-3.50298,3.32976,-8.3545,-4.83655,-1.86871,-8.47865,-2.76119,-3.51646,-8.96087,6.32297,16.2842,1.99074,7.42537,-15.4823,3.28942,3.32785,-7.0062,5.91384e-14,2.78299e-14,-35.6321,-86.366,54.4099,22.9052,-10.1641,-7.32441,23.586,7.12502,18.5588,-5.54866,5.91384e-14,2.78299e-14,-18.8857,43.981,-44.5767,28.0583,63.6282,-8.26381,17.0831,7.12502,17.655,46.3016,-10.2234,-1.85823,23.5108,35.5107,-1.94179,0.782134,29.9881,-3.40449,1.94248,-19.0246,26.558,-0.977794,0.2453,-28.1251
19.2491,18.5039,-15.7927,1.27982,-33.6618,-0.402989,-1.39268,-3.4902,3.244,-8.21749,-4.81914,-1.85606,-8.29257,-2.74005,-3.46412,-9.10118,6.30072,16.1189,2.55964,7.43667,-15.2916,3.46656,3.33395,-6.91069,-7.73272e-14,-3.18055e-14,-40.379,-87.1321,59.0125,22.7409,-9.08838,-6.76509,23.8942,7.12502,19.0967,-5.18823,-7.73272e-14,-3.18055e-14,-19.1142,43.7452,-44.1316,28.0079,63.3278,-8.58135,16.6887,7.12502,17.3494,45.9344,-9.89251,-1.91139,23.3774,35.1853,-3.58775,1.34146,30.4758,-3.31365,1.71752,-19.4898,26.703,-2.48484,1.41594,-25.5716
19.2599,18.4322,-15.8038,1.12821,-34.179,0.0301908,-1.43449,-3.41418,2.92968,-8.27269,-4.7277,-1.81856,-8.28553,-2.67263,-3.25735,-8.98842,6.20245,16.1213,3.31133,7.3991,-15.3659,3.66761,3.3194,-6.94055,8.77634e-14,2.90226e-14,-40.4918,-87.3291,59.0316,22.7081,-8.27663,-6.49708,24.0415,7.12502,19.3545,-5.01536,8.77634e-14,2.90226e-14,-18.986,43.8993,-43.2494,27.8867,62.7489,-8.86575,16.7299,7.12502,17.0757,45.9995,-9.72403,-1.95673,23.1049,34.8381,-5.32081,1.23973,30.0154,-3.12919,1.74355,-20.0315,26.6699,-4.06661,2.1289,-23.5223
19.2748,18.3497,-15.8226,1.13467,-34.6561,0.168116,-1.24022,-3.3223,2.82921,-8.47379,-4.60189,-1.69688,-8.58833,-2.6057,-3.06296,-8.76662,6.05254,16.1354,3.98184,7.30219,-15.4916,3.81974,3.27752,-6.9983,-3.15074e-14,-1.78906e-15,-34.5047,-86.784,52.8974,22.831,-8.36011,-6.22398,24.127,7.12502,19.617,-4.9033,-3.15074e-14,-1.78906e-15,-18.7074,43.1744,-42.0422,27.8875,63.0392,-9.1592,17.1949,7.12502,16.7932,46.4887,-9.6145,-2.04563,23.1583,34.4334,-7.11777,0.581198,25.4971,-3.08062,2.12835,-20.2803,26.6533,-5.34885,2.80838,-27.8545
19.2877,18.302,-15.8435,1.30767,-35.1115,0.101495,-0.999266,-3.3067,3.03466,-8.62437,-4.56909,-1.62429,-8.90648,-2.60861,-3.08241,-8.76356,5.92771,15.9901,4.51581,7.18683,-15.3064,3.94491,3.22644,-6.92429,2.38542e-15,-1.37161e-14,-31.2318,-85.9892,49.1517,22.9513,-9.08969,-5.76036,24.1889,7.12502,20.0627,-4.7953,2.38542e-15,-1.37161e-14,-18.7287,40.169,-41.0245,28.196,65.3687,-10.0219,17.2091,7.12502,15.9626,46.5714,-9.39385,-1.31502,23.2764,34.0885,-9.22541,0.536669,30.6462,-3.13005,2.47661,-20.3235,26.6342,-6.60217,3.69759,-32.5943
19.3036,18.2315,-15.871,1.6371,-35.6079,0.0923492,-0.891919,-3.31836,3.27323,-8.85918,-4.58254,-1.61928,-9.25551,-2.64496,-3.1934,-8.60352,5.88504,16.0417,4.99055,7.18375,-15.2063,4.05572,3.2374,-6.90449,9.45718e-14,3.63776e-14,-28.0621,-84.814,45.114,23.099,-9.82936,-5.58819,24.3256,7.12502,20.2282,-4.6411,9.45718e-14,3.63776e-14,-18.8219,36.8266,-40.0927,28.4855,67.9116,-10.8951,16.8023,7.12502,15.1215,46.2299,-9.45541,-0.923391,23.36,33.7703,-11.0153,0.804088,31.4642,-3.40879,2.68191,-20.407,26.641,-8.08159,4.53065,-35.3446
19.3192,18.1599,-15.899,1.87266,-36.1527,0.321573,-0.795799,-3.26833,3.25962,-9.18176,-4.52781,-1.63459,-9.66963,-2.63316,-3.18973,-8.25421,5.81916,16.1826,5.39622,7.17313,-15.2633,4.12319,3.24766,-6.95638,-5.561e-14,-3.02153e-14,-25.7782,-82.9208,41.9265,23.4018,-10.8869,-5.54474,24.4131,7.12502,20.2699,-4.54922,-5.561e-14,-3.02153e-14,-18.9025,35.9179,-39.2505,28.4745,68.1463,-10.6964,16.9671,7.12502,15.313,46.3802,-9.71464,-0.635583,23.166,33.5778,-12.5063,1.53839,34.1326,-3.66279,2.72792,-20.7249,26.4833,-9.61466,5.32503,-35.84
19.3337,18.0964,-15.9237,2.02503,-36.6501,0.533386,-0.557954,-3.20204,3.21788,-9.48016,-4.44844,-1.65352,-10.1391,-2.60633,-3.16965,-8.02749,5.68524,16.2654,5.74203,7.04174,-15.2033,4.16653,3.19759,-6.96814,-1.04859e-14,4.77083e-15,-25.9548,-81.3119,41.271,23.6514,-11.7555,-5.45906,24.3449,7.12502,20.3523,-4.60868,-1.04859e-14,4.77083e-15,-19.0743,36.0446,-38.4695,28.3832,67.2325,-9.88356,17.4227,7.12502,16.0958,46.7743,-9.93123,-0.350938,22.9053,33.4242,-13.7612,2.55801,37.678,-3.79258,2.59558,-21.0308,26.307,-10.981,6.16092,-35.1114
19.3473,18.0353,-15.948,2.31933,-37.097,0.449933,-0.318004,-3.1707,3.426,-9.67268,-4.39572,-1.62552,-10.5145,-2.60725,-3.23978,-7.92984,5.60541,16.4223,5.83917,6.93627,-15.1788,4.16608,3.15503,-6.99818,-1.12761e-13,-3.69739e-14,-28.0008,-80.6654,42.4705,23.5747,-11.7388,-5.45528,24.2025,7.12502,20.3559,-4.75068,-1.12761e-13,-3.69739e-14,-19.4187,35.3248,-37.5834,28.3198,66.9906,-9.45341,17.1733,7.12502,16.5099,46.4909,-10.2248,-0.490716,22.9347,33.3077,-14.9097,2.97772,35.7995,-3.81203,2.37332,-21.0551,26.0015,-12.2054,6.92565,-35.0155
19.3594,17.9868,-15.977,2.63098,-37.5958,0.369464,-0.233786,-3.13175,3.65665,-9.75729,-4.33419,-1.6307,-10.6788,-2.60342,-3.37189,-8.03512,5.5786,16.4648,5.95255,6.87693,-15.0446,4.20386,3.12909,-6.9645,8.4732e-14,2.66371e-14,-32.0242,-80.3794,45.5646,23.4046,-11.2237,-5.5932,23.9095,7.12502,20.2234,-5.05777,8.4732e-14,2.66371e-14,-19.9118,34.2511,-36.7429,28.2972,67.4652,-9.51871,16.7667,7.12502,16.4471,46.0895,-10.618,-0.678326,22.9757,33.2071,-15.8632,3.004,30.6762,-3.87144,2.13686,-21.0469,25.6157,-13.5912,7.25686,-32.8481
19.3711,17.9521,-16.0116,2.97256,-38.0834,0.292121,-0.128871,-3.08904,3.82618,-9.88531,-4.26966,-1.62018,-10.8978,-2.5944,-3.45129,-8.20685,5.47951,16.3273,6.2088,6.73644,-14.852,4.27388,3.05927,-6.88813,-7.27055e-14,-2.32578e-14,-36.1943,-79.8294,48.531,23.5136,-10.8638,-6.03927,23.7305,7.12502,19.7946,-5.28156,-7.27055e-14,-2.32578e-14,-20.4492,33.5914,-35.9261,28.266,67.7263,-9.39547,16.8393,7.12502,16.5657,46.1522,-11.0408,-0.666303,22.9959,33.0543,-16.4662,3.26308,25.8386,-4.04227,1.75313,-21.026,25.2965,-14.9855,7.30582,-27.0847
19.3835,17.9141,-16.0449,3.29795,-38.5085,0.100032,0.194774,-3.05503,3.99559,-10.1034,-4.203,-1.52635,-11.346,-2.58481,-3.42638,-8.2244,5.33784,16.1443,6.4931,6.57914,-14.772,4.32694,2.98088,-6.84622,7.70291e-14,1.05356e-14,-36.9569,-78.1799,47.929,23.8054,-11.678,-6.30184,23.8777,7.12502,19.5422,-5.16013,7.70291e-14,1.05356e-14,-20.9772,32.7715,-34.8889,28.2125,67.6432,-8.96271,16.902,7.12502,16.9823,46.1796,-11.3154,-0.668779,23.0655,32.8669,-17.0613,4.1686,23.7874,-4.12365,1.46089,-20.9521,25.0559,-15.9201,8.12219,-27.7682
19.3958,17.8762,-16.0743,3.48821,-38.9476,-0.183908,0.693679,-3.02335,4.19661,-10.2697,-4.12203,-1.39384,-11.8424,-2.56718,-3.37127,-8.26488,5.23723,15.967,6.82943,6.47761,-14.6822,4.4087,2.92944,-6.79718,6.98231e-14,1.15295e-14,-36.9847,-76.2016,46.7066,23.9686,-12.9703,-5.95038,23.6588,7.12502,19.8801,-5.34446,6.98231e-14,1.15295e-14,-21.5474,31.9076,-33.7736,28.107,67.3016,-9.00233,16.576,7.12502,16.9442,45.8569,-11.3249,-0.700129,23.1632,32.6787,-17.7578,5.46061,24.5637,-3.99561,1.56034,-20.8173,24.8816,-16.5493,9.38501,-34.4779
19.4058,17.8383,-16.107,3.65915,-39.4279,-0.368819,0.972249,-2.97828,4.26203,-10.2702,-4.03564,-1.2878,-12.0007,-2.52604,-3.28806,-8.49931,5.16858,15.8696,6.86954,6.3591,-14.6291,4.43646,2.86217,-6.77012,-4.19436e-14,-9.44227e-15,-39.0434,-74.8187,47.494,23.9874,-13.8794,-5.47018,22.8669,7.12502,20.3416,-6.08779,-4.19436e-14,-9.44227e-15,-22.2773,31.2726,-32.6884,28.0022,67.2362,-9.02041,16.5745,7.12502,16.9268,45.8569,-11.3894,-0.82898,23.2246,32.4637,-18.5232,6.2889,23.5092,-3.97962,1.58273,-20.748,24.8327,-17.8261,9.73015,-34.0823
19.4134,17.7946,-16.146,3.86138,-39.9377,-0.314119,0.993697,-2.92506,4.0808,-10.297,-3.97156,-1.22105,-12.0148,-2.47464,-3.1208,-8.67702,5.13135,15.7668,6.83011,6.28326,-14.5478,4.43651,2.81915,-6.72934,-3.31473e-14,2.18663e-15,-41.7272,-73.7928,48.7922,23.9284,-14.3426,-5.07973,22.4684,7.12502,20.7168,-6.44585,-3.31473e-14,2.18663e-15,-23.1037,30.0776,-31.5114,28.0182,68.1873,-8.64397,16.9225,7.12502,17.2891,46.1734,-11.6757,-0.937531,23.1453,32.2269,-19.1927,6.93288,22.0511,-4.24403,1.16699,-20.9258,24.885,-19.3719,10.183,-28.703
19.4212,17.7635,-16.1897,4.29269,-40.4093,-0.517252,1.28257,-2.89768,4.0204,-10.6113,-3.92146,-1.03952,-12.5355,-2.44933,-2.87029,-8.53997,5.0301,15.6115,7.00789,6.19363,-14.4917,4.44536,2.77885,-6.69585,1.81391e-15,9.14409e-15,-43.1547,-72.6923,48.8362,23.8989,-14.3951,-5.07588,22.2862,7.12502,20.7205,-6.62761,1.81391e-15,9.14409e-15,-23.8219,28.2807,-30.1192,28.0978,69.5927,-8.65032,17.1526,7.12502,17.283,46.4041,-12.0521,-1.09501,23.3034,31.9857,-19.4489,8.08334,23.3413,-4.6041,0.742707,-20.8897,24.9352,-20.2673,11.4621,-27.1311
19.4289,17.7446,-16.2367,4.84217,-40.7683,-1.03529,1.78292,-2.90094,4.14392,-10.9421,-3.88331,-0.808546,-13.2278,-2.44544,-2.65309,-8.26595,4.84405,15.8048,6.86295,5.96949,-14.7788,4.33591,2.67061,-6.84647,-7.29291e-14,-2.49475e-14,-42.9353,-70.6032,47.0683,23.9501,-15.3955,-5.61195,21.7796,7.12502,20.2053,-7.1896,-7.29291e-14,-2.49475e-14,-24.5056,27.1964,-28.7619,28.0652,70.4853,-8.43885,17.3361,7.12502,17.4865,46.5696,-12.3519,-1.3486,23.7653,31.7855,-19.7932,9.06112,24.694,-4.86658,0.687983,-20.5135,24.9046,-20.6071,12.5157,-28.0983
19.4328,17.7254,-16.2797,5.09078,-41.0972,-1.25866,1.9194,-2.94911,4.12157,-10.9211,-3.93779,-0.73269,-13.2843,-2.46354,-2.54305,-8.118,4.73897,16.1702,6.30162,5.78334,-15.0999,4.13542,2.57902,-7.02874,-5.26282e-14,-3.03147e-14,-43.3513,-68.5299,45.6549,23.7705,-17.049,-6.09902,21.6511,7.12502,19.7372,-7.36683,-5.26282e-14,-3.03147e-14,-25.4366,27.2985,-27.8008,27.8946,70.8162,-8.33612,17.0263,7.12502,17.5854,46.251,-12.5058,-1.29669,24.0382,31.5898,-20.4583,9.11253,24.379,-5.02709,0.569628,-20.376,24.8558,-20.9344,13.4936,-28.1335
19.431,17.7038,-16.3161,5.2625,-41.5187,-1.19202,1.60606,-2.98089,3.91253,-10.7783,-4.0109,-0.745256,-12.9056,-2.47135,-2.45344,-8.14683,4.7108,16.1692,5.90003,5.69854,-15.0369,4.00512,2.53817,-7.01085,8.51544e-14,3.81667e-14,-45.382,-67.6055,45.8821,23.3206,-17.9463,-6.33466,21.5354,7.12502,19.5106,-7.50566,8.51544e-14,3.81667e-14,-26.5094,29.0788,-27.3681,27.5093,69.409,-8.63364,16.8179,7.12502,17.2991,46.068,-12.762,-1.22166,24.0618,31.4021,-20.7562,9.36613,24.7078,-5.26973,-0.117422,-20.5522,24.8213,-21.6455,14.7106,-26.3335
19.4287,17.6818,-16.353,5.6606,-41.8993,-1.37284,1.32896,-3.0058,3.84274,-10.7664,-4.05591,-0.67124,-12.7093,-2.48075,-2.34399,-8.27661,4.66254,15.9984,5.79409,5.60762,-14.8543,3.96994,2.49202,-6.92586,3.92103e-14,1.94809e-14,-48.7249,-67.5882,47.6373,22.9858,-17.8202,-6.34149,20.6805,7.12502,19.5041,-8.36122,3.92103e-14,1.94809e-14,-27.4837,30.9593,-26.9498,27.017,67.59,-8.77949,17.2401,7.12502,17.1587,46.5024,-13.0672,-1.67241,24.2552,31.2049,-20.6681,10.7047,27.8662,-5.53953,-1.12302,-20.5408,24.8205,-22.7894,15.6919,-23.1069
19.4297,17.6672,-16.3982,6.0131,-42.1545,-1.60812,1.28721,-3.08276,3.78691,-10.8129,-4.16012,-0.572862,-12.733,-2.52122,-2.19252,-8.49825,4.59252,15.864,5.94554,5.49344,-14.6818,4.02464,2.4322,-6.85324,-2.55438e-14,-3.97569e-16,-53.5284,-68.1754,50.9296,22.7733,-16.7752,-5.93014,19.9227,7.12502,19.8995,-9.07846,-2.55438e-14,-3.97569e-16,-28.3791,31.5407,-26.1287,26.6702,67.0211,-8.87231,17.6257,7.12502,17.0694,46.8958,-13.2718,-2.1239,24.5429,30.919,-20.6393,11.7644,30.8453,-5.81451,-1.6,-20.3747,24.9161,-23.2522,16.3441,-22.4426
19.4286,17.6597,-16.4488,6.45068,-42.3238,-1.87966,1.16534,-3.13889,3.71363,-10.8734,-4.24479,-0.511708,-12.7231,-2.55362,-2.07891,-8.65243,4.49731,15.8272,6.12749,5.34845,-14.5399,4.07618,2.3613,-6.8111,4.67144e-15,-1.59028e-15,-58.3509,-68.2469,54.1491,22.6097,-16.0269,-5.49442,19.6057,7.12502,20.3183,-9.35143,4.67144e-15,-1.59028e-15,-29.2421,33.1258,-25.5358,26.2369,65.3889,-8.64097,18.0557,7.12502,17.292,47.3064,-13.5376,-2.14703,24.9408,30.561,-20.826,11.8054,31.1247,-6.25127,-1.51134,-20.0475,25.059,-23.1776,16.4996,-23.069
19.4239,17.6604,-16.4956,7.04625,-42.3773,-2.27214,0.790856,-3.18487,3.75476,-10.8448,-4.31308,-0.446646,-12.4603,-2.58603,-2.04633,-8.81451,4.43528,15.7365,6.07799,5.2385,-14.4471,4.06614,2.303,-6.77157,1.25185e-13,4.27387e-14,-62.9073,-67.9982,57.1068,22.4065,-15.8223,-5.49297,19.4014,7.12502,20.3197,-9.55564,1.25185e-13,4.27387e-14,-29.8328,34.191,-24.5782,25.8326,64.4863,-9.16471,18.2901,7.12502,16.7879,47.5843,-13.877,-2.35042,25.4221,30.222,-20.8881,12.0365,30.9189,-6.74878,-1.537,-19.5873,25.1414,-23.35,16.346,-22.0018
19.4186,17.673,-16.539,7.18371,-42.4373,-2.02349,0.649509,-3.31471,3.32717,-10.9665,-4.5312,-0.436092,-12.4899,-2.65316,-1.77545,-8.81436,4.34856,15.2959,5.97927,5.13871,-14.1388,4.00023,2.25664,-6.60199,1.54058e-15,0,-63.7246,-66.9564,56.1732,22.1968,-17.1457,-5.99105,19.0347,7.12502,19.841,-9.97261,1.54058e-15,0,-30.1677,33.2182,-23.0155,25.5766,65.3334,-10.5024,18.1333,7.12502,15.4998,47.532,-14.2336,-3.11962,25.3164,29.9894,-20.5235,13.3404,32.6157,-7.17429,-1.42941,-19.6426,25.116,-22.8413,16.5566,-23.5771
19.4116,17.6832,-16.5782,6.80849,-42.5341,-1.30673,0.82266,-3.512,2.59117,-11.1997,-4.87155,-0.538353,-12.8323,-2.7571,-1.4157,-8.69727,4.25545,14.881,5.94566,5.04538,-13.7888,3.93525,2.22051,-6.42486,-6.17226e-14,-3.10104e-14,-60.8977,-64.8013,51.1777,22.1305,-20.1663,-6.87743,18.2454,7.12502,18.9887,-10.8477,-6.17226e-14,-3.10104e-14,-30.4386,31.362,-21.418,25.423,66.7217,-11.8363,17.99,7.12502,14.2147,47.4836,-14.4155,-4.15317,24.7954,29.8676,-20.1898,14.9531,34.7044,-7.3462,-1.17034,-20.0783,25.0157,-22.0925,16.7039,-26.1234
19.4039,17.6812,-16.6156,6.41153,-42.616,-0.730488,0.98367,-3.72606,2.05631,-11.3667,-5.22652,-0.675384,-13.1115,-2.88657,-1.20484,-8.73586,4.24517,14.6746,6.07026,5.05141,-13.6772,3.97124,2.22206,-6.35333,9.00992e-14,4.57205e-14,-60.5558,-63.4757,48.8537,21.9738,-21.8444,-7.59326,17.9621,7.12502,18.3002,-11.1971,9.00992e-14,4.57205e-14,-30.7447,29.2715,-19.8174,25.4301,68.2827,-12.9345,17.7735,7.12502,13.1564,47.3384,-14.488,-4.86086,24.3942,29.8123,-20.248,15.7944,35.0652,-7.37262,-1.04832,-20.4003,24.933,-22.085,16.2832,-25.6245
19.3973,17.6779,-16.6542,6.31564,-42.748,-0.397853,0.980943,-3.91096,1.72539,-11.5547,-5.52639,-0.746847,-13.3235,-3.00689,-1.05199,-8.91753,4.23462,14.5891,6.35525,5.05845,-13.8169,4.08992,2.21015,-6.3845,2.29099e-14,2.06736e-14,-61.4132,-62.7119,48.0131,21.6795,-22.7092,-8.16298,18.5437,7.12502,17.752,-10.666,2.29099e-14,2.06736e-14,-31.1913,27.7124,-18.3975,25.4697,69.1733,-13.313,17.4467,7.12502,12.7915,47.0348,-14.7256,-5.59738,24.1817,29.7304,-20.1367,16.9053,35.5544,-7.62788,-0.72157,-20.5137,25.0018,-22.2994,15.5633,-24.3646
19.392,17.6761,-16.6912,6.68723,-42.8413,-0.605264,0.701241,-4.0438,1.84918,-11.6249,-5.71112,-0.767194,-13.26,-3.11645,-1.13574,-9.23625,4.19394,14.6127,6.4218,4.97893,-13.9992,4.15779,2.15105,-6.45236,-1.49089e-16,-1.98785e-16,-60.8073,-61.249,45.4538,21.4578,-25.387,-9.15204,18.596,7.12502,16.8001,-10.6972,-1.49089e-16,-1.98785e-16,-31.4953,26.877,-17.0575,25.4765,69.839,-13.7379,17.1544,7.12502,12.3818,46.7677,-15.0477,-6.91938,24.3916,29.5773,-19.5869,18.9695,37.1329,-8.10348,-0.279038,-20.1786,25.2299,-22.368,14.8602,-23.4867
19.3908,17.6744,-16.7349,7.27819,-42.857,-1.10267,0.400856,-4.16994,2.21758,-11.6319,-5.86518,-0.779258,-13.136,-3.23537,-1.35391,-9.40795,4.17307,14.6319,6.05641,4.90076,-14.0822,4.06901,2.10233,-6.4847,3.06128e-14,9.14409e-15,-60.1444,-59.7525,42.837,21.3259,-28.655,-10.151,18.0205,7.12502,15.8382,-11.3516,3.06128e-14,9.14409e-15,-31.5695,26.7609,-15.9026,25.3168,70.1663,-14.2992,16.8296,7.12502,11.8406,46.4749,-15.3748,-7.88343,24.8867,29.3993,-19.0012,20.5488,38.5323,-8.68167,0.104879,-19.5935,25.5109,-22.3233,14.3313,-22.492
19.3881,17.6776,-16.7788,7.47376,-43.0676,-1.14816,0.0813879,-4.23995,2.21814,-11.505,-5.97646,-0.917999,-12.8111,-3.29989,-1.52438,-9.84948,4.22687,14.7315,5.72043,4.88167,-14.1935,4.04603,2.07325,-6.5332,-1.58531e-13,-6.91771e-14,-61.2104,-59.0667,42.3348,20.9511,-30.3135,-10.5674,17.7213,7.12502,15.4372,-11.6822,-1.58531e-13,-6.91771e-14,-31.5567,28.1068,-15.3704,24.7676,69.1745,-13.9686,16.6711,7.12502,12.1594,46.2977,-15.5984,-8.08073,24.9973,29.2645,-18.9655,21.2991,39.082,-9.08834,0.496782,-19.4514,25.753,-22.1701,14.3632,-23.1402
19.3827,17.6815,-16.8119,7.41726,-43.4473,-0.870468,-0.289414,-4.2347,2.0142,-11.4226,-6.0065,-1.10941,-12.4859,-3.30927,-1.65202,-10.1551,4.19111,14.5532,5.38673,4.78213,-14.1482,3.97732,2.0102,-6.49099,5.94366e-14,3.02153e-14,-61.6162,-58.0902,41.3425,20.5489,-32.121,-10.7716,17.6272,7.12502,15.2405,-11.7914,5.94366e-14,3.02153e-14,-31.2159,27.1097,-13.8867,24.7301,70.6044,-13.7882,16.6233,7.12502,12.3333,46.2395,-15.8129,-8.38089,24.7993,29.2219,-18.9383,22.2074,39.1402,-9.33359,0.740509,-19.6502,25.8933,-22.0483,14.7595,-24.8485
19.3775,17.6773,-16.843,7.37405,-43.8784,-0.690535,-0.439135,-4.1715,1.8524,-11.5673,-5.95291,-1.19042,-12.5531,-3.27914,-1.66184,-9.79275,4.01389,14.3789,4.7654,4.57922,-14.4464,3.70702,1.9051,-6.57451,7.36497e-14,2.62396e-14,-60.6444,-56.5347,39.2091,20.2853,-34.4433,-11.0732,17.0116,7.12502,14.95,-12.4288,7.36497e-14,2.62396e-14,-30.7121,19.3598,-9.82011,26.5045,78.7083,-15.5145,15.8471,7.12502,10.6685,45.5563,-16.019,-8.97982,24.6883,29.2174,-18.2397,23.6215,39.7693,-9.49124,0.722473,-19.7694,25.9876,-22.1515,15.0559,-24.7356
19.3715,17.6688,-16.8771,7.18121,-44.4262,-0.49562,-0.408396,-4.0744,1.59855,-11.6582,-5.85111,-1.25089,-12.6513,-3.21093,-1.59277,-9.4803,3.8955,14.6495,4.06292,4.4222,-15.3441,3.45665,1.80556,-6.92679,-4.67144e-15,1.31198e-14,-60.1449,-55.3552,37.8009,20.0892,-36.0703,-11.6913,15.0179,7.12502,14.3544,-14.4658,-4.67144e-15,1.31198e-14,-30.5078,22.8671,-10.0385,25.7127,75.2667,-14.7637,15.7956,7.12502,11.3927,45.4661,-16.0537,-9.27253,24.5575,29.185,-17.4052,24.859,41.0398,-9.4666,0.73565,-19.9099,26.1022,-22.4285,15.2741,-23.7477
19.3678,17.664,-16.9125,7.3065,-44.9149,-0.686345,-0.509276,-4.06506,1.69419,-11.5838,-5.83524,-1.2866,-12.5154,-3.21582,-1.69708,-9.38931,3.86205,14.8827,3.26874,4.32282,-16.0236,3.21886,1.73719,-7.19524,2.8625e-14,1.98785e-15,-59.4982,-54.4308,36.1261,19.9277,-37.7916,-12.4331,15.6129,7.12502,13.6396,-13.9202,2.8625e-14,1.98785e-15,-30.2926,22.4984,-9.14339,25.9551,76.143,-15.0286,15.6306,7.12502,11.1372,45.3151,-16.1125,-9.13744,24.7593,29.1379,-16.8232,25.5007,42.2349,-9.50925,0.895203,-19.7394,26.2209,-22.6229,15.5143,-23.2889
19.36,17.6638,-16.945,7.61101,-45.4284,-1.19045,-0.624473,-4.07732,2.05147,-11.494,-5.83032,-1.29509,-12.3814,-3.25058,-1.91551,-9.31643,3.89293,15.1035,2.57602,4.2989,-16.4483,3.01886,1.71651,-7.37314,8.06072e-14,3.49861e-14,-58.606,-53.5929,34.2759,19.7616,-39.3812,-12.0425,14.1217,7.12502,14.0161,-15.3858,8.06072e-14,3.49861e-14,-29.9722,21.4844,-8.28302,26.2978,77.627,-15.4455,15.7731,7.12502,10.735,45.4788,-16.0914,-8.84205,25.1981,29.0841,-16.7016,25.8989,42.543,-9.48966,1.07846,-19.3149,26.3385,-22.752,15.8059,-22.7885
19.349,17.662,-16.9748,7.44994,-46.034,-1.25865,-0.419212,-4.04261,1.98597,-11.5919,-5.79039,-1.26456,-12.6096,-3.2247,-1.82949,-9.08863,3.92274,15.0418,2.11653,4.34029,-16.7249,2.86182,1.73643,-7.45114,1.32987e-13,5.20816e-14,-57.0678,-52.4978,32.3049,19.6717,-40.8804,-11.5658,13.5629,7.12502,14.4753,-15.9122,1.32987e-13,5.20816e-14,-29.6453,20.8006,-7.58724,26.4794,78.4275,-15.6499,15.6312,7.12502,10.5379,45.347,-15.8837,-8.49344,25.26,29.0491,-16.9035,26.1438,42.0505,-9.24926,1.37596,-19.2181,26.4289,-22.9541,15.8956,-22.2977
19.343,17.6567,-17.0032,7.103,-46.5142,-1.21095,-0.0897073,-4.09017,1.90387,-11.6509,-5.86488,-1.28031,-12.8814,-3.25325,-1.76298,-8.99148,3.97535,14.9682,1.71657,4.39744,-16.9447,2.74499,1.76093,-7.50684,2.25621e-14,1.66979e-14,-55.6874,-51.6505,30.6774,19.6537,-42.0254,-12.0517,13.4416,7.12502,14.0072,-16.0664,2.25621e-14,1.66979e-14,-29.3711,21.047,-7.42183,26.5507,78.3691,-15.1665,15.3342,7.12502,11.0042,45.0258,-15.6256,-8.3504,25.2372,29.0911,-17.2695,26.3024,41.1007,-8.8754,1.62638,-19.1948,26.4323,-23.1738,15.9018,-21.82
19.334,17.6536,-17.0275,6.70876,-46.9958,-1.11658,0.225729,-4.18663,1.77488,-11.6606,-6.01368,-1.35006,-13.0927,-3.31514,-1.72314,-9.13569,4.08918,15.1596,1.44009,4.49094,-17.1959,2.7176,1.79438,-7.61539,-6.34123e-14,-4.29375e-14,-54.7706,-51.2726,29.6079,19.6898,-42.6593,-12.296,13.3542,7.12502,13.7718,-16.1699,-6.34123e-14,-4.29375e-14,-29.0435,21.3063,-7.49589,26.6873,78.3845,-14.3412,15.5499,7.12502,11.8001,45.1975,-15.3644,-8.27936,25.1722,29.1957,-18.234,26.1922,39.1744,-8.43428,1.8482,-19.2281,26.3944,-23.3614,16.1162,-21.896
19.3199,17.6454,-17.0479,6.25992,-47.5305,-0.800236,0.369085,-4.24637,1.39915,-11.7187,-6.12729,-1.34391,-13.2117,-3.33037,-1.48206,-9.29906,4.23181,15.1043,1.20687,4.64645,-17.3234,2.70707,1.85865,-7.6353,-3.78685e-14,-2.54444e-14,-53.9631,-51.2346,29.1145,19.7722,-42.8972,-11.7896,12.6847,7.12502,14.2597,-16.8058,-3.78685e-14,-2.54444e-14,-28.6972,21.6668,-7.53585,26.8791,78.429,-13.9877,15.9275,7.12502,12.1409,45.5552,-15.1795,-7.98823,24.9459,29.2983,-19.1485,25.9003,37.527,-8.11747,2.09337,-19.4323,26.4023,-23.5367,16.2669,-21.59
19.3045,17.6324,-17.0637,6.1415,-48.0714,-0.878344,0.0143068,-4.26361,1.52066,-11.4727,-6.14044,-1.44721,-12.7265,-3.35568,-1.70128,-9.73806,4.42856,15.213,0.866959,4.80617,-17.4333,2.71568,1.91489,-7.67472,3.1408e-14,-3.97569e-16,-54.3622,-52.1406,29.8528,19.8659,-42.5449,-11.393,12.6061,7.12502,14.6419,-16.857,3.1408e-14,-3.97569e-16,-28.0723,22.8516,-7.91876,27.0388,78.3716,-13.7654,16.2423,7.12502,12.3553,45.8573,-15.0536,-8.24578,25.0153,29.3865,-19.2666,26.5405,37.107,-7.85541,2.19238,-19.3427,26.4393,-23.8233,16.2728,-19.8809
19.2878,17.6249,-17.0789,6.05832,-48.6155,-1.0351,-0.348336,-4.28676,1.7888,-11.2151,-6.16458,-1.65172,-12.2605,-3.40692,-2.10883,-10.0082,4.63406,15.5918,0.471193,4.96027,-17.5155,2.68445,1.9793,-7.75357,1.78906e-14,1.03368e-14,-54.6568,-52.9734,30.4393,20.0981,-42.545,-11.6823,12.7754,7.12502,14.3631,-16.7078,1.78906e-14,1.03368e-14,-27.3227,23.2197,-8.3574,27.4538,79.3015,-13.5647,16.7439,7.12502,12.5488,46.3471,-14.9109,-8.82846,25.1288,29.4813,-18.7773,27.7108,37.6088,-7.54623,2.39471,-19.1906,26.4788,-24.183,16.1771,-18.8667
19.2716,17.621,-17.0949,5.7107,-49.0472,-0.744044,-0.400597,-4.37212,1.62355,-11.3588,-6.31387,-1.72881,-12.3995,-3.47481,-2.0815,-9.78996,4.78986,15.7676,0.265672,5.16234,-17.622,2.63204,2.08676,-7.80634,4.25399e-14,1.03368e-14,-54.0865,-53.5077,30.7984,20.3847,-42.0992,-12.0672,12.5154,7.12502,13.9922,-16.9937,4.25399e-14,1.03368e-14,-26.7331,23.4399,-8.80417,27.8085,79.6927,-13.1926,16.7497,7.12502,12.9075,46.3306,-14.7776,-8.57073,24.9365,29.5583,-18.7736,27.8252,37.9674,-7.35708,2.69054,-19.3607,26.541,-24.2055,16.2652,-19.7232
19.2532,17.6153,-17.1075,5.28019,-49.4054,-0.351482,-0.546191,-4.46161,1.3668,-11.4681,-6.46663,-1.76214,-12.4223,-3.53106,-1.96697,-9.77717,4.94144,15.8395,0.22088,5.36432,-17.8356,2.6629,2.17957,-7.87492,9.74045e-15,1.43125e-14,-54.323,-54.8189,32.432,20.596,-40.2802,-12.0463,12.3952,7.12502,14.0124,-17.1125,9.74045e-15,1.43125e-14,-26.0434,23.8834,-9.19235,27.987,79.841,-12.6772,16.2546,7.12502,13.4044,45.8034,-14.5975,-7.99807,24.6585,29.6267,-19.1262,27.6027,38.1167,-7.15063,2.54326,-19.6566,26.5981,-24.2129,16.8432,-20.1764
19.2304,17.6075,-17.1174,4.90873,-49.8214,-0.141004,-0.774215,-4.4709,1.2477,-11.3534,-6.48875,-1.85066,-12.1454,-3.53589,-2.02089,-10.3283,5.14529,16.0327,0.301883,5.5587,-18.0888,2.82834,2.2402,-7.972,3.97569e-14,2.10712e-14,-55.056,-56.248,34.4826,20.9155,-38.678,-11.9108,12.4109,7.12502,14.1429,-17.0878,3.97569e-14,2.10712e-14,-25.0769,24.3179,-9.46783,28.322,80.5106,-12.5912,16.1769,7.12502,13.4872,45.7202,-14.3321,-7.59799,24.4977,29.6757,-19.1317,27.8151,38.4701,-6.81829,2.15841,-19.8497,26.6511,-24.6054,17.5284,-19.9134
19.2074,17.6001,-17.127,4.7415,-50.2613,-0.126365,-0.929284,-4.44536,1.32562,-11.3256,-6.46284,-1.9672,-12.0429,-3.54144,-2.20615,-10.8009,5.28466,16.269,0.457469,5.67448,-18.2281,2.98514,2.26971,-8.04556,1.02772e-13,4.96962e-14,-55.0289,-57.0223,35.609,21.414,-37.9009,-11.8065,12.3806,7.12502,14.2434,-17.111,1.02772e-13,4.96962e-14,-23.9528,24.279,-9.74174,28.8599,81.5734,-12.7322,16.4346,7.12502,13.3514,45.9868,-14.1185,-7.25614,24.5155,29.6657,-19.5697,27.6997,37.1527,-6.58014,2.14518,-19.8588,26.7555,-25.0342,17.7308,-19.7365
19.1874,17.5918,-17.1312,4.70646,-50.556,-0.371996,-0.933464,-4.52336,1.62651,-11.4503,-6.56928,-1.99868,-12.2403,-3.63158,-2.38622,-10.3674,5.2401,16.4962,0.178281,5.62259,-18.4124,2.83797,2.26119,-8.15654,4.51241e-14,2.90226e-14,-53.972,-57.527,35.7655,21.9904,-37.2274,-11.6885,15.6849,7.12502,14.3571,-13.7987,4.51241e-14,2.90226e-14,-23.0508,23.4582,-10.1992,29.392,82.839,-12.3429,16.6424,7.12502,13.7266,46.1697,-13.8283,-7.36965,24.6881,29.645,-19.964,27.7503,35.6053,-6.29251,2.13098,-19.6634,26.878,-25.5664,17.4447,-18.5879
19.166,17.5846,-17.1311,4.71505,-50.8677,-0.773177,-0.848637,-4.59521,1.89509,-11.6291,-6.65283,-1.85909,-12.5269,-3.69574,-2.3554,-9.60482,5.11805,16.6314,-0.283951,5.50939,-18.777,2.57803,2.2333,-8.32185,1.05555e-13,4.13472e-14,-52.6694,-58.2465,36.081,22.5111,-36.0376,-11.6249,15.5216,7.12502,14.4185,-13.9576,1.05555e-13,4.13472e-14,-22.2873,24.1261,-10.7902,29.6045,82.2311,-11.1346,16.8593,7.12502,14.8908,46.3041,-13.4482,-7.64246,24.9196,29.6533,-19.8872,28.2165,35.3073,-5.88986,2.15791,-19.3803,26.9722,-25.8987,17.4316,-18.4573
19.142,17.5783,-17.1333,4.52474,-51.3599,-0.716103,-0.680709,-4.49423,1.30828,-11.9638,-6.52569,-1.41288,-12.8765,-3.54672,-1.53584,-9.49265,5.05619,16.448,-0.121432,5.50141,-19.3695,2.62711,2.2137,-8.49333,3.47873e-14,1.55052e-14,-51.186,-58.9547,37.0761,22.9891,-34.4541,-11.2666,15.3306,7.12502,14.7637,-14.1236,3.47873e-14,1.55052e-14,-21.4634,25.0131,-10.598,29.7858,81.2771,-9.97529,17.0253,7.12502,16.0074,46.384,-13.2673,-7.65234,24.8549,29.7097,-19.8092,28.6756,35.3357,-5.61206,2.36208,-19.4344,27.0267,-25.9427,17.7498,-19.2486
19.1195,17.5745,-17.1375,4.09739,-51.7951,-0.249236,-1.23481,-4.48198,1.15167,-11.8107,-6.52517,-1.56255,-12.3536,-3.54491,-1.67076,-9.92268,5.20535,16.6049,-0.0352443,5.63964,-19.4944,2.75995,2.25506,-8.54785,-2.83268e-14,-3.4191e-14,-51.1166,-60.1218,38.4057,23.5277,-32.7943,-10.9328,15.3854,7.12502,15.0852,-14.045,-2.83268e-14,-3.4191e-14,-20.291,24.6567,-10.838,30.2538,82.1598,-9.88255,16.6451,7.12502,16.0967,45.9966,-13.2226,-7.49565,24.5476,29.8227,-19.8171,29.0357,35.6769,-5.44151,2.27053,-19.7611,27.0398,-26.2133,17.7829,-17.9389
19.0979,17.5724,-17.1398,3.79615,-52.1203,0.0600617,-2.14754,-4.61203,1.77582,-11.4064,-6.70878,-2.13757,-11.5024,-3.73806,-2.71311,-10.0728,5.4192,16.9578,-0.445651,5.79878,-19.0762,2.68628,2.34233,-8.45171,-1.19271e-15,1.35174e-14,-51.345,-61.3548,39.0067,24.169,-31.7108,-10.9651,16.1521,7.12502,15.0541,-13.2806,-1.19271e-15,1.35174e-14,-19.0917,24.9864,-12.0074,30.722,82.5812,-9.93794,16.1715,7.12502,16.0434,45.5273,-13.1804,-7.28898,24.3622,29.9527,-20.0168,29.136,35.7268,-5.30706,2.19521,-19.9595,27.047,-26.4248,17.8704,-16.5755
19.0773,17.561,-17.1388,3.69919,-52.4504,0.000462415,-2.26775,-4.66034,1.81272,-11.5004,-6.77069,-2.01747,-11.5321,-3.76867,-2.60466,-9.88996,5.48014,16.8642,-0.519086,5.9099,-19.0572,2.65172,2.40594,-8.42168,2.50469e-14,1.35174e-14,-49.6644,-62.0424,38.9285,24.8464,-31.0838,-10.9932,17.0232,7.12502,15.027,-12.4115,2.50469e-14,1.35174e-14,-18.2608,25.4313,-12.4326,31.0861,82.3721,-9.39929,16.0142,7.12502,16.562,45.3274,-12.9788,-7.23307,24.3809,29.9968,-20.0346,29.35,35.9687,-5.14727,2.18794,-19.9057,27.1444,-26.7532,17.8143,-14.5307
19.0569,17.5468,-17.1388,3.60004,-52.7984,-0.294705,-2.10214,-4.67649,2.01146,-11.57,-6.78028,-1.91904,-11.7272,-3.78777,-2.58705,-9.84698,5.52355,16.8868,-0.292283,6.00195,-19.0281,2.72587,2.45349,-8.40837,2.98177e-14,9.54166e-15,-48.334,-62.7698,39.1775,25.5206,-30.252,-10.7991,17.8906,7.12502,15.214,-11.5301,2.98177e-14,9.54166e-15,-17.2748,25.5539,-12.8154,31.4386,82.5658,-8.97843,15.7271,7.12502,16.9672,45.006,-12.5124,-7.09746,24.5206,29.9668,-19.8265,29.7674,36.4109,-4.81199,2.17887,-19.6821,27.3138,-27.1486,17.3181,-12.3337
19.0342,17.5416,-17.1381,3.51305,-53.0939,-0.614187,-1.98346,-4.70366,2.22672,-11.5857,-6.79692,-1.80401,-11.8313,-3.80894,-2.56699,-9.98278,5.60296,16.9376,0.00221943,6.12392,-19.0747,2.85965,2.50393,-8.42091,1.90833e-14,8.74653e-15,-46.8098,-63.3596,39.186,26.1971,-29.7615,-10.2089,18.7341,7.12502,15.7825,-10.6425,1.90833e-14,8.74653e-15,-16.2718,26.3808,-13.1565,31.6833,82.0079,-8.41441,15.5097,7.12502,17.5101,44.7411,-12.0322,-6.92515,24.7037,29.9249,-19.7251,30.029,36.4814,-4.4295,2.43029,-19.413,27.5005,-27.2487,16.7888,-12.4415
19.0143,17.5404,-17.1348,3.20304,-53.3201,-0.514538,-1.89828,-4.72466,2.13912,-11.7331,-6.82335,-1.64262,-12.0226,-3.80616,-2.32704,-9.84186,5.64464,16.9879,0.220301,6.23964,-19.4191,2.93943,2.55556,-8.53949,3.80673e-14,1.74931e-14,-44.4978,-63.5169,38.6018,26.8939,-29.6801,-9.24937,19.2075,7.12502,16.7064,-10.0936,3.80673e-14,1.74931e-14,-15.3664,26.8136,-13.2385,31.9333,81.3926,-7.71482,15.2804,7.12502,18.1832,44.4505,-11.6841,-6.90913,24.6192,29.859,-19.827,30.0012,36.2477,-4.21722,2.63792,-19.4254,27.7144,-27.2704,16.4839,-12.7716
19.0003,17.5344,-17.1337,2.97914,-53.5396,-0.359497,-1.98671,-4.71875,2.10095,-11.8188,-6.81889,-1.57754,-12.0547,-3.79974,-2.24015,-9.65069,5.71215,17.2508,0.310967,6.36304,-19.8555,2.98738,2.61287,-8.72784,1.94809e-14,5.56597e-15,-42.8254,-63.7841,38.5244,27.5512,-29.5051,-8.54769,19.6206,7.12502,17.3818,-9.62217,1.94809e-14,5.56597e-15,-14.5123,26.2223,-13.3638,32.3865,81.9207,-7.48125,14.6289,7.12502,18.4079,43.7779,-11.5083,-6.77768,24.5245,29.8147,-20.0467,29.8295,35.7172,-4.17958,2.77332,-19.4936,27.8926,-26.9217,16.666,-14.2714
18.986,17.526,-17.1302,3.15308,-53.7594,-0.63991,-2.28372,-4.75476,2.52371,-11.7214,-6.85208,-1.61128,-11.8264,-3.86119,-2.53616,-9.75722,5.90801,17.6415,0.364594,6.5845,-19.9766,3.08227,2.71465,-8.81725,-3.44891e-14,-2.78299e-15,-41.7253,-64.2326,38.5958,28.0665,-29.2014,-8.2627,20.4005,7.12502,17.6561,-8.81781,-3.44891e-14,-2.78299e-15,-13.728,25.7147,-13.8901,32.7916,82.7982,-7.22975,13.8184,7.12502,18.6498,42.9444,-11.3998,-6.55862,24.7114,29.8558,-20.1197,29.8306,35.847,-4.10412,2.93703,-19.2774,27.9655,-26.7979,16.6046,-14.4434
18.9692,17.5214,-17.1214,2.92444,-53.9669,-0.569929,-2.41194,-4.85473,2.74195,-11.6864,-6.98028,-1.60834,-11.75,-3.94599,-2.65336,-9.7483,6.1036,17.7209,0.444932,6.85358,-19.9017,3.15466,2.84951,-8.78044,-1.09332e-15,6.95746e-15,-39.7576,-64.4238,37.8273,28.4752,-28.9082,-8.27667,21.2519,7.12502,17.6426,-7.96768,-1.09332e-15,6.95746e-15,-13.062,25.8342,-14.4211,32.8566,82.7028,-6.50032,13.4324,7.12502,19.3513,42.4895,-11.1483,-6.42238,24.6228,29.9197,-20.186,30.0058,36.3607,-3.85875,2.98208,-19.2879,28.007,-27.2806,16.0622,-11.6142
18.9549,17.5178,-17.1151,2.51933,-54.1442,-0.341597,-2.38775,-4.96708,2.69519,-11.6741,-7.10965,-1.38224,-11.719,-3.987,-2.37214,-9.82409,6.23408,17.2685,0.541364,7.08487,-19.9187,3.22544,2.95206,-8.68346,-4.06515e-14,-2.56432e-14,-37.5323,-64.8711,37.1424,28.7845,-28.3345,-8.45123,21.9804,7.12502,17.4746,-7.25423,-4.06515e-14,-2.56432e-14,-12.707,26.6504,-14.6693,32.7002,81.8381,-5.33117,13.2566,7.12502,20.4752,42.197,-10.8518,-6.35928,24.4482,29.9286,-20.7697,29.85,35.2907,-3.65336,3.05759,-19.3686,28.0958,-27.6463,15.5981,-8.57536
18.9425,17.5145,-17.1093,2.40647,-54.3307,-0.312713,-2.62269,-5.00928,2.80704,-11.4838,-7.13007,-1.15529,-11.3358,-3.98555,-2.22483,-10.4179,6.32109,16.6274,0.638562,7.19365,-19.7949,3.34467,2.96912,-8.50803,1.12239e-13,3.13334e-14,-36.4961,-65.6768,37.5799,28.9785,-27.4933,-8.40782,22.3329,7.12502,17.5164,-6.89798,1.12239e-13,3.13334e-14,-12.3822,27.7695,-14.7614,32.5073,81.1969,-4.16291,12.8264,7.12502,21.5975,41.642,-10.6931,-6.23315,24.4091,29.9243,-21.3111,29.7237,34.1941,-3.60404,3.24852,-19.3425,28.1817,-27.6306,15.5339,-7.54126
18.9296,17.5154,-17.1008,2.32419,-54.573,-0.270329,-2.98078,-4.9968,3.04279,-11.2788,-7.10155,-1.16764,-10.9159,-3.98954,-2.41767,-10.9455,6.40469,16.613,0.766997,7.23951,-19.6229,3.46849,2.96827,-8.43394,-4.2248e-14,-1.11878e-14,-36.087,-66.0471,38.3198,29.0934,-26.9822,-8.06199,22.1144,7.12502,17.8492,-7.08644,-4.2248e-14,-1.11878e-14,-11.8377,28.3539,-14.9306,32.4025,81.0718,-3.5584,12.1961,7.12502,22.178,40.9439,-10.5466,-6.05058,24.3451,29.8877,-21.6155,29.7431,33.7874,-3.51771,3.42005,-19.3936,28.3103,-27.3106,15.9559,-10.2574
18.9176,17.5145,-17.0946,2.32748,-54.8051,-0.458598,-3.06162,-4.97436,3.28799,-11.2153,-7.06337,-1.17231,-10.8269,-3.99242,-2.57051,-10.9206,6.51329,17.1651,0.846901,7.34256,-19.7755,3.53541,3.01995,-8.57341,1.00523e-13,5.08019e-14,-35.6028,-66.0424,38.9976,29.0953,-26.8278,-7.42911,22.2733,7.12502,18.4581,-6.87094,1.00523e-13,5.08019e-14,-11.1982,28.8147,-15.041,32.2356,80.8682,-2.79514,12.1244,7.12502,22.9106,40.7833,-10.2968,-5.88892,24.4461,29.8194,-21.8922,29.5252,33.1139,-3.31119,3.53367,-19.2532,28.4768,-27.3041,16.0361,-12.7653
18.9097,17.505,-17.0915,2.3727,-54.9682,-0.75511,-2.82573,-5.00266,3.44799,-11.2974,-7.07601,-0.962703,-11.0557,-4.00184,-2.40342,-10.5835,6.59793,17.3384,0.817004,7.49824,-19.9866,3.51876,3.10805,-8.66612,-4.13224e-14,-9.29318e-15,-34.9875,-66.3891,39.7725,28.9994,-26.4755,-6.38342,22.7648,7.12502,19.4637,-6.28101,-4.13224e-14,-9.29318e-15,-10.8468,29.3323,-15.0072,32.0303,80.3315,-1.78767,12.5287,7.12502,23.877,41.0645,-10.0086,-5.66365,24.6204,29.7715,-21.4031,29.717,34.1317,-3.08793,3.6256,-19.008,28.5897,-27.2332,16.1303,-14.9866
18.9029,17.4978,-17.0876,2.07142,-55.0989,-0.502739,-2.64448,-5.1162,3.39166,-11.4401,-7.21611,-0.754132,-11.3026,-4.05602,-2.10994,-10.3242,6.66329,17.1038,0.819803,7.65838,-20.0018,3.49888,3.19646,-8.61817,-9.19379e-15,-8.74653e-15,-33.9019,-66.8233,39.9845,28.7502,-25.9277,-5.60584,23.1823,7.12502,20.2112,-5.78618,-9.19379e-15,-8.74653e-15,-11.0094,29.2117,-15.1663,31.9329,79.9816,-1.35803,12.6038,7.12502,24.289,41.0851,-9.83984,-5.38097,24.4524,29.7606,-21.2228,29.8057,34.7884,-3.00825,3.63288,-19.1516,28.6295,-26.5144,16.6275,-18.7642
18.895,17.5013,-17.079,1.58095,-55.2561,0.104401,-2.6942,-5.16582,3.21697,-11.5385,-7.28926,-0.664573,-11.3536,-4.07359,-1.91229,-10.1474,6.72087,17.0604,0.814904,7.77663,-20.1393,3.49704,3.25769,-8.64897,2.28602e-15,-7.55382e-15,-32.7705,-66.4807,39.9617,28.3842,-26.0571,-5.53754,23.6259,7.12502,20.2769,-5.3357,2.28602e-15,-7.55382e-15,-11.1774,29.1429,-15.1801,31.7744,79.44,-1.08283,12.5766,7.12502,24.5528,41.0223,-9.80384,-5.21438,24.0503,29.7793,-21.7917,29.5384,33.9338,-3.06944,3.59852,-19.5194,28.6135,-26.0174,16.7122,-20.3803
18.888,17.5061,-17.0701,1.4225,-55.4527,0.288255,-2.77242,-5.09906,3.24519,-11.577,-7.19617,-0.592119,-11.337,-4.02834,-1.86409,-9.89548,6.791,17.4393,0.767238,7.88523,-20.5725,3.50317,3.31312,-8.85892,-2.21645e-14,-9.74045e-15,-32.769,-66.1768,40.9413,28.0638,-26.1122,-5.60488,23.6785,7.12502,20.2121,-5.28997,-2.21645e-14,-9.74045e-15,-11.1105,29.175,-14.9172,31.5871,78.8958,-0.955273,12.3509,7.12502,24.6751,40.7799,-9.78137,-5.09125,23.9001,29.8479,-21.5687,29.7318,34.5074,-3.04953,3.73432,-19.5824,28.514,-26.2499,16.0214,-18.3431
18.8827,17.5092,-17.0644,1.26616,-55.6357,0.483259,-2.88665,-5.05144,3.28963,-11.5489,-7.13057,-0.573118,-11.2337,-3.99934,-1.88749,-9.75802,6.89932,17.8489,0.806891,8.0352,-20.9177,3.55888,3.38593,-9.03854,6.54002e-14,2.82274e-14,-33.9684,-66.9103,42.9049,27.766,-24.5555,-6.09576,23.4371,7.12502,19.7403,-5.58053,6.54002e-14,2.82274e-14,-11.1296,29.3326,-14.8008,31.3955,78.4679,-0.979512,12.0665,7.12502,24.6518,40.4987,-9.80738,-4.82368,23.7776,29.9664,-21.4229,29.7285,34.923,-2.97694,3.98333,-19.6447,28.3415,-26.3146,15.4871,-16.8962
18.8797,17.5133,-17.0579,0.823235,-55.8359,1.08771,-3.08526,-5.14141,3.26672,-11.4397,-7.25382,-0.579065,-10.9949,-4.05561,-1.89998,-9.98389,7.08179,17.7587,0.889557,8.26921,-20.8432,3.65942,3.48775,-8.96729,1.21159e-13,4.57205e-14,-38.2114,-70.4293,47.4006,27.7677,-19.9773,-6.41149,23.3331,7.12502,19.4367,-5.71546,1.21159e-13,4.57205e-14,-11.8083,29.9088,-15.1431,31.2461,77.8272,-0.984094,11.9628,7.12502,24.6475,40.3957,-9.89866,-4.43064,23.4264,30.0607,-22.4272,29.0199,33.2247,-3.00025,4.00686,-19.9929,28.206,-26.331,15.3333,-16.3327
18.8777,17.515,-17.0509,0.605445,-56.0418,1.45299,-3.22851,-5.25971,3.41845,-11.3725,-7.40608,-0.518481,-10.857,-4.13985,-1.92499,-10.1338,7.28997,17.6836,0.83538,8.53325,-20.8473,3.71895,3.60627,-8.92326,2.16675e-14,2.78299e-15,-32.4264,-65.7507,42.2378,26.771,-24.5326,-8.49491,22.6925,7.12502,17.4326,-6.54586,2.16675e-14,2.78299e-15,-12.8586,29.8138,-15.5766,31.2773,77.8262,-1.3731,11.8359,7.12502,24.2745,40.3191,-10.0226,-4.11753,23.2149,30.1339,-23.2741,28.5287,31.9365,-3.07058,3.96795,-20.1856,28.0902,-26.547,14.9911,-15.3075
18.8745,17.5143,-17.0454,0.668008,-56.2048,1.3094,-3.1556,-5.25547,3.66237,-11.3241,-7.37904,-0.412042,-10.8623,-4.14006,-1.94092,-10.0364,7.3915,17.9913,0.62882,8.64213,-21.1969,3.70153,3.65647,-9.08876,-7.35503e-15,-1.27222e-14,-39.6428,-70.6728,49.8022,26.8041,-18.8349,-7.81765,22.421,7.12502,18.0843,-6.75833,-7.35503e-15,-1.27222e-14,-13.5181,29.4126,-15.5145,31.2807,78.2849,-1.66261,12.1296,7.12502,23.997,40.6496,-9.96962,-3.89824,23.321,30.1652,-23.5595,28.2464,31.4094,-2.99248,4.14979,-20.0245,27.9892,-26.275,14.9743,-14.9236
18.8731,17.5186,-17.0388,0.549597,-56.3361,1.30724,-3.0338,-5.26466,3.81939,-11.192,-7.36496,-0.308192,-10.788,-4.13408,-1.91329,-10.2834,7.46869,18.1398,0.57049,8.69523,-21.4442,3.76093,3.66013,-9.19035,-1.53064e-13,-5.56597e-14,-48.9485,-74.1967,59.5939,26.5115,-14.5751,-7.23019,22.0968,7.12502,18.6494,-7.02918,-1.53064e-13,-5.56597e-14,-14.3659,29.5108,-15.3817,31.286,78.3958,-1.91979,12.3617,7.12502,23.7503,40.914,-9.79868,-3.58321,23.3465,30.087,-23.8321,27.6565,30.2134,-2.96004,4.19439,-19.9487,28.0043,-25.9618,15.2818,-14.666
18.8782,17.5249,-17.0288,0.486091,-56.4357,1.38617,-2.98648,-5.32238,4.0991,-11.0939,-7.42221,-0.241287,-10.74,-4.17937,-1.9898,-10.6354,7.56349,18.1584,0.652032,8.78181,-21.5135,3.86754,3.67778,-9.20101,-1.06747e-13,-4.49253e-14,-55.04,-75.3135,65.8388,26.1336,-12.6551,-7.33007,21.6468,7.12502,18.5533,-7.48845,-1.06747e-13,-4.49253e-14,-15.471,29.956,-15.3565,31.3004,77.8581,-2.45511,11.9859,7.12502,23.2368,40.604,-9.74687,-3.36156,23.2979,29.9731,-23.8153,27.3523,29.9134,-3.09094,4.09251,-19.9333,28.053,-26.0337,15.3499,-15.3974
18.8824,17.5236,-17.0186,0.806462,-56.5907,1.06251,-2.97937,-5.25739,4.59574,-11.0745,-7.31961,-0.232457,-10.7879,-4.17456,-2.25555,-10.5531,7.56084,18.5722,0.602807,8.74689,-21.7339,3.86579,3.66268,-9.35778,9.323e-14,4.09496e-14,-56.0979,-74.2936,66.6559,26.099,-12.5539,-8.04634,20.9684,7.12502,17.8643,-8.23113,9.323e-14,4.09496e-14,-16.0897,30.3394,-15.0249,31.1633,77.1918,-2.80249,11.9725,7.12502,22.9035,40.6323,-9.74949,-3.09421,23.5047,29.9379,-23.7071,27.2837,30.5502,-3.11923,4.10017,-19.6767,27.9881,-26.3302,14.7741,-15.1643
18.8795,17.526,-17.01,0.708082,-56.7688,1.30546,-3.03704,-5.16691,4.65103,-11.1011,-7.19796,-0.203152,-10.7763,-4.12021,-2.26878,-10.3669,7.48009,18.551,0.488304,8.65269,-21.7505,3.78182,3.62807,-9.37418,1.66979e-14,9.54166e-15,-58.9274,-73.8038,69.4913,25.8712,-11.8037,-8.07186,20.6302,7.12502,17.8397,-8.57153,1.66979e-14,9.54166e-15,-16.8467,29.8885,-14.5094,31.0992,77.4811,-3.36973,12.232,7.12502,22.3591,40.9581,-9.84917,-2.61062,23.3967,29.9849,-23.8329,26.8698,30.5779,-3.20441,4.05755,-19.7999,27.8348,-26.3058,14.3342,-14.0281
18.8761,17.5345,-17.0033,0.113371,-56.9166,2.1268,-2.98956,-5.18122,4.34571,-11.1507,-7.22082,-0.140777,-10.8079,-4.10114,-2.0282,-10.2687,7.45423,18.0487,0.365069,8.65879,-21.4824,3.69061,3.64192,-9.19147,6.83819e-14,6.36111e-15,-63.682,-74.1089,74.3798,25.3806,-10.5378,-6.8643,20.6547,7.12502,19.0013,-8.43717,6.83819e-14,6.36111e-15,-18.0426,29.3661,-14.1897,31.0257,77.7979,-4.1548,12.3593,7.12502,21.6053,41.174,-10.0042,-2.28604,22.9246,30.0902,-23.9849,26.4167,30.4422,-3.37468,4.03329,-20.2522,27.6434,-25.6521,14.8456,-15.9683
18.876,17.5379,-16.9984,-0.174503,-57.1045,2.48017,-2.82889,-5.21142,4.29054,-11.1484,-7.24916,-0.0594074,-10.8827,-4.10373,-1.89283,-10.2061,7.51757,18.0219,0.203723,8.73591,-21.4997,3.64935,3.68312,-9.18488,-5.96354e-16,-4.69132e-14,-68.7902,-74.2703,79.3115,25.0248,-9.31465,-8.36115,20.0007,7.12502,17.5613,-9.22613,-5.96354e-16,-4.69132e-14,-19.2788,29.4907,-14.0147,30.8626,77.5424,-4.36721,12.6614,7.12502,21.4013,41.4994,-10.1106,-2.12426,22.7339,30.2452,-24.2985,26.1104,30.055,-3.40109,4.1827,-20.3687,27.4028,-25.0826,14.9317,-17.6272
18.8776,17.5391,-16.9938,-0.300979,-57.3152,2.68337,-2.68984,-5.21814,4.27143,-11.1355,-7.24569,0.0187501,-10.9355,-4.094,-1.78604,-10.1945,7.6005,18.3314,0.051134,8.80593,-21.7425,3.64863,3.713,-9.31684,-1.39348e-13,-3.73715e-14,-74.3919,-74.2064,84.523,24.7523,-7.86016,-9.41489,19.1829,7.12502,16.547,-10.1316,-1.39348e-13,-3.73715e-14,-20.5407,29.3268,-13.7278,30.8314,77.6372,-4.67463,12.8529,7.12502,21.106,41.7242,-10.2544,-1.94066,22.6414,30.3705,-24.7558,25.713,28.7406,-3.4277,4.30556,-20.4118,27.2092,-25.0771,14.3131,-16.5585
18.88,17.5449,-16.9893,-0.292936,-57.4826,2.86773,-2.70456,-5.27202,4.41564,-11.1455,-7.32235,-0.0370544,-10.976,-4.15039,-1.91594,-10.0386,7.70429,18.8745,-0.0475365,8.91011,-21.9482,3.65433,3.77174,-9.47684,-7.95139e-16,5.32743e-14,-78.4517,-73.7701,87.7804,24.5484,-6.97861,-9.58014,18.3709,7.12502,16.3879,-10.9568,-7.95139e-16,5.32743e-14,-21.8374,27.694,-13.4272,31.1075,78.8948,-5.9071,12.5796,7.12502,19.9217,41.5785,-10.4685,-1.76737,22.5491,30.3985,-25.1588,25.2655,27.1017,-3.62804,4.3973,-20.4589,27.1641,-25.2553,14.2268,-17.6519
18.884,17.5524,-16.9843,-0.111498,-57.688,2.80728,-2.74423,-5.32651,4.8762,-11.1112,-7.39498,-0.15145,-11.0096,-4.23704,-2.28348,-9.83764,7.75055,19.1357,-0.0885397,8.96937,-21.8521,3.62557,3.81903,-9.48656,1.00187e-13,3.65764e-14,-80.9111,-73.0742,89.154,24.3482,-6.85217,-9.34074,17.8018,7.12502,16.6184,-11.5067,1.00187e-13,3.65764e-14,-23.0624,26.418,-13.2276,31.2365,79.8507,-6.90059,12.201,7.12502,18.9664,41.2963,-10.6187,-1.56658,22.5874,30.3828,-25.3063,24.9914,26.158,-3.7893,4.51646,-20.3649,27.177,-25.2365,14.5909,-21.0696
18.8894,17.557,-16.9783,-0.0290371,-57.9574,2.77109,-2.6408,-5.28728,5.21709,-11.0889,-7.33192,-0.212247,-11.1028,-4.24205,-2.52651,-9.90739,7.60877,18.7033,0.0588588,8.79508,-21.1355,3.57321,3.75083,-9.17688,-1.19271e-15,3.97569e-15,-84.5667,-72.3631,92.0596,23.8073,-6.18276,-9.47612,17.4172,7.12502,16.4881,-11.9022,-1.19271e-15,3.97569e-15,-23.9875,27.3937,-13.0671,30.7708,78.6147,-6.90982,12.4889,7.12502,18.9575,41.5851,-10.687,-1.41682,22.5981,30.3511,-25.3254,24.8244,25.9921,-3.84371,4.39348,-20.3207,27.1887,-25.3497,14.8003,-21.3046
18.8934,17.5619,-16.9758,-0.177601,-58.1809,3.01596,-2.53096,-5.21869,5.17712,-11.0688,-7.23328,-0.205512,-11.1271,-4.18823,-2.49715,-10.5287,7.30597,17.4921,0.621637,8.42057,-19.7065,3.61792,3.57176,-8.49931,7.93151e-14,5.56597e-14,-91.1424,-71.7689,98.3261,23.4791,-4.34594,-9.72472,16.9397,7.12502,16.2487,-12.3994,7.93151e-14,5.56597e-14,-24.9514,28.6337,-12.7297,30.333,77.1027,-6.92018,13.2653,7.12502,18.9476,42.3625,-10.769,-1.36567,22.4636,30.3076,-25.5188,24.5156,26.0803,-3.98591,4.08148,-20.4253,27.2066,-25.687,14.5972,-17.5752
18.8946,17.5653,-16.976,-0.375752,-58.4202,3.2658,-2.35016,-5.15848,4.97813,-11.0325,-7.13502,-0.0763394,-11.1319,-4.10955,-2.24632,-10.3043,7.41584,17.6499,0.498537,8.60388,-20.287,3.62513,3.65363,-8.71093,9.8796e-14,2.46493e-14,-84.6711,-70.2672,90.263,23.4847,-7.3366,-10.8963,16.6727,7.12502,15.1203,-12.755,9.8796e-14,2.46493e-14,-26.2024,29.0663,-12.1684,30.1605,76.6305,-7.25138,13.88,7.12502,18.629,43.0079,-10.8212,-1.266,22.3491,30.2988,-25.5481,24.3352,25.7556,-4.12342,3.87088,-20.5055,27.1792,-25.5132,14.3862,-14.9132
18.8939,17.5611,-16.9741,-0.3434,-58.7122,3.21167,-2.10122,-5.12701,4.98364,-11.0609,-7.0708,0.0370438,-11.2917,-4.07181,-2.1062,-10.5114,7.30969,16.7783,0.914319,8.5374,-19.3471,3.66883,3.63451,-8.24086,-1.78906e-15,1.03368e-14,-99.6065,-70.182,105.319,23.4237,-2.40633,-10.0209,16.7199,7.12502,15.9635,-12.6423,-1.78906e-15,1.03368e-14,-27.3427,25.6912,-10.8435,30.5177,79.774,-8.33607,13.773,7.12502,17.5855,42.9977,-10.8612,-1.25079,22.411,30.3477,-24.9648,24.6234,25.9224,-4.10792,3.92861,-20.4115,27.0654,-24.8464,14.3815,-14.9486
18.894,17.5599,-16.9704,-0.325882,-58.9188,3.26197,-1.96448,-5.13087,5.05641,-11.1148,-7.07682,-0.0344766,-11.4598,-4.08969,-2.20172,-9.85796,7.45478,17.9722,0.653191,8.71903,-20.3119,3.63262,3.73759,-8.77284,6.36111e-14,1.98785e-14,-85.6132,-68.3428,88.5754,23.207,-8.27096,-10.5964,16.3139,7.12502,15.4092,-13.0918,6.36111e-14,1.98785e-14,-28.3859,16.1545,-8.01288,31.9978,88.8256,-10.5956,12.515,7.12502,15.41,41.9206,-10.9871,-1.45607,22.3958,30.4104,-23.9451,25.1345,27.8525,-4.12036,4.1497,-20.3619,26.9234,-24.094,14.253,-16.2078
18.8914,17.5672,-16.9678,-0.603603,-59.14,3.60699,-1.82421,-5.08213,4.92867,-11.127,-7.02156,-0.155851,-11.5521,-4.05911,-2.25262,-9.93247,7.38475,18.2187,0.976843,8.6239,-20.2336,3.72533,3.69218,-8.79807,1.27222e-14,-1.59028e-14,-96.501,-67.9536,99.0699,22.9663,-4.4365,-8.24186,16.5327,7.12502,17.6761,-12.6839,1.27222e-14,-1.59028e-14,-28.8013,22.9627,-9.18766,30.421,81.7408,-8.84079,15.0009,7.12502,17.0997,44.2683,-11.0474,-1.53899,22.2138,30.4526,-22.6449,25.7823,31.39,-4.08304,4.31512,-20.4554,26.8115,-23.5541,14.1412,-17.8677
18.8876,17.5727,-16.9666,-0.674696,-59.4299,3.60445,-1.63608,-5.03702,4.92853,-11.0698,-6.94587,-0.13224,-11.5877,-4.01681,-2.22017,-9.96577,7.3288,17.7782,1.16125,8.59117,-19.7548,3.72776,3.68694,-8.55936,7.45443e-14,3.81667e-14,-105.284,-66.9892,107.368,22.9329,-1.45124,-9.07341,16.6411,7.12502,16.8758,-12.6456,7.45443e-14,3.81667e-14,-32.7535,46.0171,-17.796,26.4611,57.7534,-2.56842,19.052,7.12502,23.1281,47.6838,-10.9779,-1.37499,22.2505,30.4585,-21.4954,26.3131,35.182,-3.90716,4.43569,-20.3385,26.7208,-23.416,14.1202,-19.2374
18.8885,17.5687,-16.9658,-0.542567,-59.6167,3.31669,-1.45842,-5.10222,5.12833,-10.9333,-7.00748,-0.111476,-11.5689,-4.05689,-2.29053,-9.74648,7.41227,17.6073,1.0264,8.72623,-19.4467,3.65008,3.77516,-8.41412,1.90833e-14,1.03368e-14,-85.4921,-65.4191,83.4891,23.0416,-11.6334,-11.7326,15.6217,7.12502,14.3147,-13.8648,1.90833e-14,1.03368e-14,-33.797,46.0123,-18.2044,25.6314,57.4974,-2.44304,18.7026,7.12502,23.2484,47.3192,-10.8312,-1.23572,22.4538,30.4077,-20.9546,26.3943,37.1312,-3.69778,4.19351,-20.1249,26.6427,-23.6236,13.9942,-18.7632
18.8869,17.5642,-16.9681,-0.671009,-59.8464,3.32227,-1.3009,-5.14044,5.12605,-10.8277,-7.04997,-0.151934,-11.551,-4.07391,-2.31941,-9.29401,7.47427,17.583,0.717267,8.83691,-19.264,3.49226,3.8613,-8.34655,2.26615e-14,-2.38542e-15,-104.908,-65.6533,103.515,23.0377,-4.53091,-10.1716,15.4062,7.12502,15.8184,-13.9675,2.26615e-14,-2.38542e-15,-33.0775,40.4464,-15.3124,26.0744,63.3846,-4.22867,18.1358,7.12502,21.5344,46.9586,-10.6502,-1.02552,22.5127,30.313,-20.4754,26.3299,38.042,-3.45623,3.71408,-20.1257,26.5823,-23.8061,13.9894,-17.8947
18.8791,17.5716,-16.9693,-0.653451,-60.1966,3.43244,-1.34052,-5.03865,4.99004,-10.8797,-6.92294,-0.132375,-11.551,-4.0012,-2.23964,-8.89284,7.47006,17.4915,0.639503,8.89676,-19.2755,3.4104,3.9113,-8.33844,-1.03368e-14,-1.11319e-14,-113.498,-64.2951,111.857,23.0567,-1.69009,-9.64916,14.9849,7.12502,16.3215,-14.3483,-1.03368e-14,-1.11319e-14,-32.2208,32.392,-11.1854,27.2949,71.7694,-6.56792,18.0754,7.12502,19.2863,47.139,-10.7355,-0.805115,22.5119,30.207,-19.8468,26.3396,39.0039,-3.42896,3.47418,-20.1847,26.5191,-23.6554,14.0766,-18.3444
18.8722,17.5817,-16.9672,-0.59062,-60.4484,3.56203,-1.40726,-4.97269,4.87071,-10.9559,-6.84901,-0.139147,-11.5753,-3.9592,-2.19177,-8.56549,7.55018,17.8696,0.700417,9.05962,-19.8246,3.45719,3.99376,-8.58145,-2.54444e-14,4.77083e-15,-106.861,-64.1505,103.082,22.8654,-5.58852,-10.9381,14.2859,7.12502,15.0801,-15.1448,-2.54444e-14,4.77083e-15,-32.2066,24.6227,-7.71522,28.8182,79.8133,-8.72326,17.586,7.12502,17.2128,46.8436,-10.9153,-0.736658,22.4811,30.1272,-19.4166,26.2588,39.7936,-3.46814,3.3953,-20.2502,26.4017,-23.1361,13.8545,-18.5304
18.8735,17.5884,-16.9604,-0.501641,-60.4372,3.52669,-1.40017,-5.01049,4.93007,-10.8712,-6.89564,-0.167284,-11.4982,-3.98513,-2.25432,-8.27727,7.74707,18.5157,0.513966,9.33909,-20.7526,3.5031,4.12282,-8.98994,7.37491e-14,1.35174e-14,-120.916,-61.7163,118.005,22.184,1.02737,-9.98363,14.7365,7.12502,15.9994,-14.6228,7.37491e-14,1.35174e-14,-32.7849,19.2569,-5.29616,30.2045,85.6792,-10.4573,16.7324,7.12502,15.5433,46.1278,-10.9776,-0.956807,22.5012,30.0815,-19.1063,26.1907,40.5476,-3.42299,3.27103,-20.2199,26.2252,-22.6567,13.2744,-17.9986
18.876,17.5947,-16.9498,-0.123785,-60.3933,3.23965,-1.51661,-4.95079,5.12,-10.7686,-6.80864,-0.18119,-11.3297,-3.95672,-2.40031,-8.10115,7.8481,18.8083,0.358123,9.4874,-21.3006,3.51137,4.19156,-9.2197,3.18055e-15,3.97569e-15,-121.881,-60.7372,117.948,21.9254,0.424454,-10.0012,14.0889,7.12502,15.9825,-15.2718,3.18055e-15,3.97569e-15,-33.0166,17.1456,-3.77738,30.8307,88.333,-11.0764,16.193,7.12502,14.9469,45.6336,-11.1188,-1.31991,22.6348,30.0612,-18.8381,26.2094,41.2502,-3.44702,2.94226,-20.0978,26.0302,-22.6103,12.9578,-17.435
18.8691,17.5999,-16.941,-0.0440354,-60.5352,3.26608,-1.64828,-4.82887,5.11237,-10.7508,-6.66213,-0.300439,-11.2302,-3.89224,-2.55335,-7.6976,7.85077,18.9979,0.19026,9.52475,-21.3936,3.41789,4.23401,-9.29237,-7.35503e-14,-2.94201e-14,-118.239,-60.7977,112.469,21.9792,-2.83079,-10.5245,12.9926,7.12502,15.4785,-16.4077,-7.35503e-14,-2.94201e-14,-32.7772,18.6049,-3.80758,30.3215,87.1957,-10.8536,16.3363,7.12502,15.1616,45.7609,-11.2051,-1.43986,22.6148,30.0323,-18.6941,26.2449,41.9864,-3.38346,2.58064,-20.1941,25.8666,-22.6771,13.1956,-17.2539
18.8576,17.6037,-16.9333,-0.192937,-60.6858,3.44407,-1.69765,-4.81184,5.01381,-10.7438,-6.66008,-0.444527,-11.1985,-3.89179,-2.65944,-7.15919,7.91409,19.3217,-0.0206815,9.65282,-21.4449,3.31173,4.33125,-9.36832,7.15625e-15,-6.75868e-15,-129.726,-57.2471,125.084,21.589,3.89822,-9.43137,13.6072,7.12502,16.5312,-15.7086,7.15625e-15,-6.75868e-15,-33.7312,34.9289,-10.4756,26.7386,70.5962,-7.28993,19.2568,7.12502,18.592,48.3883,-11.1716,-1.64096,22.4935,29.9994,-18.4509,26.6434,42.5858,-3.20551,2.38839,-20.3462,25.7108,-22.675,13.1589,-15.3135
18.849,17.6073,-16.9239,-0.0545563,-60.7472,3.32952,-1.74499,-4.7834,4.97919,-10.7152,-6.62135,-0.413721,-11.1231,-3.86597,-2.61851,-6.9393,7.98922,19.2418,-0.0957152,9.79463,-21.5119,3.28345,4.41142,-9.36862,-2.90226e-14,-4.37326e-15,-132.515,-55.8269,127.922,21.1446,5.05111,-9.45465,13.8197,7.12502,16.5087,-15.498,-2.90226e-14,-4.37326e-15,-35.3354,41.7145,-13.8443,25.6065,63.7368,-5.36587,20.3205,7.12502,20.4418,49.2645,-11.1756,-2.05853,22.5033,29.9578,-17.9098,27.3106,43.1017,-3.10894,2.15805,-20.3281,25.5749,-22.5277,13.1265,-14.0313
18.8434,17.6139,-16.914,-0.0437546,-60.7045,3.37873,-1.76984,-4.67485,4.8563,-10.6363,-6.47373,-0.396582,-10.9811,-3.77602,-2.55673,-7.13838,8.05289,18.9417,-0.0497352,9.88108,-21.5706,3.33809,4.43743,-9.32081,3.3197e-14,1.55052e-14,-121.593,-59.3256,113.738,21.4582,-4.42745,-11.183,12.4654,7.12502,14.8442,-16.9828,3.3197e-14,1.55052e-14,-33.6024,36.0835,-10.0495,26.7143,70.5846,-6.58735,19.8832,7.12502,19.2677,48.9487,-11.1886,-2.48401,22.4391,29.8762,-17.3362,27.7659,43.5269,-3.10946,1.8954,-20.4025,25.5163,-22.2342,13.6173,-16.1157
18.8365,17.6204,-16.908,-0.158662,-60.6703,3.53817,-1.73598,-4.56998,4.64419,-10.598,-6.34007,-0.446688,-10.9208,-3.69134,-2.50802,-7.20954,8.09488,18.9144,0.0234647,9.94856,-21.7433,3.39672,4.46067,-9.36638,2.60408e-14,4.77083e-15,-138.169,-52.0906,134.384,20.4757,8.2186,-8.98771,13.4076,7.12502,16.9583,-15.8721,2.60408e-14,4.77083e-15,-32.081,19.1298,-2.85389,30.4218,88.905,-10.4664,17.4158,7.12502,15.5345,46.8118,-11.1468,-2.80099,22.3359,29.7683,-16.9743,28.0223,43.7001,-3.12017,1.93328,-20.4938,25.4947,-21.9168,13.8977,-17.9808
18.8292,17.6256,-16.9041,-0.0257742,-60.6537,3.41771,-1.68722,-4.52011,4.52486,-10.6379,-6.27346,-0.410995,-10.9684,-3.64707,-2.40472,-6.87318,8.08728,18.7189,-0.0726225,9.99811,-21.7897,3.31558,4.5027,-9.35337,5.08889e-14,-1.31198e-14,-129.139,-56.9918,122.137,21.1707,-0.698842,-10.3518,12.0415,7.12502,15.6448,-17.3459,5.08889e-14,-1.31198e-14,-31.9769,16.0111,-1.84714,31.38,92.6062,-11.1533,16.9887,7.12502,14.8728,46.4349,-11.0703,-2.94872,22.3889,29.6315,-16.704,28.1601,43.6976,-3.14992,1.96905,-20.4452,25.4992,-21.5052,14.2687,-20.2389
18.8219,17.6337,-16.8976,0.0679985,-60.5741,3.34226,-1.59298,-4.51064,4.43395,-10.7299,-6.26435,-0.408769,-11.1182,-3.63842,-2.33917,-6.50004,8.16133,18.4693,-0.0846687,10.1695,-21.5371,3.25207,4.61404,-9.21489,-3.57812e-15,-6.36111e-15,-132.169,-56.0803,125.878,20.7892,1.42685,-10.0762,11.8404,7.12502,15.9103,-17.5261,-3.57812e-15,-6.36111e-15,-31.589,15.2513,-1.87919,31.5807,93.7095,-11.2883,16.6955,7.12502,14.7428,46.1512,-10.9721,-3.10568,22.4203,29.4455,-16.5016,28.2291,43.7702,-3.19409,1.63237,-20.4782,25.5668,-21.1634,14.9351,-22.3276
18.8121,17.6449,-16.889,0.0785573,-60.5113,3.38438,-1.59747,-4.4059,4.32882,-10.7583,-6.13797,-0.514105,-11.1363,-3.57496,-2.40576,-6.70657,8.34941,18.3987,0.439153,10.465,-21.1925,3.46805,4.75221,-9.04206,3.75703e-14,-2.78299e-15,-135.712,-54.4505,130.491,20.6483,4.43147,-9.2565,11.7896,7.12502,16.6995,-17.5121,3.75703e-14,-2.78299e-15,-30.6494,16.2308,-2.3614,31.3548,92.9545,-10.9674,16.5331,7.12502,15.0519,45.9659,-10.8525,-3.28515,22.4015,29.1963,-16.7142,28.0804,43.0079,-3.28648,1.37511,-20.5669,25.7087,-21.1753,15.1672,-21.7636
18.8007,17.657,-16.8808,0.0836974,-60.514,3.48333,-1.79822,-4.20753,4.20775,-10.6214,-5.88626,-0.637195,-10.833,-3.44126,-2.52189,-7.35206,8.51402,18.2629,1.04836,10.6798,-21.0268,3.77724,4.81864,-8.91426,-1.70955e-14,3.97569e-16,-141.617,-50.6533,138.385,20.3797,10.6195,-7.71921,12.7185,7.12502,18.179,-16.452,-1.70955e-14,3.97569e-16,-29.457,18.589,-2.98974,31.0471,91.0109,-10.8088,16.3605,7.12502,15.2046,45.7818,-10.7621,-3.36587,22.3469,28.9478,-17.0047,27.8822,42.1927,-3.43644,1.36215,-20.6729,25.8692,-21.4474,14.854,-19.1185
18.795,17.6674,-16.8735,0.113011,-60.3663,3.53585,-1.90448,-4.14716,4.12511,-10.4626,-5.8103,-0.722394,-10.5794,-3.39309,-2.59319,-7.69714,8.65874,18.0894,1.2166,10.8629,-20.9967,3.9099,4.88526,-8.84059,3.77691e-14,-1.19271e-15,-136.142,-54.9446,130.995,20.7114,4.54953,-8.13254,12.2833,7.12502,17.7813,-16.9237,3.77691e-14,-1.19271e-15,-28.5545,21.7694,-4.10052,30.782,88.3074,-10.5549,16.2999,7.12502,15.4493,45.7025,-10.6821,-3.48886,22.2902,28.749,-16.7778,27.962,42.8755,-3.59944,1.37605,-20.7375,26.0146,-21.4765,14.6475,-18.478
18.7952,17.6708,-16.8689,0.0302867,-59.9901,3.64578,-1.82406,-4.22927,4.03108,-10.3964,-5.92774,-0.846587,-10.5668,-3.44585,-2.66062,-7.52948,8.74339,17.9607,1.08233,10.9974,-20.9678,3.85999,4.96142,-8.79799,4.62174e-14,6.36111e-15,-132.058,-57.8123,125.91,20.8442,0.62652,-8.77869,11.7605,7.12502,17.1595,-17.5018,4.62174e-14,6.36111e-15,-27.8375,21.569,-4.70189,31.146,88.6848,-10.3575,16.484,7.12502,15.6394,45.8718,-10.5471,-3.55029,22.2219,28.5851,-16.6018,27.6958,43.3307,-3.74163,1.46233,-20.7827,26.1535,-21.1604,14.759,-20.3599
18.7937,17.6724,-16.8645,-0.198876,-59.6319,3.90217,-1.66713,-4.28665,3.82189,-10.4236,-6.0205,-0.987144,-10.6927,-3.48182,-2.67272,-6.9913,8.75413,18.0913,0.830911,11.064,-21.1871,3.73339,5.02263,-8.90656,-4.27387e-15,-3.97569e-15,-141.174,-53.8443,137.727,20.9508,8.87283,-7.04206,11.9543,7.12502,18.8304,-17.1542,-4.27387e-15,-3.97569e-15,-27.0505,20.6064,-5.21648,31.6747,89.6412,-10.2625,16.8043,7.12502,15.7309,46.1849,-10.4392,-3.70127,22.0942,28.4632,-16.7534,27.2424,42.7437,-3.84061,1.45052,-20.921,26.2647,-21.0285,14.5591,-19.7768
18.7915,17.6813,-16.8569,0.0618419,-59.3224,3.67387,-1.61886,-4.25873,3.88613,-10.3799,-5.98412,-1.09142,-10.6897,-3.47375,-2.82085,-6.69327,8.78206,18.4706,0.607448,11.113,-21.6161,3.68356,5.05798,-9.12452,1.15295e-14,1.70955e-14,-144.568,-52.2202,142.609,21.4395,12.5914,-5.68687,12.2046,7.12502,20.1333,-16.7722,1.15295e-14,1.70955e-14,-26.1321,18.8364,-5.49069,32.4477,91.5666,-10.5899,17.1578,7.12502,15.4156,46.563,-10.4631,-4.09565,22.2436,28.3903,-17.2158,26.9574,41.4001,-4.00213,1.22371,-20.8303,26.3355,-21.1902,13.9975,-17.0799
18.7884,17.6927,-16.8508,0.17482,-59.0476,3.70024,-1.7931,-4.14741,3.90044,-10.1744,-5.84872,-1.33686,-10.3696,-3.41316,-3.1288,-6.94045,8.8088,18.6841,0.480407,11.0815,-21.7529,3.70599,5.02808,-9.20378,2.45499e-14,5.96354e-15,-144.628,-52.875,143.235,21.8733,12.4622,-5.48349,12.4031,7.12502,20.3288,-16.553,2.45499e-14,5.96354e-15,-24.9689,17.8505,-6.01371,33.0916,93.0589,-10.7378,17.4412,7.12502,15.2731,46.8573,-10.5294,-4.01265,22.2692,28.3358,-17.7208,26.2992,40.3134,-4.23419,1.16741,-20.873,26.3905,-21.0018,13.813,-16.7657
18.7897,17.7052,-16.8476,-0.265699,-58.7867,4.36731,-1.78964,-4.08221,3.52989,-10.0705,-5.78828,-1.57385,-10.2311,-3.35944,-3.18872,-7.09573,8.84695,18.5433,0.422135,11.1041,-21.6199,3.70183,5.03359,-9.12522,1.69961e-14,8.74653e-15,-142.867,-55.263,141.655,22.1067,10.464,-5.96261,12.4612,7.12502,19.8683,-16.5433,1.69961e-14,8.74653e-15,-23.8298,19.6351,-7.15016,33.1357,91.6979,-10.3364,16.2852,7.12502,15.6597,45.6714,-10.5739,-3.59534,21.9211,28.2639,-17.9878,25.4269,39.2515,-4.47488,1.46991,-21.242,26.4718,-20.3646,13.9689,-19.0402
18.7987,17.7153,-16.845,-0.385909,-58.4143,4.60791,-1.54651,-4.11777,3.40709,-10.0735,-5.84325,-1.68831,-10.3848,-3.38226,-3.21887,-7.00388,8.89668,18.5441,0.445675,11.2,-21.7572,3.72385,5.08185,-9.16435,6.84813e-14,4.09496e-14,-138.901,-59.0414,137.574,22.2613,6.98491,-6.4796,12.7382,7.12502,19.3713,-16.317,6.84813e-14,4.09496e-14,-22.6488,27.6151,-9.28209,32.2143,83.9502,-8.52324,16.4462,7.12502,17.4053,45.6869,-10.6183,-3.58509,21.7831,28.198,-17.9278,24.9774,38.4995,-4.70427,1.70407,-21.3505,26.5654,-20.0042,13.7352,-19.8419
18.8093,17.718,-16.841,-0.345594,-57.9938,4.6793,-1.44583,-4.08318,3.43513,-9.96246,-5.80107,-1.87347,-10.3411,-3.36942,-3.4333,-7.05979,8.90882,18.7751,0.412539,11.2025,-22.0773,3.7638,5.07345,-9.31311,1.39149e-15,-7.15625e-15,-131.345,-63.0722,129.76,22.4739,2.22157,-7.14382,12.6968,7.12502,18.7325,-16.4212,1.39149e-15,-7.15625e-15,-21.4247,28.5287,-10.0792,32.3197,83.1394,-8.08924,15.9158,7.12502,17.823,45.119,-10.6931,-3.91968,21.7023,28.1358,-17.1722,25.1694,40.0344,-4.96268,1.63625,-21.3945,26.6661,-20.0388,13.1919,-18.2905
18.821,17.7209,-16.8364,-0.296811,-57.6976,4.70683,-1.33029,-3.88512,3.39794,-9.8451,-5.53166,-1.98657,-10.2572,-3.23334,-3.55522,-7.36495,8.79405,18.414,0.537795,11.0336,-21.9457,3.78563,4.97241,-9.21507,-2.13321e-14,-9.11925e-15,-118.378,-66.6208,116.691,22.8456,-3.827,-8.07155,12.3052,7.12502,17.84,-16.8965,-2.13321e-14,-9.11925e-15,-20.0738,27.4807,-10.235,32.6508,84.3016,-8.28935,14.732,7.12502,17.6304,43.9526,-10.725,-4.11661,21.6414,28.046,-16.4467,25.3722,41.54,-5.20318,1.48436,-21.4504,26.7848,-20.1127,12.7522,-16.3325
18.8336,17.7242,-16.8306,0.0479691,-57.471,4.27895,-1.1473,-3.70008,3.65725,-9.66446,-5.25355,-2.01189,-10.1632,-3.10974,-3.74595,-7.72429,8.63813,17.8416,0.710199,10.8181,-21.6593,3.79773,4.84733,-9.031,2.45887e-14,-1.52257e-14,-100.905,-68.6433,98.9214,23.4204,-10.3913,-9.19801,12.3065,7.12502,16.7558,-16.9904,2.45887e-14,-1.52257e-14,-18.9367,28.2241,-10.7329,32.8946,83.9643,-8.39319,14.0769,7.12502,17.5305,43.3065,-10.6532,-4.07758,21.8619,27.9543,-16.5567,25.0605,41.2124,-5.34618,1.38374,-21.237,26.895,-20.15,12.3763,-14.5003
18.8444,17.7281,-16.8252,0.352685,-57.2099,3.99779,-1.05612,-3.6233,3.91112,-9.40464,-5.13011,-2.12809,-9.95034,-3.0627,-4.02657,-7.55275,8.62692,18.2451,0.283247,10.7594,-22.1937,3.69838,4.8227,-9.29944,8.6521e-14,2.41523e-14,-83.9074,-68.6148,81.4107,24.0605,-16.199,-10.1789,12.6877,7.12502,15.8114,-16.6866,8.6521e-14,2.41523e-14,-18.1102,28.7996,-11.6756,33.3052,84.1544,-8.64762,13.73,7.12502,17.2856,42.9812,-10.6862,-4.02428,22.0077,27.8959,-16.8741,24.6017,40.756,-5.54945,1.31753,-21.1012,26.9798,-20.0851,12.148,-13.6502
