JuanDHNZ/ProyectoFinalCD/preprocessing/sports_trials_csv/55_14.csv
root1,root2,root3,root4,root5,root6,lowerback1,lowerback2,lowerback3,upperback1,upperback2,upperback3,thorax1,thorax2,thorax3,lowerneck1,lowerneck2,lowerneck3,upperneck1,upperneck2,upperneck3,head1,head2,head3,rclavicle1,rclavicle2,rhumerus1,rhumerus2,rhumerus3,rradius1,rwrist1,rhand1,rhand2,rfingers1,rthumb1,rthumb2,lclavicle1,lclavicle2,lhumerus1,lhumerus2,lhumerus3,lradius1,lwrist1,lhand1,lhand2,lfingers1,lthumb1,lthumb2,rfemur1,rfemur2,rfemur3,rtibia1,rfoot1,rfoot2,rtoes1,lfemur1,lfemur2,lfemur3,ltibia1,lfoot1,lfoot2,ltoes1
15.7462,15.9388,-20.3101,9.23734,-10.2472,-0.621579,12.5202,-0.747171,2.29562,5.7624,-0.746518,0.3946,-1.00659,-0.350072,-0.784881,7.28639,5.52602,17.0891,11.8641,9.60408,-16.4585,3.89384,5.05481,-7.83376,-5.06901e-15,1.58034e-14,-25.3816,28.0381,-98.7953,135.279,1.45759,-50.0452,28.768,7.12502,-22.6325,0.0749333,-5.06901e-15,1.58034e-14,-29.8188,-2.10375,74.843,136.669,37.3832,2.73841,42.4891,7.12502,28.2106,70.3859,-36.438,5.16013,-3.45233,61.6652,-19.6337,-3.54932,-22.6129,-30.1001,2.17939,-2.36068,53.7005,-30.9497,0.534155,-41.4477
15.7147,16.0362,-20.2823,8.92108,-10.1383,-0.556673,12.6419,-0.714863,2.24552,5.50444,-0.702327,0.306193,-1.34115,-0.33214,-0.851639,8.03744,5.41073,17.3094,11.4749,9.54446,-16.6033,3.6594,5.06535,-7.94971,2.57426e-14,-3.24019e-14,-25.9206,27.9933,-99.0891,135.262,1.60706,-50.0766,30.0702,7.12502,-22.6626,1.38087,2.57426e-14,-3.24019e-14,-30.289,-2.02109,74.5748,136.901,37.74,1.83127,42.4656,7.12502,27.3432,70.5024,-35.8504,4.49349,-2.84724,61.237,-19.2206,-3.92001,-23.1643,-28.7028,1.97334,-2.40591,51.7794,-30.1696,0.403602,-41.334
15.6763,16.1133,-20.2564,8.60833,-10.0958,-0.576981,12.6573,-0.708877,2.20417,5.43926,-0.698614,0.25403,-1.41774,-0.33131,-0.882538,8.45744,5.49632,17.2501,10.9733,9.68075,-16.7072,3.46714,5.14814,-7.98109,4.12478e-15,-6.26172e-15,-26.0891,28.0805,-99.2054,135.133,1.70963,-50.0458,30.5119,7.12502,-22.6331,1.81888,4.12478e-15,-6.26172e-15,-30.3563,-1.7849,74.3036,137.062,38.158,1.45625,42.2174,7.12502,26.9845,70.3102,-35.3569,3.86864,-2.12474,60.7628,-19.098,-4.16504,-22.7181,-27.2825,1.89003,-2.31269,49.8461,-29.4137,0.235802,-41.2412
15.6305,16.2189,-20.2284,8.60481,-10.0941,-0.678215,12.3247,-0.703375,2.07212,5.35953,-0.71189,0.315522,-1.32017,-0.339727,-0.745304,8.34369,5.69739,17.0224,10.9473,9.92353,-16.7128,3.51045,5.25453,-7.9273,-3.40419e-15,-3.18055e-15,-26.0441,28.3032,-99.1607,135.063,1.71734,-49.7956,29.5055,7.12502,-22.3929,0.783429,-3.40419e-15,-3.18055e-15,-30.3746,-1.35607,74.0577,137.239,38.9057,0.299921,41.9334,7.12502,25.8776,70.1926,-35.0639,3.15282,-1.24124,60.0909,-19.4244,-4.23077,-22.3098,-25.9876,1.85735,-2.14556,47.6882,-28.5383,0.117238,-41.1827
15.5807,16.3338,-20.196,8.57593,-10.1186,-0.690491,11.9601,-0.661784,1.91867,5.2458,-0.680721,0.314828,-1.23972,-0.325955,-0.666611,8.20985,5.81936,16.9065,11.0933,10.0698,-16.6033,3.59182,5.31797,-7.85805,1.10574e-14,-2.32578e-14,-25.9537,28.3855,-99.2067,135.124,1.62522,-49.0793,28.4252,7.12502,-21.7052,-0.377969,1.10574e-14,-2.32578e-14,-30.5237,-1.07239,73.8503,137.449,39.8391,-1.59646,41.9036,7.12502,24.0604,70.4153,-34.6914,2.40519,-0.436942,59.263,-20.0205,-3.59366,-22.1596,-24.5886,1.68722,-2.08409,45.4028,-27.4565,0.037039,-41.0917
15.527,16.4571,-20.1596,8.45052,-10.1214,-0.691702,11.655,-0.602257,1.85031,5.17047,-0.616008,0.278405,-1.15131,-0.293765,-0.676438,8.51671,5.87294,16.6841,10.8646,10.1347,-16.447,3.46725,5.35822,-7.77576,-2.60408e-14,3.8763e-15,-25.8544,28.2835,-99.1464,135.072,1.61242,-48.6699,28.8261,7.12502,-21.312,-0.022061,-2.60408e-14,3.8763e-15,-30.6242,-0.96595,73.7462,137.68,40.4539,-3.19095,41.8531,7.12502,22.5307,70.5585,-34.1014,1.76593,0.375992,58.2148,-20.4725,-2.30507,-21.3167,-23.0008,1.42154,-2.04204,42.9431,-26.2635,-0.0118556,-41.1527
15.4673,16.5722,-20.124,8.43206,-10.0849,-0.717775,11.2493,-0.553949,1.80175,5.04772,-0.564328,0.264559,-1.05761,-0.26809,-0.672494,9.15235,5.89053,16.4217,10.4316,10.1756,-16.3607,3.22493,5.39881,-7.72622,1.84621e-14,9.39258e-15,-25.7947,28.205,-98.9328,134.836,1.54738,-48.885,30.2341,7.12502,-21.5186,1.40949,1.84621e-14,9.39258e-15,-30.6806,-0.880013,73.6278,137.783,40.8383,-4.10141,41.87,7.12502,21.6566,70.6788,-33.5779,1.0498,1.24451,57.0357,-20.7387,-1.42404,-22.9066,-21.55,1.0514,-1.9285,40.462,-25.0468,0.048404,-41.2287
15.4042,16.684,-20.0893,8.43976,-9.97201,-0.701025,10.8022,-0.51073,1.80389,4.93706,-0.516381,0.172555,-0.929347,-0.242358,-0.777331,9.15986,5.8538,16.5378,10.4597,10.1395,-16.3397,3.23113,5.38627,-7.74064,-1.00635e-15,-2.50966e-15,-25.5768,28.078,-98.7597,134.63,1.28795,-48.7491,30.4488,7.12502,-21.3881,1.60927,-1.00635e-15,-2.50966e-15,-30.6584,-0.927341,73.4418,137.804,41.3345,-5.39327,41.4824,7.12502,20.4155,70.4292,-33.0578,0.184426,2.07216,55.7923,-20.9248,-0.355543,-24.5444,-20.1981,0.464055,-1.82667,38.0307,-23.6996,0.236569,-41.0577
15.3369,16.8009,-20.0557,8.38326,-9.782,-0.717336,10.3818,-0.524595,1.88424,4.93192,-0.537801,0.0537625,-0.707931,-0.248484,-0.945886,8.67824,5.84387,16.8122,10.7351,10.1123,-16.3532,3.40191,5.36225,-7.77273,2.27958e-14,-1.59664e-14,-25.4298,28.0351,-98.7913,134.583,1.13836,-48.2077,29.4014,7.12502,-20.868,0.503719,2.27958e-14,-1.59664e-14,-30.5638,-0.914119,73.2173,137.861,41.7864,-7.38236,40.4058,7.12502,18.5031,69.5458,-32.4238,-0.554292,2.93453,54.5552,-21.1968,1.28005,-24.4529,-18.87,-0.230875,-1.68093,35.7609,-22.2251,0.484657,-40.7416
15.2662,16.9101,-20.027,8.35406,-9.68803,-0.744337,9.98702,-0.551434,1.88188,4.8823,-0.582012,-0.0120176,-0.546074,-0.268448,-1.01051,8.62282,5.9311,16.7119,10.641,10.1993,-16.2411,3.38898,5.40122,-7.71078,1.31695e-15,-3.10601e-15,-25.7002,28.2371,-99.08,134.693,1.24875,-48.158,28.2815,7.12502,-20.8202,-0.621403,1.31695e-15,-3.10601e-15,-30.614,-0.749139,73.0243,137.88,42.0928,-8.62171,39.9049,7.12502,17.3106,69.154,-31.8809,-1.15398,3.8263,53.3941,-21.5152,2.64467,-24.743,-17.6618,-0.878624,-1.52573,33.6931,-20.5381,0.734532,-40.6863
15.1919,17.0111,-20.0015,8.44977,-9.67128,-0.771066,9.58702,-0.562292,1.79486,4.69101,-0.609199,-0.00935433,-0.526155,-0.283933,-0.958284,8.61828,6.11508,16.2269,10.5654,10.3876,-15.9928,3.36373,5.47994,-7.53632,1.30701e-14,-5.46658e-16,-25.9468,28.5765,-99.3569,134.821,1.19942,-48.2177,27.5855,7.12502,-20.8776,-1.31106,1.30701e-14,-5.46658e-16,-30.9827,-0.588947,72.8714,137.953,42.4943,-9.02273,40.1289,7.12502,16.9246,69.4115,-31.5513,-1.76643,4.73042,52.3322,-21.4791,3.75227,-24.9531,-16.6986,-1.36889,-1.37305,31.8707,-18.672,0.933116,-40.8089
15.1141,17.1177,-19.9764,8.55783,-9.5336,-0.697929,9.19915,-0.640402,1.6221,4.44898,-0.730538,-0.00364056,-0.566448,-0.348102,-0.845658,8.49651,6.27886,15.7937,10.6961,10.5635,-15.8195,3.42105,5.54755,-7.3924,1.06598e-14,6.31141e-15,-25.7754,29.0617,-99.3477,134.795,0.907755,-47.8083,27.3345,7.12502,-20.4842,-1.60487,1.06598e-14,6.31141e-15,-31.5359,-0.43892,72.7534,138.111,42.9864,-9.84126,39.9784,7.12502,16.1365,69.3267,-31.2275,-2.37329,5.53617,51.3181,-21.1906,4.63694,-25.8701,-15.97,-1.86923,-1.32845,30.3303,-16.6808,1.17115,-40.7947
15.0336,17.2242,-19.9513,8.5545,-9.23293,-0.702185,8.97144,-0.758465,1.58971,4.22011,-0.890273,-0.0136548,-0.682471,-0.429617,-0.823563,8.69043,6.35301,15.5543,10.501,10.6431,-15.6852,3.32601,5.5892,-7.31233,-8.67198e-15,9.24349e-15,-26.4562,29.1468,-99.5911,134.981,0.950526,-47.4913,26.4921,7.12502,-20.1795,-2.47982,-8.67198e-15,9.24349e-15,-31.9506,-0.308082,72.6337,138.227,43.2958,-10.8076,39.4104,7.12502,15.2058,68.8316,-30.7219,-2.94375,6.44428,50.3191,-21.0661,5.10055,-26.9861,-15.3612,-2.41339,-1.1958,29.0617,-14.5655,1.43991,-40.0319
14.9521,17.332,-19.9238,8.493,-8.85756,-0.652867,8.79681,-0.860072,1.58879,4.02883,-1.02635,-0.0911139,-0.789347,-0.498145,-0.890798,8.86542,6.39922,15.5145,10.144,10.6929,-15.6694,3.19748,5.62244,-7.30571,-3.04638e-14,7.45443e-15,-26.4666,29.1566,-99.6616,135.114,0.892445,-47.0986,25.7761,7.12502,-19.8021,-3.2352,-3.04638e-14,7.45443e-15,-31.9854,-0.194049,72.4234,138.199,43.5016,-11.3029,38.9565,7.12502,14.7287,68.4132,-30.0679,-3.48816,7.26063,49.3173,-20.8344,5.56878,-27.0265,-14.8733,-2.80438,-1.16819,28.0403,-12.4256,1.67509,-38.6459
14.8675,17.4391,-19.8994,8.47471,-8.50965,-0.34799,8.48128,-0.931333,1.30591,3.88337,-1.1477,-0.220981,-0.767148,-0.560884,-0.857934,8.8269,6.42934,15.6155,9.94426,10.7352,-15.8286,3.16427,5.64533,-7.37127,4.09993e-14,-1.46107e-14,-26.2141,29.0762,-99.5112,135.093,1.02484,-47.4293,27.0367,7.12502,-20.1199,-1.94142,4.09993e-14,-1.46107e-14,-31.9102,-0.0907364,72.2593,138.118,43.7852,-11.8166,38.53,7.12502,14.2338,68.0223,-29.4804,-3.80654,7.73391,48.313,-20.1568,6.31052,-26.3624,-14.5914,-3.09039,-1.43202,27.2695,-10.3732,1.66913,-35.5255
14.7748,17.5419,-19.8785,8.52898,-8.17793,-0.21575,8.13582,-1.00353,1.06058,3.68661,-1.26424,-0.224523,-0.778174,-0.622025,-0.717222,8.75484,6.44942,15.6152,9.97242,10.7734,-15.9908,3.19741,5.65975,-7.42,-1.32192e-14,-2.24627e-14,-26.1901,29.2029,-99.348,134.918,1.23601,-47.7058,28.4195,7.12502,-20.3857,-0.530499,-1.32192e-14,-2.24627e-14,-32.2369,-0.00830406,72.2244,138.146,44.0524,-12.6308,37.8823,7.12502,13.4491,67.4281,-28.9719,-3.69313,8.36235,47.304,-19.3675,6.83886,-25.1655,-14.5395,-3.34867,-1.46239,26.7409,-8.35551,1.73012,-29.7973
14.6795,17.6379,-19.856,8.49407,-7.84659,-0.342964,7.88512,-1.09463,1.06404,3.55007,-1.38518,-0.136539,-0.781269,-0.683213,-0.621295,8.5994,6.5404,15.438,9.97113,10.8728,-16.0384,3.23095,5.69618,-7.39436,-4.24405e-14,3.27995e-15,-27.1957,28.3822,-100.055,135.163,1.76881,-47.7614,29.8679,7.12502,-20.4391,0.92363,-4.24405e-14,3.27995e-15,-32.6171,0.115239,72.2007,138.228,44.2763,-13.5341,37.2001,7.12502,12.5783,66.8014,-28.2887,-3.21251,9.22208,46.3074,-18.4897,6.99286,-24.7658,-14.4737,-3.51549,-1.25225,26.4278,-6.49778,2.38302,-26.5227
14.5863,17.719,-19.8371,8.39218,-7.56165,-0.512035,7.60421,-1.121,1.17665,3.55447,-1.41529,-0.0974635,-0.623892,-0.696541,-0.647371,8.4001,6.61081,15.3098,9.74842,10.9164,-16.0202,3.19713,5.70777,-7.35562,-1.69464e-14,2.38542e-15,-26.7389,28.6063,-99.9015,135.179,1.94107,-48.8275,30.893,7.12502,-21.4634,2.06202,-1.69464e-14,2.38542e-15,-32.6054,0.218368,72.143,138.231,44.4884,-14.3532,36.481,7.12502,11.7886,66.1292,-27.5376,-2.52614,10.0619,45.3447,-17.0475,7.12591,-24.4526,-14.3644,-3.54922,-1.06044,26.3358,-5.03377,3.15826,-26.2509
14.4957,17.793,-19.8191,8.24752,-7.29983,-0.466816,7.38603,-1.10467,1.14917,3.53252,-1.39867,-0.149676,-0.526388,-0.687629,-0.691018,8.29948,6.59126,15.2986,9.5009,10.8625,-16.0823,3.13376,5.67872,-7.37266,-1.38652e-14,6.75868e-15,-25.9729,29.011,-99.3391,134.923,1.47002,-48.7314,32.2715,7.12502,-21.371,3.43006,-1.38652e-14,6.75868e-15,-32.5124,0.24061,72.078,138.164,44.6277,-15.1184,35.6516,7.12502,11.0505,65.3407,-26.8333,-1.86754,10.5992,44.453,-15.1144,7.76464,-22.9914,-14.3135,-3.6684,-1.16112,26.438,-3.74587,4.06038,-26.8721
14.4059,17.8607,-19.7999,8.00775,-7.00718,-0.36435,7.30943,-1.11302,1.17761,3.47844,-1.40953,-0.253895,-0.543272,-0.692177,-0.814091,8.45666,6.56611,15.2063,9.07557,10.8041,-16.1027,2.96886,5.65743,-7.37507,-2.22639e-14,7.15625e-15,-25.8514,29.4322,-99.1451,135.076,1.24318,-48.5066,31.9906,7.12502,-21.1551,3.12481,-2.22639e-14,7.15625e-15,-32.482,0.145448,71.9583,138.086,44.7469,-15.8967,35.2312,7.12502,10.2998,64.9589,-26.0577,-1.25009,11.0257,43.6616,-13.0718,8.85628,-19.4431,-14.2604,-3.85808,-1.37128,26.6958,-2.46685,5.34472,-26.5859
14.3146,17.9134,-19.7879,7.85123,-6.71429,-0.38853,7.22147,-1.09831,1.37761,3.36544,-1.37881,-0.371194,-0.617656,-0.67492,-1.04956,8.60882,6.49823,15.1846,8.7639,10.7043,-16.1401,2.83624,5.61669,-7.39657,-2.43511e-15,-3.49861e-14,-25.8766,29.5309,-99.2727,135.64,1.01209,-48.2065,30.2443,7.12502,-20.8668,1.34651,-2.43511e-15,-3.49861e-14,-32.3421,-0.12795,71.7809,137.94,44.9475,-16.7134,35.0011,7.12502,9.51183,64.7664,-25.3748,-0.536441,11.5917,42.9692,-11.6402,8.83512,-15.0766,-14.3846,-3.84159,-1.44466,27.0741,-1.44197,6.66967,-24.635
14.2238,17.9581,-19.7794,7.68595,-6.46128,-0.334463,7.16874,-1.08985,1.38982,3.26216,-1.3673,-0.414563,-0.695904,-0.669769,-1.10167,8.48448,6.47424,15.1426,8.69936,10.6671,-16.3413,2.83754,5.59139,-7.45242,-2.06239e-14,1.23246e-14,-25.8013,29.2197,-99.4216,135.4,1.55642,-48.8873,31.9145,7.12502,-21.5208,3.09011,-2.06239e-14,1.23246e-14,-32.1346,-0.234694,71.7043,137.828,45.1503,-17.6657,34.3978,7.12502,8.59297,64.2029,-24.7344,0.259535,12.0474,42.3422,-11.0086,7.3245,-13.3907,-14.5453,-3.60235,-1.65478,27.5477,-0.721327,7.82059,-23.3723
14.1367,17.9987,-19.7648,7.27564,-6.21318,-0.131937,7.1597,-1.06254,1.23667,3.45974,-1.34197,-0.419543,-0.483389,-0.656134,-1.0253,7.86277,6.53641,14.8734,8.59608,10.663,-16.4378,2.89783,5.55594,-7.41159,2.48978e-14,1.19271e-15,-25.4705,29.1999,-99.2395,135.046,1.94333,-50.2387,33.5529,7.12502,-22.8182,4.8826,2.48978e-14,1.19271e-15,-31.7006,-0.126299,71.7516,137.802,45.3548,-18.4102,33.8848,7.12502,7.87442,63.7181,-23.8071,1.02714,12.2783,41.7338,-10.755,5.72321,-12.9055,-14.391,-3.38024,-2.12499,28.1384,-0.411821,8.87501,-21.7795
14.0543,18.028,-19.7438,6.80328,-5.81218,0.0623334,7.26677,-1.1105,1.38059,3.34234,-1.39549,-0.531445,-0.67095,-0.682411,-1.2136,8.31808,6.45602,14.5507,8.31856,10.5468,-16.3072,2.69882,5.51293,-7.34261,-3.32964e-15,-1.49089e-14,-25.745,29.1652,-99.4966,135.676,0.922833,-48.5909,30.8484,7.12502,-21.2361,1.99169,-3.32964e-15,-1.49089e-14,-32.011,-0.175761,71.664,137.821,45.5849,-18.9541,33.6429,7.12502,7.34945,63.4953,-22.6656,1.63441,12.4976,41.1166,-10.9371,4.61684,-12.1673,-14.2167,-3.26518,-2.60758,28.8672,-0.807848,9.73755,-19.044
13.9736,18.0481,-19.723,6.49779,-5.24339,0.0450377,7.05094,-1.18906,1.74419,3.38367,-1.48038,-0.575958,-0.521319,-0.71939,-1.4616,8.28132,6.43648,14.4125,8.15653,10.4968,-16.3546,2.64366,5.48489,-7.33658,9.49197e-15,-3.47873e-15,-26.9927,28.1674,-100.176,135.396,1.49494,-48.24,31.2853,7.12502,-20.899,2.39108,9.49197e-15,-3.47873e-15,-31.7997,-0.22954,71.6729,137.651,45.6508,-19.9233,33.1707,7.12502,6.41384,63.0535,-21.6018,2.14364,12.9406,40.4678,-11.1989,3.6832,-11.1575,-14.3392,-3.18619,-2.81541,29.7463,-1.94297,10.519,-14.5863
13.8936,18.0577,-19.7072,6.26496,-4.80557,0.0717515,6.94167,-1.20968,1.95038,3.31069,-1.49643,-0.59012,-0.541891,-0.725901,-1.59195,8.13906,6.36603,14.4628,8.27866,10.4275,-16.6475,2.70613,5.4432,-7.43785,-3.1234e-14,-7.05686e-15,-26.8548,28.7545,-99.9192,135.384,1.77726,-49.7317,35.7759,7.12502,-22.3315,7.0464,-3.1234e-14,-7.05686e-15,-31.7287,-0.351948,71.7467,137.537,45.6226,-20.9541,32.6585,7.12502,5.41871,62.5692,-20.6837,2.65718,13.3018,39.8162,-11.4899,2.70818,-12.2101,-14.5471,-3.03366,-3.11338,30.7675,-3.29751,11.4202,-11.936
13.8143,18.0517,-19.6945,6.02947,-4.41613,0.27672,6.9749,-1.22828,1.88576,3.17679,-1.52328,-0.588352,-0.697834,-0.74236,-1.54943,7.99133,6.31488,14.488,8.50079,10.3983,-17.0028,2.80637,5.41814,-7.55402,-2.74074e-14,7.55382e-15,-26.1758,29.6619,-99.4345,135.856,1.58622,-49.5935,32.9616,7.12502,-22.1989,4.21626,-2.74074e-14,7.55382e-15,-31.8711,-0.396749,71.9234,137.565,45.6588,-21.9885,32.3731,7.12502,4.41988,62.3069,-19.8204,3.06641,13.4683,39.1831,-12.0194,1.70076,-15.5919,-14.7896,-2.75426,-3.65719,31.9047,-4.27636,12.2231,-14.5444
13.7388,18.0457,-19.6781,5.76598,-3.91114,0.393293,6.78522,-1.28244,1.98204,3.24972,-1.59298,-0.564544,-0.522302,-0.774008,-1.57872,7.87402,6.28902,14.3462,8.30341,10.3351,-17.1633,2.75658,5.3796,-7.58157,-2.05866e-14,-2.08724e-15,-25.7962,29.812,-99.1257,135.913,1.44699,-49.5331,32.9315,7.12502,-22.1409,4.17932,-2.05866e-14,-2.08724e-15,-31.7084,-0.31892,72.1284,137.582,45.5445,-22.807,32.155,7.12502,3.62949,62.1039,-18.9133,3.32646,13.7215,38.5967,-12.6525,0.958324,-17.5946,-15.037,-2.62731,-4.09083,33.1328,-5.50358,12.6795,-15.687
13.6687,18.0445,-19.6604,5.48225,-3.44821,0.584005,6.60062,-1.25972,2.0691,3.34293,-1.56244,-0.608014,-0.326027,-0.754639,-1.6797,7.69332,6.17775,14.2681,8.10464,10.1413,-17.1633,2.69186,5.27742,-7.56982,2.73205e-14,-8.67198e-15,-25.5387,28.7661,-99.4576,136.284,1.75182,-47.2771,27.7955,7.12502,-19.9736,-1.19796,2.73205e-14,-8.67198e-15,-31.2629,-0.183368,72.3397,137.464,44.8969,-22.3484,32.1423,7.12502,4.07234,62.0831,-18.0343,3.44432,13.8601,38.1056,-13.3275,0.312844,-19.5425,-15.2603,-2.68987,-4.61904,34.409,-7.24143,12.7539,-12.401
13.5974,18.0269,-19.6488,5.20982,-2.98667,0.683476,6.74289,-1.27097,2.16361,3.2046,-1.56698,-0.575351,-0.548991,-0.759666,-1.69392,7.63256,6.08224,14.2969,8.23066,10.0387,-17.3487,2.73008,5.22251,-7.63826,-2.06369e-14,1.44398e-14,-26.3031,28.521,-99.5519,136.042,2.9483,-43.0739,18.2513,7.12502,-15.9295,-11.1136,-2.06369e-14,1.44398e-14,-31.1657,-0.0617458,72.7066,137.339,44.2977,-22.0507,31.9758,7.12502,4.35978,61.9109,-17.2555,3.55568,14.1383,37.6982,-13.9085,-0.625554,-22.0574,-15.5481,-2.56706,-5.04564,35.712,-8.46327,12.5182,-11.0231
13.528,17.9956,-19.6387,4.96433,-2.57874,0.582133,6.93328,-1.31337,2.46498,2.96948,-1.59647,-0.486996,-0.903166,-0.778682,-1.76265,7.75197,5.99016,14.2722,8.45896,9.96738,-17.5309,2.77013,5.18783,-7.70341,-2.21148e-15,-1.63749e-14,-26.9056,28.2299,-99.6635,136.205,3.22494,-38.2432,11.7641,7.12502,-11.2738,-17.9129,-2.21148e-15,-1.63749e-14,-31.4417,-0.13635,73.0867,137.347,44.3419,-22.7893,31.6271,7.12502,3.64659,61.5757,-16.6191,3.62334,14.642,37.3861,-14.3817,-1.33042,-21.9965,-15.8329,-2.25366,-5.26012,37.0239,-9.32148,12.0314,-12.3635
13.4637,17.9672,-19.6259,4.65849,-2.30018,0.662736,7.06656,-1.29134,2.58347,2.87181,-1.55424,-0.454864,-1.07761,-0.760103,-1.79532,7.62063,5.89242,14.1573,8.67676,9.84129,-17.5298,2.82758,5.11384,-7.68395,-1.04735e-14,1.08835e-14,-27.0364,27.821,-99.6164,136.403,3.52211,-34.9849,8.06515,7.12502,-8.13018,-21.7584,-1.04735e-14,1.08835e-14,-31.6225,-0.043413,73.3923,137.437,44.1694,-22.777,31.8091,7.12502,3.65849,61.7575,-16.0084,3.5176,14.8905,37.2109,-15.0183,-1.7374,-20.5716,-15.9976,-1.92191,-5.75083,38.3516,-10.1818,11.5185,-14.9796
13.3992,17.9425,-19.6145,4.37859,-2.03486,0.766177,7.3031,-1.25694,2.57833,2.76785,-1.49912,-0.356508,-1.31037,-0.736848,-1.68953,7.38651,5.85898,14.0354,8.8393,9.79302,-17.6055,2.90216,5.0734,-7.68113,-1.33931e-14,4.07509e-15,-27.3003,27.2857,-99.4937,136.394,4.22382,-34.0735,7.72111,7.12502,-7.25047,-22.1347,-1.33931e-14,4.07509e-15,-31.7811,0.278128,73.8045,137.511,43.4588,-22.2601,32.0964,7.12502,4.15759,62.0356,-15.5114,3.34998,15.1104,37.1951,-15.8156,-2.09494,-19.0079,-16.2231,-1.54052,-6.28913,39.7062,-11.151,10.8821,-16.719
13.3357,17.9081,-19.6078,4.32891,-1.78994,0.642942,7.36121,-1.20851,2.79956,2.62132,-1.41269,-0.204329,-1.49064,-0.697229,-1.66145,7.22497,5.81296,14.0444,8.91684,9.74468,-17.8168,2.9519,5.03979,-7.74908,1.20762e-14,-7.95139e-15,-27.65,26.9256,-99.464,136.62,4.6274,-34.0667,7.83908,7.12502,-7.24391,-22.0169,1.20762e-14,-7.95139e-15,-31.8536,0.414688,74.2431,137.533,42.9706,-22.5012,31.7278,7.12502,3.92476,61.6714,-15.3813,3.12907,15.5812,37.3337,-16.5791,-2.29758,-17.0631,-16.7341,-1.04932,-6.55408,41.0755,-12.2929,9.90746,-16.4299
13.2756,17.8552,-19.6052,4.27229,-1.58387,0.434929,6.98186,-1.20039,3.17047,2.80035,-1.39055,-0.0870532,-1.0997,-0.677782,-1.75993,7.2066,5.77652,14.012,8.5331,9.66329,-18.0199,2.83578,5.00231,-7.8138,-1.19271e-15,8.94531e-15,-27.2961,26.6027,-99.1675,136.796,4.71264,-35.3881,9.98271,7.12502,-8.51932,-19.8254,-1.19271e-15,8.94531e-15,-31.574,0.724225,74.5943,137.573,42.7436,-23.0032,31.0732,7.12502,3.43996,61.0252,-15.3641,2.76835,16.1206,37.6454,-17.3017,-2.58062,-17.12,-17.2508,-0.472952,-6.75847,42.4586,-13.2497,8.99566,-18.133
13.2174,17.8013,-19.6016,4.12102,-1.48677,0.284204,7.26922,-1.13881,3.36628,2.54371,-1.27647,0.0871827,-1.51756,-0.629993,-1.69168,7.40429,5.70512,13.9285,8.63246,9.59396,-17.9964,2.81428,4.97453,-7.80332,-1.11319e-14,-3.77691e-15,-27.7438,26.2077,-99.2738,137.123,5.0711,-37.661,13.0829,7.12502,-10.7123,-16.624,-1.11319e-14,-3.77691e-15,-32.1905,0.842553,75.2008,137.766,42.6302,-23.56,30.5232,7.12502,2.90225,60.4832,-15.3824,2.26025,16.5541,38.1295,-18.0304,-2.64369,-17.1921,-17.6256,0.154344,-7.07517,43.8546,-13.9081,8.46566,-22.6036
13.157,17.7518,-19.6003,4.00872,-1.5556,0.273038,6.96192,-1.00565,3.37817,2.76581,-1.11436,0.176649,-1.10761,-0.540576,-1.627,6.89427,5.68721,13.9852,8.77535,9.55015,-18.114,2.94099,4.92748,-7.83384,-9.14409e-15,1.35174e-14,-27.3422,25.8016,-99.1156,137.351,5.23042,-40.3658,17.0061,7.12502,-13.3204,-12.5482,-9.14409e-15,1.35174e-14,-32.1428,0.955933,75.7087,137.881,42.5858,-24.3357,30.0169,7.12502,2.1532,59.9857,-15.549,1.88864,16.8205,38.734,-18.8036,-2.4801,-15.09,-17.9732,0.818443,-7.56007,45.2402,-14.6275,8.03083,-25.709
13.0972,17.6995,-19.6059,3.9595,-1.64743,0.14153,7.33144,-0.956255,3.58983,2.51992,-1.01209,0.251579,-1.56263,-0.499244,-1.66947,6.66148,5.68983,14.0596,9.05766,9.57983,-18.2158,3.07473,4.92783,-7.87102,-5.86415e-15,-9.54166e-15,-28.1933,25.2871,-99.3321,137.338,5.37414,-43.2489,22.7255,7.12502,-16.0981,-6.62586,-5.86415e-15,-9.54166e-15,-32.9588,1.04117,76.0329,138.151,42.2124,-24.7252,29.5372,7.12502,1.77699,59.5096,-15.8651,1.70004,17.2456,39.4465,-19.6277,-2.84834,-15.4851,-18.4074,1.44633,-7.88197,46.5901,-15.721,7.06699,-25.5144
13.0414,17.6452,-19.6107,3.91357,-1.69931,-0.192189,7.43383,-0.929092,3.98827,2.44252,-0.938293,0.37718,-1.69865,-0.465561,-1.76793,6.78983,5.71551,14.2328,8.85129,9.6258,-18.358,3.01534,4.9644,-7.95088,1.52567e-14,-1.19271e-14,-28.0356,24.9742,-99.4521,137.461,5.32157,-45.4116,27.6334,7.12502,-18.1797,-1.53698,1.52567e-14,-1.19271e-14,-33.4963,1.13067,76.5031,138.434,41.4698,-25.4332,29.1883,7.12502,1.09316,59.1653,-16.2092,1.43151,17.8786,40.2748,-20.4998,-3.33972,-17.4703,-18.8536,2.10314,-7.97151,47.8899,-16.927,5.87256,-26.171
12.9868,17.587,-19.6092,3.84174,-1.78967,-0.231234,7.44925,-0.857033,4.02605,2.37652,-0.836095,0.439576,-1.76882,-0.416932,-1.73323,6.80538,5.69942,14.3818,8.89526,9.62229,-18.379,3.0331,4.96771,-7.98456,-8.54774e-15,5.96354e-15,-28.2523,24.7542,-99.6807,137.591,5.20154,-47.3711,31.8784,7.12502,-20.064,2.89433,-8.54774e-15,5.96354e-15,-34.0554,1.09113,76.9485,138.657,40.7498,-26.2107,28.9105,7.12502,0.342209,58.8899,-16.5776,1.07926,18.0971,41.2332,-21.2797,-3.00713,-15.8316,-19.1478,2.7179,-8.43704,49.1163,-18.1378,4.90627,-27.655
12.9335,17.5231,-19.6109,3.77688,-1.92507,-0.0936442,7.42677,-0.829975,3.8463,2.42606,-0.814669,0.48896,-1.7011,-0.404638,-1.58399,6.53803,5.77149,14.2954,8.94873,9.6956,-18.3746,3.10218,4.98768,-7.95379,-1.59028e-15,3.97569e-16,-28.3855,24.6578,-99.7997,137.793,5.25036,-48.5204,34.0106,7.12502,-21.1684,5.14626,-1.59028e-15,3.97569e-16,-34.4985,1.55535,76.9985,139.009,41.0694,-25.7304,28.9846,7.12502,0.806127,58.9628,-17.1143,0.857968,18.067,42.3076,-21.9331,-2.29858,-12.4068,-19.4186,3.22631,-9.10644,50.2836,-19.1308,4.09898,-28.1275
12.8768,17.4587,-19.6213,3.64212,-2.04411,-0.0436738,7.31001,-0.834855,3.65536,2.73578,-0.846764,0.57228,-1.31475,-0.411184,-1.39185,6.31193,5.91827,14.3252,8.57291,9.83934,-18.5085,3.06386,5.05336,-7.98576,-2.08724e-15,1.70955e-14,-27.6753,24.9474,-99.5345,138.121,4.77196,-48.3472,33.3866,7.12502,-21.002,4.50377,-2.08724e-15,1.70955e-14,-34.5057,2.40548,76.8735,139.5,42.5098,-25.3472,29.1162,7.12502,1.1762,59.0927,-17.6375,0.882727,18.2078,43.4499,-22.578,-2.20932,-11.1755,-19.6926,3.73432,-9.61429,51.4247,-19.8029,3.69836,-29.953
12.8194,17.3945,-19.633,3.46163,-2.14461,-0.068484,7.40806,-0.805017,3.55999,2.90654,-0.812535,0.648016,-1.18887,-0.390949,-1.26332,6.38669,5.92797,14.5134,8.1691,9.83474,-18.6918,2.95075,5.06528,-8.082,-1.53064e-14,-6.75868e-15,-27.3002,24.9196,-99.4895,138.261,4.6167,-48.0805,32.5252,7.12502,-20.7457,3.61418,-1.53064e-14,-6.75868e-15,-34.869,2.4962,77.1699,139.708,42.4694,-26.2664,28.5324,7.12502,0.2884,58.5119,-18.091,0.823449,18.4557,44.6091,-23.1494,-2.37309,-11.3036,-19.9291,4.19364,-10.0086,52.5735,-20.4393,3.28074,-30.3514
12.7675,17.3299,-19.6414,3.32818,-2.22016,-0.228888,7.65031,-0.807306,3.70517,2.86344,-0.791323,0.735222,-1.36683,-0.383359,-1.25353,6.58424,5.83628,14.7527,7.97503,9.74073,-18.9706,2.86787,5.03575,-8.23025,-1.88845e-15,-5.1684e-15,-27.3944,24.84,-99.6681,138.125,4.85906,-48.6124,32.5871,7.12502,-21.2567,3.73274,-1.88845e-15,-5.1684e-15,-35.7348,1.76968,77.8341,139.597,39.9599,-28.2683,28.1997,7.12502,-1.64506,58.1731,-18.568,0.612798,18.8041,45.7308,-23.7078,-2.29501,-11.0327,-20.2076,4.58107,-10.2703,53.707,-21.097,2.92776,-28.8897
12.7137,17.2657,-19.6472,3.26571,-2.26527,-0.363597,7.70018,-0.860066,3.79735,2.88751,-0.851865,0.792739,-1.37275,-0.413217,-1.24008,6.47119,5.8572,14.9077,7.97274,9.77226,-19.0641,2.90389,5.04907,-8.28236,1.91827e-14,-9.14409e-15,-27.3854,24.8459,-99.805,138.211,4.37243,-48.1864,32.543,7.12502,-20.8475,3.6431,1.91827e-14,-9.14409e-15,-36.1195,2.83694,77.1565,140.43,43.1296,-26.0937,28.9914,7.12502,0.455278,58.9706,-19.0785,0.589481,19.1492,46.822,-24.2718,-2.3779,-10.747,-20.5343,4.88662,-10.557,54.8012,-21.66,3.16122,-29.1156
12.6576,17.2022,-19.6509,3.16567,-2.30401,-0.378271,7.83952,-0.928867,3.76943,2.86995,-0.938019,0.786679,-1.472,-0.458022,-1.22093,6.61725,5.95009,14.8696,7.81275,9.87574,-18.8412,2.84084,5.11121,-8.20035,5.1684e-15,1.19271e-14,-27.4892,24.7666,-100.027,138.252,3.98277,-47.8494,32.6192,7.12502,-20.5237,3.68407,5.1684e-15,1.19271e-14,-36.677,2.72746,77.2946,140.503,43.1988,-26.6981,28.6031,7.12502,-0.128533,58.5828,-19.5357,0.606935,19.3768,47.9131,-24.8666,-2.48817,-10.6536,-20.765,5.0808,-10.9588,55.8382,-22.1471,3.6537,-29.6262
12.6041,17.1419,-19.6563,2.97868,-2.25351,-0.384223,8.08632,-0.991399,3.65848,2.8982,-1.01667,0.862634,-1.58019,-0.499156,-1.06978,6.93041,6.03858,14.7772,7.41481,9.96363,-18.6663,2.6771,5.17566,-8.13377,4.47266e-15,2.78299e-15,-27.507,24.7549,-100.034,137.752,4.83379,-49.1994,34.3512,7.12502,-21.8205,5.56142,4.47266e-15,2.78299e-15,-37.3493,1.43523,78.4852,139.866,39.7424,-29.4469,27.2474,7.12502,-2.7833,57.209,-19.9035,0.37508,19.5721,49.0087,-25.4483,-2.35172,-10.2586,-20.9235,5.17956,-11.348,56.8388,-22.7041,4.25139,-29.2112
12.5534,17.0779,-19.6628,2.80567,-2.12748,-0.395666,8.15752,-0.996191,3.478,3.11181,-1.03724,0.980433,-1.39477,-0.505636,-0.846179,6.62168,6.08545,14.8649,7.33811,9.98935,-18.6552,2.71591,5.17742,-8.13012,-3.47873e-15,-3.1408e-14,-27.1483,24.7278,-99.706,136.588,7.31608,-52.5352,38.6219,7.12502,-25.0204,10.2405,-3.47873e-15,-3.1408e-14,-37.4057,1.70459,78.5524,140.059,41.2476,-27.7008,26.9825,7.12502,-1.09693,56.9594,-20.2876,0.115233,19.7785,50.1158,-25.9595,-2.28803,-9.74539,-21.1079,5.21865,-11.7082,57.8436,-23.2869,4.956,-29.337
12.5044,17.0107,-19.6676,2.67796,-2.07976,-0.458949,8.14912,-1.03217,3.38806,3.29682,-1.09611,1.05692,-1.19831,-0.531403,-0.713429,6.29784,6.08035,15.0513,7.45375,9.98154,-18.8078,2.81891,5.15941,-8.20004,5.76476e-15,3.18055e-15,-26.9761,24.7069,-99.5478,137.245,6.04233,-50.5606,34.2647,7.12502,-23.127,5.63283,5.76476e-15,3.18055e-15,-37.5752,1.86506,78.6145,140.121,41.6801,-26.8317,27.1349,7.12502,-0.257565,57.1144,-20.6768,0.00190721,20.048,51.1759,-26.4798,-2.3603,-9.16623,-21.2955,5.31973,-12.0027,58.843,-23.819,5.55254,-29.6029
12.4548,16.9465,-19.6718,2.59516,-2.11137,-0.597389,8.12425,-1.10137,3.3668,3.39296,-1.19173,1.16137,-1.08618,-0.577507,-0.586554,6.17362,6.09608,15.0323,7.55676,10.0033,-18.8521,2.87454,5.16113,-8.20546,7.85199e-15,-2.14687e-14,-27.1695,24.8741,-99.5557,136.527,7.40872,-53.0176,37.5924,7.12502,-25.4826,9.27624,7.85199e-15,-2.14687e-14,-37.7845,1.96905,78.7193,140.022,42.2018,-27.3626,27.4397,7.12502,-0.770281,57.418,-21.0541,-0.0955956,20.3944,52.1557,-27.008,-2.49424,-9.09934,-21.5291,5.51761,-12.1931,59.8102,-24.2566,5.93966,-28.8517
12.4029,16.8803,-19.677,2.48024,-2.15323,-0.830126,8.09062,-1.12815,3.48666,3.50758,-1.22279,1.20561,-0.951334,-0.589545,-0.60712,6.15955,6.10775,15.0865,7.51717,10.0019,-18.6874,2.86114,5.16334,-8.1584,-2.48481e-15,5.56597e-15,-27.4723,24.836,-99.7689,136.519,7.08204,-51.5803,35.443,7.12502,-24.1051,6.93722,-2.48481e-15,5.56597e-15,-37.8335,1.77528,78.7801,139.795,42.9739,-28.7615,27.7197,7.12502,-2.12139,57.6889,-21.3741,-0.0661674,20.8693,53.0393,-27.5122,-2.85317,-10.5595,-21.73,5.70471,-12.2249,60.7088,-24.6654,6.26833,-27.4836
12.3534,16.8203,-19.6864,2.34124,-2.05331,-0.939174,8.15121,-1.19057,3.54739,3.56869,-1.30085,1.14565,-0.926881,-0.626598,-0.695409,6.38824,6.08173,15.2759,7.30736,9.95975,-18.4752,2.75531,5.16342,-8.1309,-8.84592e-15,3.57812e-15,-27.6487,24.5921,-100.008,136.669,6.65706,-50.4502,34.127,7.12502,-23.0211,5.48184,-8.84592e-15,3.57812e-15,-38.0404,1.49019,78.7437,139.564,43.3455,-29.7319,27.6994,7.12502,-3.05855,57.6572,-21.6323,-0.046582,21.2196,53.7839,-27.9628,-3.17424,-11.5604,-21.9141,5.69422,-12.3667,61.4991,-25.0694,6.55005,-27.0515
12.307,16.768,-19.6936,2.27928,-1.70037,-0.814606,8.07714,-1.33398,3.33425,3.62785,-1.5123,1.0987,-0.829404,-0.731712,-0.607919,6.5609,6.05774,15.3009,7.17239,9.91704,-18.2826,2.67282,5.15433,-8.07991,1.46107e-14,1.15295e-14,-27.5877,24.7019,-99.953,136.203,7.80549,-52.7733,36.9824,7.12502,-25.2486,8.63301,1.46107e-14,1.15295e-14,-38.1801,1.45104,78.7187,139.347,43.8146,-29.2228,27.2598,7.12502,-2.56689,57.2241,-21.8465,-0.261888,21.2976,54.3999,-28.4621,-3.36894,-11.2348,-22.1891,5.39653,-12.7377,62.1772,-25.4655,6.07495,-25.416
12.2627,16.7128,-19.6928,2.19528,-1.38414,-0.928076,7.86819,-1.45506,3.41926,3.77571,-1.68091,1.07025,-0.570158,-0.809907,-0.677154,6.64462,6.01435,15.3532,7.02476,9.84102,-18.1283,2.5989,5.12472,-8.04449,-1.19271e-15,1.59028e-14,-27.4285,24.626,-99.866,137.159,5.31173,-48.727,32.2851,7.12502,-21.3668,3.4432,-1.19271e-15,1.59028e-14,-38.0269,1.24529,78.7584,139.059,44.2316,-28.8883,27.0083,7.12502,-2.24384,56.9763,-21.9036,-0.416307,21.6347,54.8748,-29.0636,-3.64481,-11.6774,-22.3651,5.15236,-12.7753,62.7909,-25.8693,4.8653,-21.1873
12.2235,16.6597,-19.6942,2.05416,-1.27561,-1.13331,7.86265,-1.48384,3.60288,3.85059,-1.70871,1.07006,-0.495309,-0.81984,-0.778887,6.82168,5.91341,15.5257,6.8118,9.70945,-18.1332,2.49336,5.07447,-8.0898,-8.84592e-15,6.36111e-15,-27.4931,24.5785,-99.927,136.985,5.6584,-49.5743,33.5463,7.12502,-22.1805,4.79883,-8.84592e-15,6.36111e-15,-37.9106,0.944141,78.8635,138.796,44.6633,-29.7511,27.1355,7.12502,-3.07706,57.093,-21.8761,-0.4488,22.052,55.2314,-29.6691,-4.00548,-12.6574,-22.4148,5.18061,-12.7256,63.3301,-26.1001,4.54425,-20.3784
12.1835,16.6142,-19.7,1.97265,-1.23726,-1.14599,7.92603,-1.48503,3.40311,3.85664,-1.72031,1.1584,-0.516675,-0.82901,-0.573783,6.82932,5.85424,15.5802,6.83303,9.6432,-18.2523,2.49385,5.04235,-8.14271,-6.95746e-16,-3.97569e-16,-27.579,24.5947,-99.7875,136.787,5.68276,-50.0091,34.5784,7.12502,-22.5978,5.88108,-6.95746e-16,-3.97569e-16,-37.9272,0.939016,79.0641,138.561,45.1997,-30.4117,27.0963,7.12502,-3.71504,57.0436,-21.874,-0.424266,22.2662,55.4377,-30.1454,-4.43125,-12.486,-22.529,5.29592,-12.9162,63.7155,-26.2257,5.16094,-22.4282
12.1422,16.5829,-19.7012,1.9208,-1.24258,-1.20354,7.96872,-1.50142,3.20997,3.84528,-1.75191,1.28398,-0.54405,-0.848605,-0.332579,6.74345,5.86847,15.3671,7.01723,9.65697,-18.1948,2.55057,5.03795,-8.08269,2.08724e-15,-2.78299e-15,-27.9408,24.6534,-99.803,136.461,6.27346,-50.9538,34.841,7.12502,-23.5043,6.25693,2.08724e-15,-2.78299e-15,-37.9791,0.996583,79.3202,138.35,45.3696,-30.4315,27.1888,7.12502,-3.73418,57.1358,-21.8131,-0.36296,22.5442,55.5188,-30.5339,-4.87249,-11.5998,-22.5979,5.42509,-13.0317,63.959,-26.3748,5.97194,-24.4875
12.103,16.5881,-19.6945,1.84412,-1.21725,-1.26023,8.03393,-1.56231,3.10817,3.81842,-1.8353,1.35318,-0.605066,-0.8929,-0.195107,6.88823,5.9349,15.1801,7.02836,9.75239,-18.164,2.53566,5.08722,-8.04202,-3.67752e-15,-8.34896e-15,-28.2781,24.7212,-99.8469,136.318,6.38078,-51.347,34.6093,7.12502,-23.8814,6.07404,-3.67752e-15,-8.34896e-15,-38.0245,1.07228,79.4495,138.249,45.4756,-30.5248,27.709,7.12502,-3.8243,57.6544,-21.5375,-0.359795,22.8089,55.3801,-30.8301,-5.33773,-11.351,-22.3991,5.50889,-13.1245,63.9631,-26.5483,6.64104,-26.8987
12.0683,16.5642,-19.6945,1.84732,-1.11715,-1.46967,7.95368,-1.65696,3.27102,3.81966,-1.95281,1.36103,-0.567221,-0.949282,-0.27021,7.00975,6.02778,15.267,6.96324,9.89541,-18.2309,2.52932,5.16607,-8.07747,1.85864e-14,-7.95139e-16,-28.0701,25.2153,-99.8313,136.167,6.71067,-52.3867,34.2426,7.12502,-24.8781,5.84146,1.85864e-14,-7.95139e-16,-37.9948,1.1784,79.3764,138.158,45.7513,-30.8883,28.2542,7.12502,-4.1753,58.1931,-21.4181,-0.366912,23.23,55.2395,-31.0748,-5.78031,-11.8668,-22.409,5.48406,-12.9989,64.0555,-26.8484,6.51481,-26.7287
12.039,16.5406,-19.6942,1.93375,-1.08568,-1.93673,7.79206,-1.71474,3.75759,3.80637,-2.00268,1.39928,-0.50667,-0.968125,-0.502806,6.88933,6.03516,15.4413,7.08603,9.91882,-18.2722,2.59999,5.17425,-8.11442,-2.41523e-14,2.50469e-14,-28.3395,24.7528,-100.253,136.267,6.69129,-52.3968,33.2299,7.12502,-24.8878,4.83007,-2.41523e-14,2.50469e-14,-37.9028,1.28518,79.2919,138.06,46.2317,-31.351,29.0464,7.12502,-4.62212,58.976,-21.3703,-0.322428,23.9032,55.0152,-31.3557,-6.02024,-12.1576,-22.5338,5.43362,-12.5618,64.0977,-27.173,5.72251,-22.9517
12.0127,16.5309,-19.694,2.01231,-1.18873,-2.1989,7.7143,-1.72334,3.97754,3.73259,-2.00034,1.4403,-0.54515,-0.966102,-0.584539,6.76007,6.03458,15.4274,7.33636,9.92624,-18.2085,2.69185,5.16859,-8.08464,-5.96354e-16,2.78299e-15,-27.6958,25.2721,-99.8736,135.962,6.61116,-52.6773,31.7955,7.12502,-25.1566,3.43315,-5.96354e-16,2.78299e-15,-37.7714,1.53631,79.3144,138.046,46.939,-31.8862,29.9006,7.12502,-5.13888,59.8183,-21.3592,-0.153645,24.3212,54.8154,-31.5571,-5.96154,-11.3431,-22.6035,5.47921,-12.3806,64.0434,-27.3316,5.45844,-20.1098
11.988,16.5363,-19.6932,2.00982,-1.32604,-2.06981,7.73297,-1.72341,3.792,3.63775,-2.0099,1.37314,-0.650764,-0.974966,-0.547097,6.89275,6.1104,15.2689,7.50362,10.04,-18.0006,2.72116,5.22633,-7.98774,-7.40473e-15,-9.93923e-15,-28.1544,24.8944,-99.9597,135.709,6.80196,-52.3299,31.5156,7.12502,-24.8237,3.10692,-7.40473e-15,-9.93923e-15,-37.6997,1.72555,79.3662,138.117,47.3545,-32.5304,30.4903,7.12502,-5.76083,60.392,-21.2546,-0.000499971,24.2845,54.5763,-31.6529,-5.83848,-10.1591,-22.467,5.5373,-12.686,63.7924,-27.2822,6.44913,-22.0038
11.9663,16.5499,-19.6904,1.95749,-1.39167,-1.92553,7.72248,-1.73366,3.6326,3.58594,-2.03491,1.26054,-0.698672,-0.989473,-0.571284,7.12574,6.13254,15.3481,7.56112,10.1107,-18.0324,2.71685,5.27304,-8.01841,8.34896e-15,-1.76918e-14,-28.5109,24.7628,-100.158,135.683,6.84415,-52.3106,32.1976,7.12502,-24.8052,3.78637,8.34896e-15,-1.76918e-14,-37.6322,1.92715,79.23,138.185,47.398,-32.5249,31.3627,7.12502,-5.75555,61.2646,-21.0424,-0.0309627,24.2076,54.2976,-31.7447,-5.8365,-9.77289,-22.218,5.49903,-12.9701,63.4068,-27.3268,7.09346,-23.3512
11.945,16.5638,-19.6893,2.05977,-1.45194,-1.88379,7.56954,-1.70204,3.54234,3.48267,-2.00456,1.19305,-0.719549,-0.976065,-0.595653,7.37258,6.04461,15.568,7.5007,10.0419,-18.2462,2.66628,5.2554,-8.14213,2.31584e-14,-1.74931e-14,-28.4887,25.0162,-100.206,135.913,6.38973,-52.5111,33.0675,7.12502,-24.9974,4.68287,2.31584e-14,-1.74931e-14,-37.4491,2.24623,79.0379,138.242,47.9792,-32.7768,32.1441,7.12502,-5.99875,62.0391,-20.9791,-0.0524737,24.25,53.9525,-31.6312,-6.08064,-10.8314,-22.1837,5.50323,-13.0584,62.997,-27.4363,6.61642,-20.9501
11.9244,16.5856,-19.6911,2.21045,-1.59939,-1.72596,7.40611,-1.62448,3.3001,3.38656,-1.92411,1.11386,-0.721196,-0.938653,-0.551591,7.4067,6.00476,15.6427,7.55178,10.0063,-18.299,2.67495,5.24026,-8.17599,-4.42296e-15,1.2921e-14,-27.7046,25.854,-99.7104,136.525,5.27917,-52.0989,31.3344,7.12502,-24.6023,2.89545,-4.42296e-15,1.2921e-14,-37.1382,2.49818,78.9488,138.322,48.8291,-33.494,32.692,7.12502,-6.69113,62.5662,-21.0054,0.0755788,24.1508,53.5894,-31.362,-6.10534,-11.1054,-22.1783,5.55131,-13.25,62.5812,-27.7291,5.76665,-16.9465
11.9076,16.6242,-19.6923,2.26051,-1.79583,-1.75379,7.37075,-1.57151,3.3181,3.3218,-1.85354,1.04094,-0.76906,-0.904056,-0.64234,7.48546,6.0086,15.7029,7.56301,10.0283,-18.3292,2.67344,5.25596,-8.19876,3.47873e-16,-1.33186e-14,-27.5968,25.5146,-99.8886,136.342,5.34733,-52.4679,31.6985,7.12502,-24.9559,3.30817,3.47873e-16,-1.33186e-14,-36.9689,2.68534,78.7925,138.466,49.3012,-33.3505,33.291,7.12502,-6.55262,63.1696,-20.8514,0.267663,24.2155,53.1222,-31.084,-5.56371,-9.39169,-21.9719,5.60738,-13.2412,62.0635,-28.1874,5.22072,-14.4788
11.8967,16.644,-19.6968,2.39572,-1.97668,-1.96851,7.36685,-1.53507,3.56037,3.16422,-1.78478,1.03206,-0.934081,-0.871498,-0.790096,7.81119,5.98138,15.7824,7.33734,10.0184,-18.4535,2.56134,5.27036,-8.26921,-1.70458e-14,2.28602e-14,-27.6203,25.425,-100.057,136.297,5.53184,-52.6652,31.5184,7.12502,-25.145,3.15446,-1.70458e-14,2.28602e-14,-37.0293,2.74379,78.7016,138.705,50.0469,-33.6881,33.1045,7.12502,-6.87846,62.9728,-20.7984,0.322723,24.4545,52.6421,-30.7214,-5.16921,-9.07465,-21.9819,5.68689,-13.0661,61.5617,-28.1662,5.76081,-15.2368
11.8855,16.69,-19.6946,2.59972,-2.17334,-1.93465,7.16677,-1.4699,3.53929,3.10139,-1.70854,0.968641,-0.886579,-0.833327,-0.854031,7.7129,6.00263,15.8064,7.34407,10.0431,-18.5237,2.58843,5.27798,-8.29149,1.57537e-14,9.93923e-16,-27.6131,25.4913,-100.012,136.25,5.85968,-52.8441,31.49,7.12502,-25.3164,3.15014,1.57537e-14,9.93923e-16,-36.8764,2.81139,78.6259,138.871,50.7837,-34.5317,32.4017,7.12502,-7.69282,62.2418,-20.7167,0.274451,24.4079,51.992,-30.3699,-4.84985,-9.28374,-21.9561,5.78304,-13.1787,60.8321,-27.7136,6.67824,-16.6706
11.8742,16.7453,-19.6886,2.68528,-2.40816,-1.76502,7.00852,-1.40178,3.34358,3.07621,-1.63898,0.867838,-0.820153,-0.798955,-0.857377,7.45734,6.00349,15.7888,7.63614,10.0455,-18.5121,2.71449,5.26275,-8.27333,2.48481e-15,-1.2921e-14,-27.6105,25.6179,-99.9661,136.202,6.0547,-53.0188,31.6117,7.12502,-25.4838,3.2957,2.48481e-15,-1.2921e-14,-36.733,2.94328,78.5167,139.027,51.0549,-34.9448,32.3131,7.12502,-8.09151,62.1382,-20.459,0.361531,24.2224,51.2397,-30.0895,-4.37073,-8.00737,-21.7005,5.84896,-13.3927,59.985,-27.504,7.01609,-17.3214
11.8662,16.8071,-19.6832,2.69222,-2.66448,-1.6098,7.14982,-1.33047,3.03238,2.96481,-1.55531,0.898013,-1.00175,-0.762872,-0.65404,7.15538,6.03035,15.6206,8.07785,10.0889,-18.5205,2.89209,5.25938,-8.23276,-1.13804e-14,1.41137e-14,-28.0313,25.4238,-100.057,136.243,6.21028,-52.7652,31.3054,7.12502,-25.2408,2.95487,-1.13804e-14,1.41137e-14,-36.697,3.1415,78.6001,139.241,51.1596,-35.0285,32.7632,7.12502,-8.17225,62.5852,-19.9924,0.56266,24.0454,50.3138,-29.7013,-4.02172,-7.15435,-21.3,5.8375,-13.5726,58.9705,-27.4739,7.18003,-19.0909
11.8588,16.87,-19.682,2.70996,-2.98003,-1.56574,6.84862,-1.25828,3.06655,3.25055,-1.47907,0.747299,-0.542382,-0.715788,-0.844616,6.57376,6.20612,15.5083,8.17999,10.2536,-18.3673,3.03737,5.3095,-8.12743,5.11871e-15,-6.75868e-15,-27.8285,24.9751,-100.283,136.197,6.5902,-52.3805,31.053,7.12502,-24.8722,2.651,5.11871e-15,-6.75868e-15,-35.9299,3.32708,78.3703,139.363,51.2358,-34.9669,32.8558,7.12502,-8.11281,62.6801,-19.4733,0.849524,23.992,49.2987,-29.1173,-3.98525,-8.16551,-20.9099,5.95005,-13.615,57.8417,-27.1537,7.59581,-22.6921
11.8507,16.9333,-19.6808,2.7723,-3.21918,-1.74345,6.76261,-1.1956,3.24086,3.23644,-1.38911,0.711426,-0.510421,-0.668769,-0.987286,6.54654,6.27316,15.4127,8.22456,10.3267,-18.1755,3.05464,5.34296,-8.04108,3.60297e-15,-8.84592e-15,-27.468,25.2092,-100.254,136.14,6.65856,-52.3282,30.9715,7.12502,-24.8221,2.56261,3.60297e-15,-8.84592e-15,-35.7321,3.4521,78.1446,139.606,51.2703,-34.8109,32.7475,7.12502,-7.96223,62.5775,-18.9973,1.12112,24.204,48.2251,-28.3355,-4.01191,-9.38662,-20.5364,6.09095,-13.379,56.6355,-26.5215,7.89809,-26.0556
11.8473,17.0036,-19.6785,2.94912,-3.34302,-1.77757,6.6387,-1.19513,3.22337,3.03106,-1.38949,0.724489,-0.652924,-0.67311,-0.964062,6.99006,6.25709,15.3147,8.19228,10.3451,-18.156,2.96771,5.37056,-8.03648,-1.17034e-14,-1.55052e-14,-27.1007,25.8755,-100.039,136.246,6.11324,-51.9593,30.2142,7.12502,-24.4685,1.75708,-1.17034e-14,-1.55052e-14,-35.8172,3.79337,77.8292,139.875,51.0743,-34.1846,33.3728,7.12502,-7.35772,63.2248,-18.6916,1.22894,24.2109,47.1495,-27.517,-3.47869,-8.93477,-20.2937,6.06714,-13.3111,55.3872,-25.9389,7.77166,-27.9361
11.8474,17.0741,-19.6774,3.24585,-3.54241,-1.65924,6.37323,-1.14201,3.03154,2.85275,-1.33697,0.710021,-0.683842,-0.650394,-0.878506,7.1006,6.29098,15.1908,8.38494,10.4114,-18.0568,3.00583,5.40328,-7.98373,1.86361e-14,2.78299e-15,-26.9949,26.0961,-99.8901,136.528,5.40463,-51.3857,29.7913,7.12502,-23.9186,1.26096,1.86361e-14,2.78299e-15,-35.6737,3.96501,77.6196,139.966,50.6918,-33.738,33.8754,7.12502,-6.92667,63.7421,-18.5353,1.3281,24.0051,46.0912,-26.7564,-2.80444,-8.3379,-20.1872,6.03443,-13.4225,54.1269,-25.4789,7.70943,-30.112
11.8472,17.1416,-19.6739,3.51646,-3.81431,-1.67672,6.07761,-1.01634,2.96641,2.80353,-1.18448,0.695086,-0.563865,-0.573702,-0.872733,6.71859,6.37542,15.1075,8.73487,10.5052,-17.8753,3.1759,5.42666,-7.88687,8.27441e-15,7.45443e-15,-26.8985,26.0555,-99.7243,136.836,4.87449,-50.9381,30.4201,7.12502,-23.4892,1.83413,8.27441e-15,7.45443e-15,-35.4044,3.8186,77.4873,139.988,50.4628,-33.5888,33.3507,7.12502,-6.78266,63.222,-18.3163,1.51517,23.9677,45.0401,-26.0515,-2.35061,-7.49683,-20.0218,6.01597,-13.3494,52.8698,-25.0489,7.55925,-32.0482
11.8492,17.2154,-19.6675,3.62201,-4.08374,-1.59214,5.92091,-0.9143,2.81194,2.81419,-1.06383,0.664638,-0.459535,-0.513249,-0.828041,6.54227,6.44255,15.0794,8.88736,10.5961,-17.9028,3.26577,5.45991,-7.87866,8.44835e-15,-7.35503e-15,-26.8059,26.2352,-99.5723,136.183,6.37748,-53.484,35.2586,7.12502,-25.9293,7.007,8.44835e-15,-7.35503e-15,-35.2583,3.91341,77.2182,140.102,50.1584,-32.9274,32.5741,7.12502,-6.14412,62.465,-17.8882,1.72896,23.8188,43.9945,-25.3262,-1.85926,-6.10841,-19.6527,5.88088,-13.3783,51.6155,-24.5768,6.98696,-31.8828
11.8542,17.2962,-19.6629,3.70467,-4.33979,-1.50624,5.8863,-0.834854,2.76733,2.76369,-0.96167,0.578867,-0.489512,-0.462917,-0.897701,6.66587,6.4346,15.1124,8.87995,10.6035,-17.946,3.24787,5.46974,-7.90389,-1.963e-15,1.80894e-14,-26.743,26.4636,-99.5214,136.347,6.23001,-52.4618,32.7768,7.12502,-24.9501,4.38561,-1.963e-15,1.80894e-14,-35.1429,3.97242,76.9171,140.317,50.0713,-32.8476,32.0243,7.12502,-6.06712,61.9174,-17.4589,1.94036,23.6664,42.9514,-24.5038,-1.44958,-5.74938,-19.2763,5.62627,-13.4212,50.3703,-23.8646,6.52587,-31.7723
11.8596,17.3752,-19.6639,3.89305,-4.57868,-1.62012,5.84166,-0.773415,2.91219,2.62465,-0.871509,0.533408,-0.607091,-0.419255,-1.03077,6.91647,6.38355,15.2324,8.787,10.5612,-17.9912,3.17981,5.46491,-7.95287,2.64259e-14,-7.95139e-16,-26.7211,26.4807,-99.4536,136.619,5.67239,-51.5356,32.0939,7.12502,-24.0623,3.58246,2.64259e-14,-7.95139e-16,-35.1375,3.88176,76.6695,140.526,50.1467,-33.2386,31.8227,7.12502,-6.44461,61.7047,-17.1879,2.07252,23.7377,41.9312,-23.5675,-1.14813,-6.375,-19.0332,5.40056,-13.2255,49.1542,-23.0068,6.10602,-32.5195
11.8661,17.4468,-19.6644,4.04526,-4.77928,-1.69624,5.66837,-0.754401,2.91082,2.58324,-0.851785,0.548591,-0.552354,-0.409216,-1.01749,7.12465,6.37289,15.3098,8.66343,10.5689,-18.1025,3.11951,5.48094,-8.01218,2.18539e-14,-1.41137e-14,-26.5833,26.6177,-99.3129,136.809,5.38927,-50.9464,31.4549,7.12502,-23.4972,2.8699,2.18539e-14,-1.41137e-14,-35.0707,4.05631,76.3447,140.605,49.7244,-32.7435,31.8402,7.12502,-5.96656,61.7362,-16.903,2.05089,23.7446,40.9657,-22.5754,-0.839423,-7.66065,-18.7358,5.13581,-13.0524,47.9563,-22.1708,5.43672,-32.371
11.8749,17.5207,-19.6621,4.22192,-4.93628,-1.81338,5.3943,-0.750029,3.03392,2.62211,-0.851441,0.52773,-0.361725,-0.405224,-1.11152,7.08598,6.39348,15.3586,8.69727,10.6006,-18.1318,3.14562,5.49505,-8.02686,-5.59082e-15,1.7344e-14,-26.2659,26.8244,-99.2119,136.752,5.6672,-51.1356,30.9963,7.12502,-23.6787,2.43469,-5.59082e-15,1.7344e-14,-34.8187,4.22031,75.9113,140.681,49.2769,-32.1494,31.4464,7.12502,-5.39299,61.3578,-16.706,1.9907,23.7797,40.0782,-21.5616,-0.209254,-7.11014,-18.4781,4.75701,-12.8428,46.7645,-21.2409,4.9759,-32.3755
11.8824,17.5991,-19.6617,4.4948,-5.14071,-1.90255,5.23561,-0.714506,3.22073,2.4897,-0.799795,0.385718,-0.411555,-0.379255,-1.3659,7.11498,6.38935,15.6664,8.90233,10.6434,-18.1779,3.22753,5.52357,-8.09397,-1.28837e-14,4.03036e-14,-26.2144,26.8461,-99.423,136.713,5.82663,-51.4524,31.6648,7.12502,-23.9825,3.14287,-1.28837e-14,4.03036e-14,-34.8277,4.08824,75.3539,140.944,49.3191,-32.3323,30.6883,7.12502,-5.56953,60.5951,-16.6794,2.00627,23.7928,39.2603,-20.584,0.573719,-4.98446,-18.3105,4.42536,-12.6682,45.566,-20.3679,4.99236,-33.4907
11.8899,17.6733,-19.658,4.67565,-5.39602,-1.78871,5.15388,-0.631652,3.19198,2.3505,-0.692829,0.192583,-0.50618,-0.32798,-1.55423,7.15444,6.37328,15.8533,9.14508,10.6561,-18.0782,3.30014,5.53582,-8.09364,7.25564e-15,5.26779e-15,-26.2829,26.6613,-99.5799,136.859,5.4805,-51.0096,33.0499,7.12502,-23.5578,4.47275,7.25564e-15,5.26779e-15,-34.8667,3.87317,74.7763,141.263,49.3864,-32.3439,30.1775,7.12502,-5.58082,60.084,-16.5518,2.01336,23.5942,38.488,-19.6,1.09586,-4.5149,-18.0372,4.0804,-12.7126,44.3631,-19.6607,4.88737,-33.9057
11.9011,17.7399,-19.6495,4.67201,-5.60912,-1.7319,5.05439,-0.579444,3.13905,2.40233,-0.631045,0.160022,-0.394236,-0.295142,-1.56261,7.13399,6.4181,15.5773,9.14378,10.6819,-17.8909,3.28403,5.54088,-7.98107,-1.85864e-14,6.03808e-15,-26.1161,26.6304,-99.3138,136.99,5.15433,-50.6656,35.4913,7.12502,-23.2278,6.87207,-1.85864e-14,6.03808e-15,-34.6093,3.94855,74.376,141.365,48.9976,-31.4175,29.9496,7.12502,-4.68629,59.8777,-16.1924,1.94581,23.4624,37.7632,-18.623,1.40188,-5.02785,-17.5811,3.60679,-12.695,43.1928,-18.9894,4.51464,-34.0601
11.9134,17.8014,-19.64,4.67073,-5.88384,-1.73356,4.86962,-0.568317,3.0658,2.51986,-0.628534,0.210929,-0.169164,-0.290289,-1.47157,7.14957,6.53206,15.2234,8.96906,10.7924,-17.8262,3.22732,5.5873,-7.8935,-6.93572e-15,-2.52457e-14,-25.8845,26.9291,-99.0334,137.044,5.26252,-50.6706,36.0996,7.12502,-23.2326,7.48098,-6.93572e-15,-2.52457e-14,-34.4012,4.16141,74.107,141.597,48.8604,-31.1672,29.7926,7.12502,-4.44456,59.726,-15.8801,1.83296,23.3916,37.1112,-17.7261,1.63588,-6.08539,-17.0619,3.09513,-12.6161,42.0399,-18.4124,3.89923,-33.8954
11.9257,17.8648,-19.6316,4.79137,-6.21261,-1.51407,4.63765,-0.551399,2.85811,2.51363,-0.623327,0.091122,-0.0456465,-0.287182,-1.48038,7.16274,6.62535,15.0931,9.01173,10.9054,-17.6875,3.24393,5.6402,-7.81911,1.50952e-15,1.94312e-14,-25.8421,27.1856,-99.0844,137.181,5.36307,-50.4227,34.5469,7.12502,-22.9947,5.89851,1.50952e-15,1.94312e-14,-34.4151,4.19477,73.7003,142.12,49.2165,-31.673,29.744,7.12502,-4.93298,59.6666,-15.8089,1.67224,23.0564,36.5499,-16.8679,2.08105,-7.15044,-16.7272,2.44842,-12.7894,40.9263,-17.9928,2.9813,-32.6832
11.9363,17.9309,-19.6254,4.8545,-6.49119,-1.00636,4.60104,-0.529108,2.39836,2.36817,-0.611996,-0.153121,-0.172909,-0.28703,-1.4734,7.32375,6.64233,15.2226,9.14935,10.9662,-17.6497,3.2737,5.68013,-7.83233,-2.79541e-15,-1.71452e-14,-26.0174,27.2624,-99.2587,137.352,5.29446,-49.8875,33.4436,7.12502,-22.4811,4.73219,-2.79541e-15,-1.71452e-14,-34.4737,4.22961,73.1401,142.327,49.0451,-31.1815,29.3549,7.12502,-4.45836,59.288,-15.7682,1.53085,22.3989,36.087,-16.0875,2.68982,-7.6768,-16.4432,1.64794,-13.2827,39.9021,-17.5421,1.86694,-30.5786
11.9457,17.9833,-19.623,4.98648,-6.67583,-0.766441,4.56945,-0.498161,2.16399,2.22698,-0.580183,-0.29398,-0.298419,-0.274794,-1.48759,7.34514,6.64628,15.398,9.31921,11.0048,-17.6623,3.3374,5.70345,-7.86505,-3.60297e-15,1.21259e-14,-26.2008,27.2849,-99.3568,137.541,5.26563,-49.1131,31.9484,7.12502,-21.7376,3.14894,-3.60297e-15,1.21259e-14,-34.4053,4.25348,72.6343,142.37,48.6069,-30.3832,29.0527,7.12502,-3.68753,59.0005,-15.8411,1.42681,22.0702,35.7175,-15.3436,3.15477,-7.84126,-16.2278,1.03111,-13.4634,39,-16.8667,0.467502,-27.5592
11.9566,18.0217,-19.6283,5.17485,-6.67593,-0.900175,4.47768,-0.506036,2.31955,2.16995,-0.586184,-0.318633,-0.307609,-0.277214,-1.60035,7.22511,6.65974,15.4392,9.47866,11.0209,-17.5686,3.40514,5.7064,-7.83419,-4.42296e-15,-8.05078e-15,-26.1638,27.2233,-99.3255,137.265,5.89973,-49.81,33.7584,7.12502,-22.4067,5.03799,-4.42296e-15,-8.05078e-15,-34.155,4.12442,72.29,142.673,48.5175,-30.3361,29.3629,7.12502,-3.64201,59.3116,-15.9402,1.19761,22.1977,35.3944,-14.6415,3.29523,-7.89445,-16.1925,0.596847,-13.2076,38.2456,-16.0018,-0.96329,-25.9321
11.9672,18.058,-19.6347,5.17219,-6.6984,-0.931265,4.49633,-0.553457,2.31595,2.1912,-0.649254,-0.323608,-0.29904,-0.308447,-1.60039,7.22966,6.65714,15.3295,9.51049,11.0102,-17.5285,3.40358,5.69732,-7.80327,-1.31695e-15,-1.36167e-14,-25.9537,27.3368,-99.2308,137.041,6.30086,-50.7175,36.8433,7.12502,-23.2776,8.23039,-1.31695e-15,-1.36167e-14,-33.8106,4.29434,71.8583,142.939,48.3695,-29.9518,29.6616,7.12502,-3.27091,59.6162,-15.8314,1.01462,22.2174,35.0873,-14.02,3.35707,-7.78412,-16.0644,0.148353,-13.0734,37.62,-15.1335,-2.25455,-25.6459
11.977,18.0873,-19.6356,5.1705,-6.77427,-0.968745,4.48958,-0.603148,2.29192,2.18544,-0.716432,-0.320134,-0.303914,-0.342309,-1.58016,7.2653,6.6492,15.2528,9.62791,11.0108,-17.5286,3.42767,5.6946,-7.79246,2.48481e-17,-1.46107e-14,-25.8235,27.4678,-99.1591,136.811,6.61128,-50.5377,35.9261,7.12502,-23.1051,7.29149,2.48481e-17,-1.46107e-14,-33.6201,4.53681,71.3778,143.06,48.1256,-29.3978,29.6233,7.12502,-2.73585,59.5855,-15.7377,1.02289,22.2317,34.7921,-13.3358,3.57922,-6.37274,-15.8944,-0.300013,-12.9514,37.0827,-14.2252,-3.6147,-24.8147
11.9915,18.1151,-19.6357,5.23126,-6.80841,-0.995861,4.43901,-0.631469,2.32892,2.15514,-0.753727,-0.341589,-0.309179,-0.360932,-1.62149,7.38536,6.63711,15.3741,9.63514,11.0313,-17.7038,3.42838,5.71139,-7.87633,-1.68718e-14,4.47266e-15,-25.8991,27.5872,-99.1848,137.075,6.48843,-49.957,34.178,7.12502,-22.5479,5.47467,-1.68718e-14,4.47266e-15,-33.4697,4.39937,71.142,143.124,47.8927,-29.6147,29.3499,7.12502,-2.94537,59.3093,-15.7005,0.87921,22.2146,34.5184,-12.7369,3.87184,-4.7367,-15.8016,-0.665083,-12.8839,36.5694,-13.1965,-4.94268,-24.3765
12.008,18.1423,-19.6363,5.21765,-6.932,-0.899778,4.43805,-0.62712,2.23377,2.17551,-0.752203,-0.377333,-0.287053,-0.360219,-1.60501,7.44829,6.63352,15.4244,9.55312,11.0428,-17.8819,3.40696,5.71994,-7.94703,5.91384e-15,9.93923e-17,-25.9638,27.5648,-99.1537,137.257,6.37404,-49.9153,34.3627,7.12502,-22.5078,5.65453,5.91384e-15,9.93923e-17,-33.1613,4.37706,70.8746,143.022,47.7131,-29.6405,28.7835,7.12502,-2.97029,58.7426,-15.6056,0.650763,22.0548,34.2927,-12.5411,4.05434,-4.84678,-15.6597,-0.841498,-12.9909,36.0722,-11.9774,-6.392,-22.7641
12.0231,18.159,-19.6318,5.17978,-7.14579,-0.79384,4.4159,-0.588186,2.11462,2.19664,-0.706166,-0.428099,-0.25032,-0.337231,-1.59277,7.31849,6.63473,15.3139,9.73139,11.0299,-17.7415,3.46574,5.70317,-7.87632,-1.73937e-15,1.31198e-14,-25.9798,27.511,-99.1445,137.324,6.23108,-49.8691,34.8768,7.12502,-22.4634,6.16323,-1.73937e-15,1.31198e-14,-32.8457,4.43848,70.5254,142.982,47.6556,-29.1911,28.3735,7.12502,-2.53631,58.3382,-15.4896,0.560758,21.8857,34.1096,-12.5491,4.11415,-5.58839,-15.48,-0.870347,-13.1187,35.6531,-10.3118,-7.91878,-18.854
12.0402,18.1672,-19.6242,5.17274,-7.31881,-0.680704,4.23792,-0.55295,1.97211,2.29508,-0.669594,-0.471627,-0.0475148,-0.316853,-1.56132,7.03677,6.70522,15.1611,9.92859,11.081,-17.456,3.5579,5.71169,-7.73883,-1.26477e-14,-7.95139e-15,-25.7625,27.4663,-98.9742,137.263,6.12417,-49.9574,35.6389,7.12502,-22.5482,6.93554,-1.26477e-14,-7.95139e-15,-32.4287,4.33982,70.3783,143.14,47.8404,-29.4769,28.168,7.12502,-2.81227,58.1292,-15.4133,0.507647,21.6847,33.9517,-12.4476,4.25935,-4.94613,-15.3614,-0.922163,-13.2673,35.3425,-8.53738,-9.14935,-14.2889
12.0564,18.1693,-19.625,5.12373,-7.28539,-0.678492,4.17282,-0.598114,1.90848,2.3991,-0.734079,-0.453943,0.0938127,-0.347481,-1.506,6.80261,6.79794,15.1719,10.0953,11.1958,-17.4084,3.66488,5.75634,-7.70717,-1.10325e-14,1.31198e-14,-25.607,27.4926,-98.7885,137.056,6.3283,-50.4003,36.6557,7.12502,-22.9732,8.00462,-1.10325e-14,1.31198e-14,-32.0907,4.08377,70.3886,143.18,48.2899,-30.835,27.3876,7.12502,-4.12384,57.3274,-15.3157,0.488085,21.6402,33.8302,-12.2804,4.23155,-4.3068,-15.2717,-1.09234,-13.2785,35.1259,-7.50566,-9.87069,-11.3789
12.0695,18.1663,-19.6307,5.10681,-7.19423,-0.777456,4.2723,-0.645915,1.98541,2.35164,-0.792489,-0.446554,-0.0135522,-0.377493,-1.53777,6.83362,6.79658,15.3439,10.2571,11.2368,-17.5332,3.73059,5.7797,-7.77761,8.87077e-15,-8.74653e-15,-25.7239,27.5189,-98.8488,136.92,6.7994,-50.8485,36.4786,7.12502,-23.4033,7.8816,8.87077e-15,-8.74653e-15,-32.1176,3.30734,70.5648,143.717,46.5026,-31.1851,28.8038,7.12502,-4.4619,58.7368,-15.2675,0.515868,21.7446,33.7524,-12.2951,4.04536,-4.8919,-15.2233,-1.24606,-13.172,34.9874,-7.37145,-10.1062,-9.8883
12.0842,18.1583,-19.6332,5.17208,-7.2169,-0.699095,4.20861,-0.628557,1.93842,2.31996,-0.772364,-0.511998,-0.0100417,-0.367681,-1.5799,7.01469,6.71988,15.3795,10.0968,11.1425,-17.6036,3.64161,5.74365,-7.8211,8.27441e-15,1.35174e-14,-25.7528,27.5254,-98.9597,137.092,7.02833,-50.8648,34.7397,7.12502,-23.4189,6.14473,8.27441e-15,1.35174e-14,-31.9499,3.50863,70.1148,143.823,48.0459,-31.14,28.6482,7.12502,-4.4183,58.5821,-15.3398,0.551922,21.6215,33.7365,-12.4202,3.96094,-5.26409,-15.2459,-1.2914,-13.2941,34.911,-7.59318,-9.77683,-9.74047
12.1043,18.1425,-19.6363,5.11385,-7.27644,-0.55651,4.17356,-0.616533,1.82623,2.4088,-0.761839,-0.555084,0.101877,-0.361376,-1.56256,7.17835,6.65341,15.3025,9.75063,11.0354,-17.7084,3.49375,5.69834,-7.85643,-5.36719e-15,-5.76476e-15,-25.6678,27.4609,-98.8634,137.187,6.97377,-50.1847,33.0307,7.12502,-22.7663,4.35408,-5.36719e-15,-5.76476e-15,-31.6481,3.50084,70.0391,143.798,48.4998,-31.3001,28.3138,7.12502,-4.57289,58.2445,-15.3059,0.498846,21.4039,33.8046,-12.566,3.83791,-6.07003,-15.1347,-1.28085,-13.5284,34.8788,-8.0053,-8.97107,-12.6597
12.1266,18.119,-19.6426,5.03883,-7.39506,-0.561786,4.23636,-0.607355,1.81773,2.46069,-0.749143,-0.531996,0.121048,-0.354709,-1.53431,7.17542,6.6609,15.2754,9.70572,11.0453,-17.7853,3.48478,5.7014,-7.87699,-2.95692e-15,1.0138e-14,-25.5879,27.2893,-98.6596,137.062,6.82575,-50.1859,34.1668,7.12502,-22.7675,5.49029,-2.95692e-15,1.0138e-14,-31.4357,3.39276,70.1327,143.644,48.429,-31.2867,27.6767,7.12502,-4.56002,57.6076,-15.3081,0.491156,21.347,33.9678,-12.9149,3.65081,-7.5077,-14.9887,-1.08424,-13.6211,34.8875,-8.25721,-8.69318,-13.9484
12.1464,18.096,-19.6503,5.17576,-7.51143,-0.622915,4.21348,-0.62672,1.84946,2.32627,-0.773087,-0.496956,-0.00508984,-0.368838,-1.5145,7.19482,6.67649,15.3024,9.91161,11.1009,-17.86,3.55683,5.72645,-7.90518,-5.2181e-15,-1.25234e-14,-25.7902,27.2117,-98.6901,137.003,6.66518,-50.0255,35.265,7.12502,-22.6136,6.56969,-5.2181e-15,-1.25234e-14,-31.4975,3.30865,70.1436,143.672,48.266,-31.0649,27.3185,7.12502,-4.3458,57.2539,-15.569,0.679863,21.3643,34.1743,-13.3769,3.36206,-7.47679,-15.1355,-0.76295,-13.6445,34.9715,-8.09076,-9.0875,-10.4371
12.1656,18.0742,-19.6565,5.23621,-7.55137,-0.678734,4.25354,-0.685115,1.86837,2.21868,-0.848238,-0.44389,-0.140365,-0.40866,-1.46621,7.34138,6.68847,15.2212,9.91927,11.136,-17.9275,3.53909,5.74623,-7.91921,-5.76476e-15,5.96354e-15,-26.2455,27.2787,-98.8342,137.068,6.58144,-49.9754,35.37,7.12502,-22.5655,6.66881,-5.76476e-15,5.96354e-15,-31.6645,3.30667,70.162,143.825,48.1962,-31.1612,27.3275,7.12502,-4.43878,57.261,-15.717,0.783819,21.3842,34.4008,-13.9473,3.02367,-7.57118,-15.2343,-0.537169,-13.6655,35.1119,-8.23294,-9.42358,-5.72151
12.1867,18.048,-19.6606,5.14048,-7.63792,-0.893258,4.36135,-0.710548,2.04648,2.25653,-0.873146,-0.354079,-0.163623,-0.420188,-1.47186,7.38004,6.72633,15.123,9.81179,11.172,-17.9133,3.50115,5.76396,-7.8971,-6.70898e-15,9.54166e-15,-26.4505,27.3409,-98.8887,137.15,6.62803,-49.9653,34.7024,7.12502,-22.5558,5.99999,-6.70898e-15,9.54166e-15,-31.6987,3.35438,70.205,143.895,48.5032,-31.2725,27.531,7.12502,-4.54628,57.4622,-15.6688,0.83407,21.5561,34.6493,-14.605,2.79896,-8.66085,-15.1005,-0.28404,-13.5398,35.2766,-9.25999,-9.37355,-6.44547
12.2056,18.0162,-19.6647,5.07309,-7.76344,-1.11006,4.39605,-0.732767,2.20349,2.32766,-0.896402,-0.272089,-0.111758,-0.42991,-1.47485,7.32837,6.80058,15.1107,9.71649,11.2582,-17.9405,3.49789,5.80433,-7.89618,6.63444e-15,-1.95803e-14,-26.2943,27.4706,-98.8816,137.062,6.86551,-50.2149,34.8374,7.12502,-22.7953,6.16425,6.63444e-15,-1.95803e-14,-31.7058,3.48818,70.2686,143.949,48.9078,-30.9975,27.6124,7.12502,-4.28071,57.5491,-15.6824,1.09478,21.7261,34.9151,-15.1486,2.572,-8.81954,-15.0272,-0.0054463,-13.4282,35.4764,-10.3156,-8.98607,-10.5605
12.2232,17.9767,-19.6665,4.97093,-7.92041,-1.16293,4.39724,-0.763629,2.18955,2.45501,-0.939384,-0.227698,0.0175013,-0.449356,-1.42054,7.25099,6.90658,15.0085,9.56083,11.3717,-17.9627,3.4806,5.85478,-7.87536,2.21396e-14,-1.91827e-14,-26.0431,27.6813,-98.8229,136.89,6.96255,-50.4167,34.965,7.12502,-22.989,6.31591,2.21396e-14,-1.91827e-14,-31.7683,3.61246,70.4402,143.966,48.9371,-30.9574,27.2244,7.12502,-4.24197,57.1619,-15.6899,1.39069,21.7109,35.2471,-15.8037,2.35287,-8.39488,-14.9508,0.196269,-13.4957,35.7054,-10.9025,-8.74978,-10.7187
12.2437,17.93,-19.6677,4.94087,-8.05959,-1.22943,4.44831,-0.757973,2.27,2.46578,-0.927859,-0.242591,-0.000780577,-0.442922,-1.48088,7.21288,6.94755,15.0513,9.51111,11.4185,-17.9455,3.48256,5.87838,-7.87181,3.23025e-16,-1.78906e-15,-26.0475,27.6506,-98.9031,136.83,6.87375,-50.302,34.9642,7.12502,-22.879,6.3014,3.23025e-16,-1.78906e-15,-31.9656,3.33427,70.6487,143.922,48.604,-31.3078,26.7094,7.12502,-4.58036,56.6399,-15.8364,1.49765,21.696,35.6983,-16.6536,2.21114,-8.39129,-14.9743,0.380007,-13.5522,35.9622,-11.8041,-8.6828,-10.2932
12.2661,17.8799,-19.6748,4.90023,-8.04301,-1.12985,4.6537,-0.736257,2.23887,2.35562,-0.894363,-0.353428,-0.228262,-0.429358,-1.57533,7.29325,6.87705,15.3503,9.53293,11.3592,-18.029,3.48683,5.86183,-7.95771,-1.64743e-14,-7.55382e-15,-26.4938,27.2177,-99.1884,136.785,6.90314,-50.2887,35.7451,7.12502,-22.8662,7.08073,-1.64743e-14,-7.55382e-15,-32.1674,2.78424,70.8556,143.912,48.2697,-31.4818,26.7514,7.12502,-4.74842,56.6782,-16.141,1.46107,21.5147,36.2877,-17.4121,1.91348,-9.95036,-15.0707,0.476536,-13.7988,36.2594,-13.1571,-8.36276,-13.0893
12.2911,17.8303,-19.6833,4.69531,-8.06718,-0.829338,4.97847,-0.741494,1.96205,2.32156,-0.906224,-0.443979,-0.442278,-0.439429,-1.50814,7.43511,6.82841,15.5051,9.45218,11.3276,-18.2359,3.45279,5.85642,-8.06237,2.43511e-14,5.56597e-15,-27.0309,26.9063,-99.4133,136.701,6.79854,-50.2227,36.1077,7.12502,-22.8029,7.43556,2.43511e-14,5.56597e-15,-32.3102,2.51414,71.1847,143.846,48.0286,-31.575,26.7244,7.12502,-4.83838,56.6492,-16.3919,1.43725,21.0989,37.0175,-18.2227,1.563,-11.8465,-15.0096,0.578996,-14.2999,36.6143,-14.2596,-7.94156,-14.1895
12.3163,17.7786,-19.6947,4.55233,-8.15296,-0.633743,5.28224,-0.768865,1.69881,2.2705,-0.948465,-0.419152,-0.661277,-0.46465,-1.32833,7.67523,6.86144,15.4392,9.16731,11.3723,-18.3468,3.33882,5.89047,-8.09693,-2.94698e-14,-1.17283e-14,-27.2217,26.8384,-99.3887,136.62,6.40578,-49.9884,36.1587,7.12502,-22.578,7.45897,-2.94698e-14,-1.17283e-14,-32.6386,2.41972,71.5915,143.737,47.818,-31.7809,26.2777,7.12502,-5.03719,56.1979,-16.7401,1.47874,20.7774,37.8871,-19.1998,1.49256,-11.232,-15.0709,0.762206,-14.6684,36.9984,-15.1319,-7.67399,-14.7017
12.339,17.7207,-19.7151,4.51713,-8.09544,-0.520687,5.49568,-0.822244,1.52263,2.25345,-1.02418,-0.390484,-0.796905,-0.504648,-1.19248,7.66037,6.89849,15.2886,8.9404,11.3776,-18.2665,3.26322,5.89189,-8.04285,1.4064e-14,1.71949e-14,-27.3356,26.8707,-99.4859,136.418,7.12262,-50.5271,34.0891,7.12502,-23.0949,5.45318,1.4064e-14,1.71949e-14,-32.9478,2.25016,72.0061,143.653,47.5709,-31.9045,25.8826,7.12502,-5.15651,55.7999,-17.2068,1.44191,20.5804,38.841,-20.0438,1.38953,-10.3576,-15.3383,0.803426,-14.9012,37.4348,-16.2212,-7.18211,-18.6285
12.3641,17.6638,-19.7334,4.42416,-8.0745,-0.261661,5.63849,-0.897346,1.27883,2.38293,-1.13587,-0.436153,-0.74333,-0.560363,-1.09471,7.27493,6.9766,15.0665,8.93457,11.4179,-18.1715,3.31551,5.88717,-7.95227,-8.10048e-15,5.06901e-15,-27.2318,26.8373,-99.5291,136.3,7.23857,-50.4675,32.9348,7.12502,-23.0377,4.29176,-8.10048e-15,5.06901e-15,-33.0447,2.16883,72.4934,143.528,47.1892,-31.9679,25.713,7.12502,-5.21778,55.6288,-17.674,1.21904,20.2116,39.8141,-20.7749,1.27192,-10.2433,-15.5552,0.752382,-15.3315,37.9869,-17.2987,-6.57077,-22.0077
12.3906,17.6057,-19.7459,4.24923,-8.13727,-0.0848057,5.86709,-0.948629,1.11293,2.50613,-1.21101,-0.456034,-0.743101,-0.59817,-1.01481,7.24347,7.05115,14.9096,8.70352,11.48,-18.1884,3.25596,5.91451,-7.92602,-3.85891e-14,-1.5704e-14,-27.1354,26.8379,-99.5408,136.342,6.9134,-50.0263,32.5255,7.12502,-22.6143,3.83025,-3.85891e-14,-1.5704e-14,-33.1888,2.10799,73.0384,143.353,46.7702,-31.9528,25.9756,7.12502,-5.20311,55.8918,-18.0458,1.08778,19.9157,40.7408,-21.6712,1.23989,-9.14981,-15.7353,0.708787,-15.6837,38.663,-18.094,-6.34019,-21.6529
12.4149,17.532,-19.7593,4.09033,-8.04157,-0.144622,6.11923,-1.00092,1.15701,2.56439,-1.27495,-0.409516,-0.824806,-0.630273,-0.983803,7.58752,7.01414,14.9277,8.25739,11.4235,-18.3047,3.06521,5.90954,-7.98833,-2.56681e-14,9.83984e-15,-27.4,26.6062,-99.6958,136.344,6.795,-49.7028,31.9042,7.12502,-22.3038,3.17144,-2.56681e-14,9.83984e-15,-33.4842,1.91835,73.5469,143.15,46.6156,-31.9061,26.0772,7.12502,-5.15805,55.9944,-18.3353,1.08595,19.9281,41.5965,-22.63,0.921362,-8.13094,-16.0255,0.567897,-15.7119,39.461,-18.9821,-6.23839,-20.7032
12.4399,17.4617,-19.77,3.99032,-7.90701,-0.210882,6.22996,-1.04706,1.22805,2.65233,-1.33072,-0.364743,-0.797781,-0.657343,-0.972819,7.70831,6.94038,14.9542,8.02438,11.3142,-18.3714,2.96262,5.86528,-8.02759,2.72087e-14,-6.75868e-15,-27.6738,26.409,-99.8177,136.169,6.9877,-50.0027,31.2864,7.12502,-22.5917,2.58834,2.72087e-14,-6.75868e-15,-33.7083,1.64989,74.0699,142.944,46.6281,-32.0124,26.03,7.12502,-5.26069,55.9447,-18.6588,1.01789,19.9502,42.4134,-23.4947,0.558915,-7.22479,-16.3816,0.44835,-15.7114,40.3433,-20.0336,-6.1949,-19.9307
12.4645,17.4055,-19.7803,3.90878,-7.8353,-0.180633,6.38708,-1.04606,1.24035,2.74913,-1.32732,-0.374144,-0.785799,-0.655015,-0.987819,7.49231,6.89298,15.0386,8.02791,11.2367,-18.4329,2.99389,5.81859,-8.05629,-7.15625e-15,1.39149e-14,-27.5448,26.1675,-99.7628,135.981,6.94926,-50.0388,31.1779,7.12502,-22.6263,2.4841,-7.15625e-15,1.39149e-14,-33.6988,1.21325,74.6933,142.665,46.4156,-32.1735,26.334,7.12502,-5.41621,56.2447,-19.0068,0.937,19.8613,43.2708,-24.4252,0.372914,-5.93317,-16.7752,0.419861,-15.8073,41.2397,-20.7095,-6.6548,-17.4142
12.4885,17.3418,-19.7953,3.73915,-7.71612,0.0286962,6.71384,-1.0615,1.09763,2.82945,-1.35405,-0.457998,-0.88391,-0.66907,-0.986858,7.28414,6.86961,15.1864,7.9463,11.1904,-18.5407,3.01075,5.7904,-8.10995,-1.31695e-14,-1.17283e-14,-27.3993,25.8495,-99.8221,135.91,6.61365,-49.427,31.2098,7.12502,-22.039,2.44556,-1.31695e-14,-1.17283e-14,-33.7086,0.715459,75.3131,142.402,46.1798,-32.2394,26.7831,7.12502,-5.47987,56.6922,-19.3437,0.823121,19.5967,44.2705,-25.4518,0.22106,-4.8841,-17.1274,0.347957,-16.0806,42.0615,-21.3095,-6.75309,-18.4617
12.5124,17.2747,-19.8098,3.44881,-7.64409,0.170537,7.1155,-1.11004,1.02558,2.93812,-1.42083,-0.547609,-0.996783,-0.702596,-1.02706,7.19842,6.86915,15.1963,7.76566,11.1543,-18.4821,2.96405,5.77206,-8.0898,-3.70236e-15,1.15295e-14,-27.6602,25.6227,-100.154,135.882,6.35717,-48.9952,30.9715,7.12502,-21.6244,2.15899,-3.70236e-15,1.15295e-14,-33.8804,0.324028,75.7893,142.222,46.1534,-32.3048,27.7637,7.12502,-5.54299,57.6712,-19.6402,0.773743,19.4296,45.4486,-26.4213,-0.111871,-4.67172,-17.2606,0.327573,-16.2766,42.7715,-22.1902,-6.30986,-23.3363
12.5351,17.2153,-19.8228,3.18225,-7.62631,0.281008,7.45769,-1.15688,0.979722,3.01679,-1.4845,-0.621887,-1.10755,-0.734574,-1.06673,7.20358,6.82725,15.1279,7.74919,11.0788,-18.3366,2.93383,5.73444,-8.03411,3.6303e-14,-1.53064e-14,-27.8385,25.4028,-100.341,135.944,5.95991,-48.0974,30.1022,7.12502,-20.762,1.19291,3.6303e-14,-1.53064e-14,-34.2024,-0.0448567,76.213,142.015,46.0566,-32.5159,28.8524,7.12502,-5.74683,58.7544,-20.0284,0.8304,19.3183,46.7853,-27.2057,-0.739465,-5.5783,-17.3267,0.370769,-16.4237,43.4002,-22.87,-6.77817,-23.8757
12.5557,17.1559,-19.8377,3.04189,-7.59835,0.743875,7.57011,-1.15584,0.57175,3.08741,-1.51329,-0.762128,-1.09126,-0.750384,-0.978296,7.22153,6.74693,15.1479,7.83811,10.9824,-18.348,2.94093,5.68647,-8.04772,4.47266e-16,-9.54166e-15,-27.7834,25.0713,-100.244,136.063,5.27014,-46.4454,29.045,7.12502,-19.174,-0.0297871,4.47266e-16,-9.54166e-15,-34.4669,-0.492079,76.7242,141.649,45.8752,-32.9293,28.9734,7.12502,-6.14595,58.8642,-20.6948,0.832082,18.8002,48.2028,-27.7206,-1.42887,-7.68225,-17.5847,0.333745,-16.9454,43.9917,-23.5674,-7.03954,-23.8571
12.5741,17.092,-19.8535,2.95296,-7.55644,1.15473,7.64656,-1.12884,0.231467,3.18223,-1.50327,-0.896657,-1.03062,-0.746495,-0.926293,6.9978,6.70185,15.2501,7.98281,10.9229,-18.4014,3.01815,5.64661,-8.07579,-2.47238e-14,9.34288e-15,-27.9997,24.7054,-100.347,135.968,5.29035,-46.052,28.2186,7.12502,-18.7957,-0.893331,-2.47238e-14,9.34288e-15,-34.5138,-0.98255,77.2948,141.152,45.8522,-33.349,28.9177,7.12502,-6.55117,58.7964,-21.4951,0.761605,18.3128,49.6409,-27.9429,-1.8036,-9.49074,-17.9721,0.302875,-17.3902,44.6008,-24.118,-7.16612,-23.8703
12.5926,17.0318,-19.8665,2.86278,-7.49113,1.06706,7.82873,-1.16063,0.371877,3.23658,-1.53448,-0.846477,-1.07802,-0.76136,-0.947751,6.8779,6.6639,15.2152,8.06504,10.8676,-18.4361,3.05177,5.61085,-8.07931,5.34234e-15,1.54058e-14,-28.1923,24.912,-100.673,135.608,6.49693,-47.8506,26.4178,7.12502,-20.5248,-2.51725,5.34234e-15,1.54058e-14,-34.6029,-1.33297,77.9779,140.765,45.8813,-33.6874,29.949,7.12502,-6.87784,59.8172,-22.2271,0.778199,18.372,51.0939,-28.0139,-1.7262,-8.67878,-18.286,0.359283,-17.2712,45.2337,-24.5958,-7.2422,-24.0504
12.6115,16.9762,-19.8799,2.74734,-7.48325,0.862239,8.03233,-1.19771,0.600737,3.29294,-1.56433,-0.72657,-1.13549,-0.775384,-0.946612,7.04977,6.60971,15.0905,7.96591,10.8018,-18.5564,2.98064,5.58308,-8.11065,7.42958e-15,-1.88845e-15,-27.9807,24.9987,-100.642,135.638,4.85786,-45.5428,23.9428,7.12502,-18.3059,-5.21582,7.42958e-15,-1.88845e-15,-34.8111,-1.61351,78.665,140.529,45.9404,-34.1959,31.5587,7.12502,-7.36867,61.4103,-22.9515,0.86938,18.544,52.5994,-28.0385,-1.65964,-7.54821,-18.4762,0.511537,-17.0392,45.8564,-25.1474,-7.29617,-23.8508
12.6292,16.927,-19.8948,2.55444,-7.53646,1.01051,8.2914,-1.15613,0.498049,3.39562,-1.51613,-0.728984,-1.1689,-0.751884,-0.891815,7.06307,6.57742,15.074,7.87546,10.7604,-18.7287,2.95172,5.56262,-8.16899,-6.06293e-15,-1.3418e-14,-28.1122,25.0867,-100.622,135.403,4.12915,-44.949,22.9946,7.12502,-17.7346,-6.21665,-6.06293e-15,-1.3418e-14,-34.9787,-2.07881,79.289,140.312,46.2514,-35.1019,33.2262,7.12502,-8.24308,63.0454,-23.7393,0.816622,18.2713,54.189,-27.9178,-1.5234,-8.35076,-18.5936,0.708797,-17.2315,46.4069,-25.6561,-7.36958,-23.5837
12.6449,16.8833,-19.9068,2.40724,-7.57671,1.25973,8.40611,-1.09357,0.286869,3.56493,-1.44928,-0.748002,-1.05144,-0.719404,-0.798889,6.81297,6.59451,15.0362,7.89597,10.7644,-18.8224,3.00276,5.55027,-8.1824,4.88513e-14,-1.55052e-14,-28.2221,25.1785,-100.574,135.222,3.87335,-45.3944,22.858,7.12502,-18.1631,-6.31393,4.88513e-14,-1.55052e-14,-35.0027,-2.52114,79.9727,140.039,46.5809,-35.9636,35.2762,7.12502,-9.07463,65.061,-24.6266,0.663491,17.8463,55.8358,-27.6155,-1.02605,-9.68705,-18.7301,0.950002,-17.5464,46.8362,-26.2236,-7.52788,-23.4704
12.6588,16.841,-19.9171,2.40741,-7.66041,1.38085,8.37033,-1.07206,0.203575,3.69211,-1.42685,-0.749925,-0.898133,-0.708499,-0.758434,6.71639,6.63869,14.9482,7.8145,10.8006,-18.8445,2.99821,5.56218,-8.16824,-3.85145e-16,1.16289e-14,-28.2152,24.9773,-100.557,135.409,2.42184,-42.592,20.8281,7.12502,-15.4654,-8.57323,-3.85145e-16,1.16289e-14,-35.0874,-2.66497,80.5338,139.729,46.7062,-36.4314,37.4571,7.12502,-9.52611,67.2218,-25.6737,0.580124,17.5156,57.5021,-27.0953,-0.206379,-9.57859,-18.9214,1.22165,-17.7287,47.1423,-26.8982,-7.6519,-23.0226
12.6717,16.8107,-19.9267,2.37118,-7.739,1.49129,8.47959,-1.08934,0.184335,3.72155,-1.45216,-0.796284,-0.928987,-0.721047,-0.791318,6.76315,6.70607,14.966,7.79222,10.8971,-18.8609,3.00323,5.61271,-8.17325,1.758e-14,-1.56543e-14,-28.3083,24.7908,-100.634,135.396,1.54189,-39.9436,18.2621,7.12502,-12.9134,-11.3183,1.758e-14,-1.56543e-14,-35.2977,-2.773,80.9553,139.419,46.866,-36.71,39.3628,7.12502,-9.79484,69.115,-26.6763,0.52629,17.1406,59.1084,-26.4688,0.691559,-8.78107,-18.9943,1.32083,-17.9167,47.3243,-27.3624,-7.57213,-22.4935
12.6816,16.782,-19.9401,2.29041,-7.82446,1.70344,8.59863,-1.07609,0.0523367,3.79436,-1.44598,-0.858405,-0.917578,-0.718726,-0.780384,6.5797,6.79956,14.9352,7.98752,11.023,-18.8034,3.10919,5.66214,-8.13265,-2.33945e-14,-5.91384e-15,-28.0997,24.8828,-100.479,135.215,0.943584,-38.7878,16.6189,7.12502,-11.799,-13.0287,-2.33945e-14,-5.91384e-15,-35.402,-2.973,81.4351,139.174,47.2588,-36.7939,40.7209,7.12502,-9.87583,70.4693,-27.6515,0.513759,16.6476,60.6241,-25.932,1.31374,-10.3185,-18.9967,1.34975,-18.204,47.4088,-27.4963,-7.4662,-22.0802
12.6879,16.7468,-19.9567,2.27187,-7.90829,2.02426,8.66039,-1.05463,-0.18883,3.85138,-1.43799,-0.951271,-0.889045,-0.716414,-0.740956,6.3006,6.87638,14.7688,8.16378,11.1006,-18.6761,3.20575,5.68025,-8.04385,6.42323e-15,1.31695e-14,-27.9193,25.0983,-100.363,135.032,0.245513,-38.604,16.2105,7.12502,-11.6218,-13.4472,6.42323e-15,1.31695e-14,-35.5171,-3.14345,81.8104,138.931,47.7389,-37.1123,42.0903,7.12502,-10.183,71.8239,-28.6862,0.514547,16.0248,62.0332,-25.3666,1.74754,-12.8249,-19.0697,1.38542,-18.5963,47.4357,-27.6716,-7.38785,-21.9714
12.696,16.7235,-19.9684,2.1948,-7.81973,2.22786,8.8103,-1.03926,-0.207675,3.86628,-1.42214,-1.07583,-0.958529,-0.707782,-0.857562,6.24206,6.78875,14.8873,8.31657,10.993,-18.6077,3.24416,5.6261,-8.04506,1.6201e-14,-1.44119e-15,-28.0639,25.157,-100.556,134.889,-0.492732,-38.2807,16.116,7.12502,-11.31,-13.559,1.6201e-14,-1.44119e-15,-35.611,-3.50426,82.0577,138.512,48.0424,-37.1599,44.3458,7.12502,-10.2289,74.0771,-29.4607,0.439017,15.4844,63.219,-24.8564,2.22239,-14.95,-19.0672,1.23945,-18.8756,47.4548,-27.9721,-7.3069,-21.6141
12.7031,16.7126,-19.9762,2.03621,-7.6632,2.32446,8.8992,-1.09422,-0.132646,4.04556,-1.48862,-1.10463,-0.825605,-0.739736,-0.923598,6.16335,6.73752,14.8871,8.33246,10.9178,-18.6375,3.24995,5.58439,-8.05614,-2.36057e-15,1.14301e-15,-28.0189,25.5662,-100.707,134.55,-0.45736,-39.1724,16.001,7.12502,-12.1699,-13.625,-2.36057e-15,1.14301e-15,-35.5907,-3.72587,82.463,138.294,48.7457,-36.8192,46.0992,7.12502,-9.90022,75.8464,-29.9604,0.376875,15.0458,64.1471,-24.4682,2.7609,-17.4567,-18.971,1.01637,-19.0297,47.5023,-28.1554,-7.24593,-20.9887
12.7011,16.7054,-19.9851,1.87556,-7.48711,2.23136,9.01221,-1.15062,0.0440554,4.23992,-1.54756,-1.05361,-0.690756,-0.767105,-0.964914,6.10753,6.70746,14.9331,8.30476,10.8786,-18.7551,3.25255,5.56263,-8.10348,-2.2003e-14,5.91384e-15,-27.832,25.7655,-100.666,134.17,-0.460312,-39.0316,15.4092,7.12502,-12.0341,-14.2248,-2.2003e-14,5.91384e-15,-35.6791,-4.01547,82.9472,138.481,50.2555,-37.453,46.4794,7.12502,-10.5116,76.1965,-30.3163,0.440618,14.855,64.8566,-24.0979,3.16518,-19.5589,-18.8759,0.874293,-18.9073,47.545,-28.1466,-7.2528,-21.2406
12.692,16.7084,-19.9954,1.82824,-7.32515,1.99086,9.17411,-1.1599,0.319845,4.28805,-1.53629,-0.973898,-0.734444,-0.758699,-1.03598,6.18673,6.63929,15.0985,8.33626,10.8109,-18.8172,3.24828,5.53694,-8.16053,-4.36084e-15,-3.06128e-14,-28.0739,25.5962,-100.767,133.984,-0.428413,-38.6418,15.0167,7.12502,-11.6582,-14.639,-4.36084e-15,-3.06128e-14,-35.7588,-4.36519,83.3729,138.488,51.5169,-38.0709,46.9595,7.12502,-11.1076,76.6456,-30.684,0.658944,14.8511,65.3975,-23.9779,3.42876,-21.1861,-18.876,0.856236,-18.577,47.5356,-27.9993,-7.34826,-21.9537
12.6788,16.722,-20.0058,1.79765,-7.18827,2.04401,9.30998,-1.15174,0.3175,4.28348,-1.52583,-0.986959,-0.813724,-0.753526,-1.04637,6.28525,6.58335,15.1941,8.41824,10.7548,-18.7572,3.24768,5.51659,-8.16464,1.66917e-14,-2.98177e-16,-28.3899,25.4693,-100.933,133.915,-0.248714,-38.7145,15.2134,7.12502,-11.7284,-14.4382,1.66917e-14,-2.98177e-16,-35.8141,-4.68301,83.6894,138.228,52.1989,-37.6601,47.9297,7.12502,-10.7114,77.6367,-31.0813,0.784859,14.5352,65.8337,-24.0344,3.57645,-22.2259,-18.8566,0.873228,-18.5627,47.43,-27.8542,-7.49342,-22.5354
12.6615,16.7359,-20.0179,1.68289,-6.90158,2.23203,9.44069,-1.22419,0.220632,4.32311,-1.63056,-1.0447,-0.845541,-0.806294,-1.03892,6.37833,6.59719,15.1379,8.57805,10.7852,-18.5812,3.27248,5.53409,-8.0983,2.99668e-14,-3.97569e-16,-28.1638,25.7317,-100.967,133.796,-0.117109,-38.7995,15.3453,7.12502,-11.8103,-14.3017,2.99668e-14,-3.97569e-16,-35.9231,-4.89694,83.8085,138.094,52.7994,-37.2937,48.6811,7.12502,-10.358,78.4059,-31.3103,0.732295,14.0955,66.1504,-24.053,3.19667,-22.3035,-18.7148,0.767318,-18.6733,47.1968,-27.6077,-7.70429,-22.6286
12.6428,16.7547,-20.0281,1.61808,-6.47459,2.1113,9.52084,-1.32264,0.440011,4.35226,-1.74087,-0.996241,-0.866289,-0.85889,-1.09958,6.47504,6.52503,15.2237,8.83768,10.728,-18.5303,3.32365,5.50985,-8.10437,-7.06928e-15,9.91439e-15,-27.9647,25.8483,-100.991,133.606,0.0201249,-38.9793,16.3058,7.12502,-11.9837,-13.3311,-7.06928e-15,9.91439e-15,-36.0233,-5.22235,83.9829,137.984,53.2706,-38.0867,49.0886,7.12502,-11.1229,78.7738,-31.3354,0.696416,14.0086,66.2684,-24.0108,2.16427,-22.7048,-18.5448,0.538808,-18.4293,46.8041,-27.0913,-7.91094,-21.9294
12.621,16.7876,-20.035,1.54117,-6.12478,1.89583,9.62933,-1.33996,0.680044,4.40996,-1.74016,-0.873043,-0.868966,-0.856331,-1.10566,6.29213,6.38692,15.3256,9.2079,10.566,-18.5061,3.43739,5.41941,-8.11688,6.57154e-15,-3.27995e-15,-28.0979,25.9567,-101.03,133.735,0.152191,-38.9579,15.7088,7.12502,-11.9631,-13.9294,6.57154e-15,-3.27995e-15,-35.9149,-5.81082,84.3894,137.692,53.5815,-39.3384,48.4577,7.12502,-12.33,78.0741,-31.2057,0.74817,14.0242,66.1899,-23.73,0.947806,-23.1235,-18.2591,0.376014,-18.0924,46.2378,-26.5717,-8.08756,-21.719
12.5916,16.8337,-20.0401,1.37237,-5.93181,1.94011,9.83732,-1.3165,0.534403,4.53281,-1.71854,-0.758261,-0.847357,-0.847799,-0.904737,5.90379,6.4311,15.0881,9.53847,10.5908,-18.2661,3.58022,5.40428,-7.97799,-1.48467e-14,-7.55382e-15,-27.9597,26.14,-100.763,133.805,-0.237656,-38.6507,15.5474,7.12502,-11.6668,-14.1077,-1.48467e-14,-7.55382e-15,-35.696,-6.06571,84.7055,137.831,54.1246,-38.9303,48.9949,7.12502,-11.9364,78.6346,-30.9668,0.963116,13.7498,65.981,-23.3539,-0.241775,-21.0314,-17.764,0.376364,-18.0316,45.5259,-26.2013,-8.33091,-22.2712
12.5588,16.8845,-20.0437,1.2788,-5.6509,1.91781,9.96971,-1.37544,0.508419,4.64154,-1.79621,-0.662044,-0.804718,-0.88724,-0.781241,5.68819,6.55113,14.9662,9.77716,10.7414,-18.1172,3.70019,5.46315,-7.88909,-7.24322e-15,1.54058e-14,-27.6803,26.2693,-100.47,133.813,-0.39904,-38.3829,16.3108,7.12502,-11.4086,-13.3588,-7.24322e-15,1.54058e-14,-35.6512,-6.13768,84.8553,138.03,54.6596,-38.2392,49.3723,7.12502,-11.27,79.0495,-30.72,1.15696,13.5573,65.6615,-23.1247,-1.40594,-17.0657,-17.2764,0.301814,-17.8733,44.7138,-25.7543,-8.57805,-22.3259
12.526,16.9318,-20.0491,1.28235,-5.16119,1.72806,9.76297,-1.49832,0.798517,4.87997,-1.93325,-0.605205,-0.45419,-0.949962,-0.88041,5.54041,6.56052,15.0702,9.8624,10.7498,-18.1017,3.75705,5.46302,-7.89491,3.30852e-14,-2.25621e-14,-27.4925,26.2594,-100.474,133.864,0.303257,-38.7815,16.8845,7.12502,-11.7929,-12.7635,3.30852e-14,-2.25621e-14,-35.3021,-6.39259,84.8096,138.055,54.9002,-38.0502,49.0357,7.12502,-11.0877,78.7228,-30.4479,1.13504,13.5527,65.236,-22.7452,-2.60162,-14.2148,-16.9175,-0.00199584,-17.5419,43.8537,-25.1663,-8.7248,-22.1177
12.4895,16.9826,-20.0529,1.26877,-4.67098,1.71698,9.42557,-1.57453,0.867303,5.14777,-2.03032,-0.550836,0.00555348,-0.994858,-0.867426,5.4176,6.48054,15.0494,9.88875,10.625,-18.0691,3.76061,5.39547,-7.88324,-4.30617e-14,7.65321e-15,-27.2895,26.18,-100.45,133.72,1.5522,-40.756,18.2112,7.12502,-13.6965,-11.3181,-4.30617e-14,7.65321e-15,-34.808,-6.79933,84.8692,138.033,54.7595,-38.0524,48.7631,7.12502,-11.0898,78.4501,-30.0947,1.11521,13.348,64.7051,-21.9906,-3.85368,-12.3858,-16.5332,-0.433276,-17.4189,42.9594,-24.5636,-8.74729,-22.0291
12.4495,17.0419,-20.0533,1.24864,-4.32564,1.71265,9.41717,-1.59844,0.874129,5.13371,-2.06008,-0.46846,-0.0023277,-1.01045,-0.783564,5.52084,6.35521,15.0747,10.0748,10.4877,-18.0661,3.7741,5.33128,-7.90108,1.50331e-14,5.26779e-15,-27.1869,26.4908,-100.347,133.659,1.77696,-40.3933,18.2546,7.12502,-13.3469,-11.2979,1.50331e-14,5.26779e-15,-34.8493,-7.23042,85.0449,138.157,54.5642,-38.0314,48.7795,7.12502,-11.0696,78.4676,-29.7195,1.24968,13.1512,64.0539,-21.0505,-4.95223,-10.3863,-16.0924,-0.869682,-17.2949,42.0519,-24.0411,-8.71431,-21.8299
12.4088,17.1009,-20.054,1.23053,-4.01218,1.63007,9.63599,-1.63392,0.983197,5.03044,-2.09439,-0.410465,-0.231265,-1.02735,-0.773391,5.50928,6.34552,15.1796,10.3753,10.5035,-17.9673,3.86858,5.34044,-7.886,-3.95085e-15,2.18663e-15,-27.0604,26.6594,-100.231,133.972,1.19952,-40.0059,18.7743,7.12502,-12.9735,-10.8023,-3.95085e-15,2.18663e-15,-35.0195,-7.55437,85.049,138.269,54.3833,-37.5508,48.3657,7.12502,-10.606,78.0781,-29.3137,1.37974,13.0419,63.3138,-20.0156,-5.66708,-7.73727,-15.6494,-1.2724,-17.0857,41.1279,-23.6175,-8.77451,-21.5541
12.3673,17.1557,-20.0556,1.31034,-3.58561,1.4651,9.7223,-1.68495,1.12876,4.98157,-2.14585,-0.259353,-0.329466,-1.05257,-0.690648,5.21428,6.43796,15.0891,10.7195,10.6168,-17.7763,4.02694,5.3788,-7.7883,-2.03754e-14,-8.34896e-15,-27.0365,26.6949,-100.066,134.289,0.696852,-40.1263,18.8321,7.12502,-13.0895,-10.7371,-2.03754e-14,-8.34896e-15,-34.9946,-7.78032,85.1076,138.468,54.1215,-37.0791,47.8085,7.12502,-10.1509,77.5436,-28.9277,1.32223,13.0245,62.4968,-18.7621,-6.18736,-4.95786,-15.3472,-1.67917,-16.7775,40.2016,-22.9721,-8.88018,-21.2997
12.3251,17.2103,-20.0592,1.37003,-3.15621,1.35387,9.66223,-1.67037,1.29475,4.99452,-2.11131,-0.135238,-0.283507,-1.03331,-0.661172,5.06237,6.39672,14.9969,10.9638,10.5491,-17.572,4.09859,5.33711,-7.70322,-3.68249e-14,2.38542e-15,-27.1039,26.5647,-99.8759,134.443,1.11573,-41.0976,18.8856,7.12502,-14.0256,-10.6212,-3.68249e-14,2.38542e-15,-34.8863,-8.19439,85.225,138.824,53.7087,-36.6785,47.3516,7.12502,-9.76442,77.1052,-28.4512,1.25906,12.9616,61.5977,-17.4746,-6.64026,-2.53648,-15.0586,-2.09401,-16.5289,39.3221,-22.0063,-8.88112,-21.9387
12.2776,17.2674,-20.0647,1.39854,-2.91057,1.46287,9.57798,-1.60111,1.2757,5.0086,-2.02223,-0.138763,-0.220506,-0.988503,-0.665565,5.25577,6.23832,15.0865,11.0268,10.3555,-17.4929,4.05143,5.25623,-7.71285,-1.35174e-14,2.14687e-14,-27.124,26.1343,-99.7112,134.663,0.79855,-40.6331,20.0366,7.12502,-13.578,-9.50059,-1.35174e-14,2.14687e-14,-34.7902,-8.56881,85.1619,139.022,53.0853,-36.1502,46.8209,7.12502,-9.25477,76.5978,-28.008,1.49212,12.6623,60.6395,-16.3852,-6.78301,1.2658,-14.7488,-2.43738,-16.5275,38.5107,-21.1377,-8.79375,-23.0169
12.2237,17.3257,-20.0699,1.51084,-2.6066,1.43565,9.56132,-1.59952,1.30004,4.93675,-2.01628,-0.0567578,-0.283678,-0.986431,-0.594461,5.32934,6.11554,15.1454,11.1791,10.2213,-17.5474,4.06547,5.19323,-7.75445,1.48095e-14,-1.19271e-15,-26.8101,26.1269,-99.5461,134.753,0.877831,-40.2687,19.8753,7.12502,-13.2268,-9.68507,1.48095e-14,-1.19271e-15,-34.7576,-8.73065,85.0743,139.093,52.4088,-35.5297,45.9449,7.12502,-8.65601,75.7475,-27.6469,1.69366,12.5591,59.5723,-15.0557,-6.96072,6.2194,-14.5763,-2.76227,-16.3272,37.7792,-20.378,-8.73669,-23.299
12.171,17.3743,-20.0734,1.57411,-2.12638,1.25389,9.52014,-1.63472,1.52648,4.91635,-2.04256,0.0620338,-0.285909,-0.996828,-0.59715,5.27741,6.00521,15.1672,11.3443,10.0798,-17.5005,4.09715,5.12191,-7.75067,5.61567e-15,0,-26.7151,25.9726,-99.3188,134.811,1.04341,-40.3684,20.4131,7.12502,-13.3229,-9.14102,5.61567e-15,0,-34.4945,-8.99533,85.0134,139.119,51.5891,-34.6644,44.4869,7.12502,-7.82086,74.3222,-27.1029,1.52209,12.6687,58.392,-13.4442,-7.52474,7.38551,-14.3931,-3.10563,-15.9327,37.1268,-19.6382,-8.74288,-23.3316
12.1179,17.4162,-20.0769,1.60394,-1.71845,1.02455,9.39381,-1.61636,1.82857,4.95984,-1.99502,0.172863,-0.17624,-0.96792,-0.661116,5.39678,5.90354,15.1135,11.2538,9.9211,-17.2921,4.01077,5.05436,-7.68418,-3.37934e-15,9.14409e-15,-26.6492,25.5241,-99.1253,134.956,1.17126,-40.3004,21.226,7.12502,-13.2574,-8.3324,-3.37934e-15,9.14409e-15,-34.0787,-9.44781,84.9381,139.035,50.6293,-34.2407,42.8345,7.12502,-7.4119,72.6847,-26.4403,1.35333,12.8367,57.1447,-12.5222,-7.72141,5.46479,-14.2004,-3.35634,-15.497,36.5494,-19.0234,-8.74465,-23.7275
12.0607,17.4621,-20.0794,1.65659,-1.36963,0.876201,9.47271,-1.584,2.10228,4.87667,-1.92577,0.203688,-0.311032,-0.930255,-0.785731,5.21694,5.88185,15.0942,11.4607,9.87098,-17.0631,4.08364,5.02494,-7.60094,1.3418e-14,-1.49089e-14,-26.774,25.1457,-99.2172,135.127,1.43299,-40.4689,21.4526,7.12502,-13.4198,-8.09518,1.3418e-14,-1.49089e-14,-33.9324,-9.93529,84.7042,139.12,50.0652,-34.3534,41.5646,7.12502,-7.5207,71.4109,-25.7623,1.37737,12.9099,55.8491,-12.5664,-7.10705,6.57556,-14.0774,-3.57868,-15.1369,36.0134,-18.35,-8.75642,-24.1343
12.0036,17.5068,-20.0805,1.74121,-1.00693,1.04878,9.19443,-1.56958,1.97571,4.9935,-1.92538,0.18796,-0.0344079,-0.928813,-0.740632,4.83866,5.9201,15.1355,11.6821,9.90064,-17.0084,4.21884,5.02363,-7.575,1.83876e-14,-5.76476e-15,-26.2604,25.4534,-98.9485,135.173,1.29116,-41.4254,21.8528,7.12502,-14.3416,-7.63186,1.83876e-14,-5.76476e-15,-33.4258,-9.95495,84.2679,139.207,49.4016,-33.8566,41.0459,7.12502,-7.04117,70.9088,-25.1538,1.33823,12.6166,54.5293,-12.791,-6.09125,6.70523,-14.0067,-3.80267,-15.132,35.5121,-17.572,-8.77107,-24.0856
11.9438,17.5478,-20.0845,1.82,-0.689372,1.33113,8.89869,-1.53828,1.70409,5.07476,-1.91255,0.149106,0.218848,-0.924536,-0.639111,5.08148,5.85368,15.14,11.497,9.80627,-16.9027,4.10226,4.99371,-7.55329,2.27608e-14,-6.36111e-15,-25.751,25.6929,-98.6343,135.143,0.973935,-42.1779,22.3643,7.12502,-15.0665,-7.06739,2.27608e-14,-6.36111e-15,-33.0356,-9.90522,83.8702,139.221,48.4313,-33.0404,40.756,7.12502,-6.25317,70.6437,-24.5789,1.29487,12.2171,53.2174,-12.9874,-4.84804,2.60358,-13.9785,-3.95271,-15.2271,35.0653,-16.6988,-8.7927,-24.0999
11.8777,17.5873,-20.0898,1.8762,-0.374866,1.37801,9.35438,-1.49228,1.773,4.63402,-1.83086,0.0930354,-0.489474,-0.889009,-0.723724,5.52794,5.69469,15.1939,11.6881,9.63492,-16.6183,4.04536,4.938,-7.49519,3.63776e-14,-7.95139e-16,-26.4652,25.3042,-98.9515,135.258,0.777887,-42.2285,23.273,7.12502,-15.1153,-6.15507,3.63776e-14,-7.95139e-16,-33.5912,-10.3699,83.724,139.438,47.9062,-32.9383,40.1432,7.12502,-6.15463,70.0338,-23.9054,1.30574,12.1494,51.9614,-13.1185,-3.7276,-1.54091,-14.007,-4.08039,-15.0067,34.7014,-15.8884,-8.88202,-24.0277
11.8131,17.6176,-20.0914,1.95215,0.0100983,1.21378,8.88798,-1.45187,1.81621,4.89641,-1.78539,0.293811,0.0442414,-0.862329,-0.561438,5.18098,5.65719,15.1292,11.6462,9.54455,-16.6815,4.07511,4.87509,-7.49748,2.48481e-15,1.11319e-14,-26.02,25.3549,-98.5946,135.532,0.735171,-41.8225,22.0481,7.12502,-14.7241,-7.40903,2.48481e-15,1.11319e-14,-32.9034,-10.5569,83.6992,139.574,47.47,-33.0714,39.5396,7.12502,-6.28317,69.4264,-23.1875,1.17766,12.3935,50.8186,-13.1265,-3.46942,-5.66935,-14.0878,-4.18948,-14.5737,34.4594,-15.4254,-9.04118,-23.8056
11.7517,17.6333,-20.0921,2.04475,0.314408,1.04323,8.65957,-1.41236,2.08744,4.93502,-1.71867,0.354477,0.205749,-0.822892,-0.662943,4.91626,5.61369,15.1002,11.7914,9.46064,-16.5912,4.14379,4.82271,-7.45854,-1.17283e-14,-3.97569e-16,-25.5876,25.3498,-98.5733,135.688,1.02232,-42.5627,21.01,7.12502,-15.4372,-8.39354,-1.17283e-14,-3.97569e-16,-32.5866,-10.6695,83.4398,139.807,46.9335,-32.7892,39.0606,7.12502,-6.01068,68.9553,-22.5372,0.991823,12.6833,49.7891,-13.1647,-3.78171,-9.40066,-14.2087,-4.12414,-14.1722,34.3438,-15.3101,-8.81929,-26.7221
11.6866,17.6456,-20.0971,2.15025,0.643506,0.984847,8.42862,-1.38886,2.16686,4.99804,-1.6886,0.413239,0.398361,-0.804721,-0.655941,4.9284,5.57507,15.0727,11.6537,9.39457,-16.5869,4.08796,4.79162,-7.45544,-1.83876e-14,5.96354e-15,-24.9466,25.1568,-98.2563,135.586,0.492505,-42.44,21.591,7.12502,-15.319,-7.82163,-1.83876e-14,5.96354e-15,-32.2209,-10.5606,83.1288,139.98,46.4665,-32.5675,38.7836,7.12502,-5.79667,68.6843,-21.8774,0.747137,12.8813,48.7997,-13.2564,-3.92577,-11.628,-14.4452,-4.04343,-13.8488,34.318,-14.7111,-9.25444,-26.0495
11.6206,17.6668,-20.1011,2.18521,1.12392,0.955758,8.30456,-1.45539,2.22707,5.01554,-1.77569,0.449676,0.48181,-0.846295,-0.6485,5.16948,5.54545,15.1187,11.4208,9.36238,-16.6131,3.97581,4.79022,-7.4807,8.64713e-15,-7.15625e-15,-24.916,25.1538,-98.1095,135.525,0.319346,-42.4374,22.0616,7.12502,-15.3165,-7.35125,8.64713e-15,-7.15625e-15,-32.0294,-10.3721,82.7639,140.083,46.004,-32.7536,38.2641,7.12502,-5.97631,68.1598,-21.0942,0.41602,13.0645,47.8047,-13.3706,-3.8168,-13.2868,-14.7139,-4.13173,-13.5286,34.4072,-14.0592,-9.6834,-25.0904
11.5541,17.6874,-20.102,2.16437,1.53073,0.840563,8.29409,-1.47712,2.36279,4.90068,-1.79258,0.538883,0.367179,-0.854723,-0.629819,5.34824,5.49258,15.1451,11.5494,9.33174,-16.648,3.98075,4.78289,-7.50653,1.44119e-14,-1.19271e-15,-25.2291,25.095,-98.076,135.777,0.0764122,-42.4823,22.655,7.12502,-15.3597,-6.75448,1.44119e-14,-1.19271e-15,-32.2546,-10.3023,82.5239,140.254,45.556,-32.6632,37.5052,7.12502,-5.88907,67.4034,-20.2975,0.116554,13.3625,46.8139,-13.8276,-3.59929,-14.7171,-14.9524,-4.17049,-13.1202,34.6469,-13.3652,-10.3213,-22.48
11.4867,17.6877,-20.1113,2.21293,1.85422,0.739248,8.34177,-1.43311,2.50161,4.69238,-1.71842,0.591305,0.125238,-0.819335,-0.65529,5.44504,5.42722,15.2471,11.8486,9.28757,-16.6089,4.0489,4.76916,-7.51965,-4.96962e-16,-5.56597e-15,-25.4331,24.8394,-98.1796,136.054,-0.392264,-42.3835,23.1179,7.12502,-15.2646,-6.29891,-4.96962e-16,-5.56597e-15,-32.4898,-10.269,82.2548,140.465,45.1228,-32.0794,37.3468,7.12502,-5.32537,67.2599,-19.6945,-0.273894,13.6729,45.8817,-14.6144,-3.4258,-15.4074,-15.3335,-4.06722,-12.7288,34.9632,-13.0928,-10.5936,-22.3723
11.4205,17.6758,-20.1226,2.31008,2.15474,0.72415,8.32587,-1.41526,2.60713,4.59762,-1.68588,0.558762,0.0331381,-0.802321,-0.749577,5.42037,5.44405,15.1788,11.8575,9.28041,-16.3529,4.04219,4.76885,-7.42075,-1.55052e-14,9.14409e-15,-25.3688,24.8272,-98.3276,135.919,0.143783,-42.7988,22.8573,7.12502,-15.6646,-6.52859,-1.55052e-14,9.14409e-15,-32.378,-10.1902,81.9064,140.494,44.806,-31.9033,36.9962,7.12502,-5.1554,66.9134,-19.2867,-0.749831,13.9101,45.059,-15.3454,-3.33276,-15.6558,-15.8117,-3.95264,-12.4416,35.3215,-12.991,-10.6511,-23.2874
11.3534,17.6714,-20.1263,2.39404,2.47101,0.830888,8.21726,-1.40584,2.51807,4.6256,-1.68336,0.563005,0.124242,-0.801315,-0.698595,5.17915,5.50392,14.995,11.7728,9.3032,-16.1859,4.04672,4.76748,-7.32207,-1.68967e-15,-1.19271e-15,-25.0377,24.777,-98.1111,136.034,-0.326934,-42.7755,23.4348,7.12502,-15.6421,-5.9528,-1.68967e-15,-1.19271e-15,-32.1757,-10.0996,81.7524,140.448,44.6991,-31.9404,35.952,7.12502,-5.19118,65.8684,-18.8894,-1.28064,14.0431,44.3648,-16.0414,-3.35877,-17.0176,-16.2277,-3.93748,-12.2911,35.7126,-12.5624,-11.0183,-21.6806
11.286,17.6646,-20.1335,2.48026,2.72005,0.943736,8.08563,-1.34895,2.39822,4.64247,-1.62033,0.579093,0.219348,-0.770966,-0.623383,5.02132,5.50597,14.9331,11.7321,9.2818,-16.1698,4.05407,4.749,-7.30123,-7.95139e-16,1.98785e-15,-24.8133,24.8261,-97.9432,135.913,0.274913,-43.3267,23.2699,7.12502,-16.1729,-6.07537,-7.95139e-16,1.98785e-15,-32.1271,-9.93139,81.6212,140.517,44.5286,-31.4009,35.1916,7.12502,-4.67027,65.1201,-18.549,-1.83351,14.1945,43.7659,-16.6886,-3.45731,-17.8625,-16.6719,-3.81241,-12.1532,36.1542,-12.0621,-11.4592,-19.7403
11.217,17.6477,-20.147,2.54164,2.85685,0.978977,8.09581,-1.27299,2.40687,4.55945,-1.5174,0.524751,0.129042,-0.720153,-0.691013,5.08294,5.48078,14.9754,11.7926,9.25565,-16.0973,4.05669,4.74258,-7.28824,-1.5704e-14,1.74931e-14,-24.9065,24.7719,-98.0473,136.13,0.363232,-43.2969,22.0123,7.12502,-16.1442,-7.33531,-1.5704e-14,1.74931e-14,-32.1869,-9.704,81.2587,140.565,44.3135,-30.91,34.9893,7.12502,-4.19627,64.9277,-18.3086,-2.35021,14.462,43.2209,-17.0979,-3.48869,-16.7076,-17.1553,-3.54864,-11.9199,36.6862,-11.954,-11.7697,-18.6596
11.1503,17.6243,-20.1604,2.50272,3.13865,0.716171,8.31166,-1.26365,2.75366,4.43617,-1.47062,0.54141,-0.122934,-0.694616,-0.865746,5.03585,5.43384,15.1442,11.9581,9.21022,-16.1079,4.11479,4.72449,-7.32299,4.96962e-16,5.1684e-15,-25.1123,24.4934,-98.2437,135.981,0.470649,-43.518,22.9143,7.12502,-16.3571,-6.41594,4.96962e-16,5.1684e-15,-32.2189,-9.48787,80.9168,140.576,44.1873,-30.5425,34.8036,7.12502,-3.84134,64.7488,-17.9874,-2.98249,15.0675,42.728,-17.5418,-3.58594,-15.8451,-17.5973,-3.40975,-11.3479,37.3189,-11.8998,-12.2327,-15.6751
11.0862,17.597,-20.173,2.47924,3.48062,0.288098,8.46992,-1.26743,3.24432,4.37257,-1.43073,0.667024,-0.281214,-0.670712,-1.0105,4.83682,5.36481,15.2174,11.9882,9.11221,-16.2297,4.14853,4.66803,-7.37566,-2.98177e-16,1.94809e-14,-25.0048,24.3201,-98.2041,135.826,0.476934,-43.8889,24.3268,7.12502,-16.7142,-4.97364,-2.98177e-16,1.94809e-14,-32.2351,-9.25601,80.8331,140.582,44.042,-29.813,34.768,7.12502,-3.13691,64.7247,-17.7172,-3.54411,15.8545,42.3172,-18.2935,-3.8973,-15.3354,-18.1344,-3.30833,-10.6108,38.031,-11.9205,-12.5569,-14.1861
11.0204,17.57,-20.186,2.48679,3.63075,0.179364,8.52956,-1.18849,3.39201,4.32134,-1.31081,0.698193,-0.364053,-0.610564,-1.06994,4.9144,5.27849,15.1921,11.8565,9.00299,-16.3365,4.07992,4.61536,-7.41523,2.20651e-14,-1.19271e-14,-25.0024,24.3801,-98.1461,135.902,0.952669,-44.5057,24.3225,7.12502,-17.308,-4.92681,2.20651e-14,-1.19271e-14,-32.3876,-9.12896,80.8988,140.508,43.8985,-29.3443,35.6838,7.12502,-2.68424,65.6466,-17.6076,-3.8697,16.2911,42.0478,-19.0704,-4.26114,-14.6437,-18.6768,-3.16448,-10.2506,38.753,-12.0921,-12.6421,-15.0484
10.9589,17.5402,-20.1995,2.42963,3.75046,0.0695572,8.57609,-1.11894,3.55273,4.30354,-1.20338,0.742641,-0.405046,-0.55578,-1.12271,5.13271,5.24234,15.2796,11.7498,8.99186,-16.5105,4.0193,4.61997,-7.49636,1.73937e-14,-2.78299e-15,-25.0882,24.2767,-98.0789,136.037,0.816885,-44.245,24.1741,7.12502,-17.057,-5.09708,1.73937e-14,-2.78299e-15,-32.5813,-9.05349,81.0604,140.4,43.7694,-30.2697,34.0546,7.12502,-3.57791,64.0043,-17.5163,-4.25224,16.6954,41.9384,-19.793,-4.38027,-14.205,-19.1175,-3.05758,-9.89568,39.4619,-12.2599,-12.7845,-15.3869
10.9,17.5085,-20.2142,2.44429,3.78909,-0.123211,8.60213,-1.08524,3.73198,4.31875,-1.14297,0.854534,-0.401264,-0.523878,-1.11283,4.94203,5.34434,15.2661,11.8813,9.13183,-16.5835,4.11656,4.67732,-7.50541,-2.68359e-15,1.39149e-14,-25.0198,24.5066,-98.0166,135.821,1.39175,-44.8908,23.6075,7.12502,-17.6786,-5.60885,-2.68359e-15,1.39149e-14,-32.7354,-8.74237,81.1761,140.388,43.9013,-30.9701,33.3067,7.12502,-4.25428,63.244,-17.5816,-4.64826,17.1606,41.9828,-20.516,-4.35764,-14.7375,-19.5669,-2.88143,-9.44412,40.1279,-12.498,-12.9147,-15.7706
10.8398,17.4748,-20.2325,2.5437,3.62299,-0.170336,8.64096,-0.9941,3.7125,4.33723,-1.02214,0.884906,-0.397015,-0.463943,-1.08102,4.50378,5.47107,15.2588,12.0945,9.27674,-16.5865,4.27932,4.72716,-7.4833,6.16232e-15,7.15625e-15,-24.7437,24.529,-97.8564,135.707,1.15622,-44.6592,23.6637,7.12502,-17.4557,-5.57259,6.16232e-15,7.15625e-15,-32.8456,-8.26787,81.2383,140.367,44.0519,-31.304,32.9517,7.12502,-4.57665,62.8823,-17.8885,-4.80367,17.4274,42.1503,-21.1613,-4.31021,-15.2478,-20.0045,-2.63888,-9.17614,40.7547,-12.8769,-12.7645,-16.767
10.7827,17.4369,-20.2477,2.51408,3.57179,-0.0919367,8.65108,-0.914979,3.58574,4.40847,-0.928536,0.871145,-0.323247,-0.417005,-1.03301,4.41484,5.49529,15.4681,11.999,9.31779,-16.8033,4.29147,4.74716,-7.58626,4.96962e-15,-2.0276e-14,-24.6341,24.4162,-97.8013,135.731,0.863766,-44.4007,24.253,7.12502,-17.2069,-5.00516,4.96962e-15,-2.0276e-14,-32.9325,-7.91661,81.455,140.209,43.8844,-31.9119,33.2463,7.12502,-5.16362,63.1633,-18.0136,-4.92385,17.5021,42.3762,-21.7771,-4.30332,-14.9649,-20.3146,-2.46771,-9.07981,41.3793,-13.2971,-12.7168,-17.2779
10.7286,17.3975,-20.2578,2.36023,3.61292,0.0426919,8.69368,-0.886428,3.46057,4.47017,-0.900025,0.841026,-0.280556,-0.402988,-0.99638,4.79419,5.47361,15.5721,11.6603,9.3166,-16.9503,4.13653,4.76696,-7.66403,-1.56046e-14,-5.1684e-15,-24.7515,24.4089,-97.9243,135.663,1.06604,-44.7456,25.0189,7.12502,-17.5389,-4.20991,-1.56046e-14,-5.1684e-15,-33.1996,-7.70186,81.6717,140.124,43.7944,-33.217,34.4496,7.12502,-6.42372,64.3322,-17.9134,-5.10544,17.4962,42.6393,-22.6208,-4.11265,-13.6436,-20.5021,-2.2879,-9.06022,42.0093,-13.8458,-12.7507,-16.8333
10.6724,17.3509,-20.2746,2.15332,3.54178,-0.0225862,8.93999,-0.843756,3.48486,4.52866,-0.831467,0.87183,-0.351997,-0.36908,-0.981746,4.92804,5.52486,15.5516,11.5374,9.38582,-16.9139,4.08723,4.80826,-7.64741,4.47266e-15,-9.14409e-15,-24.6338,24.4035,-97.9411,135.344,1.37192,-44.9862,25.5645,7.12502,-17.7704,-3.64349,4.47266e-15,-9.14409e-15,-33.4666,-7.41974,81.9246,140.039,43.6426,-33.8576,34.977,7.12502,-7.04213,64.8399,-17.8664,-5.10734,17.7189,42.9125,-23.6672,-3.64877,-10.5835,-20.6538,-2.04418,-8.82018,42.675,-14.9119,-12.1894,-19.2939
10.6166,17.2944,-20.2965,1.89674,3.496,-0.165553,9.28217,-0.826131,3.5643,4.66142,-0.788682,0.91621,-0.400096,-0.346127,-0.981304,4.66785,5.60571,15.7139,11.5523,9.48506,-17.052,4.1669,4.84823,-7.70684,5.86415e-15,8.34896e-15,-24.3593,24.4547,-97.9562,135.221,1.15296,-44.4582,25.3056,7.12502,-17.2623,-3.94768,5.86415e-15,8.34896e-15,-33.5714,-7.0066,82.1986,139.846,43.468,-33.8174,34.8213,7.12502,-7.00335,64.6854,-17.781,-5.07842,18.0265,43.1486,-24.6227,-3.41357,-8.55298,-20.8092,-1.85587,-8.47776,43.4083,-15.9603,-11.7919,-21.8071
10.5672,17.2451,-20.3145,1.79211,3.53181,-0.109358,9.38157,-0.864805,3.55858,4.7672,-0.838977,0.866105,-0.347516,-0.368734,-1.0245,4.66431,5.68406,15.9529,11.4453,9.61643,-17.3347,4.18234,4.91572,-7.83495,4.37326e-15,-1.55052e-14,-24.4598,24.7272,-98.2354,135.065,1.67581,-45.1062,25.1045,7.12502,-17.8859,-4.09307,4.37326e-15,-1.55052e-14,-33.8886,-6.55663,82.2778,139.843,43.5456,-33.8176,35.1802,7.12502,-7.00352,65.0444,-17.7552,-5.39303,18.1172,43.3479,-25.6114,-3.47293,-9.07894,-21.1487,-1.85862,-8.3583,44.1896,-16.3455,-12.2499,-18.7938
10.5188,17.1977,-20.3302,1.79849,3.49308,-0.156248,9.33345,-0.8628,3.64242,4.81581,-0.833309,0.855679,-0.271332,-0.362738,-1.08369,4.82019,5.78056,15.8929,11.3534,9.74665,-17.2432,4.14543,4.98744,-7.78979,-6.65929e-15,1.03368e-14,-24.6276,24.6378,-98.3375,134.941,1.33845,-45.2817,26.3808,7.12502,-18.0547,-2.80121,-6.65929e-15,1.03368e-14,-34.3279,-6.23983,82.3803,139.913,43.6405,-33.9757,35.6366,7.12502,-7.15607,65.4956,-17.8538,-5.64736,18.3764,43.553,-26.6694,-3.95979,-10.7931,-21.5951,-1.75962,-8.1398,44.982,-16.5031,-12.7161,-14.4241
10.4681,17.1377,-20.3456,1.71407,3.39061,-0.2188,9.32225,-0.791924,3.66149,4.98205,-0.742828,0.884316,-0.0881162,-0.312856,-1.07443,4.65916,5.84236,15.7629,11.3143,9.78963,-17.1158,4.15729,4.99947,-7.71468,-3.97569e-15,3.57812e-15,-24.5203,24.7052,-98.3305,134.749,1.93648,-45.6631,25.0688,7.12502,-18.4217,-4.07897,-3.97569e-15,3.57812e-15,-34.3928,-6.00661,82.6671,139.796,43.7703,-34.3642,35.8629,7.12502,-7.53116,65.7088,-17.9433,-5.57001,18.6812,43.8666,-27.7542,-4.70243,-11.7584,-21.8975,-1.4727,-7.90971,45.7668,-17.03,-12.6879,-13.2955
10.4188,17.0782,-20.3609,1.64679,3.35047,0.000845745,9.3284,-0.747503,3.39461,5.16833,-0.710084,0.850786,0.105003,-0.29617,-0.963408,4.35688,5.89642,15.8435,11.3116,9.85223,-17.3404,4.2326,5.01371,-7.78962,1.67973e-14,-1.94809e-14,-24.1954,24.6873,-98.2751,134.573,2.15184,-45.3273,23.7006,7.12502,-18.0986,-5.47735,1.67973e-14,-1.94809e-14,-34.4298,-5.75998,83.0198,139.605,43.9579,-34.596,36.2414,7.12502,-7.75481,66.0792,-18.1448,-5.53413,18.6526,44.3804,-28.7849,-5.21287,-11.4106,-22.1726,-1.18136,-8.02158,46.5509,-18.1209,-11.9996,-16.3394
10.3717,17.023,-20.378,1.58798,3.27739,0.161659,9.55174,-0.740813,3.22214,5.15516,-0.705697,0.771357,-0.0304456,-0.298331,-0.946854,4.40209,5.9628,15.8974,11.2703,9.94463,-17.3354,4.232,5.06372,-7.79218,6.06293e-15,-1.59028e-15,-24.4408,24.5828,-98.5893,134.548,2.09786,-44.9274,24.2454,7.12502,-17.7138,-4.96777,6.06293e-15,-1.59028e-15,-34.9048,-5.6322,83.3041,139.447,44.1785,-34.7417,36.9464,7.12502,-7.89549,66.7789,-18.4607,-5.38973,18.6784,45.092,-29.4996,-5.42666,-10.5791,-22.4546,-0.846966,-8.1089,47.3492,-19.3007,-10.9632,-20.3741
10.3262,16.9669,-20.3974,1.49754,3.21917,0.249849,9.81693,-0.750092,3.16839,5.12366,-0.711713,0.66852,-0.209178,-0.303779,-1.01955,4.56083,6.00872,15.8756,11.1584,9.98712,-17.095,4.16853,5.09787,-7.70845,-7.95139e-15,1.19271e-14,-24.8536,24.5908,-99.015,134.568,2.31285,-45.0818,25.0503,7.12502,-17.8623,-4.14937,-7.95139e-15,1.19271e-14,-35.4115,-5.60251,83.5583,139.311,44.4723,-35.1618,37.4817,7.12502,-8.3009,67.2986,-18.852,-5.10726,18.7652,45.9672,-30.0148,-5.47889,-9.74597,-22.7392,-0.696385,-8.12096,48.1232,-20.0611,-10.2269,-21.7401
10.2812,16.9131,-20.4158,1.41568,3.31887,0.194915,9.90716,-0.785417,3.25002,5.1788,-0.748806,0.664908,-0.203276,-0.319995,-1.06476,4.64376,6.01037,15.8882,11.101,9.98572,-17.0275,4.13509,5.1035,-7.69038,-3.67752e-15,5.96354e-15,-25.0003,24.684,-99.2344,134.551,2.37758,-45.6329,24.5444,7.12502,-18.3926,-4.60606,-3.67752e-15,5.96354e-15,-35.7966,-5.64109,83.9487,139.138,44.6868,-35.6855,37.7718,7.12502,-8.80631,67.5681,-19.3156,-4.95029,18.9973,46.9153,-30.4041,-5.58333,-9.20877,-23.0992,-0.581725,-7.94976,48.8817,-20.575,-9.85906,-22.2076
10.2432,16.8643,-20.4285,1.19529,3.40353,0.26547,10.1054,-0.784181,3.2412,5.2644,-0.741782,0.619756,-0.222531,-0.315279,-1.10562,4.80942,5.96597,16.0403,11.1182,9.9628,-17.1339,4.12027,5.10312,-7.76066,9.93923e-17,-2.38542e-15,-25.1747,24.5603,-99.4712,134.505,2.20551,-45.8533,24.2493,7.12502,-18.6046,-4.88103,9.93923e-17,-2.38542e-15,-36.15,-5.74359,84.3329,138.916,45.0906,-35.8859,38.4049,7.12502,-8.99968,68.1929,-19.6138,-4.85602,19.0387,47.8731,-30.7919,-5.60974,-8.69731,-23.2625,-0.368794,-7.96083,49.6195,-21.1139,-9.45082,-23.2496
10.2104,16.8141,-20.4389,0.885175,3.44612,0.506735,10.3682,-0.774951,3.12529,5.39158,-0.733209,0.48351,-0.233803,-0.310054,-1.18041,4.95213,5.95004,16.1505,11.049,9.95591,-17.1509,4.08087,5.11069,-7.79057,2.98177e-16,-7.15625e-15,-25.361,24.4103,-99.7509,134.307,2.47518,-46.2263,24.7814,7.12502,-18.9634,-4.31417,2.98177e-16,-7.15625e-15,-36.4057,-5.85026,84.6427,138.7,45.7671,-35.7705,39.2469,7.12502,-8.88838,69.0397,-19.791,-4.80721,18.851,48.825,-31.2988,-5.62292,-8.12571,-23.2846,-0.189035,-8.2109,50.3452,-21.8877,-8.72005,-24.6192
10.1734,16.7628,-20.453,0.647335,3.57168,0.413374,10.5671,-0.834243,3.23899,5.49175,-0.79467,0.50903,-0.240872,-0.337722,-1.20985,5.00516,5.98254,16.0286,11.0493,9.98955,-17.0186,4.06615,5.12791,-7.72462,-3.67752e-15,4.37326e-15,-25.6343,24.4321,-99.8713,134.367,2.37042,-46.1164,24.2504,7.12502,-18.8576,-4.85553,-3.67752e-15,4.37326e-15,-36.6772,-5.91824,85.0799,138.513,46.334,-35.8432,40.0358,7.12502,-8.95847,69.8256,-20.0432,-4.79747,19.0742,49.7211,-31.7577,-5.66938,-7.42596,-23.4787,0.0290869,-8.05914,51.0871,-22.618,-8.26572,-24.4892
10.1398,16.7172,-20.4647,0.508878,3.83622,0.430631,10.6874,-0.941471,3.21442,5.59796,-0.934882,0.537364,-0.201094,-0.406577,-1.15097,4.74844,6.00857,15.9277,11.2958,10.0027,-16.8934,4.1747,5.1199,-7.65614,7.95139e-15,-3.97569e-16,-25.8694,24.4999,-99.9175,134.498,2.34589,-45.6974,23.4117,7.12502,-18.4546,-5.73288,7.95139e-15,-3.97569e-16,-36.8636,-5.90133,85.4146,138.317,47.0438,-35.9596,40.5541,7.12502,-9.07082,70.3391,-20.3302,-4.89361,19.1779,50.566,-32.2338,-5.6329,-6.41109,-23.8076,0.064304,-8.03852,51.7985,-22.7963,-8.57747,-21.3847
10.1119,16.6752,-20.4696,0.403065,4.20914,0.513314,10.6679,-1.06439,3.22714,5.76595,-1.09985,0.518911,-0.0229486,-0.483745,-1.16112,4.37055,6.01584,15.8661,11.4407,9.96979,-16.8145,4.26982,5.08502,-7.60771,1.26228e-14,-1.90833e-14,-25.8204,24.4635,-99.9889,134.469,2.59222,-45.6063,23.5699,7.12502,-18.367,-5.58298,1.26228e-14,-1.90833e-14,-36.8987,-5.9962,85.6433,138.074,47.7939,-35.9274,40.4398,7.12502,-9.03975,70.2261,-20.5491,-5.09747,19.1944,51.3382,-32.6815,-5.697,-5.4158,-24.1703,0.042435,-8.13291,52.4873,-23.0809,-8.51581,-20.1917
