JuanDHNZ/ProyectoFinalCD/preprocessing/sports_trials_csv/55_11.csv
root1,root2,root3,root4,root5,root6,lowerback1,lowerback2,lowerback3,upperback1,upperback2,upperback3,thorax1,thorax2,thorax3,lowerneck1,lowerneck2,lowerneck3,upperneck1,upperneck2,upperneck3,head1,head2,head3,rclavicle1,rclavicle2,rhumerus1,rhumerus2,rhumerus3,rradius1,rwrist1,rhand1,rhand2,rfingers1,rthumb1,rthumb2,lclavicle1,lclavicle2,lhumerus1,lhumerus2,lhumerus3,lradius1,lwrist1,lhand1,lhand2,lfingers1,lthumb1,lthumb2,rfemur1,rfemur2,rfemur3,rtibia1,rfoot1,rfoot2,rtoes1,lfemur1,lfemur2,lfemur3,ltibia1,lfoot1,lfoot2,ltoes1
24.6064,16.8076,-31.6901,-1.67499,-16.2617,-1.29607,2.05573,-4.06039,-1.90406,-3.58763,-5.39888,3.16196,-4.3796,-2.57056,4.63773,13.4759,8.40504,14.5163,-28.1575,8.70758,-25.7158,-8.74607,5.55452,-12.9603,-2.14687e-14,2.54444e-14,-45.1765,6.54394,-82.4735,118.988,-31.4688,-23.0486,-6.25707,7.12502,3.39615,-36.2098,-2.14687e-14,2.54444e-14,-27.1344,4.90096,77.6778,129.619,55.5809,-21.3343,45.8633,7.12502,5.05153,75.7831,-15.3188,6.28263,13.8317,43.0504,-29.066,-4.48918,-14.8446,4.07042,-10.2689,-6.94653,27.9905,-26.2956,1.074,-39.7377
24.6119,16.7743,-31.6951,-1.68081,-16.149,-1.44613,2.17005,-4.20574,-1.80705,-3.61019,-5.5855,3.28133,-4.44867,-2.66314,4.72761,13.655,8.54432,14.3424,-28.2202,8.91626,-25.5534,-8.77672,5.66036,-12.885,-4.06515e-14,-1.66979e-14,-44.586,6.50897,-82.1297,119.555,-31.0906,-23.3176,-6.3698,7.12502,3.13637,-36.3265,-4.06515e-14,-1.66979e-14,-25.9491,5.04612,77.7003,129.61,55.0992,-22.0147,46.0973,7.12502,4.39455,76.0317,-15.551,6.1998,13.9778,43.5872,-29.2645,-4.60935,-15.1763,4.12272,-10.3962,-6.83425,27.9836,-26.5714,1.00772,-39.0047
24.621,16.753,-31.6954,-1.57437,-16.4516,-1.47018,1.97887,-4.18973,-1.76578,-3.57426,-5.56035,3.32861,-4.30418,-2.6557,4.73316,14.0483,8.62653,14.1857,-28.8475,9.04612,-25.2107,-9.07752,5.70391,-12.8425,-2.0773e-14,4.13472e-14,-43.7213,6.30949,-81.749,120.016,-30.4504,-23.1154,-6.2849,7.12502,3.33167,-36.2386,-2.0773e-14,4.13472e-14,-24.7661,5.25299,77.6701,129.475,55.0608,-22.2467,46.5071,7.12502,4.17051,76.4461,-15.9653,6.41904,13.9437,43.998,-29.5349,-4.38611,-14.2779,4.00771,-10.1351,-6.89881,28.0999,-26.9143,2.45663,-41.5591
24.6338,16.7377,-31.6965,-1.40076,-17.1192,-1.50401,1.65096,-4.06299,-1.67643,-3.52544,-5.38486,3.39146,-4.08538,-2.57663,4.70991,14.0312,8.63204,14.5021,-28.8114,9.09514,-25.4194,-9.00895,5.71965,-12.9751,-2.44505e-14,-4.77083e-15,-42.7804,6.01109,-81.2322,120.477,-29.7308,-21.7628,-5.97022,7.12502,4.6378,-35.8995,-2.44505e-14,-4.77083e-15,-23.7675,5.41631,77.7403,129.687,55.7861,-23.1002,47.4759,7.12502,3.3463,77.4294,-16.5543,6.82684,13.8903,44.3738,-29.6756,-4.18851,-13.9458,3.94992,-9.74995,-7.00632,28.2242,-27.2822,3.59903,-42.5227
24.646,16.7185,-31.6967,-1.3561,-17.4717,-1.44692,1.49946,-4.04421,-1.72865,-3.44697,-5.36053,3.45771,-3.90923,-2.56735,4.78897,13.8279,8.7014,14.6326,-28.7643,9.16116,-25.6307,-8.90693,5.75511,-13.0539,-1.58034e-14,-6.36111e-15,-41.7568,5.77935,-80.7631,120.945,-29.3665,-20.6406,-5.58188,7.12502,5.72131,-35.4846,-1.58034e-14,-6.36111e-15,-22.781,5.60744,77.9355,130.306,57.2086,-25.7171,47.5792,7.12502,0.818942,77.5573,-16.942,6.84626,13.7431,44.6616,-29.6889,-4.28077,-15.2387,3.95671,-9.6273,-7.17395,28.4268,-27.8058,3.85015,-42.0952
24.6592,16.7049,-31.6926,-1.35495,-17.5058,-1.49492,1.61276,-4.11766,-1.70333,-3.51539,-5.45433,3.56733,-4.02812,-2.6099,4.9062,14.466,8.7655,14.237,-29.6379,9.18485,-25.3395,-9.38688,5.77786,-13.0572,9.38264e-14,8.74653e-15,-40.9291,5.73294,-80.4084,121.424,-29.2816,-20.7478,-4.96481,7.12502,5.61784,-34.8703,9.38264e-14,8.74653e-15,-22.1264,5.95679,78.0935,130.645,58.2456,-27.1843,46.8281,7.12502,-0.598056,76.807,-17.0686,6.74721,13.736,44.8675,-29.7642,-4.38855,-15.8497,3.95214,-9.64364,-7.17139,28.6381,-28.4888,2.75893,-39.233
24.674,16.6966,-31.6873,-1.30605,-17.6194,-1.74417,1.80606,-3.61083,-1.51084,-2.95874,-4.78066,3.36219,-3.65274,-2.2962,4.54569,11.3326,8.71641,15.9535,-28.5715,9.09807,-26.1819,-8.20604,5.55789,-13.2296,3.1408e-14,-1.59028e-15,-39.0907,3.81452,-79.8525,121.885,-28.93,-21.2136,-4.37045,7.12502,5.16813,-34.2874,3.1408e-14,-1.59028e-15,-19.7785,4.89977,78.6275,130.527,58.5284,-26.4091,46.7361,7.12502,0.150617,76.7158,-17.1093,6.91733,13.9676,45.0078,-29.8192,-4.40302,-15.4565,3.97198,-9.65109,-6.97497,28.8004,-28.8747,2.2773,-37.692
24.6903,16.6847,-31.6808,-1.27067,-17.7651,-1.88575,1.75661,-3.62265,-1.40785,-2.85705,-4.79079,3.49244,-3.5157,-2.30689,4.61458,10.3247,8.82032,16.3402,-27.7752,9.21572,-26.5607,-7.65031,5.58533,-13.2393,-3.47873e-15,-3.18055e-15,-37.9298,3.75898,-79.4073,122.343,-28.386,-22.0855,-3.76091,7.12502,4.32624,-33.6967,-3.47873e-15,-3.18055e-15,-19.368,5.2351,79.0369,130.948,58.6588,-25.6083,46.6438,7.12502,0.924067,76.6215,-17.1517,7.15344,14.0725,45.096,-29.8191,-4.53583,-15.65,4.06112,-9.66001,-6.9121,28.9302,-28.957,3.25787,-40.0559
24.7083,16.6779,-31.6727,-1.29509,-17.8841,-1.83067,1.59589,-3.61405,-1.42758,-3.09236,-4.77741,3.47856,-3.67024,-2.29406,4.61092,11.801,8.73289,15.5736,-28.6544,9.2639,-25.4086,-8.38182,5.60744,-12.9028,-5.9536e-14,1.59028e-14,-37.6877,3.52698,-79.105,122.948,-27.8178,-22.8281,-3.67995,7.12502,3.60911,-33.6291,-5.9536e-14,1.59028e-14,-19.6413,5.19849,79.3189,131.309,58.6978,-25.9723,46.0996,7.12502,0.572465,76.0786,-17.1752,7.24973,13.9338,45.134,-29.8178,-4.55267,-15.901,4.14046,-9.57992,-7.03477,29.0162,-29.0276,3.25112,-40.2711
24.7303,16.6767,-31.6642,-1.29995,-18.05,-1.79463,1.62222,-3.58056,-1.34969,-3.49626,-4.72544,3.43671,-4.11992,-2.25704,4.54626,12.5409,8.34013,16.7639,-27.8914,8.98659,-26.3238,-8.18756,5.50241,-13.4724,2.38542e-15,-2.06736e-14,-37.73,3.26041,-78.8011,123.628,-27.4994,-23.0776,-3.88298,7.12502,3.36812,-33.8361,2.38542e-15,-2.06736e-14,-19.9712,5.04493,79.6655,131.561,58.5635,-26.983,45.595,7.12502,-0.403689,75.5743,-17.2121,7.29098,13.7879,45.1388,-29.813,-4.40219,-16.0941,4.10747,-9.40747,-7.14308,29.0361,-29.1344,2.57375,-38.9125
24.7557,16.6751,-31.6527,-1.24163,-18.2412,-1.90848,1.65599,-3.57957,-1.21323,-3.48722,-4.71454,3.58213,-4.12955,-2.25399,4.62322,12.3451,8.51141,16.4495,-28.0281,9.16315,-26.0845,-8.18882,5.58067,-13.308,6.17226e-14,-1.66979e-14,-36.6385,3.13537,-78.2396,124.095,-27.238,-23.6598,-3.61872,7.12502,2.80594,-33.58,6.17226e-14,-1.66979e-14,-19.5742,5.46318,80.273,131.653,58.167,-26.294,45.2711,7.12502,0.261828,75.2507,-17.2404,7.46285,13.8075,45.1042,-29.8023,-4.33193,-16.0765,4.09369,-9.20734,-7.10342,29.0522,-29.1819,2.92716,-39.7819
24.7777,16.6722,-31.6387,-1.27015,-18.3894,-1.99817,1.59362,-3.54444,-1.1682,-3.45449,-4.66375,3.68193,-4.05997,-2.23067,4.69341,12.4859,8.5653,16.2414,-28.3274,9.23689,-25.805,-8.33649,5.60534,-13.2088,-1.50182e-13,3.18055e-15,-35.6136,2.78988,-77.6686,124.414,-26.8009,-23.6471,-3.4921,7.12502,2.81815,-33.4532,-1.50182e-13,3.18055e-15,-19.5189,5.75943,80.7578,131.662,57.5386,-23.7118,44.8179,7.12502,2.75566,74.7799,-17.1379,7.65017,13.8315,45.0226,-29.7947,-4.25978,-15.587,4.25438,-9.03433,-7.07252,29.1173,-29.3945,2.96508,-39.8864
24.7994,16.6709,-31.6234,-1.22164,-18.5524,-2.10174,1.50362,-3.49791,-1.104,-3.63715,-4.59371,3.78447,-4.20259,-2.19169,4.76501,12.871,8.39912,16.5607,-28.1496,9.11452,-25.992,-8.34912,5.55426,-13.3632,5.96354e-16,7.95139e-15,-35.0871,2.389,-77.0704,124.674,-26.2852,-22.8159,-3.29911,7.12502,3.62086,-33.2481,5.96354e-16,7.95139e-15,-19.7949,5.85457,81.3472,131.792,57.1049,-21.9622,44.535,7.12502,4.44523,74.4683,-17.0995,7.76254,13.8391,44.8884,-29.7891,-3.95459,-14.9618,4.32635,-8.86396,-7.03486,29.2117,-29.8366,2.81038,-38.9847
24.8244,16.6788,-31.6063,-1.12308,-18.7066,-2.18619,1.43338,-3.48031,-1.01583,-3.82122,-4.56073,3.90173,-4.35565,-2.17162,4.84182,13.0985,8.26729,16.6545,-27.9926,8.9855,-26.0538,-8.36566,5.50047,-13.4129,-1.46405e-13,7.95139e-16,-34.6565,1.96488,-76.4054,125.104,-26.07,-22.4282,-2.69121,7.12502,3.99525,-32.6335,-1.46405e-13,7.95139e-16,-19.9898,6.02468,82.1232,132.099,57.1543,-21.5287,43.9825,7.12502,4.86381,73.9067,-17.0921,7.90038,13.8136,44.6829,-29.6601,-3.86893,-15.0383,4.24206,-8.75592,-7.04473,29.3202,-29.2066,3.56079,-40.8863
24.8501,16.6926,-31.5887,-1.11407,-18.7831,-2.20826,1.39188,-3.49655,-0.982538,-3.95733,-4.57644,3.99041,-4.46884,-2.17563,4.92109,13.5417,8.1695,16.4578,-28.2286,8.86962,-25.8625,-8.59533,5.45334,-13.3812,-1.03368e-14,-2.22639e-14,-34.2117,1.6203,-75.6926,125.755,-26.3639,-22.6692,-2.12813,7.12502,3.76256,-32.0747,-1.03368e-14,-2.22639e-14,-20.4767,6.17893,82.7876,132.533,57.5432,-21.4842,42.8135,7.12502,4.90679,72.7367,-16.9457,8.01762,13.749,44.4231,-29.4622,-4.04387,-15.7991,4.15503,-8.64928,-7.09008,29.4446,-29.2938,2.39066,-38.4416
24.876,16.7042,-31.5712,-1.06037,-18.8345,-2.2862,1.26672,-3.52449,-0.862263,-4.04807,-4.60641,4.06883,-4.49316,-2.19253,4.93252,13.8396,8.16176,16.1926,-28.5049,8.85363,-25.611,-8.7929,5.44751,-13.2994,9.54166e-15,-1.03368e-14,-33.5064,1.31869,-74.9753,126.404,-26.5083,-22.7739,-2.16119,7.12502,3.66144,-32.1095,9.54166e-15,-1.03368e-14,-21.0487,6.32621,83.1939,132.833,57.8662,-21.0008,41.9694,7.12502,5.37361,71.8813,-16.7887,8.18752,13.7375,44.1459,-29.3771,-4.02699,-15.6925,4.06785,-8.40251,-7.02983,29.5628,-29.2195,2.519,-39.4809
24.9037,16.7134,-31.5516,-0.972666,-18.908,-2.30365,1.08679,-3.53818,-0.749446,-4.14817,-4.61959,4.10615,-4.50032,-2.20183,4.90074,13.4889,8.13077,16.4968,-27.9726,8.84724,-25.8537,-8.50298,5.43875,-13.3449,2.16675e-14,7.15625e-15,-32.6836,0.910065,-74.463,126.994,-26.7615,-22.3464,-2.55176,7.12502,4.07431,-32.4925,2.16675e-14,7.15625e-15,-21.6163,6.44089,83.524,132.947,58.0629,-19.9967,41.3031,7.12502,6.343,71.1881,-16.7058,8.43842,13.6555,43.8994,-29.2718,-4.27031,-16.0154,4.00381,-8.21686,-7.06609,29.6828,-29.2311,2.37397,-39.5687
24.9343,16.7218,-31.5323,-0.86279,-19.1025,-2.23589,0.933099,-3.47707,-0.718091,-4.27643,-4.53518,4.13708,-4.55475,-2.15834,4.908,13.1128,8.0682,16.7884,-27.3979,8.79936,-26.0731,-8.21089,5.40695,-13.3742,-3.57812e-15,-8.74653e-15,-31.7383,0.559941,-74.5384,127.29,-27.1441,-22.0591,-2.49871,7.12502,4.35168,-32.434,-3.57812e-15,-8.74653e-15,-22.2107,6.40413,84.1256,133.101,57.9924,-19.2015,40.5231,7.12502,7.1106,70.3837,-16.7727,8.64223,13.4522,43.7204,-29.0408,-4.62213,-17.2757,3.90673,-8.06199,-7.25869,29.811,-29.527,1.55986,-37.5704
24.9667,16.7271,-31.5198,-0.785532,-19.2919,-2.13883,0.969471,-3.37522,-0.72955,-4.40412,-4.39601,4.14291,-4.72032,-2.08376,4.92549,13.3402,8.1023,16.1954,-27.9984,8.80387,-25.4014,-8.55099,5.38762,-13.0954,4.96962e-15,7.95139e-16,-30.7134,0.355128,-74.8201,127.25,-26.9643,-22.6463,-1.87179,7.12502,3.78469,-31.8179,4.96962e-15,7.95139e-16,-22.8363,6.18699,84.8216,133.314,57.521,-18.4552,40.0526,7.12502,7.83104,69.8876,-16.9003,8.78551,13.2108,43.6165,-28.8307,-4.86329,-18.3152,3.74859,-7.78764,-7.46736,29.9229,-29.7039,1.32252,-37.1486
24.998,16.7273,-31.5059,-0.836239,-19.3247,-2.01967,0.986083,-3.28333,-0.750628,-4.36818,-4.27618,4.07619,-4.70578,-2.02481,4.86195,13.1866,8.15235,15.8587,-28.4898,8.8031,-24.9869,-8.74235,5.35595,-12.9169,-2.72335e-14,6.36111e-15,-29.7522,-0.119744,-74.4936,127.332,-26.8303,-23.406,-0.955787,7.12502,3.051,-30.9137,-2.72335e-14,6.36111e-15,-23.3244,5.76596,85.3667,133.401,57.0638,-17.4957,39.654,7.12502,8.75698,69.4524,-16.8904,8.84609,12.9764,43.5948,-28.8515,-5.02473,-18.8563,3.71235,-7.56563,-7.66972,30.0196,-29.7501,1.42903,-37.9446
25.0269,16.7278,-31.485,-0.974786,-19.2925,-1.81734,0.879853,-2.98731,-0.850702,-4.09607,-3.8982,3.7887,-4.40497,-1.84547,4.58104,11.6598,8.02686,16.8972,-27.7493,8.63619,-25.4922,-8.11773,5.18558,-13.0664,-3.75703e-14,2.38542e-14,-28.9381,-1.38333,-73.9893,127.604,-26.2937,-24.5183,0.0461297,7.12502,1.97676,-29.9245,-3.75703e-14,2.38542e-14,-23.3028,4.58123,85.8467,133.263,56.9509,-16.4624,38.8012,7.12502,9.75409,68.5553,-16.802,8.80125,12.6594,43.636,-28.9536,-4.94111,-18.7602,3.79174,-7.46433,-7.97939,30.1048,-29.7227,1.46533,-38.275
25.0542,16.7267,-31.467,-1.15102,-19.2421,-1.56639,0.916057,-3.10183,-1.04633,-4.06735,-4.05699,3.83366,-4.36623,-1.91794,4.74449,11.2807,8.17734,16.506,-27.5399,8.76519,-25.3166,-7.97965,5.25346,-12.8563,-2.62396e-14,2.54444e-14,-28.1662,-1.07606,-73.7583,127.825,-25.26,-25.8993,0.647803,7.12502,0.642967,-29.331,-2.62396e-14,2.54444e-14,-24.039,4.7299,86.2305,133.404,56.9627,-15.4316,38.2383,7.12502,10.7485,67.9433,-16.6917,8.78781,12.314,43.7353,-28.9766,-4.9726,-18.9777,3.84307,-7.36917,-8.31613,30.222,-29.5954,1.57843,-38.8073
25.0834,16.7231,-31.4506,-1.24063,-19.1224,-1.4395,0.805734,-3.17414,-1.10872,-4.25094,-4.15459,3.80411,-4.48504,-1.9607,4.75394,12.2285,8.00645,16.3169,-27.8496,8.64111,-25.0186,-8.3418,5.21179,-12.8382,-1.88845e-14,1.35174e-14,-27.7431,-1.08247,-73.6463,127.99,-24.5341,-26.2499,0.979447,7.12502,0.304422,-29.0001,-1.88845e-14,1.35174e-14,-25.2053,4.51969,86.5575,133.662,56.979,-14.6049,38.3996,7.12502,11.5458,68.0616,-16.6204,8.86897,12.0968,43.8771,-29.0548,-5.09584,-19.007,3.74742,-7.29704,-8.49517,30.4315,-29.6084,1.31059,-38.8706
25.1204,16.7096,-31.4345,-1.17942,-18.9547,-1.38163,0.585422,-3.01717,-1.02734,-3.71658,-3.9571,3.6193,-3.83645,-1.88576,4.46705,9.70256,8.24659,16.8576,-27.1625,8.7593,-25.2965,-7.52347,5.15423,-12.7176,1.98785e-16,2.8625e-14,-25.7815,-2.29808,-73.6299,127.918,-24.3949,-26.1105,1.49915,7.12502,0.439048,-28.4801,1.98785e-16,2.8625e-14,-24.4401,3.52147,86.9791,133.542,56.7523,-14.1112,38.3405,7.12502,12.0219,67.9752,-16.7286,8.8883,11.8881,44.0478,-29.0464,-5.48055,-19.6106,3.4561,-7.27838,-8.62909,30.7385,-29.7545,0.0649104,-36.1344
25.1589,16.6911,-31.4231,-1.10611,-18.924,-1.33198,0.587095,-2.7755,-0.981409,-3.89384,-3.63395,3.45252,-4.06176,-1.72238,4.26612,9.6081,8.0391,17.4679,-26.7191,8.58924,-25.5181,-7.34837,5.04272,-12.8633,-4.27387e-14,1.11319e-14,-25.5862,-3.26829,-73.2927,128.213,-24.8695,-26.0355,2.06179,7.12502,0.511479,-27.9173,-4.27387e-14,1.11319e-14,-25.3153,2.25566,87.358,133.563,56.3095,-13.6647,37.7774,7.12502,12.4524,67.3864,-16.9513,8.9013,11.6736,44.2628,-28.9888,-5.95276,-20.7936,3.16517,-7.10004,-8.74691,31.0866,-29.8357,1.28829,-39.6046
25.1919,16.6865,-31.4093,-1.1554,-19.0475,-1.1505,0.668329,-2.61739,-0.988551,-4.02444,-3.4247,3.2972,-4.26913,-1.61516,4.11192,9.69375,8.04388,17.2733,-26.4011,8.65732,-25.2964,-7.27763,5.08237,-12.7082,-6.76862e-14,-1.19271e-14,-25.3629,-3.6849,-73.1412,128.387,-24.7128,-26.3791,2.70272,7.12502,0.179612,-27.277,-6.76862e-14,-1.19271e-14,-26.4465,1.40996,87.4868,133.59,56.0363,-13.0664,37.3973,7.12502,13.0292,66.9704,-17.1384,9.00415,11.3403,44.5222,-29.0292,-6.09127,-21.4218,2.98054,-6.73853,-8.98862,31.4157,-30.2209,0.225353,-37.5744
25.2242,16.6767,-31.3945,-1.33119,-19.2063,-0.763987,0.722107,-2.50145,-1.07277,-4.09028,-3.27953,3.02917,-4.38956,-1.54146,3.88062,9.98739,7.94979,17.3087,-26.4186,8.57507,-25.2871,-7.36049,5.05169,-12.7433,-3.8763e-15,-7.95139e-15,-25.1067,-3.73838,-73.1607,128.416,-23.7022,-27.3106,3.29764,7.12502,-0.720085,-26.6809,-3.8763e-15,-7.95139e-15,-27.5722,0.7775,87.3676,133.679,55.9421,-12.4315,37.3028,7.12502,13.6412,66.8358,-17.2854,9.10565,10.786,44.8425,-29.0887,-6.18507,-22.2604,2.90606,-6.31996,-9.44081,31.7002,-30.3547,-0.526354,-36.1325
25.2581,16.6505,-31.3832,-1.60221,-19.235,-0.533799,0.956824,-2.46921,-1.0631,-4.07189,-3.24056,2.87088,-4.5156,-1.5228,3.72111,10.0415,7.88896,17.2592,-26.506,8.4817,-25.2437,-7.42945,5.00687,-12.7361,1.32589e-13,-2.38542e-15,-24.6712,-3.53274,-72.9497,128.507,-23.2158,-28.1389,3.73868,7.12502,-1.5201,-26.2357,1.32589e-13,-2.38542e-15,-28.3672,0.46804,87.2095,133.77,55.9988,-11.5782,37.191,7.12502,14.4634,66.6669,-17.2932,9.11386,10.4158,45.2247,-29.1951,-6.17146,-22.5454,2.98059,-5.99473,-9.73471,31.9496,-30.3882,-0.648425,-36.4453
25.2915,16.6241,-31.3726,-1.82227,-19.132,-0.601422,1.26199,-2.75305,-0.843057,-3.96481,-3.60504,3.07537,-4.55226,-1.70884,3.83915,9.83592,8.19988,16.1064,-26.4778,8.74878,-24.7673,-7.42518,5.18304,-12.308,-3.85642e-14,-2.38542e-15,-23.6368,-2.54021,-72.7295,128.491,-23.2214,-28.8369,4.26955,7.12502,-2.19423,-25.6989,-3.85642e-14,-2.38542e-15,-29.0873,1.10761,87.0774,133.885,56.0862,-10.6475,37.5043,7.12502,15.36,66.9138,-17.2525,9.12314,10.3803,45.6566,-29.3877,-5.93937,-21.7676,3.01671,-5.81593,-9.72726,32.2675,-31.1187,0.339787,-38.9255
25.3242,16.5967,-31.3652,-1.83543,-19.0454,-0.744667,1.4915,-2.41124,-0.609293,-3.82374,-3.14697,2.82809,-4.59247,-1.49335,3.43705,8.68691,7.9561,16.9867,-25.932,8.42132,-25.0564,-7.0282,4.93087,-12.4309,-9.83984e-15,-5.56597e-15,-23.2352,-3.71054,-72.4846,128.558,-22.8911,-29.3855,4.74975,7.12502,-2.72406,-25.2126,-9.83984e-15,-5.56597e-15,-29.2711,-0.340418,87.0675,133.658,56.0116,-10.039,37.993,7.12502,15.9461,67.3566,-17.4423,9.18257,10.4041,46.1222,-29.599,-5.75029,-20.9879,2.80041,-5.65851,-9.62595,32.7264,-31.6379,0.592815,-39.2961
25.3575,16.5673,-31.3601,-1.86179,-18.9919,-0.798644,1.77547,-2.43889,-0.50797,-3.95686,-3.17132,2.94007,-4.8915,-1.50167,3.51886,9.1531,7.88668,16.5109,-26.3423,8.25554,-24.9847,-7.32517,4.90043,-12.4089,3.598e-14,-1.03368e-14,-22.8612,-3.4147,-72.096,128.504,-22.7016,-29.6804,5.16549,7.12502,-3.00881,-24.793,3.598e-14,-1.03368e-14,-29.9423,-0.307554,87.0154,133.368,55.9682,-9.37305,38.2992,7.12502,16.5873,67.6103,-17.6598,9.1525,10.3249,46.5979,-29.7134,-5.79288,-21.0237,2.53887,-5.46045,-9.62456,33.2965,-32.1033,0.255741,-38.602
25.3912,16.5396,-31.355,-2.01779,-19.004,-0.731387,2.105,-2.46114,-0.418056,-4.08447,-3.19209,2.93078,-5.21752,-1.50965,3.48361,10.0072,7.73274,16.0965,-26.7478,8.05029,-24.8237,-7.71288,4.85429,-12.3986,4.59193e-14,-7.15625e-15,-22.6226,-3.0924,-71.88,128.436,-22.6405,-29.8258,5.467,7.12502,-3.14918,-24.4895,4.59193e-14,-7.15625e-15,-31.2147,-0.148233,86.733,133.75,56.0907,-8.46421,38.7156,7.12502,17.4621,67.9513,-17.7856,9.19409,10.1259,47.09,-29.8758,-5.85993,-20.6659,2.37213,-5.19037,-9.77214,33.9346,-32.4853,-0.347291,-37.2446
25.4232,16.5079,-31.3474,-2.12558,-19.0793,-0.63869,2.26919,-2.30651,-0.302369,-4.01944,-2.98633,2.73633,-5.27091,-1.41525,3.20979,9.78395,7.61351,16.1746,-26.5737,7.90409,-24.7395,-7.65031,4.76136,-12.3447,3.598e-14,5.56597e-15,-22.2829,-3.40017,-71.794,128.328,-22.4037,-29.9715,5.56906,7.12502,-3.28989,-24.3853,3.598e-14,5.56597e-15,-32.5925,-0.604011,86.5078,134.851,56.3635,-8.5414,39.0493,7.12502,17.3878,68.2916,-17.9957,9.40993,9.90049,47.6104,-30.2497,-5.65375,-19.1921,2.16672,-4.93016,-9.96763,34.6034,-32.9256,-1.11476,-34.5498
25.4547,16.4726,-31.3387,-2.16159,-19.0158,-0.758706,2.38891,-2.3256,-0.0487578,-3.90646,-2.99876,2.74454,-5.23235,-1.43229,3.07895,9.45474,7.77791,15.7422,-26.4953,8.05337,-24.5498,-7.5641,4.84181,-12.1496,8.54774e-15,-1.74931e-14,-21.6749,-3.26259,-71.6277,128.064,-22.0253,-30.1466,5.78908,7.12502,-3.45899,-24.1626,8.54774e-15,-1.74931e-14,-33.545,-0.709019,86.4747,135.866,57.5674,-10.3559,38.8372,7.12502,15.6409,68.2249,-18.1968,9.53024,9.91273,48.1755,-30.6203,-5.31175,-17.8222,1.92384,-4.83899,-9.92053,35.259,-33.7334,-1.79603,-32.1358
25.4888,16.4344,-31.3345,-2.24015,-18.8671,-0.977141,2.63696,-2.44036,0.340785,-3.84266,-3.12784,2.77035,-5.31993,-1.51029,2.90729,9.73079,7.84721,15.4294,-26.7776,8.11323,-24.4345,-7.72365,4.89669,-12.1024,5.50634e-14,-5.56597e-15,-21.1028,-3.09678,-71.7253,127.76,-21.6778,-30.0081,5.95831,7.12502,-3.32524,-23.9955,5.50634e-14,-5.56597e-15,-34.2235,-0.233237,86.0462,136.116,57.4829,-9.34145,39.2974,7.12502,16.6177,68.606,-18.325,9.5152,10.0363,48.7874,-30.9062,-5.30469,-17.4176,1.71554,-4.85528,-9.74848,35.9164,-35.0315,-2.20161,-30.5075
25.5195,16.3969,-31.3317,-2.39202,-18.9026,-0.942947,2.93218,-2.32067,0.426379,-3.50171,-2.96901,2.62927,-5.14935,-1.43967,2.7037,8.70059,7.88643,15.5932,-26.7962,8.05771,-24.4487,-7.52866,4.81137,-12.0529,-5.32743e-14,-2.94201e-14,-20.0265,-3.9099,-72.1541,127.481,-21.3156,-29.5192,5.62374,7.12502,-2.85312,-24.3369,-5.32743e-14,-2.94201e-14,-33.9598,-0.222192,85.6946,136.158,57.1458,-8.42351,39.5324,7.12502,17.5013,68.7646,-18.5396,9.55688,9.89282,49.4232,-31.1049,-5.49473,-17.5358,1.56966,-4.70173,-9.85842,36.624,-34.6405,-1.52706,-32.7407
25.545,16.359,-31.3278,-2.47196,-18.9918,-0.776203,3.19115,-2.00713,0.242335,-3.1872,-2.56826,2.43182,-4.98454,-1.23952,2.57403,7.25553,7.82184,16.1949,-26.5303,7.8508,-24.7416,-7.15104,4.62347,-12.1337,-1.80894e-14,1.90833e-14,-19.7961,-3.92304,-71.5183,127.035,-21.4273,-30.4455,5.87146,7.12502,-3.74771,-24.0753,-1.80894e-14,1.90833e-14,-33.5241,-0.694686,85.5727,136.174,56.7847,-7.81579,39.573,7.12502,18.0861,68.7521,-18.91,9.61118,9.6047,50.0646,-31.14,-5.71132,-18.1576,1.25889,-4.43826,-10.0873,37.4109,-35.1375,-0.964385,-33.5951
25.5688,16.3169,-31.3268,-2.50523,-19.0095,-0.743086,3.52534,-2.22827,0.235669,-2.83528,-2.8559,2.65111,-4.78447,-1.38132,2.82958,5.72564,8.32376,15.0701,-26.578,8.20149,-24.5029,-6.87335,4.79911,-11.7037,5.03919e-14,1.59028e-15,-18.6475,-2.81142,-71.2287,126.445,-21.4273,-30.5889,5.98029,7.12502,-3.88616,-23.964,5.03919e-14,1.59028e-15,-33.4452,0.613457,85.2999,136.463,56.3637,-6.84473,39.4907,7.12502,19.0201,68.5808,-19.2523,9.57993,9.46661,50.7109,-31.2547,-5.98616,-18.9839,0.785825,-4.30187,-10.1516,38.2642,-35.437,-0.476866,-34.882
25.5923,16.2784,-31.3256,-2.50984,-18.9513,-0.88482,3.70397,-2.04453,0.4923,-3.51364,-2.58967,2.41724,-5.63106,-1.25278,2.45549,9.06094,7.40243,15.8509,-27.4105,7.35625,-24.574,-7.94543,4.46802,-12.2719,-6.36111e-14,1.43125e-14,-20.6127,-2.8252,-70.972,126.34,-21.322,-30.1388,5.7595,7.12502,-3.45147,-24.1923,-6.36111e-14,1.43125e-14,-35.5398,0.358613,84.716,137.044,56.0241,-5.3241,39.5839,7.12502,20.482,68.5236,-19.5428,9.49199,9.51607,51.3782,-31.5315,-6.24536,-19.4476,0.333171,-4.31908,-10.0436,39.1285,-35.4724,-0.321931,-36.6262
25.6166,16.2463,-31.3242,-2.38796,-18.8031,-0.910881,3.77654,-1.98104,0.586916,-3.45178,-2.50174,2.34132,-5.61803,-1.21466,2.31734,8.62121,7.36055,15.7568,-27.2052,7.28021,-24.4011,-7.8275,4.40763,-12.1275,-8.2595e-14,-4.77083e-15,-20.6323,-2.99378,-70.8444,125.939,-21.4278,-30.0336,5.8525,7.12502,-3.34995,-24.1009,-8.2595e-14,-4.77083e-15,-35.6678,0.771799,84.2444,137.281,55.1247,-2.9508,39.1674,7.12502,22.7612,67.8447,-20.0381,9.37038,9.42149,52.0751,-31.7164,-6.72314,-20.1958,-0.245003,-4.37766,-10.0389,39.97,-36.6474,0.527457,-37.2898
25.6362,16.2168,-31.3259,-2.4151,-18.6935,-0.618527,3.97217,-1.96822,0.298388,-3.55605,-2.5025,2.2541,-5.83113,-1.20274,2.40034,9.01839,7.2247,15.5815,-27.3778,7.11346,-24.2554,-8.02442,4.34419,-12.0946,1.30204e-14,7.15625e-15,-20.8916,-2.74339,-70.737,125.404,-21.7775,-30.1952,6.22417,7.12502,-3.50593,-23.7267,1.30204e-14,7.15625e-15,-36.0976,1.26191,83.9646,137.401,54.0424,-0.732747,38.7641,7.12502,24.8883,67.1638,-20.4817,9.38815,9.01614,52.7415,-31.9054,-7.01434,-20.2806,-0.7453,-4.33459,-10.3431,40.7577,-37.4228,-1.11288,-33.8058
25.6492,16.1861,-31.3295,-2.532,-18.659,-0.417348,4.26191,-1.99796,0.087563,-3.6457,-2.55363,2.20999,-6.08291,-1.21692,2.49316,9.70843,7.07454,15.3797,-27.8386,6.91259,-24.1465,-8.38395,4.27751,-12.1302,6.16232e-15,-6.36111e-15,-21.2143,-2.37059,-70.8146,124.782,-21.9807,-29.6856,6.27813,7.12502,-3.01384,-23.6803,6.16232e-15,-6.36111e-15,-36.6031,1.86523,83.6447,137.754,53.5167,0.22651,39.2012,7.12502,25.8073,67.4706,-20.7109,9.55515,8.74031,53.3099,-32.1453,-6.97729,-19.5499,-1.10108,-4.13434,-10.5131,41.4531,-36.9409,-0.975214,-35.2812
25.6634,16.1536,-31.3259,-2.49098,-18.8033,-0.628549,4.42402,-1.853,0.374236,-3.41464,-2.34295,2.1465,-5.95454,-1.12788,2.24627,9.07114,7.14766,15.1335,-28.0005,6.92494,-23.8661,-8.34049,4.25083,-11.9392,2.20651e-14,-8.74653e-15,-21.2274,-2.72074,-71.0247,124.142,-22.1718,-28.7069,6.04872,7.12502,-2.06863,-23.921,2.20651e-14,-8.74653e-15,-36.2892,2.24279,83.1811,138.085,53.2457,1.57473,39.3152,7.12502,27.0978,67.3904,-20.9395,9.74874,8.90877,53.7667,-32.252,-7.15066,-19.6149,-1.35036,-3.84865,-10.2583,42.0088,-37.4733,-0.765347,-35.4656
25.6782,16.1293,-31.3082,-2.63361,-19.1953,-0.850642,4.63949,-1.7324,0.694419,-3.71921,-2.14709,2.19469,-6.41733,-1.03971,2.11719,10.9775,6.8547,14.6915,-28.5104,6.677,-23.5027,-9.00982,4.2063,-11.9371,2.70347e-14,6.36111e-15,-22.578,-2.19837,-70.9988,123.771,-22.8555,-28.1464,5.39402,7.12502,-1.52735,-24.5803,2.70347e-14,6.36111e-15,-37.3771,2.91923,82.714,138.522,53.0313,3.53934,39.0023,7.12502,28.9758,66.7703,-21.007,10.106,9.13937,54.1414,-32.2636,-7.42786,-20.3304,-1.1638,-3.54317,-10.0852,42.3868,-37.2887,-0.573932,-36.3477
25.6853,16.1148,-31.2911,-2.92755,-19.5785,-0.69232,4.92011,-1.46002,0.563516,-3.37905,-1.79917,2.0635,-6.2287,-0.866469,2.01872,9.74384,6.79478,15.051,-28.0078,6.51152,-23.7532,-8.59061,4.07687,-11.9408,-1.41137e-14,7.95139e-16,-22.6707,-2.47568,-71.055,123.29,-23.3974,-27.803,4.3236,7.12502,-1.19568,-25.6528,-1.41137e-14,7.95139e-16,-36.7933,3.32836,82.3094,138.782,53.1762,5.30961,38.9683,7.12502,30.6652,66.4331,-21.0527,10.5624,8.99901,54.5026,-32.2867,-7.4013,-20.3816,-0.823067,-3.20339,-10.3077,42.5796,-37.5949,-0.314898,-36.4423
25.6867,16.1027,-31.2801,-3.0597,-19.7375,-0.452485,5.11678,-1.17338,0.333847,-2.9638,-1.44806,1.82894,-5.91325,-0.690939,1.86303,7.78871,6.75721,15.9244,-27.3421,6.29581,-24.4456,-7.93519,3.88365,-12.1505,-6.77856e-14,2.06736e-14,-22.5329,-3.1614,-71.2541,122.666,-23.7106,-27.5372,3.72102,7.12502,-0.938946,-26.2567,-6.77856e-14,2.06736e-14,-35.7737,3.51868,81.9175,138.977,53.3598,7.06379,38.9544,7.12502,32.3364,66.0923,-21.1878,10.8013,8.77227,54.8172,-32.3889,-7.68739,-20.8745,-0.679978,-2.95013,-10.5488,42.6382,-37.7759,-0.0564955,-36.9488
25.6887,16.0921,-31.2663,-3.08804,-19.8209,-0.348952,5.17368,-1.12757,0.210239,-3.0372,-1.39326,1.85448,-6.02128,-0.657424,1.95676,8.07567,6.62252,15.8786,-27.2972,6.09323,-24.6397,-8.01662,3.82187,-12.2414,-3.77691e-15,-1.74931e-14,-23.2477,-2.75768,-71.3534,122.041,-24.3193,-27.2275,3.63756,7.12502,-0.639795,-26.3412,-3.77691e-15,-1.74931e-14,-35.9872,4.24566,81.667,139.439,53.4542,8.17178,39.1981,7.12502,33.3903,66.1151,-21.2776,10.9436,8.6771,55.0456,-32.5421,-8.09679,-21.1745,-0.594163,-2.81212,-10.6543,42.636,-38.8689,0.311961,-36.7645
25.6889,16.081,-31.2556,-3.02145,-19.9569,-0.303492,4.63995,-1.09172,0.452411,-2.73797,-1.35153,1.5963,-5.4136,-0.655662,1.52766,8.0809,6.5085,15.9485,-27.5379,5.95392,-24.4423,-8.14207,3.7264,-12.2067,-1.92821e-14,-7.95139e-15,-23.5166,-2.77989,-72.0169,121.329,-24.8002,-26.4325,2.91936,7.12502,0.128056,-27.0603,-1.92821e-14,-7.95139e-15,-35.3398,4.829,80.9304,139.935,53.9534,8.76304,40.0846,7.12502,33.9522,66.8789,-21.4042,11.2099,8.61879,55.1859,-32.701,-8.11682,-20.5611,-0.598915,-2.68169,-10.6932,42.6296,-38.216,0.0947842,-37.6028
25.6831,16.0763,-31.2486,-2.92597,-20.0075,-0.318114,4.72863,-0.897798,0.457346,-2.96851,-1.09369,1.47918,-5.71415,-0.529079,1.38537,8.49815,6.11555,16.3611,-27.3581,5.51837,-24.5857,-8.24741,3.51124,-12.3627,5.28767e-14,1.15295e-14,-24.8927,-3.10167,-72.1635,120.663,-24.8514,-25.2135,1.931,7.12502,1.30533,-28.0448,5.28767e-14,1.15295e-14,-35.4252,4.95675,80.5151,140.293,54.6215,9.9898,40.7615,7.12502,35.1167,67.2902,-21.4662,11.4,8.66299,55.2526,-32.8191,-8.05411,-20.1038,-0.643113,-2.57562,-10.6151,42.5854,-37.4029,-0.171856,-38.3769
25.6727,16.0779,-31.2352,-2.98932,-20.0038,-0.197376,5.00745,-0.91749,0.273306,-3.1092,-1.12631,1.52199,-6.01714,-0.535243,1.54497,8.36393,6.18134,15.8324,-26.9636,5.60014,-24.3114,-8.11013,3.57367,-12.0921,-5.93372e-14,-8.34896e-15,-25.9319,-2.88425,-72.4287,119.871,-24.839,-24.2674,1.63796,7.12502,2.21908,-28.3302,-5.93372e-14,-8.34896e-15,-35.5662,5.85161,80.0965,140.643,55.8252,11.2491,41.1486,7.12502,36.31,67.3883,-21.3736,11.4592,8.59734,55.2982,-32.883,-7.99516,-19.7966,-0.48648,-2.55543,-10.7039,42.4254,-37.8602,-0.066909,-37.5806
25.658,16.0813,-31.2185,-3.04822,-20.0377,0.0548716,5.0398,-0.9422,0.0041243,-3.04175,-1.18192,1.48868,-5.95852,-0.552845,1.66643,7.84571,6.4186,15.1163,-26.7075,5.88447,-23.7795,-7.92045,3.70756,-11.6728,-3.24516e-14,3.97569e-16,-26.5397,-2.59491,-72.9416,119.16,-25.1587,-24.0112,1.36752,7.12502,2.46653,-28.598,-3.24516e-14,3.97569e-16,-35.3158,6.46927,79.9089,141.365,57.1188,10.2379,41.7056,7.12502,35.352,68.1787,-21.3553,11.5155,8.38182,55.3404,-32.8731,-8.17749,-19.9695,-0.269337,-2.63267,-10.9872,42.1314,-37.4704,-0.106126,-37.4288
25.6406,16.0949,-31.2,-3.04677,-20.0623,0.285384,5.0058,-0.952301,-0.204311,-2.90392,-1.21581,1.42483,-5.78997,-0.564109,1.71698,7.23067,6.59719,14.4541,-26.7932,6.03459,-23.2886,-7.85526,3.76721,-11.3191,-5.15349e-14,2.78299e-15,-26.912,-2.38966,-73.4402,118.477,-25.3808,-23.7216,0.814232,7.12502,2.74623,-29.1478,-5.15349e-14,2.78299e-15,-34.7873,6.64568,79.9906,141.835,57.0068,9.49462,41.9434,7.12502,34.6468,68.5812,-21.3801,11.6035,8.20054,55.3674,-32.8361,-8.31383,-19.953,-0.0363751,-2.70604,-11.2521,41.7331,-37.5339,0.0287954,-37.2057
25.6225,16.112,-31.1794,-3.12742,-20.1015,0.45296,5.03621,-0.894255,-0.288136,-3.03034,-1.15104,1.28332,-5.9435,-0.530213,1.61319,7.67556,6.41479,14.3306,-26.8569,5.8566,-23.0113,-8.02841,3.68519,-11.2281,6.95249e-14,7.95139e-16,-28.1448,-2.31257,-73.8962,117.857,-25.5608,-23.302,0.497298,7.12502,3.15144,-29.4592,6.95249e-14,7.95139e-16,-34.8655,6.87972,79.6115,141.437,55.4509,13.5981,41.7153,7.12502,38.5304,67.3682,-21.2694,11.6875,8.12746,55.3729,-32.8201,-8.42195,-19.747,0.302693,-2.71527,-11.4384,41.3697,-37.3159,-0.161122,-37.4971
25.6042,16.1278,-31.1607,-2.99924,-20.1752,0.330135,4.90339,-0.849292,-0.0729474,-3.18548,-1.07885,1.20307,-6.03814,-0.50426,1.40141,8.26271,6.16867,14.6701,-26.9469,5.59102,-23.1762,-8.20998,3.56521,-11.4093,3.21037e-14,1.19271e-15,-29.5278,-2.12204,-74.4969,117.196,-25.8483,-23.0623,0.502533,7.12502,3.3829,-29.4504,3.21037e-14,1.19271e-15,-35.1961,6.38053,79.6389,143.206,58.2543,6.87924,42.831,7.12502,32.1607,70.0046,-21.2806,11.677,8.33926,55.3128,-32.627,-8.51667,-19.713,0.485406,-2.73103,-11.3113,41.0253,-37.3814,-0.122494,-37.022
25.5778,16.1472,-31.1735,-2.26915,-19.6592,-0.1331,4.60139,-1.08601,0.261911,-3.42683,-1.36608,1.30899,-6.11784,-0.657462,1.34975,8.53967,6.08709,14.9056,-27.0166,5.47008,-23.5018,-8.28636,3.52696,-11.611,-7.35503e-15,-5.1684e-15,-30.564,-1.86027,-75.1825,116.429,-25.7735,-22.532,0.613827,7.12502,3.89507,-29.3303,-7.35503e-15,-5.1684e-15,-34.9858,7.41933,78.8598,142.242,56.4242,14.1306,42.4465,7.12502,39.0327,67.9572,-21.7143,11.2197,8.89285,55.2339,-32.2118,-8.57081,-19.4414,-0.180281,-3.00026,-10.6152,40.692,-38.2733,-0.473817,-35.4526
25.548,16.166,-31.1613,-2.04293,-19.5828,-0.315662,4.49417,-1.13146,0.369653,-3.51004,-1.41611,1.37539,-6.14412,-0.68525,1.36231,8.05502,6.15707,14.8772,-26.2877,5.56167,-23.6601,-7.91831,3.5745,-11.5525,-6.75868e-15,2.78299e-15,-31.6208,-1.84911,-75.63,115.759,-25.669,-22.2941,0.838414,7.12502,4.12476,-29.1014,-6.75868e-15,2.78299e-15,-34.8031,8.22888,78.3858,142.243,58.4514,15.6214,42.7271,7.12502,40.4362,67.82,-21.6918,11.2362,9.20708,55.1135,-32.0732,-8.48536,-18.9224,-0.0630765,-3.13524,-10.3393,40.2127,-37.108,-1.17807,-35.4378
25.5126,16.1825,-31.1315,-2.2134,-19.6901,-0.0272208,4.44984,-1.11513,-0.0162921,-3.47401,-1.42292,1.37408,-6.07105,-0.672545,1.57609,7.2676,6.26417,14.8275,-25.3686,5.69586,-23.8107,-7.42584,3.62718,-11.4487,-1.6847e-14,6.36111e-15,-32.6167,-1.73069,-75.931,115.116,-25.7469,-22.541,1.00253,7.12502,3.88638,-28.9418,-1.6847e-14,6.36111e-15,-34.6667,8.64196,78.2739,142.643,59.8968,14.7451,43.0667,7.12502,39.6117,68.4087,-21.4169,11.3772,9.05399,55.0262,-32.186,-8.15688,-17.9155,0.559628,-3.18833,-10.6181,39.6131,-37.841,-1.86106,-33.324
25.4735,16.2077,-31.0986,-2.35711,-19.6624,0.272474,4.21993,-1.21385,-0.379761,-3.3641,-1.58431,1.33661,-5.81031,-0.740354,1.74737,7.04561,6.32557,14.68,-25.1418,5.78024,-23.7074,-7.30324,3.66153,-11.3414,-2.17172e-14,-3.57812e-15,-33.4669,-1.36351,-76.4774,114.241,-25.3929,-22.5503,0.879524,7.12502,3.87734,-29.0649,-2.17172e-14,-3.57812e-15,-34.5699,8.55785,78.46,143.359,60.3769,11.9254,43.0308,7.12502,36.9501,69.1081,-21.1696,11.395,8.92175,54.9616,-32.2157,-7.97439,-17.0153,1.17792,-3.29433,-10.9008,38.8874,-36.8099,-1.72315,-34.3593
25.439,16.2319,-31.0767,-2.34347,-19.6168,0.253942,4.01384,-1.30614,-0.313958,-3.28956,-1.70724,1.27908,-5.61342,-0.807073,1.65399,7.6992,6.34071,14.173,-25.9001,5.79601,-23.1952,-7.72798,3.69388,-11.1707,-2.57923e-14,2.38542e-15,-34.4903,-1.09823,-77.264,113.392,-24.7454,-22.9116,0.818433,7.12502,3.52847,-29.1321,-2.57923e-14,2.38542e-15,-34.4111,8.47791,78.4318,143.699,60.4998,10.8928,42.7536,7.12502,35.9726,69.0768,-21.0434,11.3525,9.13243,54.928,-32.0625,-8.23303,-17.1383,1.6409,-3.4177,-10.8541,38.133,-37.2722,-1.77419,-33.487
25.4094,16.2466,-31.0587,-2.25203,-19.6528,0.0841763,3.87154,-1.38697,-0.0664386,-3.17792,-1.80078,1.27495,-5.41967,-0.864945,1.51223,8.02769,6.41846,13.9014,-26.5697,5.83316,-23.072,-8.02461,3.73527,-11.1659,2.06239e-14,1.59028e-15,-35.3885,-0.956387,-78.0425,112.759,-24.3227,-23.5854,0.775926,7.12502,2.8778,-29.1844,2.06239e-14,1.59028e-15,-33.9562,8.84354,78.1606,143.689,60.9187,11.3744,42.6564,7.12502,36.4287,68.8664,-20.9839,11.2434,9.45522,54.9043,-31.75,-8.60403,-17.9561,2.04089,-3.51241,-10.6616,37.4028,-36.0686,-1.27841,-34.8079
25.3722,16.2643,-31.0345,-2.21158,-19.7105,0.126665,3.79161,-1.37324,-0.262604,-3.10275,-1.79357,1.31625,-5.28814,-0.854313,1.6602,7.21165,6.519,14.4017,-26.0898,5.91545,-23.6229,-7.629,3.74697,-11.364,-1.11816e-14,1.07344e-14,-36.2256,-1.04723,-78.4902,112.16,-24.1917,-23.1905,0.618091,7.12502,3.25916,-29.3367,-1.11816e-14,1.07344e-14,-33.4926,8.96858,78.1633,143.585,61.3415,11.727,42.5573,7.12502,36.7624,68.6828,-20.9246,11.1066,9.55748,54.8884,-31.5121,-8.7431,-18.4752,2.46945,-3.61431,-10.6795,36.7052,-35.9595,-1.0582,-34.9068
25.3249,16.2847,-31.0115,-2.19427,-19.6831,0.274126,3.67257,-1.28228,-0.521801,-3.28796,-1.69396,1.18498,-5.41362,-0.796259,1.66164,7.47104,6.26502,15.3318,-25.4977,5.70264,-24.2403,-7.45599,3.63256,-11.7398,-1.53064e-14,3.57812e-15,-37.7641,-1.38087,-78.9371,111.611,-24.264,-21.9878,0.568269,7.12502,4.42055,-29.3656,-1.53064e-14,3.57812e-15,-33.5438,8.46265,78.0581,143.519,61.5536,12.0654,42.3949,7.12502,37.0826,68.438,-20.8164,11.0148,9.59428,54.8704,-31.4308,-8.67706,-19.1155,2.86219,-3.75053,-10.7624,36.0212,-35.5561,-0.824751,-35.4225
25.2778,16.3004,-30.9973,-2.15227,-19.5953,0.289612,3.59488,-1.53313,-0.687952,-3.50702,-2.03148,1.35544,-5.57721,-0.951197,1.96177,8.11374,6.26674,15.1436,-25.1281,5.77256,-24.3729,-7.4479,3.72569,-11.7621,1.13307e-14,-3.97569e-16,-39.1903,-0.583532,-79.4326,111.062,-24.4592,-21.5955,0.609268,7.12502,4.79933,-29.3164,1.13307e-14,-3.97569e-16,-33.945,8.99822,77.8746,143.571,61.7528,12.4806,42.103,7.12502,37.4751,68.0431,-20.698,10.9254,9.77258,54.8577,-31.3098,-8.55577,-19.3986,3.22744,-3.84133,-10.6515,35.3682,-35.6405,-0.81698,-34.9772
25.2349,16.319,-30.9859,-2.16236,-19.3632,0.368536,3.5211,-1.74649,-0.783785,-3.49179,-2.32402,1.3294,-5.50541,-1.09376,2.00881,8.59925,6.29198,14.8714,-25.5083,5.82357,-24.088,-7.68463,3.76826,-11.673,5.15349e-14,8.74653e-15,-40.2296,-0.309682,-80.0494,110.472,-24.417,-21.5928,0.701466,7.12502,4.80193,-29.2241,5.15349e-14,8.74653e-15,-33.7238,9.27089,77.6149,143.31,62.1179,13.0463,41.432,7.12502,38.0096,67.2286,-20.5594,10.7184,9.87993,54.8831,-31.1508,-8.50468,-18.5838,3.5412,-4.00311,-10.6081,34.7974,-35.0236,-0.234552,-36.666
25.1925,16.3303,-30.9755,-2.13062,-19.0153,0.556869,3.4296,-1.87176,-1.08892,-3.15607,-2.51127,1.27959,-5.08337,-1.1826,2.1292,7.91743,6.54436,14.5048,-26.2414,5.99384,-23.8014,-7.78335,3.82168,-11.5189,-3.66261e-14,-7.95139e-15,-40.4724,-0.516427,-80.5428,109.729,-24.3295,-21.4356,0.755738,7.12502,4.9538,-29.1664,-3.66261e-14,-7.95139e-15,-32.5765,9.48002,77.5757,142.546,62.2427,14.9363,40.563,7.12502,39.7917,65.8516,-20.4768,10.4313,9.84015,54.952,-31.0752,-8.49274,-19.0599,3.66407,-4.28039,-10.6843,34.2988,-35.283,-0.372102,-36.452
25.148,16.331,-30.9635,-2.02808,-18.7308,0.644605,3.30135,-2.10047,-1.24596,-3.48901,-2.82403,1.33286,-5.33585,-1.32578,2.29997,9.96385,6.42749,13.9352,-27.2276,5.9036,-23.4444,-8.59162,3.87782,-11.5362,5.76476e-15,-7.95139e-15,-42.1669,-0.0800298,-81.0261,109.183,-24.3789,-21.5442,0.8011,7.12502,4.84886,-29.1234,5.76476e-15,-7.95139e-15,-33.057,9.91253,77.1,141.568,61.6942,19.263,39.5232,7.12502,43.8479,63.4625,-20.4711,10.1899,9.88146,55.0767,-31.2225,-8.26541,-19.5374,3.75672,-4.40193,-10.5996,33.8166,-34.6115,-0.861411,-36.0298
25.1001,16.3354,-30.9432,-2.04118,-18.5142,0.828446,3.24072,-2.18892,-1.57131,-3.39329,-2.9608,1.31888,-5.17942,-1.3844,2.47133,9.38285,6.6571,13.6057,-27.0494,6.20583,-23.0816,-8.38455,3.99575,-11.2672,-1.77415e-14,2.78299e-15,-43.0106,-0.060505,-81.3502,108.688,-24.5016,-21.5748,0.68569,7.12502,4.81937,-29.2395,-1.77415e-14,2.78299e-15,-32.5779,9.76943,77.1407,141.687,63.7877,16.3907,40.5066,7.12502,41.1591,65.3723,-20.382,10.0198,9.8338,55.2336,-31.4968,-7.82742,-18.1017,3.99894,-4.47381,-10.6325,33.3431,-34.4179,-1.27257,-34.8765
25.0492,16.341,-30.9257,-2.04112,-18.4088,1.14336,2.98615,-2.4699,-1.92103,-3.30524,-3.35023,1.36097,-4.90029,-1.56976,2.72089,9.5319,6.92579,12.6633,-27.4339,6.50729,-22.4344,-8.56734,4.16634,-10.8977,-9.93923e-17,-1.15295e-14,-43.6988,0.686153,-81.8244,108.171,-24.8484,-21.3534,0.162705,7.12502,5.03312,-29.7575,-9.93923e-17,-1.15295e-14,-32.4019,10.3824,76.8912,141.307,64.5328,16.3243,40.3703,7.12502,41.0967,65.2559,-20.4113,9.89969,9.64355,55.408,-31.6405,-7.64243,-17.7019,4.19639,-4.54324,-10.8183,32.8915,-34.3182,-1.60164,-33.9704
25.0011,16.344,-30.9162,-1.94609,-18.2539,1.22468,2.89549,-2.46654,-2.10862,-3.31847,-3.35759,1.28516,-4.85627,-1.56884,2.7432,9.57204,6.73479,13.2848,-27.3177,6.29734,-22.8067,-8.52582,4.0468,-11.1452,-3.07619e-14,-1.19271e-14,-44.8056,0.467181,-82.1597,107.719,-25.0883,-21.0734,-0.360852,7.12502,5.30351,-30.2745,-3.07619e-14,-1.19271e-14,-32.0375,10.1394,76.7762,140.437,64.7433,18.0045,39.6711,7.12502,42.6718,64.032,-20.502,9.64259,9.69808,55.5949,-31.8122,-7.76584,-18.4005,4.30127,-4.62626,-10.7278,32.4592,-34.0363,-1.6842,-33.7743
24.9537,16.3424,-30.9055,-1.92647,-17.9999,1.21254,2.96403,-2.56889,-2.2108,-3.28789,-3.5003,1.29763,-4.84817,-1.63618,2.82483,9.60926,6.66219,13.7881,-27.2519,6.2092,-23.2535,-8.47687,4.00364,-11.4086,-6.55989e-14,-3.97569e-15,-45.701,0.462846,-82.4946,107.197,-25.2279,-20.8671,-0.733526,7.12502,5.50269,-30.6421,-6.55989e-14,-3.97569e-15,-31.5701,10.0624,76.7414,139.422,65.0397,19.3726,38.9952,7.12502,43.9502,62.8966,-20.4437,9.24962,9.85219,55.8021,-32.1024,-7.74061,-17.9993,4.46424,-4.77506,-10.5457,32.0892,-33.8924,-1.55416,-34.4443
24.9029,16.3355,-30.8903,-1.96086,-17.8156,1.44096,2.92103,-2.81087,-2.51223,-3.22628,-3.83602,1.3514,-4.71601,-1.79478,3.0645,9.74785,6.76728,13.7764,-27.3582,6.30462,-23.4828,-8.50449,4.07757,-11.5199,1.12512e-13,-5.56597e-15,-46.3895,1.07438,-82.9647,106.621,-25.381,-21.2411,-0.938176,7.12502,5.14157,-30.8558,1.12512e-13,-5.56597e-15,-31.3082,10.3452,76.5755,138.45,65.4989,20.0912,38.3852,7.12502,44.62,62.0329,-20.4364,8.93233,9.74058,56.0535,-32.3549,-7.64961,-17.625,4.61615,-4.82336,-10.6069,31.8111,-33.9671,-1.44936,-35.2465
24.8513,16.3253,-30.8755,-1.88229,-17.6142,1.61996,2.83586,-3.05782,-2.7557,-3.26543,-4.17491,1.41128,-4.66453,-1.95466,3.2783,9.79039,6.86858,13.8972,-27.1388,6.42299,-23.8502,-8.38199,4.163,-11.6652,-8.54774e-14,-1.07344e-14,-47.2547,1.81841,-83.4918,106.129,-25.7024,-22.2343,-0.829939,7.12502,4.18252,-30.7686,-8.54774e-14,-1.07344e-14,-31.2685,10.6267,76.2908,137.531,66.0865,21.001,38.0359,7.12502,45.4665,61.3493,-20.5594,8.67492,9.69594,56.3342,-32.5348,-7.75635,-17.9421,4.61886,-4.7723,-10.5497,31.6073,-34.1677,-1.34748,-35.8705
24.7986,16.3128,-30.8649,-1.73927,-17.3779,1.58037,2.84998,-3.25279,-2.86924,-3.34701,-4.43831,1.52459,-4.72163,-2.07747,3.47844,9.68473,7.01361,13.8662,-26.742,6.65127,-23.9169,-8.17321,4.28123,-11.6303,-1.04859e-14,-4.77083e-15,-48.1442,2.33461,-83.8718,105.628,-26.136,-22.7125,-0.909131,7.12502,3.7207,-30.8564,-1.04859e-14,-4.77083e-15,-31.1954,10.8483,76.1568,136.502,66.5264,22.2026,37.7364,7.12502,46.5812,60.5849,-20.6926,8.45066,9.90979,56.6423,-32.7202,-7.84543,-18.254,4.55952,-4.69446,-10.2097,31.4658,-34.3579,-1.43788,-36.3168
24.7444,16.2992,-30.855,-1.67919,-17.2117,1.58964,2.85073,-3.37964,-3.0295,-3.27765,-4.61244,1.59878,-4.61803,-2.16069,3.65083,9.71018,7.14587,13.5813,-26.8714,6.82976,-23.6445,-8.21402,4.36721,-11.4868,2.93207e-15,-1.59028e-14,-48.8456,2.63927,-84.1813,105.173,-26.411,-22.8898,-1.28837,7.12502,3.54948,-31.2386,2.93207e-15,-1.59028e-14,-30.8799,10.9559,76.1655,135.381,66.768,23.2242,36.9965,7.12502,47.526,59.4275,-20.7648,8.25577,10.0732,56.96,-32.9517,-7.89429,-19.0187,4.56433,-4.65593,-9.95221,31.3957,-34.4851,-1.95483,-35.7071
24.6905,16.2811,-30.8445,-1.6816,-17.1544,1.59229,2.82275,-3.40859,-3.13748,-3.08401,-4.65304,1.60723,-4.38754,-2.18557,3.71037,9.50967,7.11858,13.859,-26.9591,6.7609,-23.8848,-8.18722,4.32281,-11.6263,-4.74101e-14,1.59028e-15,-49.474,2.76225,-84.5426,104.806,-26.583,-23.3148,-1.43778,7.12502,3.13911,-31.3944,-4.74101e-14,1.59028e-15,-30.3849,10.6292,76.2092,134.479,67.5682,22.194,36.1917,7.12502,46.5732,59.0436,-20.7952,8.15408,10.2574,57.286,-33.1141,-8.05333,-19.4487,4.65431,-4.6143,-9.72917,31.3955,-34.9717,-2.45442,-34.1695
24.6381,16.2615,-30.8361,-1.71419,-16.9849,1.59282,2.90487,-3.54693,-3.21892,-3.03279,-4.84255,1.64027,-4.35559,-2.27817,3.80326,9.58593,7.0545,14.2797,-26.8466,6.67743,-24.3415,-8.13097,4.29216,-11.8784,-1.43125e-14,-7.95139e-16,-50.2772,3.14582,-84.9679,104.355,-26.7877,-23.5807,-1.47187,7.12502,2.88234,-31.4321,-1.43125e-14,-7.95139e-16,-30.4169,10.1913,76.2267,134.151,69.6144,17.7611,35.9837,7.12502,42.444,60.4233,-20.7821,7.99063,10.4596,57.6296,-33.2865,-8.1923,-19.3986,4.70865,-4.64239,-9.49166,31.4133,-34.7682,-1.06248,-38.316
24.5847,16.2421,-30.8317,-1.69833,-16.7502,1.71849,3.02596,-3.78027,-3.45581,-3.0861,-5.16862,1.71066,-4.42585,-2.42893,4.03669,10.3185,7.15083,14.0181,-27.398,6.79795,-24.2284,-8.45559,4.39035,-11.9093,5.725e-14,-2.38542e-15,-51.1565,3.8126,-85.4317,104.031,-27.4189,-23.7952,-1.99189,7.12502,2.67516,-31.9549,5.725e-14,-2.38542e-15,-30.7284,10.3982,76.0063,133.623,70.4102,16.3792,36.1213,7.12502,41.1483,60.9904,-20.8768,7.78423,10.5275,57.9952,-33.5384,-8.29627,-19.5597,4.65479,-4.70754,-9.35861,31.4215,-34.7341,-1.52272,-38.4021
24.5302,16.2158,-30.8257,-1.7266,-16.735,1.9759,3.10571,-3.84096,-3.8245,-3.01763,-5.2724,1.67604,-4.36188,-2.47193,4.21343,10.4642,7.25771,14.0492,-27.7696,6.91918,-24.2722,-8.57631,4.45292,-11.9889,3.42904e-15,1.66979e-14,-51.8751,4.04429,-85.7774,103.85,-28.1353,-23.5076,-2.73659,7.12502,2.95293,-32.6959,3.42904e-15,1.66979e-14,-30.6077,10.3146,75.8803,132.877,71.3146,14.989,36.0863,7.12502,39.8413,61.36,-21.056,7.67655,10.4294,58.3715,-33.8532,-8.40171,-19.5493,4.74975,-4.7485,-9.40867,31.4235,-34.7655,-2.8393,-35.9915
24.4772,16.1891,-30.8119,-1.76874,-16.8474,2.20071,3.11822,-3.83471,-4.07106,-2.94366,-5.27944,1.59528,-4.27748,-2.47248,4.2639,10.1537,7.24045,14.6412,-27.4831,6.91653,-24.7557,-8.35067,4.43387,-12.2308,-1.23743e-14,5.56597e-15,-52.5441,4.11356,-86.0403,103.582,-28.5212,-23.0119,-3.075,7.12502,3.43158,-33.0271,-1.23743e-14,5.56597e-15,-30.388,10.0075,75.8117,132.034,72.1937,13.0152,35.7095,7.12502,37.9802,61.5141,-21.1938,7.59705,10.3367,58.7077,-34.2715,-8.33852,-18.9511,4.94897,-4.69691,-9.4506,31.3796,-34.7665,-3.96032,-33.4067
24.4246,16.1692,-30.7997,-1.68611,-16.8501,2.21488,3.14535,-3.92942,-4.13901,-2.96432,-5.40836,1.66963,-4.28868,-2.5328,4.38826,10.0087,7.30576,14.8288,-27.0643,7.0471,-24.9531,-8.12606,4.49711,-12.2793,-6.95249e-14,7.15625e-15,-53.2763,4.52989,-86.3503,103.384,-28.8633,-23.0931,-3.59027,7.12502,3.35318,-33.5436,-6.95249e-14,7.15625e-15,-30.3695,10.1455,75.724,131.237,72.3299,12.1529,36.3829,7.12502,37.1653,62.4044,-21.3095,7.477,10.5007,58.9841,-34.7122,-8.37473,-18.4723,4.97176,-4.48755,-9.20404,31.2694,-34.792,-3.59716,-34.4102
24.3701,16.158,-30.7907,-1.66383,-16.6729,2.25766,3.34705,-4.15187,-4.31087,-3.07944,-5.71883,1.84652,-4.45837,-2.67151,4.70634,10.3417,7.46298,14.5112,-27.0244,7.25244,-24.9419,-8.14925,4.64012,-12.2359,-1.53561e-14,1.59028e-14,-54.2227,5.31307,-86.7374,103.387,-29.5755,-23.901,-4.23788,7.12502,2.57301,-34.2021,-1.53561e-14,1.59028e-14,-30.6975,10.564,75.7416,130.519,72.5287,11.2374,36.7779,7.12502,36.299,63.0204,-21.3365,7.14411,10.6851,59.2159,-35.2935,-8.54214,-17.2219,5.02541,-4.53848,-8.99025,31.0739,-34.6411,-4.22934,-33.3292
24.315,16.148,-30.7784,-1.63771,-16.5973,2.31849,3.45391,-4.36999,-4.43218,-3.12405,-6.01803,1.96783,-4.50876,-2.8121,4.9267,10.7666,7.55584,14.4305,-27.3781,7.32135,-25.1502,-8.32524,4.71642,-12.3836,-5.47652e-14,1.59028e-15,-55.0506,6.10215,-87.2041,103.455,-30.4587,-25.0519,-4.45398,7.12502,1.46142,-34.4287,-5.47652e-14,1.59028e-15,-31.1235,10.918,75.7314,129.794,72.6214,9.95304,36.6605,7.12502,35.0818,63.1974,-21.3646,6.85552,10.8571,59.3963,-35.8547,-8.76532,-15.6254,5.21644,-4.67083,-8.84763,30.7933,-34.4707,-5.34149,-31.2222
24.2615,16.1323,-30.7605,-1.62529,-16.6006,2.51306,3.32082,-4.41947,-4.58275,-2.92538,-6.08678,1.87068,-4.21292,-2.85724,4.88721,10.6525,7.59287,14.8097,-27.6758,7.35646,-25.383,-8.35257,4.71302,-12.574,7.20594e-15,1.35174e-14,-55.4799,6.17901,-87.613,103.564,-30.7947,-25.5291,-5.02215,7.12502,1.0006,-34.9995,7.20594e-15,1.35174e-14,-31.1013,10.73,75.8231,129.109,72.5626,7.43102,36.499,7.12502,32.6859,63.565,-21.3234,6.668,10.8505,59.5092,-36.2063,-9.06822,-15.0885,5.42514,-4.58901,-8.88153,30.4984,-34.7123,-3.63933,-35.6235
24.2083,16.1215,-30.7409,-1.7102,-16.5727,2.8739,3.26893,-4.49637,-4.90299,-2.78147,-6.20516,1.77112,-3.99837,-2.91837,4.9519,10.6716,7.70106,14.9711,-27.9719,7.48147,-25.5282,-8.40321,4.77065,-12.6993,1.9133e-14,2.06736e-14,-56.0173,6.30239,-87.9421,103.722,-30.5468,-25.4165,-6.05076,7.12502,1.10934,-36.0276,1.9133e-14,2.06736e-14,-31.1614,10.6955,75.9559,128.714,72.3711,4.23619,36.7144,7.12502,29.6412,64.3661,-21.1813,6.49098,10.6534,59.5428,-36.6394,-9.06203,-14.0646,5.67682,-4.61866,-9.11689,30.28,-34.8115,-3.00331,-37.0026
24.1569,16.1083,-30.7325,-1.62087,-16.7459,2.84533,3.35392,-4.63943,-4.86137,-2.83017,-6.39506,1.8903,-4.06605,-3.00934,5.07166,10.9182,7.88901,14.8248,-28.2405,7.69077,-25.6252,-8.4922,4.90283,-12.7636,-2.60905e-14,-3.97569e-15,-56.7225,6.95066,-88.3368,103.812,-30.237,-25.645,-6.68934,7.12502,0.888583,-36.6672,-2.60905e-14,-3.97569e-15,-31.7355,11.0235,76.0111,128.635,71.8257,1.039,37.4701,7.12502,26.5852,65.6241,-21.176,6.63755,10.9341,59.4958,-37.0376,-9.44522,-13.8872,5.8195,-4.54729,-8.89041,30.1528,-34.6288,-4.10735,-34.7848
24.105,16.0936,-30.726,-1.32884,-17.126,2.50247,3.35423,-4.64687,-4.51475,-2.88452,-6.3816,2.04241,-4.1433,-3.00752,5.04119,11.0245,8.11352,14.6203,-28.532,7.98055,-25.4702,-8.56399,5.0475,-12.7033,8.38374e-14,2.38542e-15,-57.3734,7.32156,-88.7305,103.928,-29.9996,-26.134,-6.75769,7.12502,0.416304,-36.737,8.38374e-14,2.38542e-15,-32.3818,10.9898,76.257,128.67,70.9871,-2.64195,38.4882,7.12502,23.0576,67.1288,-21.3152,6.98116,11.5681,59.4129,-37.1212,-10.3303,-15.2168,5.82433,-4.08913,-8.27301,30.0257,-34.3585,-3.4877,-36.528
24.0512,16.0931,-30.7076,-1.04221,-17.424,2.27843,3.19049,-4.70403,-4.24952,-2.8999,-6.43364,2.14386,-4.07686,-3.04272,4.98672,11.0617,8.31307,14.5707,-28.7096,8.23798,-25.4811,-8.56927,5.17709,-12.7182,-1.08884e-13,-9.54166e-15,-58.0058,7.63097,-89.0578,104.176,-29.4952,-26.0374,-6.62116,7.12502,0.509599,-36.6003,-1.08884e-13,-9.54166e-15,-33.0118,10.947,76.5443,128.71,70.003,-6.46699,39.4019,7.12502,19.3834,68.4559,-21.4516,7.13285,12.0097,59.3403,-37.0784,-10.6578,-15.6036,5.88378,-3.78218,-7.85051,29.8473,-34.2057,-2.81349,-37.8014
23.9956,16.1036,-30.6849,-0.902425,-17.4348,2.36225,3.01689,-4.91181,-4.29274,-2.89355,-6.70565,2.18048,-3.93241,-3.18221,5.04061,11.0181,8.48598,14.7335,-28.6501,8.48036,-25.6934,-8.45113,5.2995,-12.8132,6.95249e-14,1.98785e-14,-58.5692,8.07953,-89.3469,104.459,-28.5694,-25.5257,-6.6299,7.12502,1.00381,-36.6073,6.95249e-14,1.98785e-14,-33.7286,10.9329,76.8172,128.798,68.6909,-10.271,40.6023,7.12502,15.7226,69.9836,-21.4845,7.08472,12.1178,59.3239,-37.1894,-10.5781,-14.9592,6.03836,-3.96626,-7.83101,29.537,-34.1705,-2.89794,-36.9077
23.9364,16.1151,-30.6659,-0.817405,-17.4822,2.55018,2.9513,-5.03225,-4.49451,-2.92184,-6.87658,2.13185,-3.88885,-3.2633,5.10221,10.8946,8.66021,15.0895,-28.5401,8.7886,-25.8296,-8.27556,5.42506,-12.8942,-3.06128e-14,1.59028e-14,-59.1693,8.16353,-89.5667,104.849,-27.0829,-24.2779,-6.99291,7.12502,2.20901,-36.9612,-3.06128e-14,1.59028e-14,-34.4056,10.6603,77.1228,129.042,67.4731,-14.1383,42.2807,7.12502,11.9958,71.9169,-21.5251,7.20615,12.1631,59.3739,-37.3198,-10.7263,-14.5881,6.28304,-4.06337,-7.88891,29.0054,-33.9696,-3.13469,-35.9786
23.8826,16.1238,-30.6522,-0.636438,-17.9008,2.6121,2.98319,-5.00397,-4.58208,-3.06019,-6.84678,2.15138,-4.04307,-3.23741,5.18255,11.0944,8.7456,15.4696,-28.7603,8.93842,-26.1053,-8.30072,5.49467,-13.1168,-1.60519e-14,-3.18055e-15,-60.0517,8.37622,-90.0703,105.459,-27.041,-24.9154,-6.75005,7.12502,1.5933,-36.7238,-1.60519e-14,-3.18055e-15,-35.2188,10.5566,77.4011,129.191,66.3902,-16.8988,43.8774,7.12502,9.33304,73.6508,-21.7859,7.6499,12.2979,59.4619,-37.3142,-10.6428,-13.7513,6.61891,-3.74335,-7.81468,28.3353,-33.6486,-3.04246,-36.1584
23.8358,16.1335,-30.6377,-0.454736,-18.4874,2.68684,3.01691,-5.01048,-4.59752,-3.21838,-6.85788,2.24061,-4.21415,-3.23211,5.29862,11.5249,8.8811,15.4551,-29.2002,9.0884,-26.2837,-8.48184,5.59761,-13.2837,-1.06598e-13,-2.38542e-14,-60.8828,8.90232,-90.5346,105.86,-27.3062,-25.7019,-5.52033,7.12502,0.833655,-35.4984,-1.06598e-13,-2.38542e-14,-36.2609,10.7921,77.7497,129.114,65.0218,-18.9326,46.456,7.12502,7.37021,76.3076,-22.1709,8.12543,12.3435,59.5726,-37.2528,-9.97718,-12.1378,7.02549,-3.39343,-7.83894,27.6433,-33.2825,-2.74673,-36.3465
23.7879,16.145,-30.6191,-0.270373,-18.7272,2.60482,2.90079,-5.20046,-4.36384,-3.27303,-7.09298,2.32283,-4.194,-3.3559,5.25512,11.665,9.12432,15.4402,-29.3185,9.40024,-26.4537,-8.45442,5.77224,-13.3661,-6.76365e-14,-7.95139e-16,-61.4529,9.37047,-90.85,106.247,-26.853,-25.5802,-4.91351,7.12502,0.951182,-34.8911,-6.76365e-14,-7.95139e-16,-37.2745,11.0793,78.0788,129.391,64.7597,-22.2303,49.7206,7.12502,4.18643,79.6592,-22.3529,8.32302,12.5967,59.6599,-37.2174,-9.69511,-11.4563,7.34323,-3.4503,-7.7191,26.9522,-32.697,-1.8725,-37.7766
23.7381,16.1552,-30.6017,-0.0838653,-18.3411,2.38497,2.83097,-5.51739,-4.03475,-3.28364,-7.49476,2.393,-4.14928,-3.5676,5.15437,11.6806,9.32479,15.6339,-29.4032,9.66907,-26.7213,-8.37589,5.91221,-13.5086,-5.96851e-14,8.74653e-15,-61.7238,9.53003,-90.9147,106.691,-25.6826,-25.0338,-4.93618,7.12502,1.47889,-34.9108,-5.96851e-14,8.74653e-15,-38.2756,11.0051,78.4578,130.21,66.4825,-26.8739,50.9833,7.12502,-0.298296,80.9629,-22.1988,8.08679,13.0795,59.6156,-37.2697,-9.89616,-11.4208,7.54656,-3.937,-7.33887,26.1925,-31.8286,-2.25597,-37.1938
23.6895,16.1612,-30.591,0.100397,-18.7579,2.62057,2.78945,-5.5476,-4.2278,-3.43817,-7.54612,2.40322,-4.25695,-3.58054,5.27901,11.7372,9.55687,15.7005,-29.4077,10.0005,-26.8566,-8.28351,6.08442,-13.563,1.35671e-14,-1.35174e-14,-62.0079,9.60389,-90.7269,106.999,-23.7323,-23.2397,-5.00417,7.12502,3.21164,-34.9597,1.35671e-14,-1.35174e-14,-39.493,10.8768,78.8983,130.302,67.2319,-29.4161,50.3637,7.12502,-2.75352,80.3257,-22.4859,8.42233,12.9762,59.5507,-37.2374,-9.82425,-11.3561,7.91863,-3.83591,-7.51853,25.4647,-31.288,-2.35573,-36.1309
23.6464,16.1857,-30.5595,-0.369801,-18.1683,3.02037,3.21381,-5.87041,-4.42948,-3.45014,-8.01107,2.25509,-4.45006,-3.79907,5.30478,11.8282,9.78598,15.7829,-29.3623,10.3519,-26.9569,-8.17797,6.26388,-13.6003,5.65045e-14,7.95139e-15,-62.5243,9.62965,-90.6937,107.371,-22.1497,-21.5908,-5.07053,7.12502,4.80386,-34.9961,5.65045e-14,7.95139e-15,-40.6838,10.8586,79.2765,131.013,69.1109,-32.6332,52.6028,7.12502,-5.86006,82.5017,-21.5827,7.90049,12.8122,59.295,-37.4466,-9.9874,-11.6452,8.61406,-4.63959,-7.93064,24.7876,-30.846,-2.1604,-36.1187
23.6047,16.2111,-30.5306,-0.394389,-18.2199,3.16876,3.09172,-5.94809,-4.30108,-3.37146,-8.10627,2.11772,-4.32378,-3.85896,5.07539,11.7837,9.95564,16.0495,-29.5368,10.5882,-27.1766,-8.12058,6.37279,-13.7394,-1.17979e-13,1.59028e-14,-63.014,9.77615,-91.3929,107.955,-23.1514,-23.6603,-3.63738,7.12502,2.8054,-33.5987,-1.17979e-13,1.59028e-14,-41.3339,10.8932,79.4401,130.849,68.7511,-31.9734,56.1166,7.12502,-5.22308,86.0323,-21.3015,7.74314,12.8005,59.0412,-37.3872,-10.12,-12.1504,9.10749,-4.82366,-8.0949,24.1595,-30.3183,-1.56966,-37.2395
23.5642,16.2308,-30.5125,-0.00866268,-18.734,3.13815,2.64965,-5.93333,-4.03539,-3.32487,-8.05479,2.11488,-4.0663,-3.85302,4.86784,11.5296,10.1638,16.3105,-29.5868,10.8499,-27.4577,-7.96526,6.49483,-13.857,3.49861e-14,-1.35174e-14,-63.2496,9.69242,-91.3978,108.176,-22.4291,-23.0135,-1.57636,7.12502,3.43005,-31.5285,3.49861e-14,-1.35174e-14,-41.8816,11.3929,79.3239,129.991,66.9006,-27.0974,55.6773,7.12502,-0.514182,85.6565,-21.6272,8.07527,12.9206,58.8164,-37.1884,-10.0493,-11.7969,9.35722,-4.56921,-8.03472,23.5192,-29.8285,-1.51166,-37.0295
23.5168,16.2543,-30.498,0.525044,-19.5535,3.11881,2.16817,-5.80705,-3.94651,-3.39621,-7.86289,2.20369,-3.88895,-3.76516,4.85197,11.3646,10.3759,16.4825,-29.5991,11.121,-27.7049,-7.82268,6.63112,-13.9474,6.15736e-14,1.59028e-15,-63.4983,9.78144,-91.1979,108.361,-21.3877,-21.3951,-0.161234,7.12502,4.99283,-30.0824,6.15736e-14,1.59028e-15,-42.7096,10.9004,80.2847,131.132,71.949,-32.3575,46.0784,7.12502,-5.59386,75.9846,-22.2337,8.77918,13.027,58.6302,-37.0617,-9.93095,-11.2378,9.38105,-4.05255,-7.9909,22.9216,-29.4369,-0.613066,-38.3307
23.4695,16.2723,-30.485,0.762192,-20.2109,3.35561,1.84974,-5.72285,-4.13908,-3.37463,-7.74652,2.20973,-3.67421,-3.70959,4.92001,11.2772,10.6216,16.611,-29.755,11.4154,-27.986,-7.73504,6.78835,-14.0691,1.23545e-13,1.35174e-14,-63.5167,9.91929,-90.9608,108.647,-20.022,-19.7008,0.72277,7.12502,6.62864,-29.1535,1.23545e-13,1.35174e-14,-43.2837,10.8363,80.7855,131.351,73.8688,-33.3951,41.3493,7.12502,-6.5956,71.2266,-22.6033,9.31972,12.8706,58.4962,-37.0105,-9.71711,-10.4891,9.5078,-3.8079,-8.26601,22.4927,-28.93,0.363486,-39.6846
23.4395,16.2824,-30.4659,0.415077,-19.718,3.63262,2.07819,-6.04076,-4.13652,-3.20671,-8.17976,2.10785,-3.59481,-3.93213,4.83743,11.2852,10.8207,16.9673,-29.8859,11.6575,-28.5263,-7.62149,6.93134,-14.3444,-8.67198e-14,-1.51076e-14,-63.4383,9.93376,-90.867,108.913,-19.0454,-19.2629,1.58576,7.12502,7.05134,-28.2768,-8.67198e-14,-1.51076e-14,-43.8223,11.0282,80.9975,131.354,75.3643,-34.7482,40.6711,7.12502,-7.90178,70.5034,-21.9595,8.92685,12.7537,58.3179,-37.1258,-9.52843,-9.68545,9.85939,-4.55395,-8.55696,22.2584,-28.3439,-0.0350354,-38.856
23.3931,16.2894,-30.4573,0.949477,-20.5281,3.27336,1.62009,-5.94812,-3.67627,-3.21203,-8.01889,2.20892,-3.40609,-3.87082,4.63278,11.4574,10.9823,17.2714,-30.1623,11.8769,-28.8956,-7.61538,7.05395,-14.5849,1.19271e-14,1.11319e-14,-63.3001,9.98952,-90.9641,109.041,-18.5376,-18.8791,2.30585,7.12502,7.42187,-27.544,1.19271e-14,1.11319e-14,-44.37,11.2616,81.1428,131.362,77.4506,-37.2936,41.4177,7.12502,-10.3579,71.1426,-22.4286,9.71666,13.2209,58.1643,-36.9044,-9.60874,-9.95342,9.82325,-3.99264,-8.10933,22.1357,-27.8047,-0.149614,-37.4565
23.3454,16.3081,-30.4574,1.74954,-21.6075,2.74166,1.13311,-5.73603,-3.1432,-3.30769,-7.69982,2.39205,-3.30687,-3.72699,4.4754,11.6028,11.2714,17.347,-30.4185,12.2658,-29.0929,-7.58865,7.26402,-14.6921,-1.4884e-14,1.11319e-14,-63.1832,10.1545,-91.0141,109.17,-18.2011,-18.1054,3.1132,7.12502,8.16864,-26.7089,-1.4884e-14,1.11319e-14,-44.9076,11.5078,81.2637,131.333,78.988,-39.4798,42.981,7.12502,-12.4662,72.5892,-23.2654,10.7185,13.8317,57.9922,-36.3913,-10.0653,-11.2218,9.50166,-3.20115,-7.51745,22.2806,-27.4981,0.598379,-35.4213
23.3018,16.3386,-30.4502,1.89566,-21.9665,2.99382,1.25242,-5.67118,-3.48197,-3.50225,-7.62793,2.47954,-3.52953,-3.6712,4.777,11.7573,11.4859,17.6104,-30.2821,12.5855,-29.5911,-7.40031,7.46552,-14.9011,-9.61124e-14,-3.02153e-14,-63.29,10.2206,-90.7469,109.355,-17.9439,-17.542,3.87248,7.12502,8.71235,-25.9277,-9.61124e-14,-3.02153e-14,-45.5473,11.5649,81.7026,131.176,79.8238,-41.119,43.7894,7.12502,-14.0463,73.2947,-23.5751,10.9161,13.689,57.9899,-36.1288,-10.3307,-12.2816,9.32034,-2.97072,-7.73691,22.3303,-27.3045,1.30773,-37.7389
23.2523,16.3763,-30.4317,1.84205,-22.0414,3.37729,1.52066,-5.64826,-3.96659,-3.71,-7.62587,2.51057,-3.83365,-3.64158,5.12033,12.0204,11.6107,17.7363,-30.2029,12.8044,-29.8419,-7.32246,7.60607,-15.0202,-4.85035e-14,-7.15625e-15,-63.4064,10.2676,-90.4557,109.437,-17.5751,-17.3298,4.64,7.12502,8.91714,-25.1516,-4.85035e-14,-7.15625e-15,-46.0991,11.442,82.1937,130.777,80.2981,-42.1705,42.9353,7.12502,-15.0594,72.3676,-23.5301,10.8688,13.4565,58.0133,-36.2559,-10.0801,-11.8192,9.16117,-2.70544,-8.0082,22.2001,-26.9956,2.50169,-42.0768
23.2162,16.3519,-30.4335,1.89738,-22.2236,3.57265,1.542,-5.63131,-4.09753,-3.74261,-7.61241,2.42658,-3.8764,-3.62972,5.10993,12.2721,11.8042,17.8372,-30.44,13.0986,-29.9697,-7.33895,7.76616,-15.1214,3.762e-14,6.36111e-15,-63.244,10.2326,-90.3931,109.381,-17.1562,-17.235,5.79579,7.12502,9.00857,-23.9919,3.762e-14,6.36111e-15,-46.422,11.3725,82.263,130.454,80.8811,-43.052,42.0577,7.12502,-15.9085,71.4243,-23.8678,10.9601,13.3531,58.3186,-36.4413,-9.66643,-10.5591,9.4793,-3.10019,-8.10658,21.9275,-25.888,1.28072,-41.3188
23.1813,16.3421,-30.4343,1.92328,-22.4401,3.97276,1.39935,-5.68092,-4.36285,-3.69429,-7.68635,2.30721,-3.72016,-3.66638,5.11205,12.4913,12.126,17.7593,-30.7693,13.5136,-30.1048,-7.35986,8.00172,-15.1892,-1.28713e-13,-2.38542e-14,-62.9029,10.2314,-90.2139,109.176,-16.527,-16.6158,7.2314,7.12502,9.60609,-22.5296,-1.28713e-13,-2.38542e-14,-46.5594,11.4722,82.2018,130.197,81.2765,-42.0743,44.3162,7.12502,-14.9667,73.7554,-24.256,10.9928,13.0205,58.5892,-36.5315,-9.51524,-10.2111,9.53816,-3.37269,-8.4865,21.8006,-26.265,-0.686993,-34.7345
23.1423,16.3459,-30.4278,1.90735,-22.6647,4.34842,1.34435,-5.7469,-4.65533,-3.67545,-7.78448,2.25123,-3.6291,-3.71086,5.2068,12.6428,12.5526,17.354,-30.9781,14.0568,-29.9787,-7.36101,8.30151,-15.0551,-1.26005e-13,7.95139e-15,-62.4504,10.3255,-89.8834,108.908,-15.6923,-15.606,8.11291,7.12502,10.5802,-21.6008,-1.26005e-13,7.95139e-15,-46.7317,11.571,82.1882,129.878,81.485,-38.1023,49.4912,7.12502,-11.1379,79.1756,-24.5061,11.0841,12.7463,58.8368,-36.6604,-9.57666,-10.7208,9.54888,-3.30254,-8.79897,21.7,-25.5788,-0.315509,-35.9182
23.1014,16.3432,-30.4257,1.94233,-22.8772,4.24783,1.49434,-5.75068,-4.52347,-3.61085,-7.79008,2.24266,-3.66311,-3.71745,5.13933,12.6498,12.9186,17.2463,-31.0351,14.5644,-29.9638,-7.25194,8.56438,-14.9754,-9.03725e-14,-1.66979e-14,-61.6452,10.3787,-89.6846,108.715,-15.3676,-14.6528,8.12589,7.12502,11.4996,-21.5387,-9.03725e-14,-1.66979e-14,-46.8396,11.5146,82.0839,129.606,81.8668,-34.7816,53.0803,7.12502,-7.93395,82.9114,-24.5639,11.3595,13.0402,58.9935,-36.7062,-9.70035,-10.6982,9.61487,-3.00604,-8.51288,21.8558,-25.4019,0.465842,-38.863
23.0639,16.3329,-30.4234,2.00016,-22.9767,4.09206,1.59574,-5.73903,-4.32258,-3.5053,-7.76996,2.20719,-3.64231,-3.71621,4.99734,12.675,13.1959,17.3119,-31.184,14.9412,-30.1236,-7.17044,8.76586,-15.0229,-2.08724e-14,1.11319e-14,-60.8249,10.8063,-89.67,108.79,-15.7726,-13.9548,7.80904,7.12502,12.1727,-21.8168,-2.08724e-14,1.11319e-14,-46.6624,11.2836,82.0847,129.18,81.8747,-34.8641,56.3476,7.12502,-8.01359,86.1756,-24.5761,11.4737,13.3777,59.1024,-36.6871,-9.76365,-10.084,9.6507,-2.87565,-8.16154,22.1135,-26.2931,0.239659,-38.275
23.0279,16.3307,-30.412,1.93517,-22.9936,4.25924,1.63996,-5.68595,-4.37382,-3.44777,-7.7058,2.067,-3.62696,-3.68555,4.88092,12.9733,13.3461,17.4824,-31.4447,15.1698,-30.3818,-7.19354,8.90633,-15.2,-9.57894e-14,-3.97569e-15,-60.8205,11.6861,-89.8145,109.152,-16.2705,-14.0676,7.49149,7.12502,12.0639,-22.1408,-9.57894e-14,-3.97569e-15,-46.5366,10.7768,82.247,128.684,81.5205,-36.3897,61.4812,7.12502,-9.48582,-91.2477,-24.515,11.3659,13.3424,59.1974,-36.7317,-9.69364,-9.8536,9.5985,-2.88937,-8.22131,22.3875,-28.7985,-1.96679,-28.9246
22.9931,16.3263,-30.4009,1.70416,-23.0709,4.49873,1.83239,-5.60865,-4.46295,-3.38948,-7.61811,1.89579,-3.69622,-3.63914,4.77011,13.2258,13.5005,17.6572,-31.4413,15.4511,-30.5663,-7.11705,9.06787,-15.294,1.0558e-13,1.74931e-14,-61.0793,12.4806,-89.9594,109.351,-16.6526,-14.5606,7.4386,7.12502,11.5885,-22.221,1.0558e-13,1.74931e-14,-46.571,10.323,82.2049,128.296,80.9438,-34.8636,55.8037,7.12502,-8.01313,85.6318,-24.3229,11.3138,13.2443,59.3299,-36.972,-9.53562,-9.81379,9.62197,-2.82472,-8.37027,22.6636,-25.797,0.193987,-39.3281
22.9558,16.3098,-30.3895,1.41838,-23.2006,4.80103,1.95296,-5.57928,-4.6142,-3.27804,-7.59269,1.73599,-3.65333,-3.62687,4.69342,13.4534,13.7217,17.6935,-31.4455,15.7836,-30.7597,-7.03688,9.2686,-15.3587,-1.124e-13,-1.74931e-14,-60.3844,12.1316,-89.7584,108.828,-16.6863,-14.1161,7.5037,7.12502,12.0172,-22.1313,-1.124e-13,-1.74931e-14,-46.4689,10.0495,81.9625,127.78,80.1568,-32.1189,52.2676,7.12502,-5.36358,82.1797,-24.1454,11.39,13.096,59.5441,-37.3666,-9.4806,-9.66554,9.79018,-2.73191,-8.54976,22.9294,-23.9484,-0.12464,-40.3574
22.9146,16.2889,-30.3734,1.1363,-23.5246,5.20117,1.88173,-5.47545,-4.93174,-3.09305,-7.46308,1.58478,-3.41585,-3.56646,4.68659,13.9031,13.8912,17.6598,-31.945,15.9705,-31.0527,-7.19187,9.41532,-15.5836,7.24322e-15,-4.77083e-15,-58.8099,10.8067,-89.2232,107.79,-16.394,-12.8065,7.34388,7.12502,13.2797,-22.213,7.24322e-15,-4.77083e-15,-46.0851,9.66438,81.8818,127.129,79.5461,-30.4363,48.3616,7.12502,-3.73875,78.3085,-24.0717,11.6795,12.8322,59.7993,-37.5758,-9.63177,-9.77936,9.99159,-2.31454,-8.82744,23.2934,-23.952,1.23759,-41.9559
22.8809,16.2699,-30.3572,0.867179,-23.9383,5.74961,1.75248,-5.28938,-5.38383,-2.90716,-7.22418,1.4236,-3.14393,-3.45015,4.73602,13.9316,14.122,17.4273,-32.1215,16.2254,-31.073,-7.20576,9.56949,-15.5497,-1.0922e-13,4.77083e-15,-57.4173,10.2582,-88.8253,107.083,-16.3093,-12.4441,6.85423,7.12502,13.629,-22.6796,-1.0922e-13,4.77083e-15,-45.5916,9.27389,82.033,126.474,78.4534,-29.3231,45.5764,7.12502,-2.66372,75.5395,-24.107,11.8455,12.3115,60.0018,-37.7027,-9.49274,-9.94343,9.92528,-1.76775,-9.31026,23.9589,-24.221,2.64967,-42.866
22.8502,16.2644,-30.3434,0.542844,-23.9932,6.38067,1.85796,-5.16493,-5.90724,-2.83935,-7.08628,1.25594,-3.11023,-3.37193,4.85431,13.6535,14.3644,17.2517,-31.6395,16.5776,-30.9754,-6.93458,9.7522,-15.3141,-2.79665e-14,-6.36111e-15,-56.6261,10.4849,-88.7218,106.848,-16.5991,-13.4445,5.7503,7.12502,12.6647,-23.8457,-2.79665e-14,-6.36111e-15,-45.2445,9.00751,82.1675,125.726,76.7827,-28.2363,45.4738,7.12502,-1.61415,75.4475,-23.9787,11.5808,11.7103,60.0601,-37.8507,-9.32158,-10.5935,9.55286,-1.83346,-9.87863,24.9521,-23.4139,2.90166,-45.9969
22.8096,16.2586,-30.3331,0.28732,-23.8505,6.33522,2.28345,-5.06244,-5.9101,-2.72736,-6.97331,1.22644,-3.25015,-3.31192,4.86171,13.433,14.5541,17.333,-31.2365,16.8942,-31.0215,-6.66047,9.90982,-15.1992,7.84951e-14,-3.97569e-15,-55.9079,10.5776,-88.6422,106.75,-16.8968,-14.0189,4.23141,7.12502,12.1109,-25.3981,7.84951e-14,-3.97569e-15,-44.8015,8.72369,82.1121,124.792,75.3626,-27.475,46.4995,7.12502,-0.878851,76.4774,-23.4375,11.5362,11.9873,59.9478,-37.9399,-9.66548,-11.4396,9.15583,-2.25732,-9.58902,26.1826,-23.662,-1.21128,-38.9397
22.7717,16.2342,-30.3283,0.42736,-23.8401,5.50872,2.64395,-4.91985,-5.16962,-2.61911,-6.76299,1.3911,-3.42699,-3.21939,4.65187,13.3165,14.7409,17.3001,-31.0979,17.1707,-30.9962,-6.52692,10.0483,-15.1035,2.18042e-15,-2.14687e-14,-55.2122,10.5364,-88.2789,106.602,-16.3087,-13.3679,3.2435,7.12502,12.7385,-26.3479,2.18042e-15,-2.14687e-14,-44.2464,8.31784,82.0981,123.668,73.839,-25.9061,44.3959,7.12502,0.636431,74.3747,-23.0131,11.8604,13.0841,59.7863,-38.0602,-10.0187,-11.7108,8.57399,-2.35342,-8.41586,27.6522,-23.2976,-4.38162,-30.5977
22.739,16.2161,-30.3237,0.708896,-23.9051,4.79589,2.81765,-4.86565,-4.47847,-2.65219,-6.66015,1.62588,-3.61806,-3.17648,4.53182,13.5982,15.0039,16.7662,-31.1659,17.4929,-30.7726,-6.61533,10.246,-14.9493,1.73937e-14,-4.77083e-15,-54.5791,10.8272,-87.8482,106.314,-15.3197,-12.5623,2.70527,7.12502,13.5151,-26.8362,1.73937e-14,-4.77083e-15,-44.0327,8.19322,82.0872,122.793,72.4859,-24.4866,42.2584,7.12502,2.0074,72.2287,-22.9128,12.0565,13.9739,59.6649,-38.2455,-9.54948,-10.0029,7.80351,-2.14323,-7.41308,29.276,-22.9652,-5.10052,-29.9549
22.7045,16.2038,-30.3165,0.796878,-23.9729,4.38496,2.92654,-4.89197,-4.09163,-2.61696,-6.67411,1.81737,-3.66076,-3.19092,4.52627,14.0939,15.2712,16.3318,-31.3888,17.7891,-30.8611,-6.74143,10.4681,-14.9856,5.03857e-14,-5.56597e-15,-53.7581,11.4243,-87.7077,106.072,-14.7284,-12.7777,1.92914,7.12502,13.3075,-27.626,5.03857e-14,-5.56597e-15,-43.8778,8.38756,81.9092,122.034,71.0882,-23.1959,42.7335,7.12502,3.25391,72.6884,-22.6982,12.1449,14.5524,59.5552,-38.5481,-8.59198,-6.67891,7.13204,-1.8751,-6.69534,30.8998,-23.1137,-5.51392,-30.8143
22.6723,16.1867,-30.3076,0.812022,-23.9497,4.09533,2.79486,-4.80707,-3.79848,-2.31612,-6.53633,1.8284,-3.31773,-3.14525,4.33891,14.2383,15.3374,16.7238,-31.5034,17.8848,-31.4662,-6.63388,10.5675,-15.284,1.94568e-14,-1.27222e-14,-52.5371,11.4882,-87.6437,106.034,-14.1333,-13.6992,1.04746,7.12502,12.4192,-28.5636,1.94568e-14,-1.27222e-14,-43.129,8.14788,81.7952,121.255,70.2084,-22.0111,43.3211,7.12502,4.39806,73.2555,-22.388,12.0763,14.9986,59.4577,-38.8535,-8.30687,-5.56452,6.41474,-1.72954,-6.09818,32.5074,-22.942,-6.22051,-31.1795
22.6468,16.1741,-30.298,0.742263,-23.7639,4.05515,2.61841,-4.73012,-3.68554,-1.99774,-6.41995,1.74438,-2.92086,-3.10712,4.14914,14.4458,15.3688,17.0479,-31.7703,17.9399,-31.9013,-6.63107,10.6322,-15.5533,-5.44422e-14,-1.74931e-14,-51.2064,11.3652,-87.4359,106.03,-13.3386,-14.0149,0.283761,7.12502,12.1148,-29.3455,-5.44422e-14,-1.74931e-14,-42.4537,7.79388,81.7826,120.59,69.388,-20.3809,43.898,7.12502,5.97213,73.7939,-22.1019,11.8206,15.1584,59.3875,-39.0973,-8.46553,-5.89709,5.54591,-1.74275,-5.81905,34.1318,-22.4842,-6.4316,-32.9015
22.6283,16.1637,-30.2888,0.664163,-23.5383,4.00698,2.80784,-4.74192,-3.43898,-2.00451,-6.43267,1.69041,-3.0655,-3.11477,3.97794,15.1404,15.4889,16.7553,-32.2301,18.1131,-31.7419,-6.92577,10.752,-15.6106,-2.13569e-14,-1.66979e-14,-50.3754,11.5603,-87.2835,105.937,-12.3272,-13.6697,-0.18169,7.12502,12.4475,-29.791,-2.13569e-14,-1.66979e-14,-42.5717,7.64695,81.7234,120.15,68.1269,-18.0062,45.1324,7.12502,8.2643,74.9507,-21.8316,11.6209,15.3083,59.3243,-39.2798,-8.49191,-5.49763,4.60793,-1.75889,-5.57235,35.7976,-22.0229,-6.51446,-34.8728
22.6072,16.1666,-30.2753,0.782673,-23.4778,3.74999,2.98483,-4.68416,-2.9836,-2.10949,-6.34201,1.66117,-3.33327,-3.07136,3.71877,15.4847,15.6732,16.5576,-32.2812,18.4524,-31.3761,-7.00053,10.9069,-15.4589,-4.41644e-14,0,-49.6602,11.7051,-87.2047,105.886,-11.351,-13.3904,-0.366468,7.12502,12.7168,-29.9592,-4.41644e-14,0,-42.8086,7.24836,81.7644,119.73,67.109,-18.0063,44.336,7.12502,8.26425,74.1544,-21.7504,11.6024,15.6571,59.2592,-39.2834,-8.36234,-4.92028,3.61877,-1.70775,-5.12392,37.5273,-20.9159,-8.13596,-30.9551
22.5841,16.176,-30.2604,0.940083,-23.4949,3.54409,2.98171,-4.55976,-2.7637,-2.13376,-6.1639,1.72367,-3.38701,-2.98551,3.65613,15.5467,15.8632,16.5778,-32.0625,18.7882,-31.3408,-6.8548,11.0779,-15.3692,-3.28927e-15,3.33958e-14,-48.7583,11.8001,-86.9618,105.938,-10.8705,-13.1708,-0.320192,7.12502,12.9285,-29.8997,-3.28927e-15,3.33958e-14,-42.9613,6.77288,82.0618,119.382,66.3137,-20.2406,43.9353,7.12502,6.10755,73.8272,-21.7427,11.6307,15.9253,59.156,-39.1663,-8.11437,-4.32899,2.5361,-1.57776,-4.7115,39.3297,-19.9007,-9.62283,-26.6662
22.5667,16.1731,-30.2545,0.920075,-23.4149,3.4454,3.21211,-4.41252,-2.72842,-2.12718,-5.96844,1.79662,-3.52135,-2.88462,3.72432,15.6728,16.0136,16.527,-32.0459,19.0016,-31.4336,-6.80735,11.2111,-15.3789,7.81659e-14,-2.22639e-14,-47.8646,11.8762,-86.6565,106.059,-10.7389,-13.2484,-0.267531,7.12502,12.8537,-29.8517,7.81659e-14,-2.22639e-14,-43.113,6.49441,82.305,118.961,64.7373,-21.8016,44.5911,7.12502,4.60036,74.5211,-21.5104,11.5154,16.0793,59.0063,-39.0956,-8.05451,-4.20987,1.40496,-1.55348,-4.41591,41.2056,-19.6567,-10.0232,-27.4646
22.553,16.171,-30.2535,0.894272,-23.219,3.32146,3.47046,-4.34006,-2.61037,-2.01561,-5.86892,1.83671,-3.56647,-2.83734,3.71298,15.4192,16.2304,16.3735,-32.0425,19.2627,-31.3457,-6.72302,11.3357,-15.2428,4.50372e-15,-3.18055e-15,-46.7373,11.9822,-86.3413,106.135,-10.2341,-13.2601,-0.191626,7.12502,12.8425,-29.7765,4.50372e-15,-3.18055e-15,-43.0597,6.43328,82.3925,118.436,63.0851,-21.9165,45.384,7.12502,4.48937,75.3164,-21.2269,11.344,16.2829,58.8517,-39.1165,-8.24267,-4.62166,0.195115,-1.7081,-4.10888,43.0753,-18.9547,-11.14,-24.2657
22.5338,16.169,-30.2573,1.1685,-23.1612,3.25029,3.34023,-4.2921,-2.62393,-1.95297,-5.80001,1.91933,-3.42379,-2.80631,3.78665,15.0545,16.5035,16.1508,-31.881,19.603,-31.1886,-6.56971,11.4944,-15.0193,-2.56681e-14,7.15625e-15,-45.4694,12.1838,-85.9427,106.209,-9.62292,-12.912,0.113309,7.12502,13.178,-29.4502,-2.56681e-14,7.15625e-15,-43.1302,6.47011,82.4993,118.142,62.1786,-22.1006,46.4434,7.12502,4.31161,76.3795,-21.4025,11.3364,16.4077,58.6951,-38.9411,-8.59339,-5.67243,-1.26172,-1.5996,-3.82471,44.8411,-18.3533,-11.7289,-23.2263
22.509,16.1713,-30.2555,1.35127,-23.4041,3.34207,3.16006,-4.09118,-2.914,-1.95506,-5.54045,1.97654,-3.31323,-2.67255,3.9783,15.061,16.6343,16.1378,-31.7103,19.8115,-31.2252,-6.45867,11.6107,-14.9712,3.8527e-14,-7.15625e-15,-44.4183,12.3631,-85.5997,106.439,-9.70227,-13.169,0.246215,7.12502,12.9302,-29.3332,3.8527e-14,-7.15625e-15,-43.5568,6.23852,82.766,117.936,61.5223,-22.8436,47.7057,7.12502,3.59409,77.6552,-21.553,11.5893,16.3667,58.4856,-38.7091,-8.85427,-6.63164,-2.43956,-1.31479,-3.77373,46.475,-18.5612,-11.1515,-27.9844
22.5023,16.1936,-30.2255,0.876973,-23.5229,3.20316,3.50463,-3.88621,-2.6801,-1.72644,-5.26161,1.95423,-3.31693,-2.54133,3.82969,15.4496,16.6045,16.3933,-31.8151,19.8305,-31.5323,-6.47241,11.6571,-15.1855,1.41634e-14,1.43125e-14,-43.4933,12.4661,-85.3502,106.742,-9.84085,-13.7358,0.334541,7.12502,12.3838,-29.2787,1.41634e-14,1.43125e-14,-44.1129,5.90764,83.077,117.806,60.9353,-23.1909,49.1904,7.12502,3.25872,79.1452,-20.5975,11.741,16.6454,58.0719,-38.6871,-9.02696,-7.11735,-2.69306,-1.55395,-3.68659,47.8719,-18.5248,-11.3639,-27.3746
22.5114,16.2191,-30.2078,0.706396,-22.9723,3.04163,3.80298,-3.92407,-2.21259,-1.64758,-5.29389,1.90654,-3.44625,-2.56584,3.54382,15.9906,16.541,16.67,-32.1066,19.8069,-31.8472,-6.58,11.6848,-15.469,3.44146e-15,-1.59028e-15,-42.6197,12.4605,-85.0818,107.124,-9.73086,-13.7365,0.554967,7.12502,12.3831,-29.0583,3.44146e-15,-1.59028e-15,-44.6872,5.63553,83.3532,117.666,60.5456,-23.3081,50.5696,7.12502,3.14551,80.5261,-19.926,11.244,16.84,57.569,-38.5685,-8.99483,-6.81202,-3.67726,-2.23727,-3.54681,49.1585,-17.7987,-12.4185,-21.8973
22.5158,16.2514,-30.185,0.549573,-22.7659,3.13598,3.96676,-3.76305,-2.0748,-1.629,-5.07613,1.82177,-3.55469,-2.45882,3.38038,16.3728,16.4238,16.8045,-32.2737,19.7061,-31.9278,-6.70029,11.6494,-15.6235,-4.3099e-14,7.15625e-15,-41.8701,12.228,-84.6883,107.577,-9.79716,-13.7465,0.653981,7.12502,12.3736,-28.9598,-4.3099e-14,7.15625e-15,-45.2696,5.18473,83.7399,117.454,60.4436,-23.8167,51.7401,7.12502,2.65435,81.7033,-19.4344,10.9508,16.6965,56.9944,-38.3867,-8.38506,-5.52763,-4.61971,-2.53768,-3.74007,50.24,-17.518,-12.7012,-20.6917
22.5145,16.288,-30.1596,0.492138,-22.7566,2.87541,4.18399,-3.48682,-1.72476,-1.53718,-4.68892,1.84983,-3.63431,-2.27277,3.20397,16.3267,16.3651,16.775,-32.3724,19.62,-31.8508,-6.76395,11.5971,-15.6168,6.07039e-14,-6.36111e-15,-41.0481,11.9403,-84.2751,107.983,-10.081,-14.1518,0.806381,7.12502,11.9827,-28.8306,6.07039e-14,-6.36111e-15,-45.7093,4.69197,84.1764,117.218,60.5695,-24.4966,52.7707,7.12502,1.99778,82.7411,-18.8614,10.8222,16.9474,56.374,-38.1309,-8.12024,-5.32384,-5.45413,-2.46918,-3.54051,51.1815,-18.0639,-12.2592,-24.5847
22.5144,16.322,-30.1372,0.569813,-22.7323,2.47006,4.42591,-3.32929,-1.28096,-1.39862,-4.44932,2.00822,-3.66338,-2.16261,3.11623,15.7537,16.5414,16.5688,-32.3017,19.7483,-31.8463,-6.62728,11.659,-15.4596,4.18442e-14,-7.95139e-15,-39.9029,11.9956,-83.7926,108.314,-10.5055,-14.3662,0.972343,7.12502,11.776,-28.6766,4.18442e-14,-7.95139e-15,-46.0582,4.57934,84.5887,117.044,60.7985,-24.0105,52.6592,7.12502,2.46717,82.6247,-18.3549,10.7612,17.3609,55.7243,-37.776,-8.36244,-6.38022,-6.30843,-2.31613,-3.15334,51.9043,-18.5548,-11.9525,-26.6856
22.5158,16.3622,-30.1147,0.776191,-22.5774,2.55817,4.30576,-3.19915,-1.40348,-1.72297,-4.27498,2.1903,-3.92019,-2.06389,3.36739,16.8838,16.3597,16.395,-32.453,19.5704,-31.8967,-6.95487,11.6412,-15.7043,-5.85545e-14,2.3059e-14,-39.5518,12.1439,-83.13,108.717,-10.7053,-14.6001,1.14417,7.12502,11.5504,-28.5176,-5.85545e-14,2.3059e-14,-47.2982,4.38514,85.2324,116.963,61.0501,-22.1549,51.1619,7.12502,4.2592,81.099,-18.1947,10.6983,17.2085,55.048,-37.4423,-8.40934,-6.84449,-7.51036,-2.23903,-3.30589,52.4012,-18.5926,-12.0471,-25.7269
22.5208,16.413,-30.0876,0.842808,-22.3559,2.96431,4.14875,-3.00258,-1.87701,-1.82356,-4.03497,2.315,-3.91103,-1.93038,3.73878,17.0286,16.2621,16.1613,-32.3818,19.3872,-31.9279,-7.03837,11.5866,-15.7327,-4.54968e-14,3.18055e-15,-38.829,12.0986,-82.2676,109.111,-10.8772,-15.0366,1.51381,7.12502,11.1295,-28.1711,-4.54968e-14,3.18055e-15,-47.9945,4.12583,86.0263,116.819,61.4031,-25.2219,52.7978,7.12502,1.29722,82.7736,-17.9421,10.702,16.7174,54.3047,-37.1239,-8.22843,-6.2912,-8.6883,-2.26576,-3.86061,52.6877,-18.716,-11.9145,-24.3623
22.5294,16.462,-30.0564,0.699676,-22.2523,3.07642,4.2188,-2.78468,-1.76917,-1.69103,-3.74231,2.19803,-3.8494,-1.79108,3.5369,16.703,16.1499,16.3937,-32.261,19.2622,-31.9933,-6.9294,11.5024,-15.7322,-2.75565e-14,-1.74931e-14,-37.9732,11.8522,-81.8093,109.451,-11.0779,-15.1698,1.96424,7.12502,11.001,-27.7275,-2.75565e-14,-1.74931e-14,-48.3686,3.79377,86.3006,116.67,61.9541,-26.3846,53.4767,7.12502,0.174319,83.4564,-17.2713,10.7886,16.578,53.4885,-36.8018,-8.0887,-5.71826,-9.3694,-2.2938,-4.14182,52.7918,-18.8432,-11.7192,-22.2904
22.5418,16.5004,-30.0271,0.627186,-22.3364,3.08724,4.2216,-2.65793,-1.4274,-1.67123,-3.55699,2.07525,-3.87153,-1.70834,3.20559,16.9876,16.1409,16.1806,-32.364,19.2687,-31.7278,-7.08909,11.5001,-15.6746,-7.87684e-15,7.95139e-16,-37.3186,11.8887,-81.6197,109.75,-11.1606,-15.03,2.35969,7.12502,11.1358,-27.3248,-7.87684e-15,7.95139e-16,-48.9793,3.87029,86.3023,116.551,62.5661,-25.8408,52.9451,7.12502,0.699478,82.9237,-16.6218,10.8823,16.4855,52.5952,-36.4707,-8.11147,-6.70453,-10.0297,-2.17307,-4.32312,52.7965,-18.9705,-11.7281,-18.9419
22.5588,16.5409,-30.0054,0.740239,-22.3357,3.30042,4.12021,-2.64125,-1.3507,-1.92099,-3.5292,2.05804,-4.08095,-1.69104,3.14691,17.9787,16.1859,15.4631,-32.7227,19.3027,-31.2298,-7.56876,11.5465,-15.6311,-1.19147e-14,1.59028e-14,-37.0423,12.1444,-81.4547,110.037,-11.232,-14.7177,2.93715,7.12502,11.437,-26.7309,-1.19147e-14,1.59028e-14,-50.103,4.2842,86.3492,116.592,63.1611,-24.3164,52.1363,7.12502,2.17182,82.105,-16.2519,10.904,16.1064,51.6462,-36.0468,-8.09466,-7.90919,-11.1118,-2.02163,-4.7174,52.7188,-19.2326,-11.3866,-17.0281
22.5682,16.5832,-29.9802,0.939699,-22.0264,2.99808,4.19248,-2.61164,-0.947016,-2.16053,-3.45948,2.18262,-4.39126,-1.6592,3.05898,18.7786,16.0725,15.1652,-32.9928,19.1783,-30.9473,-7.93496,11.4949,-15.6965,-2.05059e-14,7.15625e-15,-36.885,12.1193,-81.1326,110.339,-11.289,-14.7481,3.79485,7.12502,11.4077,-25.8748,-2.05059e-14,7.15625e-15,-51.3984,4.38057,86.4771,116.769,63.8163,-24.7677,53.2498,7.12502,1.73595,83.2224,-15.6836,10.8868,16.3901,50.6682,-35.6416,-8.10196,-7.60896,-12.1931,-1.92125,-4.50587,52.5352,-19.8079,-10.0645,-21.2578
22.5722,16.6233,-29.9324,1.1355,-21.7581,2.37331,3.95716,-2.5494,-0.145891,-2.11914,-3.32592,2.29761,-4.26078,-1.61662,2.70594,19.0691,15.9784,15.136,-33.0658,19.0893,-30.8482,-8.06085,11.4485,-15.7338,-4.28536e-14,-1.59028e-15,-36.2283,12.0342,-80.808,110.553,-11.367,-15.1609,4.52705,7.12502,11.0095,-25.1642,-4.28536e-14,-1.59028e-15,-52.4217,4.48111,86.5099,116.971,64.5242,-24.3886,53.0394,7.12502,2.10208,83.0088,-14.9558,10.9061,17.0379,49.6927,-35.2634,-8.41707,-8.04072,-13.0004,-1.708,-4.02304,52.2218,-21.1614,-7.17496,-31.3398
22.5861,16.6689,-29.8788,1.34436,-21.6339,2.23327,3.47386,-2.54769,0.260273,-2.09636,-3.30491,2.39046,-3.98196,-1.61967,2.54634,19.3198,16.026,14.7853,-33.1216,19.0896,-30.7448,-8.19453,11.4762,-15.7074,1.02126e-14,-7.95139e-15,-35.2467,12.3496,-80.3957,110.576,-11.4893,-15.1733,4.868,7.12502,10.9976,-24.8239,1.02126e-14,-7.95139e-15,-53.3963,5.12369,86.5159,117.255,65.163,-23.5919,51.7583,7.12502,2.8715,81.7187,-14.5224,10.8153,17.0274,48.7558,-34.8481,-8.6575,-9.36575,-13.9202,-1.50802,-4.19476,51.776,-22.4637,-3.47275,-40.1019
22.5998,16.722,-29.8514,1.57306,-21.2368,2.36011,3.50515,-2.67413,-0.00697213,-2.44271,-3.47013,2.74209,-4.3163,-1.68499,3.08598,19.9761,16.0959,14.1175,-33.1731,19.0427,-30.6769,-8.45895,11.5287,-15.7331,-5.98249e-14,-1.11319e-14,-34.6415,13.0337,-79.6492,110.643,-11.679,-15.0607,5.01625,7.12502,11.1062,-24.6699,-5.98249e-14,-1.11319e-14,-54.7574,6.20495,86.7526,117.635,65.678,-22.5934,51.0364,7.12502,3.8358,80.9816,-14.2582,10.5316,16.7621,47.8818,-34.4292,-8.50729,-10.7761,-15.1982,-1.6072,-4.50609,51.2236,-22.9622,-2.03913,-41.9542
22.6094,16.7667,-29.8461,1.8041,-20.5908,2.24853,3.87084,-2.88348,-0.200055,-2.90828,-3.73118,3.18329,-4.95652,-1.79052,3.71436,20.8217,16.2471,13.3325,-33.1282,19.1254,-30.452,-8.7364,11.6403,-15.6874,1.02697e-13,-1.74931e-14,-34.3865,13.8029,-79.0393,110.785,-11.9804,-15.3228,5.27803,7.12502,10.8534,-24.4215,1.02697e-13,-1.74931e-14,-56.2851,7.35104,86.8307,118.06,66.2115,-21.5504,51.3304,7.12502,4.84289,81.2551,-13.8984,10.2079,16.8367,47.0872,-34.0246,-8.07047,-10.3982,-16.5309,-1.86856,-4.36617,50.5745,-22.9846,-3.19146,-38.9035
22.6215,16.7979,-29.8399,2.03011,-19.8675,1.94232,4.12385,-3.08306,-0.0480035,-3.18637,-3.96527,3.50575,-5.36641,-1.89834,4.01516,21.2965,16.4044,12.6399,-33.1408,19.2157,-30.1479,-8.9583,11.7203,-15.5707,6.4779e-14,1.74931e-14,-33.9958,14.3007,-78.6128,110.842,-12.1632,-15.5542,5.44902,7.12502,10.6302,-24.2621,6.4779e-14,1.74931e-14,-57.3865,8.13437,86.6721,118.458,66.751,-21.3497,51.6654,7.12502,5.03666,81.5856,-13.4844,9.88331,17.1397,46.3842,-33.6355,-7.73482,-7.43821,-17.7355,-2.0918,-4.04136,49.7941,-23.003,-3.37707,-39.683
22.6361,16.8371,-29.8212,2.17482,-19.1801,1.92751,4.20219,-3.21575,-0.082078,-3.39447,-4.13148,3.68158,-5.60454,-1.97076,4.24863,21.8493,16.4241,12.1531,-33.4314,19.1315,-29.9544,-9.29132,11.7048,-15.6061,-3.70485e-14,9.54166e-15,-33.5926,14.5038,-78.1386,110.827,-12.2228,-15.8159,5.71803,7.12502,10.3778,-24.0059,-3.70485e-14,9.54166e-15,-58.366,8.70799,86.4941,118.914,67.0582,-21.9812,51.7073,7.12502,4.42697,81.641,-13.1364,9.52436,17.1112,45.7648,-33.2468,-7.66858,-7.37091,-18.8261,-2.27533,-4.12756,48.8375,-23.0799,-2.58626,-42.254
22.6561,16.8815,-29.7945,2.17657,-18.772,2.12486,4.27025,-3.24076,-0.235861,-3.65298,-4.1686,3.69137,-5.9022,-1.97521,4.36764,22.9391,16.298,12.1567,-33.7073,19.0343,-29.9093,-9.63798,11.6705,-15.8479,2.41523e-14,1.11319e-14,-33.5518,14.704,-77.8612,110.839,-12.7117,-16.4392,6.4674,7.12502,9.77641,-23.2857,2.41523e-14,1.11319e-14,-59.6807,9.20575,86.0725,119.498,67.3124,-21.9734,51.2749,7.12502,4.43442,81.2085,-12.7792,9.24802,16.8036,45.1976,-32.8238,-7.66141,-10.5179,-19.6477,-2.4699,-4.48635,47.7437,-22.9992,-2.54406,-41.0234
22.68,16.9143,-29.7694,2.05647,-18.4193,2.08868,4.60969,-0.112254,0.485557,-1.72268,-0.0716606,1.17171,-4.36412,-0.0325075,0.943892,11.9787,14.4237,20.144,-28.7091,17.6849,-31.4485,-5.00906,10.1613,-15.0845,-6.48162e-14,-9.54166e-15,-31.9752,3.66102,-77.0929,111.059,-12.667,-17.1757,7.21144,7.12502,9.06579,-22.5737,-6.48162e-14,-9.54166e-15,-54.6232,-0.883521,86.4469,118.986,68.1108,-21.4486,50.4841,7.12502,4.94122,80.4065,-12.2052,9.1042,16.7821,44.6427,-32.3627,-7.79774,-12.1043,-20.2207,-2.71205,-4.5831,46.5784,-23.0149,-2.47874,-40.2944
22.7033,16.9382,-29.7381,1.96256,-17.9163,1.7323,4.86323,-0.797919,0.969648,-2.19192,-0.917039,1.80814,-4.98431,-0.455971,1.41277,14.9984,14.4597,18.2766,-29.7535,17.6929,-31.0892,-6.16626,10.4165,-15.2712,-2.60097e-14,1.35174e-14,-32.0693,6.20806,-76.7787,111.033,-13.1589,-17.7031,7.30338,7.12502,8.55688,-22.5032,-2.60097e-14,1.35174e-14,-56.676,1.80147,86.0383,119.762,67.9762,-21.1261,49.9799,7.12502,5.2526,79.8948,-11.4226,8.95161,17.112,43.9585,-31.8843,-7.83995,-12.3462,-20.721,-2.97975,-4.35546,45.3296,-23.1271,-2.35069,-40.9012
22.7309,16.9651,-29.6898,2.02391,-17.4024,1.38451,4.84779,-0.810674,1.50474,-2.28071,-0.887975,1.97666,-5.07518,-0.45649,1.28606,15.397,14.395,17.8554,-29.7259,17.5919,-30.8669,-6.34738,10.3954,-15.2034,2.57271e-14,3.18055e-15,-31.8083,6.25765,-76.2743,110.911,-13.5172,-18.4269,7.44583,7.12502,7.85836,-22.3881,2.57271e-14,3.18055e-15,-57.3449,2.40273,85.7005,120.328,67.8121,-20.6127,50.0024,7.12502,5.74832,79.9045,-10.7997,8.64201,17.2818,43.2352,-31.5788,-7.33716,-11.7882,-21.3704,-3.4784,-4.21902,44.0899,-23.0289,-2.73063,-38.4472
22.7652,17.0183,-29.5451,2.00484,-18.7567,1.34878,3.78937,-0.421692,2.12105,-2.40497,-0.358511,2.04525,-4.61222,-0.212652,0.953082,17.193,14.2349,17.3035,-29.9876,17.4777,-30.6394,-6.90696,10.4303,-15.3743,-2.25496e-14,-6.36111e-15,-31.9798,7.25703,-75.9144,110.849,-14.1008,-19.4844,7.62026,7.12502,6.8376,-22.2493,-2.25496e-14,-6.36111e-15,-58.8167,3.62683,85.006,121.181,67.6658,-20.3157,50.0342,7.12502,6.035,79.9283,-10.196,9.52811,16.8173,42.4049,-31.4271,-6.15433,-10.9974,-20.8539,-3.04464,-4.67529,42.7932,-23.3626,-2.30885,-39.4026
22.7897,17.0467,-29.498,1.78456,-18.573,1.33671,4.15889,0.0689811,2.2632,-1.95074,0.294951,1.75158,-4.34692,0.106626,0.516954,14.4397,14.3012,17.982,-28.7365,17.5383,-30.5201,-5.91614,10.2867,-14.8225,2.24759e-14,-1.43125e-14,-31.0402,5.63992,-75.4864,110.895,-14.2295,-19.6782,7.36154,7.12502,6.65051,-22.514,2.24759e-14,-1.43125e-14,-58.0915,2.76388,84.5956,121.452,67.2551,-21.7114,49.4835,7.12502,4.68741,79.4116,-9.41524,9.44678,16.7231,41.6979,-30.8942,-5.95166,-11.6637,-21.1318,-3.19849,-4.82698,41.5784,-22.9121,-2.88873,-38.7457
22.8121,17.0725,-29.4555,1.69948,-18.4614,1.20472,4.41311,0.260928,2.44908,-2.06468,0.575004,1.74183,-4.60626,0.237388,0.379953,14.5404,14.191,18.0389,-28.4214,17.5038,-30.2389,-5.88473,10.2386,-14.7067,-4.02322e-14,-1.35174e-14,-31.0731,5.23827,-75.2334,110.903,-14.508,-19.4792,7.06,7.12502,6.84258,-22.8094,-4.02322e-14,-1.35174e-14,-58.6681,3.14146,83.5938,122.509,67.0154,-22.698,50.4987,7.12502,3.73478,80.4457,-8.83834,9.39833,16.7456,41.0515,-30.2913,-5.84386,-12.5808,-21.5285,-3.17944,-4.852,40.4024,-22.2854,-2.6555,-40.1985
22.8348,17.0933,-29.4127,1.75711,-18.2753,0.985868,4.44388,0.360226,2.69244,-2.21754,0.733049,1.84431,-4.78053,0.307302,0.336622,15.03,14.0241,17.9703,-28.3291,17.376,-30.0129,-6.02517,10.1764,-14.6927,-1.58034e-14,-7.95139e-16,-31.1022,5.42909,-74.8545,110.807,-15.3299,-20.1954,7.14171,7.12502,6.15115,-22.749,-1.58034e-14,-7.95139e-16,-59.2941,3.57602,83.0287,123.1,66.4801,-23.1206,49.6978,7.12502,3.32667,79.6516,-8.50954,9.34467,16.8379,40.613,-29.9161,-5.44098,-12.0146,-22.0907,-3.1705,-4.79584,39.3661,-22.0753,-1.77317,-43.1249
22.8573,17.1048,-29.3659,1.78905,-18.0358,0.925269,4.39183,0.544531,2.73741,-2.06514,0.975435,1.85454,-4.58822,0.429052,0.302252,14.1578,14.006,17.9209,-28.0117,17.2805,-29.8207,-5.82463,10.076,-14.4635,-1.9425e-14,7.95139e-16,-30.3288,4.88433,-74.5132,110.581,-16.027,-20.8417,7.42278,7.12502,5.52715,-22.4851,-1.9425e-14,7.95139e-16,-59.0607,4.02906,82.1213,123.705,65.2265,-20.5686,49.6791,7.12502,5.79086,79.58,-8.18145,9.25071,16.7662,40.2825,-29.6596,-5.1934,-11.6113,-22.7048,-3.30895,-4.86306,38.4316,-21.8767,-2.35661,-42.4583
22.8803,17.1151,-29.3222,1.78049,-17.7805,0.989942,4.38149,0.626194,2.7488,-2.44102,1.09612,1.83929,-4.97261,0.482099,0.269474,15.7059,13.6061,18.0756,-28.1985,16.9702,-29.7992,-6.24206,9.97185,-14.7676,-1.82633e-14,1.74931e-14,-30.5076,4.44803,-74.4578,110.415,-16.3777,-20.7704,7.42142,7.12502,5.59601,-22.4847,-1.82633e-14,1.74931e-14,-60.0187,4.33227,81.2266,124.434,64.361,-19.9328,49.2774,7.12502,6.40472,79.1606,-7.88804,9.13477,16.5867,40.0568,-29.4217,-5.3602,-12.4058,-23.3581,-3.34938,-5.06308,37.6159,-21.4936,-3.08887,-42.2035
22.906,17.1256,-29.2785,1.79152,-17.5086,0.957632,4.42536,0.757722,2.78837,-2.36451,1.27404,1.84252,-4.91432,0.570099,0.235182,14.9791,13.6553,18.1115,-27.6478,17.0259,-29.6985,-5.93278,9.96139,-14.5516,-4.53726e-14,-4.77083e-15,-29.9093,3.88436,-74.1992,110.216,-16.755,-20.7645,7.00538,7.12502,5.60174,-22.9006,-4.53726e-14,-4.77083e-15,-59.793,4.70148,80.2222,125.224,63.3458,-18.8872,49.241,7.12502,7.414,79.091,-7.65882,8.96264,16.5137,39.909,-29.1395,-5.56143,-13.3946,-23.9602,-3.26626,-5.18739,36.9262,-20.9168,-3.95303,-41.8838
22.9313,17.1332,-29.2304,1.78537,-17.264,0.837904,4.44487,0.88756,2.95263,-2.34057,1.45847,1.84981,-4.89416,0.656549,0.135036,14.4912,13.5996,18.2267,-27.0928,16.9858,-29.6105,-5.68417,9.90672,-14.4026,-8.93289e-15,-6.36111e-15,-29.669,3.63988,-73.9822,110.114,-17.2804,-20.9656,6.5046,7.12502,5.4076,-23.4064,-8.93289e-15,-6.36111e-15,-59.6429,5.16507,78.8059,125.811,60.9914,-15.0792,49.1418,7.12502,11.0884,78.8289,-7.38637,8.84009,16.5317,39.831,-28.9562,-5.27474,-12.6388,-24.4634,-3.223,-5.20532,36.3807,-20.0727,-4.76728,-41.3071
22.9549,17.138,-29.1821,1.70618,-17.0916,0.734204,4.67903,1.00472,3.14734,-2.45379,1.64042,1.79926,-5.13637,0.735289,-0.0468515,14.4367,13.5052,18.4001,-26.7663,16.9375,-29.5551,-5.57739,9.86288,-14.3662,1.16041e-14,-2.38542e-15,-29.8244,3.44617,-73.9676,110.077,-17.7067,-20.8701,5.95241,7.12502,5.49979,-23.9562,1.16041e-14,-2.38542e-15,-59.7785,5.19244,77.6576,126.585,60.175,-14.5311,48.834,7.12502,11.6169,78.492,-7.04261,8.86647,16.5473,39.7962,-28.8076,-4.76818,-11.0807,-24.873,-3.164,-5.26066,35.9869,-19.1738,-5.57487,-40.365
22.9819,17.1313,-29.1362,1.55001,-16.9098,0.840857,4.941,1.07142,3.11092,-2.51231,1.73785,1.72114,-5.34344,0.780117,-0.122089,14.4144,13.4902,18.4802,-26.6644,16.9564,-29.5026,-5.53643,9.85969,-14.3408,-5.2181e-15,1.35174e-14,-29.8563,3.29625,-73.9857,110.017,-18.0207,-21.0513,5.71934,7.12502,5.32482,-24.1938,-5.2181e-15,1.35174e-14,-59.7801,5.29097,76.6003,127.409,60.2091,-15.7282,48.4446,7.12502,10.4624,78.1642,-6.71315,8.81579,16.322,39.7795,-28.7005,-4.63911,-11.2794,-25.2947,-2.98138,-5.62518,35.7181,-18.062,-6.34721,-39.328
23.0112,17.1165,-29.0903,1.39548,-16.6389,0.874663,4.96956,1.09399,3.1542,-2.42121,1.76904,1.71435,-5.26205,0.795702,-0.156098,14.3889,13.4218,18.5339,-26.5972,16.8686,-29.5662,-5.51995,9.82001,-14.3722,-1.95057e-14,-6.36111e-15,-29.6572,3.14272,-73.9315,109.994,-18.3317,-21.623,5.81432,7.12502,4.7728,-24.1119,-1.95057e-14,-6.36111e-15,-59.4881,5.63452,75.6562,128.377,60.4358,-18.3818,48.1978,7.12502,7.90183,78.0301,-6.36662,8.65382,16.1986,39.7868,-28.7054,-4.96528,-12.6345,-25.7307,-2.8175,-5.93584,35.5735,-16.6234,-7.05014,-38.2701
23.0386,17.1023,-29.0421,1.18558,-16.3361,0.834683,4.94389,1.12635,3.21615,-2.27669,1.81382,1.78828,-5.09567,0.820449,-0.116369,14.4312,13.3508,18.2469,-26.6144,16.7332,-29.3671,-5.62884,9.75617,-14.2842,2.41026e-15,7.95139e-16,-29.5336,3.04353,-73.7987,109.97,-18.7273,-21.9548,5.77905,7.12502,4.45243,-24.1542,2.41026e-15,7.95139e-16,-59.1189,5.95604,74.9,129.372,60.7142,-21.3084,47.8883,7.12502,5.07654,77.8075,-5.92052,8.50286,16.194,39.8056,-28.8166,-5.32098,-13.1106,-26.0722,-2.7423,-6.16053,35.6015,-14.9849,-7.81969,-37.0361
23.068,17.0826,-28.9906,0.922181,-16.1134,0.88736,5.00275,1.19901,3.14765,-2.18823,1.90849,1.84765,-5.03849,0.872052,-0.0257194,14.6393,13.3404,17.8437,-26.7251,16.6893,-29.0481,-5.80188,9.73937,-14.1577,-4.66647e-14,3.18055e-15,-29.6049,2.93867,-73.659,109.969,-19.3643,-21.8928,5.54884,7.12502,4.51229,-24.3831,-4.66647e-14,3.18055e-15,-58.7769,6.21059,73.8728,130.059,60.3335,-20.0171,47.6935,7.12502,6.32332,77.5791,-5.45986,8.39285,16.0504,39.822,-29.0041,-5.36271,-12.7229,-26.3246,-2.46368,-6.54759,35.8341,-13.2721,-8.67098,-34.8743
23.1009,17.0564,-28.9371,0.651703,-15.9944,0.797402,5.26517,1.27353,3.3164,-2.21369,2.03377,1.84622,-5.20658,0.925608,-0.139589,14.7815,13.3141,17.9853,-26.3866,16.7582,-29.0149,-5.69774,9.7682,-14.1351,-3.69988e-14,1.27222e-14,-29.8236,2.70722,-73.7388,110.04,-19.9083,-21.567,4.96874,7.12502,4.82683,-24.9563,-3.69988e-14,1.27222e-14,-58.5151,6.41184,72.4635,130.761,59.9856,-17.0539,48.2377,7.12502,9.18336,78.0178,-4.9458,8.43008,16.0701,39.8609,-29.1436,-5.48411,-12.6991,-26.4315,-2.12928,-6.79842,36.2495,-11.8347,-9.32332,-30.9817
23.1315,17.031,-28.8835,0.443756,-15.8769,0.673511,5.42847,1.30894,3.51445,-2.22193,2.10402,1.83896,-5.29985,0.951793,-0.268613,14.6664,13.2612,18.2929,-25.8668,16.8006,-29.0584,-5.46992,9.7692,-14.1117,6.63444e-14,0,-29.9638,2.61156,-73.9888,110.045,-20.1986,-21.9756,4.74508,7.12502,4.4323,-25.1885,6.63444e-14,0,-58.0527,6.61624,71.2387,131.608,60.6309,-18.2331,48.3208,7.12502,8.04532,78.1477,-4.49196,8.59171,16.1917,39.9799,-29.3051,-5.91627,-13.1638,-26.6162,-1.79466,-7.01985,36.8417,-10.7473,-9.73622,-26.1078
23.1582,17.006,-28.8271,0.361157,-15.7655,0.653556,5.22442,1.36013,3.48853,-2.12378,2.15839,1.88907,-5.08197,0.984795,-0.200844,14.54,13.1785,18.4194,-25.6652,16.7135,-29.1093,-5.38841,9.71837,-14.1191,1.10574e-14,-7.15625e-15,-30.0156,2.61731,-74.1192,110.034,-20.505,-22.76,5.13263,7.12502,3.67486,-24.8154,1.10574e-14,-7.15625e-15,-57.2523,6.92467,70.2727,132.324,61.327,-20.901,47.4034,7.12502,5.46993,77.3128,-4.26448,8.71095,16.1918,40.1878,-29.5636,-6.37787,-13.8238,-26.9485,-1.27188,-7.38134,37.6106,-10.6324,-9.48353,-25.6298
23.1875,16.9672,-28.77,0.23203,-15.6517,0.748501,5.00386,1.41383,3.34674,-2.01584,2.2063,1.92656,-4.84861,1.01829,-0.0799952,14.5328,13.1231,18.562,-25.4478,16.6865,-29.1898,-5.30316,9.70542,-14.1463,-3.32964e-15,1.66979e-14,-30.0856,2.45393,-74.2251,109.988,-20.6906,-22.3827,4.98907,7.12502,4.03917,-24.9524,-3.32964e-15,1.66979e-14,-56.4357,7.31818,69.2875,132.99,61.5113,-21.3095,47.03,7.12502,5.07552,76.9492,-4.06228,8.63385,15.9806,40.4597,-29.8461,-6.61552,-14.328,-27.1324,-0.82404,-7.86433,38.5048,-11.2318,-8.81859,-27.3146
23.2207,16.9215,-28.7187,-0.0179004,-15.44,0.852968,5.04684,1.40661,3.26576,-1.98111,2.19121,1.90874,-4.83918,1.01351,-0.0527049,14.6715,13.0909,18.642,-25.2927,16.7157,-29.112,-5.27748,9.71256,-14.1266,-3.01407e-14,3.18055e-15,-30.3039,2.29019,-74.4479,109.87,-20.7864,-21.7419,4.70533,7.12502,4.65797,-25.2235,-3.01407e-14,3.18055e-15,-55.7221,7.70643,68.2339,133.805,61.7123,-21.5929,47.2091,7.12502,4.80189,77.1347,-3.71234,8.46013,15.7388,40.7524,-30.1968,-6.59118,-14.2882,-27.1891,-0.639755,-8.32072,39.4448,-11.7212,-8.53103,-27.3809
23.256,16.8761,-28.6662,-0.315483,-15.2766,0.624306,5.33987,1.35383,3.53398,-1.97784,2.15756,1.97337,-4.9968,0.986761,-0.1402,14.8054,13.1237,18.5781,-25.173,16.8147,-28.9043,-5.27644,9.74939,-14.0333,-1.43622e-14,-4.77083e-15,-30.6044,2.39882,-74.7772,109.793,-21.0091,-21.8286,4.83187,7.12502,4.57426,-25.0987,-1.43622e-14,-4.77083e-15,-55.0759,8.20826,67.0978,134.707,61.9331,-22.4082,47.4944,7.12502,4.0146,77.4363,-3.17857,8.4988,15.9345,41.0027,-30.6568,-6.6561,-14.1661,-27.1328,-0.478841,-8.36933,40.3559,-12.1619,-8.7407,-27.5991
23.292,16.831,-28.6055,-0.628563,-15.3185,0.334782,5.60202,1.30103,3.84359,-1.97362,2.1315,2.13116,-5.13846,0.963811,-0.153577,15.1059,13.2333,18.4098,-25.0096,17.0163,-28.7636,-5.26888,9.86114,-13.9535,8.94531e-15,3.02153e-14,-30.906,2.75734,-75.1229,109.795,-21.141,-21.9354,5.07831,7.12502,4.47115,-24.8545,8.94531e-15,3.02153e-14,-54.5483,8.8997,65.9199,135.501,62.0845,-23.1363,47.4801,7.12502,3.31144,77.4342,-2.59361,8.72701,16.2068,41.1906,-31.0812,-6.98798,-14.5681,-26.9522,-0.242367,-8.3093,41.1654,-12.893,-8.72434,-28.545
23.3233,16.7963,-28.5451,-0.953997,-15.3888,0.403049,5.71885,1.29261,3.73444,-1.94179,2.12106,2.2119,-5.17877,0.963124,-0.0105375,15.3888,13.2889,18.3207,-24.9113,17.1315,-28.7436,-5.2747,9.93655,-13.9451,3.58806e-14,-1.11319e-14,-31.2373,2.94524,-75.3644,109.832,-20.9399,-21.444,4.91362,7.12502,4.9456,-25.0087,3.58806e-14,-1.11319e-14,-53.9419,9.60606,64.718,136.201,62.315,-23.4563,47.5887,7.12502,3.00241,77.5473,-2.06944,8.87901,16.0651,41.328,-31.5177,-7.26643,-15.2966,-26.8069,-0.175923,-8.57022,41.8556,-13.6725,-8.42807,-28.6975
23.3514,16.7573,-28.489,-1.30277,-15.3918,0.538575,5.82168,1.34019,3.53573,-1.82248,2.16989,2.2106,-5.11765,0.995627,0.0926898,15.4079,13.3043,18.236,-24.9716,17.1482,-28.6158,-5.31875,9.93678,-13.895,-3.83654e-14,1.03368e-14,-31.4881,2.74701,-75.627,109.817,-20.624,-20.9913,4.52755,7.12502,5.38277,-25.3841,-3.83654e-14,1.03368e-14,-52.9793,10.2619,63.5912,136.879,62.7164,-23.4584,48.1427,7.12502,3.00037,78.1014,-1.5311,9.01658,15.8857,41.4701,-31.9604,-7.50591,-15.7245,-26.6681,-0.185435,-8.87204,42.4968,-14.4732,-8.39656,-28.7575
23.3828,16.7085,-28.4313,-1.59857,-15.4508,0.486847,5.83668,1.36439,3.5818,-1.69911,2.20312,2.25132,-4.99631,1.01397,0.106838,15.6414,13.3069,18.1618,-25.1602,17.1632,-28.5138,-5.43625,9.94639,-13.8994,2.98177e-16,-5.56597e-15,-31.7587,2.66755,-76.0572,109.761,-20.5436,-21.0752,4.649,7.12502,5.30175,-25.2647,2.98177e-16,-5.56597e-15,-51.988,10.9706,62.6121,137.538,63.1581,-24.0577,48.1728,7.12502,2.42164,78.1388,-1.00738,9.16296,15.8881,41.6231,-32.275,-7.98919,-16.5331,-26.5026,-0.0925998,-8.97552,43.1701,-15.4244,-8.64793,-28.5923
23.4139,16.6617,-28.3766,-1.68022,-15.4339,0.377963,5.70898,1.30208,3.65203,-1.68773,2.12242,2.35641,-4.91551,0.974821,0.187891,15.9315,13.3072,18.2669,-25.174,17.2058,-28.6989,-5.44572,9.99368,-14.0157,-1.24737e-14,-1.43125e-14,-32.1496,2.92949,-76.5504,109.773,-20.888,-21.2235,4.81745,7.12502,5.15858,-25.0998,-1.24737e-14,-1.43125e-14,-51.178,11.7655,61.7257,138.159,63.488,-25.5088,47.7456,7.12502,1.02015,77.7229,-0.716212,9.1289,15.8752,41.7713,-32.6935,-8.09023,-16.2889,-26.6272,-0.0523556,-8.99128,43.9148,-16.2168,-8.78804,-28.7485
23.4404,16.6184,-28.326,-1.77427,-15.3044,0.425496,5.66167,1.25168,3.53792,-1.66734,2.04437,2.38242,-4.87364,0.940934,0.287355,15.9161,13.3397,18.4009,-25.1542,17.2604,-28.88,-5.38286,10.0311,-14.0884,-3.49861e-14,1.43125e-14,-32.5024,2.87122,-77.0186,109.765,-20.9663,-21.0126,4.83278,7.12502,5.3622,-25.0794,-3.49861e-14,1.43125e-14,-50.136,12.5202,60.8799,138.671,63.8061,-26.8668,47.3752,7.12502,-0.29141,77.3548,-0.467119,9.0527,15.7218,41.9107,-33.3655,-7.65356,-14.2724,-26.8806,0.00607317,-9.1634,44.7233,-16.7814,-8.89174,-29.2573
23.4664,16.5797,-28.272,-2.13949,-15.2053,0.734881,5.80104,1.19211,3.23623,-1.60853,1.94454,2.32037,-4.90016,0.899864,0.398367,16.0537,13.4198,18.2706,-25.2796,17.3543,-28.8236,-5.44345,10.0856,-14.0712,-4.42296e-15,-2.38542e-14,-32.9534,2.61347,-77.4662,109.799,-20.4635,-19.9265,4.361,7.12502,6.41077,-25.522,-4.42296e-15,-2.38542e-14,-49.1144,13.349,59.9654,139.141,64.2737,-27.1865,47.1946,7.12502,-0.600235,77.1735,0.0414198,8.96054,15.3237,42.028,-34.0026,-7.6503,-13.7753,-26.8847,0.115242,-9.64995,45.57,-17.4104,-8.94261,-29.4092
23.4956,16.5424,-28.2219,-2.38397,-15.0652,0.964128,5.85592,1.13342,3.01875,-1.60342,1.8516,2.30435,-4.93319,0.859935,0.511252,16.2162,13.5218,17.9707,-25.3628,17.4636,-28.6274,-5.53091,10.1458,-13.977,2.97183e-14,4.29375e-14,-33.6253,2.49523,-77.8921,110.069,-20.2573,-18.9287,3.28657,7.12502,7.37395,-26.5649,2.97183e-14,4.29375e-14,-48.125,14.1169,59.2689,139.487,64.63,-27.441,46.7306,7.12502,-0.846016,76.7086,0.471097,8.74249,14.9873,42.1066,-34.3024,-8.42692,-15.8011,-27.0428,0.217144,-10.0645,46.4279,-17.8983,-9.07991,-29.24
23.5194,16.5023,-28.1784,-2.34109,-14.856,0.801369,5.64224,1.12786,3.04884,-1.55948,1.83902,2.41278,-4.769,0.856673,0.612851,16.2602,13.583,17.7347,-25.5919,17.4927,-28.477,-5.64771,10.1602,-13.9205,-2.37548e-14,-8.74653e-15,-34.1362,2.32739,-78.337,110.299,-20.5954,-19.0884,2.91597,7.12502,7.21984,-26.9409,-2.37548e-14,-8.74653e-15,-46.7656,14.812,58.9674,139.696,64.7264,-27.8643,46.3902,7.12502,-1.2548,76.3662,0.713354,8.57757,15.1252,42.129,-34.4816,-9.51563,-17.8581,-27.4798,0.348628,-10.0122,47.2527,-18.0812,-9.43696,-29.6241
23.5352,16.467,-28.1298,-2.41168,-14.5725,0.605708,5.36897,1.06254,3.06092,-1.42656,1.73883,2.53502,-4.48003,0.812494,0.748363,16.5183,13.5829,17.6791,-26.0242,17.4639,-28.508,-5.83485,10.1602,-14.0155,2.28602e-14,-1.74931e-14,-34.5046,2.2285,-78.7988,110.348,-21.0832,-19.313,3.13626,7.12502,7.003,-26.7279,2.28602e-14,-1.74931e-14,-45.3718,15.6678,58.7392,139.864,65.0195,-28.3823,46.1213,7.12502,-1.75511,76.0938,1.16745,8.49376,15.3755,42.1163,-34.9703,-10.2577,-18.1547,-27.7252,0.304529,-9.88834,48.0047,-18.2549,-9.71616,-30.3487
23.5532,16.4473,-28.08,-2.61587,-14.3678,0.568074,5.30349,1.02285,3.03365,-1.36726,1.67865,2.54299,-4.38258,0.784938,0.778827,16.7562,13.4997,18.0301,-26.1217,17.4305,-28.7473,-5.84373,10.1533,-14.1995,-5.01931e-15,1.59028e-15,-35.2877,1.99469,-79.2644,110.289,-21.2705,-18.969,3.12883,7.12502,7.3351,-26.724,-5.01931e-15,1.59028e-15,-44.1357,16.3093,58.6475,139.898,65.3047,-29.3686,44.9384,7.12502,-2.70771,74.901,1.68953,8.4454,15.4274,42.1045,-35.4749,-10.4782,-17.7101,-27.7472,0.273712,-9.95126,48.6519,-18.6063,-9.89267,-31.0591
23.5735,16.432,-28.0374,-2.67306,-14.4484,0.393368,5.25272,1.05274,3.19599,-1.41721,1.73098,2.59088,-4.40259,0.806593,0.733718,16.9867,13.4345,18.2259,-26.0323,17.424,-28.8333,-5.82703,10.1553,-14.2798,-6.41081e-15,-6.36111e-15,-36.3988,1.71693,-79.7646,110.145,-21.1577,-18.6427,3.27812,7.12502,7.65006,-26.5635,-6.41081e-15,-6.36111e-15,-43.0321,16.9475,58.5711,139.941,65.3741,-30.0212,44.5075,7.12502,-3.33791,74.4611,1.93216,8.53188,15.5819,42.1134,-35.5223,-10.9476,-18.5164,-27.7835,0.589364,-9.86647,49.1892,-19.0466,-10.0598,-31.9786
23.5932,16.4099,-28.0021,-2.64342,-14.7704,0.160235,5.08425,1.11272,3.39318,-1.39683,1.81896,2.71563,-4.28375,0.847998,0.74854,17.1922,13.4967,17.9353,-26.1467,17.4732,-28.6771,-5.94169,10.1906,-14.2195,-1.03865e-14,-8.74653e-15,-37.2534,1.67645,-80.2166,110.047,-21.0649,-18.3744,3.20519,7.12502,7.90899,-26.6269,-1.03865e-14,-8.74653e-15,-41.8928,17.8902,58.4781,139.98,65.5592,-30.2751,45.0579,7.12502,-3.58314,75.0075,2.01272,8.72799,15.7656,42.1274,-35.3524,-11.7296,-20.0893,-27.8035,1.11316,-9.70179,49.622,-19.4439,-10.1608,-32.6099
23.6129,16.3943,-27.9697,-2.67861,-14.9135,0.165476,5.03393,1.18184,3.29877,-1.35918,1.9036,2.79725,-4.22101,0.894499,0.879874,16.994,13.6412,17.5676,-26.124,17.5802,-28.4804,-5.93983,10.241,-14.0543,8.59744e-15,-2.22639e-14,-37.9599,1.57515,-80.5521,109.911,-21.0259,-18.0136,2.69624,7.12502,8.25717,-27.1224,8.59744e-15,-2.22639e-14,-40.518,18.7884,58.6654,139.852,65.8968,-30.8141,44.9521,7.12502,-4.10366,74.8923,2.14847,8.77804,15.6705,42.1067,-35.2825,-11.9413,-20.274,-27.7789,1.40719,-9.81248,49.9205,-19.7395,-10.2122,-32.6597
23.6299,16.3931,-27.9315,-2.78047,-14.7196,0.290546,4.99003,1.18711,3.09368,-1.37152,1.8963,2.81496,-4.21594,0.896608,1.01421,16.7986,13.697,17.4094,-26.0862,17.6097,-28.3705,-5.91817,10.2467,-13.958,6.01324e-14,2.70347e-14,-38.8331,1.31162,-80.9313,109.743,-20.9465,-17.9248,2.38714,7.12502,8.34289,-27.4281,6.01324e-14,2.70347e-14,-39.0787,19.5055,58.9994,139.611,66.267,-31.2149,44.4148,7.12502,-4.49065,74.3472,2.47395,8.69958,15.5192,42.0005,-35.142,-11.8846,-19.4998,-27.6749,1.32235,-10.0687,50.0611,-19.9806,-10.2149,-32.7452
23.6452,16.402,-27.8934,-2.85537,-14.5745,0.300073,4.82313,1.16835,3.06449,-1.40141,1.8623,2.82144,-4.15375,0.881206,1.04332,17.1188,13.6282,17.493,-26.3531,17.5463,-28.4129,-6.05916,10.2225,-14.0701,-5.26779e-15,-1.59028e-14,-39.794,1.09085,-81.39,109.703,-21.2119,-17.7158,1.89299,7.12502,8.54458,-27.9141,-5.26779e-15,-1.59028e-14,-37.8513,20.127,59.3988,139.391,66.5432,-31.2683,43.6187,7.12502,-4.54221,73.55,2.82886,8.68878,15.5092,41.8093,-34.8339,-11.8063,-18.6437,-27.4987,1.25343,-10.1851,50.0717,-20.1536,-10.1792,-33.1555
