JuanDHNZ/ProyectoFinalCD/preprocessing/sports_trials_csv/55_12.csv
root1,root2,root3,root4,root5,root6,lowerback1,lowerback2,lowerback3,upperback1,upperback2,upperback3,thorax1,thorax2,thorax3,lowerneck1,lowerneck2,lowerneck3,upperneck1,upperneck2,upperneck3,head1,head2,head3,rclavicle1,rclavicle2,rhumerus1,rhumerus2,rhumerus3,rradius1,rwrist1,rhand1,rhand2,rfingers1,rthumb1,rthumb2,lclavicle1,lclavicle2,lhumerus1,lhumerus2,lhumerus3,lradius1,lwrist1,lhand1,lhand2,lfingers1,lthumb1,lthumb2,rfemur1,rfemur2,rfemur3,rtibia1,rfoot1,rfoot2,rtoes1,lfemur1,lfemur2,lfemur3,ltibia1,lfoot1,lfoot2,ltoes1
16.8585,16.1113,-3.53018,-3.01637,-5.37092,-5.6386,3.27641,-3.57286,-0.0704475,-2.16654,-4.61754,4.85191,-3.66819,-2.24213,5.36,7.32325,7.48117,18.6272,-19.8684,8.89435,-23.7494,-4.83406,4.95972,-11.5455,-6.36111e-15,-3.02153e-14,-40.4481,-12.8966,-73.5158,108.911,-26.3945,-24.5871,-0.763978,7.12502,1.91037,-30.7352,-6.36111e-15,-3.02153e-14,-47.858,3.10905,85.6144,111.439,8.53731,11.9584,28.0585,7.12502,36.9814,54.1278,-15.2757,11.6518,9.16144,46.8922,-32.0835,-4.04075,-28.4094,-13.2845,2.35762,-3.37469,57.0685,-36.4898,4.38325,-30.0618
16.8958,16.1136,-3.52875,-3.02203,-5.7124,-5.79573,3.40199,-3.4365,-0.0304621,-2.25127,-4.424,4.93678,-3.84153,-2.14135,5.43111,7.52332,7.36379,18.2768,-19.9171,8.72865,-23.5563,-4.95764,4.89543,-11.4378,-2.31584e-14,-4.77083e-15,-40.0987,-12.3535,-73.521,109.059,-26.663,-24.3477,-1.41799,7.12502,2.1416,-31.387,-2.31584e-14,-4.77083e-15,-48.9309,3.66915,85.15,111.518,9.15666,11.2491,28.4308,7.12502,36.3101,54.6706,-15.2238,11.7325,9.17413,46.5929,-31.9253,-4.02743,-29.5803,-13.1637,2.48654,-3.36612,57.1732,-36.6662,4.36344,-29.6102
16.9367,16.1149,-3.52621,-3.00942,-6.00505,-5.86185,3.36765,-3.18701,0.0178067,-2.06723,-4.09812,4.82717,-3.67131,-1.98582,5.2581,6.6888,7.28624,18.6381,-19.663,8.54245,-23.7177,-4.7408,4.75387,-11.4915,-3.61788e-14,-9.54166e-15,-39.4321,-12.3507,-73.7014,109.115,-26.9673,-24.4664,-1.41819,7.12502,2.02695,-31.3883,-3.61788e-14,-9.54166e-15,-49.3859,3.7122,84.7084,111.604,9.96225,10.1267,28.9562,7.12502,35.2465,55.4543,-15.1659,11.8724,9.07181,46.309,-31.7997,-3.79743,-29.3497,-13.0885,2.5926,-3.4826,57.2913,-36.9097,4.43456,-29.2613
16.9777,16.1181,-3.51928,-2.96948,-6.19619,-6.07068,3.29524,-3.05697,0.294129,-2.03744,-3.91622,4.70177,-3.64216,-1.90365,4.95436,6.63635,7.16709,18.7422,-19.697,8.40323,-23.5241,-4.78328,4.66054,-11.4446,-3.42904e-14,-2.38542e-14,-39.1574,-12.0728,-73.9752,109.201,-27.3304,-24.7456,-1.30379,7.12502,1.75727,-31.2763,-3.42904e-14,-2.38542e-14,-50.2774,3.8507,84.0779,111.801,10.9375,9.67277,29.7206,7.12502,34.8159,56.3194,-15.0807,12.11,9.16779,46.0571,-31.6773,-3.67077,-28.8505,-13.0486,2.73637,-3.40278,57.4249,-37.1326,4.29564,-28.7844
17.0157,16.1168,-3.51369,-2.84435,-6.57036,-6.2225,3.25933,-2.88459,0.451022,-2.12045,-3.67724,4.6342,-3.74158,-1.78663,4.78359,6.6042,7.0812,18.6753,-19.5519,8.31547,-23.3002,-4.77569,4.60397,-11.3413,5.86415e-15,-7.95139e-15,-38.9277,-11.6937,-74.2005,109.166,-27.1976,-25.1955,-1.20132,7.12502,1.32275,-31.177,5.86415e-15,-7.95139e-15,-51.4256,4.12805,83.4592,112.058,11.851,9.56012,30.6293,7.12502,34.709,57.2528,-15.2046,12.4493,9.17005,45.822,-31.5401,-3.729,-29.4493,-13.0623,3.08014,-3.37204,57.5772,-37.2155,4.48305,-29.312
17.0529,16.1104,-3.50658,-2.75137,-7.00552,-6.29535,3.22934,-2.67369,0.492194,-2.15996,-3.39448,4.55903,-3.79418,-1.64623,4.66537,6.44934,6.9954,18.7713,-19.4117,8.20261,-23.2658,-4.72996,4.53289,-11.3298,5.81445e-15,7.15625e-15,-38.5979,-11.4818,-74.4419,109.034,-26.8953,-25.551,-1.02276,7.12502,0.979372,-31.0003,5.81445e-15,7.15625e-15,-52.3777,4.33821,82.8545,112.242,12.9226,9.09406,31.339,7.12502,34.2666,58.0631,-15.3415,12.762,9.0637,45.5815,-31.4073,-3.7369,-29.8632,-13.0507,3.41894,-3.43083,57.732,-37.3073,4.52205,-29.228
17.0926,16.111,-3.49645,-2.78893,-7.06095,-6.58806,3.26948,-2.62168,0.781012,-2.15464,-3.30965,4.5322,-3.83556,-1.61111,4.47205,6.54343,6.88408,18.7195,-19.5605,8.05818,-23.11,-4.83841,4.45645,-11.2868,-2.76311e-14,2.10712e-14,-38.3081,-11.344,-74.611,109.033,-27.1024,-25.5284,-0.892468,7.12502,1.00118,-30.8699,-2.76311e-14,2.10712e-14,-53.2011,4.50469,82.2266,112.423,14.3803,7.89374,31.7567,7.12502,33.126,58.7303,-15.1148,12.8336,9.27924,45.3075,-31.3222,-3.68733,-29.5212,-12.996,3.42271,-3.2378,57.8602,-37.4864,4.10146,-28.0655
17.1305,16.1153,-3.49056,-2.69709,-7.07225,-6.80455,3.19305,-2.59979,0.929672,-2.19932,-3.27295,4.55612,-3.84833,-1.596,4.40882,6.6629,6.76364,18.5256,-19.6831,7.89417,-22.9127,-4.95795,4.37793,-11.203,1.98785e-14,-1.19271e-14,-38.0455,-11.0263,-74.6231,109.054,-27.1714,-25.9839,-0.592941,7.12502,0.561287,-30.5719,1.98785e-14,-1.19271e-14,-54.0069,4.77385,81.6831,112.636,15.8996,6.68586,32.207,7.12502,31.9766,59.4176,-15.0123,12.9351,9.38801,44.9976,-31.2011,-3.54725,-29.0094,-13.0937,3.46767,-3.14404,57.9486,-37.5624,3.84986,-27.3979
17.166,16.1165,-3.49197,-2.70109,-7.16574,-6.82381,3.33707,-2.52064,0.845826,-2.27561,-3.16505,4.49464,-4.0153,-1.53807,4.3969,6.69835,6.60755,18.5731,-19.6635,7.69905,-22.8381,-5.00628,4.27436,-11.1918,-2.3059e-14,8.34896e-15,-37.9328,-10.6548,-74.6976,109.009,-26.961,-26.7533,-0.33075,7.12502,-0.181805,-30.3104,-2.3059e-14,8.34896e-15,-54.7235,5.03392,81.0858,112.69,17.4301,5.98123,32.8176,7.12502,31.3054,60.1604,-14.9143,13.1565,9.28903,44.6702,-30.9541,-3.61342,-29.5525,-13.1008,3.58802,-3.25505,57.9954,-37.5222,3.72845,-26.6985
17.2078,16.1242,-3.48838,-2.85543,-7.35479,-6.9238,3.61375,-2.40186,0.980077,-2.26405,-2.99347,4.36643,-4.18507,-1.45576,4.19132,6.5905,6.49585,18.7125,-19.6319,7.55306,-22.7907,-5.00749,4.18446,-11.1953,-4.84538e-14,-8.74653e-15,-37.8252,-10.4648,-74.8534,108.916,-26.8049,-27.0406,-0.279806,7.12502,-0.459307,-30.2591,-4.84538e-14,-8.74653e-15,-55.3917,5.21413,80.3556,112.794,18.9903,5.53601,33.1892,7.12502,30.8811,60.6132,-14.6762,13.4684,9.30911,44.3546,-30.6431,-3.66352,-30.0506,-12.8747,3.75808,-3.27197,58.0238,-37.5863,3.54655,-25.6573
17.2535,16.1365,-3.47843,-2.75612,-7.64538,-6.94633,3.45756,-2.26517,1.07403,-2.22015,-2.81712,4.23504,-4.07259,-1.37363,3.97909,6.44082,6.44158,18.8603,-19.6636,7.46211,-22.8281,-5.00086,4.12529,-11.2317,6.5102e-15,-2.10712e-14,-37.5968,-10.3589,-75.0509,108.878,-26.3721,-27.3628,-0.364528,7.12502,-0.770455,-30.3429,6.5102e-15,-2.10712e-14,-55.9849,5.49966,79.5395,113.001,20.3121,5.67244,33.5553,7.12502,31.0111,60.9547,-14.7344,13.8265,9.14985,44.071,-30.4243,-3.16866,-28.907,-12.8432,4.0204,-3.43844,58.0618,-37.7548,3.24628,-24.5458
17.2932,16.1381,-3.47541,-2.55247,-7.61223,-6.98776,3.21238,-2.23816,1.06772,-2.22361,-2.79243,4.16041,-3.94182,-1.36343,3.89049,6.39663,6.37248,18.9647,-19.7691,7.35247,-22.8724,-5.04138,4.0646,-11.2757,3.13583e-14,-1.98785e-15,-37.4108,-10.2736,-75.2077,108.856,-26.0466,-27.673,-0.390407,7.12502,-1.07012,-30.3675,3.13583e-14,-1.98785e-15,-56.488,5.83562,78.7908,113.173,21.8591,5.53351,34.0333,7.12502,30.8787,61.4578,-14.8199,13.9906,9.02432,43.8197,-30.1856,-2.89425,-27.9382,-13.1099,4.0896,-3.56099,58.1474,-37.8112,2.92756,-24.1101
17.3311,16.1306,-3.47125,-2.56253,-7.52705,-7.14038,3.24932,-2.2301,1.17697,-2.24464,-2.77467,4.13417,-3.99209,-1.35725,3.80338,6.4221,6.29386,18.8738,-19.783,7.24303,-22.7909,-5.08511,4.01176,-11.2354,3.29983e-14,-1.74931e-14,-37.3366,-10.1464,-75.1847,108.749,-26.0638,-27.8283,-0.13505,7.12502,-1.22005,-30.1113,3.29983e-14,-1.74931e-14,-57.0621,6.12223,78.179,113.37,23.5962,4.92338,34.4521,7.12502,30.2969,61.9852,-14.657,14.1988,9.09938,43.6052,-30.0208,-3.11312,-27.9577,-13.1637,4.13589,-3.51322,58.2693,-37.8653,3.10706,-25.468
17.3741,16.1241,-3.46495,-2.58694,-7.67331,-7.08311,3.29194,-2.12277,1.16327,-2.27615,-2.63283,4.01421,-4.06147,-1.28689,3.6802,6.40767,6.20864,18.7679,-19.7404,7.13496,-22.6229,-5.11091,3.95269,-11.1535,-4.57702e-14,3.61788e-14,-37.4683,-9.91031,-75.1672,108.687,-26.103,-28.5378,0.00394968,7.12502,-1.90534,-29.9673,-4.57702e-14,3.61788e-14,-57.5012,6.33272,77.5238,113.494,24.9129,4.92346,35.1475,7.12502,30.297,62.6805,-14.6246,14.5178,8.89743,43.4321,-29.9196,-3.53956,-28.6685,-13.1409,4.27874,-3.7629,58.3988,-37.9168,3.59926,-26.8415
17.417,16.1177,-3.46444,-2.49651,-7.65508,-7.03177,3.27534,-2.08448,1.14174,-2.37348,-2.58403,3.88204,-4.16061,-1.26243,3.55415,6.505,6.08913,18.7582,-19.7954,6.99826,-22.4672,-5.18755,3.87789,-11.1084,3.24516e-14,-9.14409e-15,-37.7438,-9.6377,-75.2323,108.688,-26.1042,-29.3161,-0.0199617,7.12502,-2.65698,-29.9832,3.24516e-14,-9.14409e-15,-57.8568,6.5045,76.8167,113.51,26.2292,5.10674,35.7706,7.12502,30.4718,63.2714,-14.6621,14.6996,8.69475,43.2587,-29.6644,-4.2902,-30.2339,-13.3734,4.32389,-4.01057,58.565,-37.9234,3.80958,-27.3988
17.4573,16.1127,-3.46352,-2.51381,-7.51623,-7.0499,3.33891,-2.13814,1.13504,-2.39021,-2.65543,3.82091,-4.21281,-1.29809,3.50258,6.49905,6.03874,18.6845,-19.8194,6.92002,-22.4134,-5.21809,3.83961,-11.0787,-1.18525e-14,1.98785e-14,-37.7424,-9.47572,-75.2837,108.645,-26.0516,-29.0658,0.278696,7.12502,-2.41527,-29.6874,-1.18525e-14,1.98785e-14,-58.1518,6.87897,76.2152,113.599,27.6953,4.7843,36.3042,7.12502,30.1642,63.8616,-14.4924,14.8469,8.61907,43.0698,-29.5147,-4.81663,-31.6356,-13.4895,4.31668,-4.15002,58.7383,-38.0126,3.96299,-28.9338
17.4973,16.1103,-3.46125,-2.59163,-7.50682,-7.13657,3.47895,-2.13066,1.17734,-2.30259,-2.64273,3.78215,-4.20532,-1.29383,3.44112,6.1635,6.06376,18.5497,-19.7084,6.90026,-22.3538,-5.13741,3.82033,-11.0044,2.57426e-14,-2.52457e-14,-37.7267,-9.35211,-75.3349,108.545,-25.9332,-28.8095,0.514699,7.12502,-2.16775,-29.454,2.57426e-14,-2.52457e-14,-58.2501,7.21404,75.6606,113.816,29.1038,3.17453,36.7114,7.12502,28.6273,64.5386,-14.2966,15.1233,8.63755,42.867,-29.3295,-5.1313,-32.3447,-13.4877,4.38961,-4.18744,58.9206,-38.086,3.99229,-29.8844
17.5386,16.1071,-3.46048,-2.61743,-7.5408,-7.38378,3.6312,-2.1059,1.38031,-2.24932,-2.59493,3.77981,-4.24786,-1.27567,3.32696,5.87374,6.06716,18.4713,-19.5855,6.87178,-22.2685,-5.06313,3.79303,-10.9336,2.67862e-14,9.93923e-15,-37.8212,-9.19348,-75.3724,108.356,-25.8753,-28.9718,0.729768,7.12502,-2.3245,-29.2373,2.67862e-14,9.93923e-15,-58.3629,7.40738,75.1255,114.072,30.5247,0.698259,36.5119,7.12502,26.259,64.7148,-14.1355,15.4612,8.83908,42.6549,-28.9583,-5.69388,-32.8573,-13.5736,4.53776,-4.00504,59.127,-38.106,3.75426,-29.3164
17.5832,16.1064,-3.45987,-2.58356,-7.5132,-7.54416,3.60885,-2.13319,1.53581,-2.18815,-2.62631,3.77032,-4.17761,-1.29648,3.22876,5.66419,6.09736,18.3885,-19.5101,6.88083,-22.2368,-5.00587,3.79173,-10.889,3.92103e-14,-4.77083e-15,-37.7751,-9.08795,-75.4281,108.262,-26.0301,-28.7751,1.1244,7.12502,-2.13449,-28.8447,3.92103e-14,-4.77083e-15,-58.4081,7.77542,74.6391,114.292,31.8629,-0.200279,36.6285,7.12502,25.3985,64.9566,-14.0375,15.7463,8.90632,42.4918,-28.7098,-6.1307,-33.2599,-13.7393,4.65338,-3.96029,59.328,-38.1643,3.59583,-28.8979
17.627,16.1053,-3.4587,-2.46843,-7.51945,-7.64165,3.53037,-2.12793,1.63544,-2.22526,-2.61673,3.73463,-4.17825,-1.29494,3.13276,5.74047,6.00863,18.3946,-19.5848,6.74767,-22.3178,-5.06601,3.73463,-10.9331,1.75676e-14,-2.127e-14,-37.9718,-9.02658,-75.4671,108.37,-26.1489,-28.5253,1.13612,7.12502,-1.89329,-28.8352,1.75676e-14,-2.127e-14,-58.4112,8.06826,74.1023,114.439,33.1167,0.329798,37.5121,7.12502,25.9062,65.7671,-14.0925,16.1141,8.86906,42.394,-28.3985,-6.4543,-33.3562,-13.9592,4.81873,-4.0103,59.517,-38.1721,3.71984,-29.4059
17.6667,16.1017,-3.45976,-2.37412,-7.74393,-7.51851,3.53894,-2.0454,1.4489,-2.31027,-2.51617,3.64841,-4.27103,-1.24,3.14406,5.9297,5.8595,18.5536,-19.6584,6.5555,-22.4851,-5.14843,3.64965,-11.0449,-2.78299e-15,-1.82882e-14,-38.2153,-8.954,-75.4679,108.37,-26.1542,-28.4616,0.968556,7.12502,-1.83171,-29.0033,-2.78299e-15,-1.82882e-14,-58.4832,8.28946,73.5153,114.563,34.1982,0.965733,38.5138,7.12502,26.515,66.6783,-14.276,16.6572,8.55935,42.3431,-28.0119,-6.66509,-33.1271,-14.0814,5.12209,-4.30163,59.6637,-38.2083,3.75186,-29.3476
17.7093,16.1069,-3.46156,-2.41835,-7.85344,-7.17204,3.57145,-2.04284,1.05978,-2.24023,-2.54079,3.49887,-4.20462,-1.24377,3.20719,5.75651,5.90332,18.5546,-19.5783,6.59236,-22.513,-5.08251,3.66228,-11.0384,7.46685e-15,2.21645e-14,-38.0924,-8.90457,-75.5966,108.246,-26.1534,-28.4099,0.820355,7.12502,-1.7818,-29.152,7.46685e-15,2.21645e-14,-58.4812,8.688,72.9731,114.702,35.0935,1.57187,39.1559,7.12502,27.0951,67.2316,-14.3247,17.0509,8.00309,42.3179,-27.8519,-6.47999,-32.7159,-14.0815,5.16948,-4.90096,59.739,-38.3733,3.57389,-27.7126
17.7572,16.1146,-3.45812,-2.49024,-7.68692,-7.07402,3.63973,-2.14107,1.01062,-2.16636,-2.67894,3.38881,-4.16279,-1.31314,3.13038,5.71736,5.93635,18.4205,-19.7024,6.61153,-22.43,-5.1186,3.6718,-10.9897,9.44227e-15,3.8763e-15,-38.0572,-8.90941,-75.7419,108.098,-25.9791,-28.1021,0.786398,7.12502,-1.48449,-29.1882,9.44227e-15,3.8763e-15,-58.408,9.01716,72.5245,114.833,36.0307,1.89213,39.2749,7.12502,27.4014,67.3025,-14.1783,17.2965,7.76304,42.2871,-27.6984,-6.36416,-32.5555,-14.1278,5.02908,-5.2264,59.8073,-38.4881,3.35141,-25.6506
17.8025,16.1132,-3.4524,-2.49192,-7.66633,-7.27375,3.68169,-2.20483,1.23632,-2.14858,-2.75155,3.37059,-4.17646,-1.35578,2.99153,5.83543,5.87792,18.4252,-19.848,6.53063,-22.4336,-5.20141,3.63587,-11.0115,-7.83957e-15,-7.35503e-15,-38.2008,-8.87898,-75.7993,107.958,-25.799,-27.6526,0.685851,7.12502,-1.05039,-29.2913,-7.83957e-15,-7.35503e-15,-58.2542,9.31067,72.1464,114.918,36.9878,1.90878,39.2692,7.12502,27.4173,67.2943,-14.1335,17.848,7.86857,42.2914,-27.388,-6.55535,-32.6553,-14.1558,5.18531,-5.14083,59.8957,-38.5778,3.3374,-25.8756
17.8449,16.1111,-3.45255,-2.4262,-7.74103,-7.48776,3.66809,-2.27723,1.37451,-2.10964,-2.84008,3.44374,-4.12798,-1.40323,2.99427,5.69053,5.93563,18.2368,-19.754,6.57841,-22.3911,-5.14622,3.66271,-10.9448,-3.51352e-14,-1.98785e-14,-38.2156,-8.73093,-75.8354,107.904,-25.8099,-27.3713,0.381623,7.12502,-0.778712,-29.5967,-3.51352e-14,-1.98785e-14,-58.0246,9.79768,71.9065,115.034,38.0538,1.92956,39.8198,7.12502,27.4372,67.8417,-14.2691,18.5406,7.97536,42.3855,-26.8719,-7.00748,-32.7826,-14.2096,5.42278,-5.02743,59.9939,-38.6769,3.30455,-27.5146
17.887,16.1114,-3.45842,-2.30457,-7.81735,-7.52377,3.64236,-2.38576,1.25697,-2.14109,-2.98878,3.53238,-4.12961,-1.47294,3.1623,5.71957,5.98735,18.0613,-19.6765,6.62726,-22.4726,-5.11909,3.70606,-10.9373,-3.1321e-14,-2.56432e-14,-38.3258,-8.41119,-75.8774,107.788,-25.8658,-27.2538,0.505894,7.12502,-0.665189,-29.4728,-3.1321e-14,-2.56432e-14,-57.9536,10.3506,71.712,115.206,39.0978,1.95244,40.4751,7.12502,27.4591,68.4936,-14.6023,19.099,7.83393,42.6249,-26.2506,-7.31951,-32.1509,-14.3763,5.5985,-5.15272,60.0975,-38.671,3.31868,-28.5465
17.9236,16.1091,-3.46821,-2.1283,-8.05044,-7.50255,3.53593,-2.4156,1.07756,-2.20094,-3.04084,3.51926,-4.12049,-1.49412,3.24928,5.73444,5.91622,18.3858,-19.3914,6.55826,-22.7788,-5.0195,3.67449,-11.091,1.21756e-14,2.68359e-14,-38.7283,-8.16568,-76.0519,107.668,-25.9432,-27.2797,0.813716,7.12502,-0.690233,-29.1649,1.21756e-14,2.68359e-14,-57.8021,10.6423,71.447,115.344,39.9451,1.41223,40.1957,7.12502,26.9423,68.295,-15.1679,19.6897,7.57657,42.9876,-25.7432,-7.05138,-30.449,-14.5931,5.91673,-5.32028,60.2039,-38.6313,3.61664,-29.3617
17.9604,16.1066,-3.47624,-2.07243,-8.26356,-7.42734,3.49636,-2.41913,0.916303,-2.1546,-3.06028,3.42597,-4.04529,-1.50142,3.23987,5.50742,5.91372,18.5452,-19.1657,6.56005,-22.8008,-4.90285,3.65638,-11.0989,1.4182e-14,-1.93318e-14,-39.2885,-8.05438,-76.2279,107.783,-26.0422,-27.2959,0.724336,7.12502,-0.705904,-29.2542,1.4182e-14,-1.93318e-14,-57.3574,10.8266,71.2795,115.497,40.7328,0.811639,39.9657,7.12502,26.3676,68.1524,-15.5858,20.403,7.30818,43.3924,-25.2871,-6.63559,-28.8558,-14.6732,6.18903,-5.53551,60.3121,-38.697,3.65859,-29.0251
18.0032,16.1105,-3.47775,-2.19601,-8.38378,-7.42936,3.67192,-2.5135,0.855463,-2.04442,-3.18907,3.39894,-4.02224,-1.56486,3.2596,5.50399,5.98746,18.3801,-19.3666,6.63511,-22.6711,-4.95962,3.69286,-11.033,-8.25578e-15,8.05078e-15,-39.6654,-7.83835,-76.3159,107.866,-26.2729,-27.2741,0.470653,7.12502,-0.684779,-29.508,-8.25578e-15,8.05078e-15,-56.8364,11.1776,71.2255,115.67,41.3329,0.620124,40.4443,7.12502,26.1842,68.6584,-15.7571,21.2324,7.20297,43.816,-25.0524,-6.07349,-27.0291,-14.5507,6.35096,-5.67821,60.4228,-38.8094,3.55355,-27.6588
18.044,16.1148,-3.48117,-2.22733,-8.37173,-7.56174,3.7812,-2.67145,0.860442,-1.95575,-3.39849,3.43786,-3.97995,-1.66962,3.31396,5.39003,6.03552,18.3895,-19.3159,6.67468,-22.7674,-4.90785,3.71281,-11.0586,4.13534e-14,5.46658e-16,-39.7438,-7.7815,-76.4179,107.679,-26.7137,-26.8301,0.4411,7.12502,-0.256014,-29.5385,4.13534e-14,5.46658e-16,-56.325,11.4294,71.2739,115.909,41.8595,-0.307586,41.0672,7.12502,25.2957,69.41,-16.0158,21.8891,7.21432,44.2324,-24.8651,-5.47804,-25.0287,-14.6264,6.43498,-5.67138,60.5693,-38.8841,3.17611,-25.391
18.0841,16.1114,-3.49107,-2.19089,-8.15721,-7.61424,3.77189,-2.90859,0.779433,-1.9148,-3.72117,3.45956,-3.90985,-1.82902,3.40104,5.53241,6.02919,18.3898,-19.4004,6.6634,-22.8568,-4.9554,3.71916,-11.1061,-2.05742e-14,1.35671e-14,-39.9093,-7.86667,-76.4954,107.541,-27.1916,-25.6447,0.710794,7.12502,0.888928,-29.2671,-2.05742e-14,1.35671e-14,-55.936,11.552,71.4639,116.172,42.615,-2.02268,41.5167,7.12502,23.6516,70.0818,-16.3106,22.1601,7.09614,44.6573,-24.4083,-5.2233,-24.1433,-14.917,6.34397,-5.7767,60.7138,-38.8514,2.88298,-24.1866
18.1291,16.112,-3.49848,-2.30868,-7.81851,-7.71697,3.92124,-3.26137,0.817,-1.90446,-4.18563,3.50476,-3.95948,-2.06042,3.46779,6.19579,5.99202,18.2043,-19.871,6.6397,-22.8251,-5.23208,3.74505,-11.1348,-3.95581e-14,-1.33683e-14,-40.3056,-7.63025,-76.5578,107.493,-27.5565,-24.8422,1.05892,7.12502,1.66395,-28.9143,-3.95581e-14,-1.33683e-14,-55.6108,11.7562,71.6826,116.355,43.4615,-5.3663,41.7515,7.12502,20.4414,70.6955,-16.3126,22.4153,7.13506,45.1126,-23.9368,-5.36054,-24.4517,-15.0409,6.14039,-5.8333,60.784,-38.7012,3.06877,-24.986
18.1712,16.1128,-3.49969,-2.50963,-7.43551,-7.5713,4.11739,-3.62149,0.558598,-1.8605,-4.6785,3.50532,-3.97866,-2.29931,3.65795,6.38217,6.02793,17.9434,-19.9025,6.69862,-22.6827,-5.28264,3.78843,-11.0463,7.73769e-14,-5.06901e-15,-40.6977,-7.27042,-76.6183,107.485,-27.715,-24.6821,1.16346,7.12502,1.8186,-28.8085,7.73769e-14,-5.06901e-15,-55.1358,11.9697,71.953,116.612,44.0415,-9.8177,41.7717,7.12502,16.1592,71.1181,-16.1589,22.7987,6.98933,45.5834,-23.463,-5.83071,-25.7001,-14.9875,5.88881,-6.18294,60.7512,-38.6012,3.60332,-26.8456
18.2046,16.1072,-3.50417,-2.5668,-7.05694,-7.31574,4.12517,-3.83098,0.0722028,-1.73571,-4.99227,3.4629,-3.79804,-2.44748,3.89857,6.04485,6.02865,17.7386,-19.7472,6.66662,-22.4679,-5.20386,3.75504,-10.8989,5.70885e-15,-2.83268e-14,-41.0195,-7.42281,-76.5636,107.591,-27.6383,-24.3726,0.957797,7.12502,2.11754,-29.0114,5.70885e-15,-2.83268e-14,-54.192,11.8558,72.5006,116.771,44.2937,-11.8395,41.8364,7.12502,14.2117,71.3302,-16.2402,23.1345,6.66418,46.0656,-22.8946,-6.14477,-25.5995,-15.0468,5.59351,-6.66654,60.6687,-38.5022,4.28377,-29.4036
18.2377,16.1121,-3.50891,-2.65063,-6.7001,-7.43938,4.13484,-4.22521,-0.110608,-1.74521,-5.52422,3.67181,-3.74215,-2.70768,4.25174,7.01597,5.96126,16.9338,-20.2574,6.59794,-22.103,-5.60818,3.78953,-10.7158,2.1829e-14,-3.56818e-14,-41.5713,-6.9469,-76.4701,107.626,-27.4205,-24.0873,0.817544,7.12502,2.39309,-29.1488,2.1829e-14,-3.56818e-14,-53.7376,12.1098,73.1331,116.919,44.6849,-13.0052,42.9553,7.12502,13.0882,72.5246,-16.2964,23.5933,6.78868,46.5765,-22.4677,-6.3884,-23.9856,-15.0529,5.24876,-6.69464,60.5962,-38.4428,4.24045,-29.8116
18.2764,16.1197,-3.50685,-2.93246,-6.52251,-7.54219,4.34127,-4.50395,-0.248987,-1.62753,-5.90262,3.75566,-3.68688,-2.89462,4.4507,7.39319,5.93815,16.672,-20.4918,6.57216,-21.9684,-5.77404,3.79911,-10.6599,-2.03879e-14,8.15017e-15,-42.0869,-6.74097,-76.5013,107.661,-27.1356,-24.0059,1.0437,7.12502,2.47169,-28.9217,-2.03879e-14,8.15017e-15,-52.9384,11.9953,73.8692,117.136,45.3627,-15.0019,44.346,7.12502,11.163,74.0291,-16.2232,24.3316,6.96197,47.0965,-21.7974,-6.98207,-24.5757,-14.7304,5.05676,-6.72903,60.52,-38.4698,3.89981,-28.7135
18.309,16.1153,-3.52613,-3.03577,-6.07547,-7.4406,4.70872,-4.82461,-0.66372,-1.67766,-6.35117,3.76881,-3.8661,-3.10442,4.762,7.51078,5.88882,16.6567,-20.5013,6.52583,-21.8925,-5.81411,3.77516,-10.6375,8.48189e-14,3.81667e-14,-42.7983,-6.6706,-76.5234,107.862,-26.9809,-24.0156,1.29135,7.12502,2.46233,-28.6742,8.48189e-14,3.81667e-14,-51.9985,11.6887,74.525,117.216,45.735,-16.3929,44.713,7.12502,9.8211,74.4639,-16.4546,24.7028,6.8171,47.6619,-20.841,-7.46071,-25.2212,-14.863,4.75608,-6.99646,60.5158,-38.3373,3.68152,-27.9998
18.3468,16.1221,-3.53319,-2.96974,-5.93107,-7.35249,4.71358,-5.02026,-0.934511,-1.67716,-6.63238,3.72819,-3.81937,-3.23986,4.8873,7.49554,5.78095,16.7251,-20.4322,6.41049,-21.7538,-5.82099,3.70106,-10.5939,4.30369e-14,1.67973e-14,-43.5365,-6.80316,-76.5373,108.067,-26.9069,-24.043,1.38604,7.12502,2.43586,-28.5798,4.30369e-14,1.67973e-14,-50.891,11.1991,75.2004,117.034,45.9511,-17.2013,44.7404,7.12502,9.04108,74.5266,-16.95,24.9995,6.54847,48.2303,-20.1797,-7.5009,-24.149,-15.0398,4.68408,-7.29691,60.4927,-38.3804,3.47224,-27.3307
18.3829,16.1318,-3.5438,-3.04106,-5.81963,-7.39283,4.93659,-5.1674,-1.14956,-1.62848,-6.84313,3.72826,-3.85101,-3.33971,5.03981,7.25166,5.64918,17.0137,-20.1701,6.2535,-21.7985,-5.71592,3.59699,-10.6297,1.7016e-13,-2.62396e-14,-44.1253,-7.13576,-76.4485,108.152,-26.7991,-23.9202,1.30959,7.12502,2.55443,-28.6549,1.7016e-13,-2.62396e-14,-49.8372,10.5301,75.9883,117.346,46.4819,-18.6305,46.634,7.12502,7.66183,76.4752,-17.1999,25.2694,6.5188,48.8304,-19.4449,-7.65708,-24.4229,-15.0597,4.67096,-7.40434,60.4857,-38.3685,3.67633,-27.9495
18.411,16.136,-3.56003,-3.06471,-5.49966,-7.44929,5.32321,-5.37677,-1.43118,-1.75047,-7.138,3.77231,-4.12953,-3.47055,5.31291,7.02086,5.47176,17.3798,-19.649,6.04733,-22.0096,-5.53428,3.47865,-10.7239,-6.13251e-14,-1.59028e-15,-44.8994,-7.49273,-76.2368,108.318,-26.7454,-24.1248,0.884233,7.12502,2.35686,-29.0825,-6.13251e-14,-1.59028e-15,-49.0507,9.89042,76.6816,118.649,47.5047,-21.2242,51.9044,7.12502,5.15791,81.8216,-17.4228,25.6647,6.57302,49.3983,-18.3214,-8.29485,-26.4022,-15.2334,4.55774,-7.44668,60.4692,-38.1513,4.21896,-29.45
18.4385,16.147,-3.56575,-2.93238,-5.1564,-7.41503,5.33133,-5.66068,-1.81664,-1.81312,-7.54381,3.84395,-4.10164,-3.66303,5.63103,6.9399,5.33602,17.3984,-19.4153,5.87196,-21.9975,-5.48769,3.38667,-10.7029,-5.57715e-14,3.3694e-14,-45.6113,-7.61369,-76.053,108.556,-26.7328,-24.3045,0.801846,7.12502,2.18324,-29.1667,-5.57715e-14,3.3694e-14,-48.0323,9.44902,77.4391,118.198,47.2396,-21.8007,47.9912,7.12502,4.60118,77.9212,-17.8566,26.2125,6.48415,49.9407,-17.3288,-8.76022,-26.5482,-15.5408,4.39469,-7.62191,60.4428,-38.0758,4.5061,-29.3633
18.4726,16.172,-3.56489,-3.01441,-4.85959,-7.351,5.44842,-5.94692,-2.25752,-1.70396,-7.95907,3.9463,-3.93641,-3.86606,6.00948,6.71094,5.26875,17.2271,-19.3164,5.73943,-21.9012,-5.45638,3.3144,-10.6174,-6.32384e-15,2.51463e-14,-46.1394,-7.59557,-75.7933,108.705,-26.6988,-23.3908,1.43139,7.12502,3.06574,-28.5263,-6.32384e-15,2.51463e-14,-46.7436,9.10423,78.3309,118.138,47.8978,-23.7203,47.7777,7.12502,2.74743,77.7397,-17.9055,26.729,6.48785,50.3849,-16.5118,-9.20272,-26.4371,-15.5304,4.14764,-7.85851,60.3619,-38.111,4.22857,-26.8027
18.5037,16.1782,-3.57132,-3.21921,-4.47678,-7.43626,5.75541,-6.22496,-2.55203,-1.57744,-8.35496,4.04024,-3.87587,-4.06072,6.32071,6.55705,5.10446,17.1668,-19.3217,5.48834,-21.789,-5.49246,3.17805,-10.5591,-1.11319e-14,1.25234e-14,-46.7996,-7.78044,-75.509,108.94,-26.6731,-22.1103,1.95083,7.12502,4.30228,-27.9855,-1.11319e-14,1.25234e-14,-45.3856,8.63476,79.137,118.273,48.6828,-25.5614,49.5246,7.12502,0.969405,79.5022,-17.8033,27.0973,6.70522,50.8297,-15.6826,-9.50685,-26.5432,-15.467,3.78639,-7.8971,60.3452,-38.0199,3.89029,-25.3117
18.5335,16.1831,-3.57866,-3.29347,-4.12057,-7.49257,5.73875,-6.50604,-2.74419,-1.38078,-8.75002,3.99563,-3.59166,-4.26817,6.38051,6.56642,4.93651,17.1998,-19.4856,5.27301,-21.55,-5.60213,3.05033,-10.4906,4.08378e-14,-3.12092e-14,-47.3273,-8.2606,-75.4906,109.174,-26.6193,-20.991,2.16042,7.12502,5.38304,-27.7512,4.08378e-14,-3.12092e-14,-43.8555,8.21864,79.4302,117.99,48.3536,-23.8634,47.5515,7.12502,2.60927,77.5153,-17.8704,27.494,6.77587,51.2466,-14.826,-9.31688,-25.3052,-15.5069,3.47176,-7.98553,60.3103,-37.885,4.04365,-26.132
18.5635,16.1871,-3.5826,-3.27777,-3.86134,-7.40334,5.53479,-6.79159,-2.92552,-1.19236,-9.15007,3.83022,-3.23051,-4.48186,6.28021,6.23344,4.93404,17.3582,-19.1359,5.30605,-21.3818,-5.43237,3.02953,-10.4161,8.51047e-16,-1.89342e-14,-47.7952,-8.6793,-75.5862,109.355,-26.6342,-20.796,1.88003,7.12502,5.57133,-28.0267,8.51047e-16,-1.89342e-14,-42.4433,7.4535,79.7874,118.39,50.0948,-25.2094,48.1655,7.12502,1.30936,78.1412,-18.0641,28.0219,6.62495,51.6942,-13.8527,-9.39662,-26.3675,-15.5714,3.26023,-8.26122,60.2814,-37.8224,4.76802,-28.3732
18.5914,16.1926,-3.58787,-3.30372,-3.4899,-7.47832,5.59607,-7.11663,-3.02187,-1.14918,-9.59536,3.763,-3.16046,-4.70648,6.28765,5.97994,4.85065,17.4587,-18.7385,5.23508,-21.1961,-5.28894,2.96445,-10.3273,-4.19094e-14,-1.38155e-14,-48.5707,-8.93056,-75.37,109.667,-27.0598,-21.4148,1.19587,7.12502,4.97387,-28.7258,-4.19094e-14,-1.38155e-14,-41.3224,6.87864,80.1144,118.505,51.0254,-26.3781,51.0474,7.12502,0.180569,81.027,-18.2143,28.4172,6.72052,52.1502,-12.947,-9.69909,-28.4914,-15.6472,2.95694,-8.32933,60.2593,-37.713,5.27606,-30.0272
18.6188,16.1981,-3.59883,-3.39251,-3.06567,-7.69297,5.87529,-7.4948,-3.13388,-1.15581,-10.1127,3.84032,-3.22542,-4.96101,6.49413,5.94921,4.72393,17.4838,-18.4677,5.10204,-21.0745,-5.23659,2.88773,-10.2686,1.03595e-13,-1.47101e-14,-49.3494,-9.05712,-75.0553,109.9,-27.2727,-21.4903,0.97946,7.12502,4.90089,-28.9439,1.03595e-13,-1.47101e-14,-40.3399,6.6193,80.4146,118.678,51.4516,-26.1166,49.2649,7.12502,0.433164,79.2442,-18.2289,28.6615,7.02156,52.6048,-12.2978,-9.93949,-29.1191,-15.7623,2.5357,-8.2347,60.2497,-37.592,5.00975,-29.3993
18.6456,16.1993,-3.61161,-3.50033,-2.69483,-7.55913,6.0339,-7.87411,-3.67715,-1.02437,-10.6658,3.88378,-2.99965,-5.2409,6.86167,5.45989,4.75755,17.4412,-17.882,5.14296,-20.997,-4.9697,2.88536,-10.1715,-5.7132e-14,2.65874e-14,-49.7797,-9.17047,-74.8661,109.998,-27.0693,-21.2716,1.075,7.12502,5.11212,-28.8433,-5.7132e-14,2.65874e-14,-39.0469,6.62661,80.5903,118.569,51.2327,-27.4825,47.7867,7.12502,-0.886115,77.7646,-18.2168,28.8061,6.89327,53.0457,-11.8811,-9.96108,-28.6783,-15.841,2.11847,-8.56138,60.2251,-37.5266,4.63935,-28.3431
18.6725,16.2053,-3.61933,-3.58774,-2.31913,-7.22301,6.12027,-8.20893,-4.40161,-0.89339,-11.1743,3.84698,-2.71172,-5.50041,7.22301,4.90224,4.74988,17.4661,-17.2656,5.12367,-20.9463,-4.69227,2.84755,-10.0943,-4.72735e-14,1.51076e-14,-50.2906,-9.32445,-74.5816,110.116,-26.9761,-21.1823,1.12994,7.12502,5.19835,-28.7863,-4.72735e-14,1.51076e-14,-37.745,6.48708,80.7898,118.576,51.218,-26.6259,45.5327,7.12502,-0.0587934,75.5125,-18.2694,28.9777,6.53905,53.4213,-11.375,-9.91393,-27.4828,-15.8863,1.80107,-9.11181,60.2041,-37.4796,4.63335,-27.881
18.7027,16.2183,-3.62213,-3.60982,-1.95029,-7.3466,6.26678,-8.54229,-4.5737,-0.903288,-11.6383,3.89363,-2.69021,-5.73192,7.40087,4.88777,4.64531,17.5586,-16.9409,5.02487,-20.9207,-4.6134,2.79175,-10.0828,-8.65956e-15,1.14301e-14,-51.0601,-9.37081,-74.3054,110.307,-26.8127,-21.2598,0.939901,7.12502,5.12354,-28.9782,-8.65956e-15,1.14301e-14,-36.709,6.14444,81.0637,118.809,51.3785,-25.9267,46.1467,7.12502,0.616574,76.1255,-18.3181,29.2185,6.73614,53.6994,-10.6375,-10.1459,-26.8155,-15.9957,1.54016,-9.11995,60.2304,-37.3856,4.81192,-27.9973
18.7316,16.224,-3.63353,-3.59922,-1.44981,-7.7326,6.5264,-8.88223,-4.48319,-0.959459,-12.0919,4.01758,-2.81403,-5.95462,7.54768,4.7435,4.5246,17.5913,-16.4529,4.90243,-20.8459,-4.47275,2.71985,-10.0284,2.83672e-14,5.96354e-15,-51.8475,-9.69321,-73.8052,110.649,-27.5093,-20.367,0.317254,7.12502,5.98547,-29.5782,2.83672e-14,5.96354e-15,-35.6208,5.69273,81.3528,118.746,51.1543,-25.4078,44.7504,7.12502,1.11774,74.7272,-18.2763,29.1986,7.20071,53.8964,-9.94405,-10.3691,-27.1761,-16.3178,1.10766,-8.82449,60.3576,-37.3402,4.64382,-27.0996
18.7566,16.2195,-3.64936,-3.58761,-0.866901,-7.95975,6.73567,-9.18912,-4.59303,-0.942116,-12.517,4.11163,-2.80113,-6.16828,7.74997,3.96334,4.39882,17.7926,-15.4854,4.72153,-20.9604,-4.07695,2.59285,-10.0224,-1.04673e-15,5.1684e-15,-52.6042,-9.90261,-73.5443,110.854,-26.581,-21.5131,-0.706208,7.12502,4.8789,-30.63,-1.04673e-15,5.1684e-15,-34.4452,5.26947,81.5876,118.478,50.549,-24.2454,40.829,7.12502,2.24037,70.797,-18.1635,29.1634,7.45203,54.0374,-9.53639,-10.5186,-27.4557,-16.7111,0.573272,-8.71356,60.5254,-37.4047,4.32137,-25.9625
18.7832,16.2191,-3.65399,-3.62289,-0.393795,-7.87853,6.7582,-9.44044,-5.00323,-0.818438,-12.8901,4.0968,-2.53933,-6.36643,7.94214,3.38162,4.22207,18.0049,-14.9031,4.45801,-21.0489,-3.84966,2.42947,-10.0433,4.79164e-14,-1.2921e-15,-53.3404,-10.2792,-73.0518,110.993,-26.927,-21.9386,-0.535603,7.12502,4.46807,-30.4685,4.79164e-14,-1.2921e-15,-33.246,5.03809,81.7058,118.176,49.6153,-22.9924,39.3374,7.12502,3.45046,69.2892,-17.9824,29.344,7.37096,54.1363,-9.44711,-10.6842,-26.3428,-16.8819,0.10633,-8.98594,60.6328,-37.4696,4.196,-25.5779
18.8104,16.2262,-3.65518,-3.68893,0.0587591,-7.82359,6.87912,-9.67557,-5.40963,-0.784057,-13.2446,4.10405,-2.41929,-6.54703,8.18258,3.45473,4.00575,17.8374,-14.8819,4.19062,-20.7373,-3.93117,2.29213,-9.90569,-1.54525e-13,-1.11195e-14,-54.1954,-10.5023,-72.4796,111.15,-27.582,-22.1569,-0.610065,7.12502,4.25731,-30.5473,-1.54525e-13,-1.11195e-14,-32.2321,4.8338,81.8637,117.95,49.0319,-21.5474,40.7216,7.12502,4.84581,70.6461,-17.7528,29.4115,7.34666,54.1731,-9.38672,-10.7451,-25.7514,-16.9884,-0.290966,-9.21493,60.7219,-37.4726,4.09003,-25.091
18.8344,16.2282,-3.66395,-3.62868,0.462324,-8.00022,7.0228,-9.89753,-5.57642,-0.840351,-13.5614,4.20804,-2.43939,-6.70304,8.41453,3.48173,3.84949,17.4635,-14.7517,4.02143,-20.2073,-3.96544,2.20068,-9.64487,7.59373e-14,-1.2511e-14,-54.961,-10.7244,-71.9122,111.234,-27.8555,-22.3239,-1.06519,7.12502,4.09595,-31.0056,7.59373e-14,-1.2511e-14,-31.2362,4.5182,82.1818,117.808,48.78,-19.3381,44.7592,7.12502,6.97878,74.6242,-17.7209,29.369,7.49137,54.1706,-9.14399,-10.7591,-26.2725,-17.3041,-0.517228,-9.11534,60.8489,-37.3977,3.87662,-24.5948
18.8656,16.2239,-3.67747,-3.39258,0.734305,-8.15185,7.00341,-10.0843,-5.62771,-0.920197,-13.8146,4.31269,-2.42971,-6.82936,8.55599,3.44369,3.6794,17.2479,-14.5307,3.82056,-19.9022,-3.95284,2.09485,-9.4868,1.02382e-13,1.60891e-14,-55.6222,-10.9952,-71.3545,111.278,-27.9733,-22.5883,-1.29987,7.12502,3.84064,-31.245,1.02382e-13,1.60891e-14,-30.1616,4.0577,82.5398,117.729,48.693,-17.9065,45.7608,7.12502,8.36059,75.5753,-17.9634,29.3728,7.42101,54.12,-8.60952,-10.8993,-27.6321,-17.7949,-0.662413,-9.07846,61.0048,-37.3087,3.57335,-23.3787
18.8992,16.2199,-3.68527,-3.28191,1.04154,-8.3712,7.05784,-10.2554,-5.60531,-0.970544,-14.043,4.41509,-2.45057,-6.94337,8.66934,3.56847,3.48628,17.1494,-14.3729,3.59678,-19.7597,-3.98179,1.98791,-9.41567,1.36638e-13,-1.44926e-14,-56.4259,-11.1191,-70.7471,111.422,-28.1976,-22.9188,-1.68732,7.12502,3.52151,-31.638,1.36638e-13,-1.44926e-14,-29.2129,3.44122,82.851,117.639,48.5613,-19.6372,41.3824,7.12502,6.69005,71.2567,-17.9441,29.3954,7.53964,54.0092,-7.9778,-11.1679,-29.7365,-18.1171,-0.904328,-8.98851,61.1504,-37.3599,3.27581,-22.3445
18.9142,16.2216,-3.68469,-3.61198,1.48005,-8.41014,7.44059,-10.3612,-6.02866,-0.840671,-14.2397,4.40799,-2.38927,-7.04504,8.94233,3.56272,3.36708,16.9607,-14.2792,3.47006,-19.3767,-3.99738,1.91474,-9.2423,6.39667e-14,-3.62844e-14,-57.2132,-11.5875,-70.0963,111.651,-28.5588,-23.2137,-2.44706,7.12502,3.23669,-32.4022,6.39667e-14,-3.62844e-14,-28.3514,2.81807,83.1493,117.499,47.8073,-20.1035,38.1896,7.12502,6.23985,68.0777,-17.1668,29.5022,7.918,53.8287,-7.66569,-11.6021,-30.0432,-17.8816,-1.19923,-9.01314,61.1496,-37.4652,3.14183,-22.637
18.9402,16.2261,-3.68867,-3.59274,1.81256,-8.37869,7.51288,-10.4629,-6.35097,-0.821425,-14.4095,4.43287,-2.29246,-7.13375,9.14306,3.5518,3.24965,16.6916,-14.2366,3.33156,-18.996,-4.02957,1.83935,-9.05782,-3.6154e-14,5.19325e-15,-57.8232,-12.1632,-69.5186,111.841,-28.8543,-23.8812,-3.16832,7.12502,2.59211,-33.1323,-3.6154e-14,5.19325e-15,-27.4438,2.53304,83.44,117.248,46.4187,-19.1621,37.6738,7.12502,7.14867,67.533,-16.9393,29.3942,7.86075,53.5869,-7.53365,-11.6766,-28.7752,-18.0521,-1.36213,-9.16232,61.1333,-37.3319,3.11858,-22.7149
18.9705,16.2354,-3.69011,-3.57675,2.06692,-8.51374,7.60202,-10.593,-6.50381,-0.83146,-14.6018,4.54519,-2.24718,-7.2334,9.35569,3.69808,3.08784,16.4223,-14.2935,3.12743,-18.7459,-4.12511,1.74474,-8.92761,-8.89577e-14,5.49143e-15,-58.5328,-11.8206,-69.1325,111.943,-29.2905,-25.2617,-3.46048,7.12502,1.25878,-33.4365,-8.89577e-14,5.49143e-15,-26.4701,2.43437,83.7111,116.829,44.5123,-17.3408,37.957,7.12502,8.90648,67.749,-16.6793,29.2371,7.96916,53.2702,-7.33157,-11.6676,-27.9537,-18.1354,-1.50628,-9.14078,61.084,-37.193,3.00368,-21.968
19.0015,16.2372,-3.69246,-3.5011,2.29285,-8.64824,7.63936,-10.6535,-6.53464,-0.834483,-14.6875,4.5759,-2.2379,-7.27735,9.41114,3.7486,2.89108,16.2672,-14.3512,2.88615,-18.3808,-4.21174,1.61585,-8.77442,6.89022e-14,-5.71506e-16,-59.4814,-11.0582,-68.8625,112.001,-30.0431,-26.9774,-3.5037,7.12502,-0.398284,-33.4831,6.89022e-14,-5.71506e-16,-25.6645,1.90328,84.0759,116.595,43.0152,-16.6222,37.6248,7.12502,9.59986,67.3861,-16.4938,28.9974,7.99774,52.9272,-7.45608,-11.687,-26.4089,-18.3126,-1.6549,-9.12852,61.1166,-37.162,3.10448,-21.984
19.0352,16.2348,-3.70233,-3.39561,2.41177,-8.83321,7.65937,-10.618,-6.45787,-0.799711,-14.6332,4.58775,-2.23855,-7.25217,9.38478,3.61664,2.69652,16.1961,-14.2276,2.64684,-18.0383,-4.20904,1.47822,-8.63114,-3.64708e-14,2.51463e-14,-60.1652,-10.8275,-68.5215,112.005,-30.6898,-28.3285,-3.69621,7.12502,-1.70317,-33.6692,-3.64708e-14,2.51463e-14,-24.9669,1.01986,84.5812,116.635,42.7901,-17.9075,36.8246,7.12502,8.3596,66.6392,-16.4517,28.7795,7.98578,52.5307,-7.48489,-11.6175,-25.6407,-18.5731,-1.71021,-9.05947,61.2416,-37.1248,3.12486,-22.3124
19.0661,16.2357,-3.71303,-3.28277,2.51078,-9.10486,7.70036,-10.6068,-6.42212,-0.799486,-14.6153,4.72346,-2.23666,-7.24622,9.51558,3.29197,2.61887,16.1022,-13.9442,2.53932,-17.8291,-4.09636,1.40652,-8.52062,4.92209e-14,-2.5345e-14,-60.4916,-10.7564,-68.0753,111.993,-31.1939,-29.2643,-4.08204,7.12502,-2.607,-34.0459,4.92209e-14,-2.5345e-14,-24.2149,1.1142,84.8446,116.327,40.465,-14.996,36.9718,7.12502,11.1686,66.6546,-16.3949,28.5206,8.10018,52.1157,-7.11406,-11.6088,-27.8695,-18.854,-1.68447,-8.86056,61.4221,-37.1194,3.05192,-22.2557
19.0943,16.2394,-3.71765,-3.06306,2.62435,-9.46345,7.61865,-10.6163,-6.30389,-0.891917,-14.6116,4.90552,-2.27044,-7.2438,9.63803,2.98925,2.53647,16.128,-13.7921,2.42125,-17.6448,-4.02535,1.32542,-8.44677,-5.41937e-14,2.65874e-14,-60.7493,-10.7719,-67.6224,111.899,-31.5299,-30.1974,-4.56214,7.12502,-3.50804,-34.513,-5.41937e-14,2.65874e-14,-23.8203,1.02917,85.3339,116.568,39.4978,-13.2338,36.8611,7.12502,12.8679,66.4444,-16.4116,28.2061,8.29304,51.6877,-7.15305,-11.728,-29.0709,-19.2744,-1.67629,-8.5549,61.6356,-37.1711,3.0832,-22.3394
19.1244,16.2367,-3.72117,-2.85108,2.7135,-9.70339,7.49355,-10.5897,-6.23195,-0.945382,-14.5629,5.01001,-2.25788,-7.22087,9.68867,2.86228,2.34206,16.1664,-13.8342,2.16142,-17.4028,-4.0691,1.17745,-8.36557,-4.30307e-14,7.95139e-16,-60.9123,-10.9798,-67.2651,111.767,-31.759,-31.1062,-5.10767,7.12502,-4.38571,-35.0423,-4.30307e-14,7.95139e-16,-23.4489,0.765508,85.7268,116.905,39.2311,-11.4066,37.4069,7.12502,14.6288,66.8709,-16.4506,27.939,8.32739,51.2922,-7.4656,-11.8591,-28.4312,-19.6986,-1.72051,-8.40596,61.855,-37.1906,2.95754,-21.9248
19.1583,16.2288,-3.72822,-2.8057,2.74254,-9.7239,7.54072,-10.5332,-6.34722,-0.882341,-14.4999,5.02723,-2.19738,-7.19411,9.76661,2.59616,2.17771,16.0157,-13.7269,1.93547,-17.0586,-4.04281,1.04563,-8.20731,-1.25713e-13,5.70512e-14,-60.9202,-10.7872,-67.1249,111.718,-32.3037,-32.1714,-5.52139,7.12502,-5.41422,-35.4322,-1.25713e-13,5.70512e-14,-22.9227,0.600305,85.9187,116.978,38.3948,-9.19429,37.6449,7.12502,16.7594,66.9416,-16.2537,27.6564,8.17148,50.8901,-7.79375,-11.8325,-27.8763,-19.902,-1.72995,-8.52127,62.0266,-37.2268,2.64688,-20.8296
19.1888,16.2159,-3.73718,-2.805,2.70347,-9.7564,7.65027,-10.4506,-6.47359,-0.811282,-14.4058,5.04172,-2.16734,-7.15016,9.86092,2.31094,1.98892,15.8601,-13.5085,1.67614,-16.7821,-3.98332,0.901251,-8.06721,7.97251e-14,2.01766e-14,-60.7137,-10.8351,-67.0076,111.606,-32.6697,-33.3828,-6.06201,7.12502,-6.58379,-35.9397,7.97251e-14,2.01766e-14,-22.5408,0.436488,86.1457,117.065,37.3131,-7.94332,36.9495,7.12502,17.9634,66.1399,-16.0274,27.3244,8.07456,50.5004,-7.97847,-11.8867,-28.1026,-20.0205,-1.66701,-8.59954,62.2065,-37.3878,2.39295,-20.0457
19.2181,16.2167,-3.74228,-2.81737,2.51669,-9.89674,7.72466,-10.2902,-6.50204,-0.719976,-14.1961,5.07353,-2.14015,-7.04974,9.91357,2.19513,1.67507,15.8404,-13.4601,1.23331,-16.7433,-4.02709,0.677363,-8.03859,5.5374e-14,4.07509e-14,-60.3248,-12.3705,-66.5202,111.365,-32.2082,-33.2605,-6.90702,7.12502,-6.46572,-36.7883,5.5374e-14,4.07509e-14,-22.1743,0.278829,86.395,117.031,36.211,-6.54013,35.8744,7.12502,19.3131,64.9353,-15.8351,27.0579,8.12723,50.0478,-7.74411,-12.0592,-27.556,-20.0007,-1.49968,-8.55609,62.3165,-37.5232,2.28631,-19.6279
19.2518,16.2142,-3.7514,-2.82462,2.1512,-10.064,7.76774,-10.0681,-6.38594,-0.595035,-13.8884,5.05475,-2.12802,-6.90037,9.82826,2.14087,1.41819,15.9016,-13.5474,0.873675,-16.6782,-4.10714,0.491233,-8.02184,9.92495e-14,-9.14409e-15,-60.462,-11.1945,-66.7244,111.304,-33.1784,-34.5129,-6.99699,7.12502,-7.67461,-36.8377,9.92495e-14,-9.14409e-15,-21.8938,0.343445,86.5049,116.96,34.6832,-3.73122,35.2557,7.12502,22.012,64.0231,-15.7775,26.8473,8.09644,49.5647,-8.15585,-11.7612,-21.5287,-19.9798,-1.20646,-8.50452,62.4447,-37.5467,2.39514,-19.3148
19.2892,16.2118,-3.76391,-2.66815,1.78258,-10.2124,7.76121,-9.85982,-6.2748,-0.5702,-13.5975,5.07175,-2.1798,-6.75261,9.78424,1.93453,1.31346,15.9852,-13.3658,0.740663,-16.5335,-4.04364,0.407795,-7.97515,-3.04886e-14,-2.5842e-14,-60.2101,-11.3914,-66.6163,111.086,-33.5195,-34.8178,-7.03217,7.12502,-7.96894,-36.862,-3.04886e-14,-2.5842e-14,-21.8615,0.499928,86.6996,117.077,33.3327,-1.22971,34.8245,7.12502,24.412,63.2892,-15.9055,26.5916,7.92696,49.0319,-8.56189,-11.5642,-23.0742,-20.1565,-0.895884,-8.48569,62.5715,-37.5781,2.61297,-19.3103
19.3242,16.2152,-3.76989,-2.44064,1.34257,-10.3749,7.74862,-9.60786,-6.24117,-0.613312,-13.2543,5.17708,-2.27112,-6.57468,9.87904,1.42398,1.19166,16.0505,-12.8595,0.559879,-16.4655,-3.83859,0.295262,-7.93647,4.28629e-15,-1.8487e-14,-59.7026,-12.0032,-66.3854,110.699,-33.6326,-34.9129,-7.11733,7.12502,-8.06071,-36.9436,4.28629e-15,-1.8487e-14,-21.7917,0.679417,87.0072,117.028,32.0332,1.14457,34.1926,7.12502,26.6862,62.3312,-16.0703,26.3369,7.78299,48.4649,-8.68251,-11.3713,-23.9436,-20.352,-0.472261,-8.4254,62.6879,-37.6769,2.90371,-19.9532
19.3547,16.2175,-3.77292,-2.28276,0.932823,-10.538,7.68795,-9.37575,-6.19084,-0.614448,-12.9346,5.24511,-2.30016,-6.41321,9.91002,1.13699,0.985702,16.0029,-12.6108,0.274495,-16.2977,-3.76839,0.139249,-7.85396,-7.39355e-14,-4.53229e-14,-59.2626,-11.8278,-66.4238,110.407,-34.1672,-35.3768,-7.25146,7.12502,-8.50837,-37.06,-7.39355e-14,-4.53229e-14,-21.7896,0.919325,87.0602,116.822,30.578,4.45637,33.4159,7.12502,29.8513,61.03,-16.0919,25.9546,7.71896,47.8744,-8.96933,-11.1972,-23.983,-20.4204,-0.0978083,-8.33775,62.7555,-37.7117,3.09006,-20.119
19.3863,16.2142,-3.77711,-2.13273,0.643353,-10.7731,7.41478,-9.20117,-5.96161,-0.49721,-12.6678,5.26065,-2.12671,-6.29502,9.73355,1.20644,0.754078,15.9752,-12.7783,-0.0282576,-16.0875,-3.88515,-0.0162877,-7.7764,9.31803e-15,-9.93923e-16,-58.8907,-11.1575,-66.714,110.345,-35.0094,-36.1458,-7.47786,7.12502,-9.2505,-37.2549,9.31803e-15,-9.93923e-16,-21.8233,0.985739,86.9675,116.891,29.7059,6.98672,32.7617,7.12502,32.2631,59.9145,-16.0584,25.4636,7.76556,47.2763,-9.20985,-11.1381,-23.9411,-20.5205,0.121912,-8.17952,62.7937,-37.7472,2.90644,-19.3077
19.4242,16.2152,-3.77567,-2.04815,0.0969873,-10.8824,7.10041,-8.9128,-5.7924,-0.312643,-12.2547,5.20732,-1.89032,-6.10621,9.50064,1.05152,0.485388,15.9876,-12.8101,-0.398763,-15.8711,-3.93415,-0.215448,-7.69525,-4.56584e-14,6.75868e-15,-58.4745,-10.6742,-66.9979,110.325,-35.8585,-37.28,-7.79295,7.12502,-10.3447,-37.5185,-4.56584e-14,6.75868e-15,-21.8175,0.832976,87.0079,117.11,29.3006,8.01661,32.6674,7.12502,33.2428,59.616,-16.0295,25.0749,7.66493,46.6807,-9.14892,-10.9908,-24.6682,-20.4233,0.524607,-8.20952,62.7811,-37.831,2.94286,-19.1012
19.4627,16.2174,-3.77658,-2.08395,-0.650778,-10.809,7.11832,-8.55613,-5.84187,-0.24318,-11.7815,5.13679,-1.92725,-5.8661,9.44466,0.892212,0.169321,15.6596,-12.7032,-0.808864,-15.3882,-3.9487,-0.429275,-7.45826,-2.38542e-14,1.19271e-15,-58.0231,-10.5705,-67.1307,110.297,-36.4227,-38.312,-8.12798,7.12502,-11.3402,-37.8014,-2.38542e-14,1.19271e-15,-22.1276,0.785018,87.1031,117.268,28.9084,8.81933,32.9776,7.12502,34.0057,59.7601,-15.95,24.7266,7.38533,46.116,-9.05995,-10.7469,-25.8796,-20.0855,1.02246,-8.45675,62.7248,-37.8896,3.24984,-18.8998
19.4987,16.2138,-3.7869,-2.14287,-1.33548,-10.8476,7.35181,-8.20992,-5.78669,-0.234438,-11.3204,5.11146,-2.15507,-5.62124,9.42511,0.863671,-0.128974,15.3621,-12.6322,-1.19009,-15.0268,-3.98704,-0.619903,-7.2704,-1.02374e-14,-5.96354e-14,-57.4532,-10.8781,-67.2171,110.171,-36.5479,-38.423,-8.48445,7.12502,-11.4472,-38.1519,-1.02374e-14,-5.96354e-14,-22.6026,0.848548,87.1124,117.399,28.6077,10.0497,32.9484,7.12502,35.1735,59.4638,-15.8297,24.3718,7.24931,45.5652,-9.18396,-10.4944,-25.9171,-19.7922,1.4617,-8.54879,62.6933,-37.9484,3.38862,-18.2098
19.5346,16.2079,-3.7944,-2.0411,-2.10305,-10.9924,7.26205,-7.83903,-5.51624,-0.142308,-10.7962,5.04386,-2.17567,-5.35982,9.17176,0.665646,-0.353511,15.4686,-12.5703,-1.50238,-14.9113,-3.98697,-0.790487,-7.23803,6.6742e-14,-2.10712e-14,-56.7407,-11.0373,-67.5957,109.977,-36.7247,-38.4548,-8.86632,7.12502,-11.4779,-38.5321,6.6742e-14,-2.10712e-14,-22.9205,0.968397,86.9229,117.416,28.2309,11.9764,32.7128,7.12502,36.9984,58.7777,-15.9127,24.0637,7.17664,45.0353,-9.37494,-10.242,-25.6335,-19.6389,2.02558,-8.50848,62.6767,-38.0505,3.45142,-18.1761
19.5721,16.2117,-3.79604,-1.79507,-3.04464,-11.0864,6.92167,-7.43707,-5.23277,-0.0464155,-10.2229,4.9314,-2.06738,-5.07988,8.81836,0.476603,-0.555102,15.6531,-12.5948,-1.77365,-14.6853,-4.00892,-0.949241,-7.18556,-1.81379e-13,5.68524e-14,-56.1046,-10.5551,-68.1955,109.965,-37.2463,-39.133,-9.08557,7.12502,-12.1319,-38.7138,-1.81379e-13,5.68524e-14,-23.3263,1.1825,86.6147,117.465,27.9137,14.0743,33.0945,7.12502,38.9796,58.6204,-16.3072,23.7136,6.96294,44.5354,-9.5536,-9.89913,-25.906,-19.5638,2.7013,-8.54777,62.6319,-38.1381,3.61168,-18.2799
19.6088,16.2205,-3.80311,-1.71743,-4.15105,-10.9802,6.87921,-6.96943,-5.29,-0.0124075,-9.60007,4.84136,-2.13022,-4.76223,8.72816,0.501176,-0.808677,15.6328,-12.6148,-2.08908,-14.4142,-4.07098,-1.11438,-7.08011,2.24627e-14,9.93923e-15,-55.4778,-9.9826,-68.669,109.992,-37.7181,-39.6117,-8.9036,7.12502,-12.5934,-38.504,2.24627e-14,9.93923e-15,-24.0594,1.42355,86.4143,117.718,28.1195,14.8387,33.9001,7.12502,39.6998,59.216,-16.696,23.2306,6.54237,44.0925,-9.70267,-9.24148,-26.1167,-19.3324,3.48734,-8.80012,62.5508,-38.1111,3.72615,-17.175
19.6421,16.2205,-3.81508,-1.72796,-5.29705,-10.7903,7.00172,-6.44865,-5.4923,-0.0254369,-8.92331,4.75956,-2.31957,-4.40872,8.75179,0.519582,-1.12823,15.5562,-12.4914,-2.4974,-14.2429,-4.10207,-1.3173,-6.99097,-1.45026e-13,1.70955e-14,-54.8392,-9.8735,-68.9757,109.904,-37.853,-39.4351,-8.44572,7.12502,-12.4231,-38.0565,-1.45026e-13,1.70955e-14,-24.8603,1.59191,86.2321,117.891,28.4046,14.9959,34.5325,7.12502,39.8478,59.8043,-17.0344,22.7616,6.0859,43.7108,-9.90242,-8.55032,-24.8153,-19.046,4.32731,-9.11699,62.4706,-38.1301,3.8089,-16.1822
19.6769,16.2181,-3.81946,-1.57926,-6.24459,-10.7383,6.86626,-5.86783,-5.36068,-0.00997103,-8.13082,4.58529,-2.41989,-4.00469,8.44383,0.149918,-1.54722,15.8581,-12.2077,-3.08358,-14.2073,-4.05283,-1.63126,-7.00368,-8.0396e-14,2.78299e-15,-54.3512,-10.3642,-69.2338,109.93,-37.8602,-39.243,-7.78569,7.12502,-12.2379,-37.4076,-8.0396e-14,2.78299e-15,-25.4572,1.26334,85.9881,117.962,28.6322,15.4543,35.3317,7.12502,40.2791,60.473,-17.4323,22.2312,5.79147,43.3581,-10.0189,-7.98552,-23.0697,-18.8872,4.90881,-9.32381,62.389,-38.1699,4.42155,-17.264
19.7117,16.2167,-3.81639,-1.44631,-7.20563,-10.9004,6.59777,-5.25088,-4.97589,0.177091,-7.26728,4.41934,-2.30014,-3.58358,7.96696,-0.446288,-1.92922,16.2634,-12.0555,-3.65686,-14.1058,-4.00548,-1.95533,-7.01735,1.11232e-13,-4.77083e-15,-53.6871,-10.9392,-69.635,110.11,-37.9535,-39.2779,-7.32314,7.12502,-12.2716,-36.9431,1.11232e-13,-4.77083e-15,-25.9065,0.785524,85.6889,118.039,28.932,15.9255,36.0392,7.12502,40.7221,61.0433,-17.7374,21.735,5.79229,42.9869,-9.81288,-7.31244,-22.8245,-18.6435,5.46534,-9.28685,62.3439,-38.1647,5.23606,-18.8011
19.747,16.2146,-3.81749,-1.42155,-8.39146,-10.9511,6.45564,-4.6851,-4.77898,0.356986,-6.49247,4.31309,-2.19954,-3.20431,7.67884,-0.686142,-2.19902,16.2559,-12.1267,-4.03366,-13.7885,-4.04421,-2.16235,-6.89683,-1.06089e-13,1.90833e-14,-52.8121,-10.9981,-70.1528,110.263,-37.94,-39.1263,-7.30422,7.12502,-12.1255,-36.9329,-1.06089e-13,1.90833e-14,-26.5091,0.835288,85.2312,117.993,29.3146,16.5445,36.2628,7.12502,41.3035,61.0819,-18.0197,21.3394,5.70998,42.5439,-9.72602,-6.59708,-21.6534,-18.3026,6.22492,-9.36291,62.3427,-38.296,5.61326,-18.7842
19.7879,16.2148,-3.82114,-1.39778,-9.56315,-10.8996,6.40121,-4.29728,-4.62421,0.355494,-5.96126,4.22572,-2.28354,-2.9345,7.46682,-0.335322,-2.43182,15.8978,-12.2318,-4.27712,-13.4172,-4.16234,-2.26973,-6.69771,-4.83171e-14,-1.19271e-15,-51.9716,-10.4306,-70.7818,110.293,-37.7218,-38.8438,-7.06306,7.12502,-11.8531,-36.7076,-4.83171e-14,-1.19271e-15,-27.5237,1.47635,84.6013,117.97,29.9711,17.1955,36.9074,7.12502,41.9141,61.5261,-18.3263,20.7658,5.51708,42.0314,-9.77994,-6.14781,-21.4631,-18.0148,6.91756,-9.59534,62.3426,-38.5231,5.84344,-18.3986
19.8291,16.2153,-3.81714,-1.35469,-10.6927,-11.1171,6.32817,-4.06441,-4.15965,0.350308,-5.61396,4.20642,-2.35045,-2.76137,7.15816,0.113836,-2.6014,15.5316,-12.296,-4.42666,-13.1127,-4.26928,-2.32464,-6.52177,7.06679e-14,3.97569e-16,-51.1235,-9.39686,-71.5993,110.305,-37.4844,-38.5917,-6.59721,7.12502,-11.6099,-36.2556,7.06679e-14,3.97569e-16,-28.7005,2.44547,83.8723,118.051,30.5171,17.5273,38.1772,7.12502,42.225,62.6914,-18.4999,20.1995,5.65247,41.4968,-9.61082,-5.89037,-22.4918,-17.6704,7.62779,-9.50365,62.3304,-38.8187,6.11432,-18.7793
19.8682,16.2145,-3.81235,-1.1637,-11.9806,-11.4269,6.15139,-3.66247,-3.64692,0.364144,-5.03524,4.226,-2.36745,-2.47527,6.83892,0.0140966,-2.80725,15.3207,-12.099,-4.6904,-12.8948,-4.22531,-2.45551,-6.39849,4.27014e-14,-3.81667e-14,-50.2533,-8.71712,-72.1882,110.323,-37.3105,-38.0323,-6.06908,7.12502,-11.0705,-35.7571,4.27014e-14,-3.81667e-14,-29.8265,3.08215,83.3566,118.203,30.7379,17.2611,39.0342,7.12502,41.9756,63.6324,-18.811,19.738,5.83526,40.9855,-9.29837,-5.53176,-21.6401,-17.4131,8.55466,-9.30103,62.3001,-39.004,6.45025,-18.8042
19.9038,16.2123,-3.81142,-0.870217,-13.3267,-11.5408,5.8533,-3.09634,-3.36409,0.403969,-4.25443,4.16399,-2.29609,-2.08886,6.54112,-0.523216,-3.02891,15.2439,-11.6979,-5.01511,-12.6619,-4.05727,-2.63527,-6.29489,7.19725e-14,-5.56597e-15,-49.2742,-8.58625,-72.7155,110.241,-37.1065,-37.5537,-5.31017,7.12502,-10.6087,-35.0224,7.19725e-14,-5.56597e-15,-30.9279,3.38273,82.8698,118.411,30.9114,16.9948,39.3464,7.12502,41.7259,64.0276,-19.3399,19.1502,5.80095,40.5232,-9.1169,-5.10738,-20.9791,-17.3164,9.49009,-9.34815,62.2537,-38.9968,6.67167,-18.1279
19.9333,16.217,-3.80613,-0.77394,-14.4723,-11.4933,5.68198,-2.56736,-3.25515,0.515361,-3.54097,4.00348,-2.19852,-1.73676,6.25029,-1.0208,-3.21889,15.2902,-11.393,-5.29275,-12.4059,-3.92054,-2.79671,-6.20972,-4.32854e-14,-1.59028e-15,-48.4017,-8.60518,-73.3757,110.26,-36.9878,-37.1817,-4.59974,7.12502,-10.2499,-34.33,-4.32854e-14,-1.59028e-15,-31.9384,3.64742,82.1483,118.525,31.0971,16.9474,40.0778,7.12502,41.6815,64.7737,-19.6241,18.4739,5.74378,40.1048,-8.93797,-4.79896,-23.9892,-17.0467,10.1934,-9.53618,62.1685,-39.0887,6.6841,-17.2542
19.9569,16.2245,-3.80243,-0.748353,-15.4282,-11.5702,5.70812,-2.07253,-3.11528,0.590894,-2.87277,3.91703,-2.23353,-1.40307,6.03629,-1.37872,-3.44555,15.3317,-11.1878,-5.61575,-12.2095,-3.84424,-2.97379,-6.14118,-9.60006e-14,3.73715e-14,-47.6605,-8.59419,-73.8572,110.36,-36.5869,-36.4101,-4.38476,7.12502,-9.50551,-34.1504,-9.60006e-14,3.73715e-14,-32.8526,3.85994,81.4539,118.439,31.1175,16.451,40.7952,7.12502,41.2156,65.6427,-19.7574,17.82,5.90612,39.7168,-8.95555,-4.33066,-23.9574,-16.7267,10.8112,-9.51149,62.1114,-39.2677,6.67224,-16.69
19.9814,16.2234,-3.80416,-0.707887,-16.3004,-11.814,5.88443,-1.65781,-2.86531,0.556577,-2.30288,3.9343,-2.44896,-1.11287,5.88288,-1.36123,-3.67021,15.3288,-11.1033,-5.89903,-12.0837,-3.86076,-3.11575,-6.08439,-6.83819e-14,3.18055e-14,-46.9482,-8.1883,-74.2645,110.414,-35.7101,-35.807,-4.45141,7.12502,-8.9236,-34.2427,-6.83819e-14,3.18055e-14,-34.0355,4.15738,80.774,118.225,31.1385,15.8362,40.5028,7.12502,40.6382,65.5331,-19.8502,17.0405,6.27383,39.3325,-8.64677,-3.82492,-26.6173,-16.4336,11.418,-9.28486,62.1184,-39.3808,6.62972,-16.5194
20.0149,16.2157,-3.80472,-0.626504,-17.1137,-12.0516,6.06353,-1.33135,-2.50529,0.409839,-1.84044,3.94514,-2.76883,-0.873847,5.66566,-1.01014,-3.91338,15.2654,-11.0895,-6.16665,-11.9697,-3.95005,-3.237,-6.01509,-4.60559e-14,2.78299e-14,-46.3612,-7.5445,-74.6372,110.506,-35.4616,-35.0838,-3.91613,7.12502,-8.22565,-33.736,-4.60559e-14,2.78299e-14,-35.6997,4.59696,80.0339,118.141,31.2849,15.44,40.1558,7.12502,40.2657,65.3012,-19.8807,16.0634,6.59185,38.9151,-8.87645,-3.1375,-18.3114,-16.2463,11.9028,-9.14803,62.1711,-39.3995,6.66342,-15.9239
20.0524,16.2088,-3.79955,-0.47226,-18.0318,-12.198,6.0301,-1.00467,-2.13699,0.344401,-1.37838,3.87714,-2.8816,-0.643424,5.34744,-1.03123,-4.13189,15.2609,-10.9302,-6.44483,-11.8695,-3.93652,-3.37604,-5.96602,-4.53478e-15,3.97569e-15,-45.532,-7.05423,-75.0849,110.523,-35.661,-33.8425,-3.24458,7.12502,-7.02753,-33.1079,-4.53478e-15,3.97569e-15,-37.1875,5.14605,79.1886,118.145,31.4548,13.2986,39.7546,7.12502,38.2478,65.4859,-20.0431,15.0991,6.76287,38.4692,-9.2754,-2.6019,-12.3792,-16.1402,12.3926,-9.18876,62.1933,-39.485,6.96914,-15.2003
20.0915,16.2099,-3.78833,-0.355038,-19.0133,-12.3166,5.9372,-0.695029,-1.75432,0.378353,-0.941923,3.76978,-2.84909,-0.43161,4.97764,-1.28665,-4.27131,15.3453,-10.6904,-6.64593,-11.805,-3.85226,-3.48605,-5.95273,-3.71727e-14,1.59028e-15,-44.4912,-6.6478,-75.7182,110.489,-35.363,-32.628,-2.88546,7.12502,-5.8551,-32.7846,-3.71727e-14,1.59028e-15,-38.3428,5.73603,78.2074,118.227,31.9747,11.7575,40.279,7.12502,36.7913,66.3971,-20.2192,14.1062,6.96625,37.9737,-9.03209,-2.34735,-12.8729,-15.9269,12.9207,-9.2725,62.1711,-39.738,7.16068,-14.3297
20.1263,16.2114,-3.77905,-0.255691,-19.9381,-12.3952,5.9404,-0.391031,-1.47685,0.334689,-0.517766,3.69571,-2.94099,-0.221053,4.70774,-1.18234,-4.42218,15.2567,-10.6994,-6.8178,-11.6082,-3.88884,-3.57064,-5.86206,-5.66536e-15,2.62396e-14,-43.6478,-6.14224,-76.277,110.531,-35.0244,-31.5288,-2.44764,7.12502,-4.79373,-32.3734,-5.66536e-15,2.62396e-14,-39.6858,6.28166,77.2394,118.5,32.7429,10.8024,41.0472,7.12502,35.887,67.3914,-20.3822,13.0751,7.19205,37.4657,-8.51968,-2.26437,-17.5853,-15.7243,13.4834,-9.36276,62.1778,-39.8765,7.13302,-13.7385
20.1541,16.2099,-3.76978,-0.108082,-20.8822,-12.5733,5.96136,-0.0451169,-1.22276,0.252923,-0.0362397,3.68809,-3.08196,0.0195147,4.51584,-1.06176,-4.59847,15.0726,-10.6844,-7.01952,-11.3869,-3.92022,-3.66632,-5.74548,-5.34234e-14,3.18055e-15,-43.0228,-5.5177,-76.6116,110.621,-34.9514,-29.9356,-2.32498,7.12502,-3.25522,-32.2799,-5.34234e-14,3.18055e-15,-41.1953,6.73607,76.3277,118.681,33.3041,9.15685,41.1474,7.12502,34.3262,67.8582,-20.5449,12.2106,7.51794,36.978,-8.13447,-2.01702,-19.2554,-15.6097,14.1439,-9.29776,62.2742,-39.8675,7.4448,-14.2608
20.1822,16.2073,-3.76018,0.215172,-21.7043,-12.9807,5.92072,0.208745,-0.765881,0.125897,0.338148,3.7287,-3.22093,0.203371,4.26694,-1.18014,-4.73181,14.88,-10.2693,-7.17351,-11.2068,-3.78513,-3.73958,-5.64896,-2.39536e-14,-6.36111e-15,-42.4453,-4.82166,-76.9944,110.645,-34.83,-29.1599,-1.97162,7.12502,-2.50616,-31.9366,-2.39536e-14,-6.36111e-15,-42.7351,7.2349,75.2735,118.793,33.9635,7.00436,40.5347,7.12502,32.2798,67.6841,-20.7248,11.3803,8.02859,36.5156,-7.84322,-1.50224,-16.4804,-15.701,14.7389,-9.00805,62.4444,-39.9181,7.77485,-14.0942
20.208,16.1983,-3.75535,0.479871,-22.4534,-13.3188,5.99445,0.426498,-0.367987,-0.0195709,0.66137,3.71207,-3.43407,0.362048,3.99586,-1.28355,-4.83685,14.7842,-9.886,-7.28517,-11.0022,-3.65905,-3.79611,-5.56355,-3.04886e-14,8.74653e-15,-41.9031,-4.25503,-77.5423,110.649,-34.5648,-29.6072,-1.26745,7.12502,-2.93812,-31.227,-3.04886e-14,8.74653e-15,-44.2444,7.74731,74.0712,118.971,34.9674,5.38318,40.2169,7.12502,30.7354,67.6685,-20.8768,10.5513,8.51053,36.0684,-7.71129,-1.12849,-17.1251,-15.7203,15.2421,-8.7942,62.5975,-40.0594,7.79896,-13.5123
20.23,16.1832,-3.74583,0.465102,-23.276,-13.3896,6.18905,0.725643,-0.178872,-0.0792251,1.0767,3.6114,-3.62984,0.567421,3.74455,-1.30882,-4.92943,14.8497,-9.80889,-7.39511,-10.8757,-3.64566,-3.85615,-5.52813,-2.62644e-14,-2.54444e-14,-41.3236,-3.95409,-77.9838,110.814,-34.2454,-27.776,-1.449,7.12502,-1.16953,-31.4255,-2.62644e-14,-2.54444e-14,-45.5865,8.14371,72.962,119.072,35.9906,3.99838,40.4358,7.12502,29.4142,68.1276,-20.7707,9.81852,8.73407,35.6048,-7.68981,-0.724424,-20.5298,-15.4454,15.6745,-8.83544,62.7074,-40.2623,7.88017,-13.2359
20.2544,16.1738,-3.72914,0.501336,-24.0707,-13.4164,6.194,0.980023,0.00915035,-0.08768,1.42688,3.50346,-3.65727,0.737761,3.49202,-1.33263,-4.97618,14.9018,-9.78031,-7.44777,-10.7607,-3.63901,-3.88775,-5.49741,-1.6201e-14,-5.00937e-14,-40.5171,-3.70723,-78.3741,110.992,-33.9421,-23.3855,-2.03538,7.12502,3.07081,-31.993,-1.6201e-14,-5.00937e-14,-46.8111,8.6284,71.8445,119.093,37.0133,1.99945,40.7243,7.12502,27.5041,68.7355,-20.6584,9.09594,8.8046,35.1622,-7.6897,0.0400297,-19.6617,-15.2539,16.0826,-8.95321,62.7879,-40.4736,8.21791,-12.9892
20.2819,16.179,-3.7126,0.663155,-24.7875,-13.5752,6.18746,1.17235,0.302339,-0.147273,1.70412,3.42966,-3.72144,0.870387,3.22271,-1.41688,-5.02564,14.9269,-9.6163,-7.50621,-10.6623,-3.58194,-3.9207,-5.46918,8.94531e-16,3.97569e-15,-39.9808,-3.26227,-78.7487,111.033,-33.6958,-25.1403,-0.500117,7.12502,1.37604,-30.4754,8.94531e-16,3.97569e-15,-48.0986,9.1633,70.5968,119.158,38.3522,-0.308265,40.9632,7.12502,25.2951,69.306,-20.7748,8.38106,9.02442,34.7519,-7.57277,0.691546,-18.0929,-15.1735,16.5058,-8.95492,62.8436,-40.6258,8.71632,-12.9269
20.3054,16.1789,-3.70219,0.790101,-25.5136,-13.7056,6.36381,1.42011,0.498138,-0.317078,2.05888,3.4075,-4.00884,1.04508,3.05028,-1.46401,-5.15085,14.8508,-9.38581,-7.66782,-10.6567,-3.5235,-3.99615,-5.44781,2.83268e-14,-2.54444e-14,-39.9362,-2.70394,-78.8992,111.055,-33.5284,-25.2489,0.680844,7.12502,1.27118,-29.2951,2.83268e-14,-2.54444e-14,-49.5073,9.59082,69.4306,119.26,39.896,-1.08526,41.699,7.12502,24.5505,70.145,-20.9489,7.80303,9.22189,34.3767,-7.32121,1.25697,-19.6824,-15.0928,16.917,-8.96636,62.9196,-40.7229,8.99782,-12.3289
20.3239,16.1661,-3.6909,1.05143,-26.3082,-13.8352,6.28761,1.71123,0.697614,-0.475782,2.46596,3.39125,-4.1425,1.24437,2.88057,-1.3869,-5.29118,14.6164,-9.35475,-7.83295,-10.4961,-3.53389,-4.07168,-5.34731,9.83984e-15,6.36111e-15,-39.8175,-2.3327,-79.0259,111.131,-33.3385,-24.1094,0.793176,7.12502,2.37171,-29.1734,9.83984e-15,6.36111e-15,-50.8869,10.0239,68.3764,119.358,41.3826,-0.581696,42.8797,7.12502,25.0331,71.2594,-21.1636,7.43384,9.28256,34.0439,-7.22075,1.97627,-20.4118,-15.1375,17.4355,-8.99823,63.0385,-40.8731,9.06586,-11.7703
20.346,16.1587,-3.67469,1.40732,-27.0031,-14.1077,6.09186,1.93849,1.0982,-0.55347,2.79481,3.35809,-4.1074,1.39867,2.59301,-1.34882,-5.37756,14.3938,-9.47911,-7.9229,-10.1474,-3.56823,-4.11941,-5.19401,-4.44284e-14,-3.81667e-14,-39.5506,-2.13069,-79.2081,111.316,-33.109,-22.4531,0.911311,7.12502,3.97126,-29.0314,-4.44284e-14,-3.81667e-14,-52.1281,10.4402,67.3775,119.587,43.1975,-1.39896,43.4832,7.12502,24.2498,71.9698,-21.3869,7.22739,9.41773,33.7305,-7.19544,2.82793,-17.7659,-15.2153,17.9286,-8.91166,63.1532,-41.0643,9.2686,-11.9326
20.3699,16.1557,-3.66432,1.59193,-27.5338,-14.308,6.18919,2.07099,1.42952,-0.625282,2.99883,3.27476,-4.22331,1.49115,2.29622,-1.42008,-5.43305,14.46,-9.49178,-7.99557,-10.0189,-3.56815,-4.16352,-5.16184,-3.86139e-14,-3.97569e-15,-39.2692,-1.88484,-79.4166,111.458,-33.0876,-20.7767,1.53358,7.12502,5.58994,-28.3727,-3.86139e-14,-3.97569e-15,-53.2509,10.7764,66.2721,119.875,45.4576,-3.59936,43.1286,7.12502,22.1386,71.881,-21.5189,7.11238,9.51078,33.4221,-6.88811,3.69421,-14.8811,-15.2149,18.2346,-8.87052,63.2433,-41.1356,9.67081,-13.2049
20.3886,16.153,-3.65373,1.74706,-28.0422,-14.4685,6.26682,2.17754,1.72374,-0.693134,3.16348,3.14582,-4.31947,1.56385,1.97732,-1.38924,-5.47772,14.6695,-9.52948,-8.05092,-10.0185,-3.6008,-4.19753,-5.19097,-3.52843e-14,-2.94201e-14,-39.0662,-1.56612,-79.741,111.565,-33.2686,-19.7723,2.27323,7.12502,6.5596,-27.6052,-3.52843e-14,-2.94201e-14,-54.1745,11.2271,64.8585,119.819,47.21,-4.26085,43.0285,7.12502,21.5035,71.8549,-21.618,7.04772,9.57271,33.1265,-6.46762,4.38678,-15.0837,-15.1612,18.5028,-8.8534,63.2947,-41.2144,9.98947,-14.2233
20.405,16.1537,-3.63712,2.02524,-28.6106,-14.7151,6.183,2.35065,2.06897,-0.754885,3.41611,3.05721,-4.31695,1.67969,1.66973,-1.42175,-5.55783,14.7292,-9.56814,-8.15499,-9.90847,-3.61932,-4.25565,-5.16041,1.32689e-14,-1.19271e-14,-39.0019,-1.36757,-80.022,111.752,-33.2697,-19.3006,2.71742,7.12502,7.01501,-27.1463,1.32689e-14,-1.19271e-14,-54.9442,11.7239,63.4617,119.567,48.4899,-4.44327,44.0584,7.12502,21.3282,72.9047,-21.8391,7.06045,9.67835,32.8898,-6.10392,5.01016,-16.0416,-15.1315,18.8407,-8.77395,63.3273,-41.4252,10.0081,-13.4717
20.4233,16.1525,-3.62352,2.16657,-29.1524,-14.8643,6.29998,2.53654,2.30011,-0.818643,3.68551,2.96126,-4.43299,1.8052,1.40839,-1.78468,-5.66965,14.775,-9.34504,-8.33759,-9.83654,-3.51536,-4.35614,-5.14701,-1.56543e-14,-9.54166e-15,-38.8985,-1.29678,-80.2726,111.802,-32.8598,-19.1115,3.05936,7.12502,7.19751,-26.7982,-1.56543e-14,-9.54166e-15,-55.7844,12.013,62.3003,119.643,50.4156,-6.82732,45.2368,7.12502,19.0369,74.3252,-22.052,7.09185,9.66979,32.7461,-5.81461,5.77672,-16.124,-15.0574,19.1412,-8.75204,63.3464,-41.5973,9.67045,-11.7158
20.4436,16.1492,-3.61255,2.20551,-29.6844,-14.9742,6.57877,2.67401,2.54176,-0.921534,3.89973,2.84191,-4.67565,1.90045,1.11297,-2.11347,-5.75146,14.7991,-9.01819,-8.47373,-9.81402,-3.38096,-4.42879,-5.14858,-3.00662e-14,-7.95139e-15,-38.872,-1.15834,-80.5222,111.805,-32.4867,-18.6718,3.5702,7.12502,7.62197,-26.2725,-3.00662e-14,-7.95139e-15,-56.7358,12.2279,61.2275,119.889,52.7422,-9.32952,45.8333,7.12502,16.6292,75.1409,-22.2698,7.10075,9.64562,32.6722,-5.5826,6.55511,-16.4105,-14.8868,19.4805,-8.72491,63.359,-41.6983,9.39673,-10.2415
20.4655,16.1541,-3.60198,2.40775,-30.204,-15.1611,6.69897,2.79814,2.8444,-1.06271,4.09813,2.75781,-4.86482,1.98613,0.827482,-2.18097,-5.82033,14.7624,-8.8658,-8.5613,-9.74292,-3.33119,-4.47216,-5.11861,-4.05521e-14,7.95139e-16,-38.9713,-1.0613,-80.7149,111.936,-32.2895,-18.3321,3.86279,7.12502,7.94979,-25.9677,-4.05521e-14,7.95139e-16,-57.5901,12.4799,60.2902,120.158,55.0275,-10.8274,46.166,7.12502,15.1868,75.5886,-22.7138,7.20513,9.68664,32.6557,-5.26549,7.14546,-15.3512,-14.8408,19.8373,-8.69064,63.3656,-41.8006,9.55132,-9.73491
20.4852,16.1571,-3.59848,2.63813,-30.5758,-15.396,6.83742,2.85744,3.10826,-1.15749,4.20851,2.71667,-5.02037,2.02953,0.617031,-2.19925,-5.8689,14.6821,-8.90512,-8.61364,-9.52998,-3.3351,-4.50218,-5.03619,-4.14963e-14,-1.19271e-14,-39.0477,-0.988829,-80.9038,112.079,-32.1172,-18.3694,3.96663,7.12502,7.91381,-25.8652,-4.14963e-14,-1.19271e-14,-58.2957,12.8495,59.4066,120.428,57.1026,-11.7338,46.2272,7.12502,14.3136,75.7138,-23.123,7.45321,9.72934,32.6942,-4.88555,7.59879,-13.1089,-14.933,20.0057,-8.63074,63.4256,-41.8604,9.94005,-10.0014
20.4964,16.1472,-3.59636,2.79195,-30.9521,-15.3807,6.87674,2.89694,3.083,-1.21842,4.26027,2.63838,-5.10167,2.05321,0.540562,-2.148,-5.90478,14.5072,-9.13984,-8.64036,-9.20334,-3.39706,-4.52107,-4.90093,2.38045e-14,-1.19271e-14,-39.1222,-0.877577,-81.0186,112.146,-32.2201,-17.3537,4.13879,7.12502,8.89401,-25.6538,2.38045e-14,-1.19271e-14,-58.987,13.3773,58.4841,120.497,58.3204,-12.0019,46.0547,7.12502,14.0552,75.5594,-23.5896,7.70955,9.51243,32.7842,-4.76911,7.84277,-14.672,-15.1027,20.1423,-8.82799,63.5567,-42.0094,10.1381,-9.80804
20.5031,16.1352,-3.58973,3.02642,-31.3674,-15.1913,6.65259,3.01667,2.90501,-1.31044,4.39309,2.52688,-5.07384,2.12322,0.519364,-2.11006,-5.97926,14.3588,-9.38721,-8.72873,-8.96505,-3.47254,-4.56958,-4.79473,9.49197e-15,-3.18055e-15,-39.2674,-1.00774,-81.0098,112.28,-32.2864,-16.0409,4.30295,7.12502,10.1607,-25.4317,9.49197e-15,-3.18055e-15,-59.4993,13.7281,57.8489,120.514,59.2706,-13.0071,46.0712,7.12502,13.0864,75.6407,-24.3005,7.94908,9.12033,32.9094,-4.83205,7.91327,-18.9583,-15.4072,20.3579,-9.23734,63.6937,-42.2087,10.1718,-9.35524
20.5123,16.1207,-3.58383,3.22942,-31.6623,-15.2432,6.58945,3.1231,3.02199,-1.36768,4.54143,2.46653,-5.0829,2.19178,0.378555,-2.29801,-6.05648,14.3006,-9.33092,-8.85666,-8.96331,-3.43732,-4.63482,-4.78495,2.13694e-14,3.49861e-14,-39.5009,-1.27178,-80.9996,112.497,-32.2918,-15.8472,4.49937,7.12502,10.3476,-25.226,2.13694e-14,3.49861e-14,-59.6965,13.8823,57.5327,120.594,60.5172,-14.8903,45.8871,7.12502,11.2706,75.5643,-24.7906,8.29355,8.92928,33.0619,-4.66427,8.11416,-20.2723,-15.5821,20.5068,-9.32153,63.8349,-42.2357,10.3435,-9.85682
20.5234,16.1075,-3.57488,3.21047,-31.9066,-15.3057,6.69965,3.07338,3.18249,-1.31734,4.48917,2.41982,-5.07721,2.16031,0.242066,-2.37515,-6.02047,14.2659,-9.36846,-8.83252,-9.08027,-3.43565,-4.62141,-4.82006,-5.47155e-14,-6.36111e-15,-39.64,-1.22921,-81.1358,112.527,-32.5527,-15.5028,4.64428,7.12502,10.6798,-25.0643,-5.47155e-14,-6.36111e-15,-59.8918,14.2774,57.1752,120.719,61.6881,-17.2643,45.6906,7.12502,8.98028,75.4794,-24.9722,8.58053,8.75026,33.2394,-4.447,8.45713,-18.8645,-15.4866,20.5511,-9.31877,63.9168,-42.2652,10.4265,-9.80993
20.5351,16.1047,-3.56156,3.23164,-32.1375,-15.3523,6.73056,2.89206,3.2667,-1.23744,4.2505,2.39245,-5.00624,2.04068,0.192919,-2.27131,-5.88242,14.2776,-9.7163,-8.65688,-9.12657,-3.53797,-4.53713,-4.84029,-2.3556e-14,-2.94201e-14,-39.6436,-0.937078,-81.3686,112.418,-32.8391,-14.3664,4.82959,7.12502,11.7758,-24.8194,-2.3556e-14,-2.94201e-14,-60.2491,14.9206,56.6847,120.89,62.5128,-19.9738,45.9749,7.12502,6.36506,75.8593,-25.2213,8.82124,8.57306,33.4429,-4.31737,8.69546,-16.7054,-15.3855,20.6198,-9.36271,63.9278,-42.3227,10.4715,-9.4696
20.5464,16.1083,-3.55368,3.30374,-32.3512,-15.4518,6.79865,2.75995,3.36555,-1.20949,4.08299,2.36071,-5.00908,1.95428,0.120073,-2.16542,-5.81588,14.3448,-9.9966,-8.56549,-9.09209,-3.63038,-4.49753,-4.83987,-3.76697e-14,5.64548e-14,-39.8394,-0.832261,-81.5153,112.418,-33.0358,-13.3239,5.05979,7.12502,12.7809,-24.529,-3.76697e-14,5.64548e-14,-60.4475,15.4218,56.2536,120.981,62.8258,-22.2901,46.2357,7.12502,4.12862,76.1754,-25.5302,9.2847,8.43785,33.6541,-4.0247,8.69293,-14.375,-15.3194,20.768,-9.33182,63.9265,-42.3089,10.6111,-9.62456
20.5544,16.112,-3.55203,3.16812,-32.6078,-15.2904,6.93182,2.74354,3.22172,-1.18402,4.05038,2.26964,-5.06126,1.94032,0.102624,-2.11201,-5.81778,14.3888,-10.1716,-8.57058,-9.08916,-3.69438,-4.50337,-4.84284,-1.12115e-13,-3.65764e-14,-40.1972,-1.00169,-81.4852,112.488,-33.1405,-12.3138,5.08175,7.12502,13.7546,-24.4436,-1.12115e-13,-3.65764e-14,-60.359,15.7435,56.0427,121.103,63.0278,-24.2009,46.4044,7.12502,2.28331,76.3719,-25.8007,9.80967,8.0676,33.8479,-3.57303,8.66872,-12.0778,-15.1901,20.9276,-9.49326,63.9163,-42.3281,10.6056,-9.3373
20.56,16.1135,-3.5497,3.14261,-32.7653,-15.1678,6.95397,2.72133,3.07818,-1.18883,4.00836,2.24026,-5.08697,1.923,0.155029,-2.03381,-5.81719,14.3298,-10.3473,-8.57631,-9.15206,-3.76025,-4.50307,-4.84958,-6.0033e-14,-5.1684e-14,-40.5441,-1.20134,-81.3188,112.449,-33.0969,-11.2234,5.03585,7.12502,14.8053,-24.4153,-6.0033e-14,-5.1684e-14,-60.2593,15.9364,56.1331,121.385,63.4711,-26.4275,46.4516,7.12502,0.132832,76.4313,-26.151,10.1899,7.76235,34.0324,-3.29935,8.56091,-10.4003,-15.225,20.9781,-9.64919,63.9178,-42.2865,10.4278,-9.11659
20.5684,16.112,-3.54587,3.30707,-32.701,-15.3316,6.89709,2.60276,3.25562,-1.17388,3.86329,2.27616,-5.0325,1.84733,0.112744,-1.90514,-5.80569,14.2581,-10.5762,-8.56311,-9.20367,-3.84722,-4.49272,-4.84995,-5.86415e-15,-8.74653e-15,-40.8389,-1.37574,-81.1445,112.352,-33.1411,-10.1636,4.93858,7.12502,15.8261,-24.4346,-5.86415e-15,-8.74653e-15,-60.0103,16.1115,56.4604,121.638,64.0323,-29.0341,46.2111,7.12502,-2.38464,76.1775,-26.4852,10.3913,7.77358,34.2382,-3.55764,8.2096,-11.1263,-15.3822,20.8976,-9.54675,63.9326,-42.1234,10.2573,-8.82355
20.577,16.11,-3.53312,3.26054,-32.736,-15.44,6.81548,2.48984,3.49877,-0.976873,3.71876,2.25656,-4.76628,1.77418,-0.0181864,-1.89543,-5.78529,14.2105,-10.8767,-8.55219,-9.18373,-3.93505,-4.49117,-4.83514,2.57426e-14,-1.98785e-14,-40.9659,-1.6254,-80.9736,112.285,-33.2865,-8.77114,4.55541,7.12502,17.1667,-24.7063,2.57426e-14,-1.98785e-14,-59.4427,16.4966,56.7453,121.76,64.3677,-30.9306,46.4391,7.12502,-4.2161,76.3772,-26.6483,10.6303,7.77102,34.485,-4.11029,7.88953,-14.106,-15.1865,20.9037,-9.42656,63.8933,-41.9617,10.2668,-8.53363
20.5797,16.1145,-3.51741,3.09739,-32.8991,-15.4217,6.78449,2.42747,3.51549,-0.804547,3.62714,2.25367,-4.5695,1.73283,-0.0152835,-1.91112,-5.7075,14.3138,-11.0353,-8.47845,-9.37259,-3.98248,-4.45583,-4.91584,-7.27552e-14,-4.37326e-14,-41.2412,-1.83498,-80.6863,112.119,-33.4414,-7.21228,4.43023,7.12502,18.6666,-24.6941,-7.27552e-14,-4.37326e-14,-58.9227,16.8559,57.0294,121.87,64.5322,-32.4232,46.8997,7.12502,-5.65731,76.8042,-26.8175,11.2371,7.57389,34.7833,-4.28099,7.53786,-13.7955,-14.8261,20.9635,-9.41058,63.8047,-41.9511,10.3123,-8.59147
20.5803,16.1221,-3.51534,3.03972,-32.7409,-15.3008,6.85191,2.25805,3.29055,-0.853647,3.39036,2.30004,-4.67977,1.61993,0.177821,-1.89208,-5.51983,14.7157,-10.9406,-8.27465,-9.97862,-3.97011,-4.34889,-5.185,-3.34455e-14,-3.18055e-14,-41.8044,-1.90595,-80.354,111.871,-33.6289,-5.98541,4.74374,7.12502,19.8464,-24.263,-3.34455e-14,-3.18055e-14,-58.576,17.0255,57.4442,122.022,64.9585,-34.4611,46.759,7.12502,-7.62463,76.6016,-27.1494,11.7757,7.24965,35.1544,-4.39979,6.87128,-12.2202,-14.8457,20.7523,-9.55501,63.7342,-41.9326,10.3802,-9.21994
20.5816,16.1275,-3.52078,3.12055,-32.2967,-15.3587,6.92042,1.96323,3.27885,-0.922226,3.00538,2.36654,-4.80127,1.42805,0.289662,-1.90523,-5.35679,14.9719,-10.806,-8.093,-10.4452,-3.93016,-4.25251,-5.387,6.20208e-14,1.66979e-14,-42.3293,-1.92474,-80.1737,111.692,-33.2769,-5.10715,4.6456,7.12502,20.6905,-24.2715,6.20208e-14,1.66979e-14,-58.0902,17.2019,57.8525,122.104,65.283,-36.4537,46.7494,7.12502,-9.54755,76.5131,-27.4838,11.8717,7.21157,35.564,-4.68387,6.2461,-12.159,-15.0497,20.3732,-9.50883,63.7169,-41.831,10.4048,-9.6921
20.5809,16.1324,-3.52364,3.25798,-31.9628,-15.6067,6.93535,1.70782,3.48139,-0.897545,2.68386,2.43128,-4.78337,1.26431,0.278108,-2.06012,-5.29018,14.9501,-10.6689,-8.02881,-10.5561,-3.85709,-4.21957,-5.42777,-4.47266e-14,-4.29375e-14,-42.7976,-1.90869,-80.1088,111.585,-32.5011,-4.64206,4.30846,7.12502,21.1373,-24.5593,-4.47266e-14,-4.29375e-14,-57.4172,17.4268,58.1895,122.198,65.1542,-37.5898,47.6164,7.12502,-10.6436,77.3268,-27.8046,11.954,7.34964,35.9795,-4.71161,5.90865,-10.4729,-15.1288,20.1296,-9.2277,63.7208,-41.8293,10.1376,-9.03896
20.5771,16.1336,-3.52195,3.27099,-31.8198,-15.5494,6.87603,1.51413,3.39644,-0.887581,2.41456,2.43088,-4.74754,1.13392,0.355705,-2.13294,-5.21861,14.8692,-10.5646,-7.94087,-10.5948,-3.79951,-4.17307,-5.43445,-5.889e-14,-4.6118e-14,-43.3276,-1.92732,-79.9355,111.48,-32.0526,-4.30511,4.12102,7.12502,21.4609,-24.7102,-5.889e-14,-4.6118e-14,-56.7635,17.5983,58.5992,122.41,65.3405,-38.8997,48.4841,7.12502,-11.907,78.1255,-28.1488,12.2831,7.07559,36.376,-4.66425,5.48933,-8.11535,-15.1955,19.9837,-9.28852,63.7022,-41.7247,10.2658,-9.69965
20.5728,16.1355,-3.51672,3.21915,-31.6586,-15.3201,6.78513,1.32058,3.18316,-0.916493,2.13374,2.39921,-4.73698,1.00041,0.473818,-2.07028,-5.13502,14.8772,-10.5028,-7.83281,-10.7706,-3.78264,-4.11212,-5.49644,1.32689e-14,9.54166e-15,-43.9304,-2.04241,-79.5819,111.324,-31.9575,-3.62716,3.96591,7.12502,22.112,-24.7897,1.32689e-14,9.54166e-15,-55.9767,17.6158,59.2285,122.581,66.0702,-40.8971,48.5551,7.12502,-13.8325,78.0752,-28.5292,12.6868,6.63861,36.7445,-4.65926,4.8872,-8.36362,-15.2654,19.7939,-9.54655,63.6334,-41.6077,10.5104,-10.3089
20.5699,16.1468,-3.50856,3.19511,-31.4699,-15.2834,6.7206,1.14023,3.16106,-0.872062,1.88555,2.3884,-4.65755,0.879192,0.502957,-2.24949,-5.07132,15.002,-10.385,-7.78616,-10.9914,-3.72319,-4.09123,-5.59564,-6.16232e-15,2.46493e-14,-44.4731,-2.27058,-79.2787,111.11,-31.5997,-3.1321,3.6569,7.12502,22.5872,-25.0417,-6.16232e-15,2.46493e-14,-54.9786,17.6101,59.9247,122.645,66.6856,-42.2132,48.1714,7.12502,-15.1006,77.6006,-28.9671,13.086,6.46396,37.0847,-4.60202,4.44379,-8.47533,-15.1862,19.5912,-9.55387,63.5024,-41.6404,10.0011,-8.42651
20.5633,16.1558,-3.50194,3.1446,-31.2704,-15.4085,6.80248,0.909893,3.22952,-0.803555,1.58629,2.42326,-4.63544,0.730001,0.531273,-2.52325,-4.94717,15.1539,-10.2039,-7.6633,-11.1794,-3.61864,-4.03718,-5.69562,-6.72389e-14,5.56597e-15,-44.9645,-2.46338,-79.1491,110.91,-30.7004,-3.19586,3.2376,7.12502,22.526,-25.4684,-6.72389e-14,5.56597e-15,-54.1343,17.6982,60.4415,122.703,66.9866,-42.8077,48.1299,7.12502,-15.6732,77.5151,-29.2718,13.4668,6.49103,37.3932,-4.62925,4.1356,-8.23945,-14.9707,19.4153,-9.32407,63.3875,-41.6121,9.50038,-7.29119
20.5505,16.1613,-3.50199,3.05987,-30.942,-15.3878,6.97454,0.629598,3.03815,-0.857552,1.2105,2.50462,-4.7996,0.547736,0.760867,-2.69535,-4.8047,15.3708,-9.83545,-7.51167,-11.6282,-3.48096,-3.95828,-5.88858,-1.44119e-15,-3.18055e-14,-45.6489,-2.46728,-78.9141,110.82,-29.7059,-3.32182,2.94948,7.12502,22.4051,-25.7711,-1.44119e-15,-3.18055e-14,-53.4361,17.7277,60.9362,122.714,67.0492,-43.2207,48.4,7.12502,-16.0709,77.7536,-29.5299,13.8294,6.36312,37.6907,-4.40355,3.81631,-8.8886,-14.9057,19.1447,-9.24464,63.3031,-41.5214,9.2372,-7.03911
20.5345,16.1702,-3.50411,2.98626,-30.5042,-15.2796,6.89765,0.360125,2.70481,-0.806274,0.82124,2.61003,-4.71148,0.366181,1.10021,-2.83339,-4.68989,15.467,-9.61896,-7.39361,-11.9763,-3.39044,-3.89626,-6.02672,-2.70347e-14,-2.3059e-14,-46.2355,-2.5942,-78.539,110.705,-28.5223,-3.54738,2.67167,7.12502,22.1885,-26.0748,-2.70347e-14,-2.3059e-14,-52.4319,17.8318,61.5628,122.637,66.8538,-42.9516,48.1257,7.12502,-15.8117,77.5,-29.834,14.2608,6.09474,37.9955,-3.71368,3.74767,-7.63417,-14.9912,18.7788,-9.25583,63.2134,-41.3906,8.88313,-6.47177
20.5186,16.1738,-3.50362,2.86531,-29.9639,-15.26,6.69148,0.0192148,2.54142,-0.608355,0.339908,2.73203,-4.39016,0.135657,1.36899,-2.6793,-4.55437,15.3869,-9.85616,-7.21663,-12.0785,-3.46048,-3.80189,-6.05162,2.48481e-16,-1.66979e-14,-46.6544,-2.72488,-78.244,110.508,-26.8785,-4.00506,2.48369,7.12502,21.7491,-26.3144,2.48481e-16,-1.66979e-14,-51.3784,17.995,62.2609,122.827,67.1154,-43.0571,47.7806,7.12502,-15.9133,77.1468,-29.9585,14.7228,5.86666,38.3204,-3.12457,3.87913,-6.41626,-14.9459,18.3441,-9.14674,63.1094,-41.3109,8.61166,-6.39386
20.5056,16.1811,-3.49853,2.65509,-29.2906,-15.2811,6.63999,-0.4245,2.49253,-0.449724,-0.260302,2.87159,-4.19188,-0.158652,1.60135,-2.47925,-4.37796,15.4234,-9.98901,-6.99242,-12.4185,-3.51087,-3.67863,-6.1744,2.47984e-14,1.74931e-14,-47.0697,-2.6863,-77.9723,110.352,-25.0879,-3.91348,2.25756,7.12502,21.837,-26.5303,2.47984e-14,1.74931e-14,-50.503,17.9757,63.1125,123.225,68.0002,-44.4412,47.0531,7.12502,-17.2459,76.3078,-29.8856,15.1242,5.68339,38.6592,-2.65228,3.85443,-3.77883,-14.7436,17.7575,-9.00545,62.9549,-41.2609,8.54453,-6.8258
20.4926,16.1947,-3.48955,2.40295,-28.6466,-15.2902,6.59523,-0.875034,2.41473,-0.247479,-0.874685,2.98308,-3.94771,-0.46033,1.81894,-2.55723,-4.17365,15.5672,-9.90138,-6.75458,-12.7761,-3.45081,-3.55899,-6.32836,3.50855e-14,2.8625e-14,-47.3344,-2.81759,-77.6873,110.299,-23.4359,-3.1774,1.83346,7.12502,22.5437,-26.8704,3.50855e-14,2.8625e-14,-49.5601,17.9277,63.8701,123.352,68.346,-44.906,45.6573,7.12502,-17.6932,74.8723,-29.8825,15.4411,5.5668,38.9927,-2.14441,3.64613,0.332633,-14.4938,17.1693,-8.86843,62.7829,-41.1082,8.56119,-7.22866
20.4737,16.2006,-3.48359,2.17401,-28.1659,-15.1104,6.45997,-1.2463,2.12068,-0.0610158,-1.40478,3.03287,-3.66248,-0.717427,2.08019,-2.55747,-4.00364,15.56,-9.97909,-6.54089,-12.8733,-3.44373,-3.45223,-6.36961,1.09332e-14,-2.38542e-15,-47.6874,-3.03964,-77.4191,110.281,-21.6109,-2.4458,1.72954,7.12502,23.2458,-26.8874,1.09332e-14,-2.38542e-15,-48.513,17.8919,64.3791,123.244,67.9633,-43.7239,45.0114,7.12502,-16.5554,74.3252,-30.1137,15.8359,5.2252,39.3233,-1.67032,3.66932,2.42142,-14.3577,16.7336,-8.93324,62.6332,-40.9818,8.3829,-6.78983
20.4512,16.2048,-3.48281,2.05169,-27.6892,-14.9872,6.45444,-1.57553,1.81263,-0.0306647,-1.86599,3.13461,-3.6055,-0.940988,2.40147,-2.41498,-3.8738,15.3989,-10.0897,-6.35635,-12.8941,-3.46743,-3.35149,-6.35538,-5.50137e-14,3.97569e-15,-48.3246,-3.24491,-77.0021,110.192,-19.2977,-1.61259,2.14872,7.12502,24.0449,-26.365,-5.50137e-14,3.97569e-15,-47.5039,17.6336,65.0872,123.715,68.9553,-45.168,47.3774,7.12502,-17.9453,76.5694,-30.3869,16.356,4.86291,39.6687,-1.14434,3.94216,2.65126,-14.325,16.3533,-8.95474,62.5141,-40.9063,8.47023,-7.4509
20.4287,16.2088,-3.48323,1.93561,-27.14,-15.0394,6.60669,-1.93896,1.59397,-0.0577714,-2.35569,3.33325,-3.68871,-1.1797,2.78399,-2.15646,-3.76574,15.2498,-10.1897,-6.19382,-13.0121,-3.51348,-3.25482,-6.3713,-1.05803e-13,3.4191e-14,-49.0061,-3.50203,-76.3383,110.102,-16.5285,-0.403621,2.61192,7.12502,25.2037,-25.7438,-1.05803e-13,3.4191e-14,-46.5758,17.7361,65.5109,123.154,66.6436,-40.0075,44.4629,7.12502,-12.975,74.0395,-30.5433,16.9614,4.67868,40.0157,-0.779197,4.24132,-0.228979,-14.2575,15.9385,-8.76673,62.4362,-40.8685,8.70339,-8.64819
20.4014,16.213,-3.48346,1.82671,-26.6391,-15.0614,6.60693,-2.29743,1.34811,-0.00063218,-2.85171,3.48578,-3.59241,-1.42261,3.12564,-1.71623,-3.70471,15.3286,-10.6141,-6.11131,-13.2699,-3.70877,-3.19803,-6.46648,1.44119e-15,-7.95139e-16,-49.4867,-3.8645,-75.7556,110.062,-13.4932,0.709928,2.8608,7.12502,26.2702,-25.3405,1.44119e-15,-7.95139e-16,-45.5725,17.4283,66.2445,123.53,66.8689,-40.6149,45.7927,7.12502,-13.5605,75.3311,-30.7381,17.6343,4.44057,40.3591,-0.555348,4.78304,-3.05302,-14.192,15.6097,-8.57585,62.3598,-40.8633,8.45682,-8.31467
20.3683,16.2243,-3.4827,1.79275,-25.9592,-15.2578,6.52366,-2.70765,1.31421,0.132863,-3.40787,3.60401,-3.37446,-1.70124,3.30911,-1.33577,-3.64147,15.5982,-11.1971,-6.04937,-13.5512,-3.95123,-3.16098,-6.60528,4.33848e-14,1.51076e-14,-49.9508,-4.25467,-75.3887,110.132,-10.2914,1.44723,3.22964,7.12502,26.9758,-24.8645,4.33848e-14,1.51076e-14,-44.6089,16.958,66.8233,124.034,67.693,-42.0801,45.5232,7.12502,-14.9723,74.962,-30.8854,18.1576,4.45687,40.7258,-0.222644,5.24513,-1.28676,-14.1249,15.2108,-8.15767,62.2551,-40.7474,8.07575,-8.10392
20.3374,16.2372,-3.48057,1.6592,-25.1248,-15.4469,6.52336,-3.20175,1.25716,0.290107,-4.07537,3.76697,-3.16491,-2.03596,3.56289,-1.16012,-3.48507,15.7211,-11.5129,-5.86345,-13.7803,-4.05421,-3.06385,-6.71188,6.93262e-14,-1.98785e-14,-50.4234,-4.56834,-74.9461,110.173,-6.63044,2.32623,4.31236,7.12502,27.8165,-23.6488,6.93262e-14,-1.98785e-14,-43.6695,16.662,67.3166,124.197,67.789,-43.2238,45.4274,7.12502,-16.0739,74.7807,-30.9302,18.6897,4.50087,41.1117,0.380159,5.46984,1.79152,-13.9966,14.6133,-7.7654,62.1032,-40.5609,8.08299,-8.85792
20.3096,16.247,-3.48063,1.36164,-24.428,-15.1078,6.48558,-3.66887,0.683613,0.406751,-4.74669,3.844,-2.93592,-2.36719,4.01096,-1.07411,-3.2705,15.6968,-11.557,-5.5869,-13.9859,-4.04108,-2.9176,-6.78952,-3.86139e-14,2.8625e-14,-50.5965,-5.31257,-74.376,109.974,-2.58219,3.94875,6.31949,7.12502,29.3668,-21.3806,-3.86139e-14,2.8625e-14,-42.6206,16.5725,67.8272,124.341,67.0438,-43.9046,46.4579,7.12502,-16.7294,75.7571,-31.1003,19.262,3.88873,41.5138,1.13196,6.12949,3.85633,-13.9136,14.0374,-8.00994,61.9136,-40.385,8.49145,-10.1678
20.2822,16.2579,-3.48138,1.0701,-23.59,-14.7119,6.54582,-4.1528,0.0451714,0.427125,-5.43885,3.91853,-2.83868,-2.70756,4.50311,-0.990475,-3.07238,15.7076,-11.4989,-5.32697,-14.2362,-4.00102,-2.77827,-6.88585,-4.40308e-14,-9.54166e-15,-50.6455,-6.75522,-73.6778,109.838,1.3554,6.06807,8.42191,7.12502,31.3882,-18.9048,-4.40308e-14,-9.54166e-15,-41.6103,16.2829,68.4706,124.71,66.5745,-40.2193,37.1834,7.12502,-13.1791,66.7469,-31.2305,19.666,3.22933,41.9247,1.71173,6.96129,6.3015,-13.9266,13.3724,-8.31876,61.7346,-40.1789,8.86969,-11.6876
20.253,16.2701,-3.48174,1.0245,-22.62,-14.7959,6.61554,-4.66985,-0.178102,0.399403,-6.14122,4.14763,-2.80481,-3.05772,4.92782,-1.01865,-2.86343,15.8267,-11.3068,-5.06989,-14.6453,-3.90715,-2.64252,-7.05366,8.05078e-14,-2.94201e-14,-51.7004,-6.12297,-73.0631,110.208,4.04333,5.91059,9.49634,7.12502,31.2381,-17.8595,8.05078e-14,-2.94201e-14,-40.5916,15.7125,69.2821,125.01,66.9631,-40.8221,33.6313,7.12502,-13.7602,63.1563,-31.3562,20.0773,3.09693,42.2322,2.30096,7.50812,7.25976,-14.0785,12.7061,-8.08935,61.5712,-39.8212,9.00344,-12.8451
20.2222,16.2857,-3.48387,1.01483,-21.687,-14.9908,6.64352,-5.16124,-0.260026,0.421365,-6.80234,4.36536,-2.70607,-3.39138,5.25017,-1.18014,-2.64977,15.8754,-11.0341,-4.80529,-14.9346,-3.76084,-2.50943,-7.16993,-2.6985e-14,-2.3059e-14,-52.3064,-6.18953,-72.5198,110.446,7.01247,6.3742,10.528,7.12502,31.6798,-16.7416,-2.6985e-14,-2.3059e-14,-39.4794,15.1091,69.9916,125.196,67.2076,-41.2224,31.9117,7.12502,-14.1459,61.4102,-31.4318,20.5728,3.0683,42.48,3.12808,7.87178,8.65851,-14.2048,12.0718,-7.72235,61.4136,-39.4715,8.73055,-12.6249
20.195,16.328,-3.48124,0.874923,-20.7262,-15.2139,6.76705,-5.63278,-0.274475,0.492202,-7.43266,4.52578,-2.62133,-3.71104,5.47932,-1.12437,-2.52686,15.7095,-11.1058,-4.63498,-14.8814,-3.75865,-2.41956,-7.13107,8.07314e-14,-3.81667e-14,-52.7344,-6.82878,-71.9069,110.603,10.1975,7.39247,11.7648,7.12502,32.6492,-15.3088,8.07314e-14,-3.81667e-14,-38.4107,14.4743,70.6032,125.224,66.4759,-39.208,28.9749,7.12502,-12.2042,58.5988,-31.1342,21.1917,3.14517,42.6039,3.96674,8.0206,11.0638,-14.0735,11.3373,-7.31898,61.142,-39.3803,7.96323,-11.0249
20.1579,16.347,-3.47156,0.754587,-19.9656,-15.5354,6.85674,-6.01008,-0.205398,0.511389,-7.92927,4.72588,-2.5854,-3.96347,5.69423,-0.919538,-2.4903,15.6001,-11.1981,-4.57272,-14.9263,-3.80846,-2.37581,-7.12845,-9.93178e-14,4.6118e-14,-53.4841,-7.51827,-70.9982,110.927,13.035,8.6466,12.9037,7.12502,33.8416,-13.9151,-9.93178e-14,4.6118e-14,-37.5359,13.8123,71.2602,125.164,65.3791,-36.7873,35.1729,7.12502,-9.86939,64.9216,-30.9832,21.9858,3.33265,42.8157,4.37913,8.06188,11.8987,-13.904,10.8233,-6.76161,60.9653,-39.447,7.42705,-10.4472
20.1189,16.3608,-3.46069,0.564127,-19.2742,-15.7702,6.98981,-6.35593,-0.255451,0.534546,-8.39271,4.91028,-2.55515,-4.19847,5.96094,-0.87656,-2.41017,15.8191,-10.9998,-4.47363,-15.3194,-3.75082,-2.31968,-7.29945,-1.42727e-13,4.73108e-14,-54.3409,-8.01309,-70.1389,111.282,15.2347,9.41288,13.5744,7.12502,34.5693,-13.0811,-1.42727e-13,4.73108e-14,-36.7358,13.1996,71.886,125.321,64.5088,-36.9,36.2606,7.12502,-9.97815,66.0041,-30.8648,22.7839,3.46447,43.1095,4.55837,8.05908,12.314,-13.6706,10.368,-6.28348,60.7683,-39.4077,7.31179,-11.053
20.0772,16.3691,-3.46272,0.353792,-18.2411,-15.7833,7.18426,-6.85428,-0.597188,0.55972,-9.08377,5.06726,-2.48761,-4.54678,6.38068,-0.679684,-2.22796,16.0104,-11.0714,-4.23002,-15.6222,-3.77242,-2.18974,-7.44437,-3.16068e-14,-2.3059e-14,-54.8175,-8.3544,-69.5226,111.365,16.9764,9.57721,14.1575,7.12502,34.7252,-12.4622,-3.16068e-14,-2.3059e-14,-35.8875,13.0755,72.0807,126.024,64.0526,-36.7915,43.1876,7.12502,-9.87352,72.9361,-30.7699,23.2389,3.3843,43.6067,4.82472,7.96673,12.5011,-13.7187,9.62128,-6.05679,60.6458,-39.2537,7.15964,-11.6099
20.0371,16.3804,-3.46576,0.195392,-17.0725,-15.5552,7.32371,-7.38015,-1.15169,0.489072,-9.82915,5.2182,-2.43569,-4.91964,6.91051,-0.444816,-2.04712,15.8436,-11.1761,-3.96954,-15.6749,-3.79635,-2.04429,-7.44332,-2.30093e-14,1.59028e-15,-55.2336,-8.75713,-68.7842,111.519,18.3628,9.7488,14.4151,7.12502,34.888,-12.167,-2.30093e-14,1.59028e-15,-35.0716,12.4972,72.6281,126.953,65.4085,-38.4997,52.4539,7.12502,-11.5212,82.1173,-30.7735,23.4494,3.02732,44.2316,5.11762,7.83171,11.9523,-13.9428,8.80085,-6.14656,60.5248,-39.0624,7.09494,-12.3321
19.9964,16.393,-3.45985,-0.0794602,-16.1277,-15.3099,7.57016,-7.7717,-1.71398,0.405838,-10.3961,5.36596,-2.4608,-5.20056,7.44655,-0.473161,-1.91572,15.7214,-10.9749,-3.80234,-15.9142,-3.7033,-1.94958,-7.50637,-6.92268e-14,5.96354e-15,-55.8935,-9.17955,-67.7981,111.929,19.2519,9.94596,14.097,7.12502,35.0751,-12.4415,-6.92268e-14,5.96354e-15,-34.265,11.8854,73.3639,126.405,63.6572,-37.2511,49.6217,7.12502,-10.3168,79.3486,-30.705,23.7773,2.71749,44.9256,5.48421,7.9111,11.9778,-13.8804,8.17534,-6.22857,60.3652,-38.8907,7.05041,-12.9721
19.9492,16.3987,-3.45147,-0.368453,-15.2663,-15.2358,7.89369,-8.08764,-2.18765,0.331013,-10.857,5.5508,-2.53015,-5.42787,7.98073,-0.546004,-1.84615,15.9054,-10.7458,-3.73966,-16.4043,-3.62004,-1.91222,-7.70406,-3.25013e-14,-3.81667e-14,-56.6677,-9.66364,-66.6839,112.212,19.7652,9.77399,13.8803,7.12502,34.9119,-12.6963,-3.25013e-14,-3.81667e-14,-33.4363,11.3943,74.1177,126.399,62.6596,-35.9134,44.5277,7.12502,-9.02626,74.3146,-30.5768,24.2658,2.63165,45.61,6.08551,7.92821,14.5064,-13.7087,7.66883,-6.04644,60.1961,-38.7742,6.77491,-13.143
19.9039,16.4094,-3.44268,-0.499753,-14.3073,-15.1774,7.96468,-8.44253,-2.62328,0.288602,-11.3725,5.73042,-2.41527,-5.69131,8.44288,-0.461708,-1.81565,16.098,-10.7473,-3.71574,-16.7372,-3.63694,-1.89367,-7.85182,8.38871e-14,-2.0276e-14,-57.2863,-10.3355,-65.6797,112.328,20.049,9.55768,14.0194,7.12502,34.7067,-12.6047,8.38871e-14,-2.0276e-14,-32.4313,10.9529,74.8079,126.527,61.8174,-30.8882,43.6736,7.12502,-4.17522,73.6124,-30.5088,24.8088,2.45371,46.2369,6.63846,7.53461,17.5488,-13.7338,7.07532,-5.88999,60.004,-38.7073,6.43722,-13.3801
19.8631,16.4222,-3.43427,-0.541329,-13.4004,-15.1239,7.87037,-8.8593,-2.97477,0.273371,-11.9658,5.89151,-2.17778,-6.00163,8.80521,-0.14353,-1.75424,15.9925,-10.9495,-3.61109,-16.7301,-3.73058,-1.82524,-7.83608,-7.05686e-14,5.56597e-15,-57.696,-10.7907,-64.9461,112.501,20.0006,9.60818,13.912,7.12502,34.7546,-12.701,-7.05686e-14,5.56597e-15,-31.4546,10.7099,75.3307,126.121,59.788,-31.8722,42.0098,7.12502,-5.12531,71.9278,-30.5342,25.2528,2.2816,46.7926,6.96663,7.36696,16.3959,-13.8758,6.49624,-5.77768,59.8193,-38.6165,6.02035,-13.386
19.8179,16.4302,-3.42438,-0.627813,-12.4737,-15.087,7.84664,-9.28012,-3.27814,0.237888,-12.56,6.01296,-2.00909,-6.30968,9.10987,0.176741,-1.67283,15.8104,-11.1539,-3.46854,-16.6003,-3.81687,-1.73908,-7.76693,-4.88016e-14,2.98177e-14,-58.1744,-11.0685,-64.3318,112.697,19.7228,9.32106,13.2913,7.12502,34.4821,-13.3841,-4.88016e-14,2.98177e-14,-30.5233,10.4756,75.719,125.577,57.4801,-29.6286,41.6651,7.12502,-2.95876,71.6243,-30.4614,25.5309,2.2745,47.2554,7.44564,7.45481,15.5322,-13.9955,5.93453,-5.60272,59.6472,-38.5116,5.72766,-13.6641
19.7671,16.439,-3.41053,-0.770482,-11.4427,-14.9029,7.84787,-9.66325,-3.76196,0.177694,-13.1203,6.11335,-1.84242,-6.59975,9.48752,0.329124,-1.59821,15.6734,-11.2724,-3.35832,-16.5579,-3.85619,-1.67472,-7.73407,3.16937e-14,2.94201e-14,-58.7209,-11.4371,-63.6996,112.771,19.0667,8.23923,12.6495,7.12502,33.4545,-14.2537,3.16937e-14,2.94201e-14,-29.6167,10.1512,76.1518,125.447,56.0832,-27.9725,42.44,7.12502,-1.35936,72.4154,-30.231,25.8115,2.16553,47.6413,7.80736,7.85595,15.0514,-14.0822,5.29893,-5.57,59.4556,-38.4105,5.71362,-14.6519
19.7193,16.4513,-3.39308,-0.863101,-10.5872,-14.8958,7.93402,-9.947,-4.07074,0.0379662,-13.5301,6.32535,-1.83654,-6.80744,9.91266,0.39171,-1.59055,15.4675,-11.1473,-3.34038,-16.616,-3.82396,-1.65279,-7.715,-1.4884e-14,-4.1546e-14,-59.3564,-11.6457,-63.074,112.915,17.6486,6.79547,12.018,7.12502,32.081,-15.1717,-1.4884e-14,-4.1546e-14,-28.8877,9.8527,76.7514,125.471,55.394,-27.153,42.3704,7.12502,-0.567886,72.3494,-30.014,26.2344,2.22421,47.9643,7.69536,8.8568,9.49713,-14.109,4.84842,-5.33327,59.277,-38.2941,5.25392,-14.3252
19.6766,16.464,-3.37702,-0.953735,-9.82959,-15.0245,8.13636,-10.1594,-4.1884,-0.102401,-13.827,6.53503,-1.95595,-6.95217,10.2609,0.386761,-1.61776,15.4586,-10.9278,-3.37139,-16.7756,-3.76498,-1.662,-7.76208,5.46782e-14,1.43125e-14,-60.048,-11.9446,-62.3054,113.254,16.6905,5.92841,11.3562,7.12502,31.2551,-15.9964,5.46782e-14,1.43125e-14,-28.1256,9.59483,77.414,125.363,54.7982,-25.6404,41.5174,7.12502,0.893088,71.4953,-29.7332,26.6142,2.44922,48.2025,8.40036,8.09901,12.8535,-14.0854,4.42518,-4.97472,59.1136,-38.1927,4.85387,-14.0677
19.6355,16.4682,-3.36639,-1.02839,-9.05294,-14.8997,8.16325,-10.3489,-4.4737,-0.146284,-14.1104,6.58188,-1.87954,-7.09852,10.4713,0.432967,-1.6448,15.6044,-10.9869,-3.4109,-16.8533,-3.8002,-1.68228,-7.8139,4.77207e-14,4.26393e-14,-60.5733,-12.6718,-61.4099,113.476,16.9144,5.74735,10.957,7.12502,31.0825,-16.4287,4.77207e-14,4.26393e-14,-27.2044,9.31565,77.987,125.131,53.6205,-23.5628,40.3378,7.12502,2.89954,70.2978,-29.4927,26.756,2.37566,48.3425,8.56496,8.38992,12.858,-14.1787,3.89855,-4.96027,58.977,-38.1262,5.05291,-15.3746
19.6001,16.4712,-3.34709,-1.20655,-8.44359,-14.7553,8.06078,-10.4998,-4.66927,-0.0771281,-14.3336,6.55952,-1.66283,-7.22458,10.5151,0.497047,-1.69299,15.5735,-11.1189,-3.47447,-16.7617,-3.85992,-1.71289,-7.77681,2.09985e-13,0,-60.9975,-13.2649,-60.6777,113.576,16.7964,5.35581,10.5245,7.12502,30.7093,-16.932,2.09985e-13,0,-26.2648,8.91633,78.4723,124.859,52.281,-22.1589,38.6672,7.12502,4.2553,68.6044,-29.1195,26.9063,2.32047,48.357,8.62757,9.2268,11.5513,-14.0837,3.47534,-4.99425,58.8572,-38.118,5.21939,-16.3593
19.5685,16.4774,-3.31417,-1.48861,-7.93318,-14.7338,8.06274,-10.6167,-4.65688,-0.0692494,-14.4902,6.58814,-1.61806,-7.30749,10.5379,0.44258,-1.75526,15.5726,-10.9235,-3.56315,-16.9206,-3.80971,-1.75309,-7.82352,-9.99328e-14,2.48481e-14,-61.5985,-13.3704,-59.9843,113.793,15.8705,4.55226,9.98025,7.12502,29.9428,-17.6174,-9.99328e-14,2.48481e-14,-25.5621,8.50427,79.0828,124.699,51.3954,-21.8188,36.801,7.12502,4.58374,66.7314,-28.5019,27.2063,2.49876,48.2826,8.89747,9.5484,12.4357,-13.7421,3.07796,-4.91042,58.7232,-38.1366,5.15465,-16.2753
19.5323,16.4799,-3.28674,-1.63358,-7.37944,-14.7453,8.17697,-10.715,-4.61249,-0.238321,-14.6154,6.672,-1.82118,-7.35615,10.6545,0.478345,-1.82842,15.6996,-10.6765,-3.6588,-17.2356,-3.76538,-1.79227,-7.94469,-3.24827e-14,3.28492e-14,-62.2811,-13.4364,-59.3329,113.952,14.8846,3.3402,9.31403,7.12502,28.7856,-18.4864,-3.24827e-14,3.28492e-14,-25.1072,8.2266,79.7847,124.605,50.5351,-20.7305,35.6432,7.12502,5.63451,65.5483,-28.0053,27.5304,2.67066,48.2023,9.23229,9.30193,14.2141,-13.599,2.70614,-4.74495,58.6,-38.0513,4.9553,-16.0179
19.4891,16.4784,-3.26788,-1.67531,-6.84667,-14.717,8.20822,-10.8109,-4.69343,-0.365425,-14.7504,6.75751,-1.90076,-7.41751,10.8113,0.439381,-1.78736,15.6475,-10.4543,-3.58387,-17.2507,-3.6798,-1.75425,-7.93954,-3.60359e-14,-3.0911e-14,-62.6449,-13.7299,-58.8721,113.91,14.1487,2.10767,8.62186,7.12502,27.6076,-19.3729,-3.60359e-14,-3.0911e-14,-24.5314,8.0077,80.3303,124.46,49.6745,-18.714,35.5015,7.12502,7.5812,65.3456,-27.6787,27.8157,2.74834,48.1711,9.52173,9.00539,14.7812,-13.6183,2.40911,-4.58501,58.4955,-37.9539,5.09398,-17.4488
19.4445,16.4751,-3.24982,-1.73267,-6.40475,-14.5422,8.14187,-10.8516,-4.97209,-0.434285,-14.8315,6.81087,-1.83571,-7.45999,11.0029,0.102922,-1.66366,15.4303,-9.94076,-3.39346,-17.1264,-3.43394,-1.67145,-7.85856,-1.59508e-13,4.33102e-14,-62.8342,-13.9168,-58.4749,113.898,13.3701,1.22549,8.30923,7.12502,26.7637,-19.8175,-1.59508e-13,4.33102e-14,-23.8531,7.62496,80.7991,124.283,49.0003,-17.1581,35.211,7.12502,9.08277,64.9954,-27.3942,28.0263,2.68602,48.2074,9.60849,8.89657,14.1754,-13.6109,2.14063,-4.61191,58.4241,-37.9767,5.35597,-19.2023
19.4051,16.4686,-3.2316,-1.86538,-5.90042,-14.3171,8.2041,-10.8839,-5.24785,-0.540213,-14.9021,6.82592,-1.8931,-7.48743,11.1891,0.20993,-1.73727,15.3651,-9.90846,-3.48017,-17.1468,-3.45724,-1.70625,-7.84918,2.33471e-14,2.5314e-15,-62.9854,-13.7733,-58.2469,113.874,12.3297,-0.162835,8.00443,7.12502,25.4344,-20.3186,2.33471e-14,2.5314e-15,-23.3683,7.23828,81.2872,124.08,47.9897,-16.5622,33.7322,7.12502,9.65779,63.4908,-26.9475,28.0953,2.64272,48.2684,9.29166,8.92659,12.9835,-13.5884,1.77444,-4.71608,58.4223,-38.0099,5.30143,-19.3694
19.3674,16.4584,-3.21328,-1.94789,-5.26785,-14.275,8.17233,-10.9884,-5.20409,-0.54822,-15.0366,6.80803,-1.8703,-7.55611,11.1402,0.408395,-1.84591,15.5344,-10.2454,-3.64381,-17.2281,-3.622,-1.78092,-7.90535,3.82457e-14,-3.20447e-14,-62.9088,-13.7197,-58.3702,113.724,11.2326,-1.84064,7.51631,7.12502,23.8262,-21.0261,3.82457e-14,-3.20447e-14,-22.9305,7.02041,81.6596,123.988,46.8275,-15.623,32.294,7.12502,10.5638,62.0085,-26.4162,28.037,2.83259,48.3131,8.77264,9.1272,10.6828,-13.7159,1.31881,-4.60747,58.5141,-38.0004,5.18136,-19.3521
19.3245,16.4514,-3.20239,-1.85656,-4.74919,-14.421,7.99119,-11.0359,-4.93576,-0.532473,-15.0687,6.81981,-1.81248,-7.5774,10.9701,-0.235561,-1.65134,15.6239,-9.6404,-3.3833,-17.1762,-3.29029,-1.68578,-7.9076,-2.94434e-14,-4.61429e-14,-62.8232,-13.7531,-58.5944,113.596,10.0759,-3.33147,6.99994,7.12502,22.3958,-21.7218,-2.94434e-14,-4.61429e-14,-22.4616,6.72426,81.9509,124.004,45.9808,-13.612,31.743,7.12502,12.5032,61.3489,-26.1799,28.065,3.14449,48.3406,8.51659,9.03044,10.2824,-14.0488,1.0445,-4.2314,58.6687,-37.9746,5.18393,-20.4358
19.2789,16.4493,-3.18956,-1.69465,-4.21482,-14.5154,7.80694,-11.0513,-4.80568,-0.651232,-15.0699,6.91249,-1.84462,-7.57443,10.9747,-0.148559,-1.85233,15.5328,-9.786,-3.65864,-17.0868,-3.39332,-1.81702,-7.85256,-1.02578e-13,1.85864e-14,-62.8049,-13.4706,-58.7297,113.568,8.66427,-4.93404,6.27857,7.12502,20.8568,-22.6203,-1.02578e-13,1.85864e-14,-22.2005,6.48622,82.4139,124.002,45.2816,-12.4154,31.1972,7.12502,13.6567,60.7291,-25.9987,28.0635,3.38355,48.3466,8.28599,8.38117,11.5651,-14.4594,0.787054,-3.89355,58.7967,-37.9223,5.29425,-21.8221
19.236,16.4453,-3.16421,-1.70933,-3.60378,-14.378,7.70081,-11.0526,-4.97646,-0.744812,-15.0843,6.98825,-1.8181,-7.58056,11.1287,-0.0770341,-2.01705,15.4036,-9.99293,-3.89496,-17.0018,-3.50356,-1.92812,-7.79427,1.01309e-13,5.01931e-15,-62.5957,-13.1367,-58.8967,113.567,6.94832,-6.61741,5.39123,7.12502,19.2387,-23.6772,1.01309e-13,5.01931e-15,-22.0789,6.34433,83.0595,123.993,44.6375,-11.8093,30.2666,7.12502,14.2408,59.7584,-25.4548,27.9016,3.49928,48.3494,7.62878,7.8377,10.0655,-14.6295,0.327677,-3.86318,58.8675,-37.9633,5.0517,-21.7162
19.2003,16.4392,-3.14212,-2.00155,-3.47184,-14.2669,8.19954,-10.9288,-4.80555,-0.975877,-14.9008,6.85318,-2.4568,-7.43857,11.0583,0.0542714,-2.07541,15.4645,-9.76258,-3.92233,-16.9669,-3.46524,-1.9381,-7.78693,3.88702e-14,-5.36097e-14,-62.7835,-12.531,-59.2473,113.596,4.8891,-8.53835,4.62327,7.12502,17.3908,-24.6187,3.88702e-14,-5.36097e-14,-22.5925,6.08908,83.3397,124.098,44.0232,-10.0972,29.3355,7.12502,15.8901,58.7035,-24.7929,27.9664,3.70313,48.3568,6.85673,7.76134,8.16366,-14.2869,0.102042,-3.85336,58.9177,-38.0616,4.42385,-20.1133
19.1673,16.4245,-3.12979,-2.23724,-3.63986,-14.2925,8.01691,-10.7377,-4.59139,-0.633596,-14.6245,6.75028,-2.13433,-7.32813,10.746,-0.155816,-2.06498,15.4892,-9.97891,-3.94287,-16.7952,-3.4941,-1.96333,-7.73794,-1.88335e-13,1.69899e-14,-62.0855,-12.3466,-59.9571,113.555,2.816,-10.2919,4.0622,7.12502,15.7026,-25.3207,-1.88335e-13,1.69899e-14,-22.1619,6.02202,83.4771,124.118,43.4958,-8.27208,28.6609,7.12502,17.647,57.8801,-24.3872,28.166,3.94692,48.3752,6.12075,7.7816,7.35677,-13.9476,0.179847,-3.68502,59.0236,-38.1078,4.16905,-19.4407
19.1294,16.4045,-3.11559,-2.15317,-3.49935,-14.1939,7.68775,-10.5922,-4.50317,-0.533719,-14.416,6.72229,-1.92149,-7.23679,10.5798,-0.192091,-2.15421,15.3797,-10.3308,-4.09005,-16.5671,-3.61103,-2.04046,-7.64144,-2.07885e-14,-3.00041e-14,-61.3875,-12.3166,-60.4231,113.473,0.935158,-11.4422,3.74477,7.12502,14.5945,-25.7217,-2.07885e-14,-3.00041e-14,-21.8721,5.92141,83.7682,124.149,43.155,-7.02741,28.5489,7.12502,18.8445,57.6561,-24.2166,28.1028,3.93569,48.3949,5.13283,7.65645,5.23742,-14.1078,0.164509,-3.62709,59.2144,-38.1245,4.32601,-20.3937
19.0897,16.3922,-3.09547,-2.07382,-3.21683,-14.0291,7.37651,-10.4214,-4.47165,-0.502565,-14.1778,6.66654,-1.79007,-7.12195,10.4296,-0.303979,-2.32052,15.1804,-10.4916,-4.32953,-16.2995,-3.67198,-2.16418,-7.50937,6.95746e-15,4.14963e-15,-60.7669,-12.3476,-60.8551,113.367,-1.10959,-12.7481,3.16402,7.12502,13.336,-26.3892,6.95746e-15,4.14963e-15,-21.7174,5.66386,84.1093,124.139,42.9279,-5.63257,28.7466,7.12502,20.1855,57.7178,-23.8675,27.9449,3.92769,48.35,4.11378,7.42077,3.82835,-14.3405,0.0121217,-3.6418,59.4141,-38.1582,4.18754,-20.3332
19.0544,16.3791,-3.07722,-2.10767,-3.07625,-13.8489,7.24237,-10.2629,-4.41644,-0.52041,-13.9552,6.64335,-1.80034,-7.00681,10.3497,-0.349352,-2.49555,14.6645,-10.5718,-4.57161,-16.0176,-3.71228,-2.2752,-7.31464,-1.48535e-13,2.95568e-14,-60.0876,-11.946,-61.4105,113.299,-3.47417,-14.5509,2.42183,7.12502,11.5979,-27.2372,-1.48535e-13,2.95568e-14,-21.9133,5.68288,84.3501,124.229,42.9539,-3.78935,29.0367,7.12502,21.9562,57.8106,-23.3877,27.7649,3.95385,48.2036,3.31215,7.09226,3.64626,-14.3954,-0.11451,-3.72134,59.5819,-38.2899,4.13613,-20.1368
19.0243,16.3671,-3.05878,-2.10577,-3.0371,-13.6928,7.2569,-10.1237,-4.22445,-0.693129,-13.7437,6.62686,-2.08271,-6.87894,10.2607,-0.119056,-2.57828,14.3474,-10.6988,-4.67192,-15.9449,-3.79707,-2.30465,-7.22899,9.71335e-14,-2.77305e-14,-59.5344,-11.3231,-61.9229,113.38,-5.93905,-15.9704,2.03015,7.12502,10.2287,-27.7012,9.71335e-14,-2.77305e-14,-22.6217,5.81402,84.459,124.51,43.2252,-1.46794,30.1533,7.12502,24.1836,58.6487,-23.0075,27.5058,3.96192,47.9772,2.40461,6.74294,3.66849,-14.3703,-0.184347,-3.80922,59.7201,-38.5599,4.29964,-20.9871
18.9898,16.3598,-3.03465,-2.17149,-2.93058,-13.6667,7.55747,-9.9832,-3.84701,-1.00877,-13.5109,6.56288,-2.73005,-6.71815,10.1073,0.0479466,-2.59877,14.4512,-10.5078,-4.67226,-16.1388,-3.77533,-2.29445,-7.30728,1.27579e-14,-3.60297e-15,-59.3679,-10.6783,-62.2815,113.594,-8.43502,-16.8738,1.66239,7.12502,9.35709,-28.1099,1.27579e-14,-3.60297e-15,-23.6595,5.86755,84.4515,124.744,43.4684,-0.304151,29.9857,7.12502,25.299,58.328,-22.4251,27.2212,4.21314,47.6984,0.929989,6.7685,0.625279,-14.2444,-0.29783,-3.69908,59.8105,-38.7416,4.24175,-21.3289
18.9446,16.3356,-3.01291,-2.29084,-2.83469,-13.7737,6.99344,-9.80314,-3.55157,-0.609201,-13.2472,6.49441,-2.13227,-6.62825,9.70132,-0.156902,-2.57289,14.6003,-10.76,-4.68547,-16.1451,-3.81964,-2.31423,-7.34171,9.69316e-14,-1.87603e-14,-58.2559,-10.6675,-63.0214,113.619,-10.7425,-18.0489,1.17311,7.12502,8.22318,-28.6469,9.69316e-14,-1.87603e-14,-23.4405,5.85896,84.4152,124.691,43.7491,0.73218,29.8657,7.12502,26.2915,58.0638,-21.7436,27.0009,4.67958,47.4561,-0.695049,6.77461,-4.50976,-14.1192,-0.334798,-3.34582,59.9405,-38.7719,3.99437,-21.1214
18.9005,16.3154,-2.99565,-2.37889,-2.87187,-13.7902,6.73578,-9.53346,-3.36391,-0.454531,-12.8701,6.5065,-1.93631,-6.45205,9.53761,-0.321071,-2.58758,14.4717,-10.7926,-4.72843,-16.1013,-3.80408,-2.33841,-7.30503,7.96459e-14,-6.15736e-14,-57.3003,-10.4512,-63.536,113.684,-13.0544,-19.1926,0.698953,7.12502,7.11926,-29.1613,7.96459e-14,-6.15736e-14,-23.637,5.83981,84.5444,124.761,44.029,1.42628,30.1455,7.12502,26.9558,58.2427,-21.1889,26.8649,5.00722,47.1866,-1.42987,6.10253,-5.53047,-13.9799,-0.239153,-3.09635,60.0359,-38.8563,3.73081,-20.9342
18.8628,16.3032,-2.98132,-2.41299,-2.88613,-13.7214,6.60878,-9.24248,-3.17817,-0.394776,-12.4626,6.48669,-1.92225,-6.24802,9.38109,-0.526648,-2.63284,14.3417,-10.8165,-4.80849,-15.9813,-3.78374,-2.38494,-7.24133,7.22812e-14,-4.64752e-14,-56.3979,-10.2886,-64.0017,113.784,-15.5376,-20.0092,0.662277,7.12502,6.33095,-29.2231,7.22812e-14,-4.64752e-14,-24.0248,5.84871,84.5612,124.814,44.0578,2.47364,30.2994,7.12502,27.9575,58.2376,-20.7706,26.6691,5.17723,46.8989,-1.57568,5.19763,-3.66127,-13.9454,-0.264923,-3.01269,60.1246,-38.9507,3.70754,-21.0857
18.8316,16.2951,-2.96511,-2.48374,-2.9714,-13.6932,6.62862,-8.95442,-2.83709,-0.418666,-12.0431,6.4512,-2.11135,-6.02747,9.164,-0.608393,-2.66611,14.3137,-10.746,-4.85961,-16.0212,-3.75714,-2.4106,-7.2476,5.84396e-14,-6.7593e-14,-55.658,-10.0013,-64.5011,113.947,-18.0616,-20.9167,0.571872,7.12502,5.45474,-29.3379,5.84396e-14,-6.7593e-14,-24.6392,5.93245,84.4982,124.765,43.9644,3.45123,30.0316,7.12502,28.8916,57.8139,-20.3115,26.4843,5.37245,46.5576,-1.75988,4.62618,-2.19683,-13.8384,-0.37977,-2.93897,60.1976,-38.9411,3.42805,-20.2996
18.7992,16.2836,-2.94548,-2.60723,-3.20458,-13.4231,6.51064,-8.64316,-2.66687,-0.329372,-11.6124,6.28997,-2.09535,-5.81054,8.86156,-0.936607,-2.61481,14.3742,-10.4825,-4.81327,-16.1742,-3.61951,-2.39933,-7.31248,-1.97122e-14,-1.04269e-14,-54.8059,-9.7612,-65.1574,114.13,-20.2154,-21.9173,0.20377,7.12502,4.48859,-29.7287,-1.97122e-14,-1.04269e-14,-25.1671,6.10141,84.3169,124.719,44.0906,3.39265,29.8765,7.12502,28.8357,57.6684,-19.8163,26.2715,5.31171,46.2365,-2.57499,4.34907,-4.72206,-13.5846,-0.329681,-3.12743,60.2862,-38.969,3.03047,-19.1279
18.7653,16.2703,-2.9278,-2.6007,-3.33682,-13.0843,6.2172,-8.37693,-2.55205,-0.243893,-11.2488,6.10675,-1.96442,-5.63144,8.53544,-1.17874,-2.55731,14.4254,-10.4335,-4.75919,-16.2062,-3.55633,-2.38347,-7.33733,-1.28853e-14,-2.23881e-14,-53.8162,-9.55227,-65.9022,114.273,-22.0208,-22.7996,-0.0985345,7.12502,3.63666,-30.0473,-1.28853e-14,-2.23881e-14,-25.6794,6.40185,83.9823,124.63,44.1846,3.02264,29.7911,7.12502,28.4822,57.6428,-19.4555,25.8498,5.11654,45.9609,-3.7792,4.09565,-9.92823,-13.5399,-0.251313,-3.38467,60.4073,-39.0115,3.20404,-19.3523
18.7302,16.2583,-2.90913,-2.53564,-3.44487,-13.0355,5.99068,-8.13113,-2.20455,-0.283664,-10.8907,6.05465,-2.01335,-5.44851,8.25046,-0.847313,-2.56736,14.3741,-10.7772,-4.75669,-16.0921,-3.71092,-2.36766,-7.29063,-1.26778e-13,4.86153e-14,-52.8685,-9.21763,-66.5572,114.393,-23.7518,-23.3539,-0.477288,7.12502,3.10131,-30.4345,-1.26778e-13,4.86153e-14,-26.4394,6.74416,83.6495,124.503,44.065,3.55332,30.0832,7.12502,28.9892,57.8488,-19.1754,25.4536,5.23274,45.7365,-4.55074,3.86781,-11.4499,-13.5513,-0.156127,-3.27982,60.5341,-38.9698,3.45291,-20.248
18.6904,16.2474,-2.88572,-2.63803,-3.62297,-13.0617,5.84947,-7.81937,-1.77947,-0.248919,-10.4418,5.96355,-2.06108,-5.22205,7.88652,-0.452494,-2.59906,14.3212,-11.1064,-4.76997,-15.9448,-3.87472,-2.35809,-7.23108,-1.28415e-13,3.81667e-14,-51.9215,-9.04916,-67.1587,114.426,-25.24,-23.5948,-0.944128,7.12502,2.86867,-30.9046,-1.28415e-13,3.81667e-14,-27.2489,6.8916,83.2792,124.533,44.0578,4.80842,31.1823,7.12502,30.1872,58.7355,-18.7295,25.1878,5.54667,45.5328,-5.1884,3.63689,-10.1676,-13.2801,-0.0276852,-3.03647,60.6336,-38.9691,3.25917,-20.3528
18.651,16.2346,-2.86961,-2.79556,-3.82032,-12.7636,5.73678,-7.36239,-1.62307,-0.125204,-9.82255,5.70426,-2.0321,-4.91074,7.47951,-0.769621,-2.68388,14.6627,-10.8233,-4.90283,-16.1337,-3.76995,-2.44339,-7.34859,6.35987e-14,-6.43565e-14,-50.9899,-9.12217,-67.8464,114.443,-26.087,-24.7818,-1.4735,7.12502,1.72234,-31.4463,6.35987e-14,-6.43565e-14,-27.9652,6.61379,82.8811,124.628,44.0903,6.20965,32.2595,7.12502,31.5231,59.5599,-18.3317,24.8448,5.45044,45.3095,-5.71975,3.63112,-8.06679,-12.9826,0.0176277,-3.19314,60.7004,-38.9073,2.83263,-19.376
