JuanDHNZ/ProyectoFinalCD/preprocessing/sports_trials_csv/55_19.csv
root1,root2,root3,root4,root5,root6,lowerback1,lowerback2,lowerback3,upperback1,upperback2,upperback3,thorax1,thorax2,thorax3,lowerneck1,lowerneck2,lowerneck3,upperneck1,upperneck2,upperneck3,head1,head2,head3,rclavicle1,rclavicle2,rhumerus1,rhumerus2,rhumerus3,rradius1,rwrist1,rhand1,rhand2,rfingers1,rthumb1,rthumb2,lclavicle1,lclavicle2,lhumerus1,lhumerus2,lhumerus3,lradius1,lwrist1,lhand1,lhand2,lfingers1,lthumb1,lthumb2,rfemur1,rfemur2,rfemur3,rtibia1,rfoot1,rfoot2,rtoes1,lfemur1,lfemur2,lfemur3,ltibia1,lfoot1,lfoot2,ltoes1
20.5661,16.5533,-25.85,14.4618,-29.0866,-0.0299433,25.297,-0.658584,1.84548,3.36289,-0.508322,-0.641168,-10.3791,-0.357465,-1.60262,-5.56648,6.29713,13.7379,-6.38628,7.22246,-20.8089,0.485495,3.4506,-8.50237,4.96962e-16,-2.10712e-14,-13.1336,-48.7688,-27.6472,26.394,-5.5068,-45.5142,12.1878,7.12502,-18.2784,-16.9734,4.96962e-16,-2.10712e-14,-11.3874,26.5388,23.2397,32.0412,51.5061,-37.0625,42.0141,7.12502,-10.1349,71.75,-38.4753,-4.58721,6.45516,50.0068,-23.6467,-9.64049,-25.4359,-41.6418,3.20026,-4.47342,48.6669,-19.1606,-3.93987,-33.8383
20.5774,16.5459,-25.8554,14.3505,-29.1927,-0.154496,25.1641,-0.655907,2.02589,3.67392,-0.470574,-0.678563,-9.95718,-0.34277,-1.76028,-5.26175,6.10406,13.7841,-6.57731,6.96021,-20.7498,0.332264,3.33906,-8.52061,9.39258e-15,-9.93923e-16,-11.5501,-48.7217,-29.5201,26.0368,-4.83397,-46.0754,12.6866,7.12502,-18.8182,-16.4231,9.39258e-15,-9.93923e-16,-10.6329,26.1511,24.1502,31.7616,51.1271,-36.8727,41.7147,7.12502,-9.95186,71.4594,-38.4517,-4.51993,6.52941,50.1402,-23.9344,-9.09983,-24.3168,-41.4153,3.30701,-4.41961,48.7322,-19.4303,-3.67065,-35.2324
20.5846,16.5421,-25.8648,14.3516,-29.0676,-0.368585,24.971,-0.726383,2.38508,3.95993,-0.478826,-0.692724,-9.5365,-0.353412,-1.97956,-4.96197,5.96243,13.8124,-6.7817,6.77103,-20.6041,0.183341,3.26376,-8.50167,-1.86858e-14,3.37934e-14,-10.3739,-48.1992,-31.1846,26.1201,-4.63431,-46.5504,12.7993,7.12502,-19.275,-16.2655,-1.86858e-14,3.37934e-14,-9.86324,25.8123,25.0428,31.7227,51.1589,-36.932,41.3325,7.12502,-10.009,71.0745,-38.4109,-4.54508,6.74562,50.2593,-24.0453,-8.88956,-23.8389,-41.3918,3.35535,-4.23588,48.7428,-19.541,-3.78379,-35.4403
20.5865,16.535,-25.8756,14.2607,-28.9094,-0.332094,24.7639,-0.75344,2.49617,4.20307,-0.499065,-0.729449,-9.15764,-0.360823,-2.07727,-4.64744,5.76558,13.7643,-6.89342,6.52623,-20.3321,0.0388272,3.15937,-8.42853,-2.45996e-14,1.32192e-14,-9.41098,-47.4052,-32.6383,26.2493,-5.06385,-47.1538,12.6203,7.12502,-19.8551,-16.3855,-2.45996e-14,1.32192e-14,-8.88539,25.8713,26.0765,31.5163,50.8405,-36.1184,39.6862,7.12502,-9.22404,69.4644,-38.405,-4.67884,6.74704,50.3919,-23.9871,-8.89567,-24.2723,-41.3871,3.32228,-4.274,48.7364,-19.5916,-3.54985,-36.8176
20.5858,16.5267,-25.8881,14.1373,-28.8414,-0.27528,24.6597,-0.713484,2.52144,4.42378,-0.456075,-0.797227,-8.85476,-0.337205,-2.18003,-4.63248,5.56624,13.8846,-6.64397,6.2862,-20.1433,0.0587178,3.03116,-8.39614,4.71617e-14,-9.93923e-15,-8.59262,-46.9826,-33.8036,26.1452,-5.15953,-47.3712,12.601,7.12502,-20.0642,-16.383,4.71617e-14,-9.93923e-15,-7.61902,26.3369,27.2305,31.1614,50.0881,-35.4863,38.8026,7.12502,-8.61407,68.6068,-38.4056,-4.69931,6.71998,50.5107,-23.9106,-9.07541,-24.8036,-41.3149,3.31796,-4.31845,48.6984,-19.6111,-3.054,-38.7812
20.5889,16.5238,-25.9012,14.1144,-28.7546,-0.376703,24.439,-0.933944,2.72365,4.5596,-0.696553,-0.789496,-8.60388,-0.45161,-2.21218,-3.69397,5.48746,13.3945,-7.00195,6.25423,-19.78,-0.242538,3.07716,-8.22393,-5.55603e-14,1.44119e-14,-7.2049,-46.187,-35.3551,25.9662,-4.49148,-46.7621,12.7997,7.12502,-19.4786,-16.2447,-5.55603e-14,1.44119e-14,-7.41585,26.7223,27.757,31.1472,49.8196,-37.0024,42.1876,7.12502,-10.0769,71.9264,-38.3974,-4.68425,6.84118,50.6083,-23.959,-9.09879,-24.4419,-41.2834,3.33865,-4.21085,48.6329,-19.5835,-2.84386,-39.5758
20.5933,16.5214,-25.9122,14.0495,-28.649,-0.332243,24.2217,-0.889531,2.87125,4.81387,-0.623268,-0.878635,-8.20594,-0.414196,-2.41824,-3.50402,5.34576,13.4931,-7.20103,6.05932,-19.5718,-0.371363,2.98877,-8.19184,2.88238e-14,2.76311e-14,-6.56247,-45.9515,-36.3388,25.9098,-4.11484,-46.566,13.0957,7.12502,-19.29,-15.9676,2.88238e-14,2.76311e-14,-6.16128,26.7911,28.8739,30.9456,49.6036,-35.3259,39.5701,7.12502,-8.4593,69.3807,-38.379,-4.75753,6.81755,50.6833,-24.0014,-8.99913,-23.9473,-41.2693,3.27882,-4.2379,48.5478,-19.5093,-2.97006,-39.234
20.5954,16.5186,-25.9227,13.9278,-28.6203,-0.116726,24.0723,-0.877579,2.76586,4.956,-0.648184,-0.952584,-7.97268,-0.419846,-2.4314,-3.23158,5.25446,13.4959,-7.20574,5.9674,-19.4241,-0.441796,2.95463,-8.15547,4.00551e-14,-2.19657e-14,-5.53758,-45.6784,-37.6137,25.5986,-3.37398,-46.7746,13.2379,7.12502,-19.4906,-15.8052,4.00551e-14,-2.19657e-14,-5.36648,26.5302,29.7754,30.7127,49.311,-36.1046,39.5533,7.12502,-9.21071,69.3321,-38.4026,-4.81552,6.63022,50.717,-23.8886,-9.29037,-24.4275,-41.2703,3.22413,-4.43637,48.4552,-19.4207,-3.12686,-38.7658
20.5972,16.5213,-25.9314,13.8456,-28.7014,0.0294212,23.8674,-0.849315,2.67204,5.12771,-0.651641,-1.03417,-7.67729,-0.414924,-2.46594,-3.13716,5.17803,13.4962,-7.03165,5.89876,-19.2866,-0.426958,2.92015,-8.11205,-1.33186e-14,1.70955e-14,-4.27772,-45.8912,-39.195,25.1809,-1.84,-46.8932,12.7537,7.12502,-19.6046,-16.2778,-1.33186e-14,1.70955e-14,-4.66161,26.2337,30.6023,30.5261,48.813,-36.8636,40.1942,7.12502,-9.94301,69.9394,-38.4551,-4.79358,6.493,50.715,-23.7744,-9.4724,-25.1006,-41.2146,3.26023,-4.60913,48.3673,-19.4673,-2.9138,-39.2383
20.5998,16.5287,-25.935,13.8007,-28.7757,-0.0190477,23.5789,-0.910647,2.79285,5.35641,-0.719943,-1.09419,-7.28208,-0.442898,-2.58084,-2.63142,5.10326,13.3791,-7.32781,5.82006,-19.126,-0.621258,2.91106,-8.06239,1.5704e-14,-3.45885e-14,-2.6526,-46.0167,-41.2489,24.9799,-0.80564,-47.2832,12.2239,7.12502,-19.9795,-16.769,1.5704e-14,-3.45885e-14,-4.06402,26.3483,31.3341,30.3092,48.2603,-36.8166,40.249,7.12502,-9.89769,69.9963,-38.4065,-4.75298,6.52673,50.6867,-23.694,-9.32708,-25.0905,-41.0492,3.27891,-4.59303,48.2932,-19.4539,-2.95828,-38.9672
20.6031,16.5315,-25.9427,13.6058,-28.7451,0.0145689,23.6054,-0.731161,2.90338,5.63352,-0.479041,-1.20173,-6.97548,-0.323638,-2.83179,-2.97242,4.93588,13.8801,-7.1531,5.56847,-19.1632,-0.539082,2.75491,-8.16026,-1.35174e-14,5.81445e-14,-2.24089,-46.1192,-42.1354,24.9962,-0.487304,-47.4192,12.2575,7.12502,-20.1102,-16.7217,-1.35174e-14,5.81445e-14,-2.38423,26.3326,32.7725,30.0138,47.8835,-36.9277,40.0016,7.12502,-10.0049,69.7438,-38.2034,-4.77324,6.48792,50.6636,-23.6715,-9.27752,-24.8218,-40.8274,3.18254,-4.61017,48.2336,-19.4388,-3.16889,-38.3567
20.6062,16.5263,-25.9609,13.4544,-28.598,-0.00253082,23.6111,-0.92529,3.00182,5.74996,-0.705551,-1.17038,-6.86643,-0.430653,-2.78814,-2.23661,4.89312,13.3391,-7.38808,5.58067,-18.7635,-0.763355,2.80668,-7.9579,2.5842e-14,1.39149e-15,-0.852819,-45.223,-43.7486,24.7081,0.0245741,-47.5085,12.4354,7.12502,-20.1961,-16.5347,2.5842e-14,1.39149e-15,-2.19152,26.1568,33.4433,30.1599,47.8733,-37.1569,40.2528,7.12502,-10.226,69.9842,-38.0313,-4.79355,6.52543,50.6663,-23.7312,-9.36202,-24.8587,-40.7489,3.07289,-4.53795,48.1826,-19.4265,-3.26343,-37.8697
20.6086,16.5205,-25.9798,13.4409,-28.4981,-0.0818897,23.445,-0.940851,3.16307,5.93251,-0.698929,-1.19309,-6.58148,-0.423206,-2.90734,-1.8677,4.77703,13.3369,-7.47026,5.45687,-18.6179,-0.876444,2.76108,-7.92598,1.2921e-14,9.34288e-15,0.322518,-45.2897,-45.2909,24.4723,0.581447,-47.6514,12.5936,7.12502,-20.3334,-16.362,1.2921e-14,9.34288e-15,-1.47086,25.4835,34.3557,30.4052,48.148,-37.5159,40.5001,7.12502,-10.5723,70.2141,-38.0259,-4.78454,6.62805,50.691,-23.7333,-9.41498,-24.9565,-40.7941,3.07301,-4.42428,48.1293,-19.3147,-3.50207,-37.1927
20.6114,16.5188,-25.9943,13.3887,-28.5466,-0.0350807,23.2519,-0.875044,3.21451,6.09612,-0.619323,-1.2779,-6.2983,-0.37929,-3.05166,-1.56581,4.64267,13.5158,-7.49788,5.29936,-18.6739,-0.954044,2.69354,-7.9896,-5.96354e-15,3.72721e-14,1.16173,-45.1042,-46.5509,24.4009,0.759865,-47.7327,12.5274,7.12502,-20.4116,-16.4198,-5.96354e-15,3.72721e-14,-0.64205,24.7273,35.2428,30.5401,48.4956,-37.6681,40.6108,7.12502,-10.7191,70.3173,-38.0905,-4.76343,6.58005,50.7308,-23.7886,-9.24292,-24.4829,-40.7743,3.13019,-4.46542,48.0574,-19.2129,-3.86959,-36.2487
20.6148,16.5192,-26.0035,13.3598,-28.6103,-0.0406686,23.122,-0.843792,3.3051,6.19861,-0.569766,-1.3352,-6.11652,-0.352061,-3.17959,-1.32435,4.56134,13.6231,-7.34842,5.23157,-18.686,-0.960624,2.66639,-8.01743,1.74931e-14,7.25564e-15,1.7717,-44.3979,-47.6158,24.4393,0.897445,-48.0856,12.2805,7.12502,-20.7507,-16.6301,1.74931e-14,7.25564e-15,0.0793943,24.14,36.0823,30.5751,48.5788,-37.7225,41.119,7.12502,-10.7716,70.8228,-38.1318,-4.72835,6.57183,50.7716,-23.8678,-9.09345,-24.0725,-40.7044,3.20395,-4.47811,47.9648,-19.2162,-4.17534,-35.094
20.6189,16.5199,-26.0107,13.2786,-28.6019,0.0483934,23.0086,-0.898837,3.34091,6.26201,-0.643222,-1.41167,-5.99595,-0.38472,-3.26279,-0.956772,4.51163,13.5447,-7.20314,5.22945,-18.4663,-0.994109,2.67797,-7.9379,1.28216e-14,7.45443e-15,2.61133,-43.9409,-48.9574,24.3917,1.29082,-48.3887,12.3942,7.12502,-21.0419,-16.4842,1.28216e-14,7.45443e-15,0.441259,23.5342,36.7321,30.698,48.5915,-37.9155,41.0525,7.12502,-10.9577,70.7465,-38.1483,-4.75227,6.47879,50.8273,-23.895,-9.09145,-24.1845,-40.6309,3.21498,-4.59118,47.8516,-19.5133,-3.88903,-36.1312
20.6236,16.5192,-26.0222,13.1453,-28.5284,0.334197,22.8793,-1.006,3.23347,6.26841,-0.817325,-1.53039,-5.9379,-0.466308,-3.28229,-0.390112,4.44507,13.4626,-7.18712,5.20833,-18.2757,-1.10004,2.69106,-7.87645,-2.40529e-14,5.96354e-15,3.43781,-43.377,-50.2624,24.2603,1.58425,-48.3855,12.5411,7.12502,-21.0388,-16.3376,-2.40529e-14,5.96354e-15,0.564287,23.0278,37.269,30.8236,48.2418,-37.969,40.8572,7.12502,-11.0093,70.5485,-38.2106,-4.84758,6.20189,50.9053,-23.9612,-9.00738,-24.05,-40.6607,3.09092,-4.85997,47.7331,-19.6805,-3.31142,-38.3246
20.6265,16.5166,-26.0373,13.117,-28.4481,0.544791,22.6508,-1.08145,3.16397,6.29748,-0.942657,-1.6216,-5.80039,-0.523037,-3.30753,-0.0387248,4.37043,13.4733,-6.9844,5.17053,-18.1877,-1.11205,2.68299,-7.85523,-2.46493e-14,2.98177e-14,4.06932,-42.7319,-51.3139,24.1565,1.86116,-48.2585,12.9517,7.12502,-20.9168,-15.9406,-2.46493e-14,2.98177e-14,0.873554,22.6668,37.9753,30.8621,47.747,-37.9374,40.5679,7.12502,-10.9789,70.2609,-38.3466,-4.9392,6.0216,50.9813,-23.9497,-8.99861,-24.1642,-40.783,3.00898,-5.03929,47.6156,-19.5972,-3.29288,-38.2475
20.6279,16.5133,-26.0518,13.1398,-28.4377,0.582447,22.4011,-1.10073,3.20667,6.40384,-0.973638,-1.71409,-5.56105,-0.532598,-3.42466,0.121066,4.30646,13.6297,-6.71371,5.13586,-18.1487,-1.06546,2.6648,-7.86873,3.21037e-14,1.39149e-15,4.86107,-42.4955,-52.6081,23.9914,2.20793,-48.3035,13.6425,7.12502,-20.96,-15.245,3.21037e-14,1.39149e-15,1.39316,21.9358,38.6457,30.9499,47.9286,-38.1861,40.196,7.12502,-11.2188,69.876,-38.4779,-5.02446,6.03689,51.028,-23.8739,-9.06039,-24.6649,-40.8268,3.09605,-5.08853,47.4963,-19.5581,-3.52667,-37.1057
20.6286,16.5128,-26.0639,13.0981,-28.5493,0.58371,22.1815,-1.11524,3.20867,6.5581,-1.00828,-1.80743,-5.28513,-0.542871,-3.51837,0.426232,4.31182,13.6918,-6.68878,5.1835,-18.103,-1.1028,2.69977,-7.87118,-6.1822e-14,4.79071e-14,5.94481,-42.2194,-54.1795,23.807,2.49115,-48.557,13.6999,7.12502,-21.2036,-15.1605,-6.1822e-14,4.79071e-14,1.78354,20.8407,39.0201,31.0649,48.656,-38.6261,40.6203,7.12502,-11.6431,70.2768,-38.524,-4.9938,6.0602,51.028,-23.8102,-9.06847,-24.6608,-40.7176,3.19741,-5.10033,47.3797,-19.4731,-3.50186,-37.2279
20.6283,16.5154,-26.0757,13.1711,-28.6689,0.373549,21.965,-1.12764,3.31386,6.68388,-1.00925,-1.78155,-5.03834,-0.53805,-3.55085,0.61022,4.30547,13.4754,-6.43987,5.22565,-17.887,-1.07122,2.72595,-7.76121,-3.08116e-14,2.127e-14,6.84696,-41.3669,-55.3866,23.7246,2.47892,-48.7635,13.4427,7.12502,-21.4019,-15.3952,-3.08116e-14,2.127e-14,2.10382,19.8685,39.4779,31.1581,49.2894,-38.9053,41.191,7.12502,-11.9124,70.8321,-38.5487,-4.79328,6.26279,50.9921,-23.7507,-9.1917,-24.5247,-40.6155,3.31374,-4.87864,47.2742,-19.3796,-3.39561,-37.8308
20.6292,16.5154,-26.0912,13.3206,-28.6327,0.0946776,21.7998,-1.16199,3.54594,6.74746,-1.00738,-1.7296,-4.88589,-0.5337,-3.62868,0.698697,4.23422,13.3233,-6.02301,5.18939,-17.6195,-0.988253,2.70377,-7.64155,-4.77083e-14,5.62561e-14,7.46476,-40.6598,-56.3691,23.7022,2.58149,-48.4938,13.8222,7.12502,-21.1429,-15.0449,-4.77083e-14,5.62561e-14,2.62977,19.5845,40.2381,31.1734,49.1496,-38.7416,41.6029,7.12502,-11.7545,71.253,-38.6158,-4.71482,6.56301,50.9675,-23.7211,-9.22325,-24.3776,-40.6501,3.41783,-4.58987,47.1828,-19.3259,-3.13504,-39.3617
20.6321,16.5152,-26.106,13.3292,-28.5709,0.0573451,21.6376,-1.21468,3.63176,6.80726,-1.06622,-1.77116,-4.7448,-0.558339,-3.70842,1.07324,4.16765,13.3435,-5.95703,5.15209,-17.4642,-1.04457,2.69678,-7.60405,-1.11319e-14,-5.76476e-15,8.06098,-40.3296,-57.4769,23.6309,3.00279,-48.1161,13.9582,7.12502,-20.78,-14.9491,-1.11319e-14,-5.76476e-15,3.19967,19.6062,40.9854,31.0079,48.345,-38.4173,41.7105,7.12502,-11.4417,71.3783,-38.6758,-4.75712,6.62413,50.9695,-23.7269,-8.94772,-23.8363,-40.6755,3.45757,-4.54734,47.0944,-19.2521,-3.11045,-39.9374
20.634,16.5161,-26.1154,13.2551,-28.5715,0.0611944,21.4538,-1.23167,3.70337,6.88254,-1.08541,-1.84124,-4.57274,-0.562686,-3.82122,1.57979,4.07274,13.3789,-5.93912,5.0849,-17.3307,-1.14044,2.68087,-7.58149,5.92378e-14,-4.79071e-14,8.54501,-39.874,-58.4517,23.5488,3.26856,-48.0681,13.0997,7.12502,-20.7339,-15.8126,5.92378e-14,-4.79071e-14,3.74886,19.0111,41.5504,30.7928,47.8746,-38.0847,41.4591,7.12502,-11.1209,71.1445,-38.6592,-4.72736,6.61753,50.9882,-23.7536,-8.74334,-23.3766,-40.5638,3.46236,-4.54372,47.0057,-19.2465,-3.29847,-39.1239
20.6347,16.5175,-26.1271,13.1807,-28.6101,0.0936056,21.2226,-1.19617,3.74147,6.97159,-1.04593,-1.91506,-4.35573,-0.537162,-3.93354,1.86234,3.95421,13.4005,-5.58178,4.99834,-17.1482,-1.10648,2.64076,-7.52731,-4.29375e-14,5.1684e-15,9.06623,-39.529,-59.3716,23.4444,3.54243,-47.8449,12.8003,7.12502,-20.5194,-16.1353,-4.29375e-14,5.1684e-15,4.35093,18.3452,42.1476,30.7376,47.7986,-37.5489,41.1807,7.12502,-10.6041,70.8932,-38.6566,-4.71816,6.59847,51.0086,-23.7862,-8.69218,-22.6435,-40.4522,3.44039,-4.54851,46.9197,-19.2379,-3.40944,-38.487
20.6352,16.5181,-26.1405,13.187,-28.6471,0.148241,20.8794,-1.16928,3.74056,7.03551,-1.0275,-1.98657,-4.1102,-0.521327,-4.01556,2.1131,3.84429,13.4681,-5.15605,4.92549,-17.0336,-1.04158,2.60615,-7.50079,-4.49253e-14,1.5704e-14,9.5215,-38.8234,-60.1882,23.2927,3.69789,-47.9005,12.4584,7.12502,-20.5728,-16.4714,-4.49253e-14,1.5704e-14,4.82592,18.0022,42.8048,30.7458,47.5983,-37.0426,40.7064,7.12502,-10.1158,70.4433,-38.7428,-4.77739,6.56967,51.0166,-23.8196,-8.67228,-22.1218,-40.47,3.50262,-4.60251,46.8385,-19.2328,-3.23169,-39.1144
20.6362,16.5148,-26.1517,13.2302,-28.6319,0.141013,20.5842,-1.16817,3.85618,7.0442,-1.01866,-2.09553,-3.95109,-0.511431,-4.20227,2.45202,3.70772,13.7213,-4.83551,4.82134,-16.9744,-1.01988,2.55895,-7.52937,2.3059e-14,4.92986e-14,9.56844,-37.6702,-60.7324,23.3487,3.34939,-47.9846,11.4827,7.12502,-20.6536,-17.4384,2.3059e-14,4.92986e-14,5.20344,17.1943,43.2769,30.7603,47.5472,-36.7484,40.3754,7.12502,-9.83194,70.1259,-38.8153,-4.83278,6.60604,51.0125,-23.8159,-8.77208,-22.8085,-40.5274,3.50785,-4.58138,46.7569,-19.2683,-2.93301,-39.9936
20.6363,16.514,-26.1635,13.1362,-28.7502,0.213404,20.485,-1.11284,3.82178,7.04414,-0.964952,-2.22737,-3.89626,-0.483171,-4.33776,2.65702,3.57025,13.8911,-4.39421,4.71462,-16.7865,-0.947608,2.50303,-7.49587,-5.96354e-16,2.98177e-14,9.73915,-36.9864,-61.445,23.3976,3.25105,-47.3741,11.6262,7.12502,-20.0669,-17.3576,-5.96354e-16,2.98177e-14,5.55459,16.3225,43.7255,30.8762,47.6704,-36.6376,40.7308,7.12502,-9.72496,70.4863,-38.8355,-4.75514,6.55169,51.0036,-23.7697,-8.85296,-23.4193,-40.4175,3.47648,-4.61488,46.6577,-19.2792,-2.97388,-39.5337
20.6325,16.5174,-26.1757,13.0018,-28.9764,0.226532,20.3509,-1.03787,3.67803,7.15123,-0.905475,-2.26983,-3.70535,-0.449606,-4.31488,2.65989,3.51942,13.8388,-3.84407,4.70087,-16.6464,-0.79903,2.48913,-7.43163,-3.18055e-15,0,10.5672,-37.0755,-62.6263,23.0811,4.22886,-46.5885,12.4568,7.12502,-19.3116,-16.6044,-3.18055e-15,0,5.74972,15.7431,44.2035,31.2058,47.9411,-36.6824,41.1584,7.12502,-9.76821,70.9119,-38.8037,-4.53036,6.53688,50.973,-23.7656,-8.57854,-22.8805,-40.1619,3.59661,-4.61856,46.5503,-19.3502,-2.93735,-39.663
20.6284,16.5169,-26.1894,12.9343,-29.0448,0.171063,20.1057,-1.02864,3.61217,7.32997,-0.915893,-2.24876,-3.38723,-0.446535,-4.25184,2.44624,3.57012,13.8585,-3.29004,4.79881,-16.704,-0.587238,2.52495,-7.43769,-1.68967e-14,-3.26007e-14,11.4253,-37.0574,-63.6457,22.9344,4.67017,-45.8871,12.7947,7.12502,-18.6371,-16.3325,-1.68967e-14,-3.26007e-14,5.8607,14.9204,44.5102,31.6053,48.4165,-36.8681,40.9818,7.12502,-9.94741,70.7267,-38.7505,-4.38215,6.60229,50.9251,-23.8318,-8.18586,-21.8307,-40.0152,3.67286,-4.53944,46.4485,-19.3946,-2.84223,-40.1614
20.63,16.5154,-26.1995,12.9027,-28.9158,0.0405491,19.9304,-1.10593,3.79408,7.47725,-0.988989,-2.22958,-3.14677,-0.473336,-4.31941,2.19364,3.57402,13.8078,-2.72499,4.83135,-16.5823,-0.383241,2.52419,-7.37392,4.17448e-14,1.39149e-14,11.8494,-36.4253,-64.2121,23.1232,4.21032,-45.4814,13.4068,7.12502,-18.2469,-15.7573,4.17448e-14,1.39149e-14,6.16267,14.1,44.8068,31.6934,48.5071,-36.3977,39.9624,7.12502,-9.49355,69.7285,-38.6091,-4.45327,6.76383,50.8743,-23.8641,-8.21349,-21.7234,-39.948,3.57102,-4.36465,46.365,-19.3423,-2.94988,-39.8115
20.6334,16.5177,-26.2066,12.8767,-28.758,-0.12576,19.7494,-1.21432,4.07963,7.58797,-1.08449,-2.22461,-2.94632,-0.510389,-4.45733,2.23457,3.49676,13.7465,-2.26971,4.77377,-16.4625,-0.274518,2.49135,-7.31997,2.74323e-14,1.51076e-14,12.295,-35.809,-64.8328,22.9894,4.63603,-45.2901,16.111,7.12502,-18.0628,-13.0703,2.74323e-14,1.51076e-14,6.50415,13.399,45.0937,31.6526,48.3004,-35.1747,38.8448,7.12502,-8.3134,68.6612,-38.4384,-4.63771,6.97277,50.8374,-23.8699,-8.24827,-21.9152,-39.8727,3.4536,-4.16341,46.3127,-19.3454,-3.04011,-39.5529
20.6336,16.5168,-26.2204,12.7458,-28.7817,-0.0730689,19.6385,-1.21339,3.98102,7.58454,-1.10373,-2.20944,-2.89431,-0.52011,-4.38041,2.66664,3.41063,13.7923,-1.99584,4.72924,-16.5774,-0.272297,2.48436,-7.37243,-1.59028e-15,1.03368e-14,12.2965,-34.7894,-64.9425,22.8395,4.84597,-44.3966,13.0424,7.12502,-17.203,-16.2161,-1.59028e-15,1.03368e-14,6.60252,12.4063,45.3011,31.6897,48.4594,-34.7296,39.022,7.12502,-7.88384,68.855,-38.3945,-4.7458,6.95884,50.8381,-23.909,-8.02434,-21.5991,-39.7636,3.49963,-4.20705,46.2685,-19.3978,-2.96414,-39.9335
20.6329,16.5103,-26.2381,12.6655,-28.8517,-0.126394,19.6094,-1.17663,3.90465,7.51699,-1.06515,-2.12441,-2.94637,-0.505247,-4.25348,3.20627,3.3325,13.7018,-1.77889,4.69683,-16.6367,-0.307657,2.48846,-7.38653,7.15625e-15,-4.25399e-14,11.7109,-33.1727,-64.4422,23.2178,3.90579,-43.7066,12.2425,7.12502,-16.5388,-17.0727,7.15625e-15,-4.25399e-14,6.5685,11.0511,45.4225,31.7247,48.8843,-34.6886,39.3519,7.12502,-7.8442,69.1863,-38.3898,-4.72887,7.04326,50.8566,-23.8637,-8.09273,-21.9419,-39.6565,3.65192,-4.14864,46.2161,-19.3608,-3.00585,-40.1609
20.6325,16.5091,-26.2518,12.563,-28.8118,-0.208498,19.5299,-1.21087,3.95591,7.54483,-1.09987,-2.05366,-2.87847,-0.520552,-4.19957,3.6628,3.29122,13.5229,-1.64909,4.69355,-16.5773,-0.354428,2.50363,-7.34577,-1.49089e-14,2.46493e-14,11.4053,-31.6654,-64.1347,23.7653,2.81737,-43.0315,11.653,7.12502,-15.8887,-17.7152,-1.49089e-14,2.46493e-14,6.53477,9.8007,45.4984,31.888,49.0942,-34.0864,39.0084,7.12502,-7.26294,68.8637,-38.2744,-4.71157,7.14613,50.8816,-23.8378,-8.2169,-22.3577,-39.522,3.65082,-4.02768,46.14,-19.3067,-3.19224,-39.8809
20.6311,16.5147,-26.2619,12.2654,-28.7782,0.0543751,19.4238,-1.21981,3.73715,7.62633,-1.15727,-2.09195,-2.74101,-0.547293,-4.10356,4.03717,3.24188,13.4392,-1.54801,4.67212,-16.4861,-0.396623,2.50571,-7.3098,-5.96354e-14,1.59028e-14,11.238,-30.0684,-63.8677,24.4198,1.5983,-42.0445,9.66061,7.12502,-14.938,-19.7807,-5.96354e-14,1.59028e-14,6.56706,8.75773,45.6276,32.1279,49.1407,-33.8068,39.2018,7.12502,-6.99302,69.0663,-38.1013,-4.77429,6.89164,50.9045,-23.9269,-7.99785,-21.9705,-39.3129,3.4956,-4.24217,46.032,-19.2602,-3.23764,-39.5096
20.6305,16.516,-26.2717,12.1443,-28.7118,0.222949,19.2174,-1.18726,3.60606,7.67738,-1.146,-2.12082,-2.5783,-0.538877,-4.06305,4.09371,3.16815,13.6182,-1.099,4.62875,-16.5718,-0.278498,2.48139,-7.36457,1.27222e-14,3.97569e-14,10.9635,-28.4117,-63.5843,25.2526,0.484687,-41.2396,6.48451,7.12502,-14.1625,-23.0128,1.27222e-14,3.97569e-14,6.73201,7.67062,45.7723,32.3281,49.1274,-33.6166,39.294,7.12502,-6.80943,69.1644,-38.0763,-4.83634,6.74074,50.9316,-23.9777,-7.81299,-21.3952,-39.2702,3.39233,-4.37581,45.9155,-19.1296,-3.36413,-38.9823
20.6282,16.5151,-26.2798,12.221,-28.6964,0.0649547,18.9703,-1.10499,3.70738,7.72276,-1.028,-2.08196,-2.39102,-0.474725,-4.10559,3.93122,3.08257,13.9542,-0.441612,4.57347,-16.7341,-0.0606172,2.44088,-7.46477,-7.89175e-14,1.19271e-15,10.6142,-26.8392,-63.4395,24.9489,2.23325,-44.9225,6.77332,7.12502,-17.7091,-22.4403,-7.89175e-14,1.19271e-15,6.91643,6.5554,45.8987,32.6164,49.0748,-33.0312,38.906,7.12502,-6.24436,68.794,-38.163,-4.79598,6.91111,51.0684,-24.1466,-7.58735,-20.4815,-39.3082,3.43824,-4.20454,45.9379,-19.1526,-3.527,-38.678
20.6239,16.5139,-26.291,12.249,-28.7842,-0.0185871,18.7263,-0.98387,3.69223,7.7494,-0.88003,-2.04829,-2.22163,-0.398248,-4.09221,4.08765,2.97742,14.0436,-0.120319,4.48324,-16.6649,-0.0094267,2.39787,-7.45911,-3.79679e-14,-2.46493e-14,10.8255,-27.47,-63.7159,24.5262,2.73935,-41.7792,10.8508,7.12502,-14.6824,-18.6093,-3.79679e-14,-2.46493e-14,7.04565,5.3052,45.9229,32.8224,49.0005,-32.3976,38.7288,7.12502,-5.63265,68.6339,-38.2748,-4.67049,6.99956,51.2051,-24.305,-7.41858,-19.9169,-39.2969,3.55541,-4.11597,45.994,-19.3057,-3.33624,-39.1999
20.6223,16.4685,-26.303,12.1839,-28.7547,0.027127,18.5247,-0.934882,3.60744,7.78616,-0.834898,-1.99972,-2.07308,-0.374231,-4.00136,4.35831,2.92114,13.9427,0.0478072,4.44732,-16.5612,-0.0175495,2.38785,-7.41278,-4.05521e-14,2.70347e-14,10.7733,-27.0507,-63.4804,24.5028,2.54316,-39.9493,12.7862,7.12502,-12.9189,-16.7939,-4.05521e-14,2.70347e-14,7.13617,3.87973,45.7891,32.8735,48.7306,-31.3657,38.1185,7.12502,-4.63631,68.0478,-38.4514,-4.6278,6.93045,51.4764,-24.3274,-7.58395,-20.2274,-39.4696,3.56458,-4.0908,46.2058,-19.3858,-3.14349,-39.6723
20.6224,16.4647,-26.312,12.0531,-28.5702,0.0555802,18.4706,-0.976527,3.60275,7.79373,-0.887376,-1.92538,-2.04136,-0.400181,-3.90889,4.29235,2.94434,13.92,0.638821,4.52573,-16.5339,0.173349,2.41753,-7.39222,5.46658e-14,-2.28602e-14,10.3793,-25.7054,-62.8788,24.8868,1.65387,-39.3384,12.6974,7.12502,-12.33,-16.919,5.46658e-14,-2.28602e-14,7.10401,2.49756,45.6189,33.0665,48.5587,-29.9488,36.632,7.12502,-3.26801,66.5867,-38.3262,-4.73124,6.93578,51.5822,-24.3311,-7.80806,-20.5514,-39.4859,3.39818,-4.05981,46.2794,-19.3592,-3.44902,-38.9256
20.6221,16.4653,-26.3221,11.9626,-28.4215,0.0888334,18.3919,-1.06293,3.58708,7.71635,-0.998475,-1.85646,-2.09322,-0.457792,-3.80404,4.23158,3.00625,13.8089,1.48015,4.67517,-16.4233,0.442173,2.47877,-7.32717,2.3059e-14,-4.07509e-14,10.1096,-24.5041,-62.5094,25.0597,1.24456,-38.6031,12.8694,7.12502,-11.6209,-16.7884,2.3059e-14,-4.07509e-14,6.77676,1.32326,45.4696,33.4753,48.5711,-28.9612,35.3309,7.12502,-2.31425,65.2981,-38.2633,-4.8629,6.95677,51.686,-24.4059,-7.96263,-20.8852,-39.5255,3.29484,-4.04624,46.3455,-19.3465,-3.76903,-38.2324
20.62,16.4675,-26.3285,11.9132,-28.3896,0.129065,18.1134,-1.17192,3.52144,7.65402,-1.15392,-1.79458,-2.02886,-0.535565,-3.67086,4.69874,3.0474,13.6121,1.8098,4.79972,-16.4672,0.473235,2.55365,-7.31432,2.40529e-14,2.90226e-14,10.0935,-23.6961,-62.4071,25.0247,1.26024,-36.6346,14.7444,7.12502,-9.72211,-15.0112,2.40529e-14,2.90226e-14,6.0844,0.187103,45.2314,34.1289,48.5391,-28.4219,34.7599,7.12502,-1.79335,64.7321,-38.2355,-4.93175,6.95928,51.6883,-24.4407,-8.09846,-21.3706,-39.4934,3.30759,-4.07117,46.2744,-19.2945,-3.86328,-38.1086
20.6164,16.4663,-26.3305,11.841,-28.4185,0.187354,17.762,-1.20188,3.42756,7.68422,-1.21738,-1.77024,-1.81888,-0.564306,-3.58193,5.2175,3.00683,13.6035,1.78712,4.79581,-16.6505,0.382393,2.57294,-7.38508,9.54166e-15,1.74931e-14,10.0767,-23.0397,-62.2209,25.0739,1.1168,-35.6381,15.5908,7.12502,-8.76054,-14.2074,9.54166e-15,1.74931e-14,5.63312,-0.942491,44.9835,34.7405,48.4706,-27.6772,34.154,7.12502,-1.07413,64.1311,-38.1987,-4.99932,6.91916,51.712,-24.4705,-8.17623,-21.9172,-39.3977,3.32006,-4.11689,46.2006,-19.2001,-3.94241,-37.8201
20.6103,16.4625,-26.3354,11.6656,-28.4948,0.292101,17.5516,-1.13024,3.2587,7.74744,-1.15831,-1.77283,-1.63546,-0.534272,-3.50188,5.35546,2.91975,13.6534,2.04538,4.71878,-16.6344,0.421619,2.53677,-7.39091,8.74653e-15,2.38542e-14,10.1032,-22.74,-62.1282,25.1674,1.18402,-35.1855,16.9753,7.12502,-8.32381,-12.8407,8.74653e-15,2.38542e-14,5.66615,-1.99018,44.8183,35,48.3058,-26.9474,33.4459,7.12502,-0.36932,63.4253,-38.1092,-4.97666,6.82374,51.7504,-24.4786,-8.22857,-22.2053,-39.1867,3.31598,-4.19436,46.1366,-19.2189,-3.72803,-38.2506
20.605,16.4615,-26.3414,11.4849,-28.59,0.372989,17.4248,-1.09765,3.03677,7.75411,-1.15099,-1.68733,-1.55845,-0.535226,-3.28722,5.57129,2.90408,13.4416,2.34538,4.73333,-16.5683,0.466776,2.5462,-7.33575,-4.05521e-14,-4.39314e-14,10.1423,-22.0842,-61.9736,25.3498,1.10913,-32.3594,21.614,7.12502,-5.59569,-8.29215,-4.05521e-14,-4.39314e-14,5.53479,-2.97394,44.6769,35.1666,48.147,-26.6395,32.7664,7.12502,-0.0719465,62.7461,-38.0248,-4.84012,6.73863,51.7974,-24.5261,-8.17584,-21.8701,-38.9678,3.4083,-4.27174,46.0854,-19.3059,-3.5286,-38.9656
20.6033,16.4608,-26.3452,11.464,-28.6848,0.339424,17.1694,-1.09325,2.96736,7.72012,-1.15715,-1.56757,-1.45977,-0.540049,-3.12171,5.96052,2.92226,13.225,2.59793,4.80602,-16.6608,0.481228,2.59217,-7.3356,2.04748e-14,-9.93923e-15,9.74826,-20.4491,-61.2537,25.8755,0.253292,-30.6641,23.1645,7.12502,-3.95875,-6.77844,2.04748e-14,-9.93923e-15,5.24329,-4.04392,44.4378,35.3932,48.0519,-26.2714,31.8488,7.12502,0.283619,61.8284,-38.0455,-4.72571,6.75717,51.8404,-24.619,-7.9934,-21.2405,-38.8899,3.5315,-4.24485,46.068,-19.3035,-3.76774,-38.6803
20.6027,16.4562,-26.3473,11.4029,-28.7358,0.380546,16.9068,-1.03887,2.99429,7.63764,-1.0866,-1.57876,-1.40586,-0.503537,-3.16327,6.51347,2.84043,13.354,2.87744,4.78453,-16.7411,0.469771,2.60068,-7.39628,4.01545e-14,-1.15295e-14,8.64399,-18.3741,-60.0249,26.8584,-1.18709,-31.8555,19.2901,7.12502,-5.10917,-10.6283,4.01545e-14,-1.15295e-14,5.0295,-5.44113,44.0439,35.7601,47.8683,-25.5325,31.2586,7.12502,0.997234,61.236,-38.0337,-4.74724,6.72018,51.8752,-24.6578,-7.9607,-21.3014,-38.837,3.51662,-4.26293,46.08,-19.384,-3.86031,-38.7558
20.601,16.4508,-26.3491,11.2452,-28.7214,0.414751,16.7621,-1.11632,2.96343,7.68072,-1.19617,-1.57325,-1.29258,-0.556313,-3.12194,6.71027,2.93994,13.3313,3.0373,4.95137,-16.7739,0.508864,2.68875,-7.40583,2.52457e-14,8.94531e-15,8.27662,-16.8611,-59.2633,27.4281,-1.97004,-31.3752,17.4203,7.12502,-4.64544,-12.5088,2.52457e-14,8.94531e-15,4.65643,-6.27892,43.5991,36.2295,47.642,-24.8939,30.7434,7.12502,1.61404,60.7171,-37.879,-4.74569,6.69296,51.8998,-24.6486,-8.12236,-21.8475,-38.7108,3.51674,-4.27655,46.1093,-19.4975,-3.79709,-39.2109
20.5986,16.4481,-26.351,11.0758,-28.6429,0.359741,16.6077,-1.16023,3.03795,7.79637,-1.24827,-1.55501,-1.0934,-0.576473,-3.13847,6.70978,2.97567,13.5784,3.26319,5.04191,-16.997,0.598269,2.73403,-7.5199,4.9895e-14,-1.72943e-14,8.38085,-16.4638,-59.0175,27.4965,-1.90606,-29.8408,18.0144,7.12502,-3.16368,-11.9418,4.9895e-14,-1.72943e-14,4.58093,-7.06607,43.1866,36.5595,47.4477,-24.2945,30.1963,7.12502,2.19289,60.1648,-37.6301,-4.72017,6.74925,51.9105,-24.6308,-8.31135,-22.3519,-38.5437,3.51494,-4.20689,46.1355,-19.5053,-3.93586,-38.9849
20.596,16.4454,-26.355,10.8637,-28.5485,0.420573,16.5015,-1.1536,2.96495,7.83165,-1.25098,-1.47808,-0.998362,-0.578784,-3.01683,6.77187,2.97241,13.7414,3.58987,5.09055,-17.236,0.697442,2.75851,-7.62654,-1.07344e-14,4.41302e-14,8.22104,-15.8849,-58.5306,27.7358,-2.09148,-29.6178,17.6611,7.12502,-2.94834,-12.2983,-1.07344e-14,4.41302e-14,4.46005,-8.04924,42.9383,36.9539,47.4031,-23.687,30.0225,7.12502,2.7796,59.9842,-37.406,-4.7907,6.71109,51.929,-24.6367,-8.46166,-22.9646,-38.3979,3.40558,-4.23901,46.1373,-19.554,-3.96592,-39.188
20.5922,16.4421,-26.3599,10.7998,-28.5241,0.394659,16.3742,-1.13218,2.8977,7.77424,-1.23037,-1.34913,-0.988318,-0.572349,-2.8471,7.09212,2.97533,13.749,3.6828,5.1388,-17.4233,0.681662,2.7948,-7.69716,-8.79622e-14,1.68967e-14,7.62182,-14.8518,-57.5404,28.1695,-2.60574,-29.048,18.7098,7.12502,-2.39808,-11.2565,-8.79622e-14,1.68967e-14,4.10665,-9.00385,42.74,37.4755,47.5577,-23.0623,29.6635,7.12502,3.38292,59.6164,-37.3227,-4.78129,6.75553,51.9368,-24.6856,-8.48263,-23.0658,-38.3358,3.36185,-4.17661,46.1327,-19.6526,-3.96206,-39.4791
20.5894,16.4392,-26.361,10.8043,-28.5079,0.341511,16.0926,-1.17261,2.92567,7.81745,-1.28538,-1.29205,-0.798251,-0.596383,-2.79733,7.26854,3.059,13.7554,3.6657,5.27053,-17.584,0.671937,2.86846,-7.75488,-2.44505e-14,1.33186e-14,7.33526,-14.0435,-56.7989,28.4984,-2.79493,-27.9844,19.892,7.12502,-1.37086,-10.0833,-2.44505e-14,1.33186e-14,3.80406,-9.61058,42.3486,37.8839,47.6028,-22.4387,29.3315,7.12502,3.98514,59.274,-37.2737,-4.78819,6.81328,51.9241,-24.7034,-8.48549,-22.9447,-38.306,3.37066,-4.10778,46.132,-19.7028,-3.92328,-39.536
20.5872,16.4377,-26.361,10.7459,-28.4676,0.295115,15.8877,-1.14515,3.04204,7.65653,-1.2339,-1.30009,-0.859728,-0.56923,-2.88119,8.00341,2.90957,14.0674,3.85743,5.18883,-17.788,0.602326,2.86033,-7.89688,-1.64991e-14,-2.54444e-14,6.70043,-13.5731,-56.2026,28.718,-2.68557,-27.2214,20.0023,7.12502,-0.633922,-9.97649,-1.64991e-14,-2.54444e-14,3.40697,-10.7393,41.8938,38.3541,47.7973,-22.3818,29.3853,7.12502,4.04012,59.3267,-37.1508,-4.84753,6.8739,51.9033,-24.7022,-8.60134,-23.162,-38.2266,3.37835,-4.06359,46.1403,-19.7168,-3.77663,-39.817
20.5844,16.4389,-26.3618,10.6815,-28.4237,0.13187,15.7901,-1.39858,3.01033,7.47784,-1.5597,-1.0476,-1.01502,-0.739526,-2.54296,8.65915,3.15021,13.2788,4.11946,5.52812,-17.7566,0.601254,3.03909,-7.76386,3.8266e-14,-5.96354e-16,6.67885,-12.072,-55.5907,28.9898,-2.88485,-26.7448,19.8962,7.12502,-0.17358,-10.0835,3.8266e-14,-5.96354e-16,2.13322,-10.7877,41.8119,38.8518,47.8984,-22.0885,29.4909,7.12502,4.32336,59.4268,-36.9746,-4.84287,7.04674,51.8823,-24.7528,-8.67803,-23.4747,-38.0929,3.37642,-3.88552,46.1651,-19.7687,-3.88234,-39.6547
20.5817,16.4366,-26.3627,10.5895,-28.3948,0.136202,15.6369,-1.24328,3.15443,7.44478,-1.34149,-1.09214,-0.95787,-0.626026,-2.70941,8.56155,3.01202,13.7732,4.52009,5.42192,-17.8547,0.730017,2.98349,-7.87922,-5.48646e-14,7.35503e-15,5.65149,-11.6565,-54.618,29.7515,-3.63906,-26.3332,19.6873,7.12502,0.223958,-10.2923,-5.48646e-14,7.35503e-15,2.31006,-11.606,41.4345,39.2477,47.9607,-20.7568,29.7271,7.12502,5.60918,59.6328,-36.8905,-4.84764,7.03471,51.9072,-24.8165,-8.60214,-23.3842,-38.0042,3.39571,-3.88501,46.1875,-19.8759,-3.96061,-39.6532
20.5794,16.4307,-26.3645,10.479,-28.397,0.276769,15.4488,-1.23243,3.06686,7.39359,-1.34313,-1.10972,-0.912456,-0.627762,-2.68009,8.73368,3.0417,13.8245,4.68938,5.50119,-17.898,0.765145,3.02809,-7.90648,5.25785e-14,-6.14245e-14,5.04135,-10.6609,-53.6877,30.3915,-4.53544,-25.6103,19.5832,7.12502,0.922129,-10.3946,5.25785e-14,-6.14245e-14,1.99607,-12.0933,41.0649,39.6445,47.981,-19.0404,29.624,7.12502,7.26614,59.4793,-36.8646,-4.82861,6.8821,51.9625,-24.9084,-8.65156,-23.0876,-37.9694,3.41906,-4.02091,46.212,-19.9266,-3.93067,-39.7094
20.5768,16.4255,-26.3633,10.3224,-28.4016,0.451858,15.2557,-1.10656,3.053,7.42215,-1.18887,-1.21253,-0.771344,-0.546827,-2.80774,8.43655,2.98202,14.137,5.17632,5.46853,-17.8476,0.956124,2.99667,-7.93525,-7.05686e-15,-2.01766e-14,4.40252,-10.3087,-52.8364,30.8445,-5.1227,-24.9838,19.4872,7.12502,1.52721,-10.4871,-7.05686e-15,-2.01766e-14,2.09808,-12.8366,40.5222,40.0906,48.2798,-18.1718,29.3932,7.12502,8.10451,59.2178,-36.7814,-4.85292,6.70468,52.0202,-25.0292,-8.83749,-23.2717,-37.915,3.32399,-4.16476,46.2322,-19.8397,-4.06593,-39.2743
20.5737,16.4209,-26.3589,10.1948,-28.3867,0.530907,15.0489,-1.0607,3.07862,7.4247,-1.13238,-1.27837,-0.656854,-0.514692,-2.90263,8.22398,3.01787,14.4489,5.63341,5.56988,-17.9013,1.1491,3.0368,-8.00071,-6.06293e-15,2.25621e-14,3.73127,-9.74676,-52.0693,31.4002,-5.94536,-24.4191,19.555,7.12502,2.07263,-10.4146,-6.06293e-15,2.25621e-14,1.88319,-13.5659,39.871,40.6747,48.8295,-18.0588,29.5244,7.12502,8.21358,59.3448,-36.672,-4.90997,6.62214,52.0666,-25.1048,-8.92434,-23.4329,-37.8254,3.20676,-4.21174,46.2456,-19.7749,-4.21664,-38.9065
20.5716,16.4196,-26.3573,10.1475,-28.3599,0.474953,14.9065,-1.15734,3.06913,7.33386,-1.25877,-1.17963,-0.685131,-0.580306,-2.77478,8.15488,3.21981,14.4849,6.19709,5.90287,-18.152,1.38406,3.18975,-8.08527,3.68746e-14,-5.76476e-15,3.34211,-8.87466,-51.3467,31.8391,-6.71411,-23.6976,19.9026,7.12502,2.76938,-10.0592,3.68746e-14,-5.76476e-15,1.17263,-13.8765,39.4949,41.1074,49.2042,-17.8083,29.2203,7.12502,8.45531,59.031,-36.6009,-4.90688,6.67996,52.0878,-25.1358,-8.93851,-23.5434,-37.7314,3.17465,-4.11948,46.259,-19.7302,-4.7678,-37.0764
20.5704,16.4187,-26.3566,10.1087,-28.3104,0.505547,14.9032,-1.11633,3.05918,7.0977,-1.19809,-1.11852,-0.927684,-0.556512,-2.71219,8.11457,3.22088,14.7827,6.9259,6.00682,-18.3643,1.63012,3.23351,-8.20822,-1.48095e-14,-3.97569e-16,2.68852,-8.67477,-50.6431,32.0158,-6.7751,-23.1494,20.2669,7.12502,3.29884,-9.68731,-1.48095e-14,-3.97569e-16,0.771525,-14.3678,39.2764,41.389,49.2682,-17.2629,28.6056,7.12502,8.98162,58.3944,-36.5824,-5.00245,6.67977,52.1014,-25.0989,-9.10057,-24.4245,-37.7009,3.14775,-4.12595,46.2571,-19.7183,-5.20239,-35.3042
20.5675,16.416,-26.3497,10.082,-28.2969,0.508216,14.8686,-1.06384,3.13273,6.83888,-1.11353,-1.1259,-1.1779,-0.51838,-2.77299,8.44067,3.12499,14.9978,7.21984,5.95996,-18.3843,1.65872,3.22514,-8.26411,-1.69961e-14,3.72721e-14,1.8264,-8.16926,-49.8693,32.3499,-7.13057,-22.8201,20.1237,7.12502,3.6168,-9.8254,-1.69961e-14,3.72721e-14,0.291844,-14.9307,38.9106,41.8001,49.225,-16.4713,28.344,7.12502,9.74551,58.0986,-36.5127,-5.14208,6.70428,52.0994,-25.0562,-9.32351,-25.2259,-37.6323,3.11976,-4.12966,46.2459,-19.8617,-4.98238,-35.7531
20.5618,16.4161,-26.3402,9.9843,-28.3864,0.514896,14.7034,-1.0895,3.10304,6.73974,-1.15348,-1.14277,-1.19784,-0.53944,-2.76855,8.65161,3.17655,15.0583,7.36778,6.0712,-18.3718,1.68756,3.28839,-8.27545,2.6339e-15,9.64106e-15,1.22568,-7.29996,-49.1357,32.8687,-7.92394,-22.4596,19.768,7.12502,3.96494,-10.1749,2.6339e-15,9.64106e-15,-0.300406,-15.3653,38.3468,42.1372,49.3209,-15.8219,28.173,7.12502,10.372,57.8972,-36.3274,-5.09525,6.68261,51.9763,-25.0951,-9.20813,-25.067,-37.3752,3.13478,-4.13403,46.0936,-19.8603,-4.96406,-35.6864
20.5555,16.4187,-26.3316,9.77842,-28.4879,0.638428,14.5674,-1.12987,2.92439,6.68204,-1.23256,-1.17236,-1.19045,-0.581927,-2.68716,8.78913,3.3217,14.9722,7.49406,6.27785,-18.1682,1.73142,3.39307,-8.1923,4.27387e-15,-2.18663e-15,0.873312,-6.87232,-48.6247,33.1468,-8.11,-22.0151,19.9554,7.12502,4.39422,-9.97904,4.27387e-15,-2.18663e-15,-0.82291,-15.8605,37.7475,42.3309,49.5289,-15.7495,27.6788,7.12502,10.4418,57.3994,-36.0903,-5.00229,6.5305,51.8486,-25.1208,-9.05576,-25.0388,-37.0647,3.13091,-4.24425,45.9399,-19.8658,-5.13931,-34.8137
20.5481,16.4597,-26.3246,9.67756,-28.4858,0.726413,14.3415,-1.23528,2.77215,6.56703,-1.39106,-1.11449,-1.19875,-0.664786,-2.51781,9.07617,3.53887,14.55,7.62741,6.56275,-17.8675,1.75228,3.53372,-8.02094,2.31584e-14,-3.3694e-14,0.621169,-6.22331,-47.9721,33.3377,-8.21367,-21.6825,20.1815,7.12502,4.71536,-9.74604,2.31584e-14,-3.3694e-14,-1.64426,-16.068,37.348,42.6039,49.5847,-15.674,27.0932,7.12502,10.5146,56.8103,-35.7819,-5.04425,6.49129,51.5801,-25.1066,-9.12286,-25.1963,-36.742,3.04199,-4.35209,45.6697,-19.9719,-4.86971,-35.0054
20.5423,16.457,-26.3169,9.68524,-28.4307,0.761819,14.0266,-1.32445,2.73174,6.43683,-1.51569,-1.06505,-1.1743,-0.727939,-2.42782,9.28595,3.66454,14.2491,7.90708,6.74325,-17.671,1.81483,3.61925,-7.90651,1.95803e-14,-2.68359e-14,0.325993,-5.6984,-47.2601,33.5072,-8.43101,-21.8445,19.671,7.12502,4.55894,-10.2599,1.95803e-14,-2.68359e-14,-2.43089,-16.2555,36.9366,42.9358,49.5532,-15.0732,27.1735,7.12502,11.0942,56.8603,-35.7062,-5.17851,6.47577,51.4815,-25.1824,-9.08456,-25.0841,-36.6713,3.00503,-4.37896,45.5465,-20.0139,-4.68999,-35.3903
20.5386,16.4531,-26.3098,9.63527,-28.4563,0.827686,13.8368,-1.2079,2.7674,6.35575,-1.36303,-1.14496,-1.15107,-0.650193,-2.55644,8.94101,3.57888,14.7283,8.53695,6.70418,-17.8127,2.06606,3.58853,-8.03054,1.56195e-13,-7.26558e-14,-0.300102,-5.95279,-46.629,33.6312,-8.45106,-22.4254,19.2189,7.12502,3.99802,-10.7234,1.56195e-13,-7.26558e-14,-2.49035,-16.8816,36.3354,43.2204,49.6199,-14.5248,27.3518,7.12502,11.623,57.0094,-35.6268,-5.19981,6.40648,51.3993,-25.2043,-9.00897,-24.9756,-36.5636,3.04909,-4.45384,45.4424,-20.0409,-4.6055,-35.9619
20.5346,16.4514,-26.304,9.55761,-28.5244,0.811187,13.7481,-1.02263,2.83658,6.32929,-1.11498,-1.21446,-1.11728,-0.524301,-2.70575,8.41338,3.47871,15.5033,9.1844,6.65934,-18.1536,2.36594,3.55622,-8.27207,-3.47873e-15,-5.1684e-15,-1.16866,-6.15741,-45.8484,33.9068,-8.66535,-22.4625,19.3966,7.12502,3.96219,-10.5464,-3.47873e-15,-5.1684e-15,-2.33775,-17.551,35.6858,43.4513,49.7081,-14.225,26.9633,7.12502,11.9121,56.6044,-35.5363,-5.10196,6.40928,51.4229,-25.2832,-8.96999,-24.6221,-36.4379,3.10893,-4.43589,45.4862,-20.2462,-4.31744,-37.1748
20.5303,16.4503,-26.2968,9.51161,-28.5711,0.688533,13.658,-1.08024,2.84332,6.24409,-1.18792,-1.12955,-1.16222,-0.562732,-2.61035,8.46481,3.57527,15.6482,9.45716,6.8503,-18.4247,2.48097,3.65016,-8.38983,3.8763e-15,2.66371e-14,-1.60748,-5.65121,-45.1109,34.1502,-9.04954,-21.7616,19.5494,7.12502,4.63895,-10.3798,3.8763e-15,2.66371e-14,-3.08874,-17.728,35.2329,43.69,49.6388,-13.7983,26.802,7.12502,12.3236,56.4188,-35.404,-5.0283,6.517,51.4325,-25.4298,-8.81487,-23.9924,-36.2943,3.16999,-4.31302,45.5563,-20.5225,-4.04008,-38.2424
20.5276,16.4444,-26.2889,9.54859,-28.597,0.503391,13.5511,-1.30276,2.83552,6.06914,-1.47472,-0.949629,-1.30346,-0.710705,-2.37555,8.58166,3.83474,15.5882,9.88194,7.27797,-18.8313,2.66877,3.85125,-8.51566,5.22804e-14,1.17283e-14,-1.49772,-5.12115,-44.6656,34.0346,-8.98266,-20.9716,19.885,7.12502,5.40174,-10.0261,5.22804e-14,1.17283e-14,-4.31833,-17.6757,34.8954,43.9232,49.686,-13.4317,27.082,7.12502,12.677,56.6772,-35.3343,-4.95971,6.67806,51.4468,-25.5352,-8.73768,-23.6464,-36.2392,3.24692,-4.1345,45.6456,-20.6567,-4.10211,-38.0307
20.5243,16.4386,-26.2821,9.64515,-28.66,0.232013,13.4137,-1.41098,3.0031,5.97555,-1.59595,-0.865463,-1.33696,-0.770304,-2.3658,8.40775,4.05955,15.7158,10.3255,7.63233,-19.0185,2.90163,4.01203,-8.59163,-3.99557e-14,1.00386e-14,-1.29861,-5.16452,-44.3818,33.7059,-8.6006,-20.367,20.3144,7.12502,5.98551,-9.58106,-3.99557e-14,1.00386e-14,-4.98421,-17.8413,34.3155,44.088,50.0209,-13.3966,27.0735,7.12502,12.7109,56.6667,-35.3042,-4.83933,6.92446,51.4696,-25.6178,-8.71366,-23.5667,-36.1886,3.30518,-3.84804,45.7331,-20.7445,-4.4936,-36.5863
20.5171,16.4365,-26.2762,9.62559,-28.8554,0.222522,13.2264,-1.35536,2.96517,5.93353,-1.53395,-0.938904,-1.27782,-0.738604,-2.43294,8.35719,4.14854,15.7753,10.4458,7.74971,-18.8155,2.96484,4.07094,-8.52738,-1.39149e-15,7.55382e-15,-1.5246,-5.21639,-43.9045,33.7072,-8.59188,-19.8317,20.3607,7.12502,6.50233,-9.51952,-1.39149e-15,7.55382e-15,-5.44417,-18.1866,33.581,44.422,50.2852,-13.332,26.6912,7.12502,12.7732,56.2804,-35.3375,-4.69499,6.91985,51.5151,-25.7231,-8.56487,-23.1981,-36.0748,3.3472,-3.81648,45.7996,-20.9573,-4.42294,-36.4156
20.5078,16.4356,-26.2676,9.58781,-28.9486,0.337169,13.0073,-1.36452,2.78819,5.79422,-1.57018,-0.98005,-1.30611,-0.759884,-2.373,8.9874,4.25417,15.3943,10.0409,7.85917,-18.3779,2.73658,4.15169,-8.32256,-4.44284e-14,-1.61016e-14,-2.18075,-4.83965,-43.2155,34.096,-8.72848,-19.5183,20.3903,7.12502,6.80485,-9.48035,-4.44284e-14,-1.61016e-14,-6.23508,-18.5036,32.9448,44.8859,50.3939,-12.925,26.5051,7.12502,13.1655,56.0695,-35.3772,-4.64393,6.81076,51.5752,-25.8258,-8.52169,-22.8586,-36.0239,3.36669,-3.92111,45.8403,-21.1916,-3.90485,-37.7518
20.5015,16.4337,-26.2565,9.65786,-28.8488,0.292139,12.8281,-1.4876,2.78191,5.57598,-1.72965,-0.902958,-1.44599,-0.842873,-2.26706,9.04077,4.46672,15.5767,10.5097,8.24385,-18.7746,2.95235,4.33685,-8.48542,-9.64106e-15,-1.09332e-14,-2.57035,-4.19538,-42.495,34.2616,-8.88268,-19.3686,20.3835,7.12502,6.94933,-9.4824,-9.64106e-15,-1.09332e-14,-7.03859,-18.7501,32.4742,45.1067,50.4345,-12.5812,26.8506,7.12502,13.4969,56.3932,-35.3675,-4.78231,6.87434,51.6264,-25.9256,-8.5855,-23.0801,-36.0723,3.30154,-3.86364,45.8828,-21.3167,-3.75688,-38.0596
20.4978,16.4302,-26.2466,9.68369,-28.8751,0.368002,12.6223,-1.49596,2.73654,5.39742,-1.74753,-0.92771,-1.52278,-0.853895,-2.26655,9.01021,4.53276,15.5942,10.9249,8.37318,-18.7592,3.10282,4.39255,-8.4821,-3.52843e-14,3.00165e-14,-2.77302,-3.89268,-41.866,34.0862,-9.01514,-19.1697,20.396,7.12502,7.14133,-9.46347,-3.52843e-14,3.00165e-14,-7.47383,-19.218,31.9019,45.2533,50.6097,-12.5878,27.416,7.12502,13.4905,56.959,-35.4273,-4.87526,6.80089,51.6725,-25.9833,-8.5262,-23.5083,-36.1142,3.23766,-3.92623,45.9432,-21.3727,-3.92346,-37.2105
20.4947,16.426,-26.2353,9.7291,-28.955,0.382731,12.3607,-1.50704,2.79387,5.28338,-1.76202,-1.0128,-1.50573,-0.859827,-2.38944,8.7911,4.59514,15.7774,11.4372,8.49197,-18.6582,3.31682,4.44103,-8.47315,2.19657e-14,-7.15625e-15,-3.31606,-3.58823,-41.254,34.2537,-9.2043,-18.9259,20.4135,7.12502,7.37663,-9.43787,2.19657e-14,-7.15625e-15,-7.95343,-19.6527,31.1708,45.5115,50.8589,-12.5335,27.6803,7.12502,13.5428,57.2199,-35.4827,-4.80993,6.76522,51.6974,-26.0161,-8.45911,-23.6061,-36.145,3.24928,-3.94147,46.014,-21.4589,-4.01388,-36.7713
20.4898,16.4224,-26.2218,9.78835,-28.9428,0.223103,12.2596,-1.57003,2.93896,5.16355,-1.82833,-1.00092,-1.58389,-0.892979,-2.45023,8.84114,4.74684,15.6426,11.6077,8.68007,-18.3033,3.37774,4.53347,-8.32261,5.99336e-14,-2.04748e-14,-4.12423,-3.1215,-40.5035,34.7715,-9.65177,-18.1745,20.3204,7.12502,8.10191,-9.50431,5.99336e-14,-2.04748e-14,-8.61345,-19.9256,30.5328,45.784,50.9904,-12.4924,27.4303,7.12502,13.5825,56.9672,-35.3983,-4.70241,6.90435,51.7021,-26.0266,-8.66514,-23.5158,-36.1222,3.21741,-3.76364,46.0799,-21.4847,-4.2435,-35.8433
20.4829,16.4234,-26.2056,9.72856,-28.9612,0.206903,12.201,-1.55326,2.92271,5.08411,-1.80768,-0.992218,-1.63325,-0.884195,-2.43498,8.70158,4.81548,15.5201,11.7865,8.73687,-17.9464,3.44823,4.55405,-8.17241,6.43068e-14,-3.8763e-14,-4.79328,-3.19789,-39.7356,35.0131,-9.81875,-16.9016,20.3718,7.12502,9.33028,-9.40171,6.43068e-14,-3.8763e-14,-9.10077,-20.2472,29.9865,45.9937,51.0809,-12.6968,27.1647,7.12502,13.3854,56.7147,-35.2493,-4.65198,6.9004,51.6912,-26.0872,-8.77245,-23.3884,-36.0007,3.0879,-3.71796,46.1287,-21.4138,-4.56187,-34.1394
20.4776,16.4252,-26.1875,9.77837,-28.9759,0.253934,11.9512,-1.55864,2.89451,4.96361,-1.82198,-0.996029,-1.62426,-0.891999,-2.42481,8.3558,4.81957,15.8489,12.2154,8.78592,-18.1205,3.66145,4.56721,-8.28113,-1.0138e-14,-5.1684e-15,-5.38264,-3.16888,-38.93,35.1514,-9.87626,-15.8788,20.6824,7.12502,10.3171,-9.04451,-1.0138e-14,-5.1684e-15,-9.56987,-20.4854,29.4986,46.0748,51.0378,-12.6573,27.2569,7.12502,13.4236,56.8044,-35.2477,-4.68936,6.83528,51.6677,-26.2275,-8.66028,-23.4253,-36.0116,2.95951,-3.7588,46.1824,-21.4486,-4.45391,-34.1524
20.4726,16.4243,-26.1705,9.99139,-28.9436,0.132849,11.6809,-1.60904,2.93349,4.74576,-1.88346,-0.881271,-1.70647,-0.925392,-2.32198,8.55083,4.83579,15.983,12.3751,8.87765,-18.3705,3.70661,4.61894,-8.39722,7.95139e-15,-1.31198e-14,-5.89408,-2.72693,-38.0265,35.2761,-10.1171,-15.512,21.1744,7.12502,10.6709,-8.53461,7.95139e-15,-1.31198e-14,-10.202,-20.4959,29.1624,46.0552,50.9292,-12.2639,26.7914,7.12502,13.8027,56.3135,-35.3365,-4.73425,6.95877,51.6463,-26.3157,-8.67509,-23.6132,-36.148,2.89139,-3.6281,46.2576,-21.5766,-4.14505,-35.2112
20.469,16.4229,-26.1542,10.0967,-28.8923,-0.0130723,11.5686,-1.66258,3.00601,4.56846,-1.94203,-0.762541,-1.8322,-0.957561,-2.23148,8.95898,5.02122,15.7926,12.2564,9.13861,-18.2457,3.63961,4.7616,-8.32234,4.57205e-14,9.74045e-15,-6.31528,-2.39567,-37.1977,35.3409,-10.2757,-15.3038,21.2918,7.12502,10.8717,-8.40676,4.57205e-14,9.74045e-15,-10.7915,-20.4598,28.7722,46.0041,50.9097,-11.7678,26.0764,7.12502,14.2807,55.5653,-35.2991,-4.81284,7.1081,51.6258,-26.3761,-8.63864,-23.494,-36.1805,2.78429,-3.45935,46.3385,-21.5971,-4.09398,-35.2885
20.4675,16.419,-26.1411,10.1104,-28.9104,-0.0568044,11.5779,-1.6693,3.09902,4.41951,-1.93778,-0.786606,-1.9958,-0.958085,-2.30694,8.61341,5.00396,15.6542,12.5693,9.06516,-17.8833,3.75838,4.70646,-8.16674,7.42461e-14,-2.14687e-14,-6.97024,-2.36068,-36.4981,35.4961,-10.2748,-14.9638,21.2786,7.12502,11.1996,-8.40245,7.42461e-14,-2.14687e-14,-11.1211,-20.5456,28.1774,45.966,50.9384,-11.3242,26.211,7.12502,14.7081,55.6693,-35.2433,-4.81659,7.13009,51.6036,-26.3977,-8.50865,-23.2111,-36.1484,2.74763,-3.41544,46.4017,-21.7308,-3.90735,-35.8957
20.464,16.4184,-26.1289,10.1248,-29.0418,-0.0405856,11.5146,-1.60812,3.07869,4.30007,-1.86014,-0.836559,-2.08204,-0.921594,-2.35763,8.23469,5.10965,15.9724,13.0718,9.24623,-17.961,4.0221,4.78449,-8.23403,-5.14852e-14,3.20043e-14,-7.63213,-2.56366,-35.8081,35.5619,-10.2258,-14.5262,21.5512,7.12502,11.6217,-8.10655,-5.14852e-14,3.20043e-14,-11.3984,-20.6077,27.6098,45.9948,50.9757,-11.1818,26.7214,7.12502,14.8454,56.1696,-35.2384,-4.70039,7.08348,51.5668,-26.3536,-8.46457,-23.1169,-36.0915,2.8535,-3.47164,46.4342,-22.2462,-3.20685,-37.8096
20.4589,16.4221,-26.109,10.123,-29.1166,-0.076445,11.3833,-1.54965,3.07627,4.24475,-1.78612,-0.836601,-2.0634,-0.884961,-2.36839,7.98523,5.19062,16.2206,13.3387,9.37582,-18.0035,4.18148,4.84464,-8.28063,1.93815e-14,-1.41137e-14,-8.19612,-2.70929,-35.0395,35.5398,-10.3226,-13.8455,21.8933,7.12502,12.278,-7.72624,1.93815e-14,-1.41137e-14,-11.6664,-20.7088,27.0716,45.9782,51.0375,-11.4464,26.7703,7.12502,14.5904,56.2371,-35.1285,-4.68618,7.1023,51.5161,-26.3941,-8.57742,-23.4625,-35.9651,2.87865,-3.48124,46.4477,-22.7766,-2.46451,-39.1853
20.4533,16.4211,-26.0874,10.2481,-29.1146,-0.232107,11.3076,-1.52924,3.18928,4.07293,-1.74412,-0.792428,-2.20009,-0.867127,-2.39102,8.12024,5.19119,16.2782,13.2782,9.38492,-17.942,4.14355,4.86074,-8.27267,2.60408e-14,-2.16675e-14,-8.84939,-2.51252,-34.2698,35.614,-10.6055,-12.7104,21.9351,7.12502,13.3723,-7.61581,2.60408e-14,-2.16675e-14,-12.1088,-20.9539,26.5732,45.9694,51.1423,-11.1976,26.3566,7.12502,14.8301,55.8059,-35.0799,-4.7113,7.2494,51.4782,-26.48,-8.80776,-23.9462,-35.937,2.85524,-3.33426,46.4682,-22.7779,-2.48238,-38.7484
20.4482,16.4184,-26.0701,10.4339,-29.1292,-0.260269,11.183,-1.55766,3.22109,3.80182,-1.77592,-0.795107,-2.4177,-0.888282,-2.40646,8.7346,5.22992,15.9421,12.9346,9.4204,-17.6247,3.91844,4.90112,-8.11996,-8.28932e-14,3.53837e-14,-9.51818,-2.30417,-33.6206,35.8826,-10.565,-11.7075,21.5116,7.12502,14.3388,-7.97327,-8.28932e-14,3.53837e-14,-12.7787,-21.1542,26.112,46.086,51.1876,-9.34164,27.3874,7.12502,16.6176,56.696,-35.2037,-4.7497,7.2716,51.4625,-26.5213,-8.87667,-24.1058,-36.0707,2.86389,-3.30131,46.5052,-22.3385,-3.11876,-36.9825
20.4438,16.417,-26.0554,10.4525,-29.1564,-0.164885,11.0849,-1.65083,3.12971,3.63654,-1.9088,-0.815647,-2.54317,-0.95752,-2.35828,8.72233,5.38713,15.7458,13.1389,9.62222,-17.4706,4.00318,4.99028,-8.02512,2.14687e-14,3.57812e-15,-9.91838,-2.38147,-33.0385,36.1283,-10.083,-11.591,21.2991,7.12502,14.4511,-8.1777,2.14687e-14,3.57812e-15,-13.4824,-21.1681,25.5937,46.1744,51.2135,-10.5392,25.2809,7.12502,15.4644,54.6824,-35.2267,-4.79808,7.16327,51.4612,-26.5831,-8.72908,-23.9771,-36.1083,2.89291,-3.41372,46.5471,-22.138,-3.37823,-36.2743
20.4375,16.4187,-26.0429,10.4481,-29.1772,-0.215081,11.1211,-1.71248,3.07613,3.49978,-1.99013,-0.761327,-2.70729,-1.00152,-2.25756,8.28542,5.5291,15.788,13.67,9.8229,-17.4905,4.27402,5.06323,-8.01962,5.20816e-14,7.95139e-15,-10.3964,-2.12719,-32.3199,36.399,-10.1859,-11.1997,21.3166,7.12502,14.8281,-8.13284,5.20816e-14,7.95139e-15,-14.1423,-21.2948,25.0466,46.3576,51.6185,-11.3927,25.1649,7.12502,14.6422,54.628,-35.129,-4.75866,7.20959,51.4353,-26.6033,-8.67229,-23.7669,-36.0324,2.94647,-3.38429,46.5943,-22.4715,-3.09104,-37.1756
20.4308,16.4234,-26.0272,10.5368,-29.2308,-0.291374,11.0991,-1.63595,3.04733,3.33082,-1.88812,-0.725933,-2.86291,-0.954569,-2.21649,8.36262,5.50818,15.7765,13.707,9.79107,-17.3389,4.26067,5.05433,-7.97014,-4.58199e-14,-1.88845e-14,-11.201,-1.99978,-31.4638,36.5877,-10.3281,-10.3178,21.5044,7.12502,15.6776,-7.88041,-4.58199e-14,-1.88845e-14,-14.3787,-21.5362,24.5038,46.4474,52.0981,-12.0122,25.6805,7.12502,14.0452,55.1859,-35.0961,-4.70849,7.28244,51.3813,-26.5929,-8.66088,-23.5738,-36.0046,3.00624,-3.32779,46.6424,-22.7671,-2.99844,-37.3382
20.4268,16.4254,-26.0043,10.6983,-29.2953,-0.385984,10.933,-1.5672,3.07675,3.18957,-1.79539,-0.700417,-2.91327,-0.910511,-2.22101,8.4783,5.47322,15.9562,13.7187,9.77908,-17.4216,4.25504,5.06055,-8.03525,-2.05742e-14,1.11319e-14,-11.7749,-2.3444,-30.6868,36.4182,-9.84433,-10.0223,22.118,7.12502,15.9621,-7.24427,-2.05742e-14,1.11319e-14,-14.6036,-21.6549,23.9717,46.3707,51.9769,-12.2847,25.6689,7.12502,13.7826,55.1923,-35.1251,-4.72783,7.35221,51.3209,-26.6531,-8.6106,-23.7543,-36.0357,3.02788,-3.26337,46.7007,-22.6956,-2.86084,-37.419
20.4258,16.4244,-25.9809,10.8903,-29.2725,-0.431345,10.7497,-1.59046,3.12149,3.0155,-1.82183,-0.659736,-2.99565,-0.926287,-2.20198,8.19894,5.53698,16.1337,14.0958,9.89548,-17.5427,4.44989,5.10613,-8.09704,6.31141e-14,-4.07509e-14,-12.2366,-2.23363,-29.9461,36.3472,-9.90461,-9.58034,22.7285,7.12502,16.3877,-6.59922,6.31141e-14,-4.07509e-14,-15.1155,-21.6368,23.453,46.3767,51.7821,-12.0382,25.4176,7.12502,14.0202,54.9247,-35.2032,-4.87568,7.38882,51.2665,-26.7253,-8.62104,-24.2354,-36.1745,2.95546,-3.23892,46.7736,-22.7251,-2.51432,-37.9994
20.4226,16.4241,-25.9655,11.0032,-29.3244,-0.287434,10.6965,-1.56754,2.96301,2.76969,-1.80505,-0.657256,-3.21685,-0.922371,-2.11019,7.76408,5.64468,16.1585,14.6649,10.0382,-17.4386,4.71866,5.1538,-8.04963,3.06625e-14,9.74045e-15,-12.9522,-1.78266,-29.1283,36.6043,-10.3386,-8.85137,22.6021,7.12502,17.0895,-6.66632,3.06625e-14,9.74045e-15,-15.4857,-21.2231,22.9902,46.2395,51.7132,-11.2081,25.4685,7.12502,14.82,54.9186,-35.3582,-4.93962,7.25277,51.2292,-26.7151,-8.67328,-24.3921,-36.3398,2.99318,-3.38313,46.8429,-22.8121,-2.81567,-37.143
20.4146,16.4252,-25.9512,11.13,-29.4799,-0.31433,10.7441,-1.5063,2.87728,2.52707,-1.72697,-0.645792,-3.4886,-0.888797,-2.05642,7.45676,5.73059,16.1481,15.1074,10.1402,-17.2471,4.91615,5.18994,-7.97062,6.75868e-15,-1.59028e-15,-13.6496,-1.75413,-28.3695,36.7436,-10.1715,-8.49322,22.2407,7.12502,17.4342,-6.99751,6.75868e-15,-1.59028e-15,-15.8241,-20.6618,22.4668,46.137,51.4685,-10.4344,25.7486,7.12502,15.5653,55.1422,-35.4469,-4.85491,7.26925,51.1818,-26.7049,-8.70337,-24.2302,-36.3737,3.19874,-3.37866,46.9036,-22.6997,-3.38133,-35.9351
20.4067,16.4288,-25.9299,11.2922,-29.5676,-0.504416,10.7647,-1.51505,2.93338,2.32269,-1.72581,-0.594601,-3.71309,-0.893215,-2.03176,7.51057,5.79864,15.9996,15.1838,10.2069,-16.9844,4.92486,5.22395,-7.85217,5.30755e-14,2.98177e-15,-14.0493,-1.99301,-27.7116,36.5214,-9.71161,-8.12297,22.7637,7.12502,17.7905,-6.44253,5.30755e-14,2.98177e-15,-16.3287,-20.3774,21.87,46.2366,51.058,-9.89805,25.649,7.12502,16.0818,55.0017,-35.4066,-4.80591,7.42224,51.1318,-26.8647,-8.47549,-23.6487,-36.3227,3.36465,-3.24381,46.9418,-22.669,-3.60342,-35.6579
20.3997,16.433,-25.907,11.3965,-29.6336,-0.486569,10.7238,-1.52474,2.82282,2.1409,-1.74817,-0.579823,-3.87795,-0.906667,-1.94939,7.51418,5.87835,15.8718,15.2838,10.2914,-16.7589,4.95476,5.26424,-7.74803,-1.19271e-15,3.57812e-14,-14.437,-2.14259,-27.0284,36.3954,-9.42079,-7.61251,23.3154,7.12502,18.2816,-5.84547,-1.19271e-15,3.57812e-14,-16.8362,-19.8928,21.3895,46.2754,50.2415,-8.99112,25.4624,7.12502,16.955,54.7423,-35.4313,-4.77998,7.37328,51.0905,-26.9841,-8.24298,-23.1947,-36.3312,3.41209,-3.29381,46.952,-22.7275,-3.65631,-35.5361
20.3942,16.4347,-25.8866,11.4386,-29.732,-0.263716,10.6367,-1.47097,2.59798,1.97929,-1.70531,-0.658274,-3.99215,-0.885888,-1.91034,7.37864,5.89036,15.8092,15.3987,10.2722,-16.5268,4.99703,5.25225,-7.65405,-2.19657e-14,1.2921e-14,-15.0745,-2.21939,-26.3344,36.5145,-9.4971,-7.26467,23.1112,7.12502,18.6163,-6.01802,-2.19657e-14,1.2921e-14,-17.2115,-19.5982,20.8147,46.3253,50.1603,-8.61739,25.1972,7.12502,17.3147,54.4459,-35.5507,-4.78087,7.13744,51.0554,-26.9328,-8.33622,-23.2688,-36.3954,3.42367,-3.54379,46.9612,-22.7963,-3.37917,-36.3412
20.3905,16.4359,-25.8649,11.4628,-29.8326,-0.115085,10.5616,-1.43798,2.48244,1.82903,-1.67744,-0.728955,-4.10485,-0.873483,-1.92257,7.33392,5.88507,15.9162,15.4655,10.2808,-16.5958,5.03506,5.25755,-7.69535,-6.95746e-16,-1.17283e-14,-15.7605,-2.10484,-25.6476,36.6408,-9.77565,-7.18295,22.9257,7.12502,18.6949,-6.19591,-6.95746e-16,-1.17283e-14,-17.6427,-19.8124,20.098,46.4636,50.9919,-9.49562,24.2437,7.12502,16.4693,53.5647,-35.5783,-4.75542,6.95104,51.0205,-26.9046,-8.43466,-23.1543,-36.3878,3.45283,-3.73882,46.9805,-22.8605,-3.03838,-37.0361
20.3874,16.4358,-25.8435,11.6685,-29.788,-0.259136,10.4883,-1.46807,2.61126,1.6354,-1.69895,-0.666583,-4.26937,-0.888889,-1.9262,7.16534,5.9445,16.3122,15.7425,10.4469,-17.0568,5.21862,5.33475,-7.91328,-1.66482e-14,2.127e-14,-16.4094,-1.86076,-24.8833,36.8572,-10.0775,-7.05281,22.82,7.12502,18.82,-6.28959,-1.66482e-14,2.127e-14,-18.222,-19.3829,19.6559,46.5645,51.2101,-9.9461,23.8982,7.12502,16.0355,53.2546,-35.5805,-4.7749,7.0647,50.9739,-26.9095,-8.35358,-22.9763,-36.4964,3.52141,-3.63663,47.0137,-22.8948,-3.11258,-36.3945
20.3844,16.4355,-25.8231,11.8773,-29.6578,-0.366777,10.4582,-1.50336,2.713,1.40902,-1.72822,-0.597196,-4.49177,-0.90888,-1.9047,7.06351,6.00072,16.5956,15.9334,10.5804,-17.329,5.34657,5.40025,-8.04959,5.17834e-14,-4.1546e-14,-17.081,-1.60756,-24.1171,37.1509,-10.6077,-6.85113,22.4375,7.12502,19.014,-6.65314,5.17834e-14,-4.1546e-14,-18.843,-18.4689,19.4234,46.6693,50.8566,-9.8865,24.4752,7.12502,16.0929,53.827,-35.6015,-4.85741,7.16536,50.9206,-26.9266,-8.30049,-23.0579,-36.6719,3.56601,-3.5656,47.0488,-22.8718,-3.36298,-35.8069
20.3812,16.4396,-25.8017,11.8927,-29.6532,-0.268821,10.4505,-1.4846,2.63994,1.27276,-1.71195,-0.639849,-4.62837,-0.902705,-1.90886,6.89138,6.02814,16.6531,16.1313,10.6042,-17.2116,5.44012,5.40993,-8.01355,6.2816e-14,-2.96189e-14,-17.7639,-1.53093,-23.4355,37.3464,-11.0206,-6.57515,22.0754,7.12502,19.2794,-6.98896,6.2816e-14,-2.96189e-14,-19.3461,-17.912,18.9622,46.8371,50.532,-9.8894,24.843,7.12502,16.0902,54.195,-35.5648,-4.8028,7.03871,50.8565,-26.989,-8.31441,-22.9087,-36.6729,3.5021,-3.67936,47.0617,-22.6886,-3.6798,-35.1904
20.3779,16.4449,-25.783,12.0073,-29.6185,-0.318021,10.395,-1.48272,2.69552,1.17413,-1.70345,-0.644904,-4.70205,-0.901298,-1.94664,6.60333,6.05882,16.4263,16.3229,10.563,-16.7762,5.51013,5.37831,-7.81552,-1.25731e-14,-5.56597e-15,-18.3466,-1.8242,-22.7312,37.3565,-10.912,-6.05868,21.9695,7.12502,19.7759,-7.04446,-1.25731e-14,-5.56597e-15,-19.6916,-17.6799,18.2896,46.9101,50.5198,-9.85931,24.8797,7.12502,16.1191,54.2293,-35.5382,-4.69114,7.05986,50.7789,-27.0364,-8.31197,-22.5889,-36.7138,3.43741,-3.64234,47.0636,-22.6678,-3.68239,-35.0916
20.3737,16.4485,-25.7633,12.2089,-29.5516,-0.453881,10.4036,-1.54937,2.77352,0.986386,-1.77484,-0.546829,-4.90682,-0.941137,-1.87504,6.58347,6.15162,16.1249,16.2649,10.6409,-16.5361,5.48267,5.40735,-7.67158,-6.44062e-14,2.74323e-14,-18.6517,-2.2051,-21.9575,37.1753,-10.4916,-5.70931,21.8997,7.12502,20.1118,-7.07936,-6.44062e-14,2.74323e-14,-20.2144,-17.5885,17.7387,46.87,50.7227,-10.2507,24.9241,7.12502,15.7422,54.3038,-35.5288,-4.6166,7.1711,50.6819,-26.9697,-8.46286,-22.8085,-36.8061,3.42318,-3.54678,47.0664,-22.8965,-3.19281,-36.231
20.3692,16.4525,-25.7448,12.4099,-29.5706,-0.561483,10.4552,-1.57478,2.76816,0.766562,-1.79912,-0.448014,-5.16423,-0.956871,-1.76094,6.49573,6.24439,16.3006,16.3664,10.8139,-16.8145,5.58256,5.4865,-7.78622,5.51627e-15,1.11319e-14,-18.9547,-2.5286,-21.1554,36.9686,-10.244,-5.45373,21.8473,7.12502,20.3574,-7.1057,5.51627e-15,1.11319e-14,-20.6996,-17.3436,17.2694,46.8007,50.7538,-10.5259,24.9022,7.12502,15.4772,54.3026,-35.5702,-4.51761,7.259,50.5617,-26.8314,-8.77205,-23.302,-36.901,3.42429,-3.46007,47.0834,-22.9408,-3.29504,-35.8154
20.3679,16.457,-25.7299,12.6195,-29.505,-0.666879,10.5227,-1.54657,2.8178,0.557133,-1.74683,-0.380026,-5.4188,-0.936306,-1.72131,6.16645,6.25014,16.4242,16.7596,10.8336,-16.8683,5.77416,5.48298,-7.82062,9.69075e-15,-1.13307e-14,-19.5871,-2.78914,-20.2385,36.9165,-10.2933,-4.88907,22.1675,7.12502,20.9,-6.72659,9.69075e-15,-1.13307e-14,-20.8651,-17.0005,16.7409,46.7148,50.7469,-9.94164,24.6609,7.12502,16.0398,54.017,-35.6121,-4.51355,7.36424,50.4337,-26.7565,-8.93491,-23.3448,-37.0593,3.34332,-3.32846,47.102,-22.7803,-4.09902,-33.2716
20.3672,16.4603,-25.7104,12.7456,-29.3528,-0.681913,10.6012,-1.55445,2.85327,0.35579,-1.7446,-0.330552,-5.67426,-0.940238,-1.68528,5.97428,6.25952,16.1691,17.0281,10.8068,-16.6077,5.85943,5.45385,-7.68465,-8.69683e-14,2.38542e-15,-20.2926,-2.84149,-19.2703,37.052,-10.4865,-4.16877,22.0196,7.12502,21.5919,-6.79671,-8.69683e-14,2.38542e-15,-21.0461,-16.7253,16.1538,46.6607,50.7337,-9.35583,24.7177,7.12502,16.6039,54.0275,-35.5459,-4.64263,7.37717,50.3025,-26.698,-9.03161,-23.4678,-37.1623,3.1852,-3.30254,47.0877,-22.7147,-4.37234,-32.2058
20.3615,16.4641,-25.6869,12.7952,-29.329,-0.695426,10.6882,-1.56924,2.81386,0.203909,-1.7611,-0.281669,-5.88142,-0.950274,-1.60513,5.92994,6.3464,15.9411,17.0146,10.8914,-16.4342,5.8573,5.48666,-7.57558,-4.76089e-14,-3.00165e-14,-20.8326,-2.86466,-18.4087,37.2975,-10.6982,-3.03138,21.8825,7.12502,22.6839,-6.80427,-4.76089e-14,-3.00165e-14,-21.3525,-16.4245,15.5722,46.5459,50.5244,-9.45292,24.6511,7.12502,16.5104,53.9686,-35.4252,-4.61979,7.36677,50.1767,-26.6396,-9.21258,-24.0207,-37.107,3.17987,-3.33897,47.0269,-22.77,-3.99773,-33.2638
20.3532,16.4725,-25.6616,12.8043,-29.4014,-0.750055,10.794,-1.56544,2.76079,0.081752,-1.75383,-0.221036,-6.06607,-0.947339,-1.5086,5.6745,6.47759,15.9565,17.1398,11.0566,-16.4272,5.97119,5.55608,-7.55547,-4.49253e-14,3.22031e-14,-21.1678,-3.15492,-17.5615,37.2113,-10.7846,-1.78172,23.0783,7.12502,23.8827,-5.45672,-4.49253e-14,3.22031e-14,-21.6992,-16.0404,15.0771,46.3236,50.2649,-9.5554,24.1967,7.12502,16.4117,53.5225,-35.2804,-4.46381,7.38017,50.0771,-26.7353,-9.1441,-23.8941,-36.9281,3.23676,-3.33709,46.9355,-22.7716,-4.0156,-33.0116
20.3477,16.4817,-25.638,12.8902,-29.4032,-0.687631,10.8514,-1.56582,2.65855,-0.132513,-1.75976,-0.180887,-6.3209,-0.950936,-1.40344,5.35189,6.53008,16.3088,17.4015,11.1843,-16.8114,6.17145,5.60665,-7.73559,-5.26779e-14,1.16289e-14,-21.5376,-3.49136,-16.6251,36.9542,-10.7336,-0.993718,23.8549,7.12502,24.6382,-4.57915,-5.26779e-14,1.16289e-14,-22.0526,-15.5401,14.5878,46.1998,50.1559,-9.41656,24.4359,7.12502,16.5454,53.7505,-35.2582,-4.4586,7.28923,50.0071,-26.935,-8.85459,-22.9359,-36.904,3.1561,-3.41148,46.8485,-22.7061,-4.466,-31.5226
20.3436,16.4856,-25.6219,13.0465,-29.3969,-0.510047,10.9256,-1.53281,2.43698,-0.434688,-1.73695,-0.163612,-6.67481,-0.937911,-1.25814,5.43009,6.47208,16.2501,17.2931,11.1138,-16.8685,6.10922,5.57165,-7.75214,1.07344e-14,-2.0773e-14,-22.1547,-3.72485,-15.6473,37.0123,-10.4018,-0.0170878,23.8751,7.12502,25.574,-4.42798,1.07344e-14,-2.0773e-14,-22.4493,-15.1969,14.0945,46.363,50.4539,-9.39584,24.9941,7.12502,16.5654,54.307,-35.4118,-4.509,7.09937,49.9766,-27.0489,-8.56073,-21.7345,-37.0577,3.15645,-3.61654,46.7885,-22.7587,-4.0379,-33.0388
20.3371,16.4856,-25.6051,13.1523,-29.4337,-0.375432,10.9284,-1.50807,2.24185,-0.642969,-1.72565,-0.144596,-6.89055,-0.928492,-1.12703,5.78353,6.45937,15.6875,16.8724,11.0254,-16.4548,5.84751,5.53275,-7.52031,-1.43622e-14,4.26393e-14,-22.6908,-3.99786,-14.7376,37.1531,-10.0871,1.12504,24.2025,7.12502,26.6675,-3.93899,-1.43622e-14,4.26393e-14,-22.7985,-14.9688,13.5578,46.3237,50.7329,-9.28786,24.5809,7.12502,16.6693,53.8851,-35.5122,-4.52454,6.95633,49.96,-27.0632,-8.56611,-21.4519,-37.1316,3.26242,-3.79988,46.7626,-22.8435,-3.74197,-33.9561
20.331,16.4865,-25.5854,13.2973,-29.4359,-0.322753,10.8642,-1.5566,2.19479,-0.835123,-1.79552,-0.137965,-7.05978,-0.963465,-1.08029,6.04282,6.53734,15.6141,16.5751,11.1384,-16.4919,5.7281,5.59688,-7.51675,1.717e-14,2.09718e-14,-23.0388,-4.02506,-13.985,37.2425,-10.1774,1.77172,23.9591,7.12502,27.2863,-4.08664,1.717e-14,2.09718e-14,-23.0678,-14.7387,12.8661,45.9299,50.646,-8.96724,23.9402,7.12502,16.978,53.2182,-35.5957,-4.57355,6.90401,49.9274,-27.0311,-8.83808,-22.2313,-37.2414,3.26104,-3.87739,46.7558,-22.9909,-3.21601,-35.3108
20.3269,16.4894,-25.5696,13.5699,-29.4676,-0.407793,10.9071,-1.57578,2.2545,-1.09517,-1.80796,-0.116979,-7.36371,-0.975591,-1.0845,5.99101,6.63671,15.7428,16.5496,11.2845,-16.5723,5.7671,5.67083,-7.55309,-2.25621e-14,-2.18663e-15,-23.4703,-3.82239,-13.2294,37.3208,-10.5812,2.21871,23.6155,7.12502,27.7137,-4.36222,-2.25621e-14,-2.18663e-15,-23.337,-14.6489,12.2045,45.807,50.6688,-9.3002,24.0888,7.12502,16.6574,53.394,-35.7845,-4.51666,6.97862,49.8792,-26.995,-8.82571,-22.5706,-37.4672,3.296,-3.81908,46.7527,-22.9929,-3.0761,-35.4988
20.3223,16.4926,-25.5534,13.7866,-29.5198,-0.531211,11.0349,-1.59226,2.28563,-1.2963,-1.81477,-0.0415473,-7.65094,-0.982024,-1.01469,5.81752,6.75747,15.5324,16.507,11.4032,-16.4218,5.78504,5.71541,-7.44699,-2.60656e-14,2.21645e-14,-23.8357,-3.89732,-12.3938,37.3348,-10.7765,2.92955,24.1475,7.12502,28.3932,-3.71901,-2.60656e-14,2.21645e-14,-23.7724,-14.2762,11.6537,45.8658,50.4974,-9.73634,24.1508,7.12502,16.2375,53.4908,-35.8847,-4.47267,7.09025,49.8154,-26.9778,-8.67139,-22.8306,-37.5649,3.4453,-3.74816,46.7601,-22.989,-3.31532,-35.4034
20.3195,16.4952,-25.5345,13.8813,-29.4604,-0.499776,11.1704,-1.70933,2.24159,-1.50109,-1.96677,0.0173439,-7.95062,-1.05604,-0.893194,5.83358,6.86355,15.3659,16.3709,11.5394,-16.4516,5.75523,5.77269,-7.41672,-1.13382e-13,1.60022e-14,-24.0071,-4.23721,-11.6029,37.2833,-10.407,3.9342,24.614,7.12502,29.3529,-3.08847,-1.13382e-13,1.60022e-14,-24.4673,-13.7504,10.9998,45.8713,50.1338,-9.27738,24.3726,7.12502,16.6794,53.676,-35.8874,-4.60776,7.06183,49.7509,-26.8704,-8.83079,-23.3989,-37.6135,3.48194,-3.81965,46.7765,-23.109,-3.29041,-36.2633
20.3192,16.4961,-25.5133,14.0612,-29.4169,-0.459404,11.1887,-1.75554,2.26914,-1.73147,-2.02382,-0.00595609,-8.21353,-1.08907,-0.918179,5.70716,6.90423,15.5515,16.3913,11.6031,-16.5398,5.81069,5.80563,-7.46893,-4.84538e-15,-7.15625e-15,-24.4496,-4.55831,-10.7766,37.2688,-10.0992,5.01026,24.6951,7.12502,30.3798,-2.82271,-4.84538e-15,-7.15625e-15,-24.807,-13.5836,10.2841,45.7259,50.1226,-8.60418,25.048,7.12502,17.3274,54.2956,-36.0034,-4.66845,6.99517,49.6989,-26.7503,-9.20559,-23.5976,-37.783,3.43745,-3.89171,46.7845,-23.2065,-2.77773,-37.4722
20.3174,16.5009,-25.4892,14.3289,-29.4325,-0.527139,11.1129,-1.72115,2.41423,-1.92112,-1.96067,-0.0397767,-8.37918,-1.06916,-1.04595,5.27467,6.97625,15.964,16.5715,11.7053,-16.6818,5.99344,5.85377,-7.56524,1.2424e-15,1.28216e-14,-25.0551,-4.83546,-9.89693,37.2365,-10.0105,5.89114,25.0162,7.12502,31.2196,-2.34323,1.2424e-15,1.28216e-14,-24.8148,-13.4295,9.61234,45.3612,50.1298,-8.05554,25.0262,7.12502,17.8554,54.2265,-36.1631,-4.68925,7.03972,49.6491,-26.7725,-9.32417,-23.5617,-37.9396,3.44732,-3.86382,46.7632,-23.1864,-2.60308,-37.4851
20.3132,16.5078,-25.4692,14.45,-29.4129,-0.353543,11.0899,-1.7475,2.30195,-2.12495,-2.01335,-0.0707624,-8.58562,-1.09331,-1.00286,4.84569,7.11387,16.1371,16.807,11.887,-16.7578,6.19033,5.92746,-7.59232,-2.08724e-15,1.39149e-14,-25.3638,-5.0504,-9.07005,37.0641,-9.76951,6.49632,25.2394,7.12502,31.7961,-2.00724,-2.08724e-15,1.39149e-14,-25.1256,-12.892,8.92913,45.1043,49.8962,-7.48005,24.6491,7.12502,18.4091,53.798,-36.2885,-4.89587,6.89217,49.6201,-26.8288,-9.20517,-23.5756,-38.0725,3.43054,-4.07349,46.7099,-23.1614,-2.39621,-38.1082
20.3074,16.5121,-25.4513,14.4893,-29.3797,-0.0174551,11.061,-1.81028,2.01028,-2.30512,-2.14192,-0.11114,-8.75909,-1.14444,-0.855166,4.49013,7.23135,15.9447,16.9473,12.0072,-16.6539,6.30055,5.9606,-7.49976,7.33018e-15,-4.03533e-14,-25.5059,-5.37607,-8.31419,36.8754,-9.37076,6.899,25.1429,7.12502,32.1795,-2.0269,7.33018e-15,-4.03533e-14,-25.5474,-12.2201,8.22427,44.8954,49.7799,-7.0486,24.4196,7.12502,18.8241,53.5288,-36.4082,-5.15177,6.59153,49.6016,-26.8634,-9.14817,-23.4446,-38.2389,3.35604,-4.43832,46.6584,-23.4076,-1.68885,-39.9226
20.2993,16.5173,-25.4328,14.6391,-29.3803,0.0207926,11.0809,-1.88547,1.95973,-2.50551,-2.24643,-0.0860709,-8.98904,-1.1942,-0.775732,4.37538,7.33362,15.7994,16.8998,12.1294,-16.637,6.31753,6.00678,-7.45217,2.63141e-14,-1.5704e-14,-25.6783,-5.47602,-7.61968,36.8845,-9.11369,7.39597,25.1148,7.12502,32.6525,-1.95806,2.63141e-14,-1.5704e-14,-25.8958,-11.8159,7.52368,44.5545,49.9621,-6.99928,24.1383,7.12502,18.8715,53.2429,-36.4964,-5.12899,6.54561,49.5756,-26.9301,-9.05091,-22.8945,-38.3452,3.363,-4.49196,46.6322,-23.6258,-1.67827,-39.8828
20.2905,16.5226,-25.4146,14.7864,-29.42,-0.130641,11.2745,-1.91727,2.02229,-2.74201,-2.26911,-0.0240743,-9.36092,-1.20971,-0.729246,4.36118,7.42168,15.8504,16.8128,12.2524,-16.6911,6.3216,6.06788,-7.46619,-3.20292e-14,-2.94201e-14,-25.9855,-5.19311,-6.87637,36.9797,-9.14821,8.13108,25.288,7.12502,33.3517,-1.63733,-3.20292e-14,-2.94201e-14,-26.2448,-11.4506,6.83654,44.3195,49.9229,-6.92677,24.0075,7.12502,18.9413,53.1053,-36.4975,-4.9198,6.64998,49.5527,-27.0137,-8.89884,-22.1663,-38.3161,3.46136,-4.36476,46.6445,-23.4312,-2.17043,-38.8958
20.2836,16.5265,-25.3972,14.9069,-29.4845,-0.241374,11.4267,-1.87917,2.0383,-2.87638,-2.20836,0.0114143,-9.59437,-1.18193,-0.704512,4.00519,7.52878,15.877,16.8566,12.3549,-16.5997,6.41348,6.10769,-7.41364,-1.09332e-14,2.34566e-14,-26.3859,-5.29473,-6.03504,36.9147,-9.09566,8.94427,25.544,7.12502,34.1243,-1.21212,-1.09332e-14,2.34566e-14,-26.561,-10.8661,6.16132,44.2611,49.5433,-7.17956,24.5405,7.12502,18.6981,53.6618,-36.4945,-4.82046,6.72734,49.5172,-27.1248,-8.80268,-21.8436,-38.2728,3.54346,-4.29373,46.682,-23.297,-1.96514,-39.5844
20.2789,16.5257,-25.3849,15.1046,-29.4792,-0.32414,11.4872,-1.84222,2.09146,-3.02016,-2.14792,0.0210834,-9.78784,-1.15758,-0.731172,3.55079,7.63653,16.0307,17.0487,12.4665,-16.5428,6.58216,6.15176,-7.39216,-6.08778e-14,-1.78906e-15,-26.864,-5.68357,-5.14574,36.7939,-8.76114,9.62642,25.8137,7.12502,34.7719,-0.795363,-6.08778e-14,-1.78906e-15,-26.8034,-10.5562,5.51694,44.3562,49.7251,-8.21003,25.6487,7.12502,17.7067,54.8625,-36.6495,-4.79746,6.80196,49.596,-27.311,-8.68956,-21.6256,-38.4723,3.58164,-4.21545,46.83,-23.3602,-1.78531,-39.8461
20.2748,16.5243,-25.3742,15.3016,-29.3966,-0.440872,11.6708,-1.86432,2.21405,-3.22462,-2.15211,0.0321804,-10.1264,-1.16967,-0.777411,3.16411,7.72649,16.2979,17.2674,12.5792,-16.6014,6.76298,6.20029,-7.43411,-1.73688e-14,1.42131e-14,-27.3043,-5.99568,-4.31456,36.7477,-8.31354,10.0777,25.941,7.12502,35.2001,-0.568101,-1.73688e-14,1.42131e-14,-27.1125,-10.6036,4.88161,44.5427,50.4215,-8.57467,26.0993,7.12502,17.3558,55.3444,-36.7569,-4.7847,6.92251,49.6489,-27.4046,-8.60298,-21.38,-38.7052,3.63313,-4.09345,46.9429,-23.3544,-2.02791,-38.9772
20.2698,16.4879,-25.3586,15.3095,-29.4723,-0.488757,11.9221,-1.8792,2.20937,-3.31651,-2.16724,0.0168989,-10.3774,-1.1787,-0.77841,2.6646,7.82913,16.4146,17.4228,12.6734,-16.5681,6.92535,6.23044,-7.41327,8.31665e-14,2.98177e-14,-27.5717,-6.35401,-3.6055,36.7012,-7.99331,10.5383,25.9104,7.12502,35.6367,-0.494523,8.31665e-14,2.98177e-14,-27.388,-10.3839,4.15772,44.4245,50.5895,-7.9759,25.6285,7.12502,17.932,54.8218,-36.8299,-4.74565,6.9146,49.8097,-27.4666,-8.61885,-21.5419,-38.7599,3.72491,-4.03532,47.1522,-23.689,-1.75842,-39.5644
20.2629,16.4974,-25.3406,15.2123,-29.6072,-0.413442,12.1531,-1.87756,2.06077,-3.40384,-2.18458,-0.000988651,-10.6059,-1.17937,-0.701409,2.24096,7.91149,16.4051,17.5954,12.7383,-16.4591,7.06131,6.24543,-7.35085,-2.34566e-14,-3.57812e-15,-27.7214,-6.55265,-2.90303,36.5652,-7.8097,11.0417,26.0506,7.12502,36.1137,-0.23788,-2.34566e-14,-3.57812e-15,-27.6046,-9.83784,3.40498,44.0553,50.0478,-7.41441,25.1385,7.12502,18.4722,54.2814,-36.7204,-4.66137,6.81808,49.8027,-27.5488,-8.65629,-21.5675,-38.5619,3.6359,-4.10581,47.2068,-24.0752,-1.56833,-39.7343
20.2569,16.5067,-25.3237,15.3003,-29.6843,-0.386453,12.3913,-1.89086,1.96442,-3.67255,-2.20979,0.0226904,-11.043,-1.18731,-0.602797,2.07477,8.00446,16.4241,17.7903,12.8624,-16.4167,7.17596,6.29845,-7.32259,3.43401e-14,1.74931e-14,-27.8653,-6.56313,-2.14565,36.4382,-7.60156,11.5223,26.3247,7.12502,36.5687,0.149941,3.43401e-14,1.74931e-14,-27.9935,-9.6154,2.73508,43.8996,49.7818,-7.22416,25.1453,7.12502,18.6552,54.2708,-36.7796,-4.53659,6.76158,49.8057,-27.644,-8.57584,-21.0534,-38.569,3.54171,-4.12379,47.2721,-23.9582,-2.25221,-37.3413
20.2505,16.5117,-25.3034,15.5327,-29.7486,-0.477702,12.5469,-1.87553,2.00869,-3.96126,-2.17662,0.0345308,-11.461,-1.17759,-0.610957,1.81321,8.13618,16.7244,18.0377,13.062,-16.5668,7.37218,6.39103,-7.39909,2.11209e-14,4.57205e-15,-28.167,-6.71105,-1.3143,36.3374,-7.31871,12.0725,26.6377,7.12502,37.0893,0.596371,2.11209e-14,4.57205e-15,-28.2528,-9.69829,2.09811,43.7757,49.9057,-7.15917,25.2423,7.12502,18.7177,54.3617,-36.8742,-4.43977,6.81447,49.7151,-27.6551,-8.52549,-20.7311,-38.6131,3.61241,-4.08359,47.2295,-23.7671,-2.89028,-34.8393
20.2457,16.5118,-25.2877,15.7567,-29.7055,-0.577612,12.6471,-1.88561,2.10244,-4.1742,-2.16976,0.0506143,-11.7652,-1.18316,-0.639895,1.38412,8.29204,16.9295,18.3235,13.2601,-16.6025,7.59865,6.47475,-7.41143,-2.80038e-14,-1.25234e-14,-28.4995,-6.8904,-0.478432,36.2243,-7.06795,12.5666,26.949,7.12502,37.5564,1.03046,-2.80038e-14,-1.25234e-14,-28.4222,-9.60811,1.44063,43.5204,49.8164,-7.33196,25.5322,7.12502,18.5515,54.6675,-36.9529,-4.48463,6.91978,49.6446,-27.5991,-8.62292,-20.9306,-38.7293,3.6923,-4.0173,47.2154,-23.8,-2.98479,-34.5274
20.2425,16.5156,-25.2768,15.9296,-29.6041,-0.584663,12.8195,-1.96018,2.13812,-4.39964,-2.25791,0.0648838,-12.1293,-1.2298,-0.613297,1.13922,8.4471,16.8411,18.3815,13.4248,-16.4162,7.67503,6.54642,-7.29962,4.80065e-14,-6.55989e-15,-28.7185,-6.89064,0.248539,36.1851,-6.97146,12.9873,27.0794,7.12502,37.9538,1.26767,4.80065e-14,-6.55989e-15,-28.7514,-9.39338,0.707274,43.3207,49.6323,-7.451,26.0613,7.12502,18.437,55.2076,-36.9686,-4.54693,6.95946,49.4508,-27.4874,-8.68379,-21.149,-38.8558,3.61528,-3.97927,47.0835,-23.6973,-3.14647,-34.0779
20.2404,16.5216,-25.2648,16.0695,-29.5591,-0.537485,13.0214,-2.01928,2.14873,-4.63731,-2.33438,0.0329293,-12.5281,-1.2713,-0.62379,1.02833,8.55192,16.6274,18.2378,13.4973,-16.1085,7.62528,6.58179,-7.13524,-5.81445e-15,1.94809e-14,-28.9394,-7.00425,0.981923,36.1153,-6.69823,13.1942,27.0785,7.12502,38.1493,1.32004,-5.81445e-15,1.94809e-14,-28.9465,-9.08934,-0.112843,43.0822,49.2201,-6.87215,26.052,7.12502,18.9938,55.1446,-36.978,-4.59713,6.9364,49.2409,-27.4215,-8.75127,-21.3842,-38.9725,3.49328,-4.00014,46.9542,-23.6013,-3.2279,-33.4385
20.2354,16.5681,-25.249,16.278,-29.5942,-0.568282,13.1056,-2.01162,2.21558,-4.83173,-2.31419,-0.00148719,-12.8072,-1.27164,-0.696599,0.843708,8.61382,16.3746,18.1204,13.5065,-15.8045,7.58249,6.58086,-6.9717,-2.39039e-14,8.34896e-15,-29.2495,-7.32852,1.79371,35.9876,-6.23175,13.3715,27.3736,7.12502,38.3166,1.66123,-2.39039e-14,8.34896e-15,-29.0183,-8.71262,-0.867511,42.7991,48.7432,-6.4427,25.8821,7.12502,19.4067,54.9337,-36.9084,-4.56962,7.00358,48.8871,-27.3695,-8.82937,-21.3171,-38.9222,3.48662,-4.04114,46.6907,-23.4704,-3.0026,-33.8373
20.2295,16.5747,-25.2333,16.432,-29.6328,-0.514318,13.1735,-1.99225,2.18892,-5.01999,-2.29548,-0.0323956,-13.0658,-1.26502,-0.7135,0.663059,8.68761,16.3672,18.0138,13.5781,-15.7896,7.5919,6.60949,-6.9456,1.01082e-13,2.08724e-14,-29.5707,-7.27937,2.53521,35.9805,-6.27031,13.8048,27.651,7.12502,38.7254,2.05292,1.01082e-13,2.08724e-14,-29.1602,-8.2985,-1.52868,42.4611,48.2258,-6.63767,25.9767,7.12502,19.2193,55.0471,-36.9529,-4.59891,6.94514,48.6869,-27.3268,-8.78848,-21.1458,-38.9854,3.47929,-4.12457,46.5615,-23.2777,-2.5597,-35.2114
20.2239,16.5789,-25.2234,16.5361,-29.6449,-0.399919,13.309,-2.02576,2.15747,-5.19975,-2.35487,-0.120745,-13.3626,-1.29765,-0.77003,0.578845,8.76706,16.3132,17.7243,13.6357,-15.6858,7.5122,6.64014,-6.8825,7.45443e-15,-3.55825e-14,-29.8563,-7.14791,3.1007,36.0229,-6.52024,14.1745,27.2234,7.12502,39.0741,1.72464,7.45443e-15,-3.55825e-14,-29.353,-7.83568,-2.32279,42.1184,47.6237,-7.27304,26.3186,7.12502,18.6082,55.4486,-36.9924,-4.54582,6.82749,48.5055,-27.189,-8.84326,-21.2872,-39.0744,3.45075,-4.23068,46.4323,-23.1816,-2.25177,-36.3115
20.2216,16.5792,-25.2168,16.6976,-29.6598,-0.47962,13.3851,-2.08941,2.41641,-5.23767,-2.4092,-0.271938,-13.4766,-1.35473,-1.06625,0.34389,8.84612,16.1642,17.2793,13.6297,-15.4035,7.37862,6.64005,-6.73884,2.22142e-14,-1.03368e-14,-30.2187,-7.8503,3.66466,35.9897,-6.16105,14.7489,27.0493,7.12502,39.6153,1.70839,2.22142e-14,-1.03368e-14,-29.4989,-7.26893,-3.31867,41.8736,47.2772,-7.05115,26.3194,7.12502,18.8216,55.4288,-37.0811,-4.39163,6.88099,48.45,-27.1123,-8.89988,-21.2437,-39.1753,3.54077,-4.16621,46.4445,-23.1982,-2.09264,-37.2072
20.2203,16.5815,-25.2059,16.8145,-29.6706,-0.583596,13.4473,-2.12125,2.63154,-5.18262,-2.4205,-0.360405,-13.4669,-1.38275,-1.28184,-0.378108,8.98862,16.2573,17.1216,13.7142,-15.3601,7.47679,6.66008,-6.69059,-6.79844e-14,6.36111e-15,-30.534,-8.80743,4.35004,35.9419,-5.63846,15.3655,27.4044,7.12502,40.1956,2.23768,-6.79844e-14,6.36111e-15,-29.5626,-6.6122,-4.23005,41.5994,47.0436,-5.60901,25.9676,7.12502,20.2082,54.9364,-37.1551,-4.36408,6.97425,48.5146,-27.1481,-8.88942,-21.2253,-39.2608,3.60435,-4.09429,46.5986,-23.2316,-2.13357,-37.1525
20.2192,16.5842,-25.1938,16.9576,-29.7011,-0.619645,13.5692,-2.09643,2.61689,-5.21661,-2.38329,-0.336939,-13.5776,-1.36352,-1.25245,-1.13411,9.11194,16.3661,17.1401,13.8141,-15.4858,7.65445,6.67435,-6.70413,5.1684e-14,7.95139e-16,-30.7389,-8.93613,5.00343,35.951,-5.76266,15.527,27.22,7.12502,40.3475,2.09969,5.1684e-14,7.95139e-16,-29.6863,-6.18674,-4.88982,41.3881,47.044,-5.57643,26.3876,7.12502,20.2395,55.3531,-37.288,-4.40939,7.00983,48.5765,-27.1478,-9.03628,-21.8678,-39.4206,3.57514,-4.06438,46.7683,-23.3535,-2.67929,-34.7861
20.221,16.5416,-25.1847,17.0477,-29.8292,-0.557656,13.7867,-1.99967,2.43287,-5.32844,-2.27919,-0.31281,-13.8267,-1.29965,-1.13965,-1.45377,9.12247,16.4252,16.9154,13.8019,-15.6862,7.65558,6.64968,-6.76681,3.77194e-14,2.00773e-14,-31.0313,-8.58683,5.70535,35.9754,-6.17426,15.704,26.931,7.12502,40.5139,1.86204,3.77194e-14,2.00773e-14,-29.8202,-5.80079,-5.45193,41.2217,46.9993,-6.62575,27.0307,7.12502,19.2307,56.0999,-37.5823,-4.43327,6.87726,48.793,-27.1876,-9.12463,-22.2774,-39.679,3.598,-4.11299,47.0718,-23.5148,-2.98812,-32.9315
20.22,16.5418,-25.175,17.1111,-29.986,-0.51466,14.092,-1.92001,2.33656,-5.48984,-2.18756,-0.347348,-14.1981,-1.25365,-1.1357,-1.66781,9.16267,16.6503,16.6405,13.8298,-15.9015,7.64295,6.6588,-6.86063,-5.43676e-14,1.37161e-14,-31.3204,-8.85217,6.53961,35.8319,-5.95947,16.3278,27.3547,7.12502,41.1,2.47019,-5.43676e-14,1.37161e-14,-29.9107,-5.27226,-6.16224,40.961,46.6011,-6.6814,27.0974,7.12502,19.1772,56.172,-37.6766,-4.36083,6.7964,48.7595,-27.1741,-9.08218,-22.1206,-39.6781,3.711,-4.22588,47.0946,-23.5838,-2.66663,-33.8542
20.22,16.5457,-25.1689,17.2532,-29.9928,-0.571859,14.4585,-1.95365,2.53077,-5.72824,-2.19775,-0.439374,-14.7235,-1.28754,-1.3309,-1.71352,9.24736,16.9834,16.3292,13.9231,-16.0848,7.60679,6.71512,-6.95923,1.67476e-14,-1.98785e-15,-31.585,-9.47843,7.30737,35.6717,-5.37355,17.017,27.8238,7.12502,41.7468,3.14949,1.67476e-14,-1.98785e-15,-30.0071,-4.76122,-7.06011,40.7208,46.3602,-6.38166,27.0141,7.12502,19.4654,56.0597,-37.8459,-4.31674,6.8369,48.8749,-27.2214,-9.03525,-21.7755,-39.8321,3.78647,-4.20994,47.2481,-23.7345,-2.60233,-34.2148
20.2207,16.5929,-25.1645,17.3459,-29.8998,-0.585816,14.8296,-2.03091,2.72081,-5.93811,-2.26482,-0.519807,-15.2248,-1.34762,-1.49614,-1.52744,9.31113,17.2312,15.8497,14.0087,-16.288,7.4684,6.77375,-7.05996,2.83268e-15,3.37934e-14,-31.8647,-9.73781,7.92579,35.6721,-5.10835,17.2032,27.731,7.12502,41.9213,3.11469,2.83268e-15,3.37934e-14,-30.2144,-3.99426,-7.97036,40.6089,46.0956,-6.33901,27.295,7.12502,19.5064,56.3365,-37.7769,-4.31145,6.89599,48.7421,-27.2112,-9.01679,-21.4324,-39.8341,3.70668,-4.22093,47.1286,-23.7183,-3.03445,-32.3614
20.2245,16.5481,-25.1653,17.4315,-29.8508,-0.578845,15.126,-2.06662,2.8326,-6.0583,-2.2908,-0.586405,-15.5673,-1.37893,-1.61701,-1.54988,9.34442,17.3824,15.3963,14.0236,-16.4463,7.35282,6.78559,-7.12906,4.4329e-14,-5.1684e-14,-32.1759,-9.94428,8.53298,35.662,-5.2555,17.4262,27.9408,7.12502,42.1303,3.39461,4.4329e-14,-5.1684e-14,-30.4909,-2.8436,-8.87366,40.4554,45.2375,-5.91022,27.3709,7.12502,19.9187,56.3701,-38.0228,-4.36313,6.85855,48.9242,-27.2055,-9.09236,-21.6726,-40.1344,3.73618,-4.18301,47.3119,-23.6958,-3.14109,-31.8789
20.2248,16.5458,-25.1637,17.4686,-29.8869,-0.532288,15.4269,-2.05011,2.8489,-6.13556,-2.26668,-0.658728,-15.8542,-1.37753,-1.70607,-1.62925,9.30901,17.3771,14.9553,13.938,-16.5664,7.21797,6.73963,-7.17023,-6.5748e-14,-1.70955e-14,-32.4964,-10.5098,9.25885,35.594,-5.38891,17.9482,28.326,7.12502,42.6191,3.94688,-6.5748e-14,-1.70955e-14,-30.6926,-1.64735,-9.77447,40.2285,44.3542,-4.92883,27.0453,7.12502,20.8618,55.9436,-38.1135,-4.33806,6.80114,48.9619,-27.113,-9.24882,-22.0393,-40.2041,3.79789,-4.25763,47.3595,-23.6184,-2.589,-34.0512
20.2271,16.5454,-25.1644,17.567,-29.869,-0.541496,15.689,-2.06769,2.91587,-6.19144,-2.27642,-0.71524,-16.0955,-1.39531,-1.79784,-1.67459,9.30899,17.2297,14.4674,13.889,-16.5657,7.05003,6.71227,-7.14203,-9.34785e-14,7.95139e-16,-32.747,-11.5473,9.9764,35.511,-5.09669,18.3122,28.1611,7.12502,42.9596,3.90095,-9.34785e-14,7.95139e-16,-30.7027,-0.439873,-10.6992,39.9496,43.9914,-4.22263,27.4104,7.12502,21.5402,56.2326,-38.233,-4.34994,6.81667,49.0004,-26.9925,-9.36325,-22.0631,-40.3527,3.81611,-4.25784,47.4084,-23.4174,-1.94536,-36.5867
20.2307,16.5448,-25.1666,17.7052,-29.827,-0.615946,15.9085,-2.12786,3.08486,-6.14017,-2.32583,-0.802716,-16.1891,-1.44128,-1.97394,-2.13818,9.46149,17.351,14.056,14.0029,-16.6644,7.04082,6.75168,-7.15236,4.87022e-14,-1.59028e-15,-33.0709,-12.9877,10.6324,35.4846,-4.68405,18.7472,27.9704,7.12502,43.3663,3.85523,4.87022e-14,-1.59028e-15,-30.5359,1.45017,-11.7125,39.3867,43.3819,-4.04086,28.117,7.12502,21.7147,56.9191,-38.3201,-4.35361,6.90202,48.9226,-26.8486,-9.51011,-22.2301,-40.4711,3.81426,-4.17628,47.3192,-23.2532,-1.74442,-37.3676
20.2322,16.5909,-25.1614,17.5947,-29.94,-0.486341,16.2377,-2.1236,3.00309,-6.06363,-2.34246,-0.901841,-16.3056,-1.44664,-2.02909,-2.56292,9.58817,17.5046,13.6107,14.1033,-16.9157,7.02582,6.78,-7.22445,-5.19822e-14,3.10104e-14,-33.4137,-14.443,11.413,35.4538,-4.39513,19.2606,27.8576,7.12502,43.8457,3.91742,-5.19822e-14,3.10104e-14,-30.6371,3.4538,-12.5742,38.9537,42.798,-4.2174,28.4472,7.12502,21.5452,57.2688,-38.1963,-4.37008,6.79383,48.8437,-26.7884,-9.63666,-23.0373,-40.2519,3.78284,-4.37586,47.2078,-23.2869,-1.96217,-36.3555
20.2385,16.5916,-25.1607,17.4182,-29.9919,-0.218508,16.6312,-2.1073,2.75867,-6.1022,-2.36984,-0.92728,-16.5925,-1.43731,-1.90113,-2.5753,9.55312,17.223,13.1297,14.0253,-16.9505,6.84234,6.73255,-7.19404,4.90004e-14,-1.03368e-14,-33.6395,-15.6367,12.2343,35.3506,-4.23168,19.4577,27.4519,7.12502,44.0296,3.58004,4.90004e-14,-1.03368e-14,-31.0416,4.8484,-13.211,38.881,42.7861,-4.73613,28.9563,7.12502,21.0469,57.8342,-38.2231,-4.53105,6.5238,48.9444,-26.7806,-9.52039,-23.4886,-40.2392,3.71226,-4.66428,47.2592,-23.2819,-2.24903,-35.2076
20.2478,16.5425,-25.1743,17.3873,-29.9784,-0.0830321,17.0448,-2.14705,2.59072,-6.17004,-2.44927,-0.899831,-16.9339,-1.45525,-1.73783,-2.63824,9.54109,17.0529,12.7612,13.9907,-17.0776,6.72794,6.70304,-7.20745,-7.28546e-14,5.28767e-14,-33.7496,-16.9361,12.8893,35.2234,-4.10237,19.6598,27.0963,7.12502,44.218,3.29519,-7.28546e-14,5.28767e-14,-31.4873,6.34284,-13.9379,38.714,42.7027,-5.29459,29.4075,7.12502,20.5103,58.3441,-38.512,-4.61829,6.35629,49.2072,-26.7099,-9.39386,-23.478,-40.5611,3.75126,-4.76021,47.4915,-23.1593,-2.43773,-34.9051
20.2539,16.5356,-25.1911,17.4878,-30.1103,-0.194378,17.4403,-2.16397,2.54358,-6.20691,-2.46708,-0.85691,-17.2282,-1.45579,-1.64472,-2.64106,9.57654,17.0827,12.2745,14.0205,-17.327,6.60313,6.71288,-7.28852,8.54774e-15,6.08281e-14,-33.8586,-18.4246,13.441,35.1332,-4.10168,19.9541,26.8672,7.12502,44.4923,3.17038,8.54774e-15,6.08281e-14,-31.9549,7.99546,-14.7702,38.5596,42.5616,-5.91139,29.7181,7.12502,19.9175,58.7174,-38.7928,-4.47886,6.45112,49.443,-26.6389,-9.50061,-23.8051,-40.7747,3.95695,-4.67998,47.7458,-23.086,-2.57783,-34.7208
20.2601,16.5307,-25.2055,17.5686,-30.2333,-0.401566,17.8235,-2.15949,2.5613,-6.16331,-2.43627,-0.798408,-17.4141,-1.43824,-1.58743,-2.51803,9.58431,16.9301,11.6055,13.9944,-17.4219,6.36419,6.70491,-7.29812,2.04748e-14,1.35174e-14,-34.1218,-20.0212,14.0278,35.1466,-4.10975,19.9856,26.4952,7.12502,44.5216,2.80964,2.04748e-14,1.35174e-14,-32.3891,9.83132,-15.5125,38.5666,42.5787,-7.26572,30.6558,7.12502,18.6152,59.7851,-38.9922,-4.31983,6.63062,49.6745,-26.6039,-9.69165,-24.3866,-40.8843,4.14377,-4.50158,48.0065,-23.0911,-2.63705,-34.6023
20.268,16.5281,-25.2191,17.4577,-30.2653,-0.378052,18.2491,-2.18645,2.46465,-6.03338,-2.48608,-0.808146,-17.5209,-1.44755,-1.5181,-2.56827,9.62346,16.8231,10.9915,13.9984,-17.5703,6.18756,6.70241,-7.32256,1.10425e-13,-2.78299e-15,-34.4826,-22.0039,14.681,35.0639,-3.7065,19.9082,26.3189,7.12502,44.4496,2.60571,1.10425e-13,-2.78299e-15,-32.7175,11.7443,-16.0792,38.4858,43.2107,-9.93293,31.9512,7.12502,16.0482,61.3065,-39.0145,-4.31483,6.60586,49.7817,-26.4998,-9.78859,-24.9561,-40.8651,4.22121,-4.54784,48.1043,-23.1337,-2.71946,-34.4563
20.2763,16.5262,-25.2318,17.2899,-30.3348,-0.189429,18.6889,-2.14163,2.24137,-5.9162,-2.48457,-0.894232,-17.6463,-1.42674,-1.48223,-2.91948,9.66048,16.9375,10.6453,13.9902,-17.8202,6.1696,6.68,-7.40742,1.05356e-14,1.47101e-14,-35.0396,-24.0049,15.5026,34.8744,-3.22902,19.9445,26.2928,7.12502,44.4834,2.59258,1.05356e-14,1.47101e-14,-32.8178,14.2026,-16.8735,37.7838,41.7348,-9.55591,31.5151,7.12502,16.4113,60.8409,-39.016,-4.40729,6.43138,49.7461,-26.2986,-9.73756,-25.4171,-40.805,4.30645,-4.78694,48.0404,-23.1387,-2.71005,-34.5989
20.2845,16.5234,-25.2412,17.282,-30.3729,-0.107175,18.9971,-1.9699,1.98331,-5.81633,-2.30752,-0.877509,-17.6925,-1.31611,-1.37002,-3.52371,9.61344,17.0175,10.4557,13.8488,-18.0535,6.21579,6.57764,-7.48842,1.78906e-15,2.62396e-14,-35.8744,-25.421,16.4912,34.9942,-3.35806,19.9934,25.8791,7.12502,44.5289,2.19632,1.78906e-15,2.62396e-14,-32.8059,16.6089,-17.2133,37.3694,40.9063,-10.1192,31.393,7.12502,15.8688,60.7628,-39.0994,-4.54109,6.37433,49.6684,-26.0439,-9.80735,-25.9526,-40.8539,4.37893,-4.91861,47.9619,-23.0578,-2.55458,-35.1317
20.2915,16.5664,-25.2471,17.4098,-30.293,-0.321763,19.2266,-1.85466,1.95287,-5.69977,-2.1229,-0.700156,-17.6717,-1.21376,-1.2051,-3.87817,9.54945,16.8811,10.0341,13.6966,-18.233,6.12432,6.48008,-7.52715,-5.14852e-14,0,-36.577,-26.4599,17.2563,35.3909,-4.0195,19.7979,25.1262,7.12502,44.3467,1.37388,-5.14852e-14,0,-32.8488,18.9514,-17.3326,37.0118,40.1716,-11.4235,31.4705,7.12502,14.6125,60.9357,-38.9472,-4.56669,6.6385,49.3934,-25.8542,-9.99307,-26.2088,-40.7588,4.40143,-4.76324,47.7497,-22.9116,-2.71587,-34.8376
20.3003,16.5662,-25.2568,17.4395,-30.2333,-0.562856,19.6213,-1.88484,2.13294,-5.6117,-2.09521,-0.634064,-17.8154,-1.21413,-1.23198,-3.95697,9.57546,16.8603,9.6431,13.6955,-18.3802,6.02849,6.47484,-7.56696,-3.35946e-14,-2.26615e-14,-36.9771,-27.8485,17.7137,35.4723,-4.30907,19.4127,24.6089,7.12502,43.9876,0.721371,-3.35946e-14,-2.26615e-14,-32.8943,21.1209,-17.7485,36.5385,39.3656,-13.08,31.4384,7.12502,13.016,61.0124,-38.8887,-4.55438,6.86999,49.3858,-25.8468,-10.0839,-26.383,-40.7614,4.44198,-4.52353,47.823,-22.8492,-2.94696,-34.2462
20.3105,16.5601,-25.2692,17.3951,-30.1732,-0.533132,20.0193,-1.98823,2.30887,-5.59379,-2.20147,-0.769737,-18.0667,-1.29194,-1.44491,-4.17986,9.62306,17.1226,9.64091,13.737,-18.5761,6.10988,6.48411,-7.66153,2.08724e-14,3.45885e-14,-37.3637,-29.5195,18.0625,35.2747,-4.19918,18.9039,24.5672,7.12502,43.5127,0.504969,2.08724e-14,3.45885e-14,-33.0297,22.89,-18.3344,36.2577,38.9202,-14.9487,31.2821,7.12502,11.2142,60.9624,-38.9168,-4.67503,6.8785,49.4007,-25.7364,-10.2981,-27.0783,-40.8813,4.37655,-4.52872,47.8888,-22.7578,-3.05345,-33.5956
20.3223,16.5106,-25.2881,17.3063,-30.1377,-0.44594,20.4816,-2.05671,2.46224,-5.58062,-2.27262,-0.954605,-18.3661,-1.35705,-1.71425,-4.25908,9.58926,17.1959,9.43686,13.6522,-18.6153,6.05375,6.44331,-7.69262,1.78906e-15,-8.34896e-15,-37.9875,-31.0825,18.4295,35.2069,-4.26946,18.4984,24.5626,7.12502,43.1337,0.364108,1.78906e-15,-8.34896e-15,-33.0937,24.3902,-18.7358,36.015,38.7905,-16.8916,31.0185,7.12502,9.33995,60.7916,-39.1509,-4.75864,6.77399,49.7124,-25.7097,-10.3418,-27.088,-41.1793,4.37313,-4.55626,48.2149,-22.7554,-3.16228,-33.482
20.3319,16.5098,-25.3093,17.1294,-30.1702,-0.457999,21.1566,-2.05556,2.63973,-5.4717,-2.23971,-1.16616,-18.6752,-1.38122,-2.06536,-4.51869,9.60138,17.1907,9.11561,13.5698,-18.4415,5.97178,6.40355,-7.62767,2.31584e-14,5.1684e-15,-38.8616,-32.6232,18.8448,35.1831,-4.48921,18.0413,24.1763,7.12502,42.7063,-0.172662,2.31584e-14,5.1684e-15,-32.8271,26.312,-18.9886,35.5248,38.442,-18.9871,30.7168,7.12502,7.31762,60.5703,-39.1378,-4.65748,6.7648,49.8834,-25.7217,-10.2543,-26.6964,-41.1241,4.43682,-4.55794,48.383,-22.8234,-3.10796,-34.092
20.3438,16.5087,-25.3249,16.9862,-30.085,-0.556715,21.6623,-2.2309,2.83479,-5.73217,-2.41129,-1.19591,-18.7112,-1.4613,-2.04156,-4.41348,9.61288,16.9344,8.82745,13.5716,-18.3433,5.83971,6.40953,-7.55428,6.43068e-14,-1.47101e-14,-38.7317,-34.2074,18.7852,34.835,-4.65767,16.9316,23.9625,7.12502,41.6667,-0.738264,6.43068e-14,-1.47101e-14,-33.161,27.4268,-19.3078,35.1909,38.4172,-21.1806,30.531,7.12502,5.19999,60.4472,-39.0655,-4.70073,6.86311,50.0508,-25.7534,-10.1966,-26.5788,-41.0984,4.41079,-4.47536,48.5569,-22.8785,-2.79291,-35.3603
20.3601,16.5051,-25.3375,16.8487,-29.9024,-0.621566,22.135,-2.11749,3.08123,-5.58094,-2.20051,-1.37197,-18.7992,-1.40873,-2.44582,-4.8862,9.32742,17.0937,8.56411,13.0612,-18.3172,5.75585,6.15005,-7.61474,-3.57812e-14,-3.18055e-15,-40.0211,-35.7625,19.8145,34.3607,-4.74337,15.1256,23.7553,7.12502,39.9698,-1.47983,-3.57812e-14,-3.18055e-15,-32.3982,28.9603,-18.6768,34.9154,38.6216,-23.2635,30.2604,7.12502,3.18867,60.2163,-38.9338,-4.90375,6.9389,50.1156,-25.8327,-9.83979,-25.9261,-41.0858,4.25481,-4.40231,48.5969,-22.8565,-2.4839,-36.4329
20.3769,16.5056,-25.3556,16.776,-29.8323,-0.579855,22.5051,-2.15626,3.20608,-5.52695,-2.22458,-1.48631,-18.9571,-1.44186,-2.62686,-4.02314,9.19492,16.5748,7.36583,12.8602,-18.0624,5.15198,6.10838,-7.4991,-5.1684e-15,-1.86858e-14,-40.5147,-37.1256,20.0153,33.9871,-4.84339,13.1392,23.1894,7.12502,38.0973,-2.58327,-5.1684e-15,-1.86858e-14,-32.337,30.0651,-18.5414,34.8309,38.9628,-25.2125,30.2256,7.12502,1.3063,60.2013,-39.0086,-5.07689,6.9099,50.217,-25.8672,-9.49077,-25.346,-41.1719,4.18705,-4.44258,48.6187,-22.7482,-2.72967,-35.5541
20.3892,16.5091,-25.3795,16.6776,-29.8888,-0.453633,22.9716,-2.17946,3.11651,-5.46224,-2.2877,-1.58886,-19.1486,-1.4659,-2.65686,-3.56768,9.24968,16.0756,6.4771,12.896,-17.81,4.76194,6.15783,-7.3482,-2.42517e-14,3.97569e-15,-40.686,-38.0805,19.7202,33.8099,-5.39091,11.4311,22.8489,7.12502,36.4824,-3.34764,-2.42517e-14,3.97569e-15,-32.625,30.8679,-18.5084,34.9485,39.5473,-27.1293,30.2854,7.12502,-0.544955,60.2644,-39.1885,-5.12128,6.79853,50.347,-25.8724,-9.21916,-24.8057,-41.2443,4.22554,-4.587,48.6255,-22.6213,-2.92528,-34.8031
20.3992,16.5057,-25.4069,16.3885,-29.9261,-0.273488,23.6875,-2.27968,2.88009,-5.39898,-2.47496,-1.58158,-19.4775,-1.51652,-2.42473,-4.43171,9.37386,16.5408,6.84594,13.0291,-18.395,5.1213,6.16454,-7.56499,4.65156e-14,0,-40.1885,-38.9325,18.9616,33.5852,-6.0978,9.34114,22.2693,7.12502,34.5012,-4.40182,4.65156e-14,0,-33.5184,30.9904,-18.5527,35.3429,40.6101,-29.2137,30.2525,7.12502,-2.55812,60.2169,-39.1979,-5.12014,6.63206,50.4926,-25.8591,-9.01838,-24.5022,-41.155,4.19773,-4.75756,48.6377,-22.5264,-3.01467,-34.5545
20.4113,16.497,-25.4326,16.1762,-29.9027,-0.224292,24.1634,-2.41397,2.77683,-5.23422,-2.66357,-1.52475,-19.5411,-1.57486,-2.21503,-4.4894,9.46454,16.486,6.28527,13.1137,-18.6948,4.99908,6.19952,-7.64239,-6.99722e-14,-4.37326e-14,-39.5754,-40.1888,18.2028,33.1411,-6.32057,6.86898,21.3413,7.12502,32.151,-5.83424,-6.99722e-14,-4.37326e-14,-34.2419,31.404,-18.5854,35.5478,41.4743,-31.2523,30.6846,7.12502,-4.52677,60.6163,-39.1598,-5.17235,6.60218,50.6169,-25.7382,-9.14663,-25.1673,-41.0986,4.17352,-4.78937,48.6761,-22.3826,-3.30993,-33.7783
20.4236,16.4904,-25.4562,16.0762,-29.9258,-0.32049,24.3815,-2.35427,2.79647,-4.93492,-2.5762,-1.57677,-19.2815,-1.53601,-2.31557,-4.30441,9.3889,16.4222,5.32242,12.9295,-18.8111,4.65201,6.13098,-7.70053,-6.61953e-14,4.77083e-14,-39.9477,-41.6674,18.2041,32.6692,-6.23629,4.71745,20.6772,7.12502,30.1004,-6.89186,-6.61953e-14,4.77083e-14,-33.9877,32.5931,-18.1562,35.3931,41.833,-32.9394,31.3361,7.12502,-6.15566,61.2267,-39.1386,-5.08359,6.68118,50.7038,-25.6393,-9.34015,-25.787,-41.0594,4.26643,-4.70126,48.7316,-22.2652,-3.64334,-33.172
20.4331,16.4879,-25.4844,15.9343,-30.0191,-0.334847,24.6972,-2.12335,2.66313,-4.6753,-2.32006,-1.70241,-19.1113,-1.41478,-2.47857,-4.24665,9.30304,16.7334,4.65767,12.7301,-18.9562,4.44087,6.05052,-7.8265,6.87795e-14,2.3059e-14,-40.8673,-42.5762,18.5491,32.4341,-6.38346,2.64966,20.0634,7.12502,28.1257,-7.84734,6.87795e-14,2.3059e-14,-33.2379,33.6273,-17.1752,35.3529,42.2148,-34.3493,31.9509,7.12502,-7.51671,61.7973,-39.1413,-4.93532,6.67509,50.7557,-25.6082,-9.47725,-25.9795,-40.9938,4.39146,-4.69439,48.7721,-22.1564,-3.75663,-33.2685
20.4426,16.4852,-25.5112,15.8148,-30.006,-0.375695,25.034,-2.03577,2.55974,-4.47443,-2.22196,-1.68577,-19.0302,-1.35481,-2.43424,-4.57682,9.27215,17.0655,4.5545,12.641,-19.3272,4.50132,5.98706,-8.00156,2.0276e-14,7.95139e-16,-41.0171,-43.263,18.2729,32.2021,-6.57263,0.431594,19.5121,7.12502,26.0037,-8.72866,2.0276e-14,7.95139e-16,-33.0077,34.1466,-16.3828,35.5035,42.8807,-35.7533,32.5718,7.12502,-8.87171,62.3653,-39.1059,-4.94883,6.72705,50.7878,-25.5967,-9.48714,-25.8803,-40.9657,4.39298,-4.63441,48.7954,-22.1468,-3.57739,-33.9622
20.4527,16.4807,-25.533,15.7094,-29.9668,-0.489736,25.4347,-2.03849,2.56662,-4.30048,-2.19715,-1.60765,-19.0232,-1.33464,-2.35173,-4.4861,9.14324,16.8814,4.01279,12.4393,-19.5641,4.29484,5.89135,-8.07903,2.36554e-14,-7.15625e-15,-40.7749,-44.2637,17.7715,31.786,-6.29489,-1.9253,19.1996,7.12502,23.745,-9.35343,2.36554e-14,-7.15625e-15,-32.7377,35.1845,-15.857,35.2745,43.1363,-37.1288,33.0126,7.12502,-10.1989,62.7453,-39.0212,-4.9318,6.82646,50.8151,-25.5642,-9.37036,-25.6398,-40.9003,4.40835,-4.51786,48.8024,-22.2288,-3.27745,-34.99
20.4639,16.4744,-25.5574,15.6696,-29.9224,-0.511181,25.8849,-1.9925,2.55825,-4.257,-2.12456,-1.59359,-19.2056,-1.30119,-2.35165,-3.34736,8.95492,15.8565,2.52671,12.156,-18.9902,3.50549,5.83596,-7.80668,4.49253e-14,1.07344e-14,-40.5957,-44.9143,17.2507,31.4821,-6.07427,-4.52403,18.3918,7.12502,21.2507,-10.4633,4.49253e-14,1.07344e-14,-31.7657,36.7647,-15.0768,34.596,42.7829,-38.2031,33.1383,7.12502,-11.2352,62.8174,-39.0713,-4.8926,6.82922,50.8471,-25.484,-9.41271,-25.6929,-40.954,4.499,-4.51932,48.7995,-22.2688,-2.79605,-37.0023
20.4765,16.4693,-25.5812,15.6431,-29.817,-0.499343,26.3184,-1.96798,2.56407,-4.25341,-2.0748,-1.56904,-19.4299,-1.27939,-2.33925,-4.80552,8.79433,16.6764,3.74183,11.9144,-19.8404,4.17934,5.61009,-8.18602,1.23246e-14,1.31198e-14,-40.17,-45.1731,16.4502,31.345,-6.32808,-7.02767,17.073,7.12502,18.8442,-12.0342,1.23246e-14,1.31198e-14,-30.9377,37.4531,-14.0956,34.2717,43.271,-39.0812,32.9433,7.12502,-12.082,62.5745,-39.1197,-4.95959,6.82114,50.8642,-25.4514,-9.47283,-25.8594,-41.0632,4.5756,-4.55793,48.7869,-22.2663,-2.66305,-37.9773
20.488,16.4701,-25.6015,15.5136,-29.8375,-0.490417,26.8378,-1.87691,2.44596,-4.17322,-1.96639,-1.49736,-19.5903,-1.21347,-2.228,-5.44519,8.84412,16.7608,3.96836,11.9433,-20.1019,4.38674,5.57968,-8.25984,4.55217e-14,1.94809e-14,-39.7232,-45.722,15.8294,31.071,-6.52899,-9.07266,16.2227,7.12502,16.8765,-13.064,4.55217e-14,1.94809e-14,-30.3989,37.4676,-12.9369,34.3078,44.4296,-39.8613,33.2988,7.12502,-12.8341,62.8843,-39.0667,-4.98938,6.80483,50.8455,-25.4499,-9.43002,-26.087,-40.9918,4.65719,-4.60351,48.7499,-22.2539,-2.78086,-37.6124
20.4983,16.4709,-25.6217,15.4362,-29.8599,-0.555009,27.2414,-1.79653,2.39293,-4.04536,-1.85246,-1.42325,-19.6288,-1.15132,-2.15565,-5.09062,8.99261,16.2726,3.16071,12.0946,-19.7258,4.05917,5.69195,-8.04794,1.98785e-14,1.43125e-14,-39.2971,-46.529,15.2464,30.6206,-6.6878,-11.0573,15.6138,7.12502,14.9653,-13.8255,1.98785e-14,1.43125e-14,-29.9143,37.7552,-11.809,34.3121,45.164,-40.4889,34.0227,7.12502,-13.439,63.5692,-39.032,-4.94913,6.86345,50.8122,-25.347,-9.57986,-26.5381,-40.9275,4.64461,-4.53913,48.7108,-22.2283,-2.6109,-38.0133
20.5085,16.4707,-25.6407,15.4191,-29.7988,-0.719451,27.1436,-1.8762,2.60459,-3.64882,-1.89069,-1.45028,-19.0864,-1.18242,-2.28896,-5.22513,9.03036,16.5168,2.87521,12.1185,-20.2926,4.06287,5.69011,-8.27105,5.20816e-14,2.10712e-14,-38.9151,-47.8861,14.4156,30.1558,-6.64253,-13.2688,14.8728,7.12502,12.8341,-14.7126,5.20816e-14,2.10712e-14,-29.684,38.568,-11.175,34.309,45.5986,-40.9255,34.403,7.12502,-13.8598,63.9212,-38.9886,-4.96563,7.04481,50.7757,-25.2232,-9.77434,-27.0166,-40.9135,4.58496,-4.35092,48.6854,-22.1598,-2.4559,-38.6417
20.5188,16.4693,-25.6565,15.3279,-29.7194,-0.733734,27.3559,-1.95226,2.70004,-3.48629,-1.9579,-1.47435,-19.0024,-1.21886,-2.33673,-5.3787,8.99374,16.4932,2.7632,12.0455,-20.449,4.05365,5.64356,-8.32222,1.25234e-13,-2.78299e-15,-38.2486,-48.5147,13.3335,29.8609,-6.82241,-15.5034,13.8546,7.12502,10.6792,-15.854,1.25234e-13,-2.78299e-15,-29.3474,38.7094,-10.3929,34.3392,46.0911,-41.3948,34.5825,7.12502,-14.3121,64.0692,-38.9423,-5.09566,7.07826,50.7719,-25.1951,-9.54039,-26.7719,-40.9046,4.575,-4.34455,48.6769,-22.0849,-2.42338,-39.0212
20.5289,16.4672,-25.6748,15.1604,-29.61,-0.677417,27.5509,-1.95832,2.68431,-3.20272,-1.9682,-1.48957,-18.7492,-1.21548,-2.33681,-5.58522,9.07836,16.4471,2.39303,12.0919,-20.4898,3.9909,5.66153,-8.31478,6.42074e-14,7.43455e-14,-37.6895,-49.1775,12.3465,29.6256,-7.12052,-17.4243,12.7151,7.12502,8.82587,-17.0803,6.42074e-14,7.43455e-14,-28.8084,39.0388,-9.34085,34.2781,46.3444,-41.9006,34.6218,7.12502,-14.7994,64.0734,-38.854,-5.22418,7.03718,50.7878,-25.1323,-9.20131,-26.1328,-40.8833,4.56719,-4.41898,48.6784,-22.0214,-2.45422,-39.4352
20.5385,16.4679,-25.6982,14.8638,-29.483,-0.783317,28.0284,-1.93546,2.68014,-2.84979,-1.91191,-1.41419,-18.5455,-1.17787,-2.26451,-5.55872,9.16482,16.4845,1.64197,12.1309,-20.7715,3.80092,5.69191,-8.41417,-1.07344e-14,5.52621e-14,-37.0885,-49.8708,11.3997,29.3814,-7.34576,-19.0103,11.9488,7.12502,7.2952,-17.9054,-1.07344e-14,5.52621e-14,-28.2941,39.5714,-8.19962,34.23,46.2724,-42.1467,34.7628,7.12502,-15.0365,64.1968,-38.557,-5.20833,7.15185,50.7984,-25.0483,-9.19198,-25.925,-40.6517,4.50017,-4.29342,48.6658,-21.9538,-2.45149,-39.9164
20.5443,16.4702,-25.7211,14.4945,-29.3681,-0.937303,28.5374,-1.90205,2.64842,-2.43962,-1.84118,-1.2839,-18.2806,-1.12717,-2.12163,-5.60055,9.14295,16.4195,0.952537,12.0308,-21.1717,3.6182,5.64588,-8.55064,2.72335e-14,-4.41302e-14,-36.4862,-50.7408,10.5646,29.1331,-7.30296,-20.3381,11.4384,7.12502,6.01345,-18.4562,2.72335e-14,-4.41302e-14,-27.8324,39.7453,-7.02574,34.2597,46.5882,-42.3784,34.7676,7.12502,-15.2597,64.1847,-38.1312,-5.10526,7.30429,50.8112,-25.0228,-9.30201,-25.9217,-40.2641,4.39008,-4.08282,48.6368,-21.9053,-2.42073,-40.0805
20.5482,16.4721,-25.7449,14.1686,-29.3873,-0.94895,28.8888,-1.76193,2.48175,-2.06274,-1.69795,-1.23589,-17.9734,-1.03954,-2.03045,-5.7834,9.03577,16.3653,0.518477,11.8144,-21.3911,3.49736,5.53418,-8.63528,5.96354e-16,3.97569e-16,-36.2903,-51.7761,10.1948,28.7282,-6.67837,-21.3173,11.3242,7.12502,5.06799,-18.5952,5.96354e-16,3.97569e-16,-26.992,39.7011,-5.6901,34.1216,47.0586,-42.583,34.7666,7.12502,-15.4568,64.1686,-37.8436,-4.96542,7.30703,50.8121,-24.9889,-9.29795,-25.712,-39.9589,4.39848,-4.03356,48.6023,-21.8267,-2.83836,-38.7399
20.5579,16.4694,-25.771,13.9781,-29.4151,-0.858964,29.1073,-1.63138,2.32152,-1.80014,-1.57537,-1.21981,-17.7456,-0.966392,-1.97229,-5.46214,8.9306,15.9447,-0.266746,11.62,-21.2757,3.14505,5.47532,-8.56539,-2.38542e-14,2.98177e-14,-35.9783,-52.5569,9.70131,28.3376,-6.20696,-22.3114,11.3662,7.12502,4.10803,-18.5739,-2.38542e-14,2.98177e-14,-26.0983,40.0913,-4.38672,33.8211,46.7696,-42.3756,34.767,7.12502,-15.257,64.1844,-37.791,-4.90307,7.21177,50.8008,-24.9708,-9.11846,-25.2387,-39.9035,4.48755,-4.12628,48.5688,-21.6799,-3.12311,-37.8925
20.5712,16.4663,-25.79,13.9012,-29.3378,-0.829368,29.2507,-1.61289,2.33579,-1.65502,-1.5348,-1.17238,-17.6337,-0.945075,-1.94222,-4.10742,8.83562,14.7806,-1.72529,11.4833,-20.6613,2.35434,5.52528,-8.25366,2.40529e-14,-4.29375e-14,-35.2263,-53.0428,8.73491,28.0979,-6.29728,-23.4183,11.0799,7.12502,3.03918,-18.8782,2.40529e-14,-4.29375e-14,-25.4139,40.2646,-3.15894,33.6255,46.4305,-42.1072,34.461,7.12502,-14.9985,63.8978,-37.7654,-4.95289,7.17804,50.764,-24.9403,-9.08372,-25.4454,-39.9481,4.44702,-4.15407,48.5209,-21.54,-3.21213,-37.9439
20.5802,16.4707,-25.8017,13.8247,-29.3525,-0.860389,29.3386,-1.58635,2.42377,-1.48748,-1.47115,-1.19039,-17.4708,-0.923883,-2.03605,-5.75365,8.93232,16.482,-0.174054,11.5999,-21.9296,3.30265,5.43769,-8.86684,2.127e-14,-1.98785e-15,-34.4913,-53.5734,7.73927,27.7594,-6.19289,-24.6086,10.7936,7.12502,1.88957,-19.1778,2.127e-14,-1.98785e-15,-24.578,39.7129,-1.83085,33.6971,46.9783,-42.5014,34.548,7.12502,-15.3782,63.9561,-37.6791,-4.95319,7.20079,50.6877,-24.8189,-9.36027,-26.4226,-39.8612,4.40781,-4.12797,48.4292,-21.5179,-3.18766,-38.424
20.5862,16.4783,-25.8166,13.6408,-29.4514,-0.64858,29.3521,-1.51978,2.30611,-1.24505,-1.4516,-1.3306,-17.1838,-0.907931,-2.13431,-5.49645,8.93155,16.1353,-0.499635,11.5899,-21.5937,3.1155,5.46075,-8.70795,1.51076e-14,6.36111e-15,-33.9725,-54.499,6.86449,27.3786,-5.58461,-25.6335,10.5468,7.12502,0.899698,-19.431,1.51076e-14,6.36111e-15,-23.6432,39.0588,-0.628302,33.8334,47.841,-43.2251,34.9743,7.12502,-16.0751,64.3275,-37.6451,-4.95057,6.99721,50.6042,-24.6321,-9.60116,-26.8754,-39.732,4.39396,-4.34657,48.2934,-21.4945,-3.25592,-38.3654
20.5931,16.4863,-25.8303,13.398,-29.4994,-0.378469,29.4636,-1.46746,2.16154,-1.07389,-1.45906,-1.47944,-17.033,-0.903438,-2.21448,-5.55727,8.85716,15.9632,-0.474779,11.4778,-21.2888,3.07685,5.40652,-8.58639,-3.12092e-14,1.19271e-15,-33.3642,-55.3053,5.85499,27.0784,-5.26475,-26.6936,10.2407,7.12502,-0.124139,-19.739,-3.12092e-14,1.19271e-15,-22.7022,39.0725,0.399178,33.6167,47.7826,-43.4896,35.1014,7.12502,-16.3298,64.4339,-37.5705,-4.97496,6.73233,50.5338,-24.5142,-9.5897,-26.6441,-39.5736,4.23031,-4.58393,48.1474,-21.3863,-3.5646,-37.1806
20.601,16.4899,-25.8389,13.3697,-29.4667,-0.478346,29.4809,-1.47016,2.33159,-0.919247,-1.40906,-1.51192,-16.8565,-0.895132,-2.36401,-5.4252,8.79069,15.9295,-0.466875,11.4004,-21.1803,3.03124,5.37771,-8.55817,-3.08116e-14,-8.34896e-15,-32.4366,-55.8183,4.50857,26.8921,-5.61854,-28.4129,9.95416,7.12502,-1.78468,-20.0181,-3.08116e-14,-8.34896e-15,-21.7054,39.4274,1.55552,33.2961,47.366,-43.6099,35.2165,7.12502,-16.4456,64.5394,-37.4932,-4.96678,6.81789,50.4675,-24.4836,-9.44582,-26.4961,-39.4808,4.09631,-4.46976,48.0271,-21.3068,-3.4738,-37.0718
20.6071,16.4845,-25.8505,13.4614,-29.4188,-0.617988,29.3112,-1.48427,2.49147,-0.734913,-1.37676,-1.51529,-16.5547,-0.890026,-2.47021,-5.04937,8.82193,16.0238,-0.757633,11.4471,-21.1993,2.89985,5.42894,-8.59321,-1.78906e-14,4.29375e-14,-31.4439,-56.3393,3.08026,26.7333,-5.94095,-29.875,9.89268,7.12502,-3.19679,-20.0631,-1.78906e-14,4.29375e-14,-20.7958,39.2736,2.70292,33.2271,47.6799,-43.6036,35.1647,7.12502,-16.4396,64.4881,-37.5367,-4.92166,6.94555,50.4278,-24.432,-9.42036,-26.6392,-39.5336,4.102,-4.33806,47.9436,-21.3063,-3.08512,-38.1626
