JuanDHNZ/ProyectoFinalCD/preprocessing/sports_trials_csv/55_18.csv
root1,root2,root3,root4,root5,root6,lowerback1,lowerback2,lowerback3,upperback1,upperback2,upperback3,thorax1,thorax2,thorax3,lowerneck1,lowerneck2,lowerneck3,upperneck1,upperneck2,upperneck3,head1,head2,head3,rclavicle1,rclavicle2,rhumerus1,rhumerus2,rhumerus3,rradius1,rwrist1,rhand1,rhand2,rfingers1,rthumb1,rthumb2,lclavicle1,lclavicle2,lhumerus1,lhumerus2,lhumerus3,lradius1,lwrist1,lhand1,lhand2,lfingers1,lthumb1,lthumb2,rfemur1,rfemur2,rfemur3,rtibia1,rfoot1,rfoot2,rtoes1,lfemur1,lfemur2,lfemur3,ltibia1,lfoot1,lfoot2,ltoes1
10.9063,18.1691,-0.614412,-178.548,9.70651,-177.686,0.485334,-1.72434,4.10871,-6.37361,-1.47482,3.19178,-6.95963,-0.656864,1.11332,14.0475,12.3114,19.7253,1.36038,19.648,-12.4965,1.34819,10.3485,-6.85829,-5.56597e-15,-1.59028e-14,-28.1876,-6.97814,-81.67,17.4901,28.3051,-24.8117,5.8456,7.12502,1.6934,-24.1274,-5.56597e-15,-1.59028e-14,-67.2767,-33.2751,117.816,48.2035,62.6077,-36.976,50.5307,7.12502,-10.0515,80.2707,0.385369,-10.0618,26.6858,22.5575,-14.1936,-5.63666,7.85983,-12.6789,5.88739,-21.3257,22.5406,-16.7018,13.8521,0.176421
10.9109,18.1548,-0.665628,-178.551,9.64113,-177.597,0.486809,-1.81907,4.09888,-6.31895,-1.59828,3.30117,-6.9002,-0.712574,1.24001,14.3846,12.3803,19.551,0.980559,19.7385,-12.5076,1.18311,10.3894,-6.8777,1.45113e-14,-3.02153e-14,-28.2351,-7.27494,-81.3189,17.6226,29.1357,-23.653,4.30701,7.12502,2.81243,-25.6542,1.45113e-14,-3.02153e-14,-66.9976,-33.3512,117.914,48.35,62.6732,-37.3278,50.2408,7.12502,-10.3909,79.9641,0.414104,-10.17,26.6787,22.9007,-14.2236,-5.4359,7.9641,-12.6875,5.44403,-21.2489,22.7931,-15.7195,13.1289,5.09669
10.914,18.1236,-0.719166,-178.584,9.59485,-177.527,0.552865,-1.87613,4.06338,-6.33608,-1.6614,3.38242,-6.95427,-0.737305,1.35161,14.6925,12.3701,19.5759,0.878186,19.7845,-12.545,1.11939,10.4215,-6.91925,-2.22639e-14,-2.94201e-14,-28.5384,-7.19151,-81.0431,17.8358,29.176,-22.908,4.21173,7.12502,3.53199,-25.7388,-2.22639e-14,-2.94201e-14,-66.7331,-33.488,117.975,48.4482,62.671,-37.5922,50.6563,7.12502,-10.646,80.3666,0.379322,-10.4355,26.6351,23.4969,-14.3966,-5.49148,5.77305,-12.6334,5.12423,-21.1992,23.285,-15.6141,12.6799,8.00955
10.9214,18.0863,-0.770974,-178.654,9.56493,-177.333,0.825097,-1.67106,4.08841,-6.20097,-1.40248,3.28694,-6.96686,-0.622789,1.22497,13.5573,12.2777,20.3408,1.60331,19.603,-12.6239,1.55972,10.319,-6.92289,-5.78463e-14,4.92986e-14,-28.6422,-8.13893,-80.7069,17.7058,28.8042,-23.5204,6.04737,7.12502,2.94052,-23.9121,-5.78463e-14,4.92986e-14,-66.4649,-34.6398,118.18,48.264,62.4768,-36.3958,50.5719,7.12502,-9.49169,80.3381,0.387587,-10.6002,26.7991,24.1283,-14.4676,-5.99204,1.56352,-12.4453,5.21075,-20.9961,23.6664,-15.6294,12.8115,5.39273
10.9306,18.0639,-0.821192,-178.656,9.63121,-177.191,0.948376,-1.87113,4.07378,-6.28556,-1.6242,3.53059,-7.12612,-0.716048,1.51034,14.3524,12.4064,19.7606,1.21748,19.8254,-12.5371,1.29561,10.4427,-6.89267,3.33958e-14,1.66979e-14,-28.9488,-7.80997,-80.4267,17.4788,28.8622,-24.1118,8.21338,7.12502,2.36934,-21.7532,3.33958e-14,1.66979e-14,-66.0666,-34.2324,118.217,48.2052,62.6287,-36.7277,52.6668,7.12502,-9.81198,82.4182,0.254958,-10.468,26.9002,24.8116,-14.808,-5.96235,1.34694,-12.3899,5.59322,-20.8198,24.1189,-15.7999,13.3165,2.01213
10.937,18.0508,-0.876461,-178.674,9.70269,-177.076,0.988013,-1.90954,4.02181,-6.20247,-1.67608,3.64302,-7.05487,-0.735073,1.65963,14.4419,12.5134,19.4651,1.01339,19.9076,-12.351,1.18745,10.4703,-6.81153,6.75868e-15,1.19271e-14,-28.9934,-8.08161,-80.1159,17.2656,29.3203,-24.0567,7.99338,7.12502,2.4226,-21.9726,6.75868e-15,1.19271e-14,-65.519,-34.4144,118.178,48.3786,62.8001,-37.0162,53.238,7.12502,-10.0903,82.9761,-0.0334455,-10.4701,26.8277,25.8641,-15.6128,-5.04575,4.89514,-12.1714,5.95437,-20.6388,24.2362,-16.5325,13.3972,3.35868
10.9471,18.0313,-0.932671,-178.895,9.85201,-176.551,1.32577,-1.84414,4.32978,-5.97316,-1.57225,3.73914,-7.0137,-0.702839,1.5862,13.8857,12.5386,19.8173,1.36,19.9017,-12.2905,1.40233,10.4569,-6.77367,-7.81224e-14,1.11319e-14,-28.9042,-9.54447,-79.4883,16.9426,31.4401,-23.0223,6.24806,7.12502,3.42153,-23.7042,-7.81224e-14,1.11319e-14,-64.8752,-34.9313,117.992,48.4706,62.9427,-37.4744,52.4543,7.12502,-10.5323,82.1704,-0.106264,-10.5167,27.2202,27.0218,-16.179,-4.76363,6.151,-11.6686,6.5593,-19.9201,24.237,-16.559,13.2645,0.395105
10.941,18.0121,-0.986032,-178.945,9.82835,-177.998,1.2105,-1.88843,2.91282,-6.07466,-1.77519,3.31297,-7.0078,-0.756866,1.94349,14.0303,12.5032,20.0578,1.36226,19.9179,-12.2967,1.40744,10.4706,-6.81547,-2.10712e-14,3.81667e-14,-29.0964,-11.0297,-78.7692,16.6611,34.1545,-21.8931,5.22479,7.12502,4.51195,-24.7072,-2.10712e-14,3.81667e-14,-64.2274,-35.0046,117.663,48.2816,62.6566,-37.2456,51.9459,7.12502,-10.3116,81.6731,-0.784192,-11.2695,25.3638,28.3446,-16.5076,-4.50468,4.46535,-11.6134,7.31944,-21.5226,24.1394,-16.0649,12.891,-5.28954
10.9518,17.9839,-1.04756,-179.192,10.0397,-178.371,1.35304,-1.91579,2.37973,-6.05482,-1.85353,3.26148,-7.04789,-0.774411,2.19768,14.3468,12.5186,19.9864,1.20298,19.9725,-12.1705,1.30099,10.4982,-6.79918,-6.55989e-15,8.74653e-15,-29.4145,-11.4212,-78.3998,16.5587,35.5308,-21.532,4.53999,7.12502,4.86071,-25.3843,-6.55989e-15,8.74653e-15,-63.5342,-34.8258,117.299,48.0974,62.3044,-36.866,51.7919,7.12502,-9.9454,81.537,-1.06641,-11.3321,24.7953,29.707,-16.8341,-4.47177,3.65615,-11.0924,7.87225,-21.8125,24.0516,-16.0808,12.4953,-7.06115
10.9718,17.9625,-1.10465,-179.454,10.3634,-178.284,1.62616,-1.83729,2.18851,-5.88604,-1.77375,3.28823,-7.01847,-0.732802,2.33173,13.9931,12.5473,20.1119,1.46071,19.9706,-12.0331,1.42953,10.49,-6.73227,2.28602e-14,-7.95139e-16,-29.4952,-12.1362,-78.0772,16.0745,36.0414,-22.0062,4.93516,7.12502,4.40282,-24.9991,2.28602e-14,-7.95139e-16,-62.6714,-34.9795,116.783,48.1229,62.0362,-36.8217,52.6105,7.12502,-9.90266,82.3576,-1.41003,-10.9896,24.871,31.1979,-17.0409,-4.68169,3.82175,-10.431,8.0238,-21.5671,23.8366,-15.8941,12.7191,-9.90152
10.9847,17.9479,-1.15403,-179.772,10.4917,-178.609,2.03331,-1.90202,1.71776,-5.84671,-1.9018,3.20394,-7.19364,-0.781749,2.53128,14.1837,12.5766,20.1376,1.44852,20.0541,-12.0026,1.40971,10.5376,-6.73669,3.00165e-14,-3.26007e-14,-29.6214,-13.4102,-77.5379,15.1046,36.4976,-22.9149,6.63717,7.12502,3.52531,-23.3134,3.00165e-14,-3.26007e-14,-62.0091,-35.0552,116.403,48.253,62.2598,-37.3464,52.7657,7.12502,-10.4088,82.4881,-1.70825,-10.9775,24.4381,32.4887,-17.1971,-4.77916,3.40999,-9.96385,8.2229,-21.8241,23.9068,-16.141,12.5765,-11.585
10.9933,17.9286,-1.20488,-180.011,10.451,-178.992,2.26737,-2.06213,1.28337,-5.86394,-2.15386,3.12924,-7.3249,-0.889086,2.72724,14.6945,12.6254,20.025,1.23105,20.1978,-12.0722,1.28655,10.6219,-6.78621,-8.15017e-15,2.38542e-15,-29.7946,-14.4789,-76.9906,14.4063,37.7206,-23.3022,8.17665,7.12502,3.15128,-21.7798,-8.15017e-15,2.38542e-15,-61.4137,-34.9259,116.113,48.3685,62.6278,-38.0198,51.3664,7.12502,-11.0584,81.0551,-2.0066,-11.2554,23.8826,33.7446,-17.6824,-4.54573,2.40865,-9.5767,8.54523,-22.1798,23.935,-16.8967,11.7356,-8.95825
11.0014,17.9105,-1.25372,-180.041,10.4046,-179.117,2.22677,-2.1137,1.12241,-5.72474,-2.26163,3.0548,-7.14326,-0.94538,2.74189,14.3908,12.6491,20.2389,1.37421,20.2182,-12.2999,1.42294,10.6344,-6.8445,8.07066e-14,-2.38542e-14,-29.7348,-15.2861,-76.7315,14.1395,38.9435,-23.1111,8.92532,7.12502,3.33576,-21.0283,8.07066e-14,-2.38542e-14,-60.3396,-35.0972,115.399,48.3979,62.1327,-37.6092,51.1752,7.12502,-10.6623,80.8846,-2.52829,-11.4232,23.7047,34.9904,-17.9802,-4.49817,2.65215,-9.30559,8.73112,-22.2838,23.7715,-17.3748,11.0676,-5.61687
11.0082,17.9114,-1.30336,-180.028,10.2906,-179.173,2.24244,-2.20765,1.09084,-5.65577,-2.40517,2.99994,-7.0736,-1.0215,2.71224,14.3026,12.7122,20.387,1.3666,20.3083,-12.4632,1.48023,10.6803,-6.89529,-1.35174e-14,3.10104e-14,-29.8343,-14.923,-76.9433,13.9774,38.0506,-23.2586,8.18038,7.12502,3.19341,-21.7755,-1.35174e-14,3.10104e-14,-59.404,-35.4092,114.842,48.3928,61.8644,-37.4583,51.2971,7.12502,-10.5168,81.014,-3.12807,-11.5343,23.6388,36.0893,-18.082,-4.61611,5.93415,-9.08553,8.57758,-22.3433,23.6212,-17.6093,10.971,-4.94206
11.014,17.91,-1.36125,-180.166,10.1617,-179.336,2.43916,-2.39489,1.03392,-5.75322,-2.65486,2.95223,-7.28267,-1.14072,2.72787,14.9179,12.812,20.1569,1.12721,20.5164,-12.3543,1.31548,10.7943,-6.88353,-2.14687e-14,4.77083e-15,-30.2544,-14.0513,-77.1946,13.7455,36.5106,-23.8291,7.24256,7.12502,2.64242,-22.7208,-2.14687e-14,4.77083e-15,-58.8113,-35.2959,114.452,48.434,61.5798,-37.7623,51.1688,7.12502,-10.81,80.8706,-3.48869,-11.8457,23.3962,36.9922,-18.4136,-5.16075,6.83739,-8.68733,8.31953,-22.524,23.528,-17.9024,10.9722,-4.57021
11.016,17.8959,-1.4219,-180.374,10.0589,-179.391,2.61509,-2.55548,1.12027,-5.76265,-2.86636,2.91968,-7.39361,-1.25162,2.67335,15.46,12.8816,19.9076,0.89906,20.6666,-12.3028,1.15976,10.879,-6.88574,2.16675e-14,-2.3059e-14,-30.6203,-16.7107,-75.7773,12.9629,39.6854,-23.8172,8.08503,7.12502,2.65388,-21.8782,2.16675e-14,-2.3059e-14,-58.0134,-35.1539,113.911,48.4013,60.5729,-37.3041,52.2426,7.12502,-10.368,81.967,-3.64735,-12.3494,23.264,37.7164,-18.7305,-6.54974,3.38966,-8.11699,8.07643,-22.5849,23.3223,-18.1307,10.8067,-2.96264
11.0172,17.8913,-1.48079,-180.586,9.84552,-179.221,2.759,-2.65738,1.40793,-5.64351,-2.98989,2.94454,-7.35993,-1.33189,2.5531,15.7103,12.8882,19.8316,0.695744,20.7025,-12.4731,1.0776,10.9044,-6.9556,6.30147e-14,1.59028e-15,-31.1246,-21.6204,-73.2232,11.86,44.9378,-23.8605,9.26023,7.12502,2.61211,-20.7035,6.30147e-14,1.59028e-15,-57.3888,-35.7877,113.902,48.4931,60.4806,-36.8531,53.2297,7.12502,-9.93296,82.9754,-3.63026,-12.7553,23.3848,38.2147,-19.414,-7.49566,4.1266,-7.49445,7.76228,-22.3851,23.0511,-18.5108,10.5605,-0.770294
11.0255,17.9045,-1.54186,-180.748,9.73836,-179.047,2.90635,-2.68478,1.62396,-5.57302,-3.00825,3,-7.37902,-1.35208,2.49781,15.6537,12.8808,19.8034,0.898564,20.7081,-12.5325,1.15086,10.9182,-6.95558,-9.93923e-15,-4.05521e-14,-31.6411,-23.5623,-71.9836,11.4688,46.9446,-23.7607,8.89009,7.12502,2.70851,-21.0725,-9.93923e-15,-4.05521e-14,-56.9349,-36.5927,114.095,48.8085,61.0391,-36.7901,52.7481,7.12502,-9.8721,82.4966,-3.63518,-12.7914,23.5194,38.4376,-20.7736,-7.45566,9.44451,-6.95624,7.66364,-22.1381,22.8932,-18.4557,10.6963,-3.09924
11.0428,17.9204,-1.60754,-180.762,9.73383,-179.042,2.80419,-2.69566,1.59332,-5.56582,-3.02377,3.03565,-7.30782,-1.35644,2.54759,15.4358,12.8912,19.7228,1.40871,20.7284,-12.4111,1.31806,10.9409,-6.8676,1.17283e-14,-1.74931e-14,-32.1711,-24.3933,-71.143,11.4888,48.6927,-23.127,8.63984,7.12502,3.3205,-21.314,1.17283e-14,-1.74931e-14,-56.0432,-36.7263,113.703,48.8956,60.7633,-36.6394,51.9888,7.12502,-9.72678,81.7442,-3.86938,-12.5426,23.5811,38.3914,-22.0529,-7.57463,14.0981,-6.61945,7.78466,-22.0471,22.8,-17.8779,11.1084,-8.81423
11.0636,17.9239,-1.67035,-180.74,9.46791,-179.104,2.56712,-2.81507,1.42717,-5.50316,-3.20388,3.07578,-7.08532,-1.43777,2.68163,15.2638,12.8673,19.8583,1.67694,20.7314,-12.6711,1.46517,10.9587,-6.93326,-6.36111e-14,-2.62396e-14,-32.4793,-25.2083,-70.4313,11.3798,50.1409,-22.8692,9.03183,7.12502,3.56941,-20.918,-6.36111e-14,-2.62396e-14,-54.9845,-36.7498,113.167,48.9022,60.5022,-36.8665,51.9338,7.12502,-9.94582,81.6789,-4.11936,-12.4881,23.6811,38.1124,-22.8084,-8.48015,15.5403,-6.41465,7.5776,-22.0149,22.7292,-17.738,11.0431,-10.0508
11.0817,17.9246,-1.72567,-180.697,9.18269,-178.855,2.56552,-2.98233,1.59562,-5.4753,-3.4034,3.21297,-7.05118,-1.53851,2.74695,15.1717,12.9012,20.1202,1.85652,20.8489,-13.1217,1.62562,11.039,-7.0718,4.41302e-14,1.03368e-14,-32.4525,-24.6336,-70.5855,11.4133,49.9941,-22.7157,8.8033,7.12502,3.71768,-21.144,4.41302e-14,1.03368e-14,-53.9988,-36.7894,112.683,49.0121,60.2297,-36.6791,51.5068,7.12502,-9.76504,81.2604,-4.38916,-12.5804,24.1167,37.6597,-23.2112,-9.83299,13.6312,-6.26273,7.06914,-21.6707,22.7685,-17.8974,10.97,-10.087
11.0993,17.9271,-1.77928,-180.496,9.04773,-178.359,2.51402,-3.12722,2.07005,-5.57807,-3.52615,3.42035,-7.14753,-1.60585,2.7122,15.4115,13.06,20.0214,1.97876,21.1224,-13.0965,1.65871,11.1914,-7.04609,-4.37326e-14,1.59028e-14,-32.6514,-23.8982,-70.587,11.4757,50.0838,-22.3323,8.50777,7.12502,4.08788,-21.4328,-4.37326e-14,1.59028e-14,-53.1363,-36.4672,112.137,49.156,59.5219,-35.9471,51.133,7.12502,-9.05874,80.9185,-4.8486,-12.4575,24.8191,37.1149,-23.958,-10.6691,12.582,-6.2228,6.67124,-21.1039,22.915,-17.4114,11.5805,-15.969
11.1162,17.9284,-1.83481,-180.216,9.02438,-178.169,2.24542,-3.23285,2.21047,-5.6623,-3.63886,3.55203,-7.08094,-1.65693,2.76803,15.583,13.2376,19.8057,1.91626,21.3455,-12.9305,1.6114,11.3002,-6.9711,2.8625e-14,3.18055e-15,-32.517,-21.0112,-71.8995,11.9381,47.6389,-21.9234,7.7602,7.12502,4.48277,-22.1724,2.8625e-14,3.18055e-15,-52.5601,-36.5646,111.872,49.6403,59.9328,-36.8198,52.0951,7.12502,-9.90078,81.8423,-5.50904,-12.1807,25.2212,36.563,-24.6794,-11.6294,10.9357,-6.26451,6.14686,-20.9256,23.0492,-15.4355,13.3677,-28.6241
11.1286,17.9226,-1.89515,-179.991,9.12654,-178.315,1.96475,-3.29152,2.00416,-5.63018,-3.73948,3.60338,-6.86299,-1.69567,2.92387,15.122,13.4388,19.6586,2.11174,21.505,-12.8215,1.73835,11.3624,-6.85694,7.25564e-14,-1.51076e-14,-32.1465,-17.0032,-73.9571,12.6435,43.6727,-21.8646,7.29873,7.12502,4.53948,-22.6326,7.25564e-14,-1.51076e-14,-51.7444,-36.8109,111.478,50.173,60.4151,-38.1887,53.3835,7.12502,-11.2212,83.0634,-6.23802,-11.9739,25.1986,36.0305,-24.9436,-13.0786,7.6677,-6.24516,5.47983,-21.1772,23.0725,-19.6828,10.5594,0.344137
11.1456,17.9154,-1.95829,-179.698,9.11724,-178.289,1.57365,-3.39683,1.96745,-5.58644,-3.88616,3.7185,-6.57521,-1.76222,3.04638,14.7607,13.6257,19.4909,2.2712,21.6719,-12.8332,1.85146,11.4359,-6.78571,-1.09332e-14,9.54166e-15,-31.9826,-16.002,-74.3012,12.6775,42.8882,-22.0845,8.11644,7.12502,4.32716,-21.8194,-1.09332e-14,9.54166e-15,-50.6204,-36.4617,110.686,50.5085,59.6421,-37.6643,52.419,7.12502,-10.7155,82.1258,-6.99479,-11.8518,25.333,35.4483,-25.3903,-14.1313,6.52962,-6.28263,4.91878,-21.2131,23.0658,-21.508,9.43951,12.9254
11.1676,17.9223,-2.01487,-179.302,8.97554,-178.185,1.22992,-3.53788,2.03216,-5.70098,-4.05382,3.82885,-6.49106,-1.83664,3.1189,14.9079,13.6606,19.5721,2.15582,21.7716,-13.1758,1.85725,11.4995,-6.90465,4.33351e-14,-3.49861e-14,-32.0735,-15.9613,-74.0653,12.5822,43.3647,-22.0084,8.66816,7.12502,4.40064,-21.2661,4.33351e-14,-3.49861e-14,-49.9125,-36.198,110.087,51.021,58.9602,-36.0117,49.7408,7.12502,-9.12113,79.5236,-7.83876,-11.6223,25.5757,34.7812,-26.3305,-14.3565,8.96664,-6.47663,4.22604,-21.1307,23.0912,-21.9109,9.89228,13.089
11.1866,17.927,-2.06588,-178.911,8.90188,-178.159,1.02182,-3.59868,2.0536,-5.89872,-4.10895,3.87674,-6.57898,-1.85256,3.1561,14.8631,13.6222,19.7913,2.34856,21.7912,-13.4089,1.97343,11.5254,-6.98407,3.77691e-15,-3.73715e-14,-32.2336,-14.7278,-74.4508,12.7555,42.5721,-21.7657,8.61119,7.12502,4.63498,-21.3181,3.77691e-15,-3.73715e-14,-49.4821,-36.2349,109.8,51.6451,58.7724,-35.2779,48.8889,7.12502,-8.413,78.7013,-8.69507,-11.3569,25.708,34.037,-26.8364,-14.9507,9.49899,-6.70658,3.46984,-21.1399,23.1338,-21.8314,10.8744,10.0863
11.2066,17.9289,-2.11872,-178.51,8.84523,-177.975,0.789061,-3.6834,2.165,-6.06822,-4.17935,4.04484,-6.621,-1.874,3.26657,14.8656,13.6262,19.8322,2.46751,21.836,-13.5714,2.03821,11.5597,-7.02772,-5.58585e-14,3.02153e-14,-32.3262,-15.3132,-73.8247,12.4376,43.7517,-21.6324,8.99901,7.12502,4.76373,-20.9274,-5.58585e-14,3.02153e-14,-48.8908,-35.9894,109.467,52.1918,58.0804,-35.0542,49.3836,7.12502,-8.1971,79.2046,-9.54079,-11.1494,26.0053,33.2299,-26.9263,-15.9045,8.0968,-6.93757,3.00631,-20.9384,23.241,-22.1402,11.3767,8.49166
11.2314,17.9349,-2.17311,-178.173,8.7525,-177.71,0.683103,-3.83406,2.29687,-6.22693,-4.32815,4.26567,-6.71993,-1.93257,3.43474,15.1578,13.662,19.8452,2.17362,21.9297,-13.888,1.95885,11.6187,-7.15308,-1.78906e-14,3.81667e-14,-32.6652,-19.8633,-71.0867,11.2833,48.9366,-21.9812,10.1493,7.12502,4.42693,-19.7844,-1.78906e-14,3.81667e-14,-48.3379,-35.5801,108.994,52.7361,56.6723,-34.1087,49.3418,7.12502,-7.28449,79.1964,-10.3135,-11.1077,26.4002,32.4073,-27.3134,-16.5491,7.67608,-7.12597,2.67797,-20.6216,23.3743,-23.5274,10.2995,16.6206
11.258,17.9291,-2.22242,-177.947,8.69794,-177.385,0.737881,-3.85732,2.51332,-6.29837,-4.3206,4.36341,-6.83989,-1.92891,3.42531,15.0987,13.6768,20.0136,1.9722,21.9329,-14.0106,1.94016,11.6119,-7.21036,2.5842e-14,2.70347e-14,-32.3816,-14.9373,-73.786,12.4383,42.9231,-21.6897,9.25732,7.12502,4.70835,-20.6704,2.5842e-14,2.70347e-14,-47.9767,-35.7105,108.628,53.3998,55.668,-33.2674,49.1119,7.12502,-6.47232,78.993,-10.9184,-11.3146,26.8435,31.6023,-26.0578,-17.0372,4.72461,-7.16567,2.09185,-20.255,23.4042,-23.9946,10.0122,20.7847
11.2847,17.927,-2.2719,-177.796,8.65423,-177.351,0.681008,-3.90152,2.44113,-6.24909,-4.38798,4.41288,-6.74189,-1.95861,3.51392,14.9718,13.7916,20.0191,1.68535,22.021,-14.1701,1.90782,11.6418,-7.24853,4.96962e-15,7.95139e-14,-32.5335,-21.0559,-70.6683,11.3535,50.1176,-21.7304,9.46491,7.12502,4.66914,-20.4636,4.96962e-15,7.95139e-14,-47.4252,-35.8091,108.232,54.1372,55.23,-33.2364,48.8116,7.12502,-6.44239,78.6936,-11.4743,-11.5249,26.9245,30.831,-27.0348,-18.1053,3.55936,-7.04011,1.39486,-20.2285,23.3314,-21.9417,13.6205,2.4907
11.3117,17.941,-2.32917,-177.711,8.61934,-177.447,0.590686,-4.02935,2.23176,-6.14424,-4.57979,4.51812,-6.54358,-2.04425,3.7379,14.8923,14.0237,19.7811,1.31334,22.2399,-14.4188,1.84972,11.7408,-7.28023,-3.8763e-14,-3.18055e-14,-31.9928,-19.952,-71.2673,11.5228,49.6514,-21.2962,9.25927,7.12502,5.08833,-20.6596,-3.8763e-14,-3.18055e-14,-46.7662,-35.6713,107.77,55.0237,55.0016,-33.8831,48.6181,7.12502,-7.06671,78.4801,-12.005,-11.7116,26.8344,30.1276,-26.7982,-18.6467,1.87304,-6.74971,0.755953,-20.34,23.1507,-20.2732,16.3414,-11.6563
11.3369,17.9491,-2.38117,-177.647,8.57484,-177.244,0.765931,-4.0197,2.33946,-6.09055,-4.55158,4.59463,-6.59208,-2.03297,3.76771,14.4209,14.0843,19.8977,1.35498,22.2458,-14.543,1.9616,11.7268,-7.2812,6.36111e-15,-5.08889e-14,-31.7978,-19.6994,-71.3671,11.4975,49.0969,-21.3074,9.75641,7.12502,5.07758,-20.1628,6.36111e-15,-5.08889e-14,-46.4855,-36.1708,107.571,56.011,54.8738,-34.5281,48.9243,7.12502,-7.68934,78.7645,-12.4739,-11.9719,27.0438,29.5737,-27.1557,-18.3129,3.72988,-6.3091,-0.0148491,-20.126,22.6977,-20.1394,17.2162,-12.5836
11.363,17.948,-2.42638,-177.622,8.58234,-177.44,0.956526,-4.26805,2.03298,-6.30121,-4.85514,4.7469,-6.87503,-2.15022,4.14506,15.2741,14.1073,19.6662,0.942958,22.3933,-14.8207,1.74217,11.8384,-7.42276,1.21259e-14,-3.18055e-15,-31.7904,-18.8413,-71.4522,11.4086,48.5867,-21.4892,10.3385,7.12502,4.90198,-19.5848,1.21259e-14,-3.18055e-15,-46.5477,-35.6118,107.407,56.8228,54.1279,-34.5417,49.1745,7.12502,-7.70244,79.0143,-12.979,-12.1534,26.8022,29.1235,-27.5309,-17.9968,5.2594,-5.8319,-1.0992,-20.3923,22.0893,-19.913,18.4171,-13.2172
11.3945,17.9562,-2.47507,-177.613,8.64952,-177.873,1.07741,-4.31759,1.49487,-6.35749,-4.96152,4.66802,-6.95659,-2.18044,4.38068,15.3507,14.1199,19.7265,0.752965,22.4175,-14.9917,1.70482,11.8536,-7.49281,8.56762e-14,-3.65764e-14,-31.4656,-16.7415,-72.6432,11.7168,46.0163,-21.6756,10.4979,7.12502,4.722,-19.4294,8.56762e-14,-3.65764e-14,-46.3789,-35.5692,107.152,57.476,52.9217,-34.3353,48.876,7.12502,-7.50322,78.7229,-13.5466,-12.2685,26.3134,28.7047,-27.0567,-18.1243,3.65164,-5.37355,-2.26118,-20.9227,21.5278,-19.8262,19.7654,-13.0675
11.4281,17.9669,-2.52202,-177.544,8.67309,-177.764,1.30231,-4.28813,1.52214,-6.37836,-4.91073,4.67615,-7.11438,-2.15381,4.39215,15.1255,14.0893,19.8272,0.608002,22.3297,-15.1459,1.70949,11.7996,-7.54207,9.54166e-15,-2.38542e-14,-31.287,-15.4273,-73.4726,12.1129,44.5534,-21.6326,10.269,7.12502,4.76353,-19.6574,9.54166e-15,-2.38542e-14,-46.2907,-35.7653,107.035,58.1274,51.8672,-34.3352,48.2809,7.12502,-7.50316,78.1278,-14.0753,-12.3889,26.4279,28.35,-26.5095,-18.1123,1.7218,-4.91333,-2.88366,-20.7828,20.9729,-19.8665,20.5684,-12.4442
11.4621,17.9694,-2.56889,-177.472,8.71427,-177.569,1.54474,-4.27349,1.62133,-6.42709,-4.85908,4.76355,-7.313,-2.12325,4.45044,15.2376,14.033,19.7295,0.181601,22.2108,-15.3218,1.55519,11.7385,-7.62393,-8.36883e-14,6.36111e-15,-31.4724,-19.7895,-71.2776,11.3858,49.7249,-21.6802,10.7868,7.12502,4.71753,-19.1407,-8.36883e-14,6.36111e-15,-46.3804,-36.0659,107.077,58.9034,51.6138,-34.5854,48.3789,7.12502,-7.74457,78.2171,-14.4955,-12.5081,26.6371,28.0465,-25.8169,-18.3269,-1.176,-4.47658,-3.08699,-20.5062,20.4905,-20.0779,20.8542,-12.1389
11.4943,17.9669,-2.61973,-177.454,8.77241,-177.661,1.65768,-4.2824,1.45445,-6.40807,-4.8829,4.7781,-7.34038,-2.12718,4.56865,15.3044,14.1323,19.5006,-0.213979,22.2584,-15.2815,1.40731,11.7497,-7.60504,-1.1947e-13,-2.54444e-14,-30.729,-13.4767,-74.5574,12.4434,42.9835,-21.0859,9.60215,7.12502,5.29141,-20.3118,-1.1947e-13,-2.54444e-14,-46.259,-36.3235,106.877,59.5994,51.6306,-34.637,48.583,7.12502,-7.79444,78.4193,-14.7912,-12.6823,26.5022,27.7764,-24.8171,-18.2767,-3.88085,-4.1317,-3.29926,-20.5613,20.2151,-19.8442,21.4175,-14.0541
11.5261,17.9606,-2.67106,-177.394,8.83422,-177.722,1.67569,-4.34539,1.40145,-6.34791,-4.98603,4.74658,-7.27697,-2.18255,4.56984,15.1499,14.3217,19.4597,-0.436019,22.4421,-15.3348,1.39916,11.8278,-7.59202,5.40694e-14,-2.06736e-14,-30.4308,-16.8432,-73.3327,11.8462,46.8238,-21.1684,9.65472,7.12502,5.2117,-20.2612,5.40694e-14,-2.06736e-14,-45.8999,-36.2665,106.297,60.0967,51.0108,-34.3313,48.041,7.12502,-7.49938,77.8881,-15.0296,-12.8449,26.3905,27.5954,-24.286,-17.4134,-3.82164,-3.93967,-3.54445,-20.5792,20.1047,-19.5519,22.0096,-16.7113
11.5634,17.9513,-2.71996,-177.274,8.95598,-177.888,1.58049,-4.31963,1.21404,-6.28902,-4.98612,4.67528,-7.14669,-2.18283,4.58589,15.0432,14.3543,19.5148,-0.748783,22.4397,-15.568,1.35614,11.8213,-7.66962,-9.76033e-14,8.42847e-14,-29.9591,-12.7871,-75.6669,12.5539,41.8387,-21.4385,9.29747,7.12502,4.95092,-20.6247,-9.76033e-14,8.42847e-14,-45.7638,-36.455,105.981,60.6477,50.4283,-34.3901,47.8982,7.12502,-7.55614,77.7432,-15.2613,-12.8809,26.2071,27.5592,-23.8795,-16.4282,-2.79009,-3.85262,-3.43347,-20.6542,20.0116,-19.738,22.0277,-17.5306
11.6024,17.9333,-2.76377,-177.373,9.04568,-178.181,1.67398,-4.24773,0.827456,-6.2011,-4.93854,4.59738,-7.08086,-2.1511,4.7173,15.1231,14.3147,19.5602,-1.01373,22.3856,-15.8001,1.28865,11.8001,-7.76788,-3.45885e-14,-1.27222e-14,-29.6799,-10.8892,-76.6842,12.9249,39.4141,-21.6453,9.33459,7.12502,4.75129,-20.5921,-3.45885e-14,-1.27222e-14,-45.8101,-36.6416,105.95,61.172,50.2076,-34.3855,48.2723,7.12502,-7.55162,78.1175,-15.1678,-12.9059,25.8581,27.6279,-23.1535,-15.8187,-1.5121,-3.55166,-3.04682,-20.8412,19.9255,-20.2143,21.6884,-16.6755
11.64,17.9234,-2.81406,-177.669,9.06736,-178.254,2.00451,-4.27957,0.724866,-6.09955,-5.00047,4.57871,-7.15128,-2.18344,4.78191,15.392,14.3591,19.6229,-1.26838,22.4922,-16.0743,1.23093,11.8706,-7.88299,-1.64991e-14,1.74931e-14,-29.378,-10.1023,-77.1983,13.0866,38.8562,-21.4679,9.06855,7.12502,4.92252,-20.8543,-1.64991e-14,1.74931e-14,-45.8633,-36.3101,105.832,61.4529,49.6689,-34.0488,48.4988,7.12502,-7.22662,78.3554,-14.7272,-13.13,25.6649,27.7144,-22.7558,-15.0417,1.98882,-3.00622,-2.70649,-20.7997,19.9234,-21.2386,20.9954,-13.3384
11.6807,17.9214,-2.87163,-177.75,9.26568,-178.279,2.09419,-4.23843,0.737691,-6.04392,-4.95819,4.51572,-7.15281,-2.17018,4.70981,15.52,14.3631,19.7375,-1.49414,22.5238,-16.3016,1.19025,11.8954,-7.98251,-7.87187e-14,5.725e-14,-29.0935,-10.1236,-77.5713,13.0766,39.0535,-21.3973,8.75359,7.12502,4.99075,-21.1676,-7.87187e-14,5.725e-14,-45.946,-36.1432,105.63,61.6001,49.5162,-34.1749,48.3064,7.12502,-7.3484,78.1588,-14.4239,-13.4171,25.6042,27.7349,-22.4342,-14.6389,2.47839,-2.7506,-1.98199,-20.6554,20.0284,-21.6073,20.3822,-12.0022
11.7223,17.9024,-2.92542,-177.783,9.51205,-178.372,2.17071,-4.09639,0.663156,-6.01097,-4.79204,4.38387,-7.17756,-2.09338,4.60469,15.3003,14.291,19.9064,-1.44046,22.4172,-16.3456,1.24399,11.8341,-8.00076,-2.98177e-15,-1.11319e-14,-28.8891,-10.2673,-77.965,13.0721,39.282,-21.453,8.21003,7.12502,4.937,-21.7125,-2.98177e-15,-1.11319e-14,-46.1516,-36.4051,105.503,61.7935,49.7883,-34.2597,48.4245,7.12502,-7.43028,78.274,-14.1028,-13.812,25.5893,27.665,-21.4771,-15.2398,-3.12288,-2.59702,-1.23226,-20.576,20.1534,-21.2497,20.3455,-14.3132
11.7621,17.8805,-2.98118,-177.851,9.60135,-178.292,2.28678,-4.02544,0.774659,-5.97677,-4.69589,4.33346,-7.22827,-2.05517,4.49028,15.0452,14.2519,19.9048,-1.32053,22.3217,-16.2397,1.28818,11.7732,-7.94823,-1.41137e-14,-9.54166e-15,-28.6493,-9.92837,-78.4402,12.9784,38.8219,-21.866,8.07774,7.12502,4.53821,-21.8536,-1.41137e-14,-9.54166e-15,-46.5573,-36.6617,105.607,61.9604,49.714,-34.0311,48.8495,7.12502,-7.20961,78.7067,-13.6646,-14.2963,25.7299,27.5598,-20.8607,-15.1729,-5.32141,-2.29149,-0.737697,-20.3262,20.1875,-21.5663,20.1148,-14.7642
11.8069,17.8692,-3.04387,-177.782,9.78397,-178.207,2.13653,-3.95527,0.900567,-5.97363,-4.59601,4.31443,-7.15621,-2.01355,4.3798,15.1091,14.2222,19.7572,-1.39988,22.2573,-16.1433,1.21599,11.7384,-7.91987,-4.47266e-14,3.02153e-14,-28.4639,-10.5768,-78.4568,12.7783,39.373,-22.0873,8.63527,7.12502,4.32448,-21.3006,-4.47266e-14,3.02153e-14,-47.0407,-36.7406,105.809,61.8965,49.6531,-34.3923,48.3719,7.12502,-7.55828,78.2168,-13.3547,-14.5232,25.8799,27.4011,-20.8777,-14.124,-2.28139,-2.06945,0.035966,-20.0313,20.1773,-22.1375,19.4414,-13.4258
11.8549,17.8659,-3.11016,-177.903,9.89166,-178.527,2.06769,-3.88613,0.579693,-5.90237,-4.55213,4.19513,-7.02498,-1.98846,4.41928,15.0102,14.239,19.6388,-1.3899,22.2421,-16.088,1.2119,11.7254,-7.88138,3.06128e-14,-1.59028e-14,-28.2436,-11.2126,-78.5772,12.7835,40.0366,-21.8553,8.62099,7.12502,4.54846,-21.3102,3.06128e-14,-1.59028e-14,-47.2769,-36.7239,105.852,61.5553,49.7085,-34.6788,47.5143,7.12502,-7.83478,77.3491,-12.9484,-14.6188,25.6048,27.174,-20.5599,-13.4168,0.534044,-1.76441,0.839113,-20.1477,20.2092,-22.4456,18.6921,-12.0209
11.8997,17.8735,-3.17435,-178.022,9.82874,-178.816,2.13803,-3.84505,0.328244,-5.89489,-4.52953,4.08445,-7.0472,-1.97164,4.44642,14.8594,14.2726,19.5885,-1.24643,22.2667,-16.0034,1.26608,11.7321,-7.82682,4.31363e-14,-2.38542e-15,-28.0698,-10.7973,-79.1353,12.9045,39.4865,-21.8101,8.00911,7.12502,4.59217,-21.9211,4.31363e-14,-2.38542e-15,-47.5621,-36.6591,105.935,61.1747,49.7361,-34.0882,47.2119,7.12502,-7.26473,77.0672,-12.5609,-14.6671,25.3822,26.9101,-20.0168,-12.9699,3.32984,-1.58499,1.62555,-20.198,20.3648,-22.584,17.6869,-10.8768
11.9466,17.8781,-3.23579,-177.846,9.89048,-178.641,2.09423,-3.72468,0.589582,-6.07196,-4.32684,4.07084,-7.2477,-1.87225,4.27846,15.0831,14.2057,19.6299,-1.21742,22.2362,-15.9635,1.23456,11.7264,-7.8443,-3.06128e-14,1.19271e-14,-28.2257,-10.3707,-79.5537,13.0006,38.7392,-22.1051,8.06565,7.12502,4.30733,-21.8705,-3.06128e-14,1.19271e-14,-48.3236,-36.6577,106.369,60.89,49.8451,-33.8728,46.7338,7.12502,-7.05677,76.5962,-12.3557,-14.5305,25.7234,26.6274,-19.6221,-12.5507,6.55516,-1.75442,2.56171,-19.7244,20.7557,-22.8232,16.5147,-9.5521
11.993,17.8759,-3.29721,-177.639,9.97413,-178.235,2.01462,-3.56995,1.09321,-6.22033,-4.05517,4.10475,-7.41429,-1.75035,4.01527,15.2298,14.087,19.7371,-1.15958,22.1432,-16.0331,1.23203,11.6926,-7.89876,3.16068e-14,-7.31528e-14,-28.3766,-10.1638,-79.8312,13.1386,38.2925,-22.1292,8.46169,7.12502,4.28396,-21.475,3.16068e-14,-7.31528e-14,-49.1593,-36.7925,106.96,60.4781,50.0019,-34.2135,46.4926,7.12502,-7.38567,76.3437,-12.0765,-14.3909,26.3137,26.2846,-19.2984,-12.3848,8.50617,-2.07819,3.43788,-19.0067,21.5268,-23.2588,15.4427,-7.9602
12.035,17.8738,-3.35845,-177.52,9.92216,-177.877,2.01307,-3.47436,1.59472,-6.33836,-3.86638,4.12826,-7.5868,-1.67293,3.75244,15.2642,13.982,19.8267,-0.917846,22.0682,-16.057,1.29653,11.6669,-7.91671,-8.20981e-14,3.73715e-14,-28.4083,-10.6007,-79.8788,13.1258,38.7421,-21.3612,8.59271,7.12502,5.02561,-21.3277,-8.20981e-14,3.73715e-14,-49.9414,-36.904,107.535,59.9706,50.1883,-34.2216,47.2516,7.12502,-7.39348,77.1024,-11.6662,-14.4717,26.8099,25.8702,-19.0656,-12.1468,9.72514,-2.54427,4.33603,-18.3256,22.6669,-23.6115,14.2475,-7.02134
12.076,17.8688,-3.42238,-177.424,9.88164,-177.711,1.94273,-3.40497,1.90421,-6.46283,-3.72982,4.13997,-7.70884,-1.61295,3.58326,15.3255,13.942,19.6863,-0.659379,22.041,-15.8736,1.32174,11.6591,-7.8443,-2.5842e-15,4.37326e-14,-28.4089,-11.0877,-79.8637,13.0129,39.3092,-20.4362,8.93397,7.12502,5.91871,-20.9634,-2.5842e-15,4.37326e-14,-50.6761,-36.6466,108.034,59.3414,50.1564,-34.0807,47.4362,7.12502,-7.25742,77.2918,-11.2445,-14.5997,27.0358,25.4783,-19.1048,-11.6843,11.6594,-3.12448,5.31444,-17.858,23.9579,-23.7792,13.0928,-6.64244
12.114,17.859,-3.48576,-177.44,9.90803,-177.458,1.95855,-3.31048,2.30844,-6.50459,-3.55988,4.15585,-7.79831,-1.54627,3.36451,15.2875,13.928,19.5759,-0.367966,22.0299,-15.6256,1.37083,11.6519,-7.74338,-7.95139e-15,-1.02573e-13,-28.408,-10.7882,-80.2469,13.0697,38.7322,-20.2817,9.70755,7.12502,6.06785,-20.1856,-7.95139e-15,-1.02573e-13,-51.2713,-36.1161,108.329,58.5727,50.0406,-34.0163,47.2534,7.12502,-7.19525,77.111,-10.6599,-14.8751,27.2866,25.05,-19.1809,-11.1908,12.1498,-3.62282,6.19742,-17.3318,25.3087,-23.9607,12.3487,-6.49049
12.147,17.8454,-3.54019,-177.559,9.94103,-177.097,2.19156,-3.22848,2.83771,-6.47677,-3.39994,4.16227,-7.94648,-1.49642,3.07776,15.1397,13.9333,19.681,-0.0872901,22.0597,-15.5299,1.48156,11.6647,-7.69764,-7.23576e-14,-4.37326e-14,-28.2934,-10.1121,-80.8803,13.1773,37.8862,-20.4088,10.1933,7.12502,5.94518,-19.7033,-7.23576e-14,-4.37326e-14,-51.8231,-35.7539,108.486,58.0116,50.5128,-34.0938,48.0653,7.12502,-7.27009,77.9204,-9.96358,-15.3208,27.6144,24.6076,-19.182,-10.6108,11.4794,-4.0285,6.90413,-16.7543,26.6105,-24.0335,12.4171,-9.04877
12.1819,17.8432,-3.5972,-177.614,10.0682,-176.75,2.30264,-3.13269,3.30642,-6.38827,-3.2326,4.20511,-7.94932,-1.44002,2.85039,15.0888,13.9743,19.7028,-0.248379,22.0924,-15.6596,1.4649,11.6787,-7.73694,2.52457e-14,-3.81667e-14,-27.9906,-9.27371,-81.4997,13.3475,36.9797,-20.3798,10.2188,7.12502,5.97316,-19.677,2.52457e-14,-3.81667e-14,-52.2623,-35.4746,108.621,57.5838,51.0414,-34.1671,48.9641,7.12502,-7.34084,78.8168,-9.46123,-15.4929,27.9355,24.3585,-19.1595,-10.2987,11.5448,-4.43865,7.57495,-16.2148,27.6867,-23.9895,13.0141,-13.5183
12.2197,17.8439,-3.66388,-177.696,10.2959,-176.644,2.31595,-2.97249,3.49672,-6.3069,-3.01749,4.1577,-7.88742,-1.35036,2.67179,15.3329,13.929,19.8857,-0.68023,22.0644,-15.9569,1.3495,11.6735,-7.8913,1.19271e-15,2.38542e-15,-27.8316,-8.35929,-82.1851,13.6736,35.3269,-20.4017,10.1126,7.12502,5.95196,-19.7838,1.19271e-15,2.38542e-15,-52.8304,-35.1377,108.838,57.2206,51.4092,-33.9893,50.6344,7.12502,-7.16927,80.493,-9.05707,-15.6901,27.9796,24.2912,-19.2187,-10.0289,11.2464,-4.72539,8.46605,-15.9337,28.4679,-24.0092,13.6835,-17.3751
12.258,17.8346,-3.72385,-177.816,10.4909,-177.085,2.32366,-2.82759,3.06833,-6.28857,-2.88832,3.95895,-7.85642,-1.27815,2.688,15.5855,13.9057,20.1946,-0.87936,22.1096,-16.0941,1.30982,11.7036,-7.99649,-1.96797e-14,4.37326e-14,-27.6442,-7.74424,-82.8162,13.8755,34.2909,-20.2468,9.3874,7.12502,6.10151,-20.5047,-1.96797e-14,4.37326e-14,-53.5718,-34.8554,109.13,56.9187,52.1936,-33.9654,53.1806,7.12502,-7.14617,83.04,-8.75639,-15.9554,27.4682,24.2508,-19.4454,-9.51959,11.0492,-4.96253,9.52837,-16.3071,28.9829,-23.7516,14.5456,-20.8272
12.2978,17.8459,-3.78008,-177.889,10.6956,-177.438,2.33457,-2.70902,2.64292,-6.22507,-2.78856,3.83936,-7.77603,-1.21704,2.78735,15.4587,13.9966,20.2618,-0.845698,22.2042,-15.945,1.34632,11.7361,-7.936,-2.38542e-15,6.20208e-14,-27.2935,-6.98439,-83.4332,14.0613,33.6579,-20.1503,8.75488,7.12502,6.19474,-21.1345,-2.38542e-15,6.20208e-14,-54.2027,-34.7016,109.406,56.4102,52.9994,-34.6492,52.3589,7.12502,-7.80616,82.1948,-8.54905,-15.7966,27.1053,24.2534,-19.5918,-9.1695,11.9516,-5.19776,10.1306,-16.6003,29.3135,-24.1237,14.5055,-19.594
12.339,17.8778,-3.8451,-177.859,10.936,-177.524,2.27463,-2.56647,2.5084,-6.20714,-2.61927,3.77935,-7.72086,-1.13058,2.77989,15.3631,14.0151,20.2227,-0.885428,22.178,-15.7314,1.31539,11.7058,-7.86334,2.88238e-14,5.56597e-15,-27.1908,-6.62488,-83.7935,14.4335,33.5751,-20.0825,8.82484,7.12502,6.26022,-21.0627,2.88238e-14,5.56597e-15,-55.0384,-34.596,109.862,55.8476,53.8847,-35.8201,49.3826,7.12502,-8.93619,79.1734,-8.36786,-15.3796,27.0679,24.2888,-19.6319,-9.28416,11.8978,-5.56036,10.1766,-16.6318,29.5359,-25.4872,13.8316,-14.3405
12.3741,17.8917,-3.9076,-177.746,11.1053,-177.869,2.10905,-2.4572,2.20788,-6.29313,-2.50797,3.63311,-7.71015,-1.06421,2.77873,15.4998,13.9958,20.1846,-0.990636,22.144,-15.5148,1.22816,11.6798,-7.81695,-4.29375e-14,4.6118e-14,-27.1556,-7.24333,-83.6902,14.5999,35.3075,-19.9437,9.1957,7.12502,6.39417,-20.6878,-4.29375e-14,4.6118e-14,-56.0312,-34.3266,110.308,55.4517,54.6497,-36.4699,48.6013,7.12502,-9.56321,78.3642,-8.21696,-15.1437,26.7857,24.1944,-19.7789,-9.55341,11.874,-6.18697,10.3071,-17.0513,29.7087,-26.2954,14.0819,-12.3772
12.402,17.8941,-3.96515,-177.708,11.253,-178.117,2.04132,-2.37538,2.05124,-6.30192,-2.42603,3.51198,-7.67906,-1.02223,2.72866,15.4744,14.0577,20.1278,-0.960003,22.1993,-15.2685,1.21612,11.6946,-7.72873,4.05521e-14,-3.57812e-14,-26.9123,-7.43554,-83.8202,14.6409,36.3461,-20.1097,9.41737,7.12502,6.23392,-20.4709,4.05521e-14,-3.57812e-14,-56.9485,-34.244,110.69,55.2226,55.4515,-36.7847,48.6566,7.12502,-9.86693,78.4054,-7.99028,-14.9434,26.554,24.0802,-19.9143,-9.57861,13.3118,-6.70468,10.6624,-17.3831,29.7947,-26.5084,14.4309,-11.3304
12.4331,17.9115,-4.02831,-177.726,11.3928,-178.224,2.02318,-2.26961,2.03544,-6.27764,-2.30124,3.40741,-7.64868,-0.967102,2.61508,15.4048,14.0838,20.152,-0.946195,22.2182,-15.1721,1.22547,11.696,-7.6938,-2.0276e-14,2.38542e-15,-26.7137,-6.6435,-84.3959,15.0243,35.1023,-19.9667,9.10428,7.12502,6.37197,-20.7799,-2.0276e-14,2.38542e-15,-58.0245,-34.5708,111.352,55.0481,56.6445,-37.2095,48.6549,7.12502,-10.2767,78.3838,-7.75853,-14.4174,26.4705,24.1017,-19.7566,-9.81706,13.2331,-7.11772,10.8944,-17.5473,29.7976,-26.7687,14.5109,-9.6778
12.4623,17.9281,-4.09259,-177.817,11.4602,-178.552,2.07399,-2.19671,1.84269,-6.29848,-2.23594,3.22827,-7.69992,-0.934343,2.53193,15.5361,14.0841,20.2225,-1.07902,22.239,-15.1687,1.17713,11.706,-7.71782,-2.48481e-14,5.1684e-14,-26.6912,-5.66383,-84.9917,15.5718,33.6194,-19.5787,8.78452,7.12502,6.74651,-21.088,-2.48481e-14,5.1684e-14,-59.1103,-34.7475,111.998,54.7663,57.2165,-37.2461,49.0331,7.12502,-10.312,78.7603,-7.47232,-14.0016,26.13,24.0981,-19.4663,-10.0481,11.8391,-7.55745,11.0974,-17.9776,29.8104,-26.8877,14.6979,-10.381
12.485,17.9355,-4.15076,-177.895,11.4512,-178.811,2.15344,-2.16493,1.74214,-6.27304,-2.2231,3.06081,-7.72026,-0.933949,2.41377,15.475,14.1391,20.2659,-1.10968,22.2934,-15.0656,1.17953,11.7228,-7.68238,-5.02925e-14,2.94201e-14,-26.6623,-4.3511,-85.7665,16.1329,31.6045,-19.7456,8.61016,7.12502,6.5854,-21.2674,-5.02925e-14,2.94201e-14,-59.6471,-34.354,112.089,54.2345,56.7517,-37.1416,49.7386,7.12502,-10.2113,79.4707,-7.16707,-13.794,25.8309,24.0187,-19.4104,-10.0817,11.6425,-8.04827,11.4699,-18.3299,29.8162,-26.875,14.6632,-10.6272
12.5074,17.9528,-4.20938,-177.859,11.375,-178.724,2.14625,-2.12882,1.99594,-6.19584,-2.17499,2.97798,-7.64782,-0.93228,2.17807,15.3051,14.1213,20.3104,-1.20719,22.2257,-15.1013,1.17361,11.6787,-7.69206,2.98177e-15,-1.66979e-14,-26.6275,-3.03239,-86.5209,16.777,29.4564,-20.0213,8.36039,7.12502,6.31923,-21.5253,2.98177e-15,-1.66979e-14,-59.753,-33.6181,111.728,53.5924,55.7373,-36.9241,50.0871,7.12502,-10.0014,79.8295,-6.90843,-13.3482,25.9347,23.9958,-19.1841,-10.3645,11.9226,-8.62601,11.7659,-18.3098,29.727,-26.9044,14.339,-9.2868
12.5279,17.9801,-4.27061,-177.797,11.2612,-178.534,2.17003,-2.12028,2.38329,-6.21586,-2.13293,2.95889,-7.70229,-0.93284,1.93994,15.4617,14.0503,20.2162,-1.46067,22.1206,-15.1654,1.05377,11.6279,-7.73785,-4.53229e-14,-1.59028e-14,-26.7476,-2.86716,-86.6395,17.2128,29.5968,-20.0324,8.49882,7.12502,6.30852,-21.3872,-4.53229e-14,-1.59028e-14,-60.4379,-33.3984,111.92,53.3411,55.4212,-36.4947,49.4632,7.12502,-9.58712,79.2251,-6.69285,-12.873,26.1302,24.0454,-18.7519,-10.5708,12.3624,-9.14494,11.7564,-18.2339,29.4985,-26.6712,14.1076,-9.4982
12.5435,18.006,-4.33062,-177.755,11.1033,-178.713,2.18121,-2.1547,2.38456,-6.31058,-2.17448,2.89181,-7.8133,-0.953462,1.87608,15.6387,14.021,20.158,-1.51433,22.1115,-15.2433,1.01222,11.6345,-7.77517,-1.33186e-14,-1.59028e-14,-26.8539,-3.41955,-86.4042,17.3302,30.8736,-20.2669,8.99588,7.12502,6.08218,-20.8968,-1.33186e-14,-1.59028e-14,-61.4229,-33.4539,112.505,53.2319,55.5045,-36.2749,49.2498,7.12502,-9.37505,79.0213,-6.58439,-12.7695,25.87,24.0797,-18.7062,-10.2936,14.086,-9.64721,11.4295,-18.6319,29.1498,-26.0135,14.1234,-10.8208
12.5555,18.0256,-4.39266,-177.836,10.9071,-179.146,2.17829,-2.18564,2.13776,-6.30335,-2.25257,2.75274,-7.79599,-0.986601,1.87442,15.7682,13.9907,20.1427,-1.64887,22.0913,-15.4456,0.971205,11.6364,-7.85384,9.36276e-14,1.82882e-14,-26.78,-3.44967,-86.4073,17.5255,31.0802,-20.3215,9.03496,7.12502,6.0294,-20.8592,9.36276e-14,1.82882e-14,-61.8127,-32.9857,112.528,52.8843,54.9343,-36.3743,49.3768,7.12502,-9.47095,79.1439,-6.37735,-12.9339,25.2718,24.0915,-18.5983,-9.88232,15.463,-10.0226,11.0447,-19.2896,28.6794,-25.3652,14.1838,-11.6472
12.571,18.0478,-4.45297,-177.836,10.7504,-179.093,2.22128,-2.17527,2.35644,-6.26666,-2.23092,2.70614,-7.79359,-0.992372,1.70244,15.7349,13.972,20.0909,-1.77664,22.0382,-15.5202,0.932316,11.6085,-7.87766,-2.82274e-14,-2.94201e-14,-26.769,-2.76015,-86.7129,18.0395,30.1065,-20.1613,8.64768,7.12502,6.18406,-21.2421,-2.82274e-14,-2.94201e-14,-62.0693,-32.5549,112.445,52.5145,54.466,-36.4473,48.8614,7.12502,-9.54142,78.6254,-6.11616,-12.8066,25.2786,24.0049,-17.9662,-10.1721,14.368,-10.3823,10.7441,-19.3674,28.1961,-24.8092,14.2327,-11.678
12.5873,18.0763,-4.50993,-177.648,10.6409,-178.686,2.16855,-2.11092,2.8736,-6.22853,-2.10185,2.77735,-7.74397,-0.953861,1.47396,15.4639,13.9666,20.077,-1.76745,21.9791,-15.6241,0.976376,11.5735,-7.88492,5.1684e-15,-7.15625e-15,-26.8224,-1.72037,-87.0376,18.6309,28.6232,-20.5764,8.39921,7.12502,5.78336,-21.5019,5.1684e-15,-7.15625e-15,-62.4499,-32.5548,112.756,52.0593,54.1137,-36.3168,48.1164,7.12502,-9.41551,77.8861,-5.89427,-12.4595,25.7666,23.7024,-17.192,-10.7573,12.895,-10.9936,10.2114,-19.0777,27.8597,-24.0366,14.7464,-11.506
12.5952,18.1034,-4.56686,-177.637,10.56,-178.719,2.15569,-2.036,2.98978,-6.13439,-2.0066,2.75913,-7.64034,-0.91717,1.37824,15.2447,13.9598,19.9805,-1.8186,21.9146,-15.8129,0.994949,11.5419,-7.91628,1.47101e-14,-7.95139e-16,-26.7839,-0.975411,-87.1658,19.0381,27.6057,-20.897,8.17348,7.12502,5.47383,-21.7358,1.47101e-14,-7.95139e-16,-62.7468,-32.5621,113.155,51.4744,53.5402,-36.5265,47.162,7.12502,-9.61781,76.9224,-5.43846,-12.3805,25.6879,23.2304,-16.5641,-10.8861,11.4307,-11.5614,9.47663,-19.2867,27.6373,-23.8007,15.2264,-10.0947
12.6,18.1312,-4.62386,-177.666,10.5309,-178.905,2.21503,-1.9956,3.05781,-6.14162,-1.95852,2.63907,-7.68947,-0.904351,1.21283,15.2008,13.9427,19.9302,-1.72774,21.8921,-15.828,1.02066,11.534,-7.90876,1.58034e-14,6.36111e-15,-26.8186,-1.00847,-87.1492,19.2664,27.5412,-20.5952,8.03813,7.12502,5.7652,-21.8634,1.58034e-14,6.36111e-15,-63.1369,-32.3646,113.374,51.0411,53.7102,-37.2956,46.28,7.12502,-10.3598,76.0048,-4.98014,-12.2672,25.4034,22.8035,-15.987,-10.9035,9.60511,-12.064,9.00541,-19.6701,27.3415,-23.9544,15.4001,-9.09738
12.6054,18.1505,-4.68206,-177.507,10.5029,-178.695,2.08931,-1.97119,3.5132,-6.16751,-1.88931,2.66108,-7.6632,-0.891712,0.972218,15.2895,13.9219,19.804,-1.66771,21.8731,-15.7875,1.00314,11.5307,-7.89036,-1.95803e-14,-1.59028e-15,-26.8555,-1.0649,-87.0834,19.4736,27.5986,-20.3832,7.99035,7.12502,5.96985,-21.9055,-1.95803e-14,-1.59028e-15,-63.4081,-32.039,113.407,50.8852,54.5115,-37.9897,46.4056,7.12502,-11.0294,76.0958,-4.73809,-11.8573,25.5742,22.5921,-15.61,-10.8871,10.568,-12.5962,8.62896,-19.646,26.8744,-23.979,15.7853,-8.71162
12.6106,18.1697,-4.73974,-177.413,10.4295,-178.63,1.97637,-1.9217,3.67725,-6.10795,-1.81133,2.75125,-7.5364,-0.856986,0.96259,15.0034,13.8712,19.7175,-1.41565,21.785,-15.9784,1.118,11.4953,-7.9057,2.64384e-14,1.59028e-14,-26.7349,-0.986444,-86.8505,19.5594,27.4664,-20.2204,7.99875,7.12502,6.12702,-21.8927,2.64384e-14,1.59028e-14,-63.441,-31.845,113.519,50.719,54.7376,-38.1961,47.7646,7.12502,-11.2284,77.4441,-4.56088,-11.6301,25.5728,22.5361,-15.2956,-10.8777,10.5723,-12.9809,8.21369,-19.7873,26.3064,-23.8457,16.5751,-10.2001
12.6142,18.2013,-4.80083,-177.428,10.3687,-178.833,2.02157,-1.82336,3.55889,-6.10918,-1.68806,2.72348,-7.55827,-0.791464,0.990115,14.6538,13.7769,19.8461,-1.03265,21.68,-16.1921,1.30321,11.451,-7.94339,-7.7526e-15,7.95139e-16,-26.7394,-1.17543,-86.4782,19.4826,27.4325,-20.0381,8.28728,7.12502,6.30303,-21.5989,-7.7526e-15,7.95139e-16,-63.5211,-31.7976,113.633,50.3423,54.3077,-37.6998,48.9291,7.12502,-10.7497,78.6341,-4.39334,-11.7736,25.2229,22.5407,-14.8523,-10.6857,8.1702,-13.1877,8.0684,-20.2269,25.6663,-23.5486,16.8869,-12.0881
12.6153,18.2221,-4.86722,-177.404,10.3146,-178.847,1.90288,-1.73339,3.67894,-6.07557,-1.56876,2.7033,-7.45643,-0.739376,0.886929,14.9145,13.7601,19.7425,-1.28126,21.655,-16.1458,1.16947,11.4408,-7.9564,-2.90226e-14,1.27222e-14,-26.7869,-1.36566,-86.1598,19.3593,27.5325,-20.3086,8.49139,7.12502,6.0419,-21.4025,-2.90226e-14,1.27222e-14,-63.8764,-31.8879,114.098,50.4077,56.638,-40.9415,48.2962,7.12502,-13.8753,77.8133,-4.13559,-11.9624,25.0321,22.4757,-14.4498,-10.2641,7.60996,-13.3565,7.9276,-20.4662,25.0729,-23.7327,16.292,-9.49029
12.6221,18.2405,-4.92912,-177.35,10.2026,-178.75,1.71876,-1.70709,3.81677,-5.96476,-1.5376,2.77002,-7.23281,-0.727738,0.868661,15.0251,13.8624,19.5241,-1.51702,21.7374,-16.0345,1.06235,11.4749,-7.91113,-3.27995e-14,3.65764e-14,-26.6341,-1.8935,-85.7568,19.1796,28.0972,-20.7846,8.58623,7.12502,5.58229,-21.3202,-3.27995e-14,3.65764e-14,-63.0575,-31.3259,113.265,49.5717,55.033,-38.7148,48.3166,7.12502,-11.7287,77.9682,-3.87748,-11.9313,25.0723,22.3064,-13.8544,-10.4632,6.81472,-13.6174,7.59766,-20.5383,24.5791,-23.7573,15.964,-6.70299
12.632,18.2649,-4.98333,-177.306,10.1658,-178.519,1.80903,-1.6436,4.06804,-5.94729,-1.42318,2.84389,-7.2726,-0.680897,0.798894,14.8367,13.912,19.5917,-1.36695,21.7996,-16.0662,1.15725,11.5032,-7.8969,4.17448e-14,3.97569e-15,-26.5586,-2.75409,-85.2661,19.0836,28.7361,-20.7156,8.5995,7.12502,5.64895,-21.3052,4.17448e-14,3.97569e-15,-63.2072,-31.4211,113.736,49.0366,56.5237,-40.7194,45.7969,7.12502,-13.6612,75.3285,-3.66903,-11.7274,25.3394,22.1399,-13.0219,-11.0465,3.751,-13.9102,7.25056,-20.4173,24.0799,-23.1206,16.6827,-8.74667
12.6336,18.2844,-5.04283,-177.331,10.2584,-178.483,1.89496,-1.51624,4.18418,-5.97607,-1.23104,2.87105,-7.35376,-0.590388,0.749569,15.0337,13.8348,19.6656,-1.47952,21.7423,-16.2196,1.10912,11.4877,-7.98102,1.88845e-14,-1.19271e-14,-26.6513,-3.47917,-84.6934,18.9085,29.1737,-20.4143,8.66674,7.12502,5.93981,-21.23,1.88845e-14,-1.19271e-14,-63.0905,-31.2521,113.786,48.5671,56.4775,-40.6884,45.1901,7.12502,-13.6314,74.7238,-3.36587,-11.7523,25.2592,21.9988,-12.4622,-11.0106,1.48165,-14.1153,6.95565,-20.5325,23.631,-22.4533,17.6542,-11.6351
12.6314,18.2973,-5.11492,-177.509,10.314,-178.801,1.83774,-1.44338,3.93786,-5.93458,-1.15709,2.88327,-7.26579,-0.540458,0.890713,15.2535,13.7811,19.5459,-1.46289,21.707,-16.2746,1.06741,11.4864,-8.00796,1.96797e-14,-7.95139e-16,-26.7955,-4.04407,-84.0642,18.5707,29.644,-20.5847,8.80391,7.12502,5.77534,-21.0974,1.96797e-14,-7.95139e-16,-62.8024,-31.0076,113.885,47.9413,56.2487,-40.6136,45.5534,7.12502,-13.5592,75.0919,-2.94293,-12.1293,24.6676,21.955,-12.4583,-10.4656,1.76585,-13.9804,6.78914,-21.058,23.0956,-22.0703,17.8098,-10.8388
12.6433,18.3045,-5.14054,-177.432,10.0966,-178.42,2.2025,-1.49874,4.18085,-5.99196,-1.16526,3.06286,-7.54608,-0.549014,0.955291,15.1371,13.7847,19.6148,-1.16055,21.7476,-16.3015,1.19159,11.5124,-7.99529,-4.37326e-15,-1.82882e-14,-26.8602,-4.70862,-83.5762,18.3368,30.1722,-20.8506,8.64125,7.12502,5.51864,-21.2669,-4.37326e-15,-1.82882e-14,-62.5701,-31.0027,114.041,48.0345,58.1082,-43.2538,48.8052,7.12502,-16.1028,78.1562,-2.94626,-11.5436,25.2683,21.9364,-12.1256,-11.1515,3.12308,-14.2645,6.43912,-20.7385,22.6233,-21.4085,17.6035,-8.97258
12.642,18.3132,-5.22354,-177.606,10.1461,-178.659,2.01403,-1.38242,4.08604,-5.79575,-1.0708,2.91574,-7.22133,-0.50827,0.836349,14.8203,13.7955,19.9464,-0.897806,21.7843,-16.371,1.36739,11.5233,-8.00816,3.93594e-14,1.59028e-14,-26.7743,-5.642,-83.1538,18.1974,30.3691,-21.3927,8.26759,7.12502,4.99515,-21.6535,3.93594e-14,1.59028e-14,-61.9309,-30.8621,113.499,46.7836,56.5143,-42.1949,46.6928,7.12502,-15.0829,76.1233,-2.4591,-12.0029,24.7259,21.9174,-12.0303,-10.6737,3.5077,-14.0836,6.19475,-21.1554,22.2207,-20.8144,17.7627,-9.36485
12.648,18.318,-5.28066,-177.644,10.1128,-178.336,2.07227,-1.29051,4.3784,-5.72522,-0.925813,2.96204,-7.18456,-0.450181,0.709526,14.6571,13.7885,20.2058,-0.676082,21.7963,-16.2553,1.47432,11.5192,-7.97715,5.36719e-15,-3.81667e-14,-26.8793,-6.56511,-82.7073,18.0759,30.0881,-22.3728,7.89964,7.12502,4.04881,-22.0416,5.36719e-15,-3.81667e-14,-61.5639,-30.9344,113.362,46.2849,56.0316,-41.5567,48.4009,7.12502,-14.468,77.8765,-2.06361,-11.6598,25.035,21.7867,-12.0182,-10.887,4.25186,-14.1787,5.8418,-20.8763,22.0238,-20.4299,17.7751,-7.76021
12.6545,18.3046,-5.32609,-177.571,10.0931,-177.87,2.19308,-1.29861,4.75238,-5.79025,-0.866978,3.1566,-7.33298,-0.428141,0.704016,14.8688,13.7963,20.0938,-0.676117,21.8193,-16.0465,1.41012,11.5311,-7.92054,-4.37326e-15,-7.55382e-14,-27.1998,-7.30489,-82.1553,17.9738,30.2504,-22.5954,7.60632,7.12502,3.83387,-22.3389,-4.37326e-15,-7.55382e-14,-61.0878,-30.7268,113.189,45.4093,54.3099,-38.6497,49.4946,7.12502,-11.6658,79.1498,-1.80611,-11.056,25.5789,21.6589,-12.148,-11.129,5.82136,-14.3921,5.46595,-20.4408,21.8182,-19.8417,17.8836,-6.5713
12.6543,18.2824,-5.38157,-177.604,10.0642,-177.929,2.1418,-1.3422,4.64539,-5.75697,-0.927549,3.26183,-7.26429,-0.445933,0.877018,15.0544,13.8666,19.6965,-0.84153,21.8561,-15.8552,1.27548,11.5468,-7.83951,2.70347e-14,-6.20208e-14,-27.369,-7.84434,-81.6067,17.9018,30.5,-21.8973,7.1713,7.12502,4.50793,-22.7607,2.70347e-14,-6.20208e-14,-60.1726,-29.9596,112.59,44.4037,52.6127,-36.1417,50.2053,7.12502,-9.24656,79.9825,-1.45837,-11.0636,25.4112,21.5084,-12.1835,-10.9382,6.56425,-14.5641,5.03147,-20.5935,21.7448,-19.0322,18.1052,-8.11288
12.6558,18.272,-5.44368,-177.772,9.9885,-178.099,2.17906,-1.34439,4.4366,-5.68354,-0.95355,3.2703,-7.20076,-0.449648,1.00354,15.1692,13.8514,19.6235,-0.997635,21.8208,-15.8365,1.19592,11.5284,-7.84709,1.15295e-14,-8.90555e-14,-27.5383,-8.32855,-81.0905,17.7225,30.3538,-21.5776,7.30226,7.12502,4.81669,-22.623,1.15295e-14,-8.90555e-14,-59.3809,-29.422,112.151,43.5197,51.9304,-33.5897,51.3149,7.12502,-6.78353,81.1862,-1.02613,-11.4727,25.0784,21.4318,-12.0555,-10.8048,4.98915,-14.5108,4.54405,-20.8203,21.6965,-18.914,18.0438,-8.79014
12.6612,18.2632,-5.50033,-177.826,9.87125,-177.866,2.29986,-1.36808,4.56876,-5.686,-0.951069,3.39388,-7.27648,-0.448327,1.06219,15.3819,13.741,19.8128,-1.08439,21.7452,-16.0507,1.16896,11.5067,-7.96459,2.78299e-15,-1.98785e-14,-27.8056,-8.93711,-80.4072,17.3248,30.4902,-21.6559,8.29986,7.12502,4.74108,-21.6271,2.78299e-15,-1.98785e-14,-59.0194,-29.5819,112.363,42.8938,52.2593,-35.6472,49.6442,7.12502,-8.7694,79.4421,-0.790826,-11.3516,25.3201,21.591,-12.1675,-11.1806,4.33483,-14.4133,4.14889,-20.5905,21.4818,-18.7692,18.099,-11.4064
12.6635,18.2371,-5.55694,-177.854,9.75409,-177.676,2.28132,-1.41032,4.66805,-5.63501,-0.993362,3.5023,-7.21326,-0.467603,1.12245,15.3215,13.7295,19.8333,-0.963908,21.7335,-16.0141,1.20958,11.4999,-7.94603,-3.27995e-14,2.70347e-14,-28.0142,-9.62259,-79.8048,17.0114,30.9493,-21.6212,8.81439,7.12502,4.77449,-21.1118,-3.27995e-14,2.70347e-14,-58.5863,-29.7657,112.485,42.4395,52.4522,-36.5321,49.1411,7.12502,-9.62321,78.9013,-0.670417,-11.1079,25.5069,22.0221,-12.6466,-11.4551,5.39253,-14.2177,3.59646,-20.4017,21.0984,-18.1861,18.2238,-15.2449
12.6636,18.2196,-5.62027,-177.902,9.74072,-177.88,2.18151,-1.40888,4.39925,-5.60715,-1.02799,3.45676,-7.11776,-0.473911,1.22406,15.1779,13.8005,19.7761,-0.844532,21.775,-15.6335,1.2248,11.4976,-7.80313,7.55382e-15,-3.26007e-14,-28.303,-10.3665,-79.2995,16.9284,31.6995,-21.498,8.43719,7.12502,4.89346,-21.4863,7.55382e-15,-3.26007e-14,-58.0897,-29.74,112.365,41.9907,52.2715,-37.5356,49.2412,7.12502,-10.5913,78.9544,-0.731082,-11.3681,25.1663,22.6148,-12.8594,-11.3723,5.17515,-13.8935,2.75709,-20.6118,20.6984,-17.5997,17.9458,-14.9328
12.6642,18.2132,-5.67916,-177.905,9.71008,-178.078,2.19104,-1.43672,4.13747,-5.67088,-1.08245,3.40936,-7.18507,-0.489958,1.32672,15.4303,13.793,19.8436,-1.07451,21.7802,-15.5127,1.11307,11.4949,-7.80954,-3.95581e-14,5.56597e-15,-28.6392,-11.045,-78.7426,16.7157,32.4179,-21.4959,8.31785,7.12502,4.89553,-21.6056,-3.95581e-14,5.56597e-15,-57.6734,-29.7483,112.366,41.4492,52.3194,-38.5564,49.4228,7.12502,-11.5759,79.0831,-1.00457,-11.8329,24.8608,23.2676,-12.6618,-11.5058,2.37241,-13.5661,2.38932,-20.8473,20.3703,-16.6777,17.0379,-11.2167
12.6685,18.1958,-5.73315,-178.031,9.51079,-177.904,2.40866,-1.52293,4.21694,-5.67182,-1.1728,3.46942,-7.31542,-0.53706,1.35945,15.5977,13.6912,20.0078,-1.17209,21.6984,-15.669,1.07946,11.4644,-7.90331,-1.80894e-14,6.91771e-14,-28.9345,-11.3716,-78.2832,16.4109,32.5109,-21.7773,8.70458,7.12502,4.62384,-21.225,-1.80894e-14,6.91771e-14,-57.2279,-29.8294,112.393,40.9717,52.474,-38.6555,49.8674,7.12502,-11.6714,79.5223,-0.993801,-11.9114,25.0309,23.8788,-12.7867,-11.9119,0.570556,-13.1139,2.81416,-20.7219,20.2074,-15.0544,15.8812,-8.10311
12.6755,18.1757,-5.79298,-178.202,9.32203,-177.595,2.55122,-1.57169,4.35205,-5.61056,-1.20947,3.60298,-7.33534,-0.555744,1.43003,15.5166,13.582,20.0439,-0.941134,21.5722,-15.6306,1.1366,11.4046,-7.89023,8.94531e-15,4.37326e-14,-29.2685,-11.7976,-77.6861,16.1908,32.9662,-21.9068,8.8609,7.12502,4.4988,-21.0713,8.94531e-15,4.37326e-14,-56.7542,-29.8864,112.44,40.7048,52.5161,-38.4888,50.8258,7.12502,-11.5107,80.4897,-0.732731,-11.751,25.3257,24.3648,-13.1892,-12.1466,0.240038,-12.7018,3.43782,-20.4325,20.3064,-13.7224,15.1031,-6.97408
12.6781,18.1522,-5.85393,-178.296,9.22023,-177.297,2.57037,-1.63994,4.49121,-5.55944,-1.27787,3.73123,-7.29488,-0.588981,1.4924,15.613,13.536,20.0375,-0.956988,21.5145,-15.4882,1.09033,11.3716,-7.86271,-2.40529e-14,6.83819e-14,-29.5435,-12.706,-76.9193,15.783,34.3621,-21.9077,8.9191,7.12502,4.49787,-21.0131,-2.40529e-14,6.83819e-14,-56.2012,-29.7433,112.362,40.4888,52.4105,-38.5363,51.9213,7.12502,-11.5565,81.5827,-0.519079,-11.7787,25.5537,24.7829,-13.5046,-12.0897,0.183816,-12.5001,4.05994,-20.1472,20.5492,-13.2153,14.7004,-7.68358
12.6788,18.1293,-5.91351,-178.514,9.10165,-177.201,2.7443,-1.79146,4.50168,-5.48307,-1.48181,3.73813,-7.3158,-0.693532,1.51617,15.5421,13.5973,20.0767,-0.856492,21.5797,-15.2209,1.11649,11.3892,-7.77042,8.54774e-15,-1.82882e-14,-29.7361,-13.6082,-76.3576,15.2571,35.6082,-22.1043,9.28453,7.12502,4.30803,-20.6516,8.54774e-15,-1.82882e-14,-55.6117,-29.5704,112.148,40.1994,52.6458,-38.4277,51.5342,7.12502,-11.4517,81.2014,-0.294234,-11.816,25.5357,25.353,-13.8939,-11.9731,2.72892,-12.2074,4.45294,-20.05,20.6974,-12.712,14.9044,-11.3594
12.6836,18.1306,-5.97832,-178.76,9.04926,-177.375,2.90095,-1.88519,4.25843,-5.43123,-1.64209,3.63659,-7.34466,-0.770626,1.56413,15.3434,13.6234,20.1345,-0.491271,21.6059,-14.832,1.22142,11.3872,-7.62441,4.31363e-14,-7.63333e-14,-30.0579,-14.3337,-75.9176,14.9325,36.5461,-22.3994,9.55776,7.12502,4.02308,-20.384,4.31363e-14,-7.63333e-14,-55.113,-29.6484,112.086,39.8227,52.9284,-38.0365,50.6754,7.12502,-11.0745,80.3632,-0.29711,-11.9673,25.1915,26.1955,-14.0314,-11.9167,4.42737,-11.8406,4.74498,-20.1867,20.72,-12.4303,15.1634,-13.5702
12.6883,18.1305,-6.04328,-178.905,9.08566,-177.629,2.90952,-1.87637,3.84654,-5.44313,-1.6685,3.59686,-7.34675,-0.766143,1.75491,15.4521,13.5281,20.2976,-0.301606,21.5491,-14.7634,1.26036,11.367,-7.6306,-2.14687e-14,5.64548e-14,-30.5111,-14.8827,-75.3099,14.738,37.2845,-22.5534,9.32381,7.12502,3.87435,-20.6207,-2.14687e-14,5.64548e-14,-54.6316,-29.8428,112.294,39.4051,52.6067,-37.4907,50.6928,7.12502,-10.548,80.4082,-0.609925,-12.1359,24.7741,27.2945,-13.9132,-11.958,3.22458,-11.5456,5.22518,-20.4023,20.6844,-12.4766,14.7095,-12.4578
12.6879,18.108,-6.10151,-179.023,9.10773,-177.831,2.84521,-1.87738,3.48534,-5.36942,-1.71282,3.59691,-7.21523,-0.772102,1.95557,15.3395,13.4899,20.4367,-0.0568069,21.527,-14.7585,1.35999,11.3596,-7.62595,-7.35503e-15,2.46493e-14,-30.7743,-15.1801,-74.7481,14.4891,37.5072,-22.5733,9.17937,7.12502,3.85512,-20.7655,-7.35503e-15,2.46493e-14,-53.8329,-29.853,112.253,39.0266,52.0717,-36.6593,50.8064,7.12502,-9.74597,80.5609,-0.975069,-12.2064,24.3976,28.5869,-14.013,-11.8073,3.21721,-11.2516,5.79395,-20.6049,20.6556,-12.4855,13.6918,-10.8182
12.6844,18.0862,-6.15817,-179.114,9.15467,-178.05,2.72107,-1.89003,3.18528,-5.22624,-1.78832,3.5227,-6.97833,-0.803253,2.04268,15.0312,13.4818,20.483,0.135684,21.4598,-14.5217,1.43062,11.308,-7.52976,-1.19271e-14,0,-30.9676,-16.0189,-74.0933,14.1856,38.2569,-22.5605,9.43177,7.12502,3.86752,-20.5129,-1.19271e-14,0,-52.9289,-29.9026,111.944,38.8365,51.5905,-35.718,51.6018,7.12502,-8.83766,81.3968,-1.41385,-12.3497,23.9692,30.0092,-14.3786,-11.2747,4.20014,-10.9952,6.4426,-20.8631,20.6913,-12.7385,12.5572,-8.80074
12.6822,18.0742,-6.21578,-179.14,9.21874,-178.397,2.60514,-1.92955,2.76026,-5.26777,-1.88515,3.44405,-6.93929,-0.834476,2.20289,15.3617,13.4094,20.3046,-0.0406895,21.3585,-14.1367,1.24941,11.2476,-7.44377,1.76918e-14,-3.81667e-14,-31.5211,-17.3685,-73.0778,13.8929,39.7774,-22.4353,9.61482,7.12502,3.98842,-20.3276,1.76918e-14,-3.81667e-14,-52.8992,-30.4324,112.544,39.0597,52.7638,-37.4756,51.6294,7.12502,-10.5335,81.3454,-2.05859,-12.4871,23.4227,31.5222,-14.7492,-10.6392,5.16205,-10.8335,6.85248,-21.256,20.7351,-13.0771,11.9361,-7.58062
12.6785,18.0699,-6.26898,-179.074,9.1502,-178.748,2.50352,-2.03972,2.41926,-5.46614,-2.04895,3.36997,-7.07811,-0.896669,2.33231,15.868,13.3164,19.9595,-0.0822355,21.2669,-13.6847,1.05948,11.2042,-7.32873,1.37161e-14,-3.65764e-14,-32.2708,-18.2838,-72.0918,13.7132,40.8942,-22.0362,9.55192,7.12502,4.37382,-20.3829,1.37161e-14,-3.65764e-14,-52.9655,-30.612,113.04,39.2899,53.3777,-38.4808,51.391,7.12502,-11.503,81.0554,-2.90256,-12.7133,22.8695,33.0753,-14.8512,-10.0425,7.75017,-10.7232,6.89675,-21.6764,20.639,-13.4038,11.7428,-6.52721
12.6753,18.0763,-6.32163,-178.982,9.04937,-178.959,2.38529,-2.13965,2.24622,-5.53695,-2.20388,3.27578,-7.07759,-0.967519,2.34092,15.6603,13.2223,19.9631,0.345666,21.1487,-13.5065,1.1788,11.1486,-7.24871,-2.08724e-14,-2.38542e-15,-32.7409,-18.6754,-71.589,13.5907,40.9253,-21.8037,9.48131,7.12502,4.59829,-20.4488,-2.08724e-14,-2.38542e-15,-52.512,-30.6578,112.883,39.4633,52.9019,-37.3759,51.3237,7.12502,-10.4372,81.0446,-3.82874,-12.9674,22.5016,34.6082,-14.6747,-9.63422,9.32548,-10.5035,6.82748,-21.9515,20.3429,-13.8155,11.4834,-3.9059
12.6792,18.0856,-6.38183,-179.057,9.07333,-178.97,2.39701,-2.21661,2.14197,-5.4476,-2.33236,3.22945,-6.98245,-1.0326,2.35896,15.2573,13.1686,20.2527,0.730661,21.0823,-13.5211,1.37408,11.1147,-7.23834,3.85642e-14,-3.57812e-14,-32.9494,-18.8839,-71.439,13.3022,40.1911,-22.0471,9.58435,7.12502,4.36324,-20.3507,3.85642e-14,-3.57812e-14,-51.6227,-30.5455,112.221,39.4678,51.1104,-35.2402,51.8501,7.12502,-8.37656,81.664,-4.52964,-13.0623,22.3793,36.011,-14.415,-9.58837,8.92358,-9.97742,6.75734,-21.9422,19.957,-14.1506,11.2533,-2.07282
12.6842,18.0857,-6.44491,-179.188,9.11038,-178.944,2.49756,-2.3328,2.02151,-5.40551,-2.49661,3.268,-6.98448,-1.10841,2.48361,15.111,13.1934,20.2493,0.934608,21.095,-13.3106,1.436,11.1149,-7.15241,-2.66371e-14,3.81667e-14,-33.2176,-18.9747,-71.092,13.0295,40.0466,-21.959,9.81453,7.12502,4.44834,-20.1188,-2.66371e-14,3.81667e-14,-51.2964,-30.5581,112.278,39.9381,51.5756,-36.2825,50.4903,7.12502,-9.38238,80.2615,-5.02377,-13.1526,22.306,37.1964,-14.1345,-10.0307,6.94795,-9.37558,6.71664,-21.8806,19.6069,-14.5779,10.9151,1.10431
12.6862,18.0826,-6.50233,-179.199,9.04342,-178.941,2.53857,-2.50587,1.90047,-5.44547,-2.72277,3.36287,-7.03485,-1.20815,2.67327,15.1427,13.2399,19.9521,0.995835,21.1083,-12.9834,1.38611,11.1129,-7.02082,-1.47101e-14,4.53229e-14,-33.4785,-18.4309,-70.8617,12.9031,39.8381,-21.6176,9.66571,7.12502,4.77806,-20.2604,-1.47101e-14,4.53229e-14,-51.0651,-30.5432,112.467,40.4829,51.5787,-36.3249,49.778,7.12502,-9.42326,79.5473,-5.48824,-13.3953,22.2587,38.1418,-14.2366,-10.9032,5.96989,-8.94365,6.5998,-21.8716,19.3097,-15.2235,10.2484,8.09016
12.6904,18.079,-6.55405,-179.26,8.92158,-178.961,2.63019,-2.67683,1.73387,-5.48901,-2.95244,3.42196,-7.11577,-1.30916,2.8545,15.4127,13.1549,19.9886,0.924325,21.0526,-13.0342,1.3241,11.0953,-7.07274,-8.94531e-15,1.19271e-14,-33.6987,-17.4762,-71.0176,12.7797,38.5846,-21.6619,9.36311,7.12502,4.7352,-20.564,-8.94531e-15,1.19271e-14,-51.0221,-30.8366,112.753,41.3002,51.873,-36.2918,49.6251,7.12502,-9.39137,79.3959,-5.78635,-13.6983,22.2034,38.8661,-14.8049,-11.8766,7.24775,-8.50394,6.42503,-21.8751,19.0092,-15.3674,9.94136,10.3444
12.7022,18.0773,-6.60846,-179.346,8.71988,-178.954,2.70941,-2.86293,1.54641,-5.53285,-3.20803,3.45345,-7.18729,-1.42317,3.02063,15.5872,12.9968,20.3391,1.07146,20.9718,-13.3216,1.39439,11.0812,-7.21523,-3.16068e-14,-3.97569e-15,-34.1405,-18.5486,-70.1529,12.4255,39.6133,-21.8348,9.97165,7.12502,4.56829,-19.9591,-3.16068e-14,-3.97569e-15,-51.0302,-31.2489,112.955,42.2875,52.4803,-36.5323,49.1565,7.12502,-9.6234,78.9167,-6.0202,-14.0104,22.2226,39.349,-15.3679,-12.8724,7.53042,-8.09525,6.46232,-21.8198,18.7685,-14.8365,10.0684,5.40735
12.7172,18.0806,-6.66636,-179.358,8.42834,-179.035,2.67024,-3.07435,1.2775,-5.53542,-3.51392,3.46612,-7.13744,-1.56121,3.20769,15.4074,12.9973,20.2763,1.2988,20.9427,-13.142,1.45878,11.0625,-7.13127,-4.05521e-14,1.82882e-14,-34.9787,-23.0923,-67.1864,11.6428,44.9173,-22.0047,10.7708,7.12502,4.40421,-19.1634,-4.05521e-14,1.82882e-14,-50.6854,-31.5905,112.926,43.188,52.6459,-36.2444,49.2277,7.12502,-9.34558,79.0005,-6.3166,-14.2777,22.1926,39.557,-16.2944,-13.7364,9.80456,-7.80228,6.4446,-21.8485,18.6291,-15.2816,9.30152,10.2895
12.7297,18.0845,-6.72106,-179.33,8.31729,-178.958,2.65827,-3.18561,1.22142,-5.47228,-3.6724,3.49652,-7.05037,-1.63878,3.2803,14.8601,12.9837,20.2371,1.62611,20.8235,-12.9291,1.59258,10.9861,-7.01052,-7.7526e-15,0,-34.4171,-17.4845,-70.3454,12.6621,38.5504,-21.7429,9.27361,7.12502,4.65699,-20.6552,-7.7526e-15,0,-50.3443,-32.19,113.062,44.1591,53.0582,-35.4005,49.7299,7.12502,-8.53129,79.5376,-6.56575,-14.2323,22.3342,39.5258,-17.9955,-14.0283,14.072,-7.49301,5.94657,-21.7272,18.4971,-15.9769,8.83351,16.6097
12.7413,18.091,-6.77566,-179.203,8.41067,-178.566,2.6408,-3.23469,1.51032,-5.46027,-3.70648,3.58863,-7.04016,-1.66482,3.21718,14.4099,12.859,20.5552,1.98284,20.6552,-13.077,1.78655,10.9048,-7.05173,-9.34288e-15,5.56597e-15,-34.6205,-19.4717,-69.0281,11.9312,41.1572,-21.9965,9.32863,7.12502,4.41216,-20.6054,-9.34288e-15,5.56597e-15,-50.5608,-33.1531,113.709,45.428,54.7647,-34.4637,49.6221,7.12502,-7.62718,79.4646,-6.83394,-13.8934,22.8499,39.267,-19.9304,-13.8099,17.9459,-7.34054,5.2283,-21.2983,18.5239,-15.3637,10.3203,6.74741
12.75,18.102,-6.83033,-178.884,8.37483,-178.424,2.39678,-3.35763,1.57989,-5.57635,-3.85054,3.65927,-7.01781,-1.73036,3.25353,14.4785,12.9023,20.4137,1.9166,20.6852,-12.8692,1.72549,10.9118,-6.97934,-3.77691e-15,2.94201e-14,-34.5306,-14.2973,-71.715,13.0413,36.2827,-21.6917,8.39217,7.12502,4.70643,-21.5356,-3.77691e-15,2.94201e-14,-49.8867,-32.924,113.115,45.6955,52.2139,-34.1903,48.4904,7.12502,-7.36325,78.3423,-7.38391,-13.7141,23.1368,38.7997,-21.4017,-13.8356,21.1385,-7.64315,4.62686,-21.1887,18.875,-15.1303,11.3935,-0.193225
12.757,18.0976,-6.87801,-178.526,8.15117,-178.25,2.10208,-3.53885,1.69809,-5.68182,-4.06763,3.76266,-6.95334,-1.83289,3.29795,14.7335,12.9982,20.0874,1.61998,20.7674,-12.6136,1.55243,10.9397,-6.89324,-6.95746e-15,6.44062e-14,-34.5886,-12.2183,-72.5413,13.3889,35.2328,-21.4388,7.97831,7.12502,4.95062,-21.9439,-6.95746e-15,6.44062e-14,-49.3209,-32.9137,112.805,46.2516,51.4108,-33.9643,48.0174,7.12502,-7.14514,77.8768,-8.01702,-13.7789,23.5043,38.193,-22.2842,-14.4335,21.6757,-8.0698,3.95078,-21.0536,19.3112,-16.071,11.4709,4.05177
12.7687,18.0831,-6.92433,-178.234,7.98733,-177.774,1.94109,-3.6741,2.0354,-5.69921,-4.20396,3.94465,-6.88732,-1.9047,3.30096,14.7354,12.9654,20.1483,1.51785,20.7271,-12.7965,1.54055,10.9211,-6.96216,4.1546e-14,5.1684e-14,-34.5765,-11.5407,-72.6271,13.4063,35.4507,-21.217,8.10263,7.12502,5.16483,-21.8144,4.1546e-14,5.1684e-14,-48.8923,-33.4149,112.806,46.963,51.2515,-34.055,46.8281,7.12502,-7.23263,76.6845,-8.5919,-13.8888,24.2466,37.5121,-22.5443,-15.6305,19.2092,-8.34492,3.11614,-20.5481,19.7173,-17.0057,11.4719,8.66312
12.7861,18.0819,-6.9752,-177.896,7.94991,-177.531,1.69666,-3.75567,2.07498,-5.69751,-4.30503,4.05133,-6.73588,-1.9506,3.3794,14.3211,12.9435,20.3362,1.74039,20.6613,-12.8794,1.68648,10.8832,-6.96797,9.18385e-14,4.53229e-14,-34.4924,-11.2837,-72.5907,13.2696,35.8363,-21.0451,8.43733,7.12502,5.3308,-21.4756,9.18385e-14,4.53229e-14,-48.3467,-33.807,112.595,47.6883,50.6387,-33.7205,46.1243,7.12502,-6.90977,75.9915,-9.29614,-13.8821,24.7606,36.7601,-22.5203,-16.8058,16.3943,-8.74779,2.60565,-20.2632,20.2561,-17.8682,11.2799,11.334
12.8068,18.0847,-7.02128,-177.608,7.92821,-177.381,1.53144,-3.88286,2.03116,-5.76204,-4.46546,4.14398,-6.69276,-2.0201,3.50276,14.0752,12.9654,20.4133,1.95642,20.6646,-12.7753,1.78568,10.8801,-6.91505,-3.61788e-14,3.4191e-14,-34.4693,-11.3527,-72.3896,13.0081,36.6695,-20.9939,8.58472,7.12502,5.38025,-21.327,-3.61788e-14,3.4191e-14,-48.1699,-34.2585,112.561,48.5596,50.6904,-33.5388,47.583,7.12502,-6.73435,77.4559,-9.89465,-13.3965,25.1477,35.9509,-23.4793,-16.8929,17.3952,-9.17894,2.45702,-20.052,20.8228,-18.4945,11.2111,11.7377
12.8265,18.0821,-7.06063,-177.369,7.88023,-177.07,1.53409,-3.94861,2.16571,-5.8322,-4.52047,4.26232,-6.76992,-2.04281,3.56041,13.9918,12.9139,20.4132,1.88387,20.5633,-12.7502,1.75735,10.8217,-6.91204,3.37934e-14,-1.66979e-14,-34.4875,-11.1393,-72.3458,12.7973,36.6465,-21.3866,8.65232,7.12502,5.00111,-21.2687,3.37934e-14,-1.66979e-14,-48.2284,-35.2593,112.931,49.3949,51.3833,-34.3166,47.8459,7.12502,-7.48516,77.6935,-10.4251,-12.7134,25.6917,35.1605,-24.7246,-16.7332,19.3308,-9.45004,2.0879,-19.6631,21.2054,-18.6619,11.4396,11.4769
12.8441,18.0683,-7.10536,-177.141,7.91536,-177.03,1.45118,-3.90563,2.03033,-5.86479,-4.46606,4.29424,-6.74537,-2.00597,3.66004,13.6933,12.7515,20.5428,1.86659,20.2994,-12.8984,1.78209,10.6818,-6.9692,2.34566e-14,-2.78299e-14,-34.5566,-11.0297,-72.2602,12.6625,36.2519,-21.951,8.8826,7.12502,4.45604,-21.0505,2.34566e-14,-2.78299e-14,-47.8122,-35.6693,112.909,49.9198,51.2727,-34.6771,46.8327,7.12502,-7.8331,76.6676,-11.079,-12.3889,25.9378,34.3642,-24.9362,-17.3183,17.8797,-9.65619,1.63539,-19.5964,21.5069,-18.6385,11.8734,10.0564
12.8619,18.0524,-7.15732,-177.001,8.07125,-177.384,1.35202,-3.95528,1.52404,-5.94986,-4.56404,4.27753,-6.73302,-2.02911,3.92646,13.5359,12.6073,20.8145,2.06598,20.153,-13.2394,1.90273,10.6228,-7.0956,-6.75868e-15,-4.77083e-15,-34.6991,-11.1246,-71.9523,12.6014,36.5928,-21.9125,8.93817,7.12502,4.49326,-20.9942,-6.75868e-15,-4.77083e-15,-47.1852,-35.0386,112.342,50.4257,50.587,-34.9143,45.3759,7.12502,-8.0621,75.2021,-11.6846,-12.3305,25.6975,33.5134,-24.7668,-18.1746,14.248,-9.79163,1.48928,-19.9749,21.8111,-18.8008,12.297,8.28588
12.8819,18.0468,-7.20532,-176.906,8.14712,-177.605,1.40541,-4.06714,1.16258,-6.03571,-4.72867,4.29101,-6.81487,-2.08942,4.16139,13.7846,12.6485,20.5435,1.80467,20.1864,-13.121,1.75381,10.6341,-7.05634,-6.55989e-14,-3.4191e-14,-34.7453,-10.7546,-71.9456,12.6761,36.4631,-21.5339,8.69421,7.12502,4.85883,-21.2301,-6.55989e-14,-3.4191e-14,-46.7444,-34.7422,111.856,51.0872,50.3614,-36.4917,39.0744,7.12502,-9.58422,68.8364,-12.1519,-12.1663,25.5742,32.6064,-24.8882,-18.5768,11.924,-9.84043,1.26006,-20.1941,22.0652,-19.0586,12.7959,6.59516
12.9051,18.0432,-7.24533,-176.863,8.12132,-177.454,1.62413,-4.16554,1.10618,-6.02767,-4.85148,4.3888,-6.91282,-2.1423,4.3217,14.4487,13.0179,19.3528,0.745951,20.4756,-12.1762,1.1695,10.7236,-6.71339,-7.21588e-14,-2.06736e-14,-34.6482,-10.3301,-72.1106,12.8166,36.2041,-21.2163,8.29473,7.12502,5.16555,-21.6223,-7.21588e-14,-2.06736e-14,-46.391,-34.8079,111.538,51.7164,50.2095,-31.8544,49.3366,7.12502,-5.10816,79.2551,-12.4699,-11.7951,25.8722,31.6583,-24.9057,-18.6451,9.55432,-9.77066,0.849068,-19.9789,22.2215,-18.4765,13.9242,-0.130334
12.9275,18.0396,-7.28647,-176.856,8.1752,-177.196,1.84666,-4.23194,1.20267,-5.98329,-4.92594,4.46877,-6.99165,-2.18117,4.37412,14.1664,13.0287,19.7587,0.992365,20.5277,-12.4843,1.3666,10.7595,-6.81131,-9.0447e-14,5.32743e-14,-34.584,-10.096,-72.2906,13.0237,36.2187,-20.7563,7.78341,7.12502,5.60969,-22.1223,-9.0447e-14,5.32743e-14,-46.1211,-34.7128,111.13,52.3392,49.7727,-32.4626,49.4229,7.12502,-5.69534,79.3263,-12.6784,-11.3998,26.2368,30.6992,-24.9479,-18.425,6.05502,-9.61469,0.550728,-19.6434,22.3058,-17.9234,14.8241,-5.3225
12.9495,18.0456,-7.33623,-176.893,8.31524,-177.028,2.05208,-4.22271,1.34035,-5.97111,-4.9053,4.43266,-7.1143,-2.17948,4.27594,14.4262,13.1125,19.4936,0.529392,20.5855,-12.1252,1.13427,10.7645,-6.71356,2.76311e-14,3.33958e-14,-34.6398,-9.99165,-72.5088,13.0151,35.7135,-20.8993,7.72169,7.12502,5.47161,-22.1877,2.76311e-14,3.33958e-14,-46.0694,-34.6268,110.72,53.089,49.5762,-33.9207,46.6986,7.12502,-7.103,76.5594,-12.8256,-11.1115,26.4289,29.7608,-25.2137,-17.6967,3.74909,-9.35308,0.486535,-19.409,22.3915,-18.2608,14.9915,-5.14094
12.9749,18.0518,-7.38979,-177.017,8.47344,-177.039,2.22372,-4.19725,1.2756,-5.89596,-4.89109,4.36546,-7.13353,-2.17745,4.25039,14.0895,12.8752,20.0632,0.676525,20.3125,-12.6079,1.29239,10.6386,-6.90778,-1.15295e-13,7.79236e-14,-34.4877,-10.6741,-72.3362,12.6146,35.9441,-21.283,8.13809,7.12502,5.10108,-21.7805,-1.15295e-13,7.79236e-14,-45.9302,-34.5535,110.325,53.8001,49.3761,-35.3494,43.9911,7.12502,-8.48194,73.8008,-12.9138,-11.1111,26.4358,28.8951,-25.3355,-16.7228,2.53128,-8.9447,0.459239,-19.3698,22.4166,-18.567,15.1847,-5.49963
13.0005,18.0426,-7.43914,-177.025,8.6724,-177.136,2.18307,-4.186,1.07756,-5.75699,-4.91348,4.33959,-6.94362,-2.18999,4.32193,14.0385,12.863,20.0816,0.315442,20.2528,-12.8685,1.21216,10.6001,-7.00233,-2.52457e-14,3.26007e-14,-34.0885,-11.0491,-72.3427,12.4363,36.261,-21.1744,8.20825,7.12502,5.20592,-21.7078,-2.52457e-14,3.26007e-14,-45.5873,-34.5117,109.879,54.4298,49.002,-35.4252,47.5122,7.12502,-8.55516,77.3189,-13.1466,-11.2923,26.4343,28.1005,-24.9526,-16.1381,1.36315,-8.67999,0.266904,-19.4395,22.3837,-18.7493,15.5512,-5.82677
13.024,18.038,-7.48692,-176.99,8.91187,-177.202,2.15792,-4.15993,0.919649,-5.64442,-4.90556,4.33695,-6.795,-2.18647,4.3966,13.9997,12.9009,19.9619,0.0745243,20.2551,-13.0217,1.1513,10.5956,-7.03975,3.40916e-14,-1.35174e-14,-33.7115,-10.6527,-72.7498,12.3589,35.5674,-21.5712,8.2575,7.12502,4.82281,-21.6676,3.40916e-14,-1.35174e-14,-45.3683,-34.601,109.567,55.0333,48.8003,-34.4353,47.7535,7.12502,-7.59969,77.5969,-13.4064,-11.3004,26.4527,27.3512,-24.7556,-15.4008,1.74791,-8.50759,0.135372,-19.483,22.3924,-18.9087,15.8871,-5.76304
13.0479,18.0399,-7.53935,-177.081,9.1374,-177.149,2.30477,-4.12363,0.890119,-5.54788,-4.86381,4.36996,-6.77401,-2.1677,4.45124,13.6809,12.8399,20.1166,0.322634,20.1722,-13.3669,1.31126,10.5648,-7.12862,1.76918e-14,-3.18055e-15,-33.5095,-10.8578,-72.7319,12.304,35.931,-21.6069,8.34039,7.12502,4.78837,-21.5855,1.76918e-14,-3.18055e-15,-45.1403,-34.5442,109.217,55.3991,47.8852,-35.1028,48.8108,7.12502,-8.24397,78.6299,-13.4178,-11.235,26.5411,26.6324,-24.8149,-14.5729,1.02082,-8.15919,0.101411,-19.3957,22.4408,-19.0462,16.263,-6.47512
13.0748,18.0334,-7.59027,-177.063,9.2696,-177.035,2.38982,-4.12729,0.969012,-5.53481,-4.85976,4.39528,-6.81438,-2.16819,4.4404,13.4942,12.7636,20.253,0.48187,20.0811,-13.6162,1.41109,10.5276,-7.20407,2.39536e-14,1.35174e-14,-33.4454,-11.3094,-72.6357,12.5657,37.1792,-20.7726,7.93143,7.12502,5.59394,-21.9747,2.39536e-14,1.35174e-14,-45.0937,-34.3228,108.861,55.6642,46.8106,-33.3827,47.5961,7.12502,-6.58366,77.4737,-13.5151,-11.2548,26.7593,25.9627,-24.4097,-14.673,-2.80887,-7.91724,0.125162,-19.2229,22.4717,-19.1853,16.5875,-7.97581
13.103,18.0298,-7.63524,-176.935,9.37127,-177.005,2.42938,-4.12702,0.999551,-5.64022,-4.85235,4.33508,-6.95831,-2.16308,4.37,13.9076,12.6699,20.1685,0.109113,19.9823,-13.4665,1.19671,10.4749,-7.20969,-6.87795e-14,1.35174e-14,-33.4182,-11.5388,-72.8069,12.5891,37.7068,-20.771,7.85719,7.12502,5.59547,-22.0489,-6.87795e-14,1.35174e-14,-45.6873,-34.5755,109.051,56.1618,47.4816,-34.7355,48.71,7.12502,-7.88948,78.5428,-13.796,-11.1034,26.911,25.3946,-23.8086,-15.0349,-5.7173,-7.85732,0.129775,-19.1235,22.4873,-19.4312,16.6926,-8.14074
13.1295,18.0221,-7.68425,-176.934,9.59011,-176.993,2.48927,-4.0851,1.04199,-5.64059,-4.80399,4.23866,-7.00786,-2.14641,4.24679,14.4499,12.593,19.9301,-0.542862,19.8758,-13.2259,0.854772,10.4075,-7.19348,-1.0138e-14,1.98785e-14,-33.2123,-11.6799,-73.1093,12.3256,37.7543,-21.3526,8.33757,7.12502,5.03389,-21.5826,-1.0138e-14,1.98785e-14,-46.1675,-35.0997,109.235,56.6614,48.4924,-36.8178,42.3899,7.12502,-9.89882,72.1372,-13.922,-10.8675,26.9706,24.9888,-23.2166,-15.008,-6.74804,-7.61948,0.129912,-19.0545,22.4821,-19.7561,16.6889,-6.90934
13.1562,18.002,-7.74149,-177.085,9.77587,-177.213,2.5538,-4.06058,0.864422,-5.53695,-4.81085,4.12391,-6.92739,-2.15438,4.22437,14.5441,12.7055,19.2989,-0.957985,19.8877,-12.6385,0.597803,10.3783,-6.96976,-2.15681e-14,-7.95139e-16,-32.8833,-11.1212,-73.7609,12.3757,37.3337,-21.4486,8.60552,7.12502,4.9412,-21.3169,-2.15681e-14,-7.95139e-16,-46.2712,-35.2315,109.104,56.8538,48.4483,-36.9335,42.0196,7.12502,-10.0105,71.7615,-13.8726,-10.9738,26.7269,24.8466,-22.2669,-14.8061,-7.62389,-7.14566,0.419704,-19.2306,22.3615,-19.9515,16.5164,-6.63113
13.1848,17.9793,-7.79756,-177.202,9.88292,-177.693,2.56637,-4.03546,0.408221,-5.51374,-4.83623,3.95976,-6.88204,-2.15711,4.30679,13.9002,12.5256,20.0979,-0.0168365,19.765,-13.4509,1.11552,10.3614,-7.21926,-4.48259e-14,-2.54444e-14,-32.7218,-9.88666,-74.6891,12.7167,36.3815,-21.2949,8.36957,7.12502,5.08964,-21.5493,-4.48259e-14,-2.54444e-14,-46.5933,-35.2217,109.141,56.8912,48.002,-35.6239,45.7709,7.12502,-8.74687,75.5697,-13.8031,-11.2662,26.1902,24.8997,-21.0147,-14.254,-7.23543,-6.76733,0.744768,-19.678,22.2266,-20.2208,16.359,-6.74943
13.2116,17.9676,-7.85228,-177.281,10.0414,-178.189,2.48255,-3.95829,0.0449524,-5.49152,-4.79421,3.69633,-6.80295,-2.1357,4.22066,13.1594,12.26,20.8496,0.898007,19.4877,-13.9552,1.57584,10.2476,-7.38671,-1.66979e-14,-4.69132e-14,-32.5912,-9.84428,-75.1814,12.7921,36.3424,-21.2512,8.27477,7.12502,5.13182,-21.6431,-1.66979e-14,-4.69132e-14,-47.0448,-35.4567,109.199,56.9333,47.5905,-34.6037,48.0387,7.12502,-7.76228,77.8763,-13.6484,-11.5122,25.6099,25.0198,-20.2082,-13.1339,-4.08827,-6.51236,0.791764,-20.1748,22.206,-20.4919,16.6087,-6.78456
13.2375,17.9554,-7.90955,-177.424,10.3225,-178.591,2.42155,-3.82621,-0.153908,-5.41062,-4.66925,3.42648,-6.6946,-2.08349,4.02964,14.1529,12.6653,19.2768,-0.503414,19.801,-12.4418,0.756096,10.333,-6.86147,-6.43068e-14,-2.14687e-14,-32.2924,-11.1124,-75.1049,12.4538,37.557,-21.3858,8.86129,7.12502,5.00186,-21.0597,-6.43068e-14,-2.14687e-14,-47.5122,-35.7998,109.26,56.8978,47.5292,-34.9877,48.778,7.12502,-8.13291,78.6015,-13.3372,-11.6732,25.1198,25.1919,-19.8519,-12.3814,-3.09161,-6.16391,0.877116,-20.5798,22.2032,-20.7524,16.8658,-6.40859
13.2685,17.9291,-7.96887,-177.656,10.5601,-178.796,2.47437,-3.75496,-0.28231,-5.29191,-4.60782,3.29893,-6.60212,-2.06033,3.96072,13.4149,12.4268,20.0969,0.424329,19.5771,-13.2213,1.26559,10.259,-7.10631,4.44284e-14,7.95139e-15,-31.9353,-10.7122,-75.7362,12.4216,37.407,-21.591,9.12883,7.12502,4.80374,-20.7967,4.44284e-14,7.95139e-15,-47.945,-35.955,109.374,56.774,47.7484,-36.264,42.3007,7.12502,-9.36456,72.0727,-12.8429,-11.8586,24.8708,25.3376,-19.5242,-12.3231,-4.82813,-5.63654,1.04052,-20.7285,22.1475,-21.4254,16.6401,-4.28274
13.3003,17.9139,-8.02999,-177.951,10.6708,-179.023,2.64797,-3.70896,-0.428804,-5.24943,-4.57568,3.15814,-6.65857,-2.04574,3.90407,12.8522,12.1566,20.7682,1.30131,19.3182,-13.7502,1.68466,10.1614,-7.2889,1.68967e-15,-4.53229e-14,-31.909,-8.38247,-77.2161,13.0201,35.152,-21.5492,8.57927,7.12502,4.84402,-21.3454,1.68967e-15,-4.53229e-14,-48.5395,-35.9946,109.606,56.6407,47.9226,-36.6535,39.3592,7.12502,-9.74038,69.114,-12.2936,-12.1888,24.5776,25.3684,-19.4404,-11.6516,-3.31891,-5.06239,1.53276,-20.8481,22.1087,-21.8965,16.1663,-3.0715
13.3275,17.9218,-8.08816,-178.231,10.7454,-179.169,2.92795,-3.63386,-0.340143,-5.26602,-4.48553,2.98092,-6.86463,-2.0101,3.68545,12.9729,12.075,20.6937,1.34647,19.2273,-13.5742,1.63902,10.1186,-7.24322,2.59414e-14,-2.3059e-14,-31.9479,-7.56628,-78.0033,13.3193,34.2954,-21.4224,8.23174,7.12502,4.96653,-21.6901,2.59414e-14,-2.3059e-14,-49.177,-35.9703,109.8,56.4084,47.5972,-35.2411,41.4258,7.12502,-8.37746,71.2397,-11.8163,-12.3651,24.342,25.2881,-19.4968,-10.4643,0.65642,-4.56209,2.42661,-20.825,22.1496,-21.908,15.6404,-4.1515
13.3541,17.927,-8.14272,-178.388,10.719,-179.22,3.11736,-3.62704,-0.182481,-5.27845,-4.47386,2.88121,-7.00828,-2.01432,3.50808,13.5012,12.2129,20.0642,0.797935,19.3545,-13.0425,1.30462,10.1636,-7.06022,-8.52786e-14,7.15625e-15,-31.7241,-8.94944,-77.7845,13.0595,36.1635,-21.4244,8.46541,7.12502,4.96454,-21.4564,-8.52786e-14,7.15625e-15,-49.7314,-35.8064,109.984,56.0677,47.439,-32.531,48.5014,7.12502,-5.76137,78.403,-11.4321,-12.4392,24.2549,25.1387,-19.3339,-9.9595,2.85889,-4.23887,2.91159,-20.7238,22.2774,-22.1064,15.216,-4.74531
13.3848,17.9199,-8.1946,-178.301,10.7808,-179.334,3.04733,-3.61041,-0.233564,-5.36886,-4.45218,2.83418,-7.06532,-1.99851,3.48485,13.6167,12.1886,19.9781,0.937584,19.3531,-12.9566,1.3113,10.1716,-7.02859,3.42904e-14,-2.14687e-14,-31.5111,-9.26728,-77.953,12.9448,37.1334,-21.6315,8.7847,7.12502,4.76461,-21.1417,3.42904e-14,-2.14687e-14,-50.4381,-35.5755,110.347,55.72,48.0775,-32.7092,48.6469,7.12502,-5.93346,78.5438,-11.233,-12.4739,24.1845,24.9227,-18.9863,-9.82943,3.41433,-4.29274,3.00657,-20.7679,22.5913,-22.4278,15.1327,-4.77421
13.4174,17.9141,-8.24592,-178.219,10.8557,-179.095,2.99291,-3.5741,0.0491786,-5.3981,-4.37571,2.85762,-7.08936,-1.97164,3.34335,13.4767,12.1211,20.1593,1.26055,19.2984,-12.9558,1.43641,10.153,-7.03086,2.03754e-14,-2.70347e-14,-31.2024,-7.82649,-78.9375,12.9607,35.8364,-21.9019,8.84367,7.12502,4.50347,-21.0885,2.03754e-14,-2.70347e-14,-51.1771,-35.4638,110.752,55.3903,49.1896,-33.5188,49.2391,7.12502,-6.71504,79.1126,-10.9226,-12.3695,24.497,24.7042,-18.7132,-9.65908,4.12663,-4.38945,3.32585,-20.387,23.1085,-22.4701,15.0075,-6.23224
13.4494,17.9079,-8.306,-178.193,10.8589,-178.773,2.84989,-3.52822,0.508998,-5.32586,-4.2857,2.84957,-6.96933,-1.95372,3.05786,13.4431,12.195,20.0185,1.25894,19.3587,-12.6883,1.4114,10.1728,-6.92571,3.74709e-14,5.56597e-15,-30.803,-7.79756,-79.4385,12.854,35.6238,-22.0539,8.9172,7.12502,4.35677,-21.018,3.74709e-14,5.56597e-15,-52.233,-35.8693,111.623,55.2534,51.9236,-37.1544,48.339,7.12502,-10.2236,78.0706,-10.5289,-12.3441,24.8798,24.4868,-18.5985,-9.47053,4.83081,-4.49871,3.97762,-19.8617,23.7793,-22.2656,14.6564,-9.07517
13.4803,17.9029,-8.37129,-178.105,10.8367,-178.868,2.52417,-3.49303,0.540847,-5.28158,-4.24939,2.7728,-6.74298,-1.94404,2.93107,13.3258,12.276,19.8247,1.38577,19.4244,-12.4947,1.44029,10.2003,-6.824,7.15625e-14,1.74931e-14,-30.4848,-9.13298,-79.3197,12.7229,36.8786,-22.4174,9.37576,7.12502,4.00567,-20.5663,7.15625e-14,1.74931e-14,-52.3878,-35.6172,111.479,54.097,50.0884,-35.2078,46.9785,7.12502,-8.34536,76.7937,-10.2483,-12.4446,24.814,24.2006,-18.5488,-9.17147,5.2657,-4.89252,4.46517,-19.8179,24.5914,-22.2578,14.1502,-9.91374
13.5105,17.9102,-8.43029,-178.003,10.6963,-178.761,2.35425,-3.5179,0.666026,-5.30544,-4.2674,2.82048,-6.67554,-1.95567,2.90156,13.3554,12.2866,19.7479,1.38804,19.4328,-12.4318,1.42428,10.2039,-6.79764,-1.64991e-14,1.82882e-14,-30.3483,-8.66585,-79.8303,13.0109,36.5755,-22.5182,9.35377,7.12502,3.90838,-20.5901,-1.64991e-14,1.82882e-14,-52.8798,-35.4543,111.795,53.2094,49.8121,-35.0181,45.1143,7.12502,-8.16225,74.9367,-9.9523,-12.5427,24.9579,23.8946,-18.4977,-8.89856,5.96424,-5.39698,4.77344,-19.533,25.4447,-22.3929,13.1805,-8.20187
13.5438,17.9181,-8.48894,-177.809,10.522,-178.221,2.2027,-3.55206,1.18576,-5.36911,-4.25642,2.96231,-6.68616,-1.96417,2.75271,13.3376,12.2495,19.8834,1.54502,19.416,-12.4033,1.48092,10.2012,-6.79954,-2.42517e-14,2.38542e-14,-30.2787,-7.28867,-80.7326,13.4463,35.4335,-22.3775,8.91856,7.12502,4.04427,-21.0228,-2.42517e-14,2.38542e-14,-53.6514,-35.2826,112.268,52.5323,50.1758,-35.1869,45.5461,7.12502,-8.32514,75.362,-9.65964,-12.5989,25.5984,23.5675,-18.3724,-8.75324,7.04688,-5.91551,5.23093,-18.7572,26.2768,-22.5096,11.8727,-5.08715
13.5762,17.9242,-8.55053,-177.69,10.3391,-178.053,2.07066,-3.53863,1.37021,-5.46324,-4.21747,2.95313,-6.72668,-1.94913,2.63325,13.2181,12.1712,20.0536,1.86895,19.3422,-12.2502,1.58453,10.1707,-6.75824,5.31749e-14,1.11319e-14,-30.2508,-6.83762,-81.2885,13.632,34.907,-22.4719,8.74944,7.12502,3.95304,-21.1936,5.31749e-14,1.11319e-14,-54.5317,-35.2673,112.806,51.9116,50.6177,-35.2455,46.0655,7.12502,-8.38166,75.8792,-9.25258,-12.718,25.8237,23.1209,-18.3624,-8.5607,8.69927,-6.46175,5.62413,-18.4404,27.1307,-22.6674,11.0524,-2.34198
13.6038,17.936,-8.61109,-177.739,10.1538,-178.263,2.10592,-3.48391,1.18624,-5.54426,-4.15684,2.85686,-6.8283,-1.91099,2.63668,13.2516,12.102,20.0656,1.88974,19.2541,-12.0711,1.55491,10.1245,-6.7154,-1.18277e-14,-2.54444e-14,-30.2987,-5.67886,-82.076,14.1308,33.4798,-22.3087,8.15783,7.12502,4.11064,-21.7823,-1.18277e-14,-2.54444e-14,-55.4622,-35.4325,113.53,51.3582,51.2005,-35.624,46.4818,7.12502,-8.74698,76.2806,-8.6955,-12.9875,25.5755,22.612,-18.4966,-8.35961,9.39803,-6.96064,5.89276,-18.5894,27.9546,-22.9027,10.936,-1.77314
13.6323,17.9396,-8.67491,-177.783,10.0268,-178.245,2.09712,-3.43907,1.23823,-5.57484,-4.09365,2.81132,-6.86506,-1.88256,2.5564,13.331,12.0309,20.1688,1.87847,19.1896,-12.0437,1.53592,10.095,-6.73216,-2.04748e-14,6.36111e-15,-30.3356,-4.35132,-82.9574,14.8281,32.0059,-21.9351,7.77679,7.12502,4.47144,-22.156,-2.04748e-14,6.36111e-15,-56.474,-35.5485,114.244,51.1495,52.2161,-36.6963,48.3991,7.12502,-9.7816,78.1519,-8.14991,-13.1905,25.5715,22.173,-18.4231,-8.41561,7.89056,-7.37899,6.08746,-18.5,28.6541,-23.3585,10.8757,-1.51282
13.664,17.9454,-8.73724,-177.827,9.98774,-178.102,2.1167,-3.37526,1.39175,-5.62576,-3.99627,2.75538,-6.94907,-1.84171,2.40926,13.1602,11.8665,20.5684,2.29756,19.0395,-12.0693,1.70211,10.0368,-6.77141,-1.78906e-14,1.51076e-14,-30.4109,-3.92509,-83.5313,15.2754,31.4254,-21.8337,7.74466,7.12502,4.56935,-22.1861,-1.78906e-14,1.51076e-14,-57.685,-35.6296,114.96,51.1693,53.543,-38.3088,47.9376,7.12502,-11.3371,77.6111,-7.63945,-12.9872,25.7142,21.8389,-18.2965,-8.41273,7.88544,-7.73616,6.28917,-18.2533,29.2105,-23.8588,10.5657,-0.133749
13.691,17.9538,-8.79256,-177.969,9.96118,-178.135,2.27177,-3.27903,1.34844,-5.62241,-3.87598,2.67422,-7.04083,-1.78392,2.34928,12.5061,11.5965,21.3066,3.04207,18.7353,-12.4845,2.08167,9.90974,-6.93492,-4.69132e-14,-2.70347e-14,-30.406,-3.11349,-84.1949,15.7682,30.3612,-21.8995,7.56434,7.12502,4.5058,-22.3677,-4.69132e-14,-2.70347e-14,-58.6949,-35.7411,115.621,50.9951,54.6688,-39.5023,45.6527,7.12502,-12.488,75.2595,-7.11285,-12.8318,25.64,21.6047,-18.3593,-8.15655,9.3498,-8.06101,6.606,-18.2315,29.6412,-23.8922,10.4634,-0.207972
13.7132,17.9567,-8.85086,-178.113,9.90913,-178.439,2.29086,-3.18615,1.10628,-5.57405,-3.78874,2.51777,-6.99541,-1.73843,2.3124,13.3583,11.8066,20.4276,1.78939,18.9059,-11.6613,1.44638,9.94142,-6.67747,-3.91606e-14,-1.98785e-14,-30.3518,-2.20615,-84.8371,16.3803,29.3947,-21.8303,8.24671,7.12502,4.57268,-21.6839,-3.91606e-14,-1.98785e-14,-59.5563,-35.9613,116.212,50.7795,55.5006,-40.032,45.8705,7.12502,-12.9986,75.4456,-6.70389,-12.924,25.2731,21.4877,-18.3213,-8.06914,9.32981,-8.47549,7.06223,-18.6069,29.9217,-23.2751,11.3174,-5.96723
13.7361,17.967,-8.91371,-178.098,9.9237,-178.77,2.14149,-3.11223,0.862726,-5.58203,-3.72309,2.34616,-6.91341,-1.70147,2.25423,13.7425,11.9691,19.8066,1.12059,19.0255,-10.9819,1.0843,9.96044,-6.44844,-8.17005e-14,6.2816e-14,-30.369,-1.42077,-85.4745,16.9737,28.5245,-21.7652,8.81337,7.12502,4.63549,-21.1159,-8.17005e-14,6.2816e-14,-60.411,-36.1497,116.635,50.6311,55.6507,-39.7358,45.8758,7.12502,-12.7131,75.4688,-6.51411,-12.8995,24.8943,21.4731,-18.369,-7.89737,9.80895,-9.00132,7.57914,-19.0571,30.0749,-22.8311,12.3019,-10.595
13.7572,17.9791,-8.97418,-178.03,10.0182,-178.935,2.03632,-3.0085,0.731903,-5.5773,-3.60233,2.24737,-6.84832,-1.63978,2.20782,13.5769,12.0811,19.6107,1.08164,19.0968,-10.6531,1.05872,9.97756,-6.31059,2.83268e-14,0,-30.3456,-0.60459,-86.0664,17.611,27.4618,-21.6385,8.17071,7.12502,4.75781,-21.7559,2.83268e-14,0,-60.9632,-36.0661,116.728,50.4232,55.2471,-39.0469,46.0524,7.12502,-12.0489,75.6856,-6.36763,-12.8063,24.6851,21.5021,-18.5888,-7.7229,10.0382,-9.50707,7.94105,-19.3396,30.161,-22.9384,12.7215,-9.85696
13.7834,17.9797,-9.03407,-178.077,10.0662,-179.112,2.03669,-2.86612,0.526812,-5.57783,-3.43512,2.12303,-6.84835,-1.55198,2.17941,13.5979,11.9948,19.7396,0.894168,18.9863,-10.6633,0.995445,9.91462,-6.3463,2.08724e-14,-1.11319e-14,-30.3329,-0.7752,-86.2107,18.0902,27.8384,-21.3724,7.85526,7.12502,5.01473,-22.0654,2.08724e-14,-1.11319e-14,-61.2606,-35.5749,116.449,50.0628,54.3396,-38.4815,47.6526,7.12502,-11.5036,77.317,-6.09933,-12.613,24.5071,21.5494,-18.6657,-8.04797,8.89883,-9.92847,8.28625,-19.6152,30.1554,-22.7355,13.1529,-10.1491
13.8101,17.9744,-9.09787,-178.121,10.0891,-179.308,1.9593,-2.74393,0.344962,-5.57516,-3.29517,1.9763,-6.80232,-1.47977,2.11252,13.5815,11.8339,20.0581,0.74388,18.8039,-10.8859,0.975553,9.82307,-6.46821,-5.26779e-14,-1.39149e-14,-30.3344,-1.19961,-86.2911,18.4908,28.518,-21.3412,8.47686,7.12502,5.04489,-21.4431,-5.26779e-14,-1.39149e-14,-61.3129,-34.9102,115.87,49.7022,53.337,-38.4094,47.5062,7.12502,-11.4341,77.1744,-5.79268,-12.5111,24.3313,21.53,-18.4341,-8.49874,6.4441,-10.3744,8.83769,-19.9123,30.0956,-22.234,13.5699,-12.0067
13.8272,17.9866,-9.16165,-178.065,10.1821,-179.677,1.76266,-2.62055,0.0852725,-5.57136,-3.16001,1.79341,-6.68374,-1.40749,2.04585,13.2633,11.804,20.1812,0.816629,18.7179,-10.9402,1.04892,9.77438,-6.47645,4.18442e-14,1.27222e-14,-30.3032,-0.815336,-86.7154,18.9489,27.4032,-21.4997,8.95037,7.12502,4.89189,-20.9732,4.18442e-14,1.27222e-14,-61.5406,-34.6261,115.636,49.6645,53.4423,-39.3329,45.9455,7.12502,-12.3246,75.5623,-5.63254,-12.5467,23.9166,21.3878,-18.1809,-8.53879,4.57806,-10.9839,9.2722,-20.4507,30.005,-22.0991,13.5761,-10.6677
13.8408,18.0103,-9.21975,-177.904,10.2738,-179.868,1.64644,-2.46527,0.0323762,-5.66034,-2.95559,1.65448,-6.72214,-1.30421,1.91279,13.187,11.7311,20.0839,0.693014,18.579,-10.8886,0.98846,9.69526,-6.45777,4.08502e-14,1.19271e-14,-30.3859,-0.30288,-87.122,19.4363,26.019,-21.4281,8.66625,7.12502,4.96099,-21.2557,4.08502e-14,1.19271e-14,-62.1329,-34.6213,115.848,49.7479,54.0544,-40.2606,46.4353,7.12502,-13.219,75.9962,-5.5742,-12.2787,23.7238,21.1895,-18.0847,-8.59946,5.5972,-11.7359,9.48717,-20.8027,29.8177,-21.9268,13.3938,-7.7251
13.855,18.0316,-9.27728,-177.761,10.2293,-179.695,1.61083,-2.35592,0.343631,-5.72974,-2.78488,1.62212,-6.79795,-1.23288,1.69358,13.2505,11.6324,19.9441,0.536213,18.4303,-10.8693,0.894668,9.61574,-6.45648,7.00716e-14,-8.34896e-15,-30.5208,-0.0946302,-87.2485,20.0855,25.7398,-21.1477,8.3363,7.12502,5.23176,-21.5791,7.00716e-14,-8.34896e-15,-62.3068,-34.3454,115.552,49.5425,53.2933,-38.7097,47.101,7.12502,-11.7237,76.7529,-5.34086,-11.7822,23.9467,20.9361,-17.9446,-8.94483,7.91388,-12.3872,9.56857,-20.7356,29.5381,-21.5409,13.2929,-6.8822
13.8652,18.0516,-9.34045,-177.736,10.0497,-179.749,1.50611,-2.31929,0.468761,-5.70827,-2.73773,1.51861,-6.72666,-1.22065,1.50726,12.9383,11.5671,20.0327,0.771887,18.3116,-10.9156,1.00681,9.5592,-6.45488,1.25234e-14,1.98785e-14,-30.5667,0.0718706,-87.377,20.6626,25.3407,-21.1779,8.39329,7.12502,5.20257,-21.5228,1.25234e-14,1.98785e-14,-62.3443,-34.0593,115.104,49.4768,53.0823,-38.0723,47.2581,7.12502,-11.109,76.9441,-4.92907,-11.5422,23.8478,20.5806,-17.7753,-8.97081,9.52966,-12.8768,9.39896,-20.9164,29.2373,-21.4351,13.274,-6.69416
13.8682,18.0611,-9.40455,-177.654,9.8731,-179.751,1.39051,-2.28673,0.665268,-5.71195,-2.68721,1.44494,-6.67792,-1.2078,1.31245,12.2176,11.3594,20.6657,1.43768,18.039,-11.5218,1.38565,9.44796,-6.65273,1.07344e-14,-2.42517e-14,-30.533,-0.10101,-87.4333,20.9331,25.1617,-21.3222,8.23927,7.12502,5.06329,-21.6802,1.07344e-14,-2.42517e-14,-62.5015,-33.9155,114.908,49.5273,53.232,-38.2235,48.6791,7.12502,-11.2548,78.3572,-4.5856,-11.5443,23.7738,20.2116,-17.5047,-8.9756,9.14672,-13.3701,9.0522,-21.0723,28.9182,-21.3886,13.3843,-6.30344
13.8719,18.0633,-9.46446,-177.511,9.75558,-179.584,1.37754,-2.20962,0.986101,-5.8111,-2.55541,1.43053,-6.79443,-1.15477,1.11129,13.5387,11.727,19.232,-0.258865,18.4403,-10.3582,0.502709,9.57591,-6.27325,-4.83047e-14,-5.1684e-15,-30.6583,-0.519721,-87.3865,21.1743,25.2583,-21.4992,8.14106,7.12502,4.89231,-21.7825,-4.83047e-14,-5.1684e-15,-62.9119,-33.9286,115.091,49.6723,54.1,-38.894,49.3843,7.12502,-11.9014,79.026,-4.35497,-11.4728,23.9397,19.9529,-17.0111,-9.46255,7.46871,-13.8821,8.58706,-21.0325,28.5176,-21.1884,13.5434,-5.35129
13.8774,18.0666,-9.52374,-177.549,9.60219,-179.479,1.52299,-2.11669,1.25904,-5.88004,-2.40966,1.38927,-6.96829,-1.09612,0.913142,13.1614,11.5204,19.7496,0.342858,18.2242,-10.8989,0.804495,9.50299,-6.4556,1.00386e-14,-2.26615e-14,-30.9869,-0.511364,-87.4227,21.6587,24.6681,-21.7448,8.23921,7.12502,4.65523,-21.6896,1.00386e-14,-2.26615e-14,-63.0984,-33.8037,114.981,49.8461,55.2124,-39.2091,49.4533,7.12502,-12.2053,79.0772,-3.9708,-11.315,24.0245,19.7685,-16.5009,-9.93834,6.67174,-14.1668,8.13799,-21.0128,28.0372,-20.9717,13.6615,-4.73066
13.8798,18.0722,-9.58501,-177.776,9.38194,-179.45,1.73145,-2.03598,1.42493,-5.78777,-2.30266,1.35481,-6.99956,-1.05799,0.782543,12.8038,11.4259,19.7617,0.635739,18.0559,-11.0538,0.936464,9.42619,-6.47435,-6.96243e-14,3.57812e-15,-31.1255,-0.197296,-87.4304,22.1309,23.8864,-21.6883,8.24973,7.12502,4.70976,-21.6779,-6.96243e-14,3.57812e-15,-62.9869,-33.7046,114.777,49.6806,54.4803,-39.019,50.0105,7.12502,-12.022,79.6452,-3.35907,-11.3036,23.9502,19.5092,-16.1521,-10.0451,7.13257,-14.2007,7.79948,-21.0534,27.5539,-20.7722,13.7588,-6.34987
13.8826,18.0882,-9.64636,-177.874,9.16946,-179.643,1.77642,-1.96496,1.27545,-5.72048,-2.22726,1.29831,-6.94915,-1.01774,0.801236,12.5616,11.3915,19.6443,0.618079,17.9405,-11.0995,0.944807,9.36056,-6.46248,3.926e-15,-1.74931e-14,-31.1172,0.0755353,-87.3878,22.351,23.2147,-21.6837,8.4006,7.12502,4.71424,-21.527,3.926e-15,-1.74931e-14,-62.5635,-33.5558,114.411,49.3809,53.6837,-38.7263,50.0245,7.12502,-11.7398,79.6755,-2.88335,-11.5065,23.6419,19.1462,-15.8746,-9.95018,7.12472,-14.4629,7.36913,-21.332,27.0982,-20.4623,13.9269,-7.82915
13.8852,18.1088,-9.70731,-177.793,8.92767,-179.55,1.75215,-1.90128,1.40523,-5.74192,-2.12902,1.31581,-6.96303,-0.973799,0.738921,12.3747,11.411,19.6224,0.576947,17.9161,-11.0597,0.952087,9.3384,-6.43637,-7.85199e-15,2.14687e-14,-31.2078,0.0732484,-87.3118,22.5247,22.7557,-21.6828,8.36809,7.12502,4.71504,-21.5594,-7.85199e-15,2.14687e-14,-62.1586,-33.4102,114.126,49.1062,53.3329,-38.4519,49.5686,7.12502,-11.4751,79.2345,-2.54143,-11.6085,23.6821,18.8078,-15.7156,-9.98397,5.96069,-14.9039,6.80846,-21.2911,26.631,-20.2081,13.8954,-5.79916
13.8856,18.1194,-9.76827,-177.798,8.68545,-179.055,1.80497,-1.76297,1.93884,-5.6488,-1.91272,1.38612,-6.91248,-0.894662,0.497334,12.0125,11.3629,19.9533,0.67428,17.826,-11.2546,1.06968,9.29057,-6.51041,3.37437e-14,-2.78299e-14,-31.15,-0.570389,-87.0764,22.5716,22.9544,-21.6973,8.33918,7.12502,4.70108,-21.5887,3.37437e-14,-2.78299e-14,-61.8868,-33.6308,114.042,49.0904,53.5122,-38.9903,49.4122,7.12502,-11.9943,79.0486,-2.03207,-11.3948,24.1645,18.4745,-15.684,-10.1867,5.23117,-15.0678,6.25456,-20.8041,26.1541,-19.9903,13.8946,-3.51234
13.8871,18.1244,-9.82849,-177.878,8.49888,-178.786,1.78194,-1.82071,2.21609,-5.62917,-1.95969,1.56054,-6.88402,-0.924694,0.526904,12.576,11.3596,19.7481,0.351351,17.8968,-11.5136,0.903669,9.33912,-6.61369,2.38542e-14,3.18055e-15,-31.2089,-0.381924,-86.9515,22.4247,23.087,-22.2849,8.62792,7.12502,4.13363,-21.3117,2.38542e-14,3.18055e-15,-61.5973,-33.1502,113.893,49.1643,53.8215,-40.1028,49.6804,7.12502,-13.0669,79.2511,-1.49373,-11.0076,24.4222,18.1214,-15.5623,-10.4363,5.54574,-15.1163,5.76056,-20.5763,25.7131,-19.427,14.2605,-3.83675
13.8886,18.1343,-9.88826,-177.918,8.39092,-178.81,1.75191,-1.77379,2.23089,-5.61592,-1.89852,1.54486,-6.85291,-0.895807,0.496208,12.7604,11.3194,19.6466,0.153896,17.8524,-11.5555,0.804639,9.31628,-6.63853,1.49089e-16,-1.43125e-14,-31.3264,-0.222843,-86.9306,22.4961,22.5344,-22.7972,8.95631,7.12502,3.6389,-20.9924,1.49089e-16,-1.43125e-14,-60.9947,-32.8146,113.353,48.8992,52.9379,-39.2654,50.8192,7.12502,-12.2595,80.4398,-1.17981,-10.6645,24.3793,18.0021,-15.2715,-10.8497,5.8721,-15.2727,5.34037,-20.6661,25.2185,-18.8774,14.5747,-2.77848
13.8851,18.1431,-9.94433,-177.896,8.29734,-178.909,1.76133,-1.70301,2.19966,-5.65971,-1.80381,1.49778,-6.90452,-0.847943,0.458288,12.8055,11.288,19.6183,0.132811,17.8134,-11.4708,0.775103,9.29502,-6.61655,-1.25234e-14,1.78906e-14,-31.4827,-0.373459,-86.7536,22.6814,22.2953,-22.3643,8.88921,7.12502,4.05701,-21.0519,-1.25234e-14,1.78906e-14,-60.5046,-32.6183,113.014,48.5917,51.8323,-38.067,51.3135,7.12502,-11.1039,80.9998,-1.10636,-10.6989,24.2131,18.1532,-14.9447,-11.1393,4.67642,-15.4505,5.02183,-20.8715,24.6098,-18.2621,15.0093,-1.73467
13.8792,18.1437,-10.0012,-177.792,8.11545,-178.999,1.64705,-1.69131,2.09088,-5.722,-1.78225,1.56591,-6.89856,-0.825292,0.585814,12.7796,11.304,19.488,0.310325,17.8283,-11.3691,0.81363,9.30682,-6.55969,1.96797e-14,-4.05521e-14,-31.5817,-0.454333,-86.3953,22.5803,22.7495,-22.0634,8.22548,7.12502,4.34757,-21.7099,1.96797e-14,-4.05521e-14,-60.2631,-32.4922,113.178,48.6074,51.5677,-38.1431,50.3176,7.12502,-11.1773,79.9998,-1.11333,-10.9395,24.0068,18.3222,-14.8042,-11.052,3.06434,-15.5903,4.7949,-21.1129,24.0562,-17.5662,15.3816,-1.16548
13.874,18.1458,-10.0676,-177.663,8.00444,-178.973,1.42126,-1.70339,2.04335,-5.81618,-1.77877,1.71582,-6.86232,-0.808814,0.762913,12.96,11.3503,19.355,0.409042,17.922,-11.335,0.814966,9.36383,-6.53696,2.65378e-14,-1.19271e-15,-31.8822,0.00848347,-86.1667,22.4778,22.8161,-22.6326,7.45624,7.12502,3.79786,-22.4897,2.65378e-14,-1.19271e-15,-59.987,-32.0178,113.262,48.5924,51.2719,-38.6448,48.7478,7.12502,-11.6611,78.4033,-1.02901,-10.9795,23.9107,18.3979,-15.0304,-10.754,4.53209,-15.7275,4.68519,-21.2102,23.7029,-17.3039,15.3994,1.14478
13.8686,18.141,-10.1371,-177.662,7.95578,-178.8,1.33123,-1.68618,2.1639,-5.86149,-1.7318,1.84086,-6.85945,-0.783242,0.820451,13.1557,11.4401,19.3389,0.35207,18.0736,-11.2747,0.784208,9.44147,-6.52492,3.6477e-14,-1.47101e-14,-32.1575,0.241046,-85.9813,22.3662,22.5791,-23.0931,7.26835,7.12502,3.35315,-22.685,3.6477e-14,-1.47101e-14,-59.6685,-31.5888,113.233,48.3558,50.7551,-38.9388,47.1454,7.12502,-11.9446,76.7847,-0.718863,-11.0051,23.9682,18.3499,-15.2058,-10.6098,6.49253,-15.7737,4.71722,-21.1367,23.5356,-16.8026,15.771,-0.217338
13.863,18.1268,-10.2005,-177.684,7.89831,-178.489,1.34972,-1.62239,2.47665,-5.85859,-1.61961,1.91219,-6.87602,-0.740217,0.712468,13.0026,11.4823,19.4187,0.524041,18.1214,-11.1351,0.860246,9.46326,-6.47134,-2.85256e-14,-4.77083e-15,-32.2403,-0.461052,-85.5638,22.0091,22.9847,-23.3351,7.86635,7.12502,3.11946,-22.0906,-2.85256e-14,-4.77083e-15,-59.0991,-31.3578,112.912,48.7543,50.53,-38.9248,50.9337,7.12502,-11.9311,80.5737,-0.350711,-11.0431,24.2119,18.1908,-14.8454,-10.8543,5.30533,-15.8312,4.80582,-20.9031,23.5279,-16.3569,16.1423,-1.66517
13.8572,18.1185,-10.2566,-177.626,7.90678,-178.106,1.45197,-1.54663,2.87167,-5.93711,-1.47506,1.96608,-7.0309,-0.684675,0.541815,12.9049,11.4044,19.6715,0.767256,18.0568,-11.1355,0.959871,9.43973,-6.49027,3.94588e-14,-5.40694e-14,-32.4444,-1.422,-85.0498,21.7772,23.7081,-23.2632,8.34202,7.12502,3.18894,-21.6139,3.94588e-14,-5.40694e-14,-58.6679,-31.263,112.692,48.7214,50.0024,-38.2946,50.43,7.12502,-11.3234,80.1043,-0.0610446,-10.8315,24.5736,17.9846,-14.3179,-11.1603,3.10803,-16.0384,4.73619,-20.5326,23.6769,-16.1791,16.318,-0.798143
13.8501,18.1118,-10.3111,-177.608,7.90522,-177.766,1.60438,-1.51322,3.19443,-6.01259,-1.38516,2.05967,-7.20848,-0.651656,0.458017,13.0501,11.3537,19.8809,0.755384,18.0524,-11.2696,0.963968,9.44655,-6.56895,6.95746e-16,1.43125e-14,-32.7398,-2.02407,-84.572,21.8284,24.2193,-22.4811,8.32538,7.12502,3.94415,-21.6179,6.95746e-16,1.43125e-14,-58.3795,-31.1661,112.714,48.7365,49.8982,-38.5086,50.0215,7.12502,-11.5298,79.6843,0.265545,-10.5486,24.8543,17.7736,-14.0892,-11.1347,2.56842,-16.1334,4.42319,-20.151,23.8955,-15.629,16.4737,-2.19737
13.8401,18.1025,-10.371,-177.592,7.88007,-177.471,1.57673,-1.55565,3.47869,-6.02278,-1.40161,2.25455,-7.20952,-0.663621,0.503832,13.2911,11.4495,19.7525,0.68406,18.213,-11.4094,0.932463,9.53625,-6.60579,-6.44062e-14,1.43125e-14,-32.9853,-1.96491,-84.2502,21.8499,24.083,-21.9803,8.27793,7.12502,4.42775,-21.6558,-6.44062e-14,1.43125e-14,-57.9423,-30.8505,112.805,48.8404,49.9065,-38.5722,49.6567,7.12502,-11.5912,79.3162,0.508146,-10.4593,25.0442,17.7295,-14.0702,-11.032,2.69171,-16.0117,4.12638,-19.834,24.0377,-14.9926,16.143,-1.88928
13.8275,18.0936,-10.4362,-177.68,7.88568,-177.285,1.52829,-1.62302,3.64992,-5.97202,-1.46821,2.44613,-7.12995,-0.695691,0.611369,13.4802,11.5818,19.4762,0.667268,18.3912,-11.4013,0.900955,9.63092,-6.57274,1.3418e-14,-3.02153e-14,-33.076,-1.93477,-83.9708,21.588,23.8443,-22.1082,8.25725,7.12502,4.30426,-21.679,1.3418e-14,-3.02153e-14,-57.3838,-30.6489,112.914,48.9259,49.7555,-38.3372,48.7444,7.12502,-11.3645,78.4164,0.732573,-10.6088,25.0644,17.9801,-14.1665,-10.9589,1.73188,-15.6593,4.09215,-19.6744,24.0949,-14.2048,15.5936,-0.0732998
13.8165,18.0829,-10.5017,-177.892,7.92672,-177.297,1.57679,-1.6362,3.56074,-5.86264,-1.49365,2.54806,-7.03508,-0.70153,0.768418,13.5505,11.708,19.2592,0.592761,18.5308,-11.2794,0.858697,9.69493,-6.50885,-1.55052e-14,-1.35174e-14,-33.024,-2.62395,-83.3882,21.2239,24.5426,-22.0471,8.13148,7.12502,4.36331,-21.8036,-1.55052e-14,-1.35174e-14,-56.8155,-30.83,113.147,48.8906,49.3131,-38.5269,48.2204,7.12502,-11.5475,77.8823,1.01396,-10.7132,24.8482,18.3781,-14.4735,-10.7677,2.42041,-15.1884,4.61112,-19.7516,24.1724,-13.5466,14.9235,-1.16149
13.8088,18.0674,-10.5613,-177.959,8.0234,-177.328,1.5834,-1.61376,3.40745,-5.82243,-1.47172,2.61069,-6.98831,-0.680656,0.9167,13.6169,11.813,19.2853,0.503927,18.6781,-11.3369,0.852484,9.76776,-6.52838,-2.31584e-14,2.3059e-14,-33.0925,-3.31007,-82.8146,20.977,25.1697,-21.8699,7.93526,7.12502,4.53441,-21.9962,-2.31584e-14,2.3059e-14,-56.2513,-30.964,113.21,48.8293,48.4829,-38.266,49.2493,7.12502,-11.2958,78.9251,1.03791,-10.5184,24.7144,18.8786,-14.961,-10.8216,4.35801,-14.8981,5.43247,-19.8359,24.239,-13.6144,14.2592,-1.76374
13.7998,18.0501,-10.615,-177.961,8.07066,-177.302,1.66672,-1.64714,3.32861,-5.8762,-1.50304,2.68711,-7.09031,-0.687348,1.04665,13.7656,11.8901,19.2827,0.422283,18.8014,-11.3133,0.82185,9.82943,-6.5284,3.58806e-14,1.59028e-14,-33.2587,-3.78736,-82.4299,20.6106,25.1173,-21.8343,8.13186,7.12502,4.56875,-21.7989,3.58806e-14,1.59028e-14,-55.7224,-30.7073,113.037,48.9444,47.8554,-37.3171,50.4004,7.12502,-10.3806,80.1241,0.890546,-10.4482,24.6844,19.5016,-15.3762,-11.1404,3.70073,-14.7053,6.02071,-19.8171,24.2571,-14.0958,13.7994,-0.356567
13.7898,18.0329,-10.6733,-178.126,8.08725,-177.342,1.77699,-1.67295,3.17578,-5.84108,-1.53903,2.77505,-7.1092,-0.694649,1.22916,13.9512,11.9186,19.1242,0.315894,18.8424,-11.2397,0.746676,9.84896,-6.50415,-3.86636e-14,-2.54444e-14,-33.2885,-4.30812,-81.9164,20.0446,25.2253,-22.1726,8.36076,7.12502,4.24213,-21.5767,-3.86636e-14,-2.54444e-14,-55.3899,-30.7103,113.364,49.4051,48.8729,-38.1644,50.0707,7.12502,-11.1979,79.7518,0.919095,-10.5355,24.512,20.2141,-15.8097,-11.2322,2.72316,-14.3361,6.51098,-19.8478,24.248,-14.2588,13.4056,-2.03509
13.7809,18.0163,-10.7415,-178.308,8.15655,-177.442,1.69333,-1.64447,2.99165,-5.72831,-1.52663,2.81295,-6.93177,-0.679896,1.36498,14.1723,11.8407,19.233,0.181165,18.7931,-11.4895,0.699215,9.83471,-6.61844,-2.5842e-14,1.19271e-14,-33.3354,-4.74633,-81.3559,19.6172,25.5215,-22.8188,7.94949,7.12502,3.6181,-21.9995,-2.5842e-14,1.19271e-14,-55.263,-31.2372,114.176,49.9517,50.9907,-40.5805,48.0964,7.12502,-13.5273,77.637,0.921325,-10.526,24.2489,21.106,-16.4517,-11.1381,3.3703,-13.8785,7.11992,-19.9517,24.1609,-13.843,13.0027,-6.04176
13.7721,18.0042,-10.8062,-178.452,8.18721,-177.637,1.58122,-1.67587,2.73784,-5.61698,-1.6062,2.79554,-6.73847,-0.71073,1.4882,14.3011,11.8626,19.3644,0.0296242,18.8538,-11.6475,0.671077,9.86731,-6.69443,1.77912e-14,-2.38542e-15,-33.3548,-5.64997,-80.7602,19.2135,26.3463,-23.1165,7.80365,7.12502,3.33063,-22.1501,1.77912e-14,-2.38542e-15,-54.4281,-31.1752,113.961,49.8228,49.5198,-38.9111,48.5043,7.12502,-11.9179,78.1451,0.729117,-10.4893,23.9345,22.1538,-16.9856,-11.3331,3.30205,-13.4735,7.88815,-20.169,24.0454,-13.499,12.3022,-8.15753
13.7661,17.9891,-10.8566,-178.56,8.27419,-177.764,1.63323,-1.69527,2.47526,-5.50527,-1.66455,2.77999,-6.63948,-0.732432,1.62181,13.9544,11.9992,19.3844,0.190242,18.9735,-11.5075,0.778675,9.91584,-6.61187,-6.95746e-15,-7.95139e-15,-33.2126,-7.41234,-79.9118,18.5775,28.2246,-23.1531,8.4699,7.12502,3.29529,-21.4844,-6.95746e-15,-7.95139e-15,-53.9873,-31.5408,114.181,50.094,50.2612,-39.8863,48.186,7.12502,-12.8581,77.77,0.397222,-10.3237,23.786,23.2594,-17.3351,-11.6883,3.85188,-13.1292,8.70029,-20.3181,23.9554,-13.6413,11.5943,-9.76161
13.7597,17.9701,-10.9025,-178.583,8.44899,-177.811,1.71479,-1.65802,2.30861,-5.44224,-1.63333,2.76313,-6.61401,-0.71299,1.69608,13.4712,12.0471,19.5282,0.537466,18.9857,-11.4372,0.964166,9.91753,-6.55327,2.19657e-14,2.22639e-14,-33.1736,-8.91878,-79.134,17.9791,29.7558,-23.2679,9.28799,7.12502,3.1844,-20.668,2.19657e-14,2.22639e-14,-53.4469,-31.8605,114.104,50.3332,49.8919,-39.0877,48.7534,7.12502,-12.0882,78.3842,-0.089267,-10.168,23.7366,24.4579,-17.6193,-11.9198,5.48714,-12.8733,9.26341,-20.3932,23.8542,-13.9211,11.1842,-10.4892
13.7475,17.9692,-10.959,-178.698,8.60271,-178.292,1.66649,-1.70686,1.90747,-5.37152,-1.75351,2.59728,-6.49896,-0.76521,1.7529,13.4918,12.126,19.5791,0.52198,19.0982,-11.4179,0.976605,9.97243,-6.54814,2.17669e-14,2.06736e-14,-33.147,-9.90432,-78.6383,17.3847,30.7311,-23.475,9.83419,7.12502,2.98443,-20.1247,2.17669e-14,2.06736e-14,-52.7886,-31.8996,113.738,50.4339,48.6564,-37.0586,49.6667,7.12502,-10.1312,79.4028,-0.604648,-10.1989,23.1233,25.7655,-17.8721,-12.0111,6.87569,-12.5971,9.36798,-20.9269,23.7216,-14.064,10.9462,-9.00562
13.7346,17.9737,-11.0187,-178.853,8.74777,-178.862,1.55082,-1.81147,1.63683,-5.29299,-1.95488,2.2867,-6.34456,-0.870673,1.58932,13.728,12.2651,19.5532,0.365636,19.3092,-11.2336,0.905756,10.0723,-6.50215,-1.22253e-14,1.66979e-14,-33.0862,-10.9818,-78.3081,16.7542,31.7255,-23.4365,9.86611,7.12502,3.02154,-20.0922,-1.22253e-14,1.66979e-14,-52.2699,-32.0285,113.258,50.6118,47.6026,-35.1892,50.3653,7.12502,-8.32734,80.1812,-1.12033,-10.4128,22.3527,27.1059,-18.0838,-11.8965,7.81773,-12.2236,9.09671,-21.5618,23.5478,-14.332,10.9008,-6.6345
13.723,17.9629,-11.073,-178.95,8.82798,-178.929,1.91718,-1.83358,1.31611,-5.53908,-1.95086,2.50107,-6.79997,-0.834949,2.01124,13.895,12.2014,19.4419,0.774535,19.2916,-11.1763,0.98368,10.0884,-6.47006,-2.23633e-14,3.97569e-14,-33.671,-11.2866,-77.406,16.4968,32.1857,-23.2286,9.55909,7.12502,3.2223,-20.3963,-2.23633e-14,3.97569e-14,-52.4073,-32.0812,114.008,50.9281,47.3239,-35.03,49.8384,7.12502,-8.17372,79.6603,-1.6436,-10.7331,22.1559,28.4751,-18.2335,-11.7919,7.85513,-11.731,8.86399,-21.6714,23.2886,-14.626,10.8819,-5.65493
