JuanDHNZ/ProyectoFinalCD/preprocessing/sports_trials_csv/55_10.csv
root1,root2,root3,root4,root5,root6,lowerback1,lowerback2,lowerback3,upperback1,upperback2,upperback3,thorax1,thorax2,thorax3,lowerneck1,lowerneck2,lowerneck3,upperneck1,upperneck2,upperneck3,head1,head2,head3,rclavicle1,rclavicle2,rhumerus1,rhumerus2,rhumerus3,rradius1,rwrist1,rhand1,rhand2,rfingers1,rthumb1,rthumb2,lclavicle1,lclavicle2,lhumerus1,lhumerus2,lhumerus3,lradius1,lwrist1,lhand1,lhand2,lfingers1,lthumb1,lthumb2,rfemur1,rfemur2,rfemur3,rtibia1,rfoot1,rfoot2,rtoes1,lfemur1,lfemur2,lfemur3,ltibia1,lfoot1,lfoot2,ltoes1
12.9228,18.0439,-22.3142,9.57152,-20.5154,-0.0760282,5.44548,-2.43339,2.50447,-8.07548,-3.05807,0.0919218,-11.884,-1.70757,-0.815857,11.32,6.32941,16.9365,-16.4486,7.88737,-24.1598,-4.86264,4.7913,-11.4476,5.01993e-14,2.9271e-14,-9.28016,-22.1015,-19.0225,38.9145,28.4927,-8.18219,15.4967,7.12502,17.7335,-13.7147,5.01993e-14,2.9271e-14,-9.31966,2.49359,15.9982,32.7327,4.65562,-36.6152,22.914,7.12502,-9.70337,52.6705,-13.825,-7.08777,21.4697,24.421,-16.4614,7.25554,25.8297,-12.8842,-1.97625,-19.959,21.3873,-14.2378,5.47255,-25.9337
12.9195,18.0528,-22.3138,9.36084,-20.6723,-0.101114,5.42398,-2.78947,2.49696,-8.22292,-3.5184,0.351471,-12.0415,-1.91651,-0.452327,12.4141,6.39829,16.4892,-16.4153,8.0053,-24.4138,-5.03585,4.94758,-11.5338,-2.0773e-14,-2.18663e-15,-8.94196,-20.9535,-20.9041,38.7107,28.1874,-7.65319,16.0515,7.12502,18.2425,-13.1131,-2.0773e-14,-2.18663e-15,-11.7762,1.15547,16.6574,33.2747,5.85994,-35.773,23.7966,7.12502,-8.89079,53.5893,-13.5305,-7.20085,21.4443,24.2729,-15.7604,7.57836,26.7712,-12.6884,-2.0656,-19.9611,21.5564,-14.0341,5.82026,-26.7624
12.9153,18.0612,-22.3127,9.11022,-20.8768,-0.181191,5.52419,-2.49167,2.31085,-7.93723,-3.14105,0.235765,-11.7549,-1.71994,-0.540732,12.1516,6.28975,16.316,-16.5363,7.83954,-23.907,-5.09976,4.82493,-11.3068,-4.5969e-15,-1.63997e-15,-10.4536,-21.319,-21.6655,38.5303,28.1607,-7.32865,15.7628,7.12502,18.5547,-13.3723,-4.5969e-15,-1.63997e-15,-11.718,0.321808,18.3148,33.2376,7.12,-34.665,24.6322,7.12502,-7.82149,54.4676,-13.206,-7.27293,21.4629,24.206,-15.3753,8.03924,28.0507,-12.3793,-2.13131,-19.905,21.6442,-13.9833,6.10042,-26.8206
12.9099,18.0683,-22.3074,8.86104,-21.1766,-0.372079,5.54034,-2.44955,2.30983,-7.70718,-3.06863,0.368728,-11.4905,-1.67416,-0.415893,12.1256,6.39255,15.6655,-16.4758,7.90194,-23.5688,-5.1168,4.86523,-11.0586,2.74571e-15,-5.26779e-15,-10.9943,-21.1026,-23.0988,38.2039,28.1284,-7.1054,15.2705,7.12502,18.7694,-13.8439,2.74571e-15,-5.26779e-15,-12.7295,0.334565,19.952,32.9914,7.78567,-33.0353,25.206,7.12502,-6.24825,55.0939,-12.8397,-6.94681,21.5645,24.2034,-15.1294,8.17617,28.8345,-11.9529,-2.20402,-19.7442,21.6594,-13.9107,6.40173,-26.8105
12.9099,18.0742,-22.3059,8.56855,-21.4296,-0.423056,5.56632,-2.29737,2.27121,-7.39907,-2.86372,0.371905,-11.1463,-1.56708,-0.432568,11.3858,6.43605,15.5059,-15.9884,7.91199,-23.5224,-4.84683,4.83707,-10.9278,-2.42517e-14,8.94531e-15,-11.8869,-21.064,-24.2336,37.8402,27.8709,-6.61936,15.6486,7.12502,19.2369,-13.4199,-2.42517e-14,8.94531e-15,-13.399,0.46366,21.8134,32.907,8.20748,-31.4641,26.1569,7.12502,-4.73125,56.0841,-12.5441,-6.68166,21.5305,24.2822,-14.8834,8.1734,29.2637,-11.5254,-2.25697,-19.7349,21.5633,-13.5675,6.65817,-27.3902
12.9142,18.0795,-22.3068,8.18464,-21.5524,-0.205041,5.59779,-2.20706,2.0899,-7.11846,-2.76533,0.301833,-10.8381,-1.50403,-0.429635,10.9541,6.39914,15.3789,-15.832,7.80384,-23.5214,-4.75194,4.76847,-10.8663,-4.3304e-14,-5.26779e-15,-12.603,-21.0257,-25.3184,37.3018,27.6928,-6.01514,16.3004,7.12502,19.8178,-12.7092,-4.3304e-14,-5.26779e-15,-14.2194,0.433746,23.769,33.0234,8.7635,-30.0536,26.8307,7.12502,-3.36918,56.7838,-12.3188,-6.80555,21.2472,24.4107,-14.7049,8.34546,29.2782,-11.1114,-2.2687,-19.9964,21.4022,-13.0766,6.83509,-28.488
12.9146,18.0865,-22.3058,7.79882,-21.6469,-0.0436002,5.61692,-2.20115,1.96991,-6.84692,-2.76722,0.311576,-10.537,-1.49123,-0.359783,10.826,6.42835,15.052,-15.9974,7.74491,-23.5116,-4.80634,4.75169,-10.8076,-8.02842e-14,-2.18663e-15,-12.9122,-21.0187,-26.5542,36.7205,27.717,-5.39953,16.4724,7.12502,20.4095,-12.475,-8.02842e-14,-2.18663e-15,-15.2364,0.644323,25.6954,33.0137,9.48138,-28.8303,26.6923,7.12502,-2.1878,56.6609,-12.047,-6.75115,21.0392,24.5423,-14.5737,8.44811,29.514,-10.6893,-2.24337,-20.1783,21.2668,-12.8534,6.8062,-27.8558
12.9133,18.0905,-22.3084,7.39955,-21.8039,-0.00551213,5.68046,-2.51895,2.01266,-6.81739,-3.16835,0.555208,-10.5414,-1.67694,-0.0611756,12.1123,6.67741,14.0116,-16.6153,7.96877,-23.3235,-5.24216,4.97424,-10.6836,2.47611e-14,-2.18663e-15,-12.3696,-20.3592,-28.2296,36.1718,28.1868,-4.30727,16.9264,7.12502,21.4589,-11.9051,2.47611e-14,-2.18663e-15,-17.5639,0.452286,27.1606,33.0556,10.4519,-27.5125,26.3149,7.12502,-0.915071,56.2927,-11.6861,-6.47478,20.9623,24.613,-14.4407,8.34579,29.9252,-10.2489,-2.17757,-20.2276,21.2108,-12.8464,6.66189,-26.2695
12.9142,18.0856,-22.3132,7.04723,-21.9488,-0.0283673,5.85574,-2.56924,2.02774,-6.62899,-3.22389,0.614856,-10.4346,-1.69957,0.00423576,12.2414,6.75853,13.8135,-16.6736,8.03921,-23.3687,-5.27652,5.03065,-10.678,6.1909e-14,1.68967e-14,-12.5725,-20.5716,-29.2874,35.7711,29.0117,-2.99184,17.6731,7.12502,22.7218,-11.0091,6.1909e-14,1.68967e-14,-18.8576,-0.054198,28.7212,33.1736,11.2444,-26.3636,25.6425,7.12502,0.194594,55.6222,-11.3259,-6.35551,20.9616,24.6,-14.391,8.23649,30.0407,-9.86176,-2.08325,-20.2165,21.2252,-12.7806,6.54614,-25.8812
12.9176,18.082,-22.3131,6.8519,-22.0037,-0.104375,5.91142,-2.55619,2.1338,-6.42713,-3.19389,0.602085,-10.2494,-1.69115,-0.0776378,12.115,6.80198,13.9073,-16.7425,8.09147,-23.4164,-5.25472,5.0496,-10.7078,-2.13072e-14,7.35503e-15,-13.0081,-20.8813,-30.0765,35.5755,29.5221,-1.8563,18.1282,7.12502,23.8112,-10.4162,-2.13072e-14,7.35503e-15,-19.7903,-0.202991,30.2162,33.5437,11.4555,-25.3345,24.7535,7.12502,1.18848,54.7299,-11.0697,-6.39708,21.0208,24.5712,-14.5087,8.16315,29.4954,-9.61044,-1.98916,-20.1567,21.2482,-12.6605,6.45,-26.0048
12.9235,18.0862,-22.3088,6.57703,-21.9285,-0.0936783,6.05413,-2.62579,2.29301,-6.25864,-3.27396,0.515855,-10.1653,-1.74296,-0.244924,11.8991,6.82295,14.2686,-16.7232,8.14725,-23.6156,-5.16592,5.06096,-10.827,5.90515e-14,1.41137e-14,-13.3272,-21.3935,-30.8473,35.4763,29.8604,-0.568493,18.7107,7.12502,25.0457,-9.66719,5.90515e-14,1.41137e-14,-20.5233,-0.0917839,31.4088,33.6023,11.1736,-24.1701,24.2168,7.12502,2.31311,54.184,-10.7277,-6.57108,20.9661,24.5323,-14.6685,8.06922,28.2717,-9.31375,-1.95584,-20.1942,21.2814,-12.6586,6.29614,-25.8898
12.9296,18.087,-22.3082,6.18979,-21.7896,0.147677,6.35552,-2.67156,2.24046,-6.15929,-3.34741,0.349527,-10.2449,-1.77983,-0.369928,11.1096,6.71733,15.2244,-15.982,8.11062,-24.2877,-4.71964,4.99251,-11.1346,-3.24516e-14,6.55989e-15,-13.7394,-21.835,-31.285,35.4205,29.9011,0.39469,19.2856,7.12502,25.9684,-8.96029,-3.24516e-14,6.55989e-15,-20.9277,-0.0418088,32.3733,33.3008,10.7328,-23.2567,23.7644,7.12502,3.19522,53.7202,-10.3638,-6.60506,20.6878,24.4886,-14.7512,7.81502,27.3404,-9.01002,-1.9575,-20.4599,21.2781,-12.5869,6.27225,-27.3588
12.935,18.0808,-22.3125,5.9693,-21.6074,0.26256,6.64003,-2.71523,2.2777,-6.16033,-3.40423,0.239849,-10.4286,-1.81412,-0.484033,10.9918,6.6748,15.505,-15.8534,8.10676,-24.3133,-4.64497,4.96983,-11.1773,2.90971e-14,2.18663e-15,-14.0968,-21.9287,-31.4548,35.4514,29.6157,0.762928,19.3817,7.12502,26.3209,-8.81203,2.90971e-14,2.18663e-15,-21.3554,0.0885186,33.1005,33.2988,10.4712,-22.3038,23.4651,7.12502,4.11544,53.4051,-10.1536,-6.32252,20.5823,24.4746,-14.8085,7.32454,26.9969,-8.86354,-1.84946,-20.5627,21.2109,-12.4438,6.12006,-28.6238
12.9396,18.0784,-22.3123,5.871,-21.3081,0.320446,6.79022,-2.8341,2.42959,-6.19029,-3.55132,0.151278,-10.5748,-1.90056,-0.630294,10.9246,6.67811,15.6379,-15.8436,8.14897,-24.1803,-4.62143,4.97012,-11.1464,7.1811e-15,5.56597e-15,-14.1214,-22.28,-31.6066,35.5062,29.5626,0.93137,19.4439,7.12502,26.4822,-8.72557,7.1811e-15,5.56597e-15,-21.7743,0.282655,33.5274,33.4465,10.4598,-21.5256,23.7585,7.12502,4.86687,53.6826,-10.0112,-6.0463,20.5401,24.4797,-14.9746,6.79466,26.8129,-8.81209,-1.61586,-20.5862,21.151,-12.3941,5.56549,-28.3832
12.9451,18.0781,-22.3079,5.83457,-21.0949,0.518121,6.81959,-2.90434,2.4698,-6.27241,-3.65026,0.0538647,-10.6985,-1.9571,-0.735898,10.8314,6.72845,15.6729,-15.801,8.23861,-24.0574,-4.57793,4.99839,-11.0968,2.65626e-14,-7.85199e-15,-13.9958,-22.5854,-31.4955,35.6733,29.5699,0.731113,19.243,7.12502,26.2905,-8.95524,2.65626e-14,-7.85199e-15,-21.9732,0.54761,33.7497,33.3404,10.3988,-21.1937,23.9476,7.12502,5.18729,53.8641,-9.98763,-6.01878,20.3255,24.4599,-15.1676,6.5874,26.6262,-8.85219,-1.36074,-20.7806,21.1505,-12.4335,5.05141,-28.0998
12.9519,18.0745,-22.3082,5.93159,-21.0064,0.579611,6.85356,-2.88121,2.57755,-6.46537,-3.60953,0.0216179,-10.9446,-1.95039,-0.828143,11.164,6.66228,15.4405,-15.8731,8.16776,-23.7896,-4.70423,4.97388,-10.9869,1.07716e-14,4.17448e-15,-13.9501,-22.5708,-30.9746,35.9309,29.5777,0.24223,18.8045,7.12502,25.8224,-9.46274,1.07716e-14,4.17448e-15,-22.051,0.675964,33.8277,33.1506,10.6356,-21.2081,24.0165,7.12502,5.17346,53.9333,-10.1203,-5.96551,20.2542,24.4607,-15.3489,6.53563,26.6949,-9.01557,-1.09551,-20.8458,21.1432,-12.6013,4.71599,-28.0724
12.9597,18.0701,-22.3111,6.02966,-20.8244,0.636093,6.87755,-2.92893,2.72391,-6.67249,-3.66015,-0.00981901,-11.2088,-1.99154,-0.925664,12.1406,6.6132,14.8382,-16.4282,8.0852,-23.3039,-5.12483,4.98225,-10.8109,-2.14315e-14,-7.35503e-15,-13.6576,-22.4567,-30.4051,36.0973,29.6401,-0.475215,18.6154,7.12502,25.1351,-9.74999,-2.14315e-14,-7.35503e-15,-22.0921,0.870692,33.5933,33.0024,11.1369,-21.2579,24.1756,7.12502,5.1253,54.0936,-10.2522,-5.83004,20.2071,24.5069,-15.5956,6.2716,26.6913,-9.20107,-0.989999,-20.9022,21.1124,-12.6988,4.52472,-28.4906
12.9697,18.061,-22.3136,6.05024,-20.5152,0.798031,6.83642,-3.073,2.87831,-6.74826,-3.84824,-0.109122,-11.2989,-2.10109,-1.0852,11.3518,6.49675,15.4428,-15.3643,8.0153,-23.8699,-4.61951,4.90897,-10.9969,1.80273e-14,2.78299e-15,-12.9552,-22.6522,-29.9501,36.2341,29.7876,-1.47432,18.5073,7.12502,24.1775,-9.98885,1.80273e-14,2.78299e-15,-21.9014,1.31849,33.0228,32.978,11.6332,-22.1351,25.3019,7.12502,4.27835,55.2387,-10.3237,-5.99151,20.0448,24.5285,-15.7781,6.12999,26.8769,-9.3565,-1.26538,-21.069,21.1182,-12.5482,4.51108,-28.4672
12.977,18.0531,-22.3197,6.22208,-20.2511,0.850798,6.65711,-3.14622,3.0556,-6.76011,-3.93815,-0.168825,-11.2275,-2.1623,-1.24195,11.4172,6.57134,15.2356,-15.566,8.08208,-23.7054,-4.69603,4.94636,-10.9173,-5.39452e-14,-1.28216e-14,-12.1276,-23.2566,-29.2675,36.351,30.1618,-2.55074,18.474,7.12502,23.1451,-10.1556,-5.39452e-14,-1.28216e-14,-21.3627,1.82357,32.341,32.9647,11.7696,-23.3188,26.3956,7.12502,3.13526,56.3523,-10.5203,-6.1939,20.0222,24.5274,-15.9082,6.07818,26.8177,-9.63251,-1.57371,-21.112,21.14,-12.4145,4.58329,-28.6869
12.9793,18.0561,-22.329,6.54105,-20.1754,0.799224,6.39388,-3.10633,3.20879,-6.77702,-3.87659,-0.178983,-11.0967,-2.14616,-1.36241,11.438,6.57143,15.0147,-15.883,8.02088,-23.5357,-4.82683,4.91969,-10.8401,-2.67614e-14,-5.96354e-15,-11.2672,-23.7962,-28.3484,36.4293,30.3979,-3.57238,18.2881,7.12502,22.1645,-10.4613,-2.67614e-14,-5.96354e-15,-20.435,2.22923,31.5321,32.6604,11.4495,-23.0609,25.4166,7.12502,3.38433,55.3695,-10.861,-6.16491,20.1345,24.5381,-16.1513,5.79508,25.4513,-10.0213,-1.41422,-21.0448,21.14,-12.5495,4.41749,-29.0536
12.9822,18.0577,-22.3409,6.77406,-20.1932,0.892407,6.1758,-3.08597,3.22837,-6.80753,-3.85681,-0.198409,-11.001,-2.14011,-1.40836,11.6963,6.57385,14.7115,-16.3837,7.94309,-23.4018,-5.06111,4.90514,-10.7909,1.99406e-14,1.98785e-16,-10.2449,-23.9814,-27.434,36.5911,30.1975,-4.66805,17.778,7.12502,21.1123,-11.0926,1.99406e-14,1.98785e-16,-19.5455,2.41155,30.5432,32.3892,11.3362,-23.4377,25.1436,7.12502,3.02038,55.102,-11.221,-6.11509,20.0816,24.6053,-16.3761,5.57123,24.6874,-10.3315,-1.15385,-21.1462,21.0609,-12.8464,4.15516,-28.0592
12.9891,18.0531,-22.3514,6.95845,-20.104,0.973985,6.0692,-3.1521,3.2867,-6.87802,-3.94025,-0.15924,-11.0229,-2.1849,-1.38827,11.8532,6.65165,14.4891,-16.707,7.98416,-23.3768,-5.18951,4.94634,-10.776,3.16192e-14,5.1684e-15,-9.01507,-24.0458,-26.4905,36.5895,29.9206,-6.41412,17.4116,7.12502,19.4342,-11.6372,3.16192e-14,5.1684e-15,-18.948,2.59174,29.394,32.512,11.2159,-26.0573,28.6411,7.12502,0.490411,58.6203,-11.5395,-6.25751,20.0372,24.6957,-16.5699,5.4897,25.2452,-10.5387,-1.24269,-21.245,20.951,-13.1931,4.16452,-26.4018
12.9941,18.0492,-22.3576,7.15161,-19.9903,1.0738,5.98008,-3.15409,3.32866,-6.97106,-3.94755,-0.214837,-11.0826,-2.19708,-1.47147,11.6225,6.69329,14.7666,-16.6125,8.06823,-23.5106,-5.07858,4.97019,-10.8503,5.72624e-14,3.37934e-15,-7.85885,-24.5833,-25.4989,36.1697,30.0903,-8.88269,17.2442,7.12502,17.0594,-12.0268,5.72624e-14,3.37934e-15,-18.0607,2.61605,28.0598,32.8573,10.8218,-29.538,35.2435,7.12502,-2.87128,65.2039,-11.8737,-6.2892,19.9848,24.8039,-17.0145,5.23309,25.8402,-10.7569,-1.31826,-21.3594,20.8479,-13.4302,4.26384,-26.4237
12.9937,18.0409,-22.3673,7.44627,-19.8919,1.12637,5.80093,-3.15052,3.34637,-7.12276,-3.95204,-0.252022,-11.1506,-2.20668,-1.5248,11.7363,6.71898,14.8361,-16.6509,8.1292,-23.4975,-5.09487,5.00123,-10.8681,-2.75193e-14,-2.16675e-14,-6.64647,-25.0685,-24.6307,35.6073,30.351,-11.4898,16.7495,7.12502,14.5486,-12.7203,-2.75193e-14,-2.16675e-14,-17.1824,2.69526,26.6085,33.2185,10.3954,-26.7713,28.8111,7.12502,-0.199209,58.7907,-12.2748,-6.03957,19.9964,24.9283,-17.6027,4.93916,26.0322,-11.0877,-1.19038,-21.395,20.7475,-13.4904,4.24498,-27.8178
12.9914,18.0271,-22.3836,7.75578,-19.6998,1.02749,5.70498,-3.23299,3.42228,-7.26383,-4.04956,-0.147302,-11.2565,-2.25821,-1.4385,11.4144,6.71187,15.1717,-16.1006,8.15181,-24.0078,-4.82103,5.01142,-11.0518,-1.89964e-14,-5.36719e-15,-5.30994,-25.0935,-23.8506,35.0989,30.256,-14.0671,16.0063,7.12502,12.0644,-13.626,-1.89964e-14,-5.36719e-15,-16.6849,2.56796,25.2014,33.7838,10.5606,-25.8178,26.286,7.12502,0.7217,56.2645,-12.5675,-5.99933,20.1762,24.9944,-17.9819,4.99723,26.2791,-11.4472,-1.11415,-21.2312,20.7142,-13.5363,3.99482,-27.6881
12.988,18.01,-22.4,7.914,-19.5414,1.104,5.68465,-3.28552,3.29612,-7.32789,-4.13338,-0.122929,-11.3092,-2.28854,-1.32742,12.3117,6.87153,14.3726,-17.1341,8.27057,-23.3405,-5.34807,5.11718,-10.8044,3.22155e-14,-5.1684e-15,-4.18409,-25.1127,-23.0847,34.6731,30.1242,-16.6004,15.4954,7.12502,9.62089,-14.265,3.22155e-14,-5.1684e-15,-15.8683,2.61356,23.7622,33.9304,10.5622,-26.7303,26.1437,7.12502,-0.159605,56.1234,-12.7599,-6.26557,20.1844,24.9639,-18.1378,5.23997,26.6085,-11.78,-1.09617,-21.2457,20.7972,-13.7505,3.58089,-25.8962
12.9824,17.9972,-22.4171,8.08442,-19.43,1.11969,5.73128,-3.3262,3.14167,-7.48458,-4.19998,-0.0708466,-11.5021,-2.3085,-1.1657,11.3813,6.70131,15.5429,-15.8939,8.20345,-24.2487,-4.70903,5.03081,-11.1888,-1.22874e-14,6.36111e-15,-3.34793,-24.7971,-22.3304,34.4448,30.0751,-18.6795,15.1039,7.12502,7.61453,-14.739,-1.22874e-14,6.36111e-15,-14.6839,3.23693,22.2894,33.1524,9.62071,-27.9777,25.2562,7.12502,-1.36436,55.2316,-13.0165,-6.54667,20.2845,24.8942,-18.3242,5.23483,26.6155,-12.112,-1.23343,-21.2061,20.9166,-14.0624,3.63608,-25.8811
12.9743,17.9908,-22.4384,8.30022,-19.295,0.887777,5.94485,-3.34137,3.09146,-7.72255,-4.20671,0.0656374,-11.8894,-2.30438,-0.966272,11.788,6.63804,15.7696,-15.8088,8.20605,-24.3666,-4.7395,5.04859,-11.2955,-6.7475e-14,4.96962e-15,-3.00486,-24.1723,-21.5298,34.6749,30.0645,-20.0063,14.6222,7.12502,6.33374,-15.2631,-6.7475e-14,4.96962e-15,-13.5627,3.35248,21.0666,32.4136,9.16407,-29.3583,24.7676,7.12502,-2.69775,54.7303,-13.2776,-6.71956,20.654,24.8692,-18.5637,5.08287,26.988,-12.3465,-1.50848,-20.9053,20.9759,-14.3614,4.07623,-27.0418
12.965,17.9817,-22.4572,8.44622,-19.2185,0.842961,6.04925,-3.34146,2.78587,-7.85544,-4.22872,0.17467,-12.0709,-2.28402,-0.663518,11.7039,6.62561,15.9882,-15.5135,8.26113,-24.3966,-4.61273,5.05966,-11.3184,-8.44835e-14,-2.16675e-14,-2.76718,-23.707,-21.0007,35.2469,30.0671,-21.1857,13.6495,7.12502,5.19501,-16.2668,-8.44835e-14,-2.16675e-14,-12.64,3.35903,20.1205,31.9848,9.24328,-31.3769,25.0509,7.12502,-4.64712,54.9799,-13.478,-6.86644,20.8038,24.8615,-18.7886,5.12169,26.9866,-12.539,-1.62743,-20.8106,21.0199,-14.6117,4.21611,-26.2367
12.9553,17.9693,-22.4654,8.50231,-19.282,1.14716,5.93573,-3.33308,2.12983,-7.94801,-4.29335,0.224361,-12.0481,-2.25629,-0.239794,11.837,6.73973,15.665,-15.4813,8.43702,-23.9674,-4.63246,5.13899,-11.1077,5.96354e-16,-2.70347e-14,-2.48955,-23.1724,-20.793,35.8114,29.9743,-22.5495,12.4823,7.12502,3.87814,-17.4622,5.96354e-16,-2.70347e-14,-12.0893,3.20887,19.3125,31.8318,9.16892,-33.4782,24.9738,7.12502,-6.67587,54.8485,-13.6191,-6.97003,20.5357,24.8476,-18.9346,5.45588,26.9393,-12.7404,-1.82044,-21.1107,21.077,-14.7634,4.53913,-25.9426
12.9437,17.9607,-22.4736,8.60265,-19.3983,1.29794,5.86444,-3.31553,1.62825,-8.14571,-4.32485,0.299789,-12.183,-2.22474,0.128303,12.5406,6.84959,14.9216,-15.7718,8.59831,-23.1339,-4.90259,5.23248,-10.7426,1.51573e-15,-2.18663e-15,-2.51281,-22.6236,-20.8707,36.4161,30.0618,-23.7778,12.638,7.12502,2.69196,-17.3248,1.51573e-15,-2.18663e-15,-11.9752,2.5232,18.6498,32.0703,9.23076,-34.8783,25.0467,7.12502,-8.02731,54.8743,-13.8028,-7.05252,20.4294,24.8406,-18.8528,5.79487,27.7142,-12.919,-2.15298,-21.2422,21.1214,-14.8277,5.24176,-27.2051
12.9305,17.9575,-22.4846,8.76025,-19.5634,1.06233,5.84088,-3.32657,1.52158,-8.28659,-4.33843,0.459612,-12.3086,-2.2134,0.367225,12.9862,6.90923,14.3344,-15.7792,8.68835,-22.5498,-5.03509,5.28428,-10.4627,-9.11925e-15,-4.57205e-15,-2.51681,-22.435,-21.3836,36.9266,30.3888,-25.1718,13.7791,7.12502,1.34566,-16.1964,-9.11925e-15,-4.57205e-15,-12.0158,2.41854,18.1615,32.1845,8.98598,-35.7566,25.0566,7.12502,-8.87493,54.85,-13.9938,-7.22425,20.7425,24.8488,-18.7338,6.01434,27.8404,-12.9968,-2.29784,-20.9601,21.1345,-14.9494,5.6567,-26.7862
12.921,17.9555,-22.4863,8.87839,-19.7255,0.813243,5.67071,-3.33962,1.56454,-8.25523,-4.34559,0.5408,-12.164,-2.2178,0.419184,12.5694,6.93124,14.2842,-15.0605,8.76508,-22.4747,-4.74032,5.29428,-10.3491,-8.57259e-15,-1.90833e-14,-2.64232,-22.1167,-22.1213,37.37,30.065,-26.9721,14.1042,7.12502,-0.393162,-15.8752,-8.57259e-15,-1.90833e-14,-11.9965,2.74241,17.8713,32.1864,8.64273,-36.2235,24.4884,7.12502,-9.32543,54.2621,-14.0828,-7.37442,21.0198,24.8758,-18.7329,6.30179,27.4887,-12.9929,-2.523,-20.6819,21.1355,-15.2824,5.8407,-24.494
12.9146,17.9524,-22.4813,9.00186,-19.871,0.735018,5.36238,-3.35425,1.55116,-8.23608,-4.37433,0.527525,-11.9525,-2.23428,0.394834,11.9164,6.93647,14.7106,-14.0798,8.87407,-22.7826,-4.27292,5.30945,-10.4229,-2.09966e-15,6.55989e-15,-3.00909,-21.3794,-23.1194,37.9103,28.9559,-28.7748,13.9179,7.12502,-2.13419,-16.0512,-2.09966e-15,6.55989e-15,-12.2272,2.72926,17.7866,32.4282,8.84483,-36.0499,24.0689,7.12502,-9.15796,53.85,-14.2039,-7.6067,21.0906,24.9198,-18.6777,6.81324,28.0713,-13.0353,-2.87465,-20.5998,21.1449,-15.5443,6.36564,-24.3961
12.9092,17.9457,-22.476,9.05766,-20.1037,0.745721,5.02255,-3.34547,1.47415,-8.23201,-4.38129,0.489972,-11.7359,-2.23638,0.374526,11.3976,6.90235,15.2781,-13.1628,8.94385,-23.2382,-3.84248,5.31374,-10.5912,4.7522e-14,5.96354e-16,-3.45348,-20.6192,-24.3149,38.3697,27.99,-30.5406,14.2159,7.12502,-3.83952,-15.7293,4.7522e-14,5.96354e-16,-12.6472,2.53052,17.9843,32.6756,9.40004,-35.5858,23.9091,7.12502,-8.71009,53.7094,-14.2999,-8.26905,21.0457,24.9829,-18.4375,7.83764,28.8238,-13.0025,-2.85048,-20.6534,21.1384,-15.5994,6.99545,-26.9521
12.9041,17.9372,-22.4716,8.98435,-20.3767,0.669971,4.76336,-3.28165,1.47257,-8.16398,-4.30311,0.444611,-11.5016,-2.20324,0.293992,12.0357,7.01249,14.3729,-13.6089,9.04318,-22.331,-4.1698,5.37864,-10.1834,-1.76794e-14,-1.39149e-15,-4.14677,-20.1112,-25.4491,38.6402,27.711,-31.8628,15.1753,7.12502,-5.11622,-14.743,-1.76794e-14,-1.39149e-15,-13.0527,2.2757,18.5078,32.8009,9.93594,-35.1331,23.833,7.12502,-8.27324,53.651,-14.1748,-8.72014,21.0469,24.9922,-18.3205,8.69366,28.1868,-12.8183,-2.74573,-20.6314,21.1757,-15.6174,7.56838,-28.5806
12.8959,17.9344,-22.4687,8.96769,-20.6616,0.359227,4.57288,-3.22549,1.60876,-8.12297,-4.21106,0.496172,-11.3437,-2.1692,0.245891,12.2636,7.12829,14.0915,-13.5456,9.22651,-21.9648,-4.19366,5.46693,-10.0177,8.49307e-14,1.09332e-14,-4.95905,-19.6133,-26.633,38.8463,27.6171,-32.0758,16.2755,7.12502,-5.32191,-13.6376,8.49307e-14,1.09332e-14,-13.7115,2.26482,19.2373,32.8559,10.1649,-34.3658,23.6979,7.12502,-7.53262,53.5438,-13.9843,-8.51305,21.302,24.9147,-18.3476,8.89708,27.537,-12.6686,-2.79435,-20.3322,21.295,-15.6927,8.14377,-28.8255
12.8876,17.9361,-22.4703,9.11759,-20.8296,-0.163719,4.40142,-3.20007,1.86372,-8.13296,-4.13497,0.703222,-11.2531,-2.14461,0.305034,12.1617,7.15851,14.1,-13.0502,9.31162,-22.0547,-4.00945,5.50506,-10.0132,-2.29099e-14,-1.19271e-14,-5.7791,-18.9577,-27.7322,39.1319,27.2635,-31.6212,16.9368,7.12502,-4.88293,-12.987,-2.29099e-14,-1.19271e-14,-14.4915,2.60835,20.2859,32.7331,10.3664,-33.4684,24.3117,7.12502,-6.66637,54.1868,-13.9158,-8.42855,21.8343,24.8255,-18.1659,9.14095,27.7059,-12.6798,-2.57664,-19.772,21.4182,-15.8162,8.1361,-28.4087
12.8861,17.9326,-22.471,9.15527,-21.014,-0.485318,4.26165,-3.11374,1.97696,-8.139,-3.99096,0.90562,-11.1652,-2.07501,0.429667,12.0695,7.11288,14.0189,-12.5996,9.25786,-22.2516,-3.86653,5.48569,-10.0358,9.33791e-14,1.11319e-14,-6.70448,-18.4749,-28.6202,39.4586,27.0768,-30.6161,17.3776,7.12502,-3.91247,-12.5662,9.33791e-14,1.11319e-14,-15.2939,2.68817,21.7101,32.6403,10.8104,-32.1615,25.7567,7.12502,-5.40467,55.6678,-13.8061,-8.68835,22.1287,24.728,-18.0241,9.61989,27.2898,-12.6301,-2.30751,-19.4589,21.5536,-16.0577,8.03528,-27.896
12.8877,17.9221,-22.4683,8.80334,-21.3873,-0.328693,4.16171,-2.97332,1.68976,-7.95489,-3.82573,0.944898,-10.8677,-1.96875,0.591733,11.916,7.10592,13.8827,-12.4745,9.21301,-22.3384,-3.81466,5.4661,-10.0256,-6.53505e-15,-1.19271e-15,-7.5126,-18.3444,-29.6247,39.5733,27.0319,-29.0018,17.2609,7.12502,-2.35344,-12.7059,-6.53505e-15,-1.19271e-15,-16.0667,2.76151,23.2844,32.6604,11.5606,-30.2558,26.0654,7.12502,-3.5645,56.0154,-13.4581,-8.90652,21.856,24.6068,-18.1053,10.063,26.5406,-12.2925,-2.45319,-19.7029,21.7271,-16.448,8.48211,-27.1413
12.8827,17.9076,-22.4691,8.33684,-21.6542,-0.328044,4.17088,-2.87607,1.48729,-7.61853,-3.70412,1.01222,-10.4728,-1.88875,0.743554,11.4999,7.13627,13.7669,-12.2793,9.2192,-22.3282,-3.69057,5.45077,-9.96338,2.77056e-14,1.82882e-14,-8.25127,-17.8395,-30.548,39.5712,26.4848,-26.7847,16.6209,7.12502,-0.212152,-13.3588,2.77056e-14,1.82882e-14,-16.8237,2.94988,24.9203,32.7273,12.6868,-28.8625,26.1482,7.12502,-2.21889,56.1164,-12.9474,-8.78254,21.7845,24.5747,-18.2764,10.092,26.1807,-11.7636,-2.78411,-19.7447,21.8147,-16.636,9.02466,-26.4814
12.878,17.8958,-22.4713,8.02044,-21.7743,-0.533676,4.15193,-2.83253,1.55929,-7.36073,-3.6268,1.13112,-10.1688,-1.85054,0.806788,11.165,7.13701,13.6895,-11.8946,9.21488,-22.4189,-3.52075,5.43554,-9.93824,6.14742e-14,1.19271e-15,-8.96689,-17.1402,-31.2659,39.5101,26.0027,-23.9027,16.0472,7.12502,2.57137,-13.9171,6.14742e-14,1.19271e-15,-17.6901,2.8955,26.5132,32.6301,13.7056,-28.0216,26.8094,7.12502,-1.40679,56.7845,-12.5177,-8.46918,21.9707,24.6174,-18.4982,9.74855,25.7151,-11.285,-2.91176,-19.5516,21.7963,-16.6937,9.34166,-26.7958
12.8829,17.8881,-22.4758,7.58025,-21.7688,-0.405217,4.21766,-2.84916,1.4742,-7.08094,-3.65624,1.10384,-9.89216,-1.85835,0.819715,10.8176,7.13839,13.7758,-11.639,9.21033,-22.6362,-3.36935,5.42182,-9.99179,8.33156e-14,1.27222e-14,-9.34849,-17.4404,-32.1347,39.0529,26.5181,-20.6405,15.5004,7.12502,5.72142,-14.4024,8.33156e-14,1.27222e-14,-18.3842,2.82223,27.9968,32.3415,14.6073,-27.0345,26.9945,7.12502,-0.453388,56.9738,-12.0836,-8.37907,21.813,24.6001,-18.7655,9.2332,25.1258,-10.8466,-2.96902,-19.7066,21.7848,-16.8802,9.32276,-26.9131
12.8902,17.8862,-22.4798,7.02404,-21.56,-0.347928,4.59255,-2.87718,1.47261,-6.79701,-3.6881,1.05572,-9.80429,-1.87226,0.783236,10.6372,7.07387,13.7812,-11.6596,9.09769,-22.6661,-3.3633,5.35913,-9.9942,1.51673e-13,3.18055e-15,-9.79615,-18.0811,-32.8359,38.4948,27.1938,-16.6377,15.5118,7.12502,9.58495,-14.2502,1.51673e-13,3.18055e-15,-18.925,2.60654,29.5039,32.2993,15.6376,-25.5844,26.7344,7.12502,0.947169,56.712,-11.5053,-8.5198,21.7229,24.5865,-19.1127,8.82375,25.2871,-10.2693,-2.88512,-19.776,21.7116,-16.9698,9.02926,-26.9407
12.8931,17.8837,-22.4788,6.65302,-21.5304,-0.54277,4.90611,-2.81643,1.66843,-6.62851,-3.57869,1.06262,-9.81712,-1.8301,0.678486,10.578,6.98139,13.8167,-11.5845,8.98459,-22.6179,-3.35452,5.29495,-9.97774,5.27525e-14,7.35503e-15,-10.4384,-18.5405,-33.2091,37.9777,27.6306,-12.1319,16.7567,7.12502,13.9299,-12.7567,5.27525e-14,7.35503e-15,-19.4895,2.63115,30.8721,32.3323,16.092,-23.8415,26.3234,7.12502,2.63047,56.287,-11.0465,-8.5623,21.8708,24.6474,-19.5073,8.85848,25.8252,-9.68157,-2.43606,-19.6115,21.5167,-16.7834,8.93865,-28.5059
12.8955,17.8732,-22.4784,6.29551,-21.716,-0.371791,5.03664,-2.7526,1.5759,-6.49965,-3.50982,0.922785,-9.75455,-1.79452,0.574073,10.322,7.01027,14.2231,-11.4157,9.08529,-22.6909,-3.21449,5.31795,-10.0465,-3.47376e-14,9.93923e-16,-10.8882,-18.8583,-33.6136,37.3218,27.8352,-8.06627,18.0757,7.12502,17.8451,-11.1255,-3.47376e-14,9.93923e-16,-20.0988,3.12358,31.8071,32.3261,15.7786,-22.3859,26.174,7.12502,4.03614,56.1155,-10.7291,-8.39565,21.6413,24.6761,-19.6669,8.90533,26.5058,-9.24206,-2.0445,-19.8327,21.3402,-16.6665,8.93664,-29.6012
12.9001,17.8649,-22.4799,5.83465,-21.7431,-0.0282078,5.2842,-2.7691,1.42563,-6.37852,-3.56113,0.684655,-9.77445,-1.81676,0.420957,10.2342,7.05038,14.4971,-11.5987,9.16755,-22.5503,-3.2278,5.33829,-10.0475,-4.7932e-14,-4.57205e-15,-11.1348,-19.0907,-34.0344,36.5546,27.8103,-4.3982,18.9954,7.12502,21.3715,-9.84596,-4.7932e-14,-4.57205e-15,-20.6199,3.29027,32.4549,32.2971,15.6747,-21.0582,26.207,7.12502,5.31814,56.1203,-10.3321,-8.17778,21.2498,24.6486,-19.7936,8.53754,26.6284,-8.83563,-2.00138,-20.2037,21.2335,-16.7428,8.76342,-29.0781
12.9067,17.8639,-22.4821,5.49309,-21.6565,-0.000592247,5.63906,-2.80358,1.64807,-6.3413,-3.5919,0.517453,-9.97253,-1.85246,0.142932,10.409,6.95317,14.5299,-11.8336,9.04683,-22.3277,-3.36125,5.27565,-10.0019,-8.1042e-14,-9.93923e-16,-11.3718,-19.6451,-34.2097,35.8007,28.3195,-1.23525,20.1793,7.12502,24.4067,-8.28616,-8.1042e-14,-9.93923e-16,-20.9592,3.14855,32.9586,32.0463,15.7901,-19.2248,25.9829,7.12502,7.08817,55.8442,-9.95661,-8.00482,21.1919,24.6518,-20.0795,8.00343,25.2825,-8.4268,-2.00586,-20.2504,21.1125,-16.7819,8.61666,-28.7411
12.9159,17.8659,-22.484,5.32018,-21.5414,0.0437832,5.87643,-2.84911,1.96725,-6.43602,-3.63224,0.32398,-10.2573,-1.9035,-0.216913,10.7095,6.78833,14.583,-11.8429,8.8709,-22.1914,-3.45731,5.19276,-9.98631,-9.24597e-14,-2.08724e-14,-11.7259,-20.1543,-34.1382,35.3315,29.0202,0.916966,21.0299,7.12502,26.4684,-7.1417,-9.24597e-14,-2.08724e-14,-21.2851,2.97627,33.2608,31.823,16.0056,-18.4665,26.4226,7.12502,7.82011,56.258,-9.75077,-7.78614,21.1277,24.6466,-20.1975,7.609,24.3969,-8.23019,-1.97223,-20.3182,21.022,-16.757,8.39932,-28.7201
12.925,17.8644,-22.4855,5.25093,-21.4179,0.210389,5.93802,-2.88504,2.19694,-6.541,-3.67679,0.0896834,-10.4467,-1.95402,-0.579772,11.0212,6.66735,14.7074,-11.9992,8.74109,-22.1576,-3.57849,5.13809,-10.0259,-6.64314e-14,-6.95746e-16,-11.9893,-20.551,-33.9399,35.0404,29.3551,2.0128,21.1672,7.12502,27.5168,-6.84202,-6.64314e-14,-6.95746e-16,-21.4777,2.69719,33.4056,31.7065,16.6636,-18.7714,27.1896,7.12502,7.52584,57.0357,-9.66305,-7.36337,20.9597,24.5752,-20.1809,7.24778,25.0551,-8.28159,-1.91879,-20.5004,21.0411,-16.6625,8.23809,-29.2806
12.9351,17.8615,-22.487,5.26779,-21.2202,0.224017,5.97519,-2.90465,2.49815,-6.60804,-3.68147,-0.0335852,-10.5759,-1.98592,-0.873262,11.1581,6.61651,14.8123,-12.2172,8.66946,-22.2174,-3.67063,5.1109,-10.0862,2.70223e-14,4.37326e-15,-12.0269,-21.0135,-33.5101,34.8086,29.4872,2.41108,20.9688,7.12502,27.8977,-6.97919,2.70223e-14,4.37326e-15,-21.3987,2.86265,33.3982,31.4692,16.694,-18.1961,27.1506,7.12502,8.08106,56.9761,-9.63673,-7.06005,20.9524,24.5007,-20.1687,6.81375,25.346,-8.41853,-1.75012,-20.5028,21.0911,-16.6464,7.98493,-30.1647
12.9476,17.865,-22.4855,5.46261,-20.9347,0.0120414,5.90719,-2.97352,3.00812,-6.67953,-3.71985,-0.0165904,-10.6548,-2.0444,-1.13311,11.1859,6.65922,14.6544,-12.3467,8.69404,-22.151,-3.7199,5.12813,-10.0442,-4.02166e-14,-4.17448e-15,-11.7114,-21.573,-32.9955,34.712,29.7651,2.38584,20.6348,7.12502,27.8735,-7.31712,-4.02166e-14,-4.17448e-15,-21.2509,3.60836,33.1476,31.2357,16.0958,-17.6479,26.8961,7.12502,8.61013,56.7005,-9.77725,-7.17863,21.1633,24.5196,-20.1722,6.57009,24.6292,-8.60461,-1.7066,-20.2768,21.0556,-16.6491,7.62601,-30.2056
12.9574,17.8736,-22.4861,5.75702,-20.7382,-0.0526733,5.69909,-3.03955,3.30805,-6.80021,-3.78001,0.0332696,-10.6882,-2.09732,-1.24351,11.1606,6.66574,14.5382,-12.3454,8.65884,-22.3319,-3.71786,5.12552,-10.0858,-5.06777e-14,-6.26172e-15,-11.0953,-22.1031,-32.4134,34.7154,30.0974,1.93068,20.4918,7.12502,27.4383,-7.52989,-5.06777e-14,-6.26172e-15,-21.1929,4.11696,32.7355,31.2085,15.8788,-16.6731,26.2649,7.12502,9.55076,56.0285,-10.1568,-7.32847,21.2526,24.6418,-20.2321,6.41284,23.9055,-8.87944,-1.66151,-20.2048,20.9251,-16.5493,7.28923,-29.6478
12.9661,17.8789,-22.4947,5.8009,-20.5653,0.386282,5.67277,-3.09132,3.04182,-6.96285,-3.88377,-0.00517439,-10.8428,-2.13223,-1.11591,11.1994,6.62922,14.5072,-12.2866,8.57622,-22.6719,-3.70692,5.10817,-10.1995,2.11706e-14,6.16232e-15,-10.4166,-22.401,-31.6053,34.8068,30.2175,1.02686,20.499,7.12502,26.5736,-7.65671,2.11706e-14,6.16232e-15,-20.9911,4.26423,32.2103,31.0668,15.7282,-15.364,25.5155,7.12502,10.8136,55.2171,-10.494,-7.37882,20.835,24.7877,-20.2817,6.15087,23.3502,-9.11168,-1.41968,-20.6421,20.7895,-16.4359,6.85157,-29.8519
12.9759,17.8827,-22.5038,5.78206,-20.3156,0.837756,5.62368,-3.18633,2.80773,-7.01941,-4.04804,-0.096076,-10.8737,-2.19886,-1.05829,11.3491,6.67216,14.429,-12.5511,8.58075,-22.8599,-3.80199,5.13638,-10.2761,2.82647e-14,4.57205e-15,-9.55902,-22.712,-30.7853,34.9494,30.2994,-0.397317,20.1998,7.12502,25.2098,-8.15509,2.82647e-14,4.57205e-15,-20.4116,4.34092,31.5259,30.9895,16.0097,-15.9247,25.8886,7.12502,10.2728,55.6177,-10.7446,-7.39446,20.386,24.9192,-20.2788,5.89898,23.2795,-9.31823,-1.37977,-21.0992,20.6973,-16.2878,6.54588,-30.335
12.9825,17.8889,-22.5104,6.05797,-20.1148,0.755199,5.35873,-3.3279,3.09852,-7.03254,-4.21237,-0.0403914,-10.7574,-2.29948,-1.14949,11.6112,6.77994,14.2255,-13.0507,8.6322,-23.0268,-3.98319,5.20109,-10.3446,-2.24378e-14,-9.74045e-15,-8.25116,-23.0147,-30.1296,35.0003,30.4398,-2.09272,19.59,7.12502,23.5845,-8.98374,-2.24378e-14,-9.74045e-15,-19.9121,4.32521,30.5431,31.2168,16.4378,-17.7721,26.9075,7.12502,8.49027,56.7168,-11.0938,-7.20997,20.5066,25.0419,-20.2394,5.69519,24.0448,-9.62521,-1.5813,-21.0009,20.6342,-16.1955,6.4324,-29.7681
12.9887,17.8919,-22.5177,6.38697,-19.9959,0.49957,5.15244,-3.41179,3.54564,-7.07456,-4.27671,0.0770725,-10.7135,-2.36144,-1.27221,11.9129,6.87809,13.8486,-13.572,8.65176,-23.0495,-4.20275,5.25146,-10.3378,4.32357e-15,2.78299e-15,-6.9867,-22.9776,-29.2653,35.1604,30.1822,-3.82749,18.836,7.12502,21.9196,-9.94224,4.32357e-15,2.78299e-15,-19.4319,4.34897,29.2796,31.3948,15.7657,-18.8641,27.5215,7.12502,7.43634,57.3708,-11.4075,-7.15232,20.7958,25.1059,-20.2175,5.72082,24.6413,-9.94922,-1.69049,-20.7321,20.6563,-16.1847,6.36164,-29.1799
12.9974,17.8935,-22.5272,6.57798,-19.9094,0.520642,5.12515,-3.12178,3.6735,-6.98633,-3.8903,-0.118877,-10.6,-2.19162,-1.61665,11.0818,6.67514,14.4612,-13.3643,8.3939,-23.3466,-3.99587,5.07203,-10.4855,4.79941e-14,6.95746e-15,-6.80542,-23.8196,-27.5674,35.2979,29.8621,-6.03062,18.2561,7.12502,19.8029,-10.7551,4.79941e-14,6.95746e-15,-17.6528,4.33828,28.2852,31.6716,14.663,-18.6682,27.4911,7.12502,7.6254,57.3336,-11.6596,-7.44191,20.7726,25.1035,-20.1657,5.9908,24.6747,-10.2879,-1.73877,-20.7632,20.7756,-16.1264,6.35659,-29.4878
13.0064,17.894,-22.5357,6.77718,-19.9033,0.614838,5.19561,-2.48059,3.53096,-6.68459,-3.06983,-0.513375,-10.2635,-1.7923,-2.08873,8.40011,6.35142,16.303,-12.1022,8.02729,-24.1963,-3.08826,4.7057,-10.8874,2.53637e-14,1.799e-14,-7.2132,-26.4235,-25.3171,34.8032,30.2495,-8.69336,18.2409,7.12502,17.2416,-11.0142,2.53637e-14,1.799e-14,-14.4181,4.22839,27.6759,31.8975,14.0283,-18.4821,27.126,7.12502,7.80502,56.9619,-11.9788,-7.70174,20.6754,25.1232,-20.0569,6.27649,24.6675,-10.6382,-1.96283,-20.8778,20.8681,-16.0321,6.61588,-29.7932
13.0138,17.8953,-22.5475,7.01161,-19.809,0.620952,5.11698,-2.83988,3.70263,-7.05183,-3.51935,-0.258406,-10.6558,-2.02297,-1.83652,9.94917,6.54803,15.6631,-12.9413,8.26835,-24.2017,-3.58453,4.94633,-10.9093,2.62272e-14,1.13307e-14,-4.86981,-26.2917,-25.0796,33.8951,30.4724,-11.3974,18.0469,7.12502,14.6376,-11.4165,2.62272e-14,1.13307e-14,-14.9124,4.1395,25.8702,32.304,13.8689,-19.1823,26.7921,7.12502,7.12916,56.652,-12.332,-7.84971,20.7015,25.2061,-20.0365,6.42391,25.2233,-10.9645,-2.12397,-20.8706,20.8623,-15.8796,6.67062,-29.5683
13.0176,17.9012,-22.57,7.2816,-19.5688,0.621095,5.29023,-2.55025,3.58495,-6.94977,-3.15086,-0.460641,-10.6243,-1.8422,-2.03886,8.5001,6.48688,16.7366,-12.5806,8.19478,-24.5296,-3.16194,4.80128,-11.1123,-2.55066e-14,6.36111e-15,-4.7917,-27.2675,-23.5521,33.4439,30.1122,-13.8479,17.3402,7.12502,12.2758,-12.2795,-2.55066e-14,6.36111e-15,-12.3894,4.58076,24.8335,32.0338,13.5367,-20.0833,25.9467,7.12502,6.25944,55.8342,-12.724,-8.18783,20.7862,25.2627,-20.0043,6.54736,25.73,-11.3963,-1.97924,-20.7973,20.8744,-15.7771,6.17974,-29.1407
13.0164,17.9092,-22.5948,7.60237,-19.434,0.611522,5.3088,-2.68029,3.46851,-7.23793,-3.32677,-0.326375,-10.9558,-1.92035,-1.79345,9.32095,6.48855,16.5541,-13.0511,8.21821,-24.4267,-3.4534,4.86477,-11.1185,3.92972e-14,2.90226e-14,-3.71773,-26.93,-22.8779,33.099,30.125,-15.4769,17.3244,7.12502,10.7048,-12.3828,3.92972e-14,2.90226e-14,-11.746,4.97018,23.3501,31.7522,13.2196,-20.8776,25.0246,7.12502,5.49255,54.9334,-13.1537,-8.4691,20.9023,25.2378,-19.833,6.65309,25.4163,-11.9178,-1.7911,-20.7004,20.9702,-15.8051,5.72894,-28.7892
13.0112,17.9102,-22.6165,7.89014,-19.3549,0.621479,5.39619,-2.55426,3.09151,-7.3951,-3.18616,-0.251045,-11.1456,-1.82187,-1.51575,8.93113,6.5011,16.7134,-12.8903,8.2521,-24.2671,-3.33146,4.84286,-11.055,1.12748e-14,-2.98177e-16,-3.59752,-27.0753,-21.6488,33.0985,30.4896,-16.4646,17.4509,7.12502,9.75193,-12.3033,1.12748e-14,-2.98177e-16,-10.2081,5.20515,22.3114,31.1238,12.1385,-21.5697,24.5393,7.12502,4.82424,54.4644,-13.5221,-8.29812,20.9905,25.1886,-19.6707,6.54894,25.0699,-12.3899,-1.87247,-20.6122,21.0713,-15.9024,5.46005,-27.7276
13.0044,17.9097,-22.6363,8.11273,-19.2149,0.699914,5.4698,-2.54469,2.63659,-7.6323,-3.20738,-0.108323,-11.4204,-1.7919,-1.09501,8.82391,6.5444,16.7437,-12.6848,8.34688,-24.1449,-3.23914,4.87358,-10.9955,1.63997e-14,1.10325e-14,-3.48356,-26.3855,-20.7688,33.5175,30.5764,-17.3971,16.4908,7.12502,8.85213,-13.3035,1.63997e-14,1.10325e-14,-9.21588,4.93857,21.2849,30.605,10.9578,-22.4322,24.3554,7.12502,3.99138,54.2978,-13.8091,-7.96408,20.9905,25.1347,-19.4838,6.44551,26.0217,-12.7946,-2.00955,-20.5957,21.1587,-15.9427,5.19098,-26.6732
12.996,17.9178,-22.653,8.2403,-19.1315,0.897675,5.50669,-2.60591,2.09091,-7.80919,-3.3398,0.00485655,-11.6053,-1.80605,-0.641204,8.48335,6.52297,17.0201,-12.1918,8.36615,-24.3243,-3.00986,4.8577,-11.0619,-3.5657e-15,-2.28602e-15,-3.29765,-25.7633,-20.387,34.1063,30.8886,-18.1975,15.6593,7.12502,8.07973,-14.1663,-3.5657e-15,-2.28602e-15,-8.76527,4.03869,20.2313,30.6323,10.8287,-23.9573,24.4263,7.12502,2.51863,54.3912,-14.0005,-7.71101,20.8355,25.0412,-19.3513,6.3082,27.1691,-13.112,-1.83215,-20.7493,21.283,-15.896,4.85171,-26.4892
12.9873,17.9263,-22.6641,8.40615,-19.1896,1.02625,5.39972,-2.65363,1.62012,-7.86401,-3.45015,0.0989276,-11.5668,-1.8149,-0.264628,8.621,6.6151,16.6866,-12.4703,8.44714,-24.0825,-3.12679,4.90847,-10.9354,-1.01504e-14,-2.10712e-14,-3.15731,-25.5287,-20.4257,34.7569,31.2768,-18.8441,15.4784,7.12502,7.45565,-14.3703,-1.01504e-14,-2.10712e-14,-8.59155,3.31988,19.2304,31.0151,10.8598,-25.6102,24.2749,7.12502,0.922234,54.2526,-14.1658,-7.3812,20.722,24.9173,-19.4014,6.11932,27.3575,-13.4107,-1.83265,-20.8411,21.4314,-15.9357,4.65657,-25.1584
12.9807,17.9311,-22.6717,8.68768,-19.2509,0.850401,5.27009,-2.6676,1.54872,-8.00227,-3.47432,0.169422,-11.6363,-1.81861,-0.147059,8.37382,6.62407,16.8566,-12.1602,8.49315,-24.1105,-2.97455,4.90876,-10.9427,6.42074e-14,1.03368e-14,-3.49792,-24.7107,-20.6241,35.5602,30.7882,-19.6232,14.8403,7.12502,6.70355,-15.0335,6.42074e-14,1.03368e-14,-8.46561,2.69811,18.3672,31.2778,10.2379,-27.3622,24.2558,7.12502,-0.769937,54.2342,-14.3282,-7.13473,20.9258,24.7967,-19.4796,6.0296,27.0404,-13.7336,-2.11502,-20.6078,21.5608,-15.9868,4.97652,-24.595
12.9761,17.9329,-22.6765,8.93564,-19.3259,0.600619,5.211,-2.70594,1.72852,-8.27217,-3.51431,0.146712,-11.9253,-1.8579,-0.257837,8.20946,6.52943,17.3686,-11.4207,8.49729,-24.3284,-2.69755,4.8847,-11.0655,-3.19298e-14,-9.83984e-15,-4.32268,-23.1032,-21.0206,36.5434,29.4008,-20.3982,14.1099,7.12502,5.95538,-15.7864,-3.19298e-14,-9.83984e-15,-8.64051,1.97953,17.5698,31.5707,9.49618,-29.3798,24.2147,7.12502,-2.71847,54.1771,-14.467,-7.12687,21.2076,24.6847,-19.542,6.06635,26.2905,-13.9976,-2.18376,-20.3363,21.7086,-15.9614,5.53214,-25.9783
12.9705,17.9326,-22.6776,9.04441,-19.5058,0.484148,5.09745,-3.15976,1.89726,-8.59945,-4.09717,0.37457,-12.2452,-2.14465,-0.00515817,9.48087,6.74556,16.3604,-11.7595,8.80668,-23.8803,-3.03224,5.12359,-10.8099,-4.27511e-14,-9.34288e-15,-3.81646,-21.0397,-22.5449,37.2461,28.143,-21.0807,14.1716,7.12502,5.29643,-15.7422,-4.27511e-14,-9.34288e-15,-10.6342,1.63777,16.5385,32.2075,9.04816,-30.641,23.6739,7.12502,-3.93643,53.6173,-14.5674,-7.08496,21.3389,24.6275,-19.6481,5.99511,25.204,-14.1044,-2.08832,-20.2335,21.8458,-15.9608,5.90256,-27.2312
12.9647,17.9243,-22.6788,9.01716,-19.7234,0.480863,5.21468,-2.7553,1.63161,-8.32783,-3.60398,0.0508169,-11.9943,-1.89882,-0.290922,7.85003,6.62504,16.8403,-11.3147,8.58522,-23.578,-2.65728,4.88767,-10.6728,-1.53251e-14,-7.35503e-15,-5.47713,-21.9686,-22.8635,37.5147,27.8426,-21.7778,14.6312,7.12502,4.62332,-15.2983,-1.53251e-14,-7.35503e-15,-9.39243,1.63994,16.7295,32.3962,8.86042,-31.0595,23.3362,7.12502,-4.34055,53.2717,-14.5779,-7.15986,21.3442,24.6759,-19.79,6.07324,24.7395,-14.0641,-1.85937,-20.2639,21.8848,-15.9305,6.06404,-28.0807
12.9588,17.9114,-22.6779,8.94109,-19.9451,0.580477,5.18413,-2.76171,1.33288,-8.37811,-3.64929,0.0333515,-12.0141,-1.8956,-0.13672,8.4089,6.65148,16.2952,-11.7985,8.59583,-23.0855,-2.94874,4.92192,-10.4591,-6.8736e-15,8.69683e-15,-6.09871,-21.8329,-23.9921,37.5588,27.7958,-22.058,15.1844,7.12502,4.35281,-14.7509,-6.8736e-15,8.69683e-15,-9.95372,1.36083,16.8583,32.6632,8.72546,-31.143,23.1574,7.12502,-4.42121,53.0912,-14.5857,-7.38678,21.2336,24.7792,-19.8779,6.54635,25.4235,-13.9778,-1.83834,-20.3946,21.8502,-15.894,6.36442,-28.4122
12.9512,17.9053,-22.6779,8.7802,-20.1783,0.740422,5.18594,-2.7822,0.913606,-8.42315,-3.72342,0.045953,-12.0372,-1.89322,0.12275,8.51907,6.71229,16.0564,-11.6537,8.68994,-22.9678,-2.92723,4.97534,-10.3722,-1.90492e-14,-1.83876e-15,-6.97914,-21.006,-25.0212,37.7163,27.386,-21.8308,15.9631,7.12502,4.57215,-13.9676,-1.90492e-14,-1.83876e-15,-10.7445,1.42136,17.3017,32.9269,7.9387,-30.3203,22.7507,7.12502,-3.6268,52.6996,-14.5533,-7.47855,21.0758,24.8532,-19.8999,6.79733,25.8065,-13.8045,-2.18349,-20.5555,21.813,-15.9914,6.89158,-28.2888
12.9438,17.8984,-22.6825,8.67342,-20.4646,0.771418,5.17616,-2.77661,0.599069,-8.45643,-3.74573,0.104539,-12.0427,-1.87263,0.364468,8.42038,6.72914,15.9112,-11.3276,8.72166,-22.9859,-2.81752,4.98835,-10.33,-8.74031e-15,-1.19271e-14,-7.81852,-20.2502,-26.1826,37.6263,27.1484,-21.5687,16.4667,7.12502,4.8252,-13.4584,-8.74031e-15,-1.19271e-14,-11.6684,1.29467,18.0568,33.2013,7.36516,-28.8586,23.1178,7.12502,-2.21513,53.086,-14.4981,-7.51925,21.0776,24.8662,-19.9836,6.99015,26.1961,-13.6532,-2.32992,-20.5801,21.7902,-16.184,7.19392,-26.9381
12.9381,17.8903,-22.6813,8.63825,-20.7452,0.57344,4.97957,-2.72534,0.573453,-8.35042,-3.66698,0.210011,-11.7894,-1.8286,0.464808,8.24313,6.72679,15.5888,-11.2541,8.66656,-22.9042,-2.7983,4.95831,-10.2322,-4.53478e-14,-8.15017e-15,-8.54548,-20.0978,-27.4598,37.2968,27.0693,-21.0074,16.3865,7.12502,5.36719,-13.5256,-4.53478e-14,-8.15017e-15,-12.463,1.07764,19.1617,33.2505,7.6058,-27.9013,24.3167,7.12502,-1.29062,54.2926,-14.3579,-7.52917,21.2947,24.8152,-20.0891,7.24591,26.7705,-13.4564,-2.26285,-20.3891,21.7905,-16.3872,7.24833,-25.0194
12.9341,17.8828,-22.6734,8.40861,-21.0378,0.434306,4.87968,-2.57588,0.549425,-8.19115,-3.46017,0.246403,-11.5401,-1.72579,0.474517,8.29991,6.60975,15.2588,-11.4043,8.45082,-22.7976,-2.91823,4.8629,-10.1534,6.52511e-14,1.42628e-14,-9.64614,-20.0048,-28.4693,36.982,26.8552,-19.6874,15.9176,7.12502,6.6416,-13.9582,6.52511e-14,1.42628e-14,-12.9879,1.30316,20.6133,33.0256,7.71322,-27.0736,24.7856,7.12502,-0.491202,54.7648,-14.0204,-7.61348,21.4143,24.7204,-20.1137,7.45168,26.584,-13.0508,-2.23449,-20.2958,21.825,-16.446,7.65411,-25.5815
12.9321,17.8741,-22.6666,8.06978,-21.2965,0.46523,4.86152,-2.43079,0.486357,-8.0389,-3.27369,0.178223,-11.3547,-1.63414,0.402275,8.37316,6.48221,15.0942,-11.4054,8.26028,-22.7595,-2.98088,4.77649,-10.1201,-3.06656e-14,-1.39149e-15,-10.9647,-19.5482,-29.3642,36.8101,26.4696,-17.9102,15.3513,7.12502,8.35698,-14.4633,-3.06656e-14,-1.39149e-15,-13.6321,1.3699,22.1798,33.0178,8.31224,-26.3351,24.9068,7.12502,0.222064,54.8865,-13.6495,-7.89864,21.349,24.6281,-20.0417,7.93787,26.9015,-12.6533,-2.04223,-20.3905,21.8594,-16.3207,8.0933,-27.9151
12.932,17.8675,-22.6629,7.69314,-21.4243,0.458404,4.80752,-2.35021,0.516579,-7.71161,-3.15821,0.146285,-10.9531,-1.58278,0.320626,7.97675,6.532,14.9287,-11.2388,8.28224,-22.7783,-2.86592,4.77192,-10.066,-2.99264e-14,-3.47873e-16,-11.8414,-19.7084,-30.3428,36.3527,26.3745,-15.7742,15.3254,7.12502,10.418,-14.3965,-2.99264e-14,-3.47873e-16,-14.3866,1.26822,23.8691,33.2389,9.75004,-26.0256,25.5225,7.12502,0.520994,55.5016,-13.2151,-8.01753,21.3046,24.5893,-20.0231,8.26977,27.6294,-12.2155,-1.60615,-20.4181,21.845,-16.3112,7.91079,-29.183
12.9326,17.8611,-22.6622,7.20787,-21.502,0.375066,5.00548,-2.23791,0.542997,-7.38292,-2.99207,0.187663,-10.7001,-1.50053,0.324959,7.35016,6.5929,14.832,-10.9061,8.32703,-22.822,-2.65393,4.76235,-10.0116,7.09723e-14,1.36167e-14,-12.4651,-20.7512,-31.1254,35.3027,26.9679,-13.2172,16.0743,7.12502,12.8838,-13.508,7.09723e-14,1.36167e-14,-15.0327,1.19245,25.7098,33.3247,10.9332,-25.2513,26.048,7.12502,1.26889,56.024,-12.6097,-7.89197,21.3156,24.5503,-20.0619,8.22313,27.7759,-11.6074,-1.36337,-20.3464,21.8309,-16.5127,7.67589,-29.2136
12.9339,17.8543,-22.6582,6.65017,-21.5811,0.405427,5.36925,-2.12057,0.48623,-7.18143,-2.834,0.179108,-10.69,-1.41705,0.334534,6.81678,6.58551,15.0196,-10.4385,8.33791,-22.9365,-2.40958,4.73099,-10.0333,-1.83565e-14,-7.25564e-15,-13.2327,-21.3566,-31.7164,34.4066,27.2186,-10.1425,16.7387,7.12502,15.8465,-12.6328,-1.83565e-14,-7.25564e-15,-15.8143,0.512818,27.4259,33.4876,12.186,-24.23,26.7358,7.12502,2.25523,56.7036,-11.9187,-7.97056,21.1804,24.4442,-20.077,8.33592,27.5164,-10.9781,-1.3221,-20.4123,21.8727,-16.6707,7.69925,-29.4654
12.9358,17.8525,-22.6522,6.24757,-21.7282,0.318562,5.57351,-2.03385,0.593903,-6.95888,-2.70367,0.144504,-10.57,-1.3624,0.22053,6.5732,6.61311,15.2584,-10.3849,8.38248,-22.9746,-2.32814,4.7331,-10.0716,-8.3179e-14,-1.14798e-14,-13.9634,-21.8648,-32.3518,33.939,27.3105,-6.1992,17.4333,7.12502,19.6409,-11.5945,-8.3179e-14,-1.14798e-14,-16.5394,0.238113,28.8205,33.5182,12.7849,-22.7135,26.5436,7.12502,3.71974,56.4909,-11.3569,-7.89288,21.1676,24.3486,-20.0706,8.31062,26.9258,-10.4729,-1.1958,-20.3731,21.8886,-16.7386,7.70258,-29.3805
12.937,17.852,-22.6487,6.04483,-21.9862,0.0103452,5.77282,-1.93273,0.914247,-6.8199,-2.53033,0.130668,-10.5494,-1.30236,0.00545149,6.58826,6.66904,15.4439,-10.5671,8.46777,-22.8681,-2.36155,4.76806,-10.0734,3.87413e-14,8.19987e-16,-14.7501,-22.5606,-32.8579,33.6772,27.8783,-1.9391,18.3962,7.12502,23.7318,-10.1586,3.87413e-14,8.19987e-16,-17.1369,0.630139,29.9698,33.3059,12.5711,-20.1087,24.7845,7.12502,6.23489,54.6727,-10.988,-7.32045,21.4093,24.3152,-20.0139,7.96062,26.3489,-10.0575,-1.10339,-20.1045,21.8455,-16.731,7.96353,-28.9309
12.9411,17.8483,-22.6435,5.66157,-22.0907,0.0825714,6.03866,-1.89767,0.97399,-6.72515,-2.48416,0.00356433,-10.6121,-1.2889,-0.163228,6.64551,6.73726,15.7422,-10.6206,8.59965,-22.8593,-2.34527,4.82672,-10.1241,3.54132e-14,1.52816e-15,-15.4324,-22.9908,-33.2476,33.4936,28.4403,2.03716,18.8663,7.12502,27.5401,-9.13922,3.54132e-14,1.52816e-15,-17.7978,0.779301,31.0091,33.2453,12.8263,-18.1694,23.6932,7.12502,8.10685,53.5177,-10.5572,-6.91652,21.2483,24.2933,-20.0664,7.71501,25.9549,-9.60728,-1.14947,-20.2254,21.8196,-16.5682,8.28288,-29.3051
12.9518,17.8466,-22.6344,5.15527,-21.8163,0.422534,6.17565,-2.00871,0.948924,-6.50527,-2.65255,-0.211098,-10.4613,-1.37641,-0.353314,6.67233,6.74904,15.9603,-10.809,8.62097,-22.8436,-2.38836,4.83294,-10.1662,5.72073e-14,3.49116e-15,-15.7252,-23.6998,-33.597,33.2646,29.2793,5.88629,19.6403,7.12502,31.215,-7.72003,5.72073e-14,3.49116e-15,-18.2891,0.889253,31.8349,33.1649,13.0844,-17.1423,23.4988,7.12502,9.09801,53.2826,-10.0537,-7.04461,20.7944,24.307,-20.0813,7.71644,26.0204,-9.18793,-1.25726,-20.6198,21.7902,-16.4771,8.22411,-30.3119
12.9646,17.8459,-22.6274,4.81332,-21.4532,0.536269,6.30141,-2.15008,1.1556,-6.31407,-2.83004,-0.358174,-10.3466,-1.48251,-0.598373,6.74698,6.6804,15.997,-11.0654,8.5168,-22.683,-2.50299,4.77931,-10.1364,-1.19892e-15,-1.14053e-14,-15.9063,-24.1489,-33.7566,33.2581,29.844,9.26831,20.4473,7.12502,34.432,-6.2395,-1.19892e-15,-1.14053e-14,-18.6086,1.04609,32.3917,32.9772,12.9478,-15.7486,23.2112,7.12502,10.4426,52.9319,-9.69647,-7.15469,20.6007,24.4004,-20.0093,7.56684,25.9536,-8.85749,-1.38507,-20.778,21.7081,-16.4383,8.10812,-30.9338
12.9761,17.8469,-22.6235,4.6778,-21.1905,0.553703,6.41316,-2.25585,1.37215,-6.29166,-2.95147,-0.407489,-10.4075,-1.55907,-0.749099,6.877,6.63094,15.9954,-11.1687,8.45874,-22.5813,-2.57328,4.75349,-10.1149,5.95391e-14,4.79568e-15,-15.9815,-23.8239,-33.6698,33.5406,29.5301,12.2368,20.9542,7.12502,37.2447,-5.04659,5.95391e-14,4.79568e-15,-18.9458,1.15034,32.8011,32.8194,12.7467,-14.4741,22.9776,7.12502,11.672,52.6325,-9.56395,-7.18023,20.5436,24.4955,-19.9597,7.36353,25.7236,-8.70403,-1.60437,-20.8207,21.6332,-16.4021,7.93475,-30.0656
12.987,17.851,-22.6182,4.69637,-21.01,0.621174,6.42174,-2.29997,1.50443,-6.37727,-2.9989,-0.426614,-10.5189,-1.59379,-0.833326,6.99954,6.59787,15.9456,-11.1841,8.42695,-22.5036,-2.61306,4.74225,-10.0878,6.1499e-14,1.0958e-14,-15.9419,-23.3837,-33.2995,33.9537,29.1289,14.9288,22.0864,7.12502,39.7847,-3.20427,6.1499e-14,1.0958e-14,-19.161,1.40386,33.0667,32.6175,12.3435,-13.5777,23.0275,7.12502,12.5362,52.6314,-9.61137,-7.32807,20.4343,24.5526,-19.8865,7.46412,25.93,-8.73792,-1.85327,-20.9237,21.5849,-16.4004,7.75137,-29.1036
12.9972,17.8576,-22.6135,4.72768,-20.8567,0.756165,6.43739,-2.31417,1.56674,-6.47884,-3.01576,-0.465399,-10.6489,-1.60976,-0.903608,7.00446,6.60777,15.8928,-11.1553,8.44794,-22.402,-2.61031,4.74962,-10.0417,-3.89525e-14,-1.60022e-14,-15.8023,-22.9159,-32.7421,34.4293,28.852,17.0017,22.893,7.12502,41.7323,-1.78612,-3.89525e-14,-1.60022e-14,-19.1147,1.74979,33.0867,32.3253,11.8794,-12.8071,23.3843,7.12502,13.2791,52.9413,-9.73415,-7.13248,20.2829,24.6153,-19.8895,7.19116,26.165,-8.82124,-1.78893,-21.0955,21.5082,-16.2905,7.60275,-29.7475
13.0059,17.8637,-22.609,4.83263,-20.6127,0.844475,6.34761,-2.37629,1.69988,-6.57724,-3.08983,-0.492223,-10.7178,-1.65863,-0.99601,6.87954,6.63592,15.9709,-11.0177,8.49525,-22.4565,-2.53265,4.76496,-10.0594,2.35731e-14,2.52829e-15,-15.3864,-22.6241,-32.1013,34.8336,28.7427,18.3807,23.1997,7.12502,43.0238,-1.03788,2.35731e-14,2.52829e-15,-18.893,1.80497,32.8277,32.0082,11.8961,-12.2949,23.6321,7.12502,13.7728,53.1562,-9.90724,-6.84871,20.212,24.6822,-19.919,6.63127,26.1442,-8.99673,-1.52571,-21.1857,21.4163,-16.1352,7.22332,-30.5636
13.0132,17.8666,-22.6054,4.97597,-20.3291,0.902933,6.04395,-2.51201,1.9006,-6.55643,-3.25871,-0.521909,-10.5331,-1.75743,-1.127,6.69725,6.63233,16.024,-10.7983,8.49179,-22.5888,-2.42874,4.75572,-10.0946,-9.69106e-14,-9.00743e-15,-14.4624,-22.8294,-31.5726,35.1609,28.9894,19.2826,23.5667,7.12502,43.8662,-0.365929,-9.69106e-14,-9.00743e-15,-18.5458,2.03006,32.2069,31.7972,12.1649,-12.28,23.5234,7.12502,13.7872,53.0465,-10.0637,-6.81766,20.1746,24.7107,-19.8916,6.28765,26.0163,-9.21343,-1.4264,-21.2327,21.3633,-16.0892,6.65678,-29.5929
13.0217,17.8696,-22.6066,5.08933,-20.047,0.966182,5.74631,-2.69804,2.10902,-6.47561,-3.494,-0.538088,-10.2896,-1.88708,-1.24054,6.68077,6.65015,15.7923,-10.7674,8.49666,-22.5087,-2.43249,4.76132,-10.0236,1.22532e-15,1.93815e-15,-13.1843,-23.0422,-31.0361,35.4674,29.2985,19.871,23.7611,7.12502,44.4149,0.0347303,1.22532e-15,1.93815e-15,-18.1015,2.80691,31.337,31.6889,12.1689,-13.0728,23.639,7.12502,13.023,53.2125,-10.1792,-6.73908,20.1412,24.7152,-19.883,5.89339,26.0219,-9.41193,-1.399,-21.2913,21.3536,-16.0944,6.17431,-28.4038
13.0343,17.8747,-22.609,5.25266,-19.7576,0.857425,5.65446,-2.84235,2.50947,-6.52957,-3.64927,-0.534651,-10.3316,-1.99348,-1.43901,6.95734,6.71155,15.6082,-11.0512,8.57755,-22.2514,-2.56971,4.81335,-9.92827,4.66305e-14,9.7156e-15,-12.0626,-23.0531,-30.2264,35.7269,29.5555,19.5892,23.6553,7.12502,44.1522,-0.170646,4.66305e-14,9.7156e-15,-17.5397,3.04436,30.3752,31.7131,12.2393,-14.0784,24.3418,7.12502,12.0535,53.9746,-10.3005,-6.85328,20.2712,24.704,-19.8672,5.59776,25.7037,-9.61752,-1.41767,-21.192,21.3716,-16.0139,5.98452,-28.8393
13.0441,17.8776,-22.6108,5.4016,-19.5798,0.827305,5.6055,-2.89959,2.7455,-6.61359,-3.7067,-0.562807,-10.4195,-2.04249,-1.59138,7.22609,6.58152,15.6145,-10.948,8.43891,-22.3111,-2.61222,4.75988,-9.96456,-5.70357e-14,-4.34841e-15,-11.0165,-23.2024,-29.2649,35.9003,29.9112,18.0284,23.2338,7.12502,42.6941,-1.11937,-5.70357e-14,-4.34841e-15,-16.8541,2.84153,29.2987,32.0641,12.3941,-15.5117,25.6214,7.12502,10.6712,55.3304,-10.4636,-7.09123,20.3147,24.6757,-19.8207,5.47382,24.9792,-9.82402,-1.46779,-21.1839,21.3898,-15.8182,6.04678,-29.9219
13.0472,17.8809,-22.6205,5.62294,-19.4384,0.8974,5.52257,-2.92886,2.74674,-6.72396,-3.75081,-0.575895,-10.497,-2.06724,-1.6,7.16696,6.59644,15.8542,-10.7952,8.49343,-22.4357,-2.52838,4.77977,-10.0378,-2.9973e-15,-2.08724e-15,-9.88564,-23.4289,-28.2107,35.8848,30.2106,15.4079,22.4313,7.12502,40.2355,-2.72324,-2.9973e-15,-2.08724e-15,-16.0874,3.06884,28.1171,32.5285,12.0223,-17.4211,26.7742,7.12502,8.82897,56.5695,-10.758,-6.93372,20.3227,24.655,-19.831,5.05334,24.619,-10.1607,-1.43717,-21.2312,21.3804,-15.6915,5.93424,-30.6754
13.0519,17.8909,-22.6333,5.97725,-19.273,0.90568,5.36561,-2.96163,2.84765,-6.86767,-3.79255,-0.595632,-10.5758,-2.0998,-1.67428,7.21504,6.61008,16.1101,-10.7567,8.54293,-22.6016,-2.49323,4.80548,-10.1398,-5.58057e-14,-5.19325e-15,-8.71568,-23.5382,-27.1879,35.6095,30.2036,11.4069,21.266,7.12502,36.4595,-4.9363,-5.58057e-14,-5.19325e-15,-15.3629,2.74044,26.831,33.2286,11.943,-18.653,27.0267,7.12502,7.64011,56.8687,-11.1644,-6.63536,20.407,24.6744,-19.9415,4.6059,25.229,-10.6079,-1.29469,-21.1929,21.3268,-15.7429,5.48523,-30.3773
13.0574,17.8989,-22.6363,6.10551,-19.3652,0.974716,5.29173,-2.91274,2.84893,-6.9048,-3.73165,-0.624297,-10.5715,-2.07279,-1.71752,7.403,6.5527,16.1989,-10.7985,8.47872,-22.7723,-2.5369,4.78913,-10.2294,-1.81702e-16,-3.85145e-15,-7.43104,-23.8481,-26.1668,35.0067,30.1514,6.26328,20.4103,7.12502,31.5742,-6.88012,-1.81702e-16,-3.85145e-15,-14.5906,2.0927,25.5062,33.9975,12.3878,-19.6221,26.7351,7.12502,6.70467,56.609,-11.38,-6.55471,20.3312,24.7199,-20.0304,4.57773,25.3999,-10.7381,-1.25124,-21.2811,21.2453,-15.7485,5.45836,-29.7849
13.0603,17.8994,-22.639,6.0486,-19.5525,1.0739,5.39868,-2.82201,2.68379,-6.89179,-3.62137,-0.607952,-10.6006,-2.0053,-1.61995,7.73522,6.47881,16.0092,-10.9944,8.37251,-22.704,-2.68645,4.75956,-10.2033,5.44422e-14,2.41275e-14,-6.10123,-24.3568,-25.1098,34.1675,30.2359,0.849763,19.5684,7.12502,26.404,-8.61289,5.44422e-14,2.41275e-14,-13.4325,2.78,24.1973,34.0759,11.6788,-20.2588,25.9711,7.12502,6.08994,55.8636,-11.4661,-6.68915,20.1965,24.7773,-19.992,4.80133,25.076,-10.6542,-1.33502,-21.4069,21.1619,-15.7753,5.7175,-29.8738
13.0617,17.9027,-22.6523,6.15049,-19.5124,1.07136,5.54899,-2.80661,2.57085,-6.9531,-3.6049,-0.563564,-10.7476,-1.98756,-1.50274,7.97937,6.43413,15.9906,-11.2006,8.32246,-22.5793,-2.80651,4.74412,-10.1816,-1.07167e-13,-2.53947e-14,-4.93965,-24.842,-24.2478,33.4409,30.4462,-4.70722,17.7933,7.12502,21.0747,-11.0815,-1.07167e-13,-2.53947e-14,-12.1116,3.90144,22.8465,33.8879,10.4383,-20.6235,25.312,7.12502,5.73783,55.2143,-11.6763,-6.70602,20.2232,24.8532,-19.9038,4.97092,26.1351,-10.8035,-1.32034,-21.3661,21.106,-15.7962,5.60554,-29.8117
13.0625,17.9085,-22.6699,6.33771,-19.4076,1.01113,5.72882,-2.7845,2.45025,-7.06121,-3.57977,-0.513177,-10.9643,-1.96536,-1.37325,7.82713,6.43037,16.4507,-11.0043,8.37408,-22.7366,-2.6816,4.75132,-10.2985,3.41351e-15,1.10574e-14,-4.16912,-25.1578,-23.3415,33.0848,30.4018,-9.72896,16.2079,7.12502,16.2446,-13.1315,3.41351e-15,1.10574e-14,-10.7311,4.38378,21.5722,33.6453,9.77681,-21.6508,24.9897,7.12502,4.74594,54.9166,-11.8993,-6.64111,20.3354,24.8804,-19.8737,5.03524,27.2599,-11.1016,-1.32786,-21.2485,21.1422,-15.6945,5.4627,-29.8104
13.0621,17.9079,-22.6836,6.55565,-19.4313,1.00842,5.79341,-2.71446,2.20817,-7.21043,-3.50345,-0.42775,-11.1444,-1.90721,-1.15114,7.62478,6.44154,16.7831,-10.6658,8.44449,-22.8464,-2.51298,4.7664,-10.3664,-2.16551e-14,9.34288e-15,-3.55572,-25.1787,-22.3337,32.9769,30.1466,-13.6688,15.682,7.12502,12.4484,-13.9273,-2.16551e-14,9.34288e-15,-9.42679,4.57191,20.484,33.096,9.50622,-23.8129,24.2177,7.12502,2.65808,54.1809,-12.1746,-6.78245,20.4061,24.8624,-19.8646,5.03511,26.4379,-11.4134,-1.37536,-21.2046,21.2165,-15.5879,5.41975,-30.2042
13.0582,17.9084,-22.6965,6.73007,-19.4685,0.919671,5.84432,-2.76673,1.99313,-7.35556,-3.57487,-0.18493,-11.3099,-1.91347,-0.752103,7.87341,6.5458,16.3797,-10.6528,8.59335,-22.588,-2.55769,4.85462,-10.2139,6.40832e-14,1.97791e-14,-2.54458,-25.2674,-21.7383,32.8904,30.5182,-16.6461,15.5468,7.12502,9.57679,-14.2155,6.40832e-14,1.97791e-14,-8.81392,4.43705,19.3845,32.7148,9.66186,-26.6353,23.2284,7.12502,-0.0678926,53.2081,-12.4271,-6.81491,20.5631,24.8795,-19.743,4.93817,25.2948,-11.6081,-1.51212,-21.0665,21.2379,-15.4833,5.29479,-29.2682
13.0519,17.9182,-22.7075,6.83782,-19.4023,0.823863,5.88177,-2.96485,1.74136,-7.4823,-3.83668,0.173194,-11.4399,-2.00114,-0.178999,8.41148,6.78418,15.6178,-10.7231,8.90698,-22.2685,-2.66654,5.04934,-9.99529,-4.70871e-15,0,-1.32906,-25.2676,-21.567,33.0044,31.2779,-18.8004,15.062,7.12502,7.49785,-14.7851,-4.70871e-15,0,-8.95367,3.35852,18.1878,32.7814,10.5515,-29.1336,22.7257,7.12502,-2.48072,52.6911,-12.6187,-6.8843,20.6915,24.925,-19.5174,5.13116,26.1712,-11.7442,-1.70046,-20.9201,21.2377,-15.4435,5.33095,-28.2968
13.0474,17.9274,-22.7117,6.9203,-19.3146,0.974075,5.88227,-2.81112,1.24896,-7.50907,-3.68155,0.199051,-11.4286,-1.88391,0.0979361,7.7251,6.75895,15.9688,-9.91577,8.93703,-22.3434,-2.28956,5.01275,-10.005,1.963e-15,-1.25234e-14,-1.5801,-25.6027,-20.7655,33.4648,31.8777,-20.5567,14.1591,7.12502,5.80234,-15.7415,1.963e-15,-1.25234e-14,-7.34114,4.29824,17.7441,31.9678,9.15932,-30.8038,22.2594,7.12502,-4.09367,52.1998,-12.8611,-7.34626,20.5509,25.0181,-19.4095,5.59575,26.8302,-11.8581,-1.91197,-21.0557,21.145,-15.3661,5.6222,-28.7733
13.0448,17.9297,-22.7151,7.01993,-19.2807,1.08581,5.78269,-2.71167,0.944016,-7.49779,-3.58625,0.157759,-11.335,-1.81538,0.201773,7.03164,6.75946,16.2656,-9.19516,8.98699,-22.2865,-1.94371,4.98239,-9.96597,-8.38002e-14,-5.56597e-15,-1.88073,-25.7707,-20.392,33.9969,32.2249,-22.2487,13.6165,7.12502,4.16866,-16.3225,-8.38002e-14,-5.56597e-15,-6.2515,4.27554,17.081,31.5629,8.51091,-32.3829,22.495,7.12502,-5.61841,52.4005,-13.0802,-7.64657,20.4505,25.1394,-19.4369,5.85014,26.2216,-11.9144,-2.08753,-21.1668,20.9797,-15.1584,5.85666,-29.5254
13.0397,17.9378,-22.7203,7.21054,-19.3077,1.0412,5.5284,-2.73445,0.892596,-7.49975,-3.62665,0.147213,-11.18,-1.83324,0.211416,7.03174,6.8397,16.1642,-9.10543,9.11967,-21.9706,-1.91623,5.03701,-9.83155,-6.05424e-14,-1.75924e-14,-1.97767,-25.4203,-20.5786,34.6181,31.8492,-23.7812,13.4209,7.12502,2.68871,-16.5419,-6.05424e-14,-1.75924e-14,-5.89574,4.13484,16.2665,31.5161,7.97685,-33.8207,22.705,7.12502,-7.00646,52.5691,-13.3237,-7.36895,20.4957,25.1463,-19.2798,5.96342,26.4336,-12.139,-2.07448,-21.1194,20.9954,-15.0006,6.13809,-30.9717
13.0353,17.9465,-22.7198,7.46696,-19.352,0.801329,5.23999,-2.8914,1.13887,-7.66031,-3.80762,0.263541,-11.1984,-1.93784,0.217011,8.07854,6.89149,15.7306,-9.57596,9.22747,-21.7029,-2.24904,5.14917,-9.74099,-4.34841e-14,-1.15295e-14,-1.85683,-24.3118,-21.1042,35.1629,31.0723,-25.2416,13.1006,7.12502,1.27822,-16.8753,-4.34841e-14,-1.15295e-14,-6.47044,3.7628,15.5034,31.8505,7.69882,-35.1638,23.0095,7.12502,-8.30285,52.8263,-13.4915,-7.33329,20.7329,24.9977,-18.957,6.29211,26.9601,-12.4373,-2.14367,-20.88,21.23,-15.0514,6.55736,-31.6674
13.033,17.938,-22.7139,7.7807,-19.433,0.292191,4.99868,-2.73312,1.56547,-7.43706,-3.55476,0.209344,-10.8287,-1.8535,-0.137303,6.99437,6.83195,16.2902,-9.18252,9.11596,-21.851,-1.93285,5.02513,-9.81368,-4.99446e-15,-1.82882e-14,-2.64717,-24.5305,-21.3164,35.5027,30.5911,-26.6166,12.6451,7.12502,-0.0497484,-17.3346,-4.99446e-15,-1.82882e-14,-5.92971,3.84154,15.2224,32.1692,7.50725,-36.0689,23.654,7.12502,-9.17631,53.4344,-13.4657,-7.71914,21.279,24.7708,-18.8513,6.59152,26.0593,-12.6904,-2.35192,-20.3528,21.5207,-15.217,6.82663,-30.074
13.029,17.9265,-22.709,7.94602,-19.5797,0.0864448,4.56937,-2.98381,1.84136,-7.58006,-3.86914,0.297289,-10.7521,-2.02759,-0.169414,8.39512,6.85802,15.7162,-9.73136,9.21146,-21.5107,-2.36376,5.1493,-9.69871,-9.97651e-15,9.44227e-15,-2.52028,-23.8737,-22.5543,35.6143,30.3795,-27.5454,13.4991,7.12502,-0.946813,-16.4786,-9.97651e-15,9.44227e-15,-7.20686,3.70202,14.5886,32.6165,7.13924,-36.6758,23.9358,7.12502,-9.76187,53.6896,-13.3746,-7.76576,21.502,24.5264,-18.8864,6.58691,24.7464,-12.9237,-2.52568,-20.133,21.8258,-15.3839,6.98412,-28.0713
13.025,17.9299,-22.7053,8.01478,-19.7655,0.0232334,4.24362,-3.20498,1.89605,-7.68369,-4.16456,0.380799,-10.6777,-2.17431,-0.0845963,9.23559,7.06293,15.0396,-9.8912,9.51927,-21.0193,-2.56178,5.34133,-9.46563,3.54458e-14,-5.26779e-15,-2.55023,-23.1845,-23.8377,35.7209,30.0565,-28.4618,15.2251,7.12502,-1.83195,-14.7468,3.54458e-14,-5.26779e-15,-8.44177,4.06205,14.283,32.8787,6.37169,-36.9613,23.5398,7.12502,-10.0373,53.2805,-13.3297,-7.67041,21.5465,24.3035,-18.7135,6.73843,25.3866,-13.0874,-2.61087,-20.0708,22.1063,-15.6478,7.14662,-27.0899
13.0214,17.9358,-22.7019,8.07808,-19.9743,-0.108712,4.10704,-2.75847,1.75428,-7.29357,-3.59982,0.0706961,-10.154,-1.90017,-0.436734,7.12061,6.93336,16.0853,-8.75946,9.35605,-21.0153,-1.85044,5.11728,-9.47663,-2.74245e-14,1.07903e-14,-4.48715,-23.6624,-23.9158,36.0032,29.1879,-29.8099,15.7746,7.12502,-3.1339,-14.1821,-2.74245e-14,1.07903e-14,-7.17731,4.53943,14.9247,32.8939,5.90884,-36.8765,22.5243,7.12502,-9.95548,52.2689,-13.3382,-7.68468,21.6642,24.2116,-18.5449,7.03702,26.4715,-13.1159,-2.77433,-19.9406,22.2042,-15.8181,7.4725,-26.7618
13.0173,17.9319,-22.6981,8.00955,-20.1708,-0.0762814,3.72222,-3.28941,1.71609,-7.46595,-4.30175,0.412189,-10.105,-2.22714,0.0224351,9.37492,7.18879,14.4858,-9.78425,9.69102,-20.3849,-2.59215,5.41763,-9.15934,-6.75868e-15,-3.67752e-15,-3.69871,-21.6294,-25.7742,36.0383,28.25,-30.5942,15.6571,7.12502,-3.8913,-14.2871,-6.75868e-15,-3.67752e-15,-9.98045,4.03786,14.6672,33.5009,6.0939,-36.684,21.3029,7.12502,-9.76974,51.0562,-13.3082,-7.59279,21.615,24.2705,-18.5528,7.25457,26.4411,-12.9422,-3.10489,-19.9797,22.1048,-15.7586,7.9812,-26.8108
13.0129,17.9219,-22.6939,7.82336,-20.4034,-0.0137623,3.5713,-3.42379,1.57426,-7.41766,-4.48938,0.51605,-9.9436,-2.30387,0.221766,9.86539,7.18531,13.7368,-9.76259,9.64566,-20.1529,-2.73421,5.42914,-8.98625,-1.7667e-14,-8.54774e-15,-4.24861,-20.1654,-26.789,36.3951,27.1404,-30.0684,15.5566,7.12502,-3.38353,-14.3963,-1.7667e-14,-8.54774e-15,-11.4416,4.04109,15.1221,33.8481,5.96171,-36.2294,20.6426,7.12502,-9.33113,50.4161,-13.1558,-7.41854,21.5259,24.3547,-18.6515,7.35567,26.2503,-12.6207,-3.19031,-20.0672,21.9765,-15.729,8.34076,-27.3719
13.0081,17.9148,-22.6883,7.5522,-20.7097,0.133668,3.60553,-3.30385,1.28804,-7.31272,-4.35312,0.476044,-9.82414,-2.21702,0.317544,9.45172,7.00676,13.6571,-9.10748,9.41229,-20.2715,-2.51497,5.29508,-8.96257,-4.91744e-14,-5.46658e-15,-5.48058,-19.2449,-27.3723,36.7708,26.4241,-28.909,15.7098,7.12502,-2.2638,-14.2579,-4.91744e-14,-5.46658e-15,-12.1785,3.66326,16.0034,34.0926,6.3894,-35.2891,20.8996,7.12502,-8.42383,50.7116,-12.9335,-7.2624,21.3303,24.3948,-18.7632,7.36062,26.6994,-12.2707,-3.00143,-20.2624,21.9232,-15.8183,8.44571,-27.4112
13.0056,17.9096,-22.6837,7.33649,-20.9029,0.0520597,3.6444,-3.19484,1.26736,-7.1583,-4.20295,0.499044,-9.67004,-2.14029,0.330216,8.92435,6.96043,13.6317,-8.63664,9.34568,-20.3076,-2.30099,5.23382,-8.92113,-4.61677e-14,-8.64713e-15,-6.41389,-19.7277,-28.1953,36.6516,26.863,-27.5363,15.9955,7.12502,-0.938027,-13.9822,-4.61677e-14,-8.64713e-15,-12.8595,3.27367,17.1756,34.3223,7.44785,-33.9668,21.6145,7.12502,-7.14748,51.4738,-12.6779,-7.07642,21.3865,24.4384,-18.9066,7.30504,27.587,-11.9364,-2.77893,-20.2031,21.8779,-15.933,8.34157,-27.2651
13.0055,17.8967,-22.6841,7.03057,-20.9875,-0.142474,3.84253,-3.10692,1.3959,-6.99853,-4.06237,0.564694,-9.61398,-2.07598,0.316735,8.50764,7.00868,13.5227,-8.32122,9.4004,-20.2276,-2.13996,5.23668,-8.83866,-2.70223e-14,3.77691e-15,-7.38939,-20.1317,-28.9136,36.5376,27.0999,-26.0558,15.6166,7.12502,0.491879,-14.3626,-2.70223e-14,3.77691e-15,-13.5698,3.15415,18.6508,34.4685,8.56432,-32.7957,22.5135,7.12502,-6.01695,52.408,-12.2558,-6.94355,21.5806,24.4835,-18.968,7.31794,28.6573,-11.4884,-2.49802,-20.0075,21.8208,-16.1108,8.03637,-27.1562
13.0053,17.8812,-22.6872,6.51621,-21.1309,0.0146098,4.18515,-3.03092,1.2006,-6.88513,-3.96964,0.564345,-9.67672,-2.01368,0.429041,8.52071,7.05154,13.2086,-8.21342,9.43668,-20.1625,-2.12561,5.25939,-8.76009,-9.20497e-14,-2.74323e-14,-8.38368,-20.0705,-29.5211,36.4205,27.1794,-24.5171,15.1169,7.12502,1.97793,-14.8537,-9.20497e-14,-2.74323e-14,-14.4985,2.67671,20.1692,34.6793,9.91547,-31.5767,24.0496,7.12502,-4.84003,53.9743,-11.7367,-7.00908,21.4049,24.451,-19.0121,7.37533,29.0311,-10.9724,-2.23105,-20.189,21.8527,-16.2079,7.94614,-27.5305
13.0058,17.8682,-22.6898,5.9814,-21.2763,0.119186,4.52699,-3.00373,1.16376,-6.72324,-3.93157,0.534185,-9.70044,-1.99079,0.426561,8.71981,7.08606,12.7909,-8.27093,9.44574,-20.0632,-2.2027,5.28087,-8.67074,-3.6067e-14,-2.38542e-15,-9.17806,-20.3227,-30.2517,36.076,27.7357,-22.4397,15.2919,7.12502,3.98418,-14.6506,-3.6067e-14,-2.38542e-15,-15.5049,2.45883,21.5247,34.9064,11.1736,-29.815,25.9203,7.12502,-3.1388,55.8769,-11.191,-7.06567,21.2659,24.3987,-19.3107,7.27738,28.6354,-10.4314,-2.0022,-20.3256,21.9087,-16.1509,8.07777,-28.8058
13.0068,17.8551,-22.6893,5.51798,-21.4463,0.0835075,4.74495,-2.97389,1.28755,-6.49177,-3.87474,0.523332,-9.5835,-1.97013,0.342404,8.73391,7.09463,12.6047,-8.23502,9.42944,-20.1729,-2.20153,5.28262,-8.67524,9.13664e-14,1.88845e-14,-9.82669,-20.278,-30.9612,35.6345,27.9515,-20.0591,15.5856,7.12502,6.28279,-14.3012,9.13664e-14,1.88845e-14,-16.4385,2.52148,22.8447,35.0405,12.1738,-28.0032,26.9591,7.12502,-1.38904,56.9343,-10.6714,-6.98296,21.2459,24.4144,-19.6633,7.11893,28.0906,-9.83778,-1.83072,-20.3244,21.8581,-16.1182,8.17736,-29.3777
13.0107,17.846,-22.6879,5.09307,-21.5832,0.228927,4.89044,-2.92503,1.23409,-6.32267,-3.81294,0.484872,-9.48151,-1.93629,0.324752,8.69163,7.06344,12.6353,-8.03474,9.39087,-20.4758,-2.12541,5.27024,-8.77052,-6.12505e-14,-7.95139e-16,-10.3974,-20.046,-31.5779,35.1264,27.7989,-17.7676,15.2853,7.12502,8.49458,-14.5239,-6.12505e-14,-7.95139e-16,-17.4184,2.03759,24.2144,35.2003,13.2493,-26.6072,26.8642,7.12502,-0.0406969,56.844,-10.263,-6.98845,21.0244,24.4672,-19.871,7.06035,27.2066,-9.30412,-1.6563,-20.5218,21.741,-16.1721,8.19031,-29.5606
13.0204,17.8408,-22.6853,4.61227,-21.5941,0.435994,5.13508,-2.87409,1.22113,-6.15187,-3.75067,0.354086,-9.44635,-1.90816,0.192689,8.37805,7.01336,13.0099,-7.62346,9.37276,-20.848,-1.91701,5.24459,-8.92358,-5.43428e-14,-1.61016e-14,-11.0301,-20.5991,-32.0931,34.5342,28.2413,-15.2697,15.1267,7.12502,10.9046,-14.5702,-5.43428e-14,-1.61016e-14,-18.0583,1.57915,25.504,35.0848,14.0306,-25.3775,26.5564,7.12502,1.147,56.5331,-9.82469,-7.17802,20.7046,24.5358,-19.9738,7.2511,26.9482,-8.76969,-1.41781,-20.7863,21.6073,-16.2758,8.03994,-30.0828
13.0311,17.8346,-22.679,4.15804,-21.6253,0.688213,5.30125,-2.83833,1.217,-5.9075,-3.71466,0.151106,-9.28969,-1.89642,-0.0243617,7.91795,6.98706,13.4472,-7.30967,9.37165,-21.1639,-1.70785,5.2175,-9.06532,-5.17089e-14,-1.78906e-15,-11.4778,-21.8161,-32.6237,33.8196,29.1917,-12.4459,16.0342,7.12502,13.6273,-13.4998,-5.17089e-14,-1.78906e-15,-18.3318,1.85828,26.5443,34.6287,14.0302,-23.8855,26.6951,7.12502,2.58791,56.6592,-9.45944,-7.27686,20.3236,24.6351,-20.0809,7.48707,27.2401,-8.28631,-1.2789,-21.1045,21.4376,-16.2687,8.03333,-30.7319
13.0395,17.8285,-22.6723,3.8434,-21.6348,0.821331,5.46488,-2.82367,1.27505,-5.7557,-3.69789,-0.0016557,-9.23461,-1.89646,-0.216734,7.85824,6.9295,13.5527,-7.24537,9.30622,-21.1873,-1.68445,5.1793,-9.08718,2.48357e-14,-8.24956e-15,-11.9449,-22.0539,-32.9711,33.2701,29.1299,-9.74283,16.8975,7.12502,16.2313,-12.4431,2.48357e-14,-8.24956e-15,-18.6245,2.07505,27.4023,34.1056,13.4854,-22.5313,26.5396,7.12502,3.89571,56.4838,-9.16568,-7.13806,20.0962,24.7217,-20.2986,7.46095,27.4302,-7.9091,-1.20462,-21.2901,21.2892,-16.2035,8.09953,-31.2557
13.0505,17.8276,-22.6697,3.60983,-21.4956,0.76566,5.86508,-2.8627,1.49278,-5.7967,-3.72698,-0.0498309,-9.53693,-1.92558,-0.361129,8.02163,6.90099,13.5849,-7.19169,9.30009,-21.0827,-1.70295,5.17866,-9.06516,2.40778e-14,-1.09332e-15,-12.504,-21.4367,-33.0487,32.94,28.4429,-7.60135,17.1711,7.12502,18.2924,-11.9888,2.40778e-14,-1.09332e-15,-19.0414,1.72687,28.219,33.5233,12.9856,-21.2596,25.4887,7.12502,5.12367,55.4067,-8.85043,-7.157,20.0672,24.7316,-20.3958,7.43641,27.6537,-7.61754,-1.16825,-21.2636,21.2513,-16.2511,7.95129,-31.3556
13.065,17.8285,-22.6716,3.45211,-21.2979,0.740414,6.16246,-2.95539,1.75087,-5.83257,-3.82421,-0.0987942,-9.77886,-1.99166,-0.524291,8.1689,6.97719,13.6221,-7.34995,9.41266,-20.9424,-1.7584,5.23848,-9.03586,7.42958e-15,-9.24349e-15,-12.6932,-21.4877,-33.1401,32.4979,28.402,-5.84648,17.5586,7.12502,19.9799,-11.4343,7.42958e-15,-9.24349e-15,-19.4385,1.45504,28.8932,33.0857,12.7975,-19.6567,24.2949,7.12502,6.67124,54.1698,-8.65667,-7.34106,20.0253,24.6703,-20.3258,7.39099,27.1901,-7.51278,-1.20156,-21.2645,21.3045,-16.2774,7.7183,-31.5098
13.0765,17.8312,-22.669,3.58292,-21.1901,0.572109,6.01489,-3.02662,2.15523,-5.82105,-3.88074,-0.100016,-9.71069,-2.04761,-0.75025,8.21732,7.06416,13.6911,-7.60441,9.51866,-20.8659,-1.81991,5.2933,-9.03159,3.46507e-14,5.76476e-15,-12.5731,-21.7913,-33.1667,32.0217,28.5003,-4.46545,17.9046,7.12502,21.3069,-10.9441,3.46507e-14,5.76476e-15,-19.7216,1.6003,29.3074,32.776,12.4952,-18.1712,23.7755,7.12502,8.10508,53.6001,-8.70161,-7.29281,20.1802,24.6068,-20.3504,7.23487,26.6548,-7.65494,-1.19001,-21.1251,21.3566,-16.1657,7.67934,-31.9344
13.0854,17.8381,-22.6636,3.85815,-21.1495,0.451624,5.71726,-3.084,2.47894,-5.90219,-3.92983,-0.063154,-9.64733,-2.09437,-0.897333,8.09634,7.16776,13.93,-7.56724,9.67918,-20.9748,-1.73981,5.36512,-9.09555,-3.32343e-14,-1.12313e-14,-12.3654,-21.8836,-33.0205,31.8369,28.5927,-3.52348,18.1159,7.12502,22.2115,-10.6279,-3.32343e-14,-1.12313e-14,-20.0019,1.76545,29.5214,32.4318,12.1262,-17.326,23.5907,7.12502,8.92075,53.3821,-8.93417,-7.18945,20.2926,24.5774,-20.3141,7.2806,27.0895,-7.93387,-1.13656,-21.037,21.3875,-16.1006,7.64147,-31.5455
13.0935,17.8421,-22.6624,3.94325,-21.1188,0.591069,5.56959,-3.06523,2.55159,-5.95175,-3.91065,-0.167398,-9.62707,-2.0957,-1.05746,7.82192,7.14957,14.3877,-7.3923,9.69497,-21.1628,-1.60406,5.35317,-9.21309,3.44767e-14,-8.54774e-15,-12.2431,-22.3851,-32.7065,31.815,28.945,-2.96181,18.2479,7.12502,22.7506,-10.4307,3.44767e-14,-8.54774e-15,-19.8647,1.81952,29.606,32.056,11.9029,-16.9796,23.342,7.12502,9.25506,53.1188,-9.10822,-7.0518,20.135,24.5671,-20.1787,7.16033,27.1418,-8.10411,-1.18961,-21.1981,21.4071,-16.2601,7.37453,-29.8523
13.0998,17.8451,-22.6611,4.03943,-21.0123,0.708818,5.46214,-3.05535,2.59842,-6.00671,-3.90313,-0.249805,-9.63354,-2.10004,-1.17591,8.08675,6.94629,14.0472,-7.56603,9.38668,-20.9734,-1.78553,5.21628,-9.12252,-1.72943e-14,-9.83984e-15,-11.9282,-22.9238,-32.2942,31.6528,29.3776,-3.03169,18.0697,7.12502,22.6836,-10.6171,-1.72943e-14,-9.83984e-15,-19.5824,2.04757,29.5129,31.7806,11.5307,-16.5708,23.3932,7.12502,9.64944,53.1522,-9.2614,-6.80802,20.0413,24.574,-20.1598,6.64482,26.5043,-8.27967,-1.2447,-21.3182,21.3934,-16.3259,7.05887,-28.3544
13.1069,17.85,-22.6609,4.2257,-20.7937,0.757361,5.30572,-3.12647,2.66122,-6.05432,-3.9939,-0.207259,-9.59925,-2.14787,-1.15973,8.04103,6.95426,13.7931,-7.69194,9.34869,-20.9026,-1.83761,5.20054,-9.05883,3.57067e-14,9.24349e-15,-11.2399,-23.4814,-31.795,31.5521,29.94,-3.39851,17.8866,7.12502,22.3315,-10.8429,3.57067e-14,9.24349e-15,-19.3694,2.36632,29.302,31.6567,11.4411,-16.4694,23.6059,7.12502,9.74732,53.3604,-9.45306,-6.51173,20.0486,24.5825,-20.2062,5.98785,25.8607,-8.56243,-1.1243,-21.3643,21.3857,-16.2168,6.76991,-28.1718
13.1159,17.8562,-22.662,4.46768,-20.57,0.71097,5.00883,-3.15968,2.84386,-5.99801,-4.02634,-0.167412,-9.37376,-2.17371,-1.23352,7.73088,6.95698,13.8763,-7.76997,9.30525,-21.1652,-1.7944,5.17347,-9.14725,-7.55879e-14,-1.33186e-14,-10.5577,-24.0988,-31.1364,31.7259,30.3048,-3.72325,17.9261,7.12502,22.0197,-10.8404,-7.55879e-14,-1.33186e-14,-18.7579,2.89807,28.9275,31.4063,11.2922,-17.3839,24.2392,7.12502,8.86491,54.033,-9.68528,-6.36698,20.13,24.5803,-20.1604,5.58889,25.6907,-8.86842,-1.01609,-21.3262,21.4111,-16.2451,6.59154,-28.6856
13.1248,17.8621,-22.6637,4.76513,-20.3294,0.59363,4.71991,-3.21609,3.10287,-5.98619,-4.0849,-0.130522,-9.21075,-2.21819,-1.34739,7.6918,6.87827,13.8913,-7.9816,9.1531,-21.3676,-1.86309,5.10726,-9.22752,-6.13126e-14,-2.78299e-15,-9.91015,-24.089,-30.5,32.1674,30.1768,-4.2459,17.7604,7.12502,21.5178,-11.0644,-6.13126e-14,-2.78299e-15,-18.1078,3.11867,28.3265,31.2448,11.2808,-18.9776,25.6823,7.12502,7.32679,55.5354,-9.96802,-6.52535,20.2734,24.5861,-20.1582,5.52363,25.8282,-9.21747,-0.913023,-21.2125,21.4302,-16.2697,6.37048,-29.5993
13.1326,17.8641,-22.6681,4.93029,-20.0513,0.689619,4.59962,-3.31224,3.10208,-6.02653,-4.21828,-0.124759,-9.19091,-2.28396,-1.32859,7.71163,6.89832,14.0293,-8.29643,9.14868,-21.5185,-1.94013,5.1141,-9.31513,-9.83736e-14,-2.54444e-14,-9.1536,-23.9984,-29.8459,32.6961,30.117,-4.80077,17.645,7.12502,20.9848,-11.2398,-9.83736e-14,-2.54444e-14,-17.6279,2.84459,27.6299,31.5206,11.8535,-20.0866,26.7705,7.12502,6.25621,56.6581,-10.1673,-6.51603,20.2166,24.584,-20.3201,5.15299,25.543,-9.54242,-0.794063,-21.3014,21.4527,-16.1774,5.89707,-29.6134
13.1398,17.8655,-22.6738,5.01475,-19.8223,0.892488,4.53231,-3.40108,2.9635,-6.06275,-4.35129,-0.108295,-9.18496,-2.33967,-1.21955,7.69949,6.99062,14.1436,-8.71727,9.22482,-21.6577,-2.02798,5.16119,-9.39531,3.98315e-14,9.54166e-15,-8.22272,-24.2021,-29.0485,33.0884,30.3088,-5.51801,17.7645,7.12502,20.2956,-11.1951,3.98315e-14,9.54166e-15,-17.1682,3.11042,26.7968,31.9099,11.6515,-20.1353,26.7477,7.12502,6.20922,56.6367,-10.3198,-6.34733,20.0501,24.5655,-20.4214,4.59476,25.1938,-9.79436,-0.685884,-21.4962,21.4929,-16.0901,5.41947,-29.0312
13.1447,17.8695,-22.6836,5.16248,-19.7042,0.814228,4.57979,-3.47024,3.03873,-6.09667,-4.42608,0.017868,-9.25015,-2.37669,-1.11348,7.60805,7.08716,14.0436,-8.93606,9.29754,-21.7996,-2.05674,5.20523,-9.42739,7.8023e-15,-7.55382e-15,-7.1897,-24.2818,-28.1861,33.389,30.3637,-6.62368,17.4221,7.12502,19.2327,-11.6469,7.8023e-15,-7.55382e-15,-16.6333,3.55778,25.8542,32.1855,11.0609,-19.7283,26.2905,7.12502,6.60214,56.1676,-10.4677,-6.14164,20.1712,24.5416,-20.3303,4.28048,25.6057,-9.99625,-0.574169,-21.3952,21.5265,-16.0476,5.23568,-29.5854
13.1506,17.8736,-22.6962,5.38616,-19.6019,0.563372,4.78394,-3.5251,3.28534,-6.20107,-4.45714,0.180771,-9.49597,-2.40397,-1.05517,7.42287,7.13378,13.9985,-8.92756,9.32218,-22.0381,-2.00542,5.21907,-9.48827,9.7156e-15,-5.96354e-15,-6.13998,-24.2399,-27.3156,33.4902,30.2022,-7.97689,17.0708,7.12502,17.9311,-12.1226,9.7156e-15,-5.96354e-15,-16.1079,3.34084,24.8439,32.5515,11.1238,-19.8327,25.9682,7.12502,6.50134,55.8484,-10.634,-5.96455,20.4592,24.4989,-20.201,4.18205,26.5565,-10.2478,-0.711381,-21.1156,21.5673,-16.0569,5.28016,-29.8042
13.1593,17.8776,-22.7093,5.62032,-19.3927,0.515541,4.98574,-3.41775,3.41286,-6.45812,-4.30024,0.0928482,-9.91141,-2.34629,-1.21635,7.6082,6.8734,14.5558,-8.91173,9.03258,-22.3276,-2.04265,5.08101,-9.70182,-2.4699e-14,6.95746e-15,-5.88246,-24.3186,-26.0778,33.3809,29.9259,-9.66241,17.0859,7.12502,16.3087,-12.2483,-2.4699e-14,6.95746e-15,-15.0159,2.44396,23.8386,32.8278,11.361,-20.5913,25.5739,7.12502,5.76896,55.4754,-10.88,-6.101,20.5313,24.4633,-20.2143,4.1821,26.6865,-10.5972,-0.899598,-21.0473,21.604,-16.0673,5.11483,-28.6905
13.1646,17.8795,-22.7234,5.7417,-19.244,0.614593,5.1936,-2.90687,3.28375,-6.79981,-3.65142,-0.30672,-10.399,-2.04878,-1.64039,8.33968,6.06476,16.0496,-8.83284,8.16469,-22.8326,-2.22162,4.66688,-10.2013,-1.69712e-14,-2.48481e-15,-7.25714,-24.328,-23.902,33.3309,29.3143,-11.4673,16.8788,7.12502,14.5703,-12.5894,-1.69712e-14,-2.48481e-15,-12.5604,1.3853,23.1565,32.5609,10.9997,-21.5142,25.2928,7.12502,4.87788,55.2167,-11.0981,-6.19946,20.4562,24.4852,-20.2215,4.11448,26.3847,-10.84,-0.973005,-21.1337,21.5821,-15.8944,4.99635,-28.1624
13.1655,17.8792,-22.732,5.67063,-19.2827,0.73462,5.51034,-3.20406,3.15674,-6.56923,-4.0389,-0.139801,-10.3318,-2.2135,-1.32431,7.3465,6.55407,15.1865,-8.88046,8.61888,-22.6685,-2.01786,4.85787,-9.92584,-1.43498e-14,1.61016e-14,-5.0222,-24.6779,-24.0537,32.832,29.1144,-12.9137,16.5122,7.12502,13.1764,-13.0515,-1.43498e-14,1.61016e-14,-12.1398,2.83612,21.8339,32.1193,10.2171,-22.4533,25.2492,7.12502,3.97107,55.1919,-11.1311,-6.13099,20.3167,24.5491,-20.1216,4.21317,26.7636,-10.8046,-1.28415,-21.2565,21.5186,-15.7824,5.22823,-27.6935
13.1642,17.8827,-22.7364,5.6867,-19.3016,0.828723,5.73316,-2.86903,2.90982,-6.25419,-3.62146,-0.344181,-10.0858,-1.99464,-1.46768,5.11045,6.52687,15.9035,-7.94795,8.51277,-22.8685,-1.33842,4.65849,-9.97231,6.52262e-16,-5.36719e-15,-4.9281,-26.3051,-22.9979,32.461,29.4725,-13.9418,15.734,7.12502,12.1852,-13.8911,6.52262e-16,-5.36719e-15,-9.65266,3.74744,21.2805,31.3673,9.43945,-23.4131,24.9027,7.12502,3.0442,54.8607,-11.2231,-6.22995,20.2106,24.5799,-20.0393,4.53383,27.3167,-10.8496,-1.66035,-21.3362,21.4909,-15.8478,5.38874,-26.8686
13.1609,17.8877,-22.7443,6.02405,-19.2343,0.749508,5.47941,-3.26997,2.88093,-6.81493,-4.13726,0.0961554,-10.5512,-2.23414,-0.89687,7.20657,6.62635,14.8158,-8.50723,8.71231,-22.6505,-1.88996,4.89972,-9.82928,1.21259e-14,1.59028e-15,-3.00591,-25.5,-23.1933,31.9587,30.1913,-14.5348,15.2125,7.12502,11.6134,-14.4457,1.21259e-14,1.59028e-15,-10.6044,4.00477,20.1175,30.9566,8.72462,-24.028,24.2586,7.12502,2.45031,54.2243,-11.6065,-6.25514,20.3604,24.5867,-19.9993,4.56208,27.4663,-11.21,-1.78246,-21.1971,21.464,-15.8005,5.23084,-26.3737
13.1579,17.896,-22.7519,6.40169,-19.1395,0.565067,5.29561,-3.41627,2.80004,-7.14923,-4.31799,0.452855,-10.7875,-2.30429,-0.440726,7.80109,6.75896,14.3645,-8.36342,8.92982,-22.584,-1.93847,5.04585,-9.74841,2.93207e-15,-2.26615e-14,-2.05022,-24.9304,-22.8358,31.7719,30.4508,-14.5376,15.4183,7.12502,11.6107,-14.2401,2.93207e-15,-2.26615e-14,-10.6654,4.08773,19.3941,30.5543,8.06883,-24.4846,23.943,7.12502,2.00933,53.9133,-12,-6.00605,20.6247,24.6412,-19.9517,4.15324,26.7624,-11.5363,-1.80062,-20.9553,21.3782,-15.6766,5.02137,-25.8242
13.1551,17.911,-22.7557,6.60618,-19.0989,0.504409,5.205,-3.4574,2.61016,-7.28124,-4.38142,0.618841,-10.853,-2.314,-0.148952,7.84399,6.88429,14.1573,-8.22879,9.11947,-22.3162,-1.89749,5.13436,-9.61263,2.06985e-14,1.15295e-14,-1.6946,-24.5114,-22.5177,31.902,30.54,-14.3922,15.3411,7.12502,11.7509,-14.3093,2.06985e-14,1.15295e-14,-10.2718,4.05105,18.8591,30.1945,7.51813,-25.6518,24.2431,7.12502,0.882017,54.221,-12.258,-5.92609,20.7053,24.7109,-19.8133,4.02522,25.8982,-11.7052,-1.74437,-20.8738,21.3117,-15.6181,5.06138,-26.2013
13.1518,17.9175,-22.7573,6.65917,-19.194,0.736046,5.11669,-3.30365,2.14062,-7.23075,-4.2353,0.500468,-10.7075,-2.21185,-0.0465402,7.21852,6.84197,14.3874,-7.85876,9.09336,-22.0406,-1.69305,5.0654,-9.51068,4.2043e-14,5.76476e-15,-2.08277,-24.4981,-22.1696,32.2562,30.5339,-14.1972,14.7049,7.12502,11.939,-14.9347,4.2043e-14,5.76476e-15,-9.2472,4.09211,18.5672,29.8657,7.14362,-27.4414,25.0222,7.12502,-0.846366,55.0003,-12.4957,-6.25231,20.4495,24.7757,-19.534,4.54223,25.9282,-11.8219,-1.79016,-21.1177,21.2615,-15.5156,5.37234,-27.1223
13.1508,17.9138,-22.7584,6.77337,-19.2849,0.826121,5.01574,-2.81603,1.81152,-6.90733,-3.64197,0.136287,-10.269,-1.91316,-0.358221,4.95066,6.69229,15.6782,-6.71236,8.91295,-22.1784,-0.938102,4.81261,-9.63034,-2.6662e-14,-5.56597e-15,-3.66257,-25.3559,-21.335,32.7125,30.4102,-13.8675,14.3273,7.12502,12.2568,-15.2935,-2.6662e-14,-5.56597e-15,-7.07604,4.03426,18.6902,29.5973,6.89648,-28.7549,25.922,7.12502,-2.11495,55.8913,-12.7462,-6.53989,20.3477,24.8555,-19.2409,5.06566,26.4327,-11.9622,-2.04108,-21.214,21.1951,-15.3224,5.81527,-27.8223
13.1498,17.9212,-22.7574,7.10484,-19.3116,0.539971,4.61439,-3.38734,2.12453,-7.37331,-4.355,0.608177,-10.5575,-2.26804,0.0677445,7.20745,7.04661,14.4539,-7.56724,9.44108,-21.7518,-1.55609,5.21982,-9.40179,1.09332e-14,1.13307e-14,-2.27178,-23.7676,-22.5846,32.7867,30.5431,-13.6497,14.9219,7.12502,12.4668,-14.6863,1.09332e-14,1.13307e-14,-9.47345,3.11172,17.8257,29.9956,6.79179,-28.8288,25.8571,7.12502,-2.18636,55.8257,-13.043,-6.57579,20.6529,24.8954,-19.0603,5.38883,27.2515,-12.2306,-2.20736,-20.9089,21.2065,-15.2668,6.12338,-28.3685
13.1471,17.9274,-22.75,7.39609,-19.3807,0.35761,4.31022,-3.31933,2.24193,-7.42583,-4.26064,0.60733,-10.4406,-2.23391,-0.0289152,6.92679,7.11391,14.6352,-7.423,9.55451,-21.5751,-1.44598,5.24871,-9.34861,-8.36138e-14,-2.5842e-14,-2.89054,-23.7727,-22.9002,33.0928,30.5719,-13.5497,15.4075,7.12502,12.5633,-14.1948,-8.36138e-14,-2.5842e-14,-9.59828,2.42772,17.8357,30.3318,6.62729,-28.0988,24.8997,7.12502,-1.48132,54.8743,-13.2538,-6.7192,20.844,24.8368,-18.988,5.76094,27.4752,-12.5025,-2.30407,-20.7283,21.3267,-15.2994,6.4204,-29.2679
13.1442,17.9209,-22.7381,7.55508,-19.4806,0.354136,4.02777,-2.70612,2.11842,-7.02159,-3.48781,0.143896,-9.82015,-1.86586,-0.58983,4.49658,6.88726,16.0646,-6.51416,9.20295,-21.7694,-0.751258,4.9105,-9.51637,-3.72721e-16,1.98785e-15,-5.25545,-24.9261,-22.4193,33.6745,30.1991,-13.4686,15.159,7.12502,12.6415,-14.4384,-3.72721e-16,1.98785e-15,-7.62562,2.43696,18.5712,30.4417,6.08536,-27.4741,24.4885,7.12502,-0.877985,54.4664,-13.3402,-6.99984,20.848,24.7393,-18.9697,6.12029,27.1957,-12.6854,-2.37456,-20.738,21.4584,-15.3958,6.5738,-29.2151
13.1408,17.9193,-22.7279,7.6672,-19.5691,0.295834,3.59794,-3.10578,2.27,-7.23867,-4.00607,0.400231,-9.81487,-2.123,-0.351726,6.27433,7.06259,14.9743,-7.4952,9.44537,-21.4158,-1.36509,5.14883,-9.3239,-2.85256e-14,4.57205e-15,-4.83288,-23.2807,-23.8124,34.0326,29.4119,-13.3416,14.7014,7.12502,12.7639,-14.8885,-2.85256e-14,4.57205e-15,-9.84429,2.22938,18.5049,30.9493,5.64543,-26.6175,24.2538,7.12502,-0.050697,54.2335,-13.3846,-7.12683,20.9151,24.678,-18.9524,6.27692,27.405,-12.7875,-2.3237,-20.6887,21.5675,-15.5587,6.63896,-28.6981
13.137,17.9186,-22.723,7.5992,-19.6964,0.200043,3.6551,-2.71898,2.1522,-6.88739,-3.51168,0.133911,-9.45276,-1.87941,-0.640472,4.45637,6.97434,15.8166,-6.74078,9.2786,-21.4868,-0.822469,4.94596,-9.37928,-4.55776e-14,-3.67752e-15,-6.79177,-23.6673,-23.8641,34.5336,28.5752,-13.2209,14.4788,7.12502,12.8802,-15.1038,-4.55776e-14,-3.67752e-15,-9.07399,2.16001,19.457,31.2111,5.86974,-25.6011,24.2735,7.12502,0.931061,54.2512,-13.2355,-7.11663,21.0075,24.5982,-18.9456,6.26379,27.2565,-12.6784,-2.35895,-20.6089,21.7013,-15.6936,6.9412,-28.6843
13.1327,17.9081,-22.7203,7.37054,-19.8731,0.212997,3.56102,-3.14983,2.10669,-7.08679,-4.07735,0.425438,-9.61123,-2.14289,-0.234928,6.54482,7.12657,14.6292,-7.68221,9.51745,-21.1329,-1.48628,5.19887,-9.18907,-3.74461e-14,-8.74653e-15,-6.45166,-21.9959,-25.504,34.7766,28.0759,-12.8914,15.0329,7.12502,13.1979,-14.5294,-3.74461e-14,-8.74653e-15,-11.718,1.63067,19.9519,31.7499,6.91182,-25.2896,25.1169,7.12502,1.23187,55.0931,-12.9537,-7.10653,20.9857,24.5184,-18.9904,6.21268,26.5824,-12.4201,-2.41214,-20.6408,21.8061,-15.84,7.07549,-27.6611
13.1271,17.8991,-22.7158,7.21759,-20.149,0.0773835,3.51763,-3.30068,2.13074,-7.08468,-4.26585,0.603234,-9.57598,-2.22921,-0.0401096,7.21337,7.19831,14.1261,-8.02084,9.58985,-21.0842,-1.71395,5.28343,-9.13458,-3.68994e-14,5.96354e-16,-6.81821,-21.0705,-26.7736,35.0574,27.6886,-12.0939,15.4393,7.12502,13.9665,-14.0715,-3.68994e-14,5.96354e-16,-13.3585,1.41124,20.8447,31.896,7.77591,-25.1317,25.5394,7.12502,1.3844,55.5146,-12.7192,-6.98781,21.1142,24.4914,-19.0982,6.22637,25.9424,-12.1552,-2.32598,-20.5301,21.8566,-15.963,7.2325,-27.2243
13.1213,17.8932,-22.7116,6.89225,-20.4777,-0.0158662,3.73969,-3.19858,2.12531,-6.97517,-4.12577,0.558075,-9.58635,-2.16014,-0.0927726,7.10715,7.07927,14.2836,-7.83683,9.44712,-21.224,-1.65344,5.20547,-9.19975,4.57702e-14,8.54774e-15,-8.13449,-20.0239,-27.5721,35.5452,26.7347,-11.3217,15.0945,7.12502,14.7106,-14.3636,4.57702e-14,8.54774e-15,-14.1944,1.13847,22.0201,31.9231,8.51413,-25.1446,25.7801,7.12502,1.37188,55.7554,-12.3114,-6.77029,21.168,24.4703,-19.2876,6.21945,25.7187,-11.7045,-2.24615,-20.4721,21.911,-16.1135,7.53184,-27.5969
13.1188,17.8833,-22.7105,6.38356,-20.7227,0.175995,4.02955,-3.10516,1.81222,-6.78624,-4.02358,0.490744,-9.5277,-2.0873,0.0059725,6.73181,6.97959,14.3421,-7.42986,9.31965,-21.3852,-1.48518,5.12093,-9.23241,-1.91753e-13,-3.04141e-14,-9.30799,-19.2303,-28.3412,35.8307,25.9454,-10.7007,14.7869,7.12502,15.3088,-14.6265,-1.91753e-13,-3.04141e-14,-15.0178,1.06025,23.4969,31.9584,9.18608,-25.34,26.3164,7.12502,1.18319,56.2929,-11.8175,-6.76136,20.9176,24.4398,-19.4953,6.33664,26.3931,-11.1988,-2.05368,-20.7035,21.9528,-16.2851,7.58589,-27.5157
13.1198,17.8739,-22.7096,6.10335,-20.8782,0.193799,4.11292,-3.07796,1.68817,-6.62593,-3.98948,0.552687,-9.38509,-2.05751,0.133783,6.6495,6.96767,14.0708,-7.36364,9.27036,-21.433,-1.47299,5.09899,-9.19669,2.41026e-14,3.97569e-15,-10.0659,-19.1358,-29.1966,35.7002,25.8805,-9.93979,14.9677,7.12502,16.0416,-14.3882,2.41026e-14,3.97569e-15,-16.0796,1.11584,25.0789,31.9944,9.48875,-24.8435,26.345,7.12502,1.66275,56.3183,-11.5365,-6.82817,20.8688,24.4758,-19.6292,6.46914,26.9219,-10.8684,-1.73501,-20.7441,21.8914,-16.3091,7.47166,-27.7083
13.1206,17.8639,-22.7055,5.75562,-21.003,0.229409,4.21808,-2.99867,1.59717,-6.46327,-3.88848,0.533505,-9.26092,-2.00088,0.150632,6.74516,6.91028,13.9565,-7.39768,9.18395,-21.4237,-1.52183,5.06399,-9.1832,-7.93896e-14,-1.17283e-14,-11.0221,-19.1531,-29.8936,35.4592,26.0045,-9.19839,15.3932,7.12502,16.7555,-13.9038,-7.93896e-14,-1.17283e-14,-17.0157,0.612611,26.6194,32.1592,10.062,-23.9078,25.8999,7.12502,2.56639,55.8642,-11.1749,-6.57931,20.8005,24.5683,-19.8408,6.15862,26.5023,-10.4055,-1.33105,-20.806,21.7474,-16.2427,7.33224,-29.026
13.1216,17.8539,-22.702,5.23338,-21.0915,0.527941,4.47191,-2.99506,1.27915,-6.30985,-3.91105,0.465222,-9.22463,-1.99052,0.266241,6.67805,6.91913,13.8424,-7.22678,9.20054,-21.4089,-1.46591,5.06767,-9.14851,4.4652e-14,1.45113e-14,-11.5895,-19.5931,-30.7356,34.9851,26.7349,-8.2717,16.0687,7.12502,17.6474,-13.1504,4.4652e-14,1.45113e-14,-18.0225,0.286264,27.9776,32.2026,10.5699,-22.7914,24.922,7.12502,3.64454,54.8706,-10.6846,-6.28921,20.4429,24.5928,-20.1232,5.79318,26.0415,-9.87461,-0.939929,-21.1365,21.6596,-16.2571,7.19524,-30.3215
13.1253,17.8481,-22.7001,4.86311,-21.1438,0.668949,4.73676,-3.09101,1.16878,-6.23452,-4.04298,0.495009,-9.29006,-2.0442,0.388596,6.68594,7.01051,13.4819,-7.19347,9.297,-21.3187,-1.46422,5.12002,-9.05276,2.33075e-14,3.97569e-15,-11.903,-19.5323,-31.5992,34.6665,27.0346,-6.96495,16.6295,7.12502,18.9045,-12.4719,2.33075e-14,3.97569e-15,-19.0783,0.821331,29.1673,31.8978,10.1839,-21.6311,24.1877,7.12502,4.765,54.1142,-10.3105,-6.11818,20.247,24.58,-20.2852,5.71268,26.3494,-9.49108,-0.798543,-21.2942,21.611,-16.3438,7.02858,-29.8304
13.1317,17.8425,-22.6974,4.58815,-21.172,0.504214,4.98409,-3.09169,1.44835,-6.07729,-4.01688,0.439249,-9.28899,-2.05045,0.180245,6.50203,7.00587,13.454,-7.16999,9.27812,-21.2141,-1.43657,5.09778,-9.00304,4.79816e-14,1.39149e-14,-12.5926,-19.4051,-32.2412,34.5147,27.002,-5.58659,16.9589,7.12502,20.2297,-12.0077,4.79816e-14,1.39149e-14,-19.5982,0.878367,30.3141,31.7363,10.2355,-20.5071,24.2212,7.12502,5.85026,54.1204,-9.94921,-6.00915,20.3588,24.6028,-20.3113,5.75885,26.8316,-9.06392,-0.760382,-21.146,21.5342,-16.5274,6.7456,-28.3325
13.1414,17.8349,-22.6944,4.27476,-21.1402,0.358361,5.29435,-3.08034,1.78069,-5.89915,-3.97541,0.280688,-9.31373,-2.05606,-0.165239,6.29786,6.96698,13.6685,-7.17397,9.2339,-21.0696,-1.40737,5.05592,-8.98235,-1.3331e-14,-7.15625e-15,-13.1465,-20.4339,-32.8207,33.9955,28.1309,-4.34898,17.4546,7.12502,21.4188,-11.3815,-1.3331e-14,-7.15625e-15,-19.8452,0.689227,31.2684,31.6152,10.3284,-19.0964,24.0257,7.12502,7.21207,53.8828,-9.54508,-6.11882,20.4294,24.6148,-20.3258,5.86723,26.7429,-8.62036,-0.766532,-21.0351,21.4924,-16.6175,6.56799,-27.3137
13.1502,17.8309,-22.6892,3.91192,-21.1685,0.467723,5.62365,-3.081,1.83209,-5.82135,-3.97625,0.12924,-9.4392,-2.06383,-0.337113,6.32241,6.94387,13.8255,-7.23389,9.21655,-20.9977,-1.42761,5.0436,-8.98923,-5.15722e-14,-5.96354e-16,-13.608,-20.8474,-33.1856,33.6627,28.6786,-3.35268,17.4946,7.12502,22.3755,-11.2296,-5.15722e-14,-5.96354e-16,-20.2017,0.980729,31.9772,31.3979,9.60732,-17.5464,23.3073,7.12502,8.70804,53.1077,-9.17819,-6.22624,20.2234,24.6067,-20.4221,5.91039,26.0562,-8.26204,-0.730146,-21.1992,21.5041,-16.5334,6.70734,-27.822
13.1571,17.8304,-22.6819,3.64678,-21.1926,0.630227,5.82746,-3.07763,1.81671,-5.80253,-3.98165,-0.0211333,-9.55023,-2.07052,-0.47562,6.31593,6.91058,14.0711,-7.15629,9.20361,-21.0367,-1.39209,5.03121,-9.04163,-1.13059e-15,-7.45443e-15,-13.9829,-21.0327,-33.3714,33.418,28.6755,-2.4801,17.5735,7.12502,23.2128,-11.0476,-1.13059e-15,-7.45443e-15,-20.5684,1.27165,32.4727,31.4194,9.08055,-16.1811,22.7116,7.12502,10.0254,52.4528,-8.92461,-6.28468,19.9769,24.6021,-20.5132,5.94249,25.365,-8.03223,-0.589034,-21.4055,21.5185,-16.4896,6.78017,-28.8432
13.1647,17.8283,-22.677,3.58478,-21.064,0.654249,5.90043,-3.10828,1.95812,-5.82408,-4.01739,-0.140364,-9.63895,-2.1025,-0.669962,6.27538,6.86011,14.3018,-7.11592,9.1591,-21.0292,-1.37048,5.0009,-9.07662,-7.35503e-15,-7.65321e-15,-14.0724,-22.2512,-33.4287,33.0022,29.3526,-1.79608,18.1173,7.12502,23.869,-10.4195,-7.35503e-15,-7.65321e-15,-20.7354,1.40522,32.8408,31.5642,9.1737,-15.6572,22.7316,7.12502,10.5309,52.4478,-8.83182,-6.29991,19.9218,24.5878,-20.5381,5.84251,25.0541,-7.9993,-0.569853,-21.4481,21.532,-16.4598,6.67822,-29.0215
13.1713,17.8298,-22.677,3.63942,-20.9434,0.530396,5.91839,-3.06307,2.1752,-5.80937,-3.93972,-0.212759,-9.65293,-2.08248,-0.878035,6.07101,6.76855,14.5498,-7.04384,9.04432,-21.0438,-1.32269,4.92752,-9.11487,3.14515e-14,5.36719e-15,-14.2115,-23.0545,-33.2082,32.9059,29.3613,-1.63298,18.254,7.12502,24.0254,-10.2623,3.14515e-14,5.36719e-15,-20.4253,1.21428,33.1979,31.5741,9.73073,-16.5155,22.9984,7.12502,9.70277,52.7549,-8.84372,-6.05717,20.0619,24.5913,-20.4924,5.53498,25.2414,-8.03467,-0.630608,-21.3262,21.5204,-16.4396,6.7121,-29.6309
13.1764,17.8356,-22.6756,3.83745,-20.8875,0.370902,5.75975,-2.96527,2.38304,-5.80283,-3.79383,-0.252285,-9.5638,-2.02774,-1.06575,5.68728,6.71108,14.7638,-6.7184,8.98629,-21.0347,-1.16551,4.86965,-9.12034,7.80975e-14,9.0944e-15,-14.2764,-23.1877,-32.8104,33.0198,28.9154,-1.80255,17.7621,7.12502,23.8628,-10.7756,7.80975e-14,9.0944e-15,-19.8592,1.39918,33.3129,31.4739,9.70382,-17.4088,23.0272,7.12502,8.84083,52.822,-9.01125,-5.88368,20.2319,24.6302,-20.4591,5.42391,25.669,-8.17498,-0.662629,-21.1768,21.4726,-16.3672,6.86871,-30.769
13.1838,17.8394,-22.6672,4.02702,-20.7484,0.594889,5.39075,-2.96645,2.30368,-5.8397,-3.82091,-0.347845,-9.38763,-2.04072,-1.13779,5.33277,6.74866,14.8691,-6.30276,9.06143,-21.0576,-0.96696,4.88132,-9.11228,-3.57191e-14,-5.96354e-16,-13.8599,-23.5916,-32.4937,33.0999,29.0417,-1.81529,17.2478,7.12502,23.8505,-11.2915,-3.57191e-14,-5.96354e-16,-19.4416,2.12006,33.0854,31.5186,9.13239,-17.629,23.3173,7.12502,8.62834,53.121,-9.27076,-6.07086,19.9769,24.6463,-20.4808,5.52437,25.7673,-8.46086,-0.672242,-21.4456,21.4553,-16.1788,6.79816,-30.7782
13.192,17.8428,-22.6609,4.16455,-20.5281,0.89518,5.04313,-3.05287,2.17472,-5.85192,-3.96623,-0.449343,-9.19959,-2.10786,-1.17222,5.23961,6.8164,14.9521,-6.2173,9.15862,-21.1673,-0.898055,4.92514,-9.15203,4.805e-14,1.0138e-14,-13.1134,-24.0775,-32.213,33.2554,29.4468,-1.92221,17.3906,7.12502,23.748,-11.162,4.805e-14,1.0138e-14,-19.0618,2.09934,32.6786,31.6976,9.41565,-17.676,23.6746,7.12502,8.583,53.4801,-9.49636,-6.2794,19.6578,24.6461,-20.3804,5.5645,26.1173,-8.74855,-0.619007,-21.7783,21.465,-16.1508,6.41802,-30.3495
13.197,17.847,-22.6629,4.44254,-20.328,0.720031,4.85075,-3.111,2.40313,-5.88705,-4.02575,-0.418109,-9.14257,-2.15186,-1.26753,5.35686,6.84393,14.9902,-6.37122,9.19071,-21.2309,-0.949725,4.9507,-9.18919,-1.63407e-14,-6.11263e-15,-12.4167,-24.1433,-31.6828,33.536,29.6949,-2.61759,17.5936,7.12502,23.0809,-11.0441,-1.63407e-14,-6.11263e-15,-18.5574,1.88068,32.1057,31.9958,9.8625,-17.6278,23.6304,7.12502,8.6295,53.4341,-9.72393,-6.19005,19.8921,24.6294,-20.2956,5.27725,26.4972,-9.05361,-0.638347,-21.5868,21.4937,-16.2564,6.18994,-30.7433
13.1998,17.8499,-22.6654,4.70907,-20.1747,0.499885,4.77955,-3.15025,2.60549,-5.97148,-4.05399,-0.31106,-9.20223,-2.17655,-1.26385,5.49606,6.86466,14.8506,-6.53319,9.20133,-21.2302,-1.02434,4.96843,-9.1767,9.85786e-14,1.72446e-14,-11.5967,-24.1245,-30.9723,33.8217,29.903,-3.63919,17.3966,7.12502,22.1004,-11.3604,9.85786e-14,1.72446e-14,-18.1091,2.19514,31.4586,32.6357,9.90045,-18.0092,24.1036,7.12502,8.2615,53.9221,-9.87531,-6.03655,20.1829,24.5331,-20.2969,4.86571,26.3941,-9.36876,-0.771973,-21.3481,21.6127,-16.2362,6.18134,-30.6922
13.2029,17.8528,-22.6634,5.01294,-20.0312,0.332133,4.59325,-3.18967,2.79921,-6.06869,-4.08602,-0.193061,-9.20659,-2.20256,-1.24946,5.62616,6.89121,14.6254,-6.68788,9.21129,-21.2299,-1.09989,4.9871,-9.14912,1.98288e-14,1.25234e-14,-10.5778,-24.3536,-30.2282,34.1173,30.341,-4.597,17.2128,7.12502,21.1806,-11.6501,1.98288e-14,1.25234e-14,-17.5969,2.28446,30.7295,33.2943,10.0605,-18.7589,24.6558,7.12502,7.53788,54.5015,-10.0516,-6.00957,20.3911,24.4068,-20.2566,4.70186,26.4404,-9.7451,-0.811728,-21.1688,21.7666,-16.2141,6.08147,-30.3323
13.2066,17.8572,-22.6609,5.39111,-19.8511,0.156884,4.29207,-3.25006,3.02272,-6.16031,-4.14911,-0.0846495,-9.14192,-2.24622,-1.2648,5.69429,6.94222,14.4846,-6.76303,9.26424,-21.2719,-1.12763,5.02239,-9.14289,-1.59525e-14,-4.27387e-15,-9.43573,-24.6626,-29.4859,34.3863,30.6975,-5.60653,17.1867,7.12502,20.2106,-11.7819,-1.59525e-14,-4.27387e-15,-16.8655,2.24279,29.7584,33.6179,10.072,-20.0938,25.4903,7.12502,6.24923,55.3781,-10.3695,-6.08318,20.6042,24.395,-20.2539,4.65501,26.5099,-10.1427,-0.70762,-20.9741,21.7787,-16.2425,5.73586,-29.9904
13.2097,17.8627,-22.6623,5.58925,-19.7139,0.276633,4.15542,-3.33226,2.8831,-6.27868,-4.27285,-0.0342119,-9.1818,-2.29775,-1.12194,6.01767,6.99334,14.5296,-7.00422,9.33249,-21.4846,-1.22362,5.08285,-9.24417,-3.86139e-14,-3.37934e-15,-8.16816,-24.9165,-28.7948,34.449,30.6606,-7.11718,17.1128,7.12502,18.7581,-12.0028,-3.86139e-14,-3.37934e-15,-16.1875,2.14157,28.6389,33.965,10.1321,-22.1568,27.0696,7.12502,4.25735,57.0068,-10.6555,-6.2189,20.5039,24.472,-20.2634,4.66987,26.5153,-10.3835,-0.604711,-21.0867,21.6651,-16.203,5.35143,-29.3034
13.2104,17.8671,-22.6639,5.66123,-19.6902,0.564295,4.05679,-3.37236,2.54048,-6.35907,-4.36068,-0.0486256,-9.18793,-2.31954,-0.939513,6.62294,7.0258,14.5692,-7.57127,9.36275,-21.6528,-1.46992,5.14366,-9.35864,-2.99171e-14,-3.08116e-15,-6.86156,-25.2227,-28.1453,34.1811,30.4395,-9.22855,17.0019,7.12502,16.7264,-12.2975,-2.99171e-14,-3.08116e-15,-15.429,1.98861,27.4433,34.3252,10.3291,-23.2,27.1406,7.12502,3.24994,57.0955,-10.8877,-6.35537,20.2119,24.5559,-20.3254,4.71723,26.1221,-10.5058,-0.611683,-21.38,21.5277,-16.214,5.27603,-29.4669
13.2089,17.8714,-22.6645,5.77793,-19.6784,0.678598,3.91192,-3.38266,2.3322,-6.37978,-4.39366,-0.0185704,-9.1058,-2.3209,-0.79714,6.96931,7.0719,14.5317,-7.93317,9.40863,-21.7076,-1.62167,5.19345,-9.40142,7.62463e-14,1.09332e-14,-5.61373,-25.3439,-27.4288,33.7685,30.0146,-11.2829,16.9227,7.12502,14.748,-12.5326,7.62463e-14,1.09332e-14,-14.3809,2.40268,26.2424,34.3152,10.0345,-23.0911,26.1227,7.12502,3.35514,56.0761,-11.1065,-6.36671,20.1126,24.637,-20.3676,4.59806,25.5519,-10.59,-0.775722,-21.4872,21.3884,-16.1964,5.32515,-29.4459
13.2064,17.877,-22.6683,5.88845,-19.5509,0.609377,3.97869,-3.40337,2.25386,-6.49058,-4.41996,0.0722912,-9.25384,-2.32599,-0.64574,7.08997,7.05479,14.7015,-7.7667,9.43003,-21.8946,-1.57173,5.21048,-9.4935,-7.91287e-14,-1.19271e-14,-4.70859,-25.1493,-26.4998,33.4851,29.4643,-12.4296,17.1318,7.12502,13.643,-12.4011,-7.91287e-14,-1.19271e-14,-13.2324,3.29442,25.1262,33.9244,9.15728,-23.532,25.9955,7.12502,2.92935,55.9551,-11.2296,-6.28665,20.2276,24.6787,-20.2336,4.44882,25.8717,-10.6445,-0.949297,-21.3793,21.2771,-16.0658,5.15857,-28.0479
13.2006,17.8819,-22.6721,5.98406,-19.4281,0.465147,4.17198,-3.41736,2.23374,-6.69568,-4.42977,0.164174,-9.58602,-2.32746,-0.514583,7.39011,7.0081,14.8072,-7.52194,9.44259,-21.9316,-1.54529,5.22702,-9.53177,-4.85283e-14,1.39149e-15,-4.07426,-24.9691,-25.6017,33.3252,29.4167,-12.972,16.9707,7.12502,13.1202,-12.5965,-4.85283e-14,1.39149e-15,-12.2171,3.71335,23.9975,33.4259,8.65693,-24.3322,25.8243,7.12502,2.15655,55.7931,-11.2965,-6.34054,20.4208,24.6753,-20.0399,4.5663,26.7745,-10.6949,-0.972978,-21.1796,21.2229,-15.9926,4.9736,-27.1538
13.1905,17.8913,-22.6743,6.19461,-19.4555,0.203088,4.2315,-3.39379,2.24114,-6.91148,-4.38394,0.324831,-9.84619,-2.30107,-0.341036,7.80428,6.96823,14.7747,-7.45477,9.44313,-21.8542,-1.60487,5.24536,-9.52104,3.19422e-14,9.34288e-15,-3.50201,-24.643,-24.9408,33.3462,29.8196,-13.8045,15.9005,7.12502,12.3176,-13.7167,3.19422e-14,9.34288e-15,-11.3752,3.51306,22.9694,32.9965,8.7742,-24.9246,25.2807,7.12502,1.58437,55.2546,-11.4684,-6.23883,20.7414,24.6724,-19.9378,4.57855,27.4157,-10.8054,-1.06065,-20.8621,21.2041,-15.9831,5.1367,-27.4684
13.1837,17.9009,-22.674,6.49273,-19.514,0.0276942,4.07671,-3.3749,2.13005,-7.08927,-4.35613,0.531448,-9.92348,-2.27286,-0.0667672,7.89339,6.95197,14.6317,-7.14076,9.46031,-21.767,-1.54187,5.25321,-9.46012,-5.02925e-14,-3.18055e-15,-2.97893,-24.2238,-24.4012,33.528,30.3395,-14.4234,15.3924,7.12502,11.7208,-14.2597,-5.02925e-14,-3.18055e-15,-10.6871,3.38657,22.2337,32.6146,8.6678,-25.8966,25.8045,7.12502,0.645639,55.7833,-11.813,-6.16748,20.9607,24.7368,-19.9121,4.54121,27.3492,-10.9871,-1.26737,-20.6552,21.118,-15.9309,5.38329,-27.4014
13.1828,17.9051,-22.666,6.75627,-19.5468,-0.0211142,3.77368,-3.42616,2.03725,-7.19531,-4.42891,0.688116,-9.84085,-2.29722,0.144021,7.72026,7.03066,14.2273,-6.47553,9.60447,-21.512,-1.33441,5.30351,-9.26739,-6.81583e-14,-1.33186e-14,-2.43732,-23.9681,-24.1492,33.7987,31.05,-14.586,15.172,7.12502,11.564,-14.4889,-6.81583e-14,-1.33186e-14,-10.3472,3.44522,21.5336,32.4023,8.07017,-26.9032,26.4502,7.12502,-0.326603,56.4297,-12.1646,-6.39259,21.0169,24.8521,-19.8109,4.64538,26.3273,-11.1335,-1.61357,-20.6057,20.9592,-15.7609,5.68679,-27.3098
13.1807,17.9145,-22.6545,6.93985,-19.6836,0.0861341,3.4196,-3.27987,1.83884,-7.3289,-4.26649,0.584415,-9.76601,-2.2112,0.105996,7.8152,6.8919,14.5171,-5.99726,9.52807,-21.3753,-1.22353,5.25179,-9.26304,-2.20651e-14,-7.95139e-15,-2.88348,-23.6554,-23.7553,34.2948,31.5081,-14.6242,14.7159,7.12502,11.5272,-14.9471,-2.20651e-14,-7.95139e-15,-9.76842,2.73931,21.0035,32.498,7.77998,-28.1936,26.0305,7.12502,-1.57293,56.0045,-12.4776,-6.50975,20.8972,24.9651,-19.6987,4.63458,24.9892,-11.2434,-1.96914,-20.7335,20.8208,-15.6738,6.19334,-27.8127
13.1776,17.9242,-22.6442,7.08111,-19.8443,0.244864,3.08915,-2.62473,1.49205,-7.50364,-3.459,0.0891686,-9.75469,-1.81641,-0.335627,7.84777,6.19042,16.3439,-5.41647,8.84322,-21.654,-1.09187,4.88231,-9.67951,-4.91806e-14,-2.73329e-15,-5.52663,-23.1373,-22.3848,35.117,30.9142,-14.7713,14.343,7.12502,11.3854,-15.3279,-4.91806e-14,-2.73329e-15,-7.89249,0.787052,21.0764,32.8185,8.18106,-29.6904,25.4343,7.12502,-3.01851,55.3926,-12.7458,-6.5116,20.7236,25.0436,-19.6959,4.7134,24.838,-11.352,-2.17883,-20.9155,20.7547,-15.7682,6.57954,-27.4763
13.1758,17.9281,-22.6333,7.22258,-19.9146,0.163062,2.85022,-3.13311,1.5556,-7.20045,-4.11315,0.445108,-9.26943,-2.12417,0.0546335,6.62065,7.09005,15.2092,-5.27884,9.84926,-21.1771,-0.729353,5.3216,-9.21499,-3.26007e-14,-1.61016e-14,-3.74202,-22.5791,-24.0492,35.4188,30.1945,-15.4454,13.9645,7.12502,10.7352,-15.7412,-3.26007e-14,-1.61016e-14,-9.3245,1.71651,20.3533,33.2835,7.81199,-29.9898,24.6408,7.12502,-3.30763,54.5949,-12.8747,-6.58895,20.7982,25.0644,-19.656,5.01237,25.6621,-11.4253,-2.33588,-20.8402,20.7679,-15.8384,6.77245,-26.7232
13.1743,17.9289,-22.6215,7.34763,-19.9994,0.0202503,2.76624,-2.77568,1.5798,-6.77024,-3.64517,0.204652,-8.75551,-1.90293,-0.285363,4.13934,7.15901,15.9986,-4.25099,9.84566,-21.1908,0.0283763,5.16682,-9.19744,6.37975e-15,-1.79403e-14,-5.05658,-23.5754,-24.1053,36.0265,29.3717,-15.6762,14.417,7.12502,10.5125,-15.3001,6.37975e-15,-1.79403e-14,-7.95035,2.28661,20.6555,33.3286,6.93656,-29.4592,24.0187,7.12502,-2.7952,53.9802,-12.9278,-6.91759,20.9219,25.0402,-19.3959,5.66007,26.6971,-11.5105,-2.31365,-20.7098,20.8721,-15.9799,6.67499,-25.7328
13.1711,17.9256,-22.612,7.42445,-20.1706,-0.140945,2.55036,-3.03674,1.82054,-7.00936,-3.97634,0.345665,-8.90624,-2.07984,-0.237959,5.77399,7.21888,15.3922,-4.94241,9.99526,-20.9569,-0.46477,5.33744,-9.1109,-1.13096e-13,-2.68359e-15,-5.10073,-22.3106,-25.297,36.6706,28.5483,-15.4296,14.9203,7.12502,10.7504,-14.7846,-1.13096e-13,-2.68359e-15,-9.61874,1.74072,20.4378,33.8095,6.83902,-29.0115,23.6993,7.12502,-2.36281,53.6659,-12.9076,-7.14854,21.0585,25.0039,-19.0881,6.32407,27.2185,-11.553,-2.33878,-20.5577,21.0096,-16.0893,6.66391,-24.2764
13.167,17.9177,-22.605,7.43114,-20.3674,-0.275495,2.50706,-2.83419,1.85569,-6.75236,-3.71482,0.145082,-8.60878,-1.95905,-0.508342,4.64025,7.21732,16.046,-4.53895,9.95706,-21.0359,-0.123799,5.24801,-9.18025,-4.35199e-14,-8.79622e-15,-6.39154,-22.2734,-25.9717,37.3171,27.78,-15.7011,14.511,7.12502,10.4885,-15.2073,-4.35199e-14,-8.79622e-15,-9.43372,1.54932,20.8646,34.1264,7.20384,-29.2942,23.4994,7.12502,-2.63585,53.4628,-12.8195,-7.01108,21.1688,24.9727,-18.9244,6.62061,27.1329,-11.5138,-2.45543,-20.4364,21.1249,-16.0251,7.06235,-24.3398
13.1646,17.9147,-22.5957,7.34864,-20.5481,-0.348324,2.32013,-3.26586,1.98195,-6.97132,-4.27633,0.392143,-8.74593,-2.2371,-0.26275,6.65591,7.37904,15.1235,-5.45121,10.2337,-20.7565,-0.74097,5.50574,-9.05109,5.06901e-14,1.5207e-14,-6.12799,-20.4835,-27.7578,37.6365,27.2318,-15.8324,14.5649,7.12502,10.3619,-15.1598,5.06901e-14,1.5207e-14,-12.0626,1.08574,20.9944,34.8238,7.92777,-29.6301,24.483,7.12502,-2.96028,54.4422,-12.6821,-6.97964,21.2033,24.9502,-18.8188,6.78802,27.3831,-11.3798,-2.43421,-20.4008,21.2282,-16.0363,7.51116,-25.9291
