JuanDHNZ/ProyectoFinalCD/preprocessing/sports_trials_csv/55_17.csv
root1,root2,root3,root4,root5,root6,lowerback1,lowerback2,lowerback3,upperback1,upperback2,upperback3,thorax1,thorax2,thorax3,lowerneck1,lowerneck2,lowerneck3,upperneck1,upperneck2,upperneck3,head1,head2,head3,rclavicle1,rclavicle2,rhumerus1,rhumerus2,rhumerus3,rradius1,rwrist1,rhand1,rhand2,rfingers1,rthumb1,rthumb2,lclavicle1,lclavicle2,lhumerus1,lhumerus2,lhumerus3,lradius1,lwrist1,lhand1,lhand2,lfingers1,lthumb1,lthumb2,rfemur1,rfemur2,rfemur3,rtibia1,rfoot1,rfoot2,rtoes1,lfemur1,lfemur2,lfemur3,ltibia1,lfoot1,lfoot2,ltoes1
11.782,17.4393,-28.9755,39.7725,-33.9425,3.97686,23.8847,-3.70468,-0.941957,-5.46121,-4.84642,2.49423,-19.0955,-1.76876,5.22444,6.72538,9.30857,13.102,-23.0742,9.98379,-24.7397,-5.69996,6.03732,-11.1193,-1.88845e-14,-1.43125e-14,-33.499,-25.441,-48.6394,33.2678,-8.68537,-0.551288,23.0309,7.12502,25.0622,-5.34468,-1.88845e-14,-1.43125e-14,-9.6427,7.59921,57.4294,100.392,24.6279,-24.4513,29.4797,7.12502,2.04148,59.4497,-64.8037,4.43973,-0.870791,33.823,-16.2817,2.00129,-20.8095,-52.4227,5.19483,-1.80317,23.4765,1.92314,7.25876,-42.845
11.8117,17.4393,-28.9411,39.7271,-33.8981,4.10876,23.752,-3.79996,-1.0228,-5.56658,-4.99659,2.53602,-19.1303,-1.81914,5.37247,7.19727,9.24115,12.6454,-23.3163,9.86973,-24.4622,-5.94181,6.01708,-11.0075,7.25564e-14,-1.03567e-13,-32.8077,-25.9013,-47.694,32.5397,-8.07099,-0.386346,24.8792,7.12502,25.2203,-3.47418,7.25564e-14,-1.03567e-13,-10.9419,7.90974,58.1917,100.624,24.7518,-24.2677,28.9178,7.12502,2.21882,58.886,-64.5834,4.18854,-0.99396,33.6127,-16.3758,1.97629,-21.6755,-52.5363,4.83333,-1.86471,23.6185,1.88081,7.41829,-42.9441
11.8338,17.4442,-28.9046,39.7003,-33.9167,3.92082,23.7299,-3.74222,-1.04129,-5.47528,-4.92093,2.54381,-19.0072,-1.79076,5.35273,6.54843,9.30262,12.8282,-23.0314,9.96202,-24.4728,-5.70036,6.01338,-10.9587,-5.96354e-15,-2.28602e-14,-32.0482,-25.44,-47.5236,32.9103,-9.50601,-0.918998,22.3527,7.12502,24.7098,-6.07164,-5.96354e-15,-2.28602e-14,-11.6416,8.19641,58.882,100.538,24.8907,-24.1493,28.8443,7.12502,2.33312,58.8113,-64.2353,4.21537,-0.891745,33.3702,-16.4428,2.02153,-21.9774,-52.4504,4.72222,-1.80503,23.8575,1.79609,7.60398,-43.9386
11.8594,17.435,-28.8747,40.0186,-33.8501,3.50726,23.3589,-3.75779,-0.880087,-5.49904,-4.88001,2.62216,-18.8394,-1.79642,5.30859,6.9652,9.24392,12.2551,-23.1543,9.91549,-23.8705,-5.91632,6.00357,-10.6935,2.18663e-15,1.98785e-14,-31.2807,-24.2376,-47.4992,33.0294,-11.2689,-1.73732,21.5131,7.12502,23.9253,-7.01641,2.18663e-15,1.98785e-14,-12.6595,8.53605,59.2948,100.565,25.0322,-24.0908,30.2041,7.12502,2.38962,60.1705,-64.1984,4.41597,-0.798574,33.1572,-16.3618,1.77928,-22.0772,-52.6134,5.04052,-1.73712,24.0286,1.43569,7.60487,-43.91
11.889,17.4336,-28.848,40.1506,-33.5719,3.2809,23.2351,-3.56658,-0.602558,-5.47916,-4.54596,2.56472,-18.7998,-1.69139,4.95354,6.59418,8.96589,12.716,-22.767,9.60387,-23.892,-5.75813,5.79183,-10.7252,2.48481e-14,-2.74323e-14,-31.2048,-24.8956,-46.4494,32.8492,-11.1061,-2.1055,21.5282,7.12502,23.5722,-7.04717,2.48481e-14,-2.74323e-14,-13.0918,8.04319,60.0607,100.623,25.2529,-23.9674,31.4346,7.12502,2.50889,61.3996,-63.9666,4.42889,-0.707074,32.9513,-16.3676,1.43004,-22.6602,-52.7518,5.18925,-1.73973,24.1568,0.940578,7.43085,-42.8728
11.9157,17.4462,-28.8272,39.8706,-33.072,3.32306,23.6478,-3.60576,-0.382209,-5.50902,-4.51766,2.60719,-19.0861,-1.68608,4.9016,6.53389,8.80775,12.7695,-22.6934,9.39572,-23.8446,-5.76695,5.67563,-10.7129,2.54444e-14,3.75703e-14,-30.8039,-25.8051,-45.5085,32.4585,-10.6359,-2.37205,21.2952,7.12502,23.3165,-7.31275,2.54444e-14,3.75703e-14,-14.0141,7.75651,60.7385,100.83,25.8699,-24.4313,31.7068,7.12502,2.06078,61.6766,-63.3273,4.27849,-0.619853,32.7215,-16.3918,1.19333,-22.5462,-52.7649,5.11453,-1.90961,24.3044,0.728745,6.94317,-42.7358
11.9409,17.4477,-28.8025,39.8595,-32.8511,3.31516,23.6212,-3.63569,-0.279949,-5.5731,-4.53202,2.58082,-19.1609,-1.70277,4.82402,6.5852,8.75748,12.589,-22.6992,9.34995,-23.5605,-5.82225,5.64441,-10.5864,-5.1684e-15,2.32578e-14,-30.3025,-26.3096,-44.8326,32.0453,-10.2342,-2.42607,21.1944,7.12502,23.2647,-7.42018,-5.1684e-15,2.32578e-14,-15.0668,7.65413,61.1629,101.017,26.3422,-24.7325,31.9515,7.12502,1.76989,61.9239,-62.9962,4.16902,-0.661045,32.3871,-16.2407,1.25726,-21.9736,-52.9603,5.13701,-2.07921,24.5037,0.441531,6.73294,-42.3923
11.9633,17.4569,-28.7683,39.6788,-32.8044,3.27769,23.6949,-3.60537,-0.31825,-5.56368,-4.50931,2.54109,-19.1923,-1.68987,4.7966,6.6659,8.67799,12.4596,-22.6958,9.26904,-23.3039,-5.88124,5.59517,-10.4811,4.85035e-14,-2.52457e-14,-29.7698,-26.257,-44.2913,31.842,-10.4194,-3.19406,20.5957,7.12502,22.5277,-8.11009,4.85035e-14,-2.52457e-14,-16.1444,7.77639,61.6239,101.067,26.4916,-24.657,32.641,7.12502,1.84284,62.6128,-62.4646,4.33413,-0.879087,32.0784,-16.2293,1.17738,-21.8888,-52.8,4.87017,-2.06293,24.7157,0.0111932,6.93872,-41.3472
11.9855,17.4751,-28.7208,39.4268,-32.7077,3.11184,23.8586,-3.52531,-0.159025,-5.48714,-4.35568,2.49286,-19.2146,-1.64472,4.60034,6.61224,8.48948,12.4924,-22.6068,9.03593,-23.1504,-5.90009,5.45921,-10.4261,-1.88845e-14,-1.41137e-14,-29.3716,-26.3433,-43.7162,31.8338,-10.7461,-4.55943,20.0216,7.12502,21.2167,-8.83732,-1.88845e-14,-1.41137e-14,-17.031,7.60619,62.2042,101.033,26.9889,-25.0418,32.7042,7.12502,1.47121,62.6788,-61.727,4.68304,-1.06965,31.7213,-16.2993,0.849171,-21.9404,-52.4655,4.26861,-1.71561,25.0253,-0.323146,7.40367,-40.2323
12.005,17.4754,-28.7158,39.845,-32.2953,3.03008,23.3486,-3.40767,0.0102224,-5.52819,-4.15972,2.44989,-19.008,-1.5949,4.3501,6.18146,8.23237,12.9559,-22.3817,8.7148,-23.2074,-5.78172,5.24529,-10.4835,6.4605e-14,-5.22804e-14,-29.2379,-27.1883,-42.9664,31.6791,-10.5556,-5.56514,21.4435,7.12502,20.2503,-7.5209,6.4605e-14,-5.22804e-14,-17.3932,7.02767,62.6817,100.702,27.7763,-24.8941,31.977,7.12502,1.61386,61.9506,-61.8367,4.73645,-1.22166,31.3912,-16.0456,0.272143,-21.7162,-53.2707,4.81017,-1.9802,25.3884,-0.151613,6.45558,-40.0897
12.0229,17.4831,-28.6961,39.8764,-31.9963,2.8943,23.2353,-3.45543,0.0873442,-5.48716,-4.18792,2.5265,-18.891,-1.61533,4.39275,6.11836,8.25721,12.9592,-22.4208,8.73454,-23.2342,-5.77565,5.25454,-10.4919,9.93923e-15,6.77856e-14,-28.4698,-27.8289,-42.3616,31.0784,-9.6314,-6.82085,22.7342,7.12502,19.0431,-6.35359,9.93923e-15,6.77856e-14,-18.171,7.08728,62.9388,100.351,28.3435,-24.2521,32.0862,7.12502,2.23385,62.0543,-61.5174,4.92117,-1.28672,31.0905,-15.9278,-0.1978,-21.9873,-53.495,5.09651,-2.14285,25.6735,-0.0860205,5.83796,-42.6668
12.0415,17.4935,-28.6654,39.81,-31.8155,2.76825,23.3425,-3.44398,0.108171,-5.55656,-4.15556,2.5776,-19.0387,-1.59365,4.43951,6.05039,8.26537,13.0784,-22.1255,8.78403,-23.3028,-5.65075,5.26997,-10.5056,3.81667e-14,4.47266e-14,-27.8477,-28.0734,-41.8055,30.7116,-9.33195,-10.8116,18.0849,7.12502,15.202,-11.3367,3.81667e-14,4.47266e-14,-19.3115,7.08231,63.2826,100.116,28.4189,-24.0712,32.2212,7.12502,2.40859,62.1873,-61.1368,5.08938,-1.34649,30.9053,-15.9159,-0.523883,-22.5977,-53.467,5.21151,-2.24263,25.8332,-0.191475,5.4859,-43.482
12.0602,17.5059,-28.632,39.7106,-31.5515,2.73783,23.3231,-3.48405,0.308448,-5.60097,-4.15738,2.52543,-19.1017,-1.61918,4.27215,5.99718,8.14087,12.9751,-21.9058,8.66172,-23.0177,-5.62656,5.18799,-10.3671,7.95139e-15,-1.14699e-13,-27.2648,-27.4763,-41.9463,31.1265,-11.4774,-12.6705,15.5562,7.12502,13.4108,-13.9921,7.95139e-15,-1.14699e-13,-20.4142,7.13501,63.5396,99.6768,28.1565,-23.9812,31.393,7.12502,2.49548,61.3582,-60.6771,5.08038,-1.34636,30.6618,-15.9259,-0.697568,-22.3027,-53.4441,5.09529,-2.27274,25.919,-0.177154,5.22802,-44.6532
12.0746,17.515,-28.6061,39.5692,-31.4412,2.82465,23.2262,-3.45952,0.234708,-5.59297,-4.16004,2.46524,-19.0356,-1.61937,4.23907,6.00093,8.04925,12.6261,-21.9101,8.54329,-22.64,-5.70088,5.12407,-10.1758,3.77691e-14,8.28932e-14,-26.8403,-27.6714,-41.4538,31.015,-11.0765,-13.5563,16.0874,7.12502,12.5569,-13.5152,3.77691e-14,8.28932e-14,-21.2414,7.12995,63.857,99.1476,28.1554,-24.6105,30.7141,7.12502,1.88778,60.6855,-60.2967,5.1213,-1.54137,30.3939,-15.9185,-0.855534,-21.719,-53.404,5.07058,-2.50009,25.9507,-0.102537,4.95235,-46.0551
12.0913,17.5199,-28.5818,39.5097,-31.3993,2.86026,23.1112,-3.37567,0.0492719,-5.58647,-4.10672,2.46323,-18.9524,-1.57909,4.31144,5.91601,8.04261,12.5606,-21.8934,8.52475,-22.6023,-5.69032,5.11271,-10.1442,4.53229e-14,-4.57205e-14,-26.3345,-27.6761,-40.9888,31.0509,-11.1812,-14.3521,16.0538,7.12502,11.7895,-13.5944,4.53229e-14,-4.57205e-14,-22.0018,7.20308,64.3671,98.6689,28.0942,-25.6444,30.4317,7.12502,0.889237,60.4096,-60.0213,5.12841,-1.69538,30.1284,-15.859,-0.887485,-21.2849,-53.3917,5.18867,-2.77178,25.9535,-0.291657,4.72028,-45.1491
12.1115,17.5287,-28.5468,39.3881,-31.3348,2.80767,23.1017,-3.27991,0.0330764,-5.56063,-3.98575,2.44253,-18.9226,-1.52807,4.24894,5.93922,7.94398,12.5892,-21.9726,8.38355,-22.5791,-5.74618,5.04004,-10.152,-4.82053e-14,2.22639e-14,-25.9796,-27.7771,-40.4332,31.1679,-11.5295,-15.3706,15.6034,7.12502,10.8073,-14.0985,-4.82053e-14,2.22639e-14,-22.8456,7.35592,64.7612,98.1218,27.4181,-25.651,30.4585,7.12502,0.882795,60.4364,-59.578,5.08186,-1.66797,29.8231,-15.8853,-0.715276,-20.7256,-53.2397,5.1601,-2.88429,25.9907,-0.686378,4.67123,-43.0166
12.1274,17.5384,-28.5158,39.1907,-31.2907,2.79467,23.1581,-3.20588,-0.00679327,-5.54777,-3.91005,2.36968,-18.9451,-1.49535,4.1635,5.9929,7.8109,12.5653,-21.9924,8.21153,-22.462,-5.80546,4.94893,-10.1149,-7.7526e-15,-4.57205e-15,-25.5892,-27.9841,-39.8757,31.058,-11.6033,-16.4017,15.4074,7.12502,9.81257,-14.344,-7.7526e-15,-4.57205e-15,-23.7107,7.39405,64.7125,97.5683,26.8769,-25.2961,30.5697,7.12502,1.22557,60.5459,-59.045,5.14784,-1.72948,29.44,-15.8601,-0.812413,-21.1695,-53.038,5.07031,-2.99816,26.0646,-0.957183,4.64742,-42.5125
12.1397,17.5482,-28.4954,39.2213,-31.0105,2.6348,23.0335,-3.26033,0.186241,-5.55566,-3.92682,2.366,-18.897,-1.52739,4.05043,5.91918,7.76557,12.5464,-21.9057,8.16419,-22.3615,-5.78269,4.91399,-10.0647,6.7388e-14,-3.51849e-14,-24.9625,-28.4506,-39.6051,30.8233,-11.1316,-17.485,15.1682,7.12502,8.76731,-14.6297,6.7388e-14,-3.51849e-14,-24.5701,7.55819,64.5316,96.9291,26.5438,-25.1601,30.51,7.12502,1.35698,60.4854,-58.6439,5.35046,-1.73093,29.028,-15.6814,-1.36454,-22.009,-53.0598,5.09005,-2.93604,26.1194,-0.905497,4.3817,-43.4072
12.1523,17.5617,-28.4671,39.3263,-30.6575,2.34917,22.887,-3.24177,0.491881,-5.57315,-3.79897,2.43047,-18.8596,-1.50476,3.89596,5.68879,7.66787,12.5986,-21.673,8.04072,-22.3426,-5.69129,4.8339,-10.0348,4.97956e-14,-6.69904e-14,-24.7144,-28.2621,-39.3201,31.1742,-11.5036,-19.018,14.5387,7.12502,7.28775,-15.3158,4.97956e-14,-6.69904e-14,-25.3379,7.66762,64.6841,96.0747,25.9616,-25.0676,30.1064,7.12502,1.44631,60.0813,-58.2568,5.66867,-1.69378,28.6339,-15.5573,-1.86928,-22.7753,-53.0527,5.09935,-2.71327,26.1377,-0.714226,4.06009,-44.6228
12.1649,17.5745,-28.4307,39.1702,-30.5299,2.36031,22.8625,-3.13168,0.451118,-5.61378,-3.66832,2.40223,-18.9027,-1.44475,3.83922,5.43333,7.54315,12.7542,-21.3298,7.89776,-22.3667,-5.55714,4.73748,-10.029,-8.64713e-15,3.76697e-14,-24.7167,-27.7546,-38.7842,31.612,-12.1729,-20.1802,14.1524,7.12502,6.16582,-15.7379,-8.64713e-15,3.76697e-14,-26.1513,7.71354,64.784,95.1896,25.3122,-24.8655,29.2769,7.12502,1.64143,59.2503,-57.7666,5.80039,-1.84513,28.2483,-15.4797,-1.97952,-23.0754,-52.8694,4.95687,-2.77804,26.1172,-0.735584,3.98557,-45.3274
12.1757,17.5854,-28.4007,38.9926,-30.5162,2.52894,22.7944,-3.09619,0.233854,-5.67143,-3.70278,2.32522,-18.9253,-1.4399,3.88679,5.38314,7.51248,12.7693,-21.2312,7.86808,-22.3359,-5.52504,4.71549,-10.0103,-3.77691e-14,1.99779e-14,-24.1519,-28.3612,-38.4041,31.3479,-11.7352,-20.7374,14.2344,7.12502,5.62788,-15.6708,-3.77691e-14,1.99779e-14,-27.1198,7.99472,64.5815,94.3638,24.6074,-24.6099,28.8313,7.12502,1.88831,58.8027,-57.3769,5.81472,-2.11171,27.8847,-15.3484,-1.94479,-21.9727,-52.7233,4.84547,-3.04554,26.0415,-1.04622,4.0331,-44.5331
12.1869,17.5962,-28.3743,38.946,-30.4664,2.52661,22.5993,-3.07681,0.184491,-5.62792,-3.70286,2.28025,-18.7595,-1.44421,3.84849,5.24062,7.52478,12.59,-21.2686,7.8613,-22.2175,-5.52934,4.70957,-9.93075,-5.03919e-14,7.99114e-14,-23.2886,-29.5217,-38.32,31.1224,-11.4871,-21.4053,13.9809,7.12502,4.98304,-15.9406,-5.03919e-14,7.99114e-14,-27.8686,8.32937,64.4359,93.5102,24.0377,-24.8727,28.8158,7.12502,1.63452,58.7893,-57.0903,6.01536,-2.35246,27.5829,-15.2507,-2.13949,-21.4831,-52.5757,4.83724,-3.18866,25.9019,-1.26572,4.00539,-43.7128
12.2018,17.6065,-28.3427,38.8664,-30.2275,2.4995,22.38,-3.12307,0.372214,-5.52999,-3.7143,2.26618,-18.5252,-1.48024,3.71152,5.003,7.52514,12.3628,-21.2612,7.83845,-22.0396,-5.5123,4.68962,-9.81274,-2.46493e-14,-3.32964e-14,-22.803,-29.493,-38.2299,31.5998,-12.3461,-22.1403,13.109,7.12502,4.27329,-16.8279,-2.46493e-14,-3.32964e-14,-28.4207,8.6077,64.3011,92.5329,23.6415,-25.2711,28.836,7.12502,1.24973,58.8121,-56.6736,6.11981,-2.44293,27.2917,-15.1455,-2.46256,-21.7473,-52.4392,4.79267,-3.28313,25.7551,-1.19359,3.73733,-44.0464
12.2149,17.6176,-28.3108,38.8007,-29.8826,2.51937,22.2409,-3.18205,0.577102,-5.53142,-3.73716,2.25662,-18.4608,-1.51658,3.58628,4.85511,7.44389,12.3698,-21.2215,7.72072,-21.9912,-5.49818,4.61892,-9.78643,-3.08116e-15,-5.04913e-14,-22.6758,-28.9141,-37.9626,32.2205,-13.3145,-22.7839,12.4133,7.12502,3.65181,-17.5351,-3.08116e-15,-5.04913e-14,-29.0916,8.76126,64.0263,91.4354,22.8909,-25.2725,29.044,7.12502,1.24843,59.0201,-56.209,6.06019,-2.43519,26.9521,-14.9686,-2.65074,-22.1075,-52.4168,4.71769,-3.38834,25.6735,-0.948758,3.37065,-45.0157
12.2203,17.6295,-28.2852,38.9715,-29.7855,2.34912,22.0889,-3.05945,0.622827,-5.63184,-3.56955,2.21148,-18.5128,-1.45182,3.4461,4.69001,7.31581,12.546,-21.1023,7.55647,-22.0048,-5.45247,4.51582,-9.80554,3.52843e-14,2.98177e-16,-22.6147,-28.8135,-37.6591,32.5559,-13.8461,-23.508,12.0891,7.12502,2.95253,-17.8702,3.52843e-14,2.98177e-16,-29.8546,8.68658,63.705,90.4321,22.0058,-24.9563,28.9272,7.12502,1.55381,58.9013,-56.0411,6.19867,-2.43224,26.6415,-14.7894,-2.74746,-22.989,-52.3858,4.83418,-3.37219,25.5422,-0.747165,3.18539,-45.8707
12.2216,17.6361,-28.2678,39.2731,-29.9664,1.93071,22.0299,-2.82098,0.549354,-5.43269,-3.29136,2.10132,-18.8757,-1.29274,3.42854,4.56,7.26627,12.5377,-21.0929,7.48959,-21.9068,-5.44541,4.46924,-9.76198,-1.26228e-14,1.98785e-15,-22.54,-28.6373,-37.4265,33.0019,-14.2039,-24.004,11.657,7.12502,2.47347,-18.3084,-1.26228e-14,1.98785e-15,-30.4981,8.61747,63.2697,89.4815,21.5301,-24.55,28.7841,7.12502,1.94618,58.7549,-56.06,6.65048,-2.42345,26.2975,-14.5226,-2.88172,-23.6945,-52.2366,5.18167,-3.20446,25.4126,-0.765678,3.22443,-45.9816
12.2331,17.6492,-28.2384,39.0237,-29.5112,2.1948,21.9113,-2.99576,0.768437,-5.42898,-3.47254,2.06234,-18.8051,-1.40247,3.31672,4.5409,7.24466,12.3691,-21.1888,7.44257,-21.785,-5.49668,4.44871,-9.69618,4.9895e-14,-4.2043e-14,-22.4118,-27.821,-37.2553,33.7809,-14.8627,-24.2045,10.5083,7.12502,2.27984,-19.4592,4.9895e-14,-4.2043e-14,-31.2101,8.79588,62.7615,88.5892,21.1651,-24.3164,29.0157,7.12502,2.17175,58.9844,-55.4281,6.64772,-2.70299,25.9086,-14.2074,-3.37059,-24.2644,-52.1962,4.68988,-3.25243,25.2987,-0.767311,3.24921,-44.7291
12.2369,17.669,-28.2017,38.9162,-29.3181,2.06507,21.782,-3.01973,0.962057,-5.38806,-3.44999,2.06755,-18.6844,-1.41869,3.19269,4.39736,7.19226,12.3159,-21.1457,7.3561,-21.7512,-5.47835,4.39935,-9.66419,-3.37934e-15,-3.32964e-14,-22.287,-26.7688,-37.131,34.6229,-15.8213,-24.5374,9.35136,7.12502,1.95836,-20.6194,-3.37934e-15,-3.32964e-14,-32.0005,8.89959,62.2644,87.8199,20.6099,-24.6119,28.9308,7.12502,1.88641,58.9022,-54.8535,6.73452,-2.56187,25.5,-13.9998,-3.33306,-24.1381,-51.8967,4.50055,-3.11936,25.2019,-0.78029,3.37197,-45.248
12.2406,17.6864,-28.1603,38.7355,-29.2432,1.78172,21.8092,-2.92395,1.24905,-5.29908,-3.25602,1.94591,-18.6212,-1.37944,2.80973,4.28375,7.0807,12.6973,-21.136,7.203,-21.9358,-5.45181,4.30381,-9.79149,4.75095e-14,-2.5345e-14,-22.4745,-26.1631,-36.9739,35.429,-16.4761,-24.5842,9.39318,7.12502,1.91319,-20.578,4.75095e-14,-2.5345e-14,-32.5003,8.53619,61.6153,86.9808,20.4073,-25.0596,28.8726,7.12502,1.45398,58.8474,-54.2007,6.77882,-2.15308,25.1452,-13.9642,-2.99998,-23.7465,-51.3366,4.46843,-2.97664,25.0472,-0.768713,3.38218,-45.3008
12.2454,17.7002,-28.1294,38.5165,-29.2153,1.74095,21.8397,-2.7549,1.26437,-5.29099,-3.05111,1.77629,-18.6469,-1.30665,2.5251,4.44625,6.89428,13.1208,-21.2027,6.9662,-22.1295,-5.51384,4.17852,-9.95427,4.35338e-14,-3.30976e-14,-22.9393,-25.5401,-36.6731,36.3509,-16.8723,-24.3871,9.47958,7.12502,2.10352,-20.4898,4.35338e-14,-3.30976e-14,-32.8405,8.11908,60.9107,86.0368,21.0094,-24.7259,29.0806,7.12502,1.77633,59.0529,-53.661,6.8472,-2.1079,24.8027,-13.849,-2.87144,-23.4896,-50.9587,4.39749,-3.0307,24.9314,-0.716442,3.33021,-45.8891
12.2481,17.7137,-28.1091,38.4762,-29.2209,1.75257,21.7549,-2.6753,1.03895,-5.33576,-3.00652,1.80667,-18.6362,-1.2599,2.66982,4.50093,6.8489,12.8069,-21.2325,6.88817,-21.9741,-5.57334,4.1539,-9.84954,-1.75924e-14,-3.84648e-14,-22.9027,-24.3765,-36.5007,37.2547,-17.265,-24.5602,9.70789,7.12502,1.93637,-20.2631,-1.75924e-14,-3.84648e-14,-33.5069,8.31591,60.213,85.1048,21.4213,-24.0781,29.1914,7.12502,2.40192,59.1577,-53.4132,6.8962,-2.18766,24.5193,-13.6588,-2.74264,-22.75,-50.8321,4.39261,-3.10835,24.8246,-0.708609,3.28105,-45.3111
12.253,17.7299,-28.0848,38.5136,-29.2039,1.6823,21.6141,-2.71357,1.01288,-5.37564,-3.06221,1.85007,-18.5924,-1.2792,2.75024,4.45164,6.90781,12.4223,-21.3062,6.9394,-21.7829,-5.60784,4.19101,-9.71511,3.42904e-14,-7.66315e-14,-22.5997,-23.292,-36.4557,37.9362,-17.353,-24.2809,10.3921,7.12502,2.20606,-19.5763,3.42904e-14,-7.66315e-14,-34.3768,8.63432,59.4073,84.1388,21.1745,-23.9979,28.718,7.12502,2.47936,58.6833,-53.2354,6.81007,-2.08771,24.2906,-13.4164,-2.37418,-23.3686,-50.7016,4.37959,-3.09556,24.6815,-0.60555,3.23589,-45.1335
12.2585,17.7469,-28.0588,38.571,-29.1854,1.57871,21.4486,-2.583,1.12143,-5.42945,-2.88604,1.68804,-18.5771,-1.2309,2.42483,4.38568,6.78799,12.8173,-21.2772,6.80421,-21.8552,-5.58879,4.09662,-9.80682,1.71452e-14,-6.41081e-14,-23.0533,-22.8127,-36.1725,38.7247,-17.5343,-23.3015,10.8018,7.12502,3.1519,-19.1546,1.71452e-14,-6.41081e-14,-34.7885,8.24019,58.6459,83.0234,21.0274,-24.1065,27.8879,7.12502,2.37452,57.8544,-53.0945,6.91761,-2.12917,24.0864,-13.0984,-2.22269,-24.5852,-50.5388,4.31639,-3.01221,24.4823,-0.286763,3.20071,-45.6888
12.2605,17.7604,-28.0376,38.6332,-29.2135,1.4704,21.318,-2.43284,1.08035,-5.43791,-2.71721,1.5743,-18.5129,-1.16499,2.24447,4.01811,6.73385,13.1854,-21.1493,6.72916,-21.9817,-5.47118,4.02286,-9.88784,-2.38045e-14,-4.87022e-15,-23.3382,-22.3419,-36.0862,39.6398,-18.0582,-22.5148,11.5822,7.12502,3.9117,-18.3616,-2.38045e-14,-4.87022e-15,-35.0677,7.95334,57.8336,81.9085,20.9986,-24.0886,27.8206,7.12502,2.39178,57.7869,-52.9999,7.06251,-2.17577,23.8836,-12.7462,-2.15265,-24.2514,-50.3515,4.32914,-2.95482,24.2417,-0.0291839,3.17354,-45.8421
12.2621,17.7739,-28.0158,38.726,-29.2035,1.29451,21.1846,-2.46292,1.06611,-5.45466,-2.7562,1.62807,-18.4452,-1.17774,2.3238,3.74217,6.82307,13.1966,-21.0861,6.81125,-22.116,-5.37617,4.05842,-9.91542,-1.2424e-14,-3.34952e-14,-22.9666,-21.2281,-36.3304,40.4481,-18.6124,-21.9037,11.9881,7.12502,4.50171,-17.9441,-1.2424e-14,-3.34952e-14,-35.6437,8.22379,56.9033,80.8048,20.9151,-24.2597,28.2209,7.12502,2.22651,58.189,-52.8826,6.92245,-1.88654,23.6938,-12.4509,-1.68941,-23.6032,-50.1133,4.41052,-2.87336,23.9469,0.156675,3.08987,-46.0582
12.2676,17.7902,-27.99,38.7601,-29.1654,1.09451,21.0657,-2.36881,1.18416,-5.4812,-2.60363,1.59414,-18.4151,-1.12903,2.15607,3.74767,6.70856,13.4766,-21.0166,6.64387,-22.3842,-5.35845,3.97432,-10.0596,-3.13086e-14,-7.79236e-14,-23.2946,-19.9988,-36.0928,41.373,-19.2364,-21.0451,12.0672,7.12502,5.33081,-17.8458,-3.13086e-14,-7.79236e-14,-35.931,7.99728,56.2079,79.5738,20.9325,-24.5383,28.9532,7.12502,1.95744,58.9239,-52.6726,6.7681,-1.54813,23.5273,-12.2682,-1.15693,-23.3457,-49.7692,4.3349,-2.68421,23.5797,0.56081,3.10618,-46.5734
12.2714,17.8095,-27.9669,38.5654,-29.2458,1.10049,21.127,-2.466,1.07101,-5.34413,-2.75536,1.65561,-18.2666,-1.17908,2.34379,3.46064,6.89113,12.8551,-21.2326,6.79299,-22.2425,-5.38025,4.07138,-9.89389,-2.88238e-15,-3.34952e-14,-22.7681,-18.9726,-36.2054,42.0953,-19.4774,-19.747,13.4367,7.12502,6.58408,-16.4409,-2.88238e-15,-3.34952e-14,-36.3869,8.54945,55.3274,78.2787,20.9143,-24.4628,29.8114,7.12502,2.03036,59.7815,-52.3599,6.81171,-1.58425,23.3844,-11.8434,-0.905745,-23.6274,-49.2896,4.10021,-2.63925,23.2135,0.89735,3.33195,-46.0346
12.2679,17.8322,-27.9504,38.3762,-29.3286,1.10082,21.1718,-2.41183,0.909621,-5.30112,-2.74211,1.56565,-18.2364,-1.16314,2.32459,3.60164,6.87763,12.9177,-21.5336,6.75902,-22.2225,-5.50217,4.05813,-9.92941,1.66979e-14,8.15017e-15,-22.8482,-18.4607,-36.1565,42.8001,-19.536,-18.6215,14.7627,7.12502,7.67053,-15.0782,1.66979e-14,8.15017e-15,-36.6912,8.59851,54.3771,76.9651,20.8302,-23.4531,30.5927,7.12502,3.00557,60.5513,-52.1063,7.02659,-1.72039,23.2779,-11.2745,-0.743584,-23.0706,-48.883,3.99762,-2.63997,22.9539,0.984472,3.49816,-44.6967
12.2658,17.8498,-27.9321,38.3837,-29.2502,0.903011,21.0669,-2.45048,1.02456,-5.2803,-2.77212,1.51816,-18.1519,-1.19523,2.20728,3.70709,6.91985,13.1176,-21.7992,6.81877,-22.2292,-5.58059,4.08034,-9.99307,2.28602e-14,-8.42847e-14,-22.99,-17.5714,-36.2322,43.7839,-20.2441,-17.9609,15.2487,7.12502,8.30806,-14.568,2.28602e-14,-8.42847e-14,-37.1671,8.61832,53.2748,75.8429,20.7259,-22.6393,30.8776,7.12502,3.79143,60.8236,-51.9484,7.16693,-1.55086,23.2018,-11.139,-0.637201,-22.4732,-48.6814,4.08093,-2.51603,22.76,1.16845,3.41304,-44.0335
12.2668,17.8603,-27.9147,38.5427,-29.2266,0.757461,20.8483,-2.53641,1.02838,-5.2829,-2.88152,1.58372,-18.0115,-1.24187,2.30925,3.58229,7.06342,12.9323,-21.9801,6.96418,-22.2222,-5.59382,4.16114,-9.96108,7.36497e-14,-5.04913e-14,-22.9941,-16.3062,-36.2244,44.9295,-21.2731,-16.9496,15.8351,7.12502,9.284,-13.9405,7.36497e-14,-5.04913e-14,-37.6889,8.85588,52.1855,74.6302,20.5654,-23.4442,29.9514,7.12502,3.01416,59.9098,-51.9661,7.12211,-1.37584,23.1054,-11.0817,-0.559461,-23.1276,-48.6626,4.37547,-2.60031,22.5684,1.30488,3.17785,-43.8007
12.2693,17.8764,-27.9001,38.7065,-29.2505,0.748674,20.5653,-2.52011,0.916011,-5.35021,-2.89731,1.58588,-17.9111,-1.23998,2.36834,3.56245,7.05099,12.9024,-22.0349,6.91982,-22.2873,-5.61254,4.1456,-9.98276,-4.69132e-14,8.8658e-14,-22.5804,-16.3336,-36.2177,45.0477,-20.7103,-15.4606,16.9292,7.12502,10.7205,-12.7773,-4.69132e-14,8.8658e-14,-37.9575,8.76869,51.2572,73.316,20.4778,-24.243,29.7064,7.12502,2.24264,59.6744,-52.0347,6.84051,-1.22001,22.9536,-10.746,-0.157995,-23.031,-48.7305,4.49842,-2.73555,22.4063,1.49026,3.0719,-44.3151
12.2711,17.8997,-27.8796,38.7279,-29.2477,0.707913,20.4214,-2.4396,0.913739,-5.46443,-2.80218,1.52812,-17.9701,-1.20277,2.26622,3.77611,6.9799,13.0117,-22.0191,6.84627,-22.3447,-5.65234,4.11564,-10.0358,-1.73937e-14,7.35503e-15,-22.9499,-15.8745,-35.7947,45.4625,-20.6532,-14.0279,18.5029,7.12502,12.1022,-11.1271,-1.73937e-14,7.35503e-15,-38.325,8.23192,50.5132,72.1027,20.4001,-24.5851,29.9116,7.12502,1.91226,59.8828,-51.8934,6.51411,-0.902712,22.7804,-10.3984,0.344821,-22.767,-48.5909,4.20323,-2.58311,22.2241,1.98736,3.19552,-46.1216
12.2668,17.9275,-27.8549,38.6114,-29.4109,0.615221,20.4862,-2.37625,0.777572,-5.5024,-2.75804,1.49813,-18.0543,-1.1689,2.29822,3.73601,7.06053,13.0051,-21.9097,6.95436,-22.4413,-5.58438,4.17459,-10.0562,1.98785e-14,-2.10712e-14,-23.2077,-14.9145,-35.6001,46.236,-21.3417,-12.9412,19.5033,7.12502,13.1499,-10.0621,1.98785e-14,-2.10712e-14,-38.7804,7.99057,49.6969,70.729,20.1232,-25.0281,29.3624,7.12502,1.4844,59.3369,-51.5963,6.62704,-0.813329,22.553,-10.0139,0.503298,-22.6157,-48.1107,3.92132,-2.40731,21.9608,2.49965,3.47186,-46.4882
12.2609,17.9574,-27.8342,38.4899,-29.4706,0.532501,20.5683,-2.37817,0.711831,-5.49906,-2.78209,1.4704,-18.0994,-1.17309,2.31582,3.57772,7.05056,13.1468,-21.8122,6.92147,-22.6061,-5.51391,4.15066,-10.1241,3.97569e-14,2.5842e-14,-23.346,-14.1381,-35.599,47.09,-21.8555,-11.8993,19.7365,7.12502,14.1541,-9.76132,3.97569e-14,2.5842e-14,-39.0551,7.86525,48.8117,69.3231,20.2157,-25.1652,29.4195,7.12502,1.35206,59.3949,-51.2295,6.87266,-0.841399,22.2359,-9.48708,0.597466,-21.0036,-47.6456,3.79494,-2.31516,21.6884,2.75451,3.72354,-45.1379
12.258,17.9868,-27.814,38.4274,-29.4364,0.356467,20.5498,-2.33932,0.815831,-5.52277,-2.70483,1.4467,-18.1266,-1.15256,2.20177,3.83613,6.91962,13.2153,-21.9773,6.74734,-22.5966,-5.64354,4.07188,-10.1649,3.4191e-14,7.45443e-14,-23.6711,-13.6301,-35.4367,47.7768,-22.055,-10.5306,20.493,7.12502,15.4727,-8.90784,3.4191e-14,7.45443e-14,-39.206,7.53731,48.0177,68.0254,20.6034,-25.3111,29.9218,7.12502,1.21115,59.8981,-50.8499,6.85084,-0.558027,21.8956,-8.9261,1.09042,-18.9151,-47.2538,3.68837,-2.12176,21.4564,2.71841,4.092,-43.1336
12.2552,18.0137,-27.7919,38.3269,-29.5769,0.193158,20.5032,-2.27236,0.750119,-5.47457,-2.63579,1.42974,-18.035,-1.11829,2.18962,3.93572,6.91458,13.0987,-22.146,6.73183,-22.4903,-5.7291,4.07096,-10.1251,-1.98785e-14,3.45885e-14,-23.666,-13.4914,-35.3611,48.2068,-22.1254,-8.90478,21.7212,7.12502,17.0381,-7.55164,-1.98785e-14,3.45885e-14,-39.2566,7.50312,47.1695,66.6005,20.3731,-25.697,29.8232,7.12502,0.838401,59.8013,-50.5243,6.75717,-0.236821,21.5961,-8.4721,1.68116,-18.5164,-46.7793,3.5181,-1.92916,21.2003,2.70536,4.57091,-41.2782
12.2495,18.0319,-27.775,38.2586,-29.6327,0.0348942,20.4596,-2.24019,0.705019,-5.41496,-2.60211,1.44812,-17.9295,-1.09908,2.21958,3.77584,6.9318,13.0467,-22.1347,6.72896,-22.5109,-5.69771,4.06686,-10.1127,1.59028e-14,3.47873e-14,-23.5972,-13.3555,-35.2797,48.6276,-22.1672,-7.44049,22.6478,7.12502,18.4471,-6.49753,1.59028e-14,3.47873e-14,-39.2718,7.53399,46.3827,65.0528,19.79,-25.9911,29.0037,7.12502,0.554375,58.9828,-50.2465,6.8785,-0.0682536,21.3441,-8.16533,1.76396,-18.9951,-46.3415,3.37524,-1.7184,20.8697,3.0081,4.77583,-40.4832
12.2458,18.0506,-27.7606,38.2695,-29.5538,-0.170323,20.3995,-2.17112,0.810415,-5.41696,-2.47289,1.49334,-17.9001,-1.05113,2.16426,3.71553,6.85168,13.0202,-22.0852,6.60381,-22.5425,-5.69535,4.00562,-10.114,-1.61016e-14,-6.95746e-15,-23.7966,-13.0918,-35.0477,49.1407,-22.2233,-6.42278,22.926,7.12502,19.4259,-6.12361,-1.61016e-14,-6.95746e-15,-39.2545,7.25993,45.7436,63.6237,19.7897,-25.8193,28.441,7.12502,0.72025,58.4195,-50.0168,6.96974,0.172575,21.1626,-7.81339,1.78534,-19.7262,-45.9687,3.28668,-1.47972,20.4686,3.37385,4.92754,-40.9552
12.2463,18.0764,-27.7434,38.2522,-29.4,-0.234794,20.2983,-2.18967,0.977989,-5.43968,-2.45508,1.48646,-17.8739,-1.06339,2.0508,3.74202,6.7873,13.0354,-22.0984,6.51635,-22.5252,-5.72192,3.96081,-10.1147,2.40529e-14,5.9039e-14,-24.212,-12.3856,-34.8562,50.0941,-22.8743,-5.51422,22.8142,7.12502,20.2993,-6.14503,2.40529e-14,5.9039e-14,-39.2045,7.08758,44.8268,62.471,20.7899,-25.2406,29.1859,7.12502,1.27923,59.1618,-49.8324,6.83853,0.390864,21.1134,-7.43686,2.03987,-19.8343,-45.6466,3.08961,-1.34381,19.9721,3.64671,5.18961,-39.8911
12.2431,18.0962,-27.7285,38.2332,-29.1983,-0.226467,20.1744,-2.32252,1.13112,-5.48873,-2.59573,1.489,-17.8625,-1.14283,2.01235,3.83618,6.80892,12.9877,-22.1816,6.54246,-22.5032,-5.76329,3.98062,-10.1097,2.22639e-14,-3.22031e-14,-24.4782,-11.493,-34.7528,51.0776,-23.7853,-4.54321,22.7325,7.12502,21.2322,-6.12459,2.22639e-14,-3.22031e-14,-39.3269,7.32105,43.6961,61.3482,21.854,-24.9467,29.6035,7.12502,1.563,59.5776,-49.7274,6.80607,0.434402,21.1684,-7.10497,2.11946,-19.2221,-45.3513,2.93859,-1.26358,19.3636,4.02896,5.23886,-39.1899
12.2378,18.1087,-27.7182,38.1731,-29.1269,-0.141975,20.0841,-2.39904,1.0393,-5.50377,-2.72131,1.52275,-17.8153,-1.18645,2.14372,3.64261,6.92704,12.837,-22.1062,6.6787,-22.523,-5.68349,4.05102,-10.0697,2.18663e-14,-3.73715e-14,-24.1539,-11.4712,-34.6819,51.1873,-23.8669,-3.17004,23.1091,7.12502,22.5508,-5.59392,2.18663e-14,-3.73715e-14,-39.41,7.7795,42.876,59.9509,21.9793,-25.2324,28.9993,7.12502,1.2871,58.9752,-49.7168,6.85565,0.320391,21.2736,-6.79462,2.07559,-19.6948,-44.9949,2.78011,-1.24086,18.6785,4.42004,5.35219,-38.1504
12.2349,18.1265,-27.7029,37.9584,-29.138,0.0158572,20.1138,-2.43762,0.871955,-5.49152,-2.82173,1.50451,-17.8082,-1.21359,2.25315,3.29799,7.00278,12.8145,-21.9022,6.76849,-22.5609,-5.53867,4.08052,-10.0412,2.8625e-14,4.1546e-14,-23.9308,-11.5859,-34.5764,51.2209,-23.4367,-1.43984,23.8939,7.12502,24.2106,-4.59788,2.8625e-14,4.1546e-14,-39.3576,7.97659,42.1951,58.4899,21.6593,-25.5591,29.4863,7.12502,0.971595,59.4639,-49.5658,6.78567,0.257383,21.3555,-6.5513,2.17017,-20.3221,-44.4537,2.32775,-1.16865,17.9778,4.40128,6.01617,-35.5206
12.2317,18.1502,-27.6825,37.7801,-29.1747,0.170365,20.1321,-2.47805,0.776054,-5.57847,-2.91443,1.4365,-17.9258,-1.24719,2.26583,3.25774,6.95161,12.9151,-21.8673,6.70199,-22.5733,-5.52784,4.03693,-10.0599,5.62561e-14,-5.50634e-14,-24.2158,-11.2556,-34.4155,51.7938,-22.8679,-0.846772,23.8377,7.12502,24.7791,-4.57714,5.62561e-14,-5.50634e-14,-39.4977,7.80138,41.3821,57.27,21.6457,-25.7078,30.1594,7.12502,0.827976,60.1375,-49.3629,6.55691,0.293154,21.3391,-6.27981,2.47682,-19.718,-43.933,1.87342,-1.13336,17.3107,4.43423,6.57958,-33.9423
12.2268,18.1778,-27.6619,37.7985,-29.2353,0.11811,20.0106,-2.48218,0.776632,-5.67013,-2.92418,1.42963,-17.965,-1.25229,2.25882,3.28234,6.94882,12.9446,-21.8249,6.70309,-22.6011,-5.51599,4.03731,-10.0732,1.11319e-14,2.22639e-14,-24.4154,-10.9656,-34.1825,52.256,-22.4025,-0.704964,23.3084,7.12502,24.915,-5.08766,1.11319e-14,2.22639e-14,-39.7014,7.70265,40.6245,56.1034,21.8814,-25.5971,29.8371,7.12502,0.934887,59.8148,-49.2337,6.37543,0.490994,21.212,-5.84405,2.94312,-18.1064,-43.501,1.51703,-0.908538,16.7112,4.8981,6.90069,-35.1432
12.2217,18.1993,-27.6366,37.8498,-29.2169,-0.245089,19.822,-2.48712,0.999554,-5.6005,-2.86022,1.5104,-17.767,-1.24685,2.19049,3.15984,7.02646,12.8117,-21.7875,6.80491,-22.521,-5.4739,4.08519,-10.0084,-1.2921e-14,-6.71892e-14,-24.3206,-10.8711,-33.9592,52.4611,-22.3786,0.696377,23.6596,7.12502,26.2572,-4.54359,-1.2921e-14,-6.71892e-14,-39.7297,7.91554,39.8798,54.914,22.0438,-25.1439,29.8387,7.12502,1.37263,59.814,-48.9754,6.24425,1.0667,21.0221,-5.41337,3.58257,-16.8931,-42.9539,1.1072,-0.30304,16.1971,5.22782,7.38516,-36.0675
12.2182,18.2144,-27.6109,37.8018,-29.1343,-0.502213,19.6404,-2.52662,1.23546,-5.51748,-2.84427,1.57134,-17.5582,-1.26517,2.10788,3.27884,7.07357,12.5948,-22.0094,6.84642,-22.4189,-5.5726,4.12272,-9.95624,-2.00773e-14,1.59028e-14,-24.3455,-10.6896,-33.7526,52.9021,-22.49,2.05576,23.7278,7.12502,27.5579,-4.27493,-2.00773e-14,1.59028e-14,-39.7136,8.12413,39.0133,53.7919,22.2148,-24.9804,29.4237,7.12502,1.53047,59.398,-48.6636,6.14906,1.50286,20.8292,-5.04581,4.0163,-16.669,-42.4295,0.87009,0.0551055,15.7214,5.48286,7.57004,-36.4767
12.2155,18.2358,-27.595,37.6719,-29.0865,-0.410053,19.5222,-2.53729,1.21658,-5.53263,-2.87031,1.5498,-17.5021,-1.27803,2.09641,3.50835,7.06624,12.5239,-22.2247,6.81328,-22.4622,-5.68772,4.12879,-9.99002,3.57812e-14,-6.87795e-14,-24.6124,-10.4363,-33.4905,53.3358,-22.4492,2.76018,23.7312,7.12502,28.2314,-4.16211,3.57812e-14,-6.87795e-14,-39.6265,8.25972,38.2267,52.6847,22.3694,-24.9916,28.7109,7.12502,1.51964,58.6853,-48.4492,6.09388,1.47866,20.6653,-4.5419,4.10668,-16.8065,-42.0637,0.674723,0.0216552,15.2228,5.90531,7.54241,-36.6695
12.2114,18.2564,-27.5852,37.5713,-29.0185,-0.322856,19.4931,-2.53763,1.14953,-5.5765,-2.89274,1.53008,-17.5356,-1.28197,2.11968,3.57077,7.03588,12.626,-22.294,6.76776,-22.522,-5.72027,4.10634,-10.0398,5.62561e-14,-2.46493e-14,-24.7252,-10.4105,-33.2883,53.2131,-22.3902,4.14156,25.1034,7.12502,29.5508,-2.56431,5.62561e-14,-2.46493e-14,-39.6071,8.39097,37.559,51.6486,22.2279,-24.5227,29.8822,7.12502,1.97258,59.8528,-48.3037,5.94184,1.56019,20.5789,-4.0104,4.27082,-16.6894,-41.7115,0.314065,0.142753,14.6577,6.39944,7.58213,-37.3066
12.2084,18.27,-27.5727,37.5688,-28.937,-0.472133,19.5281,-2.55893,1.22618,-5.68577,-2.88979,1.5979,-17.6959,-1.28094,2.16254,3.75472,7.00406,12.679,-22.2995,6.73881,-22.5561,-5.75679,4.09879,-10.0735,5.14852e-14,-1.11319e-14,-24.7337,-10.1473,-33.1175,53.2622,-22.6487,5.79895,25.8865,7.12502,31.1317,-1.48983,5.14852e-14,-1.11319e-14,-39.8163,8.21751,36.9106,50.6623,22.0566,-23.7421,32.3563,7.12502,2.72639,62.3186,-48.1761,5.85187,1.86136,20.5306,-3.63433,4.52435,-15.8853,-41.2734,-0.158306,0.600012,14.0652,6.68076,8.01684,-37.1823
12.2085,18.2845,-27.5541,37.4492,-28.9871,-0.4592,19.4982,-2.54273,1.19409,-5.72608,-2.87841,1.59117,-17.7264,-1.2727,2.16942,3.79521,7.01281,12.6813,-22.2571,6.75281,-22.6015,-5.74553,4.11038,-10.089,9.76033e-14,-4.01545e-14,-24.7234,-9.91027,-33.0756,53.8835,-23.1392,6.49035,24.2872,7.12502,31.7904,-2.96053,9.76033e-14,-4.01545e-14,-39.7867,8.29154,36.3418,49.6814,21.8967,-23.3464,33.7835,7.12502,3.10859,63.7405,-47.9645,5.74427,1.92218,20.4512,-3.37783,4.83972,-15.1689,-40.8306,-0.663104,0.787717,13.5541,6.78351,8.68692,-36.4124
12.2062,18.306,-27.5349,37.2605,-29.0794,-0.338167,19.3668,-2.50513,1.10816,-5.63546,-2.87071,1.48203,-17.5304,-1.27259,2.07553,3.65071,7.04907,12.6837,-22.3501,6.78763,-22.5518,-5.74348,4.11752,-10.0696,2.34566e-14,-1.82882e-14,-24.4422,-10.7548,-33.0677,53.3593,-21.7694,7.545,25.6284,7.12502,32.7943,-1.41503,2.34566e-14,-1.82882e-14,-39.4899,8.8204,35.7528,48.7319,21.569,-23.3743,33.8289,7.12502,3.08162,63.7864,-47.7143,5.63761,1.8615,20.3135,-3.00804,5.16486,-14.4294,-40.4492,-1.06061,0.756622,13.2164,6.93065,9.19271,-35.5197
12.2006,18.3313,-27.5202,37.2194,-29.0928,-0.433545,19.3472,-2.48315,1.10941,-5.66678,-2.84009,1.4888,-17.5576,-1.25839,2.07288,3.7361,7.07214,12.5223,-22.5366,6.81548,-22.3778,-5.8305,4.13587,-9.99769,-1.94809e-14,-6.44062e-14,-24.8683,-10.0928,-32.7378,54.1031,-22.8014,8.03522,24.5558,7.12502,33.2605,-2.38906,-1.94809e-14,-6.44062e-14,-39.4678,9.01969,35.123,47.9033,21.5131,-23.1803,33.4447,7.12502,3.26897,63.3993,-47.5252,5.72507,1.94949,20.1145,-2.46981,5.30629,-13.5134,-40.1578,-1.39644,1.01282,13.0484,6.97782,9.89598,-33.567
12.1971,18.3522,-27.5059,37.2629,-29.0984,-0.571335,19.3564,-2.47853,1.08861,-5.81582,-2.82226,1.59758,-17.7441,-1.23653,2.21412,3.87654,7.1423,12.2658,-22.5684,6.91529,-22.2548,-5.86804,4.20226,-9.91705,-4.75095e-14,-1.59028e-14,-24.6123,-10.2624,-32.4687,53.4841,-21.8603,9.26761,25.8617,7.12502,34.4314,-0.825252,-4.75095e-14,-1.59028e-14,-39.7093,8.99449,34.5128,47.2644,21.8578,-22.929,33.1601,7.12502,3.51162,63.1109,-47.3872,5.66921,2.17417,19.8975,-1.90527,5.58551,-14.2318,-40,-1.70036,1.30608,12.9671,7.05365,10.4628,-33.0229
12.1956,18.37,-27.4918,37.2435,-29.099,-0.628657,19.2413,-2.45648,1.08298,-5.81485,-2.7912,1.63035,-17.6683,-1.22152,2.23837,3.73662,7.19037,12.3652,-22.5116,6.95731,-22.4356,-5.79954,4.22207,-9.98567,-3.10104e-14,-3.08116e-14,-24.9438,-9.98393,-32.0606,54.0288,-22.4275,9.80828,25.0895,7.12502,34.9445,-1.47951,-3.10104e-14,-3.08116e-14,-39.6476,9.13165,33.9819,46.7109,22.1482,-23.6079,32.265,7.12502,2.856,62.2256,-47.2086,5.47813,2.41116,19.7063,-1.45998,5.93844,-16.0217,-39.8473,-1.95939,1.44688,12.8537,7.21624,10.668,-33.277
12.1946,18.3875,-27.4815,37.0965,-28.9904,-0.580111,19.1641,-2.42355,1.1041,-5.69922,-2.74527,1.61111,-17.4771,-1.20849,2.17775,3.51915,7.14555,12.5853,-22.615,6.84061,-22.6725,-5.78667,4.15589,-10.1074,5.36719e-14,-2.127e-14,-24.835,-10.6303,-31.8627,54.0154,-22.3313,10.2282,24.2504,7.12502,35.3428,-2.22492,5.36719e-14,-2.127e-14,-39.3388,9.36417,33.5876,46.2275,22.238,-24.6704,30.8259,7.12502,1.82992,60.7978,-46.9095,5.42644,2.46151,19.5209,-1.22602,5.88668,-15.8765,-39.6644,-2.2312,1.48929,12.6883,7.63524,10.5803,-34.4956
12.1937,18.4038,-27.4713,36.9801,-28.8686,-0.474616,19.0579,-2.43478,1.06319,-5.66185,-2.77033,1.63162,-17.3591,-1.21604,2.22515,3.44353,7.14668,12.4884,-22.7426,6.81482,-22.6183,-5.82532,4.1438,-10.0767,1.59028e-15,8.52786e-14,-24.5711,-11.2778,-31.6504,53.624,-21.8153,11.0498,24.3594,7.12502,36.1213,-1.92722,1.59028e-15,8.52786e-14,-39.2212,9.70961,33.139,45.7159,22.172,-25.0963,30.2925,7.12502,1.41853,60.2676,-46.7084,5.57122,2.19954,19.2928,-0.691148,5.57907,-11.4787,-39.5791,-2.72095,1.66467,12.572,7.67331,11.0711,-33.3126
12.1929,18.4193,-27.4581,36.9708,-28.8618,-0.402961,18.9205,-2.46439,0.960797,-5.72773,-2.83279,1.68195,-17.3447,-1.22989,2.35818,3.42383,7.20413,12.303,-22.7082,6.89615,-22.5122,-5.81172,4.18861,-9.99967,7.5737e-14,-2.92213e-14,-24.7323,-10.972,-31.2978,53.865,-21.9337,11.4592,24.5953,7.12502,36.509,-1.59452,7.5737e-14,-2.92213e-14,-39.3836,9.99983,32.6094,45.2872,22.062,-25.2913,30.4026,7.12502,1.23026,60.3788,-46.6807,5.84271,1.77252,19.0752,0.181872,5.24114,-5.30804,-39.5315,-3.29999,1.92173,12.4578,7.29921,12.0408,-29.8427
12.1956,18.4323,-27.4423,37.0433,-28.7736,-0.411781,18.8282,-2.51591,1.04893,-5.85247,-2.87396,1.7359,-17.4435,-1.25248,2.38649,3.41737,7.20846,12.2507,-22.653,6.90105,-22.5118,-5.79528,4.19331,-9.98509,5.52621e-14,1.98785e-16,-24.9524,-10.7561,-30.931,54.1233,-21.9484,11.7783,24.4378,7.12502,36.811,-1.67525,5.52621e-14,1.98785e-16,-39.6736,10.1659,32.0169,45.0278,22.303,-25.2239,30.2331,7.12502,1.29528,60.2089,-46.6204,5.79955,1.71872,18.8795,0.860219,5.18119,-1.84374,-39.5368,-3.52022,1.98935,12.3177,7.79855,11.9951,-31.8909
12.1998,18.4435,-27.425,37.0103,-28.5986,-0.367745,18.7665,-2.59908,1.24293,-5.93227,-2.93944,1.72917,-17.5148,-1.30266,2.29187,3.32975,7.18225,12.4108,-22.5923,6.85692,-22.6405,-5.75224,4.16294,-10.0505,-3.81667e-14,1.15295e-14,-24.8522,-11.1663,-30.7826,53.9503,-21.7191,12.1407,23.0986,7.12502,37.1538,-2.92601,-3.81667e-14,1.15295e-14,-39.8114,10.2756,31.3729,44.6744,22.8877,-24.8236,30.6171,7.12502,1.68198,60.5902,-46.404,5.58244,1.81495,18.6656,1.2602,5.22618,-0.63275,-39.555,-3.59887,1.88862,12.2849,8.53271,11.42,-35.4309
12.2013,18.4549,-27.413,36.8198,-28.5535,-0.21974,18.7911,-2.6422,1.21192,-5.96238,-3.00966,1.70409,-17.5664,-1.3314,2.30686,3.35727,7.17601,12.4457,-22.7015,6.82546,-22.7099,-5.79048,4.1518,-10.0927,-4.55217e-14,2.74323e-14,-24.6808,-11.5169,-30.6245,53.6649,-21.3469,12.5364,22.8051,7.12502,37.5279,-3.12102,-4.55217e-14,2.74323e-14,-39.8484,10.3329,30.8438,44.3298,23.3314,-24.7962,32.0709,7.12502,1.70838,62.0438,-46.1249,5.6877,1.59566,18.4872,1.42118,5.04523,-1.25643,-39.51,-3.95128,1.86433,12.3551,9.0094,11.3469,-36.8926
12.202,18.4634,-27.4039,36.7341,-28.5386,-0.211296,18.806,-2.62393,1.15181,-6.01399,-2.99122,1.76077,-17.6343,-1.31074,2.4046,3.59022,7.16537,12.3068,-22.9692,6.78647,-22.6656,-5.93362,4.15387,-10.0884,-8.80616e-14,4.51241e-14,-24.6242,-11.9329,-30.2067,53.3396,-20.3873,13.2189,23.9229,7.12502,38.1726,-1.82918,-8.80616e-14,4.51241e-14,-39.9104,10.4696,30.4178,44.0591,23.4074,-24.9919,33.0401,7.12502,1.51934,63.0145,-45.9273,5.83789,1.51396,18.3981,1.55421,4.97664,-3.56794,-39.4426,-4.29214,2.03725,12.3364,9.17136,11.7308,-36.4344
12.2033,18.469,-27.3888,36.7551,-28.3935,-0.329882,18.7467,-2.60247,1.2966,-6.07757,-2.9135,1.83768,-17.6826,-1.28575,2.38672,3.66901,7.12553,12.3459,-22.9412,6.7366,-22.7156,-5.94414,4.13341,-10.1169,-2.08724e-15,-3.55825e-14,-24.888,-12.3142,-29.664,53.2099,-19.7244,13.6932,24.655,7.12502,38.6202,-0.972804,-2.08724e-15,-3.55825e-14,-39.9675,10.4414,30.0963,43.8633,23.4167,-25.0093,33.07,7.12502,1.5026,63.0444,-45.7557,5.68363,1.81312,18.412,1.64139,5.17456,-6.5646,-39.3489,-4.35964,2.18719,12.1923,8.9737,12.0667,-34.681
12.2038,18.4767,-27.3739,36.7168,-28.2738,-0.326077,18.6918,-2.59956,1.36291,-6.10826,-2.88797,1.87366,-17.6888,-1.27919,2.38121,3.63418,7.11229,12.2783,-22.8972,6.71778,-22.6833,-5.93335,4.12466,-10.0876,7.95139e-16,-8.74653e-15,-25.1306,-12.2353,-29.3071,53.4624,-20.2038,13.5106,23.9934,7.12502,38.4479,-1.68249,7.95139e-16,-8.74653e-15,-39.9883,10.3264,29.8132,43.7048,23.5126,-24.9999,32.6586,7.12502,1.51165,62.633,-45.6508,5.53565,1.94939,18.5286,1.60529,5.28265,-7.8967,-39.2275,-4.79004,2.46265,11.9864,8.17014,13.1104,-30.0577
12.2064,18.4863,-27.366,36.6932,-28.2191,-0.202061,18.5543,-2.59053,1.28899,-6.09241,-2.89859,1.87438,-17.5764,-1.27845,2.41794,3.62132,7.08604,12.2444,-23.1646,6.63338,-22.6995,-6.03057,4.08864,-10.11,8.60738e-14,-1.98785e-16,-24.8409,-12.6981,-29.1851,53.2725,-20.3447,13.2705,23.2949,7.12502,38.2213,-2.44381,8.60738e-14,-1.98785e-16,-39.8103,10.5472,29.4572,43.4104,23.4429,-25.0291,32.077,7.12502,1.48348,62.0516,-45.7462,5.39901,1.89518,18.7058,1.56819,5.28968,-8.66421,-39.1859,-5.38994,2.73263,11.7196,7.5565,14.1903,-25.8788
12.2139,18.4973,-27.3591,36.6441,-28.0747,-0.0319357,18.4567,-2.62391,1.32662,-6.07889,-2.94369,1.83203,-17.5008,-1.30798,2.35556,3.50091,7.0438,12.5332,-23.3284,6.52622,-22.9475,-6.04916,4.02715,-10.2604,-2.17669e-14,7.43455e-14,-25.0015,-13.2494,-28.9173,53.2975,-20.4343,13.3533,22.9415,7.12502,38.2994,-2.77564,-2.17669e-14,7.43455e-14,-39.61,11.0227,28.9469,43.2435,23.2106,-25.1395,31.7531,7.12502,1.37684,61.7284,-45.8229,5.07953,1.95523,18.9017,1.46921,5.39137,-11.0262,-39.1673,-5.70131,2.72576,11.3928,8.09641,14.2087,-27.1488
12.2203,18.5096,-27.3477,36.5249,-27.956,0.0854495,18.5323,-2.64609,1.38867,-6.10213,-2.96021,1.80369,-17.5833,-1.32258,2.29907,3.24117,7.05277,12.7289,-23.1158,6.52828,-23.1533,-5.91142,4.01339,-10.3373,2.33572e-14,-3.06128e-14,-25.1869,-13.602,-28.5714,53.2369,-20.4985,13.3164,22.6509,7.12502,38.2646,-3.0759,2.33572e-14,-3.06128e-14,-39.5987,11.4305,28.4118,43.2758,22.7559,-25.1806,31.4573,7.12502,1.33715,61.4329,-45.782,4.8864,2.00818,19.1275,1.40485,5.48346,-12.8966,-38.9587,-6.03947,2.7526,11.0125,8.64634,14.1277,-29.0982
12.2242,18.5176,-27.3344,36.4253,-27.9005,0.0834646,18.6442,-2.60337,1.45002,-6.16289,-2.88252,1.80586,-17.7363,-1.29164,2.25148,3.09421,7.0363,12.6702,-22.8653,6.52528,-23.1173,-5.81297,4.00378,-10.284,1.62506e-13,-1.35174e-14,-25.5882,-13.7515,-28.0466,53.2374,-20.5077,12.7884,22.5171,7.12502,37.766,-3.3454,1.62506e-13,-1.35174e-14,-39.5668,11.4611,28.1148,43.2245,22.2357,-25.1588,31.4329,7.12502,1.3582,61.4083,-45.7061,4.84236,2.07066,19.3217,1.35728,5.55475,-14.9781,-38.6547,-6.34509,2.86067,10.6752,8.7554,14.3787,-29.0045
12.2306,18.5189,-27.3229,36.3255,-27.8469,0.160808,18.6936,-2.62003,1.47084,-6.23666,-2.89462,1.82932,-17.8609,-1.29517,2.27857,3.08527,7.02939,12.387,-22.7945,6.52482,-22.9268,-5.81609,4.00967,-10.1572,-6.36111e-15,8.74653e-15,-25.8143,-13.9457,-27.625,53.1461,-20.3131,11.7648,22.2443,7.12502,36.7982,-3.87205,-6.36111e-15,8.74653e-15,-39.6567,11.4895,27.799,43.1674,22.2107,-25.1609,31.3677,7.12502,1.35619,61.3432,-45.6322,4.7364,2.048,19.4238,1.41275,5.65176,-16.3261,-38.4989,-6.38125,2.72944,10.4454,8.70323,14.451,-27.586
12.238,18.5199,-27.3164,36.2757,-27.7838,0.225845,18.7126,-2.64675,1.46307,-6.25896,-2.9267,1.86514,-17.8982,-1.30476,2.33813,2.93887,7.03607,12.166,-22.7606,6.51553,-22.827,-5.79769,4.0066,-10.0698,-2.79292e-14,5.66536e-15,-25.6524,-14.5489,-27.3929,52.6987,-19.7247,10.9182,22.2793,7.12502,35.9967,-4.03802,-2.79292e-14,5.66536e-15,-39.7422,11.5467,27.453,43.2522,22.8518,-25.3238,30.7751,7.12502,1.19887,60.7515,-45.6293,4.7578,1.92359,19.4975,1.58989,5.57128,-15.4768,-38.4321,-6.20563,2.53177,10.2406,9.13107,13.962,-28.5915
12.2458,18.5242,-27.3147,36.2921,-27.6008,0.151089,18.866,-2.66494,1.60924,-6.32253,-2.9009,1.90996,-18.0841,-1.30216,2.31278,2.9198,7.01887,12.1984,-22.787,6.48164,-22.8657,-5.80477,3.98936,-10.0913,8.28932e-14,-4.62174e-14,-25.724,-15.0321,-27.063,52.311,-19.3753,10.1262,22.0756,7.12502,35.2461,-4.4226,8.28932e-14,-4.62174e-14,-39.7475,11.2694,27.2374,43.3888,23.5713,-25.8122,30.2354,7.12502,0.727154,60.214,-45.6372,4.94502,1.86885,19.5826,1.63358,5.30316,-15.1367,-38.3515,-6.13626,2.59126,9.99361,9.1257,13.8379,-27.6455
12.2542,18.5277,-27.3107,36.3404,-27.4288,0.140613,18.9468,-2.70635,1.71645,-6.46188,-2.91488,1.97923,-18.3161,-1.31066,2.35216,3.13346,7.02618,12.0802,-22.9366,6.4951,-22.7709,-5.8998,4.01027,-10.0602,-2.47984e-14,-5.86415e-15,-26.0218,-15.1344,-26.6251,52.2551,-19.4388,9.40107,21.6125,7.12502,34.5581,-5.04558,-2.47984e-14,-5.86415e-15,-39.9135,11.184,26.9271,43.5636,23.8347,-26.0556,30.3118,7.12502,0.492014,60.291,-45.6637,4.98806,1.82738,19.6224,1.64643,5.25359,-16.4419,-38.3489,-6.08993,2.57517,9.80052,8.4992,14.1222,-23.7904
12.2617,18.5304,-27.3043,36.3198,-27.4151,0.263288,18.8964,-2.67497,1.58475,-6.52368,-2.90425,2.00696,-18.3531,-1.28814,2.45612,3.13814,7.05974,11.995,-23.0335,6.53382,-22.7018,-5.93175,4.03204,-10.0273,-6.4605e-16,-1.98785e-15,-26.2879,-15.2753,-26.263,52.4501,-19.9289,8.98129,21.398,7.12502,34.1595,-5.35024,-6.4605e-16,-1.98785e-15,-39.9906,11.2805,26.6466,43.7612,23.9971,-26.0565,30.6225,7.12502,0.491215,60.6017,-45.667,4.85561,1.7265,19.6101,1.73762,5.40493,-17.1204,-38.368,-6.01801,2.33598,9.7235,8.66043,13.9147,-24.4963
12.2711,18.5312,-27.2978,36.3209,-27.3268,0.323786,18.8428,-2.61789,1.59689,-6.51891,-2.83179,1.96395,-18.3169,-1.26242,2.3703,2.82509,7.09905,12.361,-22.9179,6.57425,-22.9632,-5.79487,4.02653,-10.1591,4.83544e-14,7.35503e-15,-26.5291,-15.5906,-26.0073,52.4512,-20.5237,7.92724,20.9534,7.12502,33.1578,-6.01341,4.83544e-14,7.35503e-15,-39.7904,11.2441,26.4836,43.9289,24.2898,-26.3323,30.8813,7.12502,0.22482,60.861,-45.6212,4.87025,1.58113,19.5476,1.87101,5.23043,-16.4974,-38.4789,-5.95505,2.21008,9.77285,8.7956,13.7011,-24.9792
12.2821,18.5293,-27.2855,36.49,-27.1775,0.253761,18.651,-2.56128,1.81507,-6.55658,-2.71051,1.91827,-18.2584,-1.24075,2.14305,2.52426,7.09529,12.7816,-22.7592,6.56505,-23.2188,-5.65462,3.99136,-10.2976,5.51627e-15,3.67752e-14,-26.7629,-15.9899,-25.7407,52.1382,-20.5862,6.62375,20.6254,7.12502,31.9175,-6.5971,5.51627e-15,3.67752e-14,-39.5378,11.231,26.3041,44.144,24.4137,-26.5546,31.0967,7.12502,0.0100679,61.0765,-45.655,4.8994,1.53805,19.4751,1.91136,5.00728,-15.6223,-38.6394,-5.82813,2.22964,9.78583,8.79738,13.5316,-24.3346
12.2937,18.5258,-27.2703,36.6624,-27.1063,0.251514,18.4392,-2.53049,1.9207,-6.66181,-2.64658,1.92655,-18.2622,-1.22595,2.0655,2.48286,7.06561,12.8771,-22.7105,6.52087,-23.3026,-5.63066,3.96542,-10.3401,-2.75565e-14,3.57812e-15,-26.8987,-16.2014,-25.462,51.9421,-20.6822,5.78242,20.2498,7.12502,31.116,-7.1295,-2.75565e-14,3.57812e-15,-39.6071,11.1787,26.0862,44.4506,24.5829,-26.6478,30.6229,7.12502,-0.0799036,60.6026,-45.7392,4.85214,1.39287,19.4874,1.95544,4.84457,-12.5766,-38.6723,-5.6947,2.11692,9.55906,9.85109,12.5975,-29.59
12.3076,18.5175,-27.2582,36.7175,-26.9671,0.301704,18.3532,-2.55922,2.08131,-6.73077,-2.64663,1.9272,-18.3039,-1.24497,1.97494,2.47001,7.05599,12.9284,-22.6958,6.49829,-23.3882,-5.62014,3.95577,-10.3792,2.59911e-14,-7.05686e-15,-26.9772,-16.734,-25.1742,51.6656,-20.8216,5.30239,20.0176,7.12502,30.6584,-7.44838,2.59911e-14,-7.05686e-15,-39.7201,11.1103,25.793,44.7497,24.916,-26.7622,30.2503,7.12502,-0.190373,60.23,-45.7474,4.84786,1.19255,19.5494,2.0504,4.58186,-10.0075,-38.626,-5.69294,1.97739,9.24437,10.3676,11.9194,-33.3739
12.3243,18.5061,-27.2457,36.7514,-26.8459,0.284496,18.2949,-2.57738,2.31021,-6.72581,-2.61968,1.89191,-18.2751,-1.26362,1.79187,2.36949,7.06065,13.0621,-22.7801,6.48733,-23.4463,-5.61908,3.93985,-10.426,1.31695e-14,-2.83765e-14,-27.0574,-17.637,-24.9273,51.3031,-20.6554,4.967,20.0839,7.12502,30.3385,-7.4415,1.31695e-14,-2.83765e-14,-39.7032,11.1422,25.4862,45.0743,25.0203,-26.8011,30.6542,7.12502,-0.227996,60.6338,-45.7696,4.58706,1.36751,19.6374,1.90013,4.84188,-13.1942,-38.4797,-5.67279,1.85786,8.90377,10.0129,11.993,-32.4117
12.3411,18.5013,-27.2331,36.8574,-26.8115,0.250924,18.1827,-2.59423,2.4634,-6.71823,-2.60931,1.88111,-18.2022,-1.27933,1.68266,2.31917,7.06557,13.0885,-23.0329,6.46078,-23.4134,-5.69329,3.92159,-10.4372,8.42847e-14,-2.06239e-14,-27.0532,-18.0182,-24.8484,51.242,-20.7483,3.916,19.6162,7.12502,29.3355,-8.08937,8.42847e-14,-2.06239e-14,-39.73,11.3646,25.1937,45.3951,24.9577,-26.8868,31.1167,7.12502,-0.310801,61.0962,-45.9077,4.28963,1.55941,19.7834,1.59308,5.2125,-16.134,-38.2638,-5.53123,1.73212,8.38594,9.98316,11.8752,-32.2307
12.3546,18.5033,-27.2242,36.8587,-26.8137,0.289434,18.1952,-2.56972,2.45139,-6.73227,-2.57586,1.89581,-18.2268,-1.26163,1.6969,1.7961,7.0317,13.3749,-22.6273,6.39721,-23.6659,-5.45494,3.85331,-10.5201,3.73964e-15,-3.73467e-14,-27.076,-18.2244,-24.674,51.1836,-20.92,2.60521,19.1121,7.12502,28.0832,-8.80564,3.73964e-15,-3.73467e-14,-39.72,11.6924,24.9467,45.6045,24.9681,-26.938,30.9571,7.12502,-0.360246,60.9366,-45.9864,4.27209,1.45317,19.913,1.41698,5.19094,-17.0938,-38.0346,-5.40302,1.55411,7.93951,9.93535,11.6164,-33.3482
12.366,18.5046,-27.2164,36.7184,-26.8124,0.436578,18.3535,-2.48575,2.30624,-6.79356,-2.49284,1.88987,-18.3999,-1.20601,1.75603,1.23601,6.97643,13.7348,-21.9606,6.33181,-23.9973,-5.12438,3.77827,-10.6252,-1.63003e-14,1.38823e-14,-27.2798,-18.5906,-24.2405,50.9356,-20.9243,1.49772,18.9277,7.12502,27.0241,-9.15896,-1.63003e-14,1.38823e-14,-39.7632,11.7807,24.8342,45.9711,25.1024,-27.2559,30.3387,7.12502,-0.667284,60.3174,-45.8886,4.32101,1.19844,19.9332,1.35809,5.06625,-18.1165,-37.9647,-5.3541,1.30832,7.88169,9.60183,11.5674,-32.0461
12.3806,18.5038,-27.2079,36.6945,-26.709,0.490759,18.4321,-2.43169,2.33126,-6.88196,-2.40662,1.90105,-18.5655,-1.16823,1.73517,1.62988,6.92737,13.4841,-22.361,6.25802,-23.7956,-5.35832,3.7733,-10.5613,-3.03147e-14,-8.18993e-14,-27.5225,-18.8633,-23.7996,50.6957,-21.1867,0.335461,18.7277,7.12502,25.9116,-9.5265,-3.03147e-14,-8.18993e-14,-39.9206,11.6085,24.8075,46.6315,25.327,-27.8307,30.0354,7.12502,-1.22242,60.0116,-45.7625,4.1669,1.17717,19.8676,1.29176,5.11815,-18.5387,-38.131,-5.28163,1.22967,8.05388,9.55011,11.4558,-30.5364
12.3956,18.4995,-27.1997,36.7654,-26.6393,0.27309,18.5228,-2.37047,2.49478,-6.91892,-2.26113,1.98606,-18.6772,-1.11469,1.70028,2.14083,6.8801,13.0864,-23.0077,6.16234,-23.5009,-5.70767,3.77015,-10.4642,-3.89618e-14,4.30369e-14,-27.611,-19.2426,-23.3929,50.3054,-21.2417,-0.436396,18.9028,7.12502,25.1723,-9.45739,-3.89618e-14,4.30369e-14,-40.1147,11.4034,24.7489,47.2951,25.4739,-27.9097,29.75,7.12502,-1.29865,59.7258,-45.6224,4.0223,1.47641,19.7166,1.23311,5.34669,-18.72,-38.2979,-5.05427,1.3229,8.42051,9.44462,11.2642,-30.0437
12.4112,18.4951,-27.1913,36.8769,-26.5591,0.041917,18.5351,-2.32745,2.68448,-6.85757,-2.13844,2.06632,-18.6127,-1.07639,1.64283,2.05776,6.88738,12.9371,-23.2505,6.12777,-23.4193,-5.78619,3.75722,-10.423,-8.94531e-16,1.87355e-14,-27.5502,-19.8543,-23.0777,49.7197,-20.6968,-1.34028,19.0807,7.12502,24.306,-9.39828,-8.94531e-16,1.87355e-14,-40.0565,11.5104,24.5917,47.5541,25.4586,-27.7215,29.2244,7.12502,-1.11695,59.2012,-45.4801,4.13748,1.59652,19.4883,1.18868,5.30918,-19.5212,-38.5842,-4.83979,1.40453,8.96829,9.09253,10.9793,-30.0812
12.4293,18.491,-27.1851,37.092,-26.3475,-0.064805,18.3772,-2.37016,2.93088,-6.7601,-2.13479,2.10144,-18.3961,-1.10279,1.5302,1.71311,7.00281,12.9156,-23.4632,6.22923,-23.4045,-5.76916,3.79283,-10.4088,-7.196e-14,-2.18663e-15,-27.3585,-20.5018,-23.144,49.4688,-20.6391,-3.06708,18.1352,7.12502,22.6496,-10.5558,-7.196e-14,-2.18663e-15,-39.8863,11.7868,24.4236,47.7943,25.5932,-28.0111,29.2028,7.12502,-1.39663,59.178,-45.4708,4.42462,1.4266,19.2748,1.03942,4.82617,-20.5353,-39.0727,-4.73334,1.48529,9.47095,9.3555,10.094,-34.6877
12.4468,18.4819,-27.1813,37.2322,-26.2289,-0.112475,18.3145,-2.38621,3.03678,-6.71792,-2.12989,2.11863,-18.3062,-1.11222,1.48336,1.42752,7.1034,13.0093,-23.5851,6.32585,-23.4672,-5.72556,3.82432,-10.4398,-1.51573e-14,6.21202e-15,-27.2071,-20.7821,-23.4071,49.8084,-21.6937,-5.58525,15.9977,7.12502,20.231,-12.9687,-1.51573e-14,6.21202e-15,-39.9083,11.9223,24.2798,48.3757,25.9741,-28.4986,29.8155,7.12502,-1.86748,59.7871,-45.4947,4.74095,1.15708,19.1203,0.970036,4.30759,-20.4367,-39.3966,-4.59782,1.47146,9.81401,9.44113,9.42654,-37.6625
12.4645,18.473,-27.1772,37.1554,-26.3244,0.07738,18.4418,-2.32088,2.79411,-6.7426,-2.10091,2.0975,-18.4087,-1.07154,1.59339,1.25564,7.10082,13.066,-23.5656,6.30168,-23.5253,-5.68609,3.80257,-10.4606,3.18055e-15,-6.10269e-14,-27.1666,-21.5588,-23.156,49.2998,-20.8833,-6.72544,15.9085,7.12502,19.1349,-13.1702,3.18055e-15,-6.10269e-14,-39.9328,12.1101,24.1084,48.8547,26.3974,-28.7318,30.6793,7.12502,-2.09272,60.6488,-45.4666,4.91286,0.68898,19.0358,0.961734,3.95267,-19.7038,-39.501,-4.50217,1.10259,9.97517,9.35647,9.01659,-39.1987
12.4848,18.4625,-27.1742,37.0398,-26.3317,0.407495,18.6573,-2.30164,2.5681,-6.82192,-2.12981,2.05856,-18.6408,-1.05815,1.70055,1.09309,7.10037,12.9646,-23.404,6.31055,-23.4578,-5.6142,3.80003,-10.3945,-4.12975e-14,-1.8487e-14,-27.179,-22.1676,-22.7733,48.6037,-20.2229,-7.22789,16.4593,7.12502,18.6516,-12.6665,-4.12975e-14,-1.8487e-14,-39.9751,12.2236,23.9483,49.2501,26.6052,-28.8192,31.1165,7.12502,-2.1771,61.0851,-45.4468,4.98667,0.144461,19.0409,0.800902,3.54286,-20.0723,-39.6097,-4.54461,0.680168,9.92838,9.68526,8.23758,-42.2509
12.5046,18.4476,-27.1705,37.1071,-26.0809,0.478207,18.701,-2.32141,2.71916,-6.86262,-2.11094,2.07647,-18.7286,-1.06545,1.63455,0.988923,7.05585,12.7754,-23.3769,6.25212,-23.2935,-5.61866,3.76888,-10.2937,-3.51849e-14,-2.36554e-14,-27.4119,-22.4543,-22.3594,48.3094,-20.2531,-7.5794,16.7486,7.12502,18.3135,-12.4093,-3.51849e-14,-2.36554e-14,-39.9998,12.3183,23.8507,49.7101,26.4357,-28.9194,30.649,7.12502,-2.27387,60.6166,-45.4644,5.04591,-0.0447329,19.1021,0.651392,3.11555,-20.8799,-39.7775,-4.5683,0.674761,9.7516,9.92132,7.58819,-44.0657
12.5222,18.4376,-27.1669,37.1248,-25.8607,0.432556,18.7357,-2.28477,2.862,-6.80163,-2.01424,2.11975,-18.6777,-1.03598,1.5698,1.01344,6.90576,12.7577,-23.6976,5.98633,-23.3064,-5.77519,3.64421,-10.3303,9.651e-14,-5.06901e-15,-27.6342,-23.1284,-22.0442,48.1571,-20.325,-8.47936,16.6124,7.12502,17.4475,-12.6246,9.651e-14,-5.06901e-15,-39.9588,12.5376,23.8156,50.2823,26.3873,-29.1349,30.1643,7.12502,-2.48197,60.1296,-45.4018,5.22256,-0.14779,19.1359,0.564256,2.68651,-20.9878,-39.8416,-4.52743,0.746502,9.65434,9.95776,7.26137,-44.6904
12.5427,18.4316,-27.1628,37.0722,-25.7624,0.480676,18.847,-2.27878,2.91347,-6.75723,-1.98842,2.11275,-18.6955,-1.03033,1.52656,1.13386,6.81214,12.8637,-24.0908,5.79006,-23.4405,-5.9452,3.55841,-10.4439,2.74323e-14,-7.2954e-14,-27.562,-23.8852,-22.1033,47.9611,-20.5086,-10.2684,15.8355,7.12502,15.7252,-13.5456,2.74323e-14,-7.2954e-14,-39.9628,12.5484,23.7353,50.8715,26.7477,-29.2633,29.9581,7.12502,-2.60596,59.9219,-45.3139,5.47856,-0.447361,19.0707,0.44545,2.20266,-20.9945,-39.9982,-4.48888,0.63123,9.83165,10.0982,6.7914,-46.04
12.5652,18.4267,-27.1531,37.2004,-25.7227,0.454623,18.8017,-2.30188,3.05384,-6.76016,-1.99164,2.07125,-18.6783,-1.05263,1.39747,1.17898,6.85316,12.8085,-24.3513,5.83527,-23.3175,-6.03596,3.58121,-10.4119,5.26779e-15,-4.69132e-14,-27.4784,-24.1529,-22.2788,47.8892,-20.8783,-11.9444,14.7242,7.12502,14.1105,-14.7767,5.26779e-15,-4.69132e-14,-39.9836,12.4453,23.5352,51.3104,26.9888,-29.3708,29.7355,7.12502,-2.70986,59.698,-45.3344,5.55192,-0.60941,18.911,0.387145,1.98977,-20.5277,-40.3764,-4.34901,0.503391,10.2489,9.9588,6.5146,-46.8766
12.5872,18.4249,-27.1458,37.3242,-25.7867,0.410573,18.8201,-2.23139,3.08126,-6.77484,-1.89715,2.00911,-18.7117,-1.02003,1.27757,1.12005,6.89347,12.7297,-24.424,5.90863,-23.1279,-6.04905,3.60807,-10.3287,-2.3556e-14,3.93594e-14,-27.73,-24.1945,-22.1327,47.9217,-21.3493,-13.2502,13.9427,7.12502,12.852,-15.6416,-2.3556e-14,3.93594e-14,-39.9003,12.5417,23.3472,51.6852,26.8911,-29.4613,29.6579,7.12502,-2.79722,59.6193,-45.3394,5.60165,-0.739861,18.7093,0.402052,1.95264,-20.4183,-40.7165,-4.01942,0.230534,10.7588,9.25599,6.61015,-45.8411
12.6097,18.4223,-27.1435,37.4038,-25.872,0.405099,18.9671,-2.09177,2.99894,-6.87202,-1.72513,1.97443,-18.9285,-0.937055,1.23498,1.11399,6.82021,12.8907,-24.2775,5.81118,-23.2843,-6.00439,3.55733,-10.4058,1.42131e-14,6.16232e-15,-28.1291,-24.2987,-21.7418,47.8195,-21.8323,-14.4758,13.6607,7.12502,11.6702,-15.9942,1.42131e-14,6.16232e-15,-39.8238,12.6783,23.2763,52.1016,26.7321,-29.5036,29.7529,7.12502,-2.83809,59.7137,-45.3293,5.80545,-1.01131,18.4973,0.424726,1.784,-22.2166,-41.1039,-3.64287,-0.0964953,11.351,8.50527,6.65957,-44.2465
12.6342,18.4184,-27.1393,37.558,-25.784,0.398935,19.0333,-2.03954,3.07321,-6.98174,-1.6259,1.98832,-19.1159,-0.901194,1.18328,1.11828,6.76148,12.9445,-24.2224,5.72763,-23.355,-5.99802,3.51691,-10.4396,-7.05686e-15,2.5842e-15,-28.3519,-24.5489,-21.4431,47.508,-21.7877,-15.4228,13.6299,7.12502,10.757,-16.0746,-7.05686e-15,2.5842e-15,-39.8277,12.6725,23.2354,52.562,26.7653,-29.6368,30.0177,7.12502,-2.96671,59.9768,-45.3595,6.01847,-1.31175,18.3207,0.465641,1.42532,-23.7886,-41.6531,-3.37104,-0.308613,11.9617,7.91238,6.55523,-43.0332
12.6594,18.413,-27.1366,37.7263,-25.5726,0.410883,18.9754,-2.09,3.2991,-6.96451,-1.64036,1.96793,-19.0661,-0.937299,1.03329,0.989867,6.77953,12.8421,-24.433,5.73565,-23.1722,-6.0548,3.51105,-10.3639,-9.67087e-14,6.52014e-14,-28.354,-24.9478,-21.4561,47.1685,-21.4131,-16.8117,12.6052,7.12502,9.41704,-17.1645,-9.67087e-14,6.52014e-14,-39.7785,12.7558,23.0974,53.0465,26.8877,-29.7876,30.2998,7.12502,-3.11237,60.2569,-45.4124,6.16455,-1.59637,18.2063,0.558521,0.968638,-23.9539,-42.2165,-3.05604,-0.560992,12.4636,7.49102,6.07886,-42.7855
12.6812,18.4053,-27.1374,37.7539,-25.5324,0.410084,18.9925,-2.11566,3.31841,-6.80844,-1.67508,1.95003,-18.877,-0.955517,1.00597,0.688964,6.85304,12.7839,-24.6704,5.79026,-23.0697,-6.07166,3.52176,-10.3175,-7.92157e-14,5.18828e-14,-28.0552,-25.5734,-21.7244,46.8538,-21.2992,-18.6886,10.3304,7.12502,7.60569,-19.5129,-7.92157e-14,5.18828e-14,-39.8021,13.1718,22.9089,53.5422,26.7825,-29.9983,30.2714,7.12502,-3.31583,60.2253,-45.3968,6.33106,-1.8324,18.1081,0.67629,0.770639,-24.0615,-42.541,-2.68177,-0.886212,12.9245,7.28467,5.42876,-43.488
12.7029,18.3998,-27.1348,37.6415,-25.6392,0.479347,19.1612,-2.09599,3.14646,-6.66605,-1.69169,1.92976,-18.7962,-0.942218,1.08482,0.535036,6.88021,12.7545,-24.9092,5.7743,-23.0757,-6.12218,3.51082,-10.3266,5.81445e-14,4.25399e-14,-27.7137,-26.2478,-21.9556,46.5036,-21.26,-19.8847,9.30467,7.12502,6.4511,-20.5771,5.81445e-14,4.25399e-14,-39.8646,13.4717,22.7971,53.977,26.711,-30.3031,30.1411,7.12502,-3.61013,60.0903,-45.2846,6.68074,-2.26152,17.9936,0.70834,0.484986,-24.1311,-42.7194,-2.5192,-1.19526,13.4306,7.17248,5.06692,-43.7175
12.7292,18.3973,-27.1272,37.6783,-25.5381,0.542294,19.2188,-2.06504,3.24786,-6.66161,-1.62547,1.89025,-18.8324,-0.92861,0.959727,0.548839,6.75672,12.8452,-24.9794,5.57359,-23.1863,-6.17605,3.41384,-10.3964,-9.54166e-15,-3.04141e-14,-27.8191,-26.4672,-21.8555,46.3051,-21.5122,-19.7583,11.0485,7.12502,6.57313,-18.8295,-9.54166e-15,-3.04141e-14,-39.7125,13.3331,22.8563,54.4175,26.8641,-30.7647,30.2363,7.12502,-4.05592,60.1774,-45.2387,6.92012,-2.64723,17.8764,0.693585,0.0152189,-23.7532,-43.1103,-2.23688,-1.54087,13.8929,7.00227,4.52176,-43.1281
12.7563,18.3934,-27.1209,37.8574,-25.2683,0.508924,19.2112,-2.0131,3.50783,-6.72923,-1.47762,1.9194,-18.922,-0.893132,0.79824,0.542859,6.60751,12.8038,-24.8681,5.36306,-23.2241,-6.18231,3.316,-10.3983,-3.20043e-14,7.11649e-14,-28.1108,-26.4669,-21.4831,46.1389,-22.0087,-21.1202,10.4699,7.12502,5.25833,-19.4448,-3.20043e-14,7.11649e-14,-39.5109,13.1238,23.0341,54.9466,27.1279,-31.0268,30.4006,7.12502,-4.30903,60.3368,-45.2484,6.84895,-2.71032,17.7552,0.691333,-0.172596,-23.3048,-43.6156,-1.73466,-1.88625,14.2698,6.71259,3.64652,-43.2875
12.7822,18.3843,-27.1201,37.907,-25.1399,0.528972,19.4048,-1.99016,3.5391,-6.78197,-1.4207,1.94767,-19.116,-0.868984,0.804152,0.801546,6.54398,12.6756,-25.1222,5.26199,-23.1662,-6.34028,3.28917,-10.3915,6.34123e-14,-2.127e-14,-28.0944,-26.5698,-21.3931,45.8545,-22.4092,-21.9233,10.1622,7.12502,4.4828,-19.7704,6.34123e-14,-2.127e-14,-39.6509,13.094,23.0147,55.6033,27.4121,-30.8506,30.4667,7.12502,-4.13884,60.4063,-45.2106,6.97156,-2.95738,17.6411,0.677119,-0.440959,-23.4594,-43.9809,-1.43374,-2.17518,14.6272,6.32243,3.18234,-44.0425
12.8093,18.3739,-27.1229,37.8753,-25.1207,0.584771,19.6052,-2.0326,3.49717,-6.73423,-1.48535,1.91686,-19.1852,-0.893422,0.820001,1.02137,6.5895,12.7284,-25.4767,5.29266,-23.2358,-6.48063,3.32016,-10.4703,7.14631e-14,-3.06128e-14,-27.7894,-26.9345,-21.7091,45.5526,-22.6338,-22.9023,9.98112,7.12502,3.53748,-19.9693,7.14631e-14,-3.06128e-14,-39.9089,13.2613,22.7716,56.1567,27.4444,-30.7109,30.2005,7.12502,-4.00396,60.1426,-45.1844,7.27726,-3.37653,17.5563,0.729027,-0.898973,-23.6217,-44.2484,-1.26851,-2.41921,14.9584,6.04373,2.95804,-44.5132
12.8353,18.3695,-27.1211,37.8704,-25.1608,0.626646,19.6497,-2.0237,3.48793,-6.63853,-1.48653,1.85093,-19.0912,-0.898003,0.744362,0.943944,6.61659,12.7668,-25.5001,5.31732,-23.2798,-6.46409,3.32975,-10.4913,1.68967e-15,5.48646e-14,-27.6782,-27.5692,-21.8169,45.2133,-22.3737,-23.5672,9.92339,7.12502,2.89536,-20.0367,1.68967e-15,5.48646e-14,-39.9292,13.3935,22.6263,56.5378,27.3571,-30.5899,29.805,7.12502,-3.88712,59.7493,-45.167,7.40987,-3.66754,17.4472,0.824697,-1.125,-23.3626,-44.4685,-1.13957,-2.62863,15.2645,5.84736,2.68207,-44.5454
12.8594,18.3659,-27.1158,37.9467,-25.2428,0.650131,19.676,-1.92152,3.44966,-6.61492,-1.36847,1.7811,-19.0751,-0.848351,0.640596,0.735688,6.58379,12.7301,-25.3963,5.27696,-23.201,-6.40728,3.29615,-10.4352,9.99887e-14,2.8625e-14,-27.8322,-27.9509,-21.6637,44.8259,-21.9575,-23.8918,10.1006,7.12502,2.58183,-19.8635,9.99887e-14,2.8625e-14,-39.8174,13.3808,22.6315,56.9608,27.3871,-30.4731,29.2887,7.12502,-3.77432,59.235,-45.187,7.75017,-4.12127,17.2433,0.905764,-1.53815,-23.3022,-44.7945,-0.984466,-2.82178,15.6591,5.41435,2.71843,-42.8231
12.884,18.3571,-27.1124,38.0591,-25.2654,0.562657,19.7797,-1.82611,3.50647,-6.59711,-1.22279,1.74686,-19.1187,-0.794692,0.518277,0.477304,6.57021,12.7299,-25.3124,5.24645,-23.1887,-6.33972,3.26692,-10.4099,1.63003e-14,-5.02925e-14,-27.875,-28.2651,-21.6037,44.3941,-21.7818,-24.615,9.91349,7.12502,1.88338,-20.0579,1.63003e-14,-5.02925e-14,-39.6144,13.4394,22.6239,57.1944,27.4446,-30.8284,28.6725,7.12502,-4.11741,58.6124,-45.2013,8.34131,-4.61078,17.0016,0.973088,-2.24156,-23.5693,-45.1741,-0.813476,-2.87195,16.1539,4.81404,2.98904,-39.9861
12.909,18.3496,-27.1108,38.0749,-25.2763,0.412045,20.055,-1.78438,3.54856,-6.57668,-1.13288,1.78266,-19.2697,-0.756504,0.512856,0.398727,6.58217,12.686,-25.3152,5.24657,-23.214,-6.32633,3.26928,-10.4072,1.21259e-14,2.34566e-14,-27.7487,-28.4033,-21.6307,44.1239,-21.8843,-25.6321,9.00068,7.12502,0.90106,-20.9772,1.21259e-14,2.34566e-14,-39.6216,13.4413,22.6316,57.5412,27.7011,-31.5354,29.2838,7.12502,-4.80013,59.2095,-45.1265,8.76975,-4.83457,16.8271,1.04971,-2.68373,-23.9463,-45.3811,-0.709394,-2.83327,16.6459,4.38919,2.96835,-39.3749
12.9366,18.3437,-27.1094,38.1517,-25.3322,0.358055,20.2545,-1.73612,3.4581,-6.60888,-1.07208,1.83202,-19.4363,-0.714269,0.60875,0.33785,6.60093,12.543,-25.2581,5.27486,-23.1549,-6.30121,3.28799,-10.3496,-3.598e-14,1.72943e-14,-27.6163,-28.2026,-21.6134,44.0033,-22.5255,-26.8462,7.79919,7.12502,-0.271534,-22.1804,-3.598e-14,1.72943e-14,-39.8242,13.3207,22.7203,58.1279,27.9222,-31.9474,29.9004,7.12502,-5.19798,59.8167,-45.1726,8.83177,-4.98285,16.7021,1.13734,-2.73756,-23.6235,-45.6788,-0.540178,-2.97278,17.1317,4.11383,2.58544,-40.7041
12.9645,18.3344,-27.1034,38.2426,-25.3894,0.406504,20.2654,-1.65363,3.40242,-6.63633,-0.983957,1.77475,-19.4763,-0.675222,0.541111,0.419009,6.54265,12.4617,-25.2645,5.21994,-23.0179,-6.34162,3.26261,-10.2899,3.61788e-14,-2.32578e-14,-27.7457,-28.1824,-21.5712,43.923,-23.2673,-27.997,7.26814,7.12502,-1.38298,-22.7071,3.61788e-14,-2.32578e-14,-39.781,13.2517,22.7137,58.3547,27.6887,-31.7187,28.7753,7.12502,-4.97715,58.6968,-45.2542,8.57488,-5.05328,16.6364,1.1498,-2.47732,-23.6325,-46.0582,-0.165115,-3.39185,17.5845,3.86142,1.98644,-40.8495
12.9885,18.3266,-27.0951,38.2981,-25.2977,0.344411,20.3137,-1.64158,3.56512,-6.66258,-0.927319,1.72055,-19.5466,-0.676411,0.36592,0.837737,6.46386,12.5544,-25.4615,5.13902,-22.9856,-6.49647,3.2362,-10.337,-1.23246e-14,-3.57812e-14,-27.8639,-28.3063,-21.6822,43.7266,-23.0651,-28.8957,7.31147,7.12502,-2.25096,-22.6564,-1.23246e-14,-3.57812e-14,-39.6735,13.2898,22.5975,58.4887,27.4509,-31.4787,28.028,7.12502,-4.74538,57.9548,-45.2418,8.3743,-4.91212,16.6652,1.0675,-2.31442,-24.589,-46.3579,0.282723,-3.7086,17.9502,3.79636,1.27053,-40.6885
13.0135,18.3193,-27.0901,38.3954,-25.1243,0.274202,20.3689,-1.70356,3.76949,-6.67041,-0.949437,1.72511,-19.6,-0.710861,0.265746,1.03179,6.47919,12.6553,-25.4179,5.17647,-23.1052,-6.49957,3.26623,-10.4067,3.37934e-14,-2.66371e-14,-27.596,-28.5773,-21.8917,43.2245,-22.2417,-29.3323,7.07496,7.12502,-2.67259,-22.888,3.37934e-14,-2.66371e-14,-39.6192,13.5121,22.5351,58.7997,27.3072,-31.3568,28.1467,7.12502,-4.6277,58.0761,-45.2535,8.5154,-5.01021,16.6613,1.06505,-2.67935,-25.552,-46.7185,0.489309,-3.81416,18.2997,3.78069,0.651877,-42.6019
13.0404,18.3113,-27.0882,38.4832,-25.1698,0.413271,20.3819,-1.69433,3.6262,-6.70082,-0.980161,1.70408,-19.6451,-0.708762,0.334796,1.03783,6.48803,12.5937,-25.2537,5.20357,-23.1304,-6.44422,3.28703,-10.3899,2.18663e-14,5.1684e-15,-27.2964,-28.4884,-22.0418,42.9098,-22.3164,-29.3658,7.03041,7.12502,-2.70501,-22.9322,2.18663e-14,5.1684e-15,-39.6707,13.6649,22.5278,59.1719,27.1769,-31.1698,28.0739,7.12502,-4.44713,58.0073,-45.3433,8.83636,-5.61491,16.5249,1.22122,-3.20627,-25.7145,-47.1524,0.495395,-4.06367,18.7062,3.56868,0.400577,-44.2124
13.0645,18.3061,-27.0844,38.6308,-25.2406,0.355047,20.4005,-1.61042,3.53339,-6.73371,-0.88497,1.73336,-19.6944,-0.653844,0.389082,1.09271,6.42696,12.4932,-25.2896,5.11329,-23.089,-6.49116,3.25144,-10.3637,3.79679e-14,-7.31528e-14,-27.2114,-28.0925,-22.1337,42.9585,-23.0213,-29.4881,7.17198,7.12502,-2.82306,-22.7891,3.79679e-14,-7.31528e-14,-39.791,13.5182,22.6393,59.6645,27.3775,-31.5875,28.3226,7.12502,-4.85042,58.247,-45.4348,9.18406,-5.99533,16.3453,1.34756,-3.60278,-25.5,-47.5016,0.713404,-4.23688,19.1222,3.12263,0.328279,-43.5107
13.0864,18.3003,-27.0795,38.7898,-25.2115,0.0519025,20.4531,-1.51424,3.68617,-6.64503,-0.704705,1.75571,-19.611,-0.591882,0.260316,0.859235,6.41979,12.6365,-25.2979,5.0716,-23.1989,-6.44582,3.2157,-10.4205,-1.15295e-14,1.35174e-14,-27.2583,-28.2365,-22.2466,43.0361,-23.0641,-29.5845,6.76336,7.12502,-2.91616,-23.1964,-1.15295e-14,1.35174e-14,-39.6592,13.4067,22.7382,60.0648,27.5215,-32.0369,28.4277,7.12502,-5.28436,58.3418,-45.466,9.59217,-6.05694,16.1935,1.34183,-4.03023,-25.6187,-47.7219,1.17493,-4.28801,19.5041,2.66969,-0.0656867,-43.0402
13.1104,18.2919,-27.0751,38.9532,-25.236,-0.0929123,20.4363,-1.43116,3.74484,-6.54872,-0.58739,1.70169,-19.472,-0.552276,0.114974,0.382451,6.49838,12.8404,-25.095,5.16737,-23.304,-6.25811,3.22798,-10.4523,2.76311e-14,-9.54166e-14,-27.2499,-28.6373,-22.3708,42.9552,-22.8069,-30.2076,6.11752,7.12502,-3.51799,-23.8332,2.76311e-14,-9.54166e-14,-39.4724,13.4515,22.6931,60.3906,27.4834,-32.1584,27.9085,7.12502,-5.40162,57.8197,-45.5892,9.9254,-6.3261,16.1053,1.25859,-4.55909,-25.328,-48.012,1.49428,-4.43829,19.8173,2.48412,-0.444058,-43.5654
13.1369,18.2845,-27.069,39.0051,-25.3104,0.0694303,20.3999,-1.35676,3.61504,-6.50937,-0.540492,1.61884,-19.3927,-0.523317,0.0701135,0.185192,6.50058,12.7471,-24.9895,5.17453,-23.2274,-6.19574,3.22387,-10.3867,-3.77691e-15,3.65764e-14,-27.1989,-28.9624,-22.3303,42.602,-22.6435,-31.52,6.00346,7.12502,-4.78522,-23.9225,-3.77691e-15,3.65764e-14,-39.3612,13.487,22.7378,60.7276,27.4491,-32.1757,27.4468,7.12502,-5.41838,57.3576,-45.7074,9.89601,-6.69411,16.1375,1.2046,-4.82412,-25.5936,-48.2943,1.59216,-4.82725,19.9944,2.40961,-0.633141,-43.6651
13.1636,18.2772,-27.0652,38.9039,-25.3967,0.329269,20.5244,-1.30996,3.45329,-6.50099,-0.535121,1.51154,-19.4598,-0.511468,0.0343105,0.436561,6.39536,12.5667,-25.156,5.03804,-23.0788,-6.33957,3.17643,-10.3287,4.37326e-15,7.7526e-15,-27.2922,-29.1064,-22.2442,42.3737,-22.5273,-32.1425,6.33561,7.12502,-5.38634,-23.5759,4.37326e-15,7.7526e-15,-39.2301,13.4868,22.7757,60.8514,27.0876,-31.842,27.4655,7.12502,-5.09614,57.3842,-45.7338,9.57374,-6.87629,16.2387,1.18255,-4.65578,-26.0021,-48.4148,1.61458,-5.28959,20.0731,2.3451,-0.86443,-43.9743
13.1905,18.2717,-27.0623,38.879,-25.3664,0.305483,20.6454,-1.32476,3.51054,-6.76963,-0.522855,1.52498,-19.251,-0.531846,-0.0733037,0.7207,6.38239,12.5246,-25.264,5.03873,-23.0397,-6.43074,3.19418,-10.331,-5.00937e-14,-3.79679e-14,-27.3336,-29.0003,-22.3438,42.4141,-22.7197,-32.1766,6.52747,7.12502,-5.41923,-23.3832,-5.00937e-14,-3.79679e-14,-39.2853,13.3468,22.7127,61.13,26.9603,-31.8235,28.3165,7.12502,-5.07833,58.2357,-45.7934,9.56598,-6.91828,16.3905,1.13031,-4.7943,-25.2502,-48.4579,1.53977,-5.28133,20.1186,2.41708,-0.895457,-44.2743
13.214,18.2695,-27.0594,38.9578,-25.2949,0.223059,20.7055,-1.35684,3.58759,-6.69504,-0.542536,1.52785,-19.1936,-0.548036,-0.106625,0.687873,6.46362,12.5118,-25.3612,5.14406,-23.0227,-6.43576,3.24634,-10.3271,-6.42074e-14,1.90833e-14,-27.1516,-28.85,-22.6508,42.4693,-23.194,-32.8045,6.14758,7.12502,-6.02546,-23.7467,-6.42074e-14,1.90833e-14,-39.4514,13.3796,22.6542,61.7325,27.1289,-32.075,29.2769,7.12502,-5.32113,59.1901,-45.9771,9.8983,-7.17043,16.6176,1.06312,-5.35104,-24.9848,-48.5815,1.47711,-5.18381,20.1572,2.39809,-0.798436,-43.869
13.2333,18.2622,-27.0623,39.1629,-25.25,0.275217,20.5989,-1.36355,3.57069,-6.34983,-0.588141,1.43325,-19.316,-0.553549,-0.109538,0.522628,6.4606,12.4199,-25.4912,5.12539,-22.8765,-6.46307,3.22706,-10.2586,2.5842e-15,-6.75868e-15,-26.9593,-28.8294,-22.9707,42.5036,-23.6516,-33.6112,5.59388,7.12502,-6.80429,-24.2768,2.5842e-15,-6.75868e-15,-39.4783,13.6974,22.5779,62.1638,26.7863,-31.8819,29.4158,7.12502,-5.13474,59.3336,-46.3078,10.0702,-7.55855,16.7991,0.924435,-5.81738,-25.0468,-48.9598,1.68488,-5.43981,20.2633,2.22058,-1.03902,-43.8051
13.2524,18.2492,-27.065,39.342,-25.256,0.34199,20.4766,-1.32815,3.49188,-6.34111,-0.578669,1.37878,-19.2235,-0.544638,-0.136062,0.474804,6.42202,12.3197,-25.4802,5.0776,-22.7773,-6.4707,3.20298,-10.2006,-6.95746e-15,-1.39149e-15,-26.7991,-29.1595,-23.1075,42.3406,-23.6362,-34.0513,5.28298,7.12502,-7.22909,-24.5735,-6.95746e-15,-1.39149e-15,-39.371,13.853,22.5587,62.3222,26.3707,-31.7136,29.5739,7.12502,-4.97224,59.4956,-46.6005,10.1113,-7.88043,16.9271,0.826524,-6.14925,-24.4092,-49.3602,2.01891,-5.83268,20.4339,2.09327,-1.37757,-44.1827
13.2698,18.2386,-27.0635,39.3909,-25.3087,0.282277,20.5996,-1.28252,3.42128,-6.30006,-0.5337,1.36408,-19.2467,-0.517546,-0.128772,0.440575,6.43283,12.2994,-25.4201,5.0976,-22.7803,-6.44196,3.21371,-10.1906,1.66979e-14,2.36554e-14,-26.56,-29.692,-23.2105,42.041,-23.3482,-33.9548,5.35059,7.12502,-7.13593,-24.5091,1.66979e-14,2.36554e-14,-39.2965,13.7833,22.5703,62.601,26.4526,-32.0816,30.1169,7.12502,-5.32755,60.0299,-46.7941,10.4172,-8.15975,17.0912,0.799152,-6.59001,-24.34,-49.5187,2.2702,-6.02646,20.6025,1.90652,-1.45803,-44.1153
13.2853,18.2286,-27.0692,39.5165,-25.3257,0.154736,20.7157,-1.25165,3.4053,-6.28341,-0.49388,1.34531,-19.2987,-0.50017,-0.154995,0.598886,6.38923,12.246,-25.4974,5.04522,-22.7293,-6.51185,3.1983,-10.178,-1.23246e-14,-2.68359e-14,-26.5085,-29.8311,-23.3445,41.982,-23.4105,-33.4751,5.62151,7.12502,-6.67284,-24.2533,-1.23246e-14,-2.68359e-14,-39.3355,13.6934,22.435,62.9955,26.7586,-32.257,29.9751,7.12502,-5.49692,59.8838,-47.0397,10.8431,-8.46625,17.1682,0.731849,-7.13243,-24.1713,-49.767,2.57427,-6.12102,20.7977,1.76123,-1.62741,-43.0387
13.3039,18.2189,-27.0767,39.6041,-25.3684,0.169975,20.8408,-1.21512,3.35879,-6.32578,-0.467199,1.24866,-19.4339,-0.493395,-0.250271,0.906045,6.25765,12.1352,-25.6568,4.89052,-22.5372,-6.66708,3.13398,-10.119,1.31198e-14,1.61016e-14,-26.6139,-29.5886,-23.5069,42.1001,-23.4478,-33.9667,4.90999,7.12502,-7.14743,-24.9493,1.31198e-14,1.61016e-14,-39.3136,13.6544,22.2292,63.0828,26.9198,-31.9526,28.7722,7.12502,-5.20298,58.6884,-47.1595,10.993,-8.75631,17.0728,0.86148,-7.37012,-24.175,-50.0951,2.90927,-6.44903,21.0593,1.75084,-2.05139,-42.7941
13.3246,18.2182,-27.0708,39.5447,-25.502,0.213822,21.0056,-1.14459,3.2219,-6.29905,-0.415087,1.18179,-19.5017,-0.460622,-0.26969,0.826237,6.23536,12.1945,-25.5085,4.87762,-22.5405,-6.60472,3.11786,-10.1143,-8.94531e-15,-3.51849e-14,-26.4987,-29.4465,-23.7077,42.128,-23.4013,-35.003,4.09414,7.12502,-8.1477,-25.7288,-8.94531e-15,-3.51849e-14,-39.2214,13.6688,22.2043,63.018,26.9536,-31.9398,28.0085,7.12502,-5.19056,57.9249,-47.0452,10.9187,-8.8465,16.9181,1.03642,-7.19385,-25.1986,-50.2122,3.13808,-6.83112,21.3603,1.61873,-2.29516,-43.2516
13.3424,18.2163,-27.0646,39.5803,-25.5947,0.150452,21.0428,-1.0504,3.08839,-6.21973,-0.323885,1.19044,-19.4166,-0.40288,-0.218944,0.644403,6.30751,12.4766,-25.3461,4.95075,-22.8723,-6.47292,3.14598,-10.2655,-1.90833e-14,4.17448e-14,-26.3228,-29.7185,-23.8097,41.9856,-23.5855,-35.0948,4.76277,7.12502,-8.23628,-25.0567,-1.90833e-14,4.17448e-14,-39.0783,13.6772,22.2803,63.1002,26.9335,-32.1694,28.437,7.12502,-5.41225,58.3479,-46.9893,10.8662,-8.83702,16.7837,1.02384,-7.05721,-25.5486,-50.3729,3.30223,-6.99062,21.6511,1.46085,-2.26342,-42.1586
13.3585,18.2089,-27.0665,39.7499,-25.4783,0.0296069,21.0133,-1.02831,3.20065,-6.17904,-0.26646,1.17311,-19.3443,-0.392591,-0.326363,0.844177,6.24497,12.5313,-25.5834,4.85561,-22.8641,-6.60335,3.10674,-10.3061,-1.94809e-14,-1.94809e-14,-26.3672,-29.8061,-23.8849,41.9402,-23.9677,-34.9471,5.70184,7.12502,-8.09369,-24.1232,-1.94809e-14,-1.94809e-14,-38.857,13.5569,22.2199,63.2118,26.8734,-32.0945,28.86,7.12502,-5.34,58.7727,-47.0384,10.7821,-8.73199,16.6919,1.01606,-7.12199,-24.9276,-50.687,3.39166,-6.93068,21.8888,1.27919,-2.22939,-40.7549
13.3749,18.2068,-27.0683,39.8953,-25.3715,0.095522,20.9543,-1.08309,3.27108,-6.1999,-0.335233,1.10464,-19.3373,-0.437476,-0.422893,1.03321,6.19218,12.4154,-25.7016,4.81185,-22.6632,-6.70215,3.09051,-10.2307,-1.23246e-14,3.65764e-14,-26.4992,-29.3524,-24.0738,42.213,-24.3245,-35.3202,5.77808,7.12502,-8.45378,-24.0327,-1.23246e-14,3.65764e-14,-38.7598,13.5217,22.0674,63.326,26.8581,-32.1297,29.0807,7.12502,-5.37391,58.9926,-47.1536,10.5889,-8.78036,16.7121,0.942062,-7.27779,-24.2998,-51.0033,3.32328,-6.99737,22.0409,0.930116,-2.1631,-41.2886
13.3911,18.2035,-27.0716,39.8753,-25.3866,0.444955,20.9301,-1.15603,3.05472,-6.23078,-0.512056,1.0256,-19.3648,-0.49542,-0.327987,0.98412,6.25111,12.5458,-25.5336,4.89382,-22.8403,-6.60673,3.13037,-10.3024,-2.62396e-14,-2.3059e-14,-26.4111,-29.0826,-24.3341,42.4073,-24.2923,-35.7409,5.439,7.12502,-8.85978,-24.355,-2.62396e-14,-2.3059e-14,-38.8954,13.6519,21.969,63.531,26.8716,-32.4402,29.2884,7.12502,-5.67375,59.1925,-47.2553,10.4394,-9.20507,16.8249,0.797398,-7.55525,-24.3301,-51.2494,3.10619,-7.34353,22.1314,0.682659,-2.10936,-42.5654
13.4049,18.1994,-27.0749,39.6973,-25.3202,0.695243,21.0963,-1.21976,2.93728,-6.16459,-0.63568,0.976594,-19.3883,-0.538199,-0.272385,0.765905,6.29465,12.6721,-25.3199,4.93424,-23.0557,-6.47149,3.14409,-10.3753,-5.32743e-14,-7.35503e-15,-26.0322,-29.3643,-24.5941,42.1652,-24.0232,-35.9042,5.12063,7.12502,-9.01733,-24.6666,-5.32743e-14,-7.35503e-15,-38.9186,13.7589,21.941,63.6888,26.8298,-32.408,29.2533,7.12502,-5.64269,59.1581,-47.1972,10.423,-9.47275,16.9588,0.731561,-7.86181,-24.0708,-51.3031,2.90157,-7.57526,22.2162,0.573969,-2.1911,-43.0839
13.4157,18.1932,-27.0792,39.7103,-25.1142,0.620997,21.203,-1.21872,3.09609,-6.05412,-0.586457,0.968961,-19.3152,-0.535188,-0.391197,0.345116,6.30908,12.5843,-25.0639,4.95406,-22.9961,-6.3154,3.13437,-10.2919,4.29375e-14,5.1684e-15,-25.863,-29.7292,-24.6553,41.9091,-24.0477,-35.4541,4.95571,7.12502,-8.58303,-24.8498,4.29375e-14,5.1684e-15,-38.5486,13.7311,21.9963,63.6553,26.7312,-32.1843,29.2291,7.12502,-5.42669,59.1396,-47.2201,10.6627,-9.52941,17.0771,0.723682,-8.41988,-23.6063,-51.4373,2.84351,-7.44104,22.331,0.523043,-2.25817,-42.7348
13.4277,18.1829,-27.0929,40.0356,-24.7955,0.396995,21.1262,-1.2169,3.40541,-6.05017,-0.488375,1.02005,-19.2628,-0.525058,-0.544239,0.240474,6.24275,12.3321,-25.102,4.87868,-22.7024,-6.35135,3.09248,-10.1352,4.53229e-14,1.80894e-14,-26.048,-29.52,-24.5544,42.0067,-24.5446,-34.7947,5.37435,7.12502,-7.94667,-24.4563,4.53229e-14,1.80894e-14,-38.2374,13.4645,22.0394,63.6229,26.7777,-32.2832,29.2511,7.12502,-5.52213,59.1592,-47.4775,10.8604,-9.48381,17.175,0.750614,-9.04837,-23.6541,-51.902,3.0199,-7.22206,22.4568,0.662797,-2.46909,-41.535
13.4375,18.1805,-27.1075,40.2463,-24.5667,0.241707,21.1211,-1.24869,3.59446,-6.03805,-0.47009,1.06012,-19.2466,-0.535839,-0.611179,0.53582,6.16347,12.0971,-25.4471,4.77575,-22.4414,-6.56139,3.06102,-10.0414,-7.79236e-14,4.57205e-15,-26.0781,-29.2194,-24.6126,42.1351,-24.7852,-34.9386,5.88081,7.12502,-8.08549,-23.9445,-7.79236e-14,4.57205e-15,-38.1501,13.2367,21.9748,63.7691,27.0442,-32.4785,29.3186,7.12502,-5.71074,59.2217,-47.6763,10.9086,-9.36613,17.2646,0.714713,-9.41559,-22.997,-52.2459,3.30251,-7.213,22.5523,0.690522,-2.74097,-40.3773
13.4414,18.1772,-27.1105,40.1138,-24.6639,0.336347,21.3249,-1.179,3.37929,-5.95942,-0.447355,0.959342,-19.2709,-0.508765,-0.616348,0.583793,6.13371,12.2621,-25.421,4.73577,-22.5567,-6.55652,3.03924,-10.116,-1.33186e-14,-2.68359e-14,-26.1996,-29.0338,-24.6993,42.2696,-24.7966,-35.0899,6.31733,7.12502,-8.23157,-23.5023,-1.33186e-14,-2.68359e-14,-37.8129,13.0882,21.9089,63.7658,27.4136,-32.3961,29.4811,7.12502,-5.63112,59.3863,-47.6781,10.8649,-9.42051,17.3734,0.545571,-9.48934,-21.6524,-52.181,3.42577,-7.4859,22.5894,0.465731,-2.69855,-39.0585
13.4471,18.1692,-27.1095,39.9142,-24.6972,0.461722,21.489,-1.10725,3.21922,-6.15503,-0.402806,0.860813,-18.9675,-0.487065,-0.697985,0.49339,6.05576,12.6442,-25.1761,4.61457,-22.9092,-6.45027,2.96749,-10.2952,-4.02539e-14,4.37326e-15,-26.4044,-29.0341,-24.7157,42.2804,-24.8804,-34.6166,7.19532,7.12502,-7.77472,-22.6417,-4.02539e-14,4.37326e-15,-37.3398,12.9172,21.9167,63.5639,27.6924,-32.3876,29.4978,7.12502,-5.62297,59.4032,-47.5915,10.8006,-9.46542,17.5486,0.289524,-9.56799,-20.5682,-52.0191,3.40912,-7.70869,22.5292,0.42635,-2.59333,-37.0504
13.4551,18.1633,-27.116,39.8976,-24.6008,0.59491,21.4913,-1.12886,3.21874,-6.08796,-0.443491,0.805816,-18.8867,-0.507209,-0.744993,0.618926,5.96952,12.5612,-25.3102,4.46994,-22.9333,-6.54764,2.9141,-10.3093,8.05078e-15,-4.17448e-14,-26.1787,-29.4977,-24.7947,41.9481,-24.7326,-33.8452,8.14191,7.12502,-7.03012,-21.7213,8.05078e-15,-4.17448e-14,-37.137,12.8224,22.0184,63.6046,27.7251,-32.5014,29.3538,7.12502,-5.73282,59.2562,-47.7106,10.8232,-9.67355,17.7929,0.112415,-9.8539,-20.0316,-52.0927,3.40182,-7.92088,22.3947,0.55086,-2.66089,-36.1802
13.4584,18.1575,-27.1234,39.9773,-24.7414,0.874196,21.4558,-1.10432,2.92225,-5.82308,-0.523069,0.696737,-19.1742,-0.508921,-0.641974,0.837946,5.94579,12.1615,-25.5981,4.45242,-22.572,-6.72041,2.9274,-10.1358,1.66979e-14,3.97569e-15,-25.9979,-29.3985,-24.9541,41.9197,-24.9584,-33.2505,8.74058,7.12502,-6.45609,-21.141,1.66979e-14,3.97569e-15,-37.0159,12.6877,22.0667,63.5908,27.5705,-32.2771,28.9817,7.12502,-5.5163,58.8899,-48.0703,10.6738,-10.0709,18.0879,0.0724029,-9.83108,-20.3201,-52.2623,3.41119,-8.33305,22.2681,0.483542,-2.65681,-36.3523
13.4604,18.1507,-27.1305,40.1172,-24.7923,0.970635,21.3572,-1.08742,2.77404,-5.82282,-0.565359,0.596033,-19.1104,-0.518567,-0.662938,0.800135,5.9757,12.2189,-25.5743,4.52229,-22.4827,-6.69462,2.94827,-10.1084,-4.05521e-14,-5.00937e-14,-26.0069,-29.0781,-25.1935,42.0801,-25.1599,-33.0881,9.04597,7.12502,-6.29923,-20.8404,-4.05521e-14,-5.00937e-14,-36.6803,12.575,21.952,63.2125,27.3739,-32.1256,28.9182,7.12502,-5.37004,58.8301,-48.4269,10.4752,-10.173,18.3947,-0.0621406,-9.72281,-21.1521,-52.441,3.43742,-8.50097,22.1975,0.264787,-2.54259,-36.1696
13.4641,18.1417,-27.1441,40.3344,-24.5027,0.834505,21.2559,-1.14564,3.05371,-5.76911,-0.572864,0.568339,-18.9824,-0.555903,-0.854685,0.563443,6.01026,12.5913,-25.3718,4.56569,-22.7283,-6.54832,2.94335,-10.2396,2.98177e-14,5.70512e-14,-25.8717,-29.5588,-25.3239,41.7686,-24.3748,-32.5341,9.60197,7.12502,-5.76445,-20.2996,2.98177e-14,5.70512e-14,-36.266,12.4892,21.8475,62.8537,27.2208,-32.3845,29.3293,7.12502,-5.61997,59.2348,-48.7145,10.3913,-9.9828,18.679,-0.242589,-9.87722,-21.8237,-52.7212,3.58806,-8.41679,22.1591,0.150853,-2.68244,-36.0301
13.4672,18.1333,-27.1578,40.3822,-24.1511,0.770514,21.4151,-1.21776,3.31307,-5.75481,-0.583326,0.598112,-19.0717,-0.588753,-0.961445,0.636582,5.97746,12.5819,-25.4542,4.51231,-22.7402,-6.59879,2.92434,-10.2543,-6.26172e-15,-4.77083e-14,-25.7673,-29.7997,-25.3337,41.541,-23.9678,-31.8377,10.0878,7.12502,-5.09198,-19.831,-6.26172e-15,-4.77083e-14,-36.0188,12.1551,21.8384,62.7854,27.3693,-32.716,29.5804,7.12502,-5.94004,59.4771,-48.7484,10.3014,-9.77137,18.9005,-0.211746,-9.84066,-22.8933,-52.8733,3.73133,-8.43543,22.1204,0.123333,-3.05218,-37.0845
13.4673,18.1267,-27.1663,40.3526,-24.0091,0.795663,21.5866,-1.236,3.31267,-6.08092,-0.591562,0.614979,-18.9426,-0.597329,-0.955893,0.998647,5.91866,12.4158,-25.6703,4.44123,-22.628,-6.76312,2.91631,-10.2198,1.5207e-14,-2.24627e-14,-25.7542,-29.2244,-25.4305,41.7233,-24.6536,-30.9496,10.7212,7.12502,-4.23446,-19.2164,1.5207e-14,-2.24627e-14,-35.9376,11.5867,21.7966,62.8278,27.638,-32.7374,29.8956,7.12502,-5.96069,59.7917,-48.759,10.1402,-9.63612,19.0789,-0.02758,-9.48031,-24.3986,-52.9012,3.69135,-8.42483,22.0702,0.0448478,-3.12127,-38.622
13.4633,18.123,-27.1738,40.4563,-23.9904,0.677771,21.6292,-1.22454,3.3315,-6.04619,-0.572742,0.594647,-18.9232,-0.592279,-0.996065,1.1736,5.92023,12.3681,-25.784,4.45395,-22.5725,-6.83505,2.93336,-10.2093,-4.16454e-14,3.91606e-14,-25.8916,-28.2993,-25.6333,42.3376,-25.6092,-29.9904,10.7458,7.12502,-3.30815,-19.2082,-4.16454e-14,3.91606e-14,-35.714,11.3866,21.679,62.5672,27.4162,-32.4885,30.0132,7.12502,-5.72042,59.916,-48.9677,10.1596,-9.55297,19.2236,-0.00837239,-9.36899,-24.3485,-52.9516,3.57853,-8.12492,22.0465,-8.8067e-05,-2.83135,-38.5826
13.461,18.118,-27.1886,40.5896,-23.981,0.590478,21.6553,-1.22588,3.31115,-5.63435,-0.588113,0.587114,-19.0698,-0.589825,-0.970865,1.08877,5.9599,12.1642,-25.9508,4.49261,-22.4171,-6.88192,2.95674,-10.123,-2.65378e-14,1.97791e-14,-25.7298,-27.9397,-25.9041,42.8205,-26.0354,-30.1067,9.37282,7.12502,-3.42049,-20.5795,-2.65378e-14,1.97791e-14,-35.3588,11.4979,21.5982,62.1594,27.0836,-32.4029,30.0757,7.12502,-5.63772,59.9807,-49.2139,10.1261,-9.52219,19.3403,-0.131481,-9.32905,-23.336,-53.0859,3.63732,-8.01261,22.0472,0.0439234,-2.7803,-38.7542
13.4594,18.1095,-27.2077,40.8164,-24.0018,0.560973,21.5007,-1.20551,3.19128,-5.56533,-0.600382,0.605949,-18.8795,-0.576818,-0.878673,0.986457,6.01192,11.9676,-25.9926,4.54529,-22.3612,-6.87672,2.99293,-10.0633,5.46658e-14,-1.54058e-14,-24.9366,-28.7305,-26.1901,42.2682,-25.165,-30.304,9.28207,7.12502,-3.61105,-20.6671,5.46658e-14,-1.54058e-14,-35.157,11.3969,21.5175,61.8913,27.0445,-32.3919,30.049,7.12502,-5.62714,59.9543,-49.5637,9.83293,-9.44019,19.472,-0.35967,-9.04553,-22.1579,-53.3701,3.92446,-8.17178,22.0531,0.0841541,-3.06162,-40.931
13.4544,18.1017,-27.2222,41.0469,-24.0977,0.494059,21.349,-1.14592,3.09062,-5.54176,-0.564371,0.556569,-18.7492,-0.552717,-0.895629,0.988381,6.03428,12.0653,-25.9092,4.57319,-22.498,-6.833,3.0099,-10.1253,-1.30204e-14,-6.95746e-15,-24.4049,-29.1555,-26.4551,41.7697,-24.2996,-30.0488,10.3639,7.12502,-3.36454,-19.5893,-1.30204e-14,-6.95746e-15,-34.9017,11.236,21.357,61.5812,27.0334,-32.2461,29.5518,7.12502,-5.48638,59.4607,-49.9461,9.76771,-9.4975,19.6037,-0.616406,-8.99114,-20.8152,-53.6206,4.13128,-8.2073,22.129,-0.0249213,-3.13465,-42.4989
13.4522,18.0978,-27.2345,41.0701,-24.1039,0.575047,21.4735,-1.149,3.02858,-5.56112,-0.597505,0.463102,-18.8549,-0.569405,-0.957222,1.15429,5.96199,12.1307,-26.0041,4.48529,-22.462,-6.91183,2.96696,-10.1423,3.71727e-14,1.0635e-14,-24.5862,-28.3128,-26.6057,42.0794,-24.4798,-29.9509,10.8806,7.12502,-3.27003,-19.0741,3.71727e-14,1.0635e-14,-34.5281,10.9104,21.22,61.1725,26.977,-32.2808,29.4149,7.12502,-5.51985,59.323,-50.0741,9.61614,-9.54733,19.7253,-0.805557,-8.88317,-20.7792,-53.7613,3.9928,-8.16512,22.2472,-0.201134,-2.86612,-42.0126
13.4536,18.0928,-27.2475,41.0763,-23.7951,0.540445,21.7256,-1.22285,3.27497,-5.58617,-0.610822,0.483241,-19.054,-0.604134,-1.0655,1.23569,5.86043,11.9325,-26.1083,4.36358,-22.2053,-7.00727,2.9088,-10.0236,-2.95195e-14,-2.99171e-14,-24.8964,-27.5237,-26.5646,42.5147,-24.9258,-29.8575,11.3304,7.12502,-3.17986,-18.6257,-2.95195e-14,-2.99171e-14,-34.1539,10.4276,21.3,60.9066,26.9688,-32.5293,29.6724,7.12502,-5.75982,59.5741,-50.043,9.27765,-9.19087,19.8816,-1.009,-8.59659,-21.5752,-53.8976,3.80394,-7.91478,22.2854,-0.255435,-2.70013,-40.3947
13.4494,18.0816,-27.2647,41.1372,-23.6559,0.502953,21.7701,-1.17257,3.27012,-5.83191,-0.534235,0.503447,-18.7346,-0.570404,-1.07818,0.915762,5.8277,11.9586,-25.8532,4.32144,-22.2182,-6.87121,2.86953,-9.99466,4.1546e-14,-4.85035e-14,-24.7311,-27.5056,-26.5767,42.4737,-25.0255,-30.1429,11.794,7.12502,-3.45542,-18.1578,4.1546e-14,-4.85035e-14,-33.7443,10.1227,21.4215,60.8091,27.0283,-32.6691,30.2686,7.12502,-5.89475,60.1666,-50.2087,9.11686,-9.05078,20.1231,-1.15862,-8.35595,-21.9429,-53.9901,3.78204,-7.77838,22.2152,-0.24905,-2.637,-40.0664
13.4393,18.0727,-27.2885,41.1553,-23.8682,0.679084,21.9352,-1.07635,2.84719,-5.83215,-0.538006,0.417623,-18.8267,-0.530526,-0.933743,0.55667,5.86796,12.1825,-25.4848,4.37664,-22.4251,-6.65459,2.87261,-10.0631,-6.33129e-14,-2.98177e-16,-24.3444,-27.6221,-26.7913,42.1844,-24.4475,-30.1369,12.1086,7.12502,-3.44964,-17.8432,-6.33129e-14,-2.98177e-16,-33.5216,9.91182,21.2763,60.618,27.1028,-32.6449,30.5292,7.12502,-5.87134,60.4278,-50.5574,9.12693,-9.41493,20.4003,-1.38921,-8.2296,-22.1816,-54.0293,3.79789,-7.95572,22.1075,-0.216161,-2.45743,-41.0631
13.4296,18.0675,-27.3109,41.2751,-24.0686,0.784038,21.9261,-1.03998,2.52479,-5.8078,-0.600798,0.332866,-18.7912,-0.526281,-0.824435,0.522188,5.95356,12.2202,-25.5964,4.47658,-22.4778,-6.65962,2.92325,-10.0967,3.38431e-14,-8.73659e-14,-24.1808,-27.3926,-27.1553,42.4496,-24.0439,-29.3116,12.243,7.12502,-2.65262,-17.7203,3.38431e-14,-8.73659e-14,-33.3276,9.80818,21.0064,60.147,27.0348,-32.4859,29.9369,7.12502,-5.7179,59.8398,-50.9974,9.14144,-9.73595,20.6778,-1.7109,-8.16558,-22.8238,-54.1328,3.83568,-8.04099,21.9674,-0.0235384,-2.28613,-41.3168
13.4183,18.0599,-27.3278,41.4563,-24.1364,0.750777,21.8933,-1.00393,2.41757,-5.42358,-0.603639,0.252735,-18.9354,-0.518938,-0.853996,0.460795,6.03817,12.3063,-25.8818,4.55061,-22.5491,-6.71756,2.95915,-10.1607,4.87022e-15,-4.62174e-15,-24.0346,-27.2312,-27.47,42.8549,-24.2275,-28.6611,12.2041,7.12502,-2.02441,-17.7661,4.87022e-15,-4.62174e-15,-32.7654,9.80172,20.8262,59.5412,26.7611,-32.2883,29.863,7.12502,-5.52711,59.7709,-51.3717,8.95794,-9.64533,20.9209,-1.82751,-7.84829,-23.5545,-54.2285,3.86879,-7.92278,21.7932,0.0898472,-2.15017,-41.7824
13.4035,18.053,-27.3485,41.6134,-24.0457,0.579119,21.8828,-0.932047,2.38754,-5.30295,-0.513335,0.271146,-18.769,-0.472403,-0.850432,0.281981,6.03698,12.4155,-25.9418,4.52115,-22.616,-6.70127,2.9329,-10.2031,-6.55989e-15,5.58088e-14,-23.7619,-27.2605,-27.5459,42.9278,-24.1982,-28.3622,11.6856,7.12502,-1.7357,-18.2871,-6.55989e-15,5.58088e-14,-32.0441,9.7855,20.7872,58.9628,26.5575,-32.2057,29.9541,7.12502,-5.4473,59.864,-51.6373,8.91364,-9.37187,21.0494,-1.8249,-7.68365,-23.3551,-54.2776,3.94432,-7.63154,21.6549,0.0400088,-2.04621,-42.5163
13.3912,18.0507,-27.3688,41.7386,-23.912,0.493804,21.8966,-0.930809,2.35411,-5.25615,-0.509297,0.340809,-18.7161,-0.459713,-0.750505,0.49282,5.99019,12.2643,-26.2652,4.4332,-22.5284,-6.87372,2.91033,-10.1831,-5.9536e-14,8.9801e-14,-23.3526,-27.1616,-27.6728,42.9355,-23.8993,-28.3195,11.2825,7.12502,-1.69448,-18.6905,-5.9536e-14,8.9801e-14,-31.6114,9.69116,20.7106,58.3936,26.6653,-32.3363,29.7574,7.12502,-5.57339,59.6641,-51.8357,9.22097,-9.59626,21.066,-2.252,-8.0658,-19.8827,-54.375,3.86191,-7.31246,21.5801,0.0832212,-1.84721,-42.1057
13.3807,18.0468,-27.3863,41.759,-23.8577,0.531565,22.0626,-0.994437,2.26429,-5.31059,-0.608992,0.382086,-18.8928,-0.490127,-0.61016,0.96834,5.98846,12.0246,-26.5377,4.4379,-22.4258,-7.06598,2.95311,-10.1492,1.11319e-14,2.62396e-14,-22.9741,-26.6583,-27.8834,43.0321,-24.0339,-28.4026,11.1496,7.12502,-1.77472,-18.8227,1.11319e-14,2.62396e-14,-31.5485,9.44943,20.484,57.8643,26.7537,-32.4146,29.8478,7.12502,-5.64902,59.7525,-51.9055,9.63631,-10.1239,21.058,-3.13796,-8.53859,-13.2913,-54.4188,3.66683,-7.08147,21.5215,0.250703,-1.60181,-41.6039
13.3672,18.0361,-27.4061,41.8467,-23.8231,0.449101,22.1136,-0.993154,2.21875,-5.64179,-0.611971,0.402463,-18.687,-0.487977,-0.569543,1.06987,5.99725,12.0119,-26.3234,4.49057,-22.4246,-7.00548,2.98418,-10.1317,3.70485e-14,-5.26282e-14,-22.8848,-26.0934,-27.9986,43.4108,-24.5671,-27.871,10.5646,7.12502,-1.26131,-19.4114,3.70485e-14,-5.26282e-14,-31.3442,9.22471,20.3012,57.3499,26.7085,-32.4279,30.4667,7.12502,-5.66192,60.3711,-52.0437,9.86729,-10.2676,21.1124,-3.61194,-8.71063,-9.55646,-54.4352,3.58953,-6.78095,21.4315,0.355638,-1.31428,-41.7967
13.3532,18.0281,-27.4219,41.9616,-23.7906,0.488549,22.1084,-0.985136,2.25515,-5.31419,-0.614402,0.288074,-18.9278,-0.500168,-0.714279,0.987661,5.95757,12.154,-26.2882,4.44015,-22.4512,-6.98155,2.94487,-10.1614,3.98315e-14,-5.08143e-14,-22.9729,-26.0406,-28.0403,43.9505,-24.8346,-26.1893,10.068,7.12502,0.36289,-19.9114,3.98315e-14,-5.08143e-14,-30.7767,9.03109,20.1984,56.8484,26.8776,-32.3607,30.424,7.12502,-5.59699,60.3301,-52.2567,9.75398,-10.2433,21.2837,-3.65433,-8.62285,-8.90643,-54.5133,3.47701,-6.6299,21.3373,0.326171,-0.986847,-41.7191
13.3394,18.024,-27.4366,41.9484,-23.8061,0.670877,22.0703,-1.00735,2.18659,-5.24801,-0.687686,0.169389,-18.8214,-0.533341,-0.789812,1.11643,5.89776,12.0928,-26.5194,4.34752,-22.3573,-7.10736,2.90602,-10.1435,-7.41715e-15,-2.91841e-14,-22.911,-25.6926,-28.1841,43.5924,-24.2882,-25.4876,12.866,7.12502,1.0406,-17.1112,-7.41715e-15,-2.91841e-14,-30.4121,8.7354,20.0494,56.5562,27.0559,-32.0805,29.4174,7.12502,-5.3265,59.3305,-52.3976,9.29568,-9.97512,21.5594,-3.55261,-8.25742,-12.1186,-54.5725,3.47602,-6.79938,21.2792,0.284466,-0.959671,-40.8957
13.3235,18.0095,-27.46,42.0618,-23.7898,0.674022,22.1154,-1.05255,2.14915,-5.27748,-0.763242,0.143291,-18.8903,-0.564595,-0.77006,1.22652,5.8773,11.9982,-26.4655,4.34495,-22.2646,-7.11996,2.91109,-10.0917,-1.61924e-14,-1.52148e-14,-22.5412,-25.1555,-28.4712,43.6829,-24.3716,-26.1893,12.1558,7.12502,0.362867,-17.8237,-1.61924e-14,-1.52148e-14,-30.3052,8.54904,19.7665,56.2938,27.0418,-32.1382,29.8162,7.12502,-5.38219,59.7279,-52.6695,8.70423,-9.29845,21.859,-3.2311,-7.82623,-20.3423,-54.7603,3.70165,-6.87271,21.2493,0.290734,-1.17297,-40.7515
13.3069,17.9931,-27.488,42.3227,-23.6918,0.465775,22.045,-1.10784,2.28738,-5.28337,-0.80062,0.13508,-18.8578,-0.597353,-0.845384,1.07424,5.91588,12.1056,-26.1771,4.42846,-22.3057,-6.9743,2.93637,-10.0924,1.46107e-14,1.06847e-15,-22.0819,-24.9774,-28.8821,43.6805,-24.2921,-26.4664,11.2673,7.12502,0.0952417,-18.7124,1.46107e-14,1.06847e-15,-30.0367,8.54164,19.4314,55.8005,27.0849,-32.317,31.1653,7.12502,-5.55482,61.0725,-53.0635,8.49577,-8.79577,22.0697,-3.07746,-7.76974,-24.9461,-55.0331,3.88196,-6.57373,21.2701,0.228293,-1.18975,-42.7164
13.2916,17.9869,-27.5098,42.3967,-23.6229,0.307901,22.1017,-1.13212,2.38219,-5.21411,-0.802789,0.143083,-18.8067,-0.607373,-0.889427,1.00492,5.94174,12.0183,-26.1563,4.47048,-22.2269,-6.95407,2.95585,-10.0407,-1.89839e-14,-1.23743e-14,-21.7301,-24.9365,-29.155,43.5791,-23.8463,-25.355,11.9446,7.12502,1.16875,-18.032,-1.89839e-14,-1.23743e-14,-29.7233,8.44817,19.2336,55.3647,27.037,-32.3363,31.7338,7.12502,-5.57343,61.6405,-53.2282,8.56438,-8.61544,22.1522,-3.32746,-7.83774,-24.6338,-55.0895,3.91831,-6.25586,21.3245,0.147669,-1.01329,-43.9614
13.2751,17.9783,-27.5254,42.3526,-23.5847,0.194477,22.2677,-1.10641,2.36839,-5.12698,-0.758168,0.196443,-18.7967,-0.580619,-0.834184,1.17826,5.86439,11.8469,-26.3943,4.3431,-22.1318,-7.10128,2.91185,-10.0046,-1.2275e-14,-2.4699e-14,-21.4107,-24.7125,-29.2799,43.6742,-23.6607,-24.5093,12.6921,7.12502,1.98551,-17.2784,-1.2275e-14,-2.4699e-14,-29.3468,8.39467,19.1803,54.8489,26.7909,-32.251,30.8483,7.12502,-5.49111,60.7572,-53.1781,8.69797,-8.50676,22.147,-3.67025,-7.86508,-23.8472,-54.9994,3.9521,-6.02354,21.3646,0.0971524,-0.880098,-44.0496
13.2571,17.962,-27.54,42.4316,-23.4386,-0.0281683,22.3084,-1.10318,2.53907,-5.02858,-0.693111,0.25023,-18.6962,-0.565494,-0.893262,1.11816,5.8081,11.8869,-26.4215,4.23503,-22.2222,-7.11366,2.86024,-10.0462,4.58696e-14,-3.2054e-14,-21.1172,-24.4698,-29.3805,43.8498,-23.6848,-24.2786,12.8674,7.12502,2.20831,-17.1009,4.58696e-14,-3.2054e-14,-28.9025,8.37781,19.0839,54.2611,26.8207,-31.3948,29.5958,7.12502,-4.66434,59.5245,-53.1507,8.82191,-8.26904,22.1065,-3.91432,-7.90741,-24.4699,-54.9765,3.91592,-5.51652,21.3831,-0.0584345,-0.648597,-43.6244
13.2426,17.9475,-27.5608,42.4661,-23.356,-0.0100656,22.3727,-1.15553,2.61469,-5.00221,-0.750254,0.189537,-18.708,-0.603876,-0.986606,1.05425,5.85701,11.9122,-26.3541,4.31603,-22.2146,-7.06306,2.89458,-10.0382,-1.95306e-14,6.29153e-14,-21.1266,-23.8786,-29.4449,44.292,-23.9032,-23.853,12.7034,7.12502,2.61936,-17.2603,-1.95306e-14,6.29153e-14,-28.6639,8.10038,18.8198,53.9367,27.1136,-31.1363,30.3364,7.12502,-4.41472,60.2704,-53.1803,8.69862,-8.16089,22.0789,-4.06718,-7.81502,-25.9349,-55.0501,3.8137,-5.26374,21.382,-0.288298,-0.423055,-42.3741
13.2277,17.9378,-27.5875,42.4082,-23.4431,0.248844,22.4559,-1.21413,2.39776,-5.00853,-0.917079,0.0459781,-18.7733,-0.66434,-0.968843,1.39174,5.87134,11.9252,-26.6645,4.3591,-22.0822,-7.2265,2.92267,-10.0368,4.77083e-15,6.30147e-14,-21.1521,-23.1901,-29.5994,44.7544,-24.1368,-23.3674,12.7451,7.12502,3.08827,-17.2123,4.77083e-15,6.30147e-14,-28.5258,7.75834,18.4856,53.6753,27.1766,-32.0923,32.4855,7.12502,-5.33781,62.3983,-53.2416,8.56963,-8.40199,22.0775,-4.18288,-7.78378,-26.9431,-55.1639,3.89025,-5.5454,21.3529,-0.347492,-0.52818,-42.1905
13.2056,17.9261,-27.6117,42.4503,-23.512,0.330021,22.4248,-1.25109,2.2563,-4.97027,-1.0265,-0.04391,-18.7074,-0.702625,-0.954037,1.61507,5.83753,12.0397,-26.963,4.30521,-22.0715,-7.37377,2.89681,-10.0941,-1.30204e-14,-5.78463e-14,-20.8739,-23.1141,-29.8082,44.7822,-23.9357,-23.188,12.104,7.12502,3.26152,-17.8508,-1.30204e-14,-5.78463e-14,-28.2646,7.60715,18.2132,53.2667,26.9704,-32.1199,33.2007,7.12502,-5.3645,63.1128,-53.3532,8.47877,-8.44815,22.0868,-4.47478,-7.66149,-28.1181,-55.2597,4.074,-5.64612,21.3177,-0.30626,-0.737054,-42.7409
13.1838,17.9184,-27.6303,42.4474,-23.4403,0.264026,22.5056,-1.27414,2.34195,-4.89845,-1.03079,-0.0478757,-18.6687,-0.713417,-1.00592,1.54341,5.82396,11.9964,-26.9433,4.27167,-22.0891,-7.36106,2.8831,-10.0872,-7.05686e-14,-1.78906e-14,-20.6541,-23.1486,-29.8205,44.786,-23.6357,-22.7293,11.5476,7.12502,3.70447,-18.4,-7.05686e-14,-1.78906e-14,-27.7833,7.62251,18.1021,52.6076,26.7717,-31.4864,31.7594,7.12502,-4.75277,61.6861,-53.3188,8.36481,-8.18494,22.0656,-5.02055,-7.45538,-28.8238,-55.2082,4.05087,-5.36022,21.286,-0.395837,-0.678018,-42.6442
13.1665,17.9086,-27.6494,42.4049,-23.3904,0.213034,22.579,-1.2961,2.43753,-4.78845,-1.03158,-0.0551936,-18.5767,-0.723245,-1.06935,1.58152,5.81703,11.7412,-27.0084,4.25277,-21.9786,-7.40956,2.89241,-10.006,1.49089e-15,-2.49475e-14,-20.4186,-23.06,-29.8771,44.8291,-23.5463,-21.9498,12.9516,7.12502,4.4572,-16.9815,1.49089e-15,-2.49475e-14,-27.3117,7.72042,17.977,51.8492,26.5829,-31.389,31.1954,7.12502,-4.65878,61.1241,-53.2839,8.40069,-8.14769,22.0479,-5.57326,-7.32302,-27.1014,-55.1322,4.03958,-5.13838,21.2112,-0.474067,-0.623417,-42.8614
13.1484,17.8897,-27.6719,42.308,-23.4929,0.322027,22.6456,-1.34389,2.34257,-4.72207,-1.14003,-0.152107,-18.5381,-0.766805,-1.08873,1.77422,5.83579,11.6286,-27.0552,4.29456,-21.9135,-7.4614,2.92866,-9.97505,-3.56818e-14,3.39922e-14,-20.196,-22.6916,-30.1004,45.0772,-23.5326,-21.6482,13.9682,7.12502,4.74849,-15.9586,-3.56818e-14,3.39922e-14,-27.1586,7.63378,17.6588,51.3606,26.3586,-31.7706,32.3392,7.12502,-5.02724,62.2595,-53.2816,8.32049,-8.26031,22.0604,-5.97743,-7.00707,-25.3329,-55.0779,3.98469,-5.07756,21.1603,-0.624798,-0.491824,-42.87
13.131,17.8749,-27.6918,42.1372,-23.5086,0.640666,22.6749,-1.42426,2.17777,-5.02935,-1.31379,-0.2583,-18.283,-0.826105,-1.01899,1.91657,5.84694,11.7138,-26.9064,4.33482,-22.0025,-7.42324,2.95408,-10.0183,2.08724e-15,1.19271e-15,-20.1146,-22.0775,-30.1087,45.4034,-23.3922,-21.1087,13.7444,7.12502,5.26942,-16.1701,2.08724e-15,1.19271e-15,-26.9692,7.3889,17.3807,50.8059,26.203,-31.8213,32.3255,7.12502,-5.07615,62.2447,-53.1694,7.92813,-8.22891,22.1109,-6.0734,-6.77012,-27.3101,-55.0813,3.60143,-4.98561,21.176,-0.77472,-0.152548,-41.3579
13.1146,17.8633,-27.711,42.1338,-23.3304,0.782291,22.6954,-1.51914,2.23823,-5.06849,-1.42394,-0.26243,-18.3493,-0.8814,-1.01535,1.9991,5.82104,11.9352,-26.8131,4.29553,-22.2152,-7.39571,2.93532,-10.136,4.47266e-15,9.14409e-15,-19.9218,-21.8873,-30.0171,45.2236,-22.9717,-20.1784,14.0971,7.12502,6.1676,-15.7932,4.47266e-15,9.14409e-15,-26.5855,7.24981,17.2024,50.072,26.1087,-31.2675,31.6732,7.12502,-4.54144,61.6045,-53.1566,7.50399,-7.93746,22.1998,-6.01196,-6.59888,-30.2399,-55.2472,3.40993,-4.81541,21.2372,-0.598593,-0.1828,-41.2714
13.0964,17.8476,-27.736,42.1723,-23.2052,0.789701,22.741,-1.59197,2.32701,-5.07135,-1.49691,-0.277144,-18.3845,-0.923875,-1.05311,2.09068,5.80617,12.0959,-26.8479,4.25697,-22.3919,-7.41651,2.92133,-10.2418,2.34566e-14,-1.86858e-14,-19.7391,-21.8036,-30.0254,45.1152,-22.6208,-19.7841,14.6265,7.12502,6.5482,-15.2522,2.34566e-14,-1.86858e-14,-26.3364,7.1269,17.0065,49.6927,26.2423,-31.0571,32.1675,7.12502,-4.33827,62.103,-53.1992,7.09138,-7.52989,22.252,-6.3874,-6.16155,-30.9039,-55.4498,3.48908,-4.71795,21.3742,-0.491105,-0.417682,-42.7592
13.0767,17.8282,-27.7609,42.1984,-23.3046,0.97005,22.7709,-1.58318,2.15482,-4.74912,-1.54497,-0.314335,-18.6681,-0.93532,-1.01686,2.03707,5.8362,11.9335,-26.8856,4.27931,-22.3594,-7.4223,2.94394,-10.1997,-1.80894e-14,4.1546e-14,-19.5665,-21.6214,-29.9544,45.3061,-22.6145,-19.8001,14.5553,7.12502,6.53281,-15.3239,-1.80894e-14,4.1546e-14,-26.05,7.14094,16.9275,49.4285,26.4941,-31.1494,32.4124,7.12502,-4.42738,62.3462,-53.3036,6.63928,-7.37847,22.2124,-6.97793,-5.72325,-30.8409,-55.7136,3.48119,-4.77582,21.5843,-0.640829,-0.314946,-42.8265
13.0565,17.8098,-27.7798,42.2558,-23.3255,1.0283,22.6175,-1.5605,2.10553,-4.64908,-1.53382,-0.320369,-18.442,-0.923728,-1.00407,1.882,5.89455,11.6477,-26.926,4.35111,-22.1899,-7.41231,2.98628,-10.0771,1.5704e-14,4.35338e-14,-19.3494,-21.5281,-29.8404,45.5695,-22.7827,-19.7804,13.9127,7.12502,6.55183,-15.966,1.5704e-14,4.35338e-14,-25.662,7.33723,16.9248,48.9461,26.3475,-30.7253,31.3147,7.12502,-4.01787,61.2565,-53.375,6.52664,-7.37242,22.1067,-7.30452,-5.57419,-29.7295,-55.9225,3.41503,-4.62061,21.7777,-0.79204,-0.0674021,-42.2654
13.0351,17.7959,-27.804,42.3883,-23.1579,0.810282,22.6635,-1.60785,2.30383,-4.60115,-1.52207,-0.234435,-18.4132,-0.932366,-1.01985,1.72405,5.95626,11.4879,-26.9107,4.43355,-22.0883,-7.37288,3.02626,-9.99863,-4.9895e-14,6.95746e-15,-18.9842,-21.4766,-29.8039,45.5765,-22.6937,-19.2321,13.7543,7.12502,7.08115,-16.1073,-4.9895e-14,6.95746e-15,-25.4307,7.4028,16.7834,48.3773,26.0431,-30.1591,30.3375,7.12502,-3.47107,60.289,-53.4658,6.65615,-7.1898,22.0137,-7.56009,-5.49916,-26.9155,-56.0751,3.48426,-4.19175,21.9015,-0.814596,0.00499481,-43.1158
13.0128,17.7843,-27.8345,42.6316,-23.1822,0.606905,22.642,-1.61037,2.33279,-4.60429,-1.51101,-0.198077,-18.403,-0.927664,-0.99784,1.65029,5.99919,11.4879,-26.9003,4.47098,-22.1742,-7.34326,3.04905,-10.0259,3.10104e-14,-2.98177e-14,-18.5753,-21.4744,-29.8304,45.3395,-22.4162,-18.5381,14.2978,7.12502,7.75094,-15.5401,3.10104e-14,-2.98177e-14,-25.3035,7.34972,16.5778,48.0022,26.2119,-30.5636,30.4181,7.12502,-3.86168,60.3629,-53.8229,6.64431,-6.97668,21.9959,-7.87243,-5.21092,-24.4153,-56.2813,3.68199,-3.86159,21.9852,-0.794335,0.0806339,-44.6673
12.9905,17.7721,-27.8626,42.7106,-23.5155,0.726684,22.6066,-1.52226,1.9926,-4.62476,-1.51761,-0.328904,-18.3998,-0.904553,-0.956261,1.80472,5.95677,11.7055,-27.023,4.38808,-22.3651,-7.41012,3.01264,-10.1594,1.8487e-14,-1.70955e-14,-18.5048,-21.2771,-29.8238,45.4226,-22.524,-18.5618,13.7323,7.12502,7.72815,-16.1065,1.8487e-14,-1.70955e-14,-25.1248,7.26036,16.3223,47.7491,26.6259,-30.7449,30.0554,7.12502,-4.03676,59.9969,-54.2349,6.63478,-7.23613,22.1144,-8.26429,-4.79523,-21.3755,-56.3486,3.76701,-3.92617,22.0336,-0.879794,0.363639,-45.6694
