JuanDHNZ/ProyectoFinalCD/preprocessing/sports_trials_csv/55_16.csv
root1,root2,root3,root4,root5,root6,lowerback1,lowerback2,lowerback3,upperback1,upperback2,upperback3,thorax1,thorax2,thorax3,lowerneck1,lowerneck2,lowerneck3,upperneck1,upperneck2,upperneck3,head1,head2,head3,rclavicle1,rclavicle2,rhumerus1,rhumerus2,rhumerus3,rradius1,rwrist1,rhand1,rhand2,rfingers1,rthumb1,rthumb2,lclavicle1,lclavicle2,lhumerus1,lhumerus2,lhumerus3,lradius1,lwrist1,lhand1,lhand2,lfingers1,lthumb1,lthumb2,rfemur1,rfemur2,rfemur3,rtibia1,rfoot1,rfoot2,rtoes1,lfemur1,lfemur2,lfemur3,ltibia1,lfoot1,lfoot2,ltoes1
10.3409,10.4062,-18.4794,-12.5228,1.08366,-3.59851,24.4478,-3.07275,3.60591,6.37219,-2.97792,1.46443,-6.64088,-1.47056,0.416328,1.08604,7.50718,15.7749,-7.06205,9.80335,-14.8776,-0.674948,4.91048,-7.06053,-9.98893e-15,-4.57205e-15,-40.8081,-4.45836,-78.6201,95.0073,-49.4343,-32.2891,-4.69947,7.12502,-5.52785,-34.6074,-9.98893e-15,-4.57205e-15,-38.0948,12.5779,62.3561,114.168,-5.31342,1.14878,19.5346,7.12502,26.6902,47.6725,-80.4889,-20.801,24.001,78.3351,3.38981,17.0643,-16.4375,-80.4694,19.9597,-15.557,76.8641,0,0,0
10.3434,10.4012,-18.4713,-12.547,1.16936,-3.53678,24.4861,-3.07146,3.39968,6.38346,-3.02298,1.48527,-6.63802,-1.49038,0.57091,1.07541,7.43858,15.7389,-7.1615,9.69873,-14.9255,-0.716569,4.8593,-7.07722,1.72446e-14,5.56597e-15,-40.9836,-3.93156,-78.6666,94.9464,-49.0186,-32.3356,-4.52862,7.12502,-5.57272,-34.4353,1.72446e-14,5.56597e-15,-37.6028,12.1457,62.5098,114.165,-5.86851,0.0858858,19.2178,7.12502,25.6726,47.5068,-80.4722,-20.8534,23.8377,78.3835,3.39859,17.2129,-17.3637,-80.4852,20.0401,-15.777,76.837,0,0,0
10.3442,10.4054,-18.4762,-12.6043,1.1603,-3.45985,24.5687,-3.05138,3.14167,6.44218,-3.05646,1.50107,-6.60236,-1.50403,0.746409,0.970945,7.47539,15.5782,-7.28338,9.72384,-14.8295,-0.744575,4.86897,-7.01944,-1.92324e-14,3.12092e-14,-41.0831,-3.38625,-78.7215,94.7985,-48.1874,-31.9293,-4.1462,7.12502,-5.18046,-34.0629,-1.92324e-14,3.12092e-14,-37.0615,11.8356,62.6052,114.141,-6.52311,-0.351631,19.2107,7.12502,25.2535,47.5594,-80.2996,-20.6991,23.6002,78.2803,3.5993,17.0902,-16.566,-80.3634,20.1949,-15.9698,76.7047,0,0,0
10.3451,10.4135,-18.4851,-12.6525,1.14022,-3.58651,24.5647,-3.06598,3.17913,6.52969,-3.06844,1.50646,-6.50541,-1.50956,0.731282,0.935898,7.4608,15.4052,-7.4252,9.6912,-14.6377,-0.805385,4.84988,-6.93634,5.75482e-14,-2.82274e-14,-41.1549,-3.19207,-78.7393,94.5444,-46.8927,-31.0795,-3.52492,7.12502,-4.35988,-33.46,5.75482e-14,-2.82274e-14,-36.3796,11.393,62.702,114.093,-7.02933,-0.901632,19.1897,7.12502,24.7265,47.6117,-80.1358,-20.6393,23.6661,78.1733,3.6491,17.018,-16.1162,-80.3144,20.3623,-15.9693,76.5999,0,0,0
10.3458,10.4271,-18.4985,-12.6674,1.11977,-3.85454,24.4255,-3.07081,3.44275,6.68989,-3.02261,1.50156,-6.27064,-1.48761,0.550492,0.882767,7.34365,15.3423,-7.73671,9.50649,-14.5102,-0.925574,4.75213,-6.90212,2.11209e-14,-6.75868e-15,-41.1025,-3.17701,-78.8165,94.4361,-46.1969,-30.6996,-3.06423,7.12502,-3.99301,-33.0066,2.11209e-14,-6.75868e-15,-35.5033,10.7247,62.858,114.039,-7.37047,-1.5923,18.9952,7.12502,24.0644,47.5064,-79.8967,-20.4634,23.8107,78.0004,3.56578,16.8057,-16.2384,-80.3219,20.5583,-15.9011,76.4507,0,0,0
10.347,10.4276,-18.4973,-12.7799,1.0833,-3.97986,24.3438,-3.04882,3.60076,6.94734,-2.97377,1.42704,-5.95649,-1.46129,0.352897,0.702567,7.26165,15.2925,-8.09188,9.34962,-14.3935,-1.03182,4.66372,-6.86778,3.46134e-14,-1.22253e-14,-40.839,-3.03985,-78.9858,94.5036,-46.1874,-30.7106,-2.99465,7.12502,-4.00366,-32.9368,3.46134e-14,-1.22253e-14,-34.5581,9.93468,62.982,113.889,-7.67142,-2.52011,18.8974,7.12502,23.1745,47.5233,-79.7275,-20.4487,23.9027,77.9428,3.5111,16.8361,-16.7482,-80.2838,20.8047,-15.9437,76.3879,0,0,0
10.349,10.4262,-18.498,-12.9394,1.06446,-3.87513,24.3169,-2.99773,3.52117,7.18566,-2.94378,1.31033,-5.68326,-1.44286,0.253472,0.613222,7.18193,15.2427,-8.30658,9.21461,-14.364,-1.10342,4.59265,-6.85917,2.85753e-15,-1.93815e-14,-40.5944,-2.78906,-79.0898,94.5583,-46.1881,-30.7495,-3.01293,7.12502,-4.04125,-32.9544,2.85753e-15,-1.93815e-14,-33.7738,9.18952,63.0642,113.743,-8.0726,-3.5629,18.8041,7.12502,22.1737,47.5524,-79.5702,-20.4904,23.7697,77.9113,3.64291,16.7589,-15.1616,-80.0959,20.9897,-16.1307,76.2987,0,0,0
10.3502,10.4286,-18.5036,-13.0637,1.11542,-3.63375,24.3831,-2.90202,3.23166,7.32019,-2.89467,1.22947,-5.5593,-1.41668,0.314351,0.616664,7.06398,15.2838,-8.37967,9.04483,-14.5016,-1.13987,4.51049,-6.91802,2.68359e-15,-2.68359e-15,-40.5084,-2.50686,-79.0547,94.6353,-46.1099,-30.8753,-3.0628,7.12502,-4.16271,-33.0019,2.68359e-15,-2.68359e-15,-33.0435,8.52147,63.1929,113.654,-8.45221,-4.22606,18.6419,7.12502,21.5369,47.4645,-79.4574,-20.5712,23.4774,77.8905,3.97106,16.6426,-12.6221,-79.879,21.0816,-16.4531,76.1717,0,0,0
10.3503,10.441,-18.5173,-13.2419,1.21774,-3.49071,23.961,-2.94507,3.26631,7.88867,-2.99828,0.917967,-4.74675,-1.45671,-0.0490083,0.684174,6.97135,15.5593,-9.04166,8.88816,-14.5864,-1.349,4.42485,-7.01998,1.86361e-16,-1.16786e-14,-39.8281,-2.46256,-79.521,94.7462,-46.0764,-31.1558,-3.09934,7.12502,-4.43357,-33.0329,1.86361e-16,-1.16786e-14,-31.5434,8.03381,62.9898,113.381,-8.67536,-4.67856,18.5023,7.12502,21.1022,47.374,-79.1704,-20.6646,23.2249,77.7923,4.15402,16.8366,-13.1899,-79.5961,21.1109,-16.6443,76.0176,0,0,0
10.3511,10.4497,-18.5264,-13.4257,1.33414,-3.47348,24.023,-2.98474,3.29111,8.08901,-3.05258,0.797372,-4.56735,-1.4788,-0.181639,0.792993,6.81435,15.6111,-9.30195,8.67606,-14.5625,-1.47378,4.31813,-7.04209,-2.71388e-15,2.84511e-15,-39.7267,-2.18994,-79.7037,94.9336,-46.0039,-31.4768,-2.88854,7.12502,-4.74355,-32.8154,-2.71388e-15,2.84511e-15,-30.7583,7.38878,62.9642,113.231,-8.82666,-5.00879,18.0436,7.12502,20.785,46.9504,-78.8788,-20.8263,23.1279,77.6922,4.19256,17.1087,-14.3387,-79.3226,21.1142,-16.6896,75.8897,0,0,0
10.3529,10.4479,-18.53,-13.5169,1.4149,-3.348,24.4406,-2.9301,3.02309,7.91316,-3.01722,0.838696,-4.95173,-1.46641,0.0282925,0.763556,6.70847,15.5313,-8.96531,8.5489,-14.5379,-1.39534,4.25762,-7.0134,-5.79892e-15,1.35174e-14,-40.0643,-1.66287,-79.5673,95.1779,-45.9283,-31.8685,-3.04031,7.12502,-5.12178,-32.9584,-5.79892e-15,1.35174e-14,-30.643,6.78808,63.0803,113.265,-9.16834,-4.86985,17.2574,7.12502,20.9185,46.1495,-78.7837,-20.929,22.9538,77.6503,4.30408,16.9931,-12.0453,-79.154,21.1576,-16.91,75.7855,0,0,0
10.3538,10.4488,-18.5409,-13.6002,1.41486,-3.17116,23.9973,-2.94027,2.88529,8.38486,-3.10589,0.620695,-4.22405,-1.50259,-0.13766,0.892745,6.72038,15.5574,-9.52719,8.54773,-14.5339,-1.57901,4.25653,-7.04074,-2.33199e-14,-3.72721e-15,-39.2934,-1.39306,-79.8997,95.2662,-45.9,-32.1367,-3.34257,7.12502,-5.38071,-33.2543,-2.33199e-14,-3.72721e-15,-29.5122,6.69814,62.8468,113.161,-9.58701,-4.31603,16.4777,7.12502,21.4505,45.3102,-78.6624,-20.835,22.6833,77.5847,4.1346,16.4484,-6.69236,-79.0518,21.2647,-17.1651,75.7093,0,0,0
10.353,10.4515,-18.5537,-13.6571,1.38047,-3.12355,23.8977,-2.92037,2.78821,8.67761,-3.11533,0.564226,-3.85355,-1.50415,-0.153961,1.0578,6.66881,15.3703,-10.0314,8.45877,-14.5729,-1.77146,4.22169,-7.04992,-1.44492e-14,9.39258e-15,-38.7202,-1.05602,-79.9179,95.2286,-45.8306,-31.977,-2.75059,7.12502,-5.22651,-32.6661,-1.44492e-14,9.39258e-15,-28.6333,6.48678,62.8964,113.169,-9.80837,-3.81078,15.9719,7.12502,21.9357,44.7483,-78.5543,-20.6897,22.5592,77.4932,4.441,17.0638,-14.3038,-79.0726,21.3572,-17.1927,75.6933,0,0,0
10.3548,10.4496,-18.5632,-13.7615,1.35908,-3.18542,24.0493,-2.91595,2.77946,8.84328,-3.10595,0.602713,-3.74375,-1.49849,-0.10856,0.987706,6.61018,15.1568,-10.1682,8.35149,-14.5806,-1.82391,4.17281,-7.02276,2.43511e-15,1.27222e-14,-38.4108,-0.657971,-79.8219,95.4266,-45.9855,-31.9478,-2.2275,7.12502,-5.19835,-32.1437,2.43511e-15,1.27222e-14,-28.0703,6.25754,63.0957,113.277,-9.89346,-3.58982,15.536,7.12502,22.1478,44.2874,-78.4199,-20.6643,22.5726,77.4064,4.35378,16.3027,-6.36491,-78.974,21.4052,-17.0404,75.6692,0,0,0
10.3582,10.4503,-18.5764,-13.9751,1.34527,-3.3581,24.2652,-2.94904,2.92067,8.98385,-3.10942,0.614313,-3.70115,-1.49681,-0.170085,1.12716,6.51148,15.1876,-10.3187,8.22208,-14.6639,-1.90394,4.11383,-7.06906,9.36773e-15,-5.41688e-15,-38.2885,-0.415416,-79.8333,95.7884,-45.989,-31.957,-2.11908,7.12502,-5.20725,-32.0351,9.36773e-15,-5.41688e-15,-27.5041,6.02387,63.1903,113.293,-9.992,-3.33267,15.0079,7.12502,22.3947,43.7298,-78.1026,-20.6782,22.6529,77.2969,4.53407,16.6163,-9.25911,-78.6743,21.4443,-16.7995,75.5719,0,0,0
10.3606,10.45,-18.5886,-14.1372,1.30749,-3.64982,24.3264,-2.97144,3.21683,9.16925,-3.0706,0.642667,-3.53787,-1.47078,-0.32065,1.30734,6.37983,15.3306,-10.5198,8.04556,-14.8794,-2.0005,4.03358,-7.18032,-3.91606e-14,2.51463e-14,-38.0905,-0.365408,-79.797,96.0189,-45.5927,-31.725,-2.1825,7.12502,-4.98323,-32.1039,-3.91606e-14,2.51463e-14,-26.7959,5.67866,63.3069,113.2,-10.1441,-2.98812,14.7288,7.12502,22.7254,43.4105,-77.826,-20.6476,22.8731,77.1848,4.45708,16.2194,-5.47774,-78.4939,21.4824,-16.4863,75.4777,0,0,0
10.3635,10.4444,-18.5948,-14.3493,1.33045,-3.79297,24.433,-3.00238,3.33068,9.38601,-3.08181,0.683429,-3.35455,-1.47169,-0.340018,1.20766,6.32859,15.1603,-10.408,7.96126,-14.8968,-1.96993,3.99602,-7.15214,1.38652e-14,-2.28602e-15,-37.8119,-0.24545,-79.7115,96.2776,-45.3416,-31.7565,-2.17628,7.12502,-5.0136,-32.097,1.38652e-14,-2.28602e-15,-26.2217,5.46582,63.55,113.098,-10.0999,-2.87305,14.4742,7.12502,22.8358,43.1423,-77.5563,-20.7041,22.906,77.1273,4.89299,16.8503,-12.6245,-78.2364,21.4822,-16.3561,75.3696,0,0,0
10.3657,10.4381,-18.6069,-14.59,1.41038,-3.55906,24.6611,-2.99757,3.02687,9.54907,-3.14003,0.625851,-3.27787,-1.50319,-0.209449,1.13012,6.27366,14.8341,-10.1421,7.89503,-14.6874,-1.91469,3.96569,-7.02163,-5.24295e-15,-5.26779e-15,-37.6652,-0.0466901,-79.7452,96.6679,-45.5352,-32.7469,-0.907165,7.12502,-5.96983,-30.8031,-5.24295e-15,-5.26779e-15,-25.7936,5.46362,63.7342,113.033,-10.0788,-2.6094,13.9629,7.12502,23.0888,42.5996,-77.3029,-20.7158,22.4869,77.0884,4.71258,16.1604,-4.81202,-77.9414,21.4765,-16.6103,75.2571,0,0,0
10.3666,10.4281,-18.6235,-14.7648,1.41619,-3.18874,24.9054,-2.92388,2.62557,9.65217,-3.13592,0.488247,-3.27285,-1.5057,-0.124278,1.1962,6.17131,14.6168,-10.0137,7.78108,-14.4386,-1.92786,3.90999,-6.90855,-2.82771e-14,1.56046e-14,-37.5464,-0.194142,-79.7082,96.9257,-44.8636,-32.3195,0.105617,7.12502,-5.55718,-29.8015,-2.82771e-14,1.56046e-14,-25.455,5.41826,63.8104,113.02,-10.1211,-2.45205,13.4213,7.12502,23.2398,42.039,-77.1751,-20.5724,21.9832,77.049,5.06532,16.9026,-12.0093,-77.7707,21.5461,-16.98,75.1955,0,0,0
10.3672,10.4172,-18.6348,-15.0471,1.37229,-3.14543,25.1858,-2.90317,2.57321,9.82613,-3.11634,0.432512,-3.21696,-1.49454,-0.153458,1.2071,6.14096,14.5035,-9.95474,7.7469,-14.3465,-1.92708,3.8943,-6.86022,1.33434e-14,-9.44227e-15,-37.2719,-0.380791,-79.6775,97.0711,-44.2085,-31.7079,0.710552,7.12502,-4.96665,-29.2112,1.33434e-14,-9.44227e-15,-25.1637,5.37057,63.9077,113.157,-10.0082,-2.32956,13.1334,7.12502,23.3573,41.7362,-76.9047,-20.4923,21.8401,77.0075,4.97829,16.3451,-6.76634,-77.5042,21.655,-16.9901,75.1763,0,0,0
10.3688,10.4134,-18.6467,-15.4275,1.26998,-3.4258,25.4058,-2.93029,2.8675,10.106,-3.07676,0.476964,-3.02303,-1.46654,-0.282252,1.09275,6.10291,14.5905,-9.75258,7.68169,-14.5891,-1.842,3.86511,-6.94146,3.13831e-14,-2.21645e-14,-36.8929,-0.609315,-79.5697,97.2004,-43.4528,-30.6067,0.934072,7.12502,-3.90339,-29.0099,3.13831e-14,-2.21645e-14,-24.7198,5.30319,64.0874,113.217,-9.68242,-2.07989,13.0722,7.12502,23.5968,41.6443,-76.4075,-20.4596,22.0362,76.8908,4.78462,16.2513,-5.57942,-77.1856,21.7701,-16.578,75.2221,0,0,0
10.3701,10.4171,-18.6618,-15.7283,1.06452,-3.74526,25.5606,-2.93637,3.2009,10.3796,-3.00359,0.536023,-2.80279,-1.4204,-0.429102,0.974379,6.02125,14.6227,-9.56718,7.55631,-14.7943,-1.7745,3.80568,-7.00421,9.69075e-15,2.88238e-15,-36.5469,-0.892902,-79.4798,97.3758,-42.6826,-28.8288,0.897481,7.12502,-2.18635,-29.0711,9.69075e-15,2.88238e-15,-24.3001,5.25377,64.2738,113.129,-9.25485,-2.11244,13.0418,7.12502,23.5655,41.618,-75.9311,-20.3125,22.3358,76.7045,4.91899,16.4212,-7.00924,-76.917,21.9631,-16.0948,75.2458,0,0,0
10.3694,10.4161,-18.6786,-15.9807,0.902023,-3.94787,25.8283,-2.93722,3.41556,10.5566,-2.94469,0.569497,-2.73884,-1.38464,-0.52523,1.04017,5.91179,14.5613,-9.58593,7.40417,-14.9183,-1.8091,3.73836,-7.04033,2.77305e-14,2.78299e-15,-36.3168,-1.19735,-79.4454,97.5711,-42.063,-27.8929,0.696575,7.12502,-1.28249,-29.2793,2.77305e-14,2.78299e-15,-24.1359,5.26517,64.4677,113.107,-9.01744,-2.35112,12.7958,7.12502,23.3366,41.4012,-75.5773,-20.1129,22.4952,76.5446,5.13707,16.8734,-12.4858,-76.6659,22.1582,-15.7985,75.1975,0,0,0
10.3675,10.4072,-18.6942,-16.2341,0.951954,-3.77888,26.1403,-2.91209,3.24297,10.673,-2.94247,0.523728,-2.75342,-1.38571,-0.468589,1.23275,5.78742,14.6265,-9.56729,7.24469,-15.2116,-1.84176,3.67359,-7.15488,1.0138e-14,-4.96962e-15,-36.1518,-1.50466,-79.4127,97.679,-41.5033,-28.3208,1.10019,7.12502,-1.69574,-28.8728,1.0138e-14,-4.96962e-15,-24.0561,5.26661,64.6768,113.012,-8.80165,-2.73373,12.3075,7.12502,22.9695,40.959,-75.3351,-20.0418,22.187,76.4619,4.87563,16.086,-5.44204,-76.3927,22.1854,-15.9766,75.1177,0,0,0
10.3672,10.4005,-18.7057,-16.4378,1.07932,-3.49987,26.316,-2.88391,2.93587,10.8488,-2.97722,0.461108,-2.63357,-1.4071,-0.350425,1.23433,5.75816,14.6248,-9.43813,7.20229,-15.4101,-1.80065,3.65995,-7.21477,2.0773e-14,-8.44835e-15,-35.8261,-1.76493,-79.392,97.5554,-40.854,-28.5004,2.59709,7.12502,-1.86924,-27.3745,2.0773e-14,-8.44835e-15,-23.891,5.38204,64.8909,112.88,-8.67113,-3.028,12.0588,7.12502,22.6871,40.7452,-75.1602,-20.1025,21.7928,76.4048,4.9942,16.5423,-10.1216,-76.1169,22.0997,-16.2796,75.0413,0,0,0
10.3687,10.3986,-18.7221,-16.6398,1.00925,-3.67227,26.513,-2.91814,3.11956,11.0461,-2.97079,0.496605,-2.51173,-1.39724,-0.415763,1.09728,5.75499,14.5764,-9.2524,7.18609,-15.5235,-1.72228,3.6529,-7.23221,-5.1684e-15,9.93923e-17,-35.4543,-2.00486,-79.3265,97.8231,-40.2297,-27.6861,1.77533,7.12502,-1.08279,-28.2017,-5.1684e-15,9.93923e-17,-23.7448,5.53102,65.131,112.779,-8.43254,-3.3697,12.133,7.12502,22.3591,40.8592,-74.8773,-20.0655,21.9531,76.275,4.81366,16.1891,-6.22142,-75.9648,22.1381,-16.0274,75.0388,0,0,0
10.3693,10.393,-18.7419,-16.7838,0.897557,-3.93036,26.7351,-2.9764,3.39918,11.1533,-2.96828,0.541837,-2.50451,-1.38809,-0.520401,1.22663,5.67776,14.6205,-9.1065,7.09781,-15.7331,-1.70291,3.61923,-7.30889,-1.42628e-14,1.17283e-14,-35.2408,-2.23389,-79.296,97.8476,-39.3567,-27.518,1.8703,7.12502,-0.920405,-28.1075,-1.42628e-14,1.17283e-14,-23.7917,5.59432,65.3505,112.526,-8.0701,-4.10308,12.2485,7.12502,21.655,41.0575,-74.6398,-19.918,22.1863,76.1373,4.79594,16.5931,-11.436,-75.9366,22.2036,-15.6978,75.0363,0,0,0
10.3691,10.3822,-18.7571,-16.9543,0.941631,-3.8233,26.9067,-3.01254,3.294,11.2646,-3.03603,0.500146,-2.46109,-1.4223,-0.48307,1.64796,5.62175,14.5307,-9.20104,7.05669,-15.8394,-1.8051,3.62065,-7.34743,3.8763e-15,-9.54166e-15,-35.1116,-2.43246,-79.3281,97.9718,-38.7019,-28.3031,2.27174,7.12502,-1.67864,-27.7014,3.8763e-15,-9.54166e-15,-24.0346,5.68278,65.541,112.295,-7.9314,-4.90238,12.5483,7.12502,20.8872,41.4438,-74.4815,-19.861,21.9754,76.0712,4.49963,16.1693,-8.62132,-75.7498,22.1477,-15.7983,74.9449,0,0,0
10.3684,10.3754,-18.7719,-17.2715,0.925406,-3.73946,27.1678,-3.02129,3.1728,11.5015,-3.06998,0.493399,-2.31442,-1.43978,-0.408243,1.83992,5.64966,14.3539,-9.32176,7.09878,-15.8731,-1.8704,3.65601,-7.33865,-1.44119e-15,-7.15625e-15,-34.8695,-2.59564,-79.3136,98.2583,-38.3569,-27.635,2.18482,7.12502,-1.0334,-27.7924,-1.44119e-15,-7.15625e-15,-24.2276,5.88129,65.7279,112.203,-7.90895,-5.54137,12.9604,7.12502,20.2732,41.9224,-74.1458,-19.8044,21.7981,75.9905,4.70604,16.6059,-12.8423,-75.3598,22.1825,-15.8327,74.8158,0,0,0
10.3672,10.3744,-18.7937,-17.6997,0.860213,-3.6372,27.5891,-2.96194,3.0048,11.8358,-3.02193,0.519264,-2.12527,-1.41849,-0.291283,1.62762,5.67184,14.3213,-9.19031,7.10026,-16.0717,-1.78744,3.65731,-7.38452,-1.91827e-14,1.18277e-14,-34.4317,-2.68076,-79.2881,98.3979,-38.5158,-27.963,2.92047,7.12502,-1.35016,-27.055,-1.91827e-14,1.18277e-14,-24.1488,6.24146,65.9769,112.037,-8.426,-5.77117,12.8793,7.12502,20.0523,41.8646,-73.6278,-19.7088,21.5908,75.8582,4.96261,16.3865,-9.71851,-74.8439,22.2603,-15.821,74.6741,0,0,0
10.3695,10.3714,-18.8135,-18.1078,0.922016,-3.34571,28.0082,-2.89902,2.76906,12.0931,-2.98879,0.460135,-2.02198,-1.40541,-0.222192,1.61656,5.62083,14.3825,-9.1001,7.0248,-16.3189,-1.75644,3.62597,-7.4726,2.62893e-14,-1.17283e-14,-34.1748,-2.97511,-79.1408,98.5412,-38.1058,-28.9099,2.88829,7.12502,-2.26467,-27.0794,2.62893e-14,-1.17283e-14,-24.1182,6.58242,66.2648,111.795,-9.30516,-5.86795,12.3681,7.12502,19.9593,41.3631,-73.2132,-19.7882,21.1654,75.8717,5.01332,16.3159,-7.43795,-74.3421,22.2299,-16.0596,74.6266,0,0,0
10.3713,10.3606,-18.8197,-18.3914,0.955357,-3.34793,28.2788,-2.93877,2.8775,12.2632,-3.00455,0.432376,-1.96023,-1.40637,-0.303793,1.88309,5.5638,14.3781,-9.20083,6.96611,-16.395,-1.83597,3.61007,-7.51086,2.76311e-14,-1.91827e-14,-34.1811,-3.25229,-79.0505,98.6988,-37.7294,-29.8058,3.15623,7.12502,-3.12989,-26.8005,2.76311e-14,-1.91827e-14,-24.3551,6.78754,66.512,111.572,-9.89765,-6.51186,12.243,7.12502,19.3402,41.3013,-72.9938,-19.8583,21.0643,75.9518,5.04785,16.6235,-9.75175,-74.0218,22.2517,-16.0736,74.6031,0,0,0
10.3717,10.3034,-18.7759,-18.6811,0.827719,-3.58842,28.5852,-2.99742,3.13945,12.4582,-3.00189,0.476957,-1.88666,-1.39508,-0.398425,1.98095,5.5503,14.3413,-9.20359,6.95841,-16.3848,-1.85639,3.61097,-7.50529,-3.64521e-14,1.89839e-14,-34.0877,-3.45163,-79.0754,98.8167,-37.5688,-30.2589,3.3904,7.12502,-3.56748,-26.5595,-3.64521e-14,1.89839e-14,-24.6859,6.95351,66.6792,111.421,-10.2464,-7.13236,12.3291,7.12502,18.7435,41.4461,-73.0567,-19.7823,21.2055,76.275,4.91356,16.9051,-12.5876,-74.0937,22.5007,-15.7598,74.8511,0,0,0
10.3723,10.2961,-18.7979,-19.0108,0.58237,-3.85012,28.9876,-3.04795,3.41021,12.6144,-2.98031,0.537767,-1.89744,-1.37572,-0.481196,1.93044,5.55194,14.3722,-8.93017,6.9736,-16.486,-1.7606,3.61838,-7.53209,-1.66482e-15,5.46658e-15,-33.9929,-3.51719,-79.127,98.9009,-37.4795,-29.8323,2.62921,7.12502,-3.15553,-27.3272,-1.66482e-15,5.46658e-15,-25.1559,7.01507,66.7821,111.305,-10.2961,-7.90506,12.3009,7.12502,18.0002,41.4879,-72.6359,-19.5389,21.4533,76.2527,4.70197,16.7277,-11.5635,-73.7992,22.7298,-15.3569,74.8747,0,0,0
10.3676,10.3371,-18.8756,-19.2575,0.444237,-3.86605,29.2316,-3.06456,3.40343,12.77,-2.9959,0.548217,-1.83009,-1.383,-0.456201,1.97639,5.54692,14.3912,-8.68539,6.98543,-16.644,-1.68755,3.62998,-7.57989,7.42958e-15,-2.77305e-14,-33.9965,-3.52947,-79.0944,99.0453,-37.2567,-28.7711,1.50427,7.12502,-2.13066,-28.4648,7.42958e-15,-2.77305e-14,-25.66,7.1755,66.8871,111.22,-10.4204,-8.69137,12.6077,7.12502,17.2435,41.8627,-72.011,-19.2629,21.4763,75.8519,4.77782,16.3951,-9.89231,-73.2243,22.778,-15.244,74.5507,0,0,0
10.3614,10.2875,-18.8452,-19.3753,0.488728,-3.44642,29.3126,-2.96996,2.94324,12.946,-2.99906,0.467128,-1.65418,-1.39772,-0.284147,2.23742,5.51609,14.3695,-8.77156,6.95865,-16.7712,-1.75518,3.63237,-7.63036,9.91439e-15,-1.67973e-14,-34.0675,-3.43814,-79.1217,99.257,-37.7154,-29.0666,2.04775,7.12502,-2.41599,-27.9183,9.91439e-15,-1.67973e-14,-26.0471,7.48918,66.9577,111.166,-10.905,-8.72264,12.8599,7.12502,17.2134,42.1175,-72.3425,-19.2135,20.9936,76.1271,4.78985,16.3527,-9.47862,-73.4174,22.8786,-15.6066,74.7689,0,0,0
10.3581,10.273,-18.857,-19.5439,0.461713,-3.31281,29.4936,-2.94731,2.84994,13.1292,-2.99155,0.445086,-1.52405,-1.39508,-0.255678,2.34285,5.48357,14.3602,-8.80328,6.91299,-16.9473,-1.78106,3.62058,-7.69162,-2.36554e-14,1.36167e-14,-33.9738,-3.66051,-78.9608,99.4319,-37.0865,-27.6325,0.615654,7.12502,-1.03098,-29.3616,-2.36554e-14,1.36167e-14,-26.3494,7.74225,66.9731,111.03,-11.5433,-8.59052,12.8389,7.12502,17.3406,42.0853,-72.2075,-19.1399,20.8664,76.0854,4.45928,17.0344,-15.7237,-73.1464,22.8979,-15.6715,74.6316,0,0,0
10.3562,10.2612,-18.8705,-19.8145,0.292163,-3.53152,29.7855,-3.01088,3.13313,13.3491,-2.98966,0.481659,-1.41117,-1.38166,-0.372259,2.23007,5.48435,14.3565,-8.66257,6.90502,-17.0881,-1.716,3.61664,-7.72804,-1.37161e-14,-7.05686e-15,-33.7746,-3.84396,-78.9099,99.4382,-36.6486,-26.27,-0.359213,7.12502,0.284943,-30.3388,-1.37161e-14,-7.05686e-15,-26.5751,8.0893,66.8926,110.838,-12.4702,-8.19995,12.8097,7.12502,17.7164,42.0226,-71.865,-19.0396,21.1158,76.0948,4.47572,16.5047,-10.3143,-72.8449,22.9561,-15.2326,74.6429,0,0,0
10.3489,10.2564,-18.8896,-20.1461,0.136765,-3.53863,30.1035,-2.98139,3.12183,13.5902,-2.94701,0.49286,-1.27363,-1.35934,-0.361119,2.3787,5.50712,14.3568,-8.73064,6.94422,-17.1525,-1.75119,3.64511,-7.75578,-2.79292e-14,2.75317e-14,-33.6004,-3.85903,-78.9847,99.4718,-36.9555,-26.8453,-0.215246,7.12502,-0.270677,-30.1948,-2.79292e-14,2.75317e-14,-26.8176,8.42186,66.8521,110.621,-13.2436,-7.48106,12.6848,7.12502,18.4081,41.8338,-71.4556,-18.9099,21.1422,76.0057,4.80506,16.6011,-11.1601,-72.4906,23.0448,-14.9392,74.5999,0,0,0
10.3453,10.2505,-18.9067,-20.5078,0.0974288,-3.42975,30.3002,-2.94759,2.9366,13.9071,-2.95026,0.532641,-0.987422,-1.36774,-0.212339,2.71622,5.53188,14.3263,-8.98271,6.9849,-17.2944,-1.86825,3.687,-7.81671,-1.51573e-14,1.32689e-14,-33.3872,-3.56906,-79.026,99.6908,-37.7792,-29.2189,0.332603,7.12502,-2.56308,-29.6317,-1.51573e-14,1.32689e-14,-27.1177,8.69304,67.0452,110.442,-13.5138,-7.40552,12.7269,7.12502,18.4808,41.869,-71.056,-18.7665,20.9099,75.9383,4.53791,16.6466,-11.8545,-72.0246,23.0339,-14.8332,74.5122,0,0,0
10.3458,10.2429,-18.918,-20.7644,0.0803397,-3.29617,30.1835,-2.93034,2.67598,14.3204,-3.00934,0.606217,-0.447672,-1.40926,0.0184804,2.92351,5.5378,14.2243,-9.20451,6.97705,-17.5062,-1.9616,3.70463,-7.88367,-1.22998e-15,-1.33683e-14,-33.0616,-3.17021,-78.9641,99.6925,-38.3619,-30.7673,0.895364,7.12502,-4.05843,-29.0457,-1.22998e-15,-1.33683e-14,-27.3677,9.19723,67.2911,110.323,-13.8641,-8.29539,12.7979,7.12502,17.6246,42.0191,-70.8539,-18.8185,20.7617,75.8875,3.89235,17.065,-13.9248,-71.6397,23.0363,-14.8613,74.365,0,0,0
10.3422,10.2409,-18.9283,-20.8451,0.215129,-3.35531,30.119,-3.02694,2.6828,14.4989,-3.13383,0.646267,-0.213227,-1.47098,0.0875691,2.95123,5.52566,14.3005,-9.01359,6.97762,-17.6494,-1.90158,3.70771,-7.93795,7.65321e-15,3.926e-15,-33.0367,-3.06302,-78.9557,99.5539,-38.6818,-31.1784,1.21617,7.12502,-4.4554,-28.717,7.65321e-15,3.926e-15,-27.9256,9.44149,67.3028,110.189,-14.1906,-9.16467,12.5333,7.12502,16.7879,41.8275,-70.7439,-18.9895,20.7601,75.8301,3.87051,17.1303,-14.2726,-71.4995,22.9152,-14.8787,74.1611,0,0,0
10.3328,10.2457,-18.9512,-20.9016,0.608783,-3.64023,30.0881,-3.24518,2.97943,14.5901,-3.32984,0.683069,-0.107235,-1.55173,0.0130797,2.99065,5.50897,14.5301,-8.69103,6.99679,-17.7843,-1.79759,3.71436,-8.01168,-2.25372e-14,2.47735e-14,-33.2197,-3.23694,-78.966,99.7386,-38.9397,-31.161,1.65695,7.12502,-4.4386,-28.2765,-2.25372e-14,2.47735e-14,-28.5627,9.34227,67.2182,110.014,-14.4073,-8.71384,12.1416,7.12502,17.2219,41.3985,-70.5528,-19.3104,20.8357,75.7355,4.46538,16.6514,-11.9509,-71.519,22.4791,-14.7897,73.9405,0,0,0
10.3238,10.251,-18.9755,-21.1476,0.817017,-3.71865,30.2965,-3.33379,3.12486,14.6893,-3.39349,0.670325,-0.0915378,-1.57288,-0.0587653,3.16659,5.47686,14.7065,-8.53366,6.99469,-17.8816,-1.77165,3.71771,-8.07545,-2.20651e-14,3.24267e-14,-33.4726,-3.58588,-78.8024,99.8598,-38.0712,-30.4099,0.878905,7.12502,-3.71326,-29.0685,-2.20651e-14,3.24267e-14,-29.1306,9.29255,67.1167,109.833,-14.8485,-7.4967,11.7758,7.12502,18.3931,40.9262,-70.2096,-19.4738,20.7761,75.6192,4.84496,16.3881,-10.9327,-71.3034,22.2648,-14.7113,73.7418,0,0,0
10.3218,10.2575,-18.9883,-21.5238,0.696076,-3.54813,30.5385,-3.27836,3.08398,14.8835,-3.33131,0.591561,0.0262404,-1.53858,-0.136179,3.40974,5.4626,14.8472,-8.57397,7.0029,-18.0026,-1.81208,3.7326,-8.14984,-1.74931e-14,1.36913e-14,-33.4383,-4.23551,-78.3037,99.331,-35.1332,-27.4135,-0.975117,7.12502,-0.819505,-30.9533,-1.74931e-14,1.36913e-14,-29.6576,9.41365,67.045,109.592,-15.2715,-6.87947,11.459,7.12502,18.9867,40.5523,-69.7517,-19.417,20.5911,75.5128,4.95394,16.4956,-11.4709,-70.6927,22.4345,-14.6394,73.5894,0,0,0
10.3232,10.2606,-18.9974,-21.7467,0.686986,-3.10453,30.6394,-3.23041,2.75661,15.017,-3.36204,0.428406,0.139806,-1.56382,-0.120738,3.83225,5.44825,15.059,-8.63626,7.02773,-18.2633,-1.87706,3.76657,-8.29008,1.85491e-14,-4.94725e-14,-33.4506,-3.90756,-78.403,99.2306,-36.0353,-29.0388,-0.245505,7.12502,-2.38915,-30.2119,1.85491e-14,-4.94725e-14,-30.3729,9.61621,66.9214,109.346,-15.5543,-6.5325,11.3128,7.12502,19.3204,40.3731,-69.5515,-19.4593,20.1454,75.4651,5.26808,16.5438,-10.1104,-70.1663,22.5504,-14.9939,73.4528,0,0,0
10.319,10.2538,-19.0073,-21.7865,0.821791,-2.66401,30.7878,-3.24128,2.35182,14.9509,-3.48013,0.277746,0.00448116,-1.63995,-0.01342,4.32403,5.40792,15.1478,-8.51918,7.04505,-18.3628,-1.91679,3.79592,-8.3538,-3.41288e-14,3.25261e-14,-33.7507,-3.78242,-78.3897,99.1213,-35.8792,-28.4561,-0.0772545,7.12502,-1.82637,-30.0492,-3.41288e-14,3.25261e-14,-31.383,9.91633,66.687,109.214,-15.8619,-5.9112,11.4663,7.12502,19.9177,40.4656,-69.6374,-19.5816,19.7508,75.4264,5.54971,17.0587,-13.5296,-70.0205,22.5311,-15.4732,73.3596,0,0,0
10.307,10.2507,-19.0209,-21.9592,0.755308,-2.55977,31.1249,-3.22671,2.27787,14.9019,-3.47126,0.213113,-0.198458,-1.63775,-0.0291799,4.38964,5.37943,15.2039,-8.112,7.06664,-18.232,-1.8125,3.79967,-8.30916,-2.98177e-16,-1.54555e-14,-34.2082,-3.63835,-78.5107,99.2299,-36.4351,-28.8821,0.69279,7.12502,-2.23786,-29.2752,-2.98177e-16,-1.54555e-14,-32.3034,10.0455,66.4548,109.013,-16.013,-5.82881,11.828,7.12502,19.9969,40.819,-69.4434,-19.4525,19.707,75.321,5.41912,16.998,-14.0085,-69.798,22.6396,-15.3588,73.336,0,0,0
10.2973,10.2513,-19.0332,-22.1672,0.645549,-2.68656,31.2078,-3.2071,2.35397,15.0657,-3.42389,0.291815,-0.0408311,-1.61288,-0.00184374,4.25179,5.39296,15.3747,-7.76725,7.10732,-18.3734,-1.67026,3.81248,-8.36754,-3.74088e-14,2.5519e-14,-34.3484,-3.12624,-78.8107,99.6206,-38.8486,-32.3155,2.34328,7.12502,-5.55332,-27.564,-3.74088e-14,2.5519e-14,-32.9165,10.2444,66.432,108.697,-16.1314,-6.25673,11.7891,7.12502,19.5855,40.8226,-69.1226,-19.2939,19.8228,75.2176,5.52786,16.6188,-12.5096,-69.5285,22.7115,-14.9912,73.3205,0,0,0
10.2931,10.2482,-19.0414,-22.2297,0.664988,-2.8783,30.8857,-3.23176,2.37425,15.3205,-3.46005,0.491794,0.407054,-1.6379,0.195438,4.55284,5.43336,15.3208,-7.87615,7.1733,-18.6006,-1.73226,3.86936,-8.44759,-3.26224e-14,3.36039e-14,-34.0483,-3.91417,-78.0005,99.1712,-35.2459,-27.5701,-1.0181,7.12502,-0.970707,-30.9956,-3.26224e-14,3.36039e-14,-33.476,10.7963,66.5366,108.385,-16.735,-5.83025,11.2617,7.12502,19.9955,40.2529,-68.9726,-19.3179,19.9834,75.1141,5.22826,16.6659,-13.1337,-69.5413,22.6429,-14.7962,73.3014,0,0,0
10.2922,10.2449,-19.0405,-22.277,0.580502,-3.07662,30.901,-3.30221,2.64588,15.3082,-3.47627,0.531614,0.376444,-1.6322,0.0911515,4.90537,5.44767,15.3076,-7.80093,7.24611,-18.558,-1.76112,3.91889,-8.44192,7.76192e-15,1.61947e-14,-34.4202,-3.17596,-78.5381,99.946,-38.9132,-31.9221,-0.444141,7.12502,-5.1735,-30.361,7.76192e-15,1.61947e-14,-34.3907,11.06,66.3306,108.153,-17.504,-4.92096,11.277,7.12502,20.8694,40.1745,-68.8674,-19.3421,20.2398,75.0176,4.95233,16.7864,-13.7702,-69.5256,22.7671,-14.6779,73.2167,0,0,0
10.2936,10.2495,-19.0427,-22.254,0.387297,-3.29634,30.87,-3.36066,3.01336,15.2939,-3.4558,0.560039,0.359491,-1.60208,-0.0927385,4.72261,5.42223,15.5785,-7.2736,7.25301,-18.7543,-1.5586,3.91043,-8.52891,-4.50216e-14,3.23087e-14,-34.545,-3.64893,-78.2879,99.587,-37.6983,-29.8316,-0.806617,7.12502,-3.15483,-30.763,-4.50216e-14,3.23087e-14,-35.2969,11.2078,66.1454,107.998,-18.1101,-4.38168,12.0446,7.12502,21.3874,40.8843,-68.8463,-19.3545,20.6295,74.8967,3.89771,18.3128,-26.8509,-69.4674,22.952,-14.4701,73.0839,0,0,0
10.2941,10.2577,-19.0523,-22.1349,0.238811,-3.29458,30.7414,-3.39117,3.2445,15.2121,-3.44223,0.496505,0.305523,-1.57947,-0.30054,4.89775,5.34196,15.8721,-6.96141,7.20847,-18.9938,-1.48525,3.89433,-8.65772,-4.10149e-14,4.05769e-14,-34.7973,-3.97488,-78.0325,99.3483,-36.7489,-29.1161,-0.780252,7.12502,-2.46382,-30.7458,-4.10149e-14,4.05769e-14,-36.169,11.2734,65.9111,107.74,-18.7747,-3.89049,12.5462,7.12502,21.8591,41.3316,-68.9557,-19.3105,20.8045,74.7513,5.39038,16.7844,-13.8317,-69.552,23.0752,-14.4517,72.9919,0,0,0
10.2932,10.2571,-19.054,-22.1617,0.257736,-2.94257,30.6264,-3.37699,3.14925,15.1639,-3.46098,0.303798,0.289208,-1.58506,-0.456322,5.79522,5.24779,15.9935,-7.30808,7.16661,-19.0622,-1.73743,3.91439,-8.75076,5.8921e-15,-2.01207e-14,-35.1728,-4.34817,-77.8289,99.1426,-35.4975,-28.04,-1.41925,7.12502,-1.42458,-31.3942,5.8921e-15,-2.01207e-14,-36.8509,11.36,65.6244,107.258,-19.4763,-3.19498,12.5714,7.12502,22.5268,41.2773,-68.987,-19.3222,20.4987,74.6781,4.95048,18.0952,-23.9389,-69.4823,23.1705,-14.8126,72.9408,0,0,0
10.2897,10.2584,-19.0575,-22.2434,0.377905,-2.48266,30.4785,-3.31458,2.75533,15.1422,-3.49478,0.186896,0.335719,-1.61917,-0.357202,6.58626,5.20276,16.0363,-7.49606,7.18906,-19.1301,-1.91791,3.96266,-8.82056,3.30153e-14,-2.74261e-14,-35.7489,-2.92553,-78.8922,100.297,-42.0105,-36.7551,1.77193,7.12502,-9.83836,-27.9782,3.30153e-14,-2.74261e-14,-37.623,11.6335,65.4524,106.753,-20.1872,-2.61448,12.3519,7.12502,23.0839,40.9892,-68.9679,-19.4292,20.0654,74.6352,5.42282,16.7031,-10.9217,-69.3387,23.1916,-15.2527,72.9305,0,0,0
10.2906,10.2698,-19.0589,-22.2058,0.324476,-2.23122,30.2174,-3.23391,2.47531,15.0885,-3.47566,0.224878,0.402158,-1.6288,-0.171806,7.01305,5.22146,15.9694,-7.26075,7.2859,-19.1646,-1.90769,4.03103,-8.82994,2.18663e-15,5.04416e-15,-35.9023,-3.58722,-78.325,99.7649,-39.5189,-31.1481,1.57721,7.12502,-4.42612,-28.3565,2.18663e-15,5.04416e-15,-38.6058,12.0075,65.4288,106.383,-21.0121,-2.39229,11.9193,7.12502,23.2971,40.5297,-68.9992,-19.4808,19.9553,74.5873,5.45663,17.3263,-15.8533,-69.3045,23.3211,-15.4464,72.9414,0,0,0
10.2955,10.2813,-19.0512,-22.3032,0.191576,-2.11512,30.1416,-3.18658,2.37962,15.0485,-3.44359,0.27499,0.397056,-1.62198,-0.0738262,7.30164,5.25946,15.9555,-6.93194,7.40668,-19.1939,-1.84084,4.10305,-8.83746,-1.35671e-14,1.46604e-14,-36.0565,-4.02994,-77.7702,99.3138,-37.7467,-30.6006,-0.80792,7.12502,-3.89744,-30.752,-1.35671e-14,1.46604e-14,-39.4426,12.2857,65.4189,105.968,-21.7416,-2.22338,11.6521,7.12502,23.4591,40.2419,-68.8278,-19.5298,19.9215,74.5703,4.87594,18.5419,-24.4925,-69.0429,23.5086,-15.4444,72.9221,0,0,0
10.2961,10.2822,-19.0436,-22.4384,0.240581,-1.83652,30.1152,-3.12599,2.11244,14.9936,-3.43562,0.275693,0.357293,-1.63406,0.0766845,7.63136,5.22539,16.0335,-6.61929,7.43786,-19.3038,-1.79479,4.13322,-8.89199,-2.5196e-14,1.83876e-14,-36.3456,-4.21367,-77.4803,99.3168,-37.4921,-30.6126,-2.67392,7.12502,-3.90905,-32.6178,-2.5196e-14,1.83876e-14,-40.1679,12.4414,65.39,105.526,-22.1245,-1.95694,11.4352,7.12502,23.7147,39.9922,-68.7013,-19.643,19.6151,74.6143,5.75085,17.5462,-14.7114,-68.7532,23.5163,-15.6588,72.8653,0,0,0
10.2946,10.2832,-19.0401,-22.3846,0.299152,-1.63366,29.8353,-3.04913,1.85379,14.9296,-3.4094,0.375911,0.424682,-1.64089,0.31556,8.04957,5.14299,16.0075,-6.43584,7.38675,-19.4587,-1.81822,4.13158,-8.95342,-1.60022e-14,1.23246e-14,-36.5508,-4.56354,-77.1034,99.2912,-37.1585,-29.412,-2.04207,7.12502,-2.74956,-32.0041,-1.60022e-14,1.23246e-14,-40.976,12.6862,65.4081,105.236,-22.4012,-1.69582,11.0772,7.12502,23.9651,39.6015,-68.7936,-19.7383,19.4579,74.6365,5.79694,17.1969,-10.0128,-68.757,23.4427,-15.8326,72.8379,0,0,0
10.2926,10.2871,-19.0401,-22.2176,0.295245,-1.52989,29.4441,-3.02355,1.76786,14.8698,-3.41022,0.407254,0.533422,-1.64805,0.383639,8.48296,5.11906,16.0127,-6.3948,7.41414,-19.466,-1.87531,4.16412,-8.97483,3.72721e-15,-7.65321e-15,-36.6494,-4.9282,-76.8617,99.28,-36.8997,-28.6671,-1.12904,7.12502,-2.03016,-31.0991,3.72721e-15,-7.65321e-15,-41.6529,12.9584,65.2535,104.85,-22.8728,-1.40589,10.9393,7.12502,24.2431,39.4267,-69.0185,-19.8066,19.494,74.5467,5.9466,17.3573,-10.7379,-68.8621,23.4115,-15.9037,72.7112,0,0,0
10.2929,10.2912,-19.0389,-21.9909,0.440039,-1.32858,28.9986,-3.10258,1.73852,14.7802,-3.53531,0.238021,0.61544,-1.7042,0.233218,8.91337,5.1423,16.2124,-6.33627,7.53256,-19.4647,-1.90206,4.23679,-9.02531,-4.01545e-14,2.04748e-14,-36.8198,-5.12215,-76.972,99.4385,-37.3292,-29.1702,-1.43018,7.12502,-2.51604,-31.3951,-4.01545e-14,2.04748e-14,-42.2448,13.1093,64.8904,104.402,-23.2881,-1.00091,10.9708,7.12502,24.6313,39.4058,-69.3724,-20.0352,19.3794,74.5085,6.30802,17.7295,-13.1593,-69.0287,23.2866,-16.235,72.5555,0,0,0
10.2919,10.343,-19.0839,-21.8961,0.686796,-1.133,28.6303,-3.2035,1.65503,14.6923,-3.69556,0.138074,0.673804,-1.78446,0.201297,9.37004,5.16141,16.3426,-6.26117,7.63547,-19.6053,-1.9278,4.31068,-9.11307,1.47598e-14,1.25234e-14,-37.1144,-5.09182,-77.1203,99.7842,-38.5473,-30.4287,-1.82079,7.12502,-3.73143,-31.7679,1.47598e-14,1.25234e-14,-43.0138,13.2536,64.5928,104.178,-23.4718,-0.25196,11.2332,7.12502,25.349,39.5684,-69.1481,-20.3383,19.2074,74.1441,6.40881,17.905,-14.3811,-68.704,22.9904,-16.603,72.1089,0,0,0
10.2897,10.3513,-19.0747,-21.9635,0.77332,-1.14352,28.4227,-3.25824,1.67052,14.6461,-3.76534,0.20206,0.716822,-1.82176,0.272807,9.73621,5.14647,16.2577,-6.1768,7.65689,-19.6683,-1.96324,4.34153,-9.13427,1.53064e-14,5.56597e-15,-37.4543,-5.06776,-77.1072,100.114,-39.5229,-31.4932,-1.58126,7.12502,-4.75934,-31.5078,1.53064e-14,5.56597e-15,-43.7609,13.4497,64.3979,103.97,-23.6168,0.736564,11.6709,7.12502,26.2957,39.8684,-69.0203,-20.5895,19.2172,74.066,6.48701,17.9066,-14.2192,-68.5802,22.9109,-16.5987,72.0518,0,0,0
10.2878,10.3578,-19.0608,-21.9319,0.422402,-1.7952,28.0936,-3.35268,2.40207,14.6331,-3.72072,0.411523,0.826737,-1.76698,0.0606708,9.95752,5.09037,16.187,-6.07206,7.61111,-19.648,-1.98393,4.32825,-9.12289,-3.94091e-14,3.79679e-14,-37.659,-5.42896,-76.8943,100.1,-39.5111,-31.364,-1.07115,7.12502,-4.63461,-31.0005,-3.94091e-14,3.79679e-14,-44.2895,13.7065,64.2397,103.718,-23.6647,1.49337,11.5775,7.12502,27.02,39.6648,-68.917,-20.4994,20.0535,73.9094,6.80208,17.6876,-12.7508,-68.6994,23.1099,-15.8129,72.0925,0,0,0
10.2864,10.3605,-19.0474,-21.7688,-0.0535854,-2.60785,27.6689,-3.44739,3.34324,14.5742,-3.63767,0.632193,0.9226,-1.68071,-0.270025,10.2143,5.04689,16.2902,-5.95277,7.60886,-19.704,-1.98763,4.33774,-9.16814,4.37326e-15,1.98785e-16,-37.7565,-6.08064,-76.6248,99.815,-38.8364,-30.3631,-0.998538,7.12502,-3.66812,-30.9467,4.37326e-15,1.98785e-16,-44.8115,13.9121,64.0605,103.564,-23.5852,1.89173,11.4118,7.12502,27.401,39.4394,-68.9916,-20.2795,21.1302,73.8601,6.9408,17.5535,-11.5107,-68.9827,23.363,-14.8466,72.225,0,0,0
10.2843,10.3593,-19.0406,-21.6967,-0.227665,-2.84011,27.5527,-3.48803,3.59406,14.371,-3.63128,0.732121,0.73808,-1.67129,-0.30331,10.6071,5.02971,16.4662,-5.69657,7.6759,-19.9522,-1.95113,4.39409,-9.29312,-2.51463e-14,-7.95139e-16,-38.0168,-6.3893,-76.4521,99.806,-38.7071,-29.913,-1.38802,7.12502,-3.23341,-31.3433,-2.51463e-14,-7.95139e-16,-45.6403,14.1252,63.8051,103.496,-23.6189,2.16874,11.7453,7.12502,27.666,39.7307,-69.0924,-20.1966,21.4577,73.965,6.95504,17.2433,-8.07286,-69.1527,23.4641,-14.5418,72.4289,0,0,0
10.2851,10.3629,-19.0352,-21.7438,-0.251668,-2.72497,27.6175,-3.49517,3.47849,14.1848,-3.65899,0.751077,0.501318,-1.69661,-0.201162,10.8401,5.05066,16.5757,-5.37273,7.77419,-20.1939,-1.86514,4.45972,-9.39472,2.55438e-14,-1.33186e-14,-38.3182,-6.55305,-76.2781,100.02,-39.0029,-29.6793,-1.8999,7.12502,-3.00774,-31.8584,2.55438e-14,-1.33186e-14,-46.4235,14.5317,63.5684,103.505,-23.702,2.49648,11.7046,7.12502,27.9793,39.6393,-69.0349,-20.2209,21.3109,74.0828,6.75358,16.9133,-4.06697,-69.1389,23.4742,-14.6114,72.6262,0,0,0
10.2906,10.3185,-18.9707,-21.7241,-0.236074,-2.51085,27.4612,-3.45035,3.33946,14.1008,-3.64143,0.716939,0.480358,-1.69465,-0.169196,11.0381,5.04966,16.627,-5.24201,7.81953,-20.2271,-1.84941,4.49077,-9.42018,-2.9122e-14,5.06901e-14,-38.5683,-6.96579,-76.0152,100.015,-38.7201,-29.2216,-2.44863,7.12502,-2.56574,-32.4129,-2.9122e-14,5.06901e-14,-46.9198,14.7425,63.3937,103.529,-23.6766,2.46889,11.1759,7.12502,27.9529,39.115,-69.4013,-20.3348,20.987,74.4944,7.57953,17.2078,-6.25622,-69.4999,23.517,-14.8118,73.0522,0,0,0
10.2907,10.3146,-18.9604,-21.5527,-0.196721,-2.38995,27.0678,-3.40997,3.26107,14.0063,-3.62558,0.715986,0.555184,-1.69074,-0.145713,11.442,5.01262,16.5545,-5.36067,7.8055,-20.0808,-1.96376,4.49756,-9.38158,5.1684e-15,-3.18055e-15,-38.8275,-7.41087,-75.7257,99.8047,-38.1771,-28.7401,-2.19883,7.12502,-2.10074,-32.1682,5.1684e-15,-3.18055e-15,-47.4014,14.7282,63.2524,103.598,-23.3929,1.87898,10.8453,7.12502,27.3888,38.8748,-69.5974,-20.3301,20.8151,74.5511,7.8858,17.1357,-5.91708,-69.7562,23.4567,-15.013,73.1623,0,0,0
10.2882,10.3666,-19.012,-21.431,-0.264533,-2.37906,26.8751,-3.32998,3.16033,13.8593,-3.54884,0.86155,0.492217,-1.66566,0.0444985,11.6968,5.01746,16.3208,-5.35605,7.81984,-19.894,-2.02082,4.51205,-9.28993,-1.10325e-14,-1.68967e-14,-39.0271,-7.63318,-75.3955,99.7755,-38.1913,-28.3551,-1.28729,7.12502,-1.72884,-31.26,-1.10325e-14,-1.68967e-14,-47.9095,14.8474,63.2751,103.698,-22.8521,1.3747,10.7018,7.12502,26.9064,38.8066,-69.2673,-20.1635,20.8578,74.1749,7.48523,16.5852,-1.55086,-69.6041,23.3863,-15.0558,72.933,0,0,0
10.288,10.3753,-19.0095,-21.421,-0.378664,-2.30659,27.2506,-3.1157,2.78399,13.4588,-3.32175,1.21694,-0.0901917,-1.59176,0.612502,11.8222,4.95277,16.1562,-4.90492,7.76626,-20.004,-1.92703,4.49588,-9.29131,-2.68359e-14,1.51076e-14,-39.5142,-7.49739,-74.7294,100.018,-38.5583,-28.3237,-1.11804,7.12502,-1.69851,-31.091,-2.68359e-14,1.51076e-14,-48.6941,14.896,63.546,103.752,-22.4763,1.34506,10.6863,7.12502,26.8781,38.7955,-69.1563,-20.051,20.8317,74.0521,7.41508,17.0815,-5.80638,-69.6322,23.4204,-15.0746,72.9184,0,0,0
10.2861,10.3812,-19.0066,-21.4559,-0.405255,-2.23531,27.1773,-3.07038,2.72972,13.378,-3.27837,1.20632,-0.146419,-1.57278,0.619211,11.89,4.88979,16.4083,-4.69257,7.74267,-20.1968,-1.86438,4.48958,-9.3978,-2.65378e-14,4.33351e-14,-39.6821,-7.59434,-74.6623,100.2,-38.7784,-28.8044,-1.48731,7.12502,-2.16285,-31.4561,-2.65378e-14,4.33351e-14,-48.9697,14.8536,63.3735,103.703,-22.3456,1.43769,10.8295,7.12502,26.9667,38.9251,-69.0704,-20.0223,20.7546,73.9564,7.34641,16.8343,-3.31029,-69.6194,23.4031,-15.1466,72.8765,0,0,0
10.2848,10.3932,-19.0065,-21.63,-0.301723,-2.2603,27.4484,-3.07941,2.62807,13.1773,-3.29074,1.32067,-0.485644,-1.59003,0.82268,12.0908,4.85739,16.4127,-4.48088,7.74331,-20.3172,-1.83341,4.50262,-9.44346,2.98177e-16,-1.63003e-14,-40.0495,-7.64083,-74.3298,100.301,-38.9799,-29.1783,-1.77225,7.12502,-2.52387,-31.7371,2.98177e-16,-1.63003e-14,-49.4366,14.8803,63.3569,103.677,-22.4253,1.28533,10.6009,7.12502,26.8209,38.7189,-68.8093,-20.1468,20.6261,73.953,7.33015,17.168,-5.56625,-69.4448,23.2801,-15.1473,72.9041,0,0,0
10.2865,10.393,-18.9999,-21.4196,-0.148618,-2.38271,27.0067,-3.15461,2.76584,13.1218,-3.37058,1.3625,-0.349826,-1.62407,0.792575,12.0947,4.87746,16.2997,-4.41841,7.76721,-20.1758,-1.82208,4.50975,-9.37348,3.26007e-14,-2.90226e-14,-40.0497,-7.96767,-74.1409,100.11,-38.9106,-28.9772,-1.8014,7.12502,-2.32965,-31.7684,3.26007e-14,-2.90226e-14,-49.5003,14.9934,63.3545,103.681,-22.371,0.92213,10.4557,7.12502,26.4733,38.6265,-69.0765,-20.3238,20.7106,74.0304,7.07872,16.5887,-0.30231,-69.8645,23.0195,-15.24,72.9999,0,0,0
10.2904,10.3982,-18.9938,-21.3473,-0.147609,-2.54402,26.8139,-3.17664,2.9533,13.0599,-3.35944,1.44892,-0.3337,-1.61266,0.770203,11.8565,4.88321,16.2072,-4.0704,7.77549,-20.0477,-1.69054,4.49595,-9.29138,1.10325e-14,-1.59028e-15,-40.0397,-8.19598,-73.9509,100.044,-39.0244,-29.3207,-2.03381,7.12502,-2.66141,-31.997,1.10325e-14,-1.59028e-15,-49.5839,14.9452,63.4248,103.782,-22.0556,0.571874,10.7672,7.12502,26.138,38.9881,-69.1112,-20.4021,20.8735,74.0592,7.0483,17.1155,-4.3424,-70.1157,22.8989,-15.1771,73.1313,0,0,0
10.2953,10.3991,-18.9842,-21.4017,-0.107724,-2.60942,26.8376,-3.16601,3.02291,13.0216,-3.32337,1.5349,-0.384955,-1.59447,0.816874,11.5144,4.90845,16.1754,-3.6719,7.80851,-20.0209,-1.51597,4.49275,-9.24838,1.19271e-15,-1.19271e-15,-39.9798,-8.42262,-73.7434,100.128,-39.1386,-29.8664,-2.38369,7.12502,-3.18846,-32.3396,1.19271e-15,-1.19271e-15,-49.5697,14.8772,63.5357,103.837,-21.8979,0.282234,10.7587,7.12502,25.8607,39.0203,-69.0071,-20.5326,20.8794,74.0858,7.02989,16.6336,1.54285,-70.1767,22.8377,-15.2079,73.2926,0,0,0
10.3003,10.3974,-18.9742,-21.4982,0.044769,-2.57775,26.8902,-3.14428,2.97511,12.9715,-3.29826,1.59394,-0.459659,-1.58598,0.905259,11.3553,4.96033,16.1561,-3.43268,7.8877,-19.9338,-1.41043,4.51977,-9.20036,-8.15017e-15,-1.19271e-14,-40.0279,-8.79186,-73.4673,99.8556,-38.7444,-29.562,-2.07361,7.12502,-2.89446,-32.0337,-8.15017e-15,-1.19271e-14,-49.4532,14.756,63.6622,103.795,-21.9677,-0.181646,10.6132,7.12502,25.4164,38.9389,-68.8967,-20.7627,20.7108,74.1429,7.34953,17.3059,-3.0771,-70.1302,22.6812,-15.3852,73.4281,0,0,0
10.3043,10.4022,-18.9695,-21.5397,0.218431,-2.51528,26.7773,-3.1352,2.9487,12.9249,-3.29565,1.57523,-0.460372,-1.58431,0.895249,11.5033,4.9684,16.212,-3.50557,7.92154,-19.8452,-1.45056,4.53985,-9.18867,-1.43125e-14,-1.63003e-14,-40.1584,-9.02078,-73.3865,99.6529,-38.6554,-29.5852,-1.77773,7.12502,-2.91692,-31.7375,-1.43125e-14,-1.63003e-14,-49.285,14.5387,63.6783,103.727,-22.0079,-0.84267,10.4627,7.12502,24.783,38.877,-68.8563,-20.9814,20.5428,74.1964,7.41957,16.7293,2.30996,-70.1505,22.5055,-15.6351,73.5481,0,0,0
10.3057,10.4085,-18.9701,-21.5799,0.364585,-2.51425,26.6185,-3.15369,2.9307,12.9643,-3.33158,1.57199,-0.342185,-1.60186,0.902602,11.5819,4.94695,16.2453,-3.70905,7.88385,-19.8718,-1.52618,4.527,-9.21328,2.74323e-14,-1.59028e-14,-40.0181,-9.03368,-73.4006,99.6421,-38.8912,-30.0345,-1.93167,7.12502,-3.35075,-31.8851,2.74323e-14,-1.59028e-14,-49.0068,14.3873,63.7515,103.72,-21.8696,-1.29023,10.5038,7.12502,24.354,38.9763,-68.789,-21.162,20.4731,74.2179,7.05179,17.6653,-4.80896,-70.2443,22.3859,-15.8132,73.6756,0,0,0
10.3061,10.4106,-18.9698,-21.6496,0.456874,-2.5332,26.4941,-3.16227,2.80511,13.0723,-3.37856,1.64082,-0.152275,-1.63329,1.05096,11.5695,4.99008,16.2172,-3.93654,7.90743,-19.9865,-1.58073,4.54548,-9.25325,1.19271e-15,-5.1684e-15,-39.6445,-9.02284,-73.2191,99.3684,-38.5882,-29.762,-1.55172,7.12502,-3.08757,-31.5091,1.19271e-15,-5.1684e-15,-48.5883,14.3784,63.9556,103.734,-21.655,-1.5019,10.8347,7.12502,24.1511,39.3344,-68.6857,-21.28,20.4043,74.2422,6.83941,17.4001,-0.906923,-70.274,22.2666,-15.8883,73.7311,0,0,0
10.3074,10.4107,-18.9695,-21.6559,0.622607,-2.4329,26.338,-3.1549,2.60212,13.1181,-3.42279,1.65513,-0.0177168,-1.66527,1.18327,11.6265,5.01534,16.222,-4.07864,7.93189,-20.0458,-1.62334,4.56405,-9.28107,-1.53064e-14,1.98785e-15,-39.4273,-9.02373,-73.0804,99.0674,-38.1872,-29.5855,-0.91448,7.12502,-2.91715,-30.8743,-1.53064e-14,1.98785e-15,-48.1617,14.3054,64.0914,103.741,-21.526,-1.58058,10.7539,7.12502,24.0756,39.2636,-68.6875,-21.4385,20.2088,74.2752,7.53502,18.1902,-7.65556,-70.2382,21.9832,-16.0744,73.713,0,0,0
10.3077,10.4121,-18.9724,-21.7149,0.686804,-2.482,26.3394,-3.15207,2.58151,13.0744,-3.42082,1.6858,-0.0645274,-1.66647,1.22904,11.5473,4.99653,16.2095,-3.87782,7.92042,-19.9576,-1.55934,4.54941,-9.23917,-4.90998e-14,4.09496e-14,-39.3883,-8.89046,-73.1054,98.8778,-38.0482,-30.1231,-0.956635,7.12502,-3.43637,-30.9087,-4.90998e-14,4.09496e-14,-47.8886,14.0959,64.1745,103.812,-21.4635,-1.90082,10.5885,7.12502,23.7685,39.1384,-68.604,-21.5097,20.2114,74.2959,6.82316,17.7817,-3.75443,-70.0998,21.7298,-16.0285,73.6812,0,0,0
10.3094,10.4116,-18.9732,-21.8238,0.662727,-2.55563,26.3954,-3.10631,2.56311,13.0712,-3.36212,1.73151,-0.0903805,-1.63984,1.27672,11.2202,5.02563,16.1892,-3.51821,7.96323,-19.7703,-1.40241,4.54557,-9.14543,-2.76311e-14,1.59028e-14,-39.277,-8.81049,-73.1041,98.5835,-37.8554,-30.287,-1.13512,7.12502,-3.59458,-31.0846,-2.76311e-14,1.59028e-14,-47.4441,13.8574,64.3181,103.77,-21.4502,-2.51678,10.6117,7.12502,23.1777,39.2373,-68.4649,-21.485,20.2349,74.3307,6.86812,18.1346,-7.56287,-69.9098,21.6266,-15.9449,73.6003,0,0,0
10.3123,10.4063,-18.9708,-21.9332,0.79431,-2.43283,26.4351,-3.06994,2.33916,13.0913,-3.36462,1.71765,-0.0762672,-1.65127,1.39012,10.9699,5.06697,16.2008,-3.26722,8.01943,-19.721,-1.27988,4.55812,-9.11118,-1.78906e-14,5.56597e-15,-39.09,-8.75315,-73.0662,98.2163,-37.6701,-29.9767,-0.852028,7.12502,-3.29491,-30.8063,-1.78906e-14,5.56597e-15,-46.867,13.6623,64.4793,103.637,-21.4631,-2.57991,10.3436,7.12502,23.1171,38.9767,-68.3819,-21.5725,19.9688,74.3969,6.80363,17.7707,-2.7773,-69.6329,21.4505,-16.1254,73.4258,0,0,0
10.3138,10.4038,-18.9739,-22.0943,0.94945,-2.29136,26.5618,-3.05453,2.16063,13.0916,-3.38061,1.65668,-0.129843,-1.66522,1.43528,10.8077,5.06516,16.2642,-3.09871,8.02337,-19.7417,-1.20052,4.55129,-9.11684,1.37161e-14,-3.26007e-14,-38.8609,-8.66294,-73.1064,97.7814,-37.5431,-29.7456,-0.31761,7.12502,-3.07176,-30.2752,1.37161e-14,-3.26007e-14,-46.2602,13.434,64.6126,103.551,-21.5072,-2.35713,10.1808,7.12502,23.3308,38.7869,-68.2182,-21.6512,19.6498,74.4424,7.08496,18.1595,-6.25499,-69.2383,21.1939,-16.2466,73.1986,0,0,0
10.314,10.4035,-18.9852,-22.2481,1.13074,-2.13868,26.6017,-3.00774,1.96126,13.1768,-3.36686,1.59777,-0.0466075,-1.66512,1.47985,10.498,5.09266,16.2339,-2.99758,8.03173,-19.643,-1.12336,4.53735,-9.06066,3.37934e-15,1.07344e-14,-38.4452,-8.6837,-73.1974,97.1767,-37.17,-29.4055,-0.210514,7.12502,-2.74333,-30.1726,3.37934e-15,1.07344e-14,-45.4493,13.1636,64.8367,103.415,-21.6419,-2.39327,10.4768,7.12502,23.2961,39.0873,-68.0416,-21.7444,19.3364,74.4554,7.19012,18.2242,-7.42704,-68.9676,20.9218,-16.4044,73.0134,0,0,0
10.3135,10.3993,-18.9921,-22.4103,1.27779,-2.00431,26.662,-2.94486,1.67783,13.2538,-3.34999,1.5846,0.0257527,-1.67021,1.62199,10.4061,5.14499,16.1308,-3.03646,8.07612,-19.5591,-1.11836,4.5539,-9.01053,-3.93594e-14,3.69739e-14,-38.0019,-8.65666,-73.2577,96.4268,-36.7103,-29.5724,-0.283103,7.12502,-2.90447,-30.2431,-3.93594e-14,3.69739e-14,-44.8179,12.8196,65.0725,103.268,-21.6898,-2.62414,10.7202,7.12502,23.0746,39.3587,-67.8906,-21.8482,19.0823,74.4878,7.32904,18.5288,-10.0366,-68.7152,20.7489,-16.5559,72.8431,0,0,0
10.3142,10.3905,-18.9911,-22.5687,1.28897,-1.98113,26.8785,-2.89443,1.58168,13.1761,-3.29923,1.53267,-0.161647,-1.64688,1.61994,10.6616,5.12165,16.1809,-3.12839,8.07806,-19.4083,-1.19094,4.56086,-8.98267,-2.49475e-14,1.39149e-14,-37.8317,-8.57372,-73.3586,95.7426,-36.5499,-29.7832,0.0551681,7.12502,-3.1081,-29.9019,-2.49475e-14,1.39149e-14,-44.4449,12.2716,65.0983,103.163,-21.6073,-2.89196,10.6008,7.12502,22.8177,39.2711,-67.7598,-21.873,19.0041,74.5278,7.01018,17.488,0.281006,-68.3841,20.6376,-16.4946,72.638,0,0,0
10.3148,10.3796,-18.9924,-22.7096,1.32657,-2.02259,27.0676,-2.87716,1.59062,13.1093,-3.26821,1.46866,-0.329407,-1.62756,1.54849,10.7337,5.07243,16.2807,-3.06479,8.04497,-19.2673,-1.19255,4.54052,-8.9543,2.48481e-15,-9.54166e-15,-37.7516,-8.47288,-73.4934,95.2383,-36.4732,-29.2118,0.0906947,7.12502,-2.55623,-29.8737,2.48481e-15,-9.54166e-15,-43.9553,11.7631,65.0968,103.1,-21.6506,-3.21786,10.6173,7.12502,22.5049,39.3259,-67.6421,-21.9142,18.9676,74.5512,7.08499,17.5874,-0.224984,-68.0579,20.4383,-16.3752,72.4075,0,0,0
10.3151,10.3716,-18.9989,-22.8182,1.28788,-2.11051,27.1004,-2.84302,1.60883,13.1763,-3.22078,1.46734,-0.270608,-1.60316,1.52377,10.4452,5.08517,16.2459,-2.8756,8.04352,-19.1658,-1.09626,4.52239,-8.89567,-6.16232e-15,2.82274e-14,-37.4367,-8.32676,-73.6197,94.7133,-36.2911,-29.0949,-0.19416,7.12502,-2.44339,-30.1599,-6.16232e-15,2.82274e-14,-43.2696,11.4084,65.2455,103.043,-21.6761,-3.79993,10.9615,7.12502,21.9461,39.7366,-67.5378,-21.8286,18.9988,74.5582,6.9717,17.5987,-0.618634,-67.7956,20.3893,-16.2532,72.1708,0,0,0
10.317,10.3645,-19.007,-22.8076,1.15683,-2.25498,26.9336,-2.80729,1.6906,13.3014,-3.16538,1.48454,-0.0562454,-1.57302,1.47012,10.1857,5.11919,16.165,-2.8532,8.05038,-19.0834,-1.05185,4.51217,-8.8413,5.76476e-15,-5.1684e-15,-36.8329,-8.15654,-73.8018,94.0546,-36.1354,-29.4046,-0.210195,7.12502,-2.74241,-30.1723,5.76476e-15,-5.1684e-15,-42.5259,11.0687,65.4137,102.973,-21.5096,-4.18316,11.1567,7.12502,21.5781,39.9746,-67.5838,-21.691,19.1986,74.5536,6.373,17.4521,0.71691,-67.8038,20.4508,-16.0976,72.011,0,0,0
10.3172,10.3543,-19.0111,-22.796,1.18587,-2.39293,26.8043,-2.82055,1.67979,13.3837,-3.19028,1.52162,0.0998213,-1.58813,1.51443,10.1004,5.1625,16.0801,-2.93546,8.07716,-19.1347,-1.05745,4.52508,-8.84174,2.88238e-14,-5.1684e-15,-36.2648,-7.86251,-73.9658,93.4027,-36.1265,-29.4106,-0.100996,7.12502,-2.74827,-30.063,2.88238e-14,-5.1684e-15,-41.9181,10.6829,65.5529,102.89,-21.3645,-4.33269,11.1487,7.12502,21.4345,39.983,-67.6529,-21.7775,19.3543,74.5525,6.80347,17.5748,-0.95386,-67.9008,20.328,-16.0076,71.8926,0,0,0
10.3178,10.3479,-19.0183,-22.8835,1.38015,-2.30796,26.9513,-2.84501,1.42873,13.3667,-3.27369,1.49358,0.0251101,-1.64146,1.65505,10.2023,5.22968,15.9116,-3.11515,8.13999,-19.1493,-1.12067,4.56472,-8.82632,-1.08338e-14,4.37326e-15,-36.0587,-7.41478,-74.0844,92.9531,-36.2767,-29.481,-0.39199,7.12502,-2.81622,-30.3531,-1.08338e-14,4.37326e-15,-41.4983,10.2312,65.6279,102.74,-21.4026,-4.70447,10.7941,7.12502,21.0773,39.6686,-67.5997,-21.9482,19.145,74.6101,7.05901,17.5285,-0.323689,-67.796,20.0775,-16.1816,71.8213,0,0,0
10.3213,10.344,-19.0325,-22.9746,1.56242,-2.1132,27.1909,-2.85496,1.16708,13.3241,-3.34102,1.38799,-0.125236,-1.68327,1.71896,10.2673,5.29749,15.7145,-3.30031,8.19844,-19.0278,-1.18709,4.59615,-8.75912,2.6339e-14,-2.74323e-14,-35.9685,-6.99129,-74.2207,92.6495,-36.6492,-29.7076,-1.15161,7.12502,-3.03504,-31.1098,2.6339e-14,-2.74323e-14,-41.0954,9.67777,65.6288,102.599,-21.4879,-5.30299,10.5174,7.12502,20.5023,39.4548,-67.5102,-22.0007,18.782,74.6438,7.19106,17.5507,-0.822712,-67.651,19.8605,-16.4275,71.7988,0,0,0
10.3353,10.2935,-18.9982,-23.5101,1.31545,-2.16224,27.9738,-2.8321,1.30352,13.3864,-3.26152,1.30542,-0.425819,-1.63318,1.5662,9.91582,5.40644,15.5642,-3.0669,8.31523,-18.8283,-1.0555,4.63177,-8.64238,-2.31584e-14,2.50469e-14,-35.746,-6.61986,-74.4035,92.2783,-37.0723,-30.3822,-1.50007,7.12502,-3.68652,-31.4479,-2.31584e-14,2.50469e-14,-40.6628,9.01358,65.5942,102.486,-21.406,-5.8014,10.757,7.12502,20.0233,39.7453,-67.2091,-21.8575,18.6637,74.9096,7.49655,17.9372,-3.49127,-67.3704,19.9842,-16.0284,72.2078,0,0,0
10.3332,10.2824,-18.9989,-23.9941,1.18098,-2.61989,28.3972,-2.90171,1.66945,13.5504,-3.24956,1.34378,-0.446149,-1.61159,1.41198,9.47355,5.48618,15.5346,-2.79563,8.39709,-18.7483,-0.894077,4.64865,-8.58155,1.98785e-16,0,-35.4612,-6.30713,-74.626,91.979,-37.3364,-31.3493,-1.67822,7.12502,-4.62043,-31.6078,1.98785e-16,0,-40.2258,8.28343,65.5252,102.372,-21.2625,-6.20457,10.8493,7.12502,19.6357,39.8777,-66.5934,-21.7457,18.9415,74.9344,7.56632,17.1505,2.02805,-66.9302,19.9746,-15.326,72.3757,0,0,0
10.3294,10.2783,-19.0085,-24.2597,1.30249,-2.94118,28.5896,-2.98002,1.9221,13.7193,-3.28249,1.31128,-0.353935,-1.61357,1.24612,9.27669,5.47243,15.5748,-3.00989,8.33697,-18.7204,-0.931972,4.61048,-8.57623,2.47487e-14,-2.46493e-14,-35.2285,-6.14529,-74.8674,92.0016,-37.7065,-31.7659,-2.35258,7.12502,-5.02273,-32.2731,2.47487e-14,-2.46493e-14,-39.6365,7.46698,65.4282,102.306,-21.2487,-6.75344,10.7144,7.12502,19.1079,39.7958,-66.2267,-21.8578,19.0498,74.9752,7.8442,17.3504,-1.30394,-66.7551,19.7901,-14.9892,72.5199,0,0,0
10.3289,10.2763,-19.0225,-24.3085,1.45051,-2.93103,28.6543,-2.94208,1.9448,13.8393,-3.23094,1.1656,-0.257376,-1.579,1.05919,8.89252,5.45954,15.7092,-3.11438,8.27836,-18.6549,-0.904301,4.56174,-8.56305,-1.51076e-14,4.57205e-15,-35.0843,-6.18233,-75.1315,92.1438,-38.1657,-31.6632,-2.99132,7.12502,-4.92349,-32.9141,-1.51076e-14,4.57205e-15,-38.8779,6.52117,65.2438,102.215,-21.169,-6.95008,10.5976,7.12502,18.9188,39.6975,-66.1469,-21.9349,18.9308,74.9244,7.28004,17.0766,1.17745,-66.7425,19.6356,-15.0538,72.5148,0,0,0
10.3284,10.2724,-19.0343,-24.3326,1.53235,-2.83235,28.692,-2.85007,1.85245,13.9254,-3.13942,1.03988,-0.180734,-1.53142,0.947995,8.39479,5.47436,15.8985,-2.919,8.27648,-18.7017,-0.75486,4.5371,-8.58307,-2.31584e-14,2.34566e-14,-34.9863,-6.19826,-75.3697,92.2234,-38.4006,-31.8369,-3.47873,7.12502,-5.0912,-33.3976,-2.31584e-14,2.34566e-14,-38.2141,5.60858,65.0491,102.094,-20.9587,-6.6881,10.2306,7.12502,19.1708,39.3057,-66.1073,-21.9119,18.7848,74.7767,7.31559,17.1017,-0.377478,-66.6919,19.5492,-15.1446,72.3868,0,0,0
10.326,10.2747,-19.0488,-24.4012,1.75335,-2.76611,28.7447,-2.85322,1.69496,13.9933,-3.18184,0.969154,-0.123735,-1.55704,0.972127,8.27812,5.53464,15.7861,-3.02869,8.32101,-18.6699,-0.764575,4.55533,-8.54973,1.19768e-14,-1.53064e-14,-34.9089,-5.91986,-75.6153,92.3634,-38.4808,-32.3587,-3.7743,7.12502,-5.59508,-33.6804,1.19768e-14,-1.53064e-14,-37.7958,4.86897,64.9058,102.054,-20.729,-6.59533,9.91242,7.12502,19.26,38.9787,-65.9801,-22.0363,18.5718,74.6942,7.26981,17.1309,-1.15255,-66.6576,19.3824,-15.3116,72.3446,0,0,0
10.3234,10.3166,-19.1072,-24.6141,1.82688,-2.98147,28.9192,-2.9507,1.85364,14.105,-3.26288,0.933587,-0.0828909,-1.58759,0.870178,8.34036,5.6368,15.4806,-3.38607,8.40219,-18.4832,-0.883854,4.59906,-8.44621,2.65378e-14,-2.85256e-14,-34.8142,-5.56644,-75.9203,92.514,-38.6252,-32.5991,-3.72418,7.12502,-5.82712,-33.6241,2.65378e-14,-2.85256e-14,-37.5056,4.18617,64.6595,102.047,-20.3988,-6.51495,9.87485,7.12502,19.3373,38.9334,-65.3237,-22.0356,18.6651,74.282,7.20841,17.0777,-0.97787,-66.1809,19.2993,-15.1901,72.0016,0,0,0
10.3237,10.2708,-19.065,-24.917,1.64763,-3.35897,29.1754,-2.9984,2.25467,14.2668,-3.21808,0.920398,-0.0302924,-1.54294,0.622269,8.32912,5.68,15.2873,-3.68302,8.41133,-18.3484,-0.979444,4.6036,-8.37609,1.2921e-15,1.07344e-14,-34.7872,-5.41413,-76.1773,92.6703,-38.6158,-32.4793,-3.68166,7.12502,-5.71153,-33.5847,1.2921e-15,1.07344e-14,-37.1142,3.49604,64.3437,102.044,-19.9625,-6.2636,9.84863,7.12502,19.5789,38.8828,-65.2404,-22.0302,18.9854,74.4976,7.35134,17.1522,-0.6811,-66.1944,19.5513,-14.687,72.221,0,0,0
10.3245,10.2635,-19.0706,-25.149,1.56498,-3.43026,29.351,-2.95707,2.3849,14.4424,-3.13107,0.863202,0.0849887,-1.48839,0.463657,8.23195,5.68744,15.0522,-3.92288,8.3618,-18.2616,-1.05442,4.57714,-8.3107,2.7482e-14,-1.61016e-14,-34.792,-5.32478,-76.3637,92.9209,-38.7226,-32.4253,-3.57083,7.12502,-5.65937,-33.4753,2.7482e-14,-1.61016e-14,-36.6036,2.82498,64.0467,102.046,-19.6007,-5.9247,9.69838,7.12502,19.9047,38.699,-65.0046,-21.9824,19.05,74.426,7.3525,17.1767,-1.21798,-65.8887,19.6235,-14.4841,72.0858,0,0,0
10.3272,10.2577,-19.0805,-25.4142,1.57806,-3.52887,29.576,-3.00561,2.51532,14.6222,-3.15536,0.810332,0.184094,-1.48964,0.342894,8.14882,5.75432,14.7676,-4.1499,8.38997,-18.2177,-1.11484,4.59244,-8.25011,1.62755e-14,-1.52567e-14,-34.6969,-4.92378,-76.6712,93.2511,-39.5693,-33.5761,-3.29807,7.12502,-6.77033,-33.1698,1.62755e-14,-1.52567e-14,-36.2255,2.33425,63.7302,102.001,-19.3284,-5.78197,9.31273,7.12502,20.0419,38.2991,-64.6993,-21.965,19.0055,74.438,7.13192,17.072,-0.653157,-65.5845,19.5247,-14.2686,72.0483,0,0,0
10.3283,10.2568,-19.0932,-25.7396,1.60853,-3.73247,29.8702,-3.11151,2.69098,14.811,-3.23733,0.765889,0.26232,-1.51767,0.224773,8.05629,5.82582,14.6351,-4.24428,8.4502,-18.2795,-1.11877,4.62362,-8.24518,-3.07992e-14,3.24516e-14,-34.4997,-5.0465,-76.6034,92.9912,-37.3559,-31.8918,-3.74106,7.12502,-5.14424,-33.6586,-3.07992e-14,3.24516e-14,-35.9761,1.9168,63.3862,102.043,-18.8912,-6.08974,9.22753,7.12502,19.7461,38.2446,-64.2015,-21.988,19.0226,74.3317,7.45618,17.2831,-4.08699,-65.198,19.4197,-13.9923,71.9069,0,0,0
10.3267,10.2602,-19.106,-25.9259,1.63409,-3.762,30.0232,-3.11376,2.70487,14.9723,-3.23479,0.699101,0.377462,-1.51082,0.144556,8.03237,5.84129,14.5996,-4.43595,8.44053,-18.3946,-1.16713,4.62427,-8.28133,2.14812e-14,-2.04251e-14,-34.3681,-5.30041,-76.4564,92.8681,-35.1096,-29.2165,-2.74071,7.12502,-2.56077,-32.7051,2.14812e-14,-2.04251e-14,-35.6899,1.37924,63.0541,102.17,-18.4217,-6.06404,9.59238,7.12502,19.7708,38.6069,-63.9051,-21.9602,18.9664,74.2173,6.99888,17.1768,-3.57049,-64.945,19.4058,-13.9312,71.7816,0,0,0
10.3249,10.2613,-19.1141,-25.9217,1.59483,-3.78036,29.9694,-3.08611,2.74738,15.0677,-3.19546,0.633444,0.506081,-1.48406,0.0321976,8.18737,5.85884,14.5331,-4.80772,8.4329,-18.466,-1.30007,4.6346,-8.31168,1.94762e-14,-1.01908e-14,-34.471,-4.47361,-77.0226,93.797,-37.8812,-31.176,-0.567268,7.12502,-4.45305,-30.5005,1.94762e-14,-1.01908e-14,-35.3667,0.984946,62.7298,102.124,-18.2454,-5.69323,9.71145,7.12502,20.1272,38.6888,-63.9221,-21.8463,19.0052,74.1118,7.05064,17.0221,-3.08738,-64.9484,19.4834,-13.9216,71.722,0,0,0
10.3258,10.2619,-19.1247,-25.9036,1.56383,-3.83208,29.8773,-3.09768,2.83046,15.1625,-3.19757,0.566046,0.64872,-1.47551,-0.0946703,8.36387,5.88662,14.4236,-5.04881,8.45089,-18.5024,-1.39872,4.6569,-8.32044,-1.06101e-14,1.4561e-14,-34.486,-4.09496,-77.2639,94.2849,-38.2221,-30.7667,-0.71353,7.12502,-4.05789,-30.6546,-1.06101e-14,1.4561e-14,-35.0317,0.758866,62.4065,101.925,-18.1711,-5.54008,9.63485,7.12502,20.2744,38.5967,-63.9331,-21.7731,19.072,73.9892,7.28426,17.0452,-4.16375,-65.0293,19.5659,-13.8954,71.7563,0,0,0
10.328,10.2553,-19.1346,-25.8721,1.24831,-3.76442,29.73,-2.98925,2.79064,15.3042,-3.08554,0.519643,0.878501,-1.41859,-0.164446,8.64512,5.90975,14.2368,-5.30064,8.45964,-18.6074,-1.52018,4.6835,-8.34456,2.89729e-14,-2.27608e-14,-34.3812,-3.90436,-77.2837,94.3363,-37.329,-29.6809,-1.0411,7.12502,-3.00926,-30.9996,2.89729e-14,-2.27608e-14,-34.826,0.609615,62.1314,101.873,-17.9853,-5.19529,9.75229,7.12502,20.6058,38.6786,-63.996,-21.4686,19.2064,73.8592,7.78075,17.1213,-4.98491,-65.1316,19.939,-13.8114,71.8742,0,0,0
10.3242,10.2389,-19.1411,-25.6694,0.247475,-3.5371,29.5251,-2.59014,2.62677,15.3646,-2.64408,0.481205,1.05067,-1.20752,-0.24547,8.92628,5.92123,14.024,-5.46518,8.45937,-18.6467,-1.62274,4.70285,-8.34054,6.65929e-15,2.48481e-15,-34.4575,-3.51746,-77.4339,94.5229,-37.4724,-28.5862,-0.856039,7.12502,-1.95207,-30.8269,6.65929e-15,2.48481e-15,-34.7927,0.463649,61.8217,101.899,-17.8203,-4.68633,9.79743,7.12502,21.0948,38.67,-64.3939,-20.4547,19.6572,73.7212,8.18395,16.7316,-2.32769,-65.3574,20.9944,-13.5362,72.0399,0,0,0
10.3246,10.2407,-19.1515,-25.7289,0.261985,-3.72699,29.5397,-2.65747,2.85146,15.4103,-2.67453,0.438616,1.08751,-1.20555,-0.411758,9.11621,5.88037,14.0457,-5.41077,8.42897,-18.6948,-1.64144,4.69639,-8.36802,6.85807e-15,-8.94531e-15,-34.7208,-3.28854,-77.5919,94.7954,-37.6086,-27.5493,-0.456988,7.12502,-0.95064,-30.4346,6.85807e-15,-8.94531e-15,-34.7436,0.21054,61.4788,101.77,-17.7375,-4.65734,9.58558,7.12502,21.1226,38.455,-64.242,-20.4266,19.7807,73.6046,7.54253,16.19,1.32633,-65.3371,20.9618,-13.3668,72.0461,0,0,0
10.3244,10.2387,-19.1573,-25.7525,0.218057,-3.82319,29.481,-2.6517,3.04046,15.4205,-2.62517,0.346745,1.11612,-1.16302,-0.635436,9.36838,5.81369,14.3096,-5.2413,8.4107,-18.7997,-1.6221,4.69485,-8.4545,2.13694e-15,2.48481e-15,-35.0799,-3.35601,-77.6467,94.9448,-36.9861,-26.6056,-0.00734033,7.12502,-0.0391962,-29.9871,2.13694e-15,2.48481e-15,-34.6807,-0.0634558,61.13,101.568,-17.8199,-4.97179,9.51575,7.12502,20.8205,38.4186,-64.1912,-20.3473,19.8779,73.5493,7.44801,16.4389,-1.84051,-65.3101,21.0466,-13.2692,72.0179,0,0,0
10.327,10.2326,-19.1578,-25.7998,0.199767,-3.89394,29.5678,-2.65451,3.26912,15.3479,-2.56823,0.236273,0.98358,-1.11505,-0.897723,9.61308,5.74309,14.5746,-4.99677,8.39816,-18.8562,-1.5814,4.6933,-8.5226,-1.09332e-14,3.61788e-14,-35.4864,-3.38882,-77.6953,95.1657,-36.7039,-26.2397,0.199304,7.12502,0.314238,-29.7802,-1.09332e-14,3.61788e-14,-34.7529,-0.434966,60.817,101.392,-17.8638,-5.15237,9.84671,7.12502,20.647,38.7685,-64.1502,-20.3754,19.9262,73.5545,7.52793,16.5775,-2.02928,-65.2479,21.1607,-13.2506,71.9361,0,0,0
10.3296,10.2239,-19.1589,-25.8863,0.266934,-3.73639,29.5044,-2.63492,3.22109,15.473,-2.5641,0.0832649,1.15081,-1.10466,-1.04417,9.65919,5.70722,14.8131,-4.8465,8.39073,-19.0878,-1.52633,4.69484,-8.63757,-1.88845e-15,-4.96962e-15,-35.5171,-3.40421,-77.7657,95.1839,-36.4287,-25.5007,1.02063,7.12502,1.02802,-28.9566,-1.88845e-15,-4.96962e-15,-34.6747,-0.614383,60.5454,101.19,-17.6652,-5.34376,10.25,7.12502,20.4631,39.1917,-64.1322,-20.413,19.7014,73.6044,7.65099,16.5142,-1.19151,-65.1493,21.2848,-13.5038,71.8559,0,0,0
10.3315,10.2205,-19.1661,-26.0095,0.370369,-3.48084,29.6318,-2.59266,2.98657,15.5232,-2.56574,-0.0144442,1.15489,-1.11464,-1.01512,9.61084,5.71096,14.8278,-4.47629,8.42746,-19.1938,-1.40096,4.71061,-8.66132,-9.19379e-15,1.27222e-14,-35.7307,-3.37734,-77.6943,95.0846,-35.8811,-24.2815,2.68285,7.12502,2.20552,-27.2855,-9.19379e-15,1.27222e-14,-34.8196,-0.702948,60.4097,101.044,-17.4049,-5.74879,10.427,7.12502,20.0738,39.41,-64.0667,-20.4084,19.3533,73.6411,7.58321,16.4121,-1.39433,-64.9523,21.3168,-13.8126,71.7508,0,0,0
10.3343,10.2192,-19.174,-26.0845,0.425945,-3.40757,29.6564,-2.58035,2.99289,15.613,-2.54948,-0.0748461,1.24641,-1.10042,-1.09081,9.63518,5.73912,14.591,-4.3148,8.46514,-18.9373,-1.37493,4.72243,-8.53198,6.60959e-15,-2.78299e-15,-35.8231,-3.37583,-77.6552,95.1017,-35.5449,-23.7156,3.91674,7.12502,2.75204,-26.0452,6.60959e-15,-2.78299e-15,-34.8267,-0.827477,60.2944,100.827,-17.3006,-6.28128,10.6786,7.12502,19.5619,39.7144,-64.0286,-20.4411,19.2444,73.6546,7.38236,16.4619,-2.43115,-64.8425,21.2879,-13.9221,71.6616,0,0,0
10.3372,10.2132,-19.1726,-26.0951,0.418104,-3.44516,29.4902,-2.58311,3.15387,15.7027,-2.5224,-0.123241,1.41852,-1.07027,-1.24959,9.8345,5.70877,14.474,-4.25503,8.44276,-18.7678,-1.40848,4.71435,-8.46449,-1.56046e-14,9.14409e-15,-35.8383,-3.40194,-77.618,95.0746,-35.2292,-23.5078,4.5069,7.12502,2.95269,-25.4524,-1.56046e-14,9.14409e-15,-34.7295,-0.938793,60.1589,100.35,-17.2873,-6.72068,10.9123,7.12502,19.1394,39.9905,-64.0948,-20.4946,19.3209,73.6885,7.27211,16.4906,-2.88471,-64.8642,21.352,-13.9298,71.6158,0,0,0
10.3394,10.2078,-19.1706,-26.1131,0.421866,-3.3705,29.3938,-2.56518,3.19558,15.6976,-2.49481,-0.193158,1.45166,-1.04903,-1.36015,10.187,5.6363,14.5912,-4.14494,8.40564,-18.8598,-1.43371,4.71124,-8.52934,1.07344e-14,5.1684e-15,-36.1056,-3.3755,-77.5592,95.1473,-34.9186,-23.1251,4.76316,7.12502,3.32228,-25.1907,1.07344e-14,5.1684e-15,-34.8404,-1.061,60.0358,99.8099,-17.007,-7.16879,11.011,7.12502,18.7085,40.1314,-64.156,-20.4519,19.2347,73.7184,7.42505,16.3029,-1.55452,-64.8087,21.405,-14.0094,71.5598,0,0,0
10.3413,10.2065,-19.1751,-26.2131,0.378506,-3.20478,29.509,-2.49929,3.12737,15.6465,-2.42371,-0.248902,1.3437,-1.01616,-1.3978,10.6319,5.58906,14.6178,-4.14726,8.39071,-18.922,-1.50806,4.72484,-8.57668,-1.58034e-14,1.25234e-14,-36.5072,-3.24984,-77.4735,95.4467,-34.9076,-22.5397,4.39614,7.12502,3.88762,-25.5481,-1.58034e-14,1.25234e-14,-35.1515,-1.23796,59.998,99.3673,-16.5739,-7.80452,11.1173,7.12502,18.0969,40.2954,-64.0568,-20.25,19.0182,73.6901,7.41826,15.9099,1.52984,-64.6313,21.4754,-14.0946,71.5183,0,0,0
10.3446,10.2075,-19.1801,-26.3762,0.229879,-3.25871,29.6651,-2.49558,3.27002,15.6544,-2.37833,-0.23606,1.28408,-0.985458,-1.47331,10.785,5.57554,14.5508,-4.00393,8.39341,-18.9532,-1.49428,4.73331,-8.57912,-1.30204e-14,2.10712e-14,-36.6876,-3.06923,-77.4347,95.7516,-35.1344,-22.3026,3.85905,7.12502,4.11656,-26.0809,-1.30204e-14,2.10712e-14,-35.4007,-1.32392,59.9971,98.9026,-16.0249,-8.42609,11.1816,7.12502,17.4988,40.414,-63.8804,-20.3172,19.1876,73.6369,7.60375,16.585,-3.54621,-64.4616,21.6156,-13.9218,71.5314,0,0,0
10.3474,10.2111,-19.1857,-26.4964,0.127048,-3.46627,29.6375,-2.58195,3.57558,15.7398,-2.4158,-0.219124,1.38838,-0.983129,-1.62047,10.6941,5.58133,14.5545,-3.71491,8.41971,-19.0341,-1.38849,4.74209,-8.59356,1.68967e-15,2.38542e-15,-36.6233,-2.97648,-77.4756,95.8597,-35.0748,-22.0141,3.62925,7.12502,4.39516,-26.3051,1.68967e-15,2.38542e-15,-35.5009,-1.27775,59.9677,98.338,-15.5307,-8.84756,11.3503,7.12502,17.0932,40.6184,-63.6853,-20.3667,19.4345,73.5607,7.10412,16.345,-0.344639,-64.3674,21.6567,-13.6528,71.5277,0,0,0
10.3492,10.2151,-19.1921,-26.5834,0.0710631,-3.75091,29.5168,-2.68323,3.96391,15.8102,-2.45464,-0.162198,1.51626,-0.976883,-1.7724,10.8898,5.52894,14.6236,-3.54362,8.3906,-19.224,-1.36677,4.74034,-8.67372,-4.57205e-15,2.18663e-15,-36.6069,-3.05014,-77.3541,95.7638,-34.456,-21.3018,3.80912,7.12502,5.08291,-26.1099,-4.57205e-15,2.18663e-15,-35.6831,-1.21569,60.0047,97.7131,-15.2485,-9.12789,11.506,7.12502,16.8233,40.7972,-63.5148,-20.397,19.7027,73.4588,7.38052,16.6004,-2.68561,-64.3037,21.6103,-13.3358,71.5124,0,0,0
10.3505,10.2143,-19.1968,-26.6641,0.0842234,-3.86676,29.4821,-2.73471,4.14135,15.8077,-2.47612,-0.104516,1.52649,-0.978318,-1.80467,11.2288,5.46872,14.7,-3.42057,8.35997,-19.4934,-1.37971,4.74792,-8.7906,6.70898e-15,-7.35503e-15,-36.8024,-3.10667,-77.0677,95.7255,-33.7438,-20.7603,4.07423,7.12502,5.60579,-25.8316,6.70898e-15,-7.35503e-15,-36.0774,-1.22251,60.127,97.113,-14.7564,-9.61927,11.7629,7.12502,16.3503,41.0937,-63.4193,-20.4169,19.7655,73.398,7.34563,16.6003,-4.37524,-64.1949,21.5471,-13.2186,71.4708,0,0,0
10.352,10.205,-19.1958,-26.7004,0.122902,-3.76332,29.492,-2.73125,4.11176,15.7863,-2.47772,-0.114609,1.49705,-0.980936,-1.79781,11.2907,5.47096,14.611,-3.26983,8.37307,-19.5129,-1.34827,4.75708,-8.78078,1.85367e-14,-1.49089e-14,-37.0315,-3.16319,-76.8752,95.7521,-33.2735,-20.2955,4.25081,7.12502,6.05456,-25.6427,1.85367e-14,-1.49089e-14,-36.3658,-1.22222,60.2466,96.4528,-14.19,-10.3504,11.9466,7.12502,15.6462,41.3339,-63.4128,-20.3879,19.6219,73.3794,7.22572,16.7672,-7.76628,-64.1815,21.524,-13.3451,71.4539,0,0,0
10.3565,10.2012,-19.1998,-26.7375,0.0264226,-3.78137,29.4676,-2.73341,4.31945,15.8021,-2.43169,-0.121005,1.52502,-0.942259,-1.93636,11.2551,5.43791,14.5115,-3.12623,8.32983,-19.4008,-1.31846,4.7289,-8.72098,7.05686e-15,-1.0138e-14,-37.1709,-3.34333,-76.7904,95.7327,-33.0665,-19.8869,4.51998,7.12502,6.44903,-25.3618,7.05686e-15,-1.0138e-14,-36.4539,-1.16539,60.3691,95.7848,-13.6571,-10.5823,11.8283,7.12502,15.4228,41.2329,-63.381,-20.3211,19.7017,73.3384,7.06687,17.1474,-12.5135,-64.1931,21.5728,-13.2813,71.4532,0,0,0
10.3602,10.2035,-19.2094,-26.824,-0.0151993,-3.75359,29.441,-2.73582,4.44363,15.8199,-2.40612,-0.115229,1.55737,-0.919979,-2.00855,11.4378,5.39608,14.5776,-3.02856,8.30979,-19.497,-1.31817,4.72867,-8.77106,2.56929e-14,-1.25234e-14,-37.3128,-3.42604,-76.6647,95.7799,-32.9614,-19.7519,4.34712,7.12502,6.57934,-25.5307,2.56929e-14,-1.25234e-14,-36.6578,-1.0803,60.5412,95.2203,-13.0732,-10.3031,12.1124,7.12502,15.6918,41.4961,-63.3228,-20.2918,19.6819,73.3276,7.4485,17.1245,-13.3476,-64.067,21.5655,-13.2675,71.4114,0,0,0
10.3601,10.2013,-19.2164,-26.868,0.0750056,-3.63923,29.3719,-2.7217,4.40355,15.821,-2.40023,-0.101587,1.59045,-0.918996,-1.97419,11.6207,5.37027,14.6783,-2.92296,8.31587,-19.6637,-1.3066,4.74382,-8.85049,1.46604e-14,-9.74045e-15,-37.4192,-3.51288,-76.4721,95.8213,-32.652,-19.7652,3.98955,7.12502,6.56645,-25.8887,1.46604e-14,-9.74045e-15,-36.9412,-1.0869,60.7576,94.55,-12.8762,-10.6718,13.1889,7.12502,15.3366,42.6001,-63.3564,-20.3228,19.5,73.3532,8.39142,16.8193,-11.4443,-64.0399,21.4852,-13.4381,71.3857,0,0,0
10.3597,10.1949,-19.2196,-26.9101,0.184559,-3.50419,29.2764,-2.71045,4.34105,15.8507,-2.40519,-0.0747675,1.66897,-0.924529,-1.91091,11.5922,5.34515,14.6586,-2.69216,8.29806,-19.805,-1.23504,4.7361,-8.88733,-1.78906e-15,-6.36111e-15,-37.391,-3.64404,-76.2376,95.7023,-32.2837,-19.8563,4.15318,7.12502,6.4785,-25.7277,-1.78906e-15,-6.36111e-15,-37.265,-1.08255,61.0367,93.7984,-13.0853,-11.3732,13.8699,7.12502,14.661,43.3316,-63.4238,-20.3935,19.2993,73.412,9.37463,16.5582,-9.96634,-64.0645,21.4394,-13.6517,71.3886,0,0,0
10.3592,10.187,-19.2211,-27.0349,0.215658,-3.32527,29.233,-2.71544,4.17845,15.9331,-2.45571,-0.0425209,1.78578,-0.96033,-1.77236,11.5882,5.38954,14.4465,-2.53826,8.34111,-19.93,-1.18771,4.76194,-8.88854,2.01518e-14,-2.127e-14,-37.2084,-3.60653,-76.0209,95.5082,-31.9518,-20.0325,4.27547,7.12502,6.30848,-25.6106,2.01518e-14,-2.127e-14,-37.6153,-0.71574,61.3248,93.1901,-13.4555,-11.4229,13.3932,7.12502,14.6131,42.8584,-63.4088,-20.384,19.0749,73.5102,9.46595,16.3113,-6.9751,-63.9183,21.4853,-13.8183,71.3369,0,0,0
10.358,10.1781,-19.2274,-27.0978,-0.0068369,-3.05764,29.17,-2.63359,3.96374,16.0257,-2.41457,-0.0708348,1.92726,-0.951275,-1.69641,11.4694,5.50349,14.318,-2.36748,8.48499,-19.9555,-1.09806,4.82758,-8.86331,-4.69629e-15,3.37934e-15,-36.9289,-3.56142,-75.9704,95.3999,-31.7547,-20.143,3.88077,7.12502,6.20173,-26.0084,-4.69629e-15,3.37934e-15,-37.7779,-0.122323,61.4728,92.5855,-14.089,-10.9095,13.1779,7.12502,15.1076,42.6065,-63.4762,-20.0168,18.8904,73.6076,8.79782,15.9297,-2.01015,-63.7911,21.7288,-13.901,71.2835,0,0,0
10.3526,10.1917,-19.2346,-27.4183,0.819622,-3.34396,29.2363,-3.03348,4.15212,16.1372,-2.86595,-0.0578871,2.00046,-1.16144,-1.66809,11.3805,5.56089,14.3229,-2.23077,8.57321,-19.8826,-1.03104,4.86255,-8.83072,2.23136e-14,-2.24627e-14,-36.7266,-3.58531,-76.0233,95.309,-32.0111,-20.1905,3.41207,7.12502,6.15594,-26.4785,2.23136e-14,-2.24627e-14,-37.9706,0.360485,61.568,91.9356,-15.1303,-9.90131,13.5939,7.12502,16.0787,42.9469,-62.9072,-20.6786,18.4323,73.7226,9.60145,15.5727,-0.62668,-63.4407,20.9237,-14.0001,71.0981,0,0,0
10.3482,10.1893,-19.2402,-27.6667,1.03815,-3.49245,29.4032,-3.18131,4.35047,16.1402,-2.99235,-0.0396581,1.91967,-1.21231,-1.7206,11.4995,5.51058,14.4101,-2.19089,8.53514,-19.8515,-1.04382,4.84658,-8.84063,2.7072e-14,-2.85256e-14,-36.653,-3.74768,-76.0247,95.1794,-32.3822,-20.2565,2.89726,7.12502,6.09218,-26.9951,2.7072e-14,-2.85256e-14,-38.3408,0.646996,61.7082,91.3912,-16.5254,-8.38206,14.2357,7.12502,17.5412,43.4644,-62.6222,-20.8646,18.2888,73.7807,9.99871,15.7702,-0.974406,-63.1763,20.7004,-13.8988,71.0079,0,0,0
10.3462,10.1813,-19.2476,-27.8574,0.861874,-3.51166,29.566,-3.17414,4.50249,16.103,-2.93651,-0.00663702,1.80616,-1.17788,-1.77926,11.5624,5.47587,14.5491,-1.97734,8.53754,-19.9607,-0.982693,4.85007,-8.89899,-2.35311e-14,1.81639e-14,-36.6648,-3.86369,-75.9079,95.1046,-32.5757,-20.0549,2.26997,7.12502,6.28677,-27.6167,-2.35311e-14,1.81639e-14,-38.7739,0.851408,61.902,90.9027,-17.86,-6.91057,15.0724,7.12502,18.9568,44.1687,-62.5123,-20.6837,18.3203,73.7618,10.2469,16.3239,-4.2596,-62.9326,20.7722,-13.6611,70.961,0,0,0
10.3429,10.1749,-19.2561,-27.8981,0.701124,-3.45941,29.5828,-3.13752,4.502,16.0642,-2.88917,0.0562874,1.75956,-1.15957,-1.72133,11.5256,5.49164,14.6146,-1.74835,8.58937,-20.1029,-0.893585,4.87509,-8.95018,2.78299e-14,-1.2393e-14,-36.6454,-3.88068,-75.7128,95.044,-32.615,-19.8936,1.67203,7.12502,6.44251,-28.21,2.78299e-14,-1.2393e-14,-39.1938,1.23764,62.1802,90.4426,-19.0752,-6.23018,15.4048,7.12502,19.6111,44.4357,-62.6042,-20.4155,18.3413,73.7034,10.5486,16.8324,-9.88235,-62.8796,20.8503,-13.5531,70.9407,0,0,0
10.3385,10.1698,-19.2655,-27.954,0.600888,-3.37841,29.6754,-3.14977,4.41747,15.9971,-2.92011,0.0920433,1.64257,-1.18718,-1.621,11.5071,5.5314,14.6035,-1.51984,8.6664,-20.1739,-0.809393,4.91131,-8.96489,1.73005e-14,-2.62644e-14,-36.5243,-3.83872,-75.6589,94.8689,-32.7957,-20.8067,0.993247,7.12502,5.56103,-28.9138,1.73005e-14,-2.62644e-14,-39.714,1.83629,62.3858,90.0363,-20.5434,-4.82167,15.5383,7.12502,20.9647,44.4253,-62.6131,-20.1424,18.2553,73.6566,11.0724,15.7309,-4.90653,-62.7931,20.89,-13.4898,70.908,0,0,0
10.334,10.1638,-19.2729,-28.0687,0.500538,-3.11074,29.8126,-3.14203,4.12814,15.9387,-2.977,0.0788869,1.51817,-1.23971,-1.44985,11.6942,5.62354,14.435,-1.48123,8.79202,-20.1556,-0.815374,4.98243,-8.93676,1.75552e-14,-1.44616e-14,-36.2198,-3.59414,-75.7325,94.5595,-33.1012,-22.1963,0.120058,7.12502,4.21924,-29.8179,1.75552e-14,-1.44616e-14,-40.2762,2.47789,62.5587,89.6279,-22.0706,-2.30353,17.0758,7.12502,23.3822,45.6755,-62.6147,-19.8466,17.9858,73.6593,11.5482,16.1937,-8.96667,-62.5466,20.9947,-13.5573,70.8421,0,0,0
10.3312,10.1565,-19.2798,-28.1509,0.371414,-2.77518,29.8285,-3.04275,3.83171,15.9557,-2.9281,0.0643016,1.54101,-1.23508,-1.31153,11.8437,5.65864,14.4265,-1.55381,8.84517,-20.1698,-0.850959,5.01789,-8.94879,-4.47266e-16,-5.91384e-15,-35.8746,-3.63109,-75.7132,94.2233,-32.9166,-22.7682,-0.738068,7.12502,3.66699,-30.6863,-4.47266e-16,-5.91384e-15,-40.5643,2.94465,62.9184,89.133,-22.9727,-1.07364,18.0431,7.12502,24.5616,46.4876,-62.7862,-19.5579,17.7382,73.684,11.7148,16.2549,-11.1625,-62.332,21.1854,-13.7118,70.7746,0,0,0
10.3302,10.1505,-19.2884,-28.2807,0.169974,-2.65842,29.916,-2.9682,3.81961,15.9661,-2.83351,0.11399,1.52272,-1.1915,-1.27373,11.7163,5.64788,14.5039,-1.25825,8.86488,-20.1906,-0.737919,5.01709,-8.9553,-2.89729e-14,2.68359e-14,-35.7878,-3.74032,-75.7722,94.3469,-33.6446,-24.3259,-1.64092,7.12502,2.16264,-31.6097,-2.89729e-14,2.68359e-14,-40.8016,3.24131,63.3704,88.5978,-23.5092,-0.0462828,15.8426,7.12502,25.546,44.1497,-62.7999,-19.2474,17.6854,73.6682,11.8406,16.0211,-12.1455,-62.1335,21.3867,-13.6331,70.7414,0,0,0
10.3271,10.1432,-19.2948,-28.4241,-0.0389085,-2.75664,30.0696,-2.99667,3.94609,15.9517,-2.8299,0.216261,1.44173,-1.18917,-1.22857,11.4343,5.67928,14.5089,-0.758631,8.9405,-20.2151,-0.534466,5.03352,-8.9377,4.96962e-17,9.54166e-15,-35.6209,-3.786,-75.8214,94.4079,-34.0737,-25.0874,-2.44725,7.12502,1.42716,-32.4222,4.96962e-17,9.54166e-15,-41.2385,3.56397,63.71,88.3356,-24.1264,1.52022,14.0463,7.12502,27.0457,42.1296,-62.6788,-18.9854,17.816,73.6116,12.2347,16.1282,-14.5382,-61.9691,21.5122,-13.3299,70.7418,0,0,0
10.3242,10.1395,-19.3028,-28.514,-0.251807,-2.89662,30.1605,-3.0624,4.13916,15.9362,-2.86128,0.267967,1.38069,-1.19731,-1.2689,11.1804,5.6766,14.7388,-0.408394,8.98448,-20.3273,-0.369269,5.03982,-8.99399,2.5345e-15,-7.05686e-15,-35.3946,-3.73974,-75.9569,94.2857,-34.3373,-25.108,-2.97542,7.12502,1.4073,-32.9505,2.5345e-15,-7.05686e-15,-41.7483,3.98723,63.9267,88.4333,-24.5378,1.65796,15.9253,7.12502,27.1774,43.9881,-62.6025,-18.7739,18.0246,73.553,11.9763,15.6582,-13.3205,-61.8595,21.5849,-12.9671,70.7587,0,0,0
10.3215,10.1356,-19.3091,-28.5825,-0.513238,-2.84287,30.1674,-3.02773,4.25262,15.9474,-2.79337,0.225929,1.38924,-1.15384,-1.39874,11.1217,5.63016,15.2101,-0.364004,8.98305,-20.5634,-0.314657,5.04145,-9.15123,3.52843e-15,-6.4605e-15,-35.2598,-3.90084,-76.1337,94.2472,-34.6669,-25.1957,-3.13195,7.12502,1.32257,-33.1076,3.52843e-15,-6.4605e-15,-42.1162,4.39839,64.1536,88.4772,-24.5959,2.13001,15.8438,7.12502,27.6289,43.8352,-62.622,-18.4859,18.1184,73.5408,11.4346,15.3101,-15.1267,-61.7688,21.8062,-12.7777,70.7988,0,0,0
10.3179,10.1248,-19.308,-28.6356,-0.769119,-2.68942,30.0658,-2.96547,4.27282,15.9653,-2.72182,0.153308,1.45377,-1.11238,-1.51398,11.2712,5.62898,15.5133,-0.425387,9.03175,-20.6224,-0.330433,5.07517,-9.23132,-2.41523e-14,2.96189e-14,-35.0583,-4.05519,-76.3157,94.3006,-35.2266,-25.8987,-3.15694,7.12502,0.643598,-33.1357,-2.41523e-14,2.96189e-14,-42.4793,4.71064,64.3981,88.3951,-24.3854,2.5638,15.9929,7.12502,28.0437,43.9171,-62.6963,-18.1767,18.1309,73.5789,11.0363,14.8247,-16.1272,-61.6666,22.0752,-12.7097,70.8216,0,0,0
10.3145,10.1179,-19.3124,-28.7188,-0.918065,-2.56629,30.0441,-2.97616,4.30002,15.9409,-2.73403,0.0872291,1.42989,-1.11489,-1.59889,11.2808,5.64412,15.6022,-0.225511,9.09119,-20.4725,-0.266079,5.09766,-9.19074,-1.78409e-14,8.94531e-16,-34.8823,-4.0953,-76.4893,94.2927,-35.6807,-27.3096,-4.27875,7.12502,-0.719116,-34.2573,-1.78409e-14,8.94531e-16,-42.9326,4.95923,64.5635,88.4589,-24.4186,4.61979,17.1135,7.12502,30.0073,44.6995,-62.6243,-17.9225,18.0692,73.5865,10.8477,15.5124,-21.9082,-61.4684,22.1332,-12.6199,70.7775,0,0,0
10.3101,10.1156,-19.3226,-28.8004,-1.01596,-2.43796,30.0734,-2.9716,4.29283,15.9644,-2.73207,0.048727,1.44325,-1.11236,-1.63744,11.0946,5.6502,15.6682,-0.0712662,9.10643,-20.3759,-0.189262,5.09127,-9.1564,3.08116e-15,-1.32192e-14,-34.6791,-4.31048,-76.6277,94.2427,-35.559,-29.0846,-6.27314,7.12502,-2.43341,-36.239,3.08116e-15,-1.32192e-14,-43.1902,5.27276,64.7218,88.596,-24.7771,6.35634,17.0403,7.12502,31.6628,44.3133,-62.5155,-17.6944,17.9799,73.5251,10.8002,14.9294,-20.0404,-61.2326,22.0588,-12.5287,70.6752,0,0,0
10.306,10.1194,-19.3342,-28.7968,-1.17101,-2.33867,30.0148,-2.95344,4.2192,15.9681,-2.73335,0.0944426,1.47697,-1.12134,-1.54692,11.1879,5.71533,15.4251,-0.229798,9.15533,-20.17,-0.260744,5.11709,-9.05152,-6.95746e-15,-6.55989e-15,-34.5093,-4.36577,-76.6478,94.2572,-35.3385,-30.2291,-6.11924,7.12502,-3.53868,-36.0696,-6.95746e-15,-6.55989e-15,-43.4743,5.76293,65.0176,88.6683,-24.8193,5.33061,14.5076,7.12502,30.6853,41.9686,-62.4803,-17.4682,18.0031,73.3955,10.5311,13.9664,-16.8411,-61.105,22.0434,-12.4325,70.5647,0,0,0
10.3027,10.1296,-19.3512,-28.8312,-1.21696,-2.14597,30.0444,-2.93983,4.03367,15.88,-2.75996,0.132213,1.3656,-1.15309,-1.38973,11.4899,5.70159,15.29,-0.344451,9.13864,-20.143,-0.35449,5.12437,-9.03739,-1.07344e-14,2.32578e-14,-34.4864,-4.20284,-76.6218,94.2935,-35.5497,-30.617,-4.67091,7.12502,-3.91326,-34.6147,-1.07344e-14,2.32578e-14,-43.9526,6.06991,65.406,88.7184,-24.4019,9.09921,17.6988,7.12502,34.2715,44.4219,-62.3595,-17.3316,17.8903,73.2275,9.95703,13.8431,-16.9801,-60.9995,22.0903,-12.5303,70.4821,0,0,0
10.2989,10.1308,-19.3621,-28.9208,-1.25585,-1.9894,30.0785,-2.90575,3.95064,15.8963,-2.73671,0.149733,1.374,-1.1477,-1.32921,11.1078,5.66781,15.3952,-0.0536053,9.09956,-20.1714,-0.209686,5.08324,-9.04063,-8.94531e-16,-1.72943e-14,-34.2813,-4.39128,-76.5708,94.1865,-35.2757,-29.7367,-4.68205,7.12502,-3.06314,-34.6398,-8.94531e-16,-1.72943e-14,-44.1943,6.14801,65.8296,88.8114,-24.0101,10.7969,19.3285,7.12502,35.8818,45.674,-62.2048,-17.1956,17.7847,73.0837,9.42795,14.2051,-17.521,-60.9061,22.239,-12.6276,70.4587,0,0,0
10.2933,10.1196,-19.3628,-28.9324,-1.40112,-1.96312,30.0471,-2.87051,3.91147,15.9756,-2.70612,0.235394,1.48771,-1.1381,-1.22417,9.97083,5.73216,15.4221,0.641856,9.1467,-20.0227,0.180865,5.03841,-8.92485,1.09332e-15,2.5842e-14,-33.8513,-4.83956,-76.3536,93.9489,-33.9487,-27.2566,-4.55247,7.12502,-0.667948,-34.5312,1.09332e-15,2.5842e-14,-44.2797,6.39808,66.3009,89.0026,-23.7784,11.3934,19.9102,7.12502,36.4467,46.1157,-62.1867,-16.9668,17.8418,73.0055,9.07911,14.3453,-18.6758,-60.9066,22.3517,-12.5241,70.4735,0,0,0
10.2882,10.1076,-19.3639,-28.962,-1.3874,-1.80136,30.1315,-2.88056,3.65194,15.9349,-2.77968,0.276661,1.40896,-1.19785,-1.00741,10.388,5.81839,15.0262,0.190528,9.2083,-19.7398,-0.0362252,5.0888,-8.7888,3.97569e-15,-4.77083e-15,-33.7175,-4.2392,-76.6321,94.2872,-35.9617,-29.6967,-3.02216,7.12502,-3.02458,-32.9805,3.97569e-15,-4.77083e-15,-44.5813,6.71952,66.6836,89.2857,-23.5953,12.1033,20.3463,7.12502,37.1184,46.3801,-62.0867,-16.8402,17.6497,72.9621,8.62866,14.4669,-20.7974,-60.8487,22.269,-12.5927,70.4687,0,0,0
10.2842,10.101,-19.3637,-29.1049,-1.38966,-1.63633,30.3026,-2.9167,3.50508,15.8713,-2.85542,0.236844,1.25933,-1.24718,-0.939368,10.7143,5.82296,14.9795,-0.0662706,9.21449,-19.5738,-0.171433,5.1067,-8.74623,-1.68967e-14,2.64384e-14,-33.7544,-4.09851,-76.7044,94.3292,-36.03,-29.6354,-2.466,7.12502,-2.96539,-32.4251,-1.68967e-14,2.64384e-14,-44.906,6.84979,66.883,89.6227,-23.7827,13.5294,20.714,7.12502,38.4657,46.385,-61.7345,-16.749,17.4608,72.8898,7.77611,15.1848,-21.7132,-60.6654,22.2713,-12.6546,70.4765,0,0,0
10.2807,10.0989,-19.3629,-29.2015,-1.42373,-1.53539,30.3395,-2.92617,3.54241,15.8834,-2.85914,0.163153,1.25226,-1.2426,-1.03965,10.5733,5.75901,15.3243,0.0260378,9.16663,-19.5774,-0.113432,5.07495,-8.79827,1.23246e-14,1.59028e-15,-33.6902,-4.26988,-76.8496,94.4302,-36.1216,-29.0658,-2.03713,7.12502,-2.41521,-32.0032,1.23246e-14,1.59028e-15,-44.9847,6.73605,67.0414,89.8694,-24.312,14.1173,19.8329,7.12502,39.0201,45.3472,-61.4723,-16.6457,17.3628,72.8271,6.99157,16.4668,-23.3808,-60.5046,22.308,-12.6777,70.4497,0,0,0
10.2766,10.0978,-19.3649,-29.2504,-1.34815,-1.53269,30.3036,-2.96577,3.59884,15.8978,-2.89554,0.18274,1.28267,-1.25722,-1.04132,10.5225,5.64781,15.4928,0.00911438,9.02877,-19.6069,-0.12588,5.00488,-8.83787,1.71949e-14,-8.34896e-15,-33.5604,-4.43789,-76.9109,94.5268,-36.0625,-27.5028,-1.95473,7.12502,-0.905675,-31.9325,1.71949e-14,-8.34896e-15,-45.0053,6.49604,67.4317,89.9355,-24.049,11.7254,17.7692,7.12502,36.7609,43.895,-61.2092,-16.5947,17.2717,72.7583,5.74682,16.5458,-18.9392,-60.4232,22.2057,-12.6936,70.38,0,0,0
10.2709,10.0956,-19.3705,-29.3117,-1.26159,-1.48721,30.3128,-2.9826,3.482,15.8596,-2.94166,0.298871,1.24222,-1.29538,-0.83292,10.6837,5.61954,15.2155,-0.182619,8.95241,-19.4514,-0.240917,4.97312,-8.75169,1.98785e-14,-7.95139e-15,-33.4747,-4.34997,-76.8105,94.744,-35.9519,-27.1388,-2.6329,7.12502,-0.554103,-32.6119,1.98785e-14,-7.95139e-15,-45.1345,6.22994,68.0553,90.1104,-22.8687,9.13681,16.8651,7.12502,34.3072,43.5801,-60.9216,-16.5617,17.1874,72.65,5.15062,16.5853,-17.8222,-60.3557,22.1053,-12.759,70.2809,0,0,0
10.2652,10.0966,-19.3761,-29.3764,-0.912809,-1.25202,30.3182,-3.00288,3.14947,15.7838,-3.04578,0.330664,1.16021,-1.37204,-0.577713,10.8522,5.58689,15.0858,-0.22771,8.90628,-19.3133,-0.302044,4.95504,-8.69345,2.38542e-15,7.15625e-15,-33.4568,-4.15151,-76.6727,94.6736,-35.9148,-28.4333,-3.10793,7.12502,-1.80443,-33.08,2.38542e-15,7.15625e-15,-45.261,5.971,68.5339,90.4976,-22.7045,9.48902,17.2524,7.12502,34.6415,43.8914,-60.8247,-16.8027,16.8302,72.5779,5.50178,16.6703,-16.866,-60.2166,21.8303,-13.1657,70.112,0,0,0
10.2577,10.1055,-19.3793,-29.5914,-0.224271,-1.31615,30.3602,-3.23634,3.15506,15.7735,-3.33035,0.295134,1.11935,-1.51085,-0.537006,10.9254,5.44266,15.29,-0.06108,8.76412,-19.2476,-0.28591,4.88333,-8.70914,2.9122e-14,-2.82274e-14,-33.5168,-4.05966,-76.6454,94.758,-36.1533,-29.2501,-3.66024,7.12502,-2.59323,-33.6242,2.9122e-14,-2.82274e-14,-45.2316,5.69657,68.7645,90.9241,-23.0749,12.6516,18.4597,7.12502,37.6367,44.3569,-60.5165,-17.3886,16.459,72.5515,5.77897,16.4612,-14.6832,-59.9404,21.2,-13.4482,69.9278,0,0,0
10.2583,10.1086,-19.3896,-29.8186,-0.249989,-1.36671,30.4707,-3.30412,3.39153,15.845,-3.35329,0.242518,1.14223,-1.50284,-0.719858,10.8264,5.31623,15.597,0.0311214,8.63057,-19.2768,-0.252379,4.81169,-8.76721,-6.16232e-15,2.10712e-14,-33.4365,-4.0791,-76.7255,94.9532,-36.401,-29.1783,-3.54682,7.12502,-2.52389,-33.5116,-6.16232e-15,2.10712e-14,-45.0079,5.43799,68.9961,91.3609,-22.5189,16.6942,20.3487,7.12502,41.4439,45.1223,-60.2889,-17.3303,16.4909,72.4509,6.0931,16.2153,-12.6635,-59.6841,21.1197,-13.2966,69.861,0,0,0
10.2594,10.1114,-19.396,-29.8233,-0.202149,-1.33699,30.3357,-3.35305,3.43274,15.883,-3.41227,0.253681,1.24226,-1.52913,-0.720692,10.6268,5.29481,15.7042,0.0672077,8.59573,-19.306,-0.209311,4.78568,-8.78589,-2.69353e-14,1.82882e-14,-33.2314,-4.00578,-76.762,94.9605,-36.3788,-28.4197,-3.66748,7.12502,-1.79128,-33.6397,-2.69353e-14,1.82882e-14,-44.7984,5.26124,69.3159,91.7222,-22.1331,18.3907,20.9075,7.12502,43.0331,45.1417,-60.2984,-17.3402,16.4773,72.4106,6.14445,16.1901,-12.5472,-59.6923,20.9636,-13.3386,69.8209,0,0,0
10.2601,10.111,-19.3958,-29.7544,-0.0841687,-1.19893,30.1875,-3.3732,3.3216,15.8515,-3.47174,0.274119,1.27322,-1.56743,-0.623666,10.5087,5.29801,15.5427,0.130336,8.57381,-19.1175,-0.190494,4.76399,-8.6887,-1.36167e-14,0,-33.0807,-3.83459,-76.7223,94.857,-36.2918,-27.5878,-2.47346,7.12502,-0.987833,-32.4509,-1.36167e-14,0,-44.604,5.04292,69.6555,92.0403,-21.9665,17.8668,20.4258,7.12502,42.5429,44.8313,-60.3522,-17.3308,16.2939,72.4443,5.84454,16.2468,-13.3899,-59.7355,20.7641,-13.5375,69.7897,0,0,0
10.2574,10.1092,-19.3969,-29.81,-0.353033,-1.10959,30.2103,-3.26795,3.31355,15.8783,-3.3416,0.333552,1.30318,-1.50582,-0.590515,10.3147,5.30272,15.3859,0.244516,8.55156,-18.9134,-0.144925,4.7379,-8.58294,-8.74653e-15,-7.95139e-15,-32.9125,-3.68813,-76.6575,94.8656,-36.255,-26.7207,-1.44085,7.12502,-0.15035,-31.4205,-8.74653e-15,-7.95139e-15,-44.2942,4.75712,70.0388,92.4916,-21.3196,17.2893,20.7345,7.12502,42.002,45.3238,-60.2651,-16.8704,16.2975,72.4412,5.89547,16.2066,-13.5818,-59.5743,20.8856,-13.3695,69.7543,0,0,0
10.2542,10.1081,-19.4026,-30.0043,-0.529756,-1.06646,30.3342,-3.2064,3.31486,15.9549,-3.25943,0.40296,1.34657,-1.46759,-0.535504,10.2481,5.31163,15.2342,0.215764,8.53489,-18.7864,-0.156807,4.72394,-8.51246,3.08116e-14,-4.09496e-14,-32.6612,-3.57039,-76.5689,94.9259,-36.2392,-25.0797,-2.16935,7.12502,1.43456,-32.1443,3.08116e-14,-4.09496e-14,-43.9768,4.45468,70.4455,93.0412,-20.6874,16.6759,21.4653,7.12502,41.4268,46.2446,-60.0442,-16.569,16.2556,72.4254,6.06921,16.1134,-13.621,-59.2627,20.8989,-13.1542,69.7144,0,0,0
10.2552,10.1162,-19.4104,-30.2882,0.121902,-1.32661,30.3906,-3.54006,3.53405,16.0543,-3.61751,0.421458,1.42132,-1.63053,-0.538249,10.37,5.31984,15.0615,0.0372513,8.52029,-18.5609,-0.246819,4.71849,-8.41722,1.8487e-14,-1.51076e-14,-32.4037,-3.44591,-76.5551,94.8019,-36.2212,-24.0052,-2.43637,7.12502,2.47237,-32.4018,1.8487e-14,-1.51076e-14,-43.6221,4.31867,70.5835,93.6997,-21.0693,15.5389,20.9721,7.12502,40.3587,46.0889,-59.5355,-17.1812,15.9436,72.4301,5.84988,16.0314,-13.6932,-58.9357,20.0703,-13.1795,69.5936,0,0,0
10.2537,10.1136,-19.4182,-30.318,0.174626,-1.26214,30.3315,-3.55667,3.54296,16.0797,-3.64056,0.387092,1.47296,-1.63862,-0.577945,10.2438,5.31532,15.0793,0.203634,8.52045,-18.3651,-0.185186,4.70636,-8.34629,5.96354e-15,-3.97569e-16,-32.2925,-3.27146,-76.6154,94.7649,-36.307,-24.1489,-2.05131,7.12502,2.33356,-32.0183,5.96354e-15,-3.97569e-16,-43.1959,4.26688,70.5005,94.3306,-21.9556,11.5731,18.3611,7.12502,36.6168,44.5237,-59.5012,-17.1637,15.8295,72.4045,5.96336,15.9759,-12.4678,-58.8807,19.9181,-13.1945,69.56,0,0,0
10.2502,10.1123,-19.427,-30.3,0.384896,-1.2459,30.2792,-3.60931,3.53603,16.0298,-3.70765,0.386493,1.43498,-1.67261,-0.556361,10.1339,5.27293,15.2148,0.49917,8.4981,-18.3072,-0.0829275,4.68618,-8.34007,-7.15625e-15,6.36111e-15,-32.3573,-3.05196,-76.6149,94.8813,-36.3974,-25.335,-1.34396,7.12502,1.18807,-31.3204,-7.15625e-15,6.36111e-15,-42.7807,3.86302,70.5704,94.6616,-21.6516,19.5861,21.6386,7.12502,44.1493,45.4655,-59.4818,-17.2297,15.645,72.3924,6.32018,15.9378,-11.3069,-58.9358,19.6125,-13.3066,69.5257,0,0,0
10.2449,10.1137,-19.4372,-30.4139,0.501337,-1.17135,30.3201,-3.57691,3.45315,16.0312,-3.68276,0.412726,1.42521,-1.66619,-0.485971,10.2481,5.1868,15.3082,0.487374,8.40471,-18.2884,-0.118258,4.64446,-8.35673,1.07344e-14,0,-32.3317,-2.96191,-76.5154,94.8831,-36.1435,-27.2111,-1.48518,7.12502,-0.62401,-31.464,1.07344e-14,0,-42.2319,3.55939,70.4953,95.1606,-22.2371,13.4335,18.0235,7.12502,38.3752,43.7197,-59.3065,-17.1393,15.4241,72.3729,6.58971,15.8615,-10.6473,-58.7948,19.3581,-13.3314,69.517,0,0,0
10.243,10.1091,-19.4425,-30.5003,0.610639,-1.01285,30.2707,-3.50787,3.30002,16.0877,-3.6361,0.425301,1.52171,-1.65151,-0.402916,10.5391,5.10521,15.3103,0.20892,8.29961,-18.2144,-0.266885,4.60545,-8.35227,-4.17448e-14,4.45278e-14,-32.1119,-2.94975,-76.4031,94.7575,-35.8193,-27.2706,-2.35884,7.12502,-0.681453,-32.3375,-4.17448e-14,4.45278e-14,-41.6602,3.12687,70.6546,95.5852,-21.4431,19.5487,21.3381,7.12502,44.1144,45.1782,-59.2288,-17.0483,15.1592,72.4026,6.67258,15.9825,-11.1383,-58.6792,19.0531,-13.4145,69.52,0,0,0
10.2434,10.0941,-19.4371,-30.5067,0.749494,-0.959314,30.1874,-3.50168,3.23194,16.1181,-3.64784,0.452094,1.59806,-1.66188,-0.33646,10.9289,5.06601,15.2538,-0.185278,8.24524,-18.0937,-0.460032,4.59528,-8.32844,1.2921e-14,5.96354e-15,-31.8885,-2.88891,-76.3332,94.6171,-35.6498,-25.4256,-2.04058,7.12502,1.10047,-32.0175,1.2921e-14,5.96354e-15,-41.0697,3.00973,70.6354,96.1841,-21.9294,12.4615,18.0313,7.12502,37.4571,43.9762,-59.3095,-17.0638,14.9894,72.5138,6.71738,16.2712,-12.7372,-58.6845,18.7146,-13.4973,69.5149,0,0,0
10.2413,10.0832,-19.4342,-30.6901,0.840524,-0.881545,30.3341,-3.47221,3.1179,16.1335,-3.63035,0.477358,1.56014,-1.66192,-0.243139,11.2376,5.01513,15.2288,-0.344007,8.19417,-17.9974,-0.569774,4.5815,-8.30998,-7.55382e-15,-5.56597e-15,-31.7913,-2.72729,-76.2743,94.5558,-35.6545,-24.551,-1.66069,7.12502,1.94523,-31.6316,-7.55382e-15,-5.56597e-15,-40.5336,2.70613,70.7871,96.4599,-21.35,18.3103,21.2531,7.12502,42.9579,45.5139,-59.1632,-17.0493,14.7864,72.6305,6.70505,16.6305,-14.6442,-58.4355,18.5603,-13.5361,69.5068,0,0,0
10.2363,10.0795,-19.4385,-30.9713,0.881043,-0.888588,30.582,-3.44801,3.06591,16.1042,-3.59729,0.542316,1.42693,-1.65312,-0.139656,11.49,4.94878,15.3193,-0.193269,8.16119,-18.0639,-0.56784,4.57641,-8.35616,-5.36719e-15,-3.02153e-14,-31.7528,-2.4387,-76.1838,94.4666,-35.7716,-24.8388,-1.89205,7.12502,1.66723,-31.8653,-5.36719e-15,-3.02153e-14,-40.0849,2.5783,70.7324,96.882,-22.1229,12.2667,19.035,7.12502,37.2729,45.0284,-58.8355,-16.9824,14.6802,72.6898,6.62631,16.2627,-10.882,-58.1025,18.5045,-13.4565,69.5058,0,0,0
10.2326,10.0732,-19.4413,-31.0571,0.897125,-1.03648,30.5147,-3.43796,3.18799,16.1104,-3.55254,0.64526,1.46615,-1.62665,-0.111244,11.6023,4.88462,15.5111,-0.0269332,8.12985,-18.2179,-0.530731,4.5687,-8.44212,2.56432e-14,-8.74653e-15,-31.6902,-2.31073,-76.034,94.4501,-35.8115,-24.7824,-2.18184,7.12502,1.72171,-32.1546,2.56432e-14,-8.74653e-15,-39.4603,2.1634,70.8229,97.1376,-22.0469,16.2256,20.6032,7.12502,41.0041,45.5183,-58.7565,-16.9434,14.777,72.7102,6.62476,16.11,-9.76583,-58.1159,18.44,-13.3224,69.5343,0,0,0
10.2307,10.0657,-19.4411,-31.0155,1.05846,-0.881646,30.2321,-3.34738,3.05968,16.1589,-3.48283,0.643386,1.65157,-1.59679,-0.0743235,11.7427,4.83842,15.497,0.0217492,8.08933,-18.0246,-0.554371,4.54855,-8.38102,-7.35503e-15,8.34896e-15,-31.7279,-2.37783,-75.8947,94.5629,-35.9066,-24.6241,-2.05422,7.12502,1.87461,-32.0257,-7.35503e-15,8.34896e-15,-38.678,1.67876,70.8932,97.4606,-21.9833,17.2649,21.1862,7.12502,41.9791,45.7833,-58.861,-16.9999,14.5599,72.7175,6.76299,16.1469,-9.30647,-58.2519,18.3252,-13.5682,69.5877,0,0,0
10.2277,10.0552,-19.438,-30.998,1.14894,-0.772485,30.1,-3.28685,2.96336,16.1403,-3.43482,0.635529,1.69099,-1.57768,-0.0470191,11.9551,4.86738,15.3298,0.139167,8.14653,-17.6362,-0.566093,4.57388,-8.23049,-3.61788e-14,2.62396e-14,-31.7445,-2.35555,-75.8435,94.5067,-35.95,-24.7361,-1.6893,7.12502,1.76642,-31.6617,-3.61788e-14,2.62396e-14,-38.122,1.42383,70.8059,98.0233,-22.2547,15.2498,20.3532,7.12502,40.0868,45.553,-58.9099,-17.0248,14.4388,72.7093,6.80861,16.2561,-9.65371,-58.3483,18.2171,-13.7022,69.6749,0,0,0
10.2235,10.0438,-19.4372,-31.0173,1.00508,-1.00655,30.0331,-3.31177,3.1764,16.146,-3.41585,0.715959,1.72384,-1.55791,-0.0872949,12.0496,4.95475,15.2442,0.254764,8.27736,-17.4296,-0.53663,4.63627,-8.14864,1.86858e-14,3.97569e-16,-31.4631,-2.21333,-75.8737,94.2455,-35.9246,-24.7832,-1.67349,7.12502,1.72093,-31.6463,1.86858e-14,3.97569e-16,-37.6878,0.726982,71.11,98.8092,-21.4786,7.51554,21.2603,7.12502,32.7663,48.3096,-58.8917,-16.9131,14.7509,72.6766,6.97106,16.2476,-9.112,-58.4362,18.2081,-13.3709,69.761,0,0,0
10.2203,10.0387,-19.4383,-31.0966,0.82899,-1.24275,29.9326,-3.31364,3.43372,16.245,-3.3613,0.797588,1.88062,-1.51494,-0.165128,12.0527,5.03048,15.1214,0.226611,8.36201,-17.2312,-0.543052,4.67299,-8.06256,1.53064e-14,-1.94809e-14,-31.0875,-2.21973,-75.8767,93.9986,-35.8928,-24.6705,-1.67711,7.12502,1.82982,-31.649,1.53064e-14,-1.94809e-14,-36.806,0.890062,70.7488,98.8929,-21.8488,11.0768,20.7775,7.12502,36.1469,47.0578,-58.763,-16.7788,15.0611,72.5679,7.55831,16.0533,-6.38529,-58.4127,18.2668,-13.0031,69.812,0,0,0
10.2192,10.0337,-19.4417,-31.2394,0.856864,-1.28131,29.9226,-3.30072,3.52581,16.3655,-3.3244,0.800188,2.02464,-1.48656,-0.228167,11.9351,5.05012,15.071,0.36311,8.38165,-17.1144,-0.487769,4.67394,-8.00744,1.59028e-14,-1.47101e-14,-30.8482,-2.36012,-75.8619,93.9072,-35.8417,-24.5811,-1.73201,7.12502,1.91615,-31.7032,1.59028e-14,-1.47101e-14,-35.8143,0.800262,70.5639,99.2111,-22.2097,7.68722,17.4458,7.12502,32.9296,44.4608,-58.5884,-16.837,15.0585,72.4682,8.23086,15.709,-3.18025,-58.2552,18.183,-12.9398,69.7994,0,0,0
10.2199,10.0276,-19.4473,-31.4211,1.01334,-1.26426,29.9846,-3.33543,3.53107,16.4661,-3.36511,0.758994,2.11265,-1.50178,-0.265515,11.6994,5.06246,15.131,0.792983,8.41944,-17.139,-0.316178,4.68168,-8.00636,7.55382e-15,-7.55382e-15,-30.727,-2.35891,-75.9095,93.9154,-35.8509,-24.7029,-1.80364,7.12502,1.79848,-31.7758,7.55382e-15,-7.55382e-15,-34.9275,0.743636,70.3561,99.7312,-23.0966,17.1138,22.5593,7.12502,41.8375,47.2035,-58.3834,-17.0141,14.8879,72.4434,7.85037,16.7049,-9.80445,-58.0158,17.9576,-12.9977,69.7216,0,0,0
10.2216,10.0264,-19.4534,-31.6395,1.01873,-1.43621,30.0543,-3.40424,3.73098,16.5084,-3.39901,0.776982,2.12552,-1.50458,-0.347471,11.5958,5.09699,15.1418,1.27521,8.50158,-17.1039,-0.147888,4.71487,-7.98237,-1.19271e-15,1.55052e-14,-30.7974,-2.29613,-75.9549,93.9497,-35.8953,-24.8575,-1.855,7.12502,1.64918,-31.8284,-1.19271e-15,1.55052e-14,-34.2548,0.701728,70.1644,100.229,-23.7217,9.36735,19.9549,7.12502,34.526,46.6203,-58.0763,-17.0934,14.9637,72.4093,8.22179,15.8285,-3.22597,-57.7728,17.7956,-12.7639,69.6599,0,0,0
10.2216,10.0315,-19.4645,-31.7869,0.984515,-1.57777,30.1143,-3.45119,3.89215,16.4732,-3.41366,0.78496,2.05229,-1.5018,-0.422008,11.7017,5.1594,15.0308,1.56712,8.61127,-16.9329,-0.0738712,4.76754,-7.90606,-1.17283e-14,2.14687e-14,-30.9054,-2.23188,-76.0198,93.924,-35.8834,-24.8932,-1.93362,7.12502,1.61473,-31.9073,-1.17283e-14,2.14687e-14,-33.7541,0.593858,70.0663,100.522,-23.2221,13.9659,23.0274,7.12502,38.8774,48.5825,-57.8782,-17.1095,15.0737,72.3748,7.67934,16.7594,-10.2596,-57.5902,17.6553,-12.5432,69.5933,0,0,0
10.2186,10.0347,-19.4751,-31.7893,1.0861,-1.53973,30.0666,-3.44182,3.85144,16.4429,-3.41333,0.731153,2.03472,-1.50127,-0.459433,11.6616,5.23969,14.8523,1.85848,8.71747,-16.6192,0.0147889,4.80894,-7.76541,-7.95139e-16,-2.38542e-14,-30.8949,-2.22695,-76.0967,93.8217,-35.8457,-24.9253,-2.08828,7.12502,1.58373,-32.0622,-7.95139e-16,-2.38542e-14,-33.066,0.490154,69.9536,100.744,-22.8344,12.413,22.1755,7.12502,37.4112,48.1325,-57.8925,-17.1671,14.9869,72.3486,7.82153,16.2365,-6.08107,-57.5609,17.4714,-12.608,69.5187,0,0,0
10.2132,10.0262,-19.4772,-31.8504,1.17431,-1.6424,29.9699,-3.42008,3.96509,16.4919,-3.36192,0.708754,2.13033,-1.46244,-0.567638,11.5209,5.24772,14.9238,2.24932,8.75621,-16.4389,0.153233,4.81716,-7.70496,-1.39149e-15,-1.31198e-14,-30.8673,-2.41449,-76.1423,93.7553,-35.9763,-25.213,-2.36286,7.12502,1.30588,-32.3386,-1.39149e-15,-1.31198e-14,-32.1344,0.372865,69.8246,101.055,-22.9808,6.0843,17.6841,7.12502,31.4036,45.0078,-57.795,-17.2665,15.0467,72.2694,7.79219,16.0717,-5.57589,-57.5721,17.2883,-12.5168,69.5063,0,0,0
10.2105,10.0159,-19.4788,-32.0172,1.20796,-1.83197,29.9283,-3.40077,4.21549,16.5618,-3.27704,0.678969,2.22359,-1.39533,-0.768358,11.6116,5.19289,15.2968,2.44256,8.75903,-16.4453,0.212167,4.82416,-7.76981,2.42517e-14,-4.6118e-14,-30.9577,-2.69597,-76.2257,93.7947,-36.0524,-25.5879,-2.4557,7.12502,0.94372,-32.4334,2.42517e-14,-4.6118e-14,-31.1993,0.185737,69.6854,101.399,-22.9565,5.97966,17.7199,7.12502,31.3039,45.063,-57.5651,-17.3834,15.183,72.1984,7.74999,16.0611,-5.9843,-57.4659,17.0988,-12.2911,69.4962,0,0,0
10.2124,10.0142,-19.487,-32.1666,1.30659,-1.87696,29.9811,-3.36481,4.35688,16.5336,-3.18909,0.617264,2.16245,-1.33555,-0.937182,11.7583,5.1231,15.5833,2.7222,8.74456,-16.3412,0.276245,4.82211,-7.78558,-4.96962e-15,6.75868e-15,-31.2298,-2.94412,-76.2817,93.8813,-35.9816,-25.7703,-2.4413,7.12502,0.767576,-32.4197,-4.96962e-15,6.75868e-15,-30.3851,-0.0848044,69.5706,101.694,-22.6156,5.90148,17.6617,7.12502,31.2294,45.0192,-57.3471,-17.5181,15.1037,72.1903,7.73771,16.091,-5.78,-57.2877,16.884,-12.2539,69.4165,0,0,0
10.2151,10.0165,-19.4978,-32.312,1.38002,-1.80246,30.0618,-3.32091,4.36249,16.4638,-3.12363,0.553451,2.04354,-1.29944,-1.02371,11.761,5.11374,15.5995,3.23674,8.77783,-16.1362,0.423346,4.8341,-7.71316,-1.50082e-14,2.34566e-14,-31.4566,-3.14875,-76.2768,93.9261,-35.8008,-25.5,-2.5755,7.12502,1.02863,-32.5528,-1.50082e-14,2.34566e-14,-29.6878,-0.166649,69.5178,101.949,-22.1288,5.91563,17.7092,7.12502,31.2429,45.0641,-57.1793,-17.6231,14.9391,72.2407,7.70221,16.1991,-6.31433,-57.0133,16.7718,-12.3173,69.2628,0,0,0
10.2162,10.0227,-19.5099,-32.3921,1.40769,-1.64766,30.0121,-3.28358,4.24655,16.419,-3.10945,0.454015,2.00978,-1.2961,-1.0723,11.7031,5.23684,15.5036,3.75307,8.96653,-15.9472,0.601939,4.92068,-7.62274,-2.38542e-15,-2.10712e-14,-31.6367,-3.25074,-76.3141,93.9561,-35.5461,-24.6241,-2.42608,7.12502,1.87463,-32.3976,-2.38542e-15,-2.10712e-14,-29.1053,0.10607,69.4767,102.245,-21.8028,5.80509,17.4885,7.12502,31.1376,44.8636,-57.2061,-17.7072,14.7839,72.3362,7.57901,16.6334,-9.51354,-56.752,16.7587,-12.4463,69.0661,0,0,0
10.2151,10.0302,-19.5239,-32.392,1.42649,-1.53816,29.9779,-3.25746,4.07264,16.3527,-3.12184,0.414097,1.94836,-1.31506,-1.01413,11.5899,5.4756,15.3087,4.27529,9.29133,-15.7514,0.808021,5.07165,-7.50879,-1.99779e-14,4.77083e-14,-31.7213,-3.18177,-76.3087,93.9319,-35.3027,-23.8111,-2.41089,7.12502,2.65983,-32.3741,-1.99779e-14,4.77083e-14,-28.5848,0.60963,69.5259,102.556,-21.6732,5.58048,17.0408,7.12502,30.9235,44.4569,-57.2697,-17.7696,14.7104,72.3369,7.477,16.5102,-8.27397,-56.6769,16.7653,-12.5446,68.9306,0,0,0
10.2143,10.0284,-19.5336,-32.4207,1.43335,-1.55321,30.0112,-3.23644,3.9697,16.3191,-3.11723,0.461566,1.90056,-1.32422,-0.902913,11.3696,5.73936,15.0246,4.79482,9.62481,-15.5218,1.02504,5.22092,-7.36376,-1.98785e-15,-1.11319e-14,-31.5004,-3.23709,-76.1465,93.8205,-34.6135,-23.0697,-3.52204,7.12502,3.37575,-33.4751,-1.98785e-15,-1.11319e-14,-27.8533,1.14178,69.7282,102.811,-21.4068,5.34817,16.9773,7.12502,30.702,44.4352,-57.1721,-17.8695,14.7313,72.2225,7.94211,16.3001,-6.00337,-56.6927,16.7918,-12.5378,68.8921,0,0,0
10.216,10.0202,-19.5401,-32.4842,1.52905,-1.6753,29.9666,-3.26549,4.00839,16.3123,-3.14449,0.495387,1.91169,-1.33662,-0.881523,11.103,5.95542,14.8103,5.43482,9.90565,-15.2405,1.27629,5.34229,-7.21065,2.49475e-14,-8.74653e-15,-31.383,-3.20831,-76.1546,93.6967,-34.7013,-23.1855,-3.46422,7.12502,3.26395,-33.419,2.49475e-14,-8.74653e-15,-26.9957,1.67262,69.8672,103.049,-21.1323,5.6691,16.8446,7.12502,31.008,44.2446,-57.0302,-18.1263,14.7657,72.108,8.29992,16.2136,-4.61343,-56.7218,16.6743,-12.5171,68.8967,0,0,0
10.2189,10.0117,-19.5504,-32.5508,1.6035,-1.82384,29.9293,-3.32665,4.11871,16.2774,-3.19475,0.492602,1.8809,-1.35454,-0.933502,10.7829,6.14366,14.7786,6.23202,10.1839,-15.1355,1.59727,5.46493,-7.13997,1.799e-14,-2.74323e-14,-31.4502,-3.13909,-76.239,93.6561,-34.9388,-23.3169,-3.1517,7.12502,3.13704,-33.1084,1.799e-14,-2.74323e-14,-26.3282,2.30694,69.8698,103.232,-21.0004,6.11352,16.2155,7.12502,31.4315,43.5338,-56.9868,-18.3846,14.8751,72.0459,8.02284,16.4481,-6.62837,-56.7523,16.4771,-12.4502,68.911,0,0,0
10.2214,9.9994,-19.5512,-32.6161,1.59351,-1.93349,29.9248,-3.3715,4.22701,16.2259,-3.22464,0.451036,1.81491,-1.36136,-1.03091,10.6013,6.31165,14.9208,6.90048,10.4691,-15.2415,1.87818,5.60127,-7.17323,3.57812e-15,-1.55052e-14,-31.5012,-3.08567,-76.3519,93.6647,-35.1586,-23.4693,-3.21782,7.12502,2.98992,-33.1766,3.57812e-15,-1.55052e-14,-25.8043,2.83234,69.9388,103.308,-20.6011,5.74772,15.9197,7.12502,31.0829,43.3053,-56.9602,-18.5099,14.9783,72.0028,8.07517,16.4861,-6.51199,-56.7556,16.395,-12.346,68.9408,0,0,0
10.2234,9.99085,-19.5463,-32.6938,1.5406,-2.10086,29.894,-3.39899,4.46348,16.165,-3.20163,0.386632,1.74622,-1.33082,-1.24123,10.6248,6.44593,15.2092,7.44234,10.7311,-15.2361,2.09039,5.73776,-7.2052,-2.28602e-15,-1.86858e-14,-31.6962,-3.27162,-76.4882,93.7092,-35.0888,-23.4372,-3.20501,7.12502,3.02091,-33.1634,-2.28602e-15,-1.86858e-14,-25.2599,3.06232,70.0694,103.428,-20.0211,5.14662,16.0211,7.12502,30.5098,43.5148,-56.8072,-18.5758,15.1125,71.9143,8.49556,16.314,-5.02136,-56.7358,16.3908,-12.1688,68.9949,0,0,0
10.2228,9.98774,-19.5524,-32.8265,1.55214,-2.1571,29.9138,-3.35796,4.61707,16.1002,-3.10765,0.297363,1.65628,-1.2684,-1.44995,10.5956,6.46679,15.5848,8.08563,10.8523,-15.2403,2.32441,5.80564,-7.25636,2.38542e-15,6.36111e-15,-32.0875,-3.70247,-76.5482,93.7634,-34.7784,-22.9689,-2.8306,7.12502,3.47311,-32.7821,2.38542e-15,6.36111e-15,-24.7111,3.09084,70.2271,103.562,-19.401,4.35832,16.0536,7.12502,29.7577,43.6845,-56.6219,-18.6916,15.1341,71.8532,8.6516,16.4463,-6.46351,-56.6326,16.3478,-12.1095,69.0226,0,0,0
10.2223,9.98299,-19.5606,-32.8992,1.59123,-2.06139,29.8564,-3.28199,4.55786,16.0353,-3.02828,0.222473,1.6063,-1.2292,-1.52139,10.5693,6.46073,15.657,8.66175,10.9017,-15.2521,2.51009,5.83042,-7.26522,-6.26172e-15,2.94201e-14,-32.4234,-4.00259,-76.57,93.7742,-34.3765,-22.4249,-2.53605,7.12502,3.99847,-32.4783,-6.26172e-15,2.94201e-14,-24.1896,3.32545,70.4595,103.506,-18.7802,3.32514,15.9353,7.12502,28.7712,43.7382,-56.6365,-18.8253,15.0558,71.886,8.46029,16.9225,-9.80608,-56.5524,16.327,-12.2094,69.0057,0,0,0
