JuanDHNZ/ProyectoFinalCD/preprocessing/sports_trials_csv/55_25.csv
root1,root2,root3,root4,root5,root6,lowerback1,lowerback2,lowerback3,upperback1,upperback2,upperback3,thorax1,thorax2,thorax3,lowerneck1,lowerneck2,lowerneck3,upperneck1,upperneck2,upperneck3,head1,head2,head3,rclavicle1,rclavicle2,rhumerus1,rhumerus2,rhumerus3,rradius1,rwrist1,rhand1,rhand2,rfingers1,rthumb1,rthumb2,lclavicle1,lclavicle2,lhumerus1,lhumerus2,lhumerus3,lradius1,lwrist1,lhand1,lhand2,lfingers1,lthumb1,lthumb2,rfemur1,rfemur2,rfemur3,rtibia1,rfoot1,rfoot2,rtoes1,lfemur1,lfemur2,lfemur3,ltibia1,lfoot1,lfoot2,ltoes1
30.1677,15.9533,-33.218,16.7757,-36.8445,-0.988904,15.6906,-1.85353,1.7775,0.710742,-2.27247,-1.38296,-8.17922,-1.19999,-1.9778,9.01485,4.37803,15.5435,-19.3873,4.86461,-19.8918,-6.25031,2.95686,-9.70047,3.83654e-14,-2.14687e-14,-26.6056,-37.0164,-8.84688,134.623,-41.2031,-20.2037,-6.41117,7.12502,6.14315,-36.3021,3.83654e-14,-2.14687e-14,-34.1863,26.1161,-13.0973,130.829,89.3199,-42.2494,43.1522,7.12502,-15.1354,72.5788,-49.4193,-17.4253,20.3476,63.9336,-30.2487,4.8081,15.5114,-50.4571,19.3625,-13.6005,60.8539,-25.9018,-1.93932,-44.0232
30.1584,15.9569,-33.2043,16.6505,-36.8328,-0.921977,15.6434,-1.79608,1.66594,0.806882,-2.21828,-1.39546,-8.04195,-1.16854,-1.9424,9.32188,4.29552,15.4184,-18.4542,4.93741,-19.5417,-6.02792,2.99341,-9.50554,1.59028e-15,-2.78299e-14,-27.331,-37.2124,-8.1133,134.713,-40.4516,-19.9591,-6.28914,7.12502,6.37926,-36.1731,1.59028e-15,-2.78299e-14,-34.7638,26.1207,-13.6631,130.737,89.9416,-42.2902,42.7384,7.12502,-15.1747,72.162,-49.2084,-17.4652,20.2524,63.8663,-30.2144,4.83728,15.4258,-50.2631,19.2961,-13.5957,60.8095,-26.0489,-2.5248,-42.4801
30.1491,15.9539,-33.1948,16.6103,-36.7613,-1.07652,15.6263,-1.81919,1.75413,0.928512,-2.23208,-1.37649,-7.90413,-1.17637,-1.97072,9.77411,4.238,15.4768,-17.7314,5.03306,-19.4098,-5.87709,3.05061,-9.44654,-4.85035e-14,3.26007e-14,-27.725,-37.4823,-7.65149,134.69,-40.1193,-19.6168,-6.1762,7.12502,6.70972,-36.0499,-4.85035e-14,3.26007e-14,-35.0332,26.1245,-14.1576,130.332,90.5538,-42.0149,42.8996,7.12502,-14.9095,72.343,-48.9586,-17.4959,20.3651,63.8377,-30.3166,4.59325,14.3427,-50.0816,19.2723,-13.3562,60.8514,-25.8802,-3.38839,-40.6517
30.1401,15.9477,-33.1882,16.4974,-36.646,-1.09461,15.6056,-1.8983,1.7884,1.08196,-2.33375,-1.40661,-7.73474,-1.22516,-2.00192,9.7673,4.15858,15.7237,-16.7399,5.07655,-19.3838,-5.56142,3.06068,-9.42033,-8.11041e-14,-3.97569e-15,-27.8012,-37.7669,-7.55364,134.496,-39.5105,-19.537,-6.01899,7.12502,6.78679,-35.8902,-8.11041e-14,-3.97569e-15,-35.022,26.0621,-14.4903,129.704,90.8338,-41.7585,43.2473,7.12502,-14.6625,72.7088,-48.7438,-17.5316,20.3348,63.8384,-30.4018,4.57769,14.4323,-49.9144,19.1212,-13.2197,60.8614,-25.9168,-3.1163,-41.4026
30.1309,15.9462,-33.1763,16.3885,-36.6149,-0.960125,15.4322,-1.93963,1.68866,1.19289,-2.41065,-1.43913,-7.51985,-1.25761,-1.96884,9.80623,4.14498,15.5186,-15.9544,5.1726,-18.9912,-5.33792,3.09661,-9.20239,4.81059e-14,-3.02153e-14,-27.7462,-37.8201,-7.51192,134.274,-38.9724,-19.221,-6.04016,7.12502,7.09187,-35.9013,4.81059e-14,-3.02153e-14,-35.1106,25.8073,-14.6503,129.168,90.8167,-41.3729,43.4189,7.12502,-14.2909,72.9072,-48.6387,-17.5354,20.1654,63.8448,-30.5412,4.53017,14.6916,-49.7916,18.9247,-13.2655,60.8563,-25.8383,-2.54591,-41.3017
30.1206,15.955,-33.1567,16.391,-36.664,-1.08228,15.3059,-1.94457,1.74903,1.21466,-2.40494,-1.3967,-7.42646,-1.25538,-1.96251,10.4468,4.1074,15.0955,-15.6998,5.2306,-18.5199,-5.39989,3.14142,-8.97935,-1.11319e-14,2.38542e-14,-27.7967,-37.5305,-7.2119,134.213,-39.3534,-18.7084,-6.23797,7.12502,7.58661,-36.0819,-1.11319e-14,2.38542e-14,-35.1568,25.3233,-14.7905,128.657,91.0123,-41.2623,43.474,7.12502,-14.1844,72.9698,-48.4244,-17.4096,20.1911,63.7888,-30.6956,4.20749,13.552,-49.5257,18.8644,-13.1065,60.8101,-25.7086,-0.781701,-43.4004
30.1113,15.9627,-33.1426,16.4422,-36.6462,-1.26711,15.315,-2.24388,1.76708,1.23263,-2.7764,-1.14702,-7.41878,-1.43074,-1.62535,10.9745,4.40744,13.9494,-15.6514,5.5852,-18.0217,-5.47489,3.36388,-8.63742,-2.38542e-14,-5.56597e-15,-26.4887,-37.1887,-7.82475,133.997,-39.6442,-18.6058,-6.33138,7.12502,7.68561,-36.1717,-2.38542e-14,-5.56597e-15,-36.3013,24.7767,-15.5252,128.331,91.3898,-41.3837,43.6273,7.12502,-14.3014,73.1148,-48.2063,-17.2296,20.2685,63.7115,-30.6371,4.23199,13.9374,-49.3058,18.7866,-12.8725,60.7244,-25.6437,-1.00944,-42.3875
30.1024,15.9674,-33.1345,16.4772,-36.652,-1.22852,15.2444,-1.99391,1.7506,1.14486,-2.4632,-1.3098,-7.46629,-1.28262,-1.85861,11.2189,4.07657,14.7997,-15.1932,5.36628,-17.9901,-5.3932,3.21738,-8.75465,3.85642e-14,4.13472e-14,-27.6289,-37.1088,-6.84703,133.77,-39.8642,-18.3276,-6.48907,7.12502,7.95419,-36.3194,3.85642e-14,4.13472e-14,-35.2599,24.5076,-15.2,127.968,91.6294,-40.8453,43.3046,7.12502,-13.7826,72.828,-48.1506,-17.1122,20.2102,63.6191,-30.5988,4.22082,14.4719,-49.2726,18.6459,-12.8706,60.622,-25.6251,-1.73948,-41.0162
30.0931,15.975,-33.1214,16.2741,-36.7555,-0.910936,15.13,-1.86693,1.47707,1.14436,-2.35498,-1.45315,-7.39299,-1.22378,-1.88304,11.2152,3.95731,15.0957,-14.7807,5.32874,-17.7719,-5.27497,3.16847,-8.70694,-5.48646e-14,5.40694e-14,-27.988,-36.994,-6.47388,133.477,-40.0384,-18.0194,-6.77674,7.12502,8.25164,-36.5956,-5.48646e-14,5.40694e-14,-34.8484,24.1466,-15.2022,127.727,91.8717,-40.3173,43.0634,7.12502,-13.2736,72.6207,-48.0237,-17.087,19.8737,63.52,-30.6306,4.1166,14.252,-49.0862,18.4986,-13.1319,60.5037,-25.629,-1.76587,-40.5316
30.0872,15.9786,-33.109,16.1687,-36.628,-0.858068,15.1189,-1.91048,1.50767,1.16648,-2.40944,-1.47877,-7.36808,-1.25134,-1.91654,11.1672,3.94025,15.181,-14.5125,5.35781,-17.6508,-5.18301,3.16909,-8.66428,6.36111e-14,-3.18055e-15,-28.0335,-36.5865,-6.31278,133.185,-39.9787,-18.1711,-6.9107,7.12502,8.10525,-36.7353,6.36111e-14,-3.18055e-15,-34.6155,23.8837,-15.1562,127.56,91.9827,-40.4137,43.2078,7.12502,-13.3665,72.759,-47.8002,-17.1395,19.7895,63.4088,-30.6462,4.00545,14.2231,-48.9106,18.2811,-13.1097,60.4039,-25.6418,-1.94394,-39.4296
30.0803,15.9837,-33.1002,16.3562,-36.3755,-1.19079,15.1183,-1.98359,1.84271,1.11114,-2.443,-1.40374,-7.43974,-1.2777,-2.01833,11.105,3.92532,15.2986,-14.2397,5.39382,-17.5268,-5.0852,3.17099,-8.62589,1.03368e-13,-7.23576e-14,-28.0499,-36.0872,-6.16463,132.844,-39.8589,-18.2759,-6.85538,7.12502,8.00409,-36.6838,1.03368e-13,-7.23576e-14,-34.2889,23.5965,-15.0344,127.516,92.0631,-40.3074,43.2257,7.12502,-13.2641,72.7836,-47.5985,-17.0801,20.0949,63.2604,-30.7864,3.69159,13.8776,-48.8664,18.0956,-12.732,60.3104,-25.6081,-1.13791,-41.6362
30.0652,15.9991,-33.0829,16.2345,-36.3886,-1.11898,15.0743,-1.92662,1.7435,1.09236,-2.39039,-1.46887,-7.43145,-1.25037,-2.04389,10.8955,3.86731,15.6077,-13.8958,5.38194,-17.4582,-4.94075,3.13895,-8.62861,-4.13472e-14,1.82882e-14,-28.0886,-35.8704,-6.08269,132.452,-39.9145,-18.0834,-6.66463,7.12502,8.18986,-36.4859,-4.13472e-14,1.82882e-14,-33.7083,23.2189,-14.7564,127.444,92.0375,-40.2231,43.0355,7.12502,-13.1828,72.5988,-47.2816,-16.975,19.9637,63.0919,-30.9937,3.36098,12.8605,-48.5558,18.0475,-12.7417,60.1856,-25.7762,-0.921069,-42.2301
30.048,16.0126,-33.063,16.0399,-36.5083,-0.887042,14.9854,-1.86294,1.4455,1.02392,-2.36112,-1.51474,-7.44374,-1.22784,-1.93166,11.0287,3.78531,15.7622,-13.7805,5.32399,-17.4643,-4.93544,3.10865,-8.6561,4.81059e-14,-1.90833e-14,-27.9205,-35.532,-6.07221,132.096,-39.9094,-18.1507,-6.56599,7.12502,8.12487,-36.3898,4.81059e-14,-1.90833e-14,-33.1089,22.8197,-14.4058,127.247,91.9397,-40.6991,42.7908,7.12502,-13.6417,72.3237,-47.0153,-16.954,19.7058,62.9132,-31.0687,3.06109,11.7339,-48.2168,18.1017,-12.9393,60.0354,-26.8767,-1.73387,-39.182
30.0359,16.0204,-33.0493,16.1781,-36.4691,-0.977196,14.7531,-1.9207,1.44192,0.943223,-2.43143,-1.41122,-7.39934,-1.26,-1.80918,11.3143,3.79671,15.5583,-13.9044,5.3491,-17.3367,-5.02971,3.13147,-8.59638,-6.71892e-14,2.06736e-14,-27.4773,-35.0952,-6.16825,131.878,-40.0199,-18.4872,-6.76303,7.12502,7.80016,-36.5991,-6.71892e-14,2.06736e-14,-32.8566,22.5704,-14.1245,127.146,91.7281,-40.9066,43.603,7.12502,-13.8416,73.1225,-46.9397,-16.9311,19.8185,62.7304,-31.0706,2.5156,10.3085,-48.1543,18.089,-12.8646,59.8843,-25.9541,-0.448935,-43.4964
30.0244,16.0292,-33.0342,16.289,-36.3893,-1.05879,14.5741,-1.95622,1.31401,1.33739,-2.48929,-1.26216,-6.86716,-1.27729,-1.57688,9.30477,4.26243,15.3814,-13.5114,5.74809,-17.1531,-4.50083,3.25373,-8.40423,1.66184e-13,-3.49861e-14,-26.7433,-35.9049,-6.58345,131.536,-40.0174,-18.2738,-6.78212,7.12502,8.00608,-36.6105,1.66184e-13,-3.49861e-14,-32.8425,23.2166,-13.6111,127.18,91.196,-40.5376,44.1487,7.12502,-13.486,73.692,-46.8049,-16.9465,19.9009,62.5341,-31.0808,2.14942,9.01258,-48.078,17.9996,-12.7728,59.7397,-26.9479,-1.3529,-40.0892
30.0136,16.0389,-33.022,16.3766,-36.3608,-1.16285,14.3903,-2.07846,1.47835,0.795689,-2.6238,-1.24465,-7.35733,-1.35188,-1.62015,11.897,3.99594,14.9771,-14.4727,5.61413,-16.8647,-5.29401,3.27301,-8.39744,-5.32743e-14,-6.36111e-15,-26.3232,-35.0289,-6.88639,131.268,-40.0211,-17.8437,-6.69232,7.12502,8.42121,-36.5044,-5.32743e-14,-6.36111e-15,-32.816,21.9936,-13.5455,127.555,91.1053,-40.2685,43.8346,7.12502,-13.2266,73.395,-46.6236,-16.8599,19.9596,62.332,-31.0303,2.56037,10.3161,-47.9733,17.9967,-12.6589,59.6163,-25.9922,-0.101475,-43.7847
30.0064,16.05,-33.0174,16.4704,-36.1891,-1.39696,14.5618,-2.06903,1.74257,0.848326,-2.57034,-1.29629,-7.40879,-1.33565,-1.83145,10.953,3.91991,15.557,-14.0319,5.4881,-17.126,-4.98781,3.17027,-8.51783,-7.51406e-14,7.15625e-15,-26.488,-35.2984,-6.8936,131.167,-40.0141,-17.7487,-6.74256,7.12502,8.51285,-36.551,-7.51406e-14,7.15625e-15,-32.2617,22.272,-13.1473,127.822,90.9654,-40.1739,43.6912,7.12502,-13.1354,73.2575,-46.3777,-16.8082,20.1639,62.1291,-31.0146,2.98401,12.236,-47.8746,17.9456,-12.3882,59.5094,-26.9,-1.49505,-39.6586
29.9984,16.0591,-33.0096,16.5093,-36.0039,-1.50087,14.7154,-2.09401,1.92856,0.558464,-2.57165,-1.31997,-7.81668,-1.34765,-1.95283,11.432,3.70915,15.8881,-14.0376,5.30599,-17.2468,-5.09189,3.08924,-8.63316,6.75868e-15,2.38542e-15,-26.6254,-34.8942,-6.83805,131.127,-40.173,-17.661,-6.8548,7.12502,8.59746,-36.6598,6.75868e-15,2.38542e-15,-31.7545,21.9048,-12.7331,128.086,90.8524,-40.1663,43.4268,7.12502,-13.1281,72.9936,-46.1988,-16.9056,20.2936,61.9624,-31.0489,2.72933,11.8249,-47.8004,17.8695,-12.2548,59.3989,-25.8895,-0.548795,-43.3483
29.989,16.0663,-32.9969,16.6278,-35.9577,-1.46092,14.6443,-2.1295,1.81086,0.474905,-2.63107,-1.22367,-7.85973,-1.37076,-1.77136,10.889,3.92972,15.571,-13.934,5.51583,-17.0364,-4.94557,3.17485,-8.48246,3.18055e-14,-2.06736e-14,-25.9735,-35.1114,-7.32641,130.908,-39.8851,-17.5093,-6.8779,7.12502,8.74391,-36.6768,3.18055e-14,-2.06736e-14,-31.7061,21.968,-12.377,128.276,90.5854,-40.2292,43.0735,7.12502,-13.1887,72.6364,-46.2281,-16.8912,20.285,61.8313,-31.0567,2.4135,11.1548,-47.8811,17.8698,-12.3334,59.3111,-26.464,-2.25953,-38.6974
29.978,16.0728,-32.9858,16.7734,-35.8808,-1.45557,14.566,-2.23424,1.62972,0.515729,-2.78492,-1.03231,-7.76012,-1.43357,-1.43509,9.7628,4.30838,15.1116,-13.6271,5.83923,-16.993,-4.61545,3.31604,-8.33096,1.15295e-14,6.36111e-15,-25.0136,-35.391,-7.93682,130.778,-39.6351,-17.6179,-6.82321,7.12502,8.63907,-36.6264,1.15295e-14,6.36111e-15,-32.0387,22.1525,-12.1248,128.516,90.2657,-40.2601,42.9642,7.12502,-13.2185,72.5251,-46.2223,-16.8792,20.3065,61.7006,-31.1198,2.58633,11.6741,-47.9838,17.8602,-12.3737,59.2275,-25.9798,-0.998062,-42.5663
29.9658,16.0792,-32.97,16.7135,-35.8282,-1.40537,14.6535,-2.36182,1.48996,0.60789,-2.96707,-0.925292,-7.70416,-1.51355,-1.20211,8.71128,4.62751,14.8942,-13.3441,6.11161,-17.1455,-4.30042,3.43424,-8.28934,-3.49861e-14,1.43125e-14,-24.2425,-35.4686,-8.5338,130.817,-39.5819,-17.8543,-6.77414,7.12502,8.41091,-36.5867,-3.49861e-14,1.43125e-14,-32.4404,22.2931,-11.9424,128.779,89.9441,-40.4618,43.1409,7.12502,-13.4129,72.6891,-45.9821,-16.9577,20.2343,61.5685,-31.0183,3.1975,13.236,-47.8086,17.8654,-12.4092,59.1077,-25.8425,0.611412,-45.982
29.9547,16.0898,-32.9487,16.5006,-35.7996,-1.2783,14.7066,-2.22963,1.53215,0.489346,-2.79971,-1.10862,-7.86734,-1.43916,-1.45299,9.21946,4.35194,15.4573,-13.5885,5.84397,-17.2954,-4.48298,3.3018,-8.46706,-1.59028e-14,1.19271e-14,-24.9428,-35.2305,-8.28008,131.005,-39.612,-17.8457,-6.78983,7.12502,8.41926,-36.602,-1.59028e-14,1.19271e-14,-31.6259,22.089,-11.3541,128.862,89.6081,-40.6678,43.299,7.12502,-13.6114,72.8341,-45.6216,-17.0243,20.0384,61.4387,-30.9106,3.37958,13.8436,-47.4346,17.8258,-12.4732,58.9495,-26.025,0.134558,-44.6468
29.9453,16.1021,-32.9309,16.4233,-35.645,-1.10155,14.5832,-2.23312,1.55108,0.545126,-2.81082,-1.20775,-7.74468,-1.44672,-1.57211,8.85847,4.38046,15.4939,-13.6981,5.84407,-17.1851,-4.45569,3.27835,-8.42527,9.74045e-14,-3.97569e-15,-24.9282,-35.5835,-8.57287,131.05,-39.4957,-17.7063,-6.64296,7.12502,8.55377,-36.4497,9.74045e-14,-3.97569e-15,-31.2127,22.3442,-10.9761,128.913,89.2915,-40.5537,42.9102,7.12502,-13.5015,72.4525,-45.4836,-17.1975,19.8981,61.3192,-31.1722,2.73273,11.7789,-47.312,17.6757,-12.6125,58.7842,-25.9603,-0.551213,-43.2839
29.9335,16.1094,-32.9149,16.3979,-35.5362,-0.836724,14.4113,-2.27748,1.44667,0.301726,-2.89474,-1.27624,-7.91275,-1.48706,-1.56954,9.41608,4.334,15.447,-13.8945,5.83355,-17.1735,-4.61596,3.29377,-8.44727,3.71727e-14,2.14687e-14,-24.7955,-35.4069,-8.8865,131.073,-39.3715,-17.8434,-6.52615,7.12502,8.42146,-36.3383,3.71727e-14,2.14687e-14,-31.0779,22.0554,-10.8343,129.078,89.3131,-40.6158,42.2533,7.12502,-13.5613,71.7917,-45.4935,-17.4449,19.736,61.1994,-31.419,2.21403,10.1445,-47.321,17.5323,-12.8634,58.6075,-25.7565,-2.13305,-39.5407
29.9183,16.1152,-32.9005,16.4003,-35.5903,-0.8421,14.4533,-2.16845,1.45457,0.165005,-2.75726,-1.37168,-8.08358,-1.42463,-1.70163,9.34047,4.20065,15.8955,-13.7485,5.68609,-17.4459,-4.55912,3.21516,-8.60439,6.89783e-14,-1.66979e-14,-25.107,-35.2573,-8.89812,131.131,-39.2583,-18.0283,-6.3721,7.12502,8.24305,-36.1913,6.89783e-14,-1.66979e-14,-30.6502,21.9513,-10.5833,129.185,89.4302,-40.6633,42.2816,7.12502,-13.6072,71.8169,-45.3083,-17.3329,19.7024,61.0223,-31.4139,2.20134,10.8858,-47.1661,17.5677,-12.827,58.46,-26.5964,-1.79631,-39.7655
29.9031,16.1253,-32.8821,16.453,-35.7004,-1.09797,14.6702,-2.19804,1.35898,0.578983,-2.79154,-1.16024,-7.74415,-1.42915,-1.41485,6.69543,4.72665,15.6856,-12.9398,6.06243,-17.6154,-3.78871,3.32532,-8.47662,-3.97569e-15,-3.81667e-14,-24.0025,-36.1489,-9.74713,131,-39.0523,-17.8659,-6.13242,7.12502,8.39974,-35.9454,-3.97569e-15,-3.81667e-14,-31.2292,22.8282,-10.5513,129.281,89.4435,-40.5111,42.8555,7.12502,-13.4604,72.4006,-44.9077,-17.0028,19.7786,60.7837,-31.4132,2.81136,13.4631,-46.8819,17.7714,-12.5807,58.3787,-26.2943,-1.68564,-40.4659
29.8906,16.1303,-32.8617,16.5382,-35.7048,-1.33333,14.6591,-2.19438,1.5466,0.612579,-2.75161,-1.11268,-7.70672,-1.41534,-1.47964,6.47112,4.74965,15.587,-12.9508,6.04846,-17.6221,-3.75808,3.31411,-8.45272,2.5842e-14,7.15625e-15,-23.8225,-36.3407,-9.98508,131.038,-38.8358,-17.6345,-6.1853,7.12502,8.62304,-35.9892,2.5842e-14,7.15625e-15,-31.3082,22.885,-10.4665,129.348,89.536,-40.5455,42.8709,7.12502,-13.4935,72.4138,-44.5417,-16.8265,19.875,60.5536,-31.4567,3.42926,15.6728,-46.6961,17.9121,-12.3754,58.329,-26.7783,-1.46448,-40.8809
29.8826,16.1324,-32.8499,16.7465,-35.5484,-1.54186,14.582,-2.22446,1.80865,0.5829,-2.74734,-1.09644,-7.70718,-1.42256,-1.61324,6.49734,4.70704,15.5882,-13.1016,5.97515,-17.6516,-3.81818,3.27953,-8.47051,-1.145e-13,2.38542e-15,-23.9195,-36.3733,-10.056,131.15,-38.6595,-17.5085,-6.09881,7.12502,8.74463,-35.8977,-1.145e-13,2.38542e-15,-31.21,22.866,-10.3673,129.313,89.5309,-40.5289,42.5449,7.12502,-13.4776,72.0888,-44.4449,-16.6882,20.0633,60.3855,-31.5364,3.32075,15.8664,-46.7661,17.881,-12.1914,58.2897,-26.4298,-0.499354,-43.5556
29.8746,16.1393,-32.8371,16.842,-35.3857,-1.44005,14.4059,-2.23928,1.86762,0.500543,-2.76558,-1.16921,-7.70473,-1.43571,-1.72447,6.70459,4.63246,15.6902,-13.2691,5.89034,-17.712,-3.91227,3.24357,-8.5246,1.44318e-13,-4.69132e-14,-24.1696,-36.2941,-9.9841,131.278,-38.7924,-17.4984,-5.89831,7.12502,8.75436,-35.6968,1.44318e-13,-4.69132e-14,-31.031,22.7849,-10.3267,129.253,89.4671,-40.3579,42.6465,7.12502,-13.3128,72.2013,-44.4971,-16.7608,20.0166,60.284,-31.6317,3.30071,15.905,-46.8568,17.7046,-12.2851,58.2165,-26.7613,-1.03391,-41.5044
29.8636,16.1461,-32.8224,16.7259,-35.2558,-1.1471,14.3039,-2.22858,1.74624,0.438507,-2.78262,-1.28958,-7.71551,-1.44269,-1.78277,6.93699,4.54149,15.9009,-13.3919,5.79645,-17.8435,-3.99284,3.20348,-8.62071,3.53837e-14,7.15625e-15,-24.64,-36.1414,-9.67785,131.481,-38.9984,-17.4993,-5.87552,7.12502,8.75351,-35.674,3.53837e-14,7.15625e-15,-30.9076,22.6915,-10.2814,129.278,89.4371,-40.0138,42.9924,7.12502,-12.9811,72.5685,-44.4067,-16.9926,19.7759,60.1814,-31.7421,3.43575,16.156,-46.8067,17.4646,-12.4934,58.127,-25.7635,-0.719082,-42.7056
29.8516,16.15,-32.8134,16.7805,-35.1272,-1.16646,14.3631,-2.18948,1.81217,0.283592,-2.72301,-1.33473,-7.91847,-1.41948,-1.8764,7.49785,4.37634,16.1266,-13.7221,5.63114,-17.9682,-4.20549,3.13854,-8.74067,5.1684e-14,0,-25.3201,-35.6864,-9.16879,131.739,-39.1088,-17.604,-5.87689,7.12502,8.65252,-35.6796,5.1684e-14,0,-30.7455,22.3726,-10.1904,129.336,89.4261,-39.7642,43.2459,7.12502,-12.7404,72.8372,-44.2808,-16.9822,19.8288,60.0261,-31.9417,2.99974,15.1327,-46.8054,17.3067,-12.4091,58.0636,-25.7578,-0.393415,-43.2806
29.8376,16.1565,-32.7969,16.9607,-35.1872,-1.36527,14.3441,-2.06296,1.96657,0.0799114,-2.53167,-1.35255,-8.12594,-1.3365,-2.02128,8.4142,4.19156,16.1526,-14.1878,5.4792,-17.8834,-4.53551,3.08945,-8.77668,-5.82439e-14,1.59028e-15,-25.992,-35.1256,-8.66008,131.967,-39.0768,-17.8047,-5.97268,7.12502,8.45882,-35.7833,-5.82439e-14,1.59028e-15,-30.4785,22.0399,-10.0485,129.313,89.344,-39.8306,43.4237,7.12502,-12.8045,73.011,-44.1806,-16.7892,19.9915,59.8571,-32.0479,2.5122,13.7957,-46.7391,17.322,-12.2231,58.0096,-25.7878,-0.2826,-43.3569
29.8214,16.1683,-32.7659,16.9704,-35.5036,-1.48582,14.2686,-1.85077,2.02913,-0.0100666,-2.24822,-1.43241,-8.17109,-1.20541,-2.20388,9.12205,3.99284,16.2375,-14.4219,5.30037,-17.869,-4.76147,3.02135,-8.82626,-6.95746e-15,-1.90833e-14,-26.6219,-34.834,-8.16135,132.194,-39.2782,-17.5126,-6.15228,7.12502,8.74073,-35.9513,-6.95746e-15,-1.90833e-14,-30.1775,21.9384,-9.92411,129.277,89.2971,-39.7131,43.6061,7.12502,-12.6912,73.2005,-43.9005,-16.5158,19.9401,59.6782,-32.1391,2.33319,12.9088,-46.3708,17.5166,-12.1341,57.9394,-27.3336,-0.953679,-40.2992
29.8128,16.1672,-32.7624,17.0089,-35.2123,-1.35176,14.2845,-1.85086,2.05524,-0.17727,-2.24949,-1.4988,-8.36538,-1.21189,-2.28741,9.65875,3.72922,16.4493,-14.5057,5.02222,-17.9944,-4.92221,2.90151,-8.92889,-8.40859e-14,-1.59028e-15,-27.2931,-34.6153,-7.60926,132.406,-39.6885,-17.2777,-6.21723,7.12502,8.96734,-36.0067,-8.40859e-14,-1.59028e-15,-29.8926,21.7145,-9.866,129.284,89.3105,-39.4769,43.5712,7.12502,-12.4635,73.1796,-43.8658,-16.6496,19.8949,59.5828,-32.2799,2.15777,12.8468,-46.5034,17.2547,-12.1969,57.8844,-26.2708,-0.594454,-42.3413
29.803,16.1622,-32.7566,17.0262,-35.0277,-1.1149,14.2122,-1.82902,1.9684,-0.342775,-2.24541,-1.60016,-8.5047,-1.21167,-2.34778,10.3913,3.50967,16.5463,-14.7649,4.82077,-17.9836,-5.16598,2.82201,-8.98254,-8.66701e-14,-3.18055e-15,-27.9214,-34.3367,-7.12372,132.52,-39.778,-17.5428,-6.13952,7.12502,8.71156,-35.9398,-8.66701e-14,-3.18055e-15,-29.6691,21.4558,-9.88851,129.262,89.2888,-39.6461,43.5109,7.12502,-12.6266,73.1093,-43.8821,-16.7187,19.7429,59.4615,-32.3038,2.23543,14.0055,-46.639,17.0472,-12.3739,57.8204,-27.3792,-1.29417,-39.3537
29.7937,16.164,-32.7454,17.0015,-34.9908,-1.08051,14.2666,-1.7994,2.00228,-0.398013,-2.20851,-1.69623,-8.59903,-1.19934,-2.47656,10.995,3.4163,16.6312,-15.0666,4.78818,-17.8659,-5.3731,2.81264,-8.99771,-2.90226e-14,-4.37326e-14,-28.3684,-34.1745,-6.8192,132.607,-39.7528,-17.5302,-6.07203,7.12502,8.72368,-35.8718,-2.90226e-14,-4.37326e-14,-29.6293,21.3276,-10.0871,129.272,89.2522,-40.4774,43.6065,7.12502,-13.428,73.1537,-43.7178,-16.6084,19.6743,59.3134,-32.3194,2.25902,14.8791,-46.5449,16.9707,-12.3625,57.7633,-26.5459,-0.989719,-40.4417
29.7802,16.1816,-32.7092,16.9868,-35.1246,-1.39201,14.3109,-1.75164,2.28968,-0.309546,-2.09688,-1.70826,-8.53266,-1.15692,-2.67686,11.2579,3.42144,16.6176,-15.1817,4.84616,-17.7151,-5.45027,2.83924,-8.96193,4.59193e-14,3.97569e-15,-28.5394,-34.1297,-6.65463,132.712,-39.785,-17.3666,-6.17419,7.12502,8.88155,-35.9673,4.59193e-14,3.97569e-15,-29.8424,21.1297,-10.3674,129.345,89.2024,-41.1935,43.5687,7.12502,-14.1181,73.0691,-43.1825,-16.4441,19.7761,59.0374,-32.3885,1.98474,14.0254,-46.0456,17.0652,-12.0496,57.6801,-27.3982,-1.24446,-38.809
29.7673,16.1917,-32.693,17.3577,-34.9779,-1.61622,14.1201,-1.78571,2.35277,-0.38875,-2.1181,-1.52214,-8.50638,-1.16551,-2.51116,11.3289,3.4592,16.377,-15.0059,4.89216,-17.6339,-5.41114,2.87371,-8.88638,2.82274e-14,4.77083e-15,-28.3668,-34.1014,-6.5695,132.732,-39.6439,-17.4046,-6.30775,7.12502,8.84491,-36.1024,2.82274e-14,4.77083e-15,-30.2466,20.9609,-10.579,129.411,89.1157,-41.298,43.2932,7.12502,-14.2188,72.7865,-43.2296,-16.4222,20.0663,58.8011,-32.3915,1.40273,12.4818,-46.2316,17.1007,-11.8987,57.6031,-26.0818,-0.318986,-42.8603
29.7551,16.2003,-32.6768,17.5951,-34.8805,-1.77268,14.1495,-1.94331,1.98558,0.0427142,-2.34701,-1.04968,-8.03312,-1.24061,-1.7526,9.01238,4.12458,15.5387,-14.2122,5.41741,-17.5797,-4.69197,3.09352,-8.5919,2.98177e-15,-2.46493e-14,-26.947,-34.9952,-7.16521,132.552,-39.3291,-17.344,-6.15364,7.12502,8.90341,-35.9458,2.98177e-15,-2.46493e-14,-31.605,21.8822,-10.8806,129.546,88.8407,-41.2732,43.0177,7.12502,-14.1949,72.5126,-43.1798,-16.3343,20.2339,58.5675,-32.3845,1.18747,12.0947,-46.2722,17.0452,-11.759,57.507,-27.6112,-1.06644,-39.5412
29.7463,16.2067,-32.6582,17.7109,-34.7619,-1.80215,14.0658,-1.93253,2.06387,0.0819361,-2.32085,-1.04246,-7.94517,-1.23001,-1.7975,9.23633,4.06084,15.4366,-14.3461,5.34221,-17.5031,-4.79129,3.06415,-8.56282,-1.0138e-14,-1.74931e-14,-27.2901,-34.9705,-6.76787,132.62,-39.382,-17.2567,-6.1175,7.12502,8.98768,-35.906,-1.0138e-14,-1.74931e-14,-31.771,22.0012,-11.0781,129.732,88.6225,-40.8939,43.3324,7.12502,-13.8294,72.8526,-43.0707,-16.3545,20.2528,58.376,-32.494,1.11484,12.2868,-46.266,16.8467,-11.7026,57.3961,-26.4525,-0.321532,-42.1421
29.7368,16.2125,-32.6421,17.8212,-34.6981,-1.76374,13.9245,-2.00749,2.0185,0.0657019,-2.42689,-1.00519,-7.88462,-1.27846,-1.7135,9.87375,4.06624,15.1974,-14.5853,5.38639,-17.4272,-4.9784,3.11581,-8.53626,5.06901e-14,8.74653e-15,-27.1565,-34.8164,-6.76755,132.644,-39.2947,-17.5163,-6.22562,7.12502,8.7371,-36.0248,5.06901e-14,8.74653e-15,-32.3201,21.8045,-11.5771,129.917,88.4653,-40.7454,43.2645,7.12502,-13.6862,72.7945,-43.0196,-16.3365,20.2187,58.194,-32.6317,0.878111,11.632,-46.3022,16.7501,-11.7519,57.2548,-27.1271,-1.157,-39.5034
29.7255,16.22,-32.6292,17.9181,-34.6088,-1.72762,13.834,-1.98105,1.89613,0.310773,-2.41526,-1.02355,-7.56474,-1.26484,-1.6727,9.16967,4.21049,15.3811,-14.3808,5.5478,-17.3785,-4.7604,3.15815,-8.51358,2.78299e-14,-3.10104e-14,-27.2776,-35.3403,-6.76058,132.628,-39.0254,-17.6734,-6.23471,7.12502,8.58555,-36.0402,2.78299e-14,-3.10104e-14,-32.353,22.2649,-11.7305,129.973,88.1886,-40.9428,42.6906,7.12502,-13.8765,72.2077,-42.9637,-16.2954,20.2113,57.9964,-32.7578,0.64667,11.0695,-46.3275,16.6582,-11.7873,57.1102,-26.4338,-0.240386,-42.6602
29.7151,16.2303,-32.6124,18.0568,-34.4676,-1.74617,13.7436,-1.97959,1.91217,0.530941,-2.41548,-1.05549,-7.27973,-1.26285,-1.72166,8.38866,4.31022,15.5715,-14.0584,5.64878,-17.2933,-4.50674,3.16596,-8.46938,1.145e-13,-1.11319e-14,-27.453,-35.8647,-6.70946,132.648,-39.0139,-17.4841,-6.23112,7.12502,8.76821,-36.029,1.145e-13,-1.11319e-14,-32.3331,22.8872,-11.9413,130.09,87.9966,-40.3445,43.0544,7.12502,-13.2999,72.61,-42.8739,-16.2437,20.2592,57.7459,-32.9894,0.437796,11.2353,-46.341,16.4426,-11.7382,56.9617,-26.8245,-1.46447,-38.7841
29.7036,16.2436,-32.5907,18.3637,-34.3901,-2.0158,13.7601,-1.9396,2.09795,0.513756,-2.32972,-1.0133,-7.30909,-1.22705,-1.7984,8.18045,4.24344,15.8173,-13.6343,5.59586,-17.3361,-4.34458,3.12581,-8.49655,-4.25399e-14,3.73715e-14,-27.7008,-35.9613,-6.46354,132.648,-39.2275,-17.516,-6.17748,7.12502,8.73741,-35.9766,-4.25399e-14,3.73715e-14,-32.4986,22.9966,-12.2563,130.321,87.8678,-39.5721,43.4245,7.12502,-12.5552,73.0273,-42.7556,-16.1648,20.5214,57.4341,-33.1328,0.50021,11.3122,-46.3213,16.3411,-11.4782,56.8123,-26.3759,0.217114,-43.141
29.6906,16.256,-32.5673,18.5461,-34.4266,-2.20054,13.9628,-1.99853,2.13812,0.33142,-2.38715,-0.896036,-7.61813,-1.25737,-1.67621,8.57489,4.30457,15.3308,-13.324,5.73571,-16.9965,-4.32787,3.21391,-8.30192,-4.17448e-14,1.66979e-14,-27.304,-35.6827,-6.62757,132.507,-39.1637,-17.5363,-5.96951,7.12502,8.71784,-35.7695,-4.17448e-14,1.66979e-14,-33.1717,22.6609,-12.756,130.611,87.6832,-39.3191,43.0655,7.12502,-12.3113,72.6831,-42.5081,-16.1481,20.6476,57.0712,-33.0965,1.14396,12.5303,-46.1636,16.3288,-11.3074,56.6407,-27.6071,-1.49155,-37.4483
29.6774,16.2739,-32.5373,18.4677,-34.5322,-1.99342,13.8775,-1.70537,2.45809,-0.439601,-1.98884,-1.41447,-8.41479,-1.10448,-2.48745,12.304,3.30535,15.9685,-13.876,4.99376,-16.6219,-5.27527,2.91759,-8.45079,-2.26615e-14,4.21423e-14,-29.3492,-34.178,-5.40511,132.673,-39.3245,-17.5825,-5.86829,7.12502,8.67329,-35.6701,-2.26615e-14,4.21423e-14,-31.6563,21.4588,-12.7087,130.733,87.6915,-39.6325,42.8071,7.12502,-12.6135,72.4063,-42.179,-16.1454,20.3545,56.6746,-33.0406,1.76017,15.4308,-45.8956,16.2406,-11.5158,56.4305,-26.1442,0.823248,-44.608
29.6632,16.296,-32.4969,18.4465,-34.6223,-1.97069,13.7177,-1.59604,2.64284,-0.521784,-1.83447,-1.61699,-8.41677,-1.04457,-2.84466,13.274,3.02063,16.1271,-13.8541,4.80945,-16.3944,-5.47636,2.83444,-8.43226,2.66371e-14,-2.06736e-14,-29.9554,-33.9327,-5.12022,132.739,-39.4175,-17.6199,-5.8572,7.12502,8.6372,-35.6605,2.66371e-14,-2.06736e-14,-31.312,21.3487,-12.9868,130.798,87.6663,-40.1659,42.7157,7.12502,-13.1277,72.2825,-41.7645,-16.1406,20.2047,56.2613,-32.8897,1.82233,16.0751,-45.5116,16.191,-11.5605,56.2202,-27.2526,-0.980031,-39.0903
29.6521,16.3102,-32.468,18.7252,-34.5725,-2.26566,13.6645,-1.63869,2.75542,-0.429216,-1.86271,-1.48562,-8.28723,-1.05672,-2.76306,13.1959,3.12009,16.088,-13.7639,4.94327,-16.3375,-5.41456,2.89663,-8.40355,-1.07344e-14,-4.6118e-14,-29.6489,-34.1999,-5.28901,132.663,-39.4833,-17.4527,-5.86029,7.12502,8.79854,-35.6569,-1.07344e-14,-4.6118e-14,-31.8137,21.5805,-13.4209,130.939,87.5238,-39.9762,42.4951,7.12502,-12.9448,72.0736,-41.5486,-16.1383,20.4613,55.866,-32.6809,1.58002,14.5792,-45.3937,16.1716,-11.303,56.0392,-26.2918,0.653128,-44.0741
29.6472,16.3212,-32.4539,19.0733,-34.3741,-2.41697,13.7355,-1.76927,2.66739,-0.356704,-2.02838,-1.24839,-8.24815,-1.12543,-2.42333,12.6478,3.3299,15.8916,-13.504,5.13015,-16.3639,-5.21113,2.9857,-8.35001,6.24184e-14,-2.06736e-14,-28.9443,-34.6532,-5.60708,132.485,-39.4092,-17.3864,-5.89923,7.12502,8.86246,-35.6931,6.24184e-14,-2.06736e-14,-32.5458,22.0271,-13.7904,131.075,87.3812,-39.5032,42.2251,7.12502,-12.4888,71.8319,-41.6115,-16.2433,20.7308,55.5178,-32.6468,1.13102,13.6708,-45.6027,15.9764,-11.1683,55.8656,-27.4675,-0.260907,-40.9451
29.6408,16.3334,-32.4363,19.2337,-34.2386,-2.41266,13.8634,-1.87077,2.48348,-0.188758,-2.17609,-1.07746,-8.13396,-1.1817,-2.10423,11.8983,3.59073,15.5623,-13.2322,5.35216,-16.2899,-4.97159,3.08389,-8.23078,7.15625e-15,-2.38542e-15,-28.2834,-35.2228,-5.91235,132.356,-39.2571,-17.5524,-5.93675,7.12502,8.70229,-35.7374,7.15625e-15,-2.38542e-15,-33.1282,22.6807,-14.1728,131.064,87.3839,-39.1542,42.2461,7.12502,-12.1524,71.8732,-41.5872,-16.5359,20.8498,55.1934,-32.7184,1.27332,14.1343,-45.6637,15.7701,-11.1691,55.6764,-26.5345,0.461053,-43.1828
29.6306,16.3476,-32.4179,19.554,-34.1544,-2.59959,13.8566,-1.94439,2.38356,0.102882,-2.2754,-0.881623,-7.80836,-1.21545,-1.82209,10.7365,3.97676,15.2047,-13.0006,5.70746,-16.0768,-4.65801,3.22479,-8.04739,-1.59028e-15,-6.36111e-14,-27.6259,-35.853,-6.3019,132.237,-38.968,-17.6984,-5.80344,7.12502,8.56141,-35.6099,-1.59028e-15,-6.36111e-14,-33.7647,23.5685,-14.7246,130.967,87.3729,-38.6524,42.6988,7.12502,-11.6684,72.3538,-41.584,-16.6549,21.1175,54.857,-32.7327,1.59155,14.7838,-45.7375,15.7415,-11.0211,55.4674,-27.671,-0.715808,-38.7979
29.6221,16.3666,-32.3976,19.8641,-34.0664,-2.68601,13.7839,-1.87055,2.3343,0.214363,-2.18424,-0.837244,-7.63857,-1.16615,-1.76932,10.205,4.04247,15.3798,-12.7679,5.78065,-16.0232,-4.48059,3.23372,-8.02773,3.69739e-14,-3.49861e-14,-27.7929,-36.1966,-6.09233,132.181,-38.9593,-17.4702,-5.94909,7.12502,8.78164,-35.7464,3.69739e-14,-3.49861e-14,-33.7705,24.081,-14.9893,130.907,87.2202,-38.1987,42.8246,7.12502,-11.2309,72.504,-41.5748,-16.4564,21.2132,54.5147,-32.7204,1.37561,15.215,-45.8316,15.6554,-10.9855,55.2248,-26.3843,0.488401,-42.63
29.6144,16.3886,-32.3679,19.8377,-34.0148,-2.43019,13.805,-1.75242,2.15268,0.397248,-2.06585,-0.943755,-7.44511,-1.10134,-1.80614,9.41875,4.03057,15.7222,-12.2632,5.73731,-16.1143,-4.18717,3.18105,-8.06042,-5.76476e-14,3.10104e-14,-28.197,-36.6435,-5.66371,132.154,-39.1356,-17.3758,-6.25474,7.12502,8.8727,-36.0482,-5.76476e-14,3.10104e-14,-33.4746,24.5705,-15.0039,130.873,86.8288,-38.3498,42.2345,7.12502,-11.3766,71.9059,-41.3574,-16.4024,20.9285,54.1538,-32.7741,1.08473,14.8,-45.6948,15.4596,-11.2608,54.9488,-27.3503,0.0654783,-40.5379
29.6045,16.4069,-32.3374,19.9532,-33.9749,-2.27095,13.7145,-1.74353,2.0214,0.459701,-2.07928,-0.976358,-7.32433,-1.10251,-1.76678,9.22416,3.97552,15.7656,-12.0763,5.65065,-16.1523,-4.10998,3.1337,-8.06291,-6.24184e-14,-2.38542e-15,-28.1163,-36.7759,-5.67351,132.05,-38.9677,-17.6787,-6.29977,7.12502,8.5804,-36.1054,-6.24184e-14,-2.38542e-15,-33.5287,24.7523,-15.2106,130.836,86.3932,-38.8249,41.6744,7.12502,-11.8348,71.32,-41.2445,-16.4089,20.7939,53.7638,-32.7524,0.369246,12.4375,-45.64,15.3438,-11.4514,54.676,-25.9493,0.658115,-43.3917
29.5938,16.4206,-32.3086,20.1894,-33.988,-2.26308,13.7114,-1.75126,1.91148,0.23942,-2.10128,-0.920491,-7.5538,-1.11132,-1.63798,10.1907,3.79285,15.6569,-12.3666,5.4934,-16.172,-4.39299,3.0925,-8.09975,1.0297e-13,-1.03368e-14,-27.8799,-36.4035,-5.80772,131.968,-38.8172,-18.0083,-6.48202,7.12502,8.26235,-36.3005,1.0297e-13,-1.03368e-14,-33.7213,24.5269,-15.566,130.782,86.2597,-38.8913,41.703,7.12502,-11.8988,71.3449,-41.1533,-16.1637,20.7556,53.3267,-32.5885,-0.0483069,11.8663,-45.6432,15.3114,-11.5169,54.414,-27.5232,-0.666739,-38.36
29.5849,16.4385,-32.2758,20.3424,-33.9585,-2.39001,13.8947,-1.72998,1.92496,0.127237,-2.05975,-0.828071,-7.77268,-1.09185,-1.54981,10.9503,3.71319,15.4787,-12.6911,5.44384,-16.1001,-4.63833,3.09417,-8.0897,-2.82274e-14,5.00937e-14,-27.7347,-36.1257,-5.791,131.946,-38.8108,-18.2859,-6.68547,7.12502,7.99438,-36.5143,-2.82274e-14,5.00937e-14,-33.8814,24.4067,-15.8524,130.696,86.2602,-39.116,42.3282,7.12502,-12.1155,71.9574,-40.803,-15.89,20.7514,52.8206,-32.4895,0.184142,12.9073,-45.4758,15.2578,-11.444,54.1536,-25.9131,1.19561,-44.1516
29.5776,16.4621,-32.2424,20.5917,-33.8181,-2.69034,13.8991,-1.72773,2.24098,0.221076,-2.00522,-0.811768,-7.68253,-1.07561,-1.72352,11.063,3.75972,15.4843,-12.8058,5.53694,-15.9452,-4.68242,3.13216,-8.05093,-1.39149e-14,-3.18055e-15,-27.7441,-36.1974,-5.86488,131.907,-38.927,-18.3895,-6.7337,7.12502,7.89445,-36.5663,-1.39149e-14,-3.18055e-15,-33.8757,24.4712,-16.0497,130.536,86.2176,-40.011,42.759,7.12502,-12.9784,72.3353,-40.4391,-15.7208,20.957,52.3002,-32.532,-0.177999,11.572,-45.3136,15.1392,-11.175,53.8917,-27.0876,0.323977,-40.9237
29.571,16.487,-32.2028,20.7764,-33.6986,-2.83003,13.8785,-1.86208,2.36631,0.472072,-2.1574,-0.707036,-7.40931,-1.14744,-1.65575,10.2467,4.1117,15.1136,-12.579,5.88143,-15.8113,-4.43209,3.28604,-7.90727,5.56597e-15,-4.13472e-14,-26.952,-36.5869,-6.44692,131.727,-39.1011,-18.4682,-6.80838,7.12502,7.81846,-36.6438,5.56597e-15,-4.13472e-14,-34.3965,24.8008,-16.3331,130.332,86.0746,-40.7126,42.0862,7.12502,-13.6546,71.6183,-40.1463,-15.6953,21.0392,51.8244,-32.5082,-0.695942,10.2344,-45.1476,14.9231,-11.0435,53.6108,-25.861,0.875386,-43.0476
29.565,16.506,-32.159,20.8539,-33.6736,-2.62939,13.8515,-1.85746,2.30007,0.408019,-2.16512,-0.750502,-7.46251,-1.15063,-1.66271,10.3972,4.00981,15.0852,-12.4492,5.76318,-15.8383,-4.43891,3.23678,-7.9092,3.93594e-14,2.78299e-14,-26.8984,-36.4455,-6.38756,131.613,-39.163,-18.3351,-6.97246,7.12502,7.94689,-36.8031,3.93594e-14,2.78299e-14,-34.2742,24.7488,-16.2973,130.114,85.7866,-40.4747,41.4159,7.12502,-13.4254,70.9633,-40.0017,-15.8138,20.8103,51.4329,-32.3819,-0.750302,10.2004,-45.0715,14.6921,-11.2894,53.3488,-27.4703,-0.170668,-38.5737
29.56,16.5178,-32.1234,21.0509,-33.5667,-2.39947,13.7843,-1.79401,2.2097,0.331097,-2.10341,-0.842925,-7.50457,-1.1203,-1.72311,10.1123,3.81812,15.4532,-12.0156,5.53793,-15.9697,-4.28179,3.11169,-7.97966,7.91163e-14,-4.77083e-15,-27.205,-36.4326,-6.16344,131.535,-39.0683,-17.8305,-7.03806,7.12502,8.43389,-36.8497,7.91163e-14,-4.77083e-15,-33.9722,24.8179,-16.3131,129.97,85.6457,-39.9659,41.5557,7.12502,-12.9349,71.1348,-40.0589,-15.9066,20.6294,51.1267,-32.4056,-0.589071,11.3587,-45.2386,14.5036,-11.5911,53.1365,-25.8834,0.913669,-42.5489
29.5532,16.5274,-32.0916,21.4133,-33.364,-2.45408,13.7021,-1.74031,2.29424,0.314188,-2.02131,-0.85379,-7.47586,-1.08366,-1.80088,9.80935,3.72785,15.7731,-11.7681,5.43216,-16.0497,-4.16133,3.04258,-8.03595,-2.46493e-14,-3.97569e-15,-27.5037,-36.497,-5.939,131.454,-39.0577,-17.5081,-6.89331,7.12502,8.74504,-36.6921,-2.46493e-14,-3.97569e-15,-33.7525,24.9678,-16.4474,129.826,85.7791,-39.7806,41.946,7.12502,-12.7563,71.5363,-40.1265,-15.8542,20.7287,50.8619,-32.4929,0.367959,16.0805,-45.4682,14.4057,-11.6027,52.9887,-27.4561,-0.093502,-38.4216
29.5425,16.5374,-32.0535,21.7146,-33.3871,-2.50837,13.6232,-1.68344,2.18799,0.30097,-1.9583,-0.778071,-7.43579,-1.04757,-1.67465,9.9188,3.7673,15.6138,-11.9436,5.468,-16.0115,-4.23233,3.06712,-8.00857,-4.73108e-14,-3.73715e-14,-27.3642,-36.4625,-5.98311,131.39,-39.0659,-17.4582,-6.86846,7.12502,8.79323,-36.6653,-4.73108e-14,-3.73715e-14,-33.8705,24.9445,-16.5872,129.641,86.0102,-39.8685,41.8253,7.12502,-12.841,71.4103,-40.136,-15.6843,20.7358,50.616,-32.4699,1.11068,19.494,-45.5511,14.48,-11.6651,52.8876,-25.9981,-0.153714,-39.6469
29.5329,16.5453,-32.0127,21.9076,-33.477,-2.32315,13.4664,-1.66465,1.94098,0.266047,-1.97373,-0.76596,-7.3765,-1.04588,-1.52225,10.2469,3.83811,15.2759,-12.2726,5.54746,-15.8789,-4.38876,3.12112,-7.93589,-6.75868e-14,2.22639e-14,-26.9597,-36.2981,-6.31066,131.278,-38.9643,-17.5023,-6.84596,7.12502,8.75066,-36.6446,-6.75868e-14,2.22639e-14,-34.1505,24.8086,-16.6841,129.543,86.0679,-39.8403,41.1673,7.12502,-12.8139,70.754,-40.1709,-15.5393,20.5016,50.3748,-32.4543,0.350333,17.2869,-45.6475,14.5149,-11.977,52.788,-26.9048,0.283703,-39.772
29.5242,16.555,-31.9719,22.1258,-33.3633,-2.27319,13.4693,-1.65588,1.88737,0.31017,-1.96991,-0.757895,-7.32849,-1.04132,-1.48467,9.78841,3.85614,15.4427,-12.079,5.53715,-15.9939,-4.24396,3.10243,-7.9756,1.98785e-14,-7.95139e-15,-26.7614,-36.2692,-6.43046,131.089,-38.9497,-17.5696,-6.75665,7.12502,8.68571,-36.558,1.98785e-14,-7.95139e-15,-34.1856,24.9636,-16.5823,129.442,85.8672,-39.4812,41.3587,7.12502,-12.4677,70.9668,-40.1299,-15.5168,20.4481,50.1394,-32.5102,-0.566926,14.5125,-45.7453,14.4665,-12.1021,52.6828,-26.0919,0.587563,-41.4786
29.5124,16.5658,-31.9261,22.3395,-33.3334,-2.47888,13.6166,-1.68729,2.07623,0.254498,-1.97896,-0.758277,-7.47826,-1.05377,-1.58583,10.0049,3.86485,15.4298,-12.0595,5.58273,-15.9606,-4.26975,3.13112,-7.97125,5.00937e-14,-1.82882e-14,-26.5422,-36.0429,-6.70668,131.001,-39.1076,-17.5895,-6.9178,7.12502,8.66649,-36.7199,5.00937e-14,-1.82882e-14,-34.1774,24.8001,-16.5611,129.236,85.5364,-39.3561,42.2521,7.12502,-12.3471,71.8675,-39.9534,-15.4561,20.5742,49.9228,-32.5621,-0.68305,14.1545,-45.6471,14.5482,-11.9834,52.6103,-27.1109,0.138081,-39.6491
29.5006,16.5699,-31.8777,22.5837,-33.4126,-2.61684,13.656,-1.53347,2.12668,0.234978,-1.769,-0.790569,-7.51427,-0.954945,-1.68991,10.0463,3.84214,15.6071,-12.1945,5.58383,-15.8974,-4.31413,3.12009,-7.98777,1.59028e-14,1.43125e-14,-26.8628,-36.0153,-6.58924,130.993,-39.2227,-17.4994,-7.09884,7.12502,8.75341,-36.8973,1.59028e-14,1.43125e-14,-33.7775,24.7338,-16.2098,129.012,85.0518,-39.7389,42.4165,7.12502,-12.7161,72.0093,-39.894,-15.3115,20.6075,49.7499,-32.4592,-1.27567,11.5488,-45.6244,14.6904,-11.972,52.6038,-26.2973,0.615819,-41.413
29.4928,16.567,-31.8333,22.8385,-33.3569,-2.59573,13.5433,-1.47895,2.14077,0.2167,-1.69883,-0.818412,-7.46835,-0.921786,-1.74359,10.2487,3.74829,15.6851,-12.4873,5.47459,-15.8925,-4.45266,3.06606,-8.01779,-1.63003e-14,3.49861e-14,-27.0155,-35.9436,-6.53235,130.915,-39.3606,-17.3218,-7.09759,7.12502,8.92478,-36.8888,-1.63003e-14,3.49861e-14,-33.6842,24.7673,-16.1777,128.87,85.0122,-40.1742,42.0986,7.12502,-13.1357,71.6649,-39.9388,-15.1901,20.5289,49.6366,-32.434,-1.77138,9.71267,-45.8254,14.726,-12.0985,52.6779,-26.4427,0.373586,-40.693
29.4847,16.566,-31.7916,23.0888,-33.2406,-2.57311,13.4488,-1.4893,2.17813,0.192501,-1.71107,-0.853427,-7.44403,-0.929755,-1.80105,10.3171,3.64987,15.763,-12.4263,5.36095,-15.9347,-4.46171,3.01204,-8.04247,-5.12864e-14,-3.18055e-15,-27.0354,-35.7999,-6.60831,130.804,-39.5764,-17.0676,-7.16538,7.12502,9.17008,-36.946,-5.12864e-14,-3.18055e-15,-33.6826,24.8197,-16.2029,128.681,85.3207,-40.1627,42.0799,7.12502,-13.1247,71.6469,-39.9955,-15.0798,20.4601,49.5786,-32.541,-1.64498,10.7309,-46.0749,14.718,-12.2202,52.8155,-26.5431,-0.10835,-39.3995
29.4736,16.5667,-31.7421,23.2311,-33.2525,-2.48512,13.4329,-1.39163,2.09409,0.218496,-1.6008,-0.925156,-7.40132,-0.874134,-1.85221,9.96304,3.62386,15.9478,-12.1555,5.32855,-15.9076,-4.32113,2.97698,-8.03819,-4.92986e-14,6.99722e-14,-27.1199,-35.8486,-6.63334,130.634,-39.5598,-16.623,-7.35362,7.12502,9.59911,-37.1149,-4.92986e-14,6.99722e-14,-33.4785,24.7968,-15.8884,128.458,85.4013,-40.1373,42.024,7.12502,-13.1001,71.5925,-40.0117,-15.0285,20.2927,49.5642,-32.5124,-1.47015,11.8464,-46.1767,14.7005,-12.4157,52.9979,-26.6809,0.443571,-40.2993
29.4655,16.5599,-31.6867,23.3186,-33.3792,-2.45779,13.5271,-1.26733,1.98764,0.328212,-1.45495,-0.965754,-7.32757,-0.798952,-1.8634,9.24095,3.70102,16.1,-11.8368,5.38337,-15.8591,-4.08994,2.97356,-8.00722,-1.31198e-14,4.77083e-15,-27.0389,-35.9982,-6.82233,130.443,-39.3222,-16.3071,-7.38804,7.12502,9.90389,-37.1351,-1.31198e-14,4.77083e-15,-33.3471,24.8825,-15.5085,128.3,85.1702,-40.499,41.8532,7.12502,-13.4488,71.399,-39.9588,-15.0057,20.1245,49.5895,-32.4918,-1.31993,12.4861,-46.1535,14.7547,-12.5598,53.2361,-26.9134,0.893488,-41.018
29.46,16.5484,-31.6353,23.6376,-33.3531,-2.66921,13.4564,-1.40378,2.21647,0.275233,-1.59577,-0.897844,-7.35615,-0.874619,-1.89353,9.77036,3.84191,15.5146,-12.1385,5.58032,-15.5309,-4.26788,3.09055,-7.83572,-4.85035e-14,5.40694e-14,-26.3844,-35.6139,-7.49145,130.318,-39.3029,-16.4672,-7.25479,7.12502,9.74938,-37.0091,-4.85035e-14,5.40694e-14,-33.8835,24.6617,-15.7336,128.252,85.0472,-40.5172,41.8343,7.12502,-13.4663,71.379,-40.0297,-15.0054,20.2585,49.6616,-32.6262,-1.35024,12.4557,-46.3485,14.9416,-12.5001,53.5416,-27.1974,0.526898,-40.3004
29.4526,16.5313,-31.5805,23.8774,-33.2588,-2.71438,13.3538,-1.43793,2.31493,0.253307,-1.62767,-0.897374,-7.32651,-0.893452,-1.94402,10.2067,3.87796,15.414,-12.4954,5.6577,-15.4639,-4.44257,3.13966,-7.83123,4.69132e-14,4.53229e-14,-26.2484,-35.4597,-7.59783,130.194,-39.5796,-16.6096,-7.17137,7.12502,9.61202,-36.9321,4.69132e-14,4.53229e-14,-33.98,24.5381,-15.6091,128.109,85.0176,-40.0327,42.4064,7.12502,-12.9993,71.9814,-40.1121,-14.9839,20.2275,49.805,-32.9236,-1.36209,12.7375,-46.5896,14.9774,-12.5555,53.8792,-27.3822,0.23131,-39.7069
29.4417,16.5105,-31.5188,23.8787,-33.3563,-2.64999,13.3745,-1.34971,2.24668,0.330495,-1.52615,-0.957191,-7.24978,-0.84158,-1.98925,10.2553,3.86679,15.5206,-12.6463,5.64713,-15.535,-4.49168,3.13445,-7.88147,2.50469e-14,-1.19271e-14,-26.2813,-35.4194,-7.54789,130.039,-39.724,-16.5178,-7.18785,7.12502,9.7006,-36.9445,2.50469e-14,-1.19271e-14,-33.844,24.4715,-15.1681,127.949,84.9715,-39.9947,43.2388,7.12502,-12.9627,72.8161,-40.0246,-14.8443,19.9592,50.0353,-33.1876,-1.81875,10.6701,-46.5281,14.8801,-12.653,54.2182,-27.727,0.116698,-38.8106
29.4296,16.4901,-31.4629,23.8985,-33.4967,-2.65353,13.501,-1.25028,2.16845,0.389744,-1.40879,-1.01158,-7.2505,-0.782527,-2.02444,10.1884,3.83683,15.6436,-12.6953,5.60819,-15.5756,-4.49588,3.10961,-7.91437,1.52667e-13,-1.74931e-14,-26.3486,-35.2233,-7.694,129.922,-39.5953,-16.465,-7.18067,7.12502,9.75153,-36.9349,1.52667e-13,-1.74931e-14,-33.8011,24.404,-14.8671,127.926,84.8691,-40.5055,43.0399,7.12502,-13.455,72.5854,-39.9856,-14.7112,19.7712,50.3469,-33.3344,-2.28983,8.3523,-46.4628,14.9354,-12.7182,54.5822,-28.1807,0.317341,-38.2822
29.4201,16.4644,-31.4117,23.9707,-33.5604,-2.61433,13.6602,-1.1814,2.05666,0.384658,-1.33612,-1.06343,-7.34016,-0.745367,-2.02858,9.92955,3.80289,15.8758,-12.4376,5.56988,-15.662,-4.37029,3.08038,-7.95998,-4.77083e-14,-1.59028e-15,-26.4483,-35.0694,-7.84994,129.814,-39.5854,-16.4295,-7.19082,7.12502,9.78583,-36.9435,-4.77083e-14,-1.59028e-15,-33.8089,24.3199,-14.6384,127.877,84.7832,-40.5208,42.0422,7.12502,-13.4697,71.5866,-40.1032,-14.6291,19.5932,50.7502,-33.689,-1.84948,10.2535,-46.5501,15.0064,-12.8402,54.992,-28.6793,0.509386,-38.7124
29.4131,16.4305,-31.3562,24.1326,-33.4908,-2.69761,13.7338,-1.19031,2.16671,0.382172,-1.32993,-1.07191,-7.38678,-0.746869,-2.10032,9.55454,3.79964,15.9243,-11.9926,5.55434,-15.6355,-4.17545,3.06154,-7.92492,2.14687e-14,4.6118e-14,-26.4221,-34.9904,-8.01958,129.697,-39.8227,-16.3483,-7.077,7.12502,9.86409,-36.8259,2.14687e-14,4.6118e-14,-33.826,24.2162,-14.2912,127.78,84.4693,-39.9737,42.0432,7.12502,-12.9424,71.6218,-40.2492,-14.5445,19.5618,51.2109,-34.1464,-1.84266,11.1353,-46.717,14.9119,-12.783,55.4749,-29.5048,-0.905868,-36.0278
29.406,16.3933,-31.3015,24.3021,-33.2877,-2.87412,13.8371,-1.32914,2.44304,0.341303,-1.46272,-1.0119,-7.50178,-0.821378,-2.16461,9.65088,3.87859,15.5208,-11.8831,5.65207,-15.3855,-4.16532,3.116,-7.77446,3.53837e-14,1.66979e-14,-26.0981,-34.7047,-8.43589,129.562,-39.9493,-16.3431,-6.83288,7.12502,9.86916,-36.5816,3.53837e-14,1.66979e-14,-34.0268,23.8002,-13.983,127.68,84.0698,-40.0073,42.5295,7.12502,-12.9748,72.106,-40.3747,-14.5411,19.6726,51.7229,-34.2804,-2.99021,7.66475,-46.8801,14.6976,-12.5589,55.9828,-31.1222,-1.03146,-35.2262
29.3987,16.3541,-31.2402,24.3733,-33.2097,-2.9465,13.9773,-1.36267,2.53966,0.298959,-1.48489,-0.972645,-7.62906,-0.836627,-2.1707,9.89175,3.95437,15.3139,-11.9953,5.7633,-15.272,-4.23284,3.17962,-7.71865,-7.15625e-15,-1.98785e-14,-26.0153,-34.3287,-8.61662,129.452,-39.8385,-16.4691,-6.86294,7.12502,9.7476,-36.6174,-7.15625e-15,-1.98785e-14,-34.1718,23.3298,-13.6424,127.571,84.12,-40.4187,41.6201,7.12502,-13.3714,71.1711,-40.485,-14.6799,19.6605,52.295,-34.2108,-4.44571,1.91404,-46.9104,14.3917,-12.4344,56.4831,-30.788,0.956067,-40.2736
29.3891,16.3136,-31.1665,24.4041,-33.3061,-2.87624,13.8791,-1.26134,2.50461,0.381263,-1.36752,-1.07339,-7.48006,-0.778104,-2.28413,9.93776,3.95611,15.5754,-12.1507,5.79194,-15.3641,-4.2706,3.18837,-7.80262,-3.89618e-14,3.49861e-14,-26.2806,-34.1838,-8.68839,129.373,-39.7174,-16.447,-6.9209,7.12502,9.76892,-36.6743,-3.89618e-14,3.49861e-14,-34.056,23.1778,-13.1789,127.553,84.0093,-40.6305,40.6802,7.12502,-13.5755,70.2176,-40.6198,-14.7362,19.4209,52.9287,-34.3965,-5.37517,-1.85681,-46.8946,14.0941,-12.4981,56.9643,-31.605,-0.164222,-36.3762
29.3758,16.2725,-31.0955,24.319,-33.4649,-2.65582,13.7429,-1.27228,2.36961,0.495049,-1.41902,-1.2247,-7.28517,-0.798025,-2.3607,10.0897,4.01426,15.4761,-12.2913,5.88017,-15.2628,-4.33146,3.23329,-7.76642,5.84427e-14,-3.02153e-14,-26.2214,-34.0338,-9.21874,129.289,-39.657,-16.2956,-6.70119,7.12502,9.91494,-36.4477,5.84427e-14,-3.02153e-14,-34.1823,22.9506,-12.8601,127.576,83.4488,-40.9316,41.2029,7.12502,-13.8657,70.7207,-40.7575,-14.5861,18.9523,53.664,-34.8093,-5.07438,-0.958001,-46.865,13.9019,-12.7146,57.4417,-31.7908,1.74002,-40.5992
29.3641,16.2282,-31.0285,24.0913,-33.6458,-2.34834,13.9077,-1.29748,2.12741,0.505172,-1.49756,-1.35067,-7.36877,-0.831156,-2.33966,10.1608,4.05223,15.1712,-12.202,5.926,-15.0442,-4.32829,3.25833,-7.64257,-2.54444e-14,6.04305e-14,-26.2761,-33.6904,-9.58785,129.236,-39.6919,-16.2656,-6.50514,7.12502,9.94393,-36.2503,-2.54444e-14,6.04305e-14,-34.3977,22.6673,-12.5529,127.673,83.0129,-41.6963,42.6172,7.12502,-14.6026,72.0831,-40.835,-14.4817,18.3753,54.485,-35.2592,-4.30661,1.62555,-46.7478,13.677,-13.0005,57.9488,-32.2172,3.10452,-42.8911
29.3537,16.1815,-30.9578,23.965,-33.7596,-2.26463,14.1014,-1.20991,2.10082,0.56743,-1.39305,-1.47385,-7.40707,-0.782007,-2.47522,9.81218,3.98443,15.3448,-11.9274,5.82717,-15.0773,-4.19568,3.19595,-7.65459,3.61788e-14,-5.56597e-15,-26.7895,-33.4399,-9.66627,129.185,-39.7681,-16.3173,-6.35259,7.12502,9.89408,-36.1001,3.61788e-14,-5.56597e-15,-34.1735,22.6038,-11.9068,127.636,82.863,-42.8979,43.4676,7.12502,-15.76,72.8459,-40.9503,-14.3888,18.0397,55.388,-35.6965,-3.90794,4.12862,-46.5938,13.3869,-13.0532,58.4852,-32.3139,3.97155,-44.0654
29.3394,16.1359,-30.8851,23.9617,-33.787,-2.36361,14.1601,-1.18741,2.2266,0.636861,-1.34621,-1.52051,-7.36686,-0.763515,-2.60568,9.73508,3.98687,15.3899,-11.8479,5.82965,-15.1,-4.15607,3.19524,-7.66337,5.96354e-14,-3.89618e-14,-27.065,-33.0357,-10.0504,129.153,-39.7592,-16.4628,-6.07069,7.12502,9.75371,-35.8248,5.96354e-14,-3.89618e-14,-34.1176,22.2349,-11.2376,127.502,82.5762,-43.289,43.3876,7.12502,-16.1367,72.7358,-41.1737,-14.201,17.9177,56.4097,-36.0348,-3.57424,6.6144,-46.4567,13.0736,-12.9035,59.02,-32.7144,3.76193,-43.0532
29.3212,16.0949,-30.8052,23.8273,-33.805,-2.35793,14.2777,-1.27281,2.27897,0.635,-1.45091,-1.54799,-7.44369,-0.817573,-2.64199,10.1844,4.05553,15.1616,-12.0255,5.95291,-14.9741,-4.27867,3.27031,-7.61183,3.29983e-14,-1.59028e-15,-27.2024,-32.3044,-10.6035,129.185,-39.5883,-16.7957,-5.79584,7.12502,9.43243,-35.5648,3.29983e-14,-1.59028e-15,-34.4288,21.5467,-10.7883,127.514,82.1027,-42.214,43.0898,7.12502,-15.1014,72.519,-41.3294,-14.0869,17.6721,57.5745,-36.1271,-3.3783,8.59023,-46.1618,12.6823,-12.8338,59.4941,-33.8292,1.92587,-38.2523
29.3025,16.0553,-30.7283,23.6045,-33.8609,-2.20157,14.3945,-1.33272,2.17578,0.716009,-1.5522,-1.63281,-7.42839,-0.863893,-2.6519,10.5275,4.09631,15.0925,-12.3182,6.02791,-14.949,-4.41632,3.31632,-7.62059,2.10712e-14,1.35174e-14,-27.5106,-31.7471,-11.1788,129.229,-39.277,-17.0046,-5.53252,7.12502,9.23088,-35.3105,2.10712e-14,1.35174e-14,-34.6031,21.0793,-10.3193,127.439,81.6807,-40.7371,42.6013,7.12502,-13.6782,72.1318,-41.5751,-13.9756,17.2985,58.9046,-35.7959,-4.25253,7.0775,-45.825,12.3236,-12.9185,59.8824,-33.651,4.3065,-43.0181
29.286,16.0156,-30.6685,23.5175,-33.8701,-1.88918,14.3909,-1.34334,1.91026,0.771962,-1.61788,-1.73525,-7.36607,-0.887567,-2.59707,10.6359,4.10396,15.0954,-12.6116,6.03431,-14.9486,-4.52168,3.31937,-7.63851,7.4743e-14,-2.22639e-14,-28.0545,-31.2751,-11.6191,129.349,-39.0993,-16.9755,-5.42428,7.12502,9.25894,-35.201,7.4743e-14,-2.22639e-14,-34.5389,20.8084,-9.63352,127.339,81.2301,-40.8304,42.7912,7.12502,-13.7682,72.3157,-42.2789,-13.8116,16.8795,60.4833,-35.1516,-4.88336,5.38326,-45.8194,11.93,-13.1271,60.2104,-33.9535,4.95911,-43.6561
29.2634,15.9866,-30.5853,23.063,-34.2129,-1.62408,14.715,-1.25544,1.60733,0.904066,-1.56206,-1.90012,-7.3985,-0.853119,-2.60932,10.7464,4.12259,15.0053,-12.9129,6.06266,-14.7733,-4.63698,3.32506,-7.58394,-5.64548e-14,8.82604e-14,-28.7004,-30.6346,-12.027,129.492,-39.0189,-16.8992,-5.34535,7.12502,9.3326,-35.1188,-5.64548e-14,8.82604e-14,-34.4377,20.5186,-8.90541,127.354,80.9918,-42.7761,43.795,7.12502,-15.6428,73.1825,-42.5401,-13.3735,16.1536,62.1482,-34.2467,-4.30319,6.83229,-45.0605,11.6387,-13.3235,60.3138,-34.3814,6.2668,-44.7334
29.2375,15.9515,-30.5047,22.7538,-34.5854,-1.30856,14.8463,-1.25546,1.2157,0.985872,-1.63811,-2.03966,-7.38171,-0.879181,-2.51847,10.9522,4.21839,14.7361,-13.2016,6.17939,-14.6048,-4.75688,3.38619,-7.50808,6.48038e-14,-6.04305e-14,-29.0031,-29.9612,-12.8201,129.602,-38.8933,-16.9122,-5.21762,7.12502,9.32008,-34.9916,6.48038e-14,-6.04305e-14,-34.625,20.1093,-8.43929,127.335,81.1035,-44.6265,44.1589,7.12502,-17.4242,73.398,-43.2512,-12.8429,15.4009,64.1219,-32.901,-4.55399,6.16279,-44.4714,11.4071,-13.6158,60.3758,-34.8663,7.18044,-45.5843
29.2049,15.9619,-30.4182,22.4785,-34.878,-0.953276,14.886,-1.33346,0.865526,1.02219,-1.80993,-2.1652,-7.36778,-0.953179,-2.41682,11.1119,4.33175,14.6324,-13.2352,6.31274,-14.7767,-4.76944,3.47405,-7.56032,3.33958e-14,1.59028e-14,-29.3054,-29.1897,-13.6972,129.849,-38.7397,-16.9469,-5.3753,7.12502,9.28662,-35.1508,3.33958e-14,1.59028e-14,-34.9268,19.5487,-8.09096,127.191,81.3412,-44.4625,43.2881,7.12502,-17.2664,72.541,-43.9927,-12.3178,14.6462,66.0994,-31.2899,-4.43029,7.07465,-43.7154,11.1494,-13.9611,60.1671,-35.2697,7.42707,-45.5888
29.1776,15.9359,-30.3383,22.1897,-35.0959,-0.62093,14.9169,-1.42505,0.586026,1.10402,-1.98666,-2.28129,-7.30104,-1.03135,-2.34448,11.1499,4.47426,14.6637,-13.2956,6.47514,-15.0737,-4.75401,3.57514,-7.67349,-7.95139e-16,4.05521e-14,-29.7459,-28.4134,-14.4743,130.144,-38.5328,-16.7736,-5.44278,7.12502,9.45384,-35.2107,-7.95139e-16,4.05521e-14,-35.1044,19.1067,-7.64909,127.004,81.3198,-42.2083,42.7545,7.12502,-15.0959,72.1841,-44.9993,-11.9474,13.8403,68.4701,-29.382,-3.01101,12.1147,-43.1301,10.8693,-14.2459,60.1078,-35.9989,6.69161,-43.4457
29.15,15.9138,-30.2558,21.8648,-35.4243,-0.312709,14.9741,-1.47043,0.284461,1.27092,-2.10586,-2.40641,-7.15369,-1.08097,-2.28151,11.1104,4.60203,14.7989,-13.5885,6.60293,-15.42,-4.79394,3.65289,-7.82718,-3.53837e-14,-2.46493e-14,-30.2225,-27.8614,-15.1279,130.384,-38.605,-16.4753,-5.36017,7.12502,9.74163,-35.1149,-3.53837e-14,-2.46493e-14,-35.1075,19.0111,-7.19667,126.873,81.3424,-40.2108,43.2772,7.12502,-13.171,72.8412,-46.1451,-11.5445,13.0216,70.9637,-27.1496,-1.6558,17.6535,-42.443,10.6982,-14.5647,60.0095,-36.0419,6.93528,-42.9867
29.122,15.8895,-30.1732,21.5872,-35.687,-0.0646292,15.1102,-1.60469,0.15951,1.3287,-2.31456,-2.5227,-7.17702,-1.18045,-2.28836,11.3692,4.67268,15.0068,-13.9968,6.67461,-15.9144,-4.91914,3.71852,-8.06199,-3.65764e-14,1.03368e-14,-30.6774,-27.2596,-15.7081,130.64,-38.8911,-16.4208,-5.39753,7.12502,9.79414,-35.1498,-3.65764e-14,1.03368e-14,-35.0975,19.0217,-6.95082,126.706,81.8895,-39.4846,43.6943,7.12502,-12.4709,73.3022,-47.5137,-11.1778,12.3366,73.5915,-24.7856,-1.225,21.5944,-41.8174,10.6483,-14.8622,59.9563,-36.3103,7.28359,-42.8606
29.0879,15.8768,-30.0924,21.3885,-35.8178,0.0462998,15.3035,-1.87802,0.141353,1.32434,-2.67899,-2.50165,-7.30343,-1.35609,-2.17314,11.9033,4.85827,14.6337,-14.5876,6.86952,-16.0417,-5.16586,3.85482,-8.10398,1.09729e-13,-8.5875e-14,-30.6999,-26.5737,-16.4351,130.873,-38.9942,-16.3361,-5.52433,7.12502,9.87593,-35.2727,1.09729e-13,-8.5875e-14,-35.4246,18.9769,-6.87436,126.587,82.6277,-39.3072,43.0142,7.12502,-12.2998,72.6325,-48.9248,-11.0447,11.8407,76.1452,-22.0945,-1.21447,24.6342,-41.1449,10.6421,-14.995,59.8194,-36.4202,7.48231,-42.723
29.0503,15.8741,-30.0085,21.2038,-35.9028,0.179319,15.4185,-2.08308,0.0631339,1.37058,-2.95611,-2.41599,-7.32068,-1.48577,-1.97474,12.1052,5.05815,14.1494,-15.0152,7.05668,-15.9705,-5.32202,3.96973,-8.03715,-1.23246e-13,1.35174e-14,-30.8544,-26.1583,-16.7914,131.123,-39.0819,-15.7238,-5.85788,7.12502,10.4666,-35.5773,-1.23246e-13,1.35174e-14,-35.5056,18.8812,-6.60918,126.544,83.2391,-39.2149,41.3572,7.12502,-12.2109,70.9808,-50.403,-11.2347,11.4008,78.549,-18.9262,-1.00668,26.3048,-40.4415,10.6054,-15.1582,59.5734,-36.4065,8.51964,-43.7002
29.0116,15.871,-29.925,21.1545,-35.7259,0.280686,15.4128,-2.21244,0.171034,1.35314,-3.09731,-2.28768,-7.33997,-1.55482,-1.86813,12.028,5.08148,14.1791,-14.9782,7.03998,-16.2857,-5.28305,3.98297,-8.1419,1.90833e-14,-2.94201e-14,-31.6417,-25.9426,-16.3543,131.477,-39.5157,-15.1231,-6.32101,7.12502,11.046,-36.0104,1.90833e-14,-2.94201e-14,-34.7303,18.9101,-5.97929,126.301,83.2541,-38.6336,40.8819,7.12502,-11.6504,70.538,-51.9821,-11.8986,11.3364,80.6967,-16.3112,-1.30157,24.9444,-39.9751,10.4822,-15.2518,59.2246,-36.2734,10.3905,-46.2034
28.9638,15.8787,-29.8396,21.0836,-35.3899,0.262405,15.4302,-2.3599,0.445319,1.36236,-3.22785,-2.09069,-7.34785,-1.62246,-1.7843,11.9321,5.06823,14.2233,-14.8036,6.9906,-16.559,-5.2063,3.97606,-8.22577,2.38542e-14,-1.03368e-14,-32.4794,-25.8989,-15.5519,131.846,-40.1339,-14.5888,-6.69924,7.12502,11.5613,-36.3604,2.38542e-14,-1.03368e-14,-33.6289,19.0436,-5.23477,125.957,82.4593,-38.2097,42.4627,7.12502,-11.2416,72.1415,-53.3741,-12.7733,11.5444,82.578,-13.6853,-1.82221,23.0666,-39.3459,10.3629,-15.1506,58.7283,-36.2803,11.202,-47.6808
28.9071,15.9026,-29.7458,20.7756,-35.0617,0.283496,15.6149,-2.60337,0.643485,1.47454,-3.49388,-1.85339,-7.33624,-1.75192,-1.58034,11.7009,5.21489,14.0004,-14.6828,7.12584,-16.6015,-5.11335,4.05121,-8.18746,6.12257e-14,1.66979e-14,-32.8217,-26.0551,-14.8231,132.089,-40.8202,-13.9808,-6.90963,7.12502,12.1476,-36.5369,6.12257e-14,1.66979e-14,-32.8087,18.9049,-4.70772,125.713,81.5033,-38.7707,42.6329,7.12502,-11.7825,72.2815,-54.4547,-13.6614,11.6514,84.2548,-11.0119,-1.73553,24.2065,-38.2562,10.2348,-15.0214,58.0121,-36.6371,10.6787,-47.4138
28.846,15.9289,-29.6538,20.349,-34.7199,0.623496,15.809,-2.92652,0.512657,1.5101,-3.91997,-1.59331,-7.39329,-1.94811,-1.12803,11.5882,5.42823,13.7871,-14.7014,7.3304,-16.8414,-5.06172,4.17826,-8.23223,7.31528e-14,-7.95139e-16,-32.7229,-26.2134,-14.1501,132.24,-41.6969,-13.6535,-7.14479,7.12502,12.4632,-36.7532,7.31528e-14,-7.95139e-16,-32.0186,18.7582,-4.33901,125.624,81.1375,-39.5628,41.6173,7.12502,-12.5463,71.2206,-55.5731,-14.6785,11.5317,85.7449,-8.62393,-1.4837,25.6599,-37.1311,10.063,-15.1736,57.0896,-37.321,9.62975,-45.6254
28.7789,15.9572,-29.5687,19.9766,-34.4182,1.20618,15.78,-3.17076,0.141841,1.48669,-4.28823,-1.38229,-7.36882,-2.11056,-0.614893,11.6709,5.53307,13.8261,-14.8452,7.42723,-17.2074,-5.08278,4.25452,-8.3766,7.95139e-16,-5.56597e-15,-32.6705,-26.4192,-13.3137,132.404,-42.3941,-13.5092,-7.35331,7.12502,12.6023,-36.9532,7.95139e-16,-5.56597e-15,-30.7658,19.008,-3.95579,125.638,81.1891,-40.0892,42.5575,7.12502,-13.0538,72.129,-56.9575,-15.7756,11.2737,87.0713,-7.03306,-1.48252,25.7343,-36.1146,9.91079,-15.5746,55.9651,-36.0523,10.0159,-47.5779
28.7038,16.004,-29.4744,19.7123,-34.0748,1.48278,15.7512,-3.40001,0.0738184,1.49681,-4.57947,-1.1183,-7.3192,-2.24468,-0.234869,11.6825,5.64004,13.874,-14.8558,7.55375,-17.4253,-5.05312,4.33176,-8.46207,2.50469e-14,-6.67916e-14,-32.615,-26.7114,-12.3171,132.515,-42.7547,-13.3662,-7.17895,7.12502,12.7402,-36.7703,2.50469e-14,-6.67916e-14,-29.4806,19.235,-3.68325,125.619,80.9772,-40.2702,43.3839,7.12502,-13.2282,72.9442,-58.1171,-16.7621,11.3248,88.0199,-6.47712,-1.9659,25.0266,-34.8783,9.69455,-15.6318,54.6396,-36.2404,10.6895,-48.4252
28.6208,16.0655,-29.3689,19.4288,-33.6973,1.53144,15.8115,-3.69157,0.273305,1.54362,-4.90686,-0.859239,-7.29901,-2.40437,0.00178891,11.7691,5.72541,13.9987,-14.8567,7.68577,-17.569,-5.033,4.40443,-8.53904,5.4467e-14,-3.65764e-14,-32.4251,-27.1395,-11.3632,132.583,-42.946,-13.1249,-6.90962,7.12502,12.9728,-36.4863,5.4467e-14,-3.65764e-14,-28.4071,19.1348,-3.72001,125.574,80.4891,-40.2316,42.9939,7.12502,-13.1911,72.5566,-58.7852,-17.5111,11.482,88.4482,-6.74087,-2.52687,27.1171,-33.3265,9.43944,-15.4333,53.069,-36.3524,8.94333,-46.4644
28.5325,16.134,-29.2628,19.1989,-33.4231,1.61837,15.7255,-3.91389,0.465978,1.64393,-5.15434,-0.720954,-7.14989,-2.52897,0.0846473,11.8973,5.70965,14.4306,-15.0937,7.72394,-17.7056,-5.09366,4.41401,-8.67963,9.54166e-14,2.14687e-14,-32.3268,-27.7792,-10.4239,132.679,-42.9575,-13.0608,-6.85194,7.12502,13.0346,-36.4247,9.54166e-14,2.14687e-14,-26.9791,19.069,-3.84009,125.466,79.9381,-40.3813,42.4264,7.12502,-13.3354,71.9797,-59.4227,-18.112,11.56,88.4733,-7.50337,-2.93018,28.3974,-31.7457,9.30352,-15.3232,51.2246,-35.7452,9.17617,-46.8917
28.4372,16.2084,-29.1526,19.0367,-33.309,1.81997,15.5384,-4.07065,0.505892,1.6617,-5.34354,-0.580161,-7.01912,-2.62114,0.237692,11.9258,5.713,14.9079,-15.2601,7.77752,-17.9412,-5.10502,4.43289,-8.85257,8.70677e-14,0,-32.0692,-28.3297,-9.49982,132.715,-42.7724,-13.0887,-6.50194,7.12502,13.0077,-36.0764,8.70677e-14,0,-25.3886,19.0799,-3.78612,125.335,79.4678,-40.3337,42.203,7.12502,-13.2895,71.7593,-60.2467,-18.5833,11.5759,88.2068,-8.19311,-3.52147,25.7748,-30.1306,9.16722,-15.3619,49.1071,-35.1035,9.56233,-47.5761
28.3343,16.2894,-29.0339,18.8431,-33.3116,1.99567,15.4251,-4.29323,0.517187,1.53236,-5.61782,-0.344448,-7.07394,-2.75031,0.536183,12.1434,5.79578,15.1029,-15.1718,7.92017,-18.2559,-5.06503,4.52589,-9.00246,-2.46493e-14,2.54444e-14,-31.3663,-28.6035,-8.7712,132.704,-42.4397,-12.7016,-5.79516,7.12502,13.3808,-35.3455,-2.46493e-14,2.54444e-14,-24.0398,18.8441,-3.57605,124.988,78.8939,-39.9285,42.1935,7.12502,-12.8988,71.7749,-60.9254,-18.7955,11.5467,87.5945,-8.44016,-4.04043,24.9587,-28.1844,8.83745,-15.3451,46.7216,-34.743,8.76742,-46.9227
28.2298,16.3885,-28.9066,18.7106,-33.3366,1.98783,15.2985,-4.54103,0.758304,1.46076,-5.88429,-0.0748501,-7.07657,-2.88256,0.736834,12.0115,5.93827,15.1019,-14.7253,8.11256,-18.4446,-4.86272,4.63352,-9.03488,5.24792e-14,-4.25399e-14,-30.5386,-28.9122,-8.14752,132.737,-41.922,-12.2292,-5.29385,7.12502,13.8361,-34.8137,5.24792e-14,-4.25399e-14,-22.8692,18.7026,-3.49108,124.557,78.3248,-39.6106,41.8068,7.12502,-12.5924,71.4072,-61.3673,-18.857,11.6271,86.5562,-8.364,-4.42048,26.133,-26.0882,8.35335,-15.1689,44.1186,-33.8984,7.75687,-45.9218
28.1205,16.5012,-28.7777,18.6309,-33.4272,2.089,15.0039,-4.66109,0.91838,1.5348,-6.00388,0.138993,-6.82761,-2.9458,0.869118,11.1818,6.05705,15.2937,-14.006,8.24135,-18.6673,-4.45799,4.67631,-9.05393,-1.22849e-13,7.55382e-15,-29.9587,-29.4253,-7.36289,132.779,-41.2453,-12.2169,-5.0502,7.12502,13.848,-34.5692,-1.22849e-13,7.55382e-15,-21.997,18.9221,-3.63939,124.593,78.0405,-39.7599,41.8477,7.12502,-12.7363,71.4393,-61.8336,-18.8314,11.551,85.2448,-8.43498,-4.60674,27.5558,-24.1422,7.84988,-15.1459,41.5449,-31.9939,6.87664,-45.3831
28.0028,16.6121,-28.643,18.5813,-33.6182,2.18629,14.5936,-4.71505,1.0421,1.61168,-6.04658,0.358193,-6.5076,-2.97191,0.999164,10.717,6.17726,15.5462,-13.6377,8.38516,-18.9973,-4.21035,4.74235,-9.16116,5.30755e-14,-4.41302e-14,-29.3888,-29.8156,-6.58994,132.784,-40.5531,-12.4169,-4.87738,7.12502,13.6553,-34.4094,5.30755e-14,-4.41302e-14,-21.369,19.1293,-3.71437,124.727,77.8536,-40.2731,42.0441,7.12502,-13.231,71.6042,-62.184,-18.6141,11.3854,83.6219,-8.49309,-4.81815,28.6011,-22.1096,7.24964,-15.1238,38.9775,-33.1654,6.21582,-42.4681
27.887,16.6715,-28.5079,18.5555,-33.8015,2.17218,14.2259,-4.78158,1.36131,1.59922,-6.07658,0.580893,-6.32656,-2.99495,1.03044,10.5695,6.26596,15.8411,-13.4007,8.52197,-19.3319,-4.05556,4.81442,-9.30261,2.66371e-14,-1.23246e-14,-28.8653,-29.986,-5.82977,132.797,-40.0713,-12.4661,-4.54338,7.12502,13.6078,-34.0786,2.66371e-14,-1.23246e-14,-20.6518,19.1867,-3.64302,124.594,77.8534,-40.138,42.2768,7.12502,-13.1008,71.8453,-62.6196,-18.4285,11.2788,81.9667,-7.98322,-5.17689,29.1933,-20.1638,6.55634,-14.9646,36.6842,-29.5245,8.13806,-47.5794
27.7627,16.779,-28.3604,18.4846,-33.9836,2.20605,13.9911,-4.86711,1.71392,1.48429,-6.12672,0.78094,-6.33412,-3.02664,1.04118,10.4415,6.2978,16.0667,-13.0198,8.5924,-19.6024,-3.88163,4.85281,-9.40416,4.09496e-14,-5.26779e-14,-28.3888,-30.0278,-5.04745,132.737,-39.7194,-12.3854,-3.86165,7.12502,13.6856,-33.3917,4.09496e-14,-5.26779e-14,-19.9288,18.929,-3.42988,124.301,77.6765,-39.2674,42.8332,7.12502,-12.2615,72.4538,-62.5471,-18.3212,11.1762,79.7849,-7.24959,-5.43086,29.363,-18.2287,5.98989,-14.8814,34.5449,-27.0707,9.88867,-50.3016
27.6307,16.8749,-28.207,18.3809,-34.3391,2.38942,13.6745,-4.8987,1.87425,1.3173,-6.13921,0.970364,-6.33259,-3.03595,1.13459,10.52,6.37857,16.0707,-12.8166,8.71124,-19.8149,-3.80061,4.92936,-9.46994,-2.77305e-14,3.35946e-14,-27.815,-29.9166,-4.37122,132.581,-39.3449,-12.3801,-3.19577,7.12502,13.6907,-32.7254,-2.77305e-14,3.35946e-14,-19.3848,18.2984,-3.12701,123.905,77.1252,-38.5516,42.2651,7.12502,-11.5713,71.9257,-62.4549,-18.1993,10.9101,77.4467,-6.49887,-5.56439,28.3975,-16.5248,5.52026,-14.981,32.851,-24.2458,11.2065,-52.2915
27.4921,16.9694,-28.0575,18.3911,-34.7308,2.76486,13.1602,-4.79743,1.72012,1.15345,-6.02821,1.18777,-6.18175,-2.97859,1.38789,10.226,6.462,16.2994,-12.5831,8.81278,-20.1474,-3.63029,4.97927,-9.59091,-8.49804e-15,-1.04362e-14,-27.4553,-29.8766,-3.58133,132.451,-39.1532,-12.5054,-2.90214,7.12502,13.5699,-32.4399,-8.49804e-15,-1.04362e-14,-18.8174,17.7218,-2.78847,123.457,76.5387,-38.4325,41.9309,7.12502,-11.4564,71.5978,-62.5427,-18.0588,10.4988,74.9306,-5.7185,-5.89783,28.325,-15.3072,5.23051,-15.2728,31.4748,-26.1101,9.08053,-48.3857
27.3474,17.0776,-27.9204,18.4961,-34.9294,2.97725,12.3584,-5.16229,1.81157,0.247826,-6.49154,1.48137,-6.67266,-3.20227,1.71007,14.5947,6.16639,15.4447,-13.9136,8.67908,-20.0582,-4.86224,5.12415,-9.76658,7.7203e-14,-4.36332e-14,-26.0872,-28.217,-3.57497,132.351,-39.4685,-12.3502,-2.80096,7.12502,13.7195,-32.3287,7.7203e-14,-4.36332e-14,-19.81,15.5672,-3.38434,123.224,76.0243,-39.0984,43.0318,7.12502,-12.0985,72.662,-62.3917,-17.8261,10.2594,72.2114,-5.35799,-6.5105,29.6273,-14.5813,5.2991,-15.3193,30.7185,-19.4591,5.63575,-44.1597
27.196,17.1879,-27.7842,18.5186,-35.0671,2.99307,11.9407,-4.94998,2.02083,0.815198,-6.20082,1.54843,-5.85418,-3.07333,1.53574,11.7179,6.446,16.4576,-12.8233,8.96823,-20.4182,-3.9067,5.13132,-9.81393,-9.0944e-15,-1.0461e-14,-26.5988,-29.4771,-2.85368,132.133,-39.3713,-12.0321,-2.50517,7.12502,14.0261,-32.0119,-9.0944e-15,-1.0461e-14,-18.8178,16.2632,-2.76484,122.522,74.907,-39.6423,42.9525,7.12502,-12.6229,72.5511,-61.8621,-17.7664,10.3131,69.3531,-5.22886,-7.0591,29.4584,-13.9103,5.60494,-15.1303,30.3992,-17.7723,0.439298,-29.474
27.0393,17.3029,-27.6444,18.4603,-35.2224,3.13502,11.6264,-5.05156,2.03333,1.2904,-6.34206,1.7846,-5.15181,-3.14658,1.7359,9.11072,7.15032,16.337,-12.0551,9.64402,-20.5076,-3.09632,5.36644,-9.60782,7.41467e-14,-5.29264e-14,-25.8233,-30.4724,-3.07425,131.794,-38.9587,-11.7585,-2.24755,7.12502,14.2897,-31.7359,7.41467e-14,-5.29264e-14,-19.3484,16.6368,-2.63029,121.974,73.818,-39.5923,41.855,7.12502,-12.5748,71.4566,-61.1924,-17.9206,10.4041,66.4289,-4.99475,-7.54696,27.7147,-13.4345,6.16932,-15.0755,30.5697,-14.8952,-3.21891,-6.58469
26.8789,17.4148,-27.5081,18.489,-35.3078,3.28099,11.1225,-4.98456,2.09854,1.23319,-6.2581,1.88837,-4.92892,-3.1088,1.74877,9.09554,7.11214,16.6868,-11.9726,9.64173,-20.6121,-3.04472,5.3563,-9.69709,1.79403e-14,5.56597e-15,-26.0845,-30.379,-2.62399,131.625,-38.929,-11.6998,-2.21925,7.12502,14.3463,-31.7036,1.79403e-14,5.56597e-15,-19.3148,15.7609,-2.23998,121.2,72.4156,-39.3824,40.6905,7.12502,-12.3724,70.3044,-60.3454,-17.5304,10.2741,63.5123,-5.36899,-8.20566,27.0671,-13.5744,6.4511,-14.8882,31.1554,-11.941,-4.55893,13.7453
26.7145,17.5203,-27.3797,18.6254,-35.2747,3.35555,10.6204,-5.00239,2.22833,1.16377,-6.2758,2.072,-4.71655,-3.12139,1.82572,9.04729,7.13784,16.5876,-11.9298,9.67061,-20.5195,-3.02994,5.36688,-9.64307,1.12214e-13,-1.61016e-14,-26.1339,-30.2932,-2.35184,131.394,-39.0667,-12.0112,-2.11684,7.12502,14.0462,-31.6222,1.12214e-13,-1.61016e-14,-19.6458,14.8577,-1.74566,120.224,70.7699,-39.0217,38.8396,7.12502,-12.0246,68.4742,-59.3847,-16.8739,10.162,60.6531,-6.27539,-8.57249,27.0873,-14.1086,6.72626,-14.6211,32.1733,-8.90256,-2.56651,-14.7691
26.5466,17.6087,-27.2533,18.524,-35.1856,3.52709,10.3855,-5.1393,2.36805,1.11396,-6.4431,2.21049,-4.63633,-3.20653,1.89682,8.90577,7.26006,16.2107,-11.8003,9.78671,-20.4361,-2.97159,5.42856,-9.53303,1.09332e-14,-8.54774e-15,-25.9565,-30.247,-2.4379,131.159,-39.3806,-11.9776,-2.22571,7.12502,14.0786,-31.7288,1.09332e-14,-8.54774e-15,-20.5735,13.9159,-1.37646,119.62,69.7632,-38.8803,37.7009,7.12502,-11.8882,67.3434,-58.2764,-16.6693,10.2412,57.9391,-6.46008,-8.41347,23.4223,-14.6149,6.70041,-14.4006,33.5451,-5.76285,-2.5289,-21.7918
26.3775,17.6767,-27.1303,18.1375,-35.2495,3.8978,9.89486,-5.21391,2.3357,0.601538,-6.55473,2.17638,-4.90054,-3.26161,1.87982,12.333,6.72283,15.8873,-12.823,9.33429,-20.3826,-3.97451,5.36243,-9.74141,-3.68746e-14,1.53064e-14,-26.2008,-29.0349,-2.32859,131.069,-39.6764,-11.6553,-2.65604,7.12502,14.3891,-32.1373,-3.68746e-14,1.53064e-14,-21.7987,11.694,-1.11211,119.527,69.4918,-38.9873,38.2209,7.12502,-11.9915,67.8574,-57.0635,-16.6083,10.2283,55.4367,-6.2344,-7.82586,16.0421,-15.113,6.5988,-14.3495,35.3619,-3.46303,-2.64134,-20.0487
26.2086,17.7383,-27.0071,17.7363,-35.4259,4.2557,9.77616,-4.89241,2.0172,1.39653,-6.18807,2.23018,-3.96618,-3.0805,1.99455,8.72476,7.16597,16.2039,-11.6172,9.65026,-20.4609,-2.91288,5.35389,-9.52365,-1.5545e-13,5.68524e-14,-26.9033,-30.4515,-2.09945,130.786,-39.3523,-11.7847,-2.9625,7.12502,14.2645,-32.4526,-1.5545e-13,5.68524e-14,-21.7145,12.3169,0.305267,119.104,68.9581,-39.1603,39.1955,7.12502,-12.1583,68.8222,-55.8112,-16.5158,10.2575,53.1859,-6.49614,-6.67217,11.3185,-15.7745,6.59349,-14.3289,37.4584,-2.0716,-2.91426,-21.1595
26.0379,17.795,-26.8805,17.3885,-35.4841,4.33729,9.95339,-4.78738,2.16003,1.26174,-6.02386,2.21022,-4.22438,-2.99988,1.89946,8.87824,7.08376,16.3633,-11.2761,9.62667,-20.3607,-2.84471,5.33604,-9.51006,4.79071e-14,-5.1684e-15,-27.435,-29.9423,-2.1742,130.666,-39.5749,-12.2776,-3.18973,7.12502,13.7895,-32.7127,4.79071e-14,-5.1684e-15,-22.2363,11.0031,1.25564,118.925,68.8538,-39.4042,39.4775,7.12502,-12.3934,69.0901,-54.3734,-16.5357,10.6841,51.1734,-6.65968,-5.40625,9.98637,-16.4406,6.50931,-14.0375,39.63,-1.08147,-3.4208,-20.7694
25.8659,17.8367,-26.7669,16.9767,-35.5061,4.54465,10.1202,-4.67886,2.14393,1.2099,-5.87697,2.13726,-4.37889,-2.92643,1.83161,8.5707,7.04851,16.5306,-10.5387,9.65047,-20.2232,-2.57633,5.3188,-9.43789,-7.59357e-14,4.37326e-15,-27.9804,-29.6229,-2.49056,130.625,-39.6395,-12.7038,-3.56426,7.12502,13.3787,-33.1147,-7.59357e-14,4.37326e-15,-23.0319,9.81475,2.0117,118.574,68.9086,-38.9155,38.8034,7.12502,-11.9221,68.4439,-53.0226,-16.651,11.1513,49.5145,-6.5322,-4.40431,10.4966,-17.2733,6.56172,-13.836,41.937,-0.33753,-3.9035,-18.3724
25.6931,17.8673,-26.6168,16.4785,-36.1184,4.61531,9.95703,-4.42203,2.26262,1.4217,-5.54324,1.99662,-4.0959,-2.76578,1.54839,8.02771,7.13636,16.4996,-9.79033,9.78531,-20.0725,-2.25492,5.35345,-9.31252,-1.39149e-14,4.73108e-14,-28.3212,-29.4627,-2.93926,130.547,-39.4959,-12.9621,-3.86519,7.12502,13.1297,-33.4318,-1.39149e-14,4.73108e-14,-24.0582,8.86217,2.84346,118.098,68.9936,-38.3299,37.9565,7.12502,-11.3574,67.629,-51.5977,-16.6457,11.7303,48.1369,-6.09602,-3.30035,10.9997,-17.7187,6.8974,-13.871,44.2344,-0.243295,-4.01482,-16.4365
25.5251,17.8849,-26.5235,16.347,-36.0057,4.66968,9.88654,-4.36857,2.32762,1.35399,-5.46681,1.98597,-4.13508,-2.72909,1.48908,8.07258,7.11071,16.5709,-9.37108,9.81519,-19.9983,-2.13876,5.36332,-9.28337,7.65321e-14,-1.59028e-14,-28.7496,-29.1449,-3.3576,130.446,-39.5352,-13.3074,-3.68194,7.12502,12.7968,-33.2697,7.65321e-14,-1.59028e-14,-25.1777,7.7326,3.64249,117.841,69.3376,-38.5994,37.878,7.12502,-11.6174,67.536,-50.5499,-16.981,12.7046,47.1892,-5.84239,-2.7382,9.57617,-19.0249,7.16901,-13.5595,46.6033,-0.466827,-4.61452,-16.6307
25.3526,17.8874,-26.3943,15.8667,-36.402,4.56009,9.89556,-4.22435,2.50904,1.3778,-5.26059,1.91103,-4.13943,-2.63049,1.2834,9.02445,6.96613,16.4355,-9.48314,9.71492,-19.9899,-2.36148,5.35969,-9.32156,-2.46493e-14,2.74323e-14,-29.001,-28.6358,-3.93959,130.394,-39.5123,-13.8243,-3.52424,7.12502,12.2985,-33.1426,-2.46493e-14,2.74323e-14,-26.7162,6.55268,4.39736,117.719,69.736,-39.0358,38.836,7.12502,-12.0382,68.4697,-48.983,-17.0152,13.5731,46.5123,-5.55397,-1.9491,7.15101,-19.5849,7.37386,-13.3244,48.8447,-1.23216,-4.29297,-16.7747
25.1844,17.87,-26.2747,15.2868,-36.6342,4.74537,9.99646,-4.07879,2.47056,1.48624,-5.07606,1.80028,-4.08877,-2.53924,1.16739,9.23304,6.93284,16.291,-9.49062,9.67492,-19.9965,-2.41446,5.35396,-9.31327,-2.42517e-14,-9.14409e-15,-29.3289,-28.4264,-4.55884,130.387,-39.3441,-14.4288,-3.76275,7.12502,11.7156,-33.4151,-2.42517e-14,-9.14409e-15,-28.0364,5.56094,5.49168,117.333,69.3951,-39.4914,39.5121,7.12502,-12.4775,69.1196,-47.4834,-17.3253,14.2136,46.1368,-5.55271,-1.21109,6.80771,-20.4395,7.36635,-13.3387,51.0519,-2.0452,-3.79655,-16.0542
25.0179,17.8462,-26.1468,14.4547,-36.8223,4.88687,10.4371,-3.88622,2.61409,1.58183,-4.79938,1.59085,-4.26222,-2.40511,0.86194,9.43676,6.81358,16.3619,-9.23857,9.57652,-19.9606,-2.39502,5.30868,-9.31663,5.42682e-14,-2.90226e-14,-29.9536,-27.986,-5.10094,130.455,-39.2096,-15.172,-3.98099,7.12502,10.9988,-33.6729,5.42682e-14,-2.90226e-14,-29.2225,4.13353,6.74424,116.82,68.6537,-40.2625,39.6995,7.12502,-13.2208,69.2603,-45.5386,-17.71,14.7494,45.8414,-6.2654,-0.00856359,11.6931,-21.0089,7.32198,-13.3457,53.0396,-3.10667,-3.32559,-16.1131
24.8506,17.8207,-26.0379,14.1952,-36.8797,4.71623,10.493,-3.68587,2.93957,1.72372,-4.50594,1.45714,-4.17809,-2.26508,0.498741,9.2928,6.72357,16.5576,-9.10886,9.47836,-19.9187,-2.34448,5.24461,-9.32396,-4.21423e-14,-1.59028e-14,-30.6636,-27.8237,-5.76873,130.57,-38.8761,-15.8439,-3.91789,7.12502,10.3507,-33.6432,-4.21423e-14,-1.59028e-14,-30.3218,3.24089,8.01827,116.242,67.8154,-40.3687,40.3671,7.12502,-13.3232,69.9212,-44.0202,-17.7011,15.5583,45.5954,-8.07682,0.464746,11.5213,-22.1331,7.49761,-13.0309,54.9059,-4.12721,-3.21316,-18.6585
24.6776,17.7894,-25.9219,13.8192,-37.1597,4.50853,10.4676,-3.39515,3.14436,2.09724,-4.1182,1.33474,-3.79052,-2.07395,0.18546,8.95845,6.67589,16.8823,-9.15538,9.40047,-20.0249,-2.29207,5.18654,-9.39907,-5.04913e-14,2.3059e-14,-31.3157,-28.0863,-6.4218,130.643,-38.563,-16.3587,-3.71493,7.12502,9.85411,-33.4643,-5.04913e-14,2.3059e-14,-31.2368,2.92195,9.42321,115.593,66.7251,-40.0152,40.971,7.12502,-12.9824,70.5471,-42.3247,-17.1972,16.0893,45.2518,-10.3561,-0.130017,7.66101,-23.0268,7.83526,-12.7415,56.5379,-5.01157,-3.17459,-19.8141
24.5017,17.7453,-25.8029,13.2296,-37.4392,4.58001,10.6273,-3.13897,3.09339,2.28929,-3.79108,1.18719,-3.67739,-1.91106,0.0169357,8.88027,6.54871,17.2315,-8.9015,9.27507,-20.2048,-2.20236,5.11815,-9.50712,-2.10712e-14,7.95139e-16,-31.8848,-28.1606,-6.99284,130.727,-38.5191,-16.9852,-3.77497,7.12502,9.24965,-33.5521,-2.10712e-14,7.95139e-16,-32.4714,2.38395,10.587,114.922,65.8441,-39.7163,40.9864,7.12502,-12.6943,70.5806,-40.6004,-16.5984,16.1841,44.8369,-12.5162,-1.16925,7.01516,-23.9079,8.03611,-12.7274,58.0019,-5.83572,-3.11018,-18.6368
24.3265,17.6939,-25.6879,12.5799,-37.6225,4.74296,11.0127,-3.02555,3.02598,2.23634,-3.63678,1.04037,-3.9468,-1.83649,-0.0963359,9.35929,6.38739,17.1931,-8.66515,9.14416,-20.1352,-2.24956,5.07108,-9.49783,1.31198e-14,1.98785e-14,-32.141,-27.8585,-7.74353,130.857,-38.5478,-17.5563,-4.02236,7.12502,8.69849,-33.8231,1.31198e-14,1.98785e-14,-34.3218,1.70697,11.365,114.436,65.5785,-39.3363,40.7405,7.12502,-12.3279,70.3571,-38.8524,-15.7539,16.0629,44.3589,-14.7669,-2.48029,10.0597,-24.8619,8.07384,-12.7946,59.3434,-6.72747,-2.9113,-18.8832
24.1535,17.6279,-25.5801,12.0635,-37.8548,4.85982,11.4504,-2.89753,2.94358,2.10374,-3.45981,0.941791,-4.32357,-1.75141,-0.151361,9.77669,6.32258,16.8921,-8.40673,9.11491,-19.8752,-2.28349,5.06986,-9.37256,-4.05521e-14,-7.15625e-15,-32.2717,-27.5462,-8.43936,131.027,-38.6129,-17.8622,-4.02797,7.12502,8.40337,-33.8408,-4.05521e-14,-7.15625e-15,-36.3325,1.22921,12.1507,114.439,66.0021,-39.7016,40.9077,7.12502,-12.6801,70.5028,-37.2724,-14.4592,15.8918,43.9189,-17.1979,-4.10242,12.5725,-26.0376,8.19527,-12.8547,60.6421,-7.60254,-2.63662,-20.4816
23.9836,17.5466,-25.4735,11.7838,-38.1017,4.7165,11.8183,-2.68041,3.07906,2.09033,-3.1453,0.861196,-4.54373,-1.60043,-0.341538,9.60051,6.24962,16.9522,-8.04917,9.03541,-19.8675,-2.16444,5.01927,-9.35774,1.5704e-14,-3.57812e-14,-32.6366,-27.4836,-8.91801,131.323,-38.6014,-18.302,-4.10164,7.12502,7.97887,-33.931,1.5704e-14,-3.57812e-14,-38.0734,1.06936,12.9339,114.546,66.4214,-40.2976,41.4016,7.12502,-13.2547,70.9602,-35.8666,-13.1076,15.9498,43.6133,-19.575,-5.86907,12.5479,-27.3825,8.47772,-12.7309,61.9661,-8.68659,-2.51387,-23.1747
23.8184,17.4605,-25.3645,11.5467,-38.2722,4.4501,12.0678,-2.46789,3.41062,2.28574,-2.8243,0.760924,-4.48666,-1.4464,-0.677804,9.31678,6.1657,17.147,-8.00376,8.9012,-20.0268,-2.11061,4.94182,-9.43037,-2.5842e-14,-7.95139e-16,-32.9852,-27.6896,-9.44486,131.674,-38.3823,-18.6206,-4.22169,7.12502,7.67136,-34.0626,-2.5842e-14,-7.95139e-16,-39.5236,1.31622,13.5897,114.468,66.9241,-40.5563,41.3576,7.12502,-13.504,70.8997,-34.5275,-11.831,16.0793,43.5943,-21.7407,-7.69804,10.8891,-28.7904,8.73455,-12.5324,63.2833,-9.92939,-2.64534,-23.7905
23.6618,17.3645,-25.2588,11.3796,-38.3509,4.22054,12.2785,-2.31964,3.7609,2.41397,-2.5813,0.723333,-4.475,-1.33098,-0.947817,9.52333,6.1593,16.94,-8.38766,8.85222,-20.0321,-2.27453,4.9338,-9.42457,-1.47101e-14,-2.46493e-14,-33.0465,-27.8326,-9.92906,132.015,-38.1801,-18.8706,-4.30076,7.12502,7.43008,-34.1503,-1.47101e-14,-2.46493e-14,-41.2677,1.68822,14.2212,114.652,67.9394,-40.7908,40.678,7.12502,-13.73,70.2051,-33.5107,-10.4358,16.1181,44.0363,-23.7785,-9.21047,10.5811,-30.4787,8.91549,-12.3949,64.5555,-10.8193,-2.93807,-21.9372
23.516,17.2604,-25.1609,11.4082,-38.3157,3.93169,12.468,-2.18892,4.22088,2.45229,-2.34374,0.68221,-4.54728,-1.22118,-1.28211,9.49924,6.15079,16.78,-8.56147,8.80312,-19.9438,-2.34206,4.90905,-9.37418,-7.95139e-16,1.51076e-14,-33.1567,-27.9965,-10.21,132.381,-38.2789,-19.4998,-4.41832,7.12502,6.82272,-34.2884,-7.95139e-16,1.51076e-14,-43.0391,2.19123,14.7182,114.986,68.5804,-40.8042,40.4249,7.12502,-13.7429,69.951,-33.0084,-9.11761,16.2196,45.017,-25.5154,-9.96476,11.9727,-32.5136,9.01874,-12.2677,65.7779,-11.4086,-2.7492,-21.3388
23.376,17.1607,-25.0654,11.253,-38.3715,3.74225,12.8495,-1.9986,4.65161,2.55261,-2.02871,0.498373,-4.6545,-1.074,-1.7601,9.25068,6.05059,16.9356,-8.52596,8.66222,-19.8672,-2.31335,4.8192,-9.36265,-3.02153e-14,3.18055e-15,-33.5042,-28.3375,-10.3741,132.815,-38.3895,-19.8765,-4.54605,7.12502,6.45905,-34.4276,-3.02153e-14,3.18055e-15,-44.1143,2.75874,14.8146,114.867,68.8549,-40.8545,41.2507,7.12502,-13.7914,70.7735,-32.7864,-8.08191,16.2445,46.4981,-26.8338,-9.9501,14.2005,-34.4297,9.01618,-12.3021,66.8769,-11.9253,-1.76973,-22.5774
23.2407,17.0592,-24.9657,11.0339,-38.6296,3.40084,13.432,-1.80864,5.18462,2.63764,-1.68352,0.348364,-4.87997,-0.916745,-2.26484,9.53367,5.84312,17.0176,-8.80089,8.4007,-19.8465,-2.48863,4.69787,-9.40081,7.07673e-14,-3.57812e-14,-33.674,-28.5617,-10.5431,133.278,-38.1278,-20.0167,-4.85334,7.12502,6.32368,-34.7389,7.07673e-14,-3.57812e-14,-45.1569,3.27045,14.6738,114.379,68.8823,-40.7771,42.5302,7.12502,-13.7168,72.0581,-32.712,-7.33154,16.4313,48.2608,-27.808,-9.9333,15.1509,-36.1634,9.162,-12.2656,67.8786,-12.4666,-0.847733,-23.985
23.1125,16.9481,-24.8565,10.9897,-38.9034,2.80266,13.9302,-1.68198,5.95562,2.72706,-1.38203,0.307062,-5.05152,-0.78406,-2.78925,9.96094,5.64947,16.8375,-9.20731,8.12788,-19.8071,-2.74181,4.58427,-9.4002,-3.61788e-14,-2.38542e-15,-33.4263,-28.6364,-10.8527,133.61,-37.6543,-20.4323,-4.81715,7.12502,5.92242,-34.7144,-3.61788e-14,-2.38542e-15,-46.7107,3.99052,14.5392,113.906,68.0275,-40.1066,43.6577,7.12502,-13.0705,73.2282,-32.65,-7.08214,16.9021,50.0329,-28.6411,-10.0652,13.998,-37.9323,9.47318,-12.0859,68.816,-13.2334,-0.42186,-24.3547
22.9853,16.8451,-24.7319,10.8415,-39.1496,2.22322,14.3773,-1.54096,6.72968,2.94984,-1.06411,0.289591,-5.04093,-0.636764,-3.29993,9.91685,5.61749,16.6234,-9.31064,8.04007,-19.7441,-2.79361,4.5424,-9.34513,8.34896e-14,1.27222e-14,-33.1087,-28.787,-11.0486,133.849,-37.2117,-20.8018,-4.21553,7.12502,5.56574,-34.1224,8.34896e-14,1.27222e-14,-48.2845,4.83552,14.3829,114.013,67.9542,-39.6851,43.1173,7.12502,-12.6642,72.7133,-32.1925,-7.18992,17.3244,51.5236,-29.6069,-9.91761,12.7149,-39.5581,9.79956,-12.0112,69.6009,-13.9596,-0.100886,-22.7254
22.857,16.7501,-24.6131,10.7153,-39.2614,1.90509,14.6256,-1.26263,7.17851,3.13816,-0.624602,0.263729,-4.9311,-0.421525,-3.6633,9.58036,5.50028,16.9699,-9.05478,7.89118,-19.9721,-2.66441,4.45414,-9.45598,7.55382e-15,-5.56597e-15,-33.2973,-29.1257,-10.6599,134.118,-36.8053,-20.8103,-3.86275,7.12502,5.55753,-33.7699,7.55382e-15,-5.56597e-15,-49.2935,5.41943,14.3442,114.157,68.3629,-40.1328,42.7564,7.12502,-13.0958,72.3253,-31.6569,-7.47473,17.5747,52.5318,-30.6586,-9.3915,12.6716,-41.4807,10.2509,-12.2821,70.1484,-14.2333,0.433046,-21.2542
22.7213,16.6644,-24.4848,10.4253,-39.546,1.68992,14.8229,-0.845662,7.45428,3.38259,-0.0393336,0.184601,-4.70746,-0.126557,-4.01367,9.75152,5.1827,17.5882,-9.21018,7.52803,-20.2749,-2.76916,4.27699,-9.68672,6.36111e-15,-2.62396e-14,-33.482,-29.5385,-10.2274,134.257,-36.215,-20.6168,-3.9831,7.12502,5.74436,-33.8852,6.36111e-15,-2.62396e-14,-49.9525,5.97074,14.1899,114.252,68.6595,-39.59,41.89,7.12502,-12.5725,71.4917,-30.8065,-7.85575,17.7155,53.1644,-31.7202,-8.82033,12.7703,-43.0903,10.9957,-12.7718,70.4046,-14.4991,1.09485,-21.6838
22.5723,16.6391,-24.3492,10.1827,-39.8613,1.42343,15.0168,-0.550455,7.65481,3.58548,0.380516,0.179883,-4.54113,0.0866421,-4.2107,10.0686,5.05012,17.5992,-9.49354,7.37652,-20.1383,-2.94191,4.20797,-9.67099,-7.43455e-14,1.03368e-14,-32.9813,-29.6891,-10.3061,134.289,-35.5701,-20.3979,-3.87148,7.12502,5.95566,-33.7678,-7.43455e-14,1.03368e-14,-50.9594,6.63458,13.6252,114.436,69.048,-38.3469,40.969,7.12502,-11.3739,70.6405,-29.6494,-8.29582,17.9269,53.3491,-32.7305,-8.44053,12.667,-44.3291,11.8592,-13.296,70.1441,-14.6457,1.47325,-22.5581
22.424,16.5779,-24.2145,9.98053,-40.1108,1.32442,15.0625,-0.346337,7.69041,3.69416,0.649511,0.174328,-4.41436,0.224994,-4.28598,10.0065,5.08781,17.2435,-9.33962,7.41463,-19.7562,-2.91255,4.2154,-9.46768,-5.60573e-14,4.21423e-14,-32.3705,-29.7505,-10.3961,134.399,-35.1402,-20.0618,-3.53047,7.12502,6.28012,-33.4174,-5.60573e-14,4.21423e-14,-52.0318,7.20368,12.8547,114.77,69.4055,-37.7546,41.0518,7.12502,-10.8025,70.754,-28.6856,-8.76323,17.9584,53.5024,-33.5413,-8.18646,11.8734,-45.8994,12.7743,-14.0542,69.8546,-14.361,1.62472,-22.2327
22.2718,16.5207,-24.0798,9.89095,-40.4317,1.09678,14.9602,-0.0888791,7.7962,3.83372,0.98321,0.153268,-4.16342,0.40069,-4.42537,10.1101,5.04234,16.9361,-9.27733,7.36013,-19.3678,-2.95433,4.18168,-9.2845,-9.34288e-14,2.38542e-14,-31.7944,-29.9869,-10.4553,134.393,-34.7,-19.4523,-3.40865,7.12502,6.86853,-33.2772,-9.34288e-14,2.38542e-14,-52.7513,7.78306,12.0522,115.104,69.7017,-37.7084,41.3623,7.12502,-10.758,71.0668,-27.6684,-9.09138,18.0512,53.4719,-33.9788,-8.10321,10.4766,-47.4197,13.8487,-14.7859,69.3525,-13.856,1.85329,-21.8293
22.1177,16.4781,-23.9401,9.97694,-40.7423,0.740858,14.7714,0.22346,7.91417,3.8848,1.39203,0.199955,-3.94985,0.610654,-4.50903,10.3185,4.92281,16.7313,-9.10765,7.23984,-19.0277,-2.98871,4.11857,-9.13699,7.51406e-14,-4.77083e-15,-31.1334,-30.0293,-10.5793,134.175,-34.1292,-18.7304,-3.4396,7.12502,7.56541,-33.2843,7.51406e-14,-4.77083e-15,-53.2723,8.34957,11.1723,115.396,70.1402,-37.3063,41.2226,7.12502,-10.3701,70.9469,-26.7098,-9.38916,18.2303,53.4485,-34.5026,-7.77473,9.53317,-49.0218,14.9375,-15.4738,68.7987,-13.3884,2.29878,-23.8109
21.9618,16.4505,-23.7886,10.1074,-41.0023,0.505193,14.4778,0.586292,7.86521,3.86395,1.83935,0.258505,-3.75667,0.838949,-4.48669,10.0341,4.86973,16.7588,-8.50842,7.2047,-18.8428,-2.78156,4.07879,-9.04139,-9.58142e-14,2.78299e-14,-30.5308,-29.9254,-10.7063,133.893,-33.6733,-18.243,-3.46547,7.12502,8.03585,-33.2927,-9.58142e-14,2.78299e-14,-53.5897,8.88954,10.2168,115.72,70.3747,-36.5833,41.2649,7.12502,-9.67261,71.0229,-25.6647,-9.71792,18.2722,53.186,-35.1186,-6.98152,9.49984,-50.6766,15.9527,-16.3376,68.0716,-12.8344,2.62463,-26.8782
21.808,16.3947,-23.6288,10.3402,-41.3329,0.0534929,14.2074,0.895604,7.96184,3.84581,2.23821,0.301505,-3.57337,1.04256,-4.55137,9.80614,4.9264,16.8203,-8.04611,7.31699,-18.6787,-2.59361,4.1155,-8.9675,3.65764e-14,2.8625e-14,-29.7855,-29.7602,-11.2655,133.629,-33.4985,-17.8406,-3.35339,7.12502,8.42416,-33.1654,3.65764e-14,2.8625e-14,-53.8603,9.39253,9.02654,116.007,70.4764,-36.1537,41.6959,7.12502,-9.25812,71.4727,-24.526,-9.8235,18.4261,52.8246,-35.6317,-6.0725,10.3765,-52.3937,16.9248,-16.9745,67.3878,-12.1852,2.58903,-27.306
21.6482,16.3899,-23.4659,10.6584,-41.5613,-0.633163,13.9705,1.03969,8.30609,3.72821,2.46463,0.357256,-3.52482,1.15245,-4.71529,10.3544,4.95078,16.5513,-7.99846,7.41506,-18.3788,-2.67963,4.17906,-8.84437,2.22639e-14,-1.74931e-14,-28.9015,-29.3197,-12.1486,133.384,-33.6288,-17.3714,-3.17199,7.12502,8.877,-32.9653,2.22639e-14,-1.74931e-14,-54.2849,9.64649,7.5962,116.287,70.7615,-36.3573,42.6279,7.12502,-9.45453,72.3959,-23.066,-9.87291,18.821,52.0731,-35.9441,-5.9206,9.62611,-53.7188,17.7131,-17.3235,66.3381,-11.4381,2.50931,-27.1655
21.4833,16.3974,-23.3006,10.9172,-41.7464,-1.2175,13.709,1.30805,8.45355,3.85066,2.80487,0.39285,-3.19824,1.33742,-4.79738,9.43538,5.00973,16.6646,-7.42341,7.44406,-18.2857,-2.35204,4.14909,-8.76786,-6.52014e-14,-6.36111e-15,-28.3398,-29.3934,-12.8795,133.055,-33.6447,-17.1616,-2.89616,7.12502,9.07939,-32.6807,-6.52014e-14,-6.36111e-15,-54.1001,10.465,6.40875,116.559,71.0181,-37.8378,43.9414,7.12502,-10.8828,73.6394,-21.5095,-9.91859,19.136,51.1153,-35.9283,-5.956,7.89526,-54.9071,18.4895,-17.7598,65.1048,-10.5477,2.46714,-30.203
21.3136,16.4256,-23.1239,11.0249,-42.0124,-1.55028,13.3534,1.56432,8.46135,3.85654,3.10868,0.379026,-2.95404,1.4997,-4.84308,9.13744,4.92206,16.6987,-7.27102,7.2954,-18.3541,-2.28057,4.06479,-8.77859,-8.38871e-14,3.26007e-14,-27.7401,-29.1353,-13.7615,132.668,-33.4586,-17.2398,-2.65725,7.12502,9.00392,-32.4451,-8.38871e-14,3.26007e-14,-54.049,11.0261,5.1056,116.889,71.1315,-39.3088,44.3948,7.12502,-12.3014,74.013,-19.7851,-9.86176,19.1488,49.8442,-35.5299,-5.28315,7.74502,-55.8371,19.2545,-18.3879,63.5997,-9.61134,2.15632,-32.1344
21.1419,16.4634,-22.9425,11.0981,-42.2653,-2.04108,13.3345,1.71478,8.39615,3.81065,3.30366,0.501317,-2.97651,1.59303,-4.70487,8.87725,4.99097,16.4689,-7.24624,7.32102,-18.4143,-2.2307,4.07525,-8.74668,2.18663e-14,3.18055e-15,-26.7817,-28.6946,-14.8321,132.282,-33.412,-17.1859,-2.73349,7.12502,9.05596,-32.5191,2.18663e-14,3.18055e-15,-54.2991,11.4659,3.60797,117.109,71.0305,-38.7583,43.7281,7.12502,-11.7706,73.3774,-17.8112,-9.76122,19.2227,48.4314,-34.8862,-4.93208,6.21817,-56.4531,19.9847,-18.748,61.9609,-8.55432,1.57473,-31.4004
20.9669,16.5034,-22.7581,11.0542,-42.4673,-2.59949,13.4929,1.8467,8.30408,3.78286,3.48693,0.656435,-3.08304,1.67654,-4.52435,8.38123,5.14601,16.2231,-6.935,7.46803,-18.3559,-2.04264,4.13105,-8.65079,6.83819e-14,-1.98785e-14,-25.9453,-28.2511,-15.8735,131.894,-33.5474,-16.8777,-2.80968,7.12502,9.35332,-32.5822,6.83819e-14,-1.98785e-14,-54.4069,11.9206,2.10845,117.188,70.6101,-38.1112,43.4215,7.12502,-11.1466,73.1055,-15.5899,-9.63724,19.3172,46.9524,-33.9375,-5.22971,2.51162,-56.7294,20.6711,-18.9194,60.2519,-7.35277,0.865749,-29.915
20.7893,16.5489,-22.5654,10.8501,-42.5178,-2.87465,13.3302,1.93488,8.28671,3.73109,3.58989,0.646203,-3.03604,1.72923,-4.53278,8.47535,5.07195,16.007,-6.92082,7.35439,-18.3245,-2.08525,4.08154,-8.60839,-1.47101e-14,-4.37326e-14,-25.6023,-27.7909,-16.8021,131.569,-33.8361,-16.6585,-2.59401,7.12502,9.56487,-32.3569,-1.47101e-14,-4.37326e-14,-54.2663,12.2505,0.675301,117.334,70.2517,-38.1008,43.3923,7.12502,-11.1365,73.0768,-13.382,-9.60855,19.1852,45.5134,-32.8788,-4.52898,1.80363,-56.8952,21.1432,-19.3043,58.4924,-5.92044,0.144587,-28.8239
20.6087,16.6041,-22.3683,10.8565,-42.5513,-3.19034,12.9106,1.96094,8.39306,3.48785,3.61653,0.580901,-3.05015,1.73823,-4.65006,9.45066,4.89946,15.7837,-7.31,7.17251,-18.3862,-2.40199,4.0397,-8.64934,-2.80286e-14,3.4191e-14,-25.4288,-26.9351,-17.7698,131.341,-34.2711,-16.6476,-2.41535,7.12502,9.57532,-32.1778,-2.80286e-14,3.4191e-14,-54.1402,12.3057,-0.85388,117.543,70.0604,-38.0148,43.0341,7.12502,-11.0536,72.723,-11.4897,-9.63653,19.114,44.1741,-31.5551,-3.21443,3.11756,-57.174,21.6119,-19.7104,56.6897,-4.10605,-0.481582,-30.7655
20.4254,16.6701,-22.1667,11.0594,-42.63,-3.62947,12.5,2.03964,8.29428,3.59052,3.66276,0.596371,-2.71884,1.77954,-4.55812,8.15917,5.156,15.9238,-6.80677,7.40462,-18.6768,-1.97706,4.10884,-8.69314,1.03368e-14,1.66979e-14,-24.7089,-26.7207,-19.0442,130.953,-34.4048,-16.7128,-2.38633,7.12502,9.5125,-32.1516,1.03368e-14,1.66979e-14,-53.9226,13.3367,-2.21837,117.664,69.6419,-38.415,43.1737,7.12502,-11.4395,72.8416,-9.83889,-9.70943,19.1356,42.9508,-29.775,-2.39013,2.78948,-57.3981,22.0985,-19.9713,54.8337,-2.29289,-0.986385,-34.6472
20.2421,16.7399,-21.9613,11.1997,-42.6308,-4.01312,12.0037,2.08728,8.25682,3.50419,3.68291,0.601224,-2.53938,1.79719,-4.50983,8.08442,5.14168,15.861,-6.67474,7.37267,-18.7908,-1.92986,4.09465,-8.71314,1.39149e-15,-3.97569e-15,-24.3842,-26.1637,-20.0281,130.688,-34.5995,-16.8166,-2.36186,7.12502,9.41227,-32.1317,1.39149e-15,-3.97569e-15,-53.7034,13.9105,-3.64529,117.774,69.5319,-38.4129,43.2413,7.12502,-11.4375,72.9094,-8.21003,-9.88581,19.0991,41.8649,-27.6873,-1.49033,2.21307,-57.4214,22.4811,-20.2088,52.9452,-0.7588,-1.39196,-37.296
20.0593,16.8203,-21.7507,11.2474,-42.5748,-4.38662,11.4703,2.13034,8.2792,3.31455,3.70925,0.6341,-2.4449,1.81173,-4.46758,8.95755,4.95282,15.6134,-6.91877,7.16636,-18.8021,-2.1957,4.03586,-8.72363,-2.94201e-14,-1.74931e-14,-24.5193,-25.4277,-20.5656,130.558,-34.9774,-16.7638,-2.40262,7.12502,9.46322,-32.1702,-2.94201e-14,-1.74931e-14,-53.3656,14.151,-4.92481,117.886,69.5966,-37.6471,42.5312,7.12502,-10.6989,72.2387,-6.5941,-10.0854,19.0341,40.9514,-25.2478,0.172591,5.45581,-57.1668,22.7468,-20.2947,51.0354,0.738007,-1.70066,-35.8834
19.8764,16.9146,-21.5316,11.2929,-42.4694,-4.94803,11.1533,2.15575,8.3006,3.44429,3.70981,0.769774,-2.14222,1.82783,-4.3149,8.09952,5.14327,15.5527,-6.53296,7.3406,-18.9794,-1.90189,4.09205,-8.71969,-6.4605e-14,-6.75868e-15,-24.2765,-25.2592,-21.0605,130.257,-35.2167,-16.5114,-2.48143,7.12502,9.70681,-32.2378,-6.4605e-14,-6.75868e-15,-53.005,15.0349,-5.85036,118.016,69.0756,-36.6512,41.402,7.12502,-9.73814,71.1568,-4.98536,-10.262,19.0387,40.2662,-22.3745,2.93138,15.9989,-56.5201,22.8153,-19.9277,49.1361,2.28746,-1.6621,-30.5736
19.6906,17.0029,-21.3069,11.1411,-42.4992,-5.30845,10.9448,2.19573,8.29756,3.34154,3.75032,0.733681,-2.12845,1.84738,-4.34724,8.04503,5.17074,15.5498,-6.2241,7.40234,-18.9808,-1.79356,4.11786,-8.7067,-4.03533e-14,2.38542e-15,-24.5352,-24.7572,-21.4425,130.084,-35.4637,-16.0998,-2.54092,7.12502,10.1039,-32.2783,-4.03533e-14,2.38542e-15,-52.455,15.3168,-6.78628,118.292,68.5921,-36.2229,40.7398,7.12502,-9.32486,70.5136,-3.42907,-10.4858,18.756,39.8385,-19.1258,5.11794,26.7471,-55.6386,23.0195,-19.7401,47.3493,3.54499,-1.74256,-30.7729
19.5042,17.0796,-21.0838,11.0742,-42.6767,-5.50926,10.6642,2.26176,8.0421,3.08514,3.8035,0.683877,-2.25208,1.86425,-4.25604,8.1653,5.15529,15.3761,-5.91968,7.41385,-18.8353,-1.73887,4.12385,-8.62415,-1.25831e-13,1.78906e-14,-24.8524,-24.1076,-21.8904,129.938,-35.5583,-15.683,-2.54131,7.12502,10.5059,-32.2588,-1.25831e-13,1.78906e-14,-51.9685,15.3193,-7.59953,118.765,68.8111,-36.8702,41.3595,7.12502,-9.9494,71.1043,-2.30489,-10.8341,18.3653,39.6721,-15.642,5.85175,33.0223,-54.9741,23.402,-19.8276,45.7994,4.44327,-2.02107,-35.6596
19.3241,17.1473,-20.8631,11.4456,-42.8137,-6.10027,10.3468,2.27052,7.99047,2.75413,3.80731,0.762136,-2.43441,1.85173,-4.13963,8.46692,5.16859,15.1021,-5.83159,7.44735,-18.7561,-1.77379,4.15457,-8.56121,7.93151e-14,6.36111e-15,-24.9893,-23.3719,-22.2247,129.626,-35.4394,-15.5984,-2.3789,7.12502,10.5876,-32.0922,7.93151e-14,6.36111e-15,-51.6433,15.2366,-8.35856,119.287,69.0849,-37.4963,41.8599,7.12502,-10.5534,71.575,-1.77861,-11.8814,18.3268,39.8852,-12.3388,4.93835,30.4523,-54.5138,23.6534,-19.5004,44.4664,5.31593,-1.80162,-35.4784
19.1494,17.1952,-20.64,11.7797,-42.9537,-6.70668,10.0006,2.27577,8.04215,2.65208,3.79498,0.746831,-2.34762,1.84788,-4.1669,8.24063,5.26446,15.0197,-5.77624,7.54916,-18.7072,-1.70678,4.19437,-8.51783,3.23025e-14,-2.44505e-14,-25.1389,-23.0958,-22.4196,129.276,-35.2634,-15.6903,-2.25389,7.12502,10.4989,-31.9717,3.23025e-14,-2.44505e-14,-51.2197,15.5835,-9.26925,119.588,68.4261,-36.9713,41.6722,7.12502,-10.047,71.4124,-1.52115,-13.7982,18.327,40.4095,-9.55534,2.07653,2.46231,-54.0233,23.8722,-19.0654,43.4436,5.69513,-1.78874,-36.8385
18.9682,17.2781,-20.42,12.1223,-43.2136,-7.3122,9.60024,2.26067,8.06299,2.62644,3.74083,0.686652,-2.15479,1.82981,-4.21418,7.70945,5.44014,15.1195,-5.50261,7.76421,-18.7385,-1.49465,4.27509,-8.51004,-9.09937e-14,-1.19271e-15,-25.1447,-22.905,-22.7984,129.029,-35.0893,-15.6907,-2.31264,7.12502,10.4985,-32.0305,-9.09937e-14,-1.19271e-15,-50.911,16.0209,-10.3091,119.835,67.6878,-36.4707,41.755,7.12502,-9.56399,71.518,-1.5251,-13.9498,18.3374,41.3572,-5.38809,2.85711,18.3123,-53.3593,24.323,-18.6336,42.6034,5.4749,-1.67023,-37.9375
18.7874,17.341,-20.2035,12.5392,-43.5706,-8.04811,9.24083,2.24788,8.08658,2.52061,3.7001,0.665893,-2.06943,1.81166,-4.22868,7.60209,5.49173,15.4241,-5.23626,7.86996,-18.993,-1.35729,4.32339,-8.63194,-4.55962e-14,3.43897e-14,-25.1788,-22.4991,-23.1796,128.908,-34.9961,-15.6476,-2.48758,7.12502,10.5401,-32.2033,-4.55962e-14,3.43897e-14,-50.6889,16.0627,-11.1924,120.441,68.2785,-37.5409,42.3731,7.12502,-10.5964,72.0859,-1.81954,-14.1566,18.5009,42.6554,-1.67715,2.42366,27.9542,-52.6889,24.8748,-18.0534,42.0557,5.14032,-1.42386,-39.0122
18.6137,17.3855,-19.9888,12.9444,-43.8831,-8.81909,8.94324,2.29384,8.15575,2.53905,3.73729,0.619956,-1.8726,1.83965,-4.30084,7.349,5.4967,15.6077,-5.32002,7.85586,-18.9847,-1.33291,4.30183,-8.65176,-2.02636e-14,2.56308e-14,-25.507,-22.4323,-23.0691,128.79,-34.8747,-15.9758,-2.7903,7.12502,10.2235,-32.5219,-2.02636e-14,2.56308e-14,-50.2725,16.2555,-11.9174,121.112,68.9925,-38.6892,42.6078,7.12502,-11.7039,72.2609,-2.39576,-14.778,18.6155,44.3828,1.1595,1.53449,32.7832,-51.9028,25.2423,-17.3266,41.6948,4.93769,-1.0197,-40.1138
18.4424,17.4225,-19.7696,13.2645,-44.2893,-9.37607,8.57677,2.28231,8.14163,2.61536,3.67961,0.508147,-1.59069,1.82615,-4.38146,7.0986,5.68555,15.3287,-5.68934,8.03005,-18.653,-1.39116,4.37422,-8.49019,-1.21283e-13,5.76476e-15,-25.8165,-22.414,-22.7656,128.712,-34.8886,-16.439,-2.87778,7.12502,9.77668,-32.6308,-1.21283e-13,5.76476e-15,-50.075,16.3859,-12.7712,121.46,69.0482,-38.8361,42.0479,7.12502,-11.8456,71.6929,-3.2641,-15.5174,18.5055,46.4578,3.417,0.548073,34.1601,-51.1223,25.6065,-16.7747,41.5987,4.9373,-0.535108,-40.6433
18.2677,17.4473,-19.5483,13.237,-44.8334,-9.4363,8.02543,2.24943,7.80609,2.78867,3.5452,0.246303,-1.12701,1.78484,-4.42091,6.94866,5.8644,15.3365,-6.07152,8.2177,-18.6284,-1.44156,4.46272,-8.484,-4.50744e-14,-1.66979e-14,-26.0626,-22.5709,-22.5995,128.698,-35.1789,-16.6542,-2.70056,7.12502,9.56898,-32.4633,-4.50744e-14,-1.66979e-14,-49.944,16.4725,-13.5369,121.642,68.7519,-38.5162,41.5228,7.12502,-11.5371,71.1853,-4.30734,-16.3689,17.9403,48.8925,5.33196,0.251647,35.8185,-50.2615,26.0933,-16.6569,41.6835,5.26446,-0.24573,-40.4881
18.1021,17.4571,-19.3378,13.3771,-45.2828,-9.76883,7.66587,2.22385,7.61956,2.93329,3.45584,0.0566765,-0.78853,1.75851,-4.48405,6.92114,5.89814,15.4306,-6.51411,8.22523,-18.5933,-1.55883,4.46448,-8.50077,-8.29926e-14,1.19271e-14,-26.3864,-22.9201,-22.2299,128.637,-35.281,-16.6795,-2.64424,7.12502,9.54456,-32.4081,-8.29926e-14,1.19271e-14,-49.6259,16.6939,-14.1821,121.959,68.3536,-38.0351,41.297,7.12502,-11.0731,70.9849,-5.58464,-17.1407,17.7576,51.6119,6.27817,-0.0771053,37.5395,-49.4302,26.4345,-16.191,41.9125,5.89291,-0.202848,-40.1196
17.9418,17.4605,-19.1358,13.7402,-45.6546,-10.5771,7.79202,2.09064,7.65429,2.90368,3.29437,0.116778,-0.912323,1.67167,-4.43775,7.13198,6.03392,15.0349,-6.88109,8.36619,-18.4004,-1.70181,4.54718,-8.38942,1.93815e-14,-1.03368e-14,-26.6303,-22.8792,-21.6057,128.631,-35.2794,-16.5759,-2.70916,7.12502,9.6445,-32.4684,1.93815e-14,-1.03368e-14,-49.5931,16.5123,-14.8789,122.381,68.2111,-37.8245,41.5362,7.12502,-10.87,71.2349,-6.88336,-17.8587,18.0348,54.5198,5.99994,-1.13589,38.4215,-48.4488,26.6458,-15.1278,42.226,6.55777,-0.541091,-39.3414
17.7747,17.4482,-18.9283,13.7455,-46.1061,-11.1165,7.70899,1.90532,7.65893,3.17021,3.02401,0.0025787,-0.616744,1.55554,-4.52916,7.40677,6.27353,14.8357,-7.60442,8.63025,-18.3966,-1.91822,4.69935,-8.38773,-4.78077e-14,-2.82274e-14,-26.7298,-23.1838,-21.2486,128.703,-35.4771,-16.6482,-2.82692,7.12502,9.5748,-32.5894,-4.78077e-14,-2.82274e-14,-49.6538,16.4795,-15.5318,122.652,67.7697,-38.1691,41.9636,7.12502,-11.2024,71.6445,-7.97689,-18.788,17.9294,57.5121,4.75082,-2.09933,38.2116,-47.0958,26.9009,-14.1648,42.6058,7.06997,-1.50368,-36.5718
17.6146,17.4218,-18.7202,13.4534,-46.7184,-11.0097,7.65756,1.75622,7.25905,3.27639,2.785,-0.312272,-0.514818,1.44244,-4.61247,7.70959,6.38702,14.8833,-8.14242,8.77044,-18.4117,-2.0961,4.78385,-8.43285,3.4191e-14,6.36111e-15,-26.916,-23.4046,-20.7744,128.811,-35.678,-16.6644,-2.93814,7.12502,9.5592,-32.7013,3.4191e-14,6.36111e-15,-49.5377,16.3156,-16.0391,122.829,67.4475,-38.733,41.7453,7.12502,-11.7462,71.3959,-9.45709,-19.7473,17.3699,60.5197,2.97743,-2.71874,35.6785,-45.8176,27.0878,-13.8041,43.0108,7.07506,-3.0169,-30.5529
17.4649,17.3907,-18.5182,13.0886,-47.2614,-10.7583,7.75758,1.55184,6.7746,3.31257,2.48249,-0.591265,-0.58354,1.28774,-4.61424,7.79162,6.51914,14.8578,-8.19105,8.9527,-18.3908,-2.09459,4.87762,-8.42434,9.12422e-14,-3.57812e-14,-27.0816,-23.399,-20.1281,128.953,-35.5989,-16.7482,-3.04776,7.12502,9.47833,-32.8146,9.12422e-14,-3.57812e-14,-49.4324,16.104,-16.544,123.017,67.5163,-38.7421,41.545,7.12502,-11.755,71.1951,-11.1443,-20.7398,16.8531,63.4461,1.24784,-3.4378,31.7276,-44.5671,27.0513,-13.521,43.4264,5.46415,-4.98291,-29.4696
17.3143,17.3481,-18.3144,12.6312,-47.7034,-10.821,8.08092,1.37993,6.40287,3.45999,2.24134,-0.619112,-0.655627,1.16358,-4.42553,8.17055,6.65037,14.6042,-8.37439,9.122,-18.4351,-2.19227,4.98736,-8.42029,8.78628e-14,-1.19271e-14,-27.3913,-23.365,-18.9283,129.093,-35.7117,-17.024,-3.26579,7.12502,9.2122,-33.0446,8.78628e-14,-1.19271e-14,-49.2408,15.9002,-16.583,123.346,67.4575,-38.542,41.7124,7.12502,-11.562,71.3734,-12.4309,-21.8314,16.4683,66.215,-0.0965834,-4.06987,30.499,-42.8362,26.8657,-12.7479,43.8828,2.80913,-5.8704,-29.7359
17.1703,17.2945,-18.1144,12.3193,-48.1995,-10.8979,8.50761,1.24352,5.80291,3.37491,2.04838,-0.407136,-1.0373,1.04546,-3.86823,8.86401,6.70335,14.3587,-8.52249,9.19368,-18.8257,-2.33087,5.07723,-8.54936,-4.7112e-14,3.33958e-14,-27.528,-23.113,-17.3869,129.149,-35.9927,-16.9109,-3.45187,7.12502,9.32129,-33.2258,-4.7112e-14,3.33958e-14,-49.1378,15.4824,-16.0561,123.786,67.2045,-38.6689,41.7538,7.12502,-11.6843,71.408,-14.0462,-22.793,16.2175,68.871,-1.13056,-4.69429,32.4357,-41.234,26.6909,-12.0817,44.3946,-0.127625,-5.87396,-32.2991
17.0388,17.2366,-17.9216,12.178,-48.7301,-10.8003,8.89156,1.13823,5.03351,3.13164,1.88381,-0.138114,-1.55898,0.937999,-3.15825,9.26933,6.70615,14.3611,-8.31878,9.20725,-19.5206,-2.30048,5.13099,-8.79261,-8.15017e-15,2.06736e-14,-27.548,-23.0431,-15.9108,129.141,-36.0649,-16.6463,-3.53722,7.12502,9.57661,-33.2996,-8.15017e-15,2.06736e-14,-48.98,15.0822,-15.121,124.192,66.7338,-39.0881,42.1463,7.12502,-12.0886,71.7771,-16.2539,-23.6499,16.1186,71.4087,-1.94255,-5.29064,34.0084,-40.1123,26.5741,-11.8192,44.9551,-3.02016,-5.28886,-34.5914
16.9135,17.179,-17.7282,11.9602,-49.1839,-10.6934,9.16265,1.03764,4.6593,3.15124,1.73177,-0.0859363,-1.71644,0.856116,-2.88657,9.45111,6.72573,14.3094,-8.37477,9.21357,-19.8356,-2.33154,5.15834,-8.90058,-1.26029e-13,2.22639e-14,-27.8286,-23.553,-14.6103,129.162,-35.9721,-16.6237,-3.60857,7.12502,9.59844,-33.3699,-1.26029e-13,2.22639e-14,-48.4804,15.2046,-14.2121,124.542,66.7109,-39.958,42.4192,7.12502,-12.9273,71.9988,-18.4101,-24.5881,16.0674,73.7166,-2.46714,-5.63822,33.8718,-39.0011,26.3828,-11.5864,45.5308,-5.66686,-4.29657,-35.0792
16.7917,17.1183,-17.5409,11.5756,-49.4813,-10.6101,9.59674,0.828922,4.78386,3.28227,1.47534,-0.334565,-1.8298,0.727626,-3.19795,9.76462,6.75794,14.3186,-8.6845,9.25711,-19.8304,-2.46572,5.19654,-8.93025,-4.92986e-14,2.62396e-14,-28.5177,-24.0437,-13.5823,129.282,-35.663,-16.528,-3.3906,7.12502,9.69078,-33.1477,-4.92986e-14,2.62396e-14,-47.6218,15.5951,-13.4915,124.82,67.1932,-40.2807,41.9226,7.12502,-13.2383,71.4822,-20.3691,-25.5539,16.0844,75.7848,-2.9951,-5.82324,33.3486,-37.8078,26.1183,-11.3139,46.1205,-8.0697,-2.96382,-35.0048
16.6731,17.0565,-17.364,10.9808,-49.7856,-10.3159,10.212,0.604533,4.98938,3.35219,1.21176,-0.802616,-2.10233,0.591313,-3.78645,10.2429,6.72571,14.5653,-8.98756,9.26809,-19.8262,-2.61998,5.21834,-9.01055,-3.00165e-14,1.51076e-14,-29.5613,-24.4442,-12.7551,129.437,-35.2817,-16.1619,-2.98584,7.12502,10.044,-32.7262,-3.00165e-14,1.51076e-14,-46.5201,16.0181,-12.7817,125.02,67.6217,-39.5885,41.8874,7.12502,-12.5711,71.4892,-22.3565,-26.3977,16.0692,77.6461,-3.67142,-5.55467,33.1595,-36.6536,25.9337,-11.2608,46.7266,-10.2035,-1.23411,-36.3215
16.5577,17.0033,-17.1967,10.5406,-50.0202,-10.0625,10.7271,0.385852,5.04779,3.41299,0.939861,-1.1328,-2.34161,0.450158,-4.14318,10.6803,6.70766,14.8264,-9.3055,9.296,-19.8558,-2.76583,5.24751,-9.10339,-9.74045e-15,1.19271e-14,-30.4819,-25.0024,-11.9222,129.671,-35.1093,-15.7441,-3.03993,7.12502,10.4471,-32.7604,-9.74045e-15,1.19271e-14,-45.6058,16.5343,-11.8699,125.24,67.9599,-39.0247,42.621,7.12502,-12.0275,72.2554,-24.4978,-27.0236,16.2809,79.2246,-4.39062,-4.95603,34.3018,-35.6933,25.7201,-11.2589,47.3225,-11.7943,0.860643,-39.7341
16.4426,16.9599,-17.0366,10.157,-50.1483,-9.84103,11.2538,0.116205,4.84291,3.49625,0.578358,-1.22339,-2.58425,0.263449,-4.08453,10.8109,6.8062,15.0614,-9.38153,9.45781,-20.061,-2.75586,5.33799,-9.22048,-7.69297e-14,-4.77083e-15,-31.0196,-25.5904,-11.0916,129.98,-35.1865,-15.6221,-3.32179,7.12502,10.5647,-33.0363,-7.69297e-14,-4.77083e-15,-45.0814,16.8724,-10.5656,125.501,67.9929,-38.7891,43.0724,7.12502,-11.8003,72.7199,-26.7068,-27.452,16.638,80.5355,-5.0018,-4.34666,35.6222,-34.8603,25.199,-11.1368,48.0222,-12.8393,2.55868,-42.0042
16.3197,16.9415,-16.878,9.17694,-50.3114,-8.8359,11.737,-0.0884774,4.01174,3.64655,0.222186,-1.35794,-2.73557,0.0831063,-3.71081,10.6494,6.94195,15.2496,-9.31072,9.63916,-20.339,-2.64724,5.42963,-9.32937,1.41137e-14,-1.43125e-14,-31.4732,-26.2364,-10.1362,130.189,-35.3617,-15.6337,-3.58686,7.12502,10.5535,-33.3019,1.41137e-14,-1.43125e-14,-44.6033,17.2312,-8.91398,125.759,67.9862,-38.4342,43.2405,7.12502,-11.458,72.9073,-28.8449,-27.852,16.5545,81.4189,-5.38739,-3.94401,33.3023,-34.0225,24.4217,-11.4726,48.7768,-13.7737,3.78983,-43.5291
16.1918,16.9046,-16.7263,8.06645,-50.4171,-7.37817,11.7882,-0.471786,2.96355,3.62207,-0.408515,-1.49554,-2.84593,-0.232268,-3.17251,11.5861,7.15483,14.5403,-9.71639,9.8834,-20.1887,-2.92692,5.60976,-9.23313,4.53229e-14,-3.33958e-14,-31.333,-26.4402,-9.44982,130.316,-35.6344,-15.0683,-3.73361,7.12502,11.0988,-33.4201,4.53229e-14,-3.33958e-14,-44.7026,17.2397,-7.48871,126.059,68.2783,-38.3115,43.7091,7.12502,-11.3397,73.3825,-31.2938,-28.1047,16.3685,82.1093,-5.95476,-3.80419,29.5665,-33.6589,23.6989,-12.2066,49.7328,-14.9549,4.18662,-42.7873
16.0639,16.8704,-16.5834,7.63063,-50.2915,-6.56194,11.6421,-0.663371,2.38737,3.67752,-0.737868,-1.65475,-2.73024,-0.393161,-2.96658,11.8191,7.1455,14.8744,-9.7289,9.945,-20.2904,-2.93432,5.64595,-9.33738,-1.39149e-15,6.36111e-15,-32.2135,-27.1616,-8.3547,130.51,-35.9412,-13.9093,-3.61943,7.12502,12.2166,-33.2427,-1.39149e-15,6.36111e-15,-43.906,17.4814,-5.4989,126.316,68.2936,-38.2603,44.092,7.12502,-11.2903,73.7682,-33.9104,-28.0374,16.8215,82.4856,-6.69429,-3.65159,29.5356,-33.6034,23.0718,-12.576,50.7245,-16.3501,3.54199,-38.9304
15.9417,16.8317,-16.4427,7.61453,-49.8593,-6.40213,11.578,-0.862729,2.35748,3.95757,-1.01399,-1.7362,-2.42318,-0.524497,-2.99815,11.3907,7.11373,15.6346,-9.76351,9.96009,-20.551,-2.80907,5.62588,-9.52622,-3.18055e-14,2.8625e-14,-33.2755,-28.2761,-7.35549,130.722,-35.8459,-12.9612,-3.5815,7.12502,13.1306,-33.1481,-3.18055e-14,2.8625e-14,-42.6614,17.8776,-3.08837,126.375,68.1148,-38.3087,44.1815,7.12502,-11.337,73.8551,-36.2743,-27.8509,17.7428,82.4568,-7.26206,-3.4651,31.4385,-33.5362,22.3965,-12.5075,51.6888,-17.4136,3.11685,-36.1872
