JuanDHNZ/ProyectoFinalCD/preprocessing/sports_trials_csv/55_27.csv
root1,root2,root3,root4,root5,root6,lowerback1,lowerback2,lowerback3,upperback1,upperback2,upperback3,thorax1,thorax2,thorax3,lowerneck1,lowerneck2,lowerneck3,upperneck1,upperneck2,upperneck3,head1,head2,head3,rclavicle1,rclavicle2,rhumerus1,rhumerus2,rhumerus3,rradius1,rwrist1,rhand1,rhand2,rfingers1,rthumb1,rthumb2,lclavicle1,lclavicle2,lhumerus1,lhumerus2,lhumerus3,lradius1,lwrist1,lhand1,lhand2,lfingers1,lthumb1,lthumb2,rfemur1,rfemur2,rfemur3,rtibia1,rfoot1,rfoot2,rtoes1,lfemur1,lfemur2,lfemur3,ltibia1,lfoot1,lfoot2,ltoes1
10.3591,16.6607,-10.1788,159.189,-86.9045,-162.982,5.59919,-2.15363,1.8946,-0.881732,-2.72846,0.335934,-4.12262,-1.39566,-0.465613,3.6283,7.85748,16.611,-1.8876,11.0043,-18.1614,0.842207,5.62043,-8.15475,-1.86982e-14,-8.94531e-16,-54.1851,59.967,-90.1124,74.5458,28.7787,11.7219,34.826,7.12502,36.7576,8.69924,-1.86982e-14,-8.94531e-16,-72.6871,-49.1286,103.92,56.2124,-10.6214,-7.31896,-0.0645379,7.12502,18.564,29.0697,-12.8796,-17.1574,21.3243,51.1784,-34.8477,-1.12125,27.5774,-16.5129,28.8096,-17.1999,53.3111,-31.5351,6.08952,-0.503069
10.3508,16.7297,-10.1817,152.855,-86.4847,-156.387,5.26519,-2.07178,2.37948,-1.12374,-2.58549,0.531186,-4.19501,-1.33689,-0.555068,2.87637,7.84691,16.0275,-0.797807,10.9699,-17.4549,1.19499,5.5609,-7.77471,-5.09386e-15,-1.21259e-14,-55.0409,59.3361,-91.1576,73.4529,28.3823,12.1069,33.1496,7.12502,37.1219,7.11669,-5.09386e-15,-1.21259e-14,-72.7582,-49.1128,104.388,56.1751,-10.3119,-7.40193,0.647842,7.12502,18.4842,29.7896,-12.5364,-16.7049,22.0205,49.8505,-34.2623,-1.04544,29.0364,-16.3847,28.3996,-16.8185,52.5022,-30.8011,7.53843,-3.62453
10.3368,16.796,-10.1895,153.664,-86.422,-157.151,4.96107,-2.05446,2.40702,-1.2259,-2.56832,0.5362,-4.1298,-1.32961,-0.575984,2.56041,7.83557,15.8404,-0.342178,10.9489,-17.4332,1.36281,5.53192,-7.71492,-1.49089e-14,1.09332e-14,-55.6313,58.8412,-91.9184,72.6281,28.4137,12.2095,32.6936,7.12502,37.2188,6.68601,-1.49089e-14,1.09332e-14,-72.8738,-49.1675,104.767,56.4047,-9.95897,-7.51349,1.32886,7.12502,18.3769,30.4808,-11.8802,-16.4947,22.0027,48.5656,-33.9063,-1.58616,28.01,-15.8657,27.9391,-16.8962,51.5238,-30.7744,7.92054,-3.4935
10.3221,16.8566,-10.1976,155.608,-86.5143,-158.956,4.48303,-2.00728,2.33002,-1.30546,-2.52497,0.494546,-3.93932,-1.3063,-0.59589,2.8209,7.78198,15.9767,-0.684767,10.8813,-17.7965,1.24,5.51172,-7.87722,-1.39149e-15,-9.93923e-16,-55.9233,58.0987,-92.2396,71.8424,28.4998,12.3763,32.7658,7.12502,37.3765,6.79962,-1.39149e-15,-9.93923e-16,-72.6464,-49.2382,104.936,56.4305,-9.83788,-7.39523,1.93771,7.12502,18.4907,31.0789,-11.2994,-16.3312,21.9012,47.2701,-33.4914,-2.21841,26.6912,-15.4753,27.4801,-17.1703,50.5757,-30.6777,8.07212,-3.68211
10.312,16.9173,-10.2042,152.777,-86.4999,-155.89,4.09381,-1.9877,2.57778,-1.52397,-2.49374,0.523259,-3.95489,-1.2993,-0.716248,3.2965,7.77871,15.6529,-1.15489,10.8759,-17.3656,0.979958,5.53285,-7.71881,-2.34442e-14,5.1684e-15,-56.4176,57.226,-92.8474,70.9421,28.523,12.6376,32.5462,7.12502,37.6236,6.64552,-2.34442e-14,5.1684e-15,-72.4378,-49.1329,105.038,56.2289,-9.98968,-7.02941,2.23946,7.12502,18.8425,31.3468,-10.8569,-16.0471,22.2596,45.9919,-32.7831,-2.07858,28.0859,-15.2283,26.9048,-17.1553,49.5867,-29.6981,8.79844,-4.7917
10.3027,16.9807,-10.2153,153.086,-86.5333,-155.935,3.77039,-2.00895,2.64183,-1.8301,-2.52942,0.425363,-4.09831,-1.32485,-0.854655,3.18999,7.79794,15.5053,-0.707459,10.9256,-16.8013,1.09076,5.54947,-7.49757,-3.59055e-14,1.2921e-14,-57.1271,56.5902,-94.0418,69.7692,28.6547,12.2474,32.4866,7.12502,37.2547,6.48844,-3.59055e-14,1.2921e-14,-72.3864,-48.9307,104.98,56.0522,-10.1989,-6.77517,2.24928,7.12502,19.087,31.3327,-10.4787,-15.6056,22.4316,44.7358,-32.1039,-1.6608,30.5204,-15.0164,26.2378,-17.3541,48.5877,-28.726,9.6602,-5.05129
10.2913,17.0438,-10.2253,157.698,-86.6368,-160.334,3.40918,-2.02796,2.43156,-2.05094,-2.58135,0.262731,-4.12276,-1.35028,-0.909281,2.87073,7.84832,15.7789,-0.0427167,11.0279,-16.749,1.36383,5.58411,-7.49037,2.65874e-15,-9.93923e-17,-57.5771,56.0637,-94.9753,68.5708,28.8105,11.6404,32.7217,7.12502,36.6805,6.57534,2.65874e-15,-9.93923e-17,-72.0794,-48.6595,104.706,55.8994,-10.3352,-6.76578,2.23511,7.12502,19.0961,31.3176,-10.0493,-15.038,22.2819,43.4993,-31.7268,-1.55026,31.9715,-14.7144,25.7,-17.7991,47.6155,-28.3369,9.89494,-4.41524
10.281,17.0972,-10.2283,154.519,-86.6281,-157.056,3.14228,-2.03343,2.70428,-2.17968,-2.58278,0.289201,-4.11698,-1.36055,-1.04094,2.77959,7.93267,15.7648,0.174573,11.1499,-16.64,1.45417,5.63984,-7.43712,3.73591e-14,-3.77691e-15,-57.7744,55.3985,-95.4038,67.4942,28.8355,11.6218,32.7716,7.12502,36.6629,6.62075,3.73591e-14,-3.77691e-15,-71.7753,-48.5903,104.767,55.7122,-10.227,-6.88783,2.4215,7.12502,18.9787,31.5156,-9.49216,-14.6543,22.5761,42.3093,-31.388,-1.87331,31.9726,-14.2934,25.157,-17.681,46.682,-28.0726,9.93388,-3.43645
10.273,17.1446,-10.2326,148.566,-86.491,-150.961,2.83596,-1.99534,3.16776,-2.29661,-2.51862,0.384788,-4.07951,-1.34276,-1.21395,2.66527,7.9517,15.5915,0.284069,11.1625,-16.4649,1.486,5.64009,-7.34519,1.09953e-14,2.08724e-15,-57.8913,54.6993,-95.7843,66.3772,28.617,11.8864,32.3545,7.12502,36.9133,6.26767,1.09953e-14,2.08724e-15,-71.5493,-48.7641,105.053,55.462,-9.94988,-7.01426,2.62548,7.12502,18.8571,31.7314,-9.03493,-14.4761,23.0759,41.1981,-30.8421,-2.11525,31.8896,-13.9722,24.5206,-17.3705,45.8044,-27.8791,10.0911,-1.92307
10.268,17.1961,-10.2404,151.56,-86.5205,-153.789,2.56949,-1.96834,3.01022,-2.45055,-2.5002,0.359309,-4.08139,-1.33237,-1.15973,2.54123,7.98539,15.5068,0.414836,11.2004,-16.3919,1.54114,5.65246,-7.29756,3.79058e-14,3.47873e-15,-58.0846,54.145,-96.304,65.2707,28.4862,11.7582,31.8357,7.12502,36.7919,5.71771,3.79058e-14,3.47873e-15,-71.1707,-48.6816,105.171,55.0811,-9.81466,-7.36915,2.70778,7.12502,18.5158,31.8466,-8.68362,-14.1609,22.9905,40.1632,-30.1266,-2.23681,31.698,-13.7064,23.851,-17.7178,44.9695,-27.9251,10.1436,0.277001
10.266,17.2467,-10.2457,156.106,-86.6614,-158.198,2.39762,-1.9619,2.76443,-2.62617,-2.51026,0.291191,-4.15856,-1.33497,-1.09429,2.5228,8.01642,15.3779,0.476898,11.2397,-16.2729,1.55366,5.67029,-7.23463,7.65321e-15,8.15017e-15,-58.1712,53.4625,-96.694,64.0572,28.6346,11.3689,31.8813,7.12502,36.4235,5.66998,7.65321e-15,8.15017e-15,-70.8272,-48.5602,105.354,54.6382,-9.86111,-7.87206,3.02358,7.12502,18.0319,32.2077,-8.33634,-13.8707,22.7367,39.1833,-29.5255,-2.36906,31.242,-13.477,23.1104,-18.2195,44.2041,-27.9404,10.128,2.7528
10.2641,17.29,-10.2484,155.31,-86.7157,-157.255,2.16771,-1.91854,2.89408,-2.77596,-2.45615,0.276134,-4.18827,-1.31566,-1.1903,2.59531,7.95313,15.3208,0.478021,11.1596,-16.2212,1.52245,5.63318,-7.21772,3.19919e-14,-2.38542e-15,-57.9477,52.4969,-96.8105,62.6572,28.8891,11.2551,32.1462,7.12502,36.3158,5.90793,3.19919e-14,-2.38542e-15,-70.5573,-48.6467,105.617,54.2661,-9.80804,-8.14797,3.6415,7.12502,17.7665,32.8499,-7.99311,-13.7938,22.8118,38.2203,-29.1876,-2.29992,31.561,-13.3251,22.3404,-18.3408,43.5414,-27.6342,10.3547,3.88184
10.2618,17.3311,-10.2549,153.013,-86.6764,-154.79,1.88358,-1.89593,3.0077,-2.8887,-2.42986,0.373771,-4.14397,-1.30694,-1.16219,2.62891,7.8966,15.4164,0.487021,11.0934,-16.4237,1.52664,5.60091,-7.30305,-2.25869e-14,-1.61016e-14,-57.5868,51.6358,-96.871,61.2344,29.1977,11.3191,32.1006,7.12502,36.3764,5.87747,-2.25869e-14,-1.61016e-14,-69.8398,-48.3856,105.522,53.7135,-9.67712,-8.33832,4.13079,7.12502,17.5833,33.3557,-7.66313,-13.5588,23.0739,37.2441,-28.7781,-2.57063,31.0884,-13.2376,21.684,-18.2922,43.0058,-27.0705,11.0898,2.09579
10.2613,17.371,-10.2654,150.712,-86.6076,-152.374,1.63949,-1.9232,3.04946,-2.92225,-2.4697,0.556157,-4.03584,-1.32551,-1.00342,2.5772,7.94814,15.2726,0.406793,11.1452,-16.5082,1.51773,5.62319,-7.30247,-1.86112e-14,9.74045e-15,-57.1501,51.0852,-96.9016,59.8606,29.3123,11.2971,32.0401,7.12502,36.3555,5.81172,-1.86112e-14,9.74045e-15,-68.5565,-47.7071,105.025,52.8281,-9.72126,-8.68964,4.15983,7.12502,17.2452,33.4147,-7.27607,-13.1012,23.3912,36.285,-28.2455,-3.09896,30.3277,-13.1327,21.1921,-18.1578,42.5733,-26.2737,12.2981,-2.92337
10.2651,17.4042,-10.2754,151.363,-86.5035,-152.971,1.52038,-1.85368,3.06024,-2.96168,-2.3804,0.597852,-4.00415,-1.28154,-0.974754,2.51631,8.01722,15.0158,0.32081,11.2125,-16.344,1.48917,5.65368,-7.20353,3.47376e-14,1.39149e-15,-56.7281,50.3483,-96.9255,58.4685,29.329,11.0917,32.0219,7.12502,36.1611,5.74509,3.47376e-14,1.39149e-15,-67.511,-47.3036,104.679,51.9617,-9.7246,-9.26785,4.27251,7.12502,16.6886,33.5751,-6.90583,-12.6718,23.5257,35.4508,-27.9264,-3.39757,30.5767,-12.9323,20.8124,-18.1045,42.1502,-25.7443,12.9329,-5.88529
10.2701,17.4283,-10.2849,154.089,-86.3142,-155.697,1.6537,-1.74224,3.1097,-3.13999,-2.22722,0.494076,-4.26523,-1.21445,-1.1089,2.61861,8.05279,15.0348,0.315761,11.2725,-16.2398,1.47485,5.68838,-7.17489,-3.21534e-14,-8.54774e-15,-56.587,49.4012,-97.3195,56.9784,29.7076,10.5187,31.9704,7.12502,35.6181,5.56095,-3.21534e-14,-8.54774e-15,-67.0718,-47.003,104.573,51.3323,-9.57627,-10.1061,4.94684,7.12502,15.8815,34.3156,-6.60469,-12.3445,23.5116,34.8069,-27.7428,-3.40751,31.1354,-12.6208,20.4584,-18.1061,41.7127,-25.861,12.4989,-4.03507
10.2748,17.4437,-10.2913,156.323,-86.2165,-157.897,1.7514,-1.70183,3.06053,-3.28593,-2.17181,0.476383,-4.46902,-1.19045,-1.09639,2.49727,8.09321,15.0553,0.508683,11.3316,-16.2797,1.56379,5.71088,-7.17751,-1.33683e-14,-1.03368e-14,-56.4995,48.7482,-97.6925,55.6168,30.0776,9.90181,32.0489,7.12502,35.0332,5.5006,-1.33683e-14,-1.03368e-14,-66.2837,-46.4235,104.288,50.5982,-9.47666,-10.8447,5.59596,7.12502,15.1701,35.0199,-6.44072,-12.1578,23.4586,34.3716,-27.5669,-3.40891,31.3522,-12.3482,20.0826,-18.1724,41.2709,-25.6236,12.5164,-4.98642
10.2796,17.4571,-10.2934,158.237,-86.3069,-159.694,1.62941,-1.63944,2.8896,-3.32213,-2.09876,0.512389,-4.42583,-1.1482,-0.971342,2.19946,8.06253,15.0926,0.66658,11.2732,-16.562,1.66947,5.66602,-7.25947,-1.22501e-14,-7.95139e-15,-56.0636,48.0714,-97.592,54.3148,30.1566,9.49202,32.0759,7.12502,34.6444,5.43758,-1.22501e-14,-7.95139e-15,-64.9118,-45.8883,103.837,49.5327,-9.58706,-11.2853,6.11392,7.12502,14.7457,35.5694,-6.42964,-12.0782,23.369,34.0927,-27.5937,-3.39226,32.0174,-12.2339,19.7575,-18.3476,40.8759,-24.6661,13.5044,-11.368
10.2856,17.4679,-10.2957,160.32,-86.3792,-161.654,1.49996,-1.54034,2.80534,-3.35704,-1.97601,0.467431,-4.38203,-1.08552,-0.980945,2.09008,8.017,15.1445,0.533247,11.1893,-16.7375,1.64977,5.61976,-7.3262,1.26725e-15,3.97569e-15,-55.2325,47.056,-97.3131,52.7335,30.4302,8.98594,32.1697,7.12502,34.1639,5.42248,1.26725e-15,3.97569e-15,-63.7908,-45.5623,103.49,48.5804,-9.64832,-12.0199,6.81601,7.12502,14.0379,36.3219,-6.47414,-12.0541,23.2638,33.8887,-27.612,-3.23173,32.4918,-12.2031,19.4784,-18.4912,40.5924,-24.3441,13.4813,-13.3279
10.2963,17.4769,-10.3003,162.886,-86.3151,-164.119,1.45831,-1.45116,2.77915,-3.39842,-1.8627,0.369858,-4.39937,-1.03097,-1.07368,1.9574,8.05261,14.997,0.407673,11.2023,-16.4994,1.61454,5.62248,-7.22177,1.27471e-14,-9.14409e-15,-54.4152,46.0608,-97.2769,51.1353,30.825,8.79637,32.4331,7.12502,33.9839,5.64578,1.27471e-14,-9.14409e-15,-62.8775,-45.2234,103.072,47.8295,-9.72434,-13.0403,7.01678,7.12502,13.0544,36.5883,-6.55923,-11.9911,23.1493,33.7468,-27.4407,-2.99723,32.6009,-12.1986,19.218,-18.5813,40.4184,-24.5462,12.5735,-10.884
10.3097,17.4854,-10.3036,163.623,-86.145,-164.819,1.46877,-1.40181,2.83691,-3.39311,-1.7947,0.35872,-4.39936,-0.999244,-1.12104,1.88934,8.13346,15.0171,0.291242,11.2945,-16.5262,1.61014,5.66623,-7.22614,-2.79044e-14,9.54166e-15,-53.7351,45.3814,-97.4295,49.665,31.0673,9.04636,32.3747,7.12502,34.2213,5.64038,-2.79044e-14,9.54166e-15,-61.7235,-44.5671,102.443,46.9894,-9.91753,-13.7418,6.7927,7.12502,12.378,36.4062,-6.62246,-11.7975,23.186,33.6824,-27.3199,-2.81091,33.2363,-12.161,18.9016,-18.5271,40.321,-24.5672,12.063,-9.64571
10.3214,17.4844,-10.302,163.672,-85.9592,-164.803,1.445,-1.38049,2.95569,-3.39674,-1.76225,0.386048,-4.39148,-0.986864,-1.16155,1.84724,8.21481,15.3448,0.216916,11.4082,-16.9031,1.65763,5.72083,-7.38992,7.20594e-16,-4.37326e-15,-52.9872,44.8461,-97.5626,48.0325,31.3235,8.94008,32.295,7.12502,34.1204,5.53806,7.20594e-16,-4.37326e-15,-60.5424,-43.7167,101.873,45.9961,-9.93014,-14.3228,7.26458,7.12502,11.8178,36.9111,-6.7938,-11.7123,23.2737,33.7271,-27.2666,-2.93657,32.6646,-12.1706,18.5494,-18.4607,40.2432,-24.9052,11.7598,-8.68186
10.3341,17.4737,-10.3017,163.544,-85.8383,-164.644,1.58571,-1.38632,3.13972,-3.47746,-1.75956,0.338126,-4.56366,-0.996192,-1.30873,1.77828,8.26142,15.5977,0.263329,11.4771,-17.0041,1.71529,5.75267,-7.45363,2.11954e-14,-7.35503e-15,-52.3623,44.297,-97.8899,46.2972,31.5789,8.56504,32.3933,7.12502,33.7641,5.5575,2.11954e-14,-7.35503e-15,-59.5544,-42.8751,101.377,44.8619,-10.0405,-15.0706,8.35771,7.12502,11.0966,38.0443,-7.01013,-11.7419,23.3424,33.9254,-27.2822,-3.07001,31.7737,-12.1329,18.3635,-18.361,40.1568,-25.3884,11.4015,-8.24179
10.3483,17.4584,-10.3057,163.16,-85.6912,-164.404,1.88702,-1.38198,3.27132,-3.48343,-1.73628,0.319915,-4.74559,-0.991382,-1.39452,1.77869,8.29665,15.5788,0.208039,11.5181,-16.909,1.69881,5.77409,-7.41839,1.83876e-15,0,-51.735,43.7748,-98.1525,44.6088,31.6239,8.40801,32.2867,7.12502,33.6149,5.41828,1.83876e-15,0,-58.462,-42.009,100.788,43.7446,-10.3625,-15.9104,9.27709,7.12502,10.2866,39.0055,-7.1033,-11.6875,23.4086,34.296,-27.3138,-3.05366,31.5529,-11.8893,18.4658,-18.1714,40.0727,-25.6877,11.1079,-9.14852
10.3649,17.435,-10.3089,163.179,-85.4589,-164.601,2.19226,-1.32643,3.31116,-3.4342,-1.64412,0.392695,-4.8625,-0.945549,-1.3407,1.7993,8.33959,15.2846,0.0779575,11.5561,-16.7947,1.63942,5.79351,-7.33567,-1.9307e-14,4.37326e-15,-51.0221,43.2814,-98.1904,42.901,31.743,7.96955,32.2565,7.12502,33.1981,5.29829,-1.9307e-14,4.37326e-15,-57.3304,-41.0558,100.256,42.696,-10.746,-17.4956,9.92971,7.12502,8.75708,39.728,-7.24989,-11.7075,23.4412,34.8139,-27.4003,-2.94624,31.3075,-11.6224,18.688,-18.0216,40.0136,-25.9255,11.2146,-11.0364
10.3847,17.4102,-10.3094,162.827,-85.2391,-164.315,2.42851,-1.24437,3.41502,-3.43007,-1.51555,0.490392,-4.98698,-0.884961,-1.3009,1.87106,8.33809,14.9006,-0.125093,11.5291,-16.6543,1.53286,5.78324,-7.23911,3.75206e-15,1.76918e-14,-50.3614,42.8069,-98.2398,41.3398,32.1248,7.44374,32.0478,7.12502,32.698,4.98432,3.75206e-15,1.76918e-14,-56.5001,-40.2711,100.096,41.7646,-10.9021,-19.5226,10.8008,7.12502,6.80072,40.6715,-7.57325,-11.7977,23.5256,35.4056,-27.7165,-2.70508,31.8162,-11.5361,18.8155,-17.8957,40.0367,-26.3514,11.3175,-12.4478
10.4037,17.3904,-10.3047,163.948,-85.0823,-165.396,2.56123,-1.17921,3.49228,-3.51499,-1.42031,0.444376,-5.15059,-0.845258,-1.39419,2.22966,8.2788,15.0517,-0.393331,11.4718,-16.8072,1.4055,5.77249,-7.33855,1.22253e-14,5.96354e-15,-49.7994,42.1568,-98.5083,39.8261,32.4561,7.35434,31.5479,7.12502,32.6129,4.46676,1.22253e-14,5.96354e-15,-55.8769,-39.509,99.9487,40.8013,-10.9851,-20.513,11.8588,7.12502,5.84457,41.7582,-8.03695,-11.9031,23.466,36.0065,-27.9608,-2.47718,32.1845,-11.6585,18.8354,-17.9932,40.1909,-27.1443,10.8468,-10.6807
10.4182,17.3693,-10.3041,165.463,-84.8622,-166.946,2.7204,-1.13301,3.4656,-3.52682,-1.35313,0.425789,-5.25019,-0.812539,-1.4,2.38715,8.28644,15.2679,-0.542502,11.4966,-17.1313,1.37446,5.79239,-7.48515,1.38652e-14,-9.34288e-15,-48.7793,41.2783,-98.3156,38.0023,32.9774,7.30735,31.6076,7.12502,32.5682,4.51723,1.38652e-14,-9.34288e-15,-54.8221,-38.3844,99.3886,39.5819,-11.325,-20.9424,12.3643,7.12502,5.42993,42.2747,-8.40553,-11.9342,23.3562,36.6274,-28.1305,-2.07801,32.5289,-11.756,19.0026,-18.0993,40.4651,-27.6228,10.7082,-8.41064
10.4294,17.3469,-10.3115,164.714,-84.5837,-166.39,2.97659,-1.09626,3.52234,-3.38371,-1.2846,0.543209,-5.2416,-0.774972,-1.31229,2.19859,8.35847,15.1662,-0.643057,11.5582,-17.3129,1.39352,5.81388,-7.51482,-2.11954e-14,-4.77083e-15,-47.4024,40.3757,-97.7543,36.1675,33.6548,7.21172,31.6573,7.12502,32.4772,4.54822,-2.11954e-14,-4.77083e-15,-53.4779,-37.1369,98.7514,38.2532,-11.7027,-21.6527,12.432,7.12502,4.74412,42.3589,-8.57327,-11.8916,23.4561,37.2995,-28.4212,-1.58864,33.2972,-11.7075,19.5066,-17.8734,40.7974,-27.2661,11.3676,-10.24
10.448,17.3209,-10.3174,166.039,-84.5587,-167.994,3.38755,-1.10929,3.32392,-3.29856,-1.29483,0.515506,-5.38299,-0.771995,-1.22245,2.3354,8.34484,15.2795,-0.79676,11.5456,-17.4382,1.33956,5.8152,-7.58371,-1.45113e-14,3.37934e-15,-46.4716,39.5696,-97.7367,34.618,33.9006,7.21028,30.8594,7.12502,32.4758,3.75005,-1.45113e-14,3.37934e-15,-52.6154,-36.0281,98.3612,37.1291,-11.7876,-22.2449,12.5737,7.12502,4.17228,42.5126,-8.74593,-12.0995,23.2567,38.0583,-28.6136,-1.57714,32.8688,-11.6688,19.9991,-17.8765,41.1455,-26.9996,11.2521,-11.0282
10.4726,17.2884,-10.3247,171.732,-84.7414,-174.044,3.90534,-1.16534,2.57927,-3.23642,-1.39773,0.405767,-5.60047,-0.79551,-0.901315,2.58453,8.29905,15.3007,-0.913672,11.5028,-17.439,1.25849,5.8064,-7.60528,1.50331e-14,-1.59028e-15,-45.5783,38.7291,-97.658,33.0328,34.1651,6.99763,30.5071,7.12502,32.2734,3.35643,1.50331e-14,-1.59028e-15,-52.0001,-34.9712,98.1749,36.1312,-11.4718,-22.7865,12.4915,7.12502,3.64925,42.44,-8.92815,-12.3256,22.5823,38.9177,-28.777,-1.91887,31.39,-11.6122,20.2322,-18.3232,41.519,-27.3012,10.1938,-7.71886
10.4895,17.2551,-10.3328,176.803,-84.8802,-179.41,4.27572,-1.24537,1.98392,-3.13206,-1.53449,0.329914,-5.69217,-0.839097,-0.62794,2.60782,8.33373,15.2014,-0.948487,11.5451,-17.417,1.24438,5.82847,-7.58141,2.15681e-14,7.15625e-15,-44.5286,37.821,-97.3534,31.4627,34.7772,6.31622,30.7521,7.12502,31.6246,3.47155,2.15681e-14,7.15625e-15,-51.0757,-33.6121,97.7108,34.8423,-11.7878,-23.3372,12.4207,7.12502,3.11744,42.3776,-9.11505,-12.5423,21.9799,39.806,-29.131,-1.82317,30.8551,-11.6143,20.4078,-18.6958,41.9869,-27.4812,9.6738,-6.12603
10.5022,17.2247,-10.3364,179.646,-84.9679,-182.324,4.37842,-1.29741,1.77228,-3.03437,-1.61963,0.231644,-5.64706,-0.872919,-0.602742,2.46069,8.38904,15.2381,-0.936563,11.6057,-17.4484,1.28685,5.852,-7.58549,2.21148e-15,-2.0276e-14,-43.3125,36.5631,-96.9003,30.0447,35.7672,5.87923,30.5809,7.12502,31.2082,3.21931,2.21148e-15,-2.0276e-14,-50.1415,-32.4133,97.1944,33.6258,-12.5321,-23.8256,13.2424,7.12502,2.64575,43.2058,-9.49279,-12.879,21.6338,40.6178,-29.4839,-1.3885,31.2651,-11.9288,20.6352,-18.9449,42.6143,-27.6186,9.88344,-7.5325
10.5192,17.1925,-10.3403,177.393,-84.9711,-180.069,4.45419,-1.31717,1.94064,-2.94525,-1.62885,0.303227,-5.60012,-0.881086,-0.621488,2.48018,8.39649,15.2013,-1.14313,11.5959,-17.4136,1.21832,5.84994,-7.57444,-3.50855e-14,5.56597e-15,-41.8668,34.8062,-96.0493,28.6155,37.0781,6.02402,30.3576,7.12502,31.3462,3.0227,-3.50855e-14,5.56597e-15,-49.5934,-31.756,97.2212,32.7094,-12.446,-24.5026,14.1653,7.12502,1.99194,44.1358,-9.92007,-12.8898,21.9035,41.3114,-29.732,-1.45188,31.1846,-12.4208,20.932,-18.6889,43.4141,-27.9014,9.83121,-8.13638
10.5365,17.1539,-10.3437,170.273,-84.9234,-173.119,4.74152,-1.35928,2.44454,-2.81972,-1.62913,0.578472,-5.64028,-0.893787,-0.612771,2.62413,8.3904,15.1651,-1.38406,11.5784,-17.577,1.13128,5.8495,-7.6342,1.75179e-14,-4.37326e-15,-40.599,33.1317,-95.1614,27.2477,38.0423,5.89766,30.2396,7.12502,31.2258,2.88142,1.75179e-14,-4.37326e-15,-49.0903,-30.9844,97.3868,31.6371,-12.278,-25.3202,13.9446,7.12502,1.20228,43.921,-10.0926,-12.8512,22.6295,41.9324,-30.0042,-1.89712,30.4804,-12.7481,21.2212,-17.8399,44.3142,-28.1426,9.3008,-7.65451
10.5519,17.1141,-10.3481,168.036,-85.0155,-171.032,5.00011,-1.44957,2.53512,-2.72548,-1.73041,0.676732,-5.69229,-0.944296,-0.546359,2.78742,8.39596,15.3041,-1.53465,11.5959,-17.8428,1.09009,5.86703,-7.75172,1.26974e-14,-5.1684e-15,-39.698,31.9156,-94.6887,26.1045,38.6869,5.40093,29.9709,7.12502,30.7523,2.52255,1.26974e-14,-5.1684e-15,-48.4999,-29.9107,97.2068,30.5632,-12.5682,-25.9935,13.6552,7.12502,0.55204,43.6342,-10.3038,-13.1375,22.8146,42.5373,-30.2479,-1.98778,30.4418,-13.0872,21.3898,-17.5321,45.1739,-28.4936,8.61183,-6.26778
10.5663,17.0775,-10.3565,168.413,-85.1664,-171.487,5.12057,-1.53056,2.42118,-2.62037,-1.84502,0.636737,-5.65157,-0.995346,-0.511353,2.96137,8.39856,15.311,-1.82822,11.591,-17.7897,0.973151,5.87543,-7.75177,1.56046e-14,-5.56597e-15,-38.8864,30.856,-94.4345,25.1645,39.4508,4.72631,29.6167,7.12502,30.1089,2.04917,1.56046e-14,-5.56597e-15,-48.0345,-29.1057,97.025,29.7629,-12.6613,-26.3686,13.8242,7.12502,0.189787,43.8038,-10.5942,-13.4137,22.7518,43.1229,-30.4398,-1.76185,30.6901,-13.4701,21.6449,-17.5143,45.9481,-28.7144,7.99198,-4.12698
10.5771,17.0458,-10.3623,165.738,-85.2292,-169.162,5.47945,-1.56333,2.53792,-2.39581,-1.86662,0.696534,-5.62352,-1.00589,-0.506583,2.76119,8.41527,15.2974,-1.77236,11.5948,-17.7805,1.02186,5.86788,-7.7347,-4.89507e-15,-1.98785e-15,-37.8152,29.2105,-93.805,24.1974,40.6115,4.09589,29.2916,7.12502,29.5072,1.61618,-4.89507e-15,-1.98785e-15,-47.7453,-28.8125,97.3138,28.9954,-12.4019,-26.6909,13.8372,7.12502,-0.121568,43.8169,-10.4989,-13.483,22.8871,43.6716,-30.6978,-1.72042,30.5159,-13.4564,21.9708,-17.0937,46.6385,-28.796,7.7545,-4.0133
10.5881,17.0164,-10.3638,162.087,-85.2859,-165.856,5.91537,-1.65349,2.72038,-2.21761,-1.95315,0.82992,-5.68991,-1.05111,-0.451437,2.5859,8.46206,15.3768,-1.62455,11.6552,-18.0328,1.12571,5.88849,-7.81144,1.99033e-14,7.95139e-16,-36.8691,27.6562,-93.221,23.3677,41.7538,3.84306,28.8029,7.12502,29.2659,1.08513,1.99033e-14,7.95139e-16,-47.6538,-28.5764,97.9184,28.2244,-12.0372,-27.0493,14.3399,7.12502,-0.467675,44.3191,-10.3926,-13.5079,23.0959,44.1746,-30.9416,-1.55901,31.0407,-13.4316,22.1484,-16.6221,47.2548,-29.003,7.53812,-4.29882
10.599,16.985,-10.3672,158.475,-85.2521,-162.347,6.13212,-1.74839,2.93268,-2.14313,-2.04901,0.980925,-5.74097,-1.1033,-0.397145,2.74821,8.45433,15.2751,-1.85585,11.6334,-18.1622,1.03162,5.88714,-7.85134,1.69961e-14,-2.78299e-15,-36.2499,26.5652,-92.9441,22.8072,42.6642,3.34601,28.4567,7.12502,28.7911,0.657244,1.69961e-14,-2.78299e-15,-47.5609,-28.0807,98.4159,27.3723,-12.0216,-27.3964,15.2585,7.12502,-0.802921,45.2367,-10.5491,-13.7104,23.3796,44.619,-31.0935,-1.24734,31.4406,-13.667,22.3813,-16.2034,47.8254,-29.0658,7.43726,-5.045
10.6051,16.9547,-10.3696,158.942,-85.2356,-162.977,6.3634,-1.73785,2.82858,-2.08008,-2.03471,0.994448,-5.80173,-1.09168,-0.320511,2.92927,8.37212,15.3829,-2.01324,11.5304,-18.2945,0.954157,5.84624,-7.93085,-1.54058e-14,3.97569e-15,-35.8503,25.4714,-92.7736,22.4617,43.1015,2.84582,28.0981,7.12502,28.3132,0.218295,-1.54058e-14,3.97569e-15,-47.5965,-27.7387,98.9309,26.528,-12.1779,-27.8442,15.608,7.12502,-1.23544,45.5842,-10.6113,-13.9137,23.2699,45.0344,-31.2443,-1.17875,31.3232,-13.7437,22.6961,-16.1395,48.3352,-29.1262,7.56461,-7.12523
10.6125,16.9284,-10.3667,160.527,-85.3138,-164.769,6.6532,-1.71826,2.69296,-1.99559,-2.01481,0.891196,-5.87629,-1.07768,-0.347142,2.92238,8.3191,15.7809,-1.95673,11.4831,-18.4874,0.999926,5.8226,-8.05881,-1.3244e-14,1.19271e-14,-35.5175,24.4582,-92.7226,22.2347,43.0829,2.55819,27.4765,7.12502,28.0383,-0.448538,-1.3244e-14,1.19271e-14,-48.0706,-28.0774,99.7824,26.1218,-11.9197,-28.1452,15.5503,7.12502,-1.52617,45.5245,-10.6149,-13.9142,23.032,45.4314,-31.3221,-0.871875,31.854,-13.7591,22.7847,-16.2475,48.792,-29.3922,7.21096,-5.95942
10.6211,16.9103,-10.3654,158.487,-85.3595,-162.778,6.77692,-1.75207,2.92787,-1.90209,-2.03877,0.83371,-5.86036,-1.09778,-0.533623,2.7828,8.30114,16.083,-1.86558,11.4657,-18.6035,1.07209,5.80711,-8.13733,-4.5969e-15,5.1684e-15,-35.176,23.631,-92.7863,22.1297,43.118,1.95959,26.8524,7.12502,27.4659,-1.16492,-4.5969e-15,5.1684e-15,-48.4644,-28.3392,100.406,25.8789,-11.7753,-28.1529,15.3339,7.12502,-1.53355,45.3081,-10.7724,-13.7893,23.2103,45.7968,-31.3633,-0.61246,32.3512,-13.9626,22.7953,-16.0777,49.2031,-29.6508,6.72672,-3.96074
10.63,16.8976,-10.3677,157.593,-85.4645,-161.781,6.76118,-1.79088,2.94639,-1.88536,-2.08924,0.848331,-5.83566,-1.12276,-0.52356,2.76579,8.26856,16.2496,-1.82647,11.4307,-18.7489,1.0996,5.78897,-8.21215,2.71341e-14,-1.82882e-14,-35.1186,23.5835,-93.1247,22.3246,42.6316,1.28888,26.1192,7.12502,26.8243,-1.99824,2.71341e-14,-1.82882e-14,-48.6224,-28.0343,100.798,25.4831,-12.0465,-27.8966,15.0281,7.12502,-1.28603,45.004,-11.1112,-13.6813,23.3521,46.1125,-31.4138,-0.919995,31.9573,-14.3436,22.9841,-16.0508,49.5535,-29.6694,6.83243,-6.07917
10.6373,16.8816,-10.3701,157.93,-85.565,-162.042,6.80062,-1.8175,2.71664,-1.90681,-2.13905,0.939912,-5.86962,-1.13801,-0.291992,2.73962,8.26382,16.2211,-1.71908,11.4319,-18.7035,1.12993,5.78755,-8.18919,5.73991e-15,-4.37326e-15,-35.0043,23.2519,-93.1649,22.4344,42.5612,0.484904,26.1821,7.12502,26.0547,-2.05106,5.73991e-15,-4.37326e-15,-49.0748,-27.8938,101.664,25.179,-12.0407,-27.4963,15.0083,7.12502,-0.899423,44.9862,-11.3667,-13.6496,23.3573,46.3363,-31.5311,-1.29499,31.2421,-14.6467,23.2543,-16.1071,49.8433,-29.4728,7.12739,-8.79133
10.6356,16.8691,-10.3678,155.882,-85.4264,-160.073,6.95028,-1.86532,2.81343,-1.89087,-2.18339,1.06545,-5.9385,-1.16179,-0.205142,2.74695,8.32321,16.0807,-1.62153,11.5198,-18.4709,1.14786,5.83078,-8.0835,-2.49723e-14,2.38542e-15,-34.8427,22.428,-92.9799,22.6145,43.1076,0.119654,27.0455,7.12502,25.705,-1.23878,-2.49723e-14,2.38542e-15,-49.8698,-28.044,102.834,25.0643,-11.5496,-27.276,15.0945,7.12502,-0.686611,45.0731,-11.3101,-13.4765,23.5627,46.4388,-31.7055,-1.68422,30.1174,-14.6251,23.3761,-15.8427,50.054,-29.5876,6.98212,-7.80718
10.631,16.8665,-10.3619,153.642,-85.2286,-157.967,7.14549,-1.91879,3.08167,-1.86146,-2.22051,1.12489,-6.02879,-1.18939,-0.282191,2.83677,8.35735,16.1617,-1.59024,11.5862,-18.4498,1.15676,5.86801,-8.08925,-1.19519e-14,7.95139e-15,-35.0564,22.5063,-93.3049,23.3367,42.8629,0.65199,27.4976,7.12502,26.2147,-0.711919,-1.19519e-14,7.95139e-15,-50.6622,-28.1015,103.796,24.9989,-11.2087,-26.9891,15.3667,7.12502,-0.409572,45.346,-11.1072,-13.1044,23.8284,46.4278,-31.7272,-2.07155,29.2506,-14.4499,23.3396,-15.5317,50.1846,-30.1049,6.49591,-4.8663
10.6275,16.8677,-10.3565,152.541,-85.1412,-156.912,7.16026,-1.94963,3.24262,-1.75313,-2.24787,1.14744,-5.92973,-1.20663,-0.347425,2.63641,8.36035,16.2401,-1.48426,11.5793,-18.4733,1.22571,5.85448,-8.09742,-4.12478e-15,-1.07344e-14,-35.2326,23.1716,-93.7707,24.3097,42.5511,1.21769,27.4424,7.12502,26.7562,-0.685505,-4.12478e-15,-1.07344e-14,-51.2246,-28.0247,104.438,25.125,-11.422,-26.5588,15.3043,7.12502,0.00605719,45.284,-10.9982,-12.7448,24.0024,46.368,-31.6684,-1.88163,30.6411,-14.3607,23.3376,-15.3951,50.2276,-30.4377,6.15707,-2.95617
10.6228,16.8686,-10.3495,151.76,-85.0622,-156.006,6.98401,-2.00545,3.40866,-1.70155,-2.31663,1.15154,-5.78425,-1.24482,-0.435128,2.52827,8.39378,16.259,-1.45535,11.6156,-18.3204,1.24917,5.8676,-8.04245,-1.24737e-14,-9.93923e-15,-35.2856,23.4228,-94.0402,25.2161,43.6069,1.46412,27.1368,7.12502,26.992,-0.954858,-1.24737e-14,-9.93923e-15,-52.1982,-28.2526,105.326,25.6786,-11.3092,-26.5632,14.9664,7.12502,0.00182541,44.9462,-11.1086,-12.5463,24.1537,46.3125,-31.5985,-1.43663,32.2526,-14.4658,23.3522,-15.3691,50.176,-30.4086,6.09473,-2.46759
10.6169,16.8725,-10.3429,153.136,-85.0457,-157.204,6.83353,-2.09841,3.33682,-1.8127,-2.45492,1.06562,-5.82106,-1.3132,-0.470245,2.95796,8.4225,16.5967,-1.64441,11.7099,-18.32,1.16,5.93675,-8.1166,-6.0033e-14,2.14687e-14,-35.5118,23.2698,-94.3312,26.0388,45.7884,1.64651,26.3016,7.12502,27.1665,-1.76287,-6.0033e-14,2.14687e-14,-53.9255,-28.9921,106.934,26.377,-9.63967,-26.8068,15.8868,7.12502,-0.233509,45.8664,-11.2838,-12.422,24.0873,46.247,-31.4879,-1.25827,32.6054,-14.6011,23.3811,-15.5717,50.0364,-30.3146,6.08645,-2.8776
10.6055,16.8827,-10.3374,155.265,-85.1143,-159.279,6.72454,-2.16896,3.09826,-1.84941,-2.57582,1.02108,-5.79256,-1.36507,-0.372203,3.26101,8.42802,16.8129,-1.77923,11.7561,-18.4509,1.10114,5.97521,-8.20948,9.11925e-15,-1.11319e-14,-35.7078,23.2718,-94.4176,26.864,47.8699,1.73866,25.5892,7.12502,27.2546,-2.46151,9.11925e-15,-1.11319e-14,-55.489,-29.6908,108.63,26.9029,-7.54899,-25.8308,15.9678,7.12502,0.70916,45.9464,-11.2343,-12.3025,23.8696,46.1,-31.2221,-1.49525,31.7724,-14.5135,23.4829,-15.8003,49.8181,-30.1648,6.46444,-4.9647
10.5907,16.9017,-10.3312,153.875,-85.1033,-157.85,6.59973,-2.20985,3.19966,-1.8356,-2.62468,1.088,-5.71025,-1.39129,-0.358813,3.15763,8.40051,16.7325,-1.61629,11.7174,-18.3423,1.1455,5.94996,-8.15518,1.29459e-14,-1.15295e-14,-36.0058,23.6707,-94.4862,27.8275,48.8393,1.57164,25.524,7.12502,27.0949,-2.55171,1.29459e-14,-1.15295e-14,-56.9921,-30.3391,110.192,27.4862,-6.4358,-23.7845,13.9753,7.12502,2.68548,43.9381,-11.0596,-12.2022,23.9706,45.818,-30.9413,-2.09731,30.0465,-14.3599,23.428,-15.7022,49.5521,-29.9927,7.04939,-7.01993
10.5782,16.9257,-10.3238,151.561,-85.0089,-155.493,6.52207,-2.30522,3.43003,-1.86881,-2.73367,1.13137,-5.71417,-1.45322,-0.431397,3.24694,8.37154,16.853,-1.53528,11.7056,-18.2377,1.15144,5.94797,-8.14475,1.36664e-15,-1.23246e-14,-36.5868,24.4937,-95.0041,28.9289,48.5635,1.3221,25.2365,7.12502,26.8561,-2.87608,1.36664e-15,-1.23246e-14,-58.9437,-31.0533,111.998,28.3859,-5.60588,-22.1161,12.6771,7.12502,4.29669,42.6135,-10.8327,-12.0783,24.2019,45.4021,-30.7747,-2.43444,29.5147,-14.1875,23.0808,-15.5536,49.2386,-30.0308,7.16549,-6.55517
10.5677,16.9492,-10.3116,150.965,-85.0005,-154.804,6.3155,-2.47671,3.41006,-1.83658,-2.97018,1.25474,-5.56347,-1.56634,-0.274766,3.38182,8.43968,16.8532,-1.63953,11.8069,-18.3052,1.12202,6.00522,-8.16879,-7.15376e-14,1.27222e-14,-37.023,25.5729,-95.4093,29.9834,47.87,1.05431,24.6698,7.12502,26.5998,-3.48192,-7.15376e-14,1.27222e-14,-60.5642,-31.3916,113.762,29.4264,-4.92492,-20.1908,12.6388,7.12502,6.15562,42.5294,-10.6515,-12.0011,24.2375,44.9077,-30.5371,-2.47109,29.5765,-14.0752,22.6415,-15.6693,48.8608,-30.1882,7.03051,-4.42389
10.5541,16.9754,-10.2978,150.24,-85.0207,-153.867,5.83443,-2.58225,3.35323,-1.69766,-3.13593,1.42651,-5.13667,-1.64033,-0.0747041,3.11831,8.53613,16.7165,-1.60011,11.8999,-18.2747,1.18373,6.03876,-8.11536,2.07481e-14,4.77083e-15,-37.163,26.464,-95.4434,31.0238,47.189,1.16195,24.1725,7.12502,26.7028,-3.96352,2.07481e-14,4.77083e-15,-62.0763,-32.0542,115.729,30.6142,-4.20904,-19.7237,12.9723,7.12502,6.60656,42.8492,-10.5673,-11.9141,24.2833,44.3841,-30.2799,-2.50714,29.5253,-14.0539,22.2677,-15.8111,48.4146,-30.0808,7.34843,-3.89906
10.5365,17.0045,-10.2847,149.986,-85.0068,-153.535,5.58304,-2.59489,3.41949,-1.64383,-3.16166,1.41646,-4.94273,-1.65352,-0.133653,2.99718,8.55151,16.9713,-1.51995,11.9261,-18.3259,1.25077,6.0463,-8.16278,-8.84592e-15,-1.19271e-14,-37.5583,26.9263,-95.5761,32.2002,46.5939,1.59429,23.901,7.12502,27.1165,-4.17125,-8.84592e-15,-1.19271e-14,-64.2692,-33.1262,118.038,32.0676,-3.44157,-19.1073,13.4144,7.12502,7.20158,43.2719,-10.3214,-11.8742,24.2383,43.8853,-30.0797,-2.61235,29.001,-13.7537,21.9908,-15.8951,47.8487,-29.9074,7.96253,-4.97134
10.5189,17.0356,-10.2702,149.575,-84.907,-153.093,5.61886,-2.65976,3.63132,-1.81818,-3.22784,1.38441,-5.16205,-1.69713,-0.269479,3.27871,8.54151,17.2361,-1.37698,11.981,-18.3614,1.27292,6.08667,-8.22491,2.18663e-14,7.15625e-15,-38.5289,27.5289,-95.999,33.5214,45.9785,1.43521,23.9728,7.12502,26.9643,-4.12306,2.18663e-14,7.15625e-15,-66.5476,-33.5395,119.947,33.4012,-3.3353,-18.0965,13.3321,7.12502,8.17721,43.1539,-10.0596,-11.903,24.2229,43.4396,-29.8056,-2.56979,28.6737,-13.3237,21.7432,-15.9064,47.1467,-29.9259,8.14577,-4.68203
10.5002,17.0754,-10.2603,150.866,-84.9211,-154.199,5.39484,-2.73608,3.60334,-1.98929,-3.34146,1.31308,-5.22063,-1.75612,-0.321256,3.51337,8.54459,17.4284,-1.19122,12.0487,-18.2226,1.30087,6.13096,-8.21472,1.02374e-14,2.66371e-14,-39.4699,28.0822,-96.4105,34.8618,45.2116,0.746182,23.8949,7.12502,26.3049,-4.30117,1.02374e-14,2.66371e-14,-68.4035,-33.8032,121.352,34.5181,-2.85928,-16.8762,11.4195,7.12502,9.35477,41.1919,-10.0033,-11.8913,24.0843,43.0316,-29.4283,-2.22384,29.8593,-13.0498,21.3515,-16.1888,46.3307,-29.9113,8.31674,-4.29602
10.4817,17.1215,-10.2513,155.509,-85.1546,-158.685,4.98645,-2.82751,3.15121,-1.95735,-3.52042,1.13593,-4.94376,-1.82983,-0.258737,3.61912,8.61574,17.8444,-1.25271,12.1796,-18.3097,1.32161,6.20253,-8.30681,-2.16427e-14,4.37326e-15,-39.908,28.314,-96.4986,36.0302,44.4597,0.174132,23.8908,7.12502,25.7572,-4.38592,-2.16427e-14,4.37326e-15,-70.1074,-34.3939,122.752,35.7139,-2.22096,-16.5563,10.7212,7.12502,9.66341,40.4795,-9.97773,-11.9282,23.5222,42.6821,-28.9683,-1.58969,31.6185,-12.7353,20.7788,-16.8949,45.4228,-29.8667,8.67926,-4.06478
10.4658,17.1625,-10.2356,156.449,-85.1287,-159.537,4.6531,-2.92659,3.05812,-1.83922,-3.67505,1.14387,-4.62944,-1.90049,-0.207324,3.70864,8.69535,18.1352,-1.44683,12.3,-18.5199,1.30707,6.26816,-8.42141,2.06239e-14,-1.59028e-14,-40.0773,28.4625,-96.2536,36.982,43.682,0.172925,24.3726,7.12502,25.756,-3.90426,2.06239e-14,-1.59028e-14,-72.0801,-35.0676,124.691,36.8157,-3.31727,-16.1506,11.8238,7.12502,10.0549,41.5636,-9.90491,-11.7616,23.3966,42.3785,-28.3608,-1.4335,31.704,-12.3266,20.2504,-17.1601,44.5021,-29.6708,9.24659,-4.55252
10.4508,17.2033,-10.2186,155.426,-84.9295,-158.366,4.36823,-2.95573,3.23453,-1.82427,-3.71361,1.23681,-4.45912,-1.92308,-0.222557,3.75294,8.72173,18.0811,-1.4693,12.3378,-18.4645,1.29285,6.28882,-8.39479,-5.35725e-14,7.95139e-15,-40.3551,28.3349,-95.8184,37.9293,43.2129,0.547894,24.6536,7.12502,26.1151,-3.5707,-5.35725e-14,7.95139e-15,-73.9455,-35.7157,126.549,37.8937,-3.57458,-10.9214,8.80398,7.12502,15.0962,38.2335,-9.93231,-11.4013,23.5834,42.1393,-27.733,-2.02532,29.7011,-11.9457,19.8117,-17.1984,43.6172,-29.3734,10.4271,-7.61685
10.4394,17.2458,-10.2021,155.933,-84.8303,-158.69,4.11297,-3.01664,3.34395,-1.88821,-3.79985,1.21327,-4.39296,-1.96998,-0.312165,3.71503,8.78939,18.0743,-1.27051,12.4441,-18.2573,1.36014,6.33914,-8.31188,2.3556e-14,1.03368e-14,-40.8631,28.3466,-95.5986,38.9287,42.8203,0.636801,24.7459,7.12502,26.2002,-3.46574,2.3556e-14,1.03368e-14,-75.6587,-36.2636,128.077,38.6522,-3.68855,-9.37359,7.93627,7.12502,16.5868,37.2474,-10.1099,-11.2029,23.578,42.0224,-27.0093,-2.55422,27.5072,-11.6329,19.3723,-17.4208,42.793,-29.8412,10.6389,-7.11461
10.429,17.2784,-10.1957,153.541,-84.5925,-156.201,3.94881,-3.08084,3.52,-1.90086,-3.87998,1.3656,-4.31751,-2.01339,-0.255152,3.7217,8.85868,18.1578,-1.15396,12.5566,-18.2618,1.41888,6.39545,-8.31567,-5.23549e-14,9.93923e-15,-41.4951,28.8604,-95.5958,39.908,41.5097,0.491968,24.2315,7.12502,26.0615,-4.00072,-5.23549e-14,9.93923e-15,-76.78,-36.4988,129.029,39.3411,-3.73924,-9.11931,10.5634,7.12502,16.8316,39.8539,-10.3011,-10.9725,23.9335,42.1044,-26.1513,-2.67223,27.3112,-11.2799,19.046,-17.2048,41.9922,-29.2855,11.5521,-12.7636
10.421,17.307,-10.1896,151.974,-84.3955,-154.627,3.97137,-3.11112,3.54315,-1.92795,-3.91358,1.54583,-4.34855,-2.02991,-0.0771502,4.00987,8.86934,18.2406,-1.34924,12.6017,-18.473,1.34429,6.4322,-8.41428,-1.4561e-14,1.11319e-14,-42.2199,29.3242,-95.6292,40.8034,39.5301,0.0285757,22.8681,7.12502,25.6177,-5.4287,-1.4561e-14,1.11319e-14,-77.9706,-36.8377,130.22,40.156,-3.63332,-7.39988,10.8589,7.12502,18.4862,40.0005,-10.5508,-10.8535,24.1674,42.4804,-25.3646,-1.50886,32.6065,-10.8302,18.7436,-17.0365,41.1103,-25.7698,15.5789,-31.2714
10.4205,17.3411,-10.1673,153.998,-84.4421,-156.544,4.04483,-3.17164,3.47191,-2.07471,-3.99374,1.45175,-4.54731,-2.07165,-0.117201,4.36778,8.8861,18.3736,-1.56373,12.6674,-18.4369,1.24149,6.48191,-8.44387,-3.27249e-14,1.07344e-14,-42.9521,29.4423,-95.7163,41.5081,38.0941,-0.401356,22.4578,7.12502,25.2059,-5.8976,-3.27249e-14,1.07344e-14,-79.4028,-37.3487,131.413,40.8184,-3.88153,-6.19072,9.50161,7.12502,19.649,38.5286,-11.131,-11.0658,23.8435,43.1641,-24.3751,-0.166678,37.6737,-10.4314,18.292,-17.4757,40.1229,-23.8552,17.2561,-36.1669
10.4211,17.3772,-10.1393,156.557,-84.4505,-158.94,4.06514,-3.27239,3.4299,-2.21124,-4.12963,1.35601,-4.70966,-2.14163,-0.173671,4.43093,8.99178,18.3205,-1.569,12.8186,-18.1619,1.23369,6.55853,-8.33848,-7.17613e-14,1.90833e-14,-43.5794,29.7034,-95.7665,42.1889,37.4528,0.302241,23.3167,7.12502,25.8798,-4.94217,-7.17613e-14,1.90833e-14,-79.8631,-37.5995,131.412,41.0286,-4.29918,-4.70105,7.36642,7.12502,21.0806,36.2405,-11.9662,-11.3304,23.4653,44.0996,-23.3339,-0.51158,36.6296,-10.0358,17.8198,-18.0103,39.0791,-26.5142,13.6781,-19.3208
10.4241,17.4125,-10.1011,159.338,-84.4728,-161.536,4.05211,-3.3883,3.43984,-2.32069,-4.28541,1.25808,-4.83011,-2.22263,-0.262255,4.42559,9.09433,18.3435,-1.50078,12.9664,-18.062,1.27554,6.6313,-8.2964,6.11263e-14,3.97569e-15,-44.1743,30.0814,-95.8282,42.903,36.8579,1.18005,23.6218,7.12502,26.7202,-4.51161,6.11263e-14,3.97569e-15,-80.2116,-37.9093,131.584,41.1791,-5.23645,-3.77299,7.411,7.12502,21.9719,36.1831,-12.9298,-11.6936,23.0227,45.1783,-22.3902,-0.987738,35.2215,-9.72721,17.2977,-18.6028,38.0585,-29.472,7.8949,9.5418
10.4278,17.4432,-10.0753,159.91,-84.3982,-161.934,3.98879,-3.42006,3.45589,-2.36485,-4.3281,1.30253,-4.83956,-2.24467,-0.223717,4.53689,9.14374,18.4726,-1.62306,13.0485,-18.2463,1.25993,6.67832,-8.37903,-2.42517e-14,-1.27222e-14,-44.5227,30.1629,-95.5089,43.4109,36.4394,1.09872,23.2139,7.12502,26.6423,-4.9314,-2.42517e-14,-1.27222e-14,-80.5983,-38.5361,131.998,41.4258,-6.129,-3.00639,7.44277,7.12502,22.7078,36.1266,-14.0973,-11.8633,22.9403,46.7022,-21.6113,-1.41836,33.5654,-9.30168,16.8061,-18.8748,36.7545,-27.5973,10.9395,-3.90583
10.4237,17.4701,-10.0882,157.287,-84.0475,-159.325,4.01895,-3.41488,3.297,-2.29467,-4.32126,1.64357,-4.74406,-2.23103,0.213225,4.65503,9.25805,18.2945,-1.83799,13.1908,-18.3218,1.19936,6.75484,-8.37633,-3.74212e-14,1.66979e-14,-44.8104,30.3993,-94.956,43.8408,36.349,0.842228,23.3329,7.12502,26.3968,-4.84945,-3.74212e-14,1.66979e-14,-80.4392,-39.0487,131.843,42.3974,-5.0977,-0.3757,9.15626,7.12502,25.2305,37.5082,-14.9144,-11.5468,23.4777,47.8304,-20.4812,-2.78218,27.662,-8.84443,16.5257,-18.5055,35.9443,-26.5499,12.7044,-12.0949
10.465,17.4867,-9.94872,193.663,-84.6826,-194.704,3.54027,-3.61816,1.13424,-2.85763,-4.76113,0.635067,-4.97491,-2.39682,0.397173,4.90446,9.41217,18.0643,-2.00276,13.408,-18.3129,1.13488,6.87438,-8.33954,3.10104e-14,-9.14409e-15,-45.5341,31.2151,-94.779,44.4863,36.0269,0.957154,23.5151,7.12502,26.5068,-4.65073,3.10104e-14,-9.14409e-15,-80.5323,-39.3492,131.95,42.3628,-6.83796,-2.84892,10.4904,7.12502,22.859,39.1557,-17.4377,-13.7468,19.0327,49.448,-18.8942,-1.22869,24.7089,-9.66144,15.666,-23.3776,34.9227,-28.0401,11.9431,-4.54225
10.4438,17.5065,-10.0189,160.207,-84.3066,-161.997,4.25975,-3.72781,3.10286,-2.47685,-4.73205,1.79596,-5.05226,-2.42951,0.539695,5.19787,9.49892,18.1958,-2.2794,13.552,-18.7017,1.07386,6.96301,-8.49874,-3.03147e-15,5.96354e-15,-46.1159,31.7147,-94.4882,45.0099,35.7137,1.31428,23.634,7.12502,26.8486,-4.47977,-3.03147e-15,5.96354e-15,-79.484,-39.6176,130.629,42.2082,-7.33986,-3.68571,13.3368,7.12502,22.0557,42.0991,-16.9666,-12.4823,22.7783,50.1537,-18.7168,-2.31091,28.8512,-8.40904,16.1036,-19.3793,34.3668,-28.3399,11.4579,-3.80254
10.4515,17.5238,-9.99432,163.812,-84.5319,-165.613,4.37138,-3.82895,2.73067,-2.42598,-4.88719,1.73632,-5.0381,-2.49316,0.702639,5.3268,9.54873,18.4363,-2.58031,13.6254,-19.1324,1.03202,7.00967,-8.68517,-9.44227e-16,1.03368e-14,-46.2543,31.566,-93.8675,45.2738,35.857,1.60108,24.1047,7.12502,27.123,-3.96655,-9.44227e-16,1.03368e-14,-78.5728,-40.2158,129.4,42.5645,-8.50264,-1.57262,10.6239,7.12502,24.0833,39.1326,-17.8713,-12.7944,22.2596,51.2173,-18.2378,-2.36522,30.785,-8.1194,15.7027,-20.0159,33.6146,-27.5298,13.417,-9.75016
10.4564,17.5491,-9.97943,165.634,-84.7339,-167.535,4.5275,-3.96068,2.39397,-2.32463,-5.07902,1.74179,-4.99244,-2.57524,0.917394,5.49826,9.61101,18.4716,-2.9183,13.7031,-19.3517,0.942636,7.05932,-8.77518,-2.47984e-14,6.36111e-15,-46.4749,31.6434,-93.3794,45.6618,36.1695,1.93462,24.25,7.12502,27.4421,-3.7711,-2.47984e-14,6.36111e-15,-77.6977,-40.8813,128.269,43.1518,-9.41309,-0.577215,9.8167,7.12502,25.0374,38.1957,-18.4556,-13.0667,21.9841,51.7481,-17.6968,-2.59552,30.7758,-8.00517,15.143,-20.3348,33.4026,-27.5851,14.1985,-8.43102
10.4618,17.5635,-9.96605,166.482,-84.9256,-168.418,4.56036,-4.1443,2.14012,-2.19387,-5.3397,1.78027,-4.8487,-2.69467,1.11521,5.47013,9.78327,18.237,-3.13778,13.8937,-19.2773,0.898835,7.15302,-8.703,2.3556e-14,-2.54444e-14,-46.7907,32.1886,-93.1947,46.2403,35.784,3.10258,23.9896,7.12502,28.5586,-3.84923,2.3556e-14,-2.54444e-14,-79.6497,-42.1932,130.827,45.4185,-11.0283,-4.56192,22.8851,7.12502,21.2143,51.7442,-19.2062,-13.406,21.8609,52.417,-17.7338,-2.67734,30.3133,-7.77616,14.8825,-20.507,32.8554,-27.4346,13.9421,-4.19633
10.464,17.5679,-9.95702,165.965,-85.0495,-167.966,4.58349,-4.29662,2.03561,-2.02793,-5.55159,1.75885,-4.68094,-2.79577,1.16177,5.24315,9.94476,18.2444,-3.15806,14.0819,-19.111,0.953323,7.23387,-8.62068,-2.62893e-14,2.06736e-14,-47.1105,32.6573,-93.2126,46.6791,35.2226,3.96301,23.8084,7.12502,29.3804,-3.88928,-2.62893e-14,2.06736e-14,-75.347,-42.2386,125.146,44.1017,-10.8391,-2.01579,9.91071,7.12502,23.6583,38.4749,-19.9298,-13.6382,21.9713,52.9122,-18.0446,-3.00717,30.2086,-7.39091,14.8328,-20.4873,32.377,-27.4757,12.6964,1.21114
10.4603,17.578,-9.9553,166.052,-85.2434,-168.131,4.67311,-4.39652,1.74415,-1.94692,-5.70159,1.7537,-4.6187,-2.86086,1.33214,5.35231,9.98445,18.5166,-3.35609,14.1545,-19.2196,0.921464,7.27565,-8.70429,-5.28767e-14,5.56597e-15,-47.548,32.8367,-93.0773,46.8068,35.6217,2.93544,23.9746,7.12502,28.3989,-3.89093,-5.28767e-14,5.56597e-15,-74.1492,-42.9847,123.557,44.4962,-11.5298,-3.41291,9.08609,7.12502,22.3176,37.8172,-20.6051,-13.9323,22.0761,53.2388,-18.4036,-3.56479,29.8991,-7.02009,14.9403,-20.4802,31.96,-27.168,11.9144,2.37958
10.4579,17.5887,-9.94773,168.616,-85.5434,-170.756,4.89051,-4.57127,1.32831,-1.99775,-5.95518,1.75267,-4.75055,-2.97288,1.60339,5.67127,10.0929,18.4107,-3.62009,14.3168,-19.2162,0.816292,7.37236,-8.70209,5.66039e-14,-1.35174e-14,-48.1664,32.9752,-92.7577,47.0371,36.056,2.26534,24.17,7.12502,27.7583,-3.80053,5.66039e-14,-1.35174e-14,-72.6392,-43.2977,121.669,44.9511,-12.4423,-4.19284,9.1033,7.12502,21.5688,37.9222,-21.2728,-14.4027,21.9341,53.3897,-18.8845,-4.13759,29.2427,-6.78562,14.9038,-20.7637,31.5816,-26.5855,12.004,0.898065
10.4579,17.5914,-9.93712,167.873,-85.6817,-170.163,5.18477,-4.72782,1.33658,-1.98232,-6.15643,1.74837,-4.89991,-3.07103,1.63959,5.84769,10.2062,18.3197,-3.71448,14.4834,-19.1287,0.777505,7.46306,-8.66089,-2.68359e-14,-1.82882e-14,-48.7935,33.0912,-92.5129,47.4347,35.9635,3.02859,24.2304,7.12502,28.4879,-3.62026,-2.68359e-14,-1.82882e-14,-71.1573,-43.7114,119.628,45.7476,-13.0461,-4.24724,10.3696,7.12502,21.5165,39.1945,-21.8025,-14.6025,22.1285,53.3146,-19.5671,-4.64669,30.6371,-6.51086,14.5565,-20.7705,31.3301,-26.4231,12.0354,2.95179
10.4507,17.5896,-9.93274,164.527,-85.8355,-166.989,5.30148,-4.84823,1.3525,-1.83664,-6.31175,1.85504,-4.80154,-3.1477,1.75678,5.89567,10.2299,18.4332,-3.82761,14.5196,-19.2877,0.766542,7.48522,-8.73271,-4.5149e-14,1.35174e-14,-49.3921,33.6731,-92.3926,47.7401,35.3179,3.27611,24.3441,7.12502,28.7244,-3.46674,-4.5149e-14,1.35174e-14,-69.7161,-44.4954,117.881,46.6263,-13.392,-6.06418,10.4897,7.12502,19.7707,39.5042,-22.233,-14.9015,22.5467,53.0297,-20.2194,-5.29678,32.2183,-6.27445,14.1976,-20.5807,31.2504,-26.1513,12.3507,3.24961
10.4406,17.5812,-9.92415,161.257,-86.1944,-163.915,5.46839,-5.03462,1.23465,-1.74321,-6.56302,1.96565,-4.76834,-3.26763,1.9683,6.00724,10.2318,18.6868,-3.90222,14.5499,-19.6002,0.778958,7.50911,-8.87902,1.53561e-14,7.95139e-15,-50.0732,34.4115,-92.363,47.8901,34.4366,2.8113,24.3449,7.12502,28.2802,-3.5404,1.53561e-14,7.95139e-15,-68.1105,-45.2059,116.091,47.3904,-13.8412,-7.812,9.37892,7.12502,18.0897,38.5577,-22.5969,-15.7102,22.8438,52.5899,-20.5199,-6.28507,31.0559,-6.06283,14.1462,-20.4476,31.2381,-25.6957,12.507,1.01922
10.4361,17.5729,-9.91434,158.09,-86.4704,-160.966,5.77929,-5.15985,1.19095,-1.71294,-6.72555,1.98613,-4.90178,-3.34468,2.05874,6.16084,10.1976,18.9954,-3.92925,14.549,-19.8556,0.791091,7.51851,-9.02021,-6.92765e-14,1.51076e-14,-50.5886,34.4247,-92.1142,47.9178,34.1815,2.85865,24.5034,7.12502,28.3255,-3.37433,-6.92765e-14,1.51076e-14,-66.4421,-45.8515,114.103,48.3184,-14.2268,-8.22769,9.3154,7.12502,17.6897,38.5307,-22.9437,-16.2967,23.184,52.0368,-20.3975,-7.61719,27.7035,-5.81827,14.384,-20.2636,31.2206,-25.4877,12.2651,-0.381619
10.4277,17.5732,-9.91287,159.894,-86.6687,-162.921,5.91216,-5.15255,0.920836,-1.67356,-6.73633,1.88717,-4.91593,-3.34202,2.11604,6.19781,10.1208,19.0536,-3.92534,14.4573,-19.7553,0.763367,7.47285,-9.00734,1.29459e-14,-1.27222e-14,-51.1262,34.0705,-91.7495,48.0203,34.1248,3.41843,25.1181,7.12502,28.8603,-2.66959,1.29459e-14,-1.27222e-14,-64.6985,-46.5045,112.026,49.4104,-14.4766,-8.8406,10.0175,7.12502,17.0999,39.2849,-23.3538,-16.3697,23.293,51.3911,-20.2088,-8.71609,25.6198,-5.58575,14.4876,-20.391,31.1496,-25.4571,12.2083,0.102177
10.4113,17.5739,-9.91361,165.312,-86.9544,-168.496,5.92308,-5.21195,0.301472,-1.58481,-6.86516,1.82804,-4.76044,-3.38994,2.39879,6.13897,10.1755,18.9591,-3.79463,14.5326,-19.5171,0.797053,7.50453,-8.9015,6.73383e-15,-1.03368e-14,-51.6643,34.0046,-91.4106,48.1085,33.9286,3.69076,25.3092,7.12502,29.1204,-2.4338,6.73383e-15,-1.03368e-14,-62.4367,-46.8082,109.588,50.3886,-14.864,-9.6263,10.2255,7.12502,16.3435,39.5569,-23.6898,-16.5678,23.1256,50.6183,-20.1396,-9.35208,24.9527,-5.31943,14.5262,-20.7558,31.0269,-25.2145,12.345,-0.0360955
10.3933,17.5741,-9.91435,167.439,-87.2315,-170.858,5.98667,-5.35912,-0.178597,-1.43128,-7.09751,1.87168,-4.56455,-3.49479,2.72124,6.07768,10.343,18.8584,-3.6853,14.7571,-19.4082,0.864838,7.61247,-8.82379,5.84427e-14,1.98785e-14,-51.9802,34.0583,-91.0497,48.0671,33.8765,3.84886,24.9799,7.12502,29.2714,-2.73687,5.84427e-14,1.98785e-14,-59.944,-46.9683,106.98,51.4648,-15.0489,-10.342,10.0436,7.12502,15.6543,39.4303,-23.8578,-16.9747,23.1489,49.6798,-19.8838,-9.89854,23.1806,-4.969,14.6321,-20.8447,30.9205,-24.9268,12.461,-2.28623
10.3759,17.5771,-9.90919,165.171,-87.4071,-168.784,6.12707,-5.42628,-0.0215378,-1.39368,-7.17758,1.75286,-4.63556,-3.53828,2.53474,6.04053,10.3753,18.8671,-3.52137,14.8168,-19.1437,0.906281,7.63664,-8.72765,-3.0265e-14,-2.38542e-15,-52.5478,33.6604,-90.88,47.9618,33.8898,4.15047,25.2682,7.12502,29.5593,-2.39792,-3.0265e-14,-2.38542e-15,-57.9605,-47.4086,104.603,52.7791,-15.0694,-11.7903,9.71007,7.12502,14.2591,39.2005,-24.0379,-17.2184,23.4296,48.5961,-19.9219,-9.71405,25.0642,-4.68778,14.6394,-20.7051,30.8618,-24.7498,12.4512,-3.84958
10.3573,17.577,-9.90006,160.205,-87.5287,-163.845,6.1564,-5.50333,0.123774,-1.46589,-7.26617,1.83053,-4.7322,-3.58397,2.55255,6.13061,10.3855,18.7891,-3.35758,14.8566,-18.9936,0.926431,7.65923,-8.66572,7.90666e-14,-1.03368e-14,-53.3331,33.5844,-90.6069,47.8575,33.7143,4.38458,25.7127,7.12502,29.7828,-1.91365,7.90666e-14,-1.03368e-14,-55.7596,-47.3302,102.223,54.0074,-15.5775,-13.2553,8.90802,7.12502,12.8471,38.4926,-24.3571,-17.3513,23.872,47.4333,-20.5004,-8.65128,31.0097,-4.60414,14.51,-20.5247,30.8113,-24.5882,12.3789,-3.86488
10.3346,17.5726,-9.89535,162.136,-87.7425,-165.848,6.06123,-5.63676,-0.373616,-1.41764,-7.47832,2.0478,-4.52797,-3.67822,3.04864,6.23129,10.4881,18.5606,-3.30509,14.995,-19.1828,0.950755,7.73692,-8.68463,2.66868e-14,4.77083e-15,-53.9477,34.217,-90.2251,47.8194,33.4182,4.27669,25.3056,7.12502,29.6798,-2.33916,2.66868e-14,4.77083e-15,-52.9971,-46.6906,99.5748,55.2486,-16.3161,-12.2756,7.64434,7.12502,13.7914,37.1672,-24.586,-17.4975,23.9767,46.2431,-20.5231,-7.94473,33.3681,-4.452,14.3568,-20.7013,30.7577,-24.4521,12.6152,-4.83675
10.3134,17.5686,-9.88948,174.611,-87.9586,-178.529,6.09023,-5.73593,-1.00011,-1.33053,-7.66071,1.98901,-4.37089,-3.75606,3.33925,6.24285,10.5927,18.4034,-3.21247,15.1332,-19.2868,0.99898,7.80835,-8.67967,3.3048e-14,-3.97569e-15,-54.5072,34.6158,-89.937,47.735,33.4339,3.85325,24.7619,7.12502,29.2756,-2.95409,3.3048e-14,-3.97569e-15,-50.6122,-46.2843,97.0871,56.8462,-16.3945,-14.4245,8.54221,7.12502,11.7198,38.1944,-24.7316,-17.609,23.6768,45.0682,-19.7991,-7.93318,31.8208,-4.13902,14.2353,-21.258,30.6906,-24.3687,12.8155,-5.64068
10.2893,17.5633,-9.88527,172.973,-88.0222,-177.02,6.04897,-5.76402,-0.931279,-1.28466,-7.69384,1.96686,-4.30999,-3.7762,3.27378,6.22243,10.651,18.3139,-3.02229,15.2223,-19.1697,1.0561,7.85025,-8.61375,6.31141e-15,0,-55.0753,34.5224,-89.5977,47.5213,33.5004,3.70898,24.7205,7.12502,29.1378,-3.01945,6.31141e-15,0,-48.759,-46.3715,95.1095,58.5808,-15.8673,-14.8684,9.22646,7.12502,11.2916,38.9025,-24.934,-17.85,24.0213,43.9113,-19.1678,-7.76687,30.4641,-3.85928,14.2162,-21.1503,30.5756,-24.4848,12.3925,-3.79476
10.2549,17.5566,-9.88042,164.352,-87.9889,-168.515,5.88233,-5.72264,-0.569185,-1.25118,-7.61256,1.9519,-4.23499,-3.7472,3.03404,6.35019,10.5947,18.3768,-2.88821,15.1851,-19.0346,1.05885,7.83588,-8.58869,-9.54166e-14,-2.38542e-15,-55.6992,34.0714,-89.2407,47.3307,33.4261,4.15086,24.9622,7.12502,29.5597,-2.70385,-9.54166e-14,-2.38542e-15,-47.0447,-46.6913,93.2515,60.3515,-15.6167,-15.6504,11.4726,7.12502,10.5374,41.1885,-25.0018,-18.2688,24.5662,42.7451,-18.6315,-6.92759,30.5377,-3.52576,14.5492,-20.67,30.4837,-24.5827,11.8551,-2.36031
10.2235,17.5477,-9.87284,170.93,-88.0588,-175.385,5.98028,-5.6959,-0.706489,-1.24507,-7.59317,1.70582,-4.30023,-3.73375,2.86614,6.59741,10.5287,18.5139,-2.91767,15.1444,-18.8374,0.994757,7.82416,-8.56869,2.70347e-14,-2.06736e-14,-56.3613,33.4271,-88.9464,47.136,33.5695,4.79195,25.359,7.12502,30.1715,-2.19706,2.70347e-14,-2.06736e-14,-45.4283,-46.8761,91.2704,62.2795,-15.4345,-16.8028,14.1706,7.12502,9.42564,43.9398,-24.8051,-18.501,24.4251,41.5519,-17.8482,-6.26592,30.4526,-3.04027,14.8208,-20.7973,30.465,-24.6243,11.6384,-2.35062
10.195,17.5391,-9.86974,169.402,-88.182,-174.192,6.16352,-5.75256,-0.61529,-1.16731,-7.6662,1.56086,-4.3504,-3.77236,2.691,6.62509,10.5868,18.4794,-2.92507,15.2268,-18.5723,0.977297,7.86259,-8.47453,9.93923e-14,-2.38542e-15,-56.93,33.0668,-88.7534,46.8545,33.7458,5.05163,25.535,7.12502,30.4192,-1.97555,9.93923e-14,-2.38542e-15,-43.7993,-47.0625,89.4367,64.2754,-14.7196,-17.3987,12.9702,7.12502,8.85058,42.7646,-24.5153,-18.5917,24.5903,40.3701,-16.982,-6.3779,29.2803,-2.54351,14.5798,-20.7115,30.4338,-24.7949,11.4731,-1.95739
10.1618,17.5349,-9.86962,155.681,-88.3453,-160.705,6.15287,-5.89684,-0.323595,-1.03998,-7.83493,1.6594,-4.22945,-3.86608,2.6385,6.47452,10.705,18.3177,-2.72556,15.3699,-18.4775,1.06498,7.92609,-8.39112,2.52457e-14,-3.97569e-15,-57.4315,33.1116,-88.4888,46.6075,33.7791,5.10927,25.6061,7.12502,30.4742,-1.89422,2.52457e-14,-3.97569e-15,-42.2558,-47.3464,88.0418,66.5616,-13.309,-18.6061,12.8883,7.12502,7.68539,42.7286,-24.2833,-18.6852,25.0751,39.2887,-16.1372,-6.53674,29.4771,-2.14803,14.1404,-20.297,30.3678,-24.9817,11.2495,-0.26428
10.131,17.5266,-9.87064,158.097,-88.569,-163.37,6.25585,-5.98835,-0.52023,-1.01983,-7.97247,1.64147,-4.2364,-3.92956,2.74886,6.48057,10.742,18.1726,-2.54925,15.4237,-18.5027,1.11548,7.95366,-8.36776,1.83876e-14,9.54166e-15,-58.096,33.1604,-88.2006,46.4791,33.5564,5.39711,25.6399,7.12502,30.7487,-1.80913,1.83876e-14,9.54166e-15,-39.2998,-46.0843,84.9709,67.9592,-15.625,-17.1201,9.29005,7.12502,9.11947,39.0729,-24.029,-18.5746,24.976,38.3349,-15.0994,-6.88326,30.5409,-1.76657,13.9844,-20.3775,30.374,-25.1231,11.0765,1.51194
10.1007,17.5127,-9.8733,175.276,-88.6203,-180.872,6.49924,-5.93962,-0.89435,-1.07229,-7.94312,1.41459,-4.41061,-3.90259,2.74959,6.6838,10.6908,18.1597,-2.47376,15.3903,-18.3652,1.08413,7.94441,-8.33764,4.85035e-14,1.11319e-14,-58.9896,33.0151,-88.1141,46.3785,33.4119,5.15849,25.2707,7.12502,30.5211,-2.22094,4.85035e-14,1.11319e-14,-37.909,-46.2993,83.4849,70.0612,-15.0888,-17.8834,9.54481,7.12502,8.38287,39.3585,-23.7712,-18.3381,24.6052,37.5844,-13.5775,-7.71286,29.8883,-1.28506,14.2487,-20.6776,30.4247,-25.06,11.1515,0.048377
10.0667,17.4998,-9.87612,177.538,-88.673,-183.293,6.48028,-5.91797,-0.872571,-1.09612,-7.91808,1.23643,-4.45421,-3.8908,2.55355,6.7477,10.658,18.2441,-2.31193,15.3794,-18.1179,1.1026,7.93836,-8.27288,1.69414e-13,-3.97569e-15,-59.703,32.5728,-87.9072,46.1358,33.8853,4.56762,25.2365,7.12502,29.9575,-2.35842,1.69414e-13,-3.97569e-15,-36.2178,-46.4538,81.5882,72.0265,-15.5153,-17.9968,7.50161,7.12502,8.27347,37.3196,-23.743,-18.2947,24.7178,37.1132,-12.2836,-8.55502,30.9873,-0.976943,14.5492,-20.5725,30.4492,-24.9094,11.1514,-2.22828
10.0276,17.4907,-9.87271,169.526,-88.9049,-175.379,6.29993,-5.97474,-0.572662,-1.05012,-7.97349,1.12372,-4.3595,-3.92908,2.25769,6.58305,10.6657,18.3069,-2.1218,15.3884,-17.9931,1.17975,7.93373,-8.22472,-1.36714e-13,-3.18055e-15,-60.2178,32.0327,-87.4824,45.9038,34.2193,4.78178,25.6089,7.12502,30.1618,-1.94896,-1.36714e-13,-3.18055e-15,-34.3157,-46.6079,79.6255,73.9927,-15.6862,-17.7143,6.51305,7.12502,8.54601,36.3201,-23.7447,-18.5651,25.0221,36.9057,-11.8697,-9.44416,35.6441,-0.771453,14.7842,-20.2473,30.5077,-24.9579,10.7903,-3.00527
9.98326,17.4754,-9.87053,181.814,-89.1345,-188.126,6.43847,-6.04297,-0.768261,-0.906205,-8.08567,0.964165,-4.27942,-3.98323,2.21628,6.54265,10.7235,18.2942,-2.04583,15.4662,-18.0027,1.22241,7.97064,-8.21395,-4.70126e-14,-1.98785e-15,-60.7471,31.8497,-87.0998,45.7805,34.0405,5.33141,25.7174,7.12502,30.686,-1.7434,-4.70126e-14,-1.98785e-15,-32.5399,-46.6477,77.8416,76.0939,-15.5072,-16.9549,8.50868,7.12502,9.27885,38.2845,-23.3062,-18.9712,24.7648,36.9457,-11.7309,-10.5982,39.6812,-0.158237,15.1349,-20.2063,30.6821,-25.0328,10.5841,-4.62655
9.93866,17.4428,-9.88192,201.186,-89.1628,-208.087,6.73526,-6.12666,-1.24943,-0.773237,-8.24015,0.905638,-4.2427,-4.05029,2.45464,6.76964,10.8042,18.1371,-2.08813,15.5906,-18.1203,1.19405,8.04406,-8.23426,-5.97348e-14,-1.27222e-14,-61.3688,32.067,-86.7334,45.7772,33.8864,5.73508,25.9091,7.12502,31.0709,-1.47888,-5.97348e-14,-1.27222e-14,-31.0023,-46.4148,76.1989,78.1516,-15.5113,-16.6148,9.51873,7.12502,9.60699,39.2797,-22.6727,-19.1722,24.4446,37.1712,-12.2076,-11.6645,41.8103,0.625336,15.4914,-20.1488,30.8852,-25.0278,10.7735,-7.45151
9.90598,17.4082,-9.87047,205.214,-89.2246,-212.205,6.60143,-6.17776,-1.11686,-0.785747,-8.29646,0.905314,-4.19707,-4.0824,2.37287,6.88242,10.8097,17.7702,-2.05206,15.5822,-18.0371,1.14801,8.04388,-8.16176,-1.24886e-13,7.15625e-15,-62.0585,32.2177,-86.2391,45.8957,33.8384,5.96332,26.3485,7.12502,31.2884,-0.997613,-1.24886e-13,7.15625e-15,-29.3547,-46.3939,74.6366,80.0717,-15.6348,-16.8087,8.9439,7.12502,9.41996,38.7134,-22.6974,-19.3897,24.4895,37.5007,-13.1634,-11.8589,43.1602,0.709306,15.4587,-20.1754,31.1267,-25.225,11.0004,-8.66532
9.86463,17.3874,-9.87447,210.996,-89.3167,-218.152,6.39697,-6.16064,-1.03991,-0.702689,-8.26983,0.785206,-4.02595,-4.07607,2.17561,6.89776,10.7474,17.5304,-2.10495,15.4725,-17.7451,1.06582,7.98648,-8.047,7.46933e-14,-1.98785e-15,-62.6623,31.9933,-85.8819,45.8657,33.8299,5.65357,26.3577,7.12502,30.9932,-1.04505,7.46933e-14,-1.98785e-15,-27.6102,-46.8562,72.9644,82.196,-15.6344,-16.6578,9.56214,7.12502,9.56557,39.325,-22.5268,-19.3685,24.4766,37.8453,-13.8329,-11.7881,43.4456,0.91294,15.5667,-20.0051,31.409,-25.743,10.4441,-6.98872
9.81878,17.3683,-9.88157,225.273,-89.4097,-232.763,6.44549,-6.1898,-1.00855,-0.621034,-8.31418,0.560377,-4.00447,-4.10129,1.93454,7.08215,10.685,17.7612,-2.2908,15.4188,-17.7896,0.994481,7.96807,-8.11829,-6.39093e-14,1.55052e-14,-63.4504,31.8207,-85.9487,45.7938,33.7087,5.32909,26.281,7.12502,30.6838,-1.18023,-6.39093e-14,1.55052e-14,-26.0108,-47.2933,71.2195,84.0571,-15.9603,-17.0273,9.92719,7.12502,9.20904,39.7061,-22.0847,-19.2414,24.2967,38.1971,-14.0424,-11.9244,41.9434,1.2958,15.6187,-19.8333,31.7331,-26.178,10.0513,-5.90992
9.77598,17.3488,-9.88515,246.279,-89.2505,-254.03,6.54693,-6.15376,-1.22715,-0.672546,-8.28957,0.419532,-4.10585,-4.08287,1.9228,7.16042,10.6037,17.8299,-2.15068,15.3369,-17.8772,1.02019,7.93153,-8.16383,7.8023e-15,-1.19271e-15,-64.3898,31.7533,-85.6619,45.8438,33.7337,5.73134,27.6067,7.12502,31.0673,0.218067,7.8023e-15,-1.19271e-15,-24.5046,-47.5552,69.9002,85.5645,-16.0509,-17.9954,9.37136,7.12502,8.27476,39.1893,-21.7414,-18.9073,23.8318,38.5284,-14.282,-12.1437,40.3875,1.58729,15.6937,-19.9618,32.0562,-26.438,10.1183,-7.20968
9.74019,17.3239,-9.88966,266.321,-88.8868,-274.102,6.47198,-6.1772,-1.61951,-0.784724,-8.35646,0.289217,-4.14233,-4.10675,2.00552,7.09603,10.5712,17.7368,-1.90913,15.2949,-17.8413,1.08224,7.9068,-8.13029,1.01132e-13,2.38542e-15,-65.0569,31.6333,-85.0407,45.8628,34.1392,6.24555,28.8637,7.12502,31.5573,1.56994,1.01132e-13,2.38542e-15,-23.1128,-47.7054,68.7473,87.2147,-15.4832,-18.53,9.21794,7.12502,7.75877,39.0556,-21.7256,-18.5997,23.2292,38.836,-14.9169,-11.9757,41.4,1.51613,15.873,-20.269,32.4762,-26.6194,9.81699,-7.81993
9.70546,17.2867,-9.8919,282.864,-88.8178,-290.685,6.34954,-6.34255,-1.5696,-0.785064,-8.57547,0.172633,-4.09089,-4.21895,1.86473,7.07414,10.6093,17.9945,-1.85116,15.3722,-18.0728,1.1568,7.94675,-8.23154,-7.10655e-15,2.78299e-15,-65.6566,31.6173,-84.9687,45.9242,34.0862,6.2935,27.7838,7.12502,31.6029,0.499,-7.10655e-15,2.78299e-15,-21.7525,-47.6259,67.3144,88.9031,-15.0804,-18.5855,9.09617,7.12502,7.70522,38.9358,-21.6813,-18.6862,23.0833,39.1147,-15.6072,-11.5516,42.6884,1.38899,16.0075,-20.09,33.0284,-26.9528,8.82263,-5.60363
9.66838,17.249,-9.88752,293.411,-89.0205,-301.417,6.30178,-6.43502,-1.20845,-0.715925,-8.66902,0.188613,-4.03947,-4.275,1.68553,6.98333,10.6662,18.0585,-1.71263,15.4541,-18.2518,1.24734,7.98501,-8.27995,-1.02523e-13,-6.36111e-15,-65.5796,31.2838,-83.7655,45.7909,35.5278,6.67037,29.896,7.12502,31.9619,2.68239,-1.02523e-13,-6.36111e-15,-20.489,-47.5863,66.0262,90.6741,-14.7702,-18.7026,9.2845,7.12502,7.59225,39.1282,-21.4009,-18.9246,23.2527,39.3313,-15.8326,-11.2974,42.1024,1.41709,16.1834,-19.5917,33.7197,-27.4439,8.01335,-3.15962
9.63345,17.2229,-9.88025,299.009,-89.1135,-307.157,6.19521,-6.49182,-0.976772,-0.661965,-8.7234,0.250459,-3.94675,-4.3088,1.61179,6.81954,10.7594,17.7428,-1.53796,15.5431,-18.2121,1.31245,8.02021,-8.19619,-1.05356e-13,-9.93923e-15,-66.4662,31.774,-83.9929,46.0586,34.8314,5.97855,28.1831,7.12502,31.3029,0.839788,-1.05356e-13,-9.93923e-15,-19.3397,-47.5811,64.9376,92.3262,-14.465,-18.926,9.7632,7.12502,7.37658,39.6146,-21.165,-19.0769,23.3025,39.517,-15.7239,-11.2796,40.7549,1.32679,16.2917,-19.3586,34.4919,-27.8412,8.33936,-4.90294
9.60326,17.2085,-9.87477,319.019,-89.3202,-327.28,6.15242,-6.59119,-0.533002,-0.656501,-8.81889,0.355064,-3.96449,-4.36478,1.48445,6.82123,10.8366,17.4833,-1.49645,15.627,-18.2327,1.32068,8.06113,-8.15591,-1.7344e-14,4.37326e-15,-67.2369,32.1924,-84.0857,46.2304,34.3485,5.56228,26.9579,7.12502,30.9061,-0.461426,-1.7344e-14,4.37326e-15,-18.3315,-47.371,63.9671,93.4182,-14.5536,-19.0656,8.88988,7.12502,7.24186,38.746,-21.0367,-19.227,23.5988,39.7294,-15.8556,-11.2239,40.4751,1.19698,16.4164,-18.8659,35.2062,-28.29,8.55222,-7.24788
9.57603,17.1958,-9.87049,360.263,-89.4503,-368.668,6.26641,-6.66513,-0.00133219,-0.703697,-8.87397,0.470827,-4.13798,-4.39999,1.34346,6.85492,10.8719,17.4411,-1.41578,15.6824,-18.327,1.35342,8.09015,-8.17457,7.46933e-14,2.78299e-15,-67.6941,32.3587,-83.6244,46.3044,34.556,5.91384,27.4559,7.12502,31.2412,0.100649,7.46933e-14,2.78299e-15,-17.5834,-47.2141,63.1768,94.4691,-14.7046,-19.1486,7.82866,7.12502,7.16173,37.6875,-20.9636,-19.4026,24.01,39.9921,-16.3333,-10.9478,41.6691,1.17452,16.7464,-18.1375,35.8253,-28.6738,8.0317,-7.42868
9.54932,17.1845,-9.86484,376.293,-89.438,-384.79,6.28535,-6.66399,0.240695,-0.726409,-8.85259,0.51334,-4.20233,-4.39359,1.26056,6.71036,10.8652,17.4668,-1.23314,15.6727,-18.4694,1.4426,8.07848,-8.20847,4.10987e-14,8.74653e-15,-68.1727,32.4872,-83.201,46.4715,34.6246,6.33839,27.5771,7.12502,31.6457,0.300782,4.10987e-14,8.74653e-15,-16.8895,-47.2773,62.461,95.9429,-14.5043,-19.1325,8.06139,7.12502,7.17726,37.9197,-20.988,-19.4224,24.0988,40.3042,-16.614,-10.8382,42.3819,1.14717,16.8641,-17.8745,36.3221,-28.8716,7.89575,-7.79576
9.52768,17.1753,-9.8575,388.09,-89.4464,-396.638,6.25261,-6.64525,0.438892,-0.746425,-8.81108,0.563254,-4.22729,-4.37688,1.19939,6.77177,10.8489,17.3962,-1.22857,15.6519,-18.616,1.43734,8.07147,-8.2503,-3.80176e-14,8.34896e-15,-68.7265,32.6615,-82.8865,46.6689,34.4839,6.57744,27.4027,7.12502,31.8734,0.171491,-3.80176e-14,8.34896e-15,-16.2501,-47.3093,61.9032,97.3329,-14.2766,-19.1782,8.2871,7.12502,7.13315,38.1469,-21.0473,-19.2784,24.1495,40.6396,-16.5919,-10.8898,42.0785,1.10938,16.7923,-17.806,36.6773,-28.9607,8.23469,-8.80479
9.50966,17.1638,-9.84833,394.654,-89.533,-403.329,6.32548,-6.66276,0.497681,-0.742554,-8.82868,0.587085,-4.26892,-4.3862,1.20324,6.94469,10.9109,17.3623,-1.31921,15.7478,-18.7161,1.40667,8.12835,-8.28339,-7.78739e-14,1.11319e-14,-69.2437,33.0027,-82.7779,46.836,34.1248,6.41114,27.0959,7.12502,31.715,-0.166815,-7.78739e-14,1.11319e-14,-15.7677,-47.1193,61.4661,98.3637,-14.4046,-19.326,7.721,7.12502,6.99049,37.5856,-21.0509,-19.3118,24.0644,40.988,-16.3336,-10.7835,41.1665,1.23227,16.8818,-17.7814,36.9034,-29.0162,8.39371,-9.57593
9.48968,17.1539,-9.83583,404.641,-89.65,-413.513,6.42054,-6.68019,0.54676,-0.650791,-8.84813,0.582043,-4.23456,-4.39752,1.17899,6.80226,11.0203,17.4351,-1.24328,15.8934,-18.8176,1.49378,8.19437,-8.30074,5.56597e-15,-3.97569e-16,-69.4647,33.3335,-82.5476,46.9674,33.9408,6.38873,26.9461,7.12502,31.6937,-0.320768,5.56597e-15,-3.97569e-16,-15.2911,-46.9072,60.9106,99.3366,-14.5523,-19.6024,7.26012,7.12502,6.72369,37.1334,-21.0097,-19.5347,23.9076,41.3346,-15.9478,-10.6949,39.7718,1.53059,17.0856,-17.7201,37.0048,-29.2481,8.10341,-8.55294
9.47171,17.1444,-9.82282,413.425,-89.7025,-422.372,6.40303,-6.71749,0.663941,-0.576111,-8.88981,0.576878,-4.1653,-4.42191,1.10746,6.63681,11.1244,17.4158,-1.2627,16.0103,-18.9029,1.5433,8.24511,-8.30257,2.33572e-14,3.18055e-15,-69.5499,33.6773,-82.1955,47.0967,33.9564,6.65416,27.3968,7.12502,31.9464,0.180169,2.33572e-14,3.18055e-15,-14.819,-46.8091,60.2788,100.391,-14.341,-19.648,7.27125,7.12502,6.67959,37.1459,-21.0505,-19.7653,23.8027,41.6581,-15.9043,-10.5457,39.3823,1.73706,17.2782,-17.666,36.9694,-29.4629,7.54531,-6.45511
9.45788,17.1358,-9.81115,499.31,-90.2136,-508.305,6.40466,-6.74793,0.412146,-0.542638,-8.95419,0.442365,-4.11415,-4.44996,1.10864,6.67839,11.1946,17.4944,-1.45345,16.1005,-19.087,1.52185,8.29477,-8.37225,-1.61513e-14,-1.66979e-14,-69.6525,33.8999,-81.9804,47.1893,33.9098,6.63967,27.4328,7.12502,31.9326,0.213389,-1.61513e-14,-1.66979e-14,-14.4512,-46.807,59.7629,101.325,-14.0535,-19.5429,7.35698,7.12502,6.7811,37.2284,-21.0571,-19.9594,23.2895,41.9378,-16.1732,-10.1028,40.5974,1.94202,17.3038,-18.0868,36.7895,-29.5132,7.31351,-6.0693
9.44643,17.1372,-9.80114,461.014,-90.4722,-470.152,6.50413,-6.75055,0.150843,-0.478859,-8.98195,0.313374,-4.0839,-4.4595,1.12724,6.68252,11.2298,17.7654,-1.48918,16.1721,-19.3721,1.57317,8.33356,-8.49695,-4.28381e-14,7.15625e-15,-69.7965,33.9819,-81.8552,47.3196,33.9572,6.49306,26.7479,7.12502,31.793,-0.499346,-4.28381e-14,7.15625e-15,-14.2368,-46.8392,59.3971,102.065,-13.9842,-19.9382,7.34465,7.12502,6.39945,37.228,-20.9261,-19.9942,22.7994,42.1238,-16.3824,-9.71322,41.7449,2.2764,17.0603,-18.5439,36.5437,-29.4935,7.60338,-6.69157
9.43658,17.1427,-9.79238,445.423,-90.4901,-454.601,6.49205,-6.74929,0.149603,-0.448592,-8.97958,0.342516,-4.04079,-4.4588,1.15297,6.68922,11.2518,17.7693,-1.48088,16.2046,-19.4742,1.59044,8.35063,-8.52702,-6.64935e-14,3.26007e-14,-70.0426,34.1842,-81.6533,47.5911,34.0046,6.72519,26.6095,7.12502,32.0141,-0.59366,-6.64935e-14,3.26007e-14,-14.1583,-46.8691,59.2117,102.746,-14.0458,-20.2485,7.26446,7.12502,6.09992,37.1566,-20.8879,-19.9025,22.6984,42.2196,-16.459,-9.56763,41.7703,2.49755,16.7786,-18.7279,36.2686,-29.4456,7.73144,-5.73144
9.42949,17.1492,-9.78392,435.863,-90.6328,-444.947,6.37886,-6.73259,0.0297764,-0.498643,-8.96495,0.390509,-4.00377,-4.44911,1.2525,6.7493,11.2601,17.6063,-1.48179,16.2083,-19.4245,1.56275,8.35451,-8.4913,-9.84978e-14,-1.66979e-14,-70.1441,34.4034,-81.2085,47.7697,34.2417,7.02737,27.3538,7.12502,32.3017,0.208881,-9.84978e-14,-1.66979e-14,-14.1759,-47.052,59.1818,103.368,-13.9124,-20.3483,7.49184,7.12502,6.00356,37.3868,-20.977,-19.7629,22.5517,42.2364,-16.2569,-9.64394,40.8706,2.54501,16.7932,-18.965,35.9943,-29.2325,8.01874,-6.40958
9.42607,17.158,-9.77654,432.935,-90.8812,-441.893,6.28516,-6.71956,-0.167773,-0.55707,-8.96448,0.327203,-3.99227,-4.44517,1.2855,6.71319,11.2644,17.731,-1.38808,16.2318,-19.3859,1.60674,8.36386,-8.49003,-5.26779e-15,3.97569e-15,-70.1086,34.6616,-80.9784,47.7866,34.5149,6.8828,27.9597,7.12502,32.1641,0.786785,-5.26779e-15,3.97569e-15,-14.2585,-47.302,58.9928,103.922,-13.7384,-20.7391,7.73349,7.12502,5.62628,37.6388,-21.064,-19.5395,22.3039,42.1712,-16.1524,-9.78521,40.3043,2.55033,17.087,-19.2276,35.7589,-28.8409,8.72748,-10.0126
9.4254,17.1651,-9.76686,431.058,-91.1004,-439.9,6.21386,-6.68518,-0.236351,-0.582389,-8.92948,0.156846,-3.9963,-4.42761,1.13945,6.56219,11.2301,18.0884,-1.23552,16.214,-19.2966,1.69336,8.34753,-8.501,3.59303e-14,-2.3059e-14,-70.1758,34.7891,-81.1428,47.8905,34.3462,6.71283,28.0754,7.12502,32.0023,0.869907,3.59303e-14,-2.3059e-14,-14.2593,-47.5787,58.6104,104.366,-13.8539,-20.6868,7.37366,7.12502,5.67673,37.2776,-21.1042,-19.3219,22.0676,42.043,-16.4841,-9.66547,41.3338,2.5756,17.4306,-19.4253,35.5211,-28.705,8.68021,-10.4833
9.42836,17.1726,-9.7544,428.47,-91.1339,-437.302,6.27293,-6.66162,-0.143613,-0.565466,-8.89406,0.0770671,-4.03901,-4.41209,1.01297,6.21156,11.2214,18.4244,-0.828897,16.2243,-19.2947,1.89757,8.33434,-8.51262,1.20265e-13,-2.74323e-14,-70.1941,34.7407,-81.0968,48.1523,34.3333,6.8566,28.1181,7.12502,32.1392,0.94012,1.20265e-13,-2.74323e-14,-14.3272,-47.7705,58.4871,104.668,-14.053,-20.0186,6.54831,7.12502,6.32184,36.434,-20.9816,-19.1628,21.9923,41.8315,-16.5478,-9.53523,42.2719,2.6859,17.5044,-19.4708,35.2761,-28.6846,8.29077,-9.04247
9.43688,17.184,-9.74445,418.638,-90.9624,-427.45,6.36178,-6.67437,0.104556,-0.535142,-8.88949,0.153948,-4.08245,-4.4139,0.96785,5.91964,11.2409,18.7166,-0.478373,16.2724,-19.5483,2.10392,8.3437,-8.60197,-3.67752e-14,-7.15625e-15,-70.1107,34.8874,-80.9339,48.4802,34.5477,7.145,28.077,7.12502,32.4137,0.954892,-3.67752e-14,-7.15625e-15,-14.538,-47.8627,58.4991,104.864,-14.2188,-19.8194,6.01376,7.12502,6.5142,35.8936,-20.8799,-18.9373,22.2525,41.5585,-16.1704,-9.80464,41.727,2.76897,17.4028,-19.2964,35.0204,-28.4884,8.24171,-8.93502
9.44942,17.2002,-9.73747,397.118,-90.7798,-405.824,6.3956,-6.70165,0.37521,-0.502351,-8.89936,0.32217,-4.08128,-4.42332,0.997051,5.91096,11.2413,18.7593,-0.669196,16.2579,-19.7208,2.06759,8.33815,-8.66904,1.10822e-14,-2.3059e-14,-70.0065,35.3247,-80.9185,48.8452,34.5314,7.07575,27.861,7.12502,32.3478,0.725439,1.10822e-14,-2.3059e-14,-14.733,-47.9963,58.4202,104.883,-14.2923,-20.1673,6.06393,7.12502,6.17827,35.9538,-20.8936,-18.7112,22.699,41.2774,-15.6585,-10.2435,40.1544,2.78424,17.5208,-18.9483,34.7167,-28.1093,8.62256,-11.2251
9.46275,17.2158,-9.72486,380.899,-90.7996,-389.451,6.41169,-6.75682,0.511813,-0.517315,-8.95666,0.493664,-4.09867,-4.45315,1.10679,5.85183,11.302,18.4557,-0.851052,16.2868,-19.5682,1.99115,8.34885,-8.57214,-2.83268e-14,2.3059e-14,-69.8802,35.9541,-80.9108,49.2421,34.3496,6.6041,27.513,7.12502,31.8988,0.286836,-2.83268e-14,2.3059e-14,-15.1953,-48.0127,58.5805,104.79,-14.2486,-20.3208,6.02438,7.12502,6.03012,35.9186,-20.9813,-18.6521,22.92,41.0261,-15.2523,-10.3646,39.2461,2.76695,17.6082,-18.884,34.3194,-27.7491,9.21483,-13.5015
9.47898,17.236,-9.70663,386.897,-90.9476,-395.146,6.30112,-6.76913,0.476104,-0.606744,-8.97437,0.542115,-4.11655,-4.46048,1.16904,5.53104,11.3491,18.387,-0.562127,16.3297,-19.5316,2.12635,8.35125,-8.51525,-3.1408e-14,-1.51076e-14,-69.6491,36.4022,-80.7939,49.5873,34.1561,6.71787,27.78,7.12502,32.0071,0.57547,-3.1408e-14,-1.51076e-14,-15.7379,-48.0991,58.865,104.628,-14.2548,-20.391,5.73689,7.12502,5.96231,35.633,-21.296,-18.5642,22.7987,40.8373,-15.0281,-10.398,39.2151,2.56071,17.2563,-19.4063,33.8119,-27.6776,9.24369,-11.444
9.49857,17.2588,-9.69573,395.075,-91.0608,-403.089,6.28361,-6.70213,0.30225,-0.663488,-8.89722,0.560484,-4.13713,-4.41774,1.27446,5.08058,11.2993,18.5682,-0.180332,16.2522,-19.6312,2.32035,8.28824,-8.54084,3.90612e-14,-2.8625e-14,-69.3162,36.4594,-80.5654,49.8361,34.2216,7.05799,28.279,7.12502,32.3309,1.13998,3.90612e-14,-2.8625e-14,-16.0226,-48.4408,59.0722,104.379,-14.2338,-20.3533,5.60499,7.12502,5.99869,35.5001,-21.5289,-18.185,22.6166,40.6996,-14.743,-10.741,38.3456,2.44124,16.7922,-19.8959,33.2071,-27.6061,8.76902,-7.06052
9.51732,17.2805,-9.68986,403.589,-91.1873,-411.435,6.32913,-6.68594,-0.0240628,-0.70308,-8.89878,0.598319,-4.14814,-4.41049,1.49473,4.79923,11.2798,18.4715,-0.0703869,16.1869,-19.4937,2.36507,8.24043,-8.46682,-6.64438e-14,1.59028e-14,-69.0465,36.669,-80.5784,50.1055,34.253,6.91911,27.9145,7.12502,32.1987,0.74862,-6.64438e-14,1.59028e-14,-16.5919,-48.6561,59.388,104.105,-14.1595,-20.2306,5.61534,7.12502,6.11723,35.507,-21.652,-17.8247,22.3272,40.5619,-14.6262,-10.8959,38.0319,2.46855,16.6241,-20.2732,32.5475,-27.1928,8.77175,-6.08147
9.53619,17.3065,-9.67956,411.383,-91.3736,-418.926,6.22009,-6.71989,-0.277053,-0.767831,-8.96243,0.62028,-4.11126,-4.43662,1.64756,4.8076,11.2785,18.2697,-0.336972,16.1434,-19.4642,2.25921,8.22025,-8.43849,-3.33461e-14,1.11319e-14,-68.8097,37.1616,-80.787,50.4841,33.9396,6.90618,27.4,7.12502,32.1864,0.23157,-3.33461e-14,1.11319e-14,-17.3981,-48.8153,59.7673,103.801,-13.9912,-20.4584,5.61882,7.12502,5.89722,35.5168,-21.9227,-17.7673,21.9801,40.3706,-14.1968,-10.7209,37.4231,2.34686,16.5785,-20.7488,31.9276,-26.4946,9.54563,-9.42126
9.55722,17.3327,-9.66875,408.313,-91.322,-415.56,6.12689,-6.67475,-0.164489,-0.795864,-8.89026,0.723601,-4.09048,-4.4029,1.67574,4.68838,11.1895,18.3527,-0.490398,15.9965,-19.6508,2.23103,8.14321,-8.52125,7.36e-14,-3.26007e-14,-68.3512,37.3476,-80.6035,50.7893,34.0115,7.10572,27.8641,7.12502,32.3763,0.734351,7.36e-14,-3.26007e-14,-17.9717,-49.0577,60.2012,103.333,-13.7009,-20.6533,5.59432,7.12502,5.70909,35.4974,-22.1052,-17.6487,21.9844,40.1132,-13.4479,-10.4796,34.997,2.19916,16.5314,-20.8292,31.3866,-26.1462,9.55725,-9.23185
9.57954,17.3626,-9.65936,397.205,-91.1404,-404.176,6.06423,-6.62128,0.074436,-0.827304,-8.79492,0.926575,-4.09403,-4.35955,1.73996,4.6077,11.0833,18.4764,-0.570967,15.8415,-19.7757,2.21301,8.06403,-8.59259,-7.50909e-14,1.66979e-14,-67.8189,37.4348,-80.3175,51.0264,34.4782,7.08411,28.4469,7.12502,32.3558,1.3129,-7.50909e-14,1.66979e-14,-18.6755,-49.0204,60.9266,102.692,-13.5147,-20.6072,5.44145,7.12502,5.75359,35.3433,-22.1698,-17.3499,22.1854,39.8025,-13.5593,-10.0073,34.2384,2.04867,16.3122,-20.7055,30.91,-26.1604,9.19703,-6.39249
9.60334,17.3931,-9.64755,386.943,-91.0759,-393.605,6.00804,-6.60951,0.245828,-0.895917,-8.76002,1.14932,-4.12534,-4.3442,1.86944,4.80262,11.0181,18.3306,-1.01939,15.723,-19.9173,2.03039,8.01838,-8.65242,9.15403e-14,-3.33958e-14,-67.454,37.8609,-80.3665,51.4371,34.6243,6.92203,28.0984,7.12502,32.2015,0.933103,9.15403e-14,-3.33958e-14,-19.5742,-48.9538,61.7042,102.069,-13.3811,-20.6097,5.30706,7.12502,5.75121,35.209,-22.252,-17.0708,22.2732,39.4731,-13.834,-9.33522,34.1187,1.83222,15.9382,-20.7906,30.4877,-25.6849,10.2379,-9.20558
9.62664,17.4165,-9.63895,381.561,-91.113,-387.943,5.96526,-6.5754,0.316402,-0.923347,-8.70531,1.29849,-4.11838,-4.31793,1.97465,4.7303,10.9827,18.2152,-1.29898,15.626,-20.0939,1.95081,7.96851,-8.70319,-5.62064e-14,2.06736e-14,-66.9294,38.2276,-80.3449,51.8749,34.562,7.0708,27.9016,7.12502,32.3431,0.765048,-5.62064e-14,2.06736e-14,-20.2694,-49.5256,61.9319,101.845,-12.867,-20.7568,5.89122,7.12502,5.60916,35.797,-22.2992,-16.6368,22.1908,39.1843,-13.6745,-8.62133,32.259,1.61218,15.9274,-20.8879,30.1117,-24.9992,11.2567,-13.2929
9.64786,17.4384,-9.63525,378.662,-91.1306,-384.722,5.85268,-6.54851,0.340019,-0.954912,-8.66656,1.37099,-4.08138,-4.29943,2.01993,4.50369,10.9412,18.3683,-1.31432,15.5467,-20.2473,1.99535,7.91834,-8.76869,-6.63444e-14,7.95139e-16,-66.2586,38.3813,-80.3061,52.1267,34.5818,7.44092,28.3159,7.12502,32.6953,1.25188,-6.63444e-14,7.95139e-16,-20.8617,-50.8367,61.622,102.253,-11.826,-20.9014,7.35524,7.12502,5.46953,37.2647,-22.4113,-16.1472,22.0789,38.9916,-13.7434,-7.75004,30.2098,1.33775,16.0191,-20.9461,29.7402,-24.6486,11.4787,-14.3546
9.67219,17.4595,-9.63059,371.431,-91.077,-377.198,5.84647,-6.56691,0.43088,-1.0226,-8.6805,1.50284,-4.14095,-4.30679,2.11124,4.42961,10.8669,18.4318,-1.47697,15.4204,-20.3492,1.951,7.85359,-8.8231,-1.54704e-13,1.35174e-14,-65.7973,38.7578,-80.6299,52.3339,34.5459,7.54299,28.1883,7.12502,32.7924,1.1445,-1.54704e-13,1.35174e-14,-21.9259,-51.3196,62.0794,101.96,-11.1807,-20.8458,7.77217,7.12502,5.52326,37.6802,-22.5322,-16.0065,22.0883,38.8848,-13.7089,-6.79293,26.157,1.08681,15.7742,-20.9522,29.3584,-24.4021,11.5656,-13.2971
9.70098,17.4778,-9.62506,369.109,-91.0972,-374.661,5.97419,-6.51809,0.393747,-1.09305,-8.61161,1.65975,-4.25793,-4.26878,2.30647,4.30036,10.7462,18.3168,-1.56589,15.217,-20.4303,1.90561,7.7464,-8.84593,-4.16454e-14,2.22639e-14,-65.4363,39.0944,-80.9649,52.6029,34.4659,7.533,27.7346,7.12502,32.7829,0.68884,-4.16454e-14,2.22639e-14,-23.1157,-51.1537,63.2319,100.858,-11.0044,-20.9473,7.27503,7.12502,5.42525,37.1856,-22.5596,-15.8232,21.9117,38.8486,-13.5879,-5.90767,21.4006,0.91569,15.4126,-21.1019,28.9808,-24.2362,11.5652,-10.5709
9.72751,17.4984,-9.62001,372.444,-91.1426,-377.719,5.9374,-6.45315,0.368356,-1.13203,-8.52599,1.68469,-4.27291,-4.22516,2.33604,4.03633,10.6462,18.3278,-1.46223,15.0532,-20.5,1.9543,7.6504,-8.86691,-4.73108e-14,-5.56597e-15,-64.9153,39.1404,-81.2093,52.8982,34.5673,7.64428,27.861,7.12502,32.8887,0.837332,-4.73108e-14,-5.56597e-15,-24.3173,-50.7384,64.5292,99.3159,-11.0859,-21.1786,6.54952,7.12502,5.20192,36.4657,-22.63,-15.4251,21.5848,38.9018,-13.9366,-5.24486,19.7044,0.695445,15.0542,-21.4167,28.6078,-24.2189,11.7403,-8.74865
9.75117,17.5208,-9.61907,369.848,-91.0477,-374.844,5.91805,-6.50501,0.564605,-1.21534,-8.58095,1.64162,-4.38268,-4.25564,2.19746,3.9172,10.5929,18.2689,-1.43317,14.9596,-20.2722,1.93894,7.5975,-8.78486,4.96962e-15,2.78299e-14,-64.5617,39.3361,-81.817,53.279,34.7628,7.67472,28.1489,7.12502,32.9177,1.13135,4.96962e-15,2.78299e-14,-25.9249,-50.2463,65.8257,97.9023,-11.0453,-21.1969,6.01168,7.12502,5.18421,35.9283,-22.7186,-15.2176,21.4944,39.0244,-14.4485,-5.24518,17.1931,0.43721,14.7221,-21.5337,28.2744,-24.3473,11.8256,-8.50724
9.77642,17.5422,-9.62073,361.535,-90.9461,-366.311,6.2562,-6.48037,0.886508,-1.51452,-8.51493,1.62208,-4.93687,-4.22266,2.06948,4.03592,10.4272,18.2104,-1.37535,14.7488,-19.9919,1.86472,7.49875,-8.71289,7.10655e-15,-6.36111e-15,-64.7451,39.4496,-82.6387,53.7599,34.9607,7.50901,27.964,7.12502,32.7601,0.913489,7.10655e-15,-6.36111e-15,-27.9182,-50.2845,67.386,96.8193,-11.0514,-21.0597,5.69926,7.12502,5.31666,35.6126,-22.7594,-15.1601,21.5819,39.2163,-14.7286,-5.66103,14.4389,0.195193,14.4741,-21.4823,28.0258,-24.4219,11.5558,-7.63234
9.8011,17.5635,-9.62394,345.209,-90.9504,-349.764,6.00464,-6.43115,0.560727,-1.2299,-8.46852,2.16992,-4.36863,-4.19775,2.73843,3.50197,10.4646,17.9609,-1.56044,14.69,-20.521,1.91847,7.44159,-8.82038,3.89618e-14,1.51076e-14,-63.2004,40.0291,-81.8621,54.2187,34.9777,7.28789,27.4351,7.12502,32.5497,0.340993,3.89618e-14,1.51076e-14,-28.481,-49.7051,68.383,95.8299,-11.2169,-20.7509,5.44727,7.12502,5.61483,35.3529,-22.7663,-15.0954,21.7987,39.5167,-15.3416,-5.98345,15.5441,-0.0629624,14.3068,-21.2839,27.865,-24.3809,11.5041,-7.48587
9.82266,17.5845,-9.62685,325.864,-91.0518,-330.16,5.91102,-6.38926,0.762122,-1.1951,-8.39513,2.42571,-4.27297,-4.16772,2.86971,3.20174,10.3806,17.8995,-1.50202,14.5353,-20.6621,1.96323,7.34768,-8.85157,1.0138e-14,2.14687e-14,-62.1266,40.0797,-81.5807,54.6973,35.142,7.17303,27.2843,7.12502,32.4404,0.167638,1.0138e-14,2.14687e-14,-29.6175,-49.6617,69.4737,94.7355,-11.2353,-20.5668,4.92282,7.12502,5.79264,34.8236,-22.791,-15.1283,22.0882,39.9448,-16.2938,-6.45363,18.2893,-0.386814,13.9711,-21.0395,27.7697,-24.4887,11.581,-6.67101
9.84256,17.5967,-9.625,319.086,-91.0514,-323.149,5.95096,-6.39173,0.944436,-1.2791,-8.3812,2.47727,-4.40192,-4.163,2.83619,3.32565,10.2386,17.7865,-1.73817,14.3209,-20.6128,1.82039,7.25058,-8.85216,-1.43125e-14,1.82882e-14,-61.5388,40.1971,-81.8433,55.2686,35.2714,6.58594,26.9313,7.12502,31.8815,-0.298358,-1.43125e-14,1.82882e-14,-31.2334,-49.8599,70.7061,93.6761,-11.0107,-20.6135,5.02026,7.12502,5.7475,34.9223,-22.8234,-15.3995,22.1132,40.49,-16.9297,-7.02331,20.2096,-0.721424,13.2931,-21.1591,27.7108,-24.7574,11.5395,-2.9847
9.86257,17.5987,-9.62808,322.357,-90.9856,-326.148,5.95504,-6.36261,0.897505,-1.36546,-8.34376,2.47382,-4.48943,-4.14152,2.86217,3.34368,10.0694,17.8544,-1.95352,14.0672,-20.7351,1.72206,7.12803,-8.93345,2.04251e-14,-2.94201e-14,-61.0034,40.2972,-82.2284,55.8251,35.5307,5.91871,26.5959,7.12502,31.2459,-0.758449,2.04251e-14,-2.94201e-14,-32.8951,-50.3294,71.8086,92.9637,-10.5163,-20.2664,5.60046,7.12502,6.08262,35.4931,-22.9174,-15.6561,21.9755,41.1238,-17.5724,-7.20357,22.7756,-1.11812,12.6788,-21.4741,27.675,-24.8667,11.8917,-1.85339
9.88385,17.6029,-9.63866,324.961,-91.0688,-328.48,5.92063,-6.30806,0.89171,-1.40304,-8.27115,2.4779,-4.51046,-4.1049,2.86152,3.13756,9.94329,18.0042,-1.99037,13.8669,-20.8432,1.72705,7.0181,-8.99999,-1.09481e-13,6.36111e-15,-60.2375,40.32,-82.4646,56.4097,35.8217,6.73312,27.5373,7.12502,32.0216,0.335681,-1.09481e-13,6.36111e-15,-34.418,-50.6595,72.7762,92.1934,-9.9417,-20.0103,5.45526,7.12502,6.32985,35.3407,-23.0019,-15.5719,21.9538,41.8028,-18.5119,-7.24814,25.8037,-1.49874,12.5118,-21.5436,27.6713,-24.9215,12.2284,-3.08347
9.90598,17.6118,-9.65054,322.766,-91.2056,-326.116,6.08276,-6.23458,1.02759,-1.50079,-8.15688,2.47192,-4.72766,-4.04815,2.80125,3.07116,9.77425,18.2085,-1.90829,13.6445,-21.0195,1.74669,6.90363,-9.10665,4.8255e-14,-1.43125e-14,-59.7147,40.3531,-82.8619,57.0937,35.7097,7.96304,28.5496,7.12502,33.1919,1.59008,4.8255e-14,-1.43125e-14,-36.0883,-50.7926,73.9984,91.1362,-9.53025,-20.1886,5.58115,7.12502,6.15775,35.4717,-22.9421,-15.2543,22.0215,42.4717,-19.5052,-7.36206,28.9236,-1.7663,12.654,-21.4029,27.7106,-24.876,12.4261,-4.34326
9.92463,17.6225,-9.66626,317.581,-91.2824,-320.781,6.46654,-6.1108,1.42117,-1.86633,-7.94781,2.28441,-5.41473,-3.94674,2.45694,3.37822,9.35588,18.5485,-1.67605,13.1579,-21.0296,1.68613,6.67806,-9.22552,-1.05853e-14,7.95139e-16,-59.825,39.832,-83.7407,57.6531,35.7008,7.78959,28.4025,7.12502,33.0269,1.40797,-1.05853e-14,7.95139e-16,-38.5139,-51.3966,75.7591,90.1065,-9.54555,-19.6776,6.14846,7.12502,6.65102,36.024,-22.8261,-15.2014,22.1394,43.1317,-20.0327,-7.45473,29.8808,-2.01277,12.7856,-21.2453,27.7846,-24.5202,12.8349,-6.32452
9.93712,17.6315,-9.67934,313.994,-91.4479,-317.046,6.14659,-6.07595,0.989506,-1.60558,-7.93884,2.73438,-4.83792,-3.93619,3.08599,3.226,9.2296,18.1583,-2.02751,12.8925,-21.324,1.55631,6.53975,-9.28207,-3.5334e-14,1.03368e-14,-58.143,40.2039,-83.0405,58.1297,35.723,6.87319,27.399,7.12502,32.155,0.224213,-3.5334e-14,1.03368e-14,-39.4758,-50.769,77.1314,88.4399,-9.73602,-19.3823,5.46487,7.12502,6.93614,35.3312,-22.7006,-15.3228,22.2871,43.7849,-19.7755,-7.9168,26.6966,-2.28265,12.814,-21.081,27.9651,-24.3439,13.3776,-7.9734
9.94979,17.6349,-9.68439,315.285,-91.6326,-318.042,5.9876,-5.97133,1.08699,-1.66082,-7.79286,2.82177,-4.81262,-3.86705,3.09406,2.95709,9.05923,17.9918,-1.85503,12.6286,-21.2142,1.57742,6.39184,-9.2231,-1.43026e-13,6.36111e-15,-57.29,40.1242,-83.1034,58.7511,35.7307,6.67668,26.6326,7.12502,31.9679,-0.579807,-1.43026e-13,6.36111e-15,-41.1099,-50.7155,78.6785,86.7986,-9.44623,-20.7206,3.49695,7.12502,5.64407,33.4018,-22.7804,-15.3039,22.352,44.4532,-19.5676,-8.30314,23.8426,-2.81418,12.8127,-21.0593,28.2678,-24.671,13.5,-6.63662
9.96674,17.6347,-9.69186,312.957,-91.7827,-315.357,5.79147,-5.92632,1.28812,-1.71812,-7.72055,2.89518,-4.78138,-3.83771,3.03507,2.57856,8.94663,17.8134,-1.57983,12.4422,-21.0777,1.65972,6.27529,-9.13847,-7.45443e-14,2.62396e-14,-56.2892,40.0111,-83.1234,59.3375,35.738,6.77571,26.4395,7.12502,32.0622,-0.753936,-7.45443e-14,2.62396e-14,-42.7625,-50.6511,80.0424,85.4883,-9.12274,-19.1826,6.84308,7.12502,7.12887,36.703,-22.932,-15.3212,22.5251,45.1258,-19.7932,-8.36859,22.2642,-3.46163,12.829,-20.9493,28.5782,-25.3567,12.586,-1.50196
9.98256,17.6292,-9.70561,308.12,-91.9976,-310.337,5.68244,-5.90072,1.37322,-1.66136,-7.68155,3.10514,-4.64447,-3.82276,3.18294,2.3026,8.80659,17.5182,-1.47513,12.2063,-21.0667,1.66942,6.14052,-9.08974,-4.91744e-14,1.74931e-14,-55.0393,40.1091,-82.9324,59.865,35.6477,6.57353,26.002,7.12502,31.8697,-1.22998,-4.91744e-14,1.74931e-14,-44.1602,-50.41,81.3469,84.2084,-9.14084,-18.3695,6.84486,7.12502,7.91374,36.6767,-22.864,-15.3731,22.8264,45.7721,-19.7476,-8.44625,19.838,-3.88153,12.8957,-20.6332,28.8866,-25.8242,11.8485,1.30227
9.99293,17.6197,-9.71974,309.475,-92.0709,-311.614,6.04181,-5.79973,1.79593,-1.96684,-7.49984,2.82543,-5.26637,-3.73762,2.7198,2.40441,8.43983,17.6284,-1.19643,11.7508,-20.8425,1.63012,5.9184,-9.07306,-4.23411e-14,1.59028e-14,-55.0421,39.8203,-83.892,60.5642,35.3762,6.69279,25.6806,7.12502,31.9832,-1.52868,-4.23411e-14,1.59028e-14,-46.6509,-50.8274,83.124,82.9897,-9.04396,-17.8925,7.00031,7.12502,8.37404,36.8143,-22.675,-15.4353,22.8113,46.376,-19.6223,-8.11164,19.3999,-4.13159,12.8957,-20.5982,29.2232,-25.9334,12.0811,0.445119
9.99869,17.6147,-9.73109,314.676,-92.1038,-316.733,6.2722,-5.65507,2.40358,-2.2059,-7.25866,2.25406,-5.806,-3.63824,1.8261,2.41819,8.04606,17.9662,-0.971026,11.2496,-20.49,1.58689,5.67206,-9.0497,6.22693e-14,-1.03368e-14,-54.8273,38.9972,-84.8949,61.1242,35.5625,6.74534,25.9091,7.12502,32.0333,-1.29014,6.22693e-14,-1.03368e-14,-49.1229,-51.6018,84.5993,81.7385,-8.48941,-17.4431,7.43654,7.12502,8.8078,37.2327,-22.455,-15.493,22.6109,46.8915,-19.9696,-7.31704,21.7666,-4.36807,12.854,-20.7184,29.5657,-26.2305,12.2613,0.717664
10.0022,17.609,-9.74513,319.087,-92.2613,-320.97,5.2314,-5.53192,2.23261,-1.43398,-7.16426,2.23354,-4.39038,-3.59468,1.71125,1.52534,8.0094,17.7211,-1.38071,11.0084,-20.3838,1.55483,5.50897,-8.95453,1.2921e-14,-1.27222e-14,-52.0499,38.7219,-84.049,61.4,35.9628,6.25218,25.9583,7.12502,31.5636,-1.33417,1.2921e-14,-1.27222e-14,-48.7023,-51.5776,84.2725,80.3754,-7.86417,-16.8344,5.68298,7.12502,9.39513,35.4536,-22.2851,-15.3624,22.5665,47.3197,-20.3455,-6.98663,23.0948,-4.73028,13.0158,-20.6952,29.9213,-26.7441,11.8911,2.08183
10.0057,17.5964,-9.76094,321.549,-92.4078,-323.213,5.21158,-5.57653,1.487,-1.53457,-7.26269,2.8226,-4.31342,-3.62321,2.72923,1.48422,7.96443,17.0681,-1.3207,10.9217,-20.5372,1.53509,5.4581,-8.89982,6.82328e-14,-7.95139e-15,-50.8962,39.6717,-83.5933,61.9779,35.979,5.91524,25.9747,7.12502,31.2426,-1.38023,6.82328e-14,-7.95139e-15,-50.4429,-50.3581,86.2836,79.0287,-7.46084,-16.2283,4.17882,7.12502,9.9799,33.9222,-22.1356,-15.2564,22.604,47.6556,-20.3365,-6.85804,24.1169,-5.18945,13.5095,-20.5733,30.3448,-27.0101,11.4167,1.79293
10.006,17.5833,-9.77634,322.011,-92.5597,-323.553,5.11656,-5.59748,1.23247,-1.49717,-7.30812,3.11811,-4.14921,-3.64125,3.15922,1.2899,7.84274,16.6211,-1.27264,10.7144,-20.6227,1.52236,5.34039,-8.85897,-3.08862e-14,1.74931e-14,-49.5867,40.1964,-83.2778,62.5756,35.9266,5.98932,26.0985,7.12502,31.3131,-1.24277,-3.08862e-14,1.74931e-14,-51.8074,-49.591,87.854,77.5427,-7.05955,-15.7445,4.55358,7.12502,10.4467,34.274,-21.8518,-15.3504,22.6705,47.9321,-20.3123,-6.42046,25.2962,-5.5379,14.0637,-20.3515,30.7985,-27.1178,11.2443,0.0603095
10.0039,17.572,-9.79436,323.554,-92.7533,-325.076,5.07744,-5.57261,1.18755,-1.43022,-7.2802,3.19953,-4.04246,-3.62795,3.255,1.06307,7.66359,16.2093,-1.13862,10.4381,-20.4645,1.51297,5.18784,-8.74484,-3.93594e-14,3.4191e-14,-48.3821,40.4437,-83.2126,63.0866,36.0553,5.93436,25.9467,7.12502,31.2608,-1.40471,-3.93594e-14,3.4191e-14,-53.2252,-49.1812,89.3042,75.963,-6.98914,-15.4573,5.14003,7.12502,10.7237,34.8463,-21.4428,-15.3836,22.7024,48.1566,-20.6067,-6.2811,24.6526,-5.7309,14.4395,-20.1691,31.2144,-27.31,11.3518,-2.17521
10.0034,17.5571,-9.80787,328.535,-92.8718,-330.032,5.0729,-5.4487,1.05901,-1.41644,-7.1238,3.14857,-4.02283,-3.54715,3.25836,0.84106,7.41303,15.9297,-0.936722,10.0786,-20.3307,1.51655,4.99392,-8.66632,3.36195e-14,-2.54444e-14,-47.3548,40.474,-83.2337,63.5287,36.0752,5.80651,25.6749,7.12502,31.1389,-1.69998,3.36195e-14,-2.54444e-14,-54.8906,-48.9783,90.7974,74.6411,-7.02854,-15.3485,5.27112,7.12502,10.8287,34.972,-21.0905,-15.4544,22.523,48.2991,-20.6975,-6.40347,23.7495,-5.92766,14.7608,-20.2459,31.6118,-27.5216,11.4312,-3.64938
10.0002,17.5392,-9.82456,332.627,-93.0343,-334.122,5.13784,-5.3308,1.09662,-1.43913,-6.96305,2.97556,-4.11575,-3.46667,3.05667,0.576097,7.2105,15.707,-0.708672,9.78729,-20.0218,1.54145,4.83385,-8.532,1.05803e-13,-2.38542e-15,-46.4052,40.3893,-83.4811,63.9139,36.0222,5.62835,25.5193,7.12502,30.9691,-1.88806,1.05803e-13,-2.38542e-15,-56.6277,-48.5192,91.9772,73.6463,-7.26518,-15.0482,4.76264,7.12502,11.1182,34.4481,-20.6623,-15.372,22.4131,48.3042,-20.6234,-6.43462,24.6094,-6.11329,15.1206,-20.2417,32.06,-27.625,11.4297,-3.50437
9.99121,17.5204,-9.85357,333.787,-93.3698,-335.24,5.1465,-5.20655,1.18385,-1.50565,-6.79081,2.88251,-4.21799,-3.38206,2.90563,0.466464,6.99661,15.6356,-0.47074,9.50517,-19.7689,1.55679,4.68716,-8.44786,-2.32827e-14,2.06736e-14,-45.4792,40.211,-83.7684,64.2167,36.1263,5.29592,25.5729,7.12502,30.6522,-1.89431,-2.32827e-14,2.06736e-14,-58.3701,-48.0481,93.2949,72.3942,-7.16248,-14.9475,4.03794,7.12502,11.2154,33.7182,-20.1825,-14.9377,22.6174,48.1439,-20.7497,-6.56961,25.9886,-6.35349,15.7153,-19.9412,32.5955,-27.6232,11.2225,-2.85581
9.98124,17.496,-9.87652,331.676,-93.7602,-332.988,5.07064,-5.11618,1.50541,-1.62436,-6.6491,2.86429,-4.34294,-3.31915,2.70095,0.600927,6.76661,15.7951,-0.326729,9.22484,-19.7741,1.53085,4.55391,-8.49928,-4.11484e-14,3.18055e-15,-44.6238,40.037,-84.1391,64.5259,36.3082,5.33356,25.7795,7.12502,30.6881,-1.68094,-4.11484e-14,3.18055e-15,-60.2432,-47.9394,95.036,70.6275,-6.42135,-15.0188,3.998,7.12502,11.1466,33.6819,-19.8179,-14.6562,23.0527,47.845,-20.873,-6.66049,26.5016,-6.7392,16.3125,-19.4666,33.1819,-27.7948,10.4812,-1.0041
9.9729,17.4675,-9.88827,331.621,-93.915,-332.842,5.16945,-5.10443,1.91474,-1.80488,-6.60185,2.65052,-4.66029,-3.30519,2.27857,0.593162,6.60062,15.8977,-0.0124483,9.03416,-19.5687,1.57922,4.45799,-8.45721,-1.49585e-14,-1.59028e-14,-43.9951,39.6952,-84.7994,64.9192,36.5951,5.74117,26.0984,7.12502,31.0767,-1.28846,-1.49585e-14,-1.59028e-14,-62.2674,-47.8801,96.8346,68.6345,-5.73798,-15.4684,3.89633,7.12502,10.7129,33.6032,-19.424,-14.6581,23.1817,47.4191,-21.0701,-6.48305,26.2366,-7.12992,16.6324,-19.3059,33.7959,-28.1063,9.78737,0.781057
9.96596,17.4436,-9.90053,337.763,-93.8779,-338.94,5.26731,-5.04486,1.782,-1.91997,-6.53046,2.39205,-4.85225,-3.26548,2.09697,0.372629,6.45469,15.789,0.351195,8.84423,-19.3382,1.66754,4.34972,-8.36216,-2.81032e-14,-2.38542e-14,-43.1376,39.386,-85.1384,65.1997,36.9241,5.91833,26.2886,7.12502,31.2455,-1.06584,-2.81032e-14,-2.38542e-14,-64.0203,-47.8231,98.5514,66.7961,-5.3225,-16.2636,3.02105,7.12502,9.94589,32.7661,-19.0085,-14.5457,22.7847,46.91,-21.5513,-6.36613,25.2503,-7.48955,16.9132,-19.686,34.4048,-28.2616,9.73026,-0.000796933
9.95808,17.425,-9.91117,340.503,-94.0977,-341.606,5.23824,-4.93601,1.81077,-1.94869,-6.38537,2.30936,-4.88084,-3.19491,1.98184,0.282475,6.32092,15.7225,0.497374,8.66362,-19.3658,1.68985,4.25209,-8.36675,-2.31336e-14,-1.03368e-14,-42.0485,39.4755,-85.2869,65.3419,36.9918,5.84729,26.0651,7.12502,31.1778,-1.30232,-2.31336e-14,-1.03368e-14,-65.1803,-47.424,99.7136,65.3285,-5.33177,-16.0405,2.28653,7.12502,10.1611,32.0212,-18.6557,-14.171,22.7292,46.3277,-22.1865,-6.32223,25.1739,-7.82158,17.0671,-19.7951,34.9604,-28.3411,10.0655,-1.6084
9.94877,17.4009,-9.92429,340.235,-94.4344,-341.375,5.36263,-4.80468,2.03576,-1.98296,-6.1912,2.22652,-5.02336,-3.10537,1.77048,0.294758,6.18545,15.9292,0.613493,8.49586,-19.5022,1.70604,4.16779,-8.45794,5.79457e-14,-1.66979e-14,-41.2107,39.4732,-85.6756,65.4428,36.9051,5.65983,25.7525,7.12502,30.9991,-1.64913,5.79457e-14,-1.66979e-14,-66.0959,-46.7068,100.527,63.8035,-5.4114,-15.6363,2.27152,7.12502,10.551,31.9867,-18.2077,-13.8838,22.9289,45.6753,-22.6614,-6.1048,25.4717,-7.96029,17.184,-19.6081,35.5119,-28.4568,10.4571,-3.02277
9.93822,17.3744,-9.94884,343.548,-94.6645,-344.87,5.6481,-4.67873,1.80067,-2.00835,-6.03279,2.11158,-5.20076,-3.01844,1.7938,0.268152,6.10399,15.9136,0.720898,8.3917,-19.4603,1.71896,4.11359,-8.44593,5.13361e-14,-5.56597e-15,-40.3289,39.2806,-85.9538,65.4436,37.093,5.53814,25.5691,7.12502,30.8831,-1.85463,5.13361e-14,-5.56597e-15,-67.0683,-46.0443,101.605,61.9488,-5.28106,-15.4686,2.47904,7.12502,10.7127,32.1859,-17.6365,-13.6516,22.8037,45.0035,-23.2019,-5.90131,25.2129,-7.94983,17.5921,-19.6204,36.1227,-28.7537,10.3826,-3.11869
9.92433,17.3531,-9.97257,344.687,-95.0156,-346.017,5.69363,-4.60268,1.80936,-2.04069,-5.92893,2.10131,-5.26362,-2.96707,1.77431,0.230539,6.11558,15.7833,0.90632,8.42153,-19.433,1.77633,4.12229,-8.40974,-3.01407e-14,8.74653e-15,-39.1744,39.2111,-86.0677,65.3501,37.4896,5.39856,25.6123,7.12502,30.75,-1.83653,-3.01407e-14,8.74653e-15,-67.7923,-45.2498,102.54,59.9311,-5.52756,-14.9525,2.23323,7.12502,11.2106,31.9137,-17.2774,-13.2284,22.9443,44.3723,-24.2051,-5.89261,25.5347,-8.1868,18.1033,-19.4415,36.7673,-29.1067,9.9939,-1.9927
9.91153,17.3287,-9.98622,343.284,-95.3764,-344.469,5.56429,-4.57787,2.20887,-2.06125,-5.86983,2.12031,-5.25155,-2.95165,1.55907,0.0602376,6.17993,15.8614,1.22095,8.52857,-19.6456,1.92865,4.15858,-8.47967,-4.72859e-14,2.54444e-14,-37.9704,39.2764,-86.2466,65.2014,37.7104,5.20301,25.9749,7.12502,30.5636,-1.5088,-4.72859e-14,2.54444e-14,-68.3003,-44.4451,103.28,57.8604,-5.62343,-15.1877,1.36133,7.12502,10.9837,31.054,-17.1378,-13.0385,23.3425,43.8564,-25.3952,-5.69517,26.966,-8.62163,18.4487,-19.1164,37.406,-29.2708,9.68983,-1.14421
9.89781,17.302,-9.99898,344.723,-95.636,-345.775,5.37364,-4.53133,2.2876,-2.0348,-5.81043,2.09405,-5.12669,-2.92595,1.46378,-0.10453,6.2405,15.6908,1.30299,8.59892,-19.6595,1.98642,4.18075,-8.44399,2.81529e-14,-2.46493e-14,-36.7652,39.3905,-86.3869,65.0687,37.7445,5.26316,26.1362,7.12502,30.621,-1.33684,2.81529e-14,-2.46493e-14,-68.4888,-43.6122,103.892,55.7142,-5.67227,-15.0253,1.20534,7.12502,11.1404,30.8896,-17.0754,-13.104,23.4251,43.4995,-26.1319,-5.0806,29.8858,-9.00733,18.8585,-19.1009,38.026,-29.3429,9.54396,-1.30424
9.8779,17.2738,-10.015,346.611,-96.0384,-347.576,5.11072,-4.42149,2.22102,-1.96576,-5.67978,2.09445,-4.89899,-2.86021,1.45967,0.0748062,6.28374,15.4146,0.960776,8.63372,-19.466,1.84271,4.21278,-8.3378,-1.10723e-13,3.81667e-14,-35.6012,39.5494,-86.4969,64.9078,37.7165,5.10554,25.7159,7.12502,30.4706,-1.78514,-1.10723e-13,3.81667e-14,-68.2104,-42.5958,104.209,53.2733,-6.20901,-14.3904,2.10933,7.12502,11.7527,31.7596,-16.9978,-12.9777,23.4923,43.3056,-26.5641,-4.78341,31.987,-9.25397,19.3883,-19.0796,38.6039,-29.3986,9.79783,-3.15897
9.85847,17.2472,-10.034,347.524,-96.5102,-348.474,5.00285,-4.32543,2.21704,-1.90976,-5.5564,2.12172,-4.77664,-2.79916,1.46532,0.153027,6.42468,15.3116,0.812164,8.81787,-19.3994,1.81243,4.31041,-8.29006,-8.07563e-14,-7.15625e-15,-34.5106,39.7745,-86.6938,64.6232,37.7019,5.01787,25.5643,7.12502,30.387,-1.9522,-8.07563e-14,-7.15625e-15,-67.8521,-41.4397,104.331,50.9985,-7.35528,-13.6677,3.04903,7.12502,12.4495,32.6582,-16.8672,-12.642,23.6587,43.2589,-26.9878,-5.09289,31.8451,-9.36422,19.7266,-18.9704,39.0966,-29.5668,10.2824,-5.33248
9.84383,17.2286,-10.0571,347.74,-96.9605,-348.748,5.1076,-4.1849,2.25407,-1.8997,-5.36156,2.16586,-4.82535,-2.70312,1.48067,-0.00989657,6.56966,15.2218,1.02042,9.02226,-19.4112,1.93282,4.39849,-8.25752,1.14798e-14,-1.74931e-14,-33.5225,39.7155,-86.8472,64.2578,37.9046,5.17518,26.0637,7.12502,30.5371,-1.42502,1.14798e-14,-1.74931e-14,-67.5838,-40.3481,104.478,48.7942,-8.53142,-13.2246,2.63717,7.12502,12.8767,32.2199,-16.726,-12.2043,23.8493,43.3463,-27.2945,-5.38963,31.0268,-9.3756,20.0342,-18.7562,39.518,-29.7693,10.4557,-6.12721
9.82845,17.2131,-10.0769,347.487,-97.3333,-348.691,5.32099,-3.97851,2.35283,-1.83416,-5.07263,2.14712,-4.88927,-2.5623,1.39352,0.165101,6.60767,15.4033,0.837118,9.07886,-19.6533,1.88269,4.4365,-8.37343,5.31997e-14,-1.74931e-14,-32.7092,39.2469,-87.0384,63.903,38.3046,5.14857,26.0185,7.12502,30.5117,-1.47491,5.31997e-14,-1.74931e-14,-67.3447,-39.6507,104.745,46.5302,-9.27175,-13.1208,2.18791,7.12502,12.9767,31.7643,-16.5194,-11.8066,23.9827,43.5777,-27.4375,-5.61689,29.8795,-9.19818,20.41,-18.4234,39.9012,-29.8404,10.3689,-6.3044
9.81359,17.1914,-10.0886,348.884,-97.5211,-350.264,5.43837,-3.85247,2.31603,-1.70812,-4.90806,2.01493,-4.83272,-2.47969,1.26389,0.493872,6.67801,15.8066,0.317585,9.1637,-20.0812,1.73763,4.50202,-8.59707,-1.44616e-14,-1.51076e-14,-31.8724,38.9939,-87.3259,63.5742,38.4987,5.28424,25.6367,7.12502,30.641,-1.83255,-1.44616e-14,-1.51076e-14,-66.7442,-38.8196,104.627,44.3415,-9.74515,-12.8811,2.68855,7.12502,13.2078,32.2502,-16.5039,-11.6885,23.7984,43.9506,-27.3633,-5.9711,28.1399,-9.06762,20.5871,-18.4339,40.2524,-30.0783,10.0125,-5.25273
9.80386,17.1666,-10.1007,351.706,-97.7337,-353.117,5.4883,-3.76313,2.09568,-1.66963,-4.80631,1.88688,-4.81314,-2.42317,1.24499,0.567446,6.84454,15.8043,0.129708,9.38041,-20.1042,1.71365,4.61627,-8.59433,5.91384e-14,-1.27222e-14,-31.0532,39.2417,-87.5712,63.1963,38.4754,5.36449,26.2285,7.12502,30.7176,-1.22638,5.91384e-14,-1.27222e-14,-65.9726,-37.5894,104.197,42.2583,-10.1207,-12.4775,3.04779,7.12502,13.5968,32.5838,-16.7971,-11.6058,23.4411,44.3945,-27.2805,-5.97618,27.3004,-9.16938,20.6388,-18.7625,40.6035,-30.3743,9.84847,-4.64236
9.78963,17.1515,-10.1185,354.557,-98.0393,-355.978,5.62317,-3.5886,1.93692,-1.77162,-4.58509,1.64054,-5.00374,-2.31047,1.07163,0.604708,7.00133,15.8635,0.328152,9.62758,-19.8619,1.79831,4.74251,-8.50606,-1.56791e-14,-3.18055e-15,-30.5994,39.1334,-88.0723,62.6942,38.655,5.28993,26.9543,7.12502,30.6465,-0.513943,-1.56791e-14,-3.18055e-15,-65.9059,-36.809,104.111,40.6496,-10.0347,-12.0015,3.4152,7.12502,14.0556,32.9199,-17.0671,-11.3364,23.0715,44.8019,-27.3817,-5.43858,28.1055,-9.31661,20.7122,-19.1095,41.0303,-30.4502,10.1451,-5.74789
9.76444,17.1377,-10.1362,355.176,-98.2532,-356.705,5.735,-3.40814,2.19087,-1.8113,-4.33125,1.31893,-5.15294,-2.19603,0.583222,0.749016,7.09896,16.3986,0.446325,9.80893,-19.7789,1.86303,4.84626,-8.5616,2.57426e-14,-2.38542e-15,-30.2824,38.4254,-88.7678,62.1838,39.3922,5.16713,26.293,7.12502,30.5294,-1.19714,2.57426e-14,-2.38542e-15,-65.8695,-36.3749,103.937,39.0835,-9.8102,-11.4091,3.66122,7.12502,14.6264,33.1254,-17.0631,-11.2823,22.9507,45.1416,-27.7018,-5.00046,28.4247,-9.30348,20.7852,-19.0721,41.5539,-30.4874,10.3249,-6.63154
9.7391,17.1167,-10.1523,352.382,-98.5295,-354.041,5.71438,-3.23761,2.81565,-1.66934,-4.06158,1.27901,-5.03788,-2.08178,0.160895,0.744469,7.22145,16.716,0.414733,9.98298,-19.7738,1.90371,4.93718,-8.6014,-1.97791e-14,4.77083e-15,-29.7916,38.0537,-89.0764,61.7923,39.9642,4.83519,25.9287,7.12502,30.2128,-1.61988,-1.97791e-14,4.77083e-15,-65.1965,-35.7408,103.504,37.2899,-9.69256,-11.054,3.84159,7.12502,14.9685,33.2806,-16.9277,-11.3704,23.3768,45.4166,-27.9791,-5.11737,26.8472,-9.22422,21.0716,-18.4017,42.1404,-30.5957,10.7094,-9.14994
9.71929,17.0921,-10.1662,351.043,-98.7067,-352.789,5.63356,-3.10903,3.06065,-1.49466,-3.87617,1.38135,-4.81509,-1.9942,0.0995084,0.659029,7.42875,16.6677,0.323665,10.2479,-19.8272,1.94345,5.0645,-8.58848,3.77691e-15,6.36111e-15,-29.2317,38.2214,-89.0618,61.2894,39.8263,4.54024,27.0658,7.12502,29.9313,-0.533892,3.77691e-15,6.36111e-15,-64.5064,-34.9642,103.163,35.9144,-9.46057,-11.0683,5.04054,7.12502,14.9547,34.4806,-16.8551,-11.5977,23.5823,45.6616,-28.1142,-5.21854,25.2962,-9.27706,21.3748,-17.9665,42.7448,-31.0274,10.2047,-8.03548
9.69803,17.0706,-10.1792,353.439,-98.6075,-355.32,5.65974,-3.02445,2.71411,-1.40595,-3.79039,1.32947,-4.71524,-1.9407,0.227032,0.721493,7.65779,16.5315,0.133587,10.5481,-19.8434,1.92926,5.21782,-8.55264,1.56791e-14,9.54166e-15,-28.8921,38.4916,-89.1364,60.8104,39.7578,4.84888,27.7038,7.12502,30.2258,0.157672,1.56791e-14,9.54166e-15,-64.0637,-34.1973,102.898,34.9135,-9.24451,-10.7256,6.1071,7.12502,15.2848,35.5223,-16.7383,-11.9826,23.1031,45.8729,-28.3235,-4.88785,25.2313,-9.35594,21.4636,-18.2186,43.3493,-31.5589,8.68335,-2.2921
9.67494,17.0551,-10.202,354.653,-98.6803,-356.71,5.86182,-2.81874,2.67077,-1.42345,-3.51606,1.15625,-4.85065,-1.80558,0.0562441,0.94584,7.79138,16.4892,-0.02391,10.7418,-19.6258,1.86618,5.33056,-8.4704,-4.51241e-14,1.15295e-14,-29.0294,38.4675,-89.4844,60.631,39.8658,5.44319,27.5954,7.12502,30.7926,0.154591,-4.51241e-14,1.15295e-14,-63.9588,-33.7547,102.672,34.0972,-9.0978,-9.56509,6.69261,7.12502,16.4024,36.0191,-16.5015,-11.9942,22.8808,46.0019,-28.5615,-4.63995,25.6695,-9.34845,21.6218,-18.2191,43.9685,-31.5001,8.42881,-2.0969
9.65188,17.0436,-10.2319,352.408,-98.76,-354.601,5.99299,-2.62658,3.12529,-1.3992,-3.2236,1.07126,-4.92435,-1.67536,-0.308827,1.23454,7.90403,16.6519,-0.22181,10.917,-19.4098,1.78844,5.43936,-8.42867,2.64632e-15,5.1684e-15,-29.2705,38.2971,-89.8982,60.4604,39.875,5.58972,27.5407,7.12502,30.9323,0.126367,2.64632e-15,5.1684e-15,-64.0468,-33.6066,102.493,33.6603,-9.11189,-8.44598,7.52301,7.12502,17.4797,36.7571,-16.195,-11.8356,23.3054,46.0131,-28.7827,-4.57289,26.7541,-9.37887,21.8325,-17.5741,44.6335,-31.16,8.5095,-4.37101
9.62798,17.0362,-10.2645,350.112,-98.6429,-352.387,5.94709,-2.50341,3.40425,-1.29325,-3.04185,1.10707,-4.79519,-1.59134,-0.451835,1.23038,8.09666,16.6396,-0.250981,11.1779,-19.1394,1.81045,5.57247,-8.31768,1.31322e-14,3.57812e-15,-29.393,38.4481,-90.0693,60.3025,39.6754,5.58326,27.1961,7.12502,30.9261,-0.219417,1.31322e-14,3.57812e-15,-63.9878,-33.4815,102.356,33.436,-9.34668,-7.69848,8.02529,7.12502,18.1989,37.1939,-15.9047,-11.8937,23.7451,45.9296,-28.8257,-4.85062,26.4922,-9.54868,22.0025,-16.8957,45.3952,-31.0214,7.3104,-2.49327
9.60348,17.0324,-10.2965,348.649,-98.4674,-350.99,5.94617,-2.32091,3.59474,-1.25966,-2.78696,1.04698,-4.76299,-1.47059,-0.647905,1.14697,8.25698,16.6786,-0.13893,11.3991,-18.7802,1.87493,5.68183,-8.18342,-3.14204e-14,-8.74653e-15,-29.7459,38.3547,-90.3357,60.2245,39.5639,5.37798,26.2924,7.12502,30.7304,-1.16009,-3.14204e-14,-8.74653e-15,-63.9941,-33.5336,102.217,33.3358,-9.5588,-7.23863,8.16191,7.12502,18.6413,37.2887,-15.6359,-12.0396,24.0196,45.832,-29.0005,-5.27033,25.1406,-9.79715,22.0243,-16.4122,46.2369,-30.7732,6.86821,-3.7278
9.57874,17.0233,-10.3254,346.486,-98.26,-348.93,6.05129,-2.1396,3.91828,-1.25871,-2.51863,0.95336,-4.82988,-1.34873,-0.949242,1.46704,8.37583,17.1064,-0.420516,11.5897,-18.7231,1.79665,5.79878,-8.23967,1.70334e-14,-1.94809e-14,-30.2664,37.954,-90.7757,60.0374,39.7156,4.81217,25.6541,7.12502,30.1908,-1.89849,1.70334e-14,-1.94809e-14,-64.2248,-33.8123,102.212,33.5075,-9.68517,-7.0129,8.23792,7.12502,18.8584,37.3438,-15.3335,-12.2002,24.3506,45.7706,-29.6185,-5.08307,26.6941,-10.0159,21.8705,-15.8792,47.1199,-30.5055,6.90208,-6.07645
9.55502,17.0056,-10.354,344.951,-97.9526,-347.511,6.13848,-1.99397,4.00159,-1.23608,-2.31306,0.988136,-4.84777,-1.24904,-0.979021,1.9919,8.55663,17.1019,-1.03055,11.8476,-18.5732,1.57058,5.95782,-8.20703,1.40143e-14,-1.55052e-14,-30.8299,38.074,-90.9063,59.9259,39.677,4.5295,25.8078,7.12502,29.9211,-1.79377,1.40143e-14,-1.55052e-14,-64.4769,-33.9821,102.4,33.9198,-9.92496,-6.83936,8.37295,7.12502,19.0253,37.4625,-15.0636,-12.4909,24.5356,45.7553,-29.8942,-4.92346,27.727,-10.2386,21.8041,-15.4221,48.0208,-29.9954,5.73931,-4.06614
9.52875,16.9981,-10.3793,345.412,-97.4468,-348.058,6.18239,-1.83838,3.8012,-1.2863,-2.1176,0.970311,-4.90822,-1.14791,-0.904064,1.9853,8.53885,16.729,-0.961087,11.8148,-18.2998,1.54364,5.94079,-8.05918,8.54774e-15,-9.54166e-15,-31.67,38.3314,-90.928,59.9476,39.5247,4.48187,25.8106,7.12502,29.8756,-1.79915,8.54774e-15,-9.54166e-15,-64.8315,-34.1238,102.681,34.4549,-10.0697,-6.17417,8.51297,7.12502,19.6649,37.5383,-14.8447,-12.9071,24.3575,45.7726,-29.5905,-5.51359,25.2429,-10.5611,21.7144,-15.3428,48.9175,-29.1564,4.661,-2.08682
