JuanDHNZ/ProyectoFinalCD/preprocessing/sports_trials_csv/55_22.csv
root1,root2,root3,root4,root5,root6,lowerback1,lowerback2,lowerback3,upperback1,upperback2,upperback3,thorax1,thorax2,thorax3,lowerneck1,lowerneck2,lowerneck3,upperneck1,upperneck2,upperneck3,head1,head2,head3,rclavicle1,rclavicle2,rhumerus1,rhumerus2,rhumerus3,rradius1,rwrist1,rhand1,rhand2,rfingers1,rthumb1,rthumb2,lclavicle1,lclavicle2,lhumerus1,lhumerus2,lhumerus3,lradius1,lwrist1,lhand1,lhand2,lfingers1,lthumb1,lthumb2,rfemur1,rfemur2,rfemur3,rtibia1,rfoot1,rfoot2,rtoes1,lfemur1,lfemur2,lfemur3,ltibia1,lfoot1,lfoot2,ltoes1
7.39527,17.3696,-28.2329,-0.715671,-17.8072,2.26843,1.63504,-3.30256,-2.36173,-7.04858,-4.48188,1.93511,-7.96834,-1.99752,3.7273,4.47947,15.2691,20.434,10.5339,23.7347,-21.0334,7.54551,11.8237,-7.977,8.48811e-14,-5.56597e-15,-46.5599,-16.7141,-52.0437,19.231,23.8464,-18.5706,28.5239,7.12502,7.71961,-1.3152,8.48811e-14,-5.56597e-15,-31.3896,-31.4311,82.784,42.8374,30.3748,-27.602,26.7417,7.12502,-1.00152,56.7191,-10.2939,-12.4797,6.56738,35.2074,-31.5475,-23.5041,48.44,-11.7525,10.808,-25.4346,31.2749,-22.9418,20.0261,-5.33487
7.41349,17.368,-28.2223,-0.641328,-17.3519,2.31274,1.66364,-3.42386,-2.41883,-7.09453,-4.6526,1.88446,-8.02188,-2.07778,3.72289,4.81873,15.2978,20.0625,10.1093,23.688,-20.7187,7.24864,11.8283,-7.86257,-1.39149e-14,7.95139e-16,-47.5937,-16.7823,-51.0081,19.3327,23.4022,-18.8074,28.002,7.12502,7.49106,-1.84536,-1.39149e-14,7.95139e-16,-30.9808,-31.8808,82.474,44.0932,30.8204,-27.7643,27.1897,7.12502,-1.15825,57.1663,-10.3505,-13.0055,6.39909,35.4323,-31.2362,-23.4397,48.6927,-11.8404,10.7518,-25.5621,31.2869,-23.0484,19.5429,-4.93247
7.43118,17.3704,-28.2131,-0.510756,-16.8527,2.30331,1.67481,-3.50652,-2.41489,-7.15467,-4.76711,1.84129,-8.08906,-2.1335,3.68801,4.87911,15.1793,19.9041,9.95899,23.4854,-20.6588,7.11761,11.7351,-7.86634,5.12864e-14,3.97569e-15,-48.6545,-16.5727,-50.199,19.5443,22.7003,-18.7217,27.5363,7.12502,7.5738,-2.30809,5.12864e-14,3.97569e-15,-30.5574,-32.6142,82.2831,45.3651,31.5915,-28.5929,27.4705,7.12502,-1.95857,57.4413,-10.4281,-13.3975,6.29751,35.6746,-31.1839,-23.2671,49.1138,-11.9206,10.4334,-25.6664,31.1687,-22.8167,19.5733,-5.871
7.44845,17.3804,-28.2079,-0.496691,-16.3038,2.30709,1.83645,-3.65088,-2.4922,-7.16143,-4.96659,1.8762,-8.1669,-2.22244,3.79574,4.80821,15.1166,19.7565,9.94743,23.3896,-20.7338,7.09699,11.6777,-7.88394,-8.52786e-14,-2.46493e-14,-49.5066,-17.1296,-48.7693,19.3362,23.1934,-18.6439,27.9335,7.12502,7.64883,-1.90813,-8.52786e-14,-2.46493e-14,-30.0542,-33.0426,82.0266,46.6639,32.2212,-28.7289,27.5581,7.12502,-2.08992,57.5276,-10.3936,-13.6491,6.1528,35.9015,-31.2117,-23.19,49.7124,-11.924,10.1677,-25.7522,31.1181,-22.657,19.445,-5.97099
7.46653,17.3891,-28.2016,-0.458231,-15.8132,2.18217,1.94483,-3.7914,-2.44329,-7.13311,-5.14964,1.93574,-8.18382,-2.31288,3.85244,4.87904,15.1277,19.5998,9.83145,23.3894,-20.7291,7.02776,11.6793,-7.86872,-6.36111e-14,-2.94201e-14,-50.392,-17.5446,-47.4973,19.322,23.9257,-18.6577,28.0086,7.12502,7.6356,-1.83354,-6.36111e-14,-2.94201e-14,-29.5543,-33.4111,81.6982,47.9131,32.7034,-28.3607,27.5932,7.12502,-1.73432,57.5659,-10.3873,-13.878,6.17117,36.1441,-31.0863,-23.2433,50.1787,-11.9073,10.0406,-25.6869,31.0638,-22.5689,19.1372,-5.58586
7.48174,17.3861,-28.1919,-0.384792,-15.446,2.04347,1.96984,-3.84595,-2.40906,-7.09616,-5.21671,1.98682,-8.15101,-2.34733,3.89211,4.72234,15.0238,19.5236,9.87088,23.2347,-20.8168,7.03604,11.5893,-7.90252,-5.68524e-14,-1.43125e-14,-51.2165,-17.239,-46.935,19.5406,23.8369,-18.3067,27.9249,7.12502,7.97435,-1.90468,-5.68524e-14,-1.43125e-14,-29.0743,-33.9371,81.4344,49.1005,33.1062,-28.019,27.5803,7.12502,-1.40425,57.5554,-10.4512,-14.1975,6.23392,36.4034,-30.8699,-23.2061,50.4629,-11.9266,9.95637,-25.6121,31.0157,-22.3583,19.0875,-6.77668
7.49689,17.3846,-28.1793,-0.332554,-15.1533,1.96657,1.95973,-3.89331,-2.3765,-7.06419,-5.27541,2.01254,-8.1059,-2.37895,3.90265,4.51002,14.7816,19.5355,9.94732,22.9294,-21.1884,7.08209,11.4176,-8.06718,-2.40529e-14,-2.78299e-14,-51.8203,-16.6893,-46.6815,19.5382,23.5048,-18.086,28.3355,7.12502,8.18731,-1.48585,-2.40529e-14,-2.78299e-14,-28.6488,-34.3333,81.1742,50.299,33.4807,-27.813,27.4574,7.12502,-1.20529,57.4337,-10.5405,-14.6003,6.18559,36.6824,-30.2584,-23.7055,49.973,-11.9177,9.85414,-25.6103,30.9771,-22.2973,19.0945,-7.69033
7.5117,17.3886,-28.1669,-0.257703,-14.9242,1.85387,1.91172,-3.91123,-2.28262,-7.05615,-5.29045,2.03776,-8.07342,-2.39264,3.87371,4.39938,14.4842,19.5545,10.0538,22.5675,-21.5698,7.10837,11.225,-8.2581,3.43897e-14,-1.19271e-14,-52.5307,-15.9566,-46.5646,19.6785,23.2302,-18.0935,28.3039,7.12502,8.18014,-1.5178,3.43897e-14,-1.19271e-14,-28.26,-34.6907,80.977,51.4555,34.017,-28.1687,27.0997,7.12502,-1.54888,57.0739,-10.7184,-14.7717,6.21974,36.9966,-29.8476,-24.3231,49.5655,-11.9082,9.51106,-25.5973,30.8996,-22.0295,19.5466,-8.95073
7.52414,17.3928,-28.155,-0.187397,-14.7564,1.86785,1.80794,-3.86457,-2.354,-6.99569,-5.22957,2.02736,-7.94643,-2.36272,3.88484,4.22992,14.1427,19.548,10.0112,22.1145,-22.0122,7.0805,10.9854,-8.47864,5.58585e-14,1.98785e-14,-53.2657,-15.0635,-46.7735,19.9867,22.5226,-18.0142,28.0055,7.12502,8.25665,-1.81314,5.58585e-14,1.98785e-14,-27.6694,-35.0706,80.7375,52.411,34.1644,-28.5354,26.5056,7.12502,-1.903,56.4769,-10.9605,-14.8367,6.1744,37.313,-29.9833,-24.2431,50.1569,-11.9104,9.21442,-25.7053,30.8015,-21.8717,19.7592,-9.43731
7.53879,17.3984,-28.146,-0.141383,-14.4036,2.02695,1.75073,-3.92212,-2.57419,-6.91476,-5.3165,2.04026,-7.79821,-2.39621,4.01602,4.06312,13.794,19.3536,9.7757,21.6313,-22.588,6.97766,10.7248,-8.72415,-4.4329e-14,-2.8625e-14,-53.6604,-14.1066,-47.1236,20.0555,21.721,-18.0667,27.7352,7.12502,8.20597,-2.08548,-4.4329e-14,-2.8625e-14,-27.0074,-35.1874,80.4621,53.3099,34.0091,-28.4655,26.1484,7.12502,-1.83552,56.1203,-11.1025,-15.1149,5.92642,37.5922,-29.8637,-24.1247,50.4695,-11.9554,9.18116,-25.9332,30.7414,-21.9935,19.2421,-8.31325
7.55407,17.3965,-28.143,-0.146854,-13.7945,1.9886,1.86021,-4.08346,-2.61242,-6.86738,-5.52952,2.14921,-7.77918,-2.49565,4.1729,3.93067,13.4118,18.9942,9.78893,21.1309,-23.0791,6.91088,10.4484,-8.92507,8.70677e-14,1.98785e-14,-54.0281,-13.332,-47.1605,20.0206,21.7153,-18.0598,27.4763,7.12502,8.21265,-2.34406,8.70677e-14,1.98785e-14,-26.6062,-35.3032,80.4247,54.3749,34.4142,-28.3927,26.4383,7.12502,-1.76522,56.4108,-11.0479,-15.6807,5.83209,37.8309,-29.0518,-24.5708,49.9388,-11.976,9.21518,-25.9258,30.7193,-21.7076,18.8324,-8.59913
7.56939,17.3912,-28.1368,-0.224605,-13.2376,1.84427,1.91346,-4.1507,-2.42096,-6.69231,-5.60742,2.12172,-7.63331,-2.55252,4.03709,3.28538,12.9307,19.0096,10.2631,20.5257,-23.665,7.10824,10.084,-9.202,-3.97569e-15,-4.77083e-15,-54.6228,-13.2786,-46.942,20.1146,22.8228,-17.9495,27.8063,7.12502,8.31909,-2.00986,-3.97569e-15,-4.77083e-15,-26.0475,-35.7866,80.1994,55.4518,34.8887,-28.2132,26.9148,7.12502,-1.59181,56.8886,-10.9169,-16.3231,5.80842,38.0347,-27.7358,-25.3572,49.1562,-11.8921,9.35248,-25.788,30.7247,-21.2862,18.5523,-10.0054
7.58656,17.3937,-28.1264,-0.225788,-12.8785,1.7325,1.88679,-4.14655,-2.17069,-6.53367,-5.5885,2.03994,-7.47798,-2.5668,3.79939,2.59803,12.4299,18.7901,10.5724,19.8149,-24.0316,7.18035,9.66554,-9.38174,-6.95746e-14,7.95139e-16,-55.2671,-13.3413,-46.8138,20.2565,23.9746,-17.5995,28.4113,7.12502,8.65685,-1.39125,-6.95746e-14,7.95139e-16,-25.4487,-36.2234,79.8395,56.4391,35.0174,-27.9376,26.9709,7.12502,-1.32562,56.9465,-10.9228,-16.5588,5.81558,38.2135,-27.08,-25.9682,49.2627,-11.8614,9.39675,-25.7159,30.7478,-21.1533,18.3522,-10.9542
7.60526,17.397,-28.1171,-0.173459,-12.5621,1.57431,1.93885,-4.16958,-1.89697,-6.5313,-5.60247,2.05452,-7.52822,-2.58805,3.66953,2.43932,11.8823,18.0378,10.6587,19.0041,-24.0367,6.962,9.23097,-9.39225,-5.22804e-14,-2.3059e-14,-55.8,-12.5509,-47.3376,20.1742,22.8495,-17.4363,28.0085,7.12502,8.81433,-1.78738,-5.22804e-14,-2.3059e-14,-25.314,-36.5562,79.8292,57.4152,35.0797,-28.1018,26.497,7.12502,-1.48427,56.4716,-10.953,-16.54,5.90746,38.3855,-27.7542,-25.7191,50.5221,-11.8613,9.17149,-25.6347,30.7377,-21.2226,18.2794,-10.9343
7.6226,17.3983,-28.1058,-0.146296,-12.231,1.54671,1.98664,-4.20063,-1.74903,-6.5568,-5.63708,2.03269,-7.59705,-2.61252,3.57388,1.96058,11.259,17.4606,11.3192,18.1825,-24.1782,7.01724,8.7511,-9.46867,-7.15625e-15,1.11319e-14,-56.3643,-12.031,-47.2971,20.2163,23.7888,-17.107,27.6771,7.12502,9.13208,-2.10518,-7.15625e-15,1.11319e-14,-25.4017,-36.8829,79.9371,58.4211,35.1168,-28.4537,26.4245,7.12502,-1.82411,56.3964,-10.9653,-16.7847,5.80113,38.5749,-28.2315,-25.1343,51.1041,-11.8318,8.95294,-25.6981,30.6633,-21.3358,18.1729,-10.2509
7.63631,17.4034,-28.0928,-0.110738,-11.9577,1.56104,1.99083,-4.23123,-1.65403,-6.60262,-5.67424,2.00662,-7.6581,-2.63551,3.50054,1.17082,10.6375,17.1764,12.4215,17.4589,-24.5491,7.34862,8.28276,-9.66123,-2.04748e-14,1.98785e-14,-56.9729,-10.9461,-47.9287,20.3767,23.3236,-16.517,28.2469,7.12502,9.70133,-1.50965,-2.04748e-14,1.98785e-14,-25.5674,-37.0014,80.0129,59.4427,35.2353,-28.2436,26.964,7.12502,-1.62117,56.9376,-11.0248,-17.1596,5.6661,38.7639,-27.5533,-25.5006,50.5756,-11.7994,8.85056,-25.7838,30.5715,-21.4281,18.0437,-9.70419
7.64786,17.4094,-28.0823,-0.124652,-11.7796,1.51398,1.9682,-4.24978,-1.52825,-6.58691,-5.69007,2.01669,-7.63767,-2.65125,3.43998,0.598116,10.084,16.6795,13.2485,16.7911,-24.7707,7.53243,7.85689,-9.76257,1.05157e-13,1.98785e-14,-57.4776,-10.0733,-48.4645,20.4314,23.2225,-16.5208,29.1279,7.12502,9.6977,-0.628897,1.05157e-13,1.98785e-14,-25.6782,-37.0779,80.0733,60.4242,35.2108,-28.2583,26.8163,7.12502,-1.63536,56.7898,-11.0334,-17.3037,5.62127,38.9345,-27.1028,-25.9052,50.7151,-11.7025,9.06381,-25.749,30.4753,-21.4803,17.6685,-9.4784
7.65771,17.4105,-28.0742,-0.150394,-11.648,1.49691,1.88273,-4.2274,-1.41428,-6.46979,-5.65306,1.98116,-7.47777,-2.64579,3.32198,0.0888562,9.55042,15.8845,13.8822,16.0952,-24.764,7.58941,7.41902,-9.72201,5.96354e-14,-5.56597e-15,-57.7716,-9.88266,-48.6249,20.2768,23.9598,-16.7445,29.2836,7.12502,9.48188,-0.483072,5.96354e-14,-5.56597e-15,-25.5113,-37.2273,79.966,61.2177,35.1047,-28.5314,25.9025,7.12502,-1.89913,55.8738,-11.0113,-17.2357,5.55263,39.0738,-28.0691,-25.1684,52.3723,-11.615,9.44438,-25.7281,30.3812,-21.2636,17.3188,-10.0781
7.66791,17.4111,-28.0648,-0.19203,-11.374,1.42372,1.83791,-4.18238,-1.17743,-6.31059,-5.58433,1.85351,-7.31872,-2.63434,3.03958,-0.622176,8.95936,15.2626,14.7095,15.3432,-24.7769,7.75748,6.9391,-9.72518,-1.98785e-14,8.74653e-15,-58.1497,-10.1414,-48.5998,20.109,24.9287,-16.5398,29.3642,7.12502,9.6794,-0.393446,-1.98785e-14,8.74653e-15,-25.1475,-37.5628,79.7193,61.7555,35.0929,-28.0835,25.5523,7.12502,-1.46658,55.527,-10.9124,-17.1756,5.56042,39.1739,-28.7102,-24.8641,53.3717,-11.5149,9.31284,-25.6816,30.3117,-21.0205,17.3425,-10.667
7.67924,17.4138,-28.0552,-0.291159,-11.0782,1.32459,1.94102,-4.15272,-0.936914,-6.21778,-5.53616,1.75122,-7.31365,-2.62775,2.80095,-1.38961,8.38823,14.7447,15.7243,14.6655,-24.8121,8.03242,6.48595,-9.7558,-2.98177e-15,-3.18055e-15,-58.6476,-10.2481,-48.5704,20.0467,25.9813,-16.5936,29.1421,7.12502,9.62746,-0.617956,-2.98177e-15,-3.18055e-15,-25.0992,-37.839,79.7201,62.3817,35.2033,-27.873,25.563,7.12502,-1.26328,55.539,-10.744,-17.117,5.59133,39.2411,-28.1177,-25.4211,53.2033,-11.3566,9.0158,-25.6169,30.2631,-21.0597,17.3902,-10.7873
7.69118,17.4142,-28.0485,-0.344724,-10.9938,1.34292,2.08378,-4.08948,-0.886014,-6.28351,-5.45199,1.70653,-7.4806,-2.58646,2.73685,-1.9664,7.82369,14.3042,16.8546,14.0631,-24.9456,8.34825,6.07398,-9.85159,-1.25234e-14,-2.06736e-14,-59.2599,-9.62062,-49.0039,20.1965,26.2088,-16.7242,28.7552,7.12502,9.50143,-1.01064,-1.25234e-14,-2.06736e-14,-25.6149,-37.9326,80.1077,63.3006,35.4579,-28.4673,25.2309,7.12502,-1.83725,55.2028,-10.694,-17.0437,5.4849,39.2858,-27.4129,-25.6345,53.1632,-11.2797,9.23239,-25.6645,30.2314,-20.9954,17.2591,-11.8092
7.70728,17.4149,-28.0392,-0.307051,-10.9195,1.33825,2.05767,-3.99758,-0.737071,-6.30949,-5.32564,1.60915,-7.52202,-2.53524,2.54316,-2.47399,7.25128,13.9542,17.8372,13.4141,-25.0312,8.59939,5.65849,-9.95108,6.59965e-14,1.59028e-14,-59.7943,-9.09191,-49.5538,20.3103,26.1338,-16.6771,28.2856,7.12502,9.54692,-1.47813,6.59965e-14,1.59028e-14,-26.0613,-38.1867,80.4109,64.1239,35.5284,-29.0693,24.8858,7.12502,-2.41863,54.8518,-10.7122,-17.1115,5.37098,39.3238,-27.0109,-25.7994,53.1269,-11.2713,9.4783,-25.7077,30.1954,-20.8595,17.0284,-12.4253
7.72532,17.4137,-28.0276,-0.292463,-10.7988,1.29095,1.9363,-3.93843,-0.451823,-6.2167,-5.23739,1.46199,-7.39436,-2.51606,2.21074,-2.93046,6.75701,13.6212,18.5278,12.8143,-25.0575,8.75553,5.28618,-10.0083,-2.92213e-14,-1.66979e-14,-60.0539,-9.21413,-49.6524,20.188,26.981,-16.5226,27.8258,7.12502,9.69598,-1.93104,-2.92213e-14,-1.66979e-14,-26.2583,-38.3954,80.4726,64.6854,35.3647,-29.3314,24.6041,7.12502,-2.6718,54.5672,-10.6409,-17.1715,5.27731,39.3565,-26.8646,-25.9235,53.0936,-11.2001,9.29407,-25.7403,30.1429,-20.8811,16.9041,-11.3965
7.73737,17.4156,-28.0174,-0.321218,-10.8294,1.22222,1.84799,-3.87963,-0.255036,-6.06748,-5.15139,1.37799,-7.21063,-2.49094,1.9929,-3.25491,6.36445,13.3779,18.9617,12.3533,-25.252,8.85502,4.99429,-10.1236,5.01931e-14,-1.59028e-15,-60.0956,-9.53045,-49.5863,19.9574,28.2049,-16.2027,27.6079,7.12502,10.0046,-2.13429,5.01931e-14,-1.59028e-15,-26.4088,-38.4328,80.4942,65.1564,35.1233,-29.3701,24.6421,7.12502,-2.70916,54.6046,-10.5811,-16.9591,5.28129,39.372,-26.3933,-26.2022,52.7779,-11.0995,9.27617,-25.7171,30.086,-20.8883,16.9083,-10.952
7.74477,17.424,-28.006,-0.400123,-10.9245,1.06806,1.82455,-3.83505,-0.0745632,-5.87169,-5.08165,1.36062,-7.00638,-2.47018,1.85755,-3.52421,6.0737,13.1656,19.292,12.0232,-25.4347,8.94207,4.77509,-10.2189,1.11916e-13,1.35174e-14,-60.0049,-9.81751,-49.5466,19.6595,29.2192,-15.7284,27.145,7.12502,10.4622,-2.57464,1.11916e-13,1.35174e-14,-26.6968,-38.3245,80.5401,65.8187,34.8538,-29.1273,25.0687,7.12502,-2.47465,55.0341,-10.4872,-16.5665,5.43776,39.3647,-25.8037,-26.674,52.3083,-10.9377,9.39787,-25.5523,30.0465,-20.956,16.9716,-11.0103
7.75535,17.4257,-27.9961,-0.516102,-10.9354,0.960632,1.89239,-3.83551,0.120793,-5.77494,-5.07287,1.32446,-6.96276,-2.478,1.71211,-3.62057,5.80165,12.922,19.6936,11.7315,-25.5201,9.01849,4.58589,-10.2721,-7.35503e-14,-5.56597e-15,-59.9228,-9.85567,-49.5779,19.3715,29.9281,-15.2885,26.9311,7.12502,10.8865,-2.76666,-7.35503e-14,-5.56597e-15,-27.3663,-38.1143,80.7869,66.6243,34.7728,-28.9257,25.2104,7.12502,-2.27996,55.1779,-10.3004,-16.3294,5.48544,39.3353,-25.7372,-26.7252,52.3518,-10.7387,9.47584,-25.435,30.0443,-21.0931,16.85,-10.678
7.76956,17.4222,-27.9899,-0.577398,-10.9054,0.899417,1.82867,-3.82301,0.305512,-5.63423,-5.05015,1.25257,-6.79871,-2.48082,1.52165,-3.70505,5.53561,12.584,20.0445,11.4179,-25.4579,9.05396,4.39164,-10.2415,-4.48259e-14,-7.15625e-15,-59.735,-9.66642,-50.0709,19.2976,30.0131,-14.9858,26.833,7.12502,11.1784,-2.8492,-4.48259e-14,-7.15625e-15,-27.7449,-38.1643,81.0116,67.1035,34.8787,-28.8054,24.773,7.12502,-2.16381,54.7418,-10.1565,-16.3319,5.43676,39.298,-25.816,-26.501,52.6363,-10.6617,10.0202,-25.3477,30.0798,-20.9619,16.3902,-11.5356
7.78386,17.4191,-27.9864,-0.595132,-10.8416,0.788618,1.71874,-3.82254,0.499735,-5.45322,-5.04106,1.23181,-6.56133,-2.48949,1.37436,-3.86228,5.3382,12.2037,20.3486,11.1869,-25.3403,9.10381,4.23415,-10.1637,-4.56211e-14,-9.54166e-15,-59.4095,-9.72539,-50.3374,19.1642,30.24,-14.6684,27.1647,7.12502,11.4846,-2.5007,-4.56211e-14,-9.54166e-15,-28.0272,-38.1722,81.3035,67.3794,34.7057,-28.3137,24.2592,7.12502,-1.68886,54.2322,-10.067,-16.4249,5.45595,39.2856,-25.8212,-26.3717,52.9388,-10.6752,10.4059,-25.2378,30.1229,-20.7576,16.2488,-12.7809
7.79536,17.4154,-27.9859,-0.581598,-10.8031,0.816107,1.76219,-3.8363,0.533257,-5.48256,-5.05813,1.21767,-6.62173,-2.49946,1.34757,-3.72359,5.17651,12.0237,20.5836,11.0288,-25.3894,9.11137,4.13805,-10.1885,-6.81831e-14,-2.78299e-14,-59.1944,-9.90819,-50.1335,18.9133,30.9896,-14.4276,27.7583,7.12502,11.7168,-1.89402,-6.81831e-14,-2.78299e-14,-28.8766,-37.9322,81.9503,67.6678,34.5004,-27.982,24.1168,7.12502,-1.36852,54.0922,-10.0925,-16.4979,5.36788,39.3121,-25.5237,-26.4689,52.8374,-10.7277,10.4241,-25.3242,30.1346,-20.7599,16.3253,-12.9579
7.80363,17.41,-27.9858,-0.648395,-10.8147,1.05917,1.89623,-3.793,0.380368,-5.53324,-5.01716,1.0422,-6.7561,-2.47477,1.26015,-3.49813,5.03401,12.1271,20.8051,10.8616,-25.3894,9.10624,4.07235,-10.2499,3.83654e-14,8.74653e-15,-59.2894,-9.73164,-50.4652,19.0247,31.4137,-14.364,27.3966,7.12502,11.7781,-2.25223,3.83654e-14,8.74653e-15,-29.8682,-37.9026,82.544,67.9991,34.6085,-28.4546,24.0914,7.12502,-1.82498,54.0634,-10.1164,-16.492,5.0359,39.3817,-25.1975,-26.5824,52.5652,-10.6652,10.4235,-25.628,30.0795,-20.7259,16.3649,-13.3601
7.81592,17.4051,-27.9833,-0.792274,-10.7507,1.27288,2.07611,-3.75537,0.238075,-5.51804,-4.9819,0.894793,-6.84511,-2.4527,1.19615,-3.19002,4.88732,12.0662,20.9805,10.6771,-25.2817,9.04769,3.99987,-10.2303,4.97956e-14,2.5842e-14,-59.4881,-9.27276,-51.051,19.368,31.3197,-14.4474,27.0771,7.12502,11.6976,-2.57634,4.97956e-14,2.5842e-14,-30.9563,-37.7941,83.1693,68.509,34.5287,-28.8866,24.1777,7.12502,-2.24223,54.1456,-10.0122,-16.5111,4.67252,39.4617,-25.4214,-26.4183,52.8732,-10.4622,10.1609,-25.9191,29.9742,-20.778,16.4839,-13.3625
7.83132,17.4032,-27.9782,-0.772638,-10.7099,1.53343,2.10371,-3.72019,-0.0115024,-5.54404,-4.95148,0.850254,-6.87159,-2.42533,1.28829,-2.98716,4.77531,11.7834,21.0422,10.5246,-25.1129,8.96452,3.92594,-10.1249,7.86193e-14,6.36111e-15,-59.3968,-8.92146,-51.4541,19.6613,30.9797,-14.2503,27.1496,7.12502,11.8877,-2.49289,7.86193e-14,6.36111e-15,-32.0065,-37.5269,83.9347,68.9717,34.3201,-28.7364,24.1759,7.12502,-2.09712,54.1454,-10.0848,-16.5879,4.30222,39.5101,-25.7141,-26.1637,53.2663,-10.4626,9.96229,-26.3023,29.8662,-20.8614,16.5766,-12.8696
7.84483,17.4037,-27.9705,-0.599947,-10.7267,1.66547,1.82729,-3.64765,-0.0386983,-5.40948,-4.86207,0.731766,-6.57783,-2.38699,1.14629,-3.45158,4.7718,11.8117,21.1512,10.4687,-24.9036,9.07135,3.88386,-10.0494,1.799e-14,-6.36111e-15,-58.9358,-9.18641,-51.7755,19.7407,30.9887,-13.9934,26.5467,7.12502,12.1355,-3.08131,1.799e-14,-6.36111e-15,-32.5263,-37.5848,84.3561,69.1554,34.3439,-28.5819,23.7051,7.12502,-1.94795,53.6759,-10.2771,-16.6379,4.14221,39.494,-25.7917,-25.9678,53.4123,-10.6408,9.67172,-26.5707,29.7961,-20.7083,16.9746,-12.9843
7.86066,17.4041,-27.9637,-0.46211,-10.596,1.4988,1.49805,-3.64574,0.29896,-5.15692,-4.84669,0.643706,-6.15634,-2.40301,0.831836,-3.76603,4.82531,12.0693,21.1461,10.5014,-24.9004,9.15512,3.90339,-10.0914,7.61345e-14,1.78906e-14,-58.3753,-9.6641,-51.9283,19.6775,31.3019,-13.9353,26.0911,7.12502,12.1915,-3.53359,7.61345e-14,1.78906e-14,-32.9519,-37.6823,84.668,69.184,34.4019,-28.3213,23.3908,7.12502,-1.6962,53.3638,-10.2722,-16.7061,4.29336,39.4096,-25.7593,-26.018,53.3417,-10.7366,9.29685,-26.4973,29.7679,-20.6787,17.1802,-12.471
7.87399,17.4037,-27.9598,-0.383687,-10.5035,1.38127,1.48669,-3.68837,0.459803,-5.14387,-4.89436,0.678552,-6.14643,-2.43358,0.781078,-3.5421,4.90863,12.1713,21.1199,10.6263,-24.9204,9.13656,3.98564,-10.1078,2.29596e-14,1.98785e-15,-58.044,-9.29536,-52.2899,19.8943,31.0737,-13.5191,26.3974,7.12502,12.5928,-3.20307,2.29596e-14,1.98785e-15,-34.001,-37.4785,85.4499,69.2167,34.2952,-27.9657,23.5053,7.12502,-1.35277,53.4807,-10.2174,-16.6831,4.41996,39.2875,-25.7725,-26.1685,53.3071,-10.7994,9.39881,-26.4127,29.7679,-20.7899,16.9199,-12.0671
7.88113,17.4045,-27.9567,-0.329286,-10.5846,1.39848,1.62791,-3.64723,0.418406,-5.25755,-4.8407,0.683999,-6.34452,-2.40339,0.821743,-3.37717,4.95132,12.2083,21.2196,10.6794,-24.7523,9.14007,4.03312,-10.048,2.00773e-14,0,-57.9256,-8.49597,-53.0983,20.3889,30.2688,-13.3554,25.9348,7.12502,12.7506,-3.65592,2.00773e-14,0,-35.3129,-37.264,86.4034,69.1866,34.2966,-27.6316,23.3888,7.12502,-1.03011,53.366,-10.2349,-16.4183,4.46004,39.147,-26.155,-26.211,53.5557,-10.8688,9.55939,-26.4603,29.7921,-20.8046,16.8792,-12.3436
7.88916,17.4024,-27.9568,-0.316155,-10.6408,1.42476,1.69991,-3.57279,0.402277,-5.30752,-4.74596,0.606225,-6.44493,-2.35712,0.751138,-3.01164,4.89851,12.3347,21.0805,10.5495,-24.5969,8.98276,4.02378,-10.0146,6.21202e-14,1.86858e-14,-57.7997,-8.19804,-53.7454,20.7692,29.7303,-13.6092,25.2783,7.12502,12.5059,-4.32747,6.21202e-14,1.86858e-14,-36.5413,-37.1955,87.2747,68.972,34.6394,-27.5958,22.7819,7.12502,-0.99552,52.7593,-10.2188,-16.1422,4.47311,39.0186,-26.7619,-26.0766,53.8407,-10.894,9.55453,-26.5289,29.8195,-20.7373,17.0598,-12.527
7.89868,17.3987,-27.9596,-0.33609,-10.7127,1.41773,1.8346,-3.50839,0.41997,-5.3283,-4.6612,0.552878,-6.551,-2.3166,0.69059,-2.55252,4.87111,12.3855,20.7544,10.4288,-24.4064,8.74021,4.02776,-9.93774,-3.18055e-14,-1.98785e-15,-57.5885,-8.32715,-53.8416,21.0091,29.7297,-13.3528,25.8789,7.12502,12.7531,-3.71158,-3.18055e-14,-1.98785e-15,-37.749,-37.0822,88.1732,68.6504,34.8566,-27.9079,22.5889,7.12502,-1.29697,52.5647,-10.1802,-16.0547,4.48021,38.8992,-26.9297,-25.9624,53.9588,-10.901,9.73792,-26.5324,29.8604,-20.7577,16.9921,-12.6357
7.90715,17.3967,-27.9593,-0.346001,-10.7505,1.42118,1.9438,-3.50968,0.380218,-5.2632,-4.66238,0.583734,-6.53873,-2.31388,0.749184,-2.50103,4.98957,12.2665,20.4957,10.5121,-24.1396,8.63863,4.0908,-9.77496,4.99943e-14,2.78299e-15,-57.1024,-8.34027,-53.9943,21.3812,29.6512,-12.7152,26.1069,7.12502,13.3677,-3.4443,4.99943e-14,2.78299e-15,-38.7042,-36.7221,88.9526,68.2009,34.7985,-28.0755,22.7069,7.12502,-1.45883,52.6817,-10.1608,-16.0498,4.48072,38.7843,-26.5429,-26.3656,53.6213,-10.9326,10.0243,-26.539,29.9131,-20.821,16.7267,-13.07
7.91569,17.3952,-27.9559,-0.301724,-10.727,1.40562,1.92756,-3.5607,0.380255,-5.1841,-4.72793,0.628339,-6.4411,-2.34561,0.795329,-2.50763,5.11272,12.087,20.2504,10.5984,-23.8371,8.54854,4.14835,-9.58735,-3.84648e-14,-5.56597e-15,-56.443,-8.1351,-54.4703,21.7324,29.4258,-12.6267,25.4982,7.12502,13.453,-4.04732,-3.84648e-14,-5.56597e-15,-39.5371,-36.2725,89.6209,67.6262,34.8343,-28.0842,22.6777,7.12502,-1.46719,52.6524,-10.1526,-15.957,4.52783,38.6682,-26.4497,-26.6862,53.3365,-11.0227,10.1366,-26.5571,29.9814,-20.8731,16.6409,-13.2413
7.92322,17.3941,-27.9536,-0.227415,-10.8019,1.42119,1.8943,-3.51399,0.377299,-5.20374,-4.66668,0.613694,-6.4441,-2.31572,0.775813,-2.21958,5.14261,11.9788,20.0299,10.5613,-23.5156,8.3832,4.17227,-9.42846,7.33515e-14,1.11319e-14,-56.0908,-7.78011,-55.0261,22.095,28.7805,-12.896,25.4903,7.12502,13.1934,-4.0722,7.33515e-14,1.11319e-14,-40.5903,-36.0095,90.4704,67.0773,34.8488,-28.4332,22.9478,7.12502,-1.8043,52.9199,-10.1998,-15.8292,4.54319,38.5458,-26.864,-26.5368,53.6478,-11.153,10.1039,-26.6249,30.0699,-21.0181,16.7028,-12.3904
7.93068,17.394,-27.9525,-0.1365,-10.9192,1.37912,1.86612,-3.40584,0.389695,-5.19614,-4.52099,0.619599,-6.42087,-2.24433,0.761976,-2.33291,5.24636,12.2726,20.1533,10.7173,-23.5602,8.50009,4.25666,-9.49365,6.06293e-15,-2.0276e-14,-55.8712,-7.16177,-55.8088,22.7601,27.4248,-12.8192,25.6044,7.12502,13.2675,-3.95333,6.06293e-15,-2.0276e-14,-41.5812,-35.8207,91.3892,66.471,34.8356,-28.3642,23.2837,7.12502,-1.73762,53.2564,-10.273,-15.7854,4.60998,38.4154,-27.4194,-26.2707,54.1514,-11.3042,10.3829,-26.6025,30.1822,-21.063,16.5386,-12.2405
7.94028,17.3927,-27.9518,-0.0496825,-10.9792,1.19398,1.94373,-3.30219,0.560617,-5.14216,-4.37155,0.636547,-6.42066,-2.17815,0.676926,-2.72625,5.35557,12.7374,20.2594,10.8649,-23.7057,8.6825,4.32789,-9.62785,1.13307e-14,-1.15295e-14,-55.5919,-6.58956,-56.6765,23.5091,26.2134,-12.7936,25.3352,7.12502,13.2921,-4.22095,1.13307e-14,-1.15295e-14,-42.4244,-35.763,92.213,65.7203,34.8993,-26.3151,23.6503,7.12502,0.241424,53.6299,-10.2913,-15.7914,4.81971,38.2879,-27.9808,-25.9103,54.6733,-11.4365,10.822,-26.4097,30.3141,-21.0219,16.2314,-12.9243
7.94915,17.3889,-27.952,-0.0160245,-11.0342,1.07905,2.09255,-3.21254,0.662207,-5.11724,-4.24523,0.627446,-6.4885,-2.12021,0.610476,-2.45824,5.34365,12.7237,19.7363,10.7191,-23.456,8.40378,4.3133,-9.50706,5.74985e-14,-1.11319e-14,-55.1871,-6.42533,-57.1317,23.8986,25.8706,-13.0505,24.932,7.12502,13.0445,-4.6401,5.74985e-14,-1.11319e-14,-43.4087,-35.7136,93.0696,64.961,34.8639,-32.4076,18.8216,7.12502,-5.6423,48.7265,-10.2782,-15.8834,4.94158,38.1726,-27.8164,-25.8109,54.7168,-11.5306,10.9856,-26.3066,30.443,-20.9772,16.24,-13.6791
7.95508,17.3851,-27.9531,0.00333699,-11.0927,1.09715,2.12026,-3.17978,0.600596,-5.06181,-4.20461,0.622127,-6.44132,-2.09719,0.635282,-2.04808,5.3142,12.5324,19.0802,10.5483,-23.2045,8.04225,4.28537,-9.35233,-1.86361e-14,1.98785e-15,-54.5116,-6.50367,-57.3172,24.043,25.9123,-13.2298,24.5305,7.12502,12.8716,-5.05259,-1.86361e-14,1.98785e-15,-44.3762,-35.3977,93.8265,64.2464,34.7108,-28.7374,23.3771,7.12502,-2.09811,53.3465,-10.2941,-16.0084,4.93064,38.0741,-26.7895,-26.3809,53.9543,-11.6381,11.1791,-26.3426,30.5501,-20.9599,16.3048,-14.2603
7.95973,17.387,-27.953,0.127907,-11.1598,1.09985,2.01029,-3.13264,0.549514,-4.99438,-4.14564,0.609451,-6.30357,-2.06668,0.636075,-1.96273,5.35204,12.6505,18.6584,10.519,-23.1796,7.88598,4.30459,-9.34405,5.22307e-14,-9.93923e-15,-53.891,-6.31158,-57.8647,24.4259,25.329,-13.3237,24.4729,7.12502,12.7812,-5.11588,5.22307e-14,-9.93923e-15,-45.1426,-35.0188,94.4473,63.3419,34.593,-27.0654,24.786,7.12502,-0.483249,54.7652,-10.4299,-15.9552,4.97177,38.006,-25.7656,-27.0686,53.2133,-11.817,11.4513,-26.3751,30.6128,-21.0326,16.1041,-13.7854
7.96504,17.3886,-27.9524,0.237921,-11.2948,1.06572,1.96545,-2.98235,0.518287,-4.94158,-3.94779,0.579307,-6.22196,-1.96846,0.602573,-1.90979,5.35285,12.8616,18.2497,10.4256,-23.1225,7.73032,4.3001,-9.34809,1.1281e-14,7.15625e-15,-53.37,-6.0695,-58.4787,24.8541,24.684,-13.1504,24.6389,7.12502,12.9482,-4.9393,1.1281e-14,7.15625e-15,-45.8723,-34.7541,95.1549,62.2581,34.5302,-26.8455,24.6612,7.12502,-0.270901,54.6408,-10.5518,-15.7691,5.03204,37.9414,-25.3331,-27.1719,53.1328,-11.9475,11.7355,-26.3654,30.6537,-20.9892,15.9588,-13.6309
7.96849,17.3828,-27.9546,0.170177,-11.3961,1.05765,2.15401,-2.86405,0.437889,-4.89926,-3.79259,0.569888,-6.28105,-1.88713,0.635225,-1.90628,5.30121,12.9298,17.9763,10.28,-23.0258,7.60779,4.25341,-9.32168,7.45443e-15,2.38542e-15,-52.89,-5.5018,-59.2225,25.4545,23.9615,-12.8879,24.2877,7.12502,13.2012,-5.2743,7.45443e-15,2.38542e-15,-46.7433,-34.5047,96.0008,61.2615,34.2158,-26.8176,24.9618,7.12502,-0.243929,54.9414,-10.4384,-15.557,5.01814,37.8687,-25.7863,-26.6362,53.5909,-11.9092,12.1604,-26.3228,30.6884,-20.8593,15.8377,-14.5697
7.97,17.3796,-27.9598,0.0802245,-11.3716,0.958086,2.48335,-2.85268,0.457829,-4.93354,-3.77262,0.59642,-6.50685,-1.87561,0.670451,-1.76956,5.2799,12.9296,17.7332,10.1992,-22.9322,7.48057,4.23844,-9.28221,5.51627e-15,9.14409e-15,-52.6169,-4.75374,-59.956,26.1285,23.1417,-13.122,23.7656,7.12502,12.9755,-5.81094,5.51627e-15,9.14409e-15,-47.8108,-34.1814,96.9204,60.3192,33.8863,-26.9258,24.8502,7.12502,-0.348404,54.8297,-10.206,-15.2423,5.13412,37.7632,-26.6433,-25.776,53.7893,-11.861,12.5345,-26.1609,30.7346,-20.8169,15.5953,-15.3618
7.9707,17.3785,-27.9665,-0.00995047,-11.334,0.881202,2.84627,-2.84191,0.458311,-5.00409,-3.75597,0.59435,-6.79187,-1.86517,0.690297,-1.44727,5.25912,12.953,17.3553,10.1048,-22.8168,7.27256,4.23596,-9.23771,-6.95746e-14,-2.0276e-14,-52.2191,-4.72732,-60.0076,26.1194,23.0755,-13.4732,24.0267,7.12502,12.637,-5.571,-6.95746e-14,-2.0276e-14,-48.9518,-33.6332,97.7732,59.345,33.785,-27.0452,24.3375,7.12502,-0.463721,54.3167,-10.0152,-14.8631,5.2702,37.6206,-26.7049,-25.2726,52.9786,-11.8283,12.6638,-26.0429,30.8027,-20.8727,15.5522,-15.7397
7.97074,17.3815,-27.9718,-0.062939,-11.325,0.82187,3.06092,-2.85457,0.418044,-4.97961,-3.77299,0.610386,-6.88615,-1.86989,0.742248,-1.35186,5.26873,12.9474,16.979,10.0453,-22.7335,7.1177,4.23196,-9.19281,5.20816e-14,7.15625e-15,-51.5697,-4.39073,-60.4426,26.3452,22.7291,-13.3954,23.8908,7.12502,12.712,-5.7023,5.20816e-14,7.15625e-15,-49.8137,-32.8353,98.3349,58.3723,33.5802,-26.6164,24.8004,7.12502,-0.0496175,54.7801,-9.90899,-14.5448,5.40138,37.4429,-25.8488,-25.0074,51.6232,-11.8012,12.5727,-25.9613,30.8828,-21.2862,15.4427,-14.1736
7.96954,17.385,-27.9768,-0.0482863,-11.2853,0.765335,3.16225,-2.87673,0.38453,-4.92196,-3.80468,0.599813,-6.88164,-1.88376,0.756353,-1.36401,5.26558,13.0208,16.5883,9.95857,-22.6887,6.98002,4.21174,-9.17789,2.36057e-14,-7.95139e-15,-51.0272,-3.42906,-61.654,27.1945,21.7739,-13.346,23.08,7.12502,12.7597,-6.51014,2.36057e-14,-7.95139e-15,-50.508,-32.1833,98.7603,57.3655,33.3722,-26.0813,25.727,7.12502,0.467217,55.7063,-9.85844,-14.2488,5.52431,37.2608,-24.5369,-24.5146,50.213,-11.8158,12.3942,-25.8961,30.9362,-21.8428,15.1068,-11.603
7.96644,17.3812,-27.9862,-0.110918,-11.1998,0.782462,3.43342,-2.79768,0.303404,-4.90653,-3.71049,0.470164,-7.02617,-1.83523,0.672869,-1.32788,5.15956,13.2685,16.2947,9.7206,-22.556,6.83652,4.13505,-9.18241,3.16565e-14,1.11319e-14,-50.5406,-3.38616,-62.2356,27.3453,21.7666,-13.812,23.1945,7.12502,12.3104,-6.42309,3.16565e-14,1.11319e-14,-51.2417,-31.9523,99.2652,56.2241,33.0966,-25.7677,26.0001,7.12502,0.770132,55.9784,-9.75203,-13.9679,5.54937,37.1079,-23.0371,-23.8223,48.7071,-11.7728,12.3947,-25.8752,30.9475,-21.9886,14.8225,-10.8136
7.96334,17.3801,-27.9935,-0.308591,-11.2157,0.878085,3.77611,-2.68407,0.138374,-4.80694,-3.57751,0.317611,-7.11858,-1.76389,0.60825,-1.38448,5.09291,13.4533,16.0639,9.53511,-22.3485,6.73507,4.07534,-9.14261,-1.47598e-14,1.19271e-15,-49.6985,-3.92877,-62.3133,26.761,22.0568,-14.8642,23.3269,7.12502,11.2958,-6.34894,-1.47598e-14,1.19271e-15,-51.7768,-31.6401,99.5812,55.0678,32.7475,-25.29,25.9581,7.12502,1.23149,55.9343,-9.59366,-13.6673,5.46544,36.9672,-21.8235,-22.8385,47.2191,-11.6051,12.5188,-25.9101,30.9684,-22.0522,14.7142,-10.2689
7.95825,17.3816,-27.9927,-0.486708,-11.4558,0.938588,3.93309,-2.572,-0.0478725,-4.61831,-3.44309,0.25497,-7.00135,-1.69001,0.635087,-1.75627,5.04021,13.6751,16.001,9.418,-22.4461,6.77677,4.00795,-9.22133,-2.8948e-14,-3.97569e-16,-48.6032,-3.99721,-62.7319,26.3402,21.6425,-15.6656,23.0075,7.12502,10.5228,-6.70911,-2.8948e-14,-3.97569e-16,-52.1404,-30.919,99.6444,53.9975,32.4519,-25.0646,25.893,7.12502,1.4492,55.8678,-9.54035,-13.1489,5.46538,36.8147,-21.3222,-21.7255,46.1008,-11.4525,12.4004,-25.9496,31.0493,-22.4506,14.8765,-8.47426
7.95255,17.3783,-27.9949,-0.527817,-11.6083,0.722369,4.04808,-2.47702,0.0667525,-4.48901,-3.30667,0.250054,-6.93783,-1.62877,0.55432,-2.14898,4.85631,13.9493,15.9934,9.1302,-22.6464,6.81031,3.85226,-9.36832,-4.02042e-14,-8.15017e-15,-47.6742,-4.04945,-63.1594,26.2532,21.7245,-15.3876,23.279,7.12502,10.7909,-6.42381,-4.02042e-14,-8.15017e-15,-52.639,-30.2658,99.8185,52.8821,32.4777,-25.3459,25.3333,7.12502,1.1775,55.3098,-9.51366,-12.6338,5.82697,36.6102,-21.206,-20.756,44.992,-11.4452,12.1686,-25.714,31.2308,-22.7874,15.1699,-7.62186
7.94844,17.3704,-28.0057,-0.53188,-11.5893,0.405571,4.22772,-2.436,0.344638,-4.41366,-3.23012,0.249949,-6.97772,-1.60433,0.39836,-1.89258,4.6375,13.8376,15.425,8.72136,-22.4697,6.48597,3.69157,-9.29405,4.77083e-15,-5.96354e-16,-46.9057,-4.2548,-63.4501,26.2937,22.1912,-15.0885,23.516,7.12502,11.0794,-6.17152,4.77083e-15,-5.96354e-16,-53.0847,-29.5612,99.9779,51.691,32.3353,-25.2426,24.8437,7.12502,1.27726,54.8196,-9.44323,-12.2832,6.3469,36.3253,-20.9107,-19.9339,43.7328,-11.5531,11.9748,-25.3581,31.5259,-22.9393,15.4201,-7.86381
7.94295,17.3646,-28.0168,-0.482256,-11.6584,0.0714019,4.36354,-2.40823,0.58674,-4.36736,-3.16833,0.333487,-7.01579,-1.58317,0.349376,-1.62972,4.49978,13.49,14.8992,8.43256,-22.1535,6.18718,3.58068,-9.11517,8.44835e-15,-7.7526e-15,-46.0557,-4.42439,-63.6256,26.1842,22.5853,-15.2025,23.8261,7.12502,10.9694,-5.86729,8.44835e-15,-7.7526e-15,-53.4531,-28.4579,99.9269,50.5755,31.5085,-24.7635,24.6443,7.12502,1.73996,54.6169,-9.48756,-11.9295,6.96028,36.0058,-20.5706,-19.3532,42.6005,-11.7397,11.816,-24.9875,31.8626,-23.182,15.5269,-7.38107
7.93706,17.3635,-28.0212,-0.454804,-11.7529,-0.341646,4.43926,-2.36788,0.893051,-4.24712,-3.08418,0.424828,-6.94303,-1.55415,0.265052,-1.89161,4.39823,13.3801,14.8414,8.2371,-21.9965,6.16784,3.47513,-9.04436,3.65267e-15,-3.37934e-15,-45.0498,-4.70498,-63.779,25.8132,22.8925,-15.3602,24.3904,7.12502,10.8173,-5.31106,3.65267e-15,-3.37934e-15,-53.8763,-27.5265,99.879,49.4641,31.1696,-24.9789,23.5296,7.12502,1.53195,53.5039,-9.4846,-11.741,7.60149,35.7155,-20.4932,-18.883,41.2304,-11.8254,11.6836,-24.5221,32.1574,-23.3906,15.7375,-7.32059
7.93071,17.3668,-28.0279,-0.56075,-12.0203,-0.547994,4.48919,-2.23119,0.971444,-3.97622,-2.89429,0.429192,-6.68621,-1.46363,0.200207,-2.26257,4.24917,13.2722,14.6916,7.94638,-21.8145,6.1215,3.32219,-8.96722,3.07992e-14,4.17448e-15,-43.8602,-4.92782,-64.1979,25.4655,22.7748,-15.534,24.0063,7.12502,10.6497,-5.7038,3.07992e-14,4.17448e-15,-53.8473,-26.5816,99.4543,48.4077,30.2175,-25.2571,23.4227,7.12502,1.26323,53.3987,-9.50395,-11.5443,7.95367,35.4866,-20.6955,-18.2699,40.3517,-11.7714,11.5028,-24.2776,32.3668,-23.6178,16.1264,-6.82056
7.92143,17.3703,-28.041,-0.725803,-12.2849,-0.579492,4.77695,-2.09167,0.787187,-3.83236,-2.71651,0.456947,-6.68767,-1.36557,0.321456,-2.5255,4.04422,13.0188,14.5446,7.59191,-21.5921,6.03739,3.13833,-8.85542,2.07606e-14,5.26779e-15,-42.7432,-4.95637,-64.6077,25.1068,22.8145,-15.6797,23.3304,7.12502,10.5091,-6.38694,2.07606e-14,5.26779e-15,-53.9197,-25.5292,99.2181,47.0849,29.7035,-25.9134,22.1314,7.12502,0.629381,52.1103,-9.57386,-11.1685,8.18097,35.3261,-21.1183,-17.8614,40.1621,-11.6747,11.2642,-24.2078,32.4827,-23.9375,16.2675,-4.75349
7.90801,17.369,-28.0502,-0.878431,-12.0618,-0.682335,5.33211,-2.09872,0.624649,-3.92748,-2.72873,0.530132,-7.09841,-1.35982,0.515799,-2.79981,3.83839,12.9138,14.7576,7.30149,-21.4881,6.08859,2.97554,-8.82481,3.53216e-14,9.0447e-15,-42.021,-4.97832,-64.7613,24.6334,23.2713,-15.8559,23.5861,7.12502,10.3392,-6.13974,3.53216e-14,9.0447e-15,-54.3593,-24.6096,99.3093,45.6473,29.4233,-24.3208,21.9008,7.12502,2.16752,51.8696,-9.45356,-10.9736,8.52573,35.2044,-21.7244,-18.0022,39.529,-11.5451,10.8367,-24.0299,32.5543,-24.1243,16.247,-3.84789
7.89039,17.3697,-28.0548,-0.965629,-11.7544,-0.774539,5.84345,-2.14873,0.406039,-4.14904,-2.80441,0.625374,-7.61646,-1.3801,0.775044,-2.76905,3.6252,12.6341,14.9403,7.00529,-21.1907,6.06114,2.8286,-8.69323,2.11581e-14,6.65929e-15,-41.5397,-5.10466,-64.7408,24.2279,23.9579,-15.7651,23.8844,7.12502,10.4268,-5.83707,2.11581e-14,6.65929e-15,-55.1116,-23.6579,99.5081,44.5572,29.3322,-23.206,22.2367,7.12502,3.24412,52.1917,-9.36908,-10.9156,8.86253,35.0938,-22.355,-18.4102,38.6236,-11.469,10.5647,-23.8473,32.6303,-24.1006,16.276,-4.62468
7.87522,17.3714,-28.0608,-0.971005,-11.717,-0.98644,5.88741,-2.14427,0.500514,-4.11313,-2.78893,0.630647,-7.60805,-1.37721,0.726791,-2.63842,3.34273,12.2878,14.6035,6.52553,-20.7728,5.81958,2.61717,-8.49949,-1.86361e-14,4.47266e-15,-40.7237,-5.51228,-64.9737,23.9395,24.6655,-15.5411,23.8202,7.12502,10.6428,-5.89027,-1.86361e-14,4.47266e-15,-55.4824,-22.7217,99.2312,43.5508,29.2969,-24.2226,20.7767,7.12502,2.2624,50.7444,-9.43226,-10.8742,9.32273,34.9552,-23.0737,-18.6254,37.8737,-11.4547,10.428,-23.5602,32.7279,-24.2396,16.2284,-3.88009
7.86329,17.372,-28.0688,-0.948287,-11.8372,-1.2521,5.97216,-2.02224,0.619878,-4.02553,-2.60946,0.688426,-7.56702,-1.29362,0.699449,-3.01389,3.0212,12.0548,14.7241,6.05424,-20.6251,5.82706,2.35988,-8.43691,-1.22377e-14,-4.87022e-15,-39.897,-5.78598,-65.2535,23.7419,25.0787,-15.6218,24.2139,7.12502,10.565,-5.50056,-1.22377e-14,-4.87022e-15,-55.6937,-21.9481,99.0498,42.3932,29.3898,-24.7458,23.3867,7.12502,1.7571,53.3592,-9.57751,-10.7885,9.82091,34.804,-23.9567,-18.4998,38.0794,-11.4697,10.1389,-23.2538,32.8269,-24.6435,16.2473,-1.55996
7.84849,17.3795,-28.0778,-0.905441,-11.8998,-1.56461,6.08881,-1.9101,0.814169,-3.9744,-2.43902,0.697306,-7.58877,-1.21947,0.582143,-3.41979,2.79971,11.8518,15.3592,5.77731,-20.3435,6.03177,2.18979,-8.33824,-4.65902e-15,0,-39.2787,-5.98459,-65.6398,23.6187,25.1754,-15.9163,25.2208,7.12502,10.2809,-4.50793,-4.65902e-15,0,-56.0458,-21.5266,98.9998,41.2966,29.7664,-25.0081,21.9959,7.12502,1.50375,51.9704,-9.71428,-10.6716,10.3704,34.6322,-24.6444,-18.4602,38.6879,-11.5341,9.96061,-22.8712,32.9447,-24.7623,16.3822,-0.874577
7.83223,17.3866,-28.0849,-0.886852,-11.8145,-1.92324,6.17995,-1.8367,1.08272,-3.93335,-2.31504,0.681786,-7.6098,-1.17273,0.402437,-3.45787,2.34035,11.6351,15.206,5.06885,-20.0038,5.8513,1.85664,-8.21741,4.12944e-15,1.15668e-14,-38.7529,-6.26646,-65.9982,23.6098,25.6035,-16.0894,26.0238,7.12502,10.114,-3.7131,4.12944e-15,1.15668e-14,-56.2842,-21.1204,98.7181,40.0191,28.9898,-24.2258,20.6492,7.12502,2.25925,50.617,-9.76011,-10.8083,10.9491,34.4384,-25.021,-18.7809,37.9237,-11.5664,9.78117,-22.4227,33.0704,-24.8088,16.4169,-0.867889
7.81732,17.3848,-28.0884,-0.972654,-11.7461,-2.15244,6.3546,-1.77203,1.18954,-3.89755,-2.21313,0.712548,-7.67561,-1.12692,0.36728,-4.06941,2.15013,11.5601,15.5994,4.77143,-19.7007,6.02395,1.68543,-8.12824,1.3187e-14,1.24768e-14,-38.088,-6.40209,-66.323,23.6348,26.5079,-16.0601,25.8219,7.12502,10.1422,-3.91368,1.3187e-14,1.24768e-14,-56.5878,-20.505,98.4882,38.8895,28.3758,-24.0296,19.9174,7.12502,2.44881,49.8831,-9.7465,-11.1013,11.3385,34.2915,-25.0701,-19.2089,36.4587,-11.453,9.31819,-22.1432,33.1301,-25.1751,16.4838,0.297868
7.80036,17.3838,-28.0918,-1.03218,-11.6861,-2.29959,6.49813,-1.72988,1.18686,-3.90833,-2.1509,0.759973,-7.76838,-1.09461,0.415745,-4.52486,1.98397,11.4429,16.0712,4.54899,-19.504,6.20787,1.54784,-8.06994,8.69683e-16,-1.40081e-14,-37.4532,-5.84267,-66.9753,23.726,26.503,-15.9729,25.1809,7.12502,10.2263,-4.55049,8.69683e-16,-1.40081e-14,-57.1222,-19.9,98.5075,38.0653,28.9238,-24.9191,19.1145,7.12502,1.58972,49.0884,-9.77586,-11.1834,11.6326,34.1801,-25.2541,-19.1135,36.629,-11.3472,8.77044,-21.961,33.1317,-25.4686,16.6608,1.63121
7.78499,17.3902,-28.1008,-0.938952,-11.5333,-2.11006,6.37903,-1.65721,0.885651,-3.87064,-2.0897,0.694119,-7.64909,-1.05108,0.502073,-4.82109,1.82532,11.2457,16.2538,4.30434,-19.2207,6.26808,1.41729,-7.95607,-4.8432e-14,2.11209e-15,-36.725,-5.20936,-67.7714,23.8626,25.9972,-16.0898,24.8394,7.12502,10.1136,-4.8976,-4.8432e-14,2.11209e-15,-57.2976,-19.5524,98.4207,37.2223,28.9989,-25.0706,19.5909,7.12502,1.44336,49.5658,-10.0473,-11.2402,11.5502,34.056,-25.5054,-18.8138,37.1874,-11.4875,8.36181,-22.1797,33.1119,-25.4893,16.8943,2.27107
7.77209,17.4035,-28.116,-0.740159,-11.4584,-2.1009,6.24254,-1.51233,0.785396,-3.84712,-1.90894,0.667103,-7.54164,-0.958446,0.501678,-5.02881,1.5782,10.9979,16.2983,3.91961,-18.877,6.24528,1.22861,-7.8156,-3.95457e-14,-1.3418e-14,-36.1421,-4.52116,-68.5486,24.2406,25.4437,-16.3559,24.5093,7.12502,9.85681,-5.23996,-3.95457e-14,-1.3418e-14,-57.3126,-19.2757,98.1325,36.2663,27.7248,-25.0362,20.2112,7.12502,1.47659,50.1858,-10.4664,-11.1536,11.6922,33.9119,-25.6232,-18.9834,36.1257,-11.7213,7.92354,-22.2336,33.0819,-25.4729,17.3668,2.07399
7.74955,17.4187,-28.1277,-0.641962,-11.4988,-2.67034,6.34918,-1.36146,1.17144,-3.85274,-1.6596,0.787986,-7.61789,-0.852402,0.383654,-5.07713,1.24514,10.7982,16.4076,3.43269,-18.5595,6.19953,0.997279,-7.7028,4.50372e-15,8.89561e-15,-35.8025,-3.69815,-69.31,24.7318,24.7831,-16.3626,24.3114,7.12502,9.85034,-5.43819,4.50372e-15,8.89561e-15,-57.463,-18.7517,97.5186,35.1538,25.2316,-24.4274,20.1792,7.12502,2.0646,50.1489,-10.6359,-10.5407,12.5179,33.7381,-25.8744,-19.2705,34.7503,-11.7256,7.4733,-21.5719,33.0665,-25.5933,17.9178,1.46918
7.72262,17.4209,-28.1317,-0.802103,-11.3453,-2.9386,6.59262,-1.26113,1.23695,-3.7473,-1.5135,0.809344,-7.64698,-0.782893,0.354686,-5.43946,0.988757,10.7156,16.6149,3.03814,-18.2805,6.26172,0.799574,-7.6251,4.17448e-15,-1.16289e-14,-35.2595,-3.43398,-69.8643,25.0073,24.5006,-15.6566,24.2713,7.12502,10.5314,-5.44487,4.17448e-15,-1.16289e-14,-57.5442,-18.2704,96.8103,34.1725,23.1456,-22.5451,20.7537,7.12502,3.88238,50.698,-10.4504,-10.2435,12.9146,33.4957,-25.7431,-19.2191,33.9294,-11.531,7.04251,-21.1782,33.1201,-25.7396,18.2835,0.945842
7.69876,17.4168,-28.1377,-1.038,-11.0744,-2.9243,6.98341,-1.16831,1.07833,-3.72016,-1.40302,0.741546,-7.84208,-0.721994,0.366649,-5.63167,0.759533,10.7076,16.7069,2.68081,-18.0644,6.2656,0.631459,-7.57555,-6.23687e-15,7.05686e-15,-34.8943,-3.03372,-70.4649,25.3712,24.0424,-14.6785,23.707,7.12502,11.4748,-5.95894,-6.23687e-15,7.05686e-15,-57.9093,-18.0574,96.4564,33.5294,22.1684,-22.0636,21.7122,7.12502,4.3474,51.6476,-10.1756,-10.1624,12.9318,33.1931,-25.4818,-18.9308,33.7186,-11.3498,6.65449,-21.1043,33.2393,-25.9051,18.3674,0.950522
7.67278,17.4199,-28.1442,-1.17845,-10.9287,-3.17106,7.43703,-1.08123,1.19485,-3.84793,-1.26325,0.762091,-8.24615,-0.659305,0.315911,-5.40504,0.536528,10.6369,16.7173,2.35314,-17.8121,6.17228,0.495943,-7.49253,-1.31819e-14,3.97569e-16,-34.841,-1.75176,-71.3873,25.8701,22.7127,-14.4744,22.7332,7.12502,11.6716,-6.92165,-1.31819e-14,3.97569e-16,-58.6218,-17.818,96.2846,33.0201,21.4115,-23.7835,21.1855,7.12502,2.68648,51.1484,-9.9774,-9.47863,13.2908,32.9308,-25.6042,-18.7164,33.6197,-11.1928,6.49866,-20.7224,33.3213,-26.1322,18.2642,1.36839
7.64852,17.4275,-28.1517,-1.14169,-10.7681,-3.49679,7.56101,-0.990833,1.43078,-3.87961,-1.11051,0.796819,-8.3565,-0.596841,0.200981,-5.39146,0.318129,10.503,16.7335,2.01142,-17.4708,6.11884,0.346624,-7.36951,-2.92213e-14,9.93923e-16,-34.6419,-0.283877,-72.46,26.3472,20.5881,-15.0071,22.1433,7.12502,11.1579,-7.54002,-2.92213e-14,9.93923e-16,-58.9827,-17.5869,95.9272,32.399,20.4754,-24.3099,19.6849,7.12502,2.17804,49.6535,-9.97929,-8.74199,13.7743,32.7159,-25.6174,-18.5481,33.3611,-11.2073,6.30496,-20.2812,33.3395,-26.1747,18.3122,1.59337
7.62752,17.4372,-28.1591,-1.04413,-10.4406,-3.55715,7.43931,-0.930911,1.46275,-3.79111,-1.03532,0.72844,-8.19094,-0.56338,0.0961507,-5.60393,0.136032,10.335,16.638,1.68687,-17.0644,6.07703,0.201531,-7.2148,3.80176e-15,3.18055e-15,-34.1957,0.446502,-73.2316,26.8244,19.7365,-15.2495,21.8197,7.12502,10.9241,-7.87612,3.80176e-15,3.18055e-15,-58.9646,-17.4855,95.4174,31.7099,19.648,-22.7895,19.6065,7.12502,3.64635,49.555,-10.1065,-8.42758,13.9258,32.526,-25.2717,-18.3831,32.5309,-11.3456,6.07972,-20.1599,33.3093,-25.9836,18.3136,1.64623
7.60506,17.4435,-28.1575,-1.12033,-10.0101,-3.36809,7.43902,-0.934482,1.25625,-3.71347,-1.07277,0.601735,-8.10544,-0.573828,0.0826593,-5.76078,0.0436165,10.1875,16.5231,1.49556,-16.7026,6.04111,0.121939,-7.07097,-9.93923e-17,-3.97569e-16,-33.6462,0.711121,-73.6817,27.2449,20.5262,-15.0607,22.5801,7.12502,11.1063,-7.10597,-9.93923e-17,-3.97569e-16,-59.0814,-17.4188,94.9364,31.2123,19.2164,-21.9619,20.349,7.12502,4.44552,50.2824,-10.0699,-8.37163,13.6894,32.3999,-25.1059,-17.9781,30.9691,-11.2624,5.9612,-20.2894,33.2178,-25.8534,18.1268,1.76813
7.58057,17.4456,-28.1561,-1.22639,-9.6284,-3.18311,7.55727,-0.896002,0.946523,-3.71978,-1.05672,0.552538,-8.17562,-0.550766,0.204563,-5.91832,-0.0862769,10.1434,16.6232,1.2974,-16.5567,6.07117,0.0259069,-7.03027,5.27028e-14,-3.37934e-15,-33.1366,1.08286,-74.0553,27.4863,20.7608,-15.2925,24.618,7.12502,10.8826,-5.08,5.27028e-14,-3.37934e-15,-59.3178,-17.289,94.5361,30.8153,18.8485,-21.8431,20.6323,7.12502,4.56023,50.5632,-10.0001,-8.28001,13.432,32.3078,-25.3074,-17.0352,31.1031,-11.1293,5.82729,-20.4121,33.1084,-25.7911,18.0684,1.42563
7.55167,17.4488,-28.1589,-1.26027,-9.32862,-3.07385,7.72718,-0.784768,0.563456,-3.84582,-0.943918,0.598599,-8.40278,-0.473261,0.456409,-5.79742,-0.36218,10.0504,16.6366,0.917147,-16.4509,5.9971,-0.152088,-6.99807,2.9122e-14,7.95139e-16,-32.8572,1.46759,-74.3386,27.6389,20.5776,-15.6238,25.7769,7.12502,10.5631,-3.93765,2.9122e-14,7.95139e-16,-59.6341,-16.9646,94.1023,30.3534,18.1589,-21.5267,20.3258,7.12502,4.86579,50.25,-10.0107,-8.12668,13.3288,32.1717,-25.1283,-16.2044,30.8019,-11.1192,5.6878,-20.4346,33.061,-25.6871,18.0656,0.790973
7.51814,17.4522,-28.1627,-1.30267,-8.98649,-3.19375,7.92428,-0.695206,0.455596,-3.90511,-0.831246,0.631965,-8.58048,-0.410801,0.539289,-5.76658,-0.633104,10.0676,16.4811,0.498188,-16.2887,5.88304,-0.338386,-6.96203,1.54555e-14,5.36719e-15,-32.7005,1.94049,-74.789,28.0642,20.4164,-15.5395,25.9874,7.12502,10.6444,-3.72296,1.54555e-14,5.36719e-15,-59.918,-16.8004,93.5452,30.0388,17.6094,-21.3436,19.7507,7.12502,5.04258,49.6707,-9.95169,-7.84192,13.5431,31.9809,-24.8054,-16.0699,28.4287,-11.1002,5.47435,-20.1854,33.0858,-25.5073,18.0709,0.219429
7.48687,17.4557,-28.169,-1.31519,-8.60988,-3.54502,8.08912,-0.65686,0.789369,-3.79317,-0.742224,0.600791,-8.56122,-0.387047,0.306143,-6.29872,-0.784715,10.2922,16.4468,0.202052,-16.1818,5.92575,-0.479218,-6.98929,-2.25621e-14,1.19271e-15,-32.0951,2.36689,-75.4496,28.4006,20.1411,-15.6153,26.381,7.12502,10.5713,-3.3331,-2.25621e-14,1.19271e-15,-59.9344,-16.9771,92.8919,29.9228,17.4665,-21.3033,19.463,7.12502,5.08153,49.3821,-9.89782,-7.46091,14.0365,31.7804,-24.6846,-16.1041,27.0161,-11.099,5.17058,-19.6979,33.1311,-25.3468,18.0912,-0.167348
7.45825,17.4601,-28.1707,-1.37115,-8.28087,-3.67544,8.29645,-0.641058,0.991746,-3.79122,-0.701607,0.50857,-8.68449,-0.381657,0.0911377,-6.42059,-0.870156,10.3094,16.4486,0.0358387,-15.9439,5.92619,-0.545683,-6.92214,-4.47266e-16,-7.95139e-16,-31.5812,2.93145,-76.1466,28.5853,19.8234,-16.1627,26.7861,7.12502,10.0432,-2.95424,-4.47266e-16,-7.95139e-16,-60.1286,-16.8828,92.0741,29.8926,17.154,-21.2829,19.5619,7.12502,5.10116,49.4805,-9.84538,-7.30907,14.2397,31.5787,-24.3068,-15.8938,25.6099,-11.0751,4.93125,-19.451,33.1834,-25.3844,17.9075,0.00854057
7.42831,17.4639,-28.1681,-1.43327,-7.90442,-3.64828,8.48775,-0.625775,1.00112,-3.91874,-0.683799,0.416641,-8.93657,-0.377265,-0.0108085,-6.18828,-0.99929,10.0548,16.3982,-0.169082,-15.4914,5.84533,-0.618979,-6.72723,2.01269e-14,0,-31.7242,3.79779,-76.8342,29.2431,19.2873,-16.419,26.8051,7.12502,9.79591,-2.94708,2.01269e-14,0,-60.4697,-16.5748,91.1883,29.7813,16.7348,-21.2242,19.8054,7.12502,5.15789,49.7227,-9.77276,-7.22075,14.2509,31.4093,-23.9536,-15.6993,24.5948,-11.0471,4.77555,-19.3649,33.2088,-25.3568,17.6467,0.231843
7.39614,17.4657,-28.1705,-1.40446,-7.42589,-3.74624,8.59126,-0.610864,1.12722,-3.9642,-0.651555,0.354309,-9.04916,-0.371503,-0.151521,-6.46485,-1.1992,9.89211,16.465,-0.492489,-15.1478,5.87565,-0.771549,-6.60695,3.44891e-14,-1.31198e-14,-31.7463,4.58963,-77.4869,30.0649,18.8342,-16.5852,26.6448,7.12502,9.6356,-3.11488,3.44891e-14,-1.31198e-14,-60.5141,-16.5229,90.3714,29.5356,16.64,-21.2295,19.6978,7.12502,5.15275,49.6151,-9.78642,-6.92329,14.4432,31.2831,-24.0628,-15.4888,25.5636,-11.1298,4.51342,-19.1507,33.1995,-25.2357,17.4394,0.369183
7.36101,17.4683,-28.1756,-1.38974,-6.8968,-3.75586,8.69056,-0.609994,1.14174,-4.02008,-0.654489,0.261455,-9.17001,-0.377499,-0.256346,-6.68591,-1.42722,9.92236,16.545,-0.841842,-15.0161,5.89346,-0.938116,-6.59414,3.33958e-14,1.78906e-14,-31.6436,5.2801,-78.155,30.6732,18.5929,-17.0175,26.4844,7.12502,9.21848,-3.29414,3.33958e-14,1.78906e-14,-60.6183,-16.5712,89.5423,29.4296,16.6133,-21.2951,19.5601,7.12502,5.08937,49.479,-9.81393,-6.50643,14.5698,31.1435,-24.304,-15.177,26.3676,-11.2472,4.06332,-19.0438,33.2134,-25.1138,17.4231,0.1643
7.32339,17.4715,-28.1823,-1.45208,-6.40523,-3.86657,8.68753,-0.59789,1.12271,-3.96488,-0.64037,0.267868,-9.10737,-0.368836,-0.241657,-6.48956,-1.64926,9.87666,16.1855,-1.1897,-14.8327,5.70354,-1.08553,-6.5239,-1.79403e-14,7.55382e-15,-31.4282,5.79194,-78.6258,31.1625,18.5242,-16.9526,26.925,7.12502,9.28106,-2.85075,-1.79403e-14,7.55382e-15,-60.6349,-16.5136,88.6634,29.5609,16.5041,-21.3837,19.7042,7.12502,5.00389,49.6251,-9.74084,-5.97384,14.8432,30.9568,-24.2992,-15.1351,25.5518,-11.3027,3.66955,-18.7945,33.2855,-24.9136,17.5479,-0.716932
7.28689,17.4677,-28.186,-1.62357,-5.92081,-4.17768,8.25632,-0.598097,1.18335,-3.46693,-0.627341,0.469114,-8.31221,-0.355366,-0.0735759,-6.36526,-1.81562,9.54012,15.3866,-1.48082,-14.5444,5.40718,-1.2124,-6.34959,-8.34896e-15,-2.38542e-15,-30.6342,6.62514,-78.8872,31.9822,18.0861,-16.5332,27.2892,7.12502,9.68571,-2.46815,-8.34896e-15,-2.38542e-15,-59.9362,-16.1341,87.6552,29.8232,16.5311,-21.2365,19.9134,7.12502,5.14604,49.8309,-9.50659,-5.65973,15.3011,30.7565,-24.0687,-15.2549,24.3492,-11.2084,3.57172,-18.2814,33.371,-24.7123,17.3601,-1.62021
7.25328,17.462,-28.177,-1.76398,-5.24816,-4.3372,8.20012,-0.633436,1.39745,-3.41622,-0.653265,0.44189,-8.22828,-0.3798,-0.219834,-5.90881,-2.06644,9.33545,15.0222,-1.85015,-14.2046,5.17662,-1.36177,-6.19493,-1.18774e-14,-1.11319e-14,-30.6923,7.65998,-79.5038,33.0177,17.1996,-16.2659,26.6639,7.12502,9.94365,-3.08129,-1.18774e-14,-1.11319e-14,-59.9532,-16.0226,86.7114,30.0431,16.7368,-21.0836,20.3369,7.12502,5.29363,50.2508,-9.23488,-5.87415,15.5066,30.5676,-23.7915,-15.3016,24.1445,-11.1255,3.63172,-17.9392,33.4318,-24.3623,16.9853,-3.13146
7.22002,17.4649,-28.1695,-1.77697,-4.43463,-4.31051,8.19298,-0.658321,1.45846,-3.55155,-0.686989,0.329781,-8.3732,-0.404163,-0.366301,-5.73276,-2.2757,9.31164,15.1333,-2.14435,-13.9846,5.14684,-1.48759,-6.13105,-1.57537e-14,7.55382e-15,-30.7849,8.362,-80.1189,33.4027,16.7055,-16.6307,26.3247,7.12502,9.59169,-3.437,-1.57537e-14,7.55382e-15,-60.0477,-16.1941,85.9379,30.0242,16.8211,-21.1575,20.5465,7.12502,5.22231,50.4622,-9.11019,-5.83406,15.5411,30.4221,-24.1181,-14.9949,25.4161,-11.2275,3.62477,-17.8193,33.4481,-23.9324,16.674,-5.03485
7.18749,17.4713,-28.1721,-1.84066,-3.69344,-4.36733,8.37963,-0.745942,1.5705,-3.58731,-0.788638,0.310835,-8.52513,-0.461161,-0.430996,-6.23678,-2.28847,9.16857,15.556,-2.17346,-13.7754,5.36754,-1.5152,-6.06589,-2.28105e-14,0,-30.644,9.10782,-80.6997,33.6593,16.7025,-17.3528,26.5839,7.12502,8.89488,-3.20862,-2.28105e-14,0,-59.8681,-15.9699,84.9287,30.0384,16.589,-21.1245,20.3348,7.12502,5.25416,50.2497,-9.00323,-5.4002,15.706,30.3447,-24.8934,-14.3639,26.376,-11.2833,3.50599,-17.6191,33.405,-23.5652,16.4366,-6.8557
7.15373,17.4704,-28.1746,-1.91669,-3.04364,-4.29108,8.4576,-0.792339,1.54623,-3.45966,-0.8572,0.261086,-8.43429,-0.493576,-0.459509,-6.77835,-2.33967,9.03025,15.6142,-2.28596,-13.5789,5.47375,-1.58057,-5.99779,-1.65985e-14,9.54166e-15,-30.2944,9.84376,-81.194,34.1638,16.5645,-17.475,26.6742,7.12502,8.77694,-3.12326,-1.65985e-14,9.54166e-15,-59.3087,-15.6135,83.6949,30.0554,16.2391,-21.0676,20.1543,7.12502,5.3091,50.0677,-8.93549,-5.33054,15.6854,30.2711,-25.1078,-14.0419,24.9685,-11.324,3.36835,-17.5788,33.3628,-23.2035,16.3022,-8.91752
7.1156,17.4678,-28.1703,-1.98249,-2.48744,-4.02852,8.38757,-0.739884,1.27651,-3.35674,-0.827908,0.171241,-8.27824,-0.466393,-0.409348,-6.85492,-2.48658,8.95053,15.3945,-2.51647,-13.4618,5.39588,-1.68894,-5.95033,-8.10048e-15,8.34896e-15,-30.0115,10.5663,-81.6105,34.713,16.3063,-17.0268,26.4254,7.12502,9.20948,-3.35351,-8.10048e-15,8.34896e-15,-58.7256,-15.4076,82.532,30.0025,16.008,-21.0332,20.0565,7.12502,5.34233,49.9692,-8.90249,-5.386,15.4632,30.1768,-24.9362,-13.7155,23.3235,-11.3445,3.32188,-17.7236,33.3577,-22.9442,16.0837,-10.4165
7.07565,17.4673,-28.1607,-2.17567,-2.03215,-4.10571,8.38622,-0.677209,1.30327,-3.36134,-0.737283,0.215216,-8.28053,-0.422327,-0.391918,-6.4131,-2.69907,8.72507,15.2499,-2.77941,-13.3414,5.24899,-1.80712,-5.86747,-7.65321e-15,4.77083e-15,-30.1242,11.4753,-82.0775,35.3977,15.9056,-16.4394,26.1563,7.12502,9.77626,-3.59677,-7.65321e-15,4.77083e-15,-58.4771,-15.1222,81.4441,29.9857,15.878,-20.987,19.9595,7.12502,5.38687,49.8711,-8.67746,-5.1377,15.664,30.0765,-25.0129,-13.2445,22.8375,-11.1764,3.3305,-17.4659,33.3828,-22.7607,15.8137,-11.6635
7.03471,17.464,-28.1535,-2.33077,-1.46895,-4.18636,8.3512,-0.603144,1.36516,-3.48231,-0.63019,0.216695,-8.38969,-0.374442,-0.441159,-5.6676,-2.97849,8.54181,15.1567,-3.11899,-13.2141,5.05631,-1.95197,-5.78584,1.98785e-15,1.47101e-14,-30.513,12.1941,-82.6077,36.1123,14.9687,-16.015,25.9477,7.12502,10.1857,-3.78569,1.98785e-15,1.47101e-14,-58.4359,-15.0102,80.4146,30.0431,15.8571,-20.9787,19.5277,7.12502,5.39491,49.4391,-8.45028,-4.80716,15.8989,29.9651,-25.1317,-12.9028,23.246,-11.1161,3.16581,-17.2229,33.4307,-22.4956,15.6425,-12.8603
6.99454,17.4612,-28.1492,-2.4077,-0.722505,-4.10564,8.42523,-0.676071,1.23456,-3.03774,-0.744101,0.232991,-7.95329,-0.418863,-0.335793,-8.28296,-2.78258,8.62787,16.1372,-2.92769,-13.3486,5.83614,-1.94628,-5.94556,1.98785e-14,-1.23246e-14,-29.3896,12.9916,-82.9078,36.577,14.0581,-15.948,25.7553,7.12502,10.2503,-3.97491,1.98785e-14,-1.23246e-14,-56.9325,-14.318,78.9056,30.0806,15.8663,-20.7742,18.9165,7.12502,5.59239,48.8227,-8.30956,-4.65983,15.9336,29.8411,-25.0657,-12.7078,23.7507,-11.2098,2.84589,-17.1807,33.4919,-22.1515,15.5534,-14.0599
6.95807,17.4546,-28.1439,-2.62253,0.0362631,-4.10662,8.58222,-0.669957,1.33721,-3.15811,-0.723906,0.185982,-8.17605,-0.416947,-0.443484,-7.9173,-2.97045,8.67977,16.2169,-3.13972,-13.5049,5.76499,-2.04808,-6.00972,-1.99282e-14,8.74653e-15,-29.8464,13.4816,-83.407,37.0501,13.6941,-16.2065,25.8256,7.12502,10.001,-3.91677,-1.99282e-14,8.74653e-15,-56.7777,-14.0663,77.733,30.4226,15.8834,-20.6347,18.9944,7.12502,5.72708,48.897,-8.03795,-4.76061,15.9987,29.7302,-24.9361,-12.6741,22.2794,-11.1514,2.70608,-17.0348,33.5479,-21.7729,15.4041,-15.6665
6.92033,17.447,-28.1401,-2.78086,0.714536,-4.02641,8.68879,-0.57815,1.37048,-3.20867,-0.599841,0.120401,-8.29145,-0.360908,-0.549547,-6.81389,-3.13468,8.50026,15.3938,-3.36458,-13.2977,5.29973,-2.11315,-5.85684,-1.53561e-14,1.98785e-15,-30.0036,13.7616,-83.7608,37.374,13.4685,-16.3585,25.9459,7.12502,9.85432,-3.80347,-1.53561e-14,1.98785e-15,-56.3245,-13.8467,76.5743,30.6666,15.9583,-20.7012,19.3408,7.12502,5.66288,49.2451,-7.83482,-4.6505,16.01,29.6173,-24.8754,-12.3312,21.5322,-11.1624,2.99408,-16.9304,33.6163,-21.476,14.8025,-17.2844
6.87862,17.4465,-28.1342,-2.758,1.39916,-3.94032,8.54242,-0.543589,1.3289,-3.19345,-0.563967,0.0820922,-8.1889,-0.34184,-0.573607,-7.08875,-3.14727,8.63854,15.6047,-3.36865,-13.5055,5.40338,-2.13105,-5.96472,-6.70898e-15,0,-29.7622,14.2526,-84.1158,37.7066,13.4705,-16.2606,25.931,7.12502,9.94871,-3.81394,-6.70898e-15,0,-55.663,-13.394,75.312,30.8826,16.312,-20.876,19.5868,7.12502,5.49405,49.4955,-7.79915,-4.4053,16.0661,29.4949,-24.9348,-11.6763,22.8449,-11.3885,3.54714,-16.7959,33.707,-21.2957,13.7938,-19.0102
6.83593,17.4469,-28.129,-2.74197,2.07176,-4.05515,8.44504,-0.533889,1.4904,-3.27875,-0.529808,0.120434,-8.22505,-0.333143,-0.6295,-7.04605,-3.14996,8.55725,15.7855,-3.33719,-13.5417,5.45565,-2.12264,-5.96694,7.70291e-15,3.97569e-16,-29.7905,14.9548,-84.5329,37.9767,13.8774,-16.6221,26.3112,7.12502,9.59996,-3.45009,7.70291e-15,3.97569e-16,-55.3131,-12.9868,74.1906,31.3479,16.8214,-21.4426,19.656,7.12502,4.94701,49.5783,-7.81174,-4.36191,16.3428,29.4271,-24.8955,-11.1562,23.7525,-11.6087,3.95914,-16.45,33.7551,-20.9636,13.0876,-21.2197
6.79177,17.4432,-28.1276,-2.82901,2.73962,-4.07437,8.58033,-0.477521,1.59775,-3.41854,-0.43716,0.125895,-8.45398,-0.295679,-0.696886,-6.87382,-3.16056,8.25075,15.9656,-3.3078,-13.3807,5.49491,-2.11044,-5.86218,1.63003e-14,3.97569e-15,-30.2196,15.574,-84.9351,38.4781,13.8688,-16.9473,26.6559,7.12502,9.28622,-3.11959,1.63003e-14,3.97569e-15,-54.981,-12.6552,73.1166,31.7476,17.0766,-21.9157,19.6316,7.12502,4.49019,49.564,-7.71795,-4.1876,16.5405,29.4138,-24.8932,-11.1044,23.8535,-11.6825,4.03967,-16.2366,33.7526,-20.6498,12.6247,-22.4787
6.7487,17.4335,-28.1194,-3.05677,3.55444,-3.66864,8.70734,-0.461212,1.27157,-3.37388,-0.463392,-0.00515576,-8.47805,-0.294656,-0.647389,-6.67478,-3.08656,8.21361,15.8777,-3.20011,-13.3354,5.44735,-2.04903,-5.82672,-2.98177e-15,-1.43125e-14,-30.5588,16.1412,-85.2995,39.4059,12.7653,-16.3788,26.3411,7.12502,9.83467,-3.40922,-2.98177e-15,-1.43125e-14,-54.2778,-12.2196,71.9819,31.9826,17.3802,-22.0154,19.917,7.12502,4.39395,49.8514,-7.34562,-4.01099,16.234,29.414,-25.2356,-11.2805,24.1573,-11.5193,3.901,-16.5134,33.7379,-20.802,11.7837,-21.9199
6.71141,17.424,-28.1104,-3.24655,4.32531,-3.44035,8.70601,-0.420981,1.17807,-3.27049,-0.429002,-0.100459,-8.36456,-0.274739,-0.701534,-6.62,-3.01974,8.43148,15.7457,-3.11589,-13.5021,5.39812,-2.00293,-5.9081,-2.35063e-14,-1.82882e-14,-30.7283,16.6273,-85.6394,40.1125,11.7105,-16.2941,26.3271,7.12502,9.91644,-3.41932,-2.35063e-14,-1.82882e-14,-53.3592,-11.6493,70.8048,32.235,17.6157,-22.0134,20.0871,7.12502,4.39586,50.0215,-7.0918,-4.0423,16.074,29.4305,-25.3212,-11.1549,25.3851,-11.373,3.60957,-16.6293,33.7084,-21.0501,10.9761,-20.9111
6.6744,17.4232,-28.104,-3.24572,4.93677,-3.55272,8.62175,-0.316062,1.47493,-3.32347,-0.253072,-0.095536,-8.37086,-0.205115,-0.891384,-6.62133,-2.95465,8.50459,15.7303,-3.01874,-13.6041,5.40103,-1.95707,-5.94901,5.41688e-15,-1.98785e-15,-30.9305,16.95,-86.0005,40.4763,11.3382,-16.6145,26.6635,7.12502,9.60726,-3.09742,5.41688e-15,-1.98785e-15,-52.5934,-11.0445,69.6913,32.5866,17.9587,-21.8477,20.0546,7.12502,4.55584,49.9856,-7.1569,-4.09838,16.3303,29.4331,-24.7748,-11.0852,26.5929,-11.4708,3.37745,-16.3808,33.6797,-20.9158,10.5931,-20.9898
6.63196,17.4265,-28.0918,-3.18836,5.5019,-3.41175,8.45473,-0.191961,1.43596,-3.39228,-0.0967352,-0.135164,-8.3434,-0.128261,-0.935999,-6.46108,-2.86712,8.52058,15.5743,-2.88971,-13.673,5.33841,-1.89028,-5.95809,-5.56597e-15,-1.43125e-14,-30.9905,17.1597,-86.3393,40.7426,11.4869,-16.3928,26.7153,7.12502,9.82121,-3.03566,-5.56597e-15,-1.43125e-14,-51.9892,-10.5526,68.7548,33.0548,18.8105,-21.5276,19.8381,7.12502,4.86489,49.7622,-7.18878,-4.11639,16.3551,29.4062,-24.2066,-11.438,26.8742,-11.5972,3.53998,-16.3583,33.6714,-20.716,10.0385,-21.8032
6.5857,17.4277,-28.0773,-3.21992,6.07171,-3.2845,8.24694,-0.105625,1.38314,-3.35653,0.00554115,-0.183294,-8.18067,-0.0756227,-0.972681,-6.53252,-2.73875,8.69576,15.5787,-2.70539,-13.8815,5.36618,-1.80571,-6.05042,-1.93815e-15,-7.55382e-15,-30.9247,17.5677,-86.7226,41.0065,11.5915,-16.1082,26.404,7.12502,10.0957,-3.33382,-1.93815e-15,-7.55382e-15,-51.2532,-9.90315,67.6835,33.4244,19.3847,-20.9628,19.8715,7.12502,5.41027,49.7824,-7.0629,-4.084,16.4196,29.4324,-24.0404,-11.7552,27.5584,-11.6198,3.76904,-16.2841,33.6357,-20.6661,9.21298,-21.8324
6.5381,17.4245,-28.0659,-3.37056,6.67836,-3.30344,8.20158,-0.057859,1.52849,-3.35291,0.0834764,-0.211998,-8.14836,-0.0458321,-1.09651,-7.31798,-2.50604,9.07326,16.5184,-2.3183,-14.4178,5.82335,-1.66616,-6.3332,-1.11816e-14,-1.78906e-14,-31.0609,18.0556,-87.2271,41.2902,11.3162,-15.9097,26.0969,7.12502,10.2873,-3.63153,-1.11816e-14,-1.78906e-14,-50.5278,-9.03265,66.4041,33.6331,19.2722,-20.6883,20.5541,7.12502,5.67526,50.4581,-6.81175,-3.92161,16.6679,29.5411,-24.1972,-12.028,30.4906,-11.5418,3.78222,-16.0607,33.5517,-20.5688,8.62452,-22.2002
6.4946,17.4187,-28.0574,-3.50459,7.30101,-3.06082,8.27982,0.0561599,1.45218,-3.41678,0.22403,-0.278535,-8.2584,0.0234281,-1.14578,-5.45022,-2.18487,8.67617,14.87,-1.94209,-13.7517,5.05552,-1.37977,-5.91862,7.95139e-16,9.14409e-15,-31.3169,18.3801,-87.6076,41.5062,11.0153,-15.8858,26.2132,7.12502,10.3104,-3.51402,7.95139e-16,9.14409e-15,-49.9956,-8.27151,65.375,34.0068,19.2118,-21.129,21.1118,7.12502,5.24978,51.0268,-6.56145,-4.04064,16.5632,29.6729,-24.2364,-12.4159,32.9931,-11.4383,3.63511,-16.1706,33.4605,-20.4176,8.34388,-23.2555
6.45197,17.4167,-28.0488,-3.54613,7.90639,-2.81254,8.30199,0.195354,1.35328,-3.4681,0.396063,-0.325334,-8.32153,0.110334,-1.16633,-5.83309,-1.98498,8.72294,15.212,-1.63069,-13.9703,5.26,-1.25386,-6.00438,2.88238e-15,1.07344e-14,-31.4814,18.7302,-87.9024,41.7218,11.0671,-16.2281,26.3799,7.12502,9.98013,-3.36348,2.88238e-15,1.07344e-14,-49.5174,-7.74999,64.8105,34.6394,19.8886,-21.8316,21.3075,7.12502,4.5714,51.2382,-6.43957,-4.42531,16.4286,29.8039,-24.1816,-12.7911,32.9252,-11.4069,3.36622,-16.3084,33.3886,-20.3684,7.93142,-22.9607
6.40267,17.4174,-28.0363,-3.6507,8.51081,-2.80494,8.3594,0.272379,1.45168,-3.51,0.511161,-0.337294,-8.39617,0.159787,-1.25288,-5.99635,-1.67899,8.8573,15.4524,-1.20494,-13.9983,5.41269,-1.04664,-6.02807,1.39149e-15,-1.90833e-14,-31.7387,19.0865,-88.3885,42.0856,11.0838,-16.2711,26.1856,7.12502,9.93862,-3.55978,1.39149e-15,-1.90833e-14,-48.9976,-7.34554,64.3611,35.305,21.3522,-22.1875,21.4631,7.12502,4.22768,51.4009,-6.28375,-4.45377,16.6576,29.9319,-24.3472,-13.4315,32.3957,-11.3553,3.20308,-16.1406,33.3261,-20.3402,7.40837,-23.2074
6.35181,17.418,-28.0253,-3.80291,9.10796,-2.87892,8.42545,0.33046,1.64405,-3.56769,0.613619,-0.336177,-8.49247,0.197826,-1.37702,-6.04355,-1.39587,8.98802,15.7103,-0.801118,-14.0239,5.54863,-0.84665,-6.0485,-1.10822e-14,1.11319e-14,-32.1296,19.5518,-88.9538,42.5455,10.5805,-15.9251,25.9216,7.12502,10.2724,-3.80757,-1.10822e-14,1.11319e-14,-48.5267,-6.90661,63.7948,35.9225,22.8013,-21.9811,21.5611,7.12502,4.42705,51.4948,-6.05359,-4.32032,17.0011,30.0135,-24.5577,-14.0123,33.0761,-11.3095,3.21233,-15.8583,33.279,-20.2057,6.96829,-24.6516
6.30559,17.4176,-28.0191,-3.87764,9.75426,-2.8461,8.47376,0.43985,1.79461,-3.66965,0.777616,-0.369793,-8.62344,0.265996,-1.52459,-6.58634,-1.24401,9.30379,16.438,-0.524871,-14.4742,5.8961,-0.749412,-6.27549,2.75317e-14,1.23246e-14,-32.4666,19.8274,-89.394,42.8781,10.3225,-15.8227,25.9048,7.12502,10.3712,-3.81946,2.75317e-14,1.23246e-14,-48.046,-6.49772,63.2675,36.4317,23.4943,-21.8007,21.6314,7.12502,4.60121,51.5614,-5.85925,-4.5343,17.1476,30.0258,-24.6612,-14.2271,33.6435,-11.342,3.07266,-15.7269,33.2676,-20.1478,6.42942,-24.7828
6.26115,17.4178,-28.011,-3.94168,10.4077,-2.67198,8.57257,0.629802,1.80088,-3.77826,1.03004,-0.445059,-8.78796,0.383042,-1.65073,-5.76337,-1.09987,9.29858,15.7799,-0.350465,-14.3088,5.57127,-0.615759,-6.17135,1.72446e-14,-3.57812e-15,-32.7367,19.9663,-89.7669,43.0655,10.1235,-15.9039,25.8038,7.12502,10.2928,-3.92431,1.72446e-14,-3.57812e-15,-47.5376,-6.35167,63.0221,37.037,24.258,-21.8139,21.5352,7.12502,4.5885,51.4655,-5.66934,-4.9267,17.0736,30.0269,-24.6754,-14.4687,33.4367,-11.3418,2.67401,-15.8002,33.2554,-20.1227,6.05272,-24.4171
6.21282,17.4175,-27.9977,-4.09274,11.0129,-2.7213,8.54645,0.728178,1.92328,-3.7328,1.18039,-0.39133,-8.71605,0.452269,-1.68524,-5.95483,-0.787442,9.51135,15.9514,0.0952956,-14.5061,5.713,-0.405964,-6.25947,-3.52843e-15,-5.96354e-15,-32.6955,20.7284,-90.2187,43.1081,9.41937,-16.2627,25.9063,7.12502,9.94668,-3.83873,-3.52843e-15,-5.96354e-15,-47.1034,-6.08494,62.9353,37.922,25.5365,-21.7361,21.6241,7.12502,4.6636,51.5528,-5.42242,-5.08001,17.2947,30.0573,-24.8397,-14.8516,33.5514,-11.2872,2.39925,-15.5962,33.2169,-20.023,5.60429,-23.9573
6.16243,17.4146,-27.9779,-4.19609,11.7632,-2.73142,8.3164,0.680647,1.97294,-3.62438,1.12209,-0.322572,-8.46676,0.427836,-1.62516,-6.5613,-0.381801,9.78096,16.3966,0.686725,-14.8649,6.03519,-0.151891,-6.41806,-3.42904e-15,5.96354e-15,-32.5381,21.5997,-90.7349,43.1781,8.75127,-16.167,26.6206,7.12502,10.0391,-3.11999,-3.42904e-15,5.96354e-15,-46.7107,-5.47855,62.7227,38.6873,26.4745,-21.545,22.0099,7.12502,4.84815,51.9344,-5.153,-5.16023,17.5156,30.0981,-25.2627,-15.1798,34.2159,-11.2858,2.28723,-15.3932,33.1738,-19.9502,4.87506,-23.4815
6.11076,17.4126,-27.9583,-4.13959,12.5514,-2.39224,8.0871,0.715416,1.68781,-3.67761,1.1249,-0.40599,-8.39314,0.443166,-1.54974,-5.49811,-0.0411862,9.81718,15.3793,1.08552,-14.5429,5.58695,0.11814,-6.24486,-9.93923e-16,-9.93923e-15,-32.6858,21.9469,-91.2334,43.3969,8.57644,-15.5225,26.9742,7.12502,10.6608,-2.73535,-9.93923e-16,-9.93923e-15,-46.4065,-5.0605,62.4606,39.2263,26.748,-21.1703,21.9506,7.12502,5.20987,51.8666,-4.97181,-5.38459,17.3208,30.1263,-25.638,-15.4262,34.6137,-11.3944,2.27882,-15.5657,33.1584,-19.8611,4.26988,-24.2725
6.05122,17.409,-27.9388,-4.15699,13.2317,-2.3963,7.94951,0.798387,1.64903,-3.76877,1.23139,-0.393052,-8.40824,0.49705,-1.52868,-5.26405,0.163708,10.167,15.225,1.3619,-14.7103,5.53576,0.273862,-6.33991,2.37051e-14,2.78299e-15,-32.9504,22.1315,-91.6839,43.6558,8.99024,-15.7154,26.5931,7.12502,10.4747,-3.12597,2.37051e-14,2.78299e-15,-46.2169,-4.97325,62.4016,39.9763,27.2052,-20.9647,21.9194,7.12502,5.40846,51.8303,-4.79745,-5.47769,17.5653,30.131,-25.9516,-15.9784,34.3345,-11.541,2.40499,-15.3135,33.1808,-19.7782,3.67524,-25.3763
6.00512,17.4075,-27.9322,-4.21625,13.6143,-2.72125,7.8925,0.899414,2.15383,-3.82074,1.43257,-0.290239,-8.41555,0.569964,-1.73309,-5.39352,0.395599,10.3671,15.2049,1.68716,-14.9362,5.59811,0.426218,-6.43276,1.31198e-14,-1.55052e-14,-33.1755,22.506,-92.1173,43.9914,9.219,-16.0406,26.2781,7.12502,10.161,-3.45654,1.31198e-14,-1.55052e-14,-46.0642,-4.97938,62.6311,40.9539,28.4502,-21.2818,22.3716,7.12502,5.10228,52.2902,-4.79622,-5.80992,18.037,30.1406,-26.0171,-16.0525,34.3659,-11.7049,1.99728,-14.8467,33.1935,-19.673,3.81522,-26.0833
5.9593,17.406,-27.9207,-4.17084,14.1839,-2.88854,7.66365,1.01172,2.50503,-3.90453,1.62128,-0.257263,-8.35666,0.644085,-1.91879,-4.86394,0.588552,10.4659,14.7598,1.94659,-14.9453,5.40456,0.584489,-6.42112,-9.06955e-14,-8.34896e-15,-33.4585,22.8974,-92.573,44.3142,8.73279,-15.5704,26.2376,7.12502,10.6146,-3.4743,-9.06955e-14,-8.34896e-15,-45.8654,-5.15792,62.9594,41.6636,29.4939,-21.5031,22.4455,7.12502,4.88859,52.3691,-4.75985,-6.15349,18.3429,30.0801,-26.419,-15.8083,35.6962,-11.9609,1.58876,-14.5558,33.264,-19.5877,3.69817,-26.7277
5.91656,17.4197,-27.924,-3.51418,13.2928,-2.90678,7.16919,1.67675,2.73717,-4.20755,2.52991,-0.262125,-8.34028,1.0727,-2.17239,-4.51345,0.725169,10.6467,14.4495,2.1212,-14.9672,5.27369,0.69677,-6.43978,1.57537e-14,1.70955e-14,-33.5772,23.5611,-93.0222,44.4618,7.81703,-15.0913,26.6453,7.12502,11.0767,-3.04242,1.57537e-14,1.70955e-14,-45.5868,-5.44379,63.3298,42.2404,29.9847,-21.371,22.3781,7.12502,5.01615,52.2987,-5.71898,-6.14398,18.4717,30.0343,-25.7271,-15.1484,35.6154,-12.5408,1.46643,-14.4714,33.2873,-19.4526,4.66348,-26.9946
5.86092,17.401,-27.8857,-4.28615,15.3732,-2.96433,7.44496,1.18801,2.72148,-3.95408,1.88431,-0.157253,-8.26652,0.765179,-1.96688,-5.00321,0.988513,10.695,14.734,2.5085,-15.192,5.50302,0.854284,-6.51123,-1.8487e-14,-1.86858e-14,-33.4206,25.2196,-93.5957,44.4111,6.4384,-15.364,27.2004,7.12502,10.8137,-2.50119,-1.8487e-14,-1.86858e-14,-45.5227,-5.35409,63.6704,43.0263,30.1267,-21.2271,22.8113,7.12502,5.15509,52.7286,-4.36297,-6.26325,18.8244,30.0196,-27.0588,-16.3481,36.4872,-12.1144,1.06301,-14.1723,33.2791,-19.4586,3.10004,-27.7007
5.80951,17.4059,-27.87,-4.07134,15.933,-2.88769,7.08272,1.19774,2.64682,-4.01856,1.88698,-0.0609043,-8.12961,0.776183,-1.814,-6.01336,1.21929,10.9941,15.6762,2.91624,-15.8102,6.03926,0.98054,-6.78169,4.83047e-14,1.90833e-14,-34.0783,25.7841,-94.3231,44.9494,6.38353,-15.8564,27.3975,7.12502,10.3387,-2.32832,4.83047e-14,1.90833e-14,-45.6668,-5.38076,64.0096,43.8719,30.0126,-20.7404,23.0701,7.12502,5.62498,52.9755,-4.49802,-6.56682,18.9416,30.0432,-27.2264,-16.5693,35.835,-12.4575,1.02373,-14.0783,33.2171,-19.3227,2.74878,-28.3293
5.75583,17.4103,-27.855,-3.82126,16.2946,-2.86591,6.59162,1.38994,2.63135,-4.0435,2.12961,-0.0465303,-7.85892,0.901597,-1.80755,-5.10266,1.41087,10.8282,14.5745,3.08229,-15.3225,5.55651,1.13416,-6.5385,6.36608e-14,1.51076e-14,-33.6921,26.6048,-94.6484,44.9121,6.18962,-15.7285,26.9077,7.12502,10.4621,-2.81201,6.36608e-14,1.51076e-14,-45.5473,-5.80316,64.4507,44.6038,30.0052,-20.3976,22.9919,7.12502,5.95592,52.8882,-4.71132,-7.02364,19.0895,30.0436,-27.1826,-16.6218,35.0937,-12.808,1.08834,-13.8975,33.1894,-19.3149,2.16628,-27.8686
5.70257,17.407,-27.8385,-3.71303,16.6685,-2.89926,6.32581,1.5593,2.7753,-4.12935,2.36021,-0.107447,-7.77746,1.00626,-1.97416,-4.77189,1.48529,10.8637,14.0936,3.13921,-15.1864,5.35882,1.19181,-6.48193,3.57812e-14,9.14409e-15,-34.2853,26.8339,-95.4563,45.4208,6.70492,-15.7598,26.4854,7.12502,10.4319,-3.23581,3.57812e-14,9.14409e-15,-45.4285,-6.16696,64.801,45.1325,29.9485,-20.5075,22.8605,7.12502,5.8499,52.7597,-4.77106,-7.03643,19.3695,30.0236,-27.31,-16.9523,35.3441,-13.0252,0.803616,-13.6848,33.1908,-19.3277,1.92675,-27.6493
5.65111,17.3983,-27.8265,-3.65436,17.2202,-2.83984,6.29372,1.57588,2.9149,-4.30078,2.39422,-0.179165,-7.9337,1.00864,-2.13486,-4.49007,1.60464,11.0614,13.9929,3.32,-15.3119,5.30787,1.29673,-6.54542,7.53394e-14,2.34566e-14,-34.4632,28.301,-96.3257,45.5645,5.69841,-15.9396,26.339,7.12502,10.2584,-3.39089,7.53394e-14,2.34566e-14,-45.6901,-6.65082,65.2675,45.7572,30.3192,-20.2407,22.5418,7.12502,6.10748,52.4338,-4.70374,-6.99975,19.5703,29.9549,-27.5823,-17.4467,35.5755,-13.2373,0.146342,-13.6139,33.2599,-19.2592,1.8483,-26.9415
5.6023,17.3918,-27.8153,-3.69724,17.8723,-3.06068,6.24977,1.55444,3.30245,-4.41345,2.41032,-0.112322,-8.01802,0.994455,-2.28447,-4.09982,1.82668,11.1864,13.7856,3.62603,-15.2737,5.22141,1.47435,-6.53113,-6.17226e-14,-4.77083e-15,-34.9149,29.1483,-97.0996,45.9955,5.25115,-16.2149,26.1917,7.12502,9.99286,-3.55111,-6.17226e-14,-4.77083e-15,-46.0268,-7.31996,65.9957,46.6071,30.9459,-20.0423,22.4738,7.12502,6.29895,52.3602,-4.56927,-7.41717,19.9939,29.8502,-27.8552,-17.5996,35.7148,-13.489,-0.42717,-13.2367,33.356,-19.1437,1.50812,-25.5916
5.55519,17.3913,-27.8044,-3.72798,18.4448,-3.34651,6.28835,1.66939,3.71601,-4.59314,2.61671,-0.0626056,-8.20909,1.06726,-2.49536,-4.20594,1.91946,11.3699,13.9568,3.74886,-15.2625,5.31277,1.53976,-6.55591,-3.23025e-14,9.14409e-15,-35.3553,29.6195,-97.7001,46.4287,5.10183,-16.4438,25.9421,7.12502,9.77197,-3.81116,-3.23025e-14,9.14409e-15,-46.2392,-8.05424,66.659,47.2949,30.5829,-20.2379,22.6584,7.12502,6.11011,52.5503,-4.51972,-7.93779,20.4346,29.7528,-28.0799,-17.504,35.815,-13.7644,-0.78216,-12.7883,33.4404,-19.0482,1.32413,-25.7365
5.50473,17.3927,-27.7938,-3.75777,18.7502,-3.36943,6.43731,1.67749,3.76614,-4.75324,2.65703,0.0943053,-8.4733,1.08078,-2.37278,-4.66295,2.05404,11.3665,14.422,4.00752,-15.6348,5.57793,1.62191,-6.67501,-4.13472e-14,-1.15295e-14,-35.9755,30.7338,-98.5443,46.848,4.91182,-16.571,25.8473,7.12502,9.64927,-3.91172,-4.13472e-14,-1.15295e-14,-46.8781,-8.12487,67.245,47.941,29.7707,-20.2727,22.4238,7.12502,6.07659,52.3166,-4.47656,-7.99247,20.6588,29.7,-28.2432,-17.6615,35.6664,-13.8469,-0.975068,-12.5942,33.4751,-19.012,1.30802,-26.3572
5.45428,17.3902,-27.783,-3.77732,18.9919,-3.35387,6.42956,1.80051,3.8543,-4.80338,2.83409,0.111225,-8.50884,1.16122,-2.42813,-3.71332,2.17204,11.3683,13.36,4.11446,-15.4763,5.10096,1.73553,-6.59257,5.56597e-15,1.03368e-14,-36.2812,31.4863,-99.335,47.1092,4.58402,-16.5262,25.839,7.12502,9.69253,-3.91798,5.56597e-15,1.03368e-14,-47.2972,-8.80482,67.9746,48.6779,29.7665,-20.3751,22.0433,7.12502,5.97765,51.9389,-4.44796,-7.96379,20.8569,29.7015,-28.4225,-17.9279,35.8159,-13.9057,-0.962774,-12.4296,33.4455,-19.0102,1.30181,-27.8509
5.40462,17.3912,-27.7741,-3.52214,19.4021,-3.17231,6.14205,1.93214,3.82633,-4.85814,2.99043,0.0305366,-8.38571,1.23983,-2.50637,-4.2977,2.163,11.4169,13.7196,4.09151,-15.5094,5.3113,1.69747,-6.61926,2.127e-14,2.98177e-15,-36.3205,32.2898,-99.9109,47.4124,4.12134,-16.1991,26.0751,7.12502,10.0081,-3.66699,2.127e-14,2.98177e-15,-47.5457,-9.66479,68.8483,49.3892,30.216,-20.4802,22.0767,7.12502,5.87617,51.9752,-4.64372,-8.35598,20.8232,29.7146,-28.4792,-17.9735,35.6591,-14.2415,-1.09684,-12.4734,33.4072,-18.9599,1.30706,-29.3975
5.35279,17.3964,-27.7646,-3.24517,19.7588,-2.94277,5.9281,1.99214,3.68596,-4.95374,3.05119,0.0329045,-8.3662,1.27805,-2.42582,-3.43912,2.27039,10.5332,12.6065,4.14712,-14.6211,4.80273,1.77738,-6.14427,-1.93318e-14,3.37934e-15,-36.4978,33.678,-100.607,47.8394,3.57953,-16.0722,26.3318,7.12502,10.1305,-3.40435,-1.93318e-14,3.37934e-15,-47.9937,-10.0553,69.6698,49.9997,30.2254,-20.2062,22.2046,7.12502,6.14071,52.0956,-4.8437,-8.78777,20.7502,29.6808,-28.4286,-17.8492,35.0526,-14.575,-1.36181,-12.5517,33.4269,-18.9029,1.10204,-29.0058
5.29922,17.3983,-27.7647,-3.20194,19.8296,-3.21752,5.56385,2.05667,3.93215,-4.78297,3.15742,0.284398,-7.96337,1.33715,-2.28906,-3.96963,2.41635,10.8267,12.727,4.37989,-15.2505,4.98008,1.85057,-6.38929,2.73329e-15,3.37934e-15,-36.2002,35.4413,-101.02,48.1992,3.35,-15.9785,26.5421,7.12502,10.2209,-3.18964,2.73329e-15,3.37934e-15,-48.1563,-10.0374,70.4491,50.5079,29.9979,-20.3297,22.2982,7.12502,6.02156,52.1927,-5.05235,-8.83271,21.2805,29.6381,-28.4112,-17.8116,35.2362,-14.8555,-1.49199,-12.0654,33.4532,-18.7318,1.02175,-28.4837
5.25456,17.3982,-27.763,-3.19619,19.9775,-3.703,5.66077,2.17229,4.66114,-5.057,3.40109,0.327344,-8.2683,1.40374,-2.69105,-3.532,2.47158,11.3355,12.5164,4.46009,-15.4804,4.86528,1.92341,-6.54959,-5.5287e-14,-2.40529e-14,-36.7235,36.3316,-101.975,48.6194,3.48675,-16.3753,26.0357,7.12502,9.83808,-3.71447,-5.5287e-14,-2.40529e-14,-48.9572,-10.9614,71.3412,51.1538,30.3234,-20.9418,22.5758,7.12502,5.43053,52.4862,-5.27898,-8.99801,21.9711,29.6452,-28.4753,-17.6844,36.1739,-15.1522,-1.74211,-11.399,33.4223,-18.4431,1.15676,-28.9825
5.22549,17.4006,-27.7286,-2.99415,20.4772,-3.46096,5.22754,2.21343,4.74504,-5.11485,3.43034,0.176618,-8.06127,1.41469,-2.87953,-3.24292,2.46144,11.5229,12.1057,4.4196,-15.5462,4.69065,1.9262,-6.60125,-8.8161e-14,-1.78906e-14,-37.1981,37.2652,-102.946,49.0234,3.20989,-16.9127,25.4753,7.12502,9.31955,-4.29867,-8.8161e-14,-1.78906e-14,-49.551,-11.6631,72.1577,51.6346,30.5355,-21.2095,22.695,7.12502,5.17209,52.6119,-5.26805,-10.0634,21.6582,29.72,-28.3054,-17.2793,35.604,-15.2109,-1.94142,-11.5741,33.3118,-18.3656,1.02934,-29.5969
5.17199,17.4058,-27.7273,-2.82177,20.7511,-2.99886,5.19746,2.30078,4.4146,-5.06956,3.5078,0.0905374,-7.9993,1.47165,-2.79169,-3.36831,2.49064,11.6143,11.9626,4.44613,-15.7041,4.67841,1.93259,-6.66477,2.42269e-14,-3.77691e-15,-37.3313,38.47,-103.741,49.2589,2.51438,-16.4712,26.0405,7.12502,9.74554,-3.714,2.42269e-14,-3.77691e-15,-49.8797,-11.9514,72.8844,51.8728,30.3858,-21.2471,22.5743,7.12502,5.13576,52.4921,-5.37828,-9.88993,21.4378,29.8193,-28.4664,-17.6411,35.0296,-15.2596,-2.39987,-11.9056,33.1758,-18.1176,1.46326,-30.4433
5.13026,17.4043,-27.7281,-2.79031,21.2149,-2.73185,5.27741,2.29292,4.3964,-5.11039,3.49766,0.0354918,-8.0887,1.46265,-2.84401,-3.04912,2.5617,11.5913,11.6972,4.53263,-15.5917,4.55361,1.99657,-6.6157,2.05494e-14,-4.96962e-16,-37.6603,39.7249,-104.662,49.4908,1.83941,-16.3727,26.5197,7.12502,9.84055,-3.23034,2.05494e-14,-4.96962e-16,-50.2826,-12.0665,73.6363,51.7968,30.0376,-21.1407,22.273,7.12502,5.23853,52.1883,-5.41682,-10.2235,21.2746,29.987,-28.6598,-17.6196,35.2803,-15.2558,-3.08932,-12.0846,32.9708,-17.9079,1.85911,-31.1456
5.07881,17.4039,-27.7446,-3.04832,21.4118,-3.33349,5.65157,2.31706,5.17267,-5.20376,3.64336,0.222964,-8.37063,1.48315,-3.11849,-2.66068,2.59532,11.5157,11.2186,4.5587,-15.5266,4.34446,2.03162,-6.57459,1.31695e-14,-3.27995e-15,-38.0393,41.1778,-105.636,49.7787,1.17073,-16.8954,26.3545,7.12502,9.33623,-3.41878,1.31695e-14,-3.27995e-15,-50.6791,-12.1636,74.4268,51.7489,29.7679,-21.1598,22.0853,7.12502,5.22004,52.001,-5.59847,-10.0065,22.1605,30.1598,-29.0086,-17.9063,36.3936,-15.3583,-3.51686,-11.278,32.8001,-17.7159,2.02615,-31.6562
5.03104,17.4071,-27.729,-2.88056,21.3667,-3.28626,5.42992,2.53393,5.2202,-5.23501,3.92535,0.209989,-8.2458,1.62232,-3.17909,-3.14785,2.54877,11.593,11.5992,4.49382,-15.5732,4.53579,1.97643,-6.60942,6.98728e-14,7.65321e-15,-38.3378,42.7114,-106.618,50.1094,0.434065,-17.3248,26.0942,7.12502,8.92195,-3.69713,6.98728e-14,7.65321e-15,-51.2858,-12.7828,75.2534,52.0605,29.8661,-21.293,22.0994,7.12502,5.09142,52.0183,-5.80331,-10.4608,22.2148,30.2989,-28.8142,-17.5149,36.5395,-15.4252,-3.15339,-11.1368,32.6397,-17.6284,1.78524,-32.1271
4.99543,17.402,-27.7167,-2.6704,21.9001,-2.96091,5.16812,2.56299,5.15487,-5.28175,3.93146,0.0416911,-8.13419,1.62746,-3.30702,-2.66296,2.54863,11.4215,10.9699,4.4286,-15.1571,4.24438,1.9831,-6.43898,-7.82715e-15,8.74653e-15,-38.8039,44.1034,-107.619,50.6013,-0.0982644,-17.6961,26.3863,7.12502,8.56358,-3.42005,-7.82715e-15,8.74653e-15,-51.9425,-13.4941,76.0588,52.1009,29.8176,-21.0797,21.8899,7.12502,5.29742,51.8036,-5.86668,-11.2337,21.9153,30.3396,-28.7239,-17.1575,36.7938,-15.6369,-3.42533,-11.3719,32.5866,-17.4759,1.74551,-32.4028
4.93401,17.4222,-27.7351,-1.71617,19.3724,-3.12716,4.57444,3.58471,5.32692,-5.51852,5.29847,0.154034,-7.91609,2.29786,-3.39116,-2.22494,2.49728,11.7096,10.0711,4.32781,-15.5848,3.90121,1.95538,-6.62683,-1.78409e-14,-9.64106e-15,-38.8671,45.5792,-108.189,51.1065,-0.538881,-17.8728,26.6594,7.12502,8.39314,-3.15379,-1.78409e-14,-9.64106e-15,-52.2647,-13.8723,76.8844,51.9712,29.7267,-20.9198,21.655,7.12502,5.45181,51.5648,-7.5223,-10.6454,22.3399,30.4118,-27.2924,-16.0676,35.7903,-16.1086,-3.26851,-10.928,32.5016,-17.3448,4.4822,-33.6141
4.89684,17.408,-27.7225,-2.33204,21.4117,-3.37769,4.55628,2.98961,5.77591,-5.16713,4.5271,0.25917,-7.57427,1.91476,-3.43915,-2.36616,2.50693,12.0082,9.90455,4.32946,-15.9411,3.88901,1.94951,-6.79313,1.04238e-14,-2.08724e-15,-38.6773,47.1185,-108.567,51.5316,-0.60179,-18.0666,26.4757,7.12502,8.20601,-3.34494,1.04238e-14,-2.08724e-15,-52.5524,-13.9427,77.718,51.9201,29.6308,-21.1015,21.6383,7.12502,5.27633,51.5526,-6.74069,-11.3092,22.7592,30.489,-28.5081,-16.865,36.7413,-16.1324,-3.74257,-10.5536,32.4467,-17.4102,2.83534,-33.4064
4.86156,17.3942,-27.7195,-2.76054,22.5455,-3.33334,5.02384,2.71166,5.98599,-5.14148,4.20478,0.25153,-7.83832,1.73347,-3.56207,-2.58473,2.55506,12.0669,10.3793,4.41353,-15.8207,4.07855,1.98382,-6.76412,-4.82798e-14,-2.33572e-15,-38.9307,48.1886,-109.223,51.9277,0.0150142,-18.1742,26.9133,7.12502,8.10217,-2.91136,-4.82798e-14,-2.33572e-15,-53.1634,-14.0414,78.6103,51.5967,29.4245,-21.4959,21.6488,7.12502,4.89556,51.5722,-6.17937,-11.8505,22.7757,30.5746,-29.2449,-17.02,37.195,-15.9969,-4.03702,-10.5174,32.3872,-17.4177,1.57421,-31.246
4.81626,17.3874,-27.7195,-2.63342,22.5144,-3.01325,5.21733,2.91202,5.82398,-5.25625,4.47292,0.169637,-8.05281,1.86107,-3.60324,-2.78375,2.50979,12.2948,10.8303,4.38394,-15.9447,4.24873,1.96046,-6.85269,-1.56729e-14,-1.67973e-14,-38.9759,48.9035,-109.646,52.1987,0.875414,-18.1089,27.8503,7.12502,8.1652,-1.97192,-1.56729e-14,-1.67973e-14,-53.7555,-14.4135,79.5451,51.1835,29.2834,-21.7594,21.5599,7.12502,4.64109,51.4891,-6.29609,-11.9974,22.5695,30.6466,-29.2482,-16.7775,37.0011,-16.0473,-4.00973,-10.7012,32.3599,-17.3093,1.44778,-30.0201
4.77421,17.3839,-27.7204,-2.48268,22.6611,-2.81974,5.08794,3.02851,5.8184,-5.21084,4.61546,0.146661,-7.91164,1.9372,-3.62818,-3.13636,2.42725,12.6148,11.0772,4.28756,-16.3398,4.38158,1.89161,-7.0486,3.49768e-14,8.12532e-15,-38.8961,49.986,-109.923,52.6205,1.46349,-18.2339,27.9092,7.12502,8.04461,-1.91768,3.49768e-14,8.12532e-15,-54.2264,-14.7091,80.4478,50.8993,29.0321,-21.8193,21.5448,7.12502,4.58328,51.4752,-6.51245,-12.2906,22.4916,30.7119,-29.0364,-16.8463,36.2394,-16.2318,-4.06906,-10.7687,32.3344,-17.0417,1.28408,-29.3057
4.73293,17.3815,-27.72,-2.54505,22.8086,-2.9071,5.08315,3.05632,6.06779,-5.14547,4.67907,0.252841,-7.82354,1.96208,-3.65778,-3.48603,2.41626,12.356,11.242,4.25579,-16.1747,4.47908,1.85611,-6.94968,-4.68511e-14,-1.40392e-15,-39.1111,51.4484,-110.409,53.2279,1.51939,-18.248,27.5393,7.12502,8.03101,-2.28811,-4.68511e-14,-1.40392e-15,-54.7718,-14.7567,81.3512,50.6099,28.7424,-21.7879,21.5461,7.12502,4.61358,51.4758,-6.55445,-12.4387,22.7051,30.7023,-28.9792,-17.0367,35.9383,-16.3217,-4.16762,-10.5489,32.3552,-16.8149,1.21426,-29.4311
4.68459,17.3818,-27.7318,-2.52473,22.552,-3.27181,5.18282,3.18973,6.60301,-5.24287,4.92713,0.357763,-7.93385,2.04966,-3.87924,-3.69637,2.42948,11.6796,11.3368,4.22726,-15.4412,4.51477,1.83768,-6.58711,3.04886e-14,6.26172e-15,-39.1924,52.3564,-110.873,53.6194,1.76571,-18.0784,27.8347,7.12502,8.19471,-1.98636,3.04886e-14,6.26172e-15,-55.2805,-14.7746,82.1322,50.1264,28.5129,-21.3897,21.1358,7.12502,4.99808,51.0568,-6.84254,-12.0596,23.3397,30.6168,-29.0034,-17.0396,36.7857,-16.6037,-4.28288,-9.99662,32.4127,-16.6703,1.93263,-31.122
4.63791,17.3872,-27.7483,-2.3627,22.2608,-3.60521,4.76081,3.27528,6.93806,-5.02225,5.04307,0.646835,-7.437,2.12369,-3.73013,-3.73511,2.56556,11.2476,10.7438,4.36556,-15.3294,4.35479,1.89835,-6.45572,-2.37796e-14,1.98785e-16,-38.451,53.8425,-110.522,53.9383,1.74568,-18.2461,28.3231,7.12502,8.0328,-1.50428,-2.37796e-14,1.98785e-16,-55.3507,-14.3386,82.9433,49.6074,28.2448,-21.1731,20.7109,7.12502,5.20725,50.6269,-7.26608,-12.0099,23.9183,30.5165,-28.6883,-16.9557,36.9054,-17.0362,-4.35462,-9.4746,32.5058,-16.648,2.63031,-31.6524
4.59374,17.3968,-27.7452,-2.07922,21.5681,-3.41957,5.07084,3.51334,7.01011,-5.38179,5.41331,0.578438,-7.95604,2.26835,-3.91607,-3.17077,2.54466,11.7779,10.7412,4.39694,-15.725,4.27753,1.94155,-6.68278,1.51822e-14,-1.13307e-14,-39.2421,54.7913,-111.765,54.3101,1.45718,-18.438,28.6241,7.12502,7.84762,-1.21025,1.51822e-14,-1.13307e-14,-56.6588,-14.4635,83.7063,49.3363,27.7724,-21.2795,20.7247,7.12502,5.10451,50.6433,-7.54014,-12.4439,23.8017,30.4686,-28.0775,-16.2803,36.0343,-17.115,-3.89103,-9.49751,32.5724,-16.7378,2.78297,-29.815
4.58105,17.3847,-27.7337,-2.51387,23.3487,-2.91829,5.15301,3.0862,6.92204,-4.99531,4.79821,0.337119,-7.63791,1.98514,-4.05199,-3.55264,2.4992,12.893,10.8883,4.31402,-16.4608,4.41095,1.89475,-7.13027,6.80589e-14,9.83984e-15,-38.4987,55.5639,-111.548,54.5935,1.3606,-18.4821,28.5681,7.12502,7.80508,-1.2678,6.80589e-14,9.83984e-15,-56.6371,-14.6723,84.3495,48.4253,27.2886,-21.7644,20.2808,7.12502,4.63628,50.2101,-6.60232,-13.8595,23.1074,30.427,-28.553,-16.3829,35.9712,-17.0043,-4.35436,-10.0895,32.674,-16.4856,1.2296,-27.3338
4.54952,17.38,-27.7401,-2.74954,23.4093,-2.74257,5.40763,3.05705,7.05135,-4.81903,4.78413,0.371983,-7.59095,1.97688,-4.09637,-3.126,2.60402,12.8773,10.4082,4.4448,-16.4199,4.21397,1.98374,-7.10067,-4.90004e-14,-2.14687e-14,-38.3118,56.8311,-111.719,54.8898,1.12263,-18.8399,28.4431,7.12502,7.45965,-1.40536,-4.90004e-14,-2.14687e-14,-56.8347,-14.1876,85.0433,47.5126,27.1974,-22.6185,19.6485,7.12502,3.81146,49.5942,-6.31186,-14.272,22.8801,30.4393,-28.3291,-16.1958,35.6922,-16.7682,-4.55758,-10.2312,32.7428,-16.1951,1.37853,-27.119
4.49492,17.3808,-27.764,-2.76692,22.9517,-3.43493,5.57704,3.25785,7.76346,-4.89257,5.15581,0.603774,-7.69573,2.12008,-4.29719,-3.06667,2.64325,12.8243,10.0941,4.45613,-16.2843,4.10948,1.99844,-7.04039,-6.38596e-15,-6.36111e-15,-37.8556,57.6142,-111.419,55.3523,1.06001,-19.0792,28.6214,7.12502,7.22874,-1.2351,-6.38596e-15,-6.36111e-15,-57.2701,-14.1207,85.8346,47.075,26.6659,-22.5107,19.9815,7.12502,3.91561,49.9253,-6.85701,-13.3546,24.0101,30.4308,-28.4287,-16.5213,36.4555,-17.1844,-4.70068,-9.29588,32.8713,-15.9005,2.21948,-28.7785
4.46398,17.376,-27.7593,-2.67492,23.075,-3.3691,5.4439,3.29143,7.89824,-4.82192,5.19187,0.556875,-7.52226,2.13924,-4.41095,-3.25904,2.69122,12.9918,10.0096,4.47482,-16.2505,4.12437,2.00731,-7.0544,1.32937e-14,-2.68359e-14,-36.9038,57.2034,-110.728,55.5648,2.23737,-18.4679,29.7621,7.12502,7.81879,-0.0733707,1.32937e-14,-2.68359e-14,-57.7341,-14.2488,86.4825,46.4609,25.5299,-22.0952,20.2723,7.12502,4.31686,50.2083,-6.99799,-13.5792,24.0367,30.4716,-28.3851,-16.4451,36.1166,-17.3606,-4.7447,-9.28818,32.9502,-15.8613,2.57428,-30.0239
4.43688,17.3711,-27.762,-2.63759,23.1824,-3.23838,5.41797,3.23979,8.04165,-4.79632,5.13216,0.567186,-7.4778,2.10519,-4.47046,-3.02004,2.74042,12.9666,9.85594,4.55731,-16.2844,4.05034,2.05774,-7.05636,-1.00635e-14,-9.93923e-15,-36.3186,57.2662,-110.413,55.7092,2.96645,-17.8846,30.724,7.12502,8.38175,0.910292,-1.00635e-14,-9.93923e-15,-58.2631,-14.0504,87.2126,45.506,24.7571,-22.6449,19.9129,7.12502,3.786,49.859,-7.0924,-14.0847,23.9134,30.5635,-28.2528,-16.2556,35.3278,-17.4712,-4.59104,-9.39212,32.9906,-15.7438,2.98189,-31.8363
4.40427,17.3692,-27.7769,-2.62949,23.1371,-3.12462,5.62796,3.23683,8.13427,-4.86852,5.16736,0.628817,-7.6736,2.1072,-4.47917,-2.78791,2.72528,12.9968,9.89107,4.5993,-16.5825,4.03256,2.07851,-7.16201,-2.04251e-14,5.96354e-16,-36.9265,59.5358,-110.97,56.6816,1.52252,-18.5908,29.7227,7.12502,7.70008,-0.117139,-2.04251e-14,5.96354e-16,-58.9774,-13.8,88.105,44.7319,24.3574,-23.1944,19.909,7.12502,3.2554,49.8639,-7.25867,-14.5934,23.8032,30.7246,-28.2262,-15.8174,35.0797,-17.5352,-4.52298,-9.46257,32.9792,-15.5197,3.44383,-33.0447
4.36745,17.3676,-27.7837,-2.40452,23.2105,-2.77607,5.647,3.22248,7.95928,-4.94413,5.13327,0.552249,-7.77701,2.09094,-4.46506,-3.55521,2.65736,13.0181,10.7323,4.52698,-16.6307,4.40471,1.99945,-7.194,-1.14301e-15,1.07344e-14,-36.5866,59.855,-110.795,56.9947,2.00009,-19.0202,29.9826,7.12502,7.28563,0.128044,-1.14301e-15,1.07344e-14,-59.6155,-13.6627,88.7733,43.9988,23.659,-22.689,19.972,7.12502,3.74341,49.9189,-7.49887,-14.9393,23.5289,30.8767,-28.2991,-15.4568,35.1699,-17.7374,-4.5426,-9.73825,33.0048,-15.4986,3.32471,-31.6577
4.32559,17.3661,-27.786,-2.22186,23.1888,-2.63996,5.55671,3.25248,7.85918,-4.91721,5.15602,0.58618,-7.70219,2.11343,-4.36808,-2.70381,2.83854,12.9384,10.0569,4.73636,-16.1271,4.07856,2.16373,-6.99501,-5.23301e-14,1.03368e-14,-36.0585,60.4794,-110.359,57.3346,2.19393,-19.2493,30.2608,7.12502,7.06455,0.398703,-5.23301e-14,1.03368e-14,-59.9627,-13.5402,89.3771,43.0931,22.8552,-21.9664,19.5489,7.12502,4.44117,49.4823,-7.73224,-14.7417,23.6071,31.0149,-28.5378,-15.4257,35.4605,-17.9826,-4.31454,-9.75256,33.0533,-15.429,2.93135,-29.7365
4.30805,17.3642,-27.8055,-2.38645,23.1759,-2.71018,5.80858,3.35783,8.30967,-4.87712,5.35996,0.565045,-7.74362,2.18541,-4.67638,-2.59312,2.65617,13.6833,9.6882,4.50467,-17.0263,3.94697,2.05033,-7.43675,-1.01877e-14,1.15295e-14,-35.2653,60.5957,-109.544,57.6411,2.11386,-19.3849,29.7936,7.12502,6.93364,-0.0728974,-1.01877e-14,1.15295e-14,-60.5433,-13.7651,90.2382,42.4146,22.6388,-22.1634,19.3762,7.12502,4.25098,49.3136,-7.72853,-15.245,23.6098,31.1061,-28.375,-14.9941,35.3092,-18.0142,-4.26585,-9.71169,33.1541,-15.0744,3.16296,-30.1765
4.29078,17.3621,-27.8073,-2.41652,23.1103,-2.56414,5.84999,3.32233,8.37092,-4.68349,5.31238,0.618109,-7.56358,2.1741,-4.64389,-3.7247,2.74555,13.8926,10.5545,4.61011,-17.2304,4.42629,2.04269,-7.54313,2.20651e-14,2.38542e-15,-33.6873,60.9264,-108.222,57.6055,2.19547,-19.2186,29.8212,7.12502,7.0941,-0.0399178,2.20651e-14,2.38542e-15,-60.784,-13.3172,90.7424,41.6266,21.656,-22.0441,19.368,7.12502,4.36623,49.303,-7.6901,-15.8636,23.3717,31.0806,-28.0605,-14.4721,35.0138,-18.0279,-4.05714,-9.88368,33.356,-14.9225,3.42988,-31.2668
4.26214,17.3579,-27.796,-2.56085,23.1307,-2.39672,5.88007,3.25338,8.18749,-4.55103,5.20204,0.694994,-7.47249,2.13994,-4.44749,-3.879,2.87966,13.8781,10.9373,4.78384,-16.8954,4.58908,2.13188,-7.42178,3.77691e-14,-4.77083e-15,-32.5393,61.2484,-107.32,57.5359,2.23207,-18.8148,30.39,7.12502,7.48395,0.54239,3.77691e-14,-4.77083e-15,-61.2512,-13.1023,91.3859,40.8142,20.7095,-21.8732,19.1778,7.12502,4.5312,49.1094,-7.40106,-16.0309,23.2118,31.0137,-28.0561,-14.3784,34.6643,-17.916,-3.67782,-10.0164,33.5999,-15.0343,3.2255,-30.8081
4.232,17.3597,-27.7918,-2.78902,23.0931,-2.50507,5.94147,3.20071,8.31249,-4.4524,5.15226,0.826609,-7.41099,2.11801,-4.37315,-3.04799,3.02307,13.9603,10.2469,4.9747,-16.7496,4.26976,2.27747,-7.36998,-5.17834e-14,-8.74653e-15,-31.7144,61.7452,-106.531,57.743,2.19945,-18.5797,30.7482,7.12502,7.71084,0.908828,-5.17834e-14,-8.74653e-15,-61.8971,-13.08,92.3419,40.3238,21.1915,-21.4608,18.7978,7.12502,4.92941,48.7204,-7.16296,-15.9078,23.4039,30.9611,-28.2179,-14.3588,34.7937,-17.8643,-3.34454,-9.85116,33.8363,-15.1428,2.89562,-29.1892
4.2062,17.3634,-27.7953,-2.84461,22.977,-2.51112,5.95469,3.0744,8.45015,-4.45871,5.01253,1.01962,-7.45229,2.04569,-4.233,-2.19555,3.14298,13.7462,9.75202,5.20282,-16.7883,4.00767,2.42331,-7.33386,4.77083e-14,2.34566e-14,-30.7357,60.1447,-105.761,56.9364,4.05378,-18.0045,31.9935,7.12502,8.26601,2.17522,4.77083e-14,2.34566e-14,-62.7561,-12.5031,93.2087,39.9955,21.4818,-19.751,18.2806,7.12502,6.58019,48.1584,-7.13075,-15.7616,23.5098,30.8981,-28.3088,-14.2784,35.5036,-17.9695,-3.35961,-9.79566,34.0954,-15.1602,2.71747,-26.6095
4.18353,17.3592,-27.8015,-2.82324,22.9369,-2.35111,5.92627,3.37222,8.43784,-4.29099,5.37706,0.790905,-7.18396,2.2361,-4.49281,-2.84897,2.99501,14.7622,10.0855,4.91469,-17.0214,4.20283,2.27658,-7.60733,3.43401e-14,-7.95139e-16,-28.8687,58.4152,-104,56.6757,4.68735,-17.9472,32.3189,7.12502,8.3213,2.5028,3.43401e-14,-7.95139e-16,-63.2565,-13.7791,94.447,39.7542,21.898,-19.4178,18.4441,7.12502,6.90188,48.3116,-7.1132,-15.8808,23.3962,30.8285,-28.247,-14.2249,35.5153,-18.1245,-3.37152,-9.94027,34.3731,-15.2119,2.69016,-24.4732
4.1624,17.3528,-27.8044,-2.92449,22.8662,-2.44978,5.83171,3.3655,8.56164,-4.20582,5.36945,0.87899,-7.03695,2.23842,-4.45608,-2.46613,3.04142,15.0924,9.87732,4.98118,-17.019,4.09439,2.33949,-7.6617,-3.40916e-14,1.19271e-15,-28.1418,58.6787,-103.237,56.9033,4.52329,-18.284,31.4561,7.12502,7.99622,1.62733,-3.40916e-14,1.19271e-15,-63.9464,-13.9959,95.6507,39.3481,21.9638,-20.2812,19.2708,7.12502,6.06838,49.1639,-7.03851,-16.0998,23.5234,30.749,-28.1193,-14.0295,35.3633,-18.2333,-3.12619,-9.82656,34.6697,-15.3049,2.86275,-24.3703
4.13811,17.3507,-27.8001,-3.03821,22.7033,-2.68891,5.8733,3.1724,8.81545,-4.14344,5.14979,1.09285,-7.02519,2.12582,-4.35096,-2.61994,3.28566,14.8583,10.0498,5.30798,-16.7842,4.21697,2.49316,-7.52174,-5.725e-14,-2.42517e-14,-27.5424,61.5184,-102.677,57.3511,2.76669,-19.2549,30.0424,7.12502,7.05911,0.180145,-5.725e-14,-2.42517e-14,-64.495,-13.5154,96.465,38.7975,21.3751,-20.3217,19.8399,7.12502,6.02926,49.7341,-6.97039,-16.0219,23.8689,30.6166,-28.1733,-13.8666,35.564,-18.337,-2.78225,-9.54056,35.0071,-15.3721,2.93412,-23.7155
4.11241,17.3541,-27.7962,-3.07511,22.3938,-2.97967,5.93192,3.17335,9.18362,-4.27968,5.20859,1.18071,-7.18116,2.12664,-4.47621,-2.524,3.3242,14.2641,9.99869,5.34457,-16.2451,4.16345,2.51463,-7.233,-5.50634e-14,3.57812e-15,-27.0411,61.2371,-102.366,56.9837,2.85136,-19.4668,29.9784,7.12502,6.85455,0.109345,-5.50634e-14,3.57812e-15,-65.4532,-13.5124,97.3721,38.2966,20.6737,-20.006,19.2302,7.12502,6.33405,49.1155,-7.01444,-15.5957,24.3456,30.4523,-28.3306,-13.8402,35.9405,-18.5063,-2.25292,-9.189,35.3548,-15.6303,2.6621,-20.1789
4.08723,17.3557,-27.7915,-3.19138,21.9841,-3.22381,6.04853,3.22689,9.48975,-4.37321,5.33601,1.26217,-7.31858,2.1653,-4.58301,-2.37411,3.35414,14.2999,10.3066,5.40139,-15.9371,4.23174,2.56109,-7.13881,1.71949e-14,7.55382e-15,-26.4718,60.8154,-101.916,56.5557,2.76614,-19.4113,29.8989,7.12502,6.90816,0.0316473,1.71949e-14,7.55382e-15,-66.2514,-13.4646,98.2447,37.6996,20.038,-19.4897,18.1944,7.12502,6.83242,48.0641,-6.95614,-15.0353,24.7584,30.3572,-28.4961,-13.8266,36.5515,-18.5215,-1.38644,-8.90973,35.6214,-15.7694,2.69895,-19.2534
4.06402,17.3511,-27.7811,-3.49297,21.7652,-3.0328,6.33195,3.25399,9.29671,-4.22832,5.37555,1.2683,-7.33465,2.197,-4.49038,-2.49297,3.3518,14.8098,10.6327,5.40605,-16.1128,4.36764,2.5696,-7.29064,-1.70955e-14,2.78299e-15,-25.3829,60.4711,-100.896,56.0728,2.58828,-19.5832,30.059,7.12502,6.7422,0.186336,-1.70955e-14,2.78299e-15,-66.9281,-13.7422,99.3857,37.4245,20.0644,-19.1756,17.9792,7.12502,7.13566,47.8389,-6.50075,-14.837,24.5757,30.3691,-28.6507,-13.7596,36.5502,-18.1452,-0.554834,-9.14715,35.7833,-15.7287,3.34764,-22.7622
4.0516,17.356,-27.778,-3.41329,21.7836,-2.60395,6.22101,3.19972,8.93809,-4.07059,5.24184,1.25302,-7.14191,2.16395,-4.28159,-2.47648,3.42078,14.603,10.1104,5.47594,-16.264,4.21959,2.5923,-7.29307,-7.45443e-15,-9.93923e-15,-24.2309,60.5106,-99.706,55.7705,2.34491,-19.9869,30.0567,7.12502,6.3525,0.171992,-7.45443e-15,-9.93923e-15,-67.7123,-14.1644,100.829,37.4275,20.2776,-19.398,18.1798,7.12502,6.92095,48.0467,-6.4815,-15.1405,24.1258,30.4603,-28.4746,-13.7983,35.6649,-18.1096,-0.175188,-9.69562,35.8691,-15.8938,4.1817,-24.7709
4.04032,17.364,-27.7787,-3.15668,21.5516,-2.21706,5.9568,3.11907,8.68665,-3.98379,5.07529,1.26848,-6.93616,2.1084,-4.08812,-2.73813,3.67957,14.5839,10.4294,5.83771,-16.2545,4.41866,2.75741,-7.26443,-8.59744e-14,-1.51076e-14,-23.0857,60.9516,-98.5153,55.5202,2.13563,-19.9248,30.1517,7.12502,6.41239,0.26873,-8.59744e-14,-1.51076e-14,-68.401,-14.231,102.015,37.3366,20.0836,-19.2664,18.611,7.12502,7.04801,48.4736,-6.72855,-15.2383,23.7742,30.6053,-28.3216,-13.691,35.2333,-18.162,0.244432,-10.1761,35.9152,-16.2528,4.82021,-24.9125
4.03113,17.3705,-27.7792,-2.88246,21.356,-1.97988,5.63028,3.0608,8.6839,-4.04973,4.96094,1.19545,-6.82665,2.05485,-4.13172,-2.87215,3.78327,15.3141,11.2138,6.05363,-16.6572,4.74374,2.86739,-7.52658,1.83876e-14,-3.18055e-15,-22.3756,60.7353,-97.9023,54.9643,2.37108,-19.6553,30.3525,7.12502,6.67258,0.477583,1.83876e-14,-3.18055e-15,-69.4541,-14.5627,103.279,37.4734,20.002,-18.9478,19.0628,7.12502,7.35556,48.915,-7.02629,-15.2838,23.5963,30.7346,-28.2767,-13.4154,35.2798,-18.317,0.597887,-10.5126,35.9614,-16.5321,5.36621,-25.522
4.02328,17.372,-27.7779,-2.74301,21.2803,-1.83248,5.4315,2.975,8.75274,-4.13864,4.83553,1.17325,-6.81754,1.98786,-4.17107,-2.69502,3.73577,15.8979,11.5767,6.07618,-17.1405,4.85467,2.88961,-7.80469,1.20861e-13,3.89618e-14,-22.1429,59.9083,-97.8194,54.1175,3.00002,-19.5915,30.8563,7.12502,6.73413,0.983375,1.20861e-13,3.89618e-14,-70.6158,-14.8681,104.648,37.6568,19.8643,-19.1123,18.9514,7.12502,7.19675,48.8091,-7.18192,-15.2863,23.5012,30.7986,-28.1386,-13.4119,34.9862,-18.4284,0.85418,-10.7532,36.0306,-16.6482,5.80306,-25.4683
4.01669,17.3741,-27.7744,-2.67202,21.2203,-1.65882,5.34049,2.87056,8.78721,-4.15944,4.69102,1.18249,-6.80506,1.91561,-4.16209,-2.5205,3.84953,15.7716,11.6169,6.24263,-16.9083,4.85562,2.98394,-7.69364,-9.24349e-15,-3.97569e-15,-21.8461,59.1364,-97.603,53.2736,3.28323,-19.5869,31.4103,7.12502,6.73859,1.53754,-9.24349e-15,-3.97569e-15,-71.2103,-14.7384,105.511,37.423,19.0546,-19.1925,18.4856,7.12502,7.11938,48.3458,-7.22309,-15.2034,23.3591,30.8247,-28.1142,-13.4579,34.9592,-18.4382,1.11654,-11.0372,36.0997,-16.3907,6.33367,-26.0037
4.00802,17.3794,-27.7685,-2.69091,21.0803,-1.58169,5.34056,2.8941,8.88054,-4.24988,4.73268,1.11807,-6.88589,1.92323,-4.28832,-1.89193,3.91685,15.8003,11.36,6.35605,-16.6185,4.68208,3.08198,-7.59637,-3.12092e-14,-9.54166e-15,-21.8042,58.2242,-97.5713,52.592,3.36739,-19.8161,30.9757,7.12502,6.51734,1.09597,-3.12092e-14,-9.54166e-15,-72.0945,-15.0402,106.507,37.2487,18.075,-19.0814,18.2755,7.12502,7.2266,48.1321,-7.1913,-14.9589,23.3308,30.8734,-28.3001,-13.46,35.4538,-18.3209,1.2695,-11.2036,36.1274,-16.3542,6.73317,-26.0058
3.99533,17.3833,-27.7598,-2.7183,20.8804,-1.44784,5.31765,2.84186,8.78888,-4.29152,4.65713,1.14261,-6.9358,1.88777,-4.20524,-1.21182,4.02877,15.5957,11.0573,6.54953,-16.336,4.49233,3.2109,-7.45805,3.13086e-14,9.54166e-15,-21.4014,57.786,-97.1965,51.8954,3.81949,-20.0762,30.7082,7.12502,6.26629,0.820878,3.13086e-14,9.54166e-15,-73.1243,-15.3262,107.754,37.2978,17.3638,-19.1383,18.4383,7.12502,7.17168,48.2968,-7.11301,-14.6254,23.2716,30.9433,-28.4567,-13.581,35.4831,-18.1064,1.43928,-11.3868,36.1103,-16.7737,6.55783,-23.5381
3.98393,17.3868,-27.7508,-2.65846,20.6851,-1.06786,5.25465,2.6436,8.43194,-4.222,4.35594,1.2353,-6.89242,1.76407,-3.87727,-0.96668,4.36706,15.0425,11.0527,7.03027,-15.9247,4.49843,3.45208,-7.19473,8.43841e-14,3.73715e-14,-20.4538,57.6893,-96.4201,50.927,4.32402,-19.8628,31.403,7.12502,6.47229,1.52188,8.43841e-14,3.73715e-14,-73.6833,-15.1243,108.697,37.3468,16.7871,-19.1554,18.6935,7.12502,7.1551,48.5525,-7.02472,-14.4111,22.9367,30.9711,-28.4112,-13.6394,35.1815,-17.8895,1.72822,-11.8639,36.1047,-16.865,6.72528,-23.0912
3.97418,17.3913,-27.7405,-2.57865,20.4844,-0.641118,5.1591,2.63669,8.09256,-4.1597,4.29939,1.17796,-6.79196,1.75758,-3.73707,-1.85666,4.43935,15.3206,12.0695,7.1302,-16.074,4.98916,3.46597,-7.28341,-4.40308e-14,-4.05521e-14,-19.9328,56.8554,-95.9908,49.9753,4.59567,-19.6145,31.8137,7.12502,6.71197,1.94006,-4.40308e-14,-4.05521e-14,-74.3628,-15.512,109.703,37.5456,16.3106,-19.0298,18.904,7.12502,7.27636,48.7589,-6.93624,-14.1567,22.5533,30.9746,-28.4201,-13.5747,35.3543,-17.7205,1.94875,-12.4054,36.1224,-17.1366,7.37996,-24.1154
3.96324,17.3909,-27.7313,-2.59121,20.2833,-0.709566,4.83489,2.66447,8.18265,-4.0249,4.30478,1.24176,-6.45817,1.7765,-3.69579,-0.812335,4.59779,15.3462,10.8836,7.34115,-15.9635,4.48622,3.62225,-7.24027,5.06901e-14,-7.95139e-16,-19.4739,56.7413,-95.4377,49.4356,4.22803,-19.933,31.2828,7.12502,6.40451,1.39958,5.06901e-14,-7.95139e-16,-74.9429,-16.0669,110.657,37.8404,15.9396,-18.7093,18.6046,7.12502,7.58576,48.4486,-6.93406,-13.6231,22.7643,30.9735,-28.6197,-13.8344,35.5297,-17.6797,2.22049,-12.3902,36.1694,-17.6447,7.54837,-23.4639
3.95448,17.3873,-27.7261,-2.60753,20.1566,-0.929436,4.47324,2.54088,8.40453,-3.9154,4.12229,1.42657,-6.15536,1.69816,-3.58452,-0.470613,4.7278,15.4947,10.4308,7.56634,-16.4284,4.35119,3.73804,-7.41039,-3.12092e-14,-1.90833e-14,-18.7803,57.423,-94.6779,48.9481,3.64606,-20.3712,30.6375,7.12502,5.98143,0.741966,-3.12092e-14,-1.90833e-14,-75.2819,-16.1883,111.306,38.0627,15.7073,-18.0903,17.71,7.12502,8.18317,47.5315,-6.99034,-13.219,23.1179,30.9601,-28.7592,-14.1549,35.5433,-17.6969,2.58926,-12.2312,36.2501,-17.8125,7.62177,-23.5073
3.9508,17.3896,-27.7286,-2.55877,19.9781,-0.945116,4.56957,2.54318,8.67233,-4.12977,4.16737,1.35818,-6.41581,1.68883,-3.81978,-0.335219,4.71212,15.9874,10.8697,7.61788,-16.6104,4.49196,3.78187,-7.56321,8.87574e-14,4.77083e-14,-18.566,56.9497,-94.5075,48.0879,3.70929,-20.365,30.7693,7.12502,5.98746,0.873874,8.87574e-14,4.77083e-14,-76.1539,-16.599,111.954,38.2378,15.5952,-17.6497,16.9996,7.12502,8.60844,46.8041,-7.08387,-13.1712,23.1678,30.9763,-28.6889,-14.156,35.2566,-17.6535,2.8323,-12.3207,36.31,-18.1871,7.99721,-24.6469
3.95096,17.3931,-27.7426,-2.53624,19.5778,-1.0317,4.20624,2.56283,8.84641,-3.82815,4.15468,1.55276,-5.88886,1.71245,-3.68005,-1.03681,4.86219,16.2039,11.3768,7.84642,-17.1562,4.83303,3.84928,-7.76248,2.3556e-14,1.19271e-14,-16.8606,56.9372,-92.8445,47.1655,3.78953,-20.0082,30.9536,7.12502,6.33186,1.06823,2.3556e-14,1.19271e-14,-75.7829,-16.8786,112.399,38.0293,15.402,-17.5403,16.6436,7.12502,8.71398,46.4438,-7.32049,-12.9743,23.2856,31.0949,-28.4933,-14.1666,34.9065,-17.584,3.03501,-12.3565,36.2653,-18.4142,8.40905,-25.5003
3.94788,17.3956,-27.7423,-2.48232,19.3106,-0.762737,4.38546,2.44985,8.77882,-3.95537,4.02751,1.53199,-6.14679,1.63656,-3.66921,-1.13002,4.94609,16.3678,11.7839,8.04473,-17.5345,5.02682,3.93368,-7.91215,-2.94201e-14,1.35174e-14,-17.0248,56.4024,-92.8485,46.428,4.20251,-19.5523,31.0615,7.12502,6.77201,1.18985,-2.94201e-14,1.35174e-14,-76.1344,-16.8903,112.749,37.8107,15.1294,-17.6153,16.471,7.12502,8.64159,46.2741,-7.41247,-12.7512,23.0175,31.252,-28.4297,-14.1336,35.1361,-17.4053,3.30835,-12.7538,36.1781,-18.3243,8.62763,-25.8582
3.94005,17.3968,-27.7128,-2.34745,19.448,-0.0794112,4.25663,2.27018,8.10103,-4.05503,3.7235,1.40091,-6.24146,1.50764,-3.40424,-0.562124,5.02675,16.484,11.5606,8.19052,-17.4156,4.88773,4.04264,-7.88996,-3.43897e-14,-2.14687e-14,-17.2731,54.5943,-92.9504,45.4862,5.48279,-19.0667,31.831,7.12502,7.24074,1.97488,-3.43897e-14,-2.14687e-14,-76.7933,-17.0888,113.182,37.9302,14.9703,-17.8267,16.3494,7.12502,8.43757,46.1608,-7.23989,-12.9707,22.2685,31.4326,-28.5898,-13.9614,34.9235,-17.0524,3.68306,-13.5485,36.0327,-18.3591,8.23653,-25.4364
3.92459,17.3922,-27.7098,-2.3032,19.5411,-0.183188,4.09597,2.17258,8.11348,-4.11025,3.58742,1.49715,-6.22947,1.44213,-3.29272,-0.17928,5.21464,16.2978,11.3569,8.43021,-16.9489,4.77863,4.18858,-7.68447,-1.0138e-14,-1.19271e-14,-17.5644,54.3163,-92.8092,45.07,5.61854,-19.1616,31.8053,7.12502,7.14918,1.94607,-1.0138e-14,-1.19271e-14,-77.164,-17.6486,113.719,38.0403,14.9773,-17.887,16.4986,7.12502,8.37942,46.3124,-7.38356,-12.544,22.578,31.5724,-28.866,-14.4011,34.685,-17.0662,4.03171,-13.4905,35.9162,-18.2346,7.95042,-25.3938
3.92533,17.3863,-27.6962,-2.23694,19.6789,-0.0101077,3.74064,2.11838,7.93094,-4.05612,3.46512,1.54881,-5.99191,1.40311,-3.10958,-0.378504,5.42006,16.0139,11.6566,8.69158,-16.6,4.92372,4.30875,-7.49371,-2.10712e-14,3.73715e-14,-17.1781,53.5023,-92.1496,44.0201,6.3047,-19.2251,31.91,7.12502,7.08786,2.04864,-2.10712e-14,3.73715e-14,-77.2071,-18.2399,114.146,37.7628,15.0154,-17.9033,16.391,7.12502,8.36361,46.2054,-7.36449,-12.7978,22.3557,31.6526,-28.8973,-14.2329,34.8247,-16.9125,4.06079,-13.7791,35.8049,-18.4903,7.85065,-25.8263
3.9303,17.386,-27.7007,-2.33,18.823,-0.106903,3.62297,2.31512,8.07969,-3.82727,3.71972,1.74866,-5.6579,1.54603,-2.98971,-0.754561,5.55859,16.2716,11.8317,8.91403,-17.1366,5.11508,4.3899,-7.69706,2.28602e-14,2.78299e-14,-16.2216,52.9196,-91.0823,42.7798,6.85328,-19.3211,32.2108,7.12502,6.99521,2.34642,2.28602e-14,2.78299e-14,-76.7085,-18.6623,114.229,37.3103,14.8766,-17.9616,16.0717,7.12502,8.30744,45.8883,-7.41541,-12.8173,22.3021,31.6459,-28.4591,-13.5402,34.8683,-16.5575,4.27782,-13.7865,35.7746,-19.0445,7.87689,-24.7633
