JuanDHNZ/ProyectoFinalCD/preprocessing/sports_trials_csv/55_21.csv
root1,root2,root3,root4,root5,root6,lowerback1,lowerback2,lowerback3,upperback1,upperback2,upperback3,thorax1,thorax2,thorax3,lowerneck1,lowerneck2,lowerneck3,upperneck1,upperneck2,upperneck3,head1,head2,head3,rclavicle1,rclavicle2,rhumerus1,rhumerus2,rhumerus3,rradius1,rwrist1,rhand1,rhand2,rfingers1,rthumb1,rthumb2,lclavicle1,lclavicle2,lhumerus1,lhumerus2,lhumerus3,lradius1,lwrist1,lhand1,lhand2,lfingers1,lthumb1,lthumb2,rfemur1,rfemur2,rfemur3,rtibia1,rfoot1,rfoot2,rtoes1,lfemur1,lfemur2,lfemur3,ltibia1,lfoot1,lfoot2,ltoes1
-2.82771,17.716,-13.2063,0.242136,-7.80127,1.39874,7.36605,-1.42182,6.7952,-6.2527,-0.770297,3.24666,-10.9611,-0.743276,-0.171167,1.85945,7.22587,16.2658,1.57142,10.1103,-11.3802,1.57402,5.12907,-5.85635,3.18055e-15,-1.90833e-14,-38.9964,-32.4702,-23.9168,39.5874,16.3764,11.6463,29.3971,7.12502,36.6861,3.25209,3.18055e-15,-1.90833e-14,-40.6791,12.8672,25.0459,36.3277,6.53127,-24.786,33.6143,7.12502,1.71826,63.5872,-16.2323,-10.2576,9.3381,53.502,-14.8394,-11.6727,26.7807,-13.1121,2.1927,-23.8981,32.9786,-13.6062,-8.66123,-21.9425
-2.84416,17.8351,-13.1608,0.375008,-8.0782,1.96992,7.08824,-1.35697,6.99886,-6.28992,-0.66708,3.426,-10.8338,-0.699474,-0.113752,1.79294,7.41616,16.3131,1.83821,10.3879,-11.767,1.72569,5.26955,-5.96055,7.55382e-15,-6.36111e-15,-38.1822,-31.844,-23.8694,39.8753,15.1346,9.61984,28.8471,7.12502,34.7657,2.23664,7.55382e-15,-6.36111e-15,-40.7992,13.0941,24.6893,36.2521,6.76046,-25.2306,33.8672,7.12502,1.28885,63.8431,-15.8434,-9.77124,8.6809,50.7722,-14.5043,-11.5934,27.4759,-12.408,2.27954,-24.3581,31.5275,-11.8285,-8.82902,-24.2364
-2.86764,17.9402,-13.1165,0.572717,-8.33708,2.40213,6.68809,-1.30672,7.26507,-6.32247,-0.587133,3.65278,-10.6305,-0.667722,-0.0387691,1.43814,7.6283,16.7685,2.49173,10.6924,-12.4218,2.08037,5.42051,-6.18964,-2.22639e-14,-2.70347e-14,-37.4902,-31.7111,-23.6356,40.1958,14.6274,7.55589,28.5018,7.12502,32.8047,1.46054,-2.22639e-14,-2.70347e-14,-40.9512,13.3492,24.1818,36.1824,6.84544,-25.5785,33.9122,7.12502,0.952851,63.8898,-15.6397,-9.24877,8.20783,48.3427,-13.9991,-11.3959,27.7944,-11.8402,2.54065,-24.6691,30.1534,-9.98653,-9.08833,-26.5613
-2.89813,18.0387,-13.0766,0.755581,-8.51405,3.02557,6.3076,-1.21854,7.27786,-6.37779,-0.489982,3.81267,-10.4569,-0.612595,0.103227,2.17827,7.88696,16.5791,1.80578,11.1106,-12.3396,1.80396,5.64244,-6.15423,0,-3.65764e-14,-37.4049,-33.2645,-22.5928,40.6031,15.6867,5.63449,28.6166,7.12502,30.975,1.21039,0,-3.65764e-14,-40.8048,13.7097,23.6109,35.9586,6.72476,-26.0514,34.1307,7.12502,0.496148,64.1098,-15.4394,-8.55452,7.57537,45.911,-13.7391,-11.0685,27.6054,-11.3494,2.94302,-25.1773,28.719,-8.10435,-9.46262,-28.0091
-2.92667,18.1381,-13.0384,0.820041,-8.49878,3.95737,6.02516,-1.16952,7.03178,-6.42869,-0.471537,3.8811,-10.3355,-0.581124,0.304602,1.22966,7.96129,17.2729,2.91088,11.1782,-13.1226,2.37935,5.66147,-6.43848,3.97569e-15,6.36111e-15,-36.7847,-31.6687,-22.7564,40.9539,13.636,2.24417,27.7995,7.12502,27.7381,-0.174294,3.97569e-15,6.36111e-15,-40.4495,13.7977,23.1578,35.7195,6.90317,-26.4641,34.8456,7.12502,0.0975406,64.8253,-15.1055,-7.93024,6.53894,43.6314,-13.3133,-10.8899,27.4063,-10.8276,3.17528,-26.0215,27.3465,-6.12746,-9.66739,-28.7512
-2.95722,18.2379,-12.9946,0.872973,-8.40643,4.60904,5.63941,-1.17425,7.05866,-6.43221,-0.498417,4.07746,-10.1087,-0.583396,0.494847,1.33341,8.17183,17.206,3.18678,11.5212,-13.4336,2.51124,5.83634,-6.50166,-1.59028e-14,3.18055e-15,-36.1503,-31.0237,-22.6205,41.1189,12.5792,-1.27662,27.2549,7.12502,24.367,-1.21592,-1.59028e-14,3.18055e-15,-40.284,13.8158,22.6521,35.6884,7.07951,-26.7024,35.4906,7.12502,-0.132648,65.4703,-14.6597,-7.2819,5.80606,41.4981,-12.2693,-10.7917,26.9979,-10.2525,3.16433,-26.524,26.0302,-4.12698,-9.63906,-29.4869
-2.99509,18.3329,-12.955,1.03451,-8.27937,5.01293,5.13342,-1.17383,7.29588,-6.42917,-0.509505,4.30823,-9.80791,-0.590451,0.599345,2.82514,8.51373,16.5208,1.89678,12.0967,-12.9682,1.9055,6.157,-6.30706,3.93594e-14,2.54444e-14,-35.7766,-30.9664,-22.3459,41.3533,12.1146,-4.72058,27.1453,7.12502,21.0619,-1.73091,3.93594e-14,2.54444e-14,-40.0365,13.8378,22.0519,35.6959,7.15934,-27.1672,35.5447,7.12502,-0.581602,65.5237,-14.3257,-6.46754,5.41863,39.4778,-10.9841,-10.6577,27.2269,-9.87298,3.14146,-26.7064,24.8918,-2.56635,-9.73695,-31.0201
-3.03738,18.418,-12.9239,1.1731,-8.08507,5.56786,4.82752,-1.18171,7.3938,-6.52132,-0.530554,4.38984,-9.73123,-0.604302,0.63126,3.13073,8.60777,16.9356,1.84499,12.2958,-13.3505,1.9205,6.2694,-6.49239,4.09496e-14,-3.18055e-14,-35.7412,-31.0571,-21.9835,41.5092,12.0929,-7.93058,27.2378,7.12502,17.9756,-1.95147,4.09496e-14,-3.18055e-14,-39.5104,13.4449,21.4139,35.4965,7.46806,-27.9816,35.0408,7.12502,-1.36813,65.0162,-14.0225,-5.49078,4.84656,37.6354,-10.0841,-10.1309,31.6079,-9.63679,3.13668,-27.0314,23.9753,-1.17888,-9.8915,-32.929
-3.08116,18.5056,-12.8901,1.32434,-7.81894,5.79998,4.60296,-1.19835,7.69294,-6.5795,-0.527162,4.61189,-9.67005,-0.614066,0.700689,3.33662,8.74992,16.8555,1.55957,12.4975,-13.3042,1.82599,6.3735,-6.46891,-1.59028e-15,9.54166e-15,-35.5286,-31.4808,-21.5911,41.4141,12.4708,-11.0761,27.4029,7.12502,14.9472,-2.03778,-1.59028e-15,9.54166e-15,-38.9515,12.9639,20.8952,35.3357,7.85743,-28.7275,34.2988,7.12502,-2.08857,64.2683,-13.7479,-4.53631,4.65736,36.0538,-8.99996,-9.65945,34.3156,-9.42388,2.8763,-26.9731,23.2079,0.108171,-9.70051,-34.7909
-3.12447,18.5728,-12.8545,1.58702,-7.44338,5.81983,4.13407,-1.17628,8.14851,-6.50406,-0.493603,4.92708,-9.31684,-0.607595,0.766912,2.85974,8.9341,16.9572,1.78933,12.7064,-13.59,2.02883,6.46459,-6.52789,-9.54166e-15,-6.36111e-15,-35.3982,-31.8523,-21.1448,41.4713,12.4281,-14.2233,27.7902,7.12502,11.9138,-1.85084,-9.54166e-15,-6.36111e-15,-38.1702,12.6785,20.6234,35.3094,8.38028,-29.4798,34.3054,7.12502,-2.81509,64.2665,-13.7169,-4.00883,4.7751,34.7855,-7.20394,-9.51524,30.489,-9.27442,2.24642,-26.6772,22.6278,0.77453,-9.23608,-36.6364
-3.1723,18.6118,-12.8258,1.84242,-7.12525,6.09578,3.70113,-1.11961,8.36746,-6.53063,-0.436447,5.11159,-9.09169,-0.582724,0.826185,0.558973,8.81435,18.6446,4.29711,12.4829,-15.2352,3.32738,6.29582,-7.16595,4.92986e-14,-1.27222e-14,-35.7216,-31.6793,-20.589,41.7103,11.9225,-17.3572,27.9666,7.12502,8.89063,-1.82611,4.92986e-14,-1.27222e-14,-37.2687,12.3303,20.2276,35.0643,8.6026,-30.0055,34.7598,7.12502,-3.32279,64.7136,-13.7201,-3.36041,4.61229,33.7485,-6.02332,-8.97016,28.8362,-9.2707,1.79481,-26.6506,22.3216,0.988134,-9.00002,-37.4517
-3.22319,18.6357,-12.7999,2.11053,-6.83364,6.51035,3.22612,-1.11952,8.4514,-6.62193,-0.472749,5.23299,-8.91481,-0.598944,0.904928,3.0809,9.2366,17.1707,1.97311,13.188,-13.861,2.15396,6.71679,-6.61658,-2.06736e-14,6.04305e-14,-35.8479,-31.5104,-20.3702,41.9023,11.3983,-20.558,27.3106,7.12502,5.80109,-2.58995,-2.06736e-14,6.04305e-14,-36.6722,11.9296,19.5664,34.8797,8.52885,-30.1826,34.9637,7.12502,-3.49379,64.9148,-13.7021,-2.64738,4.28209,32.8784,-5.35631,-8.10365,30.0695,-9.52278,1.63432,-26.765,22.2295,0.935286,-8.99059,-37.9357
-3.26879,18.6549,-12.7722,2.32872,-6.56061,7.10252,2.52664,-1.12244,8.27184,-6.45571,-0.585066,5.3585,-8.31548,-0.621174,1.12059,1.14838,9.11319,18.269,3.87694,12.9614,-15.2281,3.16285,6.5499,-7.09626,-3.4191e-14,5.725e-14,-35.6932,-31.5295,-20.3839,42.0981,10.5814,-23.758,26.9113,7.12502,2.7111,-3.05125,-3.4191e-14,5.725e-14,-36.1304,11.8407,19.0458,34.8983,8.57774,-30.5584,35.2994,7.12502,-3.85667,65.2443,-13.7396,-2.3016,3.74722,32.1549,-4.56315,-7.03018,29.9941,-9.81804,1.3891,-27.0857,22.3065,0.512548,-8.50122,-37.1334
-3.31334,18.6931,-12.7447,2.43028,-6.3898,7.5118,2.09176,-1.06518,8.109,-6.27153,-0.57658,5.57048,-7.85071,-0.586203,1.41325,2.74112,9.45634,17.0333,1.78851,13.4351,-14.2001,2.20935,6.82538,-6.66702,-5.56597e-15,0,-35.8344,-31.7428,-19.9851,42.088,10.3121,-26.8807,27.698,7.12502,-0.304895,-2.28152,-5.56597e-15,0,-35.4814,11.5635,18.7516,34.7955,8.70935,-30.9887,35.595,7.12502,-4.27224,65.5319,-13.6276,-1.85162,3.48458,31.512,-4.14408,-6.47941,31.3428,-9.97783,1.23819,-27.1699,22.5841,-0.361996,-7.53759,-35.0206
-3.36187,18.7261,-12.7198,2.56272,-6.21519,7.47042,2.0944,-1.04405,8.48968,-6.41243,-0.497031,5.78018,-8.01514,-0.568512,1.4277,3.15951,9.51909,16.9422,1.64198,13.5687,-14.1022,2.10558,6.90625,-6.63963,1.19271e-15,-6.36111e-15,-36.2742,-31.9597,-19.589,41.985,10.5137,-29.7297,28.3078,7.12502,-3.05646,-1.65006,1.19271e-15,-6.36111e-15,-35.1151,10.7355,18.206,34.7553,8.87368,-31.0487,35.3073,7.12502,-4.33016,65.243,-13.4176,-1.21411,3.82423,31.0452,-4.38521,-7.32465,32.2005,-10.1315,1.28463,-26.7039,22.8847,-1.2542,-6.53355,-33.2027
-3.41337,18.7324,-12.7045,2.66104,-6.06426,7.37824,2.15198,-1.05664,8.98749,-6.51354,-0.455116,5.91736,-8.17391,-0.579019,1.30493,3.3692,9.58996,16.9504,1.77393,13.7046,-13.9982,2.12413,6.98316,-6.60714,-2.34566e-14,-6.36111e-15,-36.5417,-32.1445,-19.7025,41.9978,10.1674,-32.3053,28.2285,7.12502,-5.54353,-1.67897,-2.34566e-14,-6.36111e-15,-34.9271,10.5523,17.318,34.7738,8.54927,-30.7707,34.7144,7.12502,-4.06171,64.6555,-13.1892,-0.580658,4.25439,30.8396,-5.03911,-8.78069,32.1173,-10.2045,1.41742,-26.1446,23.0196,-2.17242,-5.58835,-32.7682
-3.46874,18.7275,-12.693,2.62182,-5.99013,7.5876,2.22044,-1.0541,9.03203,-6.49958,-0.432091,6.0391,-8.19947,-0.566044,1.40996,3.68246,9.60121,16.8177,1.67866,13.758,-13.9937,2.04386,7.02037,-6.60247,2.14687e-14,-3.81667e-14,-36.757,-32.3089,-19.8028,42.0012,9.93012,-34.6047,27.784,7.12502,-7.76322,-2.05345,2.14687e-14,-3.81667e-14,-34.866,10.7501,16.5769,34.8708,8.10459,-30.6122,34.5335,7.12502,-3.90864,64.4774,-12.932,-0.045312,4.35381,30.8646,-5.47317,-9.61969,31.7753,-10.1204,1.71778,-25.9036,22.996,-3.40094,-4.68685,-34.2218
-3.52946,18.7161,-12.6733,2.5097,-5.9992,7.94964,2.39257,-1.098,8.85034,-6.53371,-0.468976,6.12689,-8.33536,-0.572704,1.61386,4.09141,9.68065,16.564,1.50733,13.9001,-13.8324,1.91945,7.10328,-6.53271,2.82274e-14,-1.27222e-14,-36.9784,-32.1508,-20.114,42.064,9.58633,-36.6286,27.2835,7.12502,-9.71636,-2.47243,2.82274e-14,-1.27222e-14,-35.1804,10.2765,15.988,35.1473,8.36178,-31.1291,34.5499,7.12502,-4.40781,64.484,-12.6927,0.406266,4.30513,31.043,-5.78019,-10.0535,30.9455,-9.95304,2.18975,-25.8116,22.8491,-4.72883,-3.78136,-36.1822
-3.59212,18.6951,-12.6516,2.43194,-5.98815,8.19068,2.4585,-1.23206,8.84549,-6.45579,-0.646046,6.14179,-8.29523,-0.655922,1.64828,4.12771,9.89242,16.6148,1.44875,14.1907,-13.825,1.94398,7.24892,-6.51967,2.98177e-14,1.90833e-14,-36.9236,-32.1528,-21.0871,42.0863,8.9708,-38.9366,27.1684,7.12502,-11.9425,-2.47097,2.98177e-14,1.90833e-14,-35.594,10.0287,15.1211,35.242,8.62185,-31.7792,34.2729,7.12502,-5.03558,64.1931,-12.5056,0.696381,4.43744,31.2913,-6.49304,-10.6602,29.8739,-9.70269,2.54663,-25.5248,22.509,-5.98622,-2.98292,-36.3898
-3.65301,18.6555,-12.636,2.38963,-5.9542,8.49713,2.42738,-1.33734,8.83232,-6.31253,-0.812424,6.04692,-8.12532,-0.73367,1.56173,4.24044,9.99993,16.8715,1.19582,14.3532,-14.0474,1.91197,7.33369,-6.6265,-4.57205e-14,3.18055e-14,-36.996,-32.2312,-22.1643,42.1038,8.41407,-41.2562,26.8568,7.12502,-14.1786,-2.63938,-4.57205e-14,3.18055e-14,-35.841,10.2722,14.1843,35.1585,8.46323,-31.7183,33.8427,7.12502,-4.97673,63.7643,-12.4414,0.802728,4.47822,31.5893,-7.60136,-11.1235,29.3224,-9.3547,2.6405,-25.2745,21.8982,-6.74475,-2.30386,-33.3335
-3.71697,18.6067,-12.617,2.24929,-5.99888,8.8936,2.52524,-1.36506,8.69124,-6.24097,-0.860755,5.92071,-8.10188,-0.751411,1.50833,4.6644,9.95593,16.9619,0.820771,14.3372,-14.1577,1.74576,7.33895,-6.71095,2.8625e-14,-3.18055e-15,-37.3921,-32.2974,-22.9197,42.1558,8.16527,-42.7476,26.6888,7.12502,-15.6153,-2.7009,2.8625e-14,-3.18055e-15,-36.1567,9.89575,13.6635,35.2068,8.56625,-31.4497,33.5542,7.12502,-4.71734,63.4817,-12.3513,1.01586,4.38328,31.9192,-8.8422,-11.279,29.7759,-8.8075,2.55447,-25.0985,21.1361,-7.24038,-1.67214,-29.3513
-3.78718,18.5683,-12.5938,2.03282,-6.05213,9.30547,2.75618,-1.39242,8.43482,-6.21155,-0.892995,5.8243,-8.19852,-0.756215,1.55552,4.96281,9.97078,16.7985,0.611629,14.3732,-13.9959,1.61756,7.36392,-6.65887,3.57812e-15,-4.77083e-14,-37.8256,-32.9045,-23.3658,41.9742,8.57272,-43.6305,26.5538,7.12502,-16.4655,-2.76747,3.57812e-15,-4.77083e-14,-36.7054,9.46178,13.3089,35.369,8.53995,-31.3749,33.4554,7.12502,-4.64511,63.3845,-12.1862,1.27031,4.29669,32.2756,-9.85155,-11.5619,29.1339,-8.17712,2.39057,-24.9045,20.3583,-7.94522,-0.788282,-28.483
-3.85613,18.521,-12.5786,1.82898,-5.98931,9.93487,2.92916,-1.44508,7.98421,-6.11153,-0.993212,5.65029,-8.17935,-0.781517,1.62783,4.21357,9.8687,17.1318,1.45569,14.2301,-14.6517,2.03782,7.27912,-6.85319,1.55052e-14,-6.04305e-14,-38.251,-33.7454,-23.7338,41.7386,8.70334,-43.7596,26.0035,7.12502,-16.5897,-3.30743,1.55052e-14,-6.04305e-14,-37.2913,9.69518,12.9082,35.4698,8.22389,-31.4806,33.5186,7.12502,-4.74724,63.4454,-12.0656,1.05843,3.95809,32.6928,-10.7094,-11.8188,27.3451,-7.60797,2.1022,-24.9384,19.5279,-8.63024,0.221753,-28.8675
-3.92267,18.4523,-12.5668,1.63502,-5.89828,10.4831,3.06616,-1.47324,7.62312,-5.93887,-1.06685,5.4674,-8.06167,-0.797073,1.63469,4.37432,9.94995,17.0553,0.890214,14.3199,-14.7675,1.8643,7.32582,-6.89442,2.10712e-14,-2.8625e-14,-38.7708,-34.2193,-24.2185,41.6662,8.12884,-43.0968,25.8868,7.12502,-15.9515,-3.47631,2.10712e-14,-2.8625e-14,-37.7918,9.87065,12.7453,35.444,8.17469,-31.7269,33.6646,7.12502,-4.98504,63.586,-11.9452,0.716911,3.66361,33.1888,-12.0378,-11.559,28.458,-7.01879,1.77079,-24.8777,18.646,-9.18801,0.943734,-29.1394
-3.99195,18.3909,-12.5519,1.51134,-5.99002,10.8293,3.31326,-1.41988,7.35786,-5.86874,-1.00139,5.32166,-8.12048,-0.754076,1.6238,4.70918,9.99199,16.8692,0.171924,14.3549,-14.6428,1.58277,7.34837,-6.86546,-1.07344e-14,7.63333e-14,-39.5336,-34.2425,-24.749,41.6833,7.39386,-42.1332,25.8248,7.12502,-15.0235,-3.6102,-1.07344e-14,7.63333e-14,-38.3007,9.79317,12.7647,35.3876,8.12857,-31.6215,33.3318,7.12502,-4.88326,63.2556,-12.0064,0.667048,3.55436,33.7651,-13.7659,-10.9949,32.1838,-6.52944,1.51985,-24.5808,17.8389,-9.477,1.73941,-30.1911
-4.06222,18.341,-12.5396,1.47789,-6.14988,11.2548,3.54857,-1.3573,7.00031,-5.8705,-0.930176,5.14171,-8.24879,-0.706074,1.62959,4.7509,9.96427,16.8587,0.0114345,14.3124,-14.7245,1.52806,7.32827,-6.89924,-2.22639e-14,3.49861e-14,-40.3216,-34.2887,-25.2304,41.6116,6.96573,-41.2399,25.2406,7.12502,-14.1628,-4.25664,-2.22639e-14,3.49861e-14,-38.9439,9.87866,12.8181,35.424,8.04354,-31.3793,33.1675,7.12502,-4.6494,63.0964,-12.3402,0.491307,3.332,34.4148,-14.9188,-10.8171,31.945,-6.15677,1.11773,-24.3603,17.1203,-9.51966,2.64951,-29.747
-4.13256,18.2807,-12.5306,1.42508,-6.1904,11.3674,3.7379,-1.34399,6.92451,-5.77696,-0.908003,5.09511,-8.2553,-0.690939,1.62136,4.62635,9.94471,16.747,-0.0350727,14.263,-14.8824,1.53129,7.30066,-6.92858,0,4.45278e-14,-40.8957,-34.961,-25.5195,41.2198,7.24423,-40.0552,24.8251,7.12502,-13.021,-4.74853,0,4.45278e-14,-39.7572,10.3002,13.0492,35.5932,8.08998,-31.46,34.0187,7.12502,-4.72737,63.9459,-12.6493,0.174739,3.47711,35.1442,-15.5608,-10.9888,28.2493,-5.65038,0.599615,-23.8057,16.3298,-9.51459,3.42761,-28.9345
-4.20212,18.2121,-12.5263,1.3471,-6.1775,11.1166,4.06321,-1.32018,7.31734,-5.66405,-0.822309,5.02314,-8.33377,-0.674866,1.3242,4.1216,9.89861,16.7507,0.114949,14.141,-15.0194,1.64884,7.22257,-6.94532,1.90833e-14,-2.8625e-14,-41.6388,-35.6527,-25.9079,40.8716,7.46735,-38.62,24.2963,7.12502,-11.6372,-5.36053,1.90833e-14,-2.8625e-14,-40.413,10.8174,13.3455,35.725,8.18589,-31.4782,34.6568,7.12502,-4.74491,64.5837,-12.875,-0.125771,4.03575,35.9225,-16.2072,-11.1636,25.273,-5.10204,0.173995,-22.87,15.5788,-9.45373,4.06986,-29.6011
-4.26952,18.1435,-12.5299,1.28562,-6.23227,11.066,4.59612,-1.27017,7.53799,-5.70737,-0.686226,4.82095,-8.69938,-0.636545,0.98976,3.88595,9.81768,17.0537,0.171907,14.0228,-15.3358,1.73079,7.1574,-7.08179,1.94809e-14,0,-42.4574,-34.9686,-26.7367,40.9481,6.20398,-37.6356,23.4657,7.12502,-10.6878,-6.24249,1.94809e-14,0,-41.1118,10.989,13.7348,35.8624,8.46828,-31.3629,34.86,7.12502,-4.63352,64.7893,-13.206,-0.302078,4.31683,36.7202,-17.0871,-10.9943,24.8845,-4.76069,-0.236963,-22.17,15.0755,-9.33799,4.54664,-28.3778
-4.33384,18.0765,-12.533,1.15031,-6.36578,11.2779,5.16476,-1.2478,7.25157,-5.78052,-0.617772,4.73805,-9.10708,-0.596357,1.07099,4.36634,9.70428,17.231,-0.310679,13.9246,-15.8226,1.54573,7.1301,-7.30935,-2.0276e-14,2.8625e-14,-42.9266,-34.0979,-27.4613,40.8586,5.09407,-36.441,23.0038,7.12502,-9.53532,-6.76041,-2.0276e-14,2.8625e-14,-42.335,11.2115,14.2573,36.1223,8.58721,-31.2498,34.9794,7.12502,-4.52431,64.9111,-13.5294,-0.393636,4.23294,37.5444,-18.3309,-10.2181,26.709,-4.48673,-0.681061,-21.8071,14.8278,-9.51973,4.97645,-26.127
-4.3966,18.014,-12.5302,1.06298,-6.51435,11.5549,5.55004,-1.24153,6.89631,-5.7571,-0.610846,4.64329,-9.30067,-0.576073,1.1754,4.57738,9.63942,17.1979,-0.804435,13.8316,-16.1343,1.37433,7.09379,-7.43464,2.78299e-15,-1.27222e-14,-43.2611,-34.3547,-27.9852,40.3678,5.64398,-34.8567,22.5316,7.12502,-8.00648,-7.29671,2.78299e-15,-1.27222e-14,-43.5997,11.8851,14.6735,36.2138,8.3651,-30.944,34.8407,7.12502,-4.22909,64.7784,-13.8686,-0.638535,4.04612,38.3581,-19.5035,-9.33337,27.8611,-4.37417,-1.10338,-21.5716,14.885,-9.90717,5.36453,-26.6789
-4.46304,17.9464,-12.5301,1.0978,-6.5817,11.634,5.87269,-1.22742,6.79358,-5.77283,-0.579683,4.48315,-9.50722,-0.563857,1.06656,4.1701,9.5952,17.3646,-0.668536,13.7343,-16.3528,1.49265,7.03115,-7.50741,7.55382e-15,-1.90833e-14,-43.8069,-34.5152,-28.5163,39.9835,6.23394,-33.5185,21.6584,7.12502,-6.71477,-8.21513,7.55382e-15,-1.90833e-14,-44.4677,12.7148,15.1069,35.9932,8.17987,-30.7926,34.6882,7.12502,-4.08288,64.6289,-14.2431,-0.884369,4.12274,39.1036,-20.4662,-8.8729,27.5071,-4.56043,-1.52947,-21.1242,15.2546,-10.1873,5.68273,-28.7098
-4.52835,17.872,-12.5341,1.08016,-6.40434,11.4781,6.28284,-1.29994,6.91,-5.87579,-0.622294,4.37001,-9.87264,-0.603969,0.90412,3.64758,9.45271,18.1246,0.0421166,13.5801,-17.0375,1.86233,6.94124,-7.80446,-1.39149e-14,6.99722e-14,-44.4541,-34.2998,-28.7577,39.5865,6.67331,-31.9639,20.8762,7.12502,-5.21385,-9.03966,-1.39149e-14,6.99722e-14,-45.3597,13.224,15.715,35.8133,8.42761,-30.8945,34.4413,7.12502,-4.1813,64.38,-14.3698,-1.35927,4.52923,39.7318,-21.391,-8.8784,25.2638,-4.78275,-2.06783,-20.455,15.8266,-10.494,5.93139,-29.7678
-4.59181,17.8073,-12.5367,1.07249,-6.20049,11.3317,6.68759,-1.38956,7.05228,-6.0008,-0.683742,4.25178,-10.2633,-0.656591,0.726191,4.56578,9.48949,17.8201,-0.819877,13.674,-16.8636,1.44417,7.02245,-7.77041,2.26615e-14,-2.22639e-14,-45.0753,-34.2636,-28.9249,39.1829,7.27983,-29.7883,20.9089,7.12502,-3.11298,-9.04812,2.26615e-14,-2.22639e-14,-46.4445,13.2238,16.4856,35.8503,9.14209,-30.7539,34.0971,7.12502,-4.04552,64.0384,-14.4349,-2.02028,4.98838,40.2141,-22.1688,-9.46246,21.2589,-5.08363,-2.66856,-19.8582,16.5583,-10.8935,6.16496,-30.2212
-4.65792,17.7503,-12.5367,1.05955,-6.09452,11.3378,6.59916,-1.40592,6.91253,-5.77374,-0.755139,4.16604,-9.95503,-0.676117,0.70899,4.54856,9.51765,17.7992,-1.30524,13.67,-17.1946,1.33092,7.02238,-7.88345,-5.56597e-15,3.18055e-15,-45.208,-34.5498,-29.5264,39.01,7.7089,-27.6736,21.0412,7.12502,-1.07064,-8.93583,-5.56597e-15,3.18055e-15,-47.3099,13.8658,17.3868,35.7617,9.42328,-30.2026,33.8298,7.12502,-3.51316,63.7806,-14.4639,-2.47998,5.30491,40.5279,-22.9335,-9.99489,19.6311,-5.50683,-3.28885,-19.4571,17.4815,-11.2845,6.2829,-29.836
-4.71829,17.6902,-12.5351,1.00233,-5.82089,11.2855,6.82338,-1.44785,6.81125,-5.75987,-0.807377,4.08025,-10.0738,-0.699194,0.687447,4.46225,9.43848,17.7272,-1.36567,13.5397,-17.2765,1.30613,6.95489,-7.90491,-1.82882e-14,4.13472e-14,-45.5203,-34.4981,-29.9209,38.8719,8.26132,-26.0668,20.3717,7.12502,0.481242,-9.60749,-1.82882e-14,4.13472e-14,-47.9907,14.3221,18.4199,35.4404,9.40516,-29.5938,33.8008,7.12502,-2.9252,63.7605,-14.3098,-3.06206,5.64004,40.6843,-23.8433,-10.239,20.0084,-5.96099,-3.85857,-19.0534,18.5279,-11.665,6.10807,-28.9957
-4.77807,17.6298,-12.533,1.07173,-5.52522,10.8652,7.22899,-1.45826,6.98493,-5.95725,-0.744171,4.07335,-10.5425,-0.691679,0.595994,4.5395,9.32193,17.7106,-1.30023,13.3952,-17.2044,1.27982,6.8853,-7.89377,6.75868e-15,-3.49861e-14,-46.1335,-34.345,-29.9098,38.6923,8.73893,-24.282,19.5249,7.12502,2.20505,-10.4435,6.75868e-15,-3.49861e-14,-48.523,14.37,19.6817,35.044,9.37628,-29.3896,34.1196,7.12502,-2.728,64.0819,-14.1991,-3.6146,6.40959,40.7026,-24.7372,-10.7059,19.5898,-6.58726,-4.19144,-18.2936,19.6659,-12.1584,5.88158,-28.5796
-4.84232,17.5809,-12.534,1.277,-5.36316,10.3308,6.70459,-1.4813,7.461,-5.59807,-0.81743,3.91084,-9.84491,-0.749038,0.137064,4.34547,9.39538,17.8846,-1.78518,13.4249,-17.2843,1.19609,6.88928,-7.94414,-5.1684e-15,-9.54166e-15,-46.2128,-35.2196,-30.4175,38.4558,9.39534,-21.9238,19.3253,7.12502,4.48238,-10.6073,-5.1684e-15,-9.54166e-15,-48.6643,15.3818,20.5132,34.566,8.94544,-29.286,34.4418,7.12502,-2.62793,64.4053,-14.2317,-3.95401,7.3488,40.6216,-25.5304,-11.1427,19.5637,-7.40489,-4.34628,-17.4383,20.8784,-12.7994,5.58536,-27.2489
-4.89935,17.5493,-12.5362,1.51446,-5.19477,9.79179,6.61151,-1.48498,7.82298,-5.58232,-0.792741,3.91971,-9.7822,-0.759732,-0.0603879,4.33309,9.38626,17.976,-1.97001,13.4023,-17.5701,1.16954,6.88085,-8.05484,-1.59028e-15,-9.54166e-15,-46.3871,-35.4142,-30.5075,38.2316,10.0993,-19.8246,19.3628,7.12502,6.50914,-10.5171,-1.59028e-15,-9.54166e-15,-49.1556,16.1283,21.3438,34.1131,8.47386,-28.9666,34.5078,7.12502,-2.31945,64.4749,-14.3181,-4.34723,8.21229,40.5316,-26.2605,-11.1019,20.3411,-8.27336,-4.4535,-16.6803,22.1206,-13.3094,5.14537,-25.5766
-4.94839,17.5237,-12.5334,1.67688,-4.97726,9.40163,6.80164,-1.41615,7.94298,-5.75322,-0.647979,3.95965,-10.0817,-0.706313,-0.0933223,4.25019,9.24944,18.0858,-1.75726,13.2372,-17.9361,1.24998,6.80108,-8.19143,-5.1684e-15,4.13472e-14,-46.7256,-34.563,-30.5203,38.3943,9.90671,-18.2747,18.8355,7.12502,8.00521,-10.9929,-5.1684e-15,4.13472e-14,-49.5707,16.5181,22.4357,33.5865,8.21719,-28.7259,34.1655,7.12502,-2.08701,64.135,-14.3237,-4.78081,8.80726,40.5247,-26.8382,-10.7472,21.072,-9.02851,-4.64147,-16.2058,23.3483,-13.5775,5.08157,-26.061
-4.99416,17.4993,-12.5317,1.84743,-4.867,9.21305,6.89159,-1.30886,7.88773,-5.88139,-0.496074,3.89136,-10.2684,-0.638993,-0.152941,4.00661,9.18744,18.0056,-1.41418,13.145,-17.9507,1.36757,6.74541,-8.16816,-2.66371e-14,4.13472e-14,-46.9679,-34.3168,-30.3651,38.4028,10.1132,-16.3946,18.2399,7.12502,9.81948,-11.5111,-2.66371e-14,4.13472e-14,-49.8382,17.2402,23.2616,32.7785,7.4215,-28.2518,33.2418,7.12502,-1.62908,63.2154,-14.4454,-5.10571,9.14579,40.6351,-27.1273,-10.494,21.2426,-9.74541,-4.72833,-16.0247,24.5301,-13.8001,5.4223,-28.2121
-5.04068,17.4811,-12.5327,2.12005,-4.92655,8.72925,6.80962,-1.21777,8.16279,-5.90921,-0.353738,3.84811,-10.2485,-0.592332,-0.375018,3.75342,9.21786,17.9492,-1.26192,13.1588,-17.9454,1.45173,6.74081,-8.13797,1.33186e-14,-6.67916e-14,-46.9892,-35.6482,-29.7573,37.668,12.0547,-14.2821,17.8559,7.12502,11.8571,-11.7884,1.33186e-14,-6.67916e-14,-50.1446,18.2188,23.7316,31.9429,6.67716,-27.5458,32.4325,7.12502,-0.947234,62.4101,-14.829,-5.23539,9.85308,40.8071,-27.1927,-10.4101,21.1991,-10.5529,-4.43734,-15.5489,25.6961,-14.1116,5.46225,-29.0913
-5.08448,17.4705,-12.5283,2.3418,-4.97776,8.22786,6.71079,-1.12688,8.45912,-5.88837,-0.218784,3.76989,-10.1633,-0.549433,-0.64714,3.52854,9.24209,18.0795,-1.26178,13.165,-18.1019,1.51119,6.73456,-8.19481,1.82882e-14,-3.18055e-14,-47.0222,-36.6122,-29.2527,37.0792,13.708,-12.5205,17.3181,7.12502,13.5554,-12.2206,1.82882e-14,-3.18055e-14,-50.3549,19.1123,24.0914,31.1969,6.39578,-26.9171,31.9953,7.12502,-0.339977,61.9748,-15.1562,-5.57489,10.5686,40.9581,-27.1151,-10.2539,20.6699,-11.2754,-3.99866,-15.1281,26.8485,-14.5039,5.21368,-28.0126
-5.12104,17.4679,-12.5175,2.39952,-4.89646,8.03988,6.70989,-1.07962,8.45992,-5.93169,-0.164275,3.6319,-10.207,-0.531471,-0.803433,3.26924,9.24612,18.192,-0.969493,13.167,-18.2067,1.65414,6.72432,-8.22427,1.66979e-14,-4.13472e-14,-46.9497,-36.4157,-29.1195,37.006,14.1577,-10.9019,17.1903,7.12502,15.115,-12.2377,1.66979e-14,-4.13472e-14,-50.711,20.1914,24.0661,30.4194,5.42415,-26.2571,31.2831,7.12502,0.297473,61.2626,-15.1728,-6.26699,10.8654,41.0156,-26.9963,-9.96073,19.5573,-11.7784,-3.74549,-15.1744,27.9393,-14.9084,4.97328,-26.1123
-5.15951,17.4724,-12.5036,2.43728,-4.85489,7.79532,6.60387,-1.06114,8.36098,-5.94897,-0.1637,3.61534,-10.16,-0.524025,-0.768344,3.14609,9.24539,18.2639,-0.654684,13.1917,-18.4538,1.79325,6.73321,-8.29945,-1.17283e-14,-3.49861e-14,-46.4792,-35.9622,-29.1757,36.9744,14.3295,-9.09864,17.5912,7.12502,16.8515,-11.6976,-1.17283e-14,-3.49861e-14,-51.226,20.8088,24.3392,29.8786,4.96874,-26.26,31.1678,7.12502,0.294672,61.1473,-15.0675,-6.65794,11.2354,40.9218,-26.9549,-9.55509,20.2681,-12.1838,-3.57123,-15.2181,28.9204,-15.3817,4.79782,-24.7711
-5.20188,17.4792,-12.4892,2.59182,-4.90937,7.46196,6.42955,-1.02132,8.28457,-6.01173,-0.135211,3.61376,-10.1215,-0.505447,-0.73354,3.43624,9.23513,18.3157,-0.765788,13.2266,-18.8025,1.74979,6.76778,-8.43693,-4.96962e-15,-9.54166e-15,-46.0223,-35.9667,-28.9316,36.666,15.1831,-6.93441,18.0468,7.12502,18.9339,-11.0517,-4.96962e-15,-9.54166e-15,-51.626,20.6546,25.042,29.5904,5.70051,-26.5608,31.8415,7.12502,0.00411391,61.8212,-15.0466,-6.8692,11.7474,40.6767,-26.7778,-9.33595,21.2075,-12.6303,-3.15743,-15.1983,29.7659,-15.7049,4.68421,-24.6733
-5.24066,17.4898,-12.474,2.72098,-4.87276,7.064,6.63837,-0.969576,8.47906,-6.35447,-0.00601768,3.45791,-10.6283,-0.48626,-1.01352,3.69193,9.15769,18.3051,-0.495378,13.1878,-18.7246,1.77,6.75942,-8.42297,-5.84427e-14,8.26944e-14,-46.216,-36.2437,-28.1008,36.2784,16.7299,-4.94298,18.266,7.12502,20.8482,-10.6338,-5.84427e-14,8.26944e-14,-51.9292,20.0968,25.4414,29.3807,6.32801,-26.4947,32.3733,7.12502,0.0679392,62.353,-14.8978,-7.3362,12.3159,40.2872,-26.4938,-9.29183,19.7711,-13.0242,-2.59919,-15.1734,30.4925,-15.9018,4.45921,-24.9898
-5.27384,17.5025,-12.4543,2.77791,-4.81794,6.74156,6.81363,-0.882269,8.58781,-6.64539,0.152619,3.29429,-11.0535,-0.445471,-1.26404,3.72067,9.05631,18.0686,-0.123693,13.0707,-18.3702,1.80672,6.69863,-8.27494,2.78299e-15,1.59028e-14,-46.251,-35.8962,-27.6065,36.2566,17.5147,-2.99512,18.2799,7.12502,22.7186,-10.4026,2.78299e-15,1.59028e-14,-52.1103,19.9049,25.606,29.1361,6.40886,-26.6632,32.7749,7.12502,-0.0948307,62.7546,-14.5796,-7.76302,12.7407,39.7524,-26.3552,-8.61293,19.7356,-13.2731,-2.0787,-15.325,31.1378,-16.3203,4.53642,-26.9382
-5.30729,17.5161,-12.428,2.88824,-4.77946,6.42493,6.57719,-0.795437,8.52255,-6.65441,0.229192,3.24765,-10.9111,-0.401952,-1.29409,3.4897,9.0313,17.8005,-0.123394,12.9882,-18.352,1.81095,6.64603,-8.22026,1.11319e-14,-1.59028e-14,-45.734,-35.0438,-27.7579,36.7006,17.3254,-0.409769,18.5565,7.12502,25.1978,-9.80011,1.11319e-14,-1.59028e-14,-52.1978,20.4916,25.4938,28.7955,6.16202,-26.8973,32.777,7.12502,-0.320882,62.7565,-14.2272,-8.05863,13.157,39.1022,-26.0636,-7.93279,21.1274,-13.4618,-1.47754,-15.5591,31.701,-16.6098,4.96948,-30.656
-5.34404,17.5428,-12.3993,3.06004,-4.6959,5.94865,6.2158,-0.752669,8.62794,-6.61434,0.24839,3.21097,-10.6462,-0.393598,-1.40064,3.08305,9.0856,17.6979,-0.0112724,13.0164,-18.5493,1.9244,6.64123,-8.24005,-1.70955e-14,2.22639e-14,-45.2018,-34.6805,-27.7783,37.0766,17.5768,2.19974,19.0086,7.12502,27.6956,-8.97208,-1.70955e-14,2.22639e-14,-52.2748,21.3372,24.9508,28.5612,5.95901,-26.8089,32.9487,7.12502,-0.23555,62.9283,-13.8753,-8.22987,13.7935,38.4313,-25.621,-7.92,20.8946,-13.7006,-0.811546,-15.6313,32.1384,-16.7115,4.72714,-29.6403
-5.38163,17.577,-12.3734,3.18619,-4.68237,5.77374,5.91117,-0.682826,8.45116,-6.66696,0.274929,3.04658,-10.5138,-0.372414,-1.48665,3.03813,9.11474,17.6326,0.0684441,13.0608,-18.6607,1.96697,6.66098,-8.25795,-6.36111e-15,1.90833e-14,-44.7805,-34.6151,-27.4917,37.1588,18.2209,4.1069,19.1921,7.12502,29.5178,-8.48146,-6.36111e-15,1.90833e-14,-52.3389,21.7332,24.4323,28.5726,6.00026,-26.5762,33.3041,7.12502,-0.0107437,63.2839,-13.5286,-8.26567,14.071,37.8234,-25.3672,-7.42661,21.741,-13.9218,-0.219441,-16.0471,32.4383,-16.923,4.16679,-24.6636
-5.41944,17.6056,-12.3475,3.30346,-4.78021,5.75372,5.64225,-0.551219,8.02221,-6.75478,0.365649,2.87875,-10.4324,-0.30376,-1.44438,3.01245,9.11269,17.5264,0.174407,13.0666,-18.7531,2.00246,6.66214,-8.26723,8.74653e-15,2.54444e-14,-44.3749,-34.3469,-27.1307,37.2336,18.542,5.40562,19.7817,7.12502,30.7568,-7.66589,8.74653e-15,2.54444e-14,-52.3699,21.831,24.0637,28.6726,6.05054,-26.4501,33.3528,7.12502,0.110988,63.3325,-13.2741,-8.2684,14.1832,37.2449,-25.0344,-6.88003,22.8732,-14.0691,0.549656,-16.6873,32.6553,-17.1096,4.4975,-26.3072
-5.45542,17.6349,-12.3191,3.41049,-4.82803,5.54157,5.41502,-0.428784,7.78369,-6.84699,0.475666,2.75922,-10.3842,-0.238845,-1.45659,2.78652,9.08255,17.4369,0.424339,13.022,-18.8565,2.10538,6.6275,-8.27324,-3.97569e-16,3.02153e-14,-43.9811,-34.1294,-26.7699,37.3747,18.8849,6.461,20.1383,7.12502,31.7625,-7.115,-3.97569e-16,3.02153e-14,-52.3254,22.0498,23.5593,28.7347,5.78486,-26.5992,33.7123,7.12502,-0.0329803,63.692,-13.0412,-8.32959,14.5382,36.6716,-24.4368,-7.02624,22.1338,-14.133,1.53247,-17.156,32.8193,-17.3176,4.95951,-30.8531
-5.48673,17.67,-12.2883,3.44484,-4.68384,5.01866,5.27922,-0.377613,8.00351,-6.96941,0.550018,2.63813,-10.4357,-0.229634,-1.71723,2.66487,9.00104,17.3969,0.63597,12.9181,-18.9289,2.16971,6.56819,-8.28925,-1.19271e-14,-1.11319e-14,-43.7052,-34.1432,-26.41,37.6562,19.3752,7.4584,19.3469,7.12502,32.7119,-7.71363,-1.19271e-14,-1.11319e-14,-52.1374,22.1291,22.9477,28.8015,5.58741,-27.0553,34.0412,7.12502,-0.473519,64.0204,-12.6079,-8.51032,15.205,36.0968,-23.9048,-7.14387,21.5676,-14.1392,2.37383,-17.2748,32.9474,-17.7094,4.49842,-30.5209
-5.51692,17.7105,-12.2561,3.52025,-4.48819,4.42342,5.08364,-0.369885,8.30274,-7.0918,0.569469,2.54629,-10.4578,-0.251097,-1.98259,2.55973,8.99031,17.2541,0.845898,12.9116,-18.9857,2.24095,6.55741,-8.2763,3.97569e-15,4.77083e-15,-43.3173,-34.1673,-26.1499,37.9635,19.6291,8.07346,19.1154,7.12502,33.2969,-7.82169,3.97569e-15,4.77083e-15,-52.0016,21.9511,22.4261,29.1663,5.85964,-27.6091,34.1694,7.12502,-1.00838,64.1468,-12.1524,-8.70189,15.9335,35.4793,-23.3597,-7.10668,21.5167,-14.2632,3.19682,-17.3325,33.0807,-18.0186,3.73432,-27.7174
-5.54926,17.7508,-12.2208,3.60706,-4.41494,4.20912,4.78756,-0.316551,8.10602,-7.18154,0.58236,2.41044,-10.3742,-0.235509,-2.02091,2.41982,9.01534,17.2198,1.07659,12.9671,-19.2539,2.3585,6.57581,-8.34234,1.90833e-14,-3.49861e-14,-42.7537,-33.0244,-26.4547,38.6279,18.634,7.88456,18.3937,7.12502,33.1173,-8.5817,1.90833e-14,-3.49861e-14,-51.8284,21.5039,22.2112,29.793,6.38564,-28.1879,34.546,7.12502,-1.56739,64.52,-11.7765,-8.84383,16.2214,34.8389,-22.6449,-6.81571,21.7372,-14.3961,4.23054,-17.8607,33.205,-18.1055,3.33943,-27.2798
-5.57895,17.7879,-12.1845,3.69322,-4.33211,4.12034,4.3727,-0.240249,7.86037,-7.22738,0.600153,2.19229,-10.1672,-0.212612,-2.12163,2.48597,8.9114,17.3311,1.01155,12.8528,-19.7501,2.35114,6.52333,-8.53842,-2.38542e-15,4.6118e-14,-42.2919,-31.869,-26.6707,39.2848,17.6464,7.19435,17.0801,7.12502,32.4607,-10.0324,-2.38542e-15,4.6118e-14,-51.4238,21.1133,21.9873,30.2493,6.69349,-28.7638,34.794,7.12502,-2.12356,64.7632,-11.4504,-9.02387,16.343,34.2774,-21.9569,-6.25629,22.2449,-14.4908,5.23763,-18.5387,33.2704,-18.1499,3.09642,-29.0506
-5.6035,17.8325,-12.1552,3.88593,-4.34976,3.90982,3.80947,-0.15742,7.89857,-7.1922,0.629015,1.91396,-9.78285,-0.200752,-2.44528,2.54624,8.81669,17.3194,0.675784,12.7021,-20.0988,2.24125,6.4544,-8.67326,-1.19271e-14,1.59028e-15,-41.7526,-32.6765,-26.2379,39.081,18.4138,6.56452,17.3045,7.12502,31.8611,-9.92921,-1.19271e-14,1.59028e-15,-50.9592,21.334,21.2528,30.5731,6.53164,-29.1573,34.7445,7.12502,-2.50367,64.7096,-11.3346,-9.1855,16.5837,33.7888,-21.0312,-5.86206,22.0582,-14.7031,6.23224,-19.0985,33.2791,-18.3681,2.75007,-29.9013
-5.62876,17.8795,-12.129,4.08081,-4.41389,3.51328,3.48226,-0.0367459,7.90987,-7.29436,0.756815,1.82694,-9.68662,-0.142582,-2.55779,2.41831,8.75905,17.0955,0.706315,12.6086,-20.2439,2.24951,6.39956,-8.68562,-5.56597e-15,0,-41.2769,-33.3444,-25.5952,38.8871,19.1036,5.69836,16.745,7.12502,31.0358,-10.6496,-5.56597e-15,0,-50.6342,21.5857,20.5572,31.0081,6.37887,-29.5245,34.5507,7.12502,-2.85822,64.5113,-11.2536,-9.22192,17.0247,33.3137,-20.006,-5.61102,21.7798,-14.9031,7.29687,-19.479,33.3077,-18.4876,2.9124,-32.4434
-5.65567,17.9253,-12.0945,4.16607,-4.10798,3.06847,3.16089,-0.0259894,7.93747,-7.41639,0.746745,1.81417,-9.63222,-0.150929,-2.58293,2.46867,8.64935,16.7975,0.737739,12.4715,-20.4736,2.22035,6.33246,-8.72735,3.37934e-15,1.59028e-15,-40.7011,-33.5443,-25.1729,38.9505,19.4063,4.34642,16.1099,7.12502,29.7464,-11.523,3.37934e-15,1.59028e-15,-50.2659,21.261,20.2991,31.6026,6.94575,-30.0221,34.7343,7.12502,-3.33884,64.6879,-10.9525,-9.43009,17.541,32.8975,-19.1918,-5.66514,20.7082,-14.9863,7.99359,-19.7256,33.3357,-18.4426,2.79139,-32.3185
-5.67856,17.9657,-12.0585,4.30669,-3.74099,2.63715,2.78105,-0.0591059,8.01661,-7.53973,0.672682,1.76714,-9.55177,-0.194984,-2.66616,2.46401,8.5389,16.6855,0.814761,12.3472,-20.917,2.24328,6.2689,-8.86635,-1.23246e-14,1.74931e-14,-39.9979,-33.7493,-24.8997,38.9874,19.8073,2.77247,17.6171,7.12502,28.2431,-10.2743,-1.23246e-14,1.74931e-14,-49.8905,20.4728,20.2517,32.3615,7.74036,-30.553,35.6223,7.12502,-3.8515,65.5673,-10.7041,-9.79432,18.0331,32.6002,-18.4576,-5.60587,19.6957,-15.1222,8.47731,-19.9534,33.2563,-18.5196,2.40282,-29.7092
-5.7034,17.9999,-12.0302,4.52668,-3.5023,2.37216,2.37004,-0.0181382,7.86668,-7.63607,0.670393,1.64833,-9.41064,-0.187543,-2.70731,2.01407,8.48384,16.7109,1.23989,12.2918,-21.3156,2.46037,6.2092,-8.98093,1.59028e-15,-3.18055e-15,-39.5149,-33.1977,-24.828,39.3658,19.3471,1.05065,18.251,7.12502,26.5963,-9.9013,1.59028e-15,-3.18055e-15,-49.3818,19.8746,20.1665,33.178,8.0564,-30.932,36.2449,7.12502,-4.21751,66.1829,-10.6137,-9.9194,18.3309,32.3851,-17.9737,-4.89872,22.5856,-15.3691,9.0681,-20.3957,33.1046,-18.6617,2.81647,-31.0691
-5.73479,18.044,-12,4.65724,-3.1762,2.43817,1.9466,0.00457906,7.29172,-7.67456,0.606395,1.45484,-9.19761,-0.178448,-2.58616,1.7204,8.44026,16.6155,1.45838,12.2372,-21.5895,2.57559,6.15987,-9.04513,5.96354e-15,9.54166e-15,-39.1218,-32.5682,-24.8136,39.8786,18.6261,-0.382087,17.4523,7.12502,25.2243,-10.9005,5.96354e-15,9.54166e-15,-48.7194,19.4569,20.0442,33.8458,8.39221,-31.2781,36.185,7.12502,-4.55164,66.1161,-10.5183,-9.96326,18.2832,32.2553,-17.5488,-4.29428,25.868,-15.5261,9.52202,-21.1167,32.9104,-18.666,2.92049,-29.9243
-5.76656,18.0835,-11.969,4.71054,-2.84286,2.2602,1.59121,-0.0204224,6.90067,-7.64832,0.50965,1.40548,-8.9607,-0.19113,-2.41127,1.66694,8.40233,16.2845,1.28032,12.1601,-21.8513,2.51658,6.11823,-9.08362,2.18663e-15,-3.02153e-14,-38.4938,-32.3219,-24.7724,40.2486,18.1868,-1.4482,17.1561,7.12502,24.2025,-11.3367,2.18663e-15,-3.02153e-14,-48.1016,19.247,19.8856,34.3479,8.85035,-31.7563,35.9503,7.12502,-5.01345,65.871,-10.4296,-10.0176,18.5306,32.216,-16.9808,-4.22693,26.5239,-15.547,9.99527,-21.5097,32.685,-18.4175,2.87147,-27.5252
-5.79394,18.1053,-11.945,4.75065,-2.56066,2.06346,1.35208,-0.0625498,6.56333,-7.6441,0.40884,1.37161,-8.81853,-0.213244,-2.25011,1.47395,8.38583,16.0796,1.25075,12.1302,-22.2873,2.55396,6.0894,-9.18995,-1.21259e-14,1.90833e-14,-37.817,-32.0086,-24.801,40.5957,17.9049,-2.75176,17.4479,7.12502,22.9522,-11.2058,-1.21259e-14,1.90833e-14,-47.5669,19.2311,19.6271,34.8347,9.08364,-32.3401,35.7767,7.12502,-5.57711,65.6833,-10.3884,-10.1811,18.7741,32.1583,-16.3123,-4.15028,27.2521,-15.5826,10.4479,-21.8869,32.5092,-18.1656,3.65658,-28.4576
-5.81834,18.1269,-11.9254,4.8622,-2.22005,1.89565,1.16353,-0.090213,6.29075,-7.76277,0.334257,1.21342,-8.84026,-0.239903,-2.25854,1.23599,8.30011,16.3081,1.53515,12.0642,-22.8876,2.72023,6.03475,-9.42721,-2.5842e-15,9.54166e-15,-37.4326,-31.2709,-24.9524,40.995,17.5716,-4.64195,17.5169,7.12502,21.1374,-11.3509,-2.5842e-15,9.54166e-15,-46.8574,18.8174,19.4161,35.2977,9.52589,-32.8583,35.7386,7.12502,-6.07744,65.6314,-10.3901,-10.6031,18.9655,32.0229,-15.5693,-3.93674,27.5831,-15.792,10.6473,-22.2606,32.4596,-18.2185,4.42144,-28.5863
-5.84654,18.1532,-11.9032,5.03972,-1.81386,1.34026,0.741938,-0.12144,6.28564,-7.73531,0.257363,1.21903,-8.56724,-0.268605,-2.24342,0.690568,8.21759,16.4136,1.85496,11.9647,-23.396,2.92918,5.94195,-9.60305,7.95139e-15,-3.26007e-14,-36.9013,-30.6948,-25.1844,41.3142,17.0559,-7.10746,17.2091,7.12502,18.7675,-11.9056,7.95139e-15,-3.26007e-14,-46.0684,18.4654,19.3863,35.7458,10.1353,-33.4375,35.9019,7.12502,-6.63655,65.7779,-10.3529,-10.9769,19.6353,31.8448,-14.9098,-3.96298,26.0792,-16.1174,10.8866,-22.1579,32.4736,-18.3725,4.79852,-28.9611
-5.88004,18.1683,-11.8767,5.14256,-1.39511,0.891274,0.3311,-0.219165,6.08887,-7.65231,0.0839633,1.27944,-8.24516,-0.32712,-2.05793,0.720714,8.2817,15.946,1.45735,11.9925,-23.4433,2.79148,5.96239,-9.53803,-4.96962e-15,-7.15625e-15,-36.1963,-30.6062,-25.368,41.4424,16.9005,-9.71513,17.0073,7.12502,16.258,-12.331,-4.96962e-15,-7.15625e-15,-45.4627,18.3186,19.2723,36.1073,10.4551,-34.1195,35.997,7.12502,-7.29492,65.8513,-10.2219,-11.2236,20.1977,31.6879,-14.5189,-3.97156,25.0556,-16.3794,11.139,-22.1007,32.4295,-18.7011,5.5563,-29.7253
-5.91065,18.1757,-11.8562,5.13429,-0.859577,0.675867,0.517198,-0.311588,5.81935,-7.90832,-0.0355259,1.1579,-8.64237,-0.386669,-2.02368,0.842019,8.16041,15.7177,1.47371,11.8426,-23.5307,2.73521,5.89214,-9.54895,1.19271e-15,-1.66979e-14,-36.2314,-30.1458,-25.1858,41.665,16.9326,-12.115,17.17,7.12502,13.9461,-12.3422,1.19271e-15,-1.66979e-14,-44.7453,17.4588,19.2284,36.3904,10.964,-34.5945,36.037,7.12502,-7.75335,65.8749,-10.0271,-11.5893,20.463,31.59,-14.2948,-3.83587,24.3283,-16.5935,11.2272,-22.243,32.3317,-19.1714,6.41858,-30.0016
-5.9363,18.1867,-11.8366,5.105,-0.333408,0.667808,0.651879,-0.369395,5.3827,-8.06713,-0.136272,0.925792,-8.89791,-0.423256,-2.01578,0.733375,7.9924,15.7971,1.66504,11.6477,-23.8763,2.79704,5.78171,-9.69606,1.19271e-14,-5.56597e-15,-36.3219,-29.6817,-25.1441,41.9471,16.5788,-14.3803,17.2368,7.12502,11.7624,-12.413,1.19271e-14,-5.56597e-15,-43.82,16.7412,19.2512,36.6798,11.4459,-34.7552,35.9167,7.12502,-7.90848,65.7488,-9.84775,-12.0093,20.4621,31.5583,-13.9442,-3.79216,21.8533,-16.7472,11.2675,-22.5963,32.1907,-19.4983,6.81917,-30.3835
-5.96568,18.1889,-11.8134,5.11436,0.102074,0.566731,0.36379,-0.443358,4.94293,-7.96036,-0.29359,0.752961,-8.61281,-0.467846,-1.94367,0.792632,7.92693,15.8129,1.36951,11.5302,-24.2004,2.70305,5.7334,-9.82717,6.36111e-15,3.18055e-15,-36.0321,-29.5888,-25.4507,42.1814,16.0284,-16.7405,17.0134,7.12502,9.48578,-12.7531,6.36111e-15,3.18055e-15,-42.9409,16.4244,19.2377,36.9592,11.5684,-34.5367,35.3958,7.12502,-7.69759,65.2357,-9.73851,-12.0474,20.6051,31.5453,-13.6533,-3.81638,20.5174,-16.8812,11.2879,-22.7924,32.028,-19.8482,6.96617,-30.183
-5.99723,18.1814,-11.7946,5.11925,0.662744,0.177565,0.171104,-0.542088,4.79935,-7.89909,-0.452868,0.660948,-8.44092,-0.535004,-1.95065,0.813788,7.82225,15.7237,1.14761,11.3596,-24.4623,2.61409,5.65439,-9.92107,3.08116e-15,3.57812e-15,-36.0152,-29.5516,-25.6297,42.5107,15.4776,-19.2783,17.2789,7.12502,7.03653,-12.5841,3.08116e-15,3.57812e-15,-42.1062,15.9482,19.2324,37.03,11.2267,-34.0332,34.4852,7.12502,-7.21159,64.3424,-9.60089,-12.0367,21.107,31.5128,-13.6449,-3.70806,21.661,-17.103,11.2408,-22.6006,31.8979,-19.9342,6.55864,-28.5137
-6.02377,18.1773,-11.7774,5.12781,1.29556,-0.09132,0.173298,-0.665671,4.57201,-7.97343,-0.63431,0.550976,-8.53293,-0.615499,-1.92521,0.615419,7.70699,15.6885,1.36009,11.2295,-24.7697,2.70018,5.56839,-10.0261,4.17448e-15,3.97569e-15,-36.1652,-29.5451,-25.6336,42.7548,15.2437,-21.703,17.9138,7.12502,4.69555,-12.0141,4.17448e-15,3.97569e-15,-41.4576,15.3661,19.2316,37.101,10.7515,-33.85,33.6721,7.12502,-7.0348,63.5352,-9.40927,-12.4464,21.4332,31.4389,-13.7538,-3.34374,23.0859,-17.4211,11.1159,-22.5114,31.8243,-19.6937,6.44029,-27.4133
-6.04705,18.1594,-11.7585,5.10223,1.84249,-0.379456,0.266721,-0.821105,4.34249,-8.09305,-0.848552,0.507638,-8.72932,-0.71142,-1.82333,0.729008,7.65057,15.4789,1.38487,11.1744,-24.9198,2.67251,5.54423,-10.0524,5.56597e-15,3.97569e-15,-36.1068,-29.6037,-25.6915,42.8328,15.5712,-24.282,18.0289,7.12502,2.20503,-11.9395,5.56597e-15,3.97569e-15,-41.1449,14.5956,19.4428,37.5385,11.2067,-34.4721,33.8772,7.12502,-7.63525,63.7193,-9.21778,-12.9037,21.7772,31.338,-13.8097,-3.09789,23.2843,-17.685,10.8906,-22.3689,31.7559,-19.7088,7.14079,-29.6046
-6.07256,18.1322,-11.7391,5.00076,2.34556,-0.692134,0.370669,-0.963049,4.05825,-8.08989,-1.04749,0.516848,-8.79108,-0.788764,-1.63724,0.735414,7.5931,15.2186,1.28566,11.086,-25.129,2.62344,5.50023,-10.0886,2.51463e-14,-1.51076e-14,-35.9105,-29.9981,-25.7819,42.7953,16.092,-26.9739,18.0192,7.12502,-0.394891,-11.9602,2.51463e-14,-1.51076e-14,-40.7836,14.4173,19.6317,37.7893,11.4506,-34.8122,34.2766,7.12502,-7.96351,64.1065,-9.01363,-13.2333,22.185,31.3381,-13.8543,-3.18896,22.0181,-17.8165,10.6556,-22.1397,31.6053,-19.8806,7.39281,-31.0316
-6.10028,18.1228,-11.7182,4.97635,2.80903,-0.707018,0.382524,-1.03681,3.45703,-8.0412,-1.18656,0.394271,-8.7352,-0.81701,-1.42061,0.40737,7.49507,15.2299,1.37106,10.9517,-25.5216,2.70488,5.40688,-10.2286,-5.96354e-16,4.96962e-15,-35.9437,-30.4028,-25.8862,42.8966,16.3519,-29.1,17.7242,7.12502,-2.44826,-12.2415,-5.96354e-16,4.96962e-15,-40.26,14.7196,19.7353,37.8358,10.9632,-35.0252,34.4956,7.12502,-8.16913,64.3177,-8.92924,-13.4332,22.2944,31.4765,-14.0148,-3.32528,20.6427,-17.9858,10.4493,-22.2033,31.3727,-19.7805,7.12147,-28.974
-6.12412,18.0995,-11.7034,4.96026,3.20326,-0.681426,0.429596,-1.1395,2.95602,-8.01326,-1.36463,0.178745,-8.73003,-0.877118,-1.35356,0.338947,7.4836,15.1078,1.26591,10.9118,-25.6123,2.67841,5.38383,-10.2394,4.12478e-15,3.97569e-16,-36.0155,-29.4503,-26.7132,43.4359,15.1954,-31.1737,16.7833,7.12502,-4.45086,-13.1499,4.12478e-15,3.97569e-16,-39.9697,14.7449,19.7888,38.1085,10.8614,-35.8797,34.7366,7.12502,-8.99375,64.5249,-8.87981,-13.506,22.3692,31.6122,-14.2828,-3.398,19.8021,-18.1136,10.2773,-22.3235,31.1447,-19.3128,7.59659,-28.8314
-6.14107,18.06,-11.6922,4.86997,3.61413,-0.867371,0.589334,-1.30046,2.7829,-7.99569,-1.59751,0.0116811,-8.81559,-0.986906,-1.41062,0.579335,7.49883,14.8462,0.902346,10.8843,-25.5911,2.51136,5.3962,-10.1977,3.88935e-14,7.25564e-15,-36.1258,-27.3583,-27.9165,44.0862,13.193,-33.3136,16.8352,7.12502,-6.51696,-13.0445,3.88935e-14,7.25564e-15,-39.9609,14.6114,19.7822,38.5139,11.115,-36.3773,34.6331,7.12502,-9.47384,64.4001,-8.74522,-13.7552,22.6717,31.71,-14.635,-3.57632,19.3127,-18.2188,10.1668,-22.2005,30.9802,-18.7199,7.83746,-28.4733
-6.1573,18.0369,-11.6729,4.72595,3.99784,-1.16762,0.802504,-1.37803,2.65506,-8.00672,-1.70678,-0.052974,-8.95656,-1.03519,-1.39284,0.721455,7.39965,14.713,0.780164,10.752,-25.9257,2.43817,5.34207,-10.3122,-1.58841e-14,2.70844e-15,-36.4576,-25.3826,-28.6719,44.4858,11.4443,-35.1742,17.8371,7.12502,-8.31294,-11.9794,-1.58841e-14,2.70844e-15,-40.0407,14.3128,20.1347,39.071,11.4768,-36.536,34.8619,7.12502,-9.62702,64.6219,-8.51657,-14.0957,23.106,31.7978,-15.1617,-3.88656,19.4988,-18.3825,9.88815,-21.8512,30.9287,-18.2517,7.11938,-22.3589
-6.17495,18.002,-11.651,4.59394,4.25555,-1.56871,0.962922,-1.35889,2.59268,-7.99185,-1.68274,-0.0940277,-9.03292,-1.02074,-1.39995,0.597291,7.31127,14.6277,0.892077,10.6582,-26.3188,2.4927,5.2805,-10.4414,-3.12837e-14,8.44835e-15,-36.7342,-23.2262,-29.5807,44.8519,9.30235,-37.1738,17.7522,7.12502,-10.2423,-11.9785,-3.12837e-14,8.44835e-15,-40.0036,14.2639,20.6103,39.4857,11.4625,-36.3141,35.1504,7.12502,-9.41288,64.9202,-8.30136,-14.3389,23.6555,31.8882,-15.8791,-4.0382,20.0713,-18.5522,9.66382,-21.3952,31.0053,-17.4849,6.96656,-17.3502
-6.1896,17.9558,-11.6331,4.57779,4.5003,-2.00454,0.965561,-1.36745,2.66032,-7.90335,-1.69879,-0.197844,-8.94388,-1.03625,-1.54741,0.365612,7.25009,14.6747,0.832676,10.5566,-26.6704,2.52275,5.21519,-10.5769,-3.67255e-14,-4.57205e-15,-36.7257,-31.183,-27.629,43.0596,16.6504,-37.4061,19.5791,7.12502,-10.4664,-10.1404,-3.67255e-14,-4.57205e-15,-39.8663,14.7229,20.8647,39.619,11.3157,-36.0401,34.9508,7.12502,-9.14846,64.7324,-8.28932,-14.5486,24.27,32.0626,-16.6586,-4.18654,19.3402,-18.8318,9.67621,-20.9854,31.191,-16.6245,7.34505,-16.5507
-6.20469,17.9162,-11.6218,4.55506,4.73565,-2.21487,1.11269,-1.39652,2.46431,-7.86395,-1.75541,-0.328339,-8.98724,-1.05524,-1.56788,0.237115,7.1294,14.8093,0.756887,10.3854,-27.1644,2.52845,5.12334,-10.7933,2.23633e-14,2.38542e-15,-36.7536,-26.9743,-29.6947,44.2336,12.5528,-39.2525,17.8919,7.12502,-12.2471,-11.7295,2.23633e-14,2.38542e-15,-39.8771,15.0733,21.231,39.7529,11.4662,-36.4103,34.956,7.12502,-9.50574,64.7216,-8.38588,-14.5643,24.675,32.4354,-17.4857,-4.563,18.7197,-19.121,9.54855,-20.7789,31.4439,-16.4223,7.80169,-16.0008
-6.21822,17.8608,-11.613,4.49768,4.88663,-2.3154,1.41442,-1.39294,2.11933,-7.9292,-1.77184,-0.429326,-9.22912,-1.04461,-1.47234,0.243936,7.00505,14.8134,0.786434,10.2421,-27.63,2.53438,5.04948,-10.9806,-1.08338e-14,-7.95139e-15,-37.0765,-30.8872,-28.5888,42.9817,16.3323,-39.192,19.191,7.12502,-12.1888,-10.4339,-1.08338e-14,-7.95139e-15,-40.0892,15.1938,21.7329,39.9034,11.3819,-36.3132,34.9592,7.12502,-9.41202,64.7291,-8.56461,-14.559,24.9232,33.018,-18.3425,-4.69366,19.9817,-19.293,9.39746,-20.6775,31.7379,-16.7713,8.49825,-17.0027
-6.22609,17.7977,-11.5985,4.36716,5.00259,-2.53736,1.63206,-1.35538,1.98417,-7.92565,-1.73395,-0.53769,-9.35157,-1.02139,-1.51035,0.270622,6.91744,14.7595,0.798454,10.1369,-27.8945,2.52326,4.99717,-11.0803,2.05742e-14,1.11319e-14,-37.2795,-27.2432,-30.3082,44.0063,12.3496,-40.6219,17.6959,7.12502,-13.5673,-11.8421,2.05742e-14,1.11319e-14,-40.3385,15.2266,22.3012,40.1123,11.4487,-35.6567,34.7012,7.12502,-8.77852,64.4987,-8.71573,-14.794,25.2003,33.7042,-19.0412,-4.50054,21.2425,-19.3166,9.39679,-20.4498,32.1647,-17.3715,9.00352,-19.1488
-6.23227,17.7428,-11.5885,4.22647,5.20013,-2.62554,1.89018,-1.31483,1.73831,-7.90961,-1.70508,-0.712642,-9.48326,-0.997063,-1.55592,0.371538,6.8016,14.7635,0.761375,9.98247,-28.0655,2.47027,4.92921,-11.1633,-3.38928e-14,-1.78906e-14,-37.6511,-25.9963,-31.1585,44.4685,10.8211,-41.3149,17.0664,7.12502,-14.2351,-12.4258,-3.38928e-14,-1.78906e-14,-40.5233,15.1362,23.0775,40.3529,11.9175,-35.7056,35.0268,7.12502,-8.82575,64.8222,-8.84458,-15.1926,25.3045,34.4548,-19.5914,-4.43932,21.2525,-19.3699,9.30148,-20.3468,32.7582,-17.8701,9.22732,-22.2129
-6.2362,17.6967,-11.5864,4.16567,5.40604,-2.78155,2.22672,-1.30542,1.55123,-7.92813,-1.70917,-0.813878,-9.70182,-0.990622,-1.55104,0.236634,6.71699,14.7375,0.846676,9.8811,-28.313,2.50976,4.86444,-11.2558,-5.36719e-15,-2.38542e-15,-37.8772,-26.8068,-31.3399,44.4295,11.3404,-40.7658,16.8305,7.12502,-13.7059,-12.6982,-5.36719e-15,-2.38542e-15,-40.8489,15.2382,23.8561,40.509,12.2063,-36.0178,35.2609,7.12502,-9.12694,65.0434,-9.12089,-15.5426,25.4997,35.2773,-19.9846,-4.46763,20.4726,-19.6249,9.15954,-20.1698,33.467,-18.2057,9.34566,-24.5352
-6.23521,17.6663,-11.5787,4.00938,5.49387,-3.0914,2.56546,-1.31022,1.55796,-7.86248,-1.71474,-0.855596,-9.83348,-0.995833,-1.59206,-0.059272,6.68815,14.7745,0.932577,9.85221,-28.6717,2.60721,4.82305,-11.3907,-1.61016e-14,-5.56597e-15,-38.1321,-30.5194,-30.3469,43.249,15.0451,-38.0767,19.226,7.12502,-11.1132,-10.4598,-1.61016e-14,-5.56597e-15,-41.3089,15.5595,24.5136,40.4379,12.2723,-34.7796,34.097,7.12502,-7.93207,63.9282,-9.45215,-15.794,25.7682,36.2714,-20.1083,-4.2926,19.1429,-19.8458,9.19839,-19.7805,34.2202,-18.8057,8.84988,-22.5072
-6.23517,17.6434,-11.5688,3.69145,5.60928,-3.16215,3.01263,-1.32394,1.35544,-7.75349,-1.75903,-1.02702,-9.9809,-1.00947,-1.64789,0.0497035,6.60125,14.7682,0.731386,9.70029,-28.811,2.505,4.76442,-11.4597,-2.38542e-15,-2.62396e-14,-38.183,-29.3224,-31.4724,43.6487,13.1816,-36.8406,18.1787,7.12502,-9.92083,-11.5675,-2.38542e-15,-2.62396e-14,-41.6545,15.7629,25.2284,40.149,12.391,-33.168,33.2317,7.12502,-6.3764,63.1157,-9.77705,-16.0788,25.6766,37.5523,-20.0091,-3.86537,18.6434,-19.9136,9.28828,-19.5925,34.9628,-19.2177,8.48684,-21.2356
-6.23851,17.6176,-11.563,3.35438,5.7225,-3.05651,3.59008,-1.35073,0.90943,-7.69869,-1.84729,-1.23093,-10.2618,-1.02767,-1.5935,0.182347,6.5272,14.7261,0.641427,9.58572,-28.8367,2.42802,4.72078,-11.4762,2.0276e-14,1.59028e-14,-38.3667,-26.2684,-33.3155,44.8152,9.24247,-36.1804,15.7388,7.12502,-9.28389,-14.0368,2.0276e-14,1.59028e-14,-42.2038,16.004,25.8228,39.8768,11.9202,-33.0136,33.6404,7.12502,-6.22732,63.5289,-10.2444,-16.4213,25.3566,39.173,-19.6429,-3.37504,18.4379,-19.9179,9.38513,-19.5944,35.6447,-19.3138,8.52136,-22.5958
-6.23831,17.592,-11.5583,3.05286,5.82387,-2.92013,4.22016,-1.37703,0.377074,-7.76987,-1.94575,-1.36667,-10.7117,-1.04041,-1.41415,0.258023,6.40987,14.858,0.897427,9.49613,-29.1153,2.48711,4.66945,-11.6221,-2.14687e-14,-1.27222e-14,-38.6839,-29.9127,-32.3038,43.2789,12.6731,-34.0306,17.2723,7.12502,-7.20914,-12.5849,-2.14687e-14,-1.27222e-14,-43.1163,16.5446,25.989,39.3382,9.8059,-31.7114,33.2394,7.12502,-4.97009,63.1611,-10.9073,-16.9456,24.9537,41.098,-19.0376,-3.06152,16.463,-19.8977,9.48499,-19.6562,36.2608,-19.7299,8.21325,-22.5795
-6.2342,17.5659,-11.5541,2.79189,5.98081,-2.82126,4.72075,-1.364,-0.04048,-7.80303,-1.99057,-1.5449,-11.0467,-1.0365,-1.35484,0.113249,6.26432,15.0327,1.3621,9.38811,-29.3168,2.63646,4.58403,-11.7427,-3.97569e-16,3.02153e-14,-39.2072,-30.0587,-32.5076,43.1926,12.7383,-32.1055,17.7089,7.12502,-5.35058,-12.2036,-3.97569e-16,3.02153e-14,-43.7391,16.7569,26.5007,38.7876,8.84196,-30.3322,32.6568,7.12502,-3.63831,62.6055,-11.7287,-17.5404,24.5627,43.1722,-18.3809,-2.65061,14.5879,-19.9179,9.52053,-19.7105,36.8319,-20.3909,7.79873,-21.8716
-6.22996,17.5381,-11.5469,2.55908,6.14331,-3.00952,4.99919,-1.3758,-0.0768087,-7.66252,-2.02758,-1.71753,-11.0645,-1.05935,-1.50965,-0.293304,6.25105,15.1375,1.61499,9.38107,-29.2651,2.78215,4.53962,-11.7309,-1.21259e-14,5.56597e-15,-40.0492,-24.1676,-35.472,46.2442,6.40185,-31.1276,15.3279,7.12502,-4.40634,-14.6063,-1.21259e-14,5.56597e-15,-43.9667,15.9642,28.1842,38.979,12.3189,-32.5826,33.6701,7.12502,-5.81128,63.5704,-12.636,-18.0881,24.4653,45.2553,-17.5553,-1.93623,13.4465,-19.9328,9.56874,-19.4802,37.2766,-20.7237,7.45812,-21.0986
-6.22642,17.5216,-11.5338,2.31298,6.29577,-3.38374,5.18754,-1.42498,0.0778781,-7.50077,-2.08606,-1.81012,-11.0083,-1.10414,-1.68399,-0.467436,6.27394,14.9795,1.58,9.36545,-28.9313,2.77194,4.52079,-11.564,-1.33186e-14,7.95139e-16,-39.4125,-30.0687,-33.7261,42.7466,11.686,-28.0981,18.4459,7.12502,-1.48069,-11.5287,-1.33186e-14,7.95139e-16,-44.3972,16.3329,28.7182,38.4737,11.8386,-31.7239,33.6928,7.12502,-4.98218,63.6142,-13.5101,-18.6329,24.5225,47.2275,-16.34,-1.24218,11.5435,-19.8288,9.60975,-19.0453,37.5295,-20.8084,6.93374,-18.6635
-6.22224,17.5254,-11.5169,2.12632,6.39611,-3.47923,5.28175,-1.40523,-0.0672916,-7.39474,-2.08877,-1.97028,-10.9476,-1.10086,-1.77295,-0.655187,6.23655,14.8256,1.79499,9.31701,-28.5867,2.82432,4.47411,-11.4001,2.84262e-14,2.54444e-14,-39.7837,-30.6667,-33.758,42.6933,12.2177,-25.3243,18.5978,7.12502,1.19834,-11.3785,2.84262e-14,2.54444e-14,-44.7772,16.398,29.3843,38.0504,11.778,-31.4054,33.8498,7.12502,-4.67456,63.7782,-14.3569,-19.0192,24.2084,49.0594,-15.142,-0.477633,10.0921,-19.578,9.51251,-18.9209,37.5601,-21.0158,6.26917,-15.1386
-6.2158,17.5334,-11.499,1.91465,6.50267,-3.49263,5.35381,-1.37559,-0.277195,-7.26798,-2.08586,-2.15021,-10.8483,-1.09051,-1.84802,-0.760379,6.15241,14.9425,1.95386,9.21923,-28.6036,2.87124,4.41226,-11.436,2.10712e-14,4.77083e-15,-39.7806,-28.287,-35.1625,43.2323,9.77908,-23.7696,17.454,7.12502,2.69985,-12.5086,2.10712e-14,4.77083e-15,-45.1673,16.6215,29.9371,37.6521,11.7964,-30.9881,33.7137,7.12502,-4.27164,63.6506,-15.0239,-19.279,23.6945,50.7029,-13.958,0.502182,10.838,-19.1223,9.24308,-18.8964,37.327,-20.9423,6.6209,-17.4117
-6.20756,17.539,-11.4802,1.5485,6.66667,-3.62412,5.48826,-1.39755,-0.329176,-7.01932,-2.12903,-2.2779,-10.6554,-1.1119,-1.94716,-0.739598,6.0995,14.9832,1.8061,9.11224,-28.6229,2.80479,4.36807,-11.4597,3.18055e-15,-4.77083e-15,-39.773,-29.9297,-34.8791,42.5697,11.2706,-21.6231,18.1882,7.12502,4.7727,-11.738,3.18055e-15,-4.77083e-15,-45.4867,17.3874,30.1893,36.9898,11.404,-30.482,33.2613,7.12502,-3.78288,63.2075,-15.3642,-19.4976,23.204,52.088,-12.682,1.44002,11.5198,-18.3918,8.88038,-18.727,36.8419,-20.2733,8.19308,-25.2476
-6.20003,17.5546,-11.4552,1.16303,6.85214,-3.5629,5.61375,-1.38769,-0.575008,-6.79949,-2.15511,-2.4642,-10.4847,-1.1128,-2.00296,-0.796321,6.04168,14.8962,1.97523,9.04491,-28.4021,2.82765,4.32416,-11.3631,-1.13307e-14,-9.54166e-15,-39.8189,-29.7842,-35.031,42.2634,11.743,-19.6772,18.6707,7.12502,6.65148,-11.2048,-1.13307e-14,-9.54166e-15,-45.7113,18.0521,30.3716,36.2532,10.9146,-30.0523,33.21,7.12502,-3.36792,63.1631,-15.5287,-19.5817,22.4796,53.1931,-11.999,2.38962,9.83668,-17.4858,8.4428,-18.7486,36.2023,-19.8693,8.97417,-27.4693
-6.196,17.5834,-11.429,0.940036,7.04174,-3.407,5.74089,-1.33146,-0.927231,-6.83323,-2.14058,-2.68214,-10.5961,-1.08859,-2.03968,-0.480148,5.89204,14.696,2.21763,8.88418,-27.9736,2.76171,4.25853,-11.1867,1.33186e-14,6.36111e-15,-40.1775,-29.9984,-34.7328,41.9652,13.0902,-17.5328,19.0384,7.12502,8.72121,-10.7614,1.33186e-14,6.36111e-15,-46.058,18.173,30.5995,35.7507,10.9325,-29.8622,33.5259,7.12502,-3.18442,63.4819,-15.7391,-19.4682,21.7379,53.9642,-11.7836,3.21426,8.51638,-16.7104,7.96405,-18.8883,35.4998,-19.7338,9.07501,-25.9538
-6.1971,17.6179,-11.407,0.802184,7.25633,-3.4867,5.86614,-1.29476,-1.0689,-6.91128,-2.12342,-2.80147,-10.7598,-1.07482,-2.08969,-0.21365,5.77684,14.4087,2.32439,8.74452,-27.6128,2.67446,4.20376,-11.0151,7.15625e-15,-2.06736e-14,-40.4416,-30.0456,-34.4385,41.7721,14.1531,-15.4179,19.4247,7.12502,10.7617,-10.2796,7.15625e-15,-2.06736e-14,-46.3916,18.3409,30.7297,35.2537,11.0499,-29.8759,33.2896,7.12502,-3.19763,63.2454,-15.9589,-19.2053,21.3713,54.3993,-11.7997,3.30672,6.54557,-16.126,7.5566,-18.7728,34.7685,-19.2956,9.23401,-25.9389
-6.19965,17.6526,-11.3792,0.573443,7.65852,-3.88755,5.89743,-1.30883,-0.863903,-6.83092,-2.12238,-2.85121,-10.6986,-1.09236,-2.25766,-0.623116,5.72076,14.3042,2.88043,8.7375,-27.4943,2.88986,4.14698,-10.9429,3.97569e-15,3.02153e-14,-40.605,-30.0965,-34.1595,41.6562,14.7445,-13.59,19.7393,7.12502,12.5244,-9.86535,3.97569e-15,3.02153e-14,-46.4519,18.7032,30.7412,34.658,10.8515,-29.751,33.0279,7.12502,-3.07699,62.9855,-15.8972,-18.9821,21.3509,54.5215,-12.2186,2.87135,5.05347,-15.5139,7.19154,-18.2739,34.0306,-18.9389,9.0655,-25.9285
-6.20226,17.6855,-11.344,0.236106,8.2256,-4.3723,5.94926,-1.33891,-0.536846,-6.77773,-2.13458,-2.94038,-10.688,-1.12771,-2.53479,-0.874553,5.57596,14.5435,3.57103,8.65107,-27.5183,3.11958,4.0605,-11.0067,9.14409e-15,2.54444e-14,-41.0056,-30.1697,-33.7218,41.5844,15.1859,-12.0842,19.8014,7.12502,13.9759,-9.70878,9.14409e-15,2.54444e-14,-46.4561,18.8805,30.6096,34.1879,10.5458,-29.5614,33.1702,7.12502,-2.89392,63.1303,-15.5168,-18.786,21.3469,54.3824,-12.7252,2.4125,7.26187,-14.7651,6.76993,-17.6672,33.2697,-18.7764,8.71505,-25.2736
-6.21128,17.7221,-11.3054,-0.0496818,8.73308,-4.63138,5.96665,-1.30099,-0.600456,-6.84094,-2.09866,-3.01352,-10.7693,-1.10901,-2.58381,-0.436976,5.35505,14.6791,3.76172,8.41452,-27.5072,3.0414,3.97014,-11.0637,-2.5842e-14,1.59028e-15,-41.5101,-30.3082,-33.0023,41.4983,15.841,-10.5015,19.5262,7.12502,15.5007,-9.87244,-2.5842e-14,1.59028e-15,-46.6238,18.7766,30.5386,34.002,10.5037,-29.8556,33.5649,7.12502,-3.17804,63.5209,-15.1238,-18.3739,21.1515,54.0463,-13.2748,1.38809,7.63545,-13.997,6.29564,-17.3068,32.4517,-18.4875,8.59356,-24.7641
-6.22294,17.7682,-11.2629,-0.143623,9.29668,-4.80511,5.71448,-1.2776,-0.843404,-6.92341,-2.08691,-3.00548,-10.6992,-1.08359,-2.44462,-0.123756,5.22772,14.3618,4.08446,8.31167,-27.1959,3.01791,3.92708,-10.9055,1.19271e-15,-9.54166e-15,-41.6885,-30.5166,-32.1883,41.2016,16.5179,-8.77601,19.1351,7.12502,17.162,-10.127,1.19271e-15,-9.54166e-15,-46.8435,18.769,30.5012,33.9313,10.6186,-30.2175,33.7626,7.12502,-3.52747,63.7131,-14.8662,-17.883,20.9599,53.5151,-13.7271,-0.0449519,7.85036,-13.4227,5.70613,-17.0535,31.5953,-18.09,8.59766,-24.7652
-6.23129,17.814,-11.2238,-0.199854,9.97899,-5.16602,5.40248,-1.36859,-0.78601,-6.9731,-2.19015,-2.95337,-10.5703,-1.13535,-2.41061,-0.360739,5.23814,14.0667,5.05007,8.48114,-26.8191,3.33549,3.95284,-10.702,-3.57812e-15,-3.33958e-14,-41.5796,-30.3674,-31.6472,40.9883,16.5074,-7.33038,18.7865,7.12502,18.553,-10.3487,-3.57812e-15,-3.33958e-14,-47.0616,19.175,30.0974,33.8344,10.6145,-30.1652,33.4136,7.12502,-3.47696,63.365,-14.5741,-17.4885,20.9744,52.802,-13.8573,-1.43424,12.324,-12.9384,4.92105,-16.6161,30.7333,-17.7272,8.54615,-24.3585
-6.24164,17.8537,-11.1866,-0.260299,10.618,-5.73881,5.06976,-1.44602,-0.496481,-7.0209,-2.25216,-2.9051,-10.4351,-1.18562,-2.51841,-0.564911,5.21769,14.0057,5.87301,8.58198,-26.5441,3.60889,3.95754,-10.5886,1.90833e-14,2.70347e-14,-41.5887,-30.2645,-31.0505,40.8963,16.1885,-5.90912,18.4075,7.12502,19.9197,-10.5916,1.90833e-14,2.70347e-14,-47.146,19.5062,29.4971,33.8388,10.6958,-30.087,33.0596,7.12502,-3.40145,63.0122,-14.2841,-17.0735,21.2448,51.9781,-13.9893,-2.9425,16.4342,-12.4969,4.04023,-15.9653,29.9048,-17.3777,8.67215,-23.8902
-6.25641,17.8904,-11.1432,-0.226254,11.2264,-6.21894,4.56714,-1.43178,-0.412341,-7.11509,-2.21237,-2.8917,-10.2386,-1.17204,-2.56623,-0.465749,5.11162,13.9492,6.38291,8.51379,-26.1924,3.69796,3.91676,-10.4637,4.21423e-14,-1.74931e-14,-41.7815,-30.5515,-30.1044,40.6782,16.195,-4.3221,18.1599,7.12502,21.4446,-10.6732,4.21423e-14,-1.74931e-14,-47.0433,19.4969,28.9633,33.8938,10.8101,-30.0822,33.0043,7.12502,-3.39684,62.957,-14.0846,-16.6158,21.4387,51.1073,-14.2905,-4.0654,17.0849,-12.1941,3.16578,-15.4289,29.1715,-16.9978,9.08002,-24.8091
-6.27199,17.9231,-11.0997,-0.235667,11.8293,-6.38221,4.11227,-1.4065,-0.684484,-7.18402,-2.19382,-2.9157,-10.0313,-1.14262,-2.45008,-0.0378686,4.94741,13.8834,6.53837,8.33389,-25.9939,3.60986,3.85487,-10.4049,-4.77083e-14,-3.18055e-15,-41.8704,-28.2916,-30.31,41.5992,13.7764,-3.60688,16.9372,7.12502,22.1314,-11.8161,-4.77083e-14,-3.18055e-15,-46.9326,19.5096,28.3872,34.0372,10.9492,-30.1149,33.3983,7.12502,-3.42844,63.3505,-13.738,-16.1236,21.2577,50.2111,-14.546,-4.64453,16.0258,-11.8594,2.2988,-15.2253,28.534,-16.6203,9.32589,-24.8222
-6.28632,17.9553,-11.0621,-0.282363,12.4713,-6.52549,3.77867,-1.44498,-0.892694,-7.21547,-2.25688,-2.95529,-9.86242,-1.15874,-2.37405,0.659625,4.6775,14.0439,6.15814,7.95486,-26.2202,3.30725,3.73191,-10.5586,2.38542e-15,-1.11319e-14,-41.8691,-28.1879,-29.5294,41.5102,13.5812,-2.95549,16.8455,7.12502,22.7567,-11.8323,2.38542e-15,-1.11319e-14,-46.7505,19.711,27.6412,34.1346,11.0138,-30.1444,33.5621,7.12502,-3.45689,63.5138,-13.3035,-15.6389,21.0672,49.2799,-14.6567,-5.02968,15.4783,-11.5374,1.43498,-15.039,27.9459,-16.5409,9.04025,-21.3526
-6.30308,17.9886,-11.0245,-0.283198,13.2451,-6.76321,3.48599,-1.52196,-0.983172,-7.2734,-2.36328,-3.00533,-9.75488,-1.20567,-2.37002,0.381342,4.70489,14.1017,6.8848,8.10116,-26.039,3.58892,3.76186,-10.4991,-4.77083e-15,-7.95139e-15,-41.9597,-30.9101,-27.5324,40.4414,16.0306,-1.99473,17.8212,7.12502,23.6784,-10.7405,-4.77083e-15,-7.95139e-15,-46.4138,19.8317,26.8583,34.1676,10.952,-30.4907,33.376,7.12502,-3.79128,63.322,-12.934,-15.2175,21.0219,48.3068,-14.605,-5.04085,16.9479,-11.3739,0.622302,-14.7498,27.4392,-16.5695,8.77543,-18.7497
-6.32384,18.0161,-10.986,-0.300546,14.0889,-6.96751,3.23575,-1.59664,-1.1625,-7.32551,-2.47148,-3.02625,-9.66078,-1.24534,-2.28476,-2.37548,5.57707,12.9634,10.5915,9.63397,-23.8621,5.3363,4.21332,-9.37263,-2.34566e-14,2.06736e-14,-41.4821,-28.9828,-27.9794,40.8023,13.6926,-2.32669,16.5651,7.12502,23.36,-12.0374,-2.34566e-14,2.06736e-14,-46.0876,19.5535,26.3405,34.511,11.4581,-31.2129,33.5394,7.12502,-4.48873,63.4718,-12.5531,-14.7048,20.9469,47.3361,-14.3208,-4.51369,20.7344,-11.2979,-0.111813,-14.4885,27.1082,-16.3667,8.93372,-19.5477
-6.34434,18.0375,-10.9535,-0.320461,14.8899,-7.18651,2.98722,-1.6571,-1.31917,-7.3265,-2.55482,-3.0322,-9.50977,-1.27411,-2.1997,-0.696682,4.91583,13.8436,8.78593,8.61267,-25.219,4.39157,3.88171,-10.1225,6.75868e-15,4.77083e-14,-41.0731,-28.329,-27.8507,40.9975,12.7883,-2.50016,15.5089,7.12502,23.1936,-13.1146,6.75868e-15,4.77083e-14,-45.6606,19.2944,25.8443,34.8956,11.941,-31.5902,33.8807,7.12502,-4.85305,63.8051,-12.2035,-14.0178,20.884,46.4098,-13.8848,-3.76346,23.6274,-11.2994,-0.818701,-14.2241,26.9691,-16.2442,9.09172,-19.6976
-6.36644,18.049,-10.9291,-0.307135,15.6916,-7.44193,2.76211,-1.72172,-1.43555,-7.32355,-2.63983,-3.02854,-9.36958,-1.30649,-2.12691,-0.603255,4.93821,13.5568,8.6699,8.59338,-24.7967,4.3045,3.88658,-9.91058,-2.26615e-14,-1.90833e-14,-40.9607,-28.0578,-27.305,41.308,12.6553,-2.7482,14.5784,7.12502,22.9556,-14.0748,-2.26615e-14,-1.90833e-14,-45.0908,19.421,25.1445,35.0121,11.8158,-31.9772,34.0003,7.12502,-5.22675,63.9158,-11.9275,-13.3609,20.9271,45.5403,-13.2384,-3.42957,22.6406,-11.479,-1.40079,-13.8984,26.9593,-16.2069,8.95371,-19.5511
-6.39175,18.0509,-10.9088,-0.354695,16.5283,-7.83143,2.66451,-1.82198,-1.4224,-7.36418,-2.76444,-2.96017,-9.35692,-1.36474,-2.05065,-1.25067,4.60789,14.1307,9.26631,8.26855,-25.6763,4.58989,3.65765,-10.3783,-2.3059e-14,-5.88403e-14,-40.9556,-27.588,-26.7317,41.7527,12.5374,-3.20672,14.0286,7.12502,22.5156,-14.6787,-2.3059e-14,-5.88403e-14,-44.6258,19.1714,24.6023,35.3057,12.2476,-32.5723,33.8899,7.12502,-5.80133,63.7904,-11.6565,-12.7639,21.1577,44.7148,-12.3334,-3.39244,21.929,-11.7876,-1.8228,-13.3854,27.0587,-16.0283,8.81999,-20.8467
-6.41591,18.0525,-10.8903,-0.462025,17.3305,-8.28851,2.69008,-1.89599,-1.24646,-7.43045,-2.84988,-2.92268,-9.45484,-1.41702,-2.09911,-1.13452,4.64703,14.2258,9.24289,8.3289,-25.6589,4.57796,3.70114,-10.3873,3.18055e-14,1.74931e-14,-40.7057,-27.6498,-26.2428,41.8363,12.6647,-4.08792,14.2694,7.12502,21.6695,-14.5379,3.18055e-14,1.74931e-14,-44.1124,18.5682,24.1182,35.7362,12.9632,-32.6244,33.7962,7.12502,-5.85155,63.6954,-11.3633,-12.012,21.4431,43.8891,-11.4771,-2.97749,25.3909,-12.1338,-2.15774,-12.7991,27.2919,-15.9534,8.64968,-21.217
-6.43808,18.0477,-10.873,-0.493107,18.1379,-8.48146,2.56125,-1.97861,-1.3571,-7.36364,-2.95833,-2.89525,-9.30007,-1.46035,-2.0005,-0.853164,4.72446,14.0384,8.85035,8.37708,-25.4865,4.40779,3.75792,-10.2765,5.56597e-15,-3.02153e-14,-40.1849,-28.0849,-25.8704,41.8189,13.0097,-5.49816,14.4033,7.12502,20.3147,-14.5542,5.56597e-15,-3.02153e-14,-43.496,18.4728,23.6097,35.9823,13.2092,-32.8059,33.868,7.12502,-6.02687,63.7623,-11.0151,-11.2486,21.4299,43.0504,-10.7488,-2.10514,28.0364,-12.5195,-2.31074,-12.5223,27.6302,-15.9516,8.36444,-22.38
-6.46051,18.0341,-10.8547,-0.492773,18.9849,-8.42306,2.39611,-2.11252,-1.76997,-7.22505,-3.15075,-2.84922,-9.02905,-1.52306,-1.70733,-0.918052,4.80628,13.6871,8.53524,8.43672,-25.4424,4.32592,3.78501,-10.1771,5.76476e-14,4.77083e-15,-39.57,-26.9683,-26.3012,42.5334,12.0848,-7.51589,13.4653,7.12502,18.3746,-15.6869,5.76476e-14,4.77083e-15,-42.9673,18.3028,23.2862,36.1765,13.478,-33.4942,33.9119,7.12502,-6.69132,63.7862,-10.5181,-10.7155,21.1444,42.2398,-10.2276,-1.25829,26.7254,-12.8481,-2.29605,-12.5147,27.9617,-16.0748,7.78485,-23.5917
-6.48318,18.0213,-10.8382,-0.549956,19.8527,-8.56941,2.55488,-2.17256,-1.84576,-7.32423,-3.24591,-2.85848,-9.23173,-1.56208,-1.65909,-0.716449,4.76648,13.3552,8.26007,8.32883,-25.1846,4.16053,3.75422,-10.0226,3.57812e-15,-7.95139e-15,-39.7694,-22.6918,-27.7281,44.7784,8.21574,-10.3205,11.2044,7.12502,15.675,-18.1807,3.57812e-15,-7.95139e-15,-42.3366,17.3864,23.1409,36.3396,14.0363,-34.2511,33.9917,7.12502,-7.42193,63.8415,-10.0452,-10.2538,21.1264,41.52,-9.8043,-0.945542,24.5233,-13.2523,-2.26288,-12.2709,28.2923,-16.3268,6.85154,-22.8964
-6.50667,18.0108,-10.8243,-0.743107,20.7136,-8.93116,2.86661,-2.15608,-1.69896,-7.44984,-3.2283,-2.85167,-9.56416,-1.56069,-1.72404,-0.494226,4.60917,13.5088,8.27282,8.13562,-25.2659,4.09119,3.67894,-10.1021,1.82882e-14,-4.77083e-15,-39.3108,-29.6374,-24.5662,42.1249,15.0773,-10.9518,14.0812,7.12502,15.0669,-15.3505,1.82882e-14,-4.77083e-15,-41.544,16.047,23.3788,36.7109,15.3654,-35.4608,34.8311,7.12502,-8.5895,64.6364,-9.64732,-9.71221,21.3274,40.9396,-9.30151,-0.722493,25.7105,-13.6617,-2.27782,-11.8272,28.6826,-16.3263,6.52353,-25.5106
-6.52968,17.9916,-10.8139,-1.0243,21.5243,-9.19195,3.18863,-2.17059,-1.67771,-7.43218,-3.2536,-2.8041,-9.73541,-1.57044,-1.67132,-0.552039,4.61648,13.7147,8.47205,8.19833,-25.4271,4.18766,3.70249,-10.2014,-2.66371e-14,4.6118e-14,-39.0536,-29.8171,-24.3262,42.2164,15.1823,-13.0706,14.175,7.12502,13.0251,-15.3983,-2.66371e-14,4.6118e-14,-40.9818,15.406,23.1987,36.7894,15.1625,-35.1973,34.6949,7.12502,-8.3352,64.5105,-9.19878,-9.19472,21.3772,40.4819,-8.89264,-0.534488,26.7914,-13.931,-2.31906,-11.5096,29.0802,-16.2384,6.50362,-29.375
-6.5461,17.9671,-10.8061,-1.21763,22.2694,-9.46759,3.38397,-2.22107,-1.52105,-7.43625,-3.30917,-2.72206,-9.86132,-1.60428,-1.65777,-0.563341,4.77199,13.4264,8.4761,8.40397,-25.1574,4.21112,3.80145,-10.0297,-2.54444e-14,1.59028e-15,-38.6246,-29.3579,-24.5176,42.4982,15.0238,-15.5125,13.5348,7.12502,10.6704,-16.1742,-2.54444e-14,1.59028e-15,-40.6661,14.9761,22.9942,36.9819,15.0398,-35.127,35.0577,7.12502,-8.26734,64.8759,-8.81704,-8.68084,21.4667,40.1281,-8.89924,-0.488646,26.693,-14.2875,-2.30641,-11.1693,29.4677,-16.5448,5.62483,-28.9502
-6.5598,17.9507,-10.7948,-1.42745,22.971,-9.68209,3.4666,-2.24301,-1.40138,-7.37465,-3.32379,-2.65872,-9.84477,-1.61726,-1.65269,-0.326569,4.84816,13.1365,8.1541,8.46641,-25.0198,4.07003,3.85603,-9.91682,-1.66979e-14,0,-38.4007,-29.19,-24.5372,42.7733,15.3874,-17.6933,13.429,7.12502,8.56628,-16.3772,-1.66979e-14,0,-40.4069,14.4466,23.0527,37.3782,15.3234,-35.672,35.542,7.12502,-8.79328,65.3388,-8.3695,-8.13395,21.5205,39.851,-9.27069,-0.665981,24.79,-14.6038,-2.29641,-10.9004,29.93,-16.9805,4.45825,-27.4645
-6.57933,17.9298,-10.7854,-1.71371,23.646,-9.71487,3.60735,-2.24531,-1.54958,-7.15771,-3.33483,-2.63873,-9.67753,-1.61108,-1.54402,-0.229327,4.89596,13.15,7.87139,8.50197,-25.1313,3.98474,3.89027,-9.95408,-7.95139e-16,-4.77083e-15,-37.9843,-31.2785,-23.9174,42.4973,17.3128,-18.9417,14.4613,7.12502,7.36145,-15.3907,-7.95139e-16,-4.77083e-15,-40.1031,14.1814,23.063,37.5706,15.1763,-35.9075,35.2964,7.12502,-9.02054,65.0835,-7.80119,-7.6103,21.3956,39.6247,-9.54738,-0.875774,23.5788,-14.8233,-2.33326,-10.8231,30.5019,-17.2639,3.77191,-28.1083
-6.59822,17.9039,-10.7816,-2.01348,24.2367,-9.8909,3.77062,-2.26823,-1.49913,-6.96843,-3.35808,-2.60054,-9.56547,-1.62499,-1.52423,-0.5916,5.02589,13.1976,8.08278,8.69859,-25.1055,4.15455,3.95753,-9.93397,3.57812e-14,5.24792e-14,-37.8342,-29.7965,-25.0511,43.7766,15.5092,-20.7269,13.554,7.12502,5.63806,-16.351,3.57812e-14,5.24792e-14,-39.9166,14.3106,22.8438,37.5578,14.5057,-35.4564,35.0592,7.12502,-8.58521,64.8646,-7.32883,-6.99609,21.4009,39.4552,-9.90256,-0.711544,28.3107,-15.0994,-2.346,-10.6027,31.1103,-17.5634,3.21924,-28.579
-6.61177,17.8787,-10.7786,-2.30277,24.7598,-10.1793,3.9642,-2.23281,-1.21369,-6.91623,-3.28834,-2.56489,-9.63543,-1.60975,-1.64726,-1.01318,5.1518,13.1148,8.60935,8.929,-24.87,4.41696,4.02691,-9.81444,-3.22031e-14,5.56597e-14,-37.5573,-30.0551,-25.3119,43.5777,15.7712,-22.7491,13.3993,7.12502,3.68541,-16.5486,-3.22031e-14,5.56597e-14,-39.7688,14.6572,22.6882,37.439,13.8526,-35.1343,34.9575,7.12502,-8.2744,64.7755,-6.91517,-6.404,21.5299,39.3237,-10.404,-0.571235,31.5902,-15.4094,-2.29268,-10.2747,31.726,-17.8838,2.6284,-28.411
-6.62425,17.8508,-10.7708,-2.48752,25.2194,-10.2247,4.13349,-2.12196,-1.16579,-6.89181,-3.13939,-2.56811,-9.70828,-1.54004,-1.69024,-1.18202,5.20797,13.0734,8.87799,9.04335,-24.7618,4.54226,4.06494,-9.75955,4.01545e-14,7.79236e-14,-37.5132,-30.0059,-25.4571,43.4936,15.8263,-24.6868,13.3968,7.12502,1.81402,-16.5753,4.01545e-14,7.79236e-14,-39.6112,15.1309,22.6837,37.2436,13.3457,-34.9034,34.773,7.12502,-8.05156,64.5997,-6.45141,-5.88884,21.4562,39.2293,-10.6929,-0.668073,31.508,-15.6899,-2.14402,-10.1918,32.2982,-18.1886,2.10543,-28.6349
-6.63482,17.8267,-10.7595,-2.73356,25.5867,-10.1628,4.32106,-2.04159,-1.23836,-6.80585,-3.04147,-2.57614,-9.71881,-1.48689,-1.66498,-1.0731,5.23061,13.054,8.66467,9.0495,-24.7848,4.46213,4.08369,-9.7613,-4.92986e-14,9.54166e-15,-37.3655,-29.688,-25.9902,43.6204,15.4821,-26.0626,13.3452,7.12502,0.485323,-16.634,-4.92986e-14,9.54166e-15,-39.7887,15.3349,22.8352,37.3793,13.4595,-34.9791,34.9337,7.12502,-8.12461,64.7575,-5.87646,-5.39543,21.2769,39.1808,-10.8303,-0.805905,32.2838,-15.7458,-2.07432,-10.2334,32.7397,-18.4595,1.7328,-28.9805
-6.64382,17.809,-10.7534,-3.00591,25.9433,-10.0745,4.57665,-1.96037,-1.28221,-6.7434,-2.94465,-2.60273,-9.79917,-1.4369,-1.6736,-0.618686,5.1753,13.045,8.2079,8.92637,-24.836,4.22311,4.07123,-9.78975,-6.59965e-14,2.54444e-14,-37.201,-28.3769,-27.0178,43.9665,14.0631,-27.3638,13.1142,7.12502,-0.771461,-16.8642,-6.59965e-14,2.54444e-14,-40.2437,15.2518,23.2201,37.8903,13.965,-35.4611,35.1844,7.12502,-8.58975,64.9896,-5.33605,-5.03699,21.0638,39.2085,-10.8774,-0.816545,32.6588,-15.6473,-2.26385,-10.3236,33.0156,-18.6216,1.66373,-29.2531
-6.65474,17.7913,-10.7461,-2.98409,26.3511,-9.69991,4.70982,-1.83361,-1.5886,-6.78161,-2.81459,-2.69347,-9.90865,-1.35363,-1.61239,-0.0970684,5.11246,13.2236,7.9233,8.84737,-25.0442,4.04677,4.08058,-9.91485,-3.06128e-14,1.90833e-14,-37.2325,-26.7172,-28.0529,44.3101,12.1364,-29.0802,12.6781,7.12502,-2.42921,-17.2878,-3.06128e-14,1.90833e-14,-40.7113,15.0807,23.6969,38.352,14.2882,-35.3453,35.1106,7.12502,-8.47805,64.9204,-4.98713,-4.91383,20.5875,39.3156,-10.7352,-0.797598,30.1794,-15.6233,-2.54081,-10.6919,33.1105,-18.7405,1.65465,-29.3372
-6.66957,17.7784,-10.7316,-2.79644,26.7181,-9.36092,4.62746,-1.70509,-1.93676,-6.86687,-2.67575,-2.73951,-9.93799,-1.2612,-1.48757,-0.00945727,5.14627,13.408,8.14544,8.96413,-25.1681,4.13291,4.13976,-9.99465,1.90833e-14,4.77083e-14,-37.3654,-26.8954,-28.4716,44.3037,11.7755,-30.0276,12.7471,7.12502,-3.34415,-17.2065,1.90833e-14,4.77083e-14,-41.1801,15.2452,24.0177,38.4516,14.0894,-34.6997,34.5375,7.12502,-7.8549,64.3716,-4.83483,-4.78215,20.2249,39.4524,-10.5211,-0.923339,27.0809,-15.6984,-2.72239,-10.984,33.0598,-18.7803,1.50668,-29.3299
-6.68543,17.7805,-10.7192,-2.59832,26.9722,-9.25348,4.44135,-1.54514,-2.10203,-6.94556,-2.46565,-2.69925,-9.90134,-1.14458,-1.38428,-0.490045,5.17894,13.4219,8.68541,9.08708,-25.1793,4.40381,4.14944,-9.99139,2.42517e-14,1.74931e-14,-37.4227,-27.2514,-28.8205,44.1597,11.5879,-30.1396,13.1028,7.12502,-3.45223,-16.849,2.42517e-14,1.74931e-14,-41.5964,15.8878,24.272,38.3454,13.4594,-34.0776,33.9625,7.12502,-7.25448,63.8181,-4.82238,-4.33592,20.1646,39.545,-10.4253,-0.916827,27.157,-15.8602,-2.7865,-11.0271,32.9511,-18.7993,1.52925,-30.0033
-6.69902,17.7854,-10.7087,-2.39651,27.2064,-9.05781,4.29029,-1.36701,-2.23921,-7.05511,-2.237,-2.73869,-9.92668,-1.02379,-1.38273,-0.675493,5.15649,13.4837,9.02663,9.10882,-25.1498,4.54214,4.13985,-9.99418,2.10712e-14,-1.27222e-14,-37.553,-26.6652,-29.4531,43.9869,10.7731,-30.1803,13.2684,7.12502,-3.49158,-16.6827,2.10712e-14,-1.27222e-14,-42.0748,16.2281,24.6335,38.4352,13.4112,-33.7767,33.9356,7.12502,-6.96401,63.801,-4.73334,-3.94111,19.9873,39.5495,-10.3426,-0.665194,27.9311,-15.9595,-2.73994,-11.1656,32.8113,-18.8625,1.37371,-30.1689
-6.70924,17.7875,-10.6978,-2.44631,27.5695,-9.18091,4.21988,-1.28372,-1.91773,-7.21182,-2.09874,-2.76513,-10.0698,-0.980524,-1.61064,-0.189097,5.12549,13.5751,9.19826,9.11707,-24.9365,4.4963,4.18094,-9.9495,7.71285e-14,0,-37.767,-27.0187,-29.7174,43.4101,11.2311,-29.1784,14.3379,7.12502,-2.52398,-15.6269,7.71285e-14,0,-42.832,15.9629,25.0674,38.7242,13.7789,-33.6739,34.1405,7.12502,-6.86476,64.0092,-4.53109,-3.90996,20.0601,39.4781,-9.87901,-0.113424,28.6342,-15.9497,-2.73705,-10.9996,32.6113,-18.8322,0.689693,-29.1378
-6.72211,17.7967,-10.6861,-2.54381,28.0525,-9.33917,4.25183,-1.23861,-1.61836,-7.34774,-2.01236,-2.73462,-10.2481,-0.95892,-1.75715,-0.167664,5.11848,13.6923,9.70192,9.21192,-24.9149,4.66208,4.21743,-9.97085,-1.82882e-14,9.54166e-15,-37.8302,-27.0393,-30.3634,43.2645,10.6658,-29.1012,13.6153,7.12502,-2.44942,-16.3504,-1.82882e-14,9.54166e-15,-43.6054,15.6471,25.631,38.8578,13.8777,-33.3159,34.3262,7.12502,-6.51915,64.2059,-4.29106,-3.93291,20.2141,39.3404,-9.20957,0.469837,29.9121,-15.9107,-2.90495,-10.8067,32.3397,-18.7098,0.303005,-29.3511
-6.74297,17.8111,-10.6724,-2.46506,28.5736,-9.06811,4.42141,-1.19987,-1.75579,-7.51309,-1.99065,-2.82635,-10.5356,-0.939696,-1.78042,-0.568589,5.19318,13.8846,10.4988,9.45199,-24.9535,5.03107,4.28786,-10.0155,7.31528e-14,7.95139e-15,-38.1346,-27.1685,-30.8893,43.1643,10.6156,-28.6166,12.9847,7.12502,-1.98148,-16.9859,7.31528e-14,7.95139e-15,-44.3035,15.6508,25.9911,38.7124,14.0807,-32.8402,34.2661,7.12502,-6.05992,64.1594,-3.93561,-3.75176,20.0633,39.135,-8.81018,0.623671,31.08,-15.8335,-3.18571,-11.0203,32.0295,-18.5778,0.297249,-30.5647
-6.76319,17.8292,-10.6596,-2.52572,29.0682,-9.11073,4.48772,-1.18417,-1.54298,-7.62979,-1.95877,-2.88236,-10.7164,-0.94297,-1.9645,-0.672064,5.31937,13.8838,10.9709,9.67582,-24.6047,5.21911,4.38671,-9.87673,3.06128e-14,-2.70347e-14,-38.4218,-27.5293,-31.3954,42.919,10.9073,-27.4785,13.0053,7.12502,-0.882232,-16.9726,3.06128e-14,-2.70347e-14,-44.9805,16.0604,26.1051,38.4244,14.2398,-32.3302,33.7524,7.12502,-5.5675,63.6592,-3.56216,-3.45981,20.2575,38.8822,-8.52475,0.638056,31.9672,-15.7483,-3.47592,-10.919,31.6628,-18.3953,0.181222,-31.1994
-6.77989,17.8463,-10.6496,-2.70519,29.54,-9.49575,4.33562,-1.11123,-1.05112,-7.68738,-1.80227,-2.81353,-10.6971,-0.903669,-2.19005,-0.439552,5.30458,13.8613,11.1434,9.67092,-24.2865,5.20746,4.40605,-9.76502,1.11319e-14,2.06736e-14,-38.8192,-27.7962,-31.6561,42.6156,11.1526,-25.4185,13.5684,7.12502,1.10742,-16.4084,1.11319e-14,2.06736e-14,-45.5567,16.41,26.4486,38.1197,13.9408,-31.7836,33.4038,7.12502,-5.03977,63.3239,-3.31475,-3.28471,20.7647,38.6283,-8.15488,0.675686,31.5906,-15.6703,-3.81108,-10.4927,31.1876,-18.0906,-0.0396313,-31.0971
-6.7968,17.8598,-10.6427,-2.76231,30.0935,-9.58457,4.18037,-1.02176,-0.859861,-7.79516,-1.65584,-2.77486,-10.7236,-0.845838,-2.27846,0.0474764,5.17026,13.9761,11.2157,9.54205,-24.283,5.11517,4.38103,-9.81248,4.05521e-14,9.54166e-15,-39.3668,-27.638,-31.8464,42.4956,10.989,-23.2326,13.8546,7.12502,3.21848,-16.1008,4.05521e-14,9.54166e-15,-46.205,16.4715,26.9373,37.9317,13.4502,-31.3937,33.6603,7.12502,-4.66331,63.589,-3.07333,-3.32746,20.9498,38.3457,-7.58642,0.644563,29.6721,-15.5587,-4.23614,-10.3818,30.6588,-17.7088,-0.218154,-31.0284
-6.81372,17.8822,-10.6332,-2.53898,30.7168,-9.20322,4.11829,-0.920846,-1.00664,-7.93706,-1.54362,-2.90649,-10.8434,-0.785,-2.35573,0.32784,5.08118,14.1318,11.2374,9.44367,-24.2553,5.0539,4.3613,-9.84825,6.87795e-14,0,-39.953,-27.2549,-32.2447,42.5093,10.2724,-21.6222,13.3279,7.12502,4.77359,-16.5983,6.87795e-14,0,-46.7376,16.4009,27.418,37.7737,13.2056,-31.1366,34.2026,7.12502,-4.41505,64.1366,-2.86216,-3.37572,20.6877,38.0099,-6.53744,0.834343,28.5286,-15.486,-4.70415,-10.7467,30.1342,-17.3961,-0.162359,-31.9758
-6.83215,17.9083,-10.6231,-2.51369,31.3282,-9.09881,4.41166,-0.791883,-0.638061,-8.15598,-1.36782,-3.15482,-11.2834,-0.745155,-2.85868,0.230839,5.05157,14.1378,11.6142,9.3981,-23.7503,5.14853,4.34074,-9.67243,6.0033e-14,3.65764e-14,-40.7849,-27.1093,-32.5343,42.4147,10.0139,-19.5606,12.6179,7.12502,6.764,-17.2541,6.0033e-14,3.65764e-14,-47.0969,16.2091,27.712,37.4733,12.9106,-30.8375,34.4737,7.12502,-4.12624,64.4134,-2.5742,-3.34564,20.7178,37.6182,-5.26208,1.16016,29.9623,-15.3692,-5.16426,-10.8404,29.6418,-17.1356,-0.175069,-32.7505
-6.85199,17.9226,-10.6164,-2.80759,31.9728,-9.35281,4.07627,-0.794049,-0.160727,-7.74623,-1.30407,-3.10962,-10.6217,-0.746992,-3.08012,-0.445702,5.21823,13.7777,11.6294,9.52522,-23.3371,5.26845,4.35837,-9.42124,8.8658e-14,7.95139e-15,-40.436,-27.2562,-33.3069,42.2768,9.93429,-17.0715,12.2094,7.12502,9.16631,-17.5714,8.8658e-14,7.95139e-15,-47.3678,17.4241,27.8413,36.9916,12.4945,-30.5377,34.1122,7.12502,-3.83675,64.0574,-2.08791,-3.51232,21.0401,37.0837,-4.39355,1.09229,29.918,-15.1961,-5.6016,-10.6049,29.2395,-16.7577,-0.559866,-32.3066
-6.8758,17.9251,-10.6017,-3.00003,32.6508,-9.4104,3.73839,-0.827194,-0.172485,-7.42422,-1.32011,-2.91949,-10.0494,-0.739609,-2.86237,-0.604204,5.28105,13.719,11.358,9.56027,-23.3972,5.22531,4.37059,-9.41661,8.74653e-15,-1.43125e-14,-40.1842,-26.4054,-34.1957,42.5414,9.30228,-14.8367,12.0679,7.12502,11.3222,-17.6065,8.74653e-15,-1.43125e-14,-47.8782,18.5116,27.8355,36.4693,12.4579,-30.4577,33.465,7.12502,-3.75942,63.4116,-1.51247,-3.65891,21.2097,36.363,-3.96539,0.59374,28.2305,-15.0809,-6.00657,-10.532,28.9276,-16.4206,-0.913159,-32.0757
-6.91055,17.9278,-10.5719,-3.66386,33.2476,-9.91602,3.82135,-0.811053,-0.0526405,-7.26179,-1.25902,-2.57243,-9.9057,-0.702131,-2.5624,-0.324419,5.25965,13.8052,11.0928,9.51889,-23.4844,5.09519,4.37964,-9.46848,8.70677e-14,-1.59028e-15,-39.5911,-28.4091,-33.4662,41.2066,11.711,-11.5998,13.4919,7.12502,14.4427,-15.9855,8.70677e-14,-1.59028e-15,-48.5058,19.015,27.8663,36.0284,12.1793,-30.4689,33.1329,7.12502,-3.77024,63.0793,-0.647458,-3.35847,21.9825,35.5076,-3.69543,-0.221111,28.2558,-14.7463,-6.35336,-9.97637,28.6592,-16.2893,-1.11502,-32.1432
-6.92436,17.9488,-10.5767,-4.02749,34.1579,-10.1554,4.08898,-0.815508,0.436541,-7.29222,-1.22123,-2.52195,-10.1097,-0.720378,-2.78741,0.148099,5.18782,13.8591,10.848,9.39614,-23.3306,4.90557,4.36732,-9.43841,1.19271e-13,-2.38542e-14,-40.2567,-25.8491,-34.3635,42.0537,9.8948,-9.31982,13.2795,7.12502,16.6386,-16.0273,1.19271e-13,-2.38542e-14,-48.9106,18.8839,28.0641,35.6919,11.7257,-30.2735,33.0391,7.12502,-3.58162,62.9887,0.00674044,-3.79695,22.1871,34.6968,-3.39988,-0.410214,28.8983,-14.6353,-6.99463,-9.84272,28.3842,-16.1299,-1.3129,-31.7482
-6.94913,17.977,-10.5733,-4.15234,34.9949,-10.2238,4.10516,-0.786737,0.580264,-7.20603,-1.16241,-2.45499,-10.0213,-0.698339,-2.80298,0.240536,5.13878,13.9324,10.5005,9.27168,-23.3488,4.76548,4.32743,-9.46178,1.4074e-13,2.06736e-14,-40.5741,-25.5324,-34.4111,42.374,10.3017,-6.48898,13.4349,7.12502,19.3622,-15.6211,1.4074e-13,2.06736e-14,-49.1154,19.1627,28.1559,35.3222,11.1497,-29.7983,32.9183,7.12502,-3.12271,62.8752,0.428631,-4.06061,22.3558,34.017,-3.11084,-0.694251,29.0736,-14.7043,-7.46153,-9.79441,28.14,-15.9966,-1.82604,-31.7795
-6.98247,17.9884,-10.57,-4.28846,35.716,-10.4459,3.94595,-0.817295,0.613192,-6.9472,-1.17388,-2.1632,-9.63007,-0.689265,-2.5058,-0.221383,5.24871,13.7762,10.1739,9.33116,-23.3798,4.76189,4.33159,-9.41702,6.67916e-14,2.70347e-14,-39.0746,-29.0338,-33.2115,40.1582,14.0496,-2.49186,15.2108,7.12502,23.2016,-13.4117,6.67916e-14,2.70347e-14,-49.4671,20.0469,28.1743,35.0777,10.7077,-29.4547,32.9462,7.12502,-2.79086,62.9077,0.708825,-4.32196,22.6681,33.5251,-2.65695,-0.881648,28.4243,-14.8934,-7.75685,-9.53078,27.897,-15.8012,-2.73525,-30.9607
-7.01594,17.9935,-10.5728,-4.33231,36.4036,-10.7432,1.50359,-0.974329,0.144889,-5.04844,-1.33774,-1.36447,-6.11377,-0.69354,-1.40961,-1.98982,5.71336,13.0848,8.68925,9.62857,-23.8733,4.71071,4.37288,-9.35508,3.63776e-14,3.02153e-14,-35.5138,-31.6004,-34.2819,39.6177,15.1418,0.921279,15.788,7.12502,26.4725,-12.383,3.63776e-14,3.02153e-14,-49.0163,23.9379,28.6691,34.6408,10.0317,-29.597,32.8283,7.12502,-2.92827,62.7879,0.735338,-4.56924,23.0232,33.1955,-2.35064,-1.06921,26.8971,-15.2917,-7.92038,-9.19057,27.7472,-15.6146,-3.31361,-30.1425
-7.0406,18.0008,-10.5753,-4.1612,37.1823,-10.6452,1.80431,-0.838248,0.501524,-5.45778,-1.14876,-1.54121,-6.72994,-0.625328,-1.80265,-1.63929,5.53535,13.2976,8.99197,9.40786,-23.4896,4.67845,4.29827,-9.29117,-1.94809e-14,-1.90833e-14,-36.4328,-30.8508,-33.9129,39.7214,15.2089,3.56307,16.361,7.12502,28.9985,-11.403,-1.94809e-14,-1.90833e-14,-49.0595,23.0341,28.5183,34.3752,9.88952,-29.4815,32.6647,7.12502,-2.81669,62.6258,0.79723,-4.95769,22.9254,32.8917,-2.27793,-1.08711,26.6913,-15.7081,-8.16211,-9.28617,27.7471,-15.6194,-3.45172,-30.4197
-7.06593,18.002,-10.5776,-4.20962,37.9469,-10.5912,3.19061,-0.506137,1.4482,-6.50663,-0.682538,-2.17346,-8.6849,-0.495201,-3.04175,-0.634113,5.08573,13.804,9.68257,8.86427,-22.6248,4.56542,4.12094,-9.16011,-2.62396e-14,-3.81667e-14,-39.1137,-29.2528,-33.0814,40.2912,14.6965,6.04187,16.5185,7.12502,31.3632,-10.8131,-2.62396e-14,-3.81667e-14,-48.7866,20.2714,28.3996,34.3134,10.2864,-29.2792,32.7194,7.12502,-2.62131,62.6831,1.1126,-5.3174,22.824,32.4988,-2.21321,-0.916461,28.2179,-15.9461,-8.50138,-9.35935,27.7982,-15.6201,-3.89185,-29.7429
-7.10161,18.0001,-10.5802,-4.52834,38.6519,-10.9097,3.19292,-0.513323,1.64495,-6.33232,-0.657924,-1.88782,-8.49186,-0.481854,-2.85011,-0.514622,5.15999,13.6478,9.14843,8.87433,-22.493,4.37798,4.14805,-9.0748,6.12257e-14,1.74931e-14,-38.5676,-29.032,-33.2602,40.4572,14.9673,8.32582,16.3929,7.12502,33.5368,-10.4925,6.12257e-14,1.74931e-14,-48.9645,20.4086,28.3926,34.2868,10.4614,-29.3382,32.9851,7.12502,-2.67837,62.9481,1.49042,-5.38115,23.1827,32.0129,-2.33174,-0.885676,27.9676,-16.1709,-8.73375,-9.04877,27.8405,-15.5837,-4.44051,-29.1608
-7.14031,17.9946,-10.5856,-4.72681,39.3507,-11.0935,3.46314,-0.491403,1.94132,-6.37806,-0.596449,-1.79514,-8.70116,-0.470979,-2.92564,-0.393434,5.19466,13.698,8.90876,8.86436,-22.2736,4.27704,4.1663,-9.00495,5.20816e-14,3.65764e-14,-38.6437,-27.8531,-33.7557,41.238,14.3325,9.98871,15.7271,7.12502,35.1156,-10.8019,5.20816e-14,3.65764e-14,-49.0781,20.2957,27.9954,34.2842,10.4311,-29.1227,33.3496,7.12502,-2.47025,63.315,1.8966,-5.49274,23.4433,31.4569,-2.50633,-0.837322,25.5464,-16.4535,-8.8271,-8.85192,27.9416,-15.6683,-4.94948,-29.0649
-7.17793,17.986,-10.5967,-4.73947,39.9972,-11.0492,3.78583,-0.41688,2.16563,-6.51016,-0.471306,-1.77795,-9.03222,-0.43009,-3.04962,-0.0365525,5.16877,13.7848,8.60286,8.78962,-22.1153,4.10627,4.16804,-8.97482,4.13472e-14,3.02153e-14,-39.0019,-27.0499,-33.8778,41.9987,13.8335,11.1258,15.635,7.12502,36.1933,-10.6338,4.13472e-14,3.02153e-14,-49.1411,20.0023,27.6077,34.3096,10.6145,-29.1883,33.645,7.12502,-2.53352,63.6097,2.23674,-5.67043,23.436,30.8787,-2.61906,-0.695791,23.2073,-16.8415,-8.88084,-8.86051,28.1255,-15.6953,-5.53904,-28.2019
-7.21019,17.98,-10.6051,-4.65059,40.6153,-11.1272,3.73659,-0.375439,2.42717,-6.59112,-0.384833,-1.67353,-9.0885,-0.402737,-3.09655,0.232425,5.19269,13.8938,8.33262,8.78929,-22.0065,3.98,4.19855,-8.95956,-4.81059e-14,-3.97569e-14,-38.6988,-28.3214,-33.2785,41.3512,15.37,11.612,16.7983,7.12502,36.6536,-9.35497,-4.81059e-14,-3.97569e-14,-49.1933,19.7011,27.3617,34.3532,10.9897,-29.6676,33.7075,7.12502,-2.99645,63.6662,2.34992,-5.71338,23.5234,30.3493,-2.9322,-0.633394,22.1895,-17.4252,-9.02446,-8.75549,28.2952,-15.657,-5.95094,-27.7554
-7.2425,17.9687,-10.6085,-4.72399,41.2884,-11.4615,3.34478,-0.366007,2.674,-6.43089,-0.339267,-1.37342,-8.67671,-0.376449,-2.91893,0.0719331,5.27902,13.7909,8.1331,8.84587,-21.8558,3.9513,4.22371,-8.87534,2.80286e-14,-2.06736e-14,-38.2598,-27.4791,-33.7273,41.9971,14.4171,11.3553,16.2104,7.12502,36.4106,-10.0041,2.80286e-14,-2.06736e-14,-49.2425,19.9572,27.1751,34.5293,11.015,-30.0202,33.6113,7.12502,-3.33699,63.5649,2.48275,-5.85608,23.846,29.8723,-3.32736,-0.4908,20.8698,-18.0104,-9.07698,-8.43259,28.4394,-15.6232,-6.57096,-27.4243
-7.27689,17.9578,-10.6106,-4.78655,42.0304,-11.4182,4.47099,-0.184527,3.26434,-7.16509,-0.0282293,-1.71506,-10.1487,-0.317507,-3.67012,0.52375,5.04653,14.0761,8.74067,8.57535,-21.0698,3.9719,4.13255,-8.69249,-3.4191e-14,-4.77083e-14,-40.1025,-26.6423,-33.2324,42.5525,14.0385,10.7625,15.794,7.12502,35.8492,-10.5594,-3.4191e-14,-4.77083e-14,-49.0561,18.2112,26.7001,34.8776,11.2131,-30.1572,33.9766,7.12502,-3.46931,63.9282,2.88485,-6.14915,23.8258,29.3798,-3.69193,-0.225977,19.8856,-18.3637,-9.10282,-8.4743,28.6212,-15.4518,-7.49251,-25.88
-7.30864,17.9505,-10.6158,-4.44026,42.7338,-10.8877,4.11996,-0.104296,2.84534,-6.79768,0.0374128,-1.57945,-9.51661,-0.230786,-3.2873,-0.009043,5.19114,13.8046,8.48307,8.6548,-20.8128,3.98529,4.14535,-8.52842,-1.63003e-14,-6.36111e-15,-39.4691,-27.282,-33.2151,42.4566,14.22,9.33921,15.5937,7.12502,34.4993,-11.0778,-1.63003e-14,-6.36111e-15,-48.6894,18.7301,26.5021,35.0146,11.4173,-30.1487,34.3828,7.12502,-3.46104,64.3345,3.25339,-6.36905,23.3936,28.8111,-4.20462,-0.0331533,20.3753,-18.8052,-9.24641,-8.92109,28.883,-15.3599,-8.15966,-24.144
-7.34372,17.9383,-10.6209,-4.37871,43.3138,-10.9544,3.87749,0.00143646,2.92496,-6.71694,0.198458,-1.35184,-9.26927,-0.141939,-3.10469,-0.180752,5.2462,13.463,8.384,8.6631,-20.4092,3.95664,4.14307,-8.31999,8.44835e-14,2.06736e-14,-38.9464,-27.4159,-33.1808,42.2871,14.1457,7.40479,15.3005,7.12502,32.6609,-11.7706,8.44835e-14,2.06736e-14,-48.4407,18.6885,26.1996,35.1281,11.7429,-29.9561,34.3928,7.12502,-3.27508,64.3474,3.39264,-6.41607,23.5571,28.3939,-4.88001,-0.142444,19.6986,-19.3212,-9.27367,-8.82461,29.0409,-15.4155,-8.50759,-24.2743
-7.38046,17.9208,-10.6181,-5.23755,43.8529,-11.859,4.01037,0.112252,3.6379,-6.60502,0.435209,-1.03137,-9.20974,-0.0609964,-3.19223,-0.16627,5.21795,13.3019,8.18288,8.56428,-20.1084,3.85818,4.10374,-8.19251,-5.1684e-15,-1.59028e-14,-38.7754,-28.0646,-32.7918,42.0837,14.285,5.69351,15.4759,7.12502,31.0312,-11.9196,-5.1684e-15,-1.59028e-14,-48.1045,18.6258,25.8426,35.2497,11.5953,-29.859,34.2778,7.12502,-3.18128,64.2338,3.88399,-6.42853,24.4282,27.9053,-5.35984,-0.499557,18.022,-19.5542,-9.22745,-8.09464,29.3407,-15.5258,-8.98369,-24.9604
-7.40546,17.9143,-10.6475,-4.12048,44.5299,-10.6761,3.85201,0.274342,3.19811,-6.67164,0.597223,-1.24989,-9.17344,0.0411289,-3.19525,0.1262,5.16852,13.5685,7.61658,8.43389,-20.1689,3.63345,4.07482,-8.27233,-3.51849e-14,-3.97569e-14,-39.013,-28.6644,-32.4637,42.3542,14.1327,4.16534,15.2784,7.12502,29.5735,-12.3853,-3.51849e-14,-3.97569e-14,-47.5844,18.2025,25.7712,35.4327,11.8572,-30.385,34.4336,7.12502,-3.68924,64.3814,3.76615,-6.92345,23.4116,27.4809,-5.59983,-0.224804,16.8832,-20.3467,-9.57308,-9.06761,29.6503,-15.3599,-9.29547,-24.1531
-7.43944,17.8943,-10.6654,-4.15285,44.9791,-10.8231,3.9555,0.350176,3.60168,-6.71163,0.744261,-1.1798,-9.26748,0.0851046,-3.36732,0.536944,5.2385,13.9727,7.00671,8.46854,-20.1664,3.40948,4.13741,-8.34792,-2.3059e-14,-6.36111e-15,-39.2155,-28.33,-32.9147,43.0364,13.5539,1.71309,14.4435,7.12502,27.2302,-13.611,-2.3059e-14,-6.36111e-15,-47.3248,17.0844,25.8131,35.9409,12.945,-31.2424,35.0911,7.12502,-4.51718,65.023,3.92179,-7.05004,23.6068,27.0496,-5.98215,-0.289182,17.5721,-20.9385,-9.73872,-8.92229,30.0028,-15.247,-9.69485,-22.8698
-7.46329,17.8699,-10.6762,-3.8903,45.7019,-10.3647,4.00945,0.323386,3.55816,-6.71011,0.705765,-1.19632,-9.30119,0.0681403,-3.35695,0.792204,5.28102,14.2333,6.72588,8.50784,-20.1613,3.30246,4.18313,-8.39562,-6.42074e-14,-2.22639e-14,-38.8876,-27.4949,-33.5944,43.2803,12.8265,-1.38979,13.5636,7.12502,24.2586,-14.9217,-6.42074e-14,-2.22639e-14,-47.3139,16.2003,25.5666,36.5403,13.1706,-31.3814,36.1204,7.12502,-4.65146,66.0494,4.29012,-7.68482,23.2049,26.6793,-6.52323,-0.240597,18.6392,-21.3064,-10.1373,-9.33771,30.2716,-15.3355,-9.86188,-22.8607
-7.48786,17.8498,-10.6871,-3.7832,46.464,-10.0232,4.06543,0.340073,3.52471,-6.64291,0.736162,-1.06877,-9.25852,0.0924848,-3.20541,0.967601,5.24665,14.15,6.51004,8.45966,-20.2496,3.20088,4.17147,-8.41816,4.4329e-14,-2.06736e-14,-38.8209,-27.8076,-33.517,43.1508,13.1431,-4.59769,13.3422,7.12502,21.1799,-15.5208,4.4329e-14,-2.06736e-14,-47.2056,16.4652,25.0038,36.7107,12.1134,-30.7383,36.544,7.12502,-4.03047,66.4857,4.76008,-8.33029,22.9464,26.176,-7.04967,-0.433663,19.0641,-21.6188,-10.5695,-9.66053,30.5861,-15.4887,-10.1075,-23.6051
-7.52272,17.8352,-10.6876,-4.4097,46.853,-10.4455,4.32664,0.442994,3.85198,-6.51959,0.934479,-0.752812,-9.26359,0.180045,-3.07887,1.16224,5.34479,14.0748,6.13714,8.54333,-20.0455,3.06377,4.23279,-8.33385,4.59193e-14,-8.74653e-15,-37.7402,-30.7474,-32.4835,41.1041,16.1392,-7.7379,14.3621,7.12502,18.161,-14.8101,4.59193e-14,-8.74653e-15,-47.019,16.9705,24.3901,36.7666,11.5963,-30.7099,35.78,7.12502,-4.00297,65.7222,5.31606,-8.25685,23.4969,25.7316,-7.67534,-1.18695,19.291,-21.6304,-10.8222,-9.33597,30.786,-15.5209,-10.2426,-24.2641
-7.56098,17.8263,-10.6895,-4.68731,47.0547,-10.463,4.69251,0.580444,3.95155,-6.47756,1.15473,-0.597398,-9.41843,0.282935,-3.0027,1.35942,5.52267,14.1794,5.80508,8.7298,-19.7021,2.95851,4.34834,-8.22907,4.09496e-14,-7.95139e-16,-38.7328,-27.8443,-34.0182,43.5127,13.4236,-11.3973,12.7083,7.12502,14.6377,-16.7551,4.09496e-14,-7.95139e-16,-46.885,16.941,23.8575,37.0434,11.8288,-31.4533,35.0973,7.12502,-4.72083,65.0247,5.76546,-8.12854,23.7634,25.3173,-8.22721,-2.10104,17.4212,-21.5886,-10.9465,-9.29864,30.9155,-15.4856,-10.1945,-24.522
-7.59692,17.8211,-10.7002,-4.54657,47.2543,-10.2715,4.89648,0.707539,4.05618,-6.51495,1.35483,-0.497999,-9.56598,0.373037,-2.98585,1.39944,5.69289,14.0864,5.63764,8.91928,-19.3858,2.91971,4.44956,-8.09501,-6.83819e-14,-1.27222e-14,-38.6718,-27.8678,-34.4476,43.8162,13.3263,-13.9663,12.6049,7.12502,12.1616,-17.0216,-6.83819e-14,-1.27222e-14,-46.7716,17.2832,23.0971,37.2244,11.869,-31.9252,34.9281,7.12502,-5.17651,64.8448,5.91149,-8.21951,23.8155,24.9188,-8.65901,-2.77856,15.6057,-21.8219,-10.9089,-9.39511,31.016,-15.3356,-10.4109,-23.9814
-7.62353,17.8156,-10.7106,-4.39699,47.5938,-10.1459,4.8882,0.794198,4.2307,-6.49764,1.50023,-0.35417,-9.531,0.439044,-2.94819,1.20125,5.81923,14.1127,5.70395,9.07627,-19.3028,2.99861,4.5181,-8.05465,-1.88845e-14,1.11319e-14,-38.4692,-28.0797,-34.7939,43.921,13.2599,-16.7029,12.7315,7.12502,9.52196,-17.0333,-1.88845e-14,1.11319e-14,-46.6094,18.0131,22.2904,37.258,11.5591,-31.9799,34.956,7.12502,-5.22934,64.8714,6.00217,-8.45167,23.8592,24.5956,-9.1458,-3.28353,15.1407,-22.1291,-11.0188,-9.46579,31.056,-15.1394,-10.7313,-23.1712
-7.64557,17.8102,-10.7224,-4.38012,47.9809,-10.1827,4.85935,0.857845,4.54417,-6.51126,1.63056,-0.186725,-9.51802,0.488257,-2.96127,1.23813,5.89097,14.1185,5.59346,9.15924,-19.2322,2.97233,4.5648,-8.02762,-4.6615e-14,-1.19271e-14,-38.2239,-28.0173,-35.3163,44.0357,12.7771,-19.7883,12.4522,7.12502,6.54415,-17.4267,-4.6615e-14,-1.19271e-14,-46.5054,17.6622,22.0769,37.5626,11.5471,-32.4852,35.561,7.12502,-5.71717,65.4639,6.13194,-8.65098,24.0247,24.1991,-9.50025,-3.81332,17.3465,-22.4436,-11.3146,-9.41841,31.1173,-15.0942,-10.771,-23.2094
-7.66841,17.8101,-10.7293,-4.3325,48.2801,-10.3014,4.76596,0.954902,4.86062,-6.6324,1.80825,-0.0221533,-9.58136,0.557432,-2.9848,1.68688,5.93547,13.6728,5.16132,9.16075,-18.6461,2.72339,4.59466,-7.77139,3.26007e-14,1.43125e-14,-38.1113,-27.9974,-35.7832,44.0454,12.592,-22.365,12.0381,7.12502,4.0563,-17.9031,3.26007e-14,1.43125e-14,-46.4549,16.7123,22.0109,38.0023,11.3792,-32.539,36.3308,7.12502,-5.76914,66.2323,6.23357,-8.75097,24.2847,23.6318,-9.57519,-4.26877,21.9167,-22.8431,-11.4681,-9.27553,31.2379,-15.1675,-10.7685,-23.765
-7.69341,17.8032,-10.7299,-4.21365,48.6345,-10.2268,4.62892,1.03256,4.90476,-6.69004,1.92627,0.122479,-9.55718,0.619262,-2.8668,1.8714,6.04309,14.0443,5.12057,9.32986,-18.6895,2.72869,4.69503,-7.84601,3.27995e-14,3.18055e-14,-38.1678,-28.3083,-36.1102,44.1238,13.2347,-23.7258,11.558,7.12502,2.74217,-18.4041,3.27995e-14,3.18055e-14,-46.4043,16.8319,21.3776,38.149,10.7916,-31.976,36.561,7.12502,-5.22558,66.4766,6.4493,-8.7964,24.444,23.0578,-9.6947,-4.81517,22.2328,-23.1594,-11.6791,-9.2797,31.3342,-15.1143,-10.8461,-24.2625
-7.72217,17.7832,-10.7288,-4.26963,48.9938,-9.98133,4.68382,1.05151,4.73041,-6.56528,1.95174,0.345605,-9.46016,0.657716,-2.53407,2.02753,6.16707,14.2829,4.959,9.5156,-18.8838,2.70859,4.80049,-7.94603,5.62561e-14,5.56597e-15,-37.9904,-28.231,-36.8491,44.3958,12.7779,-25.4925,11.4399,7.12502,1.03592,-18.5373,5.62561e-14,5.56597e-15,-46.5429,18.0827,20.1067,37.8782,8.70807,-30.4259,36.2078,7.12502,-3.72879,66.1549,7.05237,-8.60775,24.5404,22.4512,-9.93248,-5.77622,16.7113,-23.133,-11.9866,-9.45392,31.4131,-15.1352,-10.7639,-24.9419
-7.74172,17.7765,-10.7495,-3.82309,49.3235,-9.2812,4.59132,1.04579,4.46468,-6.40181,1.92165,0.530107,-9.23796,0.67691,-2.18051,1.97757,6.37958,14.259,4.86612,9.8068,-19.0364,2.74799,4.94296,-7.97197,-4.37326e-15,2.14687e-14,-37.4522,-28.5019,-37.4717,44.4166,13.1522,-26.9525,11.5209,7.12502,-0.374243,-18.4585,-4.37326e-15,2.14687e-14,-46.7319,18.7438,19.5482,37.6822,8.59208,-31.3344,35.3112,7.12502,-4.60608,65.2412,7.42432,-8.78178,24.0873,21.948,-9.94018,-6.3285,11.6103,-23.1589,-12.1384,-10.02,31.3563,-15.1314,-10.7297,-25.1598
-7.76288,17.7831,-10.7624,-3.67069,49.5142,-9.21084,4.85879,1.17018,4.9947,-6.70077,2.16192,0.409893,-9.69532,0.736497,-2.64712,2.08835,6.40576,14.4845,5.15546,9.85962,-18.5802,2.81008,4.97864,-7.85905,-9.67584e-14,-1.86858e-14,-38.0657,-28.5967,-37.9133,44.4375,13.2315,-27.8135,12.4684,7.12502,-1.20579,-17.5079,-9.67584e-14,-1.86858e-14,-46.4726,17.995,19.2039,37.8557,9.1473,-32.2106,35.0139,7.12502,-5.45207,64.9238,7.44641,-8.80286,24.1566,21.6182,-9.90107,-6.77128,9.37745,-23.3134,-12.0398,-10.049,31.1635,-14.9273,-11.0309,-25.1324
-7.78266,17.7988,-10.7712,-3.17312,49.7593,-8.82423,4.21559,1.22206,4.86715,-6.41219,2.18317,0.615624,-9.00143,0.788648,-2.33437,1.85671,6.62196,14.3019,4.81734,10.0738,-18.4781,2.77578,5.07513,-7.77139,-1.963e-14,-1.27222e-14,-37.1412,-28.7524,-38.8736,44.2024,12.8665,-28.2358,13.7352,7.12502,-1.61362,-16.2385,-1.963e-14,-1.27222e-14,-46.553,18.5827,18.9275,38.1093,8.85025,-31.938,35.3528,7.12502,-5.18884,65.2693,7.27188,-8.75161,23.9853,21.4221,-10.1835,-6.82301,12.1458,-23.4963,-12.2125,-10.2563,30.8495,-14.7193,-11.0225,-25.8522
-7.8006,17.8138,-10.7744,-2.66235,50.0826,-8.35518,4.25552,1.29639,5.0312,-6.61948,2.30444,0.510045,-9.23654,0.824255,-2.55687,1.94048,6.66767,14.3753,4.93879,10.1411,-18.1937,2.79719,5.1152,-7.68836,1.19271e-15,-7.95139e-16,-37.3728,-28.4757,-39.5716,44.2022,12.7066,-28.9194,13.6282,7.12502,-2.27391,-16.3394,1.19271e-15,-7.95139e-16,-46.4004,17.7238,18.7893,38.4554,9.44413,-31.9902,35.7523,7.12502,-5.23926,65.6675,7.15851,-8.82413,23.7098,21.2506,-10.4027,-6.78696,14.73,-23.5833,-12.3554,-10.5531,30.4568,-14.4906,-11.0155,-26.6274
-7.81876,17.8179,-10.772,-2.49823,50.4071,-8.19173,4.30689,1.29756,5.27129,-6.72425,2.33922,0.522236,-9.37508,0.820191,-2.6857,1.93231,6.76154,14.2054,4.9984,10.2398,-17.7424,2.8005,5.16444,-7.50421,-1.97791e-14,3.18055e-15,-37.512,-28.173,-40.4696,44.4393,12.1636,-29.1558,12.9116,7.12502,-2.50216,-17.0535,-1.97791e-14,3.18055e-15,-46.4232,16.9837,18.6136,38.8163,10.2569,-32.0746,35.8289,7.12502,-5.32076,65.7421,7.17132,-8.9822,23.663,21.1305,-10.445,-6.95266,11.695,-23.5498,-12.1664,-10.6866,30.0147,-14.4547,-11.2286,-27.6838
-7.83787,17.8253,-10.7718,-2.24462,50.6999,-7.73126,4.3221,1.28634,5.1865,-6.64266,2.31625,0.564492,-9.29941,0.819751,-2.58978,1.93623,6.86993,14.0142,4.78906,10.3283,-17.3559,2.72424,5.21083,-7.34139,4.38817e-14,7.35503e-15,-37.3636,-28.1636,-41.3556,44.5134,11.8244,-28.3559,12.7551,7.12502,-1.72963,-17.2176,4.38817e-14,7.35503e-15,-46.5206,16.947,18.2042,38.9723,10.2148,-32.0192,35.5547,7.12502,-5.26729,65.4693,7.35108,-8.79787,23.4329,20.9209,-10.8213,-6.94867,14.3141,-23.3706,-12.0759,-11.0355,29.6473,-14.5061,-11.4032,-27.9667
-7.85749,17.8312,-10.7769,-1.96132,50.9911,-7.23936,4.22532,1.31085,4.95845,-6.40598,2.32256,0.727209,-8.99225,0.856454,-2.28316,1.52864,7.09608,13.7225,4.66412,10.551,-17.057,2.76256,5.30129,-7.16437,1.2834e-14,5.1684e-15,-36.8663,-28.5306,-41.9202,44.2449,12.4558,-26.9267,12.8114,7.12502,-0.349311,-17.1681,1.2834e-14,5.1684e-15,-46.612,17.3646,18.1201,39.2025,10.1747,-32.3413,35.3458,7.12502,-5.5783,65.2524,7.57738,-8.5457,23.1996,20.5984,-11.112,-6.92731,19.2652,-23.2403,-12.1769,-11.3658,29.3734,-14.2757,-11.6484,-26.773
-7.87467,17.8288,-10.7801,-1.80847,51.2547,-7.14202,3.91539,1.32432,4.90832,-6.20262,2.32917,1.00894,-8.59804,0.887962,-1.94465,0.965907,7.39683,13.486,4.7409,10.895,-16.8433,2.91082,5.44307,-7.00724,-1.43746e-14,3.6154e-15,-36.2131,-28.6133,-42.61,44.0316,12.6845,-25.6455,12.7399,7.12502,0.888147,-17.238,-1.43746e-14,3.6154e-15,-46.6738,17.0375,19.0028,39.9769,13.2767,-35.287,36.1022,7.12502,-8.42179,65.9143,7.62922,-8.50935,23.2562,20.3142,-11.155,-7.02496,19.3733,-23.3207,-12.2368,-11.3825,29.1199,-14.0856,-11.7975,-26.0414
-7.88912,17.8305,-10.7829,-1.51904,51.4785,-6.91316,3.86301,1.33605,5.00145,-6.31474,2.36278,1.07296,-8.68822,0.898439,-1.93258,1.19744,7.46804,13.8669,4.66072,11.0141,-16.9311,2.89364,5.51899,-7.10021,-5.60511e-14,-1.13307e-14,-36.2529,-28.1728,-43.3732,44.1888,12.1547,-24.4583,12.6115,7.12502,2.03478,-17.3586,-5.60511e-14,-1.13307e-14,-46.8802,16.9591,18.726,39.9931,12.8964,-35.5283,36.6074,7.12502,-8.65466,66.41,7.6606,-8.48585,23.2132,19.9991,-11.1686,-7.26332,18.5318,-23.4709,-12.2892,-11.4926,28.9668,-13.9408,-11.977,-24.642
-7.90237,17.8339,-10.7897,-1.27517,51.7089,-6.6636,4.19993,1.43915,5.36717,-6.67234,2.56573,0.910586,-9.25027,0.947095,-2.34802,1.84687,7.33465,14.3311,4.50195,10.8804,-16.8488,2.73728,5.49253,-7.18959,5.68214e-14,1.31198e-14,-37.2488,-27.7962,-43.7249,44.5509,11.6529,-22.6435,12.5653,7.12502,3.78735,-17.3807,5.68214e-14,1.31198e-14,-46.9858,17.5619,17.3119,39.3715,8.38255,-32.5546,37.5149,7.12502,-5.78422,67.416,7.76964,-8.56393,23.1097,19.6519,-10.9219,-7.59297,17.0016,-23.5833,-12.343,-11.6304,28.9033,-13.9431,-12.1152,-23.2274
-7.91153,17.8337,-10.7955,-1.39675,51.9444,-6.88591,4.27572,1.50757,5.90759,-6.79288,2.72446,0.944403,-9.4021,0.982607,-2.63622,1.82202,7.31879,14.0737,4.46013,10.8062,-16.3094,2.67344,5.45551,-6.97816,1.56916e-14,2.54444e-14,-37.7441,-27.9229,-44.0873,44.5741,11.4149,-20.5853,12.7545,7.12502,5.77474,-17.1468,1.56916e-14,2.54444e-14,-46.9994,17.6617,17.1704,39.4372,7.82014,-34.6993,37.4038,7.12502,-7.85459,67.2379,7.76662,-8.6644,23.3195,19.5291,-10.7845,-7.8432,15.7287,-23.6344,-12.3478,-11.4452,28.7467,-13.9626,-12.1754,-23.2199
-7.91561,17.8358,-10.7998,-1.24103,52.2136,-6.75208,4.08484,1.53967,6.09893,-6.68555,2.77225,1.04473,-9.16433,1.00683,-2.63217,1.54081,7.37665,13.7292,4.26913,10.7963,-15.912,2.62323,5.43767,-6.78494,5.44173e-15,-6.26172e-15,-37.5759,-28.1496,-44.6187,44.1537,11.1646,-18.7985,13.0009,7.12502,7.49968,-16.8461,5.44173e-15,-6.26172e-15,-46.8742,16.6732,18.7416,40.3274,12.4794,-38.9027,36.7135,7.12502,-11.9098,66.3548,7.6627,-8.85202,23.2331,19.6589,-11.0801,-7.90824,16.0151,-23.6235,-12.3237,-11.5535,28.4724,-14.0059,-12.1043,-24.8049
-7.92224,17.8353,-10.8051,-0.331723,52.502,-5.54826,3.983,1.55418,5.54395,-6.51248,2.7212,1.0188,-8.93217,1.02778,-2.33824,1.65368,7.53842,13.8398,3.73386,10.98,-16.0762,2.49297,5.53786,-6.85357,3.85145e-15,-1.35174e-14,-37.4055,-28.1099,-45.242,44.0217,10.985,-17.2236,13.0707,7.12502,9.01959,-16.7165,3.85145e-15,-1.35174e-14,-47.289,17.8856,18.1619,39.8587,9.48459,-37.9581,35.5294,7.12502,-10.9989,65.2213,7.65645,-9.19256,22.3759,19.8337,-11.3951,-7.93067,15.4662,-23.486,-12.2771,-12.4438,28.1662,-14.3516,-11.8346,-27.6067
-7.93366,17.8327,-10.8095,0.562012,52.7615,-4.3914,3.71299,1.4455,4.69021,-6.18171,2.48548,1.27179,-8.46396,0.994709,-1.5557,1.82263,7.85614,13.7366,2.92119,11.3687,-16.4877,2.30825,5.74275,-6.95911,-9.74045e-15,-1.47101e-14,-36.6523,-28.0009,-45.9444,44.1176,11.3009,-15.5411,13.2663,7.12502,10.6428,-16.4442,-9.74045e-15,-1.47101e-14,-48.4586,20.3366,16.772,39.481,3.64393,-35.9318,35.8005,7.12502,-9.04396,65.5866,7.60279,-9.27719,21.6699,19.9814,-11.6495,-8.15266,14.6096,-23.374,-12.1899,-13.2569,27.8846,-14.5827,-11.59,-29.1281
-7.94723,17.8361,-10.8094,0.701113,52.945,-4.39001,3.97821,1.55637,5.11434,-6.44781,2.69777,1.1824,-8.88178,1.05451,-1.92223,2.28732,7.74714,13.8853,2.46212,11.2031,-16.2419,2.06595,5.68622,-6.94465,4.37823e-14,1.23246e-14,-37.3249,-28.1101,-46.0398,44.1588,11.7564,-13.7306,13.613,7.12502,12.3888,-15.9999,4.37823e-14,1.23246e-14,-48.3788,20.0151,17.2817,39.3244,5.0674,-36.2568,41.5585,7.12502,-9.35762,71.3308,7.28019,-8.89344,21.9247,20.1869,-12.0764,-8.57063,16.2924,-23.4726,-12.0142,-13.1978,27.629,-14.7814,-10.9915,-30.7599
