JuanDHNZ/ProyectoFinalCD/preprocessing/sports_trials_csv/55_23.csv
root1,root2,root3,root4,root5,root6,lowerback1,lowerback2,lowerback3,upperback1,upperback2,upperback3,thorax1,thorax2,thorax3,lowerneck1,lowerneck2,lowerneck3,upperneck1,upperneck2,upperneck3,head1,head2,head3,rclavicle1,rclavicle2,rhumerus1,rhumerus2,rhumerus3,rradius1,rwrist1,rhand1,rhand2,rfingers1,rthumb1,rthumb2,lclavicle1,lclavicle2,lhumerus1,lhumerus2,lhumerus3,lradius1,lwrist1,lhand1,lhand2,lfingers1,lthumb1,lthumb2,rfemur1,rfemur2,rfemur3,rtibia1,rfoot1,rfoot2,rtoes1,lfemur1,lfemur2,lfemur3,ltibia1,lfoot1,lfoot2,ltoes1
20.1679,17.6983,-22.9028,3.34101,-9.5984,-3.30284,5.71487,-0.814333,-5.14365,-0.799387,-1.52969,-1.92565,-3.95772,-0.666471,1.02852,-3.11558,-10.194,10.3684,2.63976,-14.3713,7.86678,1.2161,-6.94734,0.539978,-1.14301e-14,7.95139e-15,-46.6323,-6.49608,-76.5329,112.262,-50.5151,23.0986,35.4974,7.12502,47.41,13.014,-1.14301e-14,7.95139e-15,-31.4872,-41.1081,92.6732,109.566,40.6773,-10.903,21.7185,7.12502,15.1139,51.1467,-11.5687,-6.33912,26.7331,28.8308,-23.6924,-6.79391,28.0112,-17.6226,-3.50404,-18.2127,30.2744,-18.023,-7.40021,-18.3068
20.1676,17.6967,-22.8844,3.43387,-9.18787,-3.05244,5.6978,-0.793217,-5.30812,-0.818499,-1.52033,-2.10525,-3.96988,-0.65972,0.933294,-3.11522,-10.358,10.0923,2.72517,-14.6022,8.10553,1.28133,-7.05463,0.643063,2.80286e-14,1.90833e-14,-46.8447,-5.68308,-76.2405,112.018,-47.7218,25.1467,35.1277,7.12502,49.2958,13.543,2.80286e-14,1.90833e-14,-32.2256,-40.8667,92.691,109.986,36.528,-11.8928,21.4133,7.12502,14.1603,50.9107,-12.2848,-6.04902,26.4311,30.0446,-23.8008,-7.14342,28.028,-17.7394,-3.48321,-18.4931,30.183,-18.208,-8.08294,-17.4246
20.1731,17.6926,-22.8742,3.47832,-8.92941,-3.19179,5.80277,-0.717716,-4.98651,-0.731056,-1.40671,-2.26463,-3.95519,-0.613988,0.580383,-3.43488,-10.4776,10.1108,2.97098,-14.8376,8.14547,1.41561,-7.14582,0.621391,-1.32192e-14,-2.54444e-14,-46.8939,-4.89458,-76.0044,111.745,-44.6613,26.7952,34.6254,7.12502,50.8041,13.8353,-1.32192e-14,-2.54444e-14,-32.5837,-40.5734,92.2618,110.226,32.4807,-11.435,20.4989,7.12502,14.6014,49.9649,-12.89,-5.51643,26.5086,31.1699,-23.5452,-7.51192,27.5348,-17.7704,-3.43832,-18.3567,30.1673,-18.4982,-8.19749,-18.6293
20.1771,17.685,-22.8605,3.36979,-8.71265,-3.4314,6.02653,-0.609755,-4.49391,-0.626442,-1.24613,-2.47243,-3.99407,-0.548188,0.0788379,-3.66258,-10.634,10.004,3.26257,-15.1295,8.49638,1.58714,-7.25858,0.7114,2.25621e-14,-4.77083e-15,-46.9625,-4.24536,-75.8739,111.285,-41.5792,28.6043,34.5237,7.12502,52.4479,14.6879,2.25621e-14,-4.77083e-15,-32.6926,-40.2837,91.6074,110.376,28.9099,-10.5954,19.0086,7.12502,15.4102,48.4142,-13.3189,-4.74869,26.6413,32.3284,-23.4919,-7.77507,26.7989,-17.5196,-3.31219,-18.1264,30.0004,-18.5432,-8.30733,-19.741
20.1731,17.6916,-22.8358,3.2497,-8.43478,-3.12592,6.10477,-0.522062,-4.60228,-0.606983,-1.15485,-2.78098,-4.02612,-0.503921,-0.187914,-3.63464,-10.844,9.66333,3.47716,-15.4488,8.97695,1.7227,-7.39639,0.890073,1.56046e-14,3.97569e-14,-47.1143,-3.49041,-75.8027,110.724,-38.8175,30.6421,34.2375,7.12502,54.2833,15.5928,1.56046e-14,3.97569e-14,-33.2105,-40.1934,91.3365,110.676,25.0326,-11.5712,18.0887,7.12502,14.4702,47.5641,-13.7785,-4.14895,26.121,33.444,-23.4791,-7.78045,26.4422,-17.2943,-3.11328,-18.4931,29.822,-18.5375,-8.999,-19.0847
20.1714,17.7042,-22.8103,3.12969,-8.03974,-2.75947,6.23084,-0.460356,-4.77081,-0.636192,-1.10791,-3.05906,-4.1325,-0.478139,-0.385501,-3.32759,-11.0711,9.3376,3.45713,-15.7178,9.33089,1.72366,-7.53687,1.05599,-2.65378e-14,-2.38542e-14,-47.3136,-2.43938,-75.7279,110.109,-36.3642,31.8842,33.0265,7.12502,55.3925,15.1755,-2.65378e-14,-2.38542e-14,-34.1006,-40.3312,91.4461,110.978,20.2325,-13.9975,17.4923,7.12502,12.1316,47.1205,-14.2571,-3.88869,25.5098,34.5164,-23.5026,-7.60708,26.6719,-17.0724,-3.10521,-18.9075,29.6146,-18.3858,-9.95226,-16.7447
20.176,17.702,-22.7878,3.06957,-7.657,-2.74717,6.33717,-0.399217,-4.48653,-0.643682,-1.02287,-3.29092,-4.21176,-0.444061,-0.792236,-2.82515,-11.2759,8.92811,3.25418,-15.9213,9.89803,1.66086,-7.66088,1.31788,-1.63997e-14,-1.11319e-14,-47.4535,-1.23516,-75.741,109.324,-33.9964,32.6053,31.8072,7.12502,56.0327,14.4428,-1.63997e-14,-1.11319e-14,-34.8024,-40.2972,91.3394,111.197,15.6678,-15.9075,16.5385,7.12502,10.2894,46.2668,-14.7395,-3.63816,25.2701,35.5237,-23.6521,-7.15961,26.6591,-16.8779,-3.137,-18.9423,29.3773,-18.1765,-10.5998,-15.0769
20.1792,17.7007,-22.7693,3.09505,-7.41563,-2.81335,6.30449,-0.311765,-4.06512,-0.680479,-0.885797,-3.56629,-4.24468,-0.388841,-1.32765,-2.22149,-11.4842,8.44335,3.22576,-16.1432,10.5037,1.65208,-7.78696,1.60421,2.5345e-14,-2.54444e-14,-47.7086,0.195259,-75.9191,108.593,-31.7859,33.8724,31.2785,7.12502,57.1507,14.8187,2.5345e-14,-2.54444e-14,-35.3681,-40.1062,91.0038,111.38,11.2744,-17.074,15.7854,7.12502,9.16396,45.5662,-15.2616,-3.15692,25.1062,36.3616,-23.512,-6.91041,26.1197,-16.8345,-2.9977,-18.8893,29.248,-18.0269,-11.1314,-13.9282
20.1779,17.7097,-22.7557,3.05456,-7.30653,-2.94466,6.44131,-0.168217,-3.62117,-0.605947,-0.677674,-3.8505,-4.25406,-0.300098,-1.8921,-2.65369,-11.6149,8.50692,3.65136,-16.4407,10.6009,1.87604,-7.88782,1.57648,-2.28602e-15,-3.18055e-15,-47.7692,1.54686,-76.1627,107.845,-29.6783,35.0822,30.5808,7.12502,58.2088,15.0482,-2.28602e-15,-3.18055e-15,-35.5278,-39.9618,90.2783,111.473,6.77191,-18.2381,15.2529,7.12502,8.04049,45.0799,-15.714,-2.51411,25.021,37.0239,-23.1391,-7.24377,25.201,-16.7647,-2.81582,-18.7435,29.2348,-17.9358,-11.5825,-12.9141
20.1772,17.7162,-22.7387,2.96014,-7.19892,-3.27208,6.64071,0.00803952,-2.99212,-0.470992,-0.408616,-4.09162,-4.23002,-0.184737,-2.52342,-3.14389,-11.7323,8.81257,3.86773,-16.7055,10.6258,2.01344,-7.98282,1.49611,-6.95746e-15,5.08889e-14,-47.6405,2.72808,-76.4489,106.774,-27.4349,34.669,29.2135,7.12502,57.8484,13.3569,-6.95746e-15,5.08889e-14,-35.6652,-39.7909,89.508,111.599,2.8319,-19.4882,14.4173,7.12502,6.8339,44.287,-16.0666,-1.88161,25.1183,37.5775,-22.8784,-7.46329,24.7395,-16.5677,-2.7238,-18.3855,29.2015,-17.9592,-11.7918,-12.4749
20.1806,17.7139,-22.7172,2.88839,-7.04762,-3.35911,6.69216,0.191928,-2.61749,-0.349772,-0.139795,-4.31423,-4.1284,-0.0627639,-2.99352,-2.75636,-11.9722,8.70534,3.76387,-16.9766,10.9034,1.95607,-8.13432,1.61879,2.68359e-14,3.18055e-15,-47.4584,4.16026,-76.6055,105.574,-25.1259,33.7691,27.7556,7.12502,57.0598,11.2196,2.68359e-14,3.18055e-15,-36.0173,-39.6063,88.967,111.857,-0.692225,-20.5692,13.6306,7.12502,5.79025,43.5314,-16.3805,-1.51997,24.8676,38.0064,-22.8312,-7.00669,25.487,-16.3887,-2.65228,-18.3226,29.1473,-17.9755,-11.9834,-12.17
20.1841,17.7104,-22.6933,2.83186,-6.88377,-3.06571,6.71507,0.375296,-2.61103,-0.315851,0.0938039,-4.5866,-4.0986,0.0497626,-3.30631,-6.24566,-12.2887,8.07795,6.95582,-18.2245,10.323,3.69996,-8.41538,1.12929,-7.95139e-15,7.95139e-15,-47.2921,5.50075,-76.62,104.33,-22.6339,34.1889,26.783,7.12502,57.4284,10.5595,-7.95139e-15,7.95139e-15,-36.5184,-39.3762,88.4943,112.103,-3.67452,-21.4688,12.9952,7.12502,4.92174,42.9181,-16.73,-1.45027,24.1385,38.3231,-22.8449,-6.41062,26.0999,-16.2466,-2.63991,-18.6932,29.1001,-18.1103,-12.0585,-13.0944
20.1843,17.7175,-22.6689,2.84583,-6.7082,-3.07719,6.70706,0.521037,-2.26251,-0.305208,0.307883,-4.80576,-4.07209,0.146221,-3.75483,-4.47231,-12.2001,7.97456,5.44524,-17.7293,11.0846,2.93158,-8.32474,1.57717,2.28602e-14,-2.38542e-14,-47.2033,6.56775,-76.7262,103.018,-19.6225,34.753,26.0987,7.12502,57.9218,10.3073,2.28602e-14,-2.38542e-14,-36.6881,-38.9701,87.8459,112.1,-6.04706,-22.2016,12.2935,7.12502,4.21412,42.2316,-17.1314,-1.22921,23.7468,38.5339,-22.8131,-6.23794,27.023,-16.14,-2.73814,-18.6951,29.0267,-18.219,-12.0834,-14.0411
20.1808,17.7248,-22.652,2.85116,-6.52739,-3.22484,6.74195,0.657358,-1.8562,-0.221493,0.518548,-4.96388,-3.98941,0.241413,-4.17167,-3.73407,-12.2659,8.00216,4.75298,-17.6445,11.3256,2.58472,-8.35487,1.72493,-1.03368e-14,-8.11041e-14,-47.123,7.75928,-76.8607,101.655,-16.0713,34.5404,25.5926,7.12502,57.736,9.63669,-1.03368e-14,-8.11041e-14,-36.4114,-38.5195,87.0264,111.952,-8.2201,-22.6017,11.7986,7.12502,3.82777,41.7439,-17.5123,-0.769897,23.5355,38.6363,-22.7419,-6.61887,27.334,-16.0499,-2.7959,-18.5181,28.9196,-18.1338,-12.3046,-13.4376
20.1769,17.7291,-22.6352,2.75811,-6.34902,-3.3068,6.86695,0.810497,-1.60249,-0.0882537,0.740256,-5.06313,-3.90363,0.346865,-4.44265,-3.60346,-12.3748,7.86655,4.58013,-17.7532,11.4629,2.53381,-8.42475,1.79698,-1.31198e-14,1.74931e-14,-46.851,9.1097,-76.9074,100.236,-12.5472,34.4413,24.6246,7.12502,57.6494,8.59268,-1.31198e-14,1.74931e-14,-36.1412,-37.9042,86.1725,111.859,-9.87888,-22.632,10.7791,7.12502,3.79849,40.725,-17.7211,-0.363549,23.2358,38.5973,-22.4915,-7.28983,27.0375,-15.8637,-2.77643,-18.4292,28.8197,-17.9924,-12.6656,-12.0441
20.1773,17.7379,-22.6119,2.73624,-6.20265,-3.42693,6.85515,0.938368,-1.28204,-0.0307284,0.938547,-5.11432,-3.81815,0.440107,-4.69692,-3.2396,-12.4797,7.39306,4.44186,-17.8351,11.7854,2.50717,-8.48775,1.98958,1.98785e-16,-3.33958e-14,-46.5484,10.5875,-76.8861,98.7898,-9.29214,34.3208,23.1391,7.12502,57.544,7.0154,1.98785e-16,-3.33958e-14,-36.255,-37.0217,85.4268,111.839,-10.9165,-22.5917,9.35955,7.12502,3.8374,39.3047,-17.8963,-0.0959707,22.9143,38.4224,-22.2397,-7.83664,28.1631,-15.7025,-2.77953,-18.3147,28.7151,-17.8311,-12.9639,-10.9366
20.18,17.7482,-22.5908,2.83553,-6.03834,-3.51418,6.79092,1.30771,-1.02256,0.331376,1.46547,-5.31736,-3.35592,0.704095,-5.09851,-5.15568,-12.7482,8.45189,5.0801,-18.529,11.1562,2.90697,-8.71101,1.46581,-1.43125e-14,1.59028e-15,-45.7739,11.1296,-76.5931,97.2099,-6.2222,33.6743,21.7747,7.12502,56.9765,5.16912,-1.43125e-14,1.59028e-15,-35.38,-37.0433,84.2557,111.713,-11.5975,-22.6355,8.80382,7.12502,3.79514,38.7498,-18.1962,-0.040006,22.5316,38.138,-22.1927,-8.48937,28.1496,-15.6581,-2.86031,-18.233,28.5567,-17.7189,-13.1218,-10.2588
20.1799,17.7563,-22.5675,2.8109,-5.8335,-3.73823,6.85901,1.49827,-0.621165,0.515356,1.75657,-5.35263,-3.16619,0.847723,-5.38878,-6.0087,-12.8373,8.63571,5.51217,-18.8054,10.8453,3.16079,-8.78848,1.25611,-3.1408e-14,-6.36111e-15,-45.34,12.4081,-76.3963,95.6468,-3.33552,34.0017,20.0874,7.12502,57.2642,3.72363,-3.1408e-14,-6.36111e-15,-35.303,-36.5082,83.5794,111.631,-12.1901,-22.622,8.96202,7.12502,3.80814,38.9077,-18.3322,-0.0854535,22.2909,37.7319,-22.2614,-9.14212,27.3932,-15.4709,-2.96139,-18.0068,28.3756,-17.6603,-13.2413,-9.59893
20.177,17.7651,-22.5373,2.64058,-5.67694,-3.86336,7.00858,1.6169,-0.343257,0.632333,1.93755,-5.33717,-3.10364,0.936898,-5.55016,-5.9306,-12.8793,8.24377,5.37258,-18.8216,11.051,3.16222,-8.8091,1.3811,-1.43125e-14,-2.38542e-14,-45.0833,14.0018,-76.2888,94.0861,-0.303987,33.6783,18.6258,7.12502,56.98,2.02309,-1.43125e-14,-2.38542e-14,-35.3932,-35.7371,83.0343,111.503,-12.3249,-22.648,9.59243,7.12502,3.78306,39.5386,-18.2798,-0.0940847,21.9286,37.2272,-22.1467,-9.67543,27.6888,-15.1088,-3.04998,-17.8969,28.2188,-17.6974,-13.2505,-9.85134
20.1707,17.7753,-22.515,2.60258,-5.62795,-4.10011,7.08974,1.81783,-0.0198725,0.7106,2.23478,-5.26772,-3.03028,1.08404,-5.68925,-5.95685,-13.0293,7.97807,5.21759,-18.9878,11.1029,3.14898,-8.90464,1.4283,-4.37326e-15,3.18055e-15,-44.8487,15.4936,-76.0798,92.4298,2.63106,29.1625,18.1893,7.12502,52.9525,-1.33309,-4.37326e-15,3.18055e-15,-35.4306,-35.0688,82.5734,111.311,-12.1339,-23.0776,9.93191,7.12502,3.36816,39.8851,-18.3746,0.0159177,21.7342,36.6436,-21.6701,-10.4622,27.3323,-14.8769,-3.091,-17.6254,28.0423,-17.6991,-13.2358,-10.3228
20.1644,17.7843,-22.5016,2.69538,-5.48025,-4.6791,7.16424,1.99702,0.677293,0.749352,2.5344,-5.1329,-2.97784,1.22821,-5.97372,-6.44955,-13.1692,7.81629,5.49279,-19.2456,10.9218,3.33481,-9.00108,1.3348,1.19271e-15,-1.90833e-14,-44.5997,16.7999,-75.8637,90.6741,5.14058,25.1188,17.3914,7.12502,49.2702,-4.20629,1.19271e-15,-1.90833e-14,-35.6541,-34.3637,82.1398,111.095,-11.9643,-23.7676,9.49631,7.12502,2.70179,39.4589,-18.575,0.162558,21.9287,35.9885,-21.1534,-11.187,27.4711,-14.7761,-3.3135,-16.9445,27.8285,-17.6397,-13.1102,-10.5914
20.1654,17.7935,-22.4759,2.62429,-5.21712,-4.91541,7.21059,2.10638,1.12841,0.907087,2.72351,-5.0848,-2.8005,1.3247,-6.19407,-7.0785,-13.1909,7.53183,5.8178,-19.3715,10.8943,3.59508,-9.0191,1.29748,-1.39149e-14,4.29375e-14,-44.2218,18.2233,-75.7386,88.8169,7.22795,25.3701,15.0265,7.12502,49.5008,-6.45451,-1.39149e-14,4.29375e-14,-35.8346,-33.5712,81.671,110.791,-11.8181,-24.4733,9.47953,7.12502,2.02027,39.4497,-18.5745,0.017994,21.674,35.2655,-20.5061,-11.5364,28.7853,-14.4801,-3.83221,-16.7103,27.6152,-17.7596,-12.4991,-12.7065
20.1674,17.8091,-22.4446,2.53824,-4.96467,-5.03301,7.19715,2.2297,1.36413,1.09045,2.91796,-4.94312,-2.57574,1.42857,-6.18732,-7.01809,-13.2152,7.07271,5.42701,-19.3283,11.1826,3.52854,-9.02525,1.46825,-4.45278e-14,-4.77083e-15,-43.8735,19.8725,-75.4943,87.0209,9.20823,21.4943,13.0587,7.12502,45.9245,-10.0673,-4.45278e-14,-4.77083e-15,-35.9828,-32.6537,81.3875,110.465,-11.8477,-24.8268,10.0989,7.12502,1.67887,40.0721,-18.5203,-0.314454,21.2691,34.4749,-19.558,-11.7809,30.1531,-14.1832,-4.34196,-16.6343,27.3884,-17.82,-11.8947,-14.7062
20.1644,17.8309,-22.4218,2.63672,-4.69442,-5.42635,7.2875,2.42371,1.77419,0.976063,3.21282,-4.70535,-2.70167,1.56839,-6.20365,-5.44953,-13.3562,6.69756,3.94064,-19.1438,11.7473,2.82801,-9.09127,1.87262,1.19271e-15,9.54166e-15,-44.0549,21.2491,-75.1911,85.3099,11.5929,18.1498,11.4563,7.12502,42.8077,-12.8572,1.19271e-15,9.54166e-15,-36.6007,-31.9453,81.4786,110.171,-11.8873,-24.6728,10.4038,7.12502,1.82753,40.3757,-18.6353,-0.567551,21.2018,33.634,-18.5533,-12.0291,31.1615,-14.117,-4.71755,-16.1907,27.1099,-17.4794,-11.9293,-13.234
20.1583,17.8434,-22.3993,2.67687,-4.46531,-5.68747,7.64353,2.71319,2.19495,0.524285,3.62239,-4.68346,-3.2969,1.7446,-6.49895,-4.68107,-13.6161,6.83599,3.89617,-19.3741,11.4225,2.62906,-9.24531,1.80545,-4.53229e-14,4.77083e-15,-44.8081,22.1385,-75.2295,83.5387,13.9728,15.9,10.0752,7.12502,40.6981,-14.9364,-4.53229e-14,4.77083e-15,-38.019,-31.7995,81.6954,109.926,-11.8458,-25.0885,10.262,7.12502,1.42608,40.237,-18.7233,-0.858105,20.9848,32.7351,-17.4569,-12.1698,31.8964,-13.9768,-5.03831,-15.8822,26.8443,-16.944,-12.2492,-9.96544
20.151,17.8509,-22.3742,2.6249,-4.20723,-5.89004,7.97444,2.88454,2.45223,0.46569,3.87576,-4.60139,-3.49952,1.86077,-6.60784,-5.0453,-13.7031,7.14236,3.87668,-19.5204,11.1435,2.62325,-9.30849,1.6472,-9.14409e-15,4.29375e-14,-44.4969,23.1163,-74.9437,81.5659,15.9005,14.1974,8.75925,7.12502,39.0957,-16.7333,-9.14409e-15,4.29375e-14,-38.7321,-31.2686,81.3236,109.73,-11.8453,-26.1393,10.0228,7.12502,0.411185,40.0022,-18.6682,-1.23491,20.6973,31.7963,-16.3639,-12.3367,32.804,-13.711,-5.32338,-15.6513,26.6055,-16.8328,-12.1847,-10.0651
20.1426,17.867,-22.3518,2.51872,-3.83456,-6.29997,7.98801,3.04824,2.82342,0.64381,4.14284,-4.30284,-3.28231,2.00067,-6.51845,-4.94776,-13.7791,6.98486,3.45483,-19.5491,11.2647,2.49385,-9.35357,1.7268,-3.22031e-14,-1.27222e-14,-44.1204,24.0899,-74.3081,79.511,18.3473,11.5665,7.91283,7.12502,36.6106,-18.2513,-3.22031e-14,-1.27222e-14,-39.052,-30.588,81.0658,109.459,-11.9013,-26.9847,9.89053,7.12502,-0.405331,39.8699,-18.4561,-1.69537,20.6519,30.8663,-15.4496,-12.424,33.5253,-13.3778,-5.59618,-15.1853,26.318,-17.0047,-11.8646,-12.1942
20.1326,17.8833,-22.3336,2.30543,-3.38094,-6.62832,7.90654,3.17052,2.9439,1.01531,4.33741,-3.83117,-2.85238,2.11829,-6.07965,-4.86314,-13.8391,6.61883,2.85477,-19.5241,11.4073,2.32973,-9.38545,1.8482,-2.62396e-14,-4.77083e-15,-43.3021,25.0917,-73.2004,77.2847,21.2365,9.09793,7.37224,7.12502,34.2703,-19.3511,-2.62396e-14,-4.77083e-15,-39.0648,-29.6404,81.0168,109.021,-12.1533,-27.4515,9.91335,7.12502,-0.856181,39.8914,-18.1419,-2.30397,20.505,29.9616,-14.5954,-12.1372,34.1005,-12.9412,-5.97214,-14.8169,25.9598,-16.9244,-11.7699,-12.3794
20.1217,17.8979,-22.3172,2.10395,-2.89572,-6.69978,7.92737,3.28932,2.8199,1.37023,4.50131,-3.43131,-2.51703,2.21769,-5.58645,-4.87707,-13.9082,6.37717,2.10018,-19.5093,11.5481,2.11915,-9.42753,1.95092,-9.54166e-15,1.43125e-14,-42.2173,25.8858,-71.9578,74.9588,23.7517,7.58788,6.8295,7.12502,32.8351,-20.2054,-9.54166e-15,1.43125e-14,-39.1059,-28.7262,80.9595,108.606,-12.359,-27.8252,9.88098,7.12502,-1.21709,39.8573,-17.8624,-2.86492,20.0564,29.0528,-13.5121,-11.7978,34.0007,-12.5292,-6.5461,-14.7473,25.5796,-16.9014,-11.4315,-13.2561
20.1102,17.9181,-22.3001,1.85966,-2.41508,-6.81594,8.23173,3.41206,2.80557,1.5875,4.67944,-3.06761,-2.47205,2.31131,-5.22509,-5.0026,-14.0142,6.29822,1.50295,-19.5775,11.5594,1.95194,-9.4969,1.9757,2.8625e-14,-9.54166e-15,-41.4851,26.6408,-70.8915,72.7273,26.0028,6.51596,5.94722,7.12502,31.8148,-21.2957,2.8625e-14,-9.54166e-15,-39.361,-27.9695,80.9436,108.112,-12.5057,-28.3574,9.7924,7.12502,-1.73109,39.7651,-17.51,-3.32328,19.6308,28.131,-12.327,-11.4402,34.3473,-12.0712,-7.11976,-14.6347,25.2185,-16.9616,-11.0222,-14.4046
20.097,17.937,-22.2827,1.62025,-1.98207,-7.19129,8.65351,3.50832,2.99521,1.7351,4.84442,-2.62707,-2.55758,2.39195,-4.91168,-5.46826,-14.0818,6.45273,1.19936,-19.6629,11.2563,1.87876,-9.54802,1.83749,-3.33958e-14,-1.59028e-15,-40.9439,27.5712,-69.9098,70.6491,27.9529,5.57481,4.89964,7.12502,30.9181,-22.5174,-3.33958e-14,-1.59028e-15,-39.6262,-27.1246,80.8301,107.459,-12.5782,-28.6144,9.60155,7.12502,-1.9793,39.5721,-17.1372,-3.65084,19.4723,27.219,-11.3348,-10.9483,35.8261,-11.6257,-7.42897,-14.2159,24.8462,-16.8052,-11.0372,-14.637
20.08,17.9507,-22.2642,1.48719,-1.62789,-7.5841,8.83721,3.64447,3.09975,1.9296,5.05249,-2.15797,-2.46958,2.49992,-4.50546,-6.01701,-14.1052,6.77258,0.850677,-19.6974,10.8386,1.77223,-9.57694,1.6433,-8.92543e-14,9.54166e-15,-40.2259,28.3751,-68.8262,68.6014,29.7191,4.23545,4.01435,7.12502,29.6405,-23.6374,-8.92543e-14,9.54166e-15,-39.7419,-26.2803,80.5826,106.79,-12.4458,-28.7503,9.19268,7.12502,-2.11052,39.162,-16.8551,-3.79456,19.3495,26.2887,-10.1809,-10.5173,35.8176,-11.281,-7.69447,-13.751,24.4539,-16.6057,-11.0164,-15.2378
20.0633,17.9686,-22.241,1.29809,-1.27232,-7.74141,8.85619,3.82239,2.95705,2.19483,5.2882,-1.70944,-2.23808,2.62695,-3.97032,-6.04129,-14.1621,6.97612,0.155806,-19.6858,10.6259,1.50015,-9.62072,1.58456,-2.127e-14,3.02153e-14,-39.4043,28.9827,-67.5948,66.5301,31.3796,3.0958,3.26098,7.12502,28.5521,-24.5789,-2.127e-14,3.02153e-14,-39.9683,-25.7368,80.4738,106.237,-12.254,-29.2444,9.36896,7.12502,-2.58771,39.333,-16.4918,-4.05702,18.9555,25.316,-8.80655,-9.98225,34.9283,-10.8308,-8.0422,-13.583,24.0842,-16.6565,-10.6262,-17.3489
20.0485,17.9915,-22.2171,1.02748,-0.783114,-7.93356,9.02131,3.96686,2.90317,2.39762,5.49111,-1.22597,-2.15459,2.73155,-3.46299,-5.96392,-14.267,6.90421,-0.358527,-19.745,10.5977,1.32419,-9.68625,1.61289,-3.24019e-14,3.18055e-15,-38.7829,29.5698,-66.2894,64.659,32.5128,3.0212,2.65104,7.12502,28.4808,-25.2008,-3.24019e-14,3.18055e-15,-40.3319,-25.3432,80.5594,105.612,-12.0686,-30.0093,9.80141,7.12502,-3.32645,39.7552,-16.0104,-4.4048,18.5858,24.3903,-7.56212,-9.29497,35.2631,-10.3011,-8.43431,-13.392,23.7045,-16.7694,-10.2542,-19.7093
20.0313,18.0137,-22.1993,0.726825,-0.0326473,-8.38813,9.44919,4.02444,3.15242,2.49314,5.61749,-0.665692,-2.31433,2.78969,-3.06684,-6.35515,-14.3859,6.70325,-0.387351,-19.9234,10.5614,1.39927,-9.76235,1.59146,-4.03533e-14,3.18055e-14,-38.3944,30.0603,-64.967,62.934,33.7086,3.33582,2.3985,7.12502,28.7814,-25.4026,-4.03533e-14,3.18055e-14,-40.8107,-24.846,80.6586,104.92,-12.0384,-30.4764,9.78946,7.12502,-3.77749,39.7357,-15.4872,-4.62297,18.4999,23.613,-6.40892,-8.7874,35.9802,-9.82293,-8.9734,-12.872,23.2403,-16.7956,-10.1699,-21.0323
20.0119,18.0321,-22.1862,0.385772,0.649651,-8.81114,9.92212,4.08348,3.33461,2.63243,5.74428,-0.0927429,-2.46232,2.84891,-2.62367,-6.54539,-14.4466,6.86657,-0.81189,-19.9694,10.3483,1.25072,-9.80972,1.51292,5.54609e-14,-1.11319e-14,-37.95,30.6419,-63.6534,61.1471,34.848,3.16173,2.19994,7.12502,28.6151,-25.6294,5.54609e-14,-1.11319e-14,-41.2724,-24.2346,80.6466,104.264,-12.1987,-30.4789,10.1027,7.12502,-3.7799,40.0489,-15.0026,-4.72504,18.3654,22.9553,-5.12634,-8.40639,36.4039,-9.30259,-9.61432,-12.3918,22.7414,-16.667,-10.1172,-21.3514
19.9927,18.0465,-22.1703,-0.00805423,1.00736,-8.96527,10.3191,4.17094,3.13681,2.89679,5.86753,0.502914,-2.48105,2.9116,-1.93635,-6.35195,-14.4282,7.12099,-1.61224,-19.8316,10.0333,0.895498,-9.80479,1.45006,6.44062e-14,-3.18055e-15,-37.155,31.6335,-62.2119,59.3073,35.4373,2.47404,1.88822,7.12502,27.9579,-26.05,6.44062e-14,-3.18055e-15,-41.6487,-23.4425,80.6249,103.536,-12.3109,-30.7482,10.133,7.12502,-4.04002,40.0744,-14.522,-4.78165,17.9424,22.4005,-3.73669,-7.70136,37.0696,-8.62176,-10.2638,-12.2549,22.2472,-16.1783,-10.0524,-19.6538
19.9766,18.0642,-22.1477,-0.369438,1.37991,-9.09901,10.6166,4.20551,2.90755,3.18492,5.91426,1.14319,-2.43434,2.93726,-1.16922,-6.29488,-14.3687,7.07963,-2.23348,-19.6656,9.79507,0.662104,-9.76579,1.42691,6.04305e-14,1.43125e-14,-36.2185,32.7261,-60.6258,57.5925,36.2073,1.96423,1.71335,7.12502,27.4704,-26.3033,6.04305e-14,1.43125e-14,-42.0634,-22.6303,80.6569,102.851,-12.3212,-30.9707,9.70497,7.12502,-4.25489,39.6422,-14.0957,-4.87296,17.5079,21.9902,-2.37947,-6.8703,37.7686,-7.93184,-10.8332,-12.1615,21.6974,-15.6538,-9.94124,-18.3451
19.9605,18.0847,-22.1252,-0.682108,1.84411,-9.41963,10.8726,4.25748,2.98116,3.40792,6.01403,1.72765,-2.3947,2.98808,-0.631823,-6.12679,-14.3551,7.16145,-2.97634,-19.5491,9.64574,0.373762,-9.76013,1.42847,-2.64384e-14,-1.23246e-14,-35.4788,33.5414,-59.211,55.9701,37.2552,2.04086,1.59635,7.12502,27.5437,-26.4086,-2.64384e-14,-1.23246e-14,-42.4217,-22.1305,80.6414,102.095,-12.3289,-31.006,9.51333,7.12502,-4.28895,39.4499,-13.7723,-4.74361,17.2836,21.696,-1.1444,-6.41422,38.0041,-7.30198,-11.2494,-11.8419,21.0741,-15.3699,-9.75509,-19.5655
19.9416,18.1028,-22.1048,-1.00689,2.2502,-9.82206,11.1471,4.38643,3.17821,3.61443,6.22994,2.28872,-2.3654,3.09627,-0.20253,-6.09126,-14.4215,7.26014,-3.57071,-19.5725,9.53344,0.159621,-9.80994,1.41852,4.26393e-14,2.26615e-14,-34.8204,34.2738,-57.8582,54.2922,38.1206,2.05625,1.31578,7.12502,27.5584,-26.6868,4.26393e-14,2.26615e-14,-42.6426,-21.8638,80.5816,101.201,-12.354,-31.1145,9.52255,7.12502,-4.39371,39.457,-13.4541,-4.61714,17.1797,21.4664,0.116298,-5.88532,37.5425,-6.67509,-11.5421,-11.4246,20.4172,-15.0505,-9.71858,-20.2215
19.9249,18.1229,-22.0833,-1.339,2.63435,-10.1368,11.419,4.51257,3.28034,3.82565,6.43371,2.88038,-2.3464,3.19818,0.31151,-6.42254,-14.4816,7.15436,-3.81721,-19.6519,9.36633,0.127221,-9.85453,1.36901,-9.17391e-14,-3.4191e-14,-34.2069,35.1907,-56.4051,52.7304,38.6861,1.83094,0.937038,7.12502,27.3429,-27.0998,-9.17391e-14,-3.4191e-14,-42.8249,-21.5123,80.5447,100.338,-12.4904,-30.706,9.90193,7.12502,-3.99925,39.8441,-13.1415,-4.81389,17.0044,21.3267,1.4003,-4.97732,37.6226,-6.02128,-11.9165,-11.1295,19.7468,-14.6318,-9.6993,-19.8827
19.9107,18.1483,-22.0625,-1.59471,3.03145,-10.3824,11.6629,4.55907,3.34866,3.98037,6.52973,3.44781,-2.3758,3.24545,0.8322,-6.57581,-14.4981,7.09933,-4.21636,-19.6434,9.19827,0.0131052,-9.8696,1.33777,-2.9271e-14,-7.55382e-15,-33.5851,36.3291,-55.0448,51.2366,38.9537,1.35156,0.484239,7.12502,26.8843,-27.624,-2.9271e-14,-7.55382e-15,-42.9933,-21.0574,80.5278,99.3179,-12.6953,-30.4651,10.0857,7.12502,-3.7666,40.0321,-12.8869,-4.81767,16.7371,21.2609,2.4324,-4.53763,39.4874,-5.44483,-12.3723,-10.908,19.1384,-14.3041,-9.4927,-20.1896
19.8939,18.1702,-22.0415,-1.73115,3.38878,-10.6488,11.8025,4.59312,3.42375,4.11007,6.60551,3.98703,-2.37172,3.2834,1.33133,-6.55866,-14.4804,7.19289,-4.78266,-19.5661,9.04372,-0.192988,-9.86582,1.31757,4.42389e-14,9.93923e-15,-32.8368,37.4626,-53.6591,49.7092,39.1591,1.07416,0.25056,7.12502,26.6188,-27.8983,4.42389e-14,9.93923e-15,-43.1484,-20.6883,80.5264,98.1924,-12.7944,-31.0735,10.0558,7.12502,-4.35406,39.991,-12.7808,-5.00749,16.5429,21.2682,3.66515,-4.34823,41.2875,-5.0157,-12.8297,-10.6361,18.5997,-14.109,-9.14463,-20.5815
19.8745,18.1815,-22.0252,-1.89808,3.72378,-10.9826,11.9094,4.66882,3.55094,4.31147,6.737,4.53999,-2.2722,3.35109,1.81658,-6.6355,-14.4688,7.54083,-5.35129,-19.5233,8.672,-0.431091,-9.88174,1.20056,2.8625e-14,-2.16675e-14,-32.055,38.0894,-52.0223,48.4462,39.8475,1.82113,0.697976,7.12502,27.3335,-27.3403,2.8625e-14,-2.16675e-14,-43.3085,-20.4827,80.4922,97.2742,-12.7456,-31.6969,9.91657,7.12502,-4.95607,39.8386,-12.7623,-5.56349,16.54,21.3965,5.10807,-3.92825,41.2949,-4.57587,-13.3821,-10.2794,18.0718,-14.0858,-8.64962,-21.7386
19.8568,18.1915,-22.0115,-2.10651,4.02792,-11.1874,12.1013,4.76231,3.61796,4.47308,6.8904,5.02663,-2.26141,3.42801,2.25462,-6.81998,-14.497,7.84876,-5.61732,-19.5735,8.27876,-0.555445,-9.92339,1.05681,-2.21148e-14,-2.5842e-15,-31.4125,38.5189,-50.507,47.3201,40.548,0.942908,0.458068,7.12502,26.4932,-27.7098,-2.21148e-14,-2.5842e-15,-43.6161,-20.4402,80.4062,96.4814,-12.7615,-31.8182,9.41121,7.12502,-5.07323,39.3305,-12.6964,-6.15589,16.4368,21.5992,6.31803,-3.32188,39.9864,-4.10618,-13.9138,-10.0793,17.604,-14.1083,-8.18181,-23.0835
19.8394,18.1991,-21.9951,-2.34194,4.35022,-11.3114,12.4588,4.77663,3.69032,4.52792,6.95601,5.45084,-2.44372,3.45807,2.6179,-6.97312,-14.4877,7.80035,-5.61601,-19.574,8.08456,-0.546683,-9.91923,0.996593,-2.54444e-14,9.14409e-15,-30.625,39.6647,-49.288,45.7216,40.4378,0.922495,0.310512,7.12502,26.4737,-27.8603,-2.54444e-14,9.14409e-15,-44.1673,-20.3726,80.2646,95.7496,-12.9444,-31.6566,9.32724,7.12502,-4.91719,39.2502,-12.537,-6.80372,16.2192,21.8296,7.38432,-2.70953,39.7862,-3.66608,-14.4113,-9.98816,17.2067,-14.0399,-7.8481,-24.0131
19.8174,18.2052,-21.9838,-2.6385,4.78829,-11.5911,12.8761,4.71049,3.91621,4.64071,6.93837,5.92919,-2.58407,3.44793,2.96577,-6.91662,-14.4136,7.83836,-6.03162,-19.438,7.89914,-0.709211,-9.87617,0.971116,2.17669e-14,-3.22031e-14,-29.5204,40.884,-47.9019,44.0465,40.1865,0.609416,0.338414,7.12502,26.174,-27.8772,2.17669e-14,-3.22031e-14,-44.5905,-20.2685,80.1183,94.9846,-13.0578,-31.7506,10.0983,7.12502,-5.00794,40.0191,-12.3404,-7.07326,16.1884,22.0842,8.37926,-2.66884,40.6355,-3.26674,-14.9526,-9.69742,16.8108,-13.8764,-7.68625,-24.7454
19.7952,18.2244,-21.9739,-2.81305,5.16044,-11.9181,13.0721,4.7062,4.13677,4.81042,6.98575,6.4436,-2.55152,3.47336,3.36852,-6.85848,-14.3588,7.99977,-6.66154,-19.319,7.71872,-0.952318,-9.85494,0.945179,8.24956e-14,1.59028e-14,-28.2928,41.2934,-46.1512,42.793,40.4775,0.628789,0.557966,7.12502,26.1925,-27.6549,8.24956e-14,1.59028e-14,-44.7534,-20.2074,80.0599,94.0284,-13.2181,-31.7772,10.2946,7.12502,-5.03365,40.2148,-12.2711,-7.18949,16.2755,22.2907,9.3616,-2.55925,40.1521,-2.99558,-15.3493,-9.30633,16.4635,-13.6883,-7.59095,-25.4707
19.7765,18.2437,-21.9613,-2.86811,5.42387,-12.2899,13.183,4.67996,4.44567,4.88075,7.01713,6.96252,-2.56713,3.49035,3.73404,-6.92968,-14.326,7.78938,-6.80554,-19.2618,7.63681,-0.975046,-9.82807,0.949774,-8.74653e-15,2.3059e-14,-27.0054,41.5088,-44.3582,41.6031,41.035,0.774283,0.710144,7.12502,26.3318,-27.4819,-8.74653e-15,2.3059e-14,-45.1272,-20.0939,80.1468,93.0644,-13.3629,-31.8071,9.86363,7.12502,-5.06247,39.7832,-12.2739,-7.31533,16.4365,22.4207,10.3622,-2.14223,39.565,-2.85002,-15.6296,-8.8436,16.1942,-13.626,-7.4627,-26.0482
19.7585,18.251,-21.9486,-3.00441,5.73157,-12.6281,13.4556,4.54249,4.82132,4.88099,6.92907,7.42891,-2.72475,3.44546,4.01209,-6.88583,-14.2278,7.44062,-6.74401,-19.1158,7.53198,-0.939564,-9.74549,0.961856,-1.98785e-15,2.14687e-14,-25.8765,42.0458,-42.7143,40.7208,41.3391,0.300242,0.559499,7.12502,25.8779,-27.6996,-1.98785e-15,2.14687e-14,-45.8276,-20.0075,80.3018,92.2183,-13.1564,-32.3397,10.0109,7.12502,-5.57674,39.9175,-12.1979,-7.16391,16.5417,22.558,11.5705,-2.0657,40.0964,-2.63054,-15.9143,-8.44168,15.8722,-13.6697,-7.43165,-25.9212
19.7378,18.2575,-21.9363,-3.13058,6.08741,-12.75,13.7336,4.4069,5.0098,4.90244,6.81527,7.75883,-2.86657,3.3876,4.25622,-6.73515,-14.0589,7.57662,-7.02933,-18.869,7.23682,-1.09724,-9.64172,0.893806,-1.78906e-15,7.95139e-16,-24.774,42.6128,-41.1285,40.1133,41.4441,0.0790565,0.400198,7.12502,25.6661,-27.8897,-1.78906e-15,7.95139e-16,-46.3706,-20.0248,80.2432,91.3588,-12.8197,-32.4673,9.92081,7.12502,-5.69989,39.8241,-12.1382,-7.02022,16.4158,22.7163,12.8028,-2.03214,40.7988,-2.38097,-16.1517,-8.28131,15.4757,-13.7036,-7.35545,-26.9759
19.7154,18.2716,-21.9238,-3.16447,6.43483,-12.7171,13.9121,4.35133,5.06656,4.90862,6.77795,7.96734,-2.97422,3.36825,4.4399,-6.68423,-13.922,7.932,-7.3336,-18.6836,6.9451,-1.26619,-9.57167,0.792331,6.44062e-14,-1.90833e-14,-23.6844,42.6958,-39.6828,39.3698,41.8514,0.453286,0.582475,7.12502,26.0245,-27.6552,6.44062e-14,-1.90833e-14,-46.6945,-20.2309,80.0471,90.415,-12.6026,-32.4443,9.96301,7.12502,-5.67767,39.8669,-12.1263,-7.04982,16.1517,22.8733,13.8781,-1.52777,41.3076,-2.19322,-16.3704,-8.26819,15.0472,-13.4225,-7.41542,-27.2437
19.6934,18.2878,-21.91,-3.1939,6.76733,-12.7688,14.0411,4.27429,5.26168,4.92583,6.72562,8.19025,-3.028,3.34231,4.57042,-6.76765,-13.8231,8.02759,-7.39222,-18.5639,6.80067,-1.29474,-9.51475,0.737092,-2.78299e-14,9.54166e-15,-22.5536,42.517,-38.2888,38.4582,42.3031,0.237838,0.693966,7.12502,25.8182,-27.5739,-2.78299e-14,9.54166e-15,-46.9856,-20.4185,79.9152,89.3584,-12.3894,-32.8014,10.3433,7.12502,-6.02246,40.2377,-12.1096,-6.83214,16.0199,23.0457,14.796,-1.02474,41.4984,-2.00362,-16.4671,-8.14304,14.5926,-13.0433,-7.66852,-26.6682
19.6686,18.2959,-21.8954,-3.29326,7.16963,-12.8884,14.2407,4.11307,5.54617,5.00469,6.57886,8.47162,-3.0465,3.27009,4.72911,-7.03815,-13.7533,8.00183,-7.39506,-18.5032,6.61569,-1.26783,-9.47931,0.667326,-1.23246e-14,-2.06736e-14,-21.1958,42.7108,-36.6918,37.5522,42.3831,-0.535498,0.274274,7.12502,25.0774,-28.0992,-1.23246e-14,-2.06736e-14,-47.1643,-20.4157,79.766,88.2171,-12.0463,-32.7306,9.8646,7.12502,-5.95414,39.7609,-12.0266,-6.48809,15.9878,23.2367,15.4195,-1.03732,41.9316,-1.78222,-16.5297,-7.92953,14.146,-12.8192,-7.96836,-26.8184
19.6433,18.3002,-21.8829,-3.37233,7.66639,-13.0286,14.4719,3.89598,5.83211,5.03384,6.37193,8.7955,-3.13657,3.16709,4.94089,-7.16632,-13.6796,8.03112,-7.53964,-18.4244,6.24896,-1.3331,-9.44512,0.559223,2.06736e-14,-5.08889e-14,-19.7418,43.064,-34.8703,36.9969,42.3169,-0.471922,0.21058,7.12502,25.1383,-28.1543,2.06736e-14,-5.08889e-14,-47.477,-20.3582,79.7277,86.9892,-11.9509,-32.4554,8.9083,7.12502,-5.68846,38.8119,-11.9655,-6.3317,16.0106,23.4338,15.6839,-1.09574,42.2977,-1.63138,-16.8285,-7.69042,13.7035,-12.5883,-8.12292,-27.151
19.6232,18.3074,-21.8689,-3.35931,8.05164,-13.0761,14.5636,3.65836,6.05446,5.03992,6.11471,9.07429,-3.17426,3.03986,5.15866,-6.9651,-13.5309,8.10246,-7.78272,-18.2127,5.84142,-1.49023,-9.3544,0.463953,-6.0033e-14,-7.95139e-14,-18.049,43.0412,-33.0412,36.4475,42.4954,-0.389605,0.58072,7.12502,25.2171,-27.7731,-6.0033e-14,-7.95139e-14,-48.0031,-20.238,79.7857,85.7563,-12.2301,-32.4391,8.75204,7.12502,-5.67267,38.6561,-12.0334,-6.24624,15.995,23.6736,15.791,-0.90031,41.7243,-1.48947,-17.0886,-7.56069,13.2231,-12.4572,-8.07049,-28.3136
19.6048,18.3176,-21.8505,-3.33085,8.27374,-12.9843,14.5631,3.49441,6.24061,5.11605,5.92292,9.22129,-3.07931,2.94669,5.25134,-6.8591,-13.424,8.24594,-7.99134,-18.0652,5.60442,-1.61147,-9.29455,0.397627,3.22031e-14,-5.56597e-14,-16.418,42.4857,-31.4581,35.7333,42.9989,-1.08521,0.548432,7.12502,24.5505,-27.8976,3.22031e-14,-5.56597e-14,-48.3423,-20.2448,79.6931,84.5894,-12.2757,-32.5819,9.27621,7.12502,-5.81055,39.1765,-12.1779,-6.12482,15.8711,23.9715,15.9525,-0.772238,40.887,-1.24816,-17.133,-7.58044,12.6957,-12.2647,-8.25676,-28.2724
19.5853,18.3253,-21.8309,-3.227,8.54907,-12.8413,14.4885,3.33336,6.39346,5.1802,5.72143,9.34457,-2.95739,2.84932,5.34204,-6.76617,-13.3048,8.36305,-8.37519,-17.8898,5.43144,-1.77907,-9.22785,0.359956,1.19271e-13,8.42847e-14,-14.7557,41.7366,-29.8311,35.0683,43.5285,-1.56308,0.51307,7.12502,24.0924,-27.9944,1.19271e-13,8.42847e-14,-48.6404,-20.2855,79.5891,83.3773,-12.1005,-33.1426,9.65074,7.12502,-6.35184,39.5355,-12.4038,-6.0954,15.712,24.2649,16.0774,-0.87723,40.6363,-1.09818,-17.2919,-7.62844,12.156,-11.9168,-8.59343,-26.0454
19.5655,18.3283,-21.8096,-3.10962,8.78974,-12.6145,14.4134,3.12559,6.41218,5.19384,5.44615,9.48038,-2.8993,2.714,5.53173,-6.57318,-13.058,8.27047,-8.48902,-17.5439,5.20494,-1.8563,-9.05873,0.323371,3.69739e-14,-2.22639e-14,-12.8694,41.3208,-28.1042,34.4777,43.8074,-1.8267,0.641863,7.12502,23.8396,-27.8988,3.69739e-14,-2.22639e-14,-49.1406,-20.145,79.5722,82.0507,-12.003,-33.7094,9.70339,7.12502,-6.89906,39.571,-12.5983,-6.34301,15.5004,24.5576,16.1562,-0.920672,40.9235,-0.877163,-17.4721,-7.79028,11.557,-11.6647,-8.64135,-25.1667
19.5429,18.3349,-21.7908,-3.01076,8.88614,-12.6504,14.3875,2.91283,6.70202,5.18239,5.21119,9.66339,-2.875,2.59792,5.61156,-6.42168,-12.8113,8.05705,-8.3002,-17.2133,4.98753,-1.81408,-8.88038,0.285445,6.83819e-14,8.42847e-14,-10.9818,40.8444,-26.4885,33.9647,44.1857,-2.19758,0.532341,7.12502,23.4839,-28.0543,6.83819e-14,8.42847e-14,-49.5712,-19.9183,79.5411,80.6789,-11.8315,-33.7321,9.36808,7.12502,-6.92098,39.2349,-12.842,-6.38653,15.6439,24.8894,16.0385,-1.05977,41.4117,-0.608447,-17.3956,-7.62548,10.877,-11.5018,-8.62272,-26.7387
19.5181,18.3421,-21.7789,-2.84913,8.99314,-12.6219,14.3752,2.73006,6.98198,5.21949,5.00839,9.81746,-2.80649,2.4985,5.66068,-6.38098,-12.6186,8.08153,-8.45937,-16.97,4.57662,-1.91111,-8.76395,0.171607,3.93594e-14,6.67916e-14,-9.06156,39.76,-24.9207,33.3794,44.6123,-2.4913,0.485836,7.12502,23.2021,-28.1366,3.93594e-14,6.67916e-14,-49.7512,-19.6979,79.4977,79.3475,-11.5628,-33.612,9.15274,7.12502,-6.80505,39.0234,-13.1787,-6.21402,15.763,25.2647,15.8489,-1.24683,41.098,-0.447216,-17.2976,-7.48956,10.1714,-11.255,-8.70036,-27.4019
19.496,18.3439,-21.7653,-2.69637,9.14064,-12.1907,14.4147,2.59562,6.92045,5.30552,4.81843,9.85598,-2.73431,2.40498,5.77065,-6.58499,-12.4616,8.35675,-8.60038,-16.8253,3.90983,-2.0115,-8.69796,-0.0685273,-2.38542e-14,1.59028e-15,-7.21692,38.2097,-23.514,32.6447,44.9925,-2.79195,0.581964,7.12502,22.9136,-28.0765,-2.38542e-14,1.59028e-15,-49.8362,-19.566,79.4496,77.9883,-11.2667,-33.6266,9.27117,7.12502,-6.81908,39.1414,-13.4509,-6.34504,15.4417,25.6863,15.6423,-1.31999,40.8326,-0.171887,-17.5542,-7.86302,9.40686,-10.8416,-8.60223,-26.501
19.4777,18.3443,-21.7444,-2.49441,9.18158,-11.8732,14.3524,2.40077,6.97871,5.32706,4.56047,9.93545,-2.66481,2.27741,5.87267,-6.81822,-12.2686,8.36417,-8.30914,-16.6404,3.27264,-1.93337,-8.58852,-0.289777,-1.07344e-14,-3.33958e-14,-5.2515,36.8707,-22.163,31.9777,45.5464,-3.40354,0.461463,7.12502,22.3266,-28.2686,-1.07344e-14,-3.33958e-14,-50.1708,-19.2756,79.4413,76.6078,-10.9017,-33.3488,9.37673,7.12502,-6.55098,39.2554,-13.8245,-6.78151,15.2768,26.1566,15.3116,-1.27249,40.8951,0.214699,-17.6998,-8.12457,8.47103,-10.4036,-8.48729,-26.1112
19.4595,18.3444,-21.7224,-2.1327,9.12298,-11.5656,14.1087,2.19556,7.03049,5.24349,4.27662,10.0301,-2.60913,2.13635,6.00267,-6.65352,-12.0572,8.17387,-8.09464,-16.3767,2.68929,-1.92014,-8.44124,-0.438552,0,4.29375e-14,-3.31167,35.8887,-20.8605,31.5011,45.9147,-4.05757,0.227558,7.12502,21.6987,-28.5764,0,4.29375e-14,-50.681,-18.8911,79.5035,75.1366,-10.7287,-32.8725,9.22325,7.12502,-6.09115,39.1157,-14.3679,-7.23136,15.1957,26.6037,15.0633,-0.989897,39.8902,0.482606,-17.7175,-8.31997,7.51335,-10.0921,-8.24114,-26.9169
19.4393,18.3479,-21.7035,-1.73363,9.08608,-11.1885,13.8803,2.03248,7.03643,5.10633,4.04809,10.0661,-2.62051,2.02162,6.08175,-6.03544,-11.9264,8.16607,-8.27719,-16.1747,2.13292,-2.13046,-8.34426,-0.556031,1.19271e-15,-3.02153e-14,-1.75264,34.7176,-19.8634,31.1192,46.1972,-4.46872,0.206053,7.12502,21.3038,-28.643,1.19271e-15,-3.02153e-14,-51.1556,-18.6948,79.5694,73.562,-10.7849,-32.4253,9.41329,7.12502,-5.65934,39.3177,-14.8604,-7.38755,15.0659,26.9578,14.747,-1.10925,39.3746,0.534289,-17.7527,-8.56321,6.85485,-9.90762,-8.00676,-27.6143
19.419,18.3502,-21.6851,-1.55074,8.88486,-11.0575,13.8319,1.88011,7.35679,5.11462,3.8793,10.1082,-2.55541,1.9382,5.97797,-5.72997,-11.7735,8.3365,-8.3409,-15.9879,1.51784,-2.27169,-8.2523,-0.74536,-7.95139e-16,-3.97569e-14,-0.239534,33.0095,-19.0961,30.7453,46.943,-4.81006,0.523029,7.12502,20.9759,-28.3627,-7.95139e-16,-3.97569e-14,-51.4074,-18.6006,79.5394,71.8581,-10.6384,-32.791,9.92186,7.12502,-6.01242,39.8165,-15.1505,-7.29511,15.2088,27.2919,14.2296,-1.38135,39.0321,0.800098,-17.6707,-8.59035,6.24605,-9.6711,-7.82673,-28.0733
19.3961,18.3448,-21.6687,-1.46368,8.54809,-10.8616,13.8159,1.75978,7.6087,5.36824,3.71535,10.1475,-2.25143,1.86149,5.91248,-6.26103,-11.4661,8.40371,-8.10242,-15.6733,0.913659,-2.15226,-8.08476,-0.991186,-2.14687e-14,-2.06736e-14,1.71033,31.1233,-18.1581,30.3454,47.665,-4.86581,1.00262,7.12502,20.9223,-27.889,-2.14687e-14,-2.06736e-14,-51.1596,-18.3863,79.4087,69.9423,-10.446,-33.9559,9.85774,7.12502,-7.13696,39.7174,-15.3482,-7.08402,15.2962,27.647,13.6508,-1.71734,38.699,1.32143,-17.4758,-8.71118,5.43695,-9.22962,-7.84772,-26.6516
19.3721,18.3415,-21.6516,-1.29069,8.33391,-10.4226,13.7411,1.59128,7.55185,5.57996,3.44619,10.1928,-1.9764,1.73052,6.04365,-6.65442,-11.126,8.24799,-7.91922,-15.2862,0.366454,-2.04437,-7.87925,-1.1772,-4.13472e-14,-1.145e-13,3.79268,29.7739,-17.0427,30.1509,47.7996,-4.81567,1.08978,7.12502,20.9705,-27.7966,-4.13472e-14,-1.145e-13,-50.957,-17.9032,79.3174,68.0816,-10.3112,-34.3592,9.47286,7.12502,-7.52624,39.319,-15.546,-6.92309,15.109,27.9889,13.1298,-2.32167,39.2362,1.75826,-17.3864,-9.08944,4.61512,-8.82468,-7.85116,-24.8889
19.354,18.3397,-21.6307,-1.06212,8.04275,-10.0731,13.6672,1.44261,7.65428,5.59339,3.24821,10.2314,-1.90677,1.63208,6.06213,-6.5891,-10.8736,8.29581,-7.737,-14.999,-0.465438,-2.06122,-7.7265,-1.45011,4.6118e-14,8.5875e-14,5.35356,28.2106,-16.4727,29.8847,48.0996,-5.16561,0.69308,7.12502,20.6343,-28.2301,4.6118e-14,8.5875e-14,-51.1029,-17.5538,79.3498,66.2419,-9.85569,-34.8939,9.39463,7.12502,-8.04232,39.2216,-15.8108,-7.02037,15.0446,28.3069,12.8078,-2.32299,38.6855,2.18924,-17.212,-9.39911,3.74098,-8.5374,-7.65017,-25.7599
19.3387,18.3328,-21.6072,-0.756439,7.62074,-9.76121,13.4851,1.34867,7.86122,5.58094,3.11981,10.2229,-1.80129,1.56973,5.96053,-6.52398,-10.6339,8.49218,-7.557,-14.7394,-1.38688,-2.09895,-7.59108,-1.77706,4.77083e-14,4.13472e-14,6.73235,26.0513,-16.4121,29.2172,48.6805,-5.90213,0.422448,7.12502,19.9264,-28.5759,4.77083e-14,4.13472e-14,-51.2149,-17.371,79.4107,64.2648,-9.20988,-35.8908,10.4433,7.12502,-9.00441,40.2311,-16.1953,-7.21483,15.0519,28.5973,12.4741,-2.11642,38.4562,2.93307,-16.8967,-9.65293,2.2011,-7.93227,-7.52778,-26.8904
19.3232,18.3286,-21.5814,-0.408642,7.23533,-9.35401,13.2489,1.21183,7.9929,5.58852,2.91319,10.1901,-1.64506,1.46894,5.88688,-6.35746,-10.3772,8.43539,-7.55195,-14.4229,-2.06161,-2.16273,-7.42615,-1.9801,5.56597e-15,1.74931e-14,8.18672,23.8698,-16.41,28.6568,49.2217,-6.60263,0.726951,7.12502,19.253,-28.34,5.56597e-15,1.74931e-14,-51.3037,-16.9918,79.4,62.3751,-8.86628,-36.3035,11.5842,7.12502,-9.40261,41.3544,-16.5807,-7.45948,14.9596,28.8292,11.8042,-2.17816,38.5414,3.99288,-16.6139,-9.98989,3.49861e-14,-6.88434,-7.59598,-26.2542
19.3076,18.3274,-21.5545,-0.0460478,6.74069,-8.95346,13.0794,1.11187,8.17159,5.53217,2.77725,10.1349,-1.59404,1.40181,5.74853,-6.08409,-10.1327,8.21503,-7.45053,-14.0991,-2.62482,-2.18678,-7.25062,-2.12051,-1.90833e-14,-4.13472e-14,9.38077,21.8066,-16.56,28.4611,49.8423,-7.00736,1.39655,7.12502,18.8637,-27.7088,-1.90833e-14,-4.13472e-14,-51.557,-16.5745,79.3359,60.6566,-8.71645,-36.4402,11.1109,7.12502,-9.5345,40.8751,-16.934,-7.74222,14.9011,28.9687,11.1362,-2.42595,37.2649,3.88771,-16.2225,-10.3142,4.77083e-15,-6.81454,-7.55323,-24.5066
19.2893,18.3191,-21.5247,0.199907,6.14011,-8.64366,12.9849,1.04391,8.40179,5.42851,2.70794,10.1143,-1.63686,1.36614,5.60758,-5.58067,-9.91125,8.03515,-7.2174,-13.7932,-3.27324,-2.21749,-7.07889,-2.28619,3.49861e-14,3.49861e-14,10.3883,19.7494,-16.8823,28.5234,50.6814,-7.06322,1.64,7.12502,18.81,-27.4705,3.49861e-14,3.49861e-14,-51.9139,-16.2238,79.2996,58.8258,-8.54693,-36.4244,10.2242,7.12502,-9.51931,39.9892,-17.1295,-7.87571,14.9329,29.0707,10.6764,-2.8755,36.6549,3.94314,-15.7469,-10.5756,3.89618e-14,-6.95138,-7.33603,-25.452
19.267,18.3065,-21.4962,0.381911,5.68673,-8.38429,12.9082,0.920573,8.69473,5.34332,2.5748,10.118,-1.66565,1.29961,5.46801,-5.13935,-9.66919,7.989,-7.01017,-13.4825,-4.10532,-2.2716,-6.90703,-2.53927,1.90833e-14,5.08889e-14,11.6253,17.4691,-17.365,28.3984,51.7563,-7.22676,1.55798,7.12502,18.6527,-27.5677,1.90833e-14,5.08889e-14,-52.0855,-15.9788,79.2942,56.7851,-8.26967,-36.3101,9.66832,7.12502,-9.40899,39.4383,-17.2352,-7.84289,15.0023,29.1806,10.0394,-3.39612,37.2096,4.02437,-15.4273,-10.7723,-1.03368e-14,-7.17608,-7.03071,-28.497
19.2429,18.3014,-21.4686,0.656145,5.24641,-8.04955,12.7047,0.766885,8.89556,5.3467,2.35738,10.101,-1.53271,1.19418,5.37183,-4.91344,-9.36031,7.89993,-6.94302,-13.1021,-4.942,-2.32502,-6.70368,-2.80168,1.98785e-14,-1.27222e-14,13.3069,15.708,-17.701,27.9614,52.2353,-7.83814,1.48814,7.12502,18.0646,-27.693,1.98785e-14,-1.27222e-14,-52.1184,-15.5423,79.2005,54.8179,-7.9357,-36.4143,9.32448,7.12502,-9.50953,39.0899,-17.4155,-7.622,14.9981,29.2549,9.2145,-4.1074,37.9489,3.96402,-15.1088,-11.0099,7.95139e-15,-7.30002,-6.86434,-29.8644
19.2202,18.2991,-21.4412,1.04436,4.56488,-7.51488,12.3725,0.694427,8.84772,5.40779,2.18619,10.0144,-1.27926,1.11232,5.3319,-4.60595,-9.047,7.81292,-7.04071,-12.7138,-5.70981,-2.43986,-6.49635,-3.03779,4.6118e-14,1.46306e-13,15.0086,14.4259,-17.9298,27.4906,52.2152,-8.55414,1.2868,7.12502,17.3756,-27.9566,4.6118e-14,1.46306e-13,-52.1252,-14.8971,78.9803,52.892,-7.74088,-36.8741,9.87675,7.12502,-9.95314,39.6214,-17.7431,-7.47677,14.7902,29.2712,8.47433,-4.75146,39.474,3.85565,-14.5423,-11.4625,1.82882e-14,-7.35494,-6.78942,-29.8509
19.1974,18.2892,-21.419,1.54814,3.83684,-6.86919,12.0549,0.682771,8.72965,5.38888,2.09952,9.85369,-1.12267,1.06981,5.23643,-4.37137,-8.75283,7.80718,-6.94604,-12.3503,-6.46146,-2.48155,-6.30216,-3.29422,-1.19271e-14,1.59028e-14,16.428,12.6046,-18.608,27.0697,52.6929,-9.43953,1.33905,7.12502,16.5233,-27.9774,-1.19271e-14,1.59028e-14,-52.0661,-14.3877,78.7365,50.859,-7.40986,-37.2835,10.1744,7.12502,-10.3482,39.8998,-18.259,-7.43621,14.45,29.2814,7.5147,-5.48766,42.1336,3.62918,-13.9221,-12.013,-2.3059e-14,-7.2846,-6.794,-28.9593
19.1736,18.279,-21.3935,1.94095,3.24661,-6.51753,11.8838,0.58973,8.9246,5.30254,1.97453,9.76741,-1.10621,1.00821,5.05097,-4.19883,-8.46266,7.73671,-6.67858,-11.9805,-7.15697,-2.44099,-6.10423,-3.53007,-9.54166e-15,-2.54444e-14,17.7109,10.8309,-19.4968,26.9669,53.0251,-10.1041,1.69701,7.12502,15.8834,-27.6716,-9.54166e-15,-2.54444e-14,-52.0527,-13.7503,78.4193,48.8232,-7.17285,-37.2933,9.96258,7.12502,-10.3576,39.6875,-18.6115,-7.65745,14.5027,29.2937,6.74071,-5.70188,41.7196,3.46415,-13.4487,-12.25,-2.46493e-14,-7.20448,-6.78276,-27.5443
19.1491,18.2727,-21.3607,2.17486,2.64337,-6.32755,11.808,0.43748,9.26239,5.24081,1.79926,9.73524,-1.1114,0.922325,4.85153,-4.13527,-8.10267,7.66462,-6.26758,-11.5223,-8.01272,-2.33417,-5.86384,-3.83478,-1.59028e-14,9.54166e-15,19.0104,9.71217,-20.1919,27.0313,52.4743,-10.3798,2.0195,7.12502,15.6179,-27.37,-1.59028e-14,9.54166e-15,-52.0949,-12.9267,78.0306,46.7622,-7.05939,-37.4142,10.3362,7.12502,-10.4743,40.0552,-18.7783,-8.1748,14.7804,29.2951,6.5237,-5.41054,39.3726,3.49737,-12.9792,-12.3598,-8.74653e-15,-7.20163,-6.6289,-26.6273
19.1224,18.2633,-21.3273,2.43918,1.89417,-5.79563,11.664,0.344112,9.20123,5.1987,1.64311,9.61639,-1.07331,0.843158,4.77631,-4.06454,-7.67189,7.67142,-5.93012,-11.0023,-9.38231,-2.04059,-5.57177,-3.90163,-3.18055e-15,3.18055e-15,20.4074,8.75151,-20.9308,26.9674,51.8466,-10.5571,2.03595,7.12502,15.4471,-27.3668,-3.18055e-15,3.18055e-15,-52.1765,-12.153,77.6354,44.7449,-6.76885,-37.882,10.7962,7.12502,-10.9254,40.4919,-19.0815,-8.01242,14.4866,29.3428,5.47514,-6.19168,43.5243,3.54057,-12.3781,-12.8694,4.77083e-15,-7.19255,-6.4194,-26.8936
19.0985,18.2525,-21.2985,2.71355,1.15659,-5.16664,11.5107,0.276163,9.05892,5.17917,1.5074,9.45682,-1.0086,0.774597,4.69906,-3.75569,-7.31639,7.84718,-5.79406,-10.5659,-10.4561,-2.07403,-5.33798,-4.25491,1.11319e-14,-2.54444e-14,21.954,7.47525,-21.9632,26.449,51.5106,-11.1251,1.70167,7.12502,14.8999,-27.7425,1.11319e-14,-2.54444e-14,-52.1975,-11.3681,77.1716,42.8492,-6.55394,-38.8568,10.8011,7.12502,-11.8656,40.4449,-19.4566,-8.04632,14.1343,29.4381,4.48066,-6.32476,44.9818,3.5376,-11.7953,-13.4981,-4.77083e-15,-7.20428,-6.20875,-28.6052
19.0781,18.2498,-21.2725,3.02919,0.420857,-4.71302,11.4168,0.2108,9.19394,5.13753,1.41607,9.29015,-0.991487,0.730296,4.45484,-3.64173,-6.9804,7.97561,-5.54818,-10.1478,-11.4293,-2.03287,-5.12061,-4.58347,7.15625e-15,-3.18055e-15,23.3417,5.5501,-23.5321,25.7977,51.4296,-12.3269,1.74832,7.12502,13.742,-27.7779,7.15625e-15,-3.18055e-15,-52.1303,-10.5924,76.5887,40.9746,-6.41119,-39.4973,10.7853,7.12502,-12.4832,40.3924,-19.8927,-9.04632,14.2259,29.5009,4.80278,-5.0223,37.8528,3.46625,-11.2048,-13.9222,-1.03368e-14,-7.23526,-6.02828,-30.0561
19.0516,18.2519,-21.2447,3.42836,-0.474367,-4.32039,11.3087,0.205833,9.349,5.03381,1.41146,9.1111,-1.03326,0.727184,4.17544,-3.60328,-6.54714,7.96107,-5.11957,-9.56925,-12.2986,-1.89283,-4.82783,-4.87119,-2.62396e-14,-5.40694e-14,24.3851,3.24379,-25.6049,25.748,51.9032,-13.066,2.1088,7.12502,13.0295,-27.4643,-2.62396e-14,-5.40694e-14,-52.1686,-9.80494,75.8247,39.1963,-6.32547,-38.7036,11.0226,7.12502,-11.7178,40.6748,-20.4322,-9.49856,14.3296,29.5274,4.77243,-4.25868,31.7232,3.34121,-10.4474,-14.2468,1.43125e-14,-7.30793,-5.87157,-30.1227
19.021,18.2509,-21.2163,3.72711,-1.30874,-4.03589,11.278,0.176409,9.52847,4.96298,1.38724,9.01054,-1.08323,0.713835,3.97047,-3.79629,-6.12038,7.90898,-4.53125,-8.99339,-13.2698,-1.66625,-4.54905,-5.19501,-1.27222e-14,3.18055e-15,25.533,1.19749,-27.6752,25.7767,52.3115,-13.7887,2.36067,7.12502,12.3328,-27.2556,-1.27222e-14,3.18055e-15,-52.2009,-8.90222,75.0284,37.4919,-6.27153,-38.1358,11.1381,7.12502,-11.1703,40.8208,-20.755,-9.15322,14.3661,29.5369,4.0583,-4.34321,29.9862,3.29278,-9.75689,-14.4612,9.54166e-15,-7.37517,-5.76346,-30.1066
18.9923,18.2444,-21.1862,3.96758,-2.06422,-3.63428,11.2635,0.125559,9.61131,4.92401,1.32377,8.8979,-1.11135,0.681124,3.81092,-4.10629,-5.80897,7.86929,-3.87276,-8.56427,-14.2693,-1.41358,-4.3548,-5.52968,-9.54166e-15,4.13472e-14,26.8806,-0.551974,-29.6445,25.6154,51.7376,-14.6239,2.75725,7.12502,11.5275,-26.9058,-9.54166e-15,4.13472e-14,-52.1236,-8.05821,74.3307,35.8058,-6.12103,-38.5206,11.1544,7.12502,-11.5414,40.8166,-20.9555,-8.86311,14.1905,29.5034,3.16094,-4.49198,30.5946,3.28603,-9.16013,-14.8124,-3.18055e-15,-7.38275,-5.83915,-29.5243
18.964,18.2351,-21.1597,4.33521,-2.91885,-3.10566,10.9472,0.0952624,9.72061,4.951,1.22843,8.60279,-0.899874,0.642176,3.44599,-3.89262,-5.52022,7.89098,-3.76099,-8.18117,-14.9723,-1.39968,-4.15555,-5.75549,7.95139e-15,1.59028e-14,28.2454,-2.36537,-31.8931,25.4708,50.7893,-15.2398,3.11175,7.12502,10.9334,-26.5836,7.95139e-15,1.59028e-14,-51.9437,-7.21872,73.3062,34.2732,-6.19477,-38.7801,11.37,7.12502,-11.7916,41.0181,-21.4132,-8.75338,13.8968,29.4511,2.32046,-4.68033,32.8753,3.13734,-8.46574,-15.2889,2.70347e-14,-7.27281,-5.93979,-28.6903
18.933,18.2319,-21.1395,4.66482,-3.79311,-2.72291,10.6811,0.0343456,10.0379,5.01283,1.11515,8.24383,-0.67303,0.599444,2.90218,-3.30992,-5.16009,7.98039,-4.14133,-7.7324,-15.4778,-1.57481,-3.8964,-5.91706,4.29375e-14,9.85972e-14,29.5246,-4.42473,-34.5539,25.2384,51.1986,-16.5129,3.49552,7.12502,9.70529,-26.2609,4.29375e-14,9.85972e-14,-51.7921,-6.20712,71.9502,32.8212,-6.46418,-39.0279,11.5848,7.12502,-12.0306,41.219,-21.8774,-8.49408,13.7631,29.4218,1.52773,-4.95044,33.9244,2.97579,-7.74813,-15.602,1.27222e-14,-6.97519,-5.98091,-28.6087
18.8952,18.232,-21.1239,4.91384,-4.58438,-2.24614,10.7987,0.00111566,9.94867,4.91472,1.08676,8.0409,-0.841701,0.578374,2.73614,-2.76954,-4.83041,7.97237,-4.36251,-7.3151,-16.1047,-1.69904,-3.65427,-6.10624,-1.82882e-14,-7.63333e-14,30.6755,-6.41246,-37.1687,25.0543,52.4091,-17.6684,4.07057,7.12502,8.59033,-25.7347,-1.82882e-14,-7.63333e-14,-51.8307,-5.09842,70.7959,31.3787,-6.3547,-39.5784,11.5214,7.12502,-12.5613,41.1238,-22.2415,-8.31772,13.5646,29.3909,1.07719,-4.87293,32.4681,2.85061,-7.12825,-15.9719,-2.70347e-14,-6.54535,-6.16348,-27.3979
18.8533,18.2298,-21.1126,5.23563,-5.28693,-1.71638,10.9974,0.00286589,9.58241,4.71267,1.10666,8.0054,-1.17513,0.570473,2.89451,-2.59848,-4.55816,7.85144,-4.19233,-6.95636,-16.9573,-1.65661,-3.46434,-6.36236,5.56597e-15,-3.81667e-14,31.9358,-8.1629,-39.5375,24.8314,52.9137,-18.2885,4.76847,7.12502,7.9919,-25.0604,5.56597e-15,-3.81667e-14,-51.9499,-3.79053,69.6769,30.1747,-6.1193,-39.7081,11.5924,7.12502,-12.6864,41.1871,-22.6725,-8.20624,13.3441,29.3039,0.763948,-4.67048,30.3855,2.60433,-6.59842,-16.3568,-1.90833e-14,-6.05924,-6.3794,-25.2977
18.8127,18.2268,-21.0926,5.49884,-6.10562,-1.36669,11.2394,-0.0170191,9.40393,4.5434,1.11744,8.01829,-1.49273,0.561105,3.00384,-2.68818,-4.20963,7.75212,-3.87308,-6.48576,-17.9289,-1.51369,-3.23663,-6.67313,-1.59028e-15,-7.31528e-14,33.2801,-9.36689,-41.6933,24.6892,52.5112,-18.9609,4.95829,7.12502,7.34291,-24.8943,-1.59028e-15,-7.31528e-14,-52.2359,-2.30031,68.4052,29.1365,-6.05245,-39.819,11.805,7.12502,-12.7933,41.393,-22.995,-7.97922,13.2426,29.1771,0.248819,-4.47441,30.0212,2.5115,-5.94565,-16.5913,2.38542e-14,-5.89679,-6.39777,-26.3086
18.7776,18.2289,-21.0633,5.7539,-7.10869,-1.11886,11.5202,-0.00644961,9.40957,4.32591,1.19574,7.94976,-1.87496,0.584917,2.91682,-2.89502,-3.85497,7.76641,-3.2974,-5.96716,-18.8998,-1.26999,-3.00504,-7.00969,1.59028e-15,-3.81667e-14,34.3872,-10.274,-43.9536,24.7891,51.6416,-19.5135,5.14019,7.12502,6.80949,-24.7303,1.59028e-15,-3.81667e-14,-52.7426,-0.899508,66.9819,28.1328,-6.19841,-40.4181,12.2495,7.12502,-13.3708,41.8005,-23.3084,-7.90963,13.221,29.0413,-0.0300345,-3.93152,30.3867,2.52875,-5.10473,-16.7714,-1.74931e-14,-5.71305,-6.54533,-26.7209
18.7449,18.2298,-21.0374,6.03972,-8.04773,-0.746293,11.7436,0.0447737,9.3527,4.07789,1.31461,7.82519,-2.25803,0.628665,2.79869,-3.01055,-3.60707,7.71126,-2.68536,-5.56926,-19.7296,-1.03923,-2.83464,-7.28401,-2.14687e-14,-3.18055e-15,35.2763,-11.0308,-46.066,24.8612,50.1826,-20.0164,5.64316,7.12502,6.32403,-24.2424,-2.14687e-14,-3.18055e-15,-53.1723,0.418705,65.4294,27.1767,-6.52191,-41.098,12.9438,7.12502,-14.0261,42.4505,-23.6894,-7.76055,13.0238,28.889,-0.336844,-3.5163,29.9635,2.4269,-4.34018,-17.097,-1.59028e-15,-5.67865,-6.53992,-29.2943
18.7049,18.2234,-21.0168,6.22786,-8.71532,-0.228756,11.9125,-0.0132636,9.4595,3.92606,1.28003,7.42802,-2.50062,0.603962,2.32061,-2.98631,-3.38981,7.92992,-2.42484,-5.25722,-20.3956,-0.945878,-2.69013,-7.54741,4.77083e-15,1.27222e-14,36.0756,-11.7274,-48.2918,24.8658,48.3376,-20.9929,5.79156,7.12502,5.38122,-24.1201,4.77083e-15,1.27222e-14,-53.1752,1.45184,63.5675,26.2066,-6.37565,-41.9567,13.4629,7.12502,-14.8534,42.9104,-23.9179,-7.42377,12.6216,28.7032,-0.871641,-3.50027,28.8222,2.30134,-3.86592,-17.5321,-3.18055e-15,-5.74702,-6.56531,-31.5697
18.6617,18.2224,-21,6.41358,-9.31921,0.240032,12.11,-0.264291,10.3071,3.77735,1.06203,6.42579,-2.73186,0.490891,0.822081,-3.03034,-3.08248,8.69074,-2.2446,-4.83196,-20.7094,-0.848762,-2.49349,-7.79643,1.03368e-14,-3.18055e-14,36.7413,-12.8502,-51.7075,24.9269,46.9733,-22.0665,5.86365,7.12502,4.34455,-24.0718,1.03368e-14,-3.18055e-14,-53.0699,1.84428,61.0594,25.5383,-5.61596,-42.5675,13.8345,7.12502,-15.4418,43.2377,-24.1186,-7.11664,12.2788,28.5136,-1.33139,-3.46057,28.0376,2.15116,-3.45097,-17.8799,9.54166e-15,-5.55227,-6.73508,-32.0275
18.6182,18.2279,-20.9815,6.61647,-10.0949,0.663304,10.9597,-0.158413,10.2987,4.56949,0.919487,6.18709,-1.26258,0.490374,0.596913,-3.26617,-2.84062,8.6852,-2.8483,-4.61988,-21.153,-0.953064,-2.37575,-7.95033,5.08889e-14,-1.59028e-14,38.5818,-14.2953,-54.0185,25.1419,45.4849,-22.7192,5.85523,7.12502,3.71426,-24.0922,5.08889e-14,-1.59028e-14,-51.9628,3.56309,59.5259,24.8484,-5.28966,-42.8504,14.1198,7.12502,-15.7143,43.5017,-24.3754,-6.67868,11.9604,28.3396,-1.78969,-3.3337,28.3145,2.02506,-2.86177,-18.1822,-2.54444e-14,-4.86918,-7.07512,-29.1729
18.5728,18.2319,-20.9591,6.87857,-10.8024,1.11209,10.8484,-0.130153,10.0876,4.47844,0.924759,6.05516,-1.30127,0.48841,0.572401,-3.04317,-2.63864,8.58909,-2.77551,-4.33853,-21.7463,-0.935811,-2.2251,-8.13152,1.66979e-14,3.18055e-15,39.2524,-14.5144,-55.5288,25.4896,43.9569,-23.3588,5.82589,7.12502,3.09656,-24.1314,1.66979e-14,3.18055e-15,-52.1478,4.92939,57.9265,24.2734,-4.93591,-43.0225,14.5893,7.12502,-15.88,43.9581,-24.6687,-6.22475,11.6071,28.1366,-2.07716,-3.30458,29.1441,1.84092,-2.34374,-18.4922,-4.77083e-15,-4.23912,-7.4122,-27.0448
18.5291,18.2346,-20.9357,7.12179,-11.4523,1.6192,10.6256,-0.162369,9.99728,4.53587,0.827627,5.81164,-1.12282,0.448991,0.377824,-3.34804,-2.38239,8.59831,-2.67829,-3.99786,-22.3327,-0.809278,-2.07791,-8.34211,-1.59028e-15,-6.36111e-14,40.247,-14.9658,-57.4082,25.784,43.0569,-24.1373,5.89667,7.12502,2.34474,-24.0702,-1.59028e-15,-6.36111e-14,-52.0407,6.60865,56.1061,23.6583,-4.72652,-43.3364,14.9708,7.12502,-16.1823,44.3154,-25.0161,-6.14752,11.25,27.9337,-2.04502,-3.04566,27.8649,1.65958,-1.89389,-18.8659,-2.8625e-14,-3.96246,-7.68775,-27.9995
18.4839,18.2342,-20.9139,7.25568,-12.2741,2.01979,10.6392,-0.174291,9.95914,4.58015,0.798479,5.56554,-1.08268,0.438217,0.143641,-3.49456,-2.09605,8.54954,-2.64523,-3.61254,-22.8226,-0.716288,-1.89665,-8.5069,1.66979e-14,2.54444e-14,41.1391,-15.2449,-59.266,26.0818,42.061,-24.6273,6.2633,7.12502,1.87154,-23.7082,1.66979e-14,2.54444e-14,-52.1587,7.80676,54.5855,23.3874,-4.10825,-44.0871,15.2386,7.12502,-16.9051,44.5228,-25.3237,-6.07121,11.0291,27.7922,-2.22393,-2.50125,25.1857,1.63272,-1.26505,-19.1441,-3.18055e-15,-3.74246,-7.95199,-29.4964
18.4344,18.232,-20.8961,7.43336,-13.0537,2.32146,10.498,-0.128814,10.1351,4.65336,0.83785,5.18175,-0.914488,0.471077,-0.358358,-3.41572,-1.94881,8.83308,-2.73327,-3.44451,-23.2868,-0.737245,-1.80685,-8.71836,-5.56597e-15,3.81667e-14,41.7899,-15.4653,-60.8576,26.2788,40.8349,-24.9592,6.7727,7.12502,1.55094,-23.2014,-5.56597e-15,3.81667e-14,-52.0948,8.53157,53.0176,23.321,-3.42636,-44.8298,15.5951,7.12502,-17.6199,44.8167,-25.6059,-5.65372,10.8673,27.6688,-2.80556,-2.24002,24.7627,1.52732,-0.663912,-19.2886,6.36111e-15,-3.47873,-8.20208,-30.5948
18.3837,18.2374,-20.88,7.6474,-13.6971,2.83374,10.4028,-0.0518133,9.97136,4.63674,0.906101,4.87277,-0.873881,0.507469,-0.599366,-3.64784,-1.84117,9.0112,-2.62141,-3.30537,-23.7987,-0.649464,-1.75965,-8.93326,-2.46493e-14,-5.40694e-14,42.3064,-15.5833,-62.0364,26.4794,39.8729,-25.9317,6.99486,7.12502,0.611672,-22.984,-2.46493e-14,-5.40694e-14,-52.0591,9.62818,51.2986,23.2209,-3.38141,-45.23,16.0826,7.12502,-18.005,45.2692,-25.9375,-5.22411,10.4821,27.505,-3.16616,-2.26841,24.9867,1.26865,-0.225235,-19.6418,-6.36111e-15,-3.04356,-8.50437,-29.172
18.3348,18.2472,-20.8654,7.81184,-14.2783,3.44521,10.307,-0.0428922,9.71731,4.66149,0.873528,4.57543,-0.799935,0.495042,-0.766896,-3.65098,-1.63012,8.87791,-2.80223,-3.04741,-24.0752,-0.654587,-1.62174,-9.00657,-1.59028e-15,-3.49861e-14,42.723,-15.2761,-62.786,26.9108,38.175,-26.7508,7.02544,7.12502,-0.179403,-22.9542,-1.59028e-15,-3.49861e-14,-52.1074,11.1319,49.4331,23.1251,-3.72576,-45.427,16.3019,7.12502,-18.1945,45.4709,-26.2273,-4.94223,10.0165,27.3278,-3.35529,-2.21978,24.755,0.204766,0.152864,-20.1264,1.56557,-3.1982,-8.79435,-33.9267
18.2864,18.2483,-20.8505,7.9166,-14.7384,3.84799,10.3366,-0.149218,9.73795,4.58623,0.742585,4.29067,-0.902225,0.428192,-1.06284,-3.06568,-1.38756,8.74475,-3.19741,-2.7617,-24.2069,-0.818457,-1.42117,-9.02184,1.35174e-14,-1.59028e-14,42.7885,-14.5443,-63.243,27.5276,35.7949,-26.399,7.14504,7.12502,0.16038,-22.8346,1.35174e-14,-1.59028e-14,-52.46,12.3149,47.5567,23.1697,-3.80047,-45.4423,16.3899,7.12502,-18.2093,45.5575,-26.339,-4.589,9.73458,27.1177,-3.80044,-2.20231,24.6086,-0.732608,0.440506,-20.3684,3.13349,-3.43913,-9.04965,-34.5976
18.2358,18.2496,-20.833,7.98151,-15.3181,4.26033,10.4542,-0.176135,9.7372,4.47414,0.727733,3.93942,-1.08177,0.415114,-1.42948,-2.85433,-1.20597,8.91896,-3.18717,-2.51089,-24.4798,-0.813195,-1.28504,-9.14899,-1.43125e-14,2.22639e-14,42.8512,-14.4517,-64.4167,28.1852,34.4358,-25.6988,7.82013,7.12502,0.836668,-22.158,-1.43125e-14,2.22639e-14,-52.6037,12.9543,46.0163,23.3009,-2.72978,-45.6123,17.5349,7.12502,-18.3728,46.6873,-26.4093,-4.17945,9.44679,26.8392,-4.22819,-2.19559,23.7263,-1.60527,0.848576,-20.6146,4.67538,-3.684,-9.39285,-31.1705
18.1838,18.2612,-20.8167,8.05122,-16.0424,4.67029,10.5265,-0.122445,9.665,4.47627,0.793878,3.59844,-1.10941,0.449367,-1.75389,-2.9123,-1.04053,9.15627,-3.16546,-2.29469,-24.8594,-0.762486,-1.18429,-9.32917,-6.36111e-15,4.77083e-14,42.9975,-14.5116,-65.6142,28.8996,33.31,-25.6083,8.20171,7.12502,0.924102,-21.776,-6.36111e-15,4.77083e-14,-52.4309,13.464,44.867,23.491,-0.865884,-46.0829,18.9379,7.12502,-18.8254,48.047,-26.5226,-3.86344,9.22857,26.5639,-4.53701,-2.16246,21.8965,-2.28501,1.39777,-20.8645,5.8295,-3.72644,-9.7036,-35.285
18.1323,18.2716,-20.8016,8.12519,-16.5852,5.03409,10.4463,-0.181021,9.69413,4.5882,0.693116,3.29582,-0.952309,0.411951,-2.07381,-2.75925,-0.853568,9.15436,-3.58845,-2.11755,-25.0919,-0.87588,-1.06358,-9.41261,-2.78299e-14,1.59028e-15,43.2168,-14.1326,-66.3372,29.6413,31.3492,-26.2269,7.58891,7.12502,0.326599,-22.3906,-2.78299e-14,1.59028e-15,-52.396,14.3085,43.6516,23.7466,0.32564,-46.242,20.0085,7.12502,-18.9785,49.1026,-26.6599,-3.73769,9.10458,26.3835,-4.76413,-2.18566,20.2524,-2.6707,1.76731,-21.0329,6.40007,-3.53639,-9.98562,-37.0257
18.0811,18.2765,-20.788,8.21818,-16.9948,5.54051,10.2005,-0.262573,9.68067,4.72457,0.53542,2.91011,-0.686103,0.352731,-2.45014,-2.91205,-0.702287,9.17878,-3.79235,-1.95888,-25.2889,-0.876069,-0.983759,-9.49071,3.81667e-14,1.90833e-14,43.5024,-13.8585,-67.1033,30.4323,29.2018,-26.6379,6.90607,7.12502,-0.0703727,-23.0737,3.81667e-14,1.90833e-14,-52.3004,15.5793,42.067,23.7674,0.683875,-46.7345,20.7664,7.12502,-19.4521,49.8134,-26.8939,-3.64992,8.83068,26.2647,-4.93574,-2.29518,19.5806,-3.03201,1.98223,-21.3183,6.76501,-3.21988,-10.4196,-36.4189
18.0261,18.2797,-20.7785,8.22247,-17.4653,6.21143,10.1022,-0.279274,9.41465,4.76961,0.468514,2.49353,-0.593647,0.326295,-2.73046,-3.00205,-0.577136,9.23111,-3.78873,-1.79312,-25.4669,-0.828585,-0.907683,-9.5653,-3.65764e-14,-2.06736e-14,43.6719,-13.7565,-67.9665,31.168,27.6699,-26.5628,6.8292,7.12502,0.00220769,-23.1505,-3.65764e-14,-2.06736e-14,-52.1678,16.3546,40.7579,23.7024,1.41682,-48.0618,20.0546,7.12502,-20.7278,48.9677,-27.0938,-3.25637,8.31906,26.1657,-5.34824,-2.65139,18.7869,-3.36612,2.2374,-21.754,7.09918,-2.84946,-10.9417,-35.837
17.9656,18.2821,-20.7707,8.13616,-17.9128,6.87323,10.2022,-0.317681,9.03564,4.78631,0.390257,2.14275,-0.644215,0.28503,-2.87914,-2.86655,-0.408236,9.11581,-4.07914,-1.60636,-25.4966,-0.897909,-0.788584,-9.55532,2.8625e-14,-4.77083e-15,43.8423,-13.6086,-68.9104,31.817,26.5211,-26.9248,7.07271,7.12502,-0.347417,-22.9068,2.8625e-14,-4.77083e-15,-52.1642,16.8342,39.7384,23.705,2.34566,-49.0232,19.4537,7.12502,-21.6513,48.2631,-27.134,-2.57235,7.7433,26.1014,-6.01479,-3.16063,19.3121,-3.54067,2.47619,-22.1388,7.25886,-2.24197,-11.5301,-36.4918
17.9051,18.2873,-20.762,8.15028,-18.4178,7.35656,10.2078,-0.343367,8.7339,4.8395,0.322081,1.8719,-0.602455,0.253127,-2.98696,-2.9042,-0.233022,9.07346,-4.36157,-1.42102,-25.6108,-0.934231,-0.68273,-9.59089,-1.19271e-14,-1.11319e-14,43.9892,-13.2813,-69.7017,32.5073,25.1244,-27.7654,7.09241,7.12502,-1.15932,-22.8842,-1.19271e-14,-1.11319e-14,-52.2309,17.6836,38.6183,23.8877,3.21038,-49.5166,20.9277,7.12502,-22.1251,49.6817,-27.2966,-2.04236,7.39694,26.045,-6.52686,-3.3332,21.2018,-3.71832,2.79604,-22.3413,7.33808,-1.65402,-12.0875,-37.5461
17.8471,18.2954,-20.751,8.18934,-18.8933,7.76769,10.14,-0.341232,8.54038,4.8776,0.293658,1.59154,-0.529768,0.243379,-3.16853,-2.75916,-0.129024,9.23694,-4.6519,-1.34199,-25.8539,-1.02626,-0.619088,-9.7115,6.36111e-15,-3.81667e-14,43.9212,-12.9794,-70.2259,33.2873,23.7172,-28.3351,7.05903,7.12502,-1.70951,-22.9139,6.36111e-15,-3.81667e-14,-52.1707,18.3744,37.6111,24.2972,4.43642,-49.9697,22.3662,7.12502,-22.56,51.0681,-27.4854,-1.77853,7.18059,25.9451,-6.77657,-3.32813,21.7822,-3.95875,3.09697,-22.4892,7.55063,-1.25598,-12.4721,-37.8804
17.7923,18.3047,-20.7391,8.1803,-19.0371,8.16488,10.0999,-0.438671,8.54798,4.91046,0.156106,1.28573,-0.48751,0.181751,-3.47794,-2.60836,-0.0419465,9.36355,-4.87739,-1.2689,-26.0179,-1.1022,-0.561069,-9.79678,2.62396e-14,1.27222e-14,43.8319,-12.8938,-70.9,34.1298,22.6152,-28.6334,7.0075,7.12502,-1.99769,-22.9629,2.62396e-14,1.27222e-14,-51.9517,18.9888,36.6343,24.6922,5.6145,-50.2818,23.3847,7.12502,-22.8596,52.0499,-27.3963,-1.32258,6.88434,25.7842,-7.10997,-3.82635,21.0317,-4.26735,3.07964,-22.5814,7.95413,-0.733031,-12.9617,-37.8448
17.7392,18.3129,-20.7307,8.15449,-19.2162,8.53949,10.0837,-0.545844,8.52247,5.0247,0.000380415,1.03128,-0.376986,0.114565,-3.71352,-2.80753,0.129235,9.41316,-4.93688,-1.05693,-26.2518,-1.04081,-0.464987,-9.89224,3.89618e-14,2.8625e-14,44.0497,-12.8066,-71.7378,34.8152,21.5826,-28.9408,7.03143,7.12502,-2.29451,-22.936,3.89618e-14,2.8625e-14,-51.7646,19.8423,35.6739,25.0216,6.61404,-50.5946,24.3802,7.12502,-23.1597,53.008,-27.357,-0.797743,6.5902,25.6486,-7.40283,-4.32751,20.5193,-4.52609,3.10377,-22.6404,8.28068,-0.154856,-13.5756,-38.5598
17.6822,18.319,-20.7273,8.11576,-19.5763,8.70208,10.1729,-0.60438,8.54012,5.16915,-0.0780392,0.877828,-0.282886,0.0850485,-3.87586,-2.86011,0.29701,9.35724,-5.13437,-0.872085,-26.4815,-1.04873,-0.363077,-9.96683,4.21423e-14,2.38542e-14,44.2617,-12.5764,-72.4139,35.4347,20.303,-29.0745,7.58734,7.12502,-2.42366,-22.3786,4.21423e-14,2.38542e-14,-51.6606,20.4893,34.9847,25.3911,8.03692,-50.9534,24.2584,7.12502,-23.5039,52.8425,-27.409,-0.495639,6.62343,25.5676,-7.5803,-4.40437,20.8166,-4.6196,3.34217,-22.4778,8.41419,0.337537,-14.1058,-39.9093
17.6244,18.328,-20.7238,8.02715,-19.9675,8.9868,10.3148,-0.654429,8.47047,5.19617,-0.140676,0.642243,-0.340615,0.0540518,-4.07735,-2.52206,0.41946,9.20583,-5.32375,-0.724859,-26.4769,-1.13454,-0.253384,-9.93714,-3.18055e-15,1.59028e-14,44.0902,-12.2917,-73.0008,36.2854,18.6189,-29.1018,7.7857,7.12502,-2.45007,-22.18,-3.18055e-15,1.59028e-14,-51.5728,20.6572,34.5394,25.9264,9.89033,-51.2401,24.8312,7.12502,-23.7789,53.3798,-27.467,-0.335521,6.55712,25.498,-7.72521,-4.32627,21.3571,-4.72974,3.59398,-22.4577,8.56914,0.870363,-14.604,-40.7453
17.5685,18.3412,-20.7159,7.91129,-20.3813,9.54638,10.405,-0.64054,8.19489,5.17577,-0.141559,0.292969,-0.414294,0.0500186,-4.28906,-2.23954,0.521234,9.18087,-5.462,-0.596421,-26.4268,-1.20008,-0.162083,-9.91552,-6.36111e-14,1.43125e-14,43.7119,-11.9403,-73.1918,37.2835,16.3341,-29.6911,7.02059,7.12502,-3.0191,-22.9378,-6.36111e-14,1.43125e-14,-51.3414,20.8464,34.0567,26.4721,11.5531,-51.6188,26.3379,7.12502,-24.142,54.8388,-27.5747,-0.0881088,6.13407,25.4563,-7.8868,-4.25809,22.4083,-4.91998,3.82312,-22.7553,8.83219,1.47421,-15.0339,-40.6798
17.5125,18.3539,-20.7127,7.82344,-20.7305,9.98045,10.5117,-0.626152,7.99747,5.23197,-0.137919,0.0100138,-0.414587,0.0534707,-4.47557,-2.33048,0.607077,9.32676,-5.59697,-0.513971,-26.5808,-1.20324,-0.120723,-10.0015,3.4191e-14,-4.6118e-14,43.5677,-11.5912,-73.3051,38.1064,13.8933,-30.7011,6.36383,7.12502,-3.99453,-23.5785,3.4191e-14,-4.6118e-14,-51.049,21.1837,33.5982,27.0611,13.2323,-51.7316,27.0369,7.12502,-24.2502,55.5233,-27.6358,0.490425,5.7685,25.4906,-8.22153,-4.48899,23.218,-5.10846,4.00993,-22.9092,9.09455,2.20911,-15.5126,-40.3608
17.4572,18.3566,-20.7148,7.69438,-21.1177,10.3634,10.6736,-0.641002,7.79094,5.33074,-0.171352,-0.235299,-0.405233,0.0390816,-4.61352,-2.55563,0.719209,9.5231,-5.62433,-0.38636,-26.8975,-1.14125,-0.0720763,-10.1552,3.10104e-14,1.27222e-14,43.6241,-11.347,-73.8637,38.7961,11.7839,-31.5816,6.19883,7.12502,-4.84476,-23.7258,3.10104e-14,1.27222e-14,-50.7652,21.5609,33.2578,27.7373,15.3039,-51.6256,27.6602,7.12502,-24.1486,56.1602,-27.6946,1.05267,5.49117,25.5542,-8.48641,-4.74574,22.8999,-5.29396,4.24919,-23.0122,9.43356,2.88679,-16.0936,-39.9079
17.4041,18.3497,-20.712,7.58094,-21.51,10.8532,10.753,-0.657964,7.50958,5.40524,-0.221124,-0.503682,-0.37949,0.0155039,-4.73149,-2.60408,0.857652,9.66039,-5.74817,-0.232617,-27.1733,-1.13273,0.00806421,-10.2843,7.95139e-16,1.59028e-14,43.6279,-11.034,-74.3008,39.4469,9.3878,-32.2483,6.29865,7.12502,-5.48849,-23.6103,7.95139e-16,1.59028e-14,-50.4094,22.0901,32.9275,28.3043,17.3826,-52.0719,28.4043,7.12502,-24.5764,56.8468,-27.793,1.0419,5.23231,25.5433,-8.54154,-4.50018,22.5719,-5.60272,4.47884,-23.246,9.98701,3.29007,-16.5641,-39.5779
17.3493,18.3496,-20.7092,7.57169,-21.7924,11.3202,10.7318,-0.695453,7.22851,5.41287,-0.302383,-0.748749,-0.373577,-0.0264745,-4.82139,-2.3,0.967129,9.72066,-6.13749,-0.157027,-27.3219,-1.27895,0.0897649,-10.3578,2.06736e-14,-1.27222e-14,43.6287,-10.7027,-74.5978,40.0444,6.6818,-32.8185,6.11998,7.12502,-6.03903,-23.7739,2.06736e-14,-1.27222e-14,-50.1852,22.3629,32.681,28.9518,19.3209,-52.4016,29.0168,7.12502,-24.8924,57.416,-27.92,0.809683,5.04019,25.4648,-8.59412,-4.06083,22.5868,-6.12006,4.60887,-23.4371,10.6799,3.63809,-16.9929,-41.4384
17.2912,18.3613,-20.7098,7.59049,-22.0489,11.4773,10.7548,-0.759457,7.1632,5.44783,-0.395198,-0.896968,-0.362664,-0.0709005,-4.93029,-2.12538,1.01255,9.69559,-6.34233,-0.136495,-27.3975,-1.36276,0.124978,-10.3851,5.64548e-14,1.43125e-14,43.7167,-10.5047,-75.2028,40.6368,4.30954,-33.6514,5.81195,7.12502,-6.84307,-24.0575,5.64548e-14,1.43125e-14,-50.056,22.4199,32.6002,29.8054,21.5456,-52.5258,30.5991,7.12502,-25.0114,58.9818,-27.9441,0.967482,5.09937,25.3502,-8.66409,-4.00893,21.6207,-6.61462,4.53932,-23.2719,11.4071,3.98967,-17.3563,-44.8668
17.2348,18.3754,-20.7122,7.60138,-22.3293,11.4802,10.8147,-0.807246,7.25317,5.56674,-0.453309,-1.04369,-0.277831,-0.0903485,-5.1298,-2.50443,1.05178,9.82205,-6.12546,-0.062884,-27.613,-1.21493,0.121411,-10.4842,-2.70347e-14,-4.77083e-15,43.9336,-10.4711,-76.0459,41.1384,2.05416,-34.5157,6.03995,7.12502,-7.67737,-23.8007,-2.70347e-14,-4.77083e-15,-49.74,22.8837,32.3533,30.4796,23.6761,-52.9529,32.168,7.12502,-25.4206,60.4931,-27.9195,1.45583,5.23182,25.2335,-8.69977,-4.3005,21.0191,-6.95807,4.48389,-23.0014,11.9882,4.46232,-17.7395,-46.5313
17.1811,18.3837,-20.7149,7.58354,-22.5524,11.7534,10.832,-0.802832,7.08634,5.65042,-0.468368,-1.23999,-0.20273,-0.0936222,-5.24072,-2.81379,1.09389,10.1018,-5.94102,0.00452502,-27.9472,-1.08761,0.119831,-10.6597,5.40694e-14,1.90833e-14,43.9885,-10.4255,-76.4747,41.6447,-0.63059,-35.3439,6.08633,7.12502,-8.47671,-23.7235,5.40694e-14,1.90833e-14,-49.3277,23.5828,31.9301,30.9057,25.3309,-53.2278,32.8091,7.12502,-25.6839,61.0964,-27.9593,1.70484,5.11727,25.1118,-8.71859,-4.44511,20.6961,-7.34994,4.30739,-23.0203,12.4759,5.09342,-17.9611,-46.9231
17.1282,18.3851,-20.7151,7.42663,-22.7282,12.3278,10.8455,-0.814475,6.59586,5.7265,-0.534021,-1.43701,-0.142506,-0.129605,-5.16254,-2.77414,1.17084,10.0963,-6.03881,0.088811,-28.0567,-1.10287,0.171624,-10.7005,1.11319e-14,3.33958e-14,43.955,-10.292,-76.6878,42.1628,-3.10418,-35.9722,5.90315,7.12502,-9.08295,-23.8813,1.11319e-14,3.33958e-14,-48.9855,23.8255,31.9687,31.634,27.528,-53.3683,33.2681,7.12502,-25.8185,61.5358,-27.9395,1.70724,4.73294,24.942,-8.80903,-4.35266,20.4455,-7.87998,3.95457,-23.2545,13.1289,5.64946,-18.08,-47.0103
17.0737,18.3863,-20.7179,7.23473,-22.9493,12.7058,10.9575,-0.872647,6.21517,5.83056,-0.644868,-1.56671,-0.110857,-0.187845,-5.07038,-2.54862,1.31799,9.86558,-6.41908,0.233408,-27.9284,-1.22224,0.285518,-10.6127,-6.59965e-14,1.59028e-14,44.0857,-10.1973,-77.2987,42.5711,-4.93633,-35.9879,5.95117,7.12502,-9.09816,-23.8326,-6.59965e-14,1.59028e-14,-48.8072,23.7076,32.324,32.808,30.6188,-53.5594,33.7238,7.12502,-26.0015,61.9648,-27.8347,1.93016,4.52231,24.7802,-9.1104,-4.3902,21.278,-8.33297,3.59104,-23.2542,13.8078,6.1448,-18.1398,-46.798
17.0197,18.3885,-20.7243,7.23842,-23.1947,12.6542,11.0354,-0.895109,6.24287,5.93251,-0.672475,-1.65133,-0.0499237,-0.195759,-5.17255,-2.36373,1.40706,9.88731,-6.75144,0.298225,-27.8792,-1.33483,0.349525,-10.6054,-4.29375e-14,2.38542e-14,44.211,-10.0833,-77.9431,43.0689,-7.44867,-36.4655,5.35926,7.12502,-9.55895,-24.4039,-4.29375e-14,2.38542e-14,-48.4991,24.0985,32.2195,33.6979,33.2587,-53.6952,33.803,7.12502,-26.1315,62.0249,-27.7656,2.317,4.76561,24.6247,-9.48416,-4.65211,21.4448,-8.70822,3.45054,-22.9126,14.4332,6.60096,-18.3705,-46.7742
16.9686,18.388,-20.7309,7.23833,-23.4789,12.8142,10.9662,-0.880739,6.11837,6.07513,-0.677235,-1.85161,0.135875,-0.188575,-5.31352,-2.37963,1.46146,10.1714,-6.79944,0.357797,-27.997,-1.32849,0.376049,-10.7061,3.65764e-14,6.36111e-15,44.2603,-9.84617,-78.3466,43.7613,-10.9544,-37.7056,4.15323,7.12502,-10.7553,-25.5514,3.65764e-14,6.36111e-15,-47.9555,24.9737,31.7849,34.1283,35.0595,-53.686,33.9036,7.12502,-26.1227,62.1268,-27.7619,2.70083,4.76521,24.3859,-9.53762,-4.90719,20.5422,-9.18366,3.41147,-22.8522,15.2204,6.95994,-18.8369,-46.4989
16.9165,18.3844,-20.7346,7.01715,-23.7667,13.2394,11.0171,-0.894039,5.61796,6.21136,-0.744693,-2.01423,0.240836,-0.225612,-5.19288,-2.26853,1.6173,10.2865,-6.86071,0.564996,-28.1325,-1.31943,0.490035,-10.7793,-4.77083e-14,1.74931e-14,44.2621,-9.56248,-78.5566,44.2083,-13.911,-38.2592,3.37034,7.12502,-11.2893,-26.3058,-4.77083e-14,1.74931e-14,-47.6522,25.4128,31.7614,34.7869,37.0473,-53.7433,34.8513,7.12502,-26.1776,63.0664,-27.5798,2.81747,4.55043,24.0607,-9.38014,-4.87341,19.9859,-9.60197,3.31453,-23.0409,16.151,7.27347,-19.2966,-45.933
16.8623,18.3829,-20.7362,6.81933,-23.9755,13.3863,11.1587,-0.908702,5.3134,6.2996,-0.788407,-2.04029,0.251045,-0.25281,-5.04164,-1.90998,1.73926,10.2734,-7.00709,0.718468,-28.2112,-1.39294,0.602368,-10.8104,8.18993e-14,4.77083e-15,44.2683,-9.45387,-78.8333,44.4046,-16.155,-37.7887,2.6358,7.12502,-10.8354,-27.0647,8.18993e-14,4.77083e-15,-47.3969,25.3898,32.0941,35.6285,39.4132,-54.0777,35.4333,7.12502,-26.4977,63.6005,-27.2402,2.72093,4.68775,23.746,-9.5347,-4.54988,20.8995,-9.94561,3.24518,-22.9506,16.9757,7.59516,-19.6917,-45.2091
16.8085,18.387,-20.7411,6.74461,-24.2072,13.3536,11.1696,-0.874797,5.23141,6.41756,-0.755438,-2.11136,0.37314,-0.231497,-5.07421,-1.28372,1.79633,10.3435,-7.4554,0.737972,-28.1026,-1.62953,0.680135,-10.7999,7.15625e-15,-1.43125e-14,44.3062,-9.54436,-79.3997,44.8515,-18.8461,-37.4077,1.38381,7.12502,-10.4679,-28.3356,7.15625e-15,-1.43125e-14,-46.8422,25.699,32.1138,36.1518,41.4772,-54.4151,35.905,7.12502,-26.8206,64.023,-26.9883,2.90407,4.9318,23.4433,-9.83068,-4.2818,22.4124,-10.3495,3.17409,-22.6957,17.6809,7.94869,-20.0066,-44.5521
16.7563,18.3938,-20.7478,6.59869,-24.5159,13.4883,11.1856,-0.784676,4.9924,6.59388,-0.664628,-2.25044,0.560731,-0.181397,-5.09558,-0.848212,1.92911,10.4983,-7.9607,0.856663,-27.9433,-1.82534,0.793042,-10.7877,-1.82882e-14,2.06736e-14,44.3568,-9.76792,-80.009,45.4704,-22.0105,-37.7674,0.0194835,7.12502,-10.8149,-29.6821,-1.82882e-14,2.06736e-14,-46.0656,26.2595,32.1348,36.5211,43.1743,-54.673,37.052,7.12502,-27.0673,65.132,-26.8055,3.08488,5.00775,23.1171,-9.85581,-4.0309,22.9968,-10.7072,2.97486,-22.6056,18.3707,8.30996,-20.1148,-44.2196
16.7059,18.3987,-20.7518,6.39596,-24.8755,13.7603,11.2473,-0.652398,4.60036,6.81937,-0.531206,-2.42539,0.779968,-0.112548,-5.07196,-1.43107,2.03806,10.8506,-7.71374,1.04399,-28.0034,-1.60351,0.823497,-10.8644,1.59028e-15,3.18055e-14,44.6042,-10.1814,-80.7094,45.8543,-24.9024,-38.1265,-0.815504,7.12502,-11.1612,-30.4987,1.59028e-15,3.18055e-14,-44.9939,26.4235,32.6624,36.9836,45.1279,-55.0373,37.8986,7.12502,-27.4159,65.9238,-26.6772,3.07429,4.96974,22.8359,-9.77012,-3.73061,22.5373,-10.9931,2.60588,-22.6588,19.0299,8.514,-19.8499,-43.5322
16.6582,18.3982,-20.7588,6.2725,-25.1932,13.8824,11.2989,-0.717026,4.28602,6.83552,-0.645351,-2.49624,0.754223,-0.178632,-4.95507,-0.986792,2.10323,10.7793,-7.85323,1.13063,-27.9214,-1.70866,0.90521,-10.8274,-5.48646e-14,1.59028e-14,44.5741,-9.93182,-81.4037,46.0885,-27.5455,-38.3641,-1.26705,7.12502,-11.3904,-30.9377,-5.48646e-14,1.59028e-14,-44.8217,26.3327,32.7766,37.5699,47.4321,-55.3114,38.2142,7.12502,-27.678,66.1977,-26.5418,3.20775,5.04262,22.5906,-9.76307,-3.60716,21.8873,-11.2942,2.26633,-22.5773,19.7022,8.4697,-19.5606,-42.4791
16.612,18.3956,-20.7701,6.16619,-25.4465,13.9091,11.4471,-0.720952,4.09702,6.88295,-0.665781,-2.58158,0.721121,-0.193458,-4.93489,-0.302016,2.22077,10.8613,-8.31731,1.24581,-27.8144,-1.94035,1.0321,-10.825,-1.43125e-14,-1.59028e-14,44.4844,-9.87241,-81.8319,46.2767,-30.1829,-38.7707,-1.6808,7.12502,-11.7826,-31.3294,-1.43125e-14,-1.59028e-14,-44.2447,26.4891,32.8253,37.8787,49.5925,-55.4085,38.4662,7.12502,-27.7708,66.4348,-26.3244,3.38238,5.21364,22.3175,-9.79622,-3.43206,22.1871,-11.6091,1.99373,-22.42,20.4419,8.29365,-19.4645,-41.7174
16.5668,18.3981,-20.7795,6.09913,-25.6213,13.8915,11.4381,-0.689523,3.98288,7.02691,-0.638958,-2.65783,0.880568,-0.175863,-4.95416,-0.185039,2.28382,11.0828,-8.36511,1.34116,-27.8087,-1.95181,1.08431,-10.8692,6.59965e-14,-3.97569e-14,44.5201,-10.0028,-82.0789,46.4084,-32.6651,-38.9929,-2.27243,7.12502,-11.9968,-31.9086,6.59965e-14,-3.97569e-14,-43.3006,26.9915,32.8902,37.8491,51.3569,-55.3403,38.8378,7.12502,-27.7056,66.8168,-26.0591,3.53481,5.41819,21.9635,-9.80385,-3.28926,23.0381,-12.0203,1.50172,-22.21,21.2892,8.12512,-19.278,-40.3279
16.5198,18.4048,-20.7866,6.14208,-25.7504,13.6662,11.3621,-0.700107,4.07091,7.16281,-0.650345,-2.70148,1.06388,-0.171203,-5.0506,-0.341435,2.33152,11.2516,-8.17295,1.45506,-27.6991,-1.84511,1.11258,-10.8517,2.54444e-14,-2.06736e-14,44.5627,-10.1311,-82.601,46.6732,-34.6552,-39.4091,-3.48072,7.12502,-12.3981,-33.093,2.54444e-14,-2.06736e-14,-42.5081,27.6436,32.8161,37.8379,52.7327,-55.269,39.0343,7.12502,-27.6375,67.0243,-25.7719,3.73636,5.82535,21.5471,-9.83166,-3.32184,23.8895,-12.5261,0.870906,-21.771,22.2159,7.78747,-18.8733,-38.2216
16.4714,18.4102,-20.7938,6.11196,-25.9665,13.4192,11.4982,-0.730652,4.11174,7.2323,-0.685243,-2.72888,1.05958,-0.186367,-5.09925,0.124462,2.44256,11.3408,-8.451,1.59309,-27.6062,-1.97938,1.22371,-10.849,1.03368e-14,-4.92986e-14,44.5506,-10.1423,-83.4514,47.0426,-36.0365,-39.927,-5.13585,7.12502,-12.8974,-34.7173,1.03368e-14,-4.92986e-14,-41.8805,27.957,32.8404,37.9655,54.2292,-55.4425,39.2244,7.12502,-27.8034,67.1877,-25.434,3.76187,6.31963,21.1677,-9.82432,-3.08303,24.8687,-12.8942,0.363749,-21.3446,23.1021,7.1564,-18.4871,-36.8555
16.4292,18.4138,-20.8049,6.05591,-26.1679,13.2924,11.6419,-0.751826,3.99624,7.29052,-0.721501,-2.73194,1.03909,-0.208367,-5.03247,0.953718,2.4752,11.2805,-9.05925,1.57253,-27.4214,-2.31085,1.29894,-10.8032,-4.13472e-14,-2.14687e-14,44.3866,-10.1807,-84.1835,47.6666,-37.1205,-40.0394,-6.70867,7.12502,-13.0058,-36.2833,-4.13472e-14,-2.14687e-14,-41.1268,28.0821,33.0766,38.0437,55.9325,-55.6115,39.744,7.12502,-27.9649,67.6811,-25.198,3.56319,6.70381,20.8784,-9.68591,-2.5677,25.4977,-13.2616,-0.193714,-21.0894,23.9133,6.18461,-18.0623,-36.4369
16.3903,18.415,-20.8178,6.0337,-26.3294,13.2399,11.679,-0.722152,3.81881,7.34909,-0.699535,-2.7457,1.0834,-0.201183,-4.94839,1.28515,2.4843,11.3916,-9.21222,1.59229,-27.2664,-2.412,1.33117,-10.7789,-3.97569e-14,2.8625e-14,44.2953,-10.1931,-84.3799,47.7314,-38.4451,-40.1752,-7.84629,7.12502,-13.1367,-37.4125,-3.97569e-14,2.8625e-14,-40.1781,28.3109,33.3422,37.9578,57.4581,-55.6638,40.3359,7.12502,-28.0149,68.2648,-25.1023,3.39693,6.96518,20.6731,-9.50789,-2.00349,25.9858,-13.7285,-0.85616,-20.9274,24.7133,4.96137,-17.2337,-36.5897
16.3481,18.4135,-20.8263,5.85323,-26.5038,13.3517,11.7292,-0.65041,3.50835,7.44625,-0.635291,-2.82308,1.16578,-0.174657,-4.86046,1.19226,2.56258,11.8777,-8.88496,1.77676,-27.47,-2.25227,1.39141,-10.9373,3.26007e-14,-7.95139e-15,44.3206,-10.3598,-84.8301,47.7408,-39.2755,-40.2754,-8.84776,7.12502,-13.2333,-38.4077,3.26007e-14,-7.95139e-15,-39.0942,28.6114,33.5815,37.7051,58.5661,-55.6402,40.2998,7.12502,-27.9923,68.2324,-24.9412,3.03025,7.12274,20.5375,-9.38815,-1.11129,26.2843,-14.0868,-1.54204,-20.9481,25.526,3.69264,-15.8098,-36.7249
16.307,18.4084,-20.8328,5.71884,-26.5897,13.3465,11.7206,-0.627871,3.35488,7.56808,-0.622489,-2.88882,1.30032,-0.167469,-4.84474,1.34072,2.65263,12.2757,-8.77364,1.95068,-27.6084,-2.20142,1.47508,-11.0667,-1.82882e-14,4.6118e-14,44.2636,-10.4484,-85.2355,47.8069,-40.0223,-40.3301,-9.24073,7.12502,-13.286,-38.7972,-1.82882e-14,4.6118e-14,-37.9718,28.7565,33.9408,37.6634,59.7257,-55.6622,40.6523,7.12502,-28.0134,68.5814,-24.7794,2.64001,7.39327,20.4736,-9.31088,-0.298553,27.06,-14.429,-2.11626,-20.8818,26.3259,2.50002,-14.2376,-36.5944
16.2701,18.4043,-20.8427,5.75208,-26.6066,13.1273,11.6788,-0.659606,3.41327,7.66438,-0.661402,-2.90016,1.4206,-0.180638,-4.88692,1.6638,2.69167,12.3749,-8.91789,2.01902,-27.4476,-2.28822,1.53063,-11.037,2.8625e-14,-4.77083e-14,44.0107,-10.353,-85.3364,48.1604,-41.4463,-40.5164,-9.63961,7.12502,-13.4655,-39.1843,2.8625e-14,-4.77083e-14,-36.8774,28.7512,34.4143,37.7232,61.1277,-56.0106,41.4865,7.12502,-28.3463,69.3608,-24.6648,2.68663,7.74668,20.4245,-9.24255,-0.110414,28.2157,-14.8842,-2.43943,-20.6458,27.1164,1.59889,-13.1501,-36.7035
16.2354,18.4015,-20.8563,5.73482,-26.6433,12.9927,11.7361,-0.683035,3.32048,7.73451,-0.700718,-2.88089,1.45959,-0.202494,-4.80986,2.01939,2.67101,12.2643,-9.03891,2.0064,-27.1539,-2.39924,1.54861,-10.9169,2.3059e-14,3.02153e-14,43.6234,-10.0897,-84.9932,48.6766,-43.4485,-40.7552,-10.5577,7.12502,-13.6957,-40.0871,2.3059e-14,3.02153e-14,-35.7499,28.8263,34.8732,37.4903,62.3613,-56.4147,42.0748,7.12502,-28.7325,69.8842,-24.5328,2.71472,8.01303,20.3662,-9.23851,0.0484748,28.3183,-15.3771,-2.7369,-20.5477,27.8955,0.744776,-12.2419,-37.0504
16.1978,18.3946,-20.8715,5.64277,-26.6943,12.796,11.9669,-0.730669,3.099,7.76113,-0.779626,-2.73879,1.35594,-0.255662,-4.52416,2.48426,2.70089,12.0765,-9.11749,2.06691,-26.97,-2.5022,1.61347,-10.8245,0,-4.37326e-14,43.2999,-9.71285,-84.6963,48.9332,-45.1609,-40.3531,-11.3207,7.12502,-13.3082,-40.8758,0,-4.37326e-14,-34.9058,29.1684,35.1074,37.1889,63.4595,-56.4702,42.7603,7.12502,-28.7855,70.5607,-24.3255,2.58779,8.40984,20.3136,-9.30563,0.372835,27.9523,-15.7561,-3.01052,-20.375,28.6223,0.0350097,-11.4864,-36.2701
16.1573,18.3909,-20.8883,5.47535,-26.747,12.569,12.2807,-0.824415,2.82433,7.80307,-0.923757,-2.54345,1.21984,-0.344913,-4.14434,2.93282,2.84451,11.9922,-9.28974,2.25514,-27.0429,-2.59329,1.74999,-10.8523,3.18055e-14,1.51076e-14,43.1989,-9.36554,-85.0002,49.0303,-46.2374,-39.1753,-11.4924,7.12502,-12.1727,-41.1183,3.18055e-14,1.51076e-14,-34.2699,30.039,35.0927,36.7459,64.3039,-56.3282,42.1585,7.12502,-28.6498,69.9819,-24.0378,2.52254,8.85578,20.2689,-9.30717,0.587442,27.2021,-15.9672,-3.06427,-20.1415,29.2499,-0.347614,-10.9942,-34.1601
16.1195,18.39,-20.8996,5.35632,-26.7122,12.3678,12.3315,-0.901412,2.75327,7.94708,-1.03297,-2.48582,1.33597,-0.399968,-4.0322,3.22451,2.94004,12.2724,-9.45453,2.38599,-27.2189,-2.65527,1.83908,-10.9875,-1.11319e-14,1.51076e-14,43.1212,-9.31091,-85.562,49.3143,-47.0215,-38.0783,-12.0104,7.12502,-11.1148,-41.6961,-1.11319e-14,1.51076e-14,-33.1281,30.9653,35.2537,36.2395,64.8508,-56.2271,41.2229,7.12502,-28.5533,69.0626,-23.7507,2.25568,9.28881,20.189,-9.27841,0.896252,26.3795,-16.2088,-3.21443,-19.955,29.7981,-1.09529,-10.2255,-34.3754
16.0838,18.3898,-20.9036,5.3165,-26.5901,12.2354,12.1841,-0.943294,2.77859,8.10051,-1.09013,-2.53373,1.57173,-0.420311,-4.09409,3.28038,2.91627,12.6553,-9.32495,2.40744,-27.2746,-2.61582,1.83689,-11.0808,-2.78299e-14,3.33958e-14,42.9609,-9.4328,-85.8991,49.6248,-48.0997,-37.373,-12.8936,7.12502,-10.4345,-42.6147,-2.78299e-14,3.33958e-14,-31.6997,31.3854,35.7147,36.1005,65.5009,-56.1267,41.6043,7.12502,-28.4573,69.4601,-23.4903,1.76711,9.65583,20.0602,-9.41688,1.27802,25.7673,-16.631,-3.56736,-19.8703,30.3167,-1.59737,-9.36221,-34.0482
16.0494,18.3922,-20.9092,5.2689,-26.4098,12.1257,12.1596,-1.01862,2.72842,8.177,-1.1949,-2.53502,1.65681,-0.472128,-4.05684,3.3131,2.93561,12.8248,-9.06831,2.50823,-27.197,-2.52724,1.86973,-11.0756,-3.89618e-14,-3.97569e-15,42.2035,-9.03628,-85.3091,50.2178,-50.094,-36.8925,-13.2797,7.12502,-9.97091,-43.0236,-3.89618e-14,-3.97569e-15,-30.5016,31.6606,36.167,36.1215,66.2256,-56.0061,42.331,7.12502,-28.342,70.206,-23.2344,1.45319,9.94642,19.9994,-9.58705,1.39762,24.9923,-17.0924,-3.85039,-19.8171,30.7841,-1.99151,-8.74071,-33.1492
16.0173,18.3878,-20.9187,5.3096,-26.2537,11.8684,12.1695,-1.09429,2.70259,8.1929,-1.29613,-2.42364,1.66114,-0.526153,-3.91414,3.42508,3.05069,12.9777,-8.83646,2.74208,-27.1765,-2.43001,1.97831,-11.0911,-2.54444e-14,1.90833e-14,41.9487,-9.12288,-85.8881,50.8795,-50.5909,-35.613,-14.1209,7.12502,-8.73636,-43.9201,-2.54444e-14,1.90833e-14,-29.3849,32.0932,36.5967,35.9526,66.9056,-56.0939,42.896,7.12502,-28.426,70.757,-23.1318,1.31458,10.3452,20.0907,-9.69425,1.42898,24.621,-17.4832,-3.92188,-19.6413,31.1288,-2.62952,-8.22536,-34.4796
15.9847,18.3701,-20.9292,5.37598,-26.2493,11.5637,12.146,-1.08726,2.63363,8.21062,-1.29358,-2.27964,1.69586,-0.530296,-3.7247,3.63712,3.13871,13.1071,-8.71534,2.9229,-27.1408,-2.39434,2.07241,-11.1036,-5.36719e-14,-6.36111e-15,41.6519,-9.27853,-86.3112,51.4217,-51.0667,-34.1889,-14.7439,7.12502,-7.3619,-44.5958,-5.36719e-14,-6.36111e-15,-28.0755,32.2621,37.1949,35.7673,67.8928,-56.1029,43.3499,7.12502,-28.4346,71.2095,-23.1773,0.974786,10.8515,20.288,-9.914,1.86115,24.1762,-17.7848,-3.84205,-19.4589,31.3695,-3.42714,-7.6286,-36.6192
15.9503,18.3532,-20.9357,5.31977,-26.2386,11.2808,12.0872,-1.07411,2.55072,8.34698,-1.287,-2.15275,1.87573,-0.529202,-3.54827,4.09043,3.13556,13.1187,-8.95932,2.92263,-26.9737,-2.54999,2.10669,-11.0657,-4.13472e-14,-2.38542e-14,41.4208,-9.35071,-86.5685,51.8248,-51.5292,-33.1157,-14.8239,7.12502,-6.32588,-44.7094,-4.13472e-14,-2.38542e-14,-26.5742,32.4379,37.9232,35.6049,68.8693,-55.9318,43.4512,7.12502,-28.271,71.338,-23.0665,0.412099,11.3742,20.4371,-10.0806,2.57609,23.357,-17.9784,-3.94527,-19.2992,31.5743,-3.82364,-7.09601,-33.3924
15.9155,18.346,-20.9395,5.20613,-26.0949,11.0854,12.0559,-1.09897,2.42177,8.44623,-1.3332,-2.03848,1.99783,-0.55759,-3.35272,4.53123,3.05262,13.1327,-9.06496,2.83444,-26.7975,-2.68469,2.08895,-11.0204,-3.89618e-14,-7.95139e-16,41.0304,-9.30051,-86.6707,52.1671,-51.6324,-31.8286,-14.6753,7.12502,-5.08319,-44.5944,-3.89618e-14,-7.95139e-16,-25.0657,32.888,38.6119,35.2956,69.5348,-56.167,43.5309,7.12502,-28.4958,71.3802,-22.8401,-0.0899646,11.7669,20.5431,-10.0707,3.1032,23.3833,-18.1847,-4.22556,-19.2034,31.7009,-3.99731,-6.7837,-29.6469
15.8812,18.3436,-20.9447,5.1819,-25.8671,10.6984,12.166,-1.16786,2.50925,8.41142,-1.41276,-1.89205,1.89715,-0.599384,-3.2381,4.92657,2.96611,13.1467,-8.85084,2.79515,-26.652,-2.71095,2.0799,-10.9729,3.65764e-14,-3.26007e-14,40.1581,-8.98612,-86.1592,52.7184,-52.2231,-30.4015,-14.7594,7.12502,-3.70516,-44.707,3.65764e-14,-3.26007e-14,-23.7299,33.1157,39.2739,35.125,70.1411,-56.5621,44.0349,7.12502,-28.8733,71.8204,-22.583,-0.334622,12.296,20.678,-10.1776,3.24547,24.817,-18.4311,-4.44651,-18.9041,31.7511,-4.17382,-6.73147,-25.0699
15.8486,18.3426,-20.948,5.16453,-25.6473,10.3708,12.1341,-1.24946,2.58347,8.44969,-1.51395,-1.7769,1.94859,-0.648622,-3.14995,5.37929,2.98522,13.1535,-8.7905,2.87925,-26.5525,-2.76228,2.14465,-10.9491,-1.27222e-14,3.97569e-14,39.1107,-8.14758,-84.6997,53.4791,-53.9686,-29.5533,-14.7494,7.12502,-2.88607,-44.7096,-1.27222e-14,3.97569e-14,-22.412,33.3148,40.0739,35.154,70.7071,-56.8037,44.5831,7.12502,-29.104,72.3289,-22.3849,-0.637117,12.7669,20.8134,-10.4209,3.4017,25.1307,-18.6943,-4.62728,-18.7164,31.7962,-4.40779,-6.76903,-21.7343
15.8181,18.3297,-20.9499,5.02485,-25.487,10.3509,12.0505,-1.27571,2.31985,8.54037,-1.57524,-1.68664,2.0918,-0.68951,-2.90355,5.59746,3.08648,13.1664,-8.65922,3.07849,-26.4369,-2.72547,2.24825,-10.9105,-2.70347e-14,7.95139e-15,38.9069,-8.61884,-85.7927,54.2023,-53.0362,-27.88,-15.2088,7.12502,-1.27,-45.1848,-2.70347e-14,7.95139e-15,-20.9515,33.6681,41.0564,35.1668,71.3013,-57.0417,44.9598,7.12502,-29.3313,72.6661,-22.2473,-1.01293,12.9332,20.9535,-10.613,3.66741,23.1837,-18.9026,-4.67378,-18.9124,31.8467,-5.07802,-6.51262,-24.7134
15.7888,18.3057,-20.9512,4.8399,-25.3202,10.2334,12.1176,-1.34173,2.08367,8.58031,-1.68307,-1.51782,2.09979,-0.757537,-2.58233,5.80463,3.20792,13.1529,-8.509,3.30329,-26.3437,-2.6761,2.3644,-10.8744,-2.34566e-14,7.15625e-15,38.5116,-8.55885,-86.048,54.6704,-52.961,-26.6495,-14.8579,7.12502,-0.0816027,-44.8376,-2.34566e-14,7.15625e-15,-19.6472,33.9185,41.9993,35.2137,72.1067,-57.1992,44.5511,7.12502,-29.4817,72.2309,-22.0599,-1.18707,13.1512,21.2193,-10.7036,3.77071,22.1939,-18.9907,-4.62096,-19.0379,31.8409,-5.9095,-6.15658,-28.1975
15.7599,18.291,-20.9517,4.77105,-25.1143,9.98606,12.0668,-1.47828,1.97148,8.59767,-1.87385,-1.33565,2.14203,-0.861802,-2.31101,6.2608,3.30819,13.1033,-8.54211,3.47638,-26.2748,-2.73523,2.47949,-10.8563,1.23246e-14,2.62396e-14,38.0221,-8.10781,-85.9554,55.0803,-53.3076,-25.7907,-14.4398,7.12502,0.747852,-44.4182,1.23246e-14,2.62396e-14,-18.5066,34.0154,42.8179,35.3388,72.908,-57.2958,44.2676,7.12502,-29.5739,71.9312,-21.9618,-1.46586,13.5146,21.6089,-10.8187,3.99251,22.7635,-19.1625,-4.69238,-19.0054,31.7659,-6.29104,-6.0648,-26.8919
15.7304,18.2817,-20.9579,4.79645,-24.9123,9.77613,11.9347,-1.53962,1.76704,8.59852,-1.97457,-1.15952,2.21936,-0.924314,-2.00585,6.90522,3.29019,12.8193,-8.68372,3.47091,-25.9301,-2.91057,2.51739,-10.7023,-7.95139e-14,-5.56597e-15,37.3469,-7.74275,-85.7481,55.7905,-53.7871,-25.0535,-14.3941,7.12502,1.45992,-44.3689,-7.95139e-14,-5.56597e-15,-17.153,33.8642,43.8282,35.4301,73.4846,-57.3655,44.5242,7.12502,-29.6405,72.1759,-21.975,-1.82158,13.8774,21.9157,-11.0343,4.26426,23.2513,-19.466,-4.86641,-18.9762,31.6757,-6.48221,-5.9478,-24.9991
15.6996,18.2694,-20.9663,4.81507,-24.6995,9.66249,11.7983,-1.56628,1.42063,8.57348,-2.04127,-0.953146,2.27965,-0.977022,-1.5934,7.39417,3.27943,12.6331,-8.68312,3.49361,-25.6566,-3.00705,2.55305,-10.5837,4.6118e-14,7.95139e-15,36.5342,-7.29796,-85.1714,56.5707,-54.6158,-24.1748,-14.1882,7.12502,2.30854,-44.1554,4.6118e-14,7.95139e-15,-15.726,33.6751,45.024,35.5039,74.1755,-57.4505,44.2586,7.12502,-29.7216,71.8959,-22.0076,-2.20035,14.1532,22.1368,-11.2195,4.50061,23.8189,-19.7897,-4.9212,-19.0625,31.5478,-6.84001,-5.87682,-25.8798
15.6695,18.261,-20.9693,4.8287,-24.4717,9.4078,11.688,-1.62761,1.24895,8.57212,-2.13855,-0.712124,2.34802,-1.03869,-1.24057,7.46231,3.34831,12.8366,-8.36102,3.6737,-25.7297,-2.88486,2.63108,-10.6408,-2.70347e-14,1.82882e-14,35.6526,-6.53134,-84.0738,57.1655,-55.9968,-23.2342,-13.564,7.12502,3.21693,-43.5195,-2.70347e-14,1.82882e-14,-14.3375,33.6931,46.2863,35.7114,74.8542,-57.6691,44.7954,7.12502,-29.9302,72.3953,-21.9343,-2.47755,14.5308,22.3958,-11.3971,4.69314,24.4921,-20.0334,-4.75627,-19.0498,31.3687,-7.03706,-6.22971,-24.8629
15.6428,18.2539,-20.9651,4.79291,-24.2638,9.15661,11.5395,-1.64511,1.20258,8.62439,-2.16877,-0.548962,2.49028,-1.05899,-1.04799,7.54152,3.33966,13.1083,-8.06553,3.75388,-25.7462,-2.79262,2.65715,-10.6912,7.95139e-16,-2.38542e-15,35.366,-7.18669,-85.1766,57.7439,-55.2491,-21.24,-13.9006,7.12502,5.1426,-43.8182,7.95139e-16,-2.38542e-15,-12.704,33.7601,47.6933,35.8491,75.1597,-57.9373,45.5489,7.12502,-30.186,73.1024,-21.8168,-2.56905,14.844,22.6962,-11.5905,4.68479,24.5291,-20.1539,-4.67541,-19.0837,31.1724,-7.37425,-6.3348,-24.1026
15.6185,18.2407,-20.9561,4.71265,-24.053,9.08146,11.3336,-1.6498,1.0574,8.65478,-2.18965,-0.474503,2.64072,-1.07655,-0.894538,7.83178,3.28325,13.2806,-7.89821,3.7642,-25.5722,-2.79673,2.66157,-10.6648,1.98785e-15,9.54166e-15,34.6541,-7.42778,-85.4067,58.5057,-55.3044,-19.5966,-14.1877,7.12502,6.72929,-44.0608,1.98785e-15,9.54166e-15,-11.0159,33.6393,49.0982,35.8935,75.4284,-58.2584,45.1798,7.12502,-30.4924,72.6768,-21.7642,-2.85884,15.0021,22.9878,-11.7254,4.83931,24.386,-20.2694,-4.71848,-19.3142,31.0118,-7.87138,-6.19788,-25.1423
15.5929,18.2266,-20.954,4.64043,-23.8777,8.95228,11.2585,-1.66826,0.849286,8.62719,-2.23136,-0.364276,2.66254,-1.10943,-0.661866,8.19361,3.25275,13.4918,-7.69888,3.82567,-25.4307,-2.79215,2.69484,-10.6599,2.78299e-14,1.03368e-14,33.7942,-7.27145,-85.2653,59.235,-55.52,-18.3882,-14.3024,7.12502,7.89563,-44.135,2.78299e-14,1.03368e-14,-9.58516,33.1652,50.3947,36.1539,76.0164,-58.4196,44.8967,7.12502,-30.6461,72.365,-21.757,-3.204,15.2545,23.3103,-11.859,5.19402,25.0712,-20.4289,-4.59137,-19.4838,30.8703,-8.35292,-6.15552,-25.984
15.5671,18.2126,-20.9542,4.57734,-23.7028,8.69913,11.1994,-1.69335,0.707173,8.62135,-2.27733,-0.204557,2.69911,-1.14304,-0.414596,8.47275,3.20266,13.8924,-7.3245,3.89151,-25.498,-2.71289,2.72288,-10.7592,1.03368e-14,-5.56597e-15,33.0448,-7.19139,-85.3082,59.8897,-55.5284,-16.5848,-14.2636,7.12502,9.63598,-44.0232,1.03368e-14,-5.56597e-15,-8.05953,32.7365,51.7484,36.2952,76.487,-58.0806,44.8328,7.12502,-30.3228,72.3612,-21.7248,-3.51078,15.6331,23.6887,-12.1018,5.39608,24.8886,-20.5157,-4.22489,-19.5982,30.7199,-9.35368,-5.79832,-29.7362
15.5442,18.1954,-20.946,4.47639,-23.4302,8.45019,11.0879,-1.6899,0.667583,8.69022,-2.27905,-0.0656569,2.83981,-1.14912,-0.253506,8.49177,3.04741,14.2962,-6.83752,3.81572,-25.4378,-2.58862,2.65652,-10.7975,-9.93923e-15,1.51076e-14,32.3251,-7.50249,-85.4553,60.653,-55.2823,-14.0577,-14.045,7.12502,12.0735,-43.6767,-9.93923e-15,1.51076e-14,-6.1705,32.3528,53.3305,36.3896,76.8936,-57.7529,44.9843,7.12502,-30.0101,72.5697,-21.5927,-4.02181,15.9922,24.0788,-12.4427,5.56305,22.77,-20.5009,-4.01278,-19.7454,30.5809,-10.1474,-5.48139,-31.435
15.5238,18.1788,-20.9374,4.37625,-23.1118,8.24296,11.0341,-1.69585,0.671366,8.72897,-2.28795,0.0238955,2.9137,-1.15552,-0.164648,8.45693,2.8725,14.5567,-6.42912,3.6899,-25.1548,-2.49599,2.56065,-10.727,-1.35174e-14,-7.15625e-15,31.5196,-7.82851,-85.5608,61.4589,-54.8566,-11.7063,-13.7117,7.12502,14.34,-43.1964,-1.35174e-14,-7.15625e-15,-4.53593,31.6287,54.8481,36.9467,77.6875,-57.5927,45.3048,7.12502,-29.8572,72.9178,-21.4616,-4.53411,16.2775,24.4455,-12.778,5.7276,20.993,-20.5292,-4.0432,-19.8765,30.4606,-10.5144,-5.50014,-30.6622
15.5052,18.1594,-20.9297,4.36082,-22.8885,7.89568,10.9719,-1.7763,0.827303,8.6889,-2.38223,0.117528,2.90236,-1.19782,-0.148105,8.51736,2.84487,14.9332,-6.04185,3.77706,-25.0669,-2.37338,2.58336,-10.7571,2.5842e-14,-1.98785e-14,30.6174,-7.70237,-85.6164,62.1915,-54.6227,-9.80108,-13.4829,7.12502,16.1752,-42.828,2.5842e-14,-1.98785e-14,-3.39079,30.8588,56.0886,37.6454,78.6094,-57.3149,44.8159,7.12502,-29.5921,72.4763,-21.3634,-4.77858,16.6801,24.7561,-13.0525,5.7843,21.2525,-20.5394,-3.82825,-19.8959,30.3542,-11.2459,-5.43349,-32.2049
15.487,18.1402,-20.92,4.39908,-22.7606,7.45446,10.8038,-1.80347,1.04683,8.6997,-2.4049,0.21308,3.00066,-1.20116,-0.175861,8.55366,2.85216,15.4476,-5.70779,3.91741,-25.02,-2.24501,2.63289,-10.83,-5.80451e-14,2.06736e-14,29.7782,-7.53858,-85.5169,62.8066,-54.8327,-8.40095,-13.2188,7.12502,17.523,-42.4491,-5.80451e-14,2.06736e-14,-2.09268,30.2351,57.4162,38.2462,79.3542,-57.0755,44.2032,7.12502,-29.3636,71.9038,-21.2477,-4.78721,17.1694,24.985,-13.2858,5.69063,21.8937,-20.5176,-3.56453,-19.8484,30.2431,-12.0114,-4.79122,-36.0309
15.4671,18.132,-20.9112,4.37407,-22.6297,7.16517,10.6028,-1.77357,1.08702,8.76168,-2.36766,0.269107,3.177,-1.18139,-0.151412,8.6863,2.79183,15.8431,-5.48528,3.94994,-24.8042,-2.19493,2.63495,-10.8241,6.75868e-15,-3.97569e-15,29.0606,-7.61627,-85.4695,63.4653,-54.9308,-6.90271,-12.9922,7.12502,18.9644,-42.0877,6.75868e-15,-3.97569e-15,-0.684807,29.4198,58.8557,39.0197,80.1708,-56.9121,43.7638,7.12502,-29.2075,71.4917,-21.0864,-4.79475,17.5036,25.146,-13.4743,5.62594,22.0509,-20.6251,-3.39047,-19.9456,30.1157,-12.3865,-3.98829,-39.306
15.4463,18.1319,-20.9014,4.25939,-22.5916,7.12603,10.3839,-1.73778,0.872788,8.78222,-2.33916,0.268246,3.32593,-1.17663,-0.0426918,8.91488,2.71999,16.2354,-5.23402,3.97951,-24.6113,-2.15428,2.6418,-10.8288,3.02153e-14,-1.11319e-14,28.227,-7.65369,-85.5319,64.3519,-54.6731,-5.17187,-12.7857,7.12502,20.6283,-41.7096,3.02153e-14,-1.11319e-14,0.497974,28.4302,60.2439,39.9648,81.2815,-57.1214,43.2215,7.12502,-29.4074,70.9145,-20.917,-5.04597,17.5974,25.2435,-13.5669,5.98535,22.5484,-20.7826,-3.21654,-20.2346,29.9666,-12.3531,-4.38788,-36.7049
15.4275,18.1282,-20.8914,4.07666,-22.5368,7.17074,10.2224,-1.75075,0.551442,8.78438,-2.38057,0.29057,3.42926,-1.21332,0.157245,9.15816,2.67232,16.4743,-4.96709,4.0279,-24.3989,-2.11175,2.66116,-10.7973,-4.29375e-14,1.03368e-14,27.0751,-7.33597,-85.2663,65.3199,-54.4432,-3.44791,-11.9872,7.12502,22.284,-40.7224,-4.29375e-14,1.03368e-14,1.399,27.5534,61.5344,40.9593,82.4521,-57.6182,43.4049,7.12502,-29.8816,71.0136,-20.7075,-5.61262,17.6247,25.3046,-13.6705,6.42481,22.5539,-20.7917,-3.13675,-20.603,29.81,-12.2763,-5.09538,-31.4734
15.4137,18.1191,-20.8819,3.91214,-22.2694,7.15337,10.1658,-1.8801,0.325999,8.73776,-2.56683,0.374033,3.42428,-1.31962,0.381562,9.33015,2.66946,16.5126,-4.6276,4.11695,-24.1277,-2.03341,2.69684,-10.7022,5.32743e-14,-2.38542e-15,26.393,-7.11223,-85.26,66.0158,-53.7673,-1.47465,-11.3184,7.12502,24.1772,-39.8146,5.32743e-14,-2.38542e-15,1.96379,26.3476,62.5336,42.0882,83.7973,-57.8927,43.5324,7.12502,-30.1435,71.0936,-20.5051,-6.07721,17.6781,25.4803,-13.9183,6.53438,22.4296,-20.8301,-3.0118,-21.0183,29.6382,-12.3002,-5.07974,-29.1301
15.4012,18.1087,-20.8688,3.94589,-21.9895,6.98312,9.94,-1.93905,0.318645,8.73741,-2.64757,0.460394,3.55224,-1.36225,0.472073,9.00681,2.67746,16.609,-4.07418,4.20548,-23.728,-1.80923,2.69534,-10.5488,2.38542e-15,2.38542e-14,25.4436,-6.97366,-84.9771,66.8329,-53.4216,0.382865,-10.6924,7.12502,25.957,-38.94,2.38542e-15,2.38542e-14,2.90031,25.0568,63.8025,43.1581,84.7144,-57.635,43.2417,7.12502,-29.8976,70.8474,-20.4986,-6.05296,17.8491,25.7777,-14.212,6.33517,22.766,-21.0614,-2.74347,-21.2714,29.4825,-12.0763,-5.23893,-26.0571
15.3893,18.0849,-20.8508,3.90412,-21.7608,6.78012,9.70307,-1.95391,0.326787,8.84083,-2.67275,0.560774,3.79701,-1.37764,0.561553,8.5923,2.67423,16.4845,-3.56196,4.23683,-23.1521,-1.60233,2.66072,-10.2907,4.25399e-14,-5.56597e-15,25.1986,-7.336,-85.3332,67.3902,-52.0203,2.64355,-10.6006,7.12502,28.1199,-38.5123,4.25399e-14,-5.56597e-15,4.11936,24.3755,65.4384,44.0297,85.0118,-56.8421,43.1362,7.12502,-29.1407,70.8756,-20.4161,-6.13,18.0595,26.0706,-14.4887,6.10318,22.7199,-21.0921,-2.34575,-21.5045,29.3799,-12.2823,-5.36544,-26.4546
15.3807,18.0594,-20.8322,3.6862,-21.5136,6.63169,9.64402,-2.09385,0.26568,8.86776,-2.86436,0.64443,3.8677,-1.47944,0.690905,8.91906,2.61187,16.1847,-3.44712,4.19596,-22.5716,-1.65539,2.6411,-10.035,1.86858e-14,1.11319e-14,24.6248,-7.10167,-85.4823,67.9388,-50.396,4.7773,-10.1756,7.12502,30.1575,-37.7342,1.86858e-14,1.11319e-14,4.81324,23.7515,66.6945,44.9726,85.7034,-56.2023,42.4984,7.12502,-28.5295,70.3421,-20.1296,-6.50018,18.2061,26.3237,-14.7966,6.16292,22.7587,-20.8831,-2.0417,-21.8433,29.3061,-12.8934,-4.87698,-30.4921
15.3705,18.0499,-20.8137,3.51818,-21.3881,6.47038,9.54851,-2.1937,0.19866,8.83997,-3.00188,0.697265,3.89867,-1.55318,0.78777,9.44659,2.4918,16.1018,-3.51118,4.09726,-22.0896,-1.79676,2.60603,-9.86628,-9.14409e-15,-3.33958e-14,23.8706,-6.8897,-85.6668,68.5494,-48.578,7.09089,-9.86065,7.12502,32.3622,-36.9933,-9.14409e-15,-3.33958e-14,5.30739,22.866,67.8673,46.0404,86.6049,-55.6934,41.5784,7.12502,-28.0432,69.5027,-19.8472,-6.75176,18.3641,26.4934,-15.0615,6.40252,22.9587,-20.7093,-1.90045,-22.115,29.2661,-13.261,-4.59427,-32.1862
15.3577,18.0455,-20.7958,3.3933,-21.3908,6.31959,9.41135,-2.22649,0.0470471,8.8059,-3.05681,0.777827,3.95109,-1.59097,0.95365,9.79324,2.42267,16.0905,-3.44605,4.07013,-21.7048,-1.85138,2.59626,-9.73764,3.26007e-14,7.95139e-15,22.9038,-6.393,-85.2156,69.0532,-47.1163,8.88824,-9.14375,7.12502,34.0711,-35.9117,3.26007e-14,7.95139e-15,5.7298,21.8117,68.972,47.2499,87.3949,-55.5746,42.3088,7.12502,-27.9296,70.2516,-19.5592,-6.84597,18.5248,26.5027,-15.2341,6.55764,23.2309,-20.6163,-1.72266,-22.3418,29.2803,-13.5953,-4.48602,-34.2802
15.3475,18.0447,-20.7835,3.31318,-21.4377,6.1196,9.29499,-2.26195,-0.0199877,8.78216,-3.10903,0.803006,3.99573,-1.62136,1.01535,10.1255,2.34328,16.2216,-3.27569,4.05434,-21.4314,-1.8658,2.59114,-9.67203,2.94201e-14,-1.27222e-14,21.9801,-6.1514,-85.0856,69.8943,-45.2466,10.3673,-8.70306,7.12502,35.4747,-35.1469,2.94201e-14,-1.27222e-14,6.13874,20.4999,69.7549,48.5829,88.0192,-55.9081,43.8828,7.12502,-28.2484,71.7733,-19.3052,-6.91011,18.7479,26.4362,-15.5109,6.66635,23.7895,-20.6169,-1.50241,-22.4701,29.3175,-13.5864,-4.6745,-33.4815
15.3412,18.0448,-20.7694,3.2613,-21.4084,5.96299,9.13556,-2.27713,0.00672168,8.78991,-3.12763,0.750259,4.08721,-1.62747,0.939414,10.2056,2.22822,16.528,-2.97323,3.99771,-21.1817,-1.80292,2.55015,-9.63516,6.0033e-14,-1.90833e-14,21.2547,-6.21683,-85.1179,70.8209,-43.2299,11.6818,-8.76807,7.12502,36.7196,-34.9045,6.0033e-14,-1.90833e-14,6.7336,19.009,70.6109,49.8485,88.5263,-55.7556,43.6953,7.12502,-28.1026,71.6099,-19.1448,-7.17752,18.9284,26.4526,-15.8245,6.86886,24.3826,-20.6747,-1.39031,-22.6176,29.3389,-13.391,-5.21705,-27.7906
15.337,18.0347,-20.7504,3.24117,-21.2626,5.8351,8.92225,-2.28544,0.0523971,8.80041,-3.13665,0.721178,4.21159,-1.62819,0.87438,10.0759,2.18803,16.7679,-2.60992,4.02005,-20.8086,-1.67432,2.53552,-9.53629,-7.03698e-14,1.11319e-14,20.7318,-6.33859,-85.1222,71.4975,-40.9797,12.9001,-8.86684,7.12502,37.8715,-34.7009,-7.03698e-14,1.11319e-14,7.24036,17.4168,71.5975,51.1656,89.2895,-55.5029,42.9156,7.12502,-27.8611,70.8695,-19.0508,-7.31743,19.0549,26.5792,-15.9042,6.80323,25.0601,-20.7121,-1.24969,-22.8537,29.3174,-13.5145,-5.32508,-25.6233
15.334,18.014,-20.734,3.19489,-21.1429,5.55911,8.85392,-2.29406,0.167585,8.80716,-3.1435,0.75714,4.25246,-1.62661,0.844613,9.98939,2.16446,16.9378,-2.36258,4.04859,-20.3436,-1.58752,2.52667,-9.39708,1.19271e-15,4.13472e-14,20.1794,-6.27002,-85.0578,72.0285,-38.4695,13.7475,-8.47208,7.12502,38.6714,-34.0854,1.19271e-15,4.13472e-14,7.52748,16.0245,72.6659,52.5103,89.8666,-55.383,42.8187,7.12502,-27.7464,70.7911,-18.9146,-7.19656,19.3128,26.7903,-16.0836,6.49479,25.3601,-20.6079,-0.962132,-22.9765,29.2282,-13.9868,-5.02675,-28.6823
15.3299,17.9979,-20.7141,3.12268,-21.0562,5.38562,8.73784,-2.38029,0.140067,8.76009,-3.26068,0.817426,4.27347,-1.68821,0.923881,10.1304,2.1642,16.7462,-2.2512,4.07779,-19.7871,-1.58746,2.53097,-9.17176,-3.4191e-14,3.02153e-14,19.4635,-5.84127,-84.9293,72.5739,-36.0851,14.1022,-7.9786,7.12502,39.0059,-33.4969,-3.4191e-14,3.02153e-14,7.62828,15.0633,73.7029,53.6751,90.3126,-55.155,42.6725,7.12502,-27.5284,70.6799,-18.7967,-7.32311,19.4681,27.0279,-16.3992,6.49716,25.4861,-20.4644,-0.823421,-23.1664,29.0939,-14.3362,-5.17716,-28.4592
15.3233,17.9925,-20.6866,3.00456,-21.0596,5.37185,8.49783,-2.4591,0.0181184,8.71539,-3.37184,0.797341,4.36593,-1.74902,0.965651,10.2567,2.16728,16.5562,-1.96917,4.12262,-19.3258,-1.5319,2.54359,-8.97783,-4.37326e-15,-9.54166e-15,18.6596,-5.29849,-84.7232,73.1454,-34.2153,14.4834,-7.88393,7.12502,39.3651,-33.2984,-4.37326e-15,-9.54166e-15,7.71216,13.9894,74.5359,54.8441,90.945,-56.6251,43.8871,7.12502,-28.9335,71.6623,-18.6305,-7.50513,19.4502,27.1884,-16.5688,6.6733,25.7439,-20.2659,-0.688611,-23.4979,28.9826,-14.2702,-5.49113,-26.9033
15.3174,17.9855,-20.6566,2.83726,-21.2023,5.19823,8.33462,-2.4294,0.0914105,8.75223,-3.33003,0.727665,4.4858,-1.72223,0.841998,10.1394,2.09551,16.7995,-1.45425,4.1063,-19.0113,-1.36823,2.5151,-8.90032,-8.07066e-14,3.4191e-14,17.8931,-5.05253,-84.5993,73.6742,-32.2547,15.2957,-7.8024,7.12502,40.1299,-32.9891,-8.07066e-14,3.4191e-14,7.91573,12.5752,75.2495,55.9648,91.4846,-59.1166,46.6935,7.12502,-31.3105,74.0353,-18.3276,-7.61331,19.594,27.285,-16.9046,6.82269,25.5119,-19.9406,-0.301905,-23.6581,28.8913,-14.2662,-5.37296,-28.3156
15.3152,17.9784,-20.6258,2.74654,-21.3297,5.01423,8.08051,-2.39091,0.163905,8.78279,-3.27801,0.68637,4.65137,-1.69083,0.743872,10.2065,2.02605,16.9715,-1.15813,4.08837,-18.5588,-1.30129,2.49345,-8.77264,5.00937e-14,-1.90833e-14,17.2781,-4.92835,-84.5705,74.0208,-29.9909,16.0397,-7.55759,7.12502,40.8294,-32.528,5.00937e-14,-1.90833e-14,8.11712,11.2554,75.986,56.8802,91.985,-57.7377,45.4929,7.12502,-29.9956,73.081,-18.1081,-7.77503,19.7407,27.3988,-17.302,7.00031,25.1659,-19.714,0.102887,-23.8106,28.8017,-14.346,-5.17992,-28.5025
