JuanDHNZ/ProyectoFinalCD/preprocessing/sports_trials_csv/93_06.csv
root1,root2,root3,root4,root5,root6,lowerback1,lowerback2,lowerback3,upperback1,upperback2,upperback3,thorax1,thorax2,thorax3,lowerneck1,lowerneck2,lowerneck3,upperneck1,upperneck2,upperneck3,head1,head2,head3,rclavicle1,rclavicle2,rhumerus1,rhumerus2,rhumerus3,rradius1,rwrist1,rhand1,rhand2,rfingers1,rthumb1,rthumb2,lclavicle1,lclavicle2,lhumerus1,lhumerus2,lhumerus3,lradius1,lwrist1,lhand1,lhand2,lfingers1,lthumb1,lthumb2,rfemur1,rfemur2,rfemur3,rtibia1,rfoot1,rfoot2,rtoes1,lfemur1,lfemur2,lfemur3,ltibia1,lfoot1,lfoot2,ltoes1
-15.8043,16.388,-1.63489,-0.443455,76.2724,-6.0264,21.1167,-3.77435,-2.73274,3.73442,-5.55946,-2.8397,-7.72094,-2.53503,-0.0303573,1.38336,6.71286,7.34806,-4.15439,9.04787,-3.89232,-1.01397,4.49448,-2.56755,1.51076e-14,-2.38542e-14,-37.4313,19.1071,-95.8753,40.1531,18.4489,-16.3086,-31.7356,7.12502,9.90241,-61.4827,1.51076e-14,-2.38542e-14,21.0277,-2.49168,67.2796,69.444,24.3504,-19.1976,32.6282,7.12502,7.11444,62.4887,-38.3034,8.71698,22.3583,61.5069,-26.045,-3.19903,-20.3477,-36.4966,9.74124,-21.7104,63.4378,-26.0657,-7.42211,-14.567
-15.8228,16.3811,-1.62641,-0.0758604,76.3737,-5.67807,21.2638,-3.75936,-2.83929,3.78233,-5.56586,-2.89283,-7.74162,-2.53269,-0.0192319,1.36964,6.70056,7.31622,-4.35598,9.03296,-3.84039,-1.08089,4.48463,-2.55095,-1.27222e-14,-1.27222e-14,-37.3968,19.3682,-96.078,40.7074,18.2062,-16.5166,-31.9601,7.12502,9.70175,-61.7166,-1.27222e-14,-1.27222e-14,21.2924,-2.47798,67.3315,69.5746,24.2274,-19.0579,32.6959,7.12502,7.24926,62.5517,-38.5231,8.73605,22.2848,61.7146,-25.9711,-3.24995,-19.9926,-36.6603,9.72127,-21.7841,63.551,-26.0514,-7.49652,-14.4486
-15.8481,16.3654,-1.61702,-0.16798,76.3258,-5.85243,21.3869,-3.69795,-2.84633,3.85169,-5.48731,-2.94189,-7.73605,-2.49295,-0.0846147,1.17931,6.67699,7.37144,-4.46651,8.99166,-3.82902,-1.08385,4.46136,-2.55164,-5.24792e-14,-2.54444e-14,-37.263,19.5772,-96.2756,41.2192,18.0751,-16.9848,-31.8276,7.12502,9.25006,-61.6047,-5.24792e-14,-2.54444e-14,21.7002,-2.50341,67.3038,69.6785,24.1639,-18.9397,32.8979,7.12502,7.36338,62.7497,-38.888,8.90237,22.35,62.0128,-25.8642,-3.24289,-19.4898,-36.9858,9.86027,-21.7133,63.8038,-25.9666,-7.69087,-13.9131
-15.8761,16.3457,-1.60458,-0.285093,76.2773,-6.03265,21.5618,-3.6297,-2.88453,3.92732,-5.40772,-2.99221,-7.74795,-2.45092,-0.131673,0.995094,6.65545,7.36916,-4.60463,8.95547,-3.74007,-1.1025,4.44005,-2.51818,5.24792e-14,4.45278e-14,-37.1672,19.7423,-96.4867,41.7892,17.9576,-17.4915,-31.9874,7.12502,8.76103,-61.7856,5.24792e-14,4.45278e-14,22.128,-2.56604,67.2527,69.7914,24.2349,-19.0093,33.0509,7.12502,7.29618,62.9051,-39.2598,9.08715,22.4301,62.3447,-25.7568,-3.22319,-19.0351,-37.319,10.0168,-21.6249,64.0537,-25.809,-7.98899,-12.8433
-15.9031,16.3274,-1.58915,-0.135724,76.4348,-5.7587,21.9233,-3.63178,-3.04788,4.06859,-5.44714,-3.05341,-7.77392,-2.45929,-0.079679,0.838638,6.6439,7.3172,-4.82808,8.93484,-3.64117,-1.15497,4.42641,-2.47684,6.12257e-14,2.8625e-14,-37.0078,19.9815,-96.698,42.2909,17.7844,-17.8311,-32.1861,7.12502,8.43331,-61.9977,6.12257e-14,2.8625e-14,22.5017,-2.50801,67.2336,69.9343,24.2017,-18.9757,33.0585,7.12502,7.32862,62.9116,-39.4292,9.0439,22.4412,62.7323,-25.7114,-3.19786,-18.6031,-37.4369,9.98847,-21.6211,64.3292,-25.7366,-8.20367,-12.216
-15.9322,16.3049,-1.57191,0.248581,76.6793,-5.17417,22.3406,-3.66046,-3.28835,4.26161,-5.53615,-3.1281,-7.7643,-2.48862,0.0160728,0.629683,6.63668,7.26754,-5.07295,8.91578,-3.5789,-1.20333,4.41391,-2.44613,-4.69132e-14,-2.70347e-14,-36.7702,20.2927,-96.8974,42.7089,17.6476,-18.1941,-32.0918,7.12502,8.08302,-61.9172,-4.69132e-14,-2.70347e-14,22.8605,-2.39955,67.1953,70.1074,24.1654,-18.938,32.9022,7.12502,7.36504,62.7541,-39.5509,8.88422,22.4164,63.1856,-25.5537,-3.31994,-18.9535,-37.501,9.86897,-21.678,64.6601,-25.726,-8.34235,-12.1119
-15.9675,16.273,-1.55396,0.21643,76.8226,-5.0281,22.8215,-3.65938,-3.43345,4.41191,-5.5715,-3.1793,-7.84104,-2.4928,0.0743948,0.571489,6.63211,7.14685,-5.43568,8.91354,-3.46196,-1.32039,4.40938,-2.39636,3.18055e-15,-1.74931e-14,-36.6522,20.6983,-97.1318,43.1999,17.4968,-18.4862,-32.1641,7.12502,7.80106,-62.0001,3.18055e-15,-1.74931e-14,23.1791,-2.35061,67.1355,70.298,24.1801,-18.8909,32.7898,7.12502,7.41048,62.64,-39.742,8.79658,22.5347,63.6911,-25.3095,-3.62765,-20.4846,-37.6744,9.86443,-21.6172,65.0881,-25.6837,-8.49202,-12.2396
-16.0077,16.2314,-1.53733,-0.563997,76.9184,-5.67148,23.3319,-3.67978,-3.39819,4.54475,-5.59394,-3.19179,-7.96494,-2.4942,0.0725469,0.571032,6.64991,6.95411,-5.85567,8.9496,-3.26478,-1.47079,4.42355,-2.31311,-4.37326e-14,-3.18055e-15,-36.532,21.2297,-97.3961,43.6672,17.3924,-18.4892,-32.4337,7.12502,7.79814,-62.2699,-4.37326e-14,-3.18055e-15,23.5047,-2.2793,67.0314,70.454,24.2319,-18.7743,32.6621,7.12502,7.523,62.5083,-40.0008,8.69811,22.8659,64.214,-25.0433,-3.87327,-22.139,-37.9838,9.95262,-21.3715,65.6414,-25.6103,-8.61258,-12.7205
-16.0499,16.1875,-1.52076,-1.35176,77.0666,-6.36236,23.7562,-3.69417,-3.33164,4.75914,-5.5889,-3.22776,-7.95825,-2.4855,0.011422,0.255496,6.62368,6.95968,-6.14113,8.90554,-3.17147,-1.51438,4.39722,-2.27868,5.56597e-15,-4.77083e-15,-36.2468,21.6369,-97.5963,44.0852,17.3973,-18.6064,-32.6623,7.12502,7.68509,-62.5027,5.56597e-15,-4.77083e-15,24.0968,-2.26169,66.8908,70.508,24.4026,-18.6209,32.567,7.12502,7.6711,62.4078,-40.3244,8.53362,23.2015,64.7193,-24.8226,-3.97523,-22.7439,-38.383,9.99102,-21.1309,66.2638,-25.5519,-8.70207,-13.2897
-16.096,16.146,-1.50255,-2.53414,77.3013,-7.47675,24.1562,-3.72521,-3.15019,5.02337,-5.56867,-3.25516,-7.89282,-2.4724,-0.112889,-0.185448,6.54452,7.2726,-6.41834,8.77403,-3.34193,-1.51406,4.32603,-2.37696,-2.46493e-14,1.59028e-14,-35.9116,21.9503,-97.7518,44.4771,17.4327,-19.0532,-32.8119,7.12502,7.2538,-62.6676,-2.46493e-14,1.59028e-14,24.8353,-2.3282,66.7448,70.5141,24.5873,-18.4373,32.5462,7.12502,7.84825,62.3805,-40.6386,8.37006,23.6161,65.1525,-24.7359,-4.13878,-22.5494,-38.826,9.91796,-20.785,66.8939,-25.4497,-8.89119,-13.2088
-16.1483,16.11,-1.48601,-4.06958,77.6305,-8.99242,24.6321,-3.84938,-2.87759,5.18644,-5.65374,-3.21628,-7.97836,-2.50865,-0.176692,-0.275821,6.51775,7.24465,-6.90002,8.74554,-3.28761,-1.65992,4.30713,-2.36676,-9.54166e-15,-3.18055e-14,-35.6907,22.558,-97.9289,44.7069,17.4319,-19.4372,-32.8457,7.12502,6.88316,-62.7138,-9.54166e-15,-3.18055e-14,25.336,-2.30227,66.6521,70.5084,24.6852,-18.282,32.3981,7.12502,7.99813,62.2268,-40.92,8.16839,24.0557,65.4577,-24.7694,-4.34291,-21.8633,-39.3208,9.73833,-20.3746,67.4762,-25.2356,-9.17139,-12.5036
-16.206,16.0823,-1.47367,-5.08361,78.0887,-10.0276,25.1642,-4.01101,-2.66326,5.29232,-5.80657,-3.1878,-8.15034,-2.5737,-0.1921,-0.275768,6.49675,6.92972,-7.44378,8.74566,-2.96363,-1.86433,4.30308,-2.22661,-3.89618e-14,9.54166e-15,-35.4979,23.1092,-98.0261,44.8671,17.5269,-19.6367,-32.9825,7.12502,6.69056,-62.8568,-3.89618e-14,9.54166e-15,25.8806,-2.29956,66.5635,70.3945,24.9093,-18.0615,32.3075,7.12502,8.211,62.128,-41.1916,7.79568,24.2961,65.6081,-24.8537,-4.45722,-20.8357,-39.8604,9.40288,-20.1326,67.9704,-24.8396,-9.45683,-11.8676
-16.2683,16.062,-1.46404,-5.94288,78.62,-11.0059,25.6134,-4.15308,-2.41361,5.45436,-5.91473,-3.18979,-8.22384,-2.61938,-0.280434,-0.494288,6.41306,6.85358,-7.9608,8.64548,-2.79555,-2.01118,4.24742,-2.16737,-4.85035e-14,1.27222e-14,-35.116,23.3208,-97.983,44.9718,17.6786,-19.9687,-33.2786,7.12502,6.36999,-63.1628,-4.85035e-14,1.27222e-14,26.7147,-2.40737,66.4733,70.1879,25.2082,-17.6768,32.3625,7.12502,8.58226,62.168,-41.528,7.28934,24.4708,65.5851,-24.8225,-4.56806,-20.7,-40.5124,8.92594,-19.9419,68.384,-24.288,-9.6857,-11.6003
-16.3373,16.0526,-1.45614,-7.27158,79.1692,-12.5833,26.0464,-4.3024,-2.08518,5.58295,-6.00714,-3.13328,-8.3274,-2.65914,-0.352788,-0.774204,6.33766,6.70374,-8.44327,8.55713,-2.57509,-2.1407,4.19938,-2.07473,7.71285e-14,-3.81667e-14,-34.7475,23.6331,-97.932,44.8919,17.2153,-20.7128,-33.4739,7.12502,5.65163,-63.3785,7.71285e-14,-3.81667e-14,27.5843,-2.51094,66.4613,69.9295,25.6184,-17.3815,32.4871,7.12502,8.86723,62.2808,-41.9563,6.789,24.7213,65.3886,-24.6147,-4.65097,-20.9431,-41.314,8.37114,-19.6531,68.7095,-23.5525,-9.80558,-11.7098
-16.4137,16.0598,-1.45203,-9.18542,79.8799,-14.8993,26.4466,-4.53399,-1.67276,5.65909,-6.17757,-2.99663,-8.47258,-2.73784,-0.357691,-1.2071,6.2764,6.59398,-8.78245,8.47029,-2.44624,-2.19027,4.15563,-2.0065,1.59028e-15,-4.77083e-15,-34.4335,24.072,-97.7879,44.7574,16.7364,-20.9017,-33.6784,7.12502,5.46923,-63.5878,1.59028e-15,-4.77083e-15,28.4614,-2.60735,66.4803,69.6447,26.28,-17.3664,32.8913,7.12502,8.88179,62.6844,-42.4752,6.19667,25.0097,65.0295,-24.2267,-4.72022,-20.8059,-42.2856,7.612,-19.2746,68.9055,-22.428,-10.0816,-11.2587
-16.4921,16.0871,-1.45426,-11.4297,80.8433,-17.6688,26.7797,-4.84337,-1.21411,5.73846,-6.42454,-2.81612,-8.58089,-2.85394,-0.317316,-1.80873,6.18489,6.80632,-9.03927,8.30532,-2.69339,-2.15878,4.07407,-2.10414,-6.2816e-14,-1.27222e-14,-33.9893,24.2958,-97.3311,44.7694,17.2217,-19.9555,-34.1163,7.12502,6.38281,-64.0001,-6.2816e-14,-1.27222e-14,29.4243,-2.77519,66.577,69.4363,26.9437,-17.5888,33.3509,7.12502,8.66714,63.153,-43.0084,5.41793,25.2015,64.4692,-23.6736,-4.7641,-20.4345,-43.3284,6.5618,-18.9401,68.8924,-20.9642,-10.5529,-10.0708
-16.573,16.1388,-1.4613,-13.4515,81.9485,-20.2505,27.1687,-5.14947,-0.880864,5.80805,-6.69392,-2.61751,-8.71235,-2.97542,-0.172217,-2.16455,6.10126,6.66587,-9.77534,8.2098,-2.57732,-2.35576,4.02544,-2.05267,-1.59028e-14,-1.59028e-14,-33.4666,24.4499,-96.6995,44.789,17.5567,-19.0897,-34.6409,7.12502,7.21857,-64.4978,-1.59028e-14,-1.59028e-14,30.4048,-3.03655,66.718,69.2937,27.5021,-17.8608,33.4822,7.12502,8.40463,63.295,-43.4587,4.60348,25.1717,63.6515,-23.0323,-4.7622,-19.9678,-44.305,5.37146,-18.7854,68.6137,-19.3263,-10.8064,-10.239
-16.6627,16.218,-1.47071,-16.0949,83.0993,-23.5352,27.6029,-5.43653,-0.617914,5.85838,-6.94898,-2.36754,-8.87192,-3.08655,0.0714456,-2.52868,6.00849,6.66453,-10.4863,8.08897,-2.6486,-2.53306,3.96571,-2.08472,-6.20208e-14,-1.74931e-14,-32.8199,24.5726,-95.9744,44.6211,17.3645,-18.832,-34.8075,7.12502,7.46734,-64.6557,-6.20208e-14,-1.74931e-14,31.37,-3.41627,66.8044,69.0921,27.9169,-17.7031,33.6036,7.12502,8.55685,63.4103,-43.8666,3.85643,25.0722,62.5056,-22.2141,-4.92572,-20.2433,-45.31,4.17489,-18.6246,68.0687,-17.3307,-11.0439,-11.1917
-16.7583,16.3235,-1.48345,-20.09,84.2399,-28.2633,28.0584,-5.72724,-0.369867,5.89079,-7.20389,-2.0695,-9.05198,-3.19571,0.38276,-2.95622,5.95476,6.73263,-11.1824,8.01221,-2.79114,-2.68849,3.92931,-2.14897,1.66979e-14,2.8625e-14,-32.0379,24.5994,-95.1248,44.3479,17.3359,-18.7386,-34.8066,7.12502,7.55748,-64.6516,1.66979e-14,2.8625e-14,32.2829,-3.85466,66.7733,68.886,28.2045,-17.1798,33.808,7.12502,9.06182,63.5933,-44.1962,3.18286,24.9575,61.0016,-21.1352,-5.19515,-20.8547,-46.3373,3.04318,-18.3858,67.2568,-15.09,-11.5881,-11.8003
-16.8521,16.4538,-1.50175,-25.5225,85.2854,-34.3664,28.5961,-6.02449,-0.17921,5.95062,-7.4712,-1.75579,-9.22919,-3.30612,0.757016,-3.34947,5.93607,6.7983,-11.9281,7.98124,-2.99836,-2.86415,3.91841,-2.23813,-6.12257e-14,6.36111e-15,-31.1593,24.6469,-94.2062,44,17.3795,-19.001,-34.7615,7.12502,7.30417,-64.6154,-6.12257e-14,6.36111e-15,33.0529,-4.25996,66.5569,68.8381,28.3671,-16.9,33.6919,7.12502,9.33179,63.4654,-44.2269,2.64723,24.7571,59.1726,-20.0082,-5.49088,-21.5607,-47.112,2.03731,-18.1389,66.214,-13.2975,-12.4436,-13.7859
-16.9436,16.597,-1.5297,-34.7467,86.2041,-44.2932,29.0508,-6.35633,0.124292,6.03693,-7.73671,-1.38991,-9.33863,-3.41878,1.12127,-3.60934,5.92955,6.82905,-12.7597,7.9674,-3.3098,-3.09187,3.92088,-2.3663,2.38542e-15,-2.70347e-14,-30.1391,24.6511,-93.1698,43.5892,17.2784,-19.9666,-34.3435,7.12502,6.37202,-64.2276,2.38542e-15,-2.70347e-14,33.7936,-4.62847,66.3683,68.8852,28.2351,-16.7587,33.4497,7.12502,9.46821,63.217,-44.1219,2.19211,24.5438,57.0656,-18.9259,-5.79439,-22.402,-47.7181,1.12241,-17.8489,65.1465,-12.1168,-13.9269,-17.5585
-17.0375,16.7361,-1.56774,-47.631,86.8631,-58.1249,29.296,-6.64614,0.484,6.03471,-7.93709,-0.975034,-9.44409,-3.50755,1.47575,-3.68889,5.91305,6.91431,-13.6471,7.93698,-3.75056,-3.3692,3.91746,-2.5599,0,-2.38542e-14,-29.1181,24.5434,-92.0148,43.2495,17.2559,-20.76,-34.0238,7.12502,5.60611,-63.9297,0,-2.38542e-14,34.5407,-4.99185,66.2837,68.91,28.0218,-16.3744,33.2895,7.12502,9.83899,63.0396,-44.2724,1.88947,24.2756,54.813,-17.7229,-6.01111,-22.9631,-48.4738,0.464472,-17.6495,64.2908,-11.0882,-16.1957,-20.7123
-17.1383,16.8768,-1.60985,-62.8348,87.028,-74.495,29.3618,-6.83817,0.96419,5.97606,-7.98002,-0.501866,-9.5338,-3.53058,1.7601,-3.78851,5.85432,7.06969,-14.4467,7.8416,-4.19358,-3.61776,3.88061,-2.76549,-7.71285e-14,5.56597e-14,-28.0637,24.177,-90.7668,42.9651,17.4849,-20.7917,-33.926,7.12502,5.57545,-63.8326,-7.71285e-14,5.56597e-14,35.2943,-5.51538,65.9816,68.9045,28.0008,-16.0796,33.0766,7.12502,10.1234,62.8131,-44.6249,1.82881,24.1636,52.4509,-16.3503,-6.13799,-23.6476,-49.4543,0.195639,-17.2904,63.8733,-9.67516,-18.0749,-19.1104
-17.2346,17.0086,-1.66145,-76.9364,87.0854,-89.7905,29.2582,-6.99894,1.42167,5.92236,-8.00234,-0.091901,-9.54195,-3.548,1.96324,-3.9713,5.78887,7.06168,-15.0841,7.75101,-4.40791,-3.81069,3.84799,-2.85656,-4.21423e-14,3.02153e-14,-27.0338,23.6388,-89.5246,42.7758,17.5769,-20.9553,-33.8073,7.12502,5.41753,-63.718,-4.21423e-14,3.02153e-14,36.0081,-6.24569,65.4351,68.865,27.9907,-16.1495,32.8485,7.12502,10.0559,62.5882,-45.0091,1.63167,23.8821,50.1442,-14.9488,-6.11934,-24.4187,-50.0302,0.0165723,-17.1068,63.9342,-9.47613,-18.889,-18.3702
-17.3116,17.1515,-1.72819,-91.8132,87.666,-105.584,29.2064,-7.12017,1.39968,5.86663,-8.14339,0.0708822,-9.54973,-3.61013,2.20579,-4.17302,5.72525,6.98615,-15.4472,7.66191,-4.51596,-3.90881,3.81584,-2.88716,1.66979e-14,-3.57812e-14,-26.296,23.165,-88.4048,42.8171,17.5004,-21.4206,-33.971,7.12502,4.96821,-63.8928,1.66979e-14,-3.57812e-14,36.5351,-7.07138,64.8998,68.8312,28.0163,-16.2147,32.6351,7.12502,9.99303,62.3779,-45.0406,1.0827,22.8276,47.9374,-13.6702,-5.87933,-25.0806,-49.9238,-0.331294,-17.7289,64.2527,-9.47664,-18.3971,-16.5223
-17.3774,17.2947,-1.80454,-123.908,88.4679,-138.341,29.2577,-7.2128,0.937708,5.8178,-8.39546,0.0441988,-9.56542,-3.71253,2.53085,-4.42515,5.64995,7.02944,-15.554,7.53336,-4.69132,-3.90091,3.75957,-2.94799,-7.4743e-14,1.98785e-14,-25.7377,22.7462,-87.3525,42.9857,17.6253,-21.7042,-34.1733,7.12502,4.69437,-64.1013,-7.4743e-14,1.98785e-14,36.9369,-7.88958,64.3526,68.8508,28.3207,-16.1729,32.3066,7.12502,10.0333,62.0474,-44.801,0.283073,21.1905,45.8859,-12.4884,-5.43449,-25.9553,-49.178,-0.835664,-18.9101,64.853,-10.6785,-17.1415,-17.7268
-17.4435,17.4216,-1.88485,-175.805,88.4962,-190.865,29.2245,-7.23712,0.351219,5.77161,-8.60775,-0.0269522,-9.52293,-3.79688,2.85028,-4.59696,5.54592,7.02592,-15.6811,7.37849,-4.79968,-3.92152,3.6893,-2.98269,-1.59028e-15,-2.46493e-14,-25.2076,22.3837,-86.3454,43.205,17.7922,-22.0631,-34.1844,7.12502,4.34787,-64.1198,-1.59028e-15,-2.46493e-14,37.3625,-8.66477,63.7616,68.8783,28.6654,-15.9287,31.9324,7.12502,10.269,61.6617,-44.5832,-0.415449,19.4534,43.9505,-11.3596,-4.98871,-26.6734,-48.2088,-1.26722,-20.088,65.7344,-11.1672,-15.4642,-18.7514
-17.5193,17.5184,-1.95958,-186.854,88.1703,-202.693,29.0229,-7.20815,0.37985,5.69687,-8.5556,0.123994,-9.4898,-3.77638,2.96643,-4.63701,5.41932,6.93017,-15.9285,7.21763,-4.80775,-4.01772,3.61704,-2.97823,-1.90833e-14,1.11319e-14,-24.7862,22.0592,-85.4131,43.6578,17.8131,-22.3794,-34.3137,7.12502,4.0424,-64.2551,-1.90833e-14,1.11319e-14,37.8079,-9.41494,63.2679,68.9387,28.8559,-15.3656,31.5968,7.12502,10.8121,61.2985,-44.6463,-0.451455,18.5784,42.1219,-10.2269,-4.93566,-26.8574,-47.5194,-1.28237,-20.1788,66.944,-10.988,-13.1695,-20.1486
-17.6111,17.584,-2.02759,-173.564,88.0602,-190.227,28.9224,-7.17815,0.945409,5.54976,-8.32319,0.483622,-9.63785,-3.67955,2.97217,-4.65241,5.32189,6.93337,-16.1208,7.08698,-4.87561,-4.09162,3.55643,-3.01044,-4.45278e-14,1.43125e-14,-24.564,21.7086,-84.586,44.3526,17.891,-22.4295,-34.3946,7.12502,3.994,-64.3369,-4.45278e-14,1.43125e-14,38.1157,-10.1385,62.884,69.1139,29.0114,-15.0099,31.3211,7.12502,11.1552,61.0046,-44.9462,0.0102722,18.4986,40.4601,-9.02643,-5.2728,-27.0539,-47.0745,-1.05685,-19.2102,68.3375,-10.1996,-11.2176,-20.5224
-17.7024,17.6293,-2.09976,-171.165,87.9193,-188.365,29.0245,-7.12978,1.20204,5.42885,-8.16032,0.711361,-9.83052,-3.60339,3.04648,-4.54052,5.19027,7.05904,-16.6282,6.85309,-5.2558,-3.81212,3.46834,-2.90489,5.56597e-15,2.06736e-14,-24.4049,21.3591,-83.9013,45.0134,17.8541,-22.7175,-34.3553,7.12502,3.71589,-64.3026,5.56597e-15,2.06736e-14,38.3311,-10.8774,62.5379,69.3416,29.0914,-15.1803,31.0845,7.12502,10.9908,60.7768,-45.1118,0.215415,18.129,39.076,-7.98994,-5.46995,-27.58,-46.194,-1.02607,-18.4838,69.6113,-9.15801,-9.17412,-19.8252
-17.7893,17.6539,-2.17759,-177.661,87.7033,-195.203,29.0631,-7.10341,1.21383,5.36819,-8.10909,0.823644,-9.90425,-3.57613,3.15545,-4.37031,5.02778,6.88184,-16.903,6.66934,-5.11947,-3.94549,3.38226,-2.84765,5.48646e-14,2.06736e-14,-24.2371,21.0429,-83.3099,45.5994,17.6044,-23.367,-34.1942,7.12502,3.08872,-64.1516,5.48646e-14,2.06736e-14,38.458,-11.5812,62.3081,69.6042,29.0669,-15.4916,30.7739,7.12502,10.6905,60.4819,-45.2349,0.12533,17.4433,38.0565,-7.16744,-5.48291,-28.1566,-44.9643,-1.23226,-18.0798,70.6083,-7.84967,-6.89801,-18.2709
-17.8812,17.6569,-2.25996,-182.762,87.4744,-200.538,29.0973,-7.08921,1.24328,5.34583,-8.06714,0.916353,-9.93734,-3.55394,3.23254,-4.25798,4.87852,6.69256,-17.1422,6.49883,-4.98671,-4.05782,3.30368,-2.78604,1.35174e-14,3.89618e-14,-24.0476,20.6671,-82.776,46.1808,17.4669,-23.8229,-34.0211,7.12502,2.64842,-63.9844,1.35174e-14,3.89618e-14,38.5118,-12.1432,62.2006,69.9454,29.0361,-15.4129,30.2449,7.12502,10.7665,59.949,-45.4582,0.0408296,16.7521,37.4229,-6.63859,-5.59354,-28.1439,-43.6002,-1.47707,-17.6381,71.2958,-6.37168,-4.44833,-16.3205
-17.9792,17.6447,-2.34937,-183.99,87.3392,-201.872,29.2008,-7.08215,1.4253,5.39484,-7.97732,1.01407,-9.9446,-3.51125,3.21505,-4.23175,4.71861,6.56783,-17.3824,6.29865,-4.93507,-4.15251,3.21101,-2.75627,-1.18476e-13,3.02153e-14,-23.6862,20.2361,-82.277,46.6932,17.3882,-23.9498,-33.8579,7.12502,2.5258,-63.8227,-1.18476e-13,3.02153e-14,38.5854,-12.5756,62.1332,70.3806,29.0763,-15.1447,29.5825,7.12502,11.0252,59.273,-45.7568,-0.000305615,16.2245,37.1201,-6.34912,-5.73732,-27.9484,-42.0996,-1.74311,-17.0124,71.6834,-5.10314,-1.90518,-15.1511
-18.0789,17.6187,-2.44499,-181.354,87.3359,-199.243,29.2988,-7.08199,1.68868,5.48049,-7.85871,1.19145,-9.90613,-3.45675,3.22695,-4.11008,4.55721,6.26404,-17.6667,6.10563,-4.84075,-4.28218,3.13028,-2.68783,-8.66701e-14,2.54444e-14,-23.2511,19.996,-81.7758,47.2164,17.0753,-23.8338,-33.6949,7.12502,2.63782,-63.6583,-8.66701e-14,2.54444e-14,38.5069,-12.8602,62.2362,70.862,29.2004,-15.1504,29.4687,7.12502,11.0197,59.1594,-46.1108,0.0500474,15.8933,37.0581,-5.91968,-5.85999,-28.3123,-40.4765,-1.95801,-16.1747,71.8044,-4.21538,0.465639,-14.3934
-18.1773,17.5752,-2.5466,-175.145,87.3844,-193.025,29.3337,-7.09798,2.03051,5.53506,-7.73568,1.43248,-9.87266,-3.40327,3.26073,-3.89253,4.41982,5.92237,-17.9385,5.94815,-4.73099,-4.42286,3.06815,-2.61036,-8.34896e-14,5.1684e-14,-22.8735,19.9247,-81.3381,47.7494,16.5837,-23.8922,-33.6028,7.12502,2.5815,-63.567,-8.34896e-14,5.1684e-14,38.2423,-13.0702,62.4793,71.3062,29.3618,-15.2058,29.9665,7.12502,10.9662,59.66,-46.5465,0.168492,15.7241,37.1541,-5.46097,-6.08891,-28.6944,-38.801,-2.04346,-15.1658,71.6733,-3.69077,2.35584,-12.7003
-18.277,17.5142,-2.65725,-165.945,87.3742,-183.857,29.3006,-7.16353,2.55275,5.5412,-7.63092,1.6638,-9.88539,-3.36428,3.18778,-3.64518,4.28512,5.67229,-18.1708,5.80288,-4.55192,-4.55575,3.00211,-2.5256,-4.29375e-14,3.33958e-14,-22.5056,19.8428,-81.0112,48.23,16.2191,-24.3051,-33.2,7.12502,2.18275,-63.1686,-4.29375e-14,3.33958e-14,37.8806,-13.3219,62.6595,71.7892,29.5321,-15.2195,30.1677,7.12502,10.953,59.862,-47.1091,0.305148,15.653,37.3651,-5.12347,-6.34958,-29.1259,-37.1691,-2.17795,-14.0345,71.2721,-3.26382,3.59683,-11.6255
-18.3801,17.4477,-2.77827,-155.938,87.3486,-173.906,29.2071,-7.23122,3.08444,5.54944,-7.53253,1.88484,-9.86746,-3.33008,3.09392,-3.53107,4.17567,5.53473,-18.2924,5.68169,-4.38954,-4.62774,2.94125,-2.45739,-7.11649e-14,1.66979e-14,-22.0773,19.8096,-80.7084,48.8299,15.8929,-24.4361,-33.0706,7.12502,2.05622,-63.0404,-7.11649e-14,1.66979e-14,37.4569,-13.5538,62.7575,72.3148,29.7226,-15.3928,29.8816,7.12502,10.7859,59.5847,-47.7634,0.475608,15.5663,37.6647,-4.78846,-6.47715,-29.6145,-35.5603,-2.39238,-12.9173,70.5607,-2.65923,4.00147,-12.5242
-18.4909,17.3797,-2.90799,-143.958,87.2801,-162.031,29.0204,-7.24749,3.61787,5.573,-7.37266,2.13623,-9.78164,-3.26893,2.99901,-3.59914,4.04074,5.56536,-18.299,5.50213,-4.32656,-4.62894,2.8458,-2.43794,-3.85642e-14,-1.78906e-14,-21.5419,19.7846,-80.3783,49.5153,15.2857,-24.492,-33.2513,7.12502,2.00217,-63.2216,-3.85642e-14,-1.78906e-14,37.0666,-13.8303,62.7957,72.7535,30.0032,-15.4029,29.8803,7.12502,10.7762,59.5839,-48.5338,0.761265,15.5044,38.0183,-4.44155,-6.62384,-29.9899,-34.0484,-2.62646,-11.7628,69.5221,-1.60667,3.42879,-13.5914
-18.6072,17.3094,-3.04709,-134.354,87.1551,-152.522,28.8145,-7.2442,4.06627,5.59475,-7.21889,2.37624,-9.67797,-3.20846,2.93891,-3.54214,3.85457,5.4402,-18.3968,5.2859,-4.07358,-4.6911,2.73151,-2.33915,-4.65156e-14,5.48646e-14,-20.9582,19.7256,-80.0207,50.1784,14.4585,-24.4906,-33.0943,7.12502,2.00358,-63.0647,-4.65156e-14,5.48646e-14,36.7575,-14.1852,62.796,73.0315,30.3978,-15.0596,30.3649,7.12502,11.1072,60.0509,-49.3131,1.0634,15.2934,38.3837,-4.07931,-6.8551,-30.5308,-32.5353,-2.99217,-10.8379,68.0991,0.0798279,2.0352,-15.3263
-18.7279,17.2401,-3.19617,-132.001,87.1195,-150.289,28.5699,-7.25961,4.21429,5.55529,-7.1952,2.55993,-9.59485,-3.20407,3.03089,-3.12764,3.64047,4.99657,-18.6843,5.08967,-3.51896,-4.8866,2.62927,-2.10788,-3.37934e-14,1.51076e-14,-20.4588,19.7133,-79.6253,51.0208,13.5803,-23.8783,-32.8654,7.12502,2.59494,-62.8294,-3.37934e-14,1.51076e-14,36.4908,-14.5515,62.6982,73.1132,30.8486,-15.0417,30.5231,7.12502,11.1245,60.2083,-50.1034,1.20094,14.6507,38.729,-3.66972,-7.08973,-31.06,-31.0222,-3.4684,-10.4938,66.2328,1.22758,-0.145376,-18.6649
-18.8562,17.1694,-3.35526,-133.453,87.1991,-151.987,28.1913,-7.25738,4.15231,5.43753,-7.23422,2.71196,-9.51273,-3.22948,3.21812,-2.66118,3.38851,4.55604,-18.83,4.83848,-2.92803,-5.04787,2.49367,-1.85979,8.42847e-14,-5.68524e-14,-20.035,19.5941,-79.155,52.1285,12.9842,-22.5496,-32.5591,7.12502,3.87807,-62.5036,8.42847e-14,-5.68524e-14,36.265,-14.9586,62.4545,72.9817,31.2402,-15.5508,30.1804,7.12502,10.6335,59.8913,-50.9996,1.33318,13.6388,38.9513,-3.13858,-7.40512,-31.4922,-29.6097,-3.89009,-10.6149,64.0494,0.651226,-2.69292,-22.9332
-18.9873,17.1007,-3.52761,-136.267,87.4317,-154.973,27.8362,-7.20915,3.97145,5.33906,-7.25287,2.81184,-9.41228,-3.24303,3.40524,-2.62961,3.13429,4.49367,-18.4916,4.51933,-2.58474,-4.97098,2.3131,-1.72664,-4.13472e-14,5.52621e-14,-19.6667,19.2913,-78.6045,53.4848,12.401,-20.8915,-31.9764,7.12502,5.47907,-61.8855,-4.13472e-14,5.52621e-14,36.1585,-15.4392,62.1174,72.6086,31.4394,-15.5661,30.0772,7.12502,10.6187,59.7889,-51.7679,1.57863,12.3543,39.0255,-2.49103,-7.79888,-31.8103,-28.0064,-4.18371,-11.1508,61.6191,-4.18639,-5.85072,-27.4532
-19.1173,17.0634,-3.71361,-144.747,87.6986,-163.476,27.5081,-7.17919,3.73662,5.30776,-7.3133,2.82426,-9.25266,-3.27422,3.53559,-2.87601,2.85159,4.65919,-17.9484,4.13566,-2.32965,-4.77934,2.09311,-1.64769,-2.98177e-14,2.26615e-14,-19.3843,18.9253,-77.9901,55.0738,10.9086,-19.9139,-30.6659,7.12502,6.42294,-60.5485,-2.98177e-14,2.26615e-14,36.2343,-16.0365,61.6266,72.0164,31.4359,-15.0989,30.2239,7.12502,11.0694,59.912,-52.1522,1.76542,10.7835,38.8817,-1.73276,-8.22499,-31.5948,-26.6572,-4.06098,-12.2717,59.2502,-7.48603,-7.62241,-27.9794
-19.2472,17.0413,-3.91081,-160.794,87.8043,-179.478,27.1054,-7.20039,3.5127,5.32143,-7.44607,2.76556,-9.0135,-3.34132,3.5925,-3.15768,2.53386,4.82236,-17.4098,3.70269,-2.0648,-4.58575,1.8503,-1.56586,8.3092e-14,1.63003e-14,-19.1196,18.4466,-77.266,56.8157,8.4903,-18.9507,-28.821,7.12502,7.35275,-58.6733,8.3092e-14,1.63003e-14,36.5007,-16.7012,61.0008,71.2645,31.4353,-14.9764,30.097,7.12502,11.1875,59.7787,-52.2531,1.82187,8.99498,38.5561,-0.751589,-8.69397,-31.2874,-25.3975,-3.76642,-13.7522,56.886,-10.2129,-9.20413,-25.1428
-19.3767,17.0373,-4.11226,-182.01,87.6841,-200.52,26.8193,-7.20441,3.12103,5.31406,-7.59554,2.67982,-8.83728,-3.41141,3.73124,-3.61019,2.22097,4.95567,-16.2857,3.26384,-1.79613,-4.67146,1.60125,-1.59152,1.50878e-13,-6.48038e-14,-19.0218,17.9001,-76.3629,58.912,5.80927,-16.8425,-27.6859,7.12502,9.38731,-57.4569,1.50878e-13,-6.48038e-14,36.6294,-17.4087,60.4939,70.576,31.459,-15.0635,29.7119,7.12502,11.1035,59.3981,-52.0532,2.01448,6.92934,38.0676,0.483771,-9.32366,-31.2136,-24.2573,-3.16327,-15.602,54.6976,-12.2417,-10.1076,-21.9277
-19.4932,17.0563,-4.30972,-201.007,87.3185,-218.76,27.2094,-7.16828,2.57868,5.3574,-7.67614,2.58658,-8.92359,-3.42904,3.99473,-3.96886,1.87523,4.96727,-15.6137,2.76868,-1.57695,-4.37381,1.34309,-1.48485,3.29983e-14,-2.42517e-14,-19.2434,17.4143,-75.2303,61.4056,3.19566,-14.607,-27.0155,7.12502,11.5438,-56.6776,3.29983e-14,-2.42517e-14,36.503,-18.2774,60.0562,70.0907,31.619,-14.8084,29.4306,7.12502,11.3495,59.1034,-51.1069,2.7089,4.73746,37.5204,1.70702,-10.2827,-29.8317,-22.5623,-2.18283,-17.5005,52.5849,-13.525,-10.8889,-19.6854
-19.6065,17.0833,-4.50195,-209.939,86.4737,-227.104,27.006,-7.23989,2.24321,5.50118,-7.86903,2.53206,-8.61563,-3.51714,4.14572,-4.24855,1.48709,4.97745,-15.1555,2.2269,-1.37804,-4.17419,1.0633,-1.39413,2.68359e-14,-2.18663e-14,-19.458,16.8619,-73.8413,63.9805,0.818537,-12.6418,-26.1245,7.12502,13.4385,-55.671,2.68359e-14,-2.18663e-14,36.6488,-19.1689,59.2847,69.5784,31.9643,-13.8263,29.2988,7.12502,12.2966,58.9173,-50.2312,3.41116,2.47724,37.0292,2.92668,-11.7236,-26.3291,-21.2957,-1.5585,-19.1658,50.627,-13.9078,-11.9579,-17.1743
-19.7094,17.1148,-4.68612,-213.332,85.4878,-230.031,26.8546,-7.31486,2.01985,5.35894,-8.03228,2.60942,-8.65061,-3.59111,4.40247,-4.45319,1.01319,5.00145,-14.437,1.53175,-1.39266,-3.89952,0.712495,-1.37521,-7.05189e-14,3.57812e-14,-20.1295,16.3196,-72.1461,66.5342,-1.08923,-10.1341,-25.2941,7.12502,15.8545,-54.6649,-7.05189e-14,3.57812e-14,36.4422,-20.2099,58.721,69.0315,32.0303,-12.7043,29.2181,7.12502,13.3783,58.7686,-49.47,4.22241,0.280706,36.7546,3.90497,-13.7001,-20.7914,-20.2712,-1.41451,-20.5919,48.7916,-13.5694,-13.2919,-13.7868
-19.7956,17.1458,-4.86168,-214.784,84.4863,-231.099,26.5268,-7.38507,1.88469,5.15341,-8.1749,2.74035,-8.67154,-3.66086,4.6465,-4.60359,0.455317,4.93649,-13.6655,0.725765,-1.41145,-3.62411,0.309689,-1.344,2.6339e-15,-7.21588e-14,-20.8242,15.744,-70.2202,68.9215,-2.91404,-7.45463,-24.5522,7.12502,18.4335,-53.6988,2.6339e-15,-7.21588e-14,35.9701,-21.3254,58.2261,68.7252,32.0822,-12.1268,29.1361,7.12502,13.9348,58.6492,-48.9161,5.0309,-1.69734,37.0122,4.13529,-16.0319,-13.7594,-19.3593,-1.44289,-21.8607,47.1039,-12.8576,-14.8348,-9.8897
-19.8627,17.1658,-5.03196,-214.646,83.46,-230.731,25.8765,-7.51805,1.94101,4.90188,-8.36687,2.90353,-8.59872,-3.76566,4.7987,-4.80417,-0.0939111,4.63134,-12.7745,-0.0484078,-1.26435,-3.29742,-0.0714868,-1.21873,4.57205e-14,-2.24627e-14,-21.5135,15.2759,-68.1074,71.1955,-5.00398,-5.50926,-23.9939,7.12502,20.304,-52.9526,4.57205e-14,-2.24627e-14,35.2448,-22.5152,57.6493,68.7318,32.3698,-11.8785,28.8273,7.12502,14.174,58.3237,-48.7655,5.43536,-3.28599,38.1064,3.41031,-18.0644,-6.91956,-18.6293,-1.59638,-23.0418,45.6247,-12.0131,-16.302,-5.90666
-19.8991,17.1804,-5.19861,-214.817,82.8935,-230.582,25.0994,-7.57608,2.14803,4.71837,-8.42492,3.11385,-8.40358,-3.81406,4.85113,-4.45882,-0.636927,3.65142,-12.2502,-0.717167,-0.552946,-3.18225,-0.39063,-0.801958,-1.3577e-13,8.90555e-14,-22.1128,14.8818,-65.8135,73.3667,-6.89153,-3.88208,-23.7934,7.12502,21.8672,-52.5778,-1.3577e-13,8.90555e-14,34.2966,-23.692,56.9719,68.9803,32.6232,-11.5694,28.4348,7.12502,14.4719,57.9101,-48.8114,4.61146,-3.02192,40.0968,2.62951,-19.5109,-1.16931,-17.7156,-1.44799,-23.9732,44.3391,-10.7511,-17.5988,0.71255
-19.9304,17.1957,-5.35652,-213.99,82.4291,-229.602,24.4357,-7.68066,2.47508,4.32486,-8.50934,3.39377,-8.50237,-3.87176,4.95737,-2.90991,-1.19177,1.73068,-12.5275,-1.27585,1.06389,-3.53929,-0.653048,0.071341,-9.89948e-14,6.32135e-14,-22.6818,14.5897,-63.4311,75.3095,-8.25127,-1.81533,-23.6305,7.12502,23.8505,-52.1698,-9.89948e-14,6.32135e-14,33.0263,-24.924,56.163,69.4625,32.7889,-10.8377,27.9957,7.12502,15.1768,57.4191,-49.1766,2.5826,-1.4752,42.9313,1.53928,-18.9672,-0.65555,-17.1046,-1.3326,-24.7465,43.2825,-9.42973,-18.3239,7.10538
-19.9373,17.2208,-5.51041,-215.152,82.4349,-230.435,23.9146,-7.66918,2.70534,4.02167,-8.46068,3.64405,-8.56868,-3.8624,5.05213,-2.11749,-1.31275,-0.697436,-12.2323,-1.2379,3.44658,-3.55649,-0.621667,1.2778,-2.0276e-14,-4.41302e-14,-22.8381,14.3892,-60.9793,76.8342,-9.20321,0.288072,-23.3183,7.12502,25.8663,-51.5791,-2.0276e-14,-4.41302e-14,31.5263,-26.1111,55.2971,70.1586,32.821,-10.0314,27.2258,7.12502,15.9534,56.5888,-49.6989,0.757026,0.557949,46.2867,0.412677,-17.4387,-4.59301,-16.2363,-0.778122,-25.4238,42.3308,-9.29328,-18.3083,7.76959
-19.9335,17.2596,-5.65175,-217.565,82.5005,-232.581,23.3466,-7.62816,2.76246,3.74354,-8.43201,3.81881,-8.56654,-3.86219,5.15481,-2.04638,-1.60927,-0.801168,-11.2077,-1.70487,3.40559,-3.20081,-0.857366,1.27787,-4.01545e-14,-1.43125e-14,-22.6233,14.189,-58.547,78.0332,-10.0508,1.72836,-22.4807,7.12502,27.2448,-50.533,-4.01545e-14,-1.43125e-14,29.6886,-27.2851,54.5105,71.1276,32.7184,-9.43223,26.311,7.12502,16.5303,55.6269,-50.3944,-1.07003,2.79895,49.8975,-2.66279,-14.354,-6.76122,-15.4716,-0.104503,-26.1452,41.4476,-9.11655,-17.9936,5.77425
-19.9161,17.3113,-5.78313,-221.844,82.5011,-236.572,22.8019,-7.56025,2.5566,3.55564,-8.44097,3.8963,-8.44906,-3.87639,5.2978,-1.22008,-1.8235,-0.616115,-11.1313,-2.01967,3.31706,-3.32269,-1.03283,1.23483,-2.5842e-14,-1.35174e-14,-22.0441,13.8593,-56.1442,79.0469,-11.0837,2.33775,-21.6548,7.12502,27.8276,-49.6142,-2.5842e-14,-1.35174e-14,27.7567,-28.2248,53.7496,72.2323,32.6914,-8.53327,25.609,7.12502,17.3957,54.8506,-51.0173,-2.80071,5.03786,53.3449,-4.81878,-12.1162,-7.04983,-14.6501,0.701381,-27.0155,40.5303,-8.24158,-17.6659,1.86367
-19.8829,17.3661,-5.90752,-226.943,82.392,-241.337,22.3305,-7.49038,2.1945,3.4285,-8.48046,3.92732,-8.28318,-3.90133,5.48651,-0.695827,-1.98951,-0.486205,-10.9187,-2.25468,3.37285,-3.3428,-1.16624,1.24143,-2.10712e-14,-4.77083e-15,-21.0952,13.3741,-53.825,79.7534,-12.4799,2.21179,-21.9292,7.12502,27.7071,-49.908,-2.10712e-14,-4.77083e-15,25.9256,-28.9393,53.1245,73.304,32.9741,-7.47381,25.2876,7.12502,18.4151,54.4359,-51.4483,-4.34598,7.18472,56.5034,-6.87407,-10.3473,-8.97175,-13.6898,1.54565,-27.9208,39.4926,-6.81473,-17.3637,2.72077
-19.8374,17.4244,-6.02492,-231.686,82.2392,-245.884,22.1529,-7.41025,1.90896,3.03293,-8.47428,3.95871,-8.58221,-3.89319,5.69188,-0.982317,-2.22832,0.0113973,-9.61236,-2.65904,2.97859,-2.84301,-1.37338,1.00952,2.14687e-14,-3.02153e-14,-20.1838,12.9457,-51.6502,80.1406,-14.0896,1.40562,-22.1852,7.12502,26.936,-50.2854,2.14687e-14,-3.02153e-14,23.8762,-29.8548,52.8599,74.3651,33.5091,-6.73323,25.0435,7.12502,19.1274,54.1229,-52.0458,-5.87407,9.49121,58.9772,-7.79878,-9.58976,-11.0934,-12.8609,2.33593,-28.7305,38.4415,-5.30498,-17.108,2.6645
-19.7661,17.4955,-6.14087,-238.385,82.316,-252.279,21.8037,-7.23212,1.69405,2.88477,-8.33564,3.90724,-8.549,-3.8328,5.68066,-0.948464,-2.31429,0.393066,-8.92499,-2.80559,2.86542,-2.62171,-1.45644,0.900522,8.42847e-14,-6.2816e-14,-18.934,12.293,-49.7079,80.3056,-15.4576,0.149975,-21.7996,7.12502,25.734,-50.0797,8.42847e-14,-6.2816e-14,22.0613,-30.6363,52.4843,75.4042,34.0645,-6.40324,24.5983,7.12502,19.4447,53.646,-52.2721,-7.13692,11.9948,60.7169,-8.70033,-9.08852,-5.32584,-11.7625,3.43374,-29.3929,37.2593,-4.44339,-16.8287,-0.248128
-19.6969,17.5383,-6.2497,-243.558,82.3031,-257.601,21.1239,-7.1115,1.58,2.55076,-8.26391,3.93424,-8.54253,-3.81112,5.69301,-0.636888,-2.38951,0.794104,-8.24455,-2.94323,2.62387,-2.45828,-1.53321,0.753147,5.48646e-14,-4.85035e-14,-17.6362,11.7903,-47.8809,80.4188,-16.4421,-0.743097,-21.8391,7.12502,24.8784,-50.2402,5.48646e-14,-4.85035e-14,20.1377,-31.356,52.3247,76.3668,34.3154,-6.31872,24.1766,7.12502,19.5259,53.2161,-53.0207,-8.33395,14.538,61.411,-8.88982,-9.52854,-3.83878,-11.1639,4.31312,-29.9914,36.0785,-3.75116,-16.5561,-3.48492
-19.6075,17.5969,-6.36292,-249.57,82.514,-263.883,20.3241,-6.92866,1.77261,2.27548,-8.03823,3.99353,-8.45343,-3.72577,5.51058,-0.0871675,-2.4273,0.877342,-8.20034,-2.9741,2.83443,-2.54151,-1.56225,0.815591,5.08889e-14,-9.54166e-15,-16.1612,11.2247,-46.0963,80.4434,-17.3343,-1.23947,-22.5364,7.12502,24.4027,-51.0024,5.08889e-14,-9.54166e-15,18.5388,-31.9874,52.1664,77.3052,34.4197,-6.13623,24.051,7.12502,19.7014,53.0726,-53.5642,-9.27707,17.3265,61.1304,-9.88898,-9.50658,-5.13966,-10.5656,5.249,-30.393,34.8124,-3.3036,-16.1993,-6.52418
-19.5155,17.6473,-6.46948,-254.94,82.7382,-269.672,19.5311,-6.82259,2.00834,1.91356,-7.89403,4.14124,-8.44567,-3.67627,5.43407,1.24207,-2.40541,0.117146,-8.88523,-2.85405,3.85275,-2.99696,-1.52772,1.30861,-8.98507e-14,6.20208e-14,-14.5332,10.9596,-44.3996,80.4141,-18.3704,-1.93868,-22.9766,7.12502,23.7322,-51.5313,-8.98507e-14,6.20208e-14,16.7978,-32.4034,52.1427,78.3811,34.7161,-5.92351,24.1665,7.12502,19.9059,53.167,-54.1343,-10.2519,20.3095,59.8559,-10.9746,-9.4209,-4.85607,-10.1738,6.02854,-30.681,33.6367,-2.92777,-15.812,-8.54717
-19.4255,17.6765,-6.5677,-259.653,82.8144,-274.852,18.8265,-6.8309,2.03639,1.45973,-7.93462,4.33901,-8.53449,-3.70449,5.594,2.09652,-2.41038,-0.405552,-8.84106,-2.84436,4.36132,-3.13105,-1.53404,1.58341,1.145e-13,-3.02153e-14,-12.7274,11.1117,-42.8293,80.3379,-19.2925,-2.51704,-23.0136,7.12502,23.1774,-51.6391,1.145e-13,-3.02153e-14,14.7814,-32.5986,52.2892,79.5082,35.0424,-6.01792,24.2453,7.12502,19.8151,53.2552,-54.7808,-11.4394,23.4312,57.7886,-11.9083,-9.51488,-9.30985,-9.78306,6.698,-31.054,32.3471,-2.47731,-15.4441,-8.96727
-19.3274,17.6871,-6.6637,-264.15,82.7917,-279.71,18.1005,-6.78083,2.10263,1.20872,-7.9001,4.41999,-8.41338,-3.70333,5.56261,2.1687,-2.49152,-0.184262,-8.50058,-2.95639,4.37034,-3.02798,-1.59628,1.54525,-1.48691e-13,5.1684e-14,-10.9511,10.8405,-41.452,80.2245,-20.0801,-2.66287,-23.6232,7.12502,23.0375,-52.2663,-1.48691e-13,5.1684e-14,13.4642,-32.8379,52.102,80.603,35.2552,-6.10584,24.1595,7.12502,19.7306,53.1781,-55.2803,-12.7594,26.5278,55.2247,-12.0518,-9.25813,-14.1371,-9.18312,7.37419,-31.5094,30.9763,-2.34189,-15.0033,-9.68643
-19.2216,17.6933,-6.75481,-267.932,82.5931,-283.723,17.4917,-6.72989,2.02768,1.09232,-7.89198,4.42552,-8.19647,-3.71158,5.53486,1.79497,-2.57542,0.178276,-8.10701,-3.07066,4.36631,-2.82638,-1.65616,1.46726,-2.70347e-14,3.18055e-15,-9.14857,10.3781,-40.2953,80.1103,-20.861,-2.8104,-25.0837,7.12502,22.8959,-53.7444,-2.70347e-14,3.18055e-15,12.6523,-32.9342,51.6747,81.6291,35.3589,-5.96318,23.9282,7.12502,19.8677,52.9327,-55.6321,-14.0173,29.2623,52.5064,-12.2837,-8.33291,-11.6561,-8.35703,8.06819,-32.1153,29.5302,-2.48022,-14.5234,-10.9774
-19.1113,17.6882,-6.8383,-270.753,82.258,-286.67,17.0472,-6.66013,1.73688,0.912954,-7.89401,4.40343,-8.11096,-3.71384,5.6266,1.7851,-2.70913,0.467319,-7.96874,-3.23731,4.43643,-2.77737,-1.74837,1.44131,-6.2816e-14,3.33958e-14,-7.62186,10.0534,-39.3151,79.9614,-21.6261,-3.5804,-26.4034,7.12502,22.1568,-55.1537,-6.2816e-14,3.33958e-14,12.0473,-33.1358,51.245,82.5036,35.331,-5.91064,23.6721,7.12502,19.9183,52.6713,-56.0218,-15.3741,31.8735,49.9225,-11.4762,-9.02991,-8.40422,-7.33824,8.71612,-32.8233,27.9984,-2.66865,-14.1695,-11.3705
-18.9981,17.6514,-6.91527,-272.621,81.9382,-288.514,16.7494,-6.60627,1.36842,0.69785,-7.91977,4.39099,-8.13042,-3.72001,5.8005,2.19805,-2.8671,0.688796,-8.07638,-3.41702,4.57037,-2.88866,-1.85508,1.46365,-7.95139e-16,-1.11319e-14,-6.36585,9.89466,-38.4677,79.7734,-22.4737,-4.8902,-27.028,7.12502,20.8989,-55.9222,-7.95139e-16,-1.11319e-14,11.5522,-33.3904,50.9019,83.1871,35.2923,-5.60701,23.54,7.12502,20.2101,52.5086,-56.4699,-17.0076,34.6791,47.6935,-9.97335,-10.0407,-9.34488,-6.0575,9.14007,-33.469,26.397,-2.82786,-13.9222,-9.64661
-18.882,17.5899,-6.98576,-273.562,81.4948,-289.352,16.5142,-6.6428,0.908484,0.600163,-8.08294,4.31079,-8.04132,-3.79255,5.97754,1.9817,-2.97808,0.86732,-7.89839,-3.55492,4.7438,-2.78558,-1.92911,1.48383,3.97569e-14,-3.97569e-14,-4.99548,9.68219,-37.8781,79.6256,-23.3151,-5.98661,-27.4593,7.12502,19.8452,-56.4661,3.97569e-14,-3.97569e-14,11.3093,-33.3298,50.3959,83.7379,35.371,-5.20144,23.4633,7.12502,20.5999,52.3902,-56.8995,-18.2757,36.9912,45.9455,-8.00162,-13.489,-10.6586,-4.61269,9.38671,-34.2307,24.7492,-3.11663,-13.7424,-7.84049
-18.7593,17.5167,-7.05247,-273.409,80.9556,-289.107,16.3088,-6.66727,0.305843,0.420941,-8.25181,4.26294,-8.02934,-3.85966,6.27978,1.55969,-3.14939,1.08309,-7.51126,-3.80481,4.71309,-2.57621,-2.04804,1.42395,-6.75868e-14,4.77083e-14,-3.99059,9.49356,-37.3425,79.7276,-24.1367,-7.2845,-27.9035,7.12502,18.5972,-57.0345,-6.75868e-14,4.77083e-14,11.0575,-33.3322,50.1125,84.2805,35.4412,-5.35323,23.4506,7.12502,20.454,52.3933,-57.423,-19.3349,38.8002,44.8501,-6.70377,-17.3074,-5.96515,-3.26455,9.54554,-35.0986,23.3038,-3.50994,-13.7269,-6.86967
-18.6247,17.4473,-7.11687,-272.118,80.5434,-287.709,16.0755,-6.75515,-0.117962,0.224371,-8.465,4.24804,-8.03432,-3.95195,6.52577,1.09135,-3.3722,1.33247,-7.18877,-4.12759,4.61385,-2.38316,-2.20229,1.33771,-5.56597e-15,-2.22639e-14,-3.41143,9.23903,-36.9312,80.1259,-24.6906,-8.86045,-28.3254,7.12502,17.0808,-57.5945,-5.56597e-15,-2.22639e-14,10.8687,-33.3365,49.9326,84.7594,35.4708,-5.49983,23.54,7.12502,20.3131,52.4977,-57.7978,-20.1805,40.2004,44.388,-7.42125,-20.6215,7.71039,-1.97166,9.48988,-35.8015,22.0785,-3.63169,-13.8303,-4.42083
-18.4754,17.3396,-7.18425,-270.31,80.1587,-285.719,15.7981,-6.94493,-0.383264,0.0432852,-8.78121,4.23835,-8.00709,-4.10033,6.70175,0.948427,-3.59578,1.38786,-7.23179,-4.42925,4.59871,-2.36732,-2.35303,1.32721,-2.38542e-14,-1.59028e-14,-3.00981,8.99553,-36.6454,80.7262,-24.6733,-9.26316,-28.0876,7.12502,16.6931,-57.3898,-2.38542e-14,-1.59028e-14,10.665,-33.1951,49.8434,85.089,35.4931,-5.37749,23.4655,7.12502,20.4307,52.4106,-57.9829,-20.6095,40.8695,44.5832,-9.71444,-23.6671,10.13,-0.706224,9.25812,-36.4411,21.2964,-3.54385,-14.1332,-0.520826
-18.3061,17.2239,-7.2608,-268.826,79.8704,-284.011,15.3684,-7.20118,-0.266665,-0.0670687,-9.11813,4.20242,-7.87774,-4.27768,6.61262,0.968931,-3.8321,1.29597,-7.51124,-4.73677,4.61646,-2.45567,-2.50947,1.36243,3.73715e-14,-2.70347e-14,-2.69687,8.71022,-36.545,81.4795,-24.1888,-9.12136,-27.5888,7.12502,16.8296,-56.8795,3.73715e-14,-2.70347e-14,10.4935,-32.9566,49.7888,85.3236,35.4176,-5.14863,23.3002,7.12502,20.6506,52.2216,-57.8754,-20.7447,40.9964,45.0999,-11.2795,-26.1157,8.91798,0.329926,9.04412,-36.9209,21.2419,-3.33513,-14.7427,3.10109
-18.1151,17.1189,-7.34611,-268.309,80.0927,-283.431,14.5636,-7.44953,0.659736,-0.116046,-9.30548,4.23498,-7.60859,-4.41538,6.06478,0.757246,-4.04375,1.15896,-7.64149,-5.02271,4.66376,-2.4504,-2.64926,1.40396,1.11319e-14,-4.45278e-14,-2.55119,8.27035,-36.5922,82.309,-23.3494,-9.62308,-27.7056,7.12502,16.3466,-57.0367,1.11319e-14,-4.45278e-14,10.4668,-32.6958,49.7786,85.4786,35.1374,-4.78104,23.2059,7.12502,21.0038,52.0885,-57.3063,-19.9158,40.3333,45.9598,-15.0846,-27.5556,14.2536,0.882547,8.96425,-36.8039,21.9009,-2.92091,-15.5647,5.91501
-17.9,17.0233,-7.43772,-269.267,81.0911,-284.415,13.9336,-7.64155,2.37286,-0.378865,-9.24897,4.62849,-7.75694,-4.4343,5.48922,0.466368,-4.20545,0.95328,-7.4332,-5.28414,4.37581,-2.32471,-2.76135,1.33771,-7.15625e-15,4.13472e-14,-2.58343,8.12768,-36.3295,83.1779,-22.507,-10.159,-27.9415,7.12502,15.8305,-57.3143,-7.15625e-15,4.13472e-14,10.0108,-32.4835,50.4788,85.5284,34.7717,-4.1036,23.2875,7.12502,21.6545,52.0965,-56.3122,-18.3822,39.476,47.1086,-17.4809,-28.0286,15.2966,1.2474,9.22814,-35.7666,22.8428,-1.6108,-16.3875,9.76194
-17.6616,16.9183,-7.54446,-272.377,80.8175,-287.668,13.7308,-7.60824,2.70852,-1.10538,-9.11057,5.00688,-8.43293,-4.35542,5.73975,0.368418,-4.36915,0.867566,-7.0007,-5.60578,3.19946,-2.18744,-2.88712,0.972361,8.18993e-14,-3.02153e-14,-2.58027,8.65433,-35.5498,83.9707,-22.0842,-10.2529,-28.1516,7.12502,15.7401,-57.5315,8.18993e-14,-3.02153e-14,8.58912,-32.2619,52.4105,85.4698,34.329,-3.13635,23.4605,7.12502,22.5831,52.1596,-55.8145,-17.2974,37.7264,48.6726,-19.0553,-27.9819,13.6565,1.12634,10.0282,-36.0338,24.5725,0.699112,-17.0456,14.1416
-17.3979,16.8585,-7.65671,-276.453,80.2506,-291.627,13.1028,-7.65205,3.13602,-1.43357,-9.12861,5.04992,-8.49704,-4.38511,5.5013,-0.107591,-4.34822,0.513124,-6.28031,-5.63385,2.87207,-1.86622,-2.87668,0.898522,-3.10104e-14,-4.77083e-15,-2.17133,8.94173,-35.447,84.3947,-21.8749,-10.2976,-28.3472,7.12502,15.697,-57.7305,-3.10104e-14,-4.77083e-15,7.36096,-31.7811,53.9352,85.3004,33.8851,-3.07865,23.3741,7.12502,22.6385,52.0664,-55.878,-17.8481,37.0688,50.4069,-20.9981,-27.459,14.3764,0.94262,11.9523,-36.2317,27.0794,3.49898,-18.0361,14.3943
-17.1307,16.787,-7.75809,-281.927,79.3844,-296.756,12.6549,-7.62032,3.14817,-1.64137,-9.11397,5.04667,-8.47308,-4.38469,5.44155,-0.309436,-4.29997,0.339823,-5.86306,-5.61074,2.39716,-1.70474,-2.84866,0.764442,5.48646e-14,2.06736e-14,-1.57411,9.28132,-35.6309,84.5317,-21.7903,-10.5878,-28.5139,7.12502,15.4175,-57.9189,5.48646e-14,2.06736e-14,6.10195,-31.2221,55.4302,85.0828,33.702,-3.73626,23.1875,7.12502,22.0072,51.9555,-55.6347,-18.4453,36.1974,52.0362,-22.0256,-26.5917,13.5395,0.418499,13.5659,-36.3401,30.5353,11.0891,-15.9677,23.5725
-16.8574,16.7806,-7.84214,-291.057,79.2226,-305.31,12.4671,-7.51782,3.96149,-1.60255,-8.83366,5.23815,-8.43748,-4.27604,5.12615,-0.407184,-4.25644,0.231891,-5.59174,-5.57543,2.10565,-1.60618,-2.82199,0.683336,1.90833e-14,-2.8625e-14,-1.06015,9.59864,-35.9746,84.5434,-21.6374,-10.8949,-28.6146,7.12502,15.1217,-58.0421,1.90833e-14,-2.8625e-14,5.30867,-30.75,56.3994,84.7939,34.0727,-3.98831,23.1194,7.12502,21.7652,51.9156,-54.3233,-18.763,36.3016,53.0337,-22.7179,-25.6026,11.9912,-0.371877,15.741,-34.8285,34.5028,17.8702,-13.4791,23.1941
-16.6338,16.8001,-7.89401,-298.278,79.4256,-312.27,12.4313,-7.52073,4.79438,-1.71786,-8.65371,5.60408,-8.62401,-4.20575,5.04861,-0.636936,-4.24749,0.188315,-5.10735,-5.57809,2.02904,-1.41309,-2.81819,0.65094,-4.45278e-14,-3.18055e-15,-0.784856,9.94212,-36.2084,84.5307,-21.4582,-11.3417,-28.4429,7.12502,14.6913,-57.9023,-4.45278e-14,-3.18055e-15,5.16573,-30.6054,56.7119,84.4295,34.7299,-4.70589,23.7857,7.12502,21.076,52.6603,-53.1194,-19.1494,37.0479,53.3543,-23.6543,-24.9468,11.2945,-2.56988,16.0605,-32.8811,39.0016,23.9297,-9.56893,21.6787
-16.3996,16.831,-7.92415,-305.633,78.9528,-318.954,12.5691,-7.39567,4.88946,-1.7039,-8.44203,5.74948,-8.68762,-4.09945,5.13082,-0.88682,-4.29247,0.231321,-4.31092,-5.65464,2.01985,-1.12031,-2.85223,0.619376,2.06736e-14,-8.42847e-14,-0.625752,10.4098,-36.3464,84.4535,-21.2449,-11.8634,-28.1903,7.12502,14.1886,-57.6857,2.06736e-14,-8.42847e-14,5.50742,-30.852,56.4354,83.9463,35.4065,-5.44766,24.6514,7.12502,20.3632,53.6038,-51.1561,-19.6117,37.1631,53.1884,-24.6956,-24.2285,11.0065,-4.54338,15.7639,-31.2316,43.4857,30.9339,-2.55261,23.0602
-16.1646,16.8726,-7.93846,-312.216,78.036,-324.428,12.9418,-7.17712,4.50716,-1.54271,-8.19532,5.69995,-8.6832,-3.96278,5.26845,-0.769068,-4.4019,0.17218,-3.61459,-5.80626,2.2507,-0.913444,-2.92655,0.689744,-1.31993e-13,1.08139e-13,-0.580766,10.9111,-36.4754,84.3596,-20.8037,-11.988,-28.0882,7.12502,14.0686,-57.5921,-1.31993e-13,1.08139e-13,6.4677,-31.4789,55.5668,83.2422,35.889,-5.02311,24.1886,7.12502,20.7712,53.0969,-48.5855,-20.1405,36.7089,52.8559,-25.6155,-23.3141,10.8521,-6.23977,15.1921,-29.741,47.9803,36.5728,-0.974499,17.4781
-15.9451,16.8995,-7.95323,-318.259,76.973,-329.335,13.344,-6.91655,4.14182,-1.35164,-7.89563,5.61126,-8.67619,-3.80262,5.34482,-0.64296,-4.54671,-0.0463136,-2.92482,-6.00041,2.74755,-0.698267,-3.02112,0.867261,-7.63333e-14,1.00187e-13,-0.599066,11.5113,-36.5064,84.3468,-20.1716,-11.6557,-27.9128,7.12502,14.3888,-57.3941,-7.63333e-14,1.00187e-13,7.76763,-32.279,54.3759,82.531,35.7348,-5.0214,23.4849,7.12502,20.7728,52.393,-46.0193,-20.4089,36.1336,52.5182,-26.2315,-22.4334,10.3924,-8.18562,13.6356,-28.5852,52.488,41.0776,-3.40774,5.6293
-15.7369,16.9136,-7.97537,-324.238,75.8519,-334.26,13.6613,-6.66616,4.133,-1.10526,-7.5619,5.4848,-8.61868,-3.64302,5.16249,-0.637455,-4.70991,-0.337246,-2.20417,-6.22228,3.40176,-0.445626,-3.12652,1.10179,-1.59028e-15,1.90833e-14,-0.622339,12.0998,-36.5444,84.4034,-19.5391,-11.1385,-27.5143,7.12502,14.887,-56.9594,-1.59028e-15,1.90833e-14,9.26763,-33.0372,52.9041,81.9904,35.1513,-5.43476,23.565,7.12502,20.3756,52.5161,-43.5522,-20.4071,35.6728,52.1786,-26.6186,-21.6273,9.59606,-10.3752,12.1709,-27.2754,57.1397,43.4131,-5.53555,6.14461
-15.5345,16.9397,-7.9999,-330.625,74.4431,-339.491,14.1059,-6.36088,4.40002,-0.718961,-7.10912,5.27619,-8.52957,-3.43755,4.71788,-0.697385,-4.87632,-0.480448,-1.50415,-6.45528,4.00697,-0.191846,-3.23485,1.29727,-2.46493e-14,6.36111e-15,-0.628058,12.5923,-36.7217,84.4911,-19.1036,-10.6674,-27.0122,7.12502,15.3409,-56.4231,-2.46493e-14,6.36111e-15,10.9864,-33.5964,51.1896,81.5467,34.7497,-4.86954,23.4818,7.12502,20.9188,52.3738,-40.7649,-20.087,35.2328,51.6572,-27.072,-20.6781,9.22713,-12.6234,10.7154,-25.7505,61.7847,43.0148,-8.17284,-3.79394
-15.3414,16.9605,-8.02785,-336.934,72.7122,-344.624,14.7569,-6.08059,4.76344,-0.3494,-6.64192,5.14764,-8.569,-3.22199,4.32682,-0.313991,-4.92461,-0.676071,-1.11005,-6.52428,4.50663,-0.109017,-3.26762,1.48997,1.11319e-14,4.6118e-14,-0.472634,13.4459,-36.8526,84.6629,-19.0687,-10.3745,-26.4843,7.12502,15.623,-55.8734,1.11319e-14,4.6118e-14,12.1817,-33.753,49.8176,81.2524,34.5515,-4.34336,23.124,7.12502,21.4242,51.9595,-37.9294,-19.5931,34.9477,51.1583,-27.6034,-19.7201,8.74124,-14.6382,9.16289,-23.9889,66.1151,40.9355,-8.53964,-4.63116
-15.1521,17.0039,-8.05576,-343.228,70.8311,-349.931,15.4705,-5.87262,5.50509,-0.00615417,-6.17145,5.1588,-8.68936,-3.01274,3.8815,0.273553,-4.86711,-0.766061,-0.943491,-6.44575,4.85443,-0.142942,-3.23265,1.62954,4.09496e-14,2.06736e-14,-0.123678,14.5082,-36.8952,84.8494,-19.2499,-10.2532,-26.2688,7.12502,15.7398,-55.6488,4.09496e-14,2.06736e-14,12.9237,-33.5923,48.7275,81.1709,34.5626,-4.5252,23.1991,7.12502,21.2495,52.0543,-35.0627,-19.0952,35.1217,50.345,-27.7999,-18.9183,7.29425,-17.0137,7.49682,-21.7726,70.0214,38.2485,-10.5066,-10.1399
-14.969,17.0406,-8.09449,-343.85,68.2677,-349.779,15.8086,-5.43549,4.70703,0.231138,-5.78118,4.70602,-8.58795,-2.80951,3.75374,0.663111,-4.83719,-0.552596,-0.831899,-6.40107,5.04795,-0.175295,-3.21371,1.66422,-3.89618e-14,-1.59028e-14,0.35961,15.3575,-37.0521,84.9215,-19.2589,-10.0636,-26.1545,7.12502,15.9224,-55.52,-3.89618e-14,-1.59028e-14,13.6865,-33.2584,47.6904,81.1553,34.5549,-5.01562,23.4511,7.12502,20.7784,52.3586,-33.0892,-18.4769,33.5944,49.8029,-27.7235,-17.9107,5.931,-19.5151,5.43533,-21.4733,73.2784,36.2624,-8.60974,-3.62454
-14.7907,17.0882,-8.11502,-348.211,65.5269,-353.648,16.2689,-4.9382,5.20073,0.612585,-5.00374,4.71653,-8.4865,-2.44818,3.32509,0.919953,-4.8437,-0.384818,-0.724561,-6.40522,5.27197,-0.18287,-3.21761,1.71241,-9.93923e-15,-1.11319e-14,0.937502,16.1263,-37.2687,84.9669,-19.115,-9.93221,-25.7081,7.12502,16.0489,-55.0634,-9.93923e-15,-1.11319e-14,14.2095,-32.674,47.0037,81.1352,34.0097,-3.35914,22.6357,7.12502,22.3693,51.3606,-30.7803,-16.8638,33.8235,49.067,-27.7512,-17.351,4.691,-22.1329,3.89311,-19.1149,76.1086,33.3483,-9.75041,-8.30619
-14.6076,17.1187,-8.1522,-348.873,62.627,-353.808,16.4245,-4.44834,4.6474,0.919033,-4.50592,4.37687,-8.22513,-2.19937,3.13658,1.15183,-4.77294,-0.46123,-0.668192,-6.30729,5.62962,-0.193187,-3.17135,1.84532,2.50469e-14,2.06736e-14,1.62626,16.9812,-37.4292,85.1198,-18.9349,-9.86093,-25.3849,7.12502,16.1176,-54.7347,2.50469e-14,2.06736e-14,14.3343,-32.1524,46.514,81.6201,34.7846,-4.68416,22.7848,7.12502,21.0969,51.6571,-29.1111,-15.4065,32.6196,48.6998,-27.8948,-16.5749,3.83825,-24.6,1.85793,-18.1692,78.3301,30.508,-7.99625,-6.62311
-14.4195,17.1578,-8.18775,-349.545,59.7905,-354.044,16.5804,-4.04667,4.21935,1.2134,-4.08963,4.10925,-7.98376,-1.99154,2.98047,1.35873,-4.71512,-0.650836,-0.591305,-6.23149,5.95228,-0.190326,-3.13566,1.98619,-9.14409e-14,9.06458e-14,2.41969,17.9131,-37.5557,85.3593,-18.7802,-9.91139,-25.3988,7.12502,16.069,-54.7525,-9.14409e-14,9.06458e-14,14.1098,-31.2,46.3449,81.87,34.4241,-4.30153,22.3531,7.12502,21.4644,51.1839,-27.4916,-13.8107,31.4978,48.2227,-27.8893,-15.4711,4.35924,-27.1598,0.0789388,-17.1102,79.9481,26.6095,-8.86407,-16.2035
-14.2265,17.1882,-8.22736,-350.311,57.0254,-354.491,16.8032,-3.68333,3.96295,1.46009,-3.67094,3.95893,-7.83729,-1.78457,2.86476,1.56368,-4.62852,-0.74383,-0.644265,-6.11278,6.03064,-0.240381,-3.08088,2.03472,1.13307e-13,-5.40694e-14,3.26341,18.8465,-37.6637,85.5953,-18.7304,-9.99157,-25.3824,7.12502,15.9918,-54.7423,1.13307e-13,-5.40694e-14,13.6079,-30.6687,46.3955,82.6889,35.9982,-7.07502,23.1804,7.12502,18.7987,52.292,-26.1411,-12.3656,30.5984,47.8875,-27.8416,-14.5405,3.60277,-29.6519,-1.61621,-15.6341,81.0105,22.3147,-8.73418,-21.6055
-14.0305,17.2181,-8.26842,-351.098,54.2879,-355.034,16.9709,-3.38539,4.04499,1.76685,-3.28783,3.72314,-7.62061,-1.6059,2.46899,1.47931,-4.52081,-0.720881,-0.809183,-5.95869,6.32049,-0.274899,-3.00714,2.12488,7.35503e-14,-1.11319e-14,4.10694,19.6171,-37.9842,85.8221,-18.8145,-9.9225,-25.2501,7.12502,16.0583,-54.6047,7.35503e-14,-1.11319e-14,13.1639,-29.474,46.4917,82.7418,34.6684,-5.106,22.532,7.12502,20.6916,51.449,-24.8801,-11.0972,29.8452,47.411,-27.7237,-13.9938,0.646047,-31.8778,-3.48369,-13.9702,81.3903,17.2288,-8.03259,-26.4811
-13.8323,17.2464,-8.30835,-351.988,51.4988,-355.674,17.4381,-3.07761,4.24717,1.99515,-2.83789,3.5409,-7.65224,-1.39599,2.06968,1.23131,-4.45921,-0.634663,-0.691416,-5.8834,6.4056,-0.198974,-2.96375,2.12799,9.06458e-14,-3.49861e-14,4.79119,20.4228,-38.2387,86.1328,-18.9771,-10.0416,-25.2369,7.12502,15.9436,-54.6007,9.06458e-14,-3.49861e-14,12.5991,-28.7591,46.5813,83.0929,34.709,-5.11712,22.0974,7.12502,20.6809,51.0155,-23.5856,-9.7073,29.1862,46.8738,-27.5754,-13.4192,-2.20802,-33.7529,-5.25664,-12.0506,81.1205,12.8471,-6.25151,-26.0873
-13.6306,17.2873,-8.33783,-352.958,48.6036,-356.425,18.0337,-2.74,4.50235,2.21399,-2.3186,3.45019,-7.75456,-1.15247,1.72412,1.03581,-4.43649,-0.632779,-0.756187,-5.8531,6.45161,-0.185807,-2.94734,2.13816,9.10434e-14,3.18055e-15,5.45546,21.2063,-38.441,86.4435,-19.0403,-10.1211,-25.3913,7.12502,15.867,-54.7612,9.10434e-14,3.18055e-15,11.8865,-28.0611,46.8981,83.3797,34.6087,-5.27207,21.8544,7.12502,20.532,50.7887,-22.2294,-8.17623,28.6483,46.2628,-27.4423,-12.6132,-3.90558,-35.3636,-6.54102,-10.0675,80.0085,8.91539,-5.17351,-34.446
-13.4258,17.321,-8.36639,-353.748,45.9126,-357.114,18.5502,-2.50185,4.78495,2.45494,-1.9203,3.45278,-7.78053,-0.965749,1.48295,0.822635,-4.38521,-0.779597,-1.00232,-5.77805,6.53115,-0.222512,-2.91202,2.18813,-5.4467e-14,2.54444e-14,6.29269,21.9429,-38.5784,86.7138,-19.0697,-10.0274,-25.4558,7.12502,15.9572,-54.8185,-5.4467e-14,2.54444e-14,10.9611,-27.2204,47.4802,83.7127,34.4522,-6.47662,22.1767,7.12502,19.3741,51.2316,-21.0807,-6.96867,28.1543,45.7029,-27.3994,-11.5082,-4.72817,-36.8058,-8.06354,-7.69749,78.2679,7.19351,-4.47616,-23.8131
-13.2131,17.3453,-8.39704,-354.366,43.6815,-357.777,19.2851,-2.50297,5.21997,2.44157,-1.76214,3.55641,-8.20385,-0.903419,1.34229,0.639311,-4.24286,-1.02264,-1.04578,-5.59286,6.52642,-0.20553,-2.8173,2.22548,1.24042e-13,-2.54444e-14,7.10305,22.9627,-38.7505,86.9678,-19.0776,-9.88162,-25.4006,7.12502,16.0976,-54.752,1.24042e-13,-2.54444e-14,9.52524,-26.4721,48.3456,84.1314,34.3323,-5.43703,22.0522,7.12502,20.3735,51.0035,-20.1645,-6.11828,27.7263,45.2067,-27.463,-10.3862,-5.41979,-38.2685,-9.43099,-5.47983,75.7984,5.07202,-5.16249,-30.6903
-12.9892,17.3599,-8.42222,-354.724,41.4147,-358.301,19.6101,-2.46592,5.81451,2.57263,-1.56969,3.53224,-8.25002,-0.828812,0.938682,0.347286,-4.23641,-0.972071,-1.43172,-5.56966,6.41048,-0.281966,-2.80887,2.17764,-5.84427e-14,-6.36111e-15,7.8655,23.5377,-39.0984,87.1132,-19.0276,-9.74555,-25.338,7.12502,16.2287,-54.6788,-5.84427e-14,-6.36111e-15,8.55906,-25.837,48.9134,84.4546,34.3289,-4.50474,21.4933,7.12502,21.2692,50.3463,-19.4847,-4.98557,27.2158,44.8277,-27.5506,-9.49155,-6.38094,-39.4277,-10.5888,-3.33413,72.7452,3.28521,-6.26766,-29.9696
-12.7678,17.3735,-8.43086,-354.768,38.678,-358.748,19.5938,-2.21464,6.20756,2.75838,-1.18134,3.46148,-8.03476,-0.652443,0.530163,-0.0291646,-4.31036,-0.676195,-2.04119,-5.64508,6.1153,-0.421876,-2.85321,2.0308,1.04561e-13,-6.83819e-14,8.5776,23.9934,-39.4973,87.2067,-19.064,-9.72982,-25.2108,7.12502,16.2438,-54.5503,1.04561e-13,-6.83819e-14,7.72314,-25.28,49.3694,84.7411,34.1194,-7.13693,22.0724,7.12502,18.7391,51.1898,-19.1146,-3.19902,26.6862,44.5187,-27.4905,-8.75859,-7.50076,-40.2058,-11.036,-1.31826,69.1067,1.46946,-7.88738,-31.77
-12.5544,17.3834,-8.42579,-354.713,35.8017,-359.431,19.7826,-1.90603,6.34664,2.61074,-0.713029,3.63836,-8.28121,-0.439684,0.530093,-0.239376,-4.23336,-0.563573,-2.25909,-5.54152,5.72431,-0.471916,-2.80169,1.88412,6.36111e-15,2.22639e-14,9.1334,25.0272,-39.7503,87.3062,-19.2196,-9.8221,-25.3356,7.12502,16.155,-54.6824,6.36111e-15,2.22639e-14,6.12323,-24.8263,50.3124,85.0763,33.5974,-6.03726,21.9719,7.12502,19.7965,50.9837,-19.0168,-1.13102,26.4404,44.2401,-27.4186,-8.13902,-8.3885,-40.7586,-11.1362,0.954401,65.0023,-0.0720031,-9.24299,-36.5825
-12.3369,17.3934,-8.40938,-354.486,33.0617,-360.012,19.7344,-1.602,6.38879,2.47729,-0.290411,3.85378,-8.38518,-0.242999,0.630935,-0.338101,-4.1219,-0.587044,-2.46224,-5.39183,5.41167,-0.531199,-2.72759,1.7896,1.86858e-14,-9.54166e-15,9.55718,26.0126,-39.8912,87.3929,-19.3723,-9.75834,-25.6473,7.12502,16.2163,-54.989,1.86858e-14,-9.54166e-15,4.52163,-24.3055,51.3853,85.2436,32.9563,-5.56777,21.8005,7.12502,20.2478,50.7651,-19.0319,0.822419,26.1366,43.9737,-27.4193,-7.74823,-9.52839,-41.0204,-11.5708,3.19795,60.616,0.141648,-10.1463,-36.1873
-12.1003,17.403,-8.38277,-354.284,30.5653,-360.402,19.6285,-1.46143,6.49231,2.42082,-0.0844633,3.99545,-8.38247,-0.149273,0.671766,-0.642249,-3.9622,-0.787455,-2.37239,-5.18939,5.26011,-0.457378,-2.61886,1.7666,3.57812e-15,1.11319e-14,9.93225,27.0284,-40.0367,87.4737,-19.4365,-9.41459,-25.5504,7.12502,16.5473,-54.8649,3.57812e-15,1.11319e-14,2.94726,-23.7758,52.3602,85.3885,32.6445,-5.39082,21.7324,7.12502,20.4179,50.6789,-18.891,2.53403,25.6123,43.71,-27.4043,-7.40137,-10.8378,-40.8943,-13.1039,5.45849,56.2405,3.00294,-10.0563,-20.9524
-11.8406,17.4058,-8.34826,-354.212,28.4192,-360.632,19.5379,-1.49304,6.84929,2.45194,-0.0672242,3.98835,-8.29841,-0.152719,0.456213,-1.1754,-3.82518,-1.01585,-2.04035,-5.02222,5.33254,-0.262613,-2.5219,1.81146,2.62396e-14,-2.54444e-14,10.1252,27.8759,-40.3734,87.4357,-19.3141,-9.19106,-25.2646,7.12502,16.7625,-54.561,2.62396e-14,-2.54444e-14,1.62766,-23.525,53.1365,85.5844,32.8729,-5.61179,21.8128,7.12502,20.2055,50.7819,-18.4991,3.87902,24.8778,43.4991,-27.4947,-6.81427,-11.6332,-40.4882,-15.114,7.26467,52.3894,4.99436,-10.1023,-13.5917
-11.5665,17.4088,-8.30426,-354.048,26.3635,-360.694,19.3116,-1.54329,7.15842,2.47603,-0.104878,3.92877,-8.1503,-0.180364,0.222652,-1.53411,-3.75016,-1.01041,-1.9904,-4.92643,5.31512,-0.190717,-2.46859,1.79658,-2.3059e-14,3.18055e-15,10.2832,28.5948,-40.7681,87.1707,-19.1268,-9.4801,-25.3859,7.12502,16.4842,-54.7056,-2.3059e-14,3.18055e-15,0.553277,-23.3486,53.8459,85.547,33.0388,-5.86997,21.7948,7.12502,19.9573,50.79,-18.1444,5.03065,23.9221,43.3695,-27.7089,-6.14194,-12.6971,-40.0897,-17.2574,8.66302,49.4069,6.27296,-10.5031,-13.2579
-11.2782,17.3967,-8.25235,-353.893,24.2204,-360.916,19.0191,-1.59774,7.51811,2.41755,-0.131636,3.96792,-8.05702,-0.205108,0.0664156,-1.56725,-3.72659,-0.946291,-2.2378,-4.88783,5.18987,-0.267872,-2.45312,1.74859,1.03368e-14,-5.40694e-14,10.4766,29.4555,-41.0126,86.7877,-18.9119,-10.1929,-25.8064,7.12502,15.7978,-55.1818,1.03368e-14,-5.40694e-14,-0.601105,-23.1318,54.595,85.4116,32.856,-5.66909,22.2379,7.12502,20.1504,51.2129,-17.9561,6.2373,23.061,43.3868,-28.0889,-5.61767,-14.3849,-39.5745,-19.2593,9.84215,47.5602,7.54061,-10.4014,-12.9848
-10.9732,17.3774,-8.18846,-353.702,21.975,-360.926,18.7231,-1.6107,7.70732,2.29601,-0.140132,3.97978,-8.02962,-0.219496,-0.027023,-1.27422,-3.76391,-1.01233,-2.60049,-4.92362,5.11052,-0.428584,-2.47978,1.74698,-4.41302e-14,2.38542e-14,10.5084,30.4154,-41.1106,86.3744,-18.475,-10.5553,-25.933,7.12502,15.4489,-55.3356,-4.41302e-14,2.38542e-14,-1.90492,-23.0481,55.4631,85.3571,32.6663,-2.64787,20.2474,7.12502,23.0519,48.8887,-17.7835,7.53476,21.9369,43.5643,-28.636,-5.34501,-16.2992,-38.6912,-20.7456,10.0906,46.745,8.5042,-9.59482,-14.4242
-10.6529,17.3551,-8.11155,-353.347,19.5019,-360.411,18.3351,-1.53302,7.40087,2.18025,-0.154582,3.86012,-7.94358,-0.22287,0.0137825,-0.994116,-3.75503,-1.09033,-2.77793,-4.90642,5.01004,-0.531896,-2.47635,1.73821,-1.59028e-15,-3.97569e-14,10.6792,31.378,-41.0295,85.9196,-18.0814,-10.5932,-26.3012,7.12502,15.4124,-55.7067,-1.59028e-15,-3.97569e-14,-3.04885,-22.2398,56.2879,84.615,30.0352,0.0657257,18.5307,7.12502,25.6533,46.8224,-17.6905,9.00894,20.1871,43.9048,-29.1757,-5.21971,-18.2663,-37.1692,-21.2271,8.75016,46.7232,7.06223,-10.4428,-32.952
-10.3226,17.3296,-8.02294,-352.863,16.7195,-359.635,17.7846,-1.35673,6.77521,2.06808,-0.124556,3.65393,-7.76017,-0.194726,0.126353,-1.01664,-3.73161,-1.07753,-2.61648,-4.88385,4.89964,-0.481776,-2.46235,1.6976,7.95139e-16,-5.56597e-14,11.0465,32.298,-40.6977,85.5505,-17.9273,-10.4438,-26.7534,7.12502,15.5563,-56.1478,7.95139e-16,-5.56597e-14,-4.28912,-22.7457,56.9971,85.6039,32.9851,-4.36418,21.0636,7.12502,21.4042,49.9013,-17.8078,10.7502,18.0251,44.3165,-29.6574,-4.74702,-18.9764,-35.276,-21.2485,6.57927,47.0478,4.31503,-8.9389,-37.3893
-9.99122,17.3093,-7.92525,-352.431,13.6502,-358.93,17.1802,-1.0454,6.14223,1.93854,0.0830062,3.40542,-7.55769,-0.0816951,0.157238,-1.27667,-3.87806,-1.25301,-2.16948,-5.09144,5.23866,-0.279684,-2.55682,1.82167,1.86858e-14,-1.90833e-14,11.2316,33.0489,-40.2319,85.3236,-17.8681,-9.89046,-26.3016,7.12502,16.0891,-55.6537,1.86858e-14,-1.90833e-14,-5.09781,-22.695,57.3603,85.828,32.9184,-3.77099,21.4467,7.12502,21.9739,50.2186,-18.0976,12.717,15.8588,44.7471,-29.9721,-4.08315,-18.61,-33.023,-20.2621,3.8534,47.3956,1.20159,-7.09266,-36.1636
-9.66262,17.3107,-7.8177,-352.383,10.3659,-358.438,16.8765,-0.719524,5.64393,1.83779,0.369782,3.1617,-7.48755,0.0641769,0.107015,-1.35957,-4.11013,-1.8758,-1.72436,-5.40664,6.16948,-0.0716979,-2.70475,2.22012,3.18055e-14,-1.11319e-14,11.4096,33.8477,-39.7238,85.2609,-17.9122,-9.69726,-26.0196,7.12502,16.2752,-55.3565,3.18055e-14,-1.11319e-14,-5.87491,-22.802,57.4487,86.2015,33.1666,-4.40509,21.8916,7.12502,21.3649,50.7338,-18.2389,14.6643,14.0299,45.3017,-30.1216,-4.11488,-20.3846,-30.3397,-17.8292,0.856942,47.4887,-1.68236,-6.57337,-37.0097
-9.34615,17.3407,-7.70074,-352.497,7.12579,-357.936,16.7612,-0.498876,5.08949,1.71787,0.528613,2.91542,-7.54898,0.148396,0.119159,-1.0133,-4.2452,-2.45654,-1.67424,-5.5819,7.01324,-0.0639662,-2.79574,2.60758,1.98785e-14,-1.43125e-14,11.8625,34.7433,-39.1935,85.2833,-17.9819,-9.7568,-26.1245,7.12502,16.2178,-55.4661,1.98785e-14,-1.43125e-14,-6.7384,-22.7307,57.3183,86.6781,33.124,-4.79183,22.2528,7.12502,20.9934,51.1366,-18.4175,16.0602,12.4257,46.1382,-29.3282,-4.3689,-22.8783,-27.6762,-14.8158,-2.04833,47.3199,-3.86731,-6.6335,-37.2916
-9.05505,17.3775,-7.58697,-352.444,4.11101,-357.306,16.5776,-0.245711,4.39557,1.52592,0.703274,2.63696,-7.65266,0.243998,0.173212,-0.434929,-4.48045,-2.78415,-2.10338,-5.8736,7.60188,-0.254349,-2.95947,2.88341,-4.77083e-15,-7.95139e-15,12.1674,35.2996,-38.6864,85.3561,-18.0503,-9.49026,-25.8729,7.12502,16.4745,-55.1934,-4.77083e-15,-7.95139e-15,-7.33947,-22.8565,57.0137,87.2902,33.0634,-4.92314,22.7452,7.12502,20.8673,51.643,-19.2047,16.5719,10.9441,47.6331,-27.5103,-4.06093,-21.0906,-25.5183,-12.5359,-4.57399,46.8617,-5.72285,-6.54696,-38.113
-8.78113,17.4172,-7.48394,-352.395,1.34654,-357.615,16.4624,-0.0456764,4.74649,1.32104,1.02448,2.57662,-7.79453,0.379883,-0.160929,-0.0759959,-4.92168,-3.03582,-2.47086,-6.44332,8.09752,-0.374794,-3.25877,3.10894,4.77083e-15,1.59028e-15,12.3192,35.5628,-38.109,85.574,-18.1178,-9.09511,-25.4521,7.12502,16.8549,-54.7406,4.77083e-15,1.59028e-15,-7.63603,-23.2666,56.4612,88.0355,33.6139,-5.70555,23.4602,7.12502,20.1154,52.4388,-20.5077,16.3932,10.8286,49.756,-24.961,-5.14818,-22.1706,-23.77,-11.2845,-5.66064,46.341,-7.2625,-6.19387,-38.4689
-8.5352,17.4655,-7.38082,-352.002,-1.32399,-355.879,15.9335,0.182882,2.90158,1.09157,0.923239,2.01101,-7.76869,0.381686,0.300725,-0.482731,-5.31506,-3.1876,-2.02635,-6.9904,8.4644,-0.110163,-3.51727,3.23136,2.18663e-14,3.33958e-14,12.9249,35.8488,-37.3167,85.8997,-18.1439,-8.93088,-25.0805,7.12502,17.013,-54.3554,2.18663e-14,3.33958e-14,-7.83013,-23.3833,55.5611,88.6765,34.2642,-6.68218,24.0548,7.12502,19.1765,53.1294,-22.5464,15.1008,8.52005,52.4184,-22.284,-5.68916,-13.6682,-22.6899,-10.9587,-8.88858,45.8303,-8.44458,-5.09072,-39.3845
-8.29523,17.517,-7.2789,-352.144,-3.89318,-355.281,15.8206,0.199946,2.26597,1.04208,0.808769,1.77885,-7.7653,0.34321,0.438087,-0.705678,-5.42968,-3.80461,-1.6012,-7.1664,9.12883,0.126903,-3.5918,3.55403,1.31198e-14,7.95139e-15,14.0153,36.208,-36.3295,86.2366,-18.1437,-8.86334,-24.7079,7.12502,17.078,-53.9773,1.31198e-14,7.95139e-15,-8.04895,-23.0829,54.6196,89.1612,34.6854,-7.39849,24.7613,7.12502,18.4875,53.9027,-24.2531,13.221,8.14999,55.0395,-19.8588,-8.09886,-12.3891,-21.3987,-10.2787,-10.9464,45.6186,-9.21635,-3.89563,-41.4661
-8.07507,17.5609,-7.17793,-352.426,-6.26203,-355.22,15.8521,0.150783,2.07863,1.03708,0.71229,1.80879,-7.79156,0.302627,0.597732,-0.920544,-5.5798,-4.85516,-1.13411,-7.39361,9.88611,0.408393,-3.68941,3.99568,-6.75868e-15,1.27222e-14,15.2449,36.5589,-35.294,86.5137,-18.1908,-8.59038,-24.4855,7.12502,17.3407,-53.732,-6.75868e-15,1.27222e-14,-8.28219,-22.6958,53.8358,89.5801,35.129,-8.15168,25.5389,7.12502,17.7629,54.7476,-25.6086,10.8854,8.89827,57.1164,-17.812,-11.2298,-15.7858,-20.2021,-9.34189,-12.3813,45.6021,-9.55033,-2.62435,-42.8613
-7.87839,17.6033,-7.07775,-352.592,-8.43564,-355.459,15.795,0.107092,2.17285,0.995401,0.677818,1.92108,-7.80547,0.283731,0.672582,-0.66396,-5.69783,-5.69006,-1.04284,-7.56701,10.4953,0.47172,-3.77964,4.37551,-3.06128e-14,4.77083e-15,16.2112,36.7825,-34.4786,86.7633,-18.4139,-8.65417,-24.5225,7.12502,17.2793,-53.7743,-3.06128e-14,4.77083e-15,-8.41678,-22.4304,53.0694,89.8518,35.2554,-7.93425,25.4412,7.12502,17.9721,54.6309,-26.7576,8.1533,10.4359,58.3282,-16.9407,-14.3686,-13.4952,-19.4204,-8.19687,-13.3591,45.9215,-9.49599,-1.46685,-42.9155
-7.70178,17.6739,-6.96484,-352.856,-10.6536,-355.708,15.7474,0.132411,2.36257,0.979836,0.743225,1.94217,-7.79353,0.308204,0.573459,-0.0809041,-5.77854,-6.08936,-1.1094,-7.69427,10.905,0.394728,-3.85973,4.61942,0,-1.74931e-14,16.8189,36.8946,-34.0434,86.9772,-18.6803,-8.77103,-24.3916,7.12502,17.1668,-53.6532,0,-1.74931e-14,-8.46126,-22.1373,52.4174,89.778,34.6939,-5.86575,23.9194,7.12502,19.9614,52.9141,-27.3801,5.32671,12.2108,58.5043,-17.6939,-14.396,-13.2872,-18.6471,-6.84851,-14.2645,46.4767,-9.12461,-0.48374,-42.4794
-7.54443,17.7398,-6.84812,-353.115,-13.021,-356.039,15.651,0.253256,2.55524,0.983296,0.934165,1.98683,-7.73261,0.394043,0.470461,0.693428,-5.82993,-6.43634,-1.25158,-7.78697,11.2891,0.252021,-3.93001,4.85686,-1.15295e-14,3.02153e-14,17.1645,36.8577,-34.0528,86.9428,-18.6754,-8.51214,-24.1199,7.12502,17.416,-53.3597,-1.15295e-14,3.02153e-14,-8.53473,-21.8377,52.0743,89.5107,34.0671,-7.80055,24.9671,7.12502,18.1007,54.1449,-27.7423,2.87199,14.2928,57.8999,-18.759,-14.1175,-13.9113,-18.0682,-5.1002,-14.9507,47.3735,-8.14631,0.313,-41.6019
-7.39836,17.7975,-6.73059,-353.218,-15.4007,-356.616,15.5029,0.37688,2.94441,0.972385,1.16761,2.12057,-7.65517,0.495421,0.343359,1.33413,-5.89008,-6.63015,-1.33616,-7.88637,11.9069,0.141096,-4.00109,4.61088,-3.61788e-14,1.43125e-14,17.3514,36.6999,-34.4447,86.6401,-18.3974,-8.37356,-23.8091,7.12502,17.5494,-53.037,-3.61788e-14,1.43125e-14,-8.72064,-21.6718,51.8613,89.3446,33.8164,-7.91723,25.0011,7.12502,17.9885,54.1892,-27.9312,0.530597,16.7799,56.6755,-19.2696,-15.0021,-17.1959,-17.9134,-2.99067,-15.218,48.7271,-6.41276,0.888739,-39.4698
-7.27059,17.8448,-6.6072,-353.306,-17.5595,-356.695,15.1903,0.468099,2.87589,0.942188,1.26245,2.1289,-7.51349,0.544768,0.373081,1.18037,-6.0822,-6.45411,-0.665708,-8.18971,11.647,0.371944,-4.13387,4.47939,9.14409e-15,4.29375e-14,17.5502,36.5549,-34.8281,86.3751,-18.148,-8.18285,-23.3638,7.12502,17.7329,-52.5753,9.14409e-15,4.29375e-14,-9.05865,-22.1492,51.782,90.0564,36.2214,-10.2963,26.5703,7.12502,15.6983,55.9535,-28.0305,-2.07826,18.7682,55.1902,-19.509,-15.4235,-22.0724,-18.3975,-0.755998,-15.9182,50.686,-4.04374,1.54465,-38.836
-7.15321,17.8783,-6.48771,-353.371,-19.56,-356.739,14.9813,0.546022,2.97644,0.865778,1.36905,2.05373,-7.47334,0.59141,0.215559,1.12807,-6.20296,-6.27247,0.0202442,-8.39783,10.8976,0.620299,-4.22619,4.66006,9.14409e-15,0,17.6313,36.4521,-35.1362,86.2367,-18.0506,-7.85688,-22.927,7.12502,18.0465,-52.1098,9.14409e-15,0,-9.19661,-22.3176,51.6973,90.0767,36.557,-10.2033,25.8028,7.12502,15.7879,55.1789,-28.0665,-4.20304,20.4515,53.5845,-20.6015,-13.4058,-17.9051,-19.5667,1.71614,-16.6004,53.2882,-0.802271,2.08737,-42.0787
-7.04526,17.8914,-6.3769,-353.329,-21.3776,-356.748,14.7996,0.588248,3.18585,0.717184,1.44687,1.92291,-7.52163,0.618066,-0.0565168,1.07483,-6.35049,-6.29464,0.623882,-8.63728,10.7109,0.840687,-4.33503,4.57796,1.47101e-14,7.95139e-15,17.6279,36.3903,-35.4019,86.1784,-18.0658,-7.70502,-22.6105,7.12502,18.1927,-51.7797,1.47101e-14,7.95139e-15,-9.17671,-22.2654,51.501,89.4678,35.0069,-9.9951,25.8101,7.12502,15.9884,55.1703,-28.1254,-6.36996,22.0965,52.031,-19.4002,-12.376,-21.2895,-21.4377,3.8193,-17.1504,56.4502,3.05169,2.45208,-39.2599
-6.93939,17.8853,-6.26857,-353.119,-22.8947,-356.979,14.5091,0.451852,3.5372,0.622539,1.31855,1.9915,-7.45788,0.545045,-0.151822,0.915191,-6.40104,-6.67872,1.04191,-8.73393,10.6873,1.03405,-4.37487,4.62872,-2.46493e-14,-2.06736e-14,18.271,36.4674,-35.2398,86.0446,-17.9936,-7.55693,-22.3289,7.12502,18.3351,-51.4848,-2.46493e-14,-2.06736e-14,-9.34679,-22.1854,51.3835,89.3353,34.2732,-10.2979,26.1899,7.12502,15.6967,55.5732,-28.1342,-8.55275,23.81,50.5721,-17.088,-12.6534,-26.4635,-23.7453,4.97534,-17.1889,59.8549,8.42798,2.90851,-30.8758
-6.83041,17.8601,-6.15988,-352.522,-24.0245,-358.184,14.1836,0.114348,4.76406,0.615,1.08153,2.42643,-7.27854,0.397285,-0.328603,0.545693,-6.37084,-7.03371,1.37123,-8.69652,10.4376,1.20955,-4.34492,4.59048,2.14687e-14,1.11319e-14,19.3944,36.63,-34.7197,85.8189,-17.7293,-7.39252,-22.0271,7.12502,18.4933,-51.168,2.14687e-14,1.11319e-14,-9.52312,-21.962,51.3527,89.3086,33.2952,-9.06569,25.2037,7.12502,16.8832,54.4898,-27.9703,-10.5632,26.2572,49.3314,-19.1208,-16.262,-13.0574,-26.3288,5.41545,-16.0328,63.2917,13.5583,3.29684,-23.5395
-6.72216,17.7907,-6.05923,-353.036,-25.124,-357.409,14.0797,-0.03623,4.24646,0.715569,0.782373,2.35965,-7.12882,0.271875,-0.0487343,0.410752,-6.45886,-7.10118,1.35241,-8.79692,10.0691,1.21982,-4.3933,4.46278,1.63003e-14,-2.70347e-14,20.1433,36.4986,-33.9162,85.9025,-17.8422,-7.22584,-22.0015,7.12502,18.6536,-51.1271,1.63003e-14,-2.70347e-14,-9.32563,-22.1716,51.4012,89.2992,32.8196,-7.24548,23.221,7.12502,18.6347,52.3484,-27.1838,-10.2893,25.2365,48.422,-20.8334,-17.8807,-12.483,-28.4634,4.17772,-16.4217,66.3279,17.7872,0.861545,-17.3876
-6.63702,17.7475,-5.9603,-353.424,-26.409,-357.509,14.1756,-0.0187063,4.30719,0.890688,0.822229,2.53664,-6.99548,0.294326,0.0963401,0.896672,-6.60829,-7.27401,0.623883,-8.97433,10.0797,0.920901,-4.50196,4.52472,-4.81059e-14,-1.59028e-15,20.6483,36.0493,-32.8063,86.1651,-18.4219,-6.80985,-22.1487,7.12502,19.0537,-51.2354,-4.81059e-14,-1.59028e-15,-8.94908,-22.5975,51.6666,89.2632,32.6966,-6.13452,22.1829,7.12502,19.703,51.2044,-25.9404,-7.63286,24.018,48.0291,-20.6776,-17.0854,-16.9993,-29.9452,2.80744,-15.6127,68.7961,20.6447,-2.36194,-9.6351
-6.52689,17.6483,-5.861,-354.314,-27.6688,-357.431,14.8127,-0.0639082,4.30034,1.14197,0.795477,2.67938,-7.08443,0.282236,0.255699,1.1654,-6.82736,-7.37541,0.164024,-9.25071,9.92055,0.745609,-4.65053,4.49839,1.11319e-14,1.59028e-14,21.1912,35.6787,-31.8159,86.1841,-18.851,-6.54231,-22.1604,7.12502,19.311,-51.2216,1.11319e-14,1.59028e-14,-8.84946,-22.905,52.2118,89.3364,32.6136,-5.78997,22.3176,7.12502,20.0342,51.3047,-24.5981,-5.32639,22.5292,48.1605,-21.5471,-15.9117,-20.5747,-30.8233,0.710707,-14.8789,70.83,17.0289,-5.80894,-15.7359
-6.39502,17.512,-5.76511,-355.256,-29.0312,-357.605,15.951,-0.171358,4.48753,1.34902,0.759673,2.88954,-7.4966,0.254246,0.382435,1.41052,-6.99058,-7.49407,-0.316286,-9.454,9.86722,0.568193,-4.76163,4.5168,2.14687e-14,-3.65764e-14,21.6892,35.5252,-31.1062,86.0188,-19.1079,-6.7299,-22.3879,7.12502,19.1306,-51.467,2.14687e-14,-3.65764e-14,-9.2368,-23.0189,53.1016,89.5667,32.4414,-5.56008,22.5958,7.12502,20.2552,51.5596,-23.6278,-3.83639,21.5186,48.8824,-22.2036,-15.4972,-27.7867,-31.532,-1.59643,-13.926,72.0421,11.1585,-9.32665,-23.8453
-6.24885,17.373,-5.6779,-355.392,-30.6657,-359.194,17.436,-0.339071,5.82294,1.49413,0.919214,3.38598,-8.14835,0.277678,0.130821,1.91997,-7.13706,-7.9588,-1.26504,-9.62988,10.8278,0.239391,-4.8732,4.47835,8.62725e-14,-2.70347e-14,21.9396,35.3411,-30.8181,85.7926,-19.3732,-7.02515,-22.863,7.12502,18.8466,-51.97,8.62725e-14,-2.70347e-14,-9.95039,-22.8777,54.2712,89.7503,31.9291,-5.44054,22.4861,7.12502,20.3701,51.4377,-23.2059,-2.80458,22.2701,49.7985,-23.8987,-14.5937,-25.6368,-32.4958,-3.98357,-11.2723,72.6831,6.33342,-10.6966,-16.7155
-6.09159,17.2555,-5.56805,-356.37,-33.0672,-359.672,19.1972,-0.301915,6.21882,1.89508,1.17015,3.483,-8.66412,0.371099,-0.0502575,1.5287,-7.34881,-7.86992,-1.37462,-9.88775,10.3936,0.297345,-4.99253,4.79462,-6.36111e-15,-4.92986e-14,22.104,34.8607,-30.9517,85.502,-19.6268,-6.96806,-23.1055,7.12502,18.9015,-52.2072,-6.36111e-15,-4.92986e-14,-10.6941,-22.492,55.4273,89.8926,31.2698,-5.51627,22.1143,7.12502,20.2973,51.0737,-22.6523,-1.47384,21.9016,50.94,-24.449,-13.3456,-22.4177,-32.3725,-6.39976,-9.88404,72.2935,0.569035,-11.971,-13.436
-5.92826,17.1525,-5.43984,-355.012,-35.4137,-362.718,20.1178,-0.518151,8.78639,2.13411,1.54293,4.02474,-8.83601,0.451872,-1.00018,0.858758,-7.57323,-7.30975,-1.28045,-10.1475,10.0339,0.419851,-5.10546,4.51454,-1.04163e-13,5.88403e-14,22.3699,34.3194,-31.4133,85.129,-20.0686,-6.80956,-23.2631,7.12502,19.054,-52.3498,-1.04163e-13,5.88403e-14,-11.4641,-22.1017,56.4388,90.0613,30.7471,-5.64247,21.8255,7.12502,20.176,50.7977,-22.8204,0.312179,23.821,51.8721,-23.917,-13.9634,-28.6194,-33.1201,-8.71103,-5.89878,71.2385,-4.12181,-14.7261,-9.12542
-5.76888,17.0743,-5.30068,-354.217,-37.8637,-363.87,20.6652,-0.568189,9.59726,2.24259,1.71291,4.13717,-8.97948,0.494312,-1.37783,0.755184,-7.8476,-7.18292,-1.64017,-10.4889,10.283,0.362624,-5.28015,4.57095,4.33351e-14,-3.97569e-14,22.4837,34.004,-32.2351,84.7171,-20.7073,-6.39409,-23.3739,7.12502,19.4535,-52.4207,4.33351e-14,-3.97569e-14,-12.2235,-21.8869,57.3774,90.0945,30.4695,-5.67169,21.7657,7.12502,20.1479,50.7409,-23.4523,1.84427,23.85,52.7655,-23.3346,-11.5931,-25.437,-33.9497,-11.639,-3.59201,69.1294,-9.10615,-17.7108,-15.7358
-5.6186,17.0213,-5.15082,-353.612,-40.3295,-364.022,20.7683,-0.527215,9.42125,2.25815,1.72901,4.11447,-9.02079,0.503303,-1.30924,0.888082,-8.20526,-7.916,-2.35266,-10.9362,11.7686,0.267192,-5.52283,4.69281,-3.06128e-14,-2.54444e-14,22.5814,33.8016,-33.0757,84.2762,-20.9934,-6.17513,-23.4367,7.12502,19.664,-52.4621,-3.06128e-14,-2.54444e-14,-12.8508,-21.676,58.3814,89.8146,30.2676,-5.48959,22.0144,7.12502,20.323,50.9711,-24.4318,3.2095,22.9081,53.3582,-24.1469,-12.77,-33.1139,-35.0042,-15.0439,-1.86385,66.3333,-10.8662,-22.4641,-16.4865
-5.47451,16.9829,-4.98758,-353.081,-42.7402,-363.894,20.6407,-0.48142,8.91825,2.25216,1.65434,4.11281,-8.97865,0.48595,-1.00857,2.00274,-8.38609,-9.7238,-4.37649,-11.1202,14.5293,-0.211062,-5.70569,5.90263,-8.22969e-14,6.36111e-15,22.6799,33.6501,-33.7303,83.893,-20.7756,-7.51321,-23.9537,7.12502,18.3772,-53.1056,-8.22969e-14,6.36111e-15,-13.3233,-21.4921,59.5005,89.2023,29.9832,-5.04513,22.3083,7.12502,20.7501,51.2189,-25.5198,4.51527,21.6489,53.8072,-24.385,-11.0877,-30.7904,-36.0395,-19.1401,0.0803211,63.0837,-4.95879,-28.8955,2.27588
-5.32876,16.9619,-4.80802,-352.559,-45.0275,-363.88,20.4793,-0.512511,8.59644,2.24579,1.51928,4.14116,-8.91768,0.434112,-0.759414,1.95296,-9.03734,-9.09805,-4.63552,-11.9594,14.158,-0.239259,-6.13083,5.66789,3.97569e-15,-1.59028e-14,22.5535,33.5327,-34.289,83.6244,-20.3892,-8.49212,-24.5993,7.12502,17.4353,-53.8374,3.97569e-15,-1.59028e-14,-13.6185,-21.5483,60.661,88.3482,29.819,-4.64876,22.5219,7.12502,21.1309,51.3904,-26.4303,5.76572,20.4327,54.0363,-24.13,-11.8159,-37.4181,-37.25,-23.4824,2.16794,59.8972,-3.96768,-32.8883,1.27017
-5.17071,16.9303,-4.60972,-352.136,-47.2983,-363.788,20.2909,-0.631639,8.34174,2.25455,1.27768,4.13929,-8.8281,0.329777,-0.552613,0.895662,-9.96471,-7.54006,-3.41287,-13.2215,12.0643,0.177007,-6.69124,4.66932,8.11041e-14,-2.22639e-14,22.3655,33.4095,-34.8342,83.3321,-20.1095,-8.32983,-24.9004,7.12502,17.5915,-54.1246,8.11041e-14,-2.22639e-14,-13.7144,-21.6713,61.7427,87.3678,29.7214,-4.4582,22.8555,7.12502,21.3139,51.7034,-27.3165,7.05804,18.9994,54.157,-24.3454,-11.4929,-39.6789,-38.4641,-27.9231,4.23976,57.1139,-0.203936,-34.9547,8.29972
-5.00457,16.8965,-4.39071,-351.743,-49.7467,-363.768,20.1459,-0.737038,8.15899,2.29253,1.07078,4.12509,-8.72349,0.239024,-0.410252,1.59424,-10.7209,-8.41078,-4.36957,-14.2191,13.2695,0.0383142,-7.23659,5.17818,-1.55052e-14,4.45278e-14,22.0156,33.2659,-35.3453,83.0396,-20.207,-8.43116,-25.0387,7.12502,17.4939,-54.2716,-1.55052e-14,4.45278e-14,-13.568,-21.9,62.6888,86.45,29.5936,-4.54373,23.4711,7.12502,21.2317,52.3283,-28.1752,8.38245,17.4465,54.1993,-24.7259,-10.2012,-39.8685,-39.6203,-32.1086,6.13084,54.9026,2.19206,-35.1888,12.6259
-4.83041,16.8588,-4.14474,-350.712,-52.3905,-364.759,20.2117,-0.894812,8.64076,2.31878,0.972509,4.2509,-8.73005,0.171634,-0.514194,2.24074,-11.3971,-9.18689,-5.2255,-15.1177,14.2854,-0.0744139,-7.73166,5.61474,-2.42517e-14,2.22639e-14,21.6172,33.2654,-35.5271,82.8073,-20.5449,-8.48979,-24.8964,7.12502,17.4375,-54.1342,-2.42517e-14,2.22639e-14,-13.4098,-22.1468,63.5754,85.716,29.5945,-4.76687,23.636,7.12502,21.0174,52.5172,-28.8582,9.7936,16.4636,54.072,-25.0506,-8.49047,-39.2804,-40.1871,-35.495,7.84981,53.3051,4.07244,-35.4445,16.536
-4.6429,16.8288,-3.86534,-350.33,-55.699,-364.886,20.418,-1.00104,8.53055,2.3177,0.819524,4.19686,-8.85459,0.0936344,-0.467423,2.71767,-11.9396,-9.58999,-6.00978,-15.8263,14.8476,-0.215455,-8.12441,5.86185,3.18055e-15,-2.06736e-14,21.8114,33.6009,-35.1483,82.7193,-20.9538,-8.56354,-25.1065,7.12502,17.3665,-54.3507,3.18055e-15,-2.06736e-14,-13.4757,-21.9684,64.4007,85.2426,29.7765,-4.87312,23.4336,7.12502,20.9153,52.3261,-29.6769,11.3566,14.6216,53.7787,-25.3767,-6.18472,-37.609,-40.2687,-38.1989,8.0857,52.31,6.16443,-35.2043,14.4961
-4.46034,16.8261,-3.56418,-349.903,-59.4424,-365.317,20.8046,-1.10335,8.39762,2.37061,0.679109,4.14797,-9.01586,0.0207645,-0.403608,2.2574,-12.4807,-9.19487,-5.65254,-16.551,14.1542,-0.0481727,-8.45551,5.52024,6.83819e-14,-3.18055e-14,21.9237,33.9204,-34.8845,82.5888,-21.0258,-8.75826,-25.6153,7.12502,17.1791,-54.8759,6.83819e-14,-3.18055e-14,-13.5425,-21.5787,65.0553,84.9888,29.7933,-4.69891,23.8994,7.12502,21.0827,52.7733,-30.2354,13.0715,12.8819,53.1382,-25.3434,-3.81512,-36.4422,-39.2805,-39.8229,7.13729,51.7742,11.8126,-33.4117,37.8202
-4.28458,16.8332,-3.24214,-349.476,-63.7202,-365.695,21.1489,-1.04372,7.97897,2.37348,0.67922,4.02876,-9.20277,0.0236563,-0.295431,2.23602,-12.9215,-9.19348,-5.48106,-17.1595,14.106,0.0697961,-8.75482,5.46216,-8.34896e-15,-6.83819e-14,22.0572,34.1783,-34.5818,82.4196,-20.544,-8.83782,-26.182,7.12502,17.1025,-55.4492,-8.34896e-15,-6.83819e-14,-13.4638,-21.2686,65.5709,84.748,29.4919,-4.57225,24.4627,7.12502,21.2044,53.323,-30.9699,14.8764,10.9136,52.0459,-24.6754,-1.39804,-36.4701,-36.5217,-39.3335,4.17343,51.5042,2.60247,-33.4671,29.0804
-4.11117,16.8495,-2.89792,-348.281,-68.2082,-366.568,21.1584,-0.956164,7.61703,2.30728,0.700191,3.94265,-9.28364,0.0386328,-0.190857,2.5328,-13.181,-9.67145,-5.58242,-17.5354,14.947,0.160437,-8.96649,5.76725,1.11319e-14,-3.65764e-14,22.206,34.201,-34.202,82.1186,-19.6388,-8.71932,-26.3343,7.12502,17.2166,-55.5917,1.11319e-14,-3.65764e-14,-13.1684,-20.805,65.9522,84.4102,29.1236,-4.94051,24.1345,7.12502,20.8506,53.0341,-32.128,16.3702,8.93045,50.4521,-23.5437,1.16892,-36.8636,-33.8599,-37.6309,0.950528,51.1537,-5.35163,-30.6176,9.11569
-3.94329,16.9383,-2.54413,-345.794,-72.644,-368.481,20.8722,-0.955813,7.34548,2.20525,0.606506,3.91941,-9.24962,0.000802141,-0.0375813,2.86148,-13.4266,-10.0129,-5.85347,-17.8798,15.9179,0.19925,-9.17585,6.10213,4.37326e-15,-6.36111e-15,22.4099,34.1097,-33.7655,82.0269,-19.4185,-9.25487,-26.8349,7.12502,16.7011,-56.1365,4.37326e-15,-6.36111e-15,-12.7121,-20.03,66.0273,84.1673,28.7963,-5.48081,23.5282,7.12502,20.3314,52.484,-33.3063,17.9125,7.0434,48.1097,-22.0663,3.58625,-37.1878,-31.5433,-34.827,-2.02618,50.4188,-11.8395,-26.8926,8.60305
-3.78481,17.0256,-2.18504,-341.129,-77.0822,-372.523,20.6873,-0.996463,7.19768,2.06356,0.503271,3.9062,-9.31342,-0.0490735,0.0617296,2.93061,-13.7774,-10.046,-5.95325,-18.3569,16.5737,0.291216,-9.43823,6.26779,1.90833e-14,-4.6118e-14,22.3795,33.7407,-33.5561,82.0066,-19.4866,-8.88355,-26.8783,7.12502,17.0585,-56.1494,1.90833e-14,-4.6118e-14,-12.2113,-19.1201,65.8389,84.1194,28.6549,-5.99856,23.3928,7.12502,19.8337,52.4008,-34.6076,19.2775,5.28181,45.4535,-20.3161,6.49831,-36.6133,-29.487,-31.9382,-4.50829,49.3914,-20.0367,-20.4185,-17.8198
-3.6281,17.1649,-1.82519,-333.704,-81.544,-379.238,20.5701,-1.00578,6.73711,1.96739,0.368674,3.80495,-9.36548,-0.100744,0.248704,2.7075,-14.1305,-9.96979,-5.94788,-18.8301,17.1965,0.450162,-9.68759,6.3783,-1.19271e-14,-2.70347e-14,22.179,33.0023,-33.5089,82.141,-19.7542,-10.1229,-27.3363,7.12502,15.8653,-56.7063,-1.19271e-14,-2.70347e-14,-11.548,-18.0727,65.3484,84.2371,28.7885,-6.21803,23.9362,7.12502,19.6228,52.9659,-36.061,20.4104,3.31382,42.6877,-17.9127,9.54477,-34.9868,-28.6955,-30.4186,-6.10358,48.2981,-19.2707,-19.0648,-11.3965
-3.47736,17.2732,-1.47535,-317.957,-85.7889,-394.183,20.2452,-1.0647,5.78468,1.93436,0.0331562,3.601,-9.2395,-0.222855,0.651204,2.71736,-14.3633,-9.72361,-6.23063,-19.1227,17.7986,0.447424,-9.86929,6.50632,1.23246e-14,1.66979e-14,22.0064,31.9257,-33.513,82.2696,-20.0628,-10.9963,-27.4358,7.12502,15.024,-56.8707,1.23246e-14,1.66979e-14,-10.8278,-16.8865,64.3966,84.5313,29.175,-5.96921,25.9292,7.12502,19.862,54.9343,-37.6576,20.5899,1.3378,40.0986,-15.7324,11.7737,-37.5801,-28.377,-28.2622,-8.09602,47.3181,-19.4565,-16.1485,-15.6792
-3.29098,17.3423,-1.14775,-273.804,-88.2735,-436.369,18.9923,-1.59979,4.88047,1.3562,-0.912559,3.44233,-9.20877,-0.628988,1.22957,3.35283,-14.4867,-9.86457,-6.71075,-19.3014,18.7059,0.34406,-10.0295,6.84355,1.66979e-14,-1.43125e-14,21.7217,30.9558,-33.4867,82.641,-20.4954,-9.73787,-29.2624,7.12502,16.2361,-58.6025,1.66979e-14,-1.43125e-14,-10.2173,-15.8384,63.1609,84.7175,29.615,-6.22563,29.3636,7.12502,19.6154,58.3941,-40.0889,18.0654,-0.161743,38.2041,-13.7931,12.854,-39.249,-30.5466,-26.1817,-9.376,46.7777,-18.3855,-14.049,-15.8607
-3.25928,17.4775,-0.824217,-195.897,-83.5582,-515.991,20.4095,-1.1548,4.63289,2.05177,-0.376482,3.40537,-9.20502,-0.383864,1.20505,3.82432,-14.6399,-10.3542,-6.69455,-19.5924,19.6576,0.470054,-10.2186,7.19235,-3.18055e-15,-8.74653e-15,21.313,29.6977,-33.694,82.2612,-19.9267,-9.83693,-28.8596,7.12502,16.1407,-58.2075,-3.18055e-15,-8.74653e-15,-9.3858,-14.9832,61.6826,84.4994,29.818,-9.23587,24.6596,7.12502,16.7194,53.9596,-39.2185,19.0513,1.93421,37.2884,-8.83674,13.1454,-23.9345,-26.7861,-22.0359,-11.5836,46.2191,-18.4679,-12.5384,-11.4017
-3.15789,17.5405,-0.543206,-188.106,-79.2091,-523.617,20.2062,-1.16047,4.17372,2.09453,-0.515266,3.3817,-9.04471,-0.435454,1.47223,3.79246,-14.9122,-10.4974,-6.02001,-20.0782,19.9962,0.795182,-10.4458,7.22739,-7.95139e-15,1.35174e-14,20.6297,28.2011,-34.2038,81.5527,-19.2762,-10.7713,-28.1797,7.12502,15.2408,-57.5982,-7.95139e-15,1.35174e-14,-8.15768,-14.2786,59.9462,83.7821,29.7151,-9.4633,28.6584,7.12502,16.5004,57.9768,-39.4463,16.6981,4.38549,37.8705,-10.1227,9.29531,-33.3241,-26.597,-18.2466,-12.5091,45.9905,-17.7169,-12.165,-7.77716
-3.07432,17.5393,-0.281466,-184.714,-74.7303,-527.05,19.9926,-1.14864,3.73275,2.08753,-0.622843,3.31442,-8.93258,-0.473514,1.67311,3.85484,-15.1439,-10.5835,-5.01533,-20.5503,19.9343,1.14669,-10.6443,7.13476,-9.34288e-15,-1.66979e-14,19.6046,26.9159,-34.7884,81.1284,-18.7033,-12.4907,-27.7367,7.12502,13.5841,-57.2735,-9.34288e-15,-1.66979e-14,-7.13366,-13.6444,58.286,82.7861,29.4837,-7.83439,29.1112,7.12502,18.0682,58.2919,-39.5968,14.1763,7.15388,39.6466,-10.7305,6.24474,-29.7933,-25.5531,-13.5198,-13.8402,45.4146,-18.5194,-10.3865,-18.4957
-2.99308,17.5702,-0.0274996,-184.028,-69.9734,-527.734,19.8264,-1.08335,3.72978,1.97391,-0.543824,3.3989,-8.96624,-0.438815,1.74507,4.02349,-15.2992,-10.8512,-3.91423,-20.9378,19.6136,1.48534,-10.7917,7.0058,3.91606e-14,-2.38542e-14,18.2973,25.8,-35.3362,81.0257,-18.4422,-12.905,-27.7482,7.12502,13.1848,-57.3113,3.91606e-14,-2.38542e-14,-6.60496,-12.9734,56.9712,81.8587,29.3062,-8.91357,27.8024,7.12502,17.0296,57.076,-39.2047,11.3744,10.9304,42.7504,-11.2771,0.898505,-29.5707,-25.0478,-9.14538,-14.2955,45.0541,-18.2251,-9.95771,-17.2978
-2.97259,17.6202,0.226121,-181.091,-66.6681,-531.426,19.5065,-1.477,3.07887,1.89962,-1.23236,3.12027,-8.864,-0.743325,1.98762,4.4213,-15.3959,-11.2375,-2.96172,-21.2236,18.9463,1.70076,-10.8968,6.83263,4.37326e-15,-3.10104e-14,16.6722,24.7604,-35.7327,81.1048,-18.1007,-12.7611,-28.0325,7.12502,13.3235,-57.5866,4.37326e-15,-3.10104e-14,-6.8054,-12.2543,56.0687,81.3115,29.239,-9.60357,27.8649,7.12502,16.3654,57.1945,-37.7866,7.59303,12.6934,46.5738,-12.2056,-3.94378,-20.9787,-23.8772,-6.52009,-16.4787,44.4424,-18.2646,-9.00517,-16.2623
-2.93614,17.6387,0.466535,-180.151,-62.9392,-532.727,19.3131,-1.90578,2.83783,1.50516,-1.82217,3.21906,-9.17653,-1.00872,2.39767,5.46081,-15.1908,-12.066,-2.49276,-21.1063,18.2895,1.66142,-10.8449,6.83924,-2.84262e-14,2.98177e-14,15.2579,24.1754,-35.7555,81.3087,-17.3643,-12.8788,-28.4011,7.12502,13.21,-57.9625,-2.84262e-14,2.98177e-14,-8.274,-11.0844,55.6241,81.4312,29.2191,-9.91659,28.1851,7.12502,16.064,57.5393,-36.8807,4.64469,14.6958,50.6443,-12.4692,-8.41729,-18.2952,-23.2694,-3.95558,-17.6498,43.9599,-18.7138,-7.49066,-18.3939
-2.90502,17.6348,0.694603,-179.058,-58.9725,-534.196,19.0149,-1.8518,2.6653,1.56493,-1.82762,3.00299,-8.94757,-1.0109,2.24486,5.15741,-15.5677,-11.3229,-2.64807,-21.4975,17.5272,1.55304,-11.0198,6.47484,-7.53394e-14,-1.90833e-14,13.2829,22.0023,-35.7968,81.7176,-16.8841,-13.2324,-28.7748,7.12502,12.8692,-58.3581,-7.53394e-14,-1.90833e-14,-8.33231,-10.232,55.2156,81.8205,29.2383,-10.2142,28.1524,7.12502,15.7774,57.5294,-35.9616,2.58189,15.8011,54.7536,-12.2871,-11.3823,-16.9506,-22.6664,-1.82486,-18.9687,43.3907,-19.4858,-5.3816,-22.259
-2.88989,17.6213,0.910204,-177.716,-54.8992,-536.276,18.7851,-1.87147,1.97495,1.59434,-2.03246,2.7057,-8.77248,-1.08754,2.35433,4.96679,-15.6906,-11.0134,-2.70778,-21.6012,16.9009,1.47295,-11.0539,6.23965,3.01159e-14,3.06128e-14,11.8799,20.0382,-35.5839,81.651,-16.2244,-12.4494,-27.7447,7.12502,13.6239,-57.2789,3.01159e-14,3.06128e-14,-9.25786,-8.98437,54.8985,82.639,29.2634,-10.3731,28.0019,7.12502,15.6243,57.3909,-34.6365,1.06037,15.718,58.7044,-12.6,-12.1912,-15.451,-21.8716,-0.156122,-20.815,42.9533,-20.5962,-2.66982,-26.8217
-2.87833,17.5923,1.10699,-176.742,-50.6109,-538.104,18.649,-1.89176,1.12889,1.50241,-2.25208,2.43863,-8.77207,-1.16184,2.59758,5.49381,-15.5025,-11.2842,-3.08687,-21.3647,16.8311,1.26583,-10.9622,6.34209,-2.22639e-14,-2.18663e-14,10.8074,18.4512,-35.2543,81.2912,-15.9907,-12.7775,-28.4276,7.12502,13.3077,-57.9827,-2.22639e-14,-2.18663e-14,-10.727,-7.73462,54.5327,83.6024,29.31,-10.2846,27.5277,7.12502,15.7096,56.91,-33.0919,-0.0160116,15.1243,62.306,-13.3191,-11.2123,-15.7435,-21.1648,1.50925,-22.6546,42.6525,-21.8724,0.308481,-30.8947
-2.87191,17.5503,1.28744,-175.855,-46.1631,-539.617,18.2733,-1.93148,0.277631,1.25868,-2.48409,2.20819,-8.79885,-1.23534,2.87966,6.14072,-15.1988,-11.6562,-3.4557,-21.0011,16.8489,1.04513,-10.8114,6.50263,-2.85256e-14,-3.97569e-15,9.82813,16.9809,-34.9731,80.7529,-16.0199,-13.2379,-27.7389,7.12502,12.8639,-57.3225,-2.85256e-14,-3.97569e-15,-12.4486,-6.53586,54.1498,84.4857,29.2437,-10.0817,26.6788,7.12502,15.9049,56.0456,-31.6501,-0.88296,14.2022,65.3846,-13.2621,-10.356,-20.1529,-20.9368,3.29497,-24.4041,42.5554,-23.2056,2.57438,-29.7022
-2.88139,17.5,1.46128,-175.479,-41.6555,-540.427,17.8146,-2.00026,0.131164,0.996181,-2.60893,1.99182,-8.83047,-1.28484,2.74523,6.06079,-15.0668,-11.6604,-3.32576,-20.8287,16.4275,1.02345,-10.7088,6.38761,-3.18055e-15,-4.49253e-14,8.67934,15.354,-34.7403,80.4431,-15.8933,-12.5,-28.8218,7.12502,13.5751,-58.3592,-3.18055e-15,-4.49253e-14,-14.1442,-5.57634,53.8294,85.3126,29.0095,-10.222,26.1073,7.12502,15.7699,55.4849,-29.9827,-1.63069,13.2874,67.84,-13.9943,-8.8896,-12.0772,-20.9888,5.19663,-25.7278,42.7806,-24.5987,4.40582,-25.4372
-2.90257,17.4558,1.62353,-175.683,-36.9185,-540.461,17.387,-1.97356,0.80777,0.832558,-2.45479,1.77596,-8.81582,-1.2395,2.07481,6.20099,-15.0589,-11.3517,-3.44587,-20.8004,16.1201,0.894925,-10.6989,6.2861,2.74323e-14,-3.37934e-14,7.24182,13.2387,-34.7599,79.9788,-16.025,-12.9807,-28.4832,7.12502,13.1118,-58.051,2.74323e-14,-3.37934e-14,-15.611,-4.90752,53.4948,86.1036,28.7413,-10.5565,26.1592,7.12502,15.4477,55.5619,-28.5964,-2.50205,12.9633,69.6185,-13.2298,-9.39194,-14.6075,-21.1262,7.43865,-26.4018,43.2135,-26.113,6.27173,-22.7838
-2.91829,17.4101,1.76224,-175.749,-32.0146,-540.375,16.7854,-1.88152,1.43207,0.683558,-2.22784,1.63056,-8.67817,-1.15728,1.48743,5.82097,-15.0833,-11.2565,-3.23997,-20.8332,15.9813,0.994085,-10.6971,6.18888,-4.99943e-14,1.94809e-14,5.866,11.0287,-34.8918,79.6219,-16.2834,-13.2693,-28.4177,7.12502,12.8336,-58.0032,-4.99943e-14,1.94809e-14,-17.1302,-4.19109,53.1747,86.8119,28.6019,-10.8324,26.3618,7.12502,15.1819,55.7848,-27.4496,-3.29166,12.5779,70.8144,-12.5264,-10.7127,-11.9798,-21.6223,9.84699,-26.9016,43.7748,-27.7182,7.81243,-20.3593
-2.93621,17.3731,1.8809,-175.604,-27.1994,-540.602,16.2652,-1.7683,1.64111,0.490323,-2.04286,1.58992,-8.60849,-1.07481,1.2662,5.5445,-15.0424,-11.3426,-3.10077,-20.7829,15.8009,1.06017,-10.6541,6.12189,6.37105e-14,-1.90833e-14,4.61514,8.67222,-34.7543,78.958,-16.1724,-12.9003,-27.9822,7.12502,13.1893,-57.545,6.37105e-14,-1.90833e-14,-18.7089,-3.64938,53.0875,87.2516,28.6994,-11.4737,26.4268,7.12502,14.5641,55.8955,-26.4205,-4.63896,11.7493,71.3748,-11.7451,-12.7286,-9.79134,-22.1898,12.1488,-27.683,44.3049,-29.1375,9.16561,-17.9361
-2.96076,17.3381,1.99082,-175.597,-22.416,-540.797,16.0625,-1.71667,1.93062,0.296792,-1.91641,1.6242,-8.71488,-1.02412,1.10794,5.33067,-14.892,-11.3864,-3.11421,-20.5567,15.4699,1.02721,-10.5243,6.03572,3.63776e-14,-1.03368e-14,3.59669,6.58188,-34.4379,78.3226,-16.5989,-13.0516,-28.6391,7.12502,13.0435,-58.2113,3.63776e-14,-1.03368e-14,-20.5784,-3.01319,53.1652,87.6792,28.9108,-11.6566,26.4408,7.12502,14.3879,55.9221,-25.4302,-6.24898,10.7674,71.2831,-10.7293,-15.2412,-7.60119,-22.6701,14.3567,-28.4157,44.7737,-30.4384,10.4036,-13.6902
-2.98372,17.3056,2.08992,-175.703,-17.5897,-540.897,16.0708,-1.59235,2.42222,0.133171,-1.6535,1.6921,-8.91079,-0.91928,0.84691,5.32962,-14.7426,-11.6342,-3.40224,-20.3354,15.3243,0.922522,-10.4099,6.05722,-5.04913e-14,-1.03368e-14,2.52599,4.75309,-33.7148,77.9541,-17.7684,-13.4241,-29.5289,7.12502,12.6844,-59.1237,-5.04913e-14,-1.03368e-14,-22.6214,-2.10124,53.6546,88.2875,28.8238,-10.4358,26.3688,7.12502,15.5639,55.7625,-24.6076,-7.84309,9.80392,70.5062,-10.1056,-17.0439,-6.49675,-23.1327,16.3652,-28.9724,45.1963,-31.5522,11.4947,-10.2923
-2.99451,17.2809,2.17381,-175.697,-12.7993,-541.246,16.0215,-1.24129,2.70165,0.0386877,-1.13355,1.77719,-8.98641,-0.683507,0.65947,5.48839,-14.7132,-12.2833,-3.90527,-20.2943,15.4149,0.819831,-10.3912,6.20337,3.97569e-16,-3.26007e-14,1.29921,2.10767,-33.1416,76.8303,-17.3462,-14.5044,-30.4266,7.12502,11.6427,-60.0831,3.97569e-16,-3.26007e-14,-24.1703,-1.51236,54.6973,88.7397,28.6333,-9.3539,26.2903,7.12502,16.6057,55.5998,-24.0956,-9.60498,8.6525,69.1131,-9.74464,-17.9389,-8.25366,-23.774,18.0792,-29.7301,45.6822,-31.9675,12.9885,-9.80062
-2.99441,17.2601,2.24474,-175.71,-8.04949,-541.418,15.9755,-1.40591,2.73238,0.122685,-1.36442,1.79071,-8.87127,-0.800573,0.708459,4.97843,-14.3264,-11.9315,-4.27697,-19.6674,15.254,0.655989,-10.0702,6.13806,3.97569e-15,7.95139e-15,1.43475,0.12624,-33.7276,75.723,-17.2214,-15.0722,-30.907,7.12502,11.0951,-60.5937,3.97569e-15,7.95139e-15,-26.1835,-0.00754828,54.5107,89.1833,28.7342,-9.0734,26.1676,7.12502,16.8758,55.4544,-23.8448,-11.5055,7.88767,67.1731,-9.14248,-19.4459,-8.25593,-24.5523,19.4758,-30.2381,46.2581,-32.0181,14.4072,-7.72597
-2.99142,17.229,2.3078,-175.916,-3.26002,-541.093,16.1288,-1.38599,3.44968,0.247948,-1.22507,1.88345,-8.83242,-0.774609,0.373413,4.31097,-13.9427,-10.4582,-4.44703,-18.7893,13.8365,0.315294,-9.54553,5.56818,2.62396e-14,2.54444e-14,0.962889,-2.02506,-34.0141,74.7908,-17.2621,-15.6705,-30.6759,7.12502,10.518,-60.3928,2.62396e-14,2.54444e-14,-27.7002,0.874383,54.6588,89.4758,28.9503,-8.957,26.0136,7.12502,16.9878,55.2908,-23.7326,-13.7524,7.76859,64.8849,-9.11215,-20.5386,-8.98919,-25.2166,20.6535,-30.055,47.0251,-32.8824,14.9788,-1.14489
-2.98223,17.2192,2.36062,-176.062,1.58006,-540.565,16.4458,-1.61242,4.24729,0.325495,-0.917801,2.0187,-8.94393,-0.478499,-0.0254737,3.53172,-13.1952,-9.39245,-4.07802,-17.7091,12.5806,0.203672,-8.97061,5.06574,1.39149e-15,-3.4191e-14,0.385374,-3.92962,-34.3138,73.7995,-16.552,-13.9462,-29.832,7.12502,12.181,-59.4573,1.39149e-15,-3.4191e-14,-29.1293,1.33423,54.7781,89.6995,29.6919,-9.21895,25.9724,7.12502,16.7357,55.2711,-23.8056,-14.6699,8.28463,62.309,-8.68493,-22.4303,-11.4054,-25.8958,21.9565,-29.5558,47.9175,-34.029,16.2833,3.75385
-2.95685,17.2018,2.40582,-175.945,6.46161,-539.984,16.7371,-1.67028,4.98084,0.307298,-0.806957,2.18905,-9.13619,-0.451321,-0.275948,2.58535,-12.1428,-8.20068,-3.39125,-16.2431,11.0978,0.171646,-8.19823,4.46465,1.07344e-14,2.06736e-14,0.0672441,-4.85824,-34.9077,73.1273,-17.3862,-14.6191,-29.8474,7.12502,11.5321,-59.5102,1.07344e-14,2.06736e-14,-30.7148,1.94072,54.7297,89.8386,30.4765,-9.25208,26.0558,7.12502,16.7038,55.3571,-24.3238,-15.6913,9.0558,59.7584,-7.17093,-23.3109,-18.4866,-26.8758,23.5628,-28.9796,48.9877,-34.5202,18.7565,4.51287
-2.9159,17.1768,2.44749,-175.619,11.4023,-539.64,16.95,-1.59865,5.36818,0.257162,-0.604768,2.32644,-9.30756,-0.371667,-0.390063,2.7803,-11.8449,-10.1738,-3.83773,-15.8734,13.1599,0.309671,-8.02546,5.37101,1.15295e-14,-2.62396e-14,-0.302994,-5.58557,-35.3819,72.2942,-17.5958,-14.6281,-29.5615,7.12502,11.5234,-59.2248,1.15295e-14,-2.62396e-14,-31.9361,2.62755,54.9754,89.747,30.6792,-8.75434,26.1865,7.12502,17.1829,55.4468,-25.0794,-15.1336,9.7921,57.3942,-7.2765,-23.1933,-25.0289,-28.036,25.4086,-28.6278,50.1534,-35.0515,20.5871,6.25952
-2.85877,17.1488,2.48332,-175.199,16.2946,-539.626,16.9972,-1.40936,5.40054,0.217805,-0.360294,2.29848,-9.36566,-0.265317,-0.497085,1.92942,-11.0159,-10.191,-3.15367,-14.7458,12.7832,0.487553,-7.42547,5.24394,-1.8487e-14,3.57812e-14,-0.840788,-6.2346,-36.0399,71.3651,-17.1873,-13.8046,-28.9113,7.12502,12.3175,-58.5285,-1.8487e-14,3.57812e-14,-32.7296,2.94268,55.1649,89.6743,31.0722,-8.7466,26.1311,7.12502,17.1904,55.3907,-25.9755,-14.8797,10.2272,55.4715,-8.57785,-21.1683,-32.2328,-29.3072,27.4292,-28.6027,51.428,-35.862,21.6098,8.99258
-2.79238,17.1123,2.50973,-174.738,20.9413,-539.694,16.9274,-1.31584,5.40341,0.112328,-0.282783,2.10708,-9.43835,-0.248274,-0.723198,1.27593,-10.1569,-9.66363,-2.52043,-13.5701,12.2008,0.565202,-6.81228,4.99731,-3.35946e-14,-5.56597e-14,-1.57939,-6.72037,-37.2099,70.4044,-16.0555,-13.446,-28.7613,7.12502,12.6633,-58.3575,-3.35946e-14,-5.56597e-14,-33.4941,2.89891,54.9692,89.7735,31.4759,-9.03264,25.9987,7.12502,16.915,55.2821,-26.8157,-13.5479,10.619,53.9836,-10.1585,-19.7897,-38.1517,-30.5841,29.4976,-28.6477,52.7779,-36.2818,22.5266,10.3006
-2.72227,17.0656,2.53107,-174.388,25.2935,-540.073,16.7292,-1.27023,5.09966,-0.0110282,-0.348414,1.85281,-9.46246,-0.288373,-0.809895,0.845407,-9.19103,-9.07298,-2.29786,-12.2415,11.5796,0.477485,-6.13423,4.7583,6.95746e-15,-3.33958e-14,-2.44892,-7.22508,-38.5525,69.3943,-14.8387,-12.382,-28.398,7.12502,13.6888,-57.9278,6.95746e-15,-3.33958e-14,-34.058,2.94529,54.8555,89.7866,31.2344,-8.89552,25.8873,7.12502,17.047,55.1594,-27.7459,-12.4303,10.572,52.826,-12.0651,-17.9672,-40.58,-31.749,31.1814,-28.9325,54.1539,-36.4961,23.3026,11.241
-2.65562,17.0198,2.54988,-174.443,29.2686,-540.916,16.504,-1.26367,4.37842,-0.0313423,-0.546759,1.58208,-9.35882,-0.366621,-0.648167,0.606555,-8.17086,-8.56679,-2.35167,-10.8442,10.8752,0.286614,-5.43034,4.51822,-1.19271e-14,7.95139e-16,-3.2509,-7.78951,-39.7626,68.1693,-14.4728,-10.5636,-27.8791,7.12502,15.4409,-57.2824,-1.19271e-14,7.95139e-16,-34.146,3.16045,55.003,89.6221,30.7756,-8.5915,25.7809,7.12502,17.3396,55.0274,-28.6747,-11.6807,10.0793,51.9547,-13.9439,-16.0335,-40.6172,-32.4905,31.9597,-29.3465,55.6289,-36.7937,24.0578,12.6776
-2.60869,16.9904,2.55729,-175.213,32.8134,-541.944,16.6795,-1.46667,3.5993,0.106658,-0.994801,1.32638,-9.31359,-0.553117,-0.373332,0.233759,-7.34929,-8.36881,-2.21798,-9.72341,10.4821,0.246489,-4.85929,4.38869,2.5842e-14,-2.8625e-14,-3.8356,-7.89027,-40.99,66.7416,-15.0834,-10.3958,-27.9538,7.12502,15.6025,-57.3445,2.5842e-14,-2.8625e-14,-34.2039,3.62089,55.2166,89.5599,30.5571,-8.42791,25.7563,7.12502,17.4971,54.9889,-29.1404,-11.533,9.38756,51.2689,-15.4193,-13.8274,-39.4178,-32.1131,31.6245,-29.1904,57.2721,-38.6935,23.183,18.093
-2.57893,16.9604,2.55883,-176.056,36.0722,-542.098,17.2834,-1.81521,3.50712,0.383539,-1.43497,1.32217,-9.36234,-0.749005,-0.208803,0.373942,-6.33052,-7.78539,-2.50147,-8.35433,9.43392,-0.0703822,-4.17766,4.45361,1.06946e-13,-4.6118e-14,-4.47398,-7.6938,-42.257,65.2099,-15.9775,-8.84834,-27.8838,7.12502,17.0924,-57.152,1.06946e-13,-4.6118e-14,-34.1554,4.25924,55.7273,89.5367,30.4564,-8.48354,25.751,7.12502,17.4435,54.9883,-29.183,-10.4154,9.33671,50.8368,-16.0846,-12.0348,-38.4377,-30.7383,30.2959,-27.567,59.0712,-37.5947,24.3639,14.002
-2.54533,16.9388,2.56439,-175.786,39.1449,-540.237,18.0401,-2.17736,4.85733,0.677211,-1.52366,1.70856,-9.49722,-0.820421,-0.518318,0.735091,-5.35365,-7.17224,-2.90788,-7.03935,8.85268,-0.439169,-3.5292,4.18088,-2.88238e-14,1.82882e-14,-5.67543,-7.89291,-43.4777,63.6874,-16.4365,-7.29001,-27.8659,7.12502,18.5919,-56.9974,-2.88238e-14,1.82882e-14,-33.5155,4.56207,56.6434,89.3506,30.3076,-8.73419,25.7028,7.12502,17.2023,54.9614,-29.0851,-8.92875,11.0848,50.4923,-16.207,-10.3826,-38.4508,-29.0816,28.4727,-23.9704,61.04,-36.3851,23.7628,11.853
-2.55107,16.9382,2.53315,-176.37,41.8588,-540.228,18.5364,-2.57941,5.41822,0.819877,-1.91615,1.52999,-9.66282,-1.03203,-0.913731,0.564167,-4.45237,-6.02263,-2.28566,-5.86535,7.44398,-0.393476,-2.93939,3.46582,1.11319e-14,-4.13472e-14,-7.14363,-8.37092,-44.8571,62.174,-16.25,-5.63943,-28.2754,7.12502,20.1789,-57.2473,1.11319e-14,-4.13472e-14,-32.7285,4.7215,57.6455,89.1849,30.1291,-9.03596,25.578,7.12502,16.9118,54.8616,-29.0822,-8.58048,11.0729,50.178,-16.3428,-8.13749,-38.785,-27.4072,25.8556,-22.4119,62.8093,-34.2799,23.0324,10.0883
-2.54208,16.9661,2.49188,-176.954,44.5724,-540.355,18.6217,-2.97957,5.34572,0.977794,-2.46561,1.43773,-9.56855,-1.2866,-0.825956,0.99498,-3.55872,-5.70051,-2.1501,-4.69334,7.16835,-0.527092,-2.3615,3.32837,-2.28602e-14,-9.54166e-15,-8.44716,-8.38777,-46.4288,60.6818,-15.9344,-5.5718,-28.2937,7.12502,20.2439,-57.2587,-2.28602e-14,-9.54166e-15,-32.0921,5.12071,58.5762,89.039,30.3994,-9.81409,25.5266,7.12502,16.1627,54.8727,-28.905,-7.93266,11.0258,49.5696,-16.2083,-6.16377,-38.8016,-25.714,23.0448,-21.109,64.4053,-31.6753,21.6631,9.72246
-2.54365,16.9991,2.44769,-176.947,47.7215,-539.808,18.3224,-3.26272,5.19206,1.39804,-2.86425,1.66281,-8.94187,-1.44165,-0.416728,1.11502,-2.49961,-5.37068,-2.03901,-3.28626,6.76389,-0.623729,-1.65921,3.13089,-2.60408e-14,-3.18055e-15,-9.17978,-8.16348,-47.9355,59.1768,-15.9411,-5.77485,-28.4342,7.12502,20.0488,-57.4199,-2.60408e-14,-3.18055e-15,-30.9936,6.0895,59.6934,88.6493,30.6509,-10.0343,25.2482,7.12502,15.9506,54.6114,-28.8423,-6.4001,11.5015,48.756,-15.6643,-4.63173,-39.3563,-24.1606,20.5408,-19.6066,65.6561,-28.7795,19.7047,9.39324
-2.52937,17.038,2.40421,-175.868,50.9555,-537.797,18.3951,-3.34305,6.02095,1.61535,-2.74903,1.97642,-8.76386,-1.39481,-0.578275,1.23271,-1.33431,-4.12899,-1.42116,-1.75809,5.443,-0.567169,-0.894516,2.44363,5.74488e-14,4.05521e-14,-11.0065,-8.423,-49.1522,57.8297,-16.4739,-5.85978,-28.9443,7.12502,19.9671,-57.9384,5.74488e-14,4.05521e-14,-29.4864,6.41039,60.8199,87.792,29.4934,-9.10864,25.1273,7.12502,16.8419,54.4169,-28.3713,-3.96008,12.9957,47.6027,-15.0878,-4.13232,-41.1469,-22.4963,18.4918,-17.1718,66.6701,-25.9072,16.9749,6.24074
-2.54671,17.0924,2.31927,-177.52,54.0755,-539.783,18.1303,-3.25803,4.99085,1.5776,-2.9488,1.48084,-8.64112,-1.47819,-0.4934,1.04588,-0.54887,-3.9128,-0.332368,-0.734361,5.42851,-0.246611,-0.375353,2.38548,3.18055e-15,-3.18055e-15,-13.1666,-8.8328,-50.3401,56.5278,-17.5468,-6.21387,-29.1206,7.12502,19.6268,-58.1499,3.18055e-15,-3.18055e-15,-28.3246,5.43497,61.8303,87.3771,30.2557,-9.73605,25.6994,7.12502,16.2378,55.0395,-28.2954,-2.35244,11.4392,46.4295,-15.236,-2.65948,-41.0948,-21.0691,15.977,-18.2544,67.1725,-24.2916,13.9845,1.72659
-2.56766,17.1533,2.23258,-178.912,57.3436,-541.118,17.9509,-3.13383,4.29731,1.60937,-2.99094,1.116,-8.49143,-1.48802,-0.495022,1.34523,0.20716,-3.65211,0.273178,0.256857,5.54949,-0.158067,0.121495,2.37216,-4.16454e-14,7.15625e-15,-15.4374,-9.40789,-51.4167,55.2779,-18.3563,-6.26319,-29.6159,7.12502,19.5793,-58.65,-4.16454e-14,7.15625e-15,-27.07,4.6178,62.5593,86.727,29.8902,-9.08483,25.1337,7.12502,16.8648,54.4214,-28.1277,-0.138956,10.358,45.1372,-15.4725,-0.734586,-37.6893,-19.5173,13.782,-18.9068,67.4194,-22.9062,10.6073,-2.27321
-2.59389,17.175,2.14866,-180.539,60.7586,-542.517,17.8236,-2.8782,3.64915,1.7151,-2.83625,0.760752,-8.28382,-1.40064,-0.560478,1.69413,0.962518,-2.4713,0.978854,1.2535,4.40523,-0.028833,0.62417,1.77771,3.80673e-14,-2.62396e-14,-17.8669,-10.3463,-52.1811,54.0074,-18.0961,-7.34765,-29.6457,7.12502,18.5364,-58.7825,3.80673e-14,-2.62396e-14,-25.7277,3.57034,63.2833,86.3434,29.5381,-10.3756,25.823,7.12502,15.622,55.2122,-27.6072,1.79963,9.66014,43.8539,-15.5534,-0.821324,-42.5562,-18.0548,11.9346,-19.6048,67.5301,-21.1208,7.83399,-8.64375
-2.62058,17.2377,2.05509,-182.289,64.2138,-543.94,17.6652,-2.58787,3.07446,1.84864,-2.61166,0.439371,-8.0302,-1.2798,-0.647446,1.35946,1.48145,-1.74511,2.09716,1.93692,3.94703,0.359767,0.983295,1.50786,6.09275e-14,-1.11319e-14,-20.3571,-11.4005,-52.7534,52.6846,-17.1446,-8.86491,-29.5164,7.12502,17.0765,-58.7859,6.09275e-14,-1.11319e-14,-24.371,2.57979,63.8524,86.005,29.0987,-10.2989,26.269,7.12502,15.6958,55.6524,-27.3252,4.22573,8.9313,42.4111,-14.8421,0.648664,-41.8917,-16.5179,10.2262,-20.2354,67.3827,-19.4357,4.66277,-12.7783
