JuanDHNZ/ProyectoFinalCD/preprocessing/sports_trials_csv/93_04.csv
root1,root2,root3,root4,root5,root6,lowerback1,lowerback2,lowerback3,upperback1,upperback2,upperback3,thorax1,thorax2,thorax3,lowerneck1,lowerneck2,lowerneck3,upperneck1,upperneck2,upperneck3,head1,head2,head3,rclavicle1,rclavicle2,rhumerus1,rhumerus2,rhumerus3,rradius1,rwrist1,rhand1,rhand2,rfingers1,rthumb1,rthumb2,lclavicle1,lclavicle2,lhumerus1,lhumerus2,lhumerus3,lradius1,lwrist1,lhand1,lhand2,lfingers1,lthumb1,lthumb2,rfemur1,rfemur2,rfemur3,rtibia1,rfoot1,rfoot2,rtoes1,lfemur1,lfemur2,lfemur3,ltibia1,lfoot1,lfoot2,ltoes1
-1.11547,18.0116,-1.1819,23.2783,-81.4298,-19.3678,7.8681,2.36483,6.42455,1.15867,3.66162,0.356138,-2.82333,1.7437,-3.59242,3.01712,-3.98587,-1.06759,9.55415,-5.54127,0.604395,2.5523,-2.83725,0.294122,-1.03865e-14,7.95139e-15,-27.4565,13.5531,-82.0798,75.7099,19.4366,-30.3774,-30.8584,7.12502,-3.68193,-60.8063,-1.03865e-14,7.95139e-15,-48.6139,18.7409,18.2753,150.809,1.22377,5.434,-3.33509,7.12502,30.7838,24.1074,-13.5216,-6.19966,24.8224,28.3927,-18.4077,-2.8583,-15.7065,-15.1431,-6.88022,-21.5532,32.9528,-16.4779,-7.4423,-19.3791
-1.05,17.9822,-1.15878,23.9037,-81.2305,-19.9015,8.23999,2.21213,6.62611,1.33911,3.49662,0.613213,-2.86396,1.65898,-3.4371,2.97706,-3.9284,-1.24027,9.25636,-5.4365,0.366762,2.45625,-2.79315,0.252654,-1.48592e-14,-9.93923e-15,-26.7206,14.0325,-81.4942,76.1258,18.9267,-30.229,-30.6875,7.12502,-3.53861,-60.6378,-1.48592e-14,-9.93923e-15,-49.0037,19.2507,18.2433,150.916,1.32111,5.34637,-3.19578,7.12502,30.7003,24.2624,-14.4889,-5.81129,24.906,29.6378,-18.5861,-3.29471,-15.5453,-16.1205,-7.7238,-21.4451,34.5257,-17.5065,-8.30444,-21.6418
-0.973819,17.9452,-1.13372,24.3189,-81.1175,-20.2965,8.83805,2.02524,6.78241,1.51798,3.30028,0.850059,-3.03587,1.55365,-3.28394,2.9754,-3.80681,-1.45054,8.93619,-5.25504,0.214625,2.34974,-2.70971,0.24653,-2.78299e-14,-1.94809e-14,-25.8126,14.6217,-80.9264,76.395,18.3191,-30.098,-30.6945,7.12502,-3.41209,-60.6469,-2.78299e-14,-1.94809e-14,-49.5542,19.758,17.9053,151.114,1.54648,5.16771,-2.9667,7.12502,30.5299,24.5233,-15.6156,-5.40079,24.9131,31.2898,-18.8616,-3.77497,-15.7615,-17.3443,-8.3727,-21.4306,36.6172,-17.5705,-9.71003,-21.7777
-0.884406,17.8982,-1.10305,25.0531,-81.1687,-21.1006,9.65063,1.95077,7.0295,1.74468,3.2752,1.01065,-3.24782,1.53057,-3.28431,3.07521,-3.78098,-1.53285,8.39201,-5.20535,0.16794,2.15314,-2.68251,0.255405,4.14466e-14,-3.57812e-15,-24.8012,14.9065,-80.3095,76.5395,17.5508,-30.2027,-30.7663,7.12502,-3.51316,-60.7171,4.14466e-14,-3.57812e-15,-49.7695,20.2131,17.5896,151.327,1.86791,4.73525,-2.52642,7.12502,30.1174,25.0395,-16.7532,-4.93186,24.8667,33.053,-19.1172,-4.16359,-16.3437,-18.5334,-8.64263,-21.5176,38.6577,-16.5692,-11.0365,-20.5164
-0.785927,17.835,-1.06485,28.1454,-81.4285,-24.4406,10.6854,1.99036,7.61059,2.06009,3.45153,1.192,-3.44657,1.60303,-3.47971,3.11189,-3.83511,-1.47814,7.81635,-5.2548,0.0377487,1.95343,-2.70115,0.213595,-6.45056e-14,2.3059e-14,-23.7057,14.9583,-79.6525,76.5577,16.7241,-30.4104,-30.7,7.12502,-3.71383,-60.6474,-6.45056e-14,2.3059e-14,-49.804,20.6747,17.1586,151.572,2.39937,4.17468,-1.97921,7.12502,29.5825,25.6829,-17.9398,-4.25743,25.0425,35.1541,-19.4782,-4.25517,-16.2269,-19.5713,-8.34907,-21.43,40.7403,-15.5002,-11.5346,-19.4677
-0.682099,17.7469,-1.02732,33.0758,-81.8247,-29.746,11.8977,2.07047,8.22293,2.40773,3.70898,1.42022,-3.69398,1.71076,-3.66463,3.03104,-3.84588,-1.41066,7.38227,-5.24643,-0.13208,1.81938,-2.69249,0.154001,7.43455e-14,3.22031e-14,-22.6037,14.9403,-79.0837,76.4151,15.8175,-30.4769,-30.9386,7.12502,-3.77796,-60.8848,7.43455e-14,3.22031e-14,-49.9418,21.2223,16.1853,151.881,3.42035,3.59364,-1.24807,7.12502,29.0277,26.5109,-19.2389,-3.42107,25.3506,37.6337,-19.6711,-4.07193,-15.7781,-20.5176,-7.76471,-21.1931,42.7161,-14.9517,-10.7316,-16.5859
-0.579831,17.6462,-0.991444,38.4956,-82.2612,-35.6043,13.1412,2.15919,8.68402,2.78331,3.969,1.62051,-3.92825,1.82018,-3.80071,2.99697,-3.79362,-1.44821,6.88816,-5.16679,-0.116804,1.66713,-2.64732,0.171296,-5.68524e-14,-2.14687e-14,-21.5547,14.7989,-78.6765,76.1376,14.8013,-30.5569,-31.2793,7.12502,-3.85526,-61.2241,-5.68524e-14,-2.14687e-14,-50.0404,21.8777,14.6578,152.133,4.81546,3.02999,-0.329135,7.12502,28.4892,27.5213,-20.6814,-2.74093,25.5978,40.4952,-19.7188,-3.68316,-16.6235,-21.4388,-7.06217,-20.9856,44.491,-15.1459,-9.1659,-14.6668
-0.482695,17.5341,-0.955532,45.6727,-82.809,-43.2075,14.3271,2.32188,9.08622,3.1587,4.31751,1.76353,-4.11088,1.9746,-3.97967,3.05721,-3.75391,-1.47588,6.27784,-5.10703,-0.0560833,1.46423,-2.61038,0.203887,-7.55382e-15,7.15625e-15,-20.6193,14.4999,-78.4389,75.7367,13.7524,-30.6104,-31.3891,7.12502,-3.90696,-61.3331,-7.55382e-15,7.15625e-15,-50.0203,22.5389,12.7648,152.263,6.36352,2.39709,0.635851,7.12502,27.8843,28.586,-22.3617,-2.20467,25.8383,43.7098,-20.1143,-3.07852,-17.8847,-22.2102,-6.03042,-20.8356,46.0779,-15.4511,-9.93487,-8.73979
-0.387381,17.4094,-0.917804,53.0363,-83.508,-50.7789,15.3362,2.5678,9.22298,3.41437,4.73187,1.77364,-4.31926,2.16214,-4.16368,3.19099,-3.76877,-1.36952,5.65242,-5.11394,-0.143275,1.23864,-2.60635,0.170485,2.78299e-14,-2.94201e-14,-19.9765,13.9064,-78.3655,75.2144,12.6746,-31.0412,-31.2649,7.12502,-4.32289,-61.2008,2.78299e-14,-2.94201e-14,-49.8201,23.1959,10.5693,152.319,8.24866,1.8849,1.77659,7.12502,27.3945,29.8052,-24.4456,-1.81267,25.7144,47.149,-19.9338,-2.56142,-22.567,-22.9557,-4.85937,-21.0875,47.5745,-16.6302,-9.86885,-7.876
-0.294996,17.2845,-0.879233,57.7575,-84.4025,-55.4469,16.0367,2.8162,8.88233,3.55318,5.05124,1.62175,-4.52304,2.31043,-4.23158,3.39268,-3.76097,-1.30346,5.08665,-5.0957,-0.225166,1.02388,-2.59156,0.146209,-4.39314e-14,1.19271e-14,-19.6083,13.0265,-78.5151,74.3637,11.7173,-32.068,-30.8497,7.12502,-5.31434,-60.763,-4.39314e-14,1.19271e-14,-49.4103,23.9892,8.15494,152.227,10.4346,1.77704,2.99239,7.12502,27.2913,31.0373,-26.8428,-1.73619,24.9502,50.6447,-20.212,-1.31512,-22.4908,-23.9379,-3.8903,-21.9423,49.0729,-17.9175,-9.32789,-8.15491
-0.203507,17.1667,-0.847647,62.5708,-85.2453,-60.0336,16.507,3.01459,8.36972,3.61199,5.25807,1.46958,-4.72028,2.40645,-4.17695,3.59846,-3.65874,-1.36591,4.65478,-4.95848,-0.311931,0.854536,-2.52104,0.139416,1.72943e-14,-4.77083e-15,-19.5247,12.0946,-78.9621,73.1554,11.1468,-32.5324,-30.7154,7.12502,-5.76281,-60.6171,1.72943e-14,-4.77083e-15,-49.015,24.8709,5.77475,151.972,12.4596,1.80565,4.12224,7.12502,27.3187,32.1628,-29.3501,-1.8126,24.1344,54.0055,-20.7666,-0.0329658,-22.8404,-25.2421,-3.10536,-22.8135,50.5628,-18.9188,-8.56985,-8.95413
-0.11072,17.0529,-0.815938,65.5754,-85.8263,-62.7137,16.7913,3.11766,8.0429,3.6483,5.354,1.36524,-4.84344,2.45033,-4.14358,3.77844,-3.56808,-1.53584,4.25546,-4.84052,-0.452561,0.702203,-2.46184,0.132267,1.39149e-14,-5.56597e-15,-19.942,10.9303,-79.4911,71.9325,10.9449,-32.498,-30.9319,7.12502,-5.72953,-60.8344,1.39149e-14,-5.56597e-15,-48.552,25.8346,3.82307,151.678,14.3903,1.87012,5.37635,7.12502,27.3804,33.4072,-31.7607,-2.14433,23.4026,57.0903,-21.9306,1.47704,-23.5866,-26.701,-2.75407,-23.5385,51.9548,-19.5566,-7.73618,-10.4041
-0.0261366,16.9511,-0.78166,63.8353,-86.5151,-61.097,17.3799,3.24407,7.66798,3.86091,5.47473,1.26098,-4.94171,2.50741,-4.10349,3.97154,-3.60745,-1.80092,3.79384,-4.90142,-0.621739,0.532683,-2.49144,0.133293,4.23411e-14,-2.78299e-14,-20.7991,9.27548,-79.7581,70.6139,11.2456,-32.5171,-32.0181,7.12502,-5.748,-61.9201,4.23411e-14,-2.78299e-14,-47.7394,26.9366,2.65911,151.348,16.2303,2.23185,6.54531,7.12502,27.7263,34.521,-33.3482,-2.73978,22.337,59.8607,-23.7404,2.95117,-25.7266,-27.4771,-2.63711,-24.5159,53.1068,-19.982,-7.29317,-10.7962
0.054694,16.8722,-0.75909,57.9615,-87.3081,-55.434,17.9996,3.46447,6.96669,4.12966,5.65557,1.25055,-5.03229,2.59683,-3.79604,4.15955,-3.69637,-2.23396,3.32988,-5.03904,-0.83462,0.368109,-2.56012,0.148826,-5.24792e-14,-1.03368e-14,-21.8997,7.54204,-79.7274,68.7608,11.5021,-33.0974,-32.661,7.12502,-6.30827,-62.5471,-5.24792e-14,-1.03368e-14,-46.8426,28.0387,2.24191,151.004,17.6015,2.87718,7.29586,7.12502,28.3432,35.1707,-34.5745,-3.38859,21.1363,62.3049,-25.5052,2.11856,-31.1612,-27.9677,-2.3687,-25.6036,53.9346,-20.0435,-7.45132,-9.22072
0.130948,16.8099,-0.737365,46.1663,-87.8772,-43.9088,18.6765,3.63212,6.40046,4.3807,5.79102,1.29236,-5.17041,2.65841,-3.50632,4.36261,-3.78615,-2.54048,2.89788,-5.17823,-1.20359,0.20418,-2.62699,0.0980241,-1.63003e-14,-6.36111e-15,-23.2365,5.86618,-79.6,66.495,11.769,-33.5693,-34.1306,7.12502,-6.76379,-64.0025,-1.63003e-14,-6.36111e-15,-46.0015,28.8888,2.32113,150.731,18.445,3.3478,7.87343,7.12502,28.7929,35.6726,-35.0758,-4.27049,20.0881,64.491,-26.4591,3.00914,-24.9321,-28.2283,-2.055,-26.5804,54.4151,-19.8664,-7.75645,-8.13988
0.206412,16.7837,-0.7155,37.4863,-88.0219,-35.4413,19.3503,3.69107,6.33503,4.55711,5.88059,1.36166,-5.34145,2.68935,-3.45967,4.41205,-3.8207,-2.54909,2.7238,-5.2272,-1.77819,0.129138,-2.64912,-0.0685425,-5.84427e-14,8.74653e-15,-24.7458,4.15535,-79.5367,63.7569,11.7348,-34.0677,-33.3742,7.12502,-7.24492,-63.2301,-5.84427e-14,8.74653e-15,-45.2754,29.3713,2.66235,150.568,18.7547,3.50535,8.28178,7.12502,28.9433,36.0553,-35.2595,-5.22485,19.605,66.3532,-26.9633,1.51198,-24.619,-28.3704,-1.72343,-27.0549,54.5088,-19.5927,-8.01892,-8.69719
0.274264,16.791,-0.694855,36.0235,-87.9391,-34.042,19.7883,3.62228,6.57964,4.69747,5.85326,1.45992,-5.40709,2.66525,-3.51182,4.34729,-3.74568,-2.74805,2.72937,-5.13462,-2.14152,0.136238,-2.60611,-0.14797,1.47101e-14,-7.95139e-15,-26.3455,2.57601,-79.5759,60.7964,11.652,-33.8882,-33.5387,7.12502,-7.07168,-63.4006,1.47101e-14,-7.95139e-15,-44.9056,29.5297,3.11699,150.533,18.6424,3.61303,8.48222,7.12502,29.0462,36.238,-35.1352,-6.18253,19.609,67.9157,-26.2239,-0.355906,-21.4948,-28.4603,-1.4361,-27.1116,54.2321,-18.9796,-8.36642,-8.49181
0.328881,16.8292,-0.668113,28.516,-87.8504,-26.3286,19.8386,3.43385,6.68386,4.75724,5.62231,1.43629,-5.37828,2.55245,-3.54533,4.39072,-3.6054,-3.25369,2.71584,-4.97471,-2.0902,0.138278,-2.53158,-0.0533631,9.30312e-14,1.82882e-14,-28.1221,1.22005,-79.6957,57.7003,11.0748,-30.6984,-36.064,7.12502,-3.99193,-66.0063,9.30312e-14,1.82882e-14,-44.9154,29.2856,3.63356,150.641,18.2814,3.55099,8.87789,7.12502,28.9869,36.6439,-34.8313,-7.2922,19.38,69.1709,-25.513,-1.15351,-19.3986,-28.5474,-1.39428,-27.3853,53.5288,-18.0886,-8.74132,-7.30344
0.377546,16.8984,-0.6424,25.1479,-87.8682,-22.4599,19.6444,3.28532,6.7815,4.67862,5.43967,1.36429,-5.36283,2.46521,-3.62603,4.3553,-3.42103,-3.54344,2.87631,-4.73919,-2.13769,0.196528,-2.42157,-0.0267548,-2.10712e-14,3.18055e-14,-30.1427,-0.0826713,-79.7545,54.5085,10.2947,-32.7371,-35.4308,7.12502,-5.96039,-65.327,-2.10712e-14,3.18055e-14,-45.2336,28.641,4.1994,150.878,17.7421,3.2775,9.25205,7.12502,28.7257,37.0626,-34.5387,-8.17154,19.2802,70.087,-24.2827,-1.42563,-17.1792,-28.7563,-1.2971,-27.5305,52.4465,-17.1223,-9.19914,-5.7519
0.424258,16.9953,-0.620645,31.4716,-87.9688,-28.1211,19.3837,3.20724,7.02526,4.51367,5.38354,1.33581,-5.38307,2.43591,-3.7684,4.1709,-3.23622,-3.40905,3.13271,-4.47275,-2.54731,0.288915,-2.29565,-0.179723,-7.27552e-14,3.18055e-15,-32.4264,-1.45962,-79.652,51.4156,10.0854,-33.9807,-35.228,7.12502,-7.1609,-65.0868,-7.27552e-14,3.18055e-15,-45.842,27.7718,4.7261,151.234,17.2141,2.83364,9.45538,7.12502,28.3016,37.3371,-34.1277,-8.71287,19.577,70.619,-21.7778,-2.42017,-14.576,-28.9982,-1.09807,-27.3093,51.0381,-15.9556,-9.59193,-4.24446
0.4694,17.1112,-0.602206,41.1859,-87.961,-37.1601,19.1691,3.09706,7.32662,4.33229,5.30135,1.33189,-5.44548,2.39003,-3.91538,3.96646,-3.05194,-3.16136,3.23989,-4.2032,-2.99284,0.337755,-2.16402,-0.359033,2.34566e-14,-2.22639e-14,-34.8761,-2.81881,-79.326,48.8336,10.0085,-34.22,-36.4261,7.12502,-7.39197,-66.277,2.34566e-14,-2.22639e-14,-46.6821,26.8292,5.20305,151.649,16.6335,2.29651,9.67758,7.12502,27.7881,37.6433,-33.3473,-9.14897,20.0509,70.7388,-19.9063,-1.7039,-15.6398,-29.1298,-0.910005,-26.9281,49.3848,-14.6423,-9.7616,-4.1327
0.514703,17.2397,-0.593082,52.586,-87.8328,-47.9145,18.9979,2.97402,7.56419,4.18324,5.19105,1.38181,-5.51117,2.32973,-3.96534,3.79063,-2.84043,-3.0027,3.14444,-3.90812,-3.26283,0.328359,-2.01491,-0.469453,-8.07066e-14,-1.27222e-14,-37.3087,-4.03755,-78.7452,46.8606,9.09366,-34.6428,-37.639,7.12502,-7.8,-67.4752,-8.07066e-14,-1.27222e-14,-47.7006,25.906,5.6855,152.102,16.0081,1.70033,9.9215,7.12502,27.218,37.9779,-32.184,-9.4374,20.697,70.4354,-17.95,-0.99179,-16.38,-29.1466,-0.680765,-26.3976,47.5813,-13.2514,-9.89282,-4.40934
0.564731,17.3738,-0.592315,62.3064,-87.787,-56.9657,18.8497,2.86429,7.49416,4.05939,5.03711,1.40856,-5.59399,2.25168,-3.86077,3.61079,-2.58145,-2.88706,2.89492,-3.55623,-3.42366,0.277375,-1.83351,-0.539211,-2.18663e-14,-2.38542e-15,-39.7059,-4.92709,-78.1369,44.8146,9.23699,-32.474,-38.5283,7.12502,-5.70641,-68.4315,-2.18663e-14,-2.38542e-15,-48.9327,25.0782,5.90364,152.622,15.6543,1.04174,10.1422,7.12502,26.5878,38.2958,-30.8475,-9.56674,21.247,69.767,-15.9844,-0.318634,-16.1066,-29.152,-0.525588,-25.9786,45.7176,-11.8994,-9.78466,-5.33536
0.621198,17.5039,-0.597011,71.6244,-87.7414,-65.569,18.702,2.74889,7.29764,3.93986,4.85042,1.41333,-5.68447,2.15972,-3.70233,3.40278,-2.30123,-2.73934,2.57593,-3.17632,-3.56753,0.210809,-1.63613,-0.609324,-5.24792e-14,1.19271e-14,-42.0254,-5.61925,-77.4229,42.5717,10.7646,-34.1262,-38.8636,7.12502,-7.30143,-68.7176,-5.24792e-14,1.19271e-14,-50.1761,24.3734,5.99437,153.148,15.3867,0.517947,10.2695,7.12502,26.0864,38.4981,-29.4147,-9.55971,21.7799,68.7131,-14.0627,0.251157,-16.5953,-29.2531,-0.446011,-25.6034,43.9105,-10.6035,-9.6468,-6.54567
0.682094,17.623,-0.608353,80.8694,-87.4852,-74.0021,18.4646,2.65298,7.23454,3.7851,4.71275,1.4399,-5.74875,2.09137,-3.60083,3.28552,-2.0811,-2.43751,2.18766,-2.87795,-3.71554,0.106751,-1.47549,-0.704016,-1.07344e-14,-1.19271e-14,-44.2347,-6.26115,-76.5173,39.9536,13.6633,-36.0366,-38.5341,7.12502,-9.1451,-68.3158,-1.07344e-14,-1.19271e-14,-51.1144,23.7574,6.23438,153.637,15.0286,0.149851,10.5423,7.12502,25.7339,38.8224,-27.9318,-9.40336,22.5291,67.2058,-12.0137,0.745814,-17.0602,-29.5719,-0.369636,-25.0391,42.2689,-9.21798,-9.55801,-6.53926
0.744769,17.7309,-0.621044,87.8903,-87.0569,-80.1241,18.1037,2.57123,7.36477,3.61575,4.61973,1.4389,-5.73797,2.04572,-3.63887,3.21221,-1.92129,-1.95019,1.78503,-2.65615,-3.87195,-0.0113859,-1.35122,-0.831891,5.64548e-14,1.59028e-14,-46.2599,-6.98075,-75.4767,37.7071,15.1893,-36.6801,-38.0209,7.12502,-9.76599,-67.7744,5.64548e-14,1.59028e-14,-51.7009,23.2805,6.45807,154.093,14.8009,-0.326181,10.9936,7.12502,25.2779,39.3389,-26.3452,-9.09967,23.4134,65.1759,-10.0556,0.937053,-17.3012,-30.1246,-0.29441,-24.3405,40.8811,-7.88527,-8.99026,-8.73659
0.811113,17.8246,-0.634897,92.9379,-86.6353,-84.2436,17.6828,2.50796,7.49481,3.47277,4.54025,1.40485,-5.66166,2.01002,-3.71057,3.06719,-1.7541,-1.55571,1.42988,-2.42391,-3.9181,-0.0994326,-1.22505,-0.913152,-4.92986e-14,1.74931e-14,-48.1008,-7.7837,-74.2281,35.3979,16.5851,-38.1165,-37.9759,7.12502,-11.1516,-67.6596,-4.92986e-14,1.74931e-14,-52.0549,23.0488,6.48619,154.481,14.7832,-1.00308,11.4902,7.12502,24.6293,39.9255,-24.6397,-8.59398,24.2402,62.6165,-8.80358,0.76613,-18.1163,-30.8805,-0.226051,-23.6714,39.7964,-6.62607,-8.45585,-10.0766
0.885723,17.8962,-0.653813,96.3287,-86.232,-86.6902,17.2756,2.44009,7.56075,3.3376,4.44298,1.37876,-5.5919,1.96625,-3.73571,2.86761,-1.56059,-1.31918,1.07598,-2.16019,-3.83166,-0.173059,-1.0856,-0.928609,4.45278e-14,9.54166e-15,-49.7015,-8.47807,-72.8693,33.0585,17.7091,-38.8901,-38.6667,7.12502,-11.8977,-68.3086,4.45278e-14,9.54166e-15,-52.2661,23.1231,6.10694,154.729,14.8543,-1.52289,12.0333,7.12502,24.1309,40.5357,-22.9071,-7.98196,25.0121,59.5618,-8.20742,0.459576,-18.7508,-31.8513,-0.115453,-23.0453,39.0684,-5.6503,-8.43918,-9.77833
0.966109,17.9414,-0.674236,95.9334,-85.8078,-85.4545,16.9077,2.28196,7.75342,3.26198,4.24622,1.37678,-5.48207,1.87348,-3.78732,2.57628,-1.36894,-1.1303,0.805826,-1.8963,-3.74508,-0.205073,-0.949684,-0.937135,4.73108e-14,-2.06736e-14,-51.0467,-9.08979,-71.3928,30.7345,18.6434,-38.4611,-39.3269,7.12502,-11.4839,-68.9923,4.73108e-14,-2.06736e-14,-52.3095,23.507,5.36133,154.797,14.9126,-1.69866,12.49,7.12502,23.9624,41.0146,-20.9953,-7.56805,25.7675,56.0435,-7.94572,0.25071,-19.6244,-32.9115,-0.00555435,-22.4479,38.7904,-4.95807,-8.71249,-11.58
1.05733,17.9601,-0.696744,94.4142,-85.3185,-83.1637,16.6402,2.11672,8.1182,3.20161,4.07474,1.38756,-5.39587,1.78827,-3.9328,2.25499,-1.25138,-0.945028,0.601714,-1.73078,-3.72019,-0.213749,-0.865046,-0.963395,-3.1408e-14,1.43125e-14,-52.2341,-9.73758,-69.7857,28.4393,19.6889,-37.0208,-40.6318,7.12502,-10.0947,-70.3697,-3.1408e-14,1.43125e-14,-52.0076,24.0489,4.59553,154.708,15.1287,-2.00234,12.9125,7.12502,23.6711,41.475,-19.019,-7.23934,26.5802,52.1278,-7.60859,0.478142,-20.8432,-34.206,0.0887504,-21.783,38.9702,-4.32918,-9.01172,-12.4048
1.16861,17.9439,-0.724816,95.3797,-84.7608,-83.2749,16.424,2.09607,8.48871,3.10181,4.10176,1.43147,-5.35851,1.79631,-4.08857,1.98836,-1.2582,-0.811522,0.297864,-1.73853,-3.67901,-0.263576,-0.865438,-0.973732,4.25399e-14,7.95139e-16,-53.3823,-10.5547,-67.9794,26.0877,20.982,-38.4396,-39.2726,7.12502,-11.4632,-68.9392,4.25399e-14,7.95139e-16,-51.325,24.5785,4.03065,154.455,15.3512,-2.969,13.488,7.12502,22.7437,42.1675,-17.2746,-6.74587,27.4836,47.949,-7.09791,1.29243,-20.9169,-35.992,0.31358,-21.0315,39.6165,-3.80535,-9.26473,-12.0402
1.28693,17.9034,-0.755694,94.49,-84.5458,-81.6399,16.216,2.10472,8.50311,3.07039,4.10217,1.49989,-5.28372,1.80017,-4.0129,1.78039,-1.32713,-0.94338,-0.111619,-1.84049,-3.53468,-0.352712,-0.911913,-0.906297,8.18993e-14,6.36111e-15,-54.5087,-11.6949,-65.6105,24.5162,22.3414,-36.385,-40.6597,7.12502,-9.48132,-70.4264,8.18993e-14,6.36111e-15,-50.4398,25.2372,3.51299,154.002,15.3975,-3.81943,14.0319,7.12502,21.9274,42.8092,-15.5127,-6.62998,27.9804,43.6818,-10.0344,1.29132,-28.2923,-37.8641,0.45647,-20.7136,40.6749,-3.21755,-9.64867,-11.8175
1.40777,17.8443,-0.788144,89.1816,-84.5272,-75.7861,16.4488,1.94042,8.7874,2.90114,3.96728,1.30859,-5.5752,1.71334,-4.36957,1.70318,-1.43727,-1.0398,-0.495584,-1.995,-3.2419,-0.454519,-0.984268,-0.798035,3.37934e-14,2.78299e-14,-56.0866,-13.4212,-62.846,22.6015,25.9238,-35.5474,-43.0359,7.12502,-8.67304,-72.8377,3.37934e-14,2.78299e-14,-49.083,25.9474,2.51695,153.335,15.8085,-3.85611,14.3203,7.12502,21.8921,43.1018,-13.7869,-7.29389,28.2331,39.6442,-13.4494,1.14204,-28.458,-39.7071,0.326443,-20.7027,42.1069,-2.45504,-10.0468,-10.6814
1.54266,17.7744,-0.817806,82.0814,-84.2778,-68.1133,16.6324,1.75425,9.2322,2.76139,3.83233,1.28876,-5.81221,1.62439,-4.6283,1.71224,-1.58463,-1.28299,-1.05078,-2.21363,-3.09271,-0.623735,-1.08549,-0.708229,-4.17448e-14,3.18055e-15,-57.5625,-15.3389,-59.452,21.0321,29.1056,-36.7661,-42.4997,7.12502,-9.84903,-72.2494,-4.17448e-14,3.18055e-15,-47.6663,26.7609,1.78494,152.638,16.4412,-4.02434,14.5963,7.12502,21.7306,43.3966,-12.6473,-8.61677,28.7158,36.1345,-16.8194,0.672644,-29.5021,-41.8156,-0.0519437,-20.5545,43.7532,-1.58127,-10.0713,-9.08573
1.68588,17.6924,-0.839506,75.6305,-83.9667,-61.0954,16.762,1.57533,9.66775,2.64656,3.70386,1.36612,-6.00205,1.54022,-4.77416,1.71335,-1.6889,-1.71632,-1.55046,-2.38172,-3.02572,-0.772838,-1.16131,-0.612796,5.08889e-14,-3.97569e-15,-58.9905,-17.3307,-55.4832,19.7111,32.3229,-36.8678,-43.0866,7.12502,-9.94707,-72.8316,5.08889e-14,-3.97569e-15,-46.3839,27.5406,1.25539,151.925,16.9765,-4.25562,15.0291,7.12502,21.5085,43.8549,-12.2196,-9.96104,29.2314,33.5074,-18.7266,0.521114,-25.2753,-44.0715,-0.55193,-20.4511,45.4742,-0.658301,-9.73135,-8.18494
1.82625,17.618,-0.863605,72.4795,-83.853,-57.6523,17.1833,1.54877,9.83789,2.58485,3.75561,1.43882,-6.28493,1.54246,-4.82533,1.82291,-1.74225,-2.07479,-2.06867,-2.48963,-3.08636,-0.94916,-1.20402,-0.568373,-3.45885e-14,-1.74931e-14,-60.441,-19.4,-51.2346,18.6608,35.2961,-35.894,-44.4698,7.12502,-9.00748,-74.2575,-3.45885e-14,-1.74931e-14,-45.2209,28.4223,0.629813,151.188,17.835,-3.65227,15.2614,7.12502,22.0878,44.0198,-12.0128,-10.8263,29.6124,31.6479,-20.5132,0.115828,-21.8132,-46.0275,-0.826203,-20.4215,47.2167,-0.0989953,-9.43576,-8.85859
1.9691,17.5565,-0.895789,71.7685,-84.3685,-56.9774,18.0895,1.72023,9.27143,2.5806,3.97017,1.38321,-6.78702,1.62801,-4.66324,2.17492,-1.7581,-2.2135,-2.84796,-2.56417,-3.21506,-1.25485,-1.22213,-0.578483,2.3059e-14,2.54444e-14,-61.7215,-21.3841,-47.1147,17.7417,37.9139,-36.6702,-44.1947,7.12502,-9.75651,-73.9487,2.3059e-14,2.54444e-14,-44.3111,29.3254,-0.157392,150.54,19.1775,-2.91106,15.3166,7.12502,22.7993,43.9892,-11.8377,-11.0023,29.4661,30.4827,-21.903,-0.982287,-20.0718,-47.4051,-0.928531,-20.7313,48.7428,-0.101565,-9.50528,-10.8299
2.075,17.5095,-0.908829,75.6254,-84.0069,-60.6088,18.3176,1.79262,9.81364,2.58249,4.19646,1.51331,-6.84584,1.71675,-4.88629,2.42762,-1.70099,-2.29401,-3.57396,-2.53638,-3.32202,-1.53034,-1.1905,-0.594709,-3.97569e-15,-2.06736e-14,-62.7012,-23.41,-43.0671,16.9061,40.6144,-36.8506,-44.8849,7.12502,-9.93054,-74.6307,-3.97569e-15,-2.06736e-14,-43.7242,30.0492,-0.85941,150.028,20.2214,-2.76786,15.4132,7.12502,22.9367,44.0688,-11.9643,-11.1988,30.2821,29.6798,-22.9899,-1.64331,-17.8312,-48.7817,-1.05251,-19.8407,50.0284,-0.502949,-10.2708,-11.9793
2.16626,17.4897,-0.925816,82.0236,-83.9414,-66.6082,18.3662,1.97623,9.89286,2.52394,4.46399,1.54861,-6.89293,1.8386,-4.95448,2.53907,-1.58434,-2.40769,-4.05295,-2.41124,-3.32617,-1.70163,-1.1167,-0.577729,-4.85035e-14,-1.35174e-14,-63.2292,-25.2857,-39.774,16.4391,42.2819,-36.354,-45.8902,7.12502,-9.45141,-75.6582,-4.85035e-14,-1.35174e-14,-43.3026,30.4986,-1.28192,149.617,20.6301,-2.99903,15.433,7.12502,22.7149,44.1159,-12.3876,-10.8367,30.8368,29.1125,-23.6505,-2.12149,-16.1075,-50.0143,-0.981055,-19.0508,50.9112,-1.6297,-11.6622,-15.8503
2.23728,17.4964,-0.932206,86.493,-84.1726,-70.6125,18.2331,2.09441,9.73361,2.39359,4.58013,1.39223,-6.94573,1.89483,-5.05671,2.79319,-1.48824,-2.46736,-4.39437,-2.30367,-3.22498,-1.85426,-1.05466,-0.536005,-4.96962e-14,5.56597e-15,-63.4287,-27.0195,-37.3138,16.2582,42.6832,-35.5552,-45.5571,7.12502,-8.6806,-75.3586,-4.96962e-14,5.56597e-15,-42.8432,30.7077,-1.37566,149.298,20.5954,-3.27235,15.4091,7.12502,22.4526,44.124,-12.8203,-10.7103,30.9155,28.4498,-23.843,-2.36998,-15.5953,-50.989,-1.07471,-18.7807,51.5052,-1.814,-15.0883,-15.1503
2.2831,17.5246,-0.926792,87.1723,-84.5489,-71.0844,18.0977,2.04759,9.5284,2.31119,4.46319,1.17337,-6.97803,1.84248,-5.14935,3.16451,-1.39118,-2.39896,-4.59649,-2.18768,-3.16993,-1.98601,-0.990594,-0.530293,-1.98785e-14,-3.49861e-14,-63.2423,-28.481,-35.7696,16.1489,42.9964,-35.614,-45.4484,7.12502,-8.73736,-75.2476,-1.98785e-14,-3.49861e-14,-42.4681,30.7647,-1.0038,149.202,20.1291,-3.37717,15.4017,7.12502,22.3519,44.1287,-12.9481,-10.8913,30.633,27.8481,-23.6265,-2.51463,-15.76,-51.3186,-1.45904,-18.9506,51.8355,-1.84848,-17.869,-15.2391
2.30406,17.5675,-0.929035,86.6325,-84.4402,-70.6767,18.0438,1.90717,9.61276,2.30705,4.29015,1.16848,-6.97274,1.75733,-5.1618,3.46414,-1.27552,-2.31201,-4.53363,-2.03166,-3.13195,-2.01908,-0.912047,-0.535454,4.33351e-14,1.98785e-14,-62.2178,-29.185,-35.9343,16.29,42.2113,-35.5435,-45.694,7.12502,-8.66933,-75.496,4.33351e-14,1.98785e-14,-42.2042,30.6313,0.0628835,149.406,19.2192,-3.32354,15.2928,7.12502,22.4034,44.0136,-12.6509,-10.762,30.7817,27.3084,-23.0149,-2.84529,-16.2574,-51.0274,-1.72875,-18.7734,52.0561,-1.95618,-19.1624,-16.7455
2.30898,17.6243,-0.934831,83.3458,-84.316,-67.6324,17.9615,1.71236,9.61572,2.29716,4.03026,1.18485,-6.97973,1.63247,-5.0859,3.55729,-1.21077,-2.21766,-4.07178,-1.91734,-3.05429,-1.88447,-0.864352,-0.529931,-4.37326e-14,1.03368e-14,-60.5703,-29.1037,-37.6932,16.7184,40.3116,-35.4956,-45.8328,7.12502,-8.62304,-75.6367,-4.37326e-14,1.03368e-14,-41.7589,30.279,1.63599,149.74,18.0728,-3.08865,15.0445,7.12502,22.6289,43.738,-12.2174,-10.6275,30.867,26.8442,-22.1247,-3.22788,-16.4357,-50.3818,-2.1136,-18.7574,52.1935,-2.24974,-18.9706,-17.1887
2.29037,17.6945,-0.931334,79.6083,-84.6051,-64.2768,17.8606,1.57175,9.20618,2.30217,3.75326,1.07112,-6.98082,1.51195,-4.91501,3.53999,-1.20493,-1.97796,-3.39761,-1.8659,-3.02353,-1.66491,-0.853266,-0.562628,-1.47101e-14,1.19271e-14,-58.6464,-28.4911,-40.3607,17.3253,38.1474,-35.6734,-45.9516,7.12502,-8.79465,-75.7483,-1.47101e-14,1.19271e-14,-41.2458,29.6876,3.34056,150.226,16.8622,-2.63619,14.8541,7.12502,23.0631,43.494,-11.5871,-10.6481,30.3859,26.4308,-21.01,-3.55616,-17.9883,-49.2522,-2.55549,-19.2756,52.23,-2.6202,-17.9897,-14.7509
2.25606,17.7713,-0.928969,76.4332,-84.9709,-61.3355,17.5331,1.52073,8.64421,2.21838,3.55121,0.907288,-6.94806,1.4335,-4.71948,3.62877,-1.25082,-1.66898,-2.77856,-1.88355,-2.91051,-1.48373,-0.875764,-0.578883,-2.14687e-14,2.46493e-14,-56.6613,-27.6231,-43.4053,17.9248,36.2033,-35.9912,-46.0623,7.12502,-9.10127,-75.8459,-2.14687e-14,2.46493e-14,-40.5888,28.876,5.18919,150.853,15.6282,-1.96641,14.8529,7.12502,23.7056,43.411,-11.1752,-10.6005,29.8453,26.1839,-19.701,-3.82777,-21.0442,-48.0643,-2.7795,-19.9429,52.1222,-2.69214,-17.0549,-12.7445
2.20473,17.853,-0.926133,74.3297,-85.1676,-59.4182,17.0543,1.50156,8.25368,2.08589,3.41671,0.748828,-6.86305,1.38508,-4.62269,3.97235,-1.31553,-1.33504,-2.32595,-1.93496,-2.70089,-1.40066,-0.910853,-0.567066,-7.31528e-14,-7.55382e-15,-54.6898,-26.6044,-46.6525,18.5205,34.4562,-36.3457,-45.8499,7.12502,-9.44337,-75.6183,-7.31528e-14,-7.55382e-15,-39.7097,27.9272,7.0882,151.417,14.4913,-1.17224,14.772,7.12502,24.4671,43.2293,-10.9808,-10.4489,29.4946,26.3735,-18.4306,-3.90642,-23.2708,-46.7832,-2.72556,-20.5062,51.8921,-2.49152,-16.5586,-13.5323
2.12822,17.93,-0.911738,74.1237,-85.3298,-59.6619,16.5804,1.49159,8.03088,2.07826,3.31521,0.599026,-6.62894,1.35567,-4.6144,4.39927,-1.39038,-0.921363,-1.9617,-2.00225,-2.55191,-1.36259,-0.951016,-0.586581,2.08724e-14,8.34896e-15,-52.5965,-25.1531,-50.3383,19.3765,32.2384,-36.5241,-45.6111,7.12502,-9.61548,-75.3716,2.08724e-14,8.34896e-15,-38.8075,26.9664,8.98837,151.884,13.5036,-0.332676,14.3422,7.12502,25.2717,42.6883,-10.6438,-10.3034,29.1065,27.0461,-17.3667,-3.74815,-24.7748,-45.0064,-2.39593,-21.066,51.5412,-2.28879,-16.3776,-16.6301
2.05777,17.9761,-0.894526,69.7666,-85.4884,-55.5162,15.8327,1.41979,7.82954,2.02459,3.11792,0.393308,-6.30204,1.28363,-4.6481,4.92088,-1.46809,-0.470809,-1.71841,-2.07407,-2.4175,-1.3807,-0.990931,-0.615979,-7.95139e-15,-1.31198e-14,-50.5121,-23.2483,-54.3955,20.5638,29.0478,-36.7555,-45.4424,7.12502,-9.83872,-75.1925,-7.95139e-15,-1.31198e-14,-37.7057,25.9635,11.1139,152.204,12.0932,0.278896,13.721,7.12502,25.8575,41.9831,-10.9325,-10.3802,28.6215,28.3693,-16.2918,-3.5405,-26.0833,-43.4902,-2.31352,-21.7865,51.1104,-1.65068,-16.1701,-19.334
1.98742,18.0099,-0.880782,67.8218,-85.7006,-53.6813,14.9807,1.47509,7.57484,1.93126,3.07714,0.170832,-5.94046,1.28918,-4.69706,5.59718,-1.50986,-0.10742,-1.60731,-2.10084,-2.18592,-1.46551,-1.0074,-0.600465,-2.78299e-14,1.15295e-14,-48.5412,-21.0617,-58.4867,21.9438,25.4534,-37.1653,-45.3139,7.12502,-10.2341,-75.0449,-2.78299e-14,1.15295e-14,-36.4288,24.7725,13.3982,152.318,9.74666,0.191411,13.2613,7.12502,25.7737,41.5356,-11.713,-10.2905,28.1681,30.4618,-15.1952,-3.15481,-26.9398,-42.0197,-2.07666,-22.4494,50.5313,-0.706474,-15.6486,-20.1217
1.91347,18.019,-0.873026,71.6575,-86.022,-57.7812,14.2257,1.68604,7.15172,1.89085,3.22752,0.0175748,-5.5626,1.39154,-4.61265,6.06327,-1.5407,0.145322,-1.32281,-2.11131,-1.89172,-1.45527,-1.01982,-0.548597,-1.56046e-14,-1.31198e-14,-46.6223,-18.6721,-62.3528,23.5713,22.1141,-37.3404,-45.4694,7.12502,-10.403,-75.1921,-1.56046e-14,-1.31198e-14,-35.2592,23.977,15.127,152.542,8.85704,0.992984,13.092,7.12502,26.5411,41.2527,-12.7438,-9.88817,27.7511,33.4427,-14.3991,-2.58006,-27.7515,-40.3026,-1.53052,-22.9542,49.7961,-0.187518,-14.7651,-20.3724
1.83978,18.0001,-0.864926,79.2228,-86.4923,-65.772,13.6006,1.93055,6.47637,1.90899,3.40058,-0.0867965,-5.21009,1.50775,-4.33915,6.24847,-1.5318,0.343529,-0.789441,-2.07348,-1.70487,-1.3162,-1.0091,-0.524785,-3.1408e-14,8.74653e-15,-44.791,-16.0365,-65.9077,25.5786,19.0246,-37.1745,-45.7367,7.12502,-10.243,-75.4674,-3.1408e-14,8.74653e-15,-34.348,23.3319,16.4376,152.659,8.01336,1.56137,13.1344,7.12502,27.085,41.2115,-13.9843,-9.36908,27.1299,37.1178,-13.6895,-1.7533,-28.5972,-38.3154,-0.987391,-23.4715,48.8069,-0.620096,-14.0013,-23.624
1.77181,17.946,-0.845199,89.1452,-86.9431,-76.2328,13.1339,2.11978,5.86431,1.94275,3.52748,-0.197973,-4.93244,1.59445,-4.1064,6.33604,-1.49383,0.534448,-0.207883,-2.00333,-1.6454,-1.14681,-0.980108,-0.541043,-6.1822e-14,1.72943e-14,-43.2793,-13.2299,-69.1293,28.1391,16.1989,-37.5218,-46.1569,7.12502,-10.5781,-75.8707,-6.1822e-14,1.72943e-14,-33.6085,22.9152,17.1276,152.66,7.17448,2.16821,13.2487,7.12502,27.6654,41.2342,-15.4896,-9.02427,26.3437,41.3966,-12.6693,-0.626318,-29.4222,-36.2689,-0.905937,-23.8872,47.5698,-0.755033,-13.5684,-17.6158
1.70487,17.8653,-0.816899,103.208,-87.082,-90.9845,12.8667,2.3179,5.53309,2.01617,3.72022,-0.269866,-4.7027,1.70479,-4.00811,6.23898,-1.44103,0.692722,0.369768,-1.9178,-1.5871,-0.947253,-0.943214,-0.553435,-4.1049e-14,3.49861e-14,-42.1988,-10.5994,-71.8404,31.4527,13.9313,-37.9278,-46.6163,7.12502,-10.9696,-76.3097,-4.1049e-14,3.49861e-14,-32.9934,22.732,17.0987,152.681,6.68336,2.76157,13.5953,7.12502,28.2327,41.4884,-17.2068,-8.74395,25.673,46.2185,-11.2558,0.591899,-29.94,-34.2661,-1.2366,-23.9414,46.2552,-1.33546,-16.1074,-10.0376
1.6422,17.7682,-0.788279,118.171,-86.9148,-106.787,12.8428,2.506,5.28906,2.16111,3.92334,-0.283963,-4.53038,1.81542,-3.90975,5.82708,-1.33014,0.741843,0.930552,-1.76439,-1.51787,-0.698949,-0.872483,-0.547131,-7.55382e-15,3.43897e-14,-41.3735,-8.15533,-74.034,35.5052,12.4042,-37.0502,-46.7779,7.12502,-10.123,-76.5144,-7.55382e-15,3.43897e-14,-32.5575,22.8944,16.2777,152.705,6.66382,3.15166,14.2288,7.12502,28.6055,42.0597,-19.0802,-8.35889,25.0622,51.459,-9.50537,1.62488,-28.6491,-32.3333,-1.65883,-23.8895,45.1268,-3.59545,-17.2193,-6.14595
1.5978,17.6369,-0.761289,128.532,-86.6692,-117.987,13.0206,2.61852,5.11108,2.27004,4.04789,-0.295788,-4.5119,1.87949,-3.8479,5.44189,-1.23865,0.721394,1.22648,-1.64285,-1.4677,-0.539838,-0.815164,-0.533256,-3.926e-15,-5.56597e-15,-40.8582,-5.94979,-75.7757,40.2184,11.8872,-35.7456,-47.7671,7.12502,-8.86432,-77.561,-3.926e-15,-5.56597e-15,-32.2086,23.296,14.8239,152.668,7.10211,3.25495,15.0559,7.12502,28.7041,42.8702,-21.2384,-8.03121,24.448,57.0592,-7.88607,2.40243,-27.0732,-30.7247,-2.0655,-24.0124,44.4904,-6.32617,-18.5914,-5.61187
1.56959,17.5012,-0.734002,135.626,-86.5913,-125.951,13.4192,2.67701,4.91029,2.33132,4.1091,-0.335155,-4.67137,1.90535,-3.80899,5.22617,-1.2108,0.656445,1.25587,-1.6089,-1.42662,-0.493153,-0.799327,-0.511599,-4.47266e-16,-1.90833e-14,-40.5819,-4.33637,-76.9612,45.6923,11.541,-34.3767,-49.1204,7.12502,-7.54321,-78.9659,-4.47266e-16,-1.90833e-14,-31.9994,23.7425,13.0254,152.638,8.10628,3.16818,15.909,7.12502,28.6213,43.7373,-23.533,-7.85934,23.7013,62.9505,-6.95153,2.95072,-23.6932,-29.4928,-2.32018,-24.4797,44.5255,-6.45762,-19.2958,6.94711
1.55626,17.3951,-0.708238,142.301,-86.8306,-133.85,14.358,2.68615,4.49519,2.49291,4.08467,-0.395714,-5.04218,1.8829,-3.68914,4.86926,-1.20886,0.649689,1.32794,-1.6062,-1.49753,-0.412239,-0.798403,-0.534032,2.05245e-14,-2.98177e-15,-40.1703,-3.27405,-77.6491,51.5934,10.8817,-33.1117,-49.9602,7.12502,-6.32201,-79.8459,2.05245e-14,-2.98177e-15,-31.8361,24.2752,11.2499,152.559,9.29783,3.26884,16.5946,7.12502,28.7174,44.4066,-25.5182,-7.89593,22.643,69.0709,-8.23933,1.35556,-25.0677,-28.2171,-2.70705,-25.3096,44.9045,-7.6968,-18.9378,10.0424
1.55761,17.2959,-0.690562,144.405,-87.077,-137.557,15.7758,2.64873,4.23063,2.80219,4.02489,-0.346589,-5.51425,1.8348,-3.55409,4.39582,-1.23638,0.79463,1.4377,-1.63562,-1.78268,-0.305342,-0.812245,-0.647533,-2.21645e-14,-2.38542e-15,-39.5421,-2.49601,-77.9728,56.8535,12.0216,-33.0454,-48.765,7.12502,-6.258,-78.6526,-2.21645e-14,-2.38542e-15,-31.7199,24.906,9.74403,152.493,10.5465,3.51056,17.1992,7.12502,28.9483,44.9718,-27.1437,-7.99107,21.7926,75.2436,-10.313,-0.111824,-22.2301,-26.7628,-2.8508,-25.9167,45.3282,-8.41525,-18.4741,9.8192
1.56038,17.2045,-0.702837,195.798,-87.7286,-191.249,17.7963,2.8931,1.52282,3.40827,3.8371,-0.713196,-6.13363,1.7543,-2.479,3.98689,-1.28759,0.910481,1.41098,-1.69958,-2.13847,-0.252449,-0.842776,-0.777557,-2.43511e-14,-1.15295e-14,-38.6333,-1.94057,-77.9781,61.4917,14.7855,-36.109,-49.5084,7.12502,-9.21494,-79.287,-2.43511e-14,-1.15295e-14,-31.7688,25.6014,8.62947,152.533,11.8858,3.79351,17.7222,7.12502,29.2185,45.4481,-28.2252,-8.21995,18.451,81.3072,-12.7213,-1.03479,-20.2587,-24.3356,-3.03604,-28.7277,45.4496,-8.42205,-18.2398,10.9245
1.56036,17.1556,-0.735876,241.14,-85.9183,-237.267,18.1423,3.29799,-1.99883,3.66337,3.64332,-1.21494,-6.24591,1.7044,-0.996974,3.7232,-1.32466,0.816725,1.23602,-1.755,-2.32429,-0.264657,-0.869633,-0.819554,-1.10325e-14,-8.54774e-15,-37.342,-1.65483,-77.7339,65.7412,18.1083,-36.8462,-49.6802,7.12502,-9.92626,-79.4262,-1.10325e-14,-8.54774e-15,-31.7857,26.0849,8.24413,152.558,12.5677,4.03533,18.0143,7.12502,29.4494,45.6999,-31.283,-8.57863,14.7469,86.8753,-14.704,-1.53899,-18.233,-23.5869,-2.33973,-31.9694,45.3072,-7.23897,-18.9175,12.9343
1.5363,17.1583,-0.738289,245.383,-86.0497,-242.21,18.3881,3.22944,-1.97311,3.9146,3.54989,-1.07071,-6.11532,1.65239,-0.8396,3.67202,-1.33255,0.614043,1.06413,-1.77584,-2.3391,-0.307141,-0.879541,-0.789798,-3.85642e-14,2.26615e-14,-35.8666,-1.46174,-77.4161,69.5832,20.953,-36.8446,-50.6165,7.12502,-9.92469,-80.3626,-3.85642e-14,2.26615e-14,-31.6598,25.9958,8.74847,152.501,12.2148,4.14207,18.0477,7.12502,29.5513,45.7152,-33.439,-8.77825,14.4127,91.0244,-16.5978,-2.1724,-16.2067,-22.5334,-1.51321,-32.0453,44.8886,-5.82106,-19.7888,15.2312
1.52258,17.2103,-0.729421,233.778,-87.3259,-231.109,18.6742,3.00724,-0.354261,3.9967,3.59396,-0.60855,-6.10987,1.65056,-1.2812,3.72717,-1.31683,0.52528,1.0912,-1.76012,-2.48848,-0.308603,-0.871597,-0.821085,-1.54058e-14,-7.55382e-15,-34.2529,-1.09691,-77.1117,72.8617,22.7626,-37.0999,-50.6213,7.12502,-10.171,-80.3554,-1.54058e-14,-7.55382e-15,-31.6744,25.4109,9.91978,152.471,11.225,4.28571,17.8233,7.12502,29.6884,45.4665,-35.5414,-8.26691,16.0215,93.8359,-17.9824,-2.89219,-15.6733,-21.6786,-0.58217,-30.4772,44.2598,-4.19436,-20.2447,17.8829
1.49806,17.2819,-0.710501,224.128,-87.7984,-221.936,18.7258,2.84165,0.517745,4.11641,3.55484,-0.37709,-5.97015,1.61923,-1.51532,3.83432,-1.31622,0.535587,1.26176,-1.75981,-2.74959,-0.277395,-0.871956,-0.903484,-3.21037e-14,1.11319e-14,-32.372,-0.615511,-76.7532,75.4666,23.7299,-37.5034,-49.5907,7.12502,-10.5603,-79.3054,-3.21037e-14,1.11319e-14,-31.9992,24.535,11.5126,152.544,9.96016,4.48569,17.3203,7.12502,29.8793,44.9294,-37.4501,-7.54509,16.6273,95.4961,-19.7504,-2.76584,-15.5062,-20.6225,-0.175461,-29.8572,43.4057,-4.87011,-19.9855,11.7603
1.46873,17.3744,-0.686612,218.918,-87.9104,-216.846,18.4312,2.69749,0.983243,4.12757,3.4656,-0.262977,-5.7824,1.57464,-1.62053,3.85366,-1.30407,0.49867,1.59316,-1.74275,-2.9839,-0.181153,-0.867163,-0.970939,1.66979e-14,-4.77083e-15,-30.2735,-0.0243271,-76.2998,77.3625,24.2489,-37.6852,-49.1733,7.12502,-10.7356,-78.879,1.66979e-14,-4.77083e-15,-32.6895,23.4434,13.2564,152.701,8.63649,4.55536,16.7369,7.12502,29.9458,44.334,-39.5774,-6.57056,16.7735,96.1453,-20.7004,-1.80558,-15.6994,-19.7961,-0.208671,-29.7246,42.2899,-4.54568,-19.0282,11.6263
1.44083,17.4819,-0.667772,216.217,-88.0948,-214.138,18.1554,2.48733,1.32987,4.06824,3.27107,-0.11485,-5.69383,1.48037,-1.60356,3.53508,-1.25146,0.431186,2.19427,-1.6645,-3.29248,0.0539533,-0.838839,-1.06044,1.95803e-14,-7.55382e-15,-28.0359,0.705937,-75.719,78.7071,24.4636,-38.0746,-49.6115,7.12502,-11.1113,-79.2974,1.95803e-14,-7.55382e-15,-33.7979,22.2918,14.9893,152.959,7.2989,4.5032,16.1389,7.12502,29.896,43.7449,-41.4808,-5.3708,16.8668,95.377,-21.7146,-0.438412,-15.986,-19.0163,-0.493375,-29.6293,40.9482,-4.1147,-17.7493,11.8269
1.41448,17.5922,-0.658302,207.425,-88.5048,-205.457,18.0731,2.29678,1.82602,4.06324,3.13025,0.134914,-5.6467,1.40747,-1.58331,2.99861,-1.28977,0.439376,2.81966,-1.69805,-3.57264,0.330154,-0.869433,-1.1562,-1.64991e-14,7.95139e-16,-25.8745,1.16497,-74.8892,79.7965,24.6192,-38.5641,-49.5601,7.12502,-11.5833,-79.22,-1.64991e-14,7.95139e-16,-34.9509,21.1611,16.8636,153.288,6.07123,4.38513,15.4685,7.12502,29.7833,43.0948,-42.605,-4.0958,17.2693,93.221,-22.6839,0.455535,-17.6587,-18.1085,-0.80511,-29.2545,39.6418,-4.2973,-16.3517,8.37112
1.38873,17.7052,-0.652844,188.141,-89.0409,-186.328,18.0796,2.13848,2.38325,4.10868,3.04171,0.439289,-5.59145,1.35791,-1.55379,2.42256,-1.44384,0.464568,3.24115,-1.88736,-3.6798,0.549589,-0.97486,-1.20141,-7.55382e-15,-1.15295e-14,-23.8132,1.22957,-73.7721,80.6807,24.9293,-38.7374,-49.4531,7.12502,-11.7504,-79.1035,-7.55382e-15,-1.15295e-14,-35.9012,20.0663,18.9103,153.594,4.94528,4.04937,14.8177,7.12502,29.4628,42.5009,-43.3163,-2.98502,17.7154,90.0686,-24.1458,1.14471,-18.9409,-17.2587,-1.14188,-28.7794,38.5333,-4.68248,-14.8989,3.33602
1.36516,17.8053,-0.65294,128.157,-89.3352,-126.532,18.191,1.94603,2.91992,4.16498,2.90906,0.819903,-5.58809,1.28497,-1.42574,1.89339,-1.63451,0.501158,3.44236,-2.13067,-3.70158,0.69378,-1.10274,-1.22158,6.55989e-15,2.0276e-14,-21.69,1.2603,-72.4412,81.222,25.1439,-38.814,-50.0784,7.12502,-11.8243,-79.7245,6.55989e-15,2.0276e-14,-36.7051,19.0218,20.9452,153.849,3.69603,3.52224,14.2185,7.12502,28.9595,41.9892,-43.6252,-2.10714,18.2195,85.969,-25.3569,1.26613,-20.8599,-16.5456,-1.55792,-28.1853,37.7133,-4.97372,-13.4916,-1.73793
1.34233,17.8775,-0.660966,75.7378,-88.7465,-74.3282,18.4103,1.73596,3.39486,4.206,2.7475,1.21677,-5.66417,1.19616,-1.2425,1.43577,-1.89247,0.527103,3.45582,-2.47126,-3.55056,0.768159,-1.27387,-1.18449,1.86858e-14,4.37326e-15,-19.5377,1.16276,-70.9682,81.3548,25.0942,-38.9425,-50.8851,7.12502,-11.9482,-80.5241,1.86858e-14,4.37326e-15,-37.2245,18.0056,22.7902,154.054,2.45081,2.84102,13.8183,7.12502,28.3086,41.6989,-43.5777,-1.45045,18.7099,81.1342,-26.4156,0.985749,-21.5551,-15.9325,-2.00908,-27.5322,37.2101,-5.19626,-12.3757,-6.68066
1.31857,17.9356,-0.671442,56.6584,-87.7557,-55.3367,18.4599,1.5098,3.84262,4.24718,2.55141,1.53992,-5.64878,1.09378,-1.10777,1.04105,-2.1878,0.494281,3.29123,-2.8719,-3.05647,0.781179,-1.4685,-1.02884,-6.16232e-15,4.77083e-15,-17.3732,0.706446,-69.4996,81.0766,25.0593,-39.0189,-51.4491,7.12502,-12.0219,-81.0838,-6.16232e-15,4.77083e-15,-37.3984,17.1266,24.2083,154.209,1.28815,2.22478,13.5125,7.12502,27.7195,41.4893,-43.2382,-1.11145,19.0794,75.5691,-27.4245,0.431005,-21.6214,-15.6016,-2.53022,-26.8946,36.9819,-5.29093,-11.6736,-10.0313
1.2968,17.9731,-0.687985,49.7834,-86.6425,-48.3381,18.2663,1.28156,4.20812,4.24606,2.32739,1.80551,-5.55206,0.982704,-0.975676,0.814735,-2.44268,0.699251,2.96701,-3.22119,-2.5468,0.716713,-1.63201,-0.905215,-2.38542e-15,-1.35174e-14,-15.246,0.201269,-68.1382,80.479,24.8381,-38.8777,-51.9257,7.12502,-11.8857,-81.5683,-2.38542e-15,-1.35174e-14,-37.4482,16.4078,24.9053,154.374,0.301752,1.71772,13.2891,7.12502,27.2346,41.3429,-42.8178,-0.832283,19.4177,69.3944,-28.609,-0.525024,-21.709,-15.6912,-3.10385,-26.151,36.974,-5.2326,-11.3713,-10.538
1.27687,17.985,-0.712218,46.0652,-85.707,-44.4045,18.011,1.10483,4.25445,4.21559,2.10692,1.99375,-5.46401,0.878274,-0.747177,0.700868,-2.68871,1.01315,2.5747,-3.5591,-2.01174,0.612986,-1.7894,-0.789783,1.64991e-14,1.82882e-14,-13.2549,-0.211944,-66.9061,79.7104,24.1623,-38.6458,-52.5204,7.12502,-11.6621,-82.1758,1.64991e-14,1.82882e-14,-37.3462,15.902,24.8439,154.558,-0.180965,1.14842,13.3442,7.12502,26.6899,41.4822,-42.3145,-0.340575,19.48,62.7532,-29.721,-1.75658,-21.7975,-15.9261,-3.67962,-25.5204,37.059,-5.56502,-11.3651,-10.8361
1.25685,17.9664,-0.737809,41.9369,-84.9556,-40.1272,17.7718,0.99952,4.06335,4.25504,1.92619,2.07492,-5.31157,0.796959,-0.508495,0.525438,-2.9299,1.24564,2.17316,-3.89215,-1.30445,0.522751,-1.94665,-0.609643,-2.18663e-14,1.94809e-14,-11.3942,-0.712629,-65.742,78.8015,23.0899,-38.5076,-52.7424,7.12502,-11.5288,-82.4054,-2.18663e-14,1.94809e-14,-36.8209,15.7669,24.245,154.718,-0.115395,0.634298,13.6329,7.12502,26.1978,41.8449,-41.5531,0.178206,19.1321,55.8371,-30.3421,-2.90033,-22.5408,-16.0658,-4.30796,-25.1673,37.1826,-6.12685,-11.73,-10.3594
1.23759,17.9215,-0.765647,37.5365,-84.1537,-35.6749,17.6082,0.922022,3.81836,4.32846,1.77231,2.12381,-5.16132,0.728216,-0.281737,0.45443,-3.17928,1.50412,1.66205,-4.23252,-0.643713,0.382864,-2.11083,-0.44566,1.88845e-14,4.37326e-15,-9.73207,-1.20496,-64.5448,77.8509,21.5941,-38.4057,-52.5936,7.12502,-11.4305,-82.2621,1.88845e-14,4.37326e-15,-35.9931,15.9302,23.1905,154.888,0.383427,0.103888,14.2563,7.12502,25.6899,42.5427,-40.5275,0.670093,18.5589,48.8558,-31.2004,-3.48648,-21.6996,-16.0555,-5.00815,-24.92,37.2378,-6.34672,-12.5623,-6.97875
1.22294,17.8643,-0.80008,33.9693,-83.1367,-32.1501,17.6214,0.807842,3.62714,4.36657,1.59337,2.21465,-5.14183,0.643299,-0.0389841,0.551417,-3.46138,1.57562,1.11,-4.61093,0.112448,0.212042,-2.29894,-0.219649,9.54166e-15,-1.47101e-14,-8.39298,-1.57031,-63.3608,77.0055,19.9984,-38.1757,-52.4559,7.12502,-11.2087,-82.1365,9.54166e-15,-1.47101e-14,-34.9448,16.3507,21.7128,155.03,1.30489,-0.345906,15.2746,7.12502,25.259,43.6225,-39.4088,1.25249,17.9782,42.1046,-31.0173,-4.87122,-22.6742,-15.9121,-5.63985,-24.5791,37.2102,-6.70558,-13.6208,-2.75599
1.21628,17.8087,-0.83193,30.1514,-82.0373,-28.4507,17.7869,0.656571,3.45415,4.3622,1.37646,2.23878,-5.2457,0.538158,0.129145,0.65989,-3.73042,1.55919,0.745167,-4.96954,0.904355,0.103223,-2.48012,0.0271087,2.25621e-14,2.38542e-15,-7.40077,-1.83714,-62.2328,76.2046,18.7872,-37.7565,-52.3793,7.12502,-10.8044,-82.0814,2.25621e-14,2.38542e-15,-33.6153,17.0798,19.9478,155.07,2.51614,-0.435505,16.3858,7.12502,25.1732,44.7459,-38.3514,1.79154,17.1478,35.9906,-29.9435,-5.2583,-29.6727,-15.7155,-6.04117,-24.4129,37.2146,-7.76487,-14.6715,-0.994568
1.21498,17.7503,-0.859105,26.5335,-81.0302,-25.0216,18.0579,0.539808,3.23756,4.3255,1.20061,2.20343,-5.43786,0.453051,0.250042,0.901537,-3.9884,1.64647,0.478081,-5.30681,1.46864,-0.00291696,-2.65268,0.190484,2.22639e-14,9.14409e-15,-6.76912,-2.02112,-61.1878,75.4363,18.295,-37.3694,-52.2615,7.12502,-10.431,-81.9827,2.22639e-14,9.14409e-15,-32.3284,18.0061,18.0622,155.038,3.8747,-0.256199,17.2266,7.12502,25.345,45.5624,-37.4227,2.51962,15.9804,30.9999,-29.9913,-3.99613,-29.3866,-15.5211,-6.14142,-24.4592,37.3742,-8.90362,-15.6761,0.0566976
1.21459,17.6772,-0.893193,24.2688,-80.1014,-23.0522,18.4863,0.487991,3.07095,4.29454,1.12429,2.21246,-5.70481,0.414182,0.368336,1.1721,-4.2468,1.63129,0.260889,-5.64296,1.99548,-0.0962043,-2.82617,0.360813,-3.77691e-15,-5.1684e-15,-6.58459,-2.23352,-60.3293,74.8966,18.5541,-37.145,-51.7002,7.12502,-10.2145,-81.4322,-3.77691e-15,-5.1684e-15,-31.1844,18.9354,16.3599,154.974,5.46144,-0.0629512,17.8535,7.12502,25.5301,46.1629,-36.5754,3.32272,15.0439,27.5889,-29.6884,-1.88028,-26.7534,-15.3508,-6.12423,-24.3602,37.7392,-9.11185,-16.8532,3.90602
1.21589,17.6054,-0.937884,21.9007,-79.2841,-20.9299,18.9928,0.499475,2.81214,4.27304,1.11103,2.17791,-6.00296,0.407209,0.478406,1.27584,-4.52493,1.55615,0.130568,-6.01081,2.50011,-0.133829,-3.01452,0.530549,-1.58034e-14,7.95139e-15,-6.88187,-2.5876,-59.7186,74.6961,19.3589,-36.9075,-51.1639,7.12502,-9.98544,-80.9071,-1.58034e-14,7.95139e-15,-30.0805,19.9016,15.0375,154.896,7.25762,0.23031,18.4517,7.12502,25.811,46.7206,-36.0434,3.58834,14.4582,26.1421,-28.3519,-1.5547,-28.9908,-15.3969,-6.24143,-24.2964,38.3011,-8.71728,-18.019,7.99896
1.21172,17.5513,-0.992474,18.6988,-78.7188,-18.0567,19.6824,0.596332,2.32454,4.3242,1.15344,2.04664,-6.32192,0.429254,0.600679,1.31436,-4.77372,1.45019,-0.0502814,-6.33938,2.96075,-0.175069,-3.18393,0.692229,-4.81059e-14,-2.5842e-14,-7.58341,-2.97643,-59.3934,74.7918,20.3315,-36.7594,-51.1507,7.12502,-9.84248,-80.9007,-4.81059e-14,-2.5842e-14,-29.2181,21.087,13.9763,154.804,9.14581,0.854479,18.8108,7.12502,26.4086,46.9914,-36.0079,3.48061,13.983,26.8873,-26.6481,-0.9009,-27.8266,-15.3117,-6.21263,-24.4763,38.7845,-8.47633,-18.8236,9.2392
1.16915,17.5043,-1.05262,13.859,-78.5011,-12.3097,19.1489,0.818841,1.20567,4.14619,1.21195,1.70677,-6.24853,0.484675,0.860296,1.41553,-4.91264,1.09818,-0.388012,-6.51801,3.57954,-0.261719,-3.28267,0.94748,-8.74653e-15,4.57205e-15,-8.58275,-3.23089,-59.3906,75.1387,20.7305,-36.81,-51.8225,7.12502,-9.89131,-81.5702,-8.74653e-15,4.57205e-15,-28.7265,22.3585,13.2956,154.64,10.8339,1.6292,18.783,7.12502,27.1499,46.8501,-37.0338,2.28298,13.3795,29.1634,-23.4919,-0.510481,-26.552,-16.2776,-6.04571,-25.2641,39.0189,-8.38015,-19.2834,8.95427
1.12213,17.5068,-1.10407,10.4434,-78.335,-8.47202,19.0574,0.990994,0.563001,4.12448,1.29725,1.42278,-6.23235,0.538065,0.901544,1.61416,-4.9725,0.74218,-0.81098,-6.5846,4.08313,-0.395602,-3.32784,1.1755,1.09332e-15,4.17448e-15,-9.72152,-3.32753,-59.8397,75.5095,20.5708,-36.8543,-52.3721,7.12502,-9.93412,-82.1177,1.09332e-15,4.17448e-15,-28.7072,23.3933,13.1981,154.444,11.8429,2.27254,18.5475,7.12502,27.7652,46.5169,-37.1993,0.483335,13.7149,32.3152,-21.6079,-1.00282,-29.8751,-16.3913,-5.61773,-25.7339,38.7326,-8.62025,-19.8304,7.10088
1.06925,17.5372,-1.152,9.59979,-78.3315,-7.42269,19.108,1.14263,0.350626,4.14069,1.44942,1.35474,-6.24752,0.614786,0.912431,1.76688,-4.97385,0.55562,-0.996509,-6.57961,4.15625,-0.470048,-3.32966,1.2376,-3.04141e-14,4.37326e-15,-10.9485,-3.14647,-60.621,75.6396,20.2915,-36.9937,-51.6519,7.12502,-10.0686,-81.391,-3.04141e-14,4.37326e-15,-29.5877,23.9026,13.6143,154.362,12.1534,2.53461,18.0144,7.12502,28.0158,45.9432,-37.3283,-0.704956,14.5146,35.8256,-20.7856,-0.461785,-30.0713,-16.0345,-4.90773,-25.6122,37.9848,-9.32388,-20.607,2.45786
1.01031,17.6045,-1.19627,10.3808,-78.4285,-7.98491,19.1239,1.25006,0.415768,4.07446,1.60963,1.39552,-6.32908,0.692753,0.879737,1.3639,-4.98346,0.678629,-0.366698,-6.61962,3.69038,-0.228261,-3.33174,1.04817,3.68746e-14,5.96354e-16,-12.4277,-2.56173,-61.6529,75.5879,19.769,-37.0935,-50.8698,7.12502,-10.1649,-80.6043,3.68746e-14,5.96354e-16,-31.2502,23.7898,14.3117,154.352,11.928,2.36491,17.0295,7.12502,27.8535,44.9847,-37.2952,-1.46667,15.5952,39.3284,-20.1603,0.16404,-29.8063,-15.4141,-4.22045,-25.1376,36.733,-10.1126,-21.2178,-3.41204
0.935524,17.688,-1.23458,11.0488,-78.5084,-8.21511,18.9199,1.21932,0.690901,3.88148,1.62569,1.25094,-6.41594,0.700257,0.565854,-0.0181772,-5.06158,1.24978,1.31704,-6.79504,2.80028,0.461222,-3.37954,0.61556,1.56046e-14,-1.33186e-14,-14.1643,-1.69047,-63.1046,75.4025,19.0742,-37.0956,-50.8816,7.12502,-10.1669,-80.616,1.56046e-14,-1.33186e-14,-33.0952,23.4025,14.9596,154.316,11.2075,2.12167,15.9217,7.12502,27.6209,43.9143,-37.2314,-1.97389,16.4877,42.5243,-22.3865,2.41981,-15.1663,-14.8472,-3.76914,-24.7691,35.235,-10.5307,-21.4275,-7.50738
0.844856,17.7823,-1.26841,11.0855,-78.5097,-7.52754,18.3577,1.13138,0.842188,3.61306,1.54316,1.06989,-6.39365,0.665223,0.311837,-0.287548,-4.86489,1.37232,2.0418,-6.55639,2.51788,0.710941,-3.24858,0.494091,1.15295e-14,-7.15625e-15,-16.0302,-0.702332,-64.6618,75.0633,18.3641,-37.3498,-50.7874,7.12502,-10.4121,-80.5096,1.15295e-14,-7.15625e-15,-35.1071,23.1907,15.5287,154.235,10.2955,2.2656,14.6677,7.12502,27.7586,42.6382,-37.315,-2.43013,17.1305,45.3821,-18.2481,2.82482,-24.1874,-14.4791,-3.66129,-24.6256,33.6034,-10.576,-21.0632,-9.68615
0.746112,17.8685,-1.30235,10.747,-78.3384,-6.23796,17.5229,1.04293,0.817112,3.27992,1.43406,0.975865,-6.29966,0.623259,0.260127,0.705133,-4.50728,0.927584,1.46845,-6.04884,2.95005,0.397693,-3.01214,0.732423,-1.56046e-14,-9.74045e-15,-18.1041,0.277565,-66.0812,74.6775,17.64,-37.7603,-50.5404,7.12502,-10.8081,-80.2423,-1.56046e-14,-9.74045e-15,-37.2474,23.3257,15.9742,153.974,9.51681,2.91714,12.7574,7.12502,28.3814,40.6258,-37.4665,-3.17201,17.7393,47.8683,-15.3686,4.01365,-22.6881,-14.4372,-3.84068,-24.5935,32.1576,-10.2964,-20.5947,-10.4204
0.643747,17.9405,-1.33555,10.8212,-77.99,-5.38382,16.7117,0.931049,0.948818,2.92307,1.32472,0.93118,-6.23785,0.577459,0.170375,0.92358,-4.35928,0.834517,1.49503,-5.84713,2.85576,0.367512,-2.91349,0.724229,-4.57205e-15,1.15295e-14,-20.4209,1.16235,-67.4186,74.2816,17.2039,-38.0519,-50.3375,7.12502,-11.0893,-80.0246,-4.57205e-15,1.15295e-14,-39.3237,23.6275,16.1954,153.542,9.00963,3.36814,10.527,7.12502,28.8123,38.3229,-37.3902,-4.20183,18.5632,49.7816,-14.2385,4.54501,-23.5793,-14.5395,-4.16157,-24.4577,31.0457,-10.1616,-20.284,-11.6233
0.541156,17.9793,-1.37164,12.2804,-77.5805,-6.07838,16.0128,0.857875,1.3776,2.63521,1.31759,1.02023,-6.15668,0.5733,0.0308333,0.766532,-4.36439,0.745612,1.70187,-5.86086,2.73587,0.455115,-2.91699,0.695641,-1.96797e-14,-8.54774e-15,-22.7739,1.78178,-68.5936,73.8496,17.3558,-38.2318,-49.4819,7.12502,-11.2628,-79.1596,-1.96797e-14,-8.54774e-15,-41.2329,23.9791,16.4307,153.093,8.87521,3.39292,8.70509,7.12502,28.8359,36.4969,-37.1049,-5.06267,19.7173,51.0942,-13.5446,4.6647,-26.2724,-14.7675,-4.76368,-23.9631,30.4911,-10.8022,-19.7239,-14.7052
0.444257,18.0086,-1.41026,14.4234,-77.1697,-7.51341,15.332,0.870777,1.9691,2.40764,1.44246,1.16053,-6.0144,0.628909,-0.172537,0.671801,-4.44335,0.619139,1.65718,-5.96615,2.74438,0.46238,-2.9697,0.716716,-3.37934e-15,-5.56597e-15,-24.9784,1.96491,-69.6049,73.2594,18.1278,-38.4385,-48.4481,7.12502,-11.4622,-78.1147,-3.37934e-15,-5.56597e-15,-42.757,24.3362,16.7577,152.62,8.9603,3.13204,7.32697,7.12502,28.5867,35.161,-36.5765,-5.62863,20.9876,51.5616,-13.0601,4.4856,-26.6472,-15.3338,-5.10623,-23.2634,30.6184,-11.3734,-19.4633,-16.9617
0.354765,18.0117,-1.45034,16.0759,-76.7383,-8.55651,14.7534,0.88885,2.5401,2.24015,1.55789,1.25119,-5.86001,0.678877,-0.413812,0.641073,-4.51299,0.596028,1.38028,-6.04988,2.68839,0.382764,-3.01445,0.706126,-5.08889e-14,1.27222e-14,-26.8764,1.84344,-70.5916,72.3127,19.5462,-38.7895,-48.0665,7.12502,-11.8007,-77.7141,-5.08889e-14,1.27222e-14,-44.0308,24.7536,16.7575,152.09,8.88559,1.9104,6.21707,7.12502,27.4189,34.2418,-35.7674,-6.20288,22.2039,51.39,-12.8839,3.45969,-30.8029,-16.2199,-5.30701,-22.6618,31.5212,-11.7889,-19.5057,-17.8192
0.27426,17.9765,-1.49538,17.2871,-76.2848,-9.30082,14.3555,0.852243,3.04364,2.1411,1.58475,1.32926,-5.73389,0.685434,-0.614372,0.69164,-4.53787,0.480122,0.906669,-6.06982,2.74366,0.236135,-3.03036,0.749698,-5.1684e-15,6.36111e-15,-28.3715,1.66014,-71.6037,70.9206,21.266,-39.2637,-48.2103,7.12502,-12.2579,-77.8311,-5.1684e-15,6.36111e-15,-45.2487,25.3693,16.1151,151.463,8.66195,-0.00466016,5.06982,7.12502,25.5859,33.3712,-34.8837,-6.33694,23.1065,50.504,-11.4663,2.46823,-29.036,-17.3681,-5.59686,-22.1331,33.1345,-12.4333,-19.4697,-18.3229
0.202416,17.9137,-1.54627,18.1168,-75.7476,-9.82735,14.1492,0.811993,3.61251,2.1029,1.61336,1.3594,-5.64451,0.68987,-0.904956,0.617047,-4.59221,0.29526,0.535143,-6.13548,2.91852,0.147761,-3.06714,0.836666,3.62782e-14,1.19271e-15,-29.5663,1.23055,-72.5869,69.0651,22.6215,-39.7238,-48.8274,7.12502,-12.7016,-78.4212,3.62782e-14,1.19271e-15,-46.0581,26.0481,15.0983,150.659,8.59147,-1.48871,3.86166,7.12502,24.1637,32.3596,-33.884,-6.52832,23.9708,49.3878,-10.2614,1.18959,-26.4256,-18.7249,-6.029,-21.6197,35.458,-13.0471,-19.5264,-16.9171
0.135536,17.8158,-1.60227,18.0059,-75.0626,-9.68863,14.1702,0.763425,4.20245,2.17152,1.63179,1.31772,-5.5639,0.688005,-1.2841,0.354582,-4.68902,0.265432,0.391067,-6.26324,2.85897,0.147527,-3.13044,0.818385,2.3059e-14,-1.63003e-14,-30.5118,0.453101,-73.4851,66.7806,23.3006,-40.0775,-49.5025,7.12502,-13.0425,-79.0748,2.3059e-14,-1.63003e-14,-46.3669,26.7712,13.8202,149.697,8.89081,-2.32821,2.96413,7.12502,23.3586,31.5668,-32.6931,-6.82763,24.6111,48.2037,-13.5343,1.09602,-25.5002,-20.0834,-6.55632,-21.27,38.4697,-13.238,-20.0034,-13.3519
0.0776712,17.6832,-1.66394,17.0256,-74.4221,-8.88197,14.3869,0.732669,4.55613,2.31078,1.64497,1.29795,-5.52325,0.687653,-1.50924,0.0665213,-4.8087,0.141215,0.307334,-6.422,2.66073,0.168388,-3.20842,0.771236,7.55382e-15,7.55382e-15,-31.2627,-0.324836,-74.1984,64.2015,23.345,-40.398,-49.8241,7.12502,-13.3514,-79.3763,7.55382e-15,7.55382e-15,-46.402,27.6065,12.3462,148.576,9.67581,-2.69431,2.30941,7.12502,23.0073,30.9563,-31.5745,-6.6094,24.814,47.4027,-16.505,0.0935305,-23.2489,-21.5878,-6.9974,-21.1874,42.2061,-13.127,-20.6206,-10.3453
0.0340438,17.5413,-1.73106,16.6013,-73.8626,-8.74477,14.7669,0.778705,4.96094,2.44282,1.78441,1.41165,-5.57396,0.745752,-1.64932,-0.108607,-4.98381,-0.256667,0.167693,-6.65204,2.57393,0.167893,-3.32356,0.805847,6.95746e-15,-2.38542e-15,-31.9385,-1.17642,-74.6218,61.3923,22.9396,-40.4373,-49.335,7.12502,-13.3893,-78.8847,6.95746e-15,-2.38542e-15,-46.0699,28.3131,11.1917,147.282,10.5391,-2.97192,1.83445,7.12502,22.7409,30.5142,-30.7227,-5.52425,24.942,47.0728,-19.0792,-1.18748,-20.1861,-23.418,-7.32719,-20.9353,46.5882,-13.3377,-20.8877,-10.8171
0.00898772,17.3856,-1.80131,16.8028,-73.3487,-9.44972,15.4352,0.894582,5.5205,2.58669,2.06648,1.65632,-5.75709,0.865475,-1.77262,-0.0157459,-5.14517,-0.603597,-0.147742,-6.85916,2.31743,0.0624446,-3.42997,0.791162,-3.18055e-15,0,-32.4957,-2.23467,-74.7101,58.1512,22.5651,-39.7734,-47.8701,7.12502,-12.7494,-77.4608,-3.18055e-15,0,-45.4893,28.7319,10.4628,145.91,11.1423,-3.61832,1.55166,7.12502,22.1204,30.3063,-30.1387,-4.09763,25.2684,47.348,-21.2737,-2.61255,-18.6746,-25.5102,-7.84213,-20.3951,51.5651,-11.4213,-20.9263,-9.88389
-0.000454456,17.2546,-1.86744,17.2946,-73.1232,-10.7845,16.5483,1.09042,6.07698,2.78235,2.49262,2.00782,-6.11678,1.04647,-1.82444,0.24632,-5.16502,-0.827738,-0.552623,-6.88164,1.74851,-0.115775,-3.44359,0.66976,1.03368e-14,-1.59028e-14,-32.9426,-3.33581,-74.5472,54.6431,22.0948,-38.4035,-47.0644,7.12502,-11.4284,-76.7329,1.03368e-14,-1.59028e-14,-45.0484,29.0837,9.79174,144.548,12.0374,-4.20353,1.15171,7.12502,21.5585,29.9718,-29.4701,-2.76306,25.8573,47.7976,-22.5832,-4.15169,-17.7617,-27.6714,-8.17585,-19.7218,57.0481,-8.24192,-20.3258,-10.2511
0.00315819,17.1498,-1.92393,17.3218,-73.3247,-11.9075,18.0509,1.33222,6.41008,3.03072,2.9748,2.35515,-6.63069,1.24915,-1.78724,0.53811,-5.02954,-0.943618,-0.919718,-6.70745,0.953211,-0.300396,-3.35558,0.46419,3.53837e-14,9.54166e-15,-33.4209,-4.50181,-74.2167,51.0859,21.4665,-37.4287,-46.5341,7.12502,-10.4882,-76.2525,3.53837e-14,9.54166e-15,-45.0133,29.4218,9.04394,143.269,13.3067,-4.47857,0.392806,7.12502,21.2943,29.2429,-28.774,-1.69912,26.3638,48.4034,-22.1486,-5.12056,-16.5246,-29.7101,-8.27561,-19.26,62.6271,-6.92318,-18.5724,-18.8743
0.00363877,17.0753,-1.94716,25.6251,-72.9457,-21.0915,18.9169,1.32803,9.36467,3.1442,3.64049,3.23933,-6.79053,1.48298,-2.66354,0.866614,-4.83474,-0.879617,-1.28914,-6.46304,0.0834588,-0.499394,-3.22947,0.209435,1.03368e-14,-2.06736e-14,-33.988,-5.71138,-73.6818,47.2609,21.5605,-37.4264,-45.313,7.12502,-10.4859,-75.0314,1.03368e-14,-2.06736e-14,-45.352,29.5464,8.44952,142.165,14.1978,-4.88508,-0.64809,7.12502,20.9038,28.2456,-28.3047,-0.899303,29.4579,48.61,-21.8938,-5.57452,-15.2282,-32.4445,-7.93043,-16.0709,68.1955,-6.70146,-16.4566,-30.6805
-0.00161039,17.0332,-1.95735,29.2899,-72.926,-25.2585,19.5032,1.42047,10.7871,3.26876,4.11272,3.68811,-6.84517,1.6646,-3.0937,1.24017,-4.62922,-0.76843,-1.70138,-6.20703,-0.529756,-0.712358,-3.096,0.024178,-6.75868e-15,-2.38542e-14,-34.7258,-6.97896,-73.0538,43.5795,22.3385,-36.5997,-45.0936,7.12502,-9.6884,-74.8508,-6.75868e-15,-2.38542e-14,-45.8422,29.4216,8.15751,141.302,14.4434,-5.57917,-1.73653,7.12502,20.2369,27.2293,-27.8707,-0.781644,30.8309,48.5882,-22.0939,-5.67059,-16.3198,-35.096,-7.91413,-14.6545,73.2208,-6.5953,-16.0207,-27.9102
-0.0221247,17.0456,-1.96169,29.2308,-73.3662,-25.9513,20.3631,1.52565,10.9664,3.55204,4.36437,3.83718,-6.95868,1.77053,-3.12203,1.58174,-4.37687,-0.507077,-2.06327,-5.88522,-1.02944,-0.906104,-2.92942,-0.156909,-1.82882e-14,-5.00937e-14,-35.6546,-8.37072,-72.4367,40.229,22.0275,-35.6088,-43.2636,7.12502,-8.73228,-73.063,-1.82882e-14,-5.00937e-14,-46.6133,29.09,8.01046,140.728,14.1755,-6.58311,-2.74983,7.12502,19.2717,26.3153,-26.7182,-1.09901,30.9049,48.0687,-22.1151,-5.35459,-17.6619,-36.909,-8.2758,-14.6653,77.54,-7.61988,-14.8832,-28.3685
-0.050462,17.0968,-1.96821,27.5752,-73.5127,-24.8322,20.7445,1.42521,10.6699,3.89821,4.17716,3.9663,-6.83484,1.69502,-2.78245,1.82095,-4.06067,-0.0898104,-2.29375,-5.47411,-1.59498,-1.04747,-2.71845,-0.393085,6.12257e-14,-8.18993e-14,-36.5997,-9.82678,-71.6984,37.3484,21.7963,-34.9943,-41.808,7.12502,-8.13931,-71.6312,6.12257e-14,-8.18993e-14,-47.976,28.6816,7.96604,140.466,13.6277,-7.60516,-3.77205,7.12502,18.2887,25.3882,-25.6066,-1.73901,30.5642,47.2655,-21.8336,-4.90555,-17.7214,-38.8009,-9.28524,-15.0332,81.207,-8.6236,-13.5561,-27.4819
-0.0852903,17.1703,-1.97288,25.7817,-73.3354,-23.4025,20.7256,1.14992,10.3928,4.25126,3.71286,4.10155,-6.51745,1.49681,-2.36194,2.0603,-3.72629,0.399754,-2.40687,-5.03129,-2.09749,-1.14944,-2.49274,-0.628607,3.4191e-14,1.90833e-14,-37.6711,-11.2256,-70.9319,34.8458,21.7696,-35.4159,-41.8852,7.12502,-8.54612,-71.6923,3.4191e-14,1.90833e-14,-49.6845,28.1854,8.09526,140.411,13.0774,-8.44856,-4.75547,7.12502,17.4772,24.4789,-24.4661,-2.33416,30.2593,46.1242,-21.4088,-4.73809,-17.6791,-40.8199,-10.658,-15.3328,84.2703,-9.58207,-12.3245,-25.1761
-0.121908,17.2598,-1.97434,24.4772,-73.1103,-22.1949,20.5254,0.872117,10.275,4.42492,3.27711,4.12212,-6.27581,1.30391,-2.15955,2.49139,-3.45194,0.901125,-2.50401,-4.65554,-2.34517,-1.27021,-2.30188,-0.787293,-7.55382e-14,1.11319e-14,-39.2338,-12.8673,-69.9503,32.7258,22.6169,-36.3161,-42.3922,7.12502,-9.41477,-72.1619,-7.55382e-14,1.11319e-14,-51.269,27.4039,8.40607,140.451,12.6256,-9.2794,-5.56081,7.12502,16.6775,23.7427,-23.4546,-2.46021,30.0239,44.7,-20.7338,-4.90393,-17.4898,-43.0099,-11.9752,-15.5401,86.6788,-10.8346,-11.0946,-24.5386
-0.157515,17.3702,-1.97057,23.3726,-73.1348,-21.0473,20.3751,0.687247,10.193,4.49602,2.9846,3.99038,-6.14601,1.17352,-2.1815,2.90684,-3.24548,1.27784,-2.591,-4.36064,-2.3112,-1.37367,-2.15449,-0.839158,1.39149e-14,1.43125e-14,-41.222,-14.9814,-68.4964,31.0097,24.5728,-38.2877,-44.28,7.12502,-11.3168,-73.9547,1.39149e-14,1.43125e-14,-52.618,26.4358,8.94204,140.517,12.0771,-10.0489,-6.22726,7.12502,15.9366,23.1371,-22.4879,-2.12473,29.6827,43.0646,-19.7498,-5.21982,-17.2129,-45.071,-13.0042,-15.8438,88.2777,-11.7676,-9.99529,-24.3139
-0.188,17.5012,-1.96293,22.4755,-73.5375,-20.1556,20.4234,0.616981,10.1381,4.60963,2.85835,3.72673,-6.04808,1.12094,-2.40649,2.9996,-3.06795,1.73691,-2.52294,-4.09949,-2.30482,-1.37466,-2.02746,-0.919848,-2.70347e-14,8.74653e-15,-43.343,-17.2443,-66.8037,29.6044,26.6888,-38.9903,-44.7555,7.12502,-11.9943,-74.3918,-2.70347e-14,8.74653e-15,-53.707,25.4321,9.64281,140.527,11.1925,-10.5569,-6.86495,7.12502,15.4474,22.5378,-21.4361,-1.49764,29.2791,41.3467,-18.554,-5.50267,-16.744,-46.7497,-13.542,-16.2295,88.9005,-12.5335,-9.32509,-24.5001
-0.204164,17.6347,-1.95599,22.102,-74.3557,-19.8471,20.7529,0.658995,10.1192,4.75568,2.90918,3.38619,-6.03647,1.14752,-2.78457,3.02556,-2.91543,2.31134,-2.50011,-3.87252,-2.41346,-1.38413,-1.9172,-1.05693,-6.40087e-14,-2.94201e-14,-45.551,-19.1634,-65.1339,28.6692,28.3891,-39.7608,-44.8777,7.12502,-12.7372,-74.4692,-6.40087e-14,-2.94201e-14,-54.6497,24.4646,10.3025,140.428,10.1695,-11.1142,-7.48624,7.12502,14.9105,21.9571,-20.4286,-0.715527,28.9469,39.7324,-17.2232,-5.68481,-16.4883,-48.0952,-13.5006,-16.5569,88.4669,-12.8925,-9.21167,-24.8092
-0.205224,17.7552,-1.94714,21.7931,-75.4535,-19.5288,21.2039,0.730228,10.016,4.90874,2.98851,2.99567,-6.07806,1.18567,-3.18178,3.1932,-2.73421,2.7389,-2.80193,-3.61319,-2.44684,-1.51441,-1.79019,-1.14433,1.35174e-14,7.95139e-16,-47.5236,-20.7258,-63.3952,27.7607,30.1055,-40.0009,-44.719,7.12502,-12.9687,-74.2959,1.35174e-14,7.95139e-16,-55.6966,23.6441,10.7382,140.271,9.25239,-12.0214,-7.9312,7.12502,14.0364,21.5748,-19.7115,-0.0917437,28.5705,38.3584,-15.8619,-5.75844,-16.3815,-49.2066,-13.1749,-16.9366,86.8717,-13.0875,-9.19962,-26.1297
-0.209986,17.8533,-1.93224,21.1266,-76.6276,-18.8069,21.4854,0.786826,9.79274,5.15255,2.98782,2.60394,-5.94629,1.19683,-3.48743,3.18206,-2.46356,2.97141,-3.15303,-3.24718,-2.45113,-1.62024,-1.61076,-1.19473,-2.78299e-14,-3.4191e-14,-48.8555,-22.2739,-61.3721,26.1936,32.1712,-38.6793,-45.0129,7.12502,-11.6944,-74.6665,-2.78299e-14,-3.4191e-14,-56.8904,23.0337,10.9624,140.13,8.44224,-12.874,-8.25658,7.12502,13.2146,21.3046,-19.2692,0.0326505,28.1486,37.387,-14.6694,-5.82727,-15.3476,-49.9535,-12.793,-17.4251,84.0675,-13.4743,-9.23138,-27.6343
-0.224243,17.9422,-1.91658,19.6486,-78.0286,-17.2618,21.6028,0.957755,9.25961,5.46978,3.03905,2.18609,-5.65956,1.24541,-3.65295,2.89547,-2.16132,3.12434,-3.3225,-2.85131,-2.5317,-1.61741,-1.41617,-1.2593,-5.68524e-14,-3.26007e-14,-49.9993,-24.0117,-58.9257,24.6188,34.6438,-39.8246,-44.0288,7.12502,-12.7987,-73.6165,-5.68524e-14,-3.26007e-14,-58.064,22.5544,10.9943,139.973,7.78129,-13.6246,-8.63794,7.12502,12.4911,20.9687,-19.0171,-0.378352,27.6111,36.8576,-13.5423,-6.01444,-16.1865,-50.1219,-12.2782,-18.0883,79.9754,-14.149,-9.43607,-27.6588
-0.240571,18.0121,-1.90201,17.8922,-79.6127,-15.3865,21.6131,1.24502,8.62495,5.76139,3.21211,1.75411,-5.33753,1.35398,-3.80052,2.72588,-1.90692,3.16793,-3.6048,-2.51824,-2.48968,-1.66798,-1.25364,-1.26292,7.15625e-15,4.13472e-14,-51.2268,-25.7396,-56.2124,23.3858,37.281,-40.8054,-44.1221,7.12502,-13.7441,-73.6482,7.15625e-15,4.13472e-14,-59.1189,22.0569,10.7045,139.797,7.41345,-14.4085,-8.97472,7.12502,11.7352,20.6766,-19.0577,-1.04084,27.1202,36.757,-12.638,-6.16304,-18.0075,-49.8773,-11.6249,-18.6945,74.7508,-14.9035,-9.79404,-26.4854
-0.257706,18.0646,-1.88687,16.3444,-81.2944,-13.7067,21.5152,1.5944,7.98897,6.01965,3.46542,1.38597,-4.99289,1.49974,-3.89005,2.57444,-1.72391,3.395,-3.71577,-2.28192,-2.74018,-1.67844,-1.13574,-1.38957,-1.07344e-14,-9.54166e-15,-52.3738,-27.3087,-53.307,22.2575,39.8867,-41.5214,-44.7587,7.12502,-14.434,-74.2368,-1.07344e-14,-9.54166e-15,-60.1973,21.6014,9.99912,139.603,7.44823,-15.023,-9.21226,7.12502,11.1426,20.4719,-19.2871,-1.82789,26.7627,36.8804,-12.2619,-5.90991,-16.072,-49.2261,-10.8983,-19.0961,68.5387,-15.9679,-9.76727,-27.2595
-0.272288,18.0839,-1.87473,13.9647,-83.1114,-11.2276,21.4606,2.01353,7.139,6.21176,3.78229,1.07054,-4.75884,1.66863,-3.81778,2.35163,-1.49864,3.83771,-3.54479,-1.99315,-3.35827,-1.59262,-0.987592,-1.67435,6.36111e-15,1.59028e-14,-53.4218,-28.6005,-50.3131,21.2721,42.0979,-41.1457,-44.6837,7.12502,-14.072,-74.1873,6.36111e-15,1.59028e-14,-61.3102,21.2108,8.96328,139.358,7.81538,-15.5512,-9.31551,7.12502,10.6331,20.3955,-19.5639,-2.86011,26.4417,37.0776,-12.0271,-5.43031,-11.9582,-48.2455,-10.2326,-19.376,61.6368,-16.5657,-9.65012,-27.0077
-0.284795,18.0673,-1.86917,13.8086,-84.9136,-11.0868,21.5019,2.4286,6.51749,6.34971,4.16103,0.886972,-4.62336,1.85817,-3.75104,2.35755,-1.18255,4.00356,-3.6524,-1.57939,-3.6733,-1.61939,-0.777973,-1.81627,5.84427e-14,7.95139e-16,-54.284,-29.4804,-47.534,20.4926,43.5733,-41.1661,-44.4067,7.12502,-14.0917,-73.9089,5.84427e-14,7.95139e-16,-62.3883,20.8098,7.53713,139.143,8.55684,-16.092,-9.21363,7.12502,10.1114,20.5234,-19.6724,-3.86455,26.5892,37.1561,-12.0802,-5.06386,-8.31475,-47.0562,-9.77563,-19.0072,54.3982,-17.1006,-9.55816,-26.2059
-0.296916,18.0228,-1.86553,18.782,-86.5397,-16.1784,21.5424,2.79382,6.30109,6.44884,4.56835,0.808799,-4.50445,2.05865,-3.80561,2.38623,-0.947065,4.02284,-3.73501,-1.27302,-3.86854,-1.64123,-0.621745,-1.89088,-1.86858e-14,-2.62396e-14,-55.0574,-29.9122,-45.1671,20.168,44.1699,-41.4612,-44.8255,7.12502,-14.3761,-74.3077,-1.86858e-14,-2.62396e-14,-63.2279,20.4032,5.74929,138.897,9.59837,-16.3791,-8.98879,7.12502,9.83437,20.7616,-19.5531,-4.58806,27.0318,37.0409,-13.0458,-4.6722,-6.155,-45.7371,-9.78384,-17.9582,47.139,-17.6477,-8.84205,-28.2463
-0.306792,17.9588,-1.85866,26.9119,-87.9937,-24.4484,21.5426,3.12083,6.09839,6.47114,4.936,0.703365,-4.45032,2.23895,-3.88814,2.42024,-0.781944,3.99054,-3.60057,-1.05528,-4.03135,-1.59629,-0.508897,-1.94235,-4.29375e-14,-1.03368e-14,-55.7405,-29.7855,-43.3727,20.2534,43.7519,-41.2194,-45.0882,7.12502,-14.143,-74.5868,-4.29375e-14,-1.03368e-14,-63.6321,20.072,3.93563,138.465,10.5694,-16.1578,-8.91804,7.12502,10.048,20.8221,-19.2855,-4.95679,27.0928,36.8203,-14.7644,-4.13265,-4.87289,-44.5388,-10.4046,-16.7602,40.42,-18.2633,-7.92071,-31.4091
-0.314815,17.8672,-1.8519,61.7086,-89.0473,-59.4702,21.5635,3.37868,6.03196,6.43344,5.2553,0.676257,-4.47209,2.39213,-3.95588,2.65325,-0.597763,3.85869,-3.48066,-0.807744,-4.15601,-1.58827,-0.37849,-1.96466,-3.53837e-14,2.62396e-14,-56.1846,-29.0422,-42.2533,20.5689,42.3551,-41.104,-44.7856,7.12502,-14.0318,-74.2919,-3.53837e-14,2.62396e-14,-63.828,19.8906,2.17324,137.928,11.4865,-15.5389,-9.07774,7.12502,10.645,20.6326,-18.9511,-5.0465,27.0994,36.838,-16.7071,-3.48752,-4.34154,-43.6883,-11.5697,-15.1059,34.7462,-17.4237,-8.95717,-25.1439
-0.305766,17.7599,-1.85232,122.796,-88.5884,-120.795,21.6098,3.61686,6.26295,6.35778,5.6286,0.866565,-4.53429,2.5671,-3.97265,2.86056,-0.419981,3.73474,-3.2196,-0.57809,-4.56613,-1.53417,-0.252867,-2.08083,-4.25399e-14,-5.56597e-15,-56.4291,-27.9226,-41.5922,21.1673,40.5378,-40.8784,-44.7405,7.12502,-13.8144,-74.2617,-4.25399e-14,-5.56597e-15,-63.9412,19.9738,0.620589,137.372,12.4651,-14.9041,-9.01024,7.12502,11.2573,20.6677,-18.8866,-5.02826,27.5973,37.2848,-17.9853,-2.96731,-4.8147,-43.2085,-12.1285,-13.4687,30.8064,-17.0525,-8.05345,-29.081
-0.276106,17.6396,-1.85403,135.736,-87.4984,-133.973,21.7843,3.83161,6.68028,6.29119,6.02454,1.19632,-4.64409,2.74702,-3.95834,2.88007,-0.255656,3.55209,-2.82754,-0.373963,-5.07546,-1.4058,-0.141744,-2.2167,2.06736e-14,1.74931e-14,-56.4641,-26.8715,-41.0015,21.8124,39.1004,-40.4693,-44.9047,7.12502,-13.4201,-74.4525,2.06736e-14,1.74931e-14,-64.0336,20.4247,-0.602544,136.871,13.5792,-14.2294,-8.70932,7.12502,11.9079,20.932,-19.2164,-4.90501,28.3552,38.1585,-18.625,-2.51547,-4.21152,-43.1512,-11.4094,-12.6934,29.1179,-15.6097,-8.13315,-28.3746
-0.241692,17.5152,-1.84643,133.142,-86.2054,-131.774,22.2621,3.89829,7.67751,6.27765,6.37036,1.64393,-4.79891,2.89137,-4.14843,2.76757,-0.105051,3.36224,-2.48524,-0.186338,-5.46398,-1.26945,-0.0442547,-2.31062,6.16232e-14,-1.11319e-14,-55.965,-25.7253,-41.0833,22.2647,36.9493,-40.6116,-45.2994,7.12502,-13.5573,-74.8381,6.16232e-14,-1.11319e-14,-64.2287,21.2335,-1.60643,136.523,14.8293,-13.2884,-8.46761,7.12502,12.8152,21.119,-19.5262,-4.62684,29.4818,39.2892,-19.3624,-2.01945,-2.41887,-43.3007,-10.0972,-12.09,29.541,-14.3208,-9.28206,-27.8344
-0.209231,17.3854,-1.83165,125.007,-84.347,-124.396,23.2911,3.73997,9.5879,6.34855,6.67411,2.24623,-5.0398,2.99105,-4.7025,2.69324,0.0587499,3.3961,-2.33756,0.0251625,-5.82789,-1.20151,0.0635449,-2.43982,2.82274e-14,2.06736e-14,-55.3195,-25.1814,-40.9673,22.523,36.0873,-40.3256,-45.3367,7.12502,-13.2817,-74.8935,2.82274e-14,2.06736e-14,-64.5054,22.3053,-2.46915,136.295,15.9251,-12.2838,-8.21932,7.12502,13.7835,21.3041,-19.3244,-4.19692,31.4309,40.3622,-20.1339,-1.92965,-1.49822,-43.2643,-8.94187,-10.7068,31.5837,-13.9798,-10.6828,-29.4856
-0.189827,17.3272,-1.82398,123.297,-84.0352,-122.518,23.4006,3.57315,10.0423,6.2552,6.58894,2.36092,-5.16729,2.93484,-4.8221,2.72809,0.248605,3.64046,-2.37454,0.278953,-6.12016,-1.2089,0.192886,-2.58777,-2.78299e-15,-1.35174e-14,-54.4296,-24.8625,-41.3447,22.8501,35.5125,-39.692,-45.2385,7.12502,-12.6709,-74.8342,-2.78299e-15,-1.35174e-14,-64.7371,23.4663,-3.19714,136.173,16.5275,-11.4842,-8.05634,7.12502,14.554,21.4131,-20.0018,-4.62291,31.8272,41.1261,-20.4954,-1.63242,-2.12489,-44.257,-9.06754,-10.4003,34.6399,-12.8923,-11.5339,-26.7601
-0.168304,17.3064,-1.82845,120.517,-84.2252,-119.849,23.7536,3.34408,10.1162,6.26032,6.34362,2.34442,-5.36495,2.79993,-4.85131,2.83062,0.386325,3.83648,-2.41375,0.472518,-6.15044,-1.22978,0.290546,-2.63903,1.59028e-15,3.97569e-15,-53.4308,-24.5127,-42.4482,23.471,34.2476,-39.4007,-45.1166,7.12502,-12.39,-74.7294,1.59028e-15,3.97569e-15,-64.7136,24.5848,-3.47236,136.257,16.4281,-11.0041,-7.91497,7.12502,15.0165,21.5205,-20.1445,-5.16738,31.8144,41.4668,-20.4455,-1.63131,-3.46499,-44.9018,-9.62001,-10.5706,38.6596,-12.999,-10.415,-30.996
-0.150197,17.3173,-1.84539,114.888,-84.6587,-114.321,23.9815,3.12372,10.0534,6.27318,6.06608,2.29691,-5.50858,2.65714,-4.81848,3.0313,0.400205,3.94616,-2.42143,0.513249,-5.84493,-1.26464,0.309444,-2.55959,1.47101e-14,1.35174e-14,-52.5149,-24.0255,-44.2057,24.5111,32.1536,-39.5137,-45.7841,7.12502,-12.499,-75.3903,1.47101e-14,1.35174e-14,-64.2775,25.5691,-2.94524,136.586,15.6944,-11.0124,-7.47673,7.12502,15.0086,21.9593,-20.0697,-5.77361,31.6825,41.4467,-20.3944,-1.76464,-3.97169,-45.6722,-10.2413,-11.0112,43.3342,-12.2898,-9.38557,-32.6264
-0.141292,17.342,-1.86631,106.697,-85.0478,-106.15,23.9834,2.96143,10.0439,6.28488,5.85507,2.25665,-5.52384,2.557,-4.80479,3.21037,0.310627,3.97643,-2.28903,0.426231,-5.26776,-1.2562,0.260045,-2.37109,-3.18055e-15,1.11319e-14,-51.6643,-23.1213,-46.7117,25.9407,29.1523,-40.0428,-46.9485,7.12502,-13.009,-76.5228,-3.18055e-15,1.11319e-14,-63.4834,26.2987,-1.63489,137.068,14.4603,-11.3929,-6.97365,7.12502,14.642,22.4894,-19.8378,-6.30997,31.5534,41.0589,-20.4447,-1.81041,-3.37468,-46.7327,-10.8384,-11.5283,48.8307,-11.2904,-8.41384,-29.2581
-0.133712,17.3879,-1.88617,98.777,-85.2894,-98.0404,23.7623,2.91921,10.0867,6.25609,5.79344,2.18183,-5.4398,2.53768,-4.87988,3.15114,0.14526,4.01636,-1.79662,0.239027,-4.69887,-1.09555,0.156833,-2.18119,-7.79236e-14,3.97569e-15,-50.9324,-21.9442,-49.6928,27.674,25.9614,-40.5319,-47.51,7.12502,-13.4805,-77.0537,-7.79236e-14,3.97569e-15,-62.4246,26.6723,0.182674,137.566,12.9636,-11.7126,-6.86151,7.12502,14.334,22.6237,-19.6873,-6.59621,31.4454,40.3567,-20.3557,-1.84793,-2.262,-48.0856,-10.9617,-12.2065,54.8771,-11.2159,-7.61205,-31.1287
-0.122594,17.46,-1.90422,92.2072,-85.4511,-91.1524,23.5224,2.93462,10.1403,6.19005,5.80841,2.04187,-5.36755,2.55555,-5.05106,2.83143,-0.0260728,4.27483,-0.996114,0.0348679,-4.55885,-0.796466,0.0473346,-2.17062,1.55052e-14,1.03368e-14,-50.1687,-20.898,-52.747,29.4742,23.5659,-40.694,-47.4582,7.12502,-13.6367,-76.9915,1.55052e-14,1.03368e-14,-61.339,26.7004,2.10167,137.999,11.4891,-11.9173,-6.99971,7.12502,14.1367,22.4994,-19.577,-6.65781,31.3013,39.4106,-19.9072,-1.86992,-1.20723,-49.5258,-10.7229,-13.0163,61.3024,-10.7482,-7.38925,-24.676
-0.108987,17.55,-1.91853,86.6955,-85.8002,-85.3794,23.4387,2.92068,9.96805,6.13246,5.74298,1.80767,-5.39245,2.52991,-5.19196,2.49001,-0.105709,4.53256,-0.188961,-0.0568271,-4.65004,-0.489238,-0.00285804,-2.24084,-1.90833e-14,4.53229e-14,-49.1538,-19.7509,-55.9287,31.2594,21.8322,-40.7617,-47.5767,7.12502,-13.702,-77.1056,-1.90833e-14,4.53229e-14,-60.4273,26.4865,4.03379,138.251,9.8531,-12.3087,-7.08445,7.12502,13.7595,22.4406,-19.2749,-6.59763,30.8146,38.2788,-19.259,-1.91336,-2.41432,-50.7267,-10.3049,-14.183,67.8686,-10.7838,-6.71893,-26.3314
-0.0915693,17.6489,-1.92928,80.3524,-86.2981,-78.8495,23.495,2.85002,9.6461,6.09252,5.57655,1.50911,-5.49395,2.45116,-5.30516,2.34332,-0.0974373,4.56612,0.28122,-0.0383286,-4.53487,-0.315357,0.00387492,-2.20708,-2.38542e-15,-1.35174e-14,-47.9883,-18.5754,-59.1154,33.0435,20.5705,-40.9596,-47.822,7.12502,-13.8927,-77.338,-2.38542e-15,-1.35174e-14,-59.6295,26.1702,5.95951,138.305,8.08424,-12.9227,-7.15586,7.12502,13.1677,22.4083,-18.8311,-6.672,30.0753,37.0651,-18.5715,-1.95674,-5.68613,-51.695,-9.86921,-15.5846,74.4657,-10.4334,-6.44626,-24.6254
-0.0683088,17.7569,-1.94082,71.9828,-86.7598,-70.2713,23.6083,2.79374,9.30464,6.06001,5.42717,1.22593,-5.61715,2.37854,-5.39802,2.01776,0.0113049,4.40144,0.707461,0.101273,-4.23591,-0.118982,0.0690752,-2.07817,5.04913e-14,-3.97569e-15,-46.7055,-17.6665,-62.0364,34.7465,19.8202,-41.2455,-47.6737,7.12502,-14.1682,-77.1706,5.04913e-14,-3.97569e-15,-58.9885,25.8339,7.51673,138.358,6.81774,-13.47,-7.32093,7.12502,12.6401,22.2766,-18.5273,-6.91311,29.3111,36.0265,-17.7755,-1.75804,-8.69161,-52.6074,-9.51971,-16.9423,81.0749,-9.77608,-6.15936,-21.8943
-0.0410765,17.8544,-1.95356,62.6429,-86.9704,-60.6893,23.7279,2.76895,9.10063,6.0264,5.35528,1.05259,-5.72971,2.34116,-5.46663,1.19754,0.267337,3.85695,1.55815,0.419599,-3.61651,0.297112,0.218746,-1.77786,-2.3059e-14,-1.74931e-14,-45.2747,-16.8058,-64.6899,36.3721,19.2421,-41.5036,-47.6398,7.12502,-14.4169,-77.119,-2.3059e-14,-1.74931e-14,-58.4206,25.4805,8.73273,138.375,6.05362,-13.7736,-7.60877,7.12502,12.3474,22.0066,-18.4154,-7.18406,28.7245,35.2172,-17.0522,-1.35362,-11.9892,-53.518,-9.21808,-18.0551,87.6577,-9.55446,-5.65375,-22.3592
-0.0139894,17.9064,-1.96082,52.3012,-86.9627,-50.0294,23.7144,2.69282,9.01399,5.99741,5.23607,0.950862,-5.77178,2.28438,-5.50034,1.1566,0.274965,3.96634,1.51488,0.431839,-4.01498,0.292757,0.223941,-1.92685,-4.29375e-14,2.38542e-15,-43.6009,-15.7454,-67.1621,37.8771,18.6299,-41.6564,-47.9684,7.12502,-14.5641,-77.4371,-4.29375e-14,2.38542e-15,-57.9409,25.1596,9.68538,138.303,5.49169,-13.9927,-7.90142,7.12502,12.1362,21.7266,-18.5825,-7.58272,28.2063,34.7557,-16.5687,-0.677461,-15.5806,-54.6084,-9.10482,-19.0383,94.2903,-9.58455,-5.28079,-24.3685
0.0147995,17.9647,-1.96312,39.6323,-86.9684,-36.9647,23.5768,2.60956,8.76876,5.98727,5.05688,0.824958,-5.75255,2.20511,-5.44661,1.00084,0.29784,3.83971,1.52998,0.457778,-4.15928,0.325105,0.23419,-1.95098,-8.34896e-15,-1.51076e-14,-41.7788,-14.4663,-69.4287,39.4639,17.9285,-41.4247,-48.1537,7.12502,-14.3409,-77.6384,-8.34896e-15,-1.51076e-14,-57.6553,24.9184,10.2987,138.273,5.2344,-14.3848,-8.03062,7.12502,11.7581,21.6194,-18.9331,-7.9759,27.429,34.5351,-16.1912,0.412483,-17.6369,-55.5083,-9.21486,-20.2145,100.607,-9.81269,-5.36725,-25.0467
0.0493373,17.9966,-1.9651,30.846,-86.891,-27.8346,23.5373,2.59589,8.59722,5.96748,4.99775,0.767389,-5.77485,2.17876,-5.3969,0.786346,0.296915,3.648,1.55893,0.449888,-4.18233,0.369633,0.2269,-1.92388,6.83819e-14,1.59028e-14,-40.0789,-13.1476,-71.3344,41.2404,17.3295,-41.1825,-48.2802,7.12502,-14.1075,-77.7813,6.83819e-14,1.59028e-14,-57.3982,24.7031,10.5709,138.235,5.33862,-14.7554,-8.0507,7.12502,11.4007,21.6194,-19.4001,-8.07652,26.7949,34.5257,-16.1459,1.63299,-18.9879,-56.3143,-9.2296,-21.2243,106.785,-9.7941,-5.84665,-25.2807
0.0898254,17.9931,-1.96872,29.472,-86.7339,-26.2523,23.6631,2.61067,8.70741,5.95049,5.06018,0.84401,-5.8452,2.20232,-5.40045,0.481448,0.280594,3.57118,1.68248,0.424782,-4.46166,0.459847,0.208805,-2.00136,2.78299e-15,-1.27222e-14,-38.4794,-11.9525,-72.7851,43.0608,17.3452,-41.0159,-48.3602,7.12502,-13.947,-77.8724,2.78299e-15,-1.27222e-14,-57.1311,24.5238,10.4387,138.091,5.69426,-14.8249,-8.00209,7.12502,11.3336,21.6717,-19.74,-7.98018,26.6336,34.4727,-16.507,2.41473,-22.8128,-57.0415,-8.96232,-21.8036,112.86,-9.80054,-6.50656,-25.6383
0.132276,17.9568,-1.9728,29.3713,-86.5767,-26.1431,23.9765,2.6241,8.88235,5.99157,5.14747,0.987681,-5.94254,2.2329,-5.3837,0.112438,0.237942,3.51155,1.79626,0.366135,-4.95064,0.557915,0.170811,-2.15156,-4.8901e-14,-3.26007e-14,-36.9263,-10.8528,-73.8159,45.0562,17.8064,-40.7132,-48.1226,7.12502,-13.6552,-77.6547,-4.8901e-14,-3.26007e-14,-56.831,24.4152,10.0576,137.904,6.22132,-14.8623,-7.68552,7.12502,11.2976,21.9902,-19.8383,-7.96872,26.6773,34.3861,-17.3701,2.96747,-19.6753,-57.4489,-8.57138,-22.3416,118.701,-9.42236,-7.20022,-25.7232
0.176306,17.9029,-1.9773,27.9062,-86.3667,-24.8366,24.5066,2.61582,9.05199,6.02797,5.22937,1.17573,-6.16032,2.25122,-5.32983,-0.0616465,0.162152,3.34105,1.67712,0.261356,-5.40697,0.547049,0.111833,-2.27122,1.19271e-15,2.38542e-14,-35.5639,-9.67304,-74.4968,47.2931,18.2882,-40.5678,-47.7983,7.12502,-13.5151,-77.3397,1.19271e-15,2.38542e-14,-56.4451,24.3345,9.61045,137.693,6.84053,-14.8921,-7.27098,7.12502,11.2688,22.4063,-19.7113,-8.31093,26.828,34.1255,-18.1335,2.8732,-15.8532,-57.4521,-8.16047,-22.9514,124.089,-9.77349,-7.89196,-27.4549
0.223345,17.8409,-1.98017,26.9427,-85.9783,-24.1298,25.1631,2.53511,9.37891,6.00779,5.28519,1.44651,-6.50045,2.24512,-5.27746,0.0719776,0.0920509,2.96678,1.40375,0.161666,-5.69008,0.433729,0.0609633,-2.29571,2.8625e-14,2.54444e-14,-34.5314,-8.41152,-74.8382,49.7636,18.8213,-40.3835,-47.3155,7.12502,-13.3375,-76.8687,2.8625e-14,2.54444e-14,-56.0116,24.27,9.26178,137.425,7.39095,-14.7016,-7.17971,7.12502,11.4525,22.4875,-19.569,-8.97173,27.1847,33.9956,-18.454,2.37198,-12.6641,-57.0799,-7.70591,-23.419,128.918,-9.97788,-8.51389,-26.2925
0.2726,17.8162,-1.98265,26.3704,-85.4746,-23.7717,25.7636,2.45031,9.83663,5.94351,5.38,1.75215,-6.84524,2.25442,-5.26717,0.423618,-0.0172361,2.52265,1.06759,0.00472624,-5.80478,0.260778,-0.0126629,-2.25161,5.40694e-14,9.54166e-15,-33.7884,-7.25675,-74.8717,52.4679,19.2627,-40.298,-47.1975,7.12502,-13.2551,-76.7561,5.40694e-14,9.54166e-15,-55.442,24.2257,9.20206,137.157,7.84491,-14.4821,-7.23219,7.12502,11.6642,22.4231,-19.4536,-9.50868,27.5679,33.8157,-18.3086,1.73399,-10.2543,-56.312,-7.01729,-23.6807,132.832,-10.3483,-8.95764,-26.9988
0.325267,17.7625,-1.98361,24.7557,-85.0012,-22.3682,26.374,2.41159,10.205,5.90209,5.51505,2.03432,-7.16933,2.28413,-5.24279,0.46093,-0.140206,2.25238,1.06446,-0.162611,-6.04514,0.245975,-0.0991194,-2.28172,-3.89618e-14,3.18055e-15,-33.0872,-6.16121,-74.6336,55.1848,19.5368,-40.2526,-47.6724,7.12502,-13.2113,-77.2338,-3.89618e-14,3.18055e-15,-54.8698,24.2805,9.39398,136.923,8.19641,-14.4177,-7.15453,7.12502,11.7263,22.4973,-19.6131,-9.86704,27.7471,33.9989,-18.208,1.25636,-8.33269,-55.5569,-6.17724,-23.9596,136.132,-10.6643,-9.07251,-31.2925
0.370425,17.7228,-1.97986,36.4039,-83.5701,-33.3453,26.0312,2.14703,12.0978,5.61843,5.71413,2.67243,-7.14786,2.33898,-5.6278,0.1806,-0.198028,2.20542,1.40409,-0.227431,-6.51957,0.397445,-0.145148,-2.43211,6.36111e-15,1.90833e-14,-32.3152,-5.10349,-74.0737,57.629,20.3448,-40.7314,-48.2668,7.12502,-13.6728,-77.7977,6.36111e-15,1.90833e-14,-54.6113,24.4455,9.70255,136.761,8.50275,-14.5121,-7.11859,7.12502,11.6353,22.5384,-20.69,-10.415,29.7901,33.9569,-17.9943,0.913869,-8.16664,-56.0068,-4.16006,-21.5733,138.845,-10.2354,-10.1878,-29.8973
0.411039,17.7366,-1.97521,27.6339,-83.2408,-23.2471,25.1749,2.22943,11.4818,5.30076,5.61978,2.68651,-7.16264,2.3145,-5.20278,0.170576,-0.230286,2.30569,1.43669,-0.268929,-6.94796,0.407668,-0.169738,-2.59367,-4.45278e-14,-7.79236e-14,-31.5061,-4.29087,-73.253,59.6568,21.6405,-42.0251,-48.1642,7.12502,-14.9194,-77.6069,-4.45278e-14,-7.79236e-14,-54.6084,24.621,10.2134,136.755,8.81827,-14.7038,-7.17703,7.12502,11.4504,22.4903,-22.4046,-11.2254,29.1834,33.8791,-17.6325,0.828472,-8.4512,-56.3403,-5.01714,-22.8813,140.02,-9.85627,-9.56608,-31.6482
0.425371,17.7839,-1.96443,27.598,-82.7782,-22.6607,24.9874,2.21593,11.7654,5.20957,5.67879,2.89147,-7.15278,2.33664,-5.13958,0.399464,-0.18317,2.3254,1.11768,-0.220162,-6.88839,0.27054,-0.135184,-2.57551,-5.1684e-14,-1.74931e-14,-30.5925,-3.63339,-72.4433,61.2998,22.6146,-42.4996,-47.2808,7.12502,-15.3764,-76.689,-5.1684e-14,-1.74931e-14,-54.8688,24.8139,10.8647,136.925,8.97071,-14.9692,-7.28058,7.12502,11.1944,22.4008,-22.7068,-11.7859,29.4368,33.0875,-17.1977,1.00884,-8.33415,-54.8955,-4.67602,-22.471,139.864,-9.83808,-9.67218,-26.0442
0.449668,17.8495,-1.97152,25.5996,-82.0231,-19.908,24.7207,2.06137,11.7499,5.02387,5.48398,3.00984,-7.27364,2.23693,-4.93817,0.108072,-0.175589,2.62486,1.49906,-0.190924,-6.95356,0.442169,-0.129993,-2.65491,3.89618e-14,-1.90833e-14,-29.6217,-2.97617,-71.7942,62.5669,23.508,-42.1477,-47.3843,7.12502,-15.0375,-76.8182,3.89618e-14,-1.90833e-14,-55.3987,24.9802,11.4482,137.229,8.93107,-15.1875,-7.51363,7.12502,10.9839,22.179,-23.0105,-12.1999,29.5601,31.9102,-16.6056,0.811503,-8.22151,-53.909,-5.16372,-22.1467,138.53,-9.40635,-9.05634,-29.938
0.452513,17.9469,-1.97852,22.3825,-81.5768,-16.3574,24.8688,1.97562,11.4736,4.96394,5.33548,2.97029,-7.46639,2.1596,-4.8016,0.0385293,-0.185132,2.88688,1.64379,-0.197074,-6.62948,0.499133,-0.130873,-2.59573,7.95139e-16,1.74931e-14,-28.7738,-2.57069,-71.1531,63.4877,24.4509,-41.9099,-47.807,7.12502,-14.8084,-77.2579,7.95139e-16,1.74931e-14,-55.8144,25.028,12.1892,137.617,8.77527,-15.2769,-7.75376,7.12502,10.8977,21.9434,-22.382,-12.3031,29.2115,30.1276,-15.8679,0.435327,-9.19765,-51.7263,-5.7038,-22.3371,135.733,-8.83968,-7.73441,-27.9059
0.450629,18.0491,-1.98891,18.6744,-80.8936,-12.0794,24.7136,1.8233,11.1115,4.90525,5.03867,2.88015,-7.52632,2.02688,-4.6126,-0.130606,-0.196491,3.1807,1.7209,-0.21237,-6.27222,0.551537,-0.135922,-2.53166,5.64548e-14,-3.97569e-14,-27.9618,-2.27655,-70.5107,64.1671,25.0764,-42.044,-47.5403,7.12502,-14.9375,-76.9817,5.64548e-14,-3.97569e-14,-56.2406,25.0593,13.0089,138.003,8.48278,-15.4633,-7.97869,7.12502,10.7179,21.7279,-21.8656,-12.2816,28.7693,28.2457,-15.1786,-0.333344,-11.3564,-49.4788,-6.55858,-22.5789,132.119,-9.96288,-6.0521,-30.4712
0.444038,18.1496,-1.99781,15.2779,-80.0164,-7.88458,24.2612,1.63117,10.7878,4.81392,4.6677,2.74475,-7.4695,1.8683,-4.45839,-0.331128,-0.205785,3.47392,1.68197,-0.232898,-5.8831,0.572547,-0.142198,-2.4567,-3.10104e-14,-1.90833e-14,-27.3253,-2.03217,-69.8463,64.6999,25.2406,-42.2838,-47.6436,7.12502,-15.1686,-77.0676,-3.10104e-14,-1.90833e-14,-56.5587,24.9778,13.8855,138.281,8.04767,-15.8882,-8.29856,7.12502,10.308,21.4288,-21.5586,-12.2735,28.2867,26.4615,-14.7103,-1.21933,-13.335,-47.0923,-7.45079,-22.8441,127.718,-12.1586,-4.13515,-33.5384
0.432903,18.2397,-2.00096,11.829,-79.0502,-3.49981,23.664,1.55658,10.5534,4.64593,4.46232,2.52842,-7.38147,1.78919,-4.48459,-0.403747,-0.383801,3.73335,1.51497,-0.48303,-5.421,0.519761,-0.260488,-2.35145,3.65764e-14,1.90833e-14,-27.2217,-2.13742,-68.9607,65.2231,25.2137,-42.4638,-48.531,7.12502,-15.342,-77.9418,3.65764e-14,1.90833e-14,-56.297,24.6495,15.1585,138.464,7.56997,-16.2134,-8.62665,7.12502,9.99432,21.1161,-21.5976,-12.3586,27.6293,25.0651,-14.4017,-1.96306,-14.9943,-44.6474,-8.40664,-23.1642,122.277,-13.0596,-2.91669,-31.654
0.419697,18.3155,-2.00451,8.13592,-78.0488,1.18391,23.0526,1.53803,10.1537,4.47418,4.29034,2.28543,-7.29453,1.72916,-4.4571,-0.504776,-0.620754,3.87964,1.27575,-0.813865,-4.98819,0.446324,-0.421244,-2.23564,-1.27222e-14,-2.22639e-14,-27.3754,-2.31771,-67.9365,65.8572,25.0653,-42.7619,-49.0421,7.12502,-15.6291,-78.4307,-1.27222e-14,-2.22639e-14,-55.8777,24.3634,16.4189,138.617,7.21824,-16.2047,-8.94986,7.12502,10.0026,20.7925,-22.0151,-12.3255,26.7126,24.2239,-14.0443,-2.61676,-15.8141,-41.9519,-9.10014,-23.5728,116.378,-13.8791,-2.19409,-29.5778
0.406416,18.375,-2.0099,5.35933,-77.0218,5.02505,22.3886,1.48126,9.75118,4.28082,4.07061,2.07435,-7.21004,1.64496,-4.37872,-0.659608,-0.789419,3.95061,0.985562,-1.05451,-4.67049,0.371526,-0.53966,-2.14415,-1.43125e-14,-5.88403e-14,-27.5176,-2.40042,-66.8735,66.585,24.427,-42.8476,-48.5235,7.12502,-15.7116,-77.9057,-1.43125e-14,-5.88403e-14,-55.5682,24.1244,17.3223,138.699,7.02011,-16.234,-9.29371,7.12502,9.97443,20.45,-22.916,-12.1713,25.8233,24.1159,-13.6464,-3.13559,-15.4119,-39.6521,-9.55516,-23.7205,109.631,-13.9706,-1.63236,-28.29
0.395291,18.4047,-2.01415,3.25568,-76.0476,8.26441,21.655,1.43556,9.37469,4.04901,3.87333,1.88504,-7.12369,1.56975,-4.29543,-0.872949,-0.92935,3.87538,0.742732,-1.25532,-4.39818,0.324636,-0.640497,-2.04206,3.4191e-14,-3.49861e-14,-27.6008,-2.38459,-65.7303,67.2469,23.6349,-42.6804,-48.0565,7.12502,-15.5506,-77.4513,3.4191e-14,-3.49861e-14,-55.3284,23.8484,17.9478,138.713,7.03235,-16.4004,-9.59539,7.12502,9.81387,20.1559,-24.3411,-11.9818,24.9833,24.8854,-13.4054,-3.50894,-14.8831,-37.4231,-9.60852,-23.778,102.522,-14.139,-0.935712,-26.8902
0.384012,18.4018,-2.02044,0.92301,-75.2319,11.6769,20.9383,1.44961,8.72674,3.85527,3.69831,1.72997,-7.01782,1.51147,-4.02899,-0.992094,-1.03971,3.67422,0.386163,-1.41452,-4.24775,0.228981,-0.72082,-1.95604,-5.08889e-14,-5.24792e-14,-27.5128,-2.26223,-64.5362,67.7959,23.2009,-42.4779,-47.8322,7.12502,-15.3555,-77.242,-5.08889e-14,-5.24792e-14,-55.2786,23.6998,18.2025,138.703,7.42442,-16.5343,-9.7317,7.12502,9.68466,20.0257,-26.1109,-11.5524,23.9801,26.4464,-13.4317,-3.99833,-13.8871,-34.8811,-9.31272,-23.9312,94.9846,-15.5362,0.356833,-29.3464
0.374543,18.3571,-2.0241,-0.962466,-74.6235,14.3928,20.4243,1.51876,8.11245,3.69223,3.62796,1.64483,-6.96981,1.49762,-3.74034,-0.966483,-1.13496,3.51385,-0.0462281,-1.55197,-4.29152,0.0852813,-0.789419,-1.93923,-5.40694e-14,3.65764e-14,-27.352,-2.15098,-63.2631,68.2571,22.9742,-42.4375,-47.2684,7.12502,-15.3166,-76.6812,-5.40694e-14,3.65764e-14,-55.2914,23.6111,18.0628,138.627,8.17237,-16.6999,-9.70752,7.12502,9.52494,20.0572,-27.9852,-10.8584,23.0386,28.6349,-13.85,-4.69796,-12.8232,-31.985,-8.71537,-23.9676,87.1389,-16.7792,1.27022,-26.1455
0.366903,18.282,-2.01429,-2.14533,-74.2235,16.4102,19.8051,1.59284,7.70594,3.47261,3.61017,1.5925,-6.90658,1.50456,-3.54194,-1.02214,-1.16864,3.37774,-0.25519,-1.60524,-4.52403,0.0268038,-0.817549,-1.99,-5.80451e-14,-1.43125e-14,-27.0363,-1.86131,-61.9309,68.5607,22.599,-42.2306,-46.5796,7.12502,-15.1173,-76.0075,-5.80451e-14,-1.43125e-14,-55.481,23.5081,17.5118,138.497,9.00274,-16.9298,-9.74728,7.12502,9.3031,20.0274,-30.0732,-10.127,22.2786,31.1974,-14.7126,-5.43671,-12.9335,-29.1267,-8.00352,-23.8929,79.0064,-19.0727,2.04896,-25.9558
0.350679,18.1908,-1.99841,-3.35563,-73.0376,17.7613,19.6622,1.23754,7.58257,3.35295,3.12847,1.6276,-7.02455,1.27226,-3.31691,-1.03993,-1.11765,3.21983,-0.34668,-1.54226,-4.9,0.00229372,-0.787726,-2.08401,6.04305e-14,1.59028e-15,-26.4768,-1.3189,-60.6234,68.6719,22.1064,-41.8496,-45.7861,7.12502,-14.7502,-75.2412,6.04305e-14,1.59028e-15,-55.9559,23.4097,16.625,138.404,9.73125,-17.1603,-9.81831,7.12502,9.08062,19.9662,-31.2416,-9.95414,21.4201,33.7758,-15.852,-6.60437,-12.5638,-25.4758,-8.09903,-23.7708,70.6152,-20.2777,2.68713,-22.8063
0.346604,18.0737,-1.98233,-3.76923,-72.5448,18.4251,19.3829,1.11821,7.39668,3.18321,2.9383,1.73516,-7.09751,1.1837,-3.04372,-0.859029,-1.07191,3.0559,-0.50926,-1.48555,-5.24415,-0.0781464,-0.757544,-2.16517,-6.36111e-14,0,-25.7278,-0.736506,-59.3843,68.5167,21.8218,-41.8156,-44.7136,7.12502,-14.7175,-74.1711,-6.36111e-14,0,-56.4788,23.3857,15.5749,138.399,10.3477,-17.1812,-9.75686,7.12502,9.06052,20.0285,-32.6618,-9.46007,20.9396,36.0944,-16.7434,-7.55265,-11.012,-22.0495,-7.7432,-23.387,62.2165,-22.3567,2.92565,-20.6708
0.347865,17.9671,-1.96549,-3.64616,-72.4313,18.5896,19.0258,1.12487,7.21512,2.97682,2.91131,1.86275,-7.15076,1.17446,-2.78879,-0.511412,-1.06804,2.95694,-0.726262,-1.48509,-5.47728,-0.206298,-0.751582,-2.22093,-6.59965e-14,-1.59028e-15,-24.838,-0.265444,-58.2807,68.0438,21.9524,-41.5269,-44.712,7.12502,-14.4394,-74.1897,-6.59965e-14,-1.59028e-15,-56.9301,23.4291,14.4005,138.497,10.981,-16.9143,-9.73859,7.12502,9.31802,20.0355,-34.0701,-8.87975,20.7216,37.9786,-17.6322,-8.28313,-8.8604,-19.1313,-7.75701,-22.7955,54.1835,-24.7191,2.69409,-16.9071
0.363041,17.8903,-1.94852,-2.31196,-72.3319,17.448,18.834,1.06615,7.42562,2.69487,2.90101,2.04962,-7.35613,1.15537,-2.70138,-0.00172478,-1.06872,2.91863,-1.0301,-1.49137,-5.59217,-0.389391,-0.744916,-2.24843,1.74931e-14,1.27222e-14,-23.9672,0.0359369,-57.3442,67.3467,22.3994,-41,-45.4643,7.12502,-13.9316,-74.9776,1.74931e-14,1.27222e-14,-57.2399,23.5155,13.2368,138.639,11.7433,-16.6063,-9.78658,7.12502,9.61518,19.974,-35.1666,-8.55052,20.9968,39.3085,-18.1936,-8.81905,-8.07,-16.8396,-8.53496,-21.8327,47.0228,-27.1677,2.5773,-19.8324
0.398042,17.8301,-1.93011,0.764759,-72.1329,14.3674,18.7925,0.910925,8.28699,2.46976,2.90995,2.40655,-7.55486,1.12513,-2.80231,0.288078,-1.14152,2.91499,-1.19903,-1.59716,-5.86332,-0.49985,-0.791948,-2.33516,6.67916e-14,3.49861e-14,-23.1612,-0.00354206,-56.4722,66.602,23.2008,-40.8584,-45.5397,7.12502,-13.7952,-75.0623,6.67916e-14,3.49861e-14,-57.2934,23.8368,12.3924,138.778,12.5215,-16.3323,-9.64711,7.12502,9.87953,20.1011,-35.8181,-8.55014,21.9588,39.978,-17.892,-9.13599,-9.6347,-14.991,-9.79873,-20.3587,41.236,-28.4322,3.04023,-22.0348
0.444334,17.7924,-1.90841,4.92655,-71.7795,10.1449,18.6685,0.738364,9.5653,2.36623,2.96327,2.91523,-7.55702,1.11087,-2.97388,0.528586,-1.25573,2.70683,-1.57986,-1.77004,-5.9609,-0.667784,-0.870481,-2.32693,-4.69132e-14,-5.725e-14,-22.482,-0.485069,-55.6242,65.9838,24.273,-40.7543,-45.4996,7.12502,-13.6948,-75.029,-4.69132e-14,-5.725e-14,-57.0618,24.4541,12.1034,138.967,13.1259,-15.893,-9.32808,7.12502,10.3033,20.3995,-36.2826,-8.63652,23.286,40.347,-17.3593,-9.28981,-11.0206,-13.9538,-11.2506,-18.706,37.1042,-28.8969,4.78622,-25.8763
0.502408,17.777,-1.89136,10.4309,-71.1433,4.07377,19.0858,0.495777,11.5806,2.36115,3.13407,3.57228,-7.69718,1.11738,-3.42852,0.926393,-1.50534,2.59056,-2.12391,-2.13029,-6.01561,-0.924108,-1.03837,-2.31844,0,6.04305e-14,-22.2208,-1.34136,-54.9307,65.5761,24.9782,-40.4967,-45.5789,7.12502,-13.4465,-75.1249,0,6.04305e-14,-56.4161,25.0977,12.4799,139.257,13.3533,-15.39,-8.96238,7.12502,10.7886,20.7406,-36.0907,-8.63355,25.2218,40.3937,-16.9739,-9.58754,-11.3585,-13.1317,-12.1029,-16.5098,34.6343,-28.5711,3.4618,-25.0827
0.571637,17.7724,-1.87481,8.83563,-70.6474,5.95908,19.0767,0.548798,11.1744,2.30007,3.12736,3.48578,-7.779,1.12327,-3.29771,1.5554,-1.91479,2.66517,-2.84106,-2.70424,-5.98612,-1.28931,-1.3091,-2.31112,5.56597e-15,-3.02153e-14,-22.3487,-2.46995,-54.5198,65.3395,24.894,-40.2883,-45.6105,7.12502,-13.2457,-75.1697,5.56597e-15,-3.02153e-14,-55.2955,25.6344,13.4474,139.619,13.2316,-15.0089,-8.72641,7.12502,11.1562,20.957,-36.5765,-8.86897,24.3843,40.4194,-16.4581,-9.76301,-11.3687,-13.3564,-12.522,-17.2827,33.5583,-27.2511,0.780529,-20.5885
0.636665,17.8033,-1.8679,6.48962,-69.8394,8.50303,18.9801,0.489447,10.4144,2.39289,2.87054,3.3654,-7.69022,1.03411,-2.94312,2.00711,-2.25836,2.8331,-3.34907,-3.17507,-5.91235,-1.5562,-1.5351,-2.3057,1.23246e-13,-1.27222e-14,-22.4099,-3.5495,-54.5596,65.1343,24.2223,-40.0991,-45.8749,7.12502,-13.0633,-75.4458,1.23246e-13,-1.27222e-14,-54.1102,26.1621,14.754,140.066,12.8184,-14.5792,-8.79644,7.12502,11.5706,20.8642,-36.6853,-8.99817,23.1643,40.2047,-16.1069,-10.3265,-10.6779,-13.8846,-12.2323,-18.453,33.472,-25.7029,-1.30854,-22.1332
0.695544,17.8595,-1.85934,3.78154,-68.4422,11.3072,18.7224,0.174997,9.54611,2.60125,2.2277,3.21304,-7.42693,0.772679,-2.4649,2.23249,-2.49826,3.01796,-3.53698,-3.48718,-5.75433,-1.67221,-1.69018,-2.2781,-4.85035e-14,-3.65764e-14,-22.4421,-4.44327,-55.1141,64.886,23.413,-39.9184,-46.2529,7.12502,-12.8891,-75.8349,-4.85035e-14,-3.65764e-14,-52.8672,26.6143,16.3834,140.591,12.011,-14.133,-8.93698,7.12502,12.0009,20.699,-36.419,-9.39698,21.6473,39.8757,-15.9337,-11.1712,-9.54646,-14.5249,-12.0269,-19.928,34.0069,-24.1114,-3.94194,-23.7986
0.779447,17.9258,-1.84215,2.92558,-67.6877,12.5411,18.2396,0.0935408,9.19532,2.716,1.97787,3.06725,-7.07253,0.682728,-2.3593,2.51556,-2.7693,3.09874,-3.60773,-3.82033,-5.28422,-1.75003,-1.85958,-2.12606,-2.22639e-14,3.81667e-14,-22.7973,-5.2261,-55.9647,64.5977,22.5217,-39.848,-46.2063,7.12502,-12.8213,-75.7925,-2.22639e-14,3.81667e-14,-51.1458,26.8006,18.5024,141.123,10.92,-13.7368,-8.95269,7.12502,12.3829,20.6606,-36.4646,-9.43166,20.7566,39.1069,-15.1326,-11.634,-9.66928,-15.7554,-11.4227,-20.9682,34.8854,-22.6744,-6.50396,-23.4007
0.86039,18.0023,-1.82941,2.61851,-67.176,12.7259,18.1674,0.0512476,9.1463,2.93882,1.87636,2.99544,-6.79867,0.650257,-2.38401,2.86868,-3.03979,2.99087,-3.59064,-4.1405,-4.54529,-1.7961,-2.02504,-1.85158,-4.37326e-14,-2.70347e-14,-23.3932,-5.76054,-57.0264,64.2689,21.3161,-40.0794,-45.8962,7.12502,-13.0443,-75.4683,-4.37326e-14,-2.70347e-14,-49.1049,26.7216,20.8842,141.621,9.6555,-13.2196,-8.87252,7.12502,12.8816,20.7099,-35.8204,-9.20493,20.2314,38.0381,-14.1115,-12.048,-10.565,-16.4551,-11.2917,-21.6836,35.6817,-21.6659,-8.61834,-21.5723
0.941444,18.0987,-1.81304,2.15821,-66.9907,12.8252,18.2739,0.0475762,9.0627,3.27264,1.82509,2.91771,-6.49654,0.643773,-2.40965,3.26011,-3.30341,2.79368,-3.61163,-4.45986,-3.86714,-1.85784,-2.18899,-1.58217,3.18055e-15,7.95139e-15,-23.9564,-5.94234,-58.3561,63.8187,20.0611,-40.4386,-45.7468,7.12502,-13.3906,-75.2965,3.18055e-15,7.95139e-15,-46.9795,26.5135,23.2786,142.041,8.18168,-12.6452,-8.61635,7.12502,13.4351,20.9304,-34.8089,-8.9364,19.7875,36.809,-12.8216,-12.1682,-12.0667,-16.8368,-10.513,-22.3496,36.1892,-20.6643,-10.9786,-21.3771
1.0278,18.2004,-1.79125,1.3177,-67.1121,13.3057,18.3903,0.10031,8.78256,3.61559,1.80666,2.76898,-6.19163,0.656657,-2.40922,3.74985,-3.59011,2.70284,-3.69308,-4.81655,-3.42837,-1.96706,-2.36866,-1.40639,4.13472e-14,-4.77083e-14,-24.4944,-5.83618,-59.9493,63.099,19.2508,-40.5337,-45.4727,7.12502,-13.4822,-75.0163,4.13472e-14,-4.77083e-14,-44.745,26.1627,25.5871,142.388,6.56153,-12.0561,-8.30398,7.12502,14.003,21.2044,-33.7693,-8.78397,19.2914,35.4957,-11.055,-11.9037,-15.5593,-17.4404,-9.58129,-23.2473,36.1706,-19.9537,-12.0375,-28.1647
1.12244,18.2661,-1.76658,0.472713,-67.7847,13.8895,18.4517,0.315576,8.35437,3.92271,1.96695,2.55972,-5.88249,0.756877,-2.42958,4.19456,-3.87079,2.63336,-3.65478,-5.16428,-3.05423,-2.03025,-2.54449,-1.25557,7.39479e-14,1.59028e-15,-25.0687,-5.68609,-61.7445,62.1287,18.9079,-40.2238,-44.3991,7.12502,-13.1835,-73.9623,7.39479e-14,1.59028e-15,-42.4641,25.697,27.5608,142.71,4.92827,-11.4303,-7.78185,7.12502,14.6059,21.6838,-33.0878,-8.54827,18.8731,34.2683,-9.34293,-11.1343,-20.7838,-17.6757,-8.86232,-24.0601,35.6125,-18.9537,-14.3939,-30.5948
1.22075,18.3265,-1.73806,0.209745,-68.9132,14.0193,18.3311,0.644488,8.01273,4.23551,2.27435,2.38891,-5.45544,0.930099,-2.48282,4.50431,-4.11223,2.20814,-3.56808,-5.47071,-2.40901,-2.02805,-2.70323,-0.961169,1.98785e-14,-3.49861e-14,-25.5167,-5.5918,-63.5927,61.0698,18.9527,-39.5518,-43.1222,7.12502,-12.5357,-72.7262,1.98785e-14,-3.49861e-14,-40.2958,25.3055,29.0583,143.04,3.41383,-10.7123,-6.86298,7.12502,15.2977,22.5513,-32.9628,-8.26524,18.7215,33.3102,-8.25084,-9.69045,-22.8919,-18.2362,-8.00418,-24.5376,34.6607,-16.438,-18.012,-28.5931
1.32455,18.3785,-1.70466,0.220195,-69.8807,13.866,18.2182,0.827031,7.8035,4.5291,2.42242,2.26996,-5.06732,1.0213,-2.51707,4.8893,-4.28323,1.49744,-3.70942,-5.69889,-1.57661,-2.09352,-2.82414,-0.560645,-1.59028e-15,2.06736e-14,-25.7724,-5.31113,-65.4414,59.871,19.1586,-38.8579,-42.8844,7.12502,-11.8666,-72.5281,-1.59028e-15,2.06736e-14,-38.4242,25.0486,29.9803,143.445,2.29959,-9.91179,-5.63256,7.12502,16.0686,23.7212,-33.2787,-8.15717,18.5853,32.8022,-7.33452,-7.88086,-21.4055,-18.759,-7.53798,-24.8516,33.5024,-13.4948,-21.0416,-27.7914
1.43338,18.3835,-1.66637,-0.0653226,-70.7671,13.8156,18.3986,0.908436,7.59881,4.8019,2.46812,2.13529,-4.8675,1.05323,-2.55639,5.2612,-4.39959,0.92625,-3.89378,-5.86496,-1.0435,-2.18499,-2.9101,-0.280548,1.19271e-14,-2.06736e-14,-25.9318,-4.88407,-67.2776,58.4294,19.1259,-38.085,-43.1238,7.12502,-11.1213,-72.8091,1.19271e-14,-2.06736e-14,-36.8172,24.7333,30.3787,144.006,1.78685,-9.49966,-3.67051,7.12502,16.4654,25.6508,-33.5379,-8.83628,18.7436,32.9535,-6.61911,-5.87828,-22.7393,-19.0178,-7.65642,-25.1758,32.3942,-10.1988,-22.7685,-27.0385
1.54764,18.3543,-1.62615,-0.0730355,-71.9684,13.4919,18.6708,1.04989,7.41205,5.00996,2.60697,1.97631,-4.77504,1.12465,-2.65537,5.41502,-4.47347,0.595379,-3.81305,-5.97501,-0.84011,-2.16861,-2.965,-0.154874,-4.53229e-14,1.59028e-14,-26.0773,-4.49466,-69.1296,56.9104,18.8661,-37.5069,-43.3651,7.12502,-10.5637,-73.0796,-4.53229e-14,1.59028e-14,-35.4801,24.3606,30.1667,144.717,1.77727,-9.42151,-1.00781,7.12502,16.5407,28.3072,-34.305,-9.43004,19.1039,33.7992,-6.23325,-3.76016,-23.0263,-19.3676,-7.94003,-25.2733,31.6102,-5.9187,-22.7566,-22.9111
1.67334,18.2912,-1.58637,0.378885,-73.7311,12.9563,18.8669,1.31766,7.05363,5.09996,2.88179,1.80303,-4.7658,1.25938,-2.7028,5.37968,-4.45163,0.244921,-3.60397,-5.95875,-0.634828,-2.07408,-2.95808,-0.037124,-4.29375e-14,-1.90833e-14,-26.176,-4.02479,-71.0175,55.4232,18.5689,-37.5943,-43.729,7.12502,-10.648,-73.4392,-4.29375e-14,-1.90833e-14,-34.6627,24.2371,28.99,145.516,2.13007,-9.54706,1.68604,7.12502,16.4198,31.0111,-35.7381,-10.3402,20.0711,35.2737,-6.22985,-1.26088,-27.7637,-20.1855,-7.97457,-25.1496,31.4714,-1.83741,-21.0316,-17.5464
1.80628,18.1926,-1.54974,1.22498,-76.0323,11.9883,19.2249,1.70046,6.4823,5.14938,3.28088,1.68259,-4.89245,1.44842,-2.60975,5.15484,-4.34622,-0.121198,-3.31147,-5.83933,-0.583003,-1.92352,-2.89715,0.0252411,-2.54444e-14,-4.29375e-14,-26.3003,-3.41423,-72.7968,54.0972,18.2985,-37.9073,-43.8251,7.12502,-10.9499,-73.5196,-2.54444e-14,-4.29375e-14,-34.3596,24.3861,26.8684,146.339,2.65821,-10.095,4.33155,7.12502,15.8922,33.6994,-37.6295,-10.6508,21.1296,37.1294,-6.38848,1.10679,-24.6763,-20.9924,-7.48338,-24.893,32.0637,-0.857786,-18.6903,-4.98136
1.9464,18.0665,-1.51519,3.54563,-78.4387,9.44322,19.6872,2.07086,6.02613,5.15434,3.69466,1.64949,-5.12334,1.6382,-2.50087,4.88741,-4.21297,-0.417833,-2.95252,-5.68389,-0.720398,-1.75379,-2.81597,0.014432,-1.04163e-13,-7.95139e-15,-26.6948,-2.81462,-74.3771,53.1718,18.1351,-38.1363,-43.5735,7.12502,-11.1707,-73.2561,-1.04163e-13,-7.95139e-15,-34.3382,24.7535,23.8368,147.1,3.49648,-10.509,6.94438,7.12502,15.4935,36.3436,-39.6204,-10.4438,22.3538,39.2235,-6.46092,3.20015,-22.569,-21.6756,-6.80369,-24.3649,33.3011,-2.86736,-18.834,-3.85171
2.09158,17.9279,-1.47862,7.95093,-80.7594,4.72174,20.2412,2.40041,5.79294,5.11287,4.10361,1.62093,-5.44041,1.82,-2.52231,4.78923,-4.07306,-0.797027,-2.7679,-5.51769,-0.676169,-1.66381,-2.73167,0.0805623,-8.74653e-15,2.38542e-14,-27.4468,-2.40313,-75.7771,52.678,18.2124,-38.3378,-43.1458,7.12502,-11.3651,-72.8178,-8.74653e-15,2.38542e-14,-34.3921,25.3539,20.0063,147.711,4.96621,-10.408,9.31519,7.12502,15.5908,38.7068,-41.2477,-9.64733,23.4603,41.271,-6.96002,4.77134,-22.0522,-22.5112,-6.09233,-23.7347,35.1652,-5.53941,-18.8525,-2.81658
2.24112,17.7989,-1.4146,12.8329,-81.9552,-0.834194,21.0844,2.23151,6.3116,5.10194,4.0245,1.46068,-5.84638,1.75269,-3.01057,4.76972,-3.96468,-1.06712,-2.70663,-5.38492,-0.562984,-1.62972,-2.66559,0.15493,-4.92986e-14,-7.95139e-15,-28.5585,-2.26243,-77.0397,52.5901,18.5749,-38.1843,-43.0255,7.12502,-11.217,-72.7056,-4.92986e-14,-7.95139e-15,-34.3129,26.002,15.9414,148.131,6.74693,-10.0861,11.6303,7.12502,15.9008,40.9975,-42.2445,-9.27449,23.9083,43.4634,-8.33463,6.59311,-20.1238,-23.2646,-6.11442,-23.4071,37.3507,-8.07208,-18.3156,0.733579
2.40114,17.6652,-1.37759,21.3323,-83.9963,-9.48068,21.4123,2.56776,6.0609,4.9942,4.42108,1.3031,-6.10558,1.93223,-3.15774,4.67797,-3.8366,-1.37582,-2.64682,-5.22571,-0.413129,-1.5822,-2.58698,0.244654,3.97569e-15,7.95139e-15,-29.8998,-2.23059,-78.136,52.8366,19.067,-37.7512,-43.3829,7.12502,-10.7992,-73.0852,3.97569e-15,7.95139e-15,-34.2255,26.7112,11.9757,148.366,8.64507,-9.8737,14.0517,7.12502,16.1053,43.4025,-43.9991,-7.55093,24.0518,45.8154,-10.8613,9.60308,-23.2157,-24.7396,-5.27136,-23.1987,39.6703,-10.7305,-17.0823,3.8239
2.55882,17.5447,-1.3425,30.6844,-85.241,-19.4137,22.1251,2.66833,5.90908,5.01637,4.54223,1.20595,-6.44509,1.97071,-3.24863,4.45515,-3.68956,-1.74947,-2.5047,-5.04545,-0.358322,-1.48739,-2.49663,0.310993,5.56597e-14,-3.33958e-14,-31.3366,-2.28539,-78.9041,53.2558,19.512,-37.5553,-43.8894,7.12502,-10.6103,-73.6015,5.56597e-14,-3.33958e-14,-34.0706,27.4808,8.53396,148.407,10.6814,-9.7405,16.1508,7.12502,16.2335,45.4912,-44.9171,-6.46406,23.9363,48.7196,-14.928,12.3185,-24.9329,-25.572,-5.29488,-23.1214,41.6665,-13.2651,-15.3933,4.07618
2.71475,17.4356,-1.31016,35.852,-85.9448,-25.3755,23.0598,2.66285,5.72385,5.10207,4.51878,1.07849,-6.84126,1.9365,-3.32879,4.20651,-3.63465,-1.86423,-2.27078,-4.98015,-0.58437,-1.3726,-2.46214,0.249198,5.40694e-14,2.38542e-15,-32.8717,-2.58388,-79.307,53.6801,19.9242,-37.5931,-44.4442,7.12502,-10.6468,-74.1545,5.40694e-14,2.38542e-15,-33.4739,28.0908,6.12794,148.31,12.3658,-9.40327,17.5892,7.12502,16.5582,46.9028,-45.4255,-6.1576,23.5925,51.9391,-18.1179,13.3638,-25.4864,-25.9688,-5.95027,-23.3365,43.3239,-15.3655,-13.6551,1.47667
