JuanDHNZ/ProyectoFinalCD/preprocessing/sports_trials_csv/93_08.csv
root1,root2,root3,root4,root5,root6,lowerback1,lowerback2,lowerback3,upperback1,upperback2,upperback3,thorax1,thorax2,thorax3,lowerneck1,lowerneck2,lowerneck3,upperneck1,upperneck2,upperneck3,head1,head2,head3,rclavicle1,rclavicle2,rhumerus1,rhumerus2,rhumerus3,rradius1,rwrist1,rhand1,rhand2,rfingers1,rthumb1,rthumb2,lclavicle1,lclavicle2,lhumerus1,lhumerus2,lhumerus3,lradius1,lwrist1,lhand1,lhand2,lfingers1,lthumb1,lthumb2,rfemur1,rfemur2,rfemur3,rtibia1,rfoot1,rfoot2,rtoes1,lfemur1,lfemur2,lfemur3,ltibia1,lfoot1,lfoot2,ltoes1
-16.031,17.9148,0.729019,136.884,-86.3335,-133.842,8.321,-0.687521,2.76531,-0.632722,-0.653824,-0.195925,-5.36646,-0.407212,-1.67581,2.14834,3.2229,6.69181,6.33769,4.51206,-5.37447,1.95759,2.27586,-2.86064,-4.24902e-15,-2.78299e-15,-28.5289,13.8006,-91.4063,32.8838,36.2127,-25.3829,-38.4834,7.12502,1.14179,-68.4601,-4.24902e-15,-2.78299e-15,-33.4784,-12.3763,91.6824,34.7978,-8.65476,-28.8784,8.20376,7.12502,-2.23428,38.1718,-13.9516,0.815894,25.6999,30.0986,-17.5721,-3.32436,-11.7647,-16.3165,1.60563,-21.6478,33.406,-12.8685,-7.92641,-14.7382
-16.0175,17.9109,0.727603,140.507,-86.1625,-137.338,8.47116,-0.606541,2.58802,-0.533874,-0.565141,-0.263337,-5.34181,-0.358427,-1.65724,2.35653,3.33795,6.89171,5.89226,4.67701,-5.42759,1.79374,2.36575,-2.9168,-4.52235e-15,0,-28.4204,14.214,-91.8124,33.4951,36.3407,-24.977,-38.2777,7.12502,1.53377,-68.2519,-4.52235e-15,0,-33.5812,-12.5987,91.5964,35.2274,-8.42495,-28.8468,8.91007,7.12502,-2.2038,38.8784,-14.454,1.3678,25.6064,30.7051,-17.4975,-3.33403,-11.3911,-16.5967,1.74007,-21.6735,33.605,-12.7982,-7.97879,-15.0902
-15.9975,17.9038,0.722172,144.795,-85.9089,-141.456,8.64337,-0.520004,2.35422,-0.429577,-0.474908,-0.326509,-5.32354,-0.307535,-1.6027,2.43959,3.51425,7.06774,5.52348,4.91762,-5.46048,1.68206,2.4913,-2.95928,-3.47873e-16,-7.95139e-16,-28.2751,14.6775,-92.2367,34.1474,36.6526,-24.6055,-37.9908,7.12502,1.89262,-67.9622,-3.47873e-16,-7.95139e-16,-33.7065,-12.5094,91.4045,35.6901,-8.35623,-28.7907,9.64299,7.12502,-2.14962,39.6119,-15.1676,1.97713,25.5059,31.5917,-17.6321,-3.32656,-11.5355,-17.0334,2.08047,-21.7013,33.9702,-12.6746,-8.25203,-15.0751
-15.9733,17.8922,0.716546,147.626,-85.6565,-144.138,8.98904,-0.444191,2.26454,-0.379495,-0.381018,-0.409401,-5.46181,-0.261579,-1.65008,2.51794,3.69891,7.26466,5.26465,5.17032,-5.49121,1.60942,2.62252,-3.00502,-1.31695e-14,-1.03368e-14,-28.253,15.1447,-92.7362,34.8428,36.9552,-24.3377,-37.7966,7.12502,2.15122,-67.7655,-1.31695e-14,-1.03368e-14,-34.0385,-12.2607,91.1793,36.3534,-8.40686,-28.7058,10.2931,7.12502,-2.06761,40.2628,-15.855,2.52687,25.4623,32.5283,-18.0998,-3.39135,-12.3901,-17.4606,2.31476,-21.6648,34.3412,-12.5144,-8.45525,-15.3086
-15.9428,17.877,0.708631,150.19,-85.4637,-146.568,9.29211,-0.371336,2.16725,-0.223185,-0.29728,-0.513148,-5.46482,-0.218808,-1.71459,2.57218,3.9195,7.45167,4.93905,5.46934,-5.52126,1.52293,2.77625,-3.0482,3.47873e-15,1.19271e-14,-28.0761,15.668,-93.2174,35.5275,37.1523,-24.1312,-37.4424,7.12502,2.35067,-67.4092,3.47873e-15,1.19271e-14,-34.3555,-12.0232,90.9608,37.2066,-8.2856,-28.8114,10.6702,7.12502,-2.16953,40.6389,-16.6389,3.16387,25.363,33.6773,-18.8043,-3.36807,-13.5906,-17.9164,2.39136,-21.6532,34.7213,-12.4678,-8.50598,-15.8495
-15.9077,17.8589,0.695738,153.591,-85.4136,-149.911,9.65691,-0.312681,1.90754,0.00965626,-0.256074,-0.680183,-5.42337,-0.193204,-1.74806,2.54543,4.19321,7.65754,4.64428,5.83308,-5.48876,1.46467,2.96208,-3.07089,-6.4605e-15,-6.36111e-15,-27.8923,16.2047,-93.7419,36.2575,37.2747,-24.1822,-37.077,7.12502,2.30143,-67.0443,-6.4605e-15,-6.36111e-15,-34.7089,-11.8634,90.7434,38.1473,-8.08852,-28.9951,11.0735,7.12502,-2.34694,41.0404,-17.4651,3.79694,25.0993,34.9639,-19.4598,-3.27248,-15.2298,-18.3055,2.45109,-21.7928,35.0997,-12.3896,-8.6682,-16.2268
-15.8666,17.842,0.679481,158.619,-85.5231,-154.946,10.1465,-0.262369,1.48537,0.279122,-0.252302,-0.93357,-5.41466,-0.184496,-1.775,2.54199,4.4502,7.79687,4.25752,6.17214,-5.39972,1.36626,3.13442,-3.06349,3.77691e-15,-1.19271e-15,-27.8126,16.7639,-94.3431,37.1007,37.3337,-24.4576,-36.8519,7.12502,2.03545,-66.8219,3.77691e-15,-1.19271e-15,-35.0613,-11.6222,90.4658,39.1783,-7.85545,-28.9935,11.3536,7.12502,-2.34542,41.3205,-18.3191,4.42047,24.6006,36.3273,-19.1807,-3.46697,-19.6534,-18.6168,2.50595,-22.1406,35.4656,-12.1799,-8.89624,-16.9788
-15.8168,17.8268,0.660684,161.955,-85.7266,-158.331,10.8058,-0.232667,1.24745,0.567915,-0.258264,-1.17736,-5.48145,-0.187214,-1.89496,2.70731,4.59092,7.91918,3.59094,6.36905,-5.46875,1.14308,3.23455,-3.11708,-1.14301e-14,-1.39149e-14,-27.8347,17.4104,-94.9182,38.0519,37.2623,-24.8951,-36.3378,7.12502,1.61292,-66.3114,-1.14301e-14,-1.39149e-14,-35.3763,-11.2278,90.149,40.2616,-7.44488,-28.8611,11.0392,7.12502,-2.21759,41.0074,-19.1197,5.14061,24.1393,37.715,-19.2733,-2.8951,-18.0215,-18.9379,2.41899,-22.337,35.8543,-11.8194,-9.30606,-16.8609
-15.7628,17.8102,0.635134,163.884,-86.0191,-160.424,11.6276,-0.2134,1.08383,0.935956,-0.272445,-1.37642,-5.55463,-0.196605,-2.00924,2.80224,4.68548,8.00973,2.87125,6.49989,-5.61393,0.913059,3.29954,-3.19234,-8.05078e-15,-3.97569e-16,-27.8698,18.2517,-95.3906,39.0169,37.1707,-25.17,-35.4586,7.12502,1.34734,-65.4341,-8.05078e-15,-3.97569e-16,-35.6108,-10.687,89.8294,41.2185,-6.75635,-29.1089,9.70886,7.12502,-2.45692,39.6745,-19.7309,5.98734,23.748,39.0589,-18.8873,-1.71066,-15.8991,-19.2095,2.25897,-22.3784,36.3304,-11.1943,-10.1739,-14.8136
-15.7044,17.7852,0.603123,167.121,-86.4049,-163.871,12.5267,-0.189182,0.824733,1.35261,-0.300938,-1.58451,-5.61746,-0.212524,-2.07696,2.62356,4.8181,7.82718,2.36015,6.65299,-5.47983,0.778608,3.37112,-3.11137,-6.36111e-15,-3.02153e-14,-27.9328,19.0846,-95.749,39.9627,37.4169,-25.3013,-34.4445,7.12502,1.22053,-64.4207,-6.36111e-15,-3.02153e-14,-35.7561,-9.96258,89.4347,41.9655,-5.80107,-29.4142,7.74795,7.12502,-2.75174,37.7099,-20.2641,6.8827,23.2718,40.3041,-18.5638,-0.440722,-16.8851,-19.5127,2.21271,-22.4933,36.9414,-10.3838,-11.3112,-12.992
-15.6369,17.7478,0.565478,171.01,-86.9617,-167.909,13.5539,-0.134407,0.619393,1.70769,-0.289258,-1.7996,-5.81179,-0.212324,-2.19105,2.3982,4.8651,7.52254,1.88019,6.68553,-5.24148,0.644899,3.38114,-2.97312,-9.93923e-17,-3.97569e-15,-28.1789,19.5813,-95.8938,40.8988,37.9752,-25.6868,-33.36,7.12502,0.848284,-63.3381,-9.93923e-17,-3.97569e-15,-35.9486,-9.08241,88.9603,42.5781,-4.75663,-29.4069,5.87712,7.12502,-2.74466,35.8392,-20.8503,7.69063,22.7767,41.3944,-18.3202,0.389092,-17.2877,-19.9788,2.23784,-22.6105,37.6851,-9.70451,-12.5267,-13.2389
-15.5658,17.6981,0.522197,180.957,-87.797,-178.017,14.7146,-0.0550311,0.314608,2.03771,-0.274545,-2.06807,-6.10238,-0.211273,-2.30854,2.24312,4.77281,7.19317,1.26142,6.53523,-4.94547,0.440204,3.29965,-2.81873,-5.36719e-15,-2.14687e-14,-28.5216,19.6998,-95.7483,41.6761,38.6509,-26.4693,-32.184,7.12502,0.0925127,-62.1638,-5.36719e-15,-2.14687e-14,-36.2362,-7.96584,88.3243,43.0233,-3.87155,-29.3286,3.99645,7.12502,-2.66904,33.9595,-21.4009,8.16361,22.0828,42.3071,-18.1941,0.476108,-17.6252,-20.5364,2.25129,-22.9117,38.54,-9.1162,-14.1273,-14.6134
-15.4956,17.646,0.478002,203.212,-88.8108,-200.414,15.8655,-0.0659881,0.200968,2.39555,-0.355107,-2.30789,-6.35807,-0.261055,-2.48658,2.17,4.60712,6.86249,0.45038,6.29139,-4.64007,0.156911,3.17069,-2.66886,3.77691e-15,1.82882e-14,-28.7916,19.4601,-95.2682,42.1357,39.7661,-27.7427,-31.1724,7.12502,-1.13745,-61.1491,3.77691e-15,1.82882e-14,-36.4855,-6.23636,87.2548,43.1948,-3.94053,-28.8163,2.36741,7.12502,-2.1743,32.3361,-21.8373,8.07019,21.4904,42.9868,-19.0651,0.620278,-16.5694,-21.1974,2.19705,-23.0966,39.4954,-8.01232,-16.4608,-13.7692
-15.4264,17.5951,0.427876,283.043,-89.3162,-280.257,16.8173,-0.127336,0.311514,2.79317,-0.452348,-2.42272,-6.45864,-0.320487,-2.65348,1.94531,4.40909,6.51794,-0.301875,5.99729,-4.4276,-0.0782999,3.01563,-2.54346,2.18663e-15,2.38542e-15,-28.9085,18.8324,-94.344,42.2383,41.6575,-29.5067,-30.0566,7.12502,-2.84104,-60.0174,2.18663e-15,2.38542e-15,-36.6165,-3.8711,85.6943,43.1193,-5.45663,-28.2465,1.15617,7.12502,-1.62402,31.1297,-22.2549,7.74639,21.2262,43.4433,-19.4703,0.425883,-17.8226,-22.0828,2.09475,-22.9541,40.5247,-6.33015,-19.2045,-11.717
-15.3636,17.5368,0.372096,331.384,-88.2599,-328.469,17.5489,-0.181775,0.480218,3.15785,-0.518549,-2.47839,-6.46953,-0.362895,-2.79554,1.55017,4.13969,6.11042,-0.831072,5.60051,-4.2815,-0.216417,2.81003,-2.42098,1.19271e-15,-1.27222e-14,-28.8535,17.2252,-92.7169,41.5097,44.0306,-31.602,-28.5305,7.12502,-4.86439,-58.4547,1.19271e-15,-1.27222e-14,-36.8115,-1.50614,83.8173,42.6501,-7.70192,-28.2701,0.00295306,7.12502,-1.64676,29.9763,-22.6073,7.28854,21.1034,43.719,-20.4271,-0.219584,-15.6651,-23.1279,1.92535,-22.7493,41.5109,-3.88017,-22.1355,-8.41538
-15.3058,17.4797,0.314504,344.732,-86.847,-341.498,18.17,-0.26843,0.892609,3.3071,-0.563146,-2.46402,-6.64987,-0.396539,-3.00781,1.38219,3.77748,5.68284,-1.26482,5.09417,-4.16891,-0.365894,2.55331,-2.31114,-3.18055e-15,1.70955e-14,-29.1703,15.1689,-90.7899,40.4528,46.5903,-32.734,-31.4396,7.12502,-5.95736,-61.3359,-3.18055e-15,1.70955e-14,-37.3834,0.518374,81.6357,41.7126,-10.0566,-28.2956,-0.416038,7.12502,-1.67143,29.5572,-23.0263,6.5089,21.2787,43.9014,-21.3694,-1.79592,-17.6578,-24.3678,1.62268,-22.348,42.4098,-0.194572,-25.0623,-3.38811
-15.2492,17.4525,0.254612,350.3,-85.2048,-346.551,18.7112,-0.415403,1.31618,3.25588,-0.667681,-2.41263,-7.00655,-0.458819,-3.17327,1.41136,3.39683,5.04231,-1.66064,4.57343,-3.77905,-0.54532,2.29087,-2.07614,1.78906e-15,3.93594e-14,-29.6651,11.6326,-87.9767,38.6951,50.1027,-33.9879,-33.1476,7.12502,-7.16789,-63.0062,1.78906e-15,3.93594e-14,-38.3574,2.25867,79.0473,40.5644,-12.6142,-28.3047,0.310464,7.12502,-1.68022,30.2836,-23.6757,5.53021,21.4884,44.003,-21.7513,-3.06645,-17.158,-25.7571,1.08758,-21.8966,43.166,4.11711,-27.7665,-0.586343
-15.1946,17.4373,0.194297,354.319,-83.4862,-349.92,19.1208,-0.606339,1.80664,3.16147,-0.800172,-2.27821,-7.34204,-0.534911,-3.27867,1.07316,3.04544,4.68914,-1.65755,4.08072,-3.87745,-0.514268,2.04453,-2.03683,-1.74931e-14,4.37326e-15,-30.3122,7.06992,-84.323,36.5835,53.8285,-35.8801,-34.8019,7.12502,-8.99408,-64.5902,-1.74931e-14,4.37326e-15,-39.4351,3.67958,76.0741,39.1588,-15.3315,-28.7169,1.13772,7.12502,-2.07825,31.1073,-24.5085,4.75192,21.7514,44.0125,-21.2547,-4.54699,-18.4566,-27.2282,0.389737,-21.2593,43.8064,9.52701,-29.8551,3.83887
-15.1446,17.4297,0.134004,360.235,-82.0267,-355.085,19.341,-0.775006,2.59146,3.04995,-0.817147,-1.92395,-7.58694,-0.558822,-3.34154,0.443093,2.77035,4.44969,-1.48413,3.68222,-4.23717,-0.36811,1.84329,-2.09621,1.75924e-14,2.38542e-15,-31.0779,1.81185,-79.746,34.145,55.793,-35.0877,-35.2559,7.12502,-8.22943,-65.0756,1.75924e-14,2.38542e-15,-40.5768,4.81543,72.7784,37.4287,-17.8432,-29.0223,1.53409,7.12502,-2.37321,31.5006,-25.4288,3.92108,22.5023,43.8597,-20.6528,-5.43497,-18.6503,-28.7454,-0.264404,-20.0284,44.3207,14.4448,-30.9764,8.38674
-15.1043,17.4386,0.0785722,365.652,-80.7429,-359.733,19.4257,-0.901824,3.42142,2.91373,-0.759238,-1.47819,-7.77915,-0.547833,-3.34878,-0.0274544,2.45572,3.98831,-1.47298,3.23883,-4.37048,-0.30977,1.61905,-2.04934,-2.98177e-16,1.63003e-14,-32.077,-4.38327,-74.1013,31.4095,56.5593,-34.1236,-34.0482,7.12502,-7.29888,-63.9023,-2.98177e-16,1.63003e-14,-41.8703,5.69556,69.126,35.5176,-19.9908,-28.9457,1.76947,7.12502,-2.29927,31.7368,-26.2703,3.28842,23.4016,43.5192,-20.0105,-5.9616,-18.5509,-30.1365,-1.06079,-18.5591,44.8418,15.2018,-32.2367,7.22435
-15.0748,17.4632,0.0327056,369.021,-79.5675,-362.431,19.5011,-1.00305,4.01499,2.77346,-0.721218,-1.09188,-7.97095,-0.543281,-3.2789,-0.193991,2.13622,3.7787,-1.68033,2.79591,-4.57136,-0.365695,1.39714,-2.07785,3.67752e-15,1.61016e-14,-33.5681,-10.9038,-67.6675,28.6423,55.7327,-32.9277,-35.586,7.12502,-6.14442,-65.4769,3.67752e-15,1.61016e-14,-43.3398,6.42994,65.0545,33.6084,-21.7847,-28.5314,2.23639,7.12502,-1.89916,32.2077,-26.8819,2.55353,24.097,42.9702,-19.4716,-6.14271,-19.201,-31.2178,-2.22478,-17.2119,45.4835,11.4978,-33.4421,1.51622
-15.0526,17.4976,-0.00313077,371.107,-78.5614,-363.941,19.4973,-1.11361,4.30464,2.66295,-0.766398,-0.743561,-8.09233,-0.569907,-3.05376,-0.161018,1.90107,3.76576,-1.98489,2.46859,-4.79624,-0.478521,1.23491,-2.15313,2.127e-14,-3.77691e-15,-35.6354,-17.2718,-60.4612,26.2413,54.306,-31.058,-37.3269,7.12502,-4.33913,-67.2625,2.127e-14,-3.77691e-15,-44.968,7.26344,60.5646,31.7837,-22.9658,-27.3722,2.94871,7.12502,-0.779545,32.927,-27.2882,1.62915,24.6221,42.2465,-19.0464,-5.86017,-19.432,-31.673,-3.49183,-16.0438,46.3613,-0.180097,-32.8014,-13.0694
-15.0367,17.5378,-0.0354713,372.422,-77.7807,-364.741,19.3468,-1.16216,4.27831,2.63204,-0.81021,-0.422597,-8.04335,-0.5831,-2.67886,-0.247007,1.70288,3.76113,-2.14123,2.1939,-4.86162,-0.524673,1.09677,-2.17427,9.72802e-15,2.10215e-14,-38.2833,-23.1512,-52.718,24.2379,51.8629,-30.1861,-39.3091,7.12502,-3.49715,-69.2601,9.72802e-15,2.10215e-14,-46.4326,8.40408,55.6146,29.7978,-23.7399,-25.443,3.89566,7.12502,1.0837,33.8727,-27.5521,0.74393,25.0089,41.3986,-18.6555,-5.34341,-18.6183,-31.4903,-4.61291,-15.0144,47.5893,-13.3693,-26.0569,-29.3234
-15.027,17.5894,-0.0673552,372.771,-77.2341,-364.623,19.1062,-1.11223,3.91846,2.64859,-0.808236,-0.187847,-7.88682,-0.563811,-2.22127,-0.34266,1.47317,3.76091,-2.21068,1.88456,-4.68817,-0.545698,0.939944,-2.11681,1.09642e-15,-2.01704e-14,-41.5345,-28.435,-44.6012,22.8331,48.0593,-29.3439,-40.3405,7.12502,-2.68381,-70.3034,1.09642e-15,-2.01704e-14,-47.7078,10.0804,50.0193,27.6612,-24.7016,-23.3565,5.39334,7.12502,3.09886,35.3506,-27.6187,0.108478,25.1562,40.4025,-18.2287,-4.86228,-16.5929,-31.0044,-5.33117,-14.3051,49.1952,-20.3638,-18.0472,-34.0339
-15.0191,17.648,-0.0944451,373.103,-76.8264,-364.528,18.8321,-1.06101,3.5919,2.63371,-0.804082,-0.051316,-7.74812,-0.546834,-1.89093,-0.113767,1.18558,3.67352,-2.4583,1.51113,-4.13448,-0.682718,0.753245,-1.92434,8.658e-15,-2.91344e-15,-45.8606,-33.5192,-35.6292,22.1365,46.4463,-29.939,-42.4912,7.12502,-3.25856,-72.446,8.658e-15,-2.91344e-15,-49.1149,12.5648,43.4408,25.7194,-26.1005,-21.5599,7.13483,7.12502,4.83372,37.0597,-27.5243,-0.382438,25.2883,39.2682,-17.6961,-4.49252,-15.9916,-30.1918,-5.28702,-13.8791,51.0909,-21.3065,-13.735,-31.968
-15.012,17.718,-0.117331,374.287,-76.4898,-365.362,18.6126,-1.08161,3.58436,2.58504,-0.830125,0.0296423,-7.68208,-0.555985,-1.79451,0.113944,0.987979,4.02336,-2.52262,1.25978,-3.99366,-0.751583,0.625972,-1.94314,-9.06023e-15,-2.09718e-14,-50.8918,-37.4333,-26.8433,22.3157,46.1325,-28.746,-45.7411,7.12502,-2.10643,-75.7104,-9.06023e-15,-2.09718e-14,-50.9329,16.1886,35.5387,24.2083,-28.3283,-20.3871,9.39918,7.12502,5.96613,39.2952,-27.3295,-0.81468,25.6895,38.0616,-16.9083,-4.36633,-18.245,-29.1077,-4.4746,-13.5117,53.0179,-19.7047,-12.3314,-31.3198
-15.0056,17.8037,-0.137874,374.816,-76.3118,-365.563,18.3843,-1.13344,3.47613,2.55433,-0.927698,-0.00423644,-7.59608,-0.597959,-1.74748,0.287418,0.886096,4.11321,-2.53125,1.14287,-3.50418,-0.790089,0.564421,-1.80119,-4.31611e-14,-7.55382e-15,-55.9878,-40.1798,-18.8013,22.7272,46.0346,-30.1584,-48.3457,7.12502,-3.47041,-78.2972,-4.31611e-14,-7.55382e-15,-53.3523,20.7311,26.5418,23.0852,-31.5503,-20.6651,12.2665,7.12502,5.69773,42.1699,-27.123,-1.27346,25.9764,36.8563,-15.8592,-4.25094,-19.6633,-27.7596,-3.38669,-13.4735,54.7698,-14.0046,-13.7894,-24.3148
-14.9966,17.8864,-0.154673,373.744,-76.3784,-364.077,18.0644,-1.10235,3.02534,2.5261,-0.997037,-0.186275,-7.45287,-0.617806,-1.67364,0.341174,0.817983,4.10174,-2.36577,1.06879,-2.99073,-0.751681,0.524387,-1.63196,1.717e-14,1.74931e-14,-60.8665,-41.9485,-11.7404,23.307,46.8136,-32.3083,-51.9908,7.12502,-5.54638,-81.8983,1.717e-14,1.74931e-14,-56.3124,25.5907,17.1729,22.1659,-35.9915,-22.4465,14.0849,7.12502,3.97761,44.0275,-27.1084,-1.84552,25.8821,35.8319,-14.5677,-3.91944,-18.2965,-26.3407,-1.36329,-14.5092,56.0627,-9.3697,-13.0872,-34.5888
-14.9855,17.9662,-0.165621,372.524,-76.5635,-362.342,17.6768,-0.982152,2.61695,2.44896,-0.936799,-0.360499,-7.31886,-0.576653,-1.64684,0.319211,0.712451,4.10507,-2.13482,0.935222,-2.76732,-0.6813,0.457051,-1.55811,3.38431e-14,-2.88238e-14,-65.0502,-42.7215,-6.20421,23.9443,47.7102,-32.4057,-55.4342,7.12502,-5.64044,-85.3392,3.38431e-14,-2.88238e-14,-59.8369,30.267,7.99174,21.3752,-42.4629,-24.4013,13.4848,7.12502,2.08981,43.4543,-27.3839,-2.59727,25.8451,35.1463,-13.2851,-3.93204,-17.3974,-24.8363,0.825343,-15.7749,56.7932,-2.30833,-12.3972,-27.8829
-14.97,18.0291,-0.170248,371.249,-76.8525,-360.474,17.313,-0.832881,2.22391,2.29588,-0.826127,-0.502891,-7.27702,-0.512166,-1.60478,0.240457,0.604935,4.11163,-1.92946,0.7908,-2.80743,-0.609206,0.385915,-1.56957,-1.48343e-14,1.12313e-14,-68.5015,-43.0948,-1.79021,24.4812,46.1245,-32.8714,-58.1587,7.12502,-6.09007,-88.0511,-1.48343e-14,1.12313e-14,-62.3078,32.6178,2.69518,21.0137,-46.6394,-27.6481,17.0489,7.12502,-1.04607,47.0261,-28.046,-3.47478,25.8776,34.9538,-12.8808,-4.39749,-11.9594,-23.132,3.1624,-17.2336,56.909,1.17696,-12.0093,-28.5391
-14.946,18.0585,-0.164895,368.921,-77.2878,-357.386,16.962,-0.61832,1.64721,2.03797,-0.662338,-0.709821,-7.35198,-0.418239,-1.53829,0.0387576,0.491702,4.07299,-1.70387,0.63275,-2.91695,-0.510641,0.307732,-1.59488,-9.74045e-15,6.36111e-15,-70.9197,-42.9079,0.763229,25.2465,40.9764,-34.2135,-61.5607,7.12502,-7.38561,91.4118,-9.74045e-15,6.36111e-15,-63.7429,33.758,0.228353,20.7256,-48.3487,-28.4375,17.2296,7.12502,-1.80843,47.2017,-29.2399,-5.9389,26.4734,35.1587,-12.1707,-5.53349,-14.9171,-21.8001,5.92656,-19.334,56.4656,1.76606,-11.2013,-33.8435
-14.912,18.067,-0.151986,367.448,-77.8122,-354.91,16.504,-0.304696,1.33429,1.68007,-0.311022,-0.864551,-7.47109,-0.239607,-1.60765,-0.398258,0.320021,4.08271,-1.3849,0.387555,-3.19993,-0.346732,0.184467,-1.68402,-2.87368e-14,1.51698e-14,-72.4601,-42.3051,1.56866,25.9655,34.886,-33.8295,-60.1152,7.12502,-7.01499,270.021,-2.87368e-14,1.51698e-14,-62.2118,32.5386,4.16844,21.0941,-42.8553,-26.2762,17.1999,7.12502,0.278935,47.1794,-31.1064,-8.6788,27.5971,35.8172,-11.7948,-6.11851,-17.0265,-20.704,8.59077,-21.3379,55.3312,2.88194,-9.88845,-31.2132
-14.8681,18.0543,-0.136757,368.248,-78.4318,-354.529,15.9434,-0.00665166,1.40729,1.23886,0.104532,-0.871891,-7.62013,-0.0391644,-1.75028,-0.773688,0.258035,4.05631,-1.32915,0.288418,-3.42126,-0.269666,0.13239,-1.74961,2.33572e-14,-1.00138e-14,-73.1692,-42.0437,1.4765,26.1429,29.1619,-33.9281,-62.1121,7.12502,-7.11014,91.9727,2.33572e-14,-1.00138e-14,-60.7572,31.2574,8.71005,21.7018,-35.7652,-24.3608,17.2158,7.12502,2.1289,47.1849,-33.4866,-11.2446,29.5805,36.772,-12.5072,-7.12496,-16.6767,-19.8133,11.1914,-22.9379,53.4462,2.65602,-6.80445,-32.1537
-14.8269,18.0419,-0.115081,369.254,-79.1063,-354.299,15.2653,0.196879,1.39608,0.815163,0.380578,-0.852603,-7.68803,0.097446,-1.78118,-1.05886,0.316968,4.12598,-1.5192,0.348286,-3.66766,-0.277674,0.158777,-1.84165,1.55549e-14,1.25234e-14,-73.391,-42.3861,1.14448,25.6522,26.6268,-33.5223,-59.5712,7.12502,-6.71846,270.555,1.55549e-14,1.25234e-14,-59.3157,29.5794,14.2414,22.5935,-26.3425,-23.0869,17.5953,7.12502,3.3592,47.5486,-36.3808,-13.9622,32.1407,37.9525,-10.0015,-9.91006,-0.444,-19.059,13.6315,-24.683,50.5867,2.45685,-2.40399,-33.9876
-14.7811,17.9714,-0.0882664,369.312,-79.7824,-353.21,14.5384,0.302731,1.12452,0.484257,0.479758,-0.84343,-7.63555,0.158403,-1.63328,-1.34343,0.44326,4.15304,-1.87517,0.495841,-3.71059,-0.333824,0.227934,-1.86036,-4.47266e-16,2.38542e-15,-72.2623,-42.902,-0.936813,25.4099,23.0838,-33.4727,-59.9384,7.12502,-6.67054,270.187,-4.47266e-16,2.38542e-15,-58.2524,27.9631,19.9766,23.8821,-16.467,-22.6111,17.9818,7.12502,3.81868,47.9273,-39.0668,-16.1213,34.4835,39.1116,-10.1762,-12.3196,-4.56834,-18.1458,15.1879,-26.468,47.1833,-0.0702626,-0.235453,-23.0475
-14.7313,17.8789,-0.06559,369.51,-80.3787,-352.488,14.0268,0.29149,0.814677,0.156832,0.423735,-0.790678,-7.70474,0.145176,-1.38741,-1.48277,0.692077,4.28597,-2.17622,0.812897,-3.75961,-0.390064,0.382801,-1.89993,-8.22472e-15,-1.09332e-15,-70.7826,-43.7252,-3.37651,25.2625,20.5711,-32.9198,-59.3439,7.12502,-6.13677,270.765,-8.22472e-15,-1.09332e-15,-57.7505,26.6453,25.2256,25.5767,-7.95582,-22.1804,17.9149,7.12502,4.23459,47.8525,-41.4801,-17.258,36.2168,40.3036,-11.6943,-13.9055,3.53121,-16.7791,16.2817,-28.0008,43.4871,-6.90918,0.0980518,-15.6456
-14.6811,17.7965,-0.0488256,369.512,-80.8115,-351.887,13.7781,0.22105,0.496676,-0.146647,0.287983,-0.741294,-7.89676,0.0929319,-1.12747,-1.23332,0.938813,4.46509,-2.59733,1.14344,-3.66095,-0.549364,0.546548,-1.90312,-2.31833e-14,-1.963e-14,-68.7751,-44.3915,-6.79752,25.4655,18.1602,-31.6642,-57.5646,7.12502,-4.9245,272.513,-2.31833e-14,-1.963e-14,-57.4763,25.9185,29.7392,27.3927,-2.51955,-21.4853,17.5627,7.12502,4.90576,47.4859,-42.8821,-17.482,37.0134,41.3708,-13.9143,-14.4252,9.24849,-15.3162,16.4889,-29.0941,40.2458,-11.1808,1.36468,-34.2668
-14.622,17.6682,-0.0427859,369.354,-81.0662,-351.483,13.7394,0.0790021,0.127727,-0.342789,0.0486374,-0.666466,-8.09205,-0.00624306,-0.791201,-0.740836,1.18786,4.65966,-3.09472,1.4915,-3.46925,-0.77405,0.718815,-1.88375,-4.37326e-15,-2.12203e-14,-65.8781,-44.7232,-11.6879,26.3919,15.4083,-29.742,-56.7178,7.12502,-3.06831,273.325,-4.37326e-15,-2.12203e-14,-57.1073,25.6449,33.92,29.1468,-0.262953,-21.3918,17.2328,7.12502,4.99604,47.1539,-43.8505,-16.8311,36.9123,42.2212,-14.2931,-15.0983,4.41765,-14.1614,15.465,-29.4246,37.8332,-14.8801,-0.952157,-18.6431
-14.5604,17.5602,-0.0448178,371.168,-80.9803,-353.519,14.0788,-0.242456,0.124322,-0.432812,-0.360864,-0.455472,-8.38636,-0.199236,-0.479726,-0.353948,1.48046,4.95554,-3.25399,1.90093,-3.427,-0.871075,0.922258,-1.92982,-2.75969e-15,2.60905e-15,-62.2407,-44.5834,-17.6942,27.7792,12.383,-29.5385,-56.4062,7.12502,-2.87175,273.633,-2.75969e-15,2.60905e-15,-56.4612,25.4605,38.1738,30.823,0.0973545,-22.123,16.9722,7.12502,4.28997,46.9088,-43.836,-15.7609,36.4038,42.9428,-14.8557,-14.89,0.865724,-13.1229,14.114,-28.9818,36.5529,-17.2331,-2.60813,-14.4138
-14.4978,17.4668,-0.0456787,377.644,-80.2386,-360.935,15.0471,-0.754514,1.32023,-0.338196,-0.790266,0.0194608,-8.84773,-0.449261,-0.5488,-0.156902,1.66591,5.34286,-3.09146,2.15897,-3.69124,-0.837128,1.05315,-2.08753,5.08143e-15,2.23633e-14,-58.2932,-43.8076,-24.3177,29.6552,9.8029,-29.9019,-56.4595,7.12502,-3.22272,273.585,5.08143e-15,2.23633e-14,-55.1318,24.7884,43.118,32.5799,-0.250625,-23.2038,16.4315,7.12502,3.24633,46.3865,-43.1071,-15.3741,36.867,43.619,-15.5297,-14.5883,-1.7697,-11.8255,12.4241,-27.1784,36.0339,-18.4164,-4.0977,-11.5225
-14.4514,17.4207,-0.047461,383.27,-79.0329,-367.675,16.0834,-1.30505,2.82868,-0.108395,-1.18023,0.572905,-9.21356,-0.695245,-0.703746,0.0378407,1.77017,5.33238,-3.26719,2.30813,-3.58251,-0.920024,1.12679,-2.05524,1.28962e-14,-2.1593e-14,-54.2726,-42.5006,-31.0835,31.8442,8.22994,-28.4706,-56.6236,7.12502,-1.84041,273.405,1.28962e-14,-2.1593e-14,-53.1508,23.2669,49.0332,34.7709,-0.652061,-24.3476,16.1461,7.12502,2.14163,46.1151,-42.6578,-16.2304,38.1879,44.4826,-15.6371,-14.2467,-2.38873,-10.685,10.666,-25.1635,36.0128,-18.7043,-5.31402,-7.72656
-14.4277,17.4084,-0.0568431,380.811,-78.5624,-365.427,16.2119,-1.55663,2.42031,0.0310643,-1.57768,0.717465,-9.13124,-0.862426,-0.220915,0.180358,1.83043,5.31677,-3.49837,2.38682,-3.75413,-1.01257,1.16743,-2.11414,-3.67721e-14,-2.96313e-15,-49.9298,-40.3684,-38.1705,34,7.14508,-29.4727,-57.0344,7.12502,-2.80825,273.004,-3.67721e-14,-2.96313e-15,-50.8751,21.1003,55.4008,37.5405,-0.593963,-25.4865,17.13,7.12502,1.04166,47.1072,-42.9921,-16.0421,37.4201,45.3447,-14.9818,-14.0571,-2.27873,-10.653,9.23053,-25.3199,36.3772,-18.4918,-5.49067,-7.99849
-14.4187,17.4552,-0.047382,376.923,-78.3445,-361.241,15.8253,-1.73925,1.83004,0.0522886,-1.94297,0.668,-8.87973,-1.01088,0.134311,0.531718,1.83376,5.17279,-3.86602,2.39549,-3.89013,-1.18992,1.17562,-2.14359,-3.05383e-14,1.3418e-14,-45.5635,-37.1745,-45.2902,35.8671,6.42559,-29.5112,-55.4938,7.12502,-2.84545,274.545,-3.05383e-14,1.3418e-14,-48.5745,18.1129,61.8216,40.6141,0.197907,-27.1932,17.8404,7.12502,-0.606728,47.8193,-43.4713,-14.7741,35.2622,46.2965,-13.3256,-12.6259,-6.82444,-11.1835,8.27256,-26.1361,36.7545,-17.459,-5.06085,-10.4823
-14.4206,17.522,-0.0351056,377.269,-78.1735,-361.44,15.4316,-1.91442,2.11486,0.0839755,-2.12221,0.811312,-8.63094,-1.10583,0.154934,0.813079,1.85032,5.33044,-3.91728,2.41299,-4.51299,-1.24835,1.19404,-2.38396,2.46493e-14,1.2424e-15,-41.4375,-32.9694,-52.1622,37.4618,6.34007,-29.7944,-55.0445,7.12502,-3.11891,274.999,2.46493e-14,1.2424e-15,-46.4119,14.4622,68.0411,43.5772,0.926223,-29.3184,17.226,7.12502,-2.65925,47.1891,-43.3399,-13.0589,33.7986,46.922,-11.4556,-10.8543,-15.9176,-11.7873,7.99509,-25.9161,37.3466,-15.4503,-4.61876,-13.6185
-14.4393,17.6431,-0.0194103,377.57,-78.2992,-361.757,15.1149,-2.0118,2.31851,0.1924,-2.21711,0.952936,-8.3385,-1.15694,0.199125,1.08793,1.94062,5.26576,-3.95698,2.53051,-4.92179,-1.30015,1.26308,-2.51477,-1.76421e-15,-5.56597e-15,-37.6653,-28.0957,-58.4556,38.8001,7.13416,-29.4014,-55.5883,7.12502,-2.73932,274.45,-1.76421e-15,-5.56597e-15,-44.3501,10.6511,73.8077,46.3662,0.568106,-30.6992,16.2777,7.12502,-3.99268,46.2201,-42.8575,-10.6851,31.6977,47.296,-10.5416,-7.48951,-16.9715,-12.3868,8.20051,-25.5361,38.3253,-12.2967,-4.59788,-14.7646
-14.4662,17.7876,-0.00624855,377.872,-78.5845,-362.286,15.0118,-2.07243,2.43983,0.353107,-2.27304,1.12659,-8.10493,-1.18569,0.320638,1.44351,2.07283,5.14208,-3.99375,2.70323,-5.36579,-1.36221,1.36275,-2.64958,1.86361e-14,-6.95746e-16,-34.3798,-22.5682,-64.0814,39.8706,8.19928,-28.9607,-54.9997,7.12502,-2.31375,275.033,1.86361e-14,-6.95746e-16,-42.5192,6.82358,78.9812,49.014,-1.82209,-31.265,15.1762,7.12502,-4.53899,45.1075,-41.8995,-8.13996,29.63,47.3482,-9.61595,-4.03356,-22.2524,-13.1571,8.60019,-24.8968,39.9896,-7.79175,-4.83582,-14.3059
-14.4903,17.9064,8.33693e-06,378.009,-78.8763,-362.77,15.0321,-2.10345,2.48919,0.575201,-2.30105,1.31561,-7.87066,-1.19852,0.495365,1.74916,2.21007,5.02602,-4.01959,2.87875,-5.7998,-1.41149,1.46344,-2.7826,1.65488e-14,1.39149e-15,-31.6184,-16.4426,-69.1253,40.9324,8.83301,-29.4795,-53.8118,7.12502,-2.81476,276.227,1.65488e-14,1.39149e-15,-40.7207,2.79557,83.685,51.2911,-5.87588,-31.8653,13.4966,7.12502,-5.11865,43.4147,-40.7458,-5.12423,27.4348,47.3602,-9.22442,0.493667,-26.6593,-14.2401,8.14531,-24.0581,42.2816,-2.1093,-4.77751,-14.5621
-14.5159,17.9876,0.00220011,377.07,-78.9514,-362.234,15.0562,-2.13262,2.51128,0.837207,-2.33977,1.422,-7.59828,-1.21731,0.598126,1.85588,2.27119,4.93192,-3.89707,2.95454,-6.09232,-1.38445,1.50908,-2.8647,4.49253e-14,-1.0138e-14,-29.5034,-10.3976,-73.3612,42.2073,9.78249,-30.1771,-52.6484,7.12502,-3.48851,277.4,4.49253e-14,-1.0138e-14,-39.023,-1.97727,88.0326,53.4493,-9.88256,-33.0252,11.0713,7.12502,-6.23857,40.9594,-39.4543,-0.985581,24.6863,47.4024,-10.8089,5.79106,-32.6764,-15.6894,6.06659,-23.1589,45.1508,4.84288,-4.59464,-15.0984
-14.5515,18.0331,-0.00159904,376.936,-78.7103,-362.541,15.0129,-2.20175,2.80034,1.04075,-2.38703,1.53264,-7.36277,-1.24909,0.555599,2.04624,2.26334,5.03783,-3.68327,2.95315,-6.37671,-1.34555,1.51443,-2.98114,1.27222e-14,-3.77691e-15,-28.0541,-4.99387,-76.7547,43.2825,12.266,-30.501,-49.9305,7.12502,-3.80126,280.124,1.27222e-14,-3.77691e-15,-37.9176,-7.44095,91.9122,55.8861,-12.9997,-35.0289,6.70004,7.12502,-8.17268,36.522,-38.1484,3.39092,22.3537,47.3567,-13.2348,13.4357,-32.7226,-17.6719,2.64141,-21.7137,48.6958,13.4636,-5.19513,-13.3784
-14.5956,18.0323,-0.00685945,376.475,-78.3177,-362.573,14.9654,-2.31261,3.03156,1.15552,-2.49863,1.59995,-7.22159,-1.3099,0.515427,2.38728,2.22763,5.50529,-3.342,2.9327,-6.89759,-1.28744,1.51171,-3.24856,-4.47266e-15,-2.5842e-14,-27.1329,-0.290102,-79.5402,44.4574,15.1678,-30.7066,-46.6935,7.12502,-3.99978,283.364,-4.47266e-15,-2.5842e-14,-37.346,-13.1473,95.2795,58.254,-15.0466,-35.303,3.29952,7.12502,-8.43717,33.111,-36.8498,6.89675,20.7993,47.4729,-14.2104,18.3252,-31.6871,-19.8077,-1.86418,-20.0321,52.3439,23.3505,-5.60484,-3.41296
-14.6511,17.9742,-0.0208517,384.757,-77.2093,-371.201,14.4087,-2.51615,5.13287,1.11726,-2.42231,2.20817,-7.01382,-1.33214,-0.0546542,2.94389,2.16926,5.65802,-3.10932,2.89674,-6.89127,-1.3131,1.50118,-3.28308,1.94809e-14,-1.78906e-14,-26.6831,4.08319,-81.9534,46.041,18.0839,-32.5521,-43.3864,7.12502,-5.78178,286.713,1.94809e-14,-1.78906e-14,-37.0927,-18.7893,98.2531,60.2778,-16.0149,-35.8539,-2.43898,7.12502,-8.96886,27.3504,-35.6365,9.46307,22.3511,47.3462,-13.7943,17.1091,-29.9183,-23.0855,-5.92202,-16.0744,56.4829,32.3556,-12.7748,-11.6524
-14.7152,17.8649,-0.0204346,378.471,-77.1089,-365.655,14.4362,-2.50125,4.10941,1.19096,-2.58214,1.92708,-6.92383,-1.37903,0.251171,3.48954,2.05256,5.5173,-2.80325,2.7816,-6.58494,-1.32434,1.44875,-3.15582,6.36111e-15,-4.77083e-15,-26.3476,7.62024,-83.7049,47.0364,22.5782,-33.9336,-41.5558,7.12502,-7.11547,288.584,6.36111e-15,-4.77083e-15,-37.0559,-23.8503,100.891,62.2299,-16.7856,-34.323,-7.65529,7.12502,-7.49136,22.1921,-33.8763,10.2379,21.2284,47.2514,-16.0156,14.686,-26.9198,-25.2145,-10.1727,-15.976,60.4959,43.2455,-14.1319,1.74122
-14.7715,17.7297,-0.0248283,378.768,-75.9096,-366.024,13.6205,-2.7794,4.67776,1.0161,-2.88929,2.11238,-6.68522,-1.54111,0.159056,3.84609,1.91717,5.4293,-2.32787,2.63741,-6.32995,-1.24735,1.37813,-3.04879,1.0138e-14,-1.11319e-14,-26.0729,10.595,-85.1322,48.2039,28.1745,-34.2111,-39.4815,7.12502,-7.38335,290.667,1.0138e-14,-1.11319e-14,-36.9599,-27.4373,102.696,63.7908,-18.0495,-31.741,-12.5112,7.12502,-4.99862,17.4098,-33.0217,10.0642,22.0735,46.8568,-16.5092,13.8373,-16.4562,-28.69,-14.2344,-13.9389,64.8261,50.1047,-9.90358,8.37199
-14.8436,17.5784,-0.0314753,382.538,-75.1968,-370.98,13.7685,-2.89199,5.9558,1.14473,-2.82647,2.50703,-6.6702,-1.54588,-0.144729,3.97076,1.82951,5.49842,-1.69665,2.55158,-6.29601,-1.07179,1.3348,-3.04088,1.45113e-14,-2.94201e-14,-25.8261,12.0353,-85.9688,48.9689,37.0535,-35.6449,-40.3949,7.12502,-8.76713,289.807,1.45113e-14,-2.94201e-14,-37.2131,-30.1862,104.148,65.6806,-19.2307,-29.3974,-10.8461,7.12502,-2.73547,19.1161,-30.988,10.6591,24.2837,46.4121,-17.9427,12.212,-7.5068,-30.7845,-16.8599,-11.0238,68.9846,50.8988,-9.48165,0.492384
-14.9066,17.4194,-0.0470187,382.848,-75.034,-372.758,14.5764,-2.90663,6.1926,1.3555,-2.75347,2.65183,-6.89307,-1.52013,-0.104945,3.97483,1.83339,5.41948,-1.16743,2.57296,-6.17406,-0.903265,1.34305,-2.97658,1.49089e-14,2.38542e-15,-25.5811,12.0911,-86.1272,49.3399,47.6496,-37.2134,-40.7007,7.12502,-10.2805,289.57,1.49089e-14,2.38542e-15,-37.4291,-31.3815,104.641,66.8715,-20.1589,-28.9087,-12.1169,7.12502,-2.26358,17.8508,-28.6534,11.805,25.3539,45.9792,-21.5655,9.38294,-14.2994,-32.2501,-18.7627,-9.32014,72.8343,48.2522,-10.4102,-1.60079
-14.9621,17.2686,-0.0646583,383.652,-75.0433,-375.286,15.8163,-2.9286,6.5407,1.669,-2.63855,2.81682,-7.24276,-1.48049,-0.0976872,3.90262,1.90814,5.20438,-0.834317,2.67398,-5.96088,-0.781968,1.3899,-2.85889,2.98177e-14,-2.26615e-14,-25.4215,11.6466,-85.8407,49.4271,56.5891,-38.569,-43.9682,7.12502,-11.588,286.372,2.98177e-14,-2.26615e-14,-37.6177,-30.9244,104.03,67.4515,-21.9619,-28.8468,-10.5948,7.12502,-2.20379,19.3736,-26.1562,13.3618,26.5606,45.5132,-24.0362,6.68412,-17.0785,-33.3252,-19.9777,-7.67006,76.1949,44.899,-13.254,5.19503
-15.0045,17.127,-0.0717537,388.733,-74.9322,-381.891,16.9809,-2.96614,8.08977,1.94693,-2.31314,3.19072,-7.60872,-1.37945,-0.588198,3.76044,1.98803,5.09148,-0.563684,2.77627,-6.03255,-0.665071,1.43911,-2.85676,6.36111e-15,2.06736e-14,-25.4569,10.8379,-85.2212,49.4946,60.8769,-39.0028,-45.8665,7.12502,-12.0064,284.498,6.36111e-15,2.06736e-14,-37.9195,-29.3006,102.492,67.3925,-23.2753,-29.6882,-9.92272,7.12502,-3.01634,20.0357,-24.4333,14.7124,28.9296,45.6041,-25.7456,4.35358,-17.6566,-34.7419,-20.2441,-4.84086,78.8149,39.4297,-16.5257,1.62772
-15.0328,16.9811,-0.0511212,403.426,-73.4761,-398.341,18.4693,-3.12598,12.7859,2.26348,-1.44096,4.20626,-8.08705,-1.13569,-2.24306,3.42502,2.06024,4.91792,-0.407748,2.85754,-6.03405,-0.553978,1.47485,-2.81737,-4.6118e-14,-2.38542e-15,-25.7355,9.74471,-84.2286,49.4698,61.0158,-38.9666,-45.1567,7.12502,-11.9714,285.206,-4.6118e-14,-2.38542e-15,-38.3015,-26.8909,100.16,66.6655,-23.1727,-31.7769,-11.2037,7.12502,-5.0333,18.7165,-22.8404,16.4546,34.4311,45.7995,-24.5053,4.32779,-15.5274,-36.0612,-18.966,1.22254,80.8443,34.2072,-19.2905,-1.99765
-15.0939,16.9407,-0.00998996,404.069,-75.8419,-398.73,18.6577,-2.48399,11.5015,2.35315,-0.86175,3.69182,-8.0041,-0.813207,-2.25147,3.01184,2.17527,4.82278,-0.34695,2.99105,-6.29397,-0.45241,1.53748,-2.88018,6.16232e-15,3.77691e-14,-26.1603,9.14095,-82.992,49.3017,58.1334,-38.3619,-44.4893,7.12502,-11.3883,285.84,6.16232e-15,3.77691e-14,-38.6504,-23.4868,96.9434,65.6845,-24.173,-33.054,-9.32341,7.12502,-6.26631,20.5639,-22.9755,18.1282,32.8027,46.2664,-24.3235,4.86621,-14.1513,-37.6631,-17.8774,0.169341,81.1655,27.2255,-20.5432,-9.53606
-15.1608,16.9209,0.0259931,406.433,-77.4672,-400.763,18.6229,-1.97516,10.895,2.50372,-0.357857,3.39167,-7.75373,-0.541554,-2.37907,2.78676,2.31045,4.59016,-0.671641,3.14542,-6.24648,-0.510564,1.61346,-2.82165,-3.37934e-15,1.66979e-14,-26.4646,8.67026,-81.4375,48.6168,53.9727,-38.0844,-43.1909,7.12502,-11.1207,287.124,-3.37934e-15,1.66979e-14,-39.0906,-19.5078,93.1623,64.3357,-25.8829,-33.6548,-8.16475,7.12502,-6.84634,21.7046,-23.0897,19.1814,31.8995,46.3508,-24.2776,5.22313,-13.4338,-39.3807,-16.737,-0.105585,80.4439,20.214,-21.3047,-14.8876
-15.2504,17.0081,0.056671,407.462,-79.1275,-402.159,19.2837,-1.56261,10.0956,2.88263,0.0374827,2.99581,-7.64679,-0.322888,-2.46552,2.7582,2.41681,4.42249,-1.07647,3.26829,-6.14579,-0.630409,1.67671,-2.76244,2.62396e-14,4.77083e-15,-26.7111,8.00775,-79.7495,47.4866,50.6398,-37.3425,-46.1298,7.12502,-10.405,284.148,2.62396e-14,4.77083e-15,-39.5183,-15.4052,89.0054,61.758,-25.7712,-34.8898,-6.52075,7.12502,-8.03839,23.3064,-22.0753,18.652,31.0698,46.0128,-24.3438,6.54006,-10.9829,-39.5094,-16.4506,-1.12423,78.0287,14.792,-20.7819,-17.9495
-15.3437,17.1278,0.0824031,407.321,-80.375,-402.148,19.6795,-1.32016,9.4462,3.21084,0.204283,2.57956,-7.48079,-0.217174,-2.60073,2.33527,2.4329,4.54233,-0.894032,3.28617,-6.23254,-0.494821,1.67885,-2.80311,-3.18055e-15,7.95139e-16,-26.9355,6.62524,-77.9163,45.9792,49.1795,-35.838,-44.1182,7.12502,-8.95351,286.092,-3.18055e-15,7.95139e-16,-39.8758,-11.1001,84.3957,58.455,-24.7953,-35.5084,-3.54712,7.12502,-8.63539,26.2563,-21.0549,17.7234,30.2904,45.0873,-23.9564,7.58788,-10.4271,-39.7321,-16.7058,-2.12975,74.5527,11.6116,-20.4379,-17.4198
-15.4445,17.2635,0.105607,405.144,-81.6139,-399.752,19.7637,-1.12231,8.64482,3.43771,0.249461,2.02843,-7.27507,-0.165274,-2.76475,1.81747,2.48053,4.61279,-0.482012,3.35207,-6.1221,-0.271433,1.70145,-2.7643,1.0138e-14,3.57812e-15,-27.2421,4.78464,-76.1148,44.1587,48.767,-36.0229,-45.2132,7.12502,-9.13195,285.004,1.0138e-14,3.57812e-15,-40.3406,-6.68394,79.3793,54.7077,-22.4349,-34.8356,-0.884036,7.12502,-7.98611,28.9451,-20.2068,16.7374,29.2144,43.8643,-23.2084,8.114,-9.25864,-40.0594,-16.9128,-3.50778,70.1693,8.39546,-20.2996,-21.1863
-15.5491,17.4013,0.128566,402.518,-82.8615,-396.592,19.6635,-0.886124,7.88505,3.53419,0.346409,1.41555,-7.10861,-0.0933555,-3.02826,1.15808,2.51306,4.65435,0.0970992,3.3966,-5.90108,0.024579,1.71109,-2.68019,1.02374e-14,-3.97569e-15,-27.6606,2.45647,-74.3213,42.2285,48.673,-35.2815,-45.7465,7.12502,-8.41642,284.441,1.02374e-14,-3.97569e-15,-40.9425,-1.97618,73.9653,50.6769,-19.3942,-33.6199,1.97359,7.12502,-6.81262,31.844,-19.6414,16.7366,28.2186,42.773,-22.0758,6.74637,-9.96779,-40.4521,-16.8802,-4.98623,65.2796,6.25337,-20.8958,-22.5171
-15.6551,17.5195,0.150714,400.693,-84.1657,-394.134,19.5529,-0.570957,7.18583,3.5852,0.562613,0.802535,-6.97305,0.030997,-3.352,0.486291,2.53173,4.76885,0.672322,3.41878,-5.77641,0.322776,1.71083,-2.64438,1.16289e-14,-3.04141e-14,-28.1158,-0.191391,-72.6139,40.4157,47.7612,-34.587,-46.4757,7.12502,-7.74618,283.686,1.16289e-14,-3.04141e-14,-41.6419,3.3054,68.1275,46.6364,-16.6636,-32.4102,4.57461,7.12502,-5.64477,34.4794,-19.3543,16.2384,27.6051,42.179,-21.0375,4.15692,-16.551,-40.7105,-16.5027,-6.53963,60.1564,5.57175,-21.8529,-19.8745
-15.7668,17.6268,0.17219,397.009,-85.7433,-389.814,19.3456,-0.147188,6.24418,3.69689,0.854285,0.104156,-6.71475,0.199374,-3.64282,-0.318734,2.58148,4.5644,1.2809,3.47251,-5.28626,0.641804,1.72637,-2.42804,1.68967e-15,1.59028e-15,-28.5222,-2.95105,-71.1025,38.868,45.6536,-34.5981,-47.5789,7.12502,-7.75687,282.583,1.68967e-15,1.59028e-15,-42.456,8.95888,61.9623,42.7518,-14.8697,-31.7378,8.10291,7.12502,-4.99558,38.024,-19.1642,14.851,27.0453,42.0551,-18.4112,2.77002,-8.8958,-40.6706,-15.7362,-8.58628,55.0192,3.93482,-22.4668,-24.1257
-15.88,17.7343,0.193079,392.029,-87.4589,-384.177,18.9821,0.404862,5.28617,3.87956,1.29895,-0.618855,-6.28161,0.444933,-3.97504,-1.40137,2.62646,4.15704,2.04614,3.50905,-4.48678,1.0445,1.73445,-2.0742,2.9768e-14,-1.05356e-14,-28.8868,-5.87083,-69.8288,37.7207,43.1542,-35.1746,-49.4363,7.12502,-8.31324,280.747,2.9768e-14,-1.05356e-14,-43.2298,14.8703,55.6019,38.7296,-14.3984,-32.1392,11.0933,7.12502,-5.38312,41.0049,-19.0897,11.4774,27.1902,42.2934,-15.643,-0.203357,-13.8342,-40.4366,-14.4934,-10.7827,50.1523,8.05984,-21.6879,-11.5032
-15.9944,17.8066,0.213247,375.031,-89.2295,-366.476,19.0694,1.06997,4.28956,3.60732,1.93856,-1.34818,-6.56577,0.758457,-4.35386,-2.12049,2.52303,4.24306,3.10362,3.35544,-4.0806,1.49201,1.6549,-1.95186,-1.6201e-14,-1.04362e-14,-29.9689,-8.66972,-68.7086,37.0331,41.1504,-35.5616,-51.9578,7.12502,-8.68678,278.241,-1.6201e-14,-1.04362e-14,-44.6326,20.787,48.6596,34.558,-15.1319,-32.904,10.5793,7.12502,-6.12153,40.4709,-19.246,7.7281,27.5603,42.5537,-12.7553,-2.84824,-11.398,-40.3022,-12.8034,-13.0193,45.8142,10.3331,-21.211,-11.8948
-16.1173,17.8715,0.232242,417.487,-90.9328,-408.187,18.7348,1.72199,3.44107,3.41998,2.57224,-2.00865,-6.53113,1.07845,-4.72279,-2.37507,2.36773,4.12127,3.51184,3.12284,-3.34083,1.63676,1.54805,-1.69251,-1.63252e-14,-8.54774e-15,-30.7623,-11.4131,-67.8276,36.5034,39.3696,-35.6818,-54.4004,7.12502,-8.80271,275.803,-1.63252e-14,-8.54774e-15,-46.26,26.2669,42.1684,30.5358,-19.1603,-34.7009,13.7159,7.12502,-7.85611,43.5499,-19.4675,3.39344,28.2265,42.4527,-12.414,-6.70111,-8.94575,-40.2318,-10.8129,-15.3091,42.4557,13.3357,-19.1424,-10.8165
-16.249,17.9221,0.249166,414.278,-92.5173,-404.121,18.0136,2.32992,2.27541,3.18896,3.09382,-2.64607,-6.36715,1.3559,-4.83383,-2.47547,2.20163,4.05696,3.97012,2.88758,-2.93388,1.7822,1.43714,-1.5548,8.3738e-15,-9.0944e-15,-31.2721,-13.8226,-67.1223,35.8751,37.2537,-36.4762,-55.0379,7.12502,-9.56931,275.199,8.3738e-15,-9.0944e-15,-48.5156,31.0711,36.0036,27.4078,-22.212,-35.9415,15.97,7.12502,-9.05334,45.7557,-19.8045,-1.58568,28.595,41.9047,-11.9412,-9.58582,-6.10801,-40.3391,-8.6732,-18.1164,40.2896,14.7739,-16.0281,-5.84492
-16.3846,17.9411,0.251746,398.213,-93.151,-387.402,17.2895,2.82274,2.20712,2.90226,3.72813,-2.81177,-6.21613,1.67368,-5.07788,-2.41257,2.06546,3.97554,4.57866,2.69985,-2.62199,1.95285,1.34944,-1.44573,4.59068e-14,-2.92213e-14,-31.5534,-15.2988,-66.8928,35.3923,35.3027,-36.542,-57.0625,7.12502,-9.6328,273.178,4.59068e-14,-2.92213e-14,-50.6282,33.6111,31.7318,25.2637,-21.5971,-36.9387,18.0482,7.12502,-10.0155,47.7899,-19.7352,-6.20595,30.4907,40.8531,-12.5,-12.4511,-3.39476,-40.2544,-5.88851,-19.701,39.4185,14.6409,-12.8291,3.50277
-16.5228,17.9209,0.261679,394.525,-93.8183,-383.203,16.3715,3.1449,1.91825,2.71086,4.09358,-3.04107,-5.89097,1.87005,-5.17883,-2.48384,2.03674,3.85473,5.34734,2.64773,-2.2877,2.20585,1.32914,-1.31875,-8.57259e-15,7.35503e-15,-31.4314,-16.3797,-66.98,34.9024,34.597,-34.8402,-57.6168,7.12502,-7.99058,272.554,-8.57259e-15,7.35503e-15,-51.8553,33.9801,29.956,23.9859,-16.3897,-37.1408,19.6942,7.12502,-10.2105,49.4264,-19.5615,-10.4163,31.5749,39.7151,-13.8595,-14.0923,-4.45294,-39.574,-3.65486,-21.5318,39.4085,10.1767,-10.2375,1.03124
-16.6628,17.873,0.273638,395.196,-94.3774,-383.656,15.6176,3.30399,1.47247,2.55269,4.21949,-3.2856,-5.65171,1.94755,-5.16371,-2.66271,2.10287,3.72634,6.22971,2.71388,-1.95607,2.52334,1.36778,-1.18704,-5.11871e-15,3.30976e-14,-31.1388,-16.6182,-67.4528,34.6554,34.8196,-35.5485,-53.5317,7.12502,-8.67407,276.666,-5.11871e-15,3.30976e-14,-52.8192,33.4118,29.31,23.4583,-8.86506,-35.8105,20.0734,7.12502,-8.9269,49.8645,-18.7585,-12.9368,31.6111,38.4012,-15.4442,-13.9928,-4.6658,-38.6999,-2.30422,-23.2554,39.8471,4.88156,-12.4535,-15.8809
-16.8033,17.8159,0.286806,391.265,-94.6637,-379.891,15.566,3.37844,1.45202,2.17608,4.31654,-3.39442,-6.00948,1.9855,-5.30477,-2.51899,2.17181,3.69177,7.10543,2.78556,-1.6743,2.78607,1.41071,-1.08885,-4.78077e-14,5.62561e-14,-31.354,-15.8836,-68.0427,34.8728,35.7225,-35.3532,-49.9397,7.12502,-8.48566,280.251,-4.78077e-14,5.62561e-14,-54.1688,32.3633,28.6763,23.6071,-2.37869,-32.8347,19.1568,7.12502,-6.05459,49.0503,-17.1817,-13.2148,31.2899,37.0562,-16.2247,-13.0975,-9.57733,-37.9084,-2.09666,-23.866,40.5976,-0.726678,-12.7984,-34.558
-16.9364,17.7534,0.301381,378.373,-94.7229,-367.511,15.6336,3.41105,2.25415,2.0658,4.51279,-3.25494,-6.09308,2.06506,-5.65908,-2.48885,2.19997,3.83462,7.74647,2.81121,-1.70081,3.00263,1.42618,-1.12236,-5.58585e-14,1.78906e-14,-31.4269,-14.7435,-68.7632,35.5828,37.5013,-34.4658,-46.9943,7.12502,-7.62922,283.163,-5.58585e-14,1.78906e-14,-55.2963,31.5552,28.2753,23.885,0.844672,-29.4923,17.6172,7.12502,-2.82711,47.5782,-15.0592,-11.7643,31.1657,36.1418,-17.7533,-11.0117,-10.4462,-37.382,-3.63281,-22.4257,41.1955,-0.614726,-10.8189,-12.85
-17.0608,17.7019,0.31558,357.834,-95.007,-347.856,16.2041,3.39438,3.80671,2.03064,4.79697,-2.91341,-6.31107,2.16448,-6.27727,-2.31586,2.19233,3.89605,8.12368,2.78814,-1.58358,3.09702,1.41999,-1.09714,-9.14409e-15,4.57205e-14,-31.7315,-13.3153,-69.5297,36.6406,39.3494,-33.5302,-45.5655,7.12502,-6.7261,284.561,-9.14409e-15,4.57205e-14,-56.0038,30.5524,28.1814,23.7532,0.352962,-27.867,15.3415,7.12502,-1.25742,45.3175,-12.8773,-10.4131,31.7715,35.7584,-19.1543,-8.59982,-10.5524,-36.3831,-4.87934,-20.4528,41.9893,-2.57497,-9.46343,-17.4591
-17.1826,17.6607,0.325446,365.313,-95.5303,-356.423,16.95,3.6833,2.7715,2.09299,4.9678,-3.13933,-6.69834,2.24713,-6.03076,-2.02993,2.14331,3.75644,8.27143,2.70955,-1.26424,3.08121,1.38683,-0.973029,1.89839e-14,2.0276e-14,-32.1635,-11.7645,-70.2154,37.8078,40.2831,-33.1598,-43.6643,7.12502,-6.36847,286.451,1.89839e-14,2.0276e-14,-56.1774,29.1946,28.7771,23.3501,-2.81818,-28.6783,13.3271,7.12502,-2.04105,43.297,-11.256,-10.4077,30.0491,36.0828,-19.5078,-6.94454,-19.7938,-34.9346,-6.53322,-21.1697,42.5597,-4.43455,-7.39316,-20.1959
-17.2979,17.6422,0.323358,363.741,-95.8976,-355.086,17.041,3.91354,2.3232,1.87665,5.20003,-3.0759,-7.00159,2.35999,-5.77994,-1.7503,2.06391,3.84085,8.5443,2.60067,-1.25032,3.12038,1.33527,-0.989098,-1.48095e-14,-3.73715e-14,-32.6824,-10.3046,-70.7641,39.0143,40.2132,-33.4084,-45.7861,7.12502,-6.60849,284.337,-1.48095e-14,-3.73715e-14,-56.0489,27.3806,30.0331,23.0326,-6.82985,-30.3756,12.6873,7.12502,-3.68013,42.6353,-10.9618,-10.8219,29.6417,36.9264,-19.1756,-4.94955,-23.985,-34.4829,-7.63329,-20.9421,43.1796,-5.4476,-5.7422,-21.2352
-17.4157,17.7,0.321185,356.542,-96.0363,-347.445,16.1493,4.00175,2.52779,1.7367,5.3833,-2.85581,-6.64721,2.46689,-5.62096,-1.56855,1.94994,3.96918,8.67204,2.43977,-1.19463,3.12678,1.26086,-1.00012,4.49253e-14,-5.24792e-14,-32.8032,-9.2822,-71.2944,40.0443,39.4909,-33.7474,-46.6371,7.12502,-6.93573,283.497,4.49253e-14,-5.24792e-14,-55.6605,26.0022,31.448,22.8699,-10.1951,-31.8699,12.7808,7.12502,-5.12308,42.6989,-11.7681,-12.0722,30.0659,38.2993,-17.7697,-2.46278,-23.7175,-34.5925,-7.58808,-20.1809,43.3489,-5.27105,-5.09642,-22.2064
-17.5276,17.7927,0.319274,349.24,-96.2076,-339.857,15.4461,4.03945,2.7965,1.60047,5.50044,-2.68246,-6.38697,2.53428,-5.55103,-1.26919,1.83716,4.32444,8.9875,2.27325,-1.18537,3.18084,1.18919,-1.06719,5.12864e-14,-1.51076e-14,-33.0166,-8.43643,-71.9106,40.8126,38.5497,-34.1809,-47.5299,7.12502,-7.35419,282.618,5.12864e-14,-1.51076e-14,-55.2731,24.5548,32.8973,23.0869,-11.3952,-33.2184,12.9101,7.12502,-6.42501,42.7927,-12.4323,-13.4348,30.4312,39.6032,-14.8186,-0.386533,-31.6223,-34.4965,-7.03879,-19.5794,43.3146,-4.30277,-4.66069,-23.5765
-17.6345,17.9312,0.317826,342.57,-96.5105,-333.016,14.8565,4.04641,3.09987,1.50905,5.57222,-2.54974,-6.13719,2.57685,-5.54238,-0.832951,1.75532,4.56718,9.28191,2.1292,-0.84237,3.19417,1.13532,-1.00458,-1.88845e-14,-2.70347e-14,-33.2122,-7.63635,-72.6045,41.3466,37.8708,-34.7665,-48.2131,7.12502,-7.91945,281.955,-1.88845e-14,-2.70347e-14,-54.9316,23.2139,34.2906,23.6377,-10.689,-34.1272,12.765,7.12502,-7.30234,42.619,-13.0502,-13.773,30.3848,40.8596,-11.8115,3.49822,-36.9642,-34.1602,-6.32164,-19.0975,43.059,-2.55859,-4.02634,-23.6015
-17.7334,18.093,0.322345,338.941,-96.7928,-329.447,14.4574,4.06417,3.20161,1.53912,5.61118,-2.49507,-5.87674,2.60631,-5.50775,-0.34454,1.66635,4.78849,9.52853,1.98278,-0.533619,3.18194,1.07771,-0.949285,-5.60573e-14,-1.59028e-15,-33.415,-7.00587,-73.2069,41.8047,37.7165,-35.5304,-48.3358,7.12502,-8.65662,281.862,-5.60573e-14,-1.59028e-15,-54.5579,22.1859,35.549,24.2939,-9.22842,-34.5022,12.5186,7.12502,-7.66434,42.3597,-13.5698,-12.8852,29.535,42.2269,-8.25806,8.91478,-44.3736,-33.5945,-5.82843,-19.067,42.7306,-0.574018,-2.52058,-22.3454
-17.8224,18.2258,0.335122,338.375,-97.0184,-329.142,14.2565,4.13649,3.08482,1.64676,5.6796,-2.51135,-5.65349,2.65141,-5.44484,0.0388474,1.58414,4.93348,9.87916,1.8481,-0.306664,3.22612,1.02168,-0.906335,2.32578e-14,-7.95139e-16,-33.7346,-6.73933,-73.5965,42.2816,38.2165,-36.2706,-48.06,7.12502,-9.37089,282.168,2.32578e-14,-7.95139e-16,-54.1476,21.6171,36.4995,24.842,-8.05541,-34.6743,12.3622,7.12502,-7.83043,42.1971,-14.2408,-9.77756,27.8977,43.6207,-2.76439,14.6845,-45.0853,-32.981,-5.4285,-19.6305,42.5831,1.02045,-0.272035,-23.9872
-17.9043,18.3231,0.353563,338.836,-97.2495,-329.929,14.1559,4.24316,3.01371,1.75761,5.8028,-2.5173,-5.47308,2.72026,-5.41478,0.227695,1.49822,4.90642,10.4764,1.70154,-0.142312,3.39064,0.954509,-0.853378,1.19271e-15,1.43125e-14,-34.1503,-6.7584,-73.7044,42.6818,39.1117,-37.1062,-47.7476,7.12502,-10.1771,282.519,1.19271e-15,1.43125e-14,-53.7356,21.7165,36.9922,25.1517,-7.735,-34.9508,12.3367,7.12502,-8.09726,42.1615,-14.8851,-5.42802,25.8236,45.2489,1.54033,21.9783,-43.4947,-32.3024,-5.16082,-20.4351,42.5179,1.75355,2.23625,-24.5967
-17.9759,18.3561,0.370678,334.581,-97.8231,-325.83,13.9737,4.28651,3.73529,1.7627,5.98773,-2.27213,-5.29943,2.80797,-5.56968,0.523806,1.43042,4.60754,11.014,1.58511,0.0896638,3.51096,0.8928,-0.729824,-5.54609e-14,1.27222e-14,-34.5054,-6.73236,-73.6077,42.7843,40.0108,-37.9197,-47.5976,7.12502,-10.9619,282.709,-5.54609e-14,1.27222e-14,-53.4686,22.3747,37.1101,25.3289,-7.92129,-35.5834,12.5352,7.12502,-8.70779,42.3356,-16.1585,0.981937,24.5927,47.047,6.75947,29.6713,-40.8209,-32.0189,-5.09078,-20.342,42.8367,0.805535,4.38765,-22.5834
-18.0526,18.3468,0.383201,337.36,-97.8973,-329.099,13.9406,4.40018,3.40285,1.8071,6.08417,-2.27176,-5.25798,2.86317,-5.39299,0.762293,1.38205,4.68906,11.7464,1.52385,-0.211175,3.72759,0.855341,-0.847174,-1.07344e-14,-1.07344e-14,-34.7783,-6.86743,-73.3446,42.4775,41.0813,-38.4493,-47.8691,7.12502,-11.4726,282.465,-1.07344e-14,-1.07344e-14,-53.3556,23.3051,36.9938,25.5489,-8.26115,-36.4683,13.0918,7.12502,-9.56169,42.8548,-17.3824,7.10159,22.0446,49.5017,13.8867,34.4121,-37.7527,-31.2761,-5.38435,-21.3852,43.0416,-1.14624,5.47637,-26.2668
-18.1263,18.2958,0.389768,331.909,-98.5899,-323.8,13.7135,4.42146,4.44182,1.62359,6.2999,-1.92614,-5.23114,2.95532,-5.62917,1.28519,1.32518,4.36782,12.1781,1.42118,0.0844948,3.76939,0.797182,-0.698209,-8.96519e-14,-7.15625e-15,-35.0677,-7.23199,-72.9365,41.8113,42.2836,-38.7602,-48.4809,7.12502,-11.7724,281.87,-8.96519e-14,-7.15625e-15,-53.4095,24.2189,36.8493,26.0051,-8.20295,-37.4227,14.0794,7.12502,-10.4824,43.798,-19.0002,13.0751,20.9658,52.3669,19.3385,35.7992,-28.8276,-31.0004,-5.43474,-20.7895,43.498,-3.38779,6.52542,-31.55
-18.224,18.1952,0.39493,334.575,-98.3092,-327.068,13.3833,4.42876,4.02879,1.6249,6.23609,-1.99187,-5.09311,2.93879,-5.42533,1.61495,1.28083,4.29493,12.7795,1.32865,0.204427,3.91656,0.74923,-0.650076,7.17613e-14,-1.98785e-14,-35.3145,-7.68971,-72.5292,40.8509,43.1062,-38.9736,-48.8806,7.12502,-11.9782,281.482,7.17613e-14,-1.98785e-14,-53.6004,24.9548,36.8432,26.7972,-7.11944,-38.5126,15.1145,7.12502,-11.5336,44.7771,-20.274,17.7654,18.1321,55.9283,15.6082,34.8474,-29.2269,-29.5881,-6.15717,-21.5912,43.4187,-5.87267,6.31405,-23.6996
-18.316,18.0771,0.394329,328.654,-98.9695,-321.329,12.8541,4.36251,5.11601,1.41692,6.3215,-1.68183,-4.92997,2.97203,-5.67504,1.93432,1.30037,4.2736,13.3034,1.30095,0.493896,4.04022,0.740968,-0.552165,-4.09496e-14,9.93923e-15,-35.5582,-8.20374,-72.2166,39.7587,43.4465,-38.8781,-49.0837,7.12502,-11.8861,281.274,-4.09496e-14,9.93923e-15,-53.951,25.4368,36.9822,27.9758,-5.27789,-39.6388,15.9115,7.12502,-12.6196,45.5103,-21.9744,21.4864,16.9432,59.4751,8.96208,30.343,-29.5492,-28.7085,-6.38937,-20.2114,43.2926,-7.14441,4.41708,-25.9227
-18.4113,17.9793,0.399439,332.416,-98.3998,-325.844,12.7669,4.26349,4.18473,1.37064,6.04684,-1.87615,-5.04193,2.84829,-5.31733,2.22152,1.35247,4.31038,13.7301,1.30729,0.854689,4.13715,0.75453,-0.438959,-7.83212e-14,2.14687e-14,-35.6826,-8.69658,-72.0342,38.5203,43.5674,-38.6219,-49.2239,7.12502,-11.639,281.119,-7.83212e-14,2.14687e-14,-54.3929,25.6246,37.3914,29.4182,-3.28119,-40.3248,16.7034,7.12502,-13.2809,46.2603,-23.1972,23.566,13.8598,62.9549,3.39139,23.2693,-28.5307,-27.0624,-6.4602,-20.9693,42.6439,-8.36787,1.62242,-24.8331
-18.4996,17.8707,0.409767,331.051,-97.6554,-325.251,12.8531,3.89592,3.89197,1.32537,5.52085,-1.92085,-5.22194,2.58725,-5.13464,2.24533,1.43848,4.51324,14.3317,1.35248,1.05542,4.3553,0.792969,-0.404986,3.26007e-14,7.95139e-15,-35.6849,-9.38936,-71.8685,37.0695,43.9432,-38.4487,-49.0967,7.12502,-11.472,281.237,3.26007e-14,7.95139e-15,-54.6277,25.6235,38.1169,30.6763,-1.75268,-40.0323,17.0838,7.12502,-12.9989,46.6588,-23.9884,23.9228,11.8488,65.7911,-1.9837,14.3386,-33.7283,-25.5927,-6.20561,-21.2439,42.1661,-9.65772,-1.80397,-22.9269
-18.5736,17.7525,0.425361,328.113,-96.3725,-323.44,13.5171,3.39362,3.55255,1.39185,4.81279,-1.99864,-5.61857,2.22833,-4.96895,1.97171,1.50739,4.66218,15.0238,1.35958,1.24082,4.66671,0.815128,-0.365159,-4.21423e-14,3.18055e-15,-35.783,-10.4645,-71.514,35.5844,44.8753,-38.0579,-48.5851,7.12502,-11.0951,281.728,-4.21423e-14,3.18055e-15,-54.2513,25.5496,39.276,31.3567,-1.05317,-39.0302,16.7074,7.12502,-12.0328,46.3414,-24.4063,22.5232,10.2773,68.0813,-3.94493,4.51333,-35.8637,-23.7052,-4.85168,-22.6641,41.5307,-11.5874,-2.49556,-26.8467
-18.6214,17.6413,0.445246,316.524,-95.246,-313.269,14.8072,2.76223,3.8578,1.52798,4.05859,-1.85866,-6.25529,1.82562,-4.95201,1.73928,1.53471,4.79646,15.6011,1.34135,1.25031,4.93219,0.817394,-0.38335,-6.38099e-14,-2.38542e-15,-36.0662,-11.6295,-70.9424,34.2569,46.1718,-37.4744,-47.7538,7.12502,-10.5323,282.53,-6.38099e-14,-2.38542e-15,-53.336,25.4336,40.9486,31.498,-0.961004,-38.1427,16.5736,7.12502,-11.1769,46.2559,-24.493,20.484,9.6278,69.8182,-3.94635,-5.24115,-27.2548,-21.9011,-4.51612,-23.407,41.4618,-13.2389,-2.72462,-17.1571
-18.6453,17.5453,0.446085,327.245,-92.3024,-324.991,15.7733,2.39004,1.25548,1.62226,3.09424,-2.2591,-6.91019,1.39197,-3.77528,1.78969,1.50575,4.81986,15.8854,1.29095,1.18872,5.0302,0.790715,-0.410096,-2.04748e-14,1.59028e-14,-36.5111,-12.749,-70.2068,33.3236,47.2554,-36.9334,-46.8638,7.12502,-10.0104,283.394,-2.04748e-14,1.59028e-14,-52.1362,25.3133,43.2177,31.4438,-1.40032,-37.0917,16.9896,7.12502,-10.1631,46.7241,-25.3006,16.8605,6.34223,71.0681,-4.15546,-12.6483,-13.8727,-20.7545,-6.95052,-26.7367,41.7382,-14.1715,-0.110976,-22.3892
-18.6577,17.4743,0.436924,270.407,-90.7087,-267.55,15.0584,1.90257,0.59663,1.55705,2.35942,-2.14928,-6.66857,1.0631,-3.10006,1.8398,1.40317,4.51594,15.734,1.15631,1.3351,4.95316,0.714085,-0.311964,-1.11319e-14,-1.03368e-14,-36.7013,-13.8883,-69.5382,32.7968,47.4565,-36.5456,-46.3509,7.12502,-9.63628,283.889,-1.11319e-14,-1.03368e-14,-50.3456,25.3665,46.329,31.43,-2.33674,-35.8232,16.7409,7.12502,-8.93917,46.5315,-27.7826,12.5556,5.50201,71.613,-4.17337,-17.7308,-4.10846,-21.7731,-8.81158,-27.5429,42.4974,-14.2079,0.774632,-23.882
-18.6558,17.427,0.417801,215.517,-91.9003,-212.804,15.2321,1.53669,0.852966,1.76859,1.94702,-1.75394,-6.56602,0.862806,-2.74153,1.60153,1.23812,4.38856,15.8978,0.957946,1.08377,5.05875,0.603634,-0.381848,-1.95803e-14,3.18055e-15,-36.7163,-14.9152,-69.0862,32.5258,46.842,-36.2881,-46.5651,7.12502,-9.3878,283.664,-1.95803e-14,3.18055e-15,-48.0777,24.9905,50.3035,31.7778,-2.98919,-34.9234,16.0284,7.12502,-8.07089,45.8543,-29.3587,8.7738,6.81076,71.2782,-3.78428,-20.4714,-8.09905,-22.1786,-9.79904,-27.2813,43.4187,-13.9553,0.917038,-24.2722
-18.6514,17.4349,0.386583,224.303,-93.1094,-222.23,15.8473,1.37836,1.4356,2.1461,1.87207,-1.12798,-6.50678,0.817071,-2.40197,1.78512,1.18232,4.04133,15.6823,0.894323,1.23555,4.93279,0.558016,-0.271919,-3.67752e-14,-6.36111e-15,-36.2909,-15.5752,-69.0936,32.2196,45.8248,-36.1632,-47.2023,7.12502,-9.26725,283.021,-3.67752e-14,-6.36111e-15,-45.8089,23.7185,54.9506,32.7876,-2.72655,-34.4608,15.7668,7.12502,-7.62439,45.6094,-30.9879,5.36437,9.72002,70.1835,-4.25784,-21.1972,-11.2224,-22.0129,-9.32582,-26.2213,44.28,-13.6717,0.507656,-23.0466
-18.6529,17.4439,0.353056,234.726,-94.0646,-233.218,16.2264,1.31799,2.08228,2.5432,1.92745,-0.592063,-6.2836,0.834115,-2.21274,2.06952,1.16458,4.02958,15.5298,0.889229,1.22073,4.81863,0.550083,-0.276517,-1.67973e-14,-1.15295e-14,-35.4665,-15.8587,-69.6916,31.6984,44.5353,-36.2062,-47.5974,7.12502,-9.30875,282.628,-1.67973e-14,-1.15295e-14,-43.6581,21.3389,59.9033,34.3905,-1.66677,-34.303,15.8589,7.12502,-7.472,45.7069,-32.4019,2.17709,13.2241,68.2551,-6.88847,-20.4986,-6.81707,-21.7608,-6.89079,-25.497,44.8447,-13.0846,1.1591,-20.5678
-18.6627,17.517,0.334454,242.272,-94.5738,-241.183,16.4774,1.31375,2.41684,2.85975,1.98244,-0.335839,-6.07642,0.85554,-2.1421,2.17329,1.1918,4.61918,15.8267,0.950643,0.764078,4.92367,0.59047,-0.534627,-4.77083e-15,-1.03368e-14,-34.5324,-15.797,-70.8098,31.175,43.3699,-36.0853,-47.5226,7.12502,-9.19215,282.698,-4.77083e-15,-1.03368e-14,-41.8322,18.2581,64.5443,36.4902,-0.347307,-34.0927,16.3038,7.12502,-7.26907,46.159,-33.8168,-1.43422,17.0997,65.6364,-7.50408,-20.5293,-8.93662,-21.2336,-3.83421,-25.3684,44.7592,-12.4896,2.56292,-20.6392
-18.6722,17.5916,0.319369,248.979,-94.8822,-248.113,16.6104,1.29808,2.59407,3.06662,1.98694,-0.246383,-5.92405,0.854739,-2.14789,2.35746,1.31022,4.88655,16.0221,1.07608,0.862078,4.96841,0.666856,-0.544444,3.8763e-14,-2.46493e-14,-33.5241,-15.3927,-72.2522,30.7393,42.5154,-35.9537,-47.3061,7.12502,-9.06513,282.909,3.8763e-14,-2.46493e-14,-40.437,15.0591,68.6302,38.9304,0.663084,-34.0805,16.2693,7.12502,-7.25726,46.1249,-35.1571,-5.02706,21.1287,62.521,-9.57485,-19.9483,-4.80924,-20.7727,-0.694148,-25.4969,44.3006,-11.559,4.61404,-21.013
-18.6777,17.6919,0.309431,255.178,-95.0797,-254.288,16.5699,1.26005,2.66468,3.19131,1.93866,-0.256254,-5.76848,0.83131,-2.18433,2.26498,1.49917,4.95396,16.7412,1.26208,1.08876,4.69543,0.775739,-0.458609,-2.78299e-14,-1.51076e-14,-32.3698,-14.6093,-73.9091,30.2793,41.9635,-36.1004,-47.2228,7.12502,-9.20669,282.998,-2.78299e-14,-1.51076e-14,-39.3631,11.9357,72.247,41.6051,1.25596,-34.4454,15.2891,7.12502,-7.60948,45.1322,-36.4738,-8.19983,25.3128,59.0226,-10.2481,-18.8532,-2.14548,-20.465,2.03332,-25.6707,43.4359,-10.9204,7.02192,-20.6855
-18.6819,17.7861,0.297553,259.854,-94.8508,-258.774,16.3766,1.2718,2.22699,3.04743,1.87724,-0.361126,-5.8322,0.809168,-2.03229,3.47045,1.64759,5.09438,15.9923,1.51243,1.15379,4.75075,0.883759,-0.472039,1.03368e-14,7.95139e-15,-31.8437,-13.6442,-75.3627,29.998,41.9625,-36.1133,-47.2364,7.12502,-9.21913,282.985,1.03368e-14,7.95139e-15,-39.1108,8.88932,75.4702,44.5373,1.17038,-34.8363,14.2977,7.12502,-7.98678,44.1268,-37.8921,-11.3107,29.2297,55.5307,-10.1204,-17.0789,4.15705,-20.3555,4.36494,-26.2235,42.445,-12.0865,8.23149,-15.0394
-18.693,17.85,0.281827,262.582,-94.3834,-261.353,16.1173,1.32143,1.5658,3.33178,1.79773,-0.573773,-5.40723,0.783666,-1.85354,2.85893,1.75271,5.51259,15.9394,1.67785,0.788201,4.86779,0.981884,-0.661933,-1.98785e-15,-2.94201e-14,-30.6036,-13.3849,-76.8365,29.8451,42.4403,-36.094,-46.9423,7.12502,-9.20051,283.278,-1.98785e-15,-2.94201e-14,-38.0502,6.32636,78.5128,47.3614,0.0758902,-34.9393,14.085,7.12502,-8.08617,43.9103,-39.0822,-14.9534,33.1616,51.8396,-6.2076,-15.4263,-7.4557,-20.0772,6.21515,-26.868,41.3701,-11.7958,7.92112,-14.3224
-18.7113,17.8891,0.261915,262.294,-93.8379,-261.124,15.8995,1.18932,0.64989,3.54241,1.44475,-0.837407,-5.09768,0.622458,-1.53337,2.93267,1.97422,5.58046,15.5682,1.95839,1.08742,4.7187,1.13139,-0.563487,-3.27995e-14,1.66979e-14,-29.6807,-12.7456,-78.4341,29.8954,42.8969,-36.3374,-46.2831,7.12502,-9.43541,283.948,-3.27995e-14,1.66979e-14,-37.5521,4.16029,80.9736,50.3012,-1.41629,-34.7768,14.2943,7.12502,-7.92937,44.1256,-40.0989,-18.8447,36.9073,48.8161,-2.41514,-14.0033,-7.09464,-19.3532,7.33037,-27.2902,40.2781,-11.0111,6.13847,-9.63259
-18.7113,17.8891,0.261915,262.294,-93.8379,-261.124,15.8995,1.18932,0.64989,3.54241,1.44475,-0.837407,-5.09768,0.622458,-1.53337,2.93267,1.97422,5.58046,15.5682,1.95839,1.08742,4.7187,1.13139,-0.563487,-3.27995e-14,1.66979e-14,-29.6807,-12.7456,-78.4341,29.8954,42.8969,-36.3374,-46.2831,7.12502,-9.43541,283.948,-3.27995e-14,1.66979e-14,-37.5521,4.16029,80.9736,50.3012,-1.41629,-34.7768,14.2943,7.12502,-7.92937,44.1256,-40.0989,-18.8447,36.9073,48.8161,-2.41514,-14.0033,-7.09464,-19.3532,7.33037,-27.2902,40.2781,-11.0111,6.13847,-9.63259
-18.7113,17.8891,0.261915,262.294,-93.8379,-261.124,15.8995,1.18932,0.64989,3.54241,1.44475,-0.837407,-5.09768,0.622458,-1.53337,2.93267,1.97422,5.58046,15.5682,1.95839,1.08742,4.7187,1.13139,-0.563487,-3.27995e-14,1.66979e-14,-29.6807,-12.7456,-78.4341,29.8954,42.8969,-36.3374,-46.2831,7.12502,-9.43541,283.948,-3.27995e-14,1.66979e-14,-37.5521,4.16029,80.9736,50.3012,-1.41629,-34.7768,14.2943,7.12502,-7.92937,44.1256,-40.0989,-18.8447,36.9073,48.8161,-2.41514,-14.0033,-7.09464,-19.3532,7.33037,-27.2902,40.2781,-11.0111,6.13847,-9.63259
-18.7113,17.8891,0.261915,262.294,-93.8379,-261.124,15.8995,1.18932,0.64989,3.54241,1.44475,-0.837407,-5.09768,0.622458,-1.53337,2.93267,1.97422,5.58046,15.5682,1.95839,1.08742,4.7187,1.13139,-0.563487,-3.27995e-14,1.66979e-14,-29.6807,-12.7456,-78.4341,29.8954,42.8969,-36.3374,-46.2831,7.12502,-9.43541,283.948,-3.27995e-14,1.66979e-14,-37.5521,4.16029,80.9736,50.3012,-1.41629,-34.7768,14.2943,7.12502,-7.92937,44.1256,-40.0989,-18.8447,36.9073,48.8161,-2.41514,-14.0033,-7.09464,-19.3532,7.33037,-27.2902,40.2781,-11.0111,6.13847,-9.63259
-18.7113,17.8891,0.261915,262.294,-93.8379,-261.124,15.8995,1.18932,0.64989,3.54241,1.44475,-0.837407,-5.09768,0.622458,-1.53337,2.93267,1.97422,5.58046,15.5682,1.95839,1.08742,4.7187,1.13139,-0.563487,-3.27995e-14,1.66979e-14,-29.6807,-12.7456,-78.4341,29.8954,42.8969,-36.3374,-46.2831,7.12502,-9.43541,283.948,-3.27995e-14,1.66979e-14,-37.5521,4.16029,80.9736,50.3012,-1.41629,-34.7768,14.2943,7.12502,-7.92937,44.1256,-40.0989,-18.8447,36.9073,48.8161,-2.41514,-14.0033,-7.09464,-19.3532,7.33037,-27.2902,40.2781,-11.0111,6.13847,-9.63259
-18.7113,17.8891,0.261915,262.294,-93.8379,-261.124,15.8995,1.18932,0.64989,3.54241,1.44475,-0.837407,-5.09768,0.622458,-1.53337,2.93267,1.97422,5.58046,15.5682,1.95839,1.08742,4.7187,1.13139,-0.563487,-3.27995e-14,1.66979e-14,-29.6807,-12.7456,-78.4341,29.8954,42.8969,-36.3374,-46.2831,7.12502,-9.43541,283.948,-3.27995e-14,1.66979e-14,-37.5521,4.16029,80.9736,50.3012,-1.41629,-34.7768,14.2943,7.12502,-7.92937,44.1256,-40.0989,-18.8447,36.9073,48.8161,-2.41514,-14.0033,-7.09464,-19.3532,7.33037,-27.2902,40.2781,-11.0111,6.13847,-9.63259
-18.7113,17.8891,0.261915,262.294,-93.8379,-261.124,15.8995,1.18932,0.64989,3.54241,1.44475,-0.837407,-5.09768,0.622458,-1.53337,2.93267,1.97422,5.58046,15.5682,1.95839,1.08742,4.7187,1.13139,-0.563487,-3.27995e-14,1.66979e-14,-29.6807,-12.7456,-78.4341,29.8954,42.8969,-36.3374,-46.2831,7.12502,-9.43541,283.948,-3.27995e-14,1.66979e-14,-37.5521,4.16029,80.9736,50.3012,-1.41629,-34.7768,14.2943,7.12502,-7.92937,44.1256,-40.0989,-18.8447,36.9073,48.8161,-2.41514,-14.0033,-7.09464,-19.3532,7.33037,-27.2902,40.2781,-11.0111,6.13847,-9.63259
-18.7113,17.8891,0.261915,262.294,-93.8379,-261.124,15.8995,1.18932,0.64989,3.54241,1.44475,-0.837407,-5.09768,0.622458,-1.53337,2.93267,1.97422,5.58046,15.5682,1.95839,1.08742,4.7187,1.13139,-0.563487,-3.27995e-14,1.66979e-14,-29.6807,-12.7456,-78.4341,29.8954,42.8969,-36.3374,-46.2831,7.12502,-9.43541,283.948,-3.27995e-14,1.66979e-14,-37.5521,4.16029,80.9736,50.3012,-1.41629,-34.7768,14.2943,7.12502,-7.92937,44.1256,-40.0989,-18.8447,36.9073,48.8161,-2.41514,-14.0033,-7.09464,-19.3532,7.33037,-27.2902,40.2781,-11.0111,6.13847,-9.63259
-18.7113,17.8891,0.261915,262.294,-93.8379,-261.124,15.8995,1.18932,0.64989,3.54241,1.44475,-0.837407,-5.09768,0.622458,-1.53337,2.93267,1.97422,5.58046,15.5682,1.95839,1.08742,4.7187,1.13139,-0.563487,-3.27995e-14,1.66979e-14,-29.6807,-12.7456,-78.4341,29.8954,42.8969,-36.3374,-46.2831,7.12502,-9.43541,283.948,-3.27995e-14,1.66979e-14,-37.5521,4.16029,80.9736,50.3012,-1.41629,-34.7768,14.2943,7.12502,-7.92937,44.1256,-40.0989,-18.8447,36.9073,48.8161,-2.41514,-14.0033,-7.09464,-19.3532,7.33037,-27.2902,40.2781,-11.0111,6.13847,-9.63259
-18.7113,17.8891,0.261915,262.294,-93.8379,-261.124,15.8995,1.18932,0.64989,3.54241,1.44475,-0.837407,-5.09768,0.622458,-1.53337,2.93267,1.97422,5.58046,15.5682,1.95839,1.08742,4.7187,1.13139,-0.563487,-3.27995e-14,1.66979e-14,-29.6807,-12.7456,-78.4341,29.8954,42.8969,-36.3374,-46.2831,7.12502,-9.43541,283.948,-3.27995e-14,1.66979e-14,-37.5521,4.16029,80.9736,50.3012,-1.41629,-34.7768,14.2943,7.12502,-7.92937,44.1256,-40.0989,-18.8447,36.9073,48.8161,-2.41514,-14.0033,-7.09464,-19.3532,7.33037,-27.2902,40.2781,-11.0111,6.13847,-9.63259
-18.7113,17.8891,0.261915,262.294,-93.8379,-261.124,15.8995,1.18932,0.64989,3.54241,1.44475,-0.837407,-5.09768,0.622458,-1.53337,2.93267,1.97422,5.58046,15.5682,1.95839,1.08742,4.7187,1.13139,-0.563487,-3.27995e-14,1.66979e-14,-29.6807,-12.7456,-78.4341,29.8954,42.8969,-36.3374,-46.2831,7.12502,-9.43541,283.948,-3.27995e-14,1.66979e-14,-37.5521,4.16029,80.9736,50.3012,-1.41629,-34.7768,14.2943,7.12502,-7.92937,44.1256,-40.0989,-18.8447,36.9073,48.8161,-2.41514,-14.0033,-7.09464,-19.3532,7.33037,-27.2902,40.2781,-11.0111,6.13847,-9.63259
-18.7113,17.8891,0.261915,262.294,-93.8379,-261.124,15.8995,1.18932,0.64989,3.54241,1.44475,-0.837407,-5.09768,0.622458,-1.53337,2.93267,1.97422,5.58046,15.5682,1.95839,1.08742,4.7187,1.13139,-0.563487,-3.27995e-14,1.66979e-14,-29.6807,-12.7456,-78.4341,29.8954,42.8969,-36.3374,-46.2831,7.12502,-9.43541,283.948,-3.27995e-14,1.66979e-14,-37.5521,4.16029,80.9736,50.3012,-1.41629,-34.7768,14.2943,7.12502,-7.92937,44.1256,-40.0989,-18.8447,36.9073,48.8161,-2.41514,-14.0033,-7.09464,-19.3532,7.33037,-27.2902,40.2781,-11.0111,6.13847,-9.63259
-18.6148,17.4222,0.139797,187.327,-94.4575,-188.397,16.4257,0.175597,-0.801102,3.42452,-0.227252,-2.17782,-5.55695,-0.188524,-1.7998,2.61307,2.31415,5.42464,15.702,2.52754,0.236755,4.85857,1.3756,-0.804376,-9.34288e-15,2.70347e-14,-30.7468,-7.81717,-80.7853,34.3824,39.9877,-35.7394,-45.183,7.12502,-8.85834,285.023,-9.34288e-15,2.70347e-14,-29.6939,-24.8139,91.0392,65.1381,-13.2687,-25.3839,1.72512,7.12502,1.14079,31.7018,-36.7737,-18.2978,36.7031,44.9603,2.95013,6.25059,-31.4829,-18.4633,6.16746,-27.8887,44.3755,-6.84174,-11.3678,3.72692
-18.5368,17.4841,0.168749,196.067,-93.4128,-196.808,16.6302,0.494263,-0.147665,3.43811,0.310177,-2.00575,-5.63508,0.0647124,-2.10289,2.76546,2.32688,5.4536,15.1166,2.65992,-0.310356,4.62451,1.42028,-0.994006,-5.56597e-15,0,-30.5725,-6.62596,-80.0892,34.9385,39.021,-35.6349,-45.6946,7.12502,-8.75749,284.507,-5.56597e-15,0,-30.3691,-24.4032,88.5554,68.3676,-12.1294,-26.4842,3.30196,7.12502,0.078107,33.2817,-36.8016,-13.798,33.9591,45.6543,2.7997,16.8355,-40.6175,-19.1814,4.66102,-27.1661,44.6876,-5.39635,-11.7733,3.15075
-18.4611,17.5498,0.190807,215.456,-92.5311,-216.079,17.075,0.871156,0.689525,3.488,0.954987,-1.82011,-5.7864,0.364381,-2.52619,2.9333,2.30966,5.37109,14.6767,2.71893,-0.692031,4.43611,1.43064,-1.10869,1.13307e-14,1.98785e-14,-30.5117,-5.29775,-79.3904,35.4869,37.7514,-35.6588,-46.2041,7.12502,-8.78053,283.999,1.13307e-14,1.98785e-14,-31.0601,-23.9442,85.5798,71.2522,-10.823,-27.5376,3.68291,7.12502,-0.939288,33.6606,-36.2772,-7.05057,30.1166,45.2282,5.12585,28.872,-43.6427,-19.6448,2.84567,-26.0022,45.0205,-2.86269,-12.8448,7.06743
-18.3876,17.6494,0.208845,240.983,-92.208,-241.567,17.6283,1.298,1.55223,3.54618,1.67456,-1.66234,-5.96478,0.696879,-3.01977,2.84006,2.17861,5.14548,14.6068,2.57078,-0.851328,4.41977,1.34272,-1.12665,2.98177e-15,-2.8625e-14,-30.5918,-4.10014,-78.5096,35.9752,36.5028,-35.8142,-46.4363,7.12502,-8.93048,283.773,2.98177e-15,-2.8625e-14,-31.5077,-23.6076,82.2227,73.4975,-9.53374,-28.2632,3.91408,7.12502,-1.64015,33.8875,-36.4742,-0.930244,26.5798,45.3006,19.3628,36.7554,-30.9546,-20.08,-0.450256,-24.3705,45.1647,1.12301,-14.6336,2.78109
-18.3216,17.7031,0.215741,255.272,-92.1984,-255.77,18.1656,1.76971,2.24476,3.55481,2.42795,-1.57813,-6.16958,1.04595,-3.512,2.55563,1.82853,4.72124,14.7691,2.06354,-0.575353,4.50132,1.08669,-0.972027,-4.01545e-14,0,-30.9028,-3.29715,-77.3675,36.3547,35.7579,-36.1203,-46.5662,7.12502,-9.2259,283.656,-4.01545e-14,0,-31.7241,-23.4676,78.6213,75.0772,-8.34774,-28.5093,4.00953,7.12502,-1.87784,33.981,-36.7423,4.62983,22.9557,45.7022,25.2999,40.0888,-19.1581,-20.614,-4.90784,-22.7985,45.2308,6.71821,-17.4305,2.97641
-18.2606,17.7867,0.211828,256.631,-92.2743,-257.027,18.4929,2.14355,2.81677,3.55192,3.03687,-1.49919,-6.27516,1.32892,-3.90592,2.35056,1.38986,4.38277,14.9959,1.44332,-0.363307,4.596,0.776589,-0.859652,3.27001e-14,-1.98785e-15,-31.2297,-2.5383,-76.159,36.4376,35.4609,-36.3579,-46.6815,7.12502,-9.45512,283.551,3.27001e-14,-1.98785e-15,-31.9922,-23.0618,74.8321,76.154,-7.00864,-28.7838,4.11022,7.12502,-2.1429,34.0792,-36.6638,11.5366,18.5355,46.7775,11.6373,37.4116,-25.0823,-21.2821,-10.162,-21.1673,45.1687,13.021,-20.8517,2.33222
-18.214,17.8347,0.198455,250.357,-92.4748,-250.587,18.4525,2.36336,3.34481,3.54076,3.43792,-1.38735,-6.2057,1.51895,-4.17402,2.30297,1.04515,3.76792,15.1726,0.914989,0.206723,4.64194,0.510339,-0.574754,1.99779e-14,-7.95139e-15,-31.4535,-1.66483,-75.0173,36.2234,35.3777,-36.3538,-46.6058,7.12502,-9.45121,283.626,1.99779e-14,-7.95139e-15,-32.5324,-22.1423,70.8808,76.8331,-5.01321,-29.1069,4.37621,7.12502,-2.45497,34.3418,-36.8966,17.6076,14.3107,48.4043,-1.62913,29.2589,-31.2363,-22.416,-15.2465,-19.4799,45.3455,19.6342,-23.3751,7.84073
-18.1768,17.8307,0.175441,238.988,-92.8903,-238.916,18.1078,2.45394,3.88926,3.4651,3.67396,-1.23278,-6.05502,1.63432,-4.35136,2.15873,0.715625,3.16046,15.6251,0.408581,0.617055,4.82121,0.248625,-0.345562,5.23798e-14,2.38542e-15,-31.6766,-1.0355,-73.8108,35.8286,35.6723,-36.3303,-46.2868,7.12502,-9.42851,283.944,5.23798e-14,2.38542e-15,-33.189,-20.7866,66.9288,76.8537,-2.60006,-29.4956,5.12397,7.12502,-2.83032,35.0849,-37.2976,22.2286,10.6251,50.3992,-9.00918,19.5799,-34.633,-23.8111,-17.7625,-18.5659,45.7865,23.1685,-22.0675,12.1096
-18.1407,17.8297,0.151683,225.136,-93.4233,-224.704,17.5848,2.47756,4.24299,3.35481,3.78223,-1.04748,-5.87115,1.69358,-4.34865,2.14108,0.376159,2.58079,15.9454,-0.0728814,0.805005,4.93488,-0.0102342,-0.196358,-4.9895e-14,2.06736e-14,-31.8264,-0.908752,-72.3583,35.2295,36.4866,-36.4754,-45.9482,7.12502,-9.56855,284.289,-4.9895e-14,2.06736e-14,-33.7559,-19.0221,63.196,75.9002,-1.00917,-29.9406,6.37754,7.12502,-3.26007,36.3324,-37.3331,25.0179,7.5166,52.3976,-10.1177,10.306,-31.0971,-24.7443,-17.4038,-19.035,46.4734,20.3682,-22.5153,3.2944
-18.1107,17.8124,0.133567,212.085,-93.9605,-211.378,17.0087,2.47859,4.22301,3.23367,3.79091,-0.818509,-5.708,1.70986,-4.06422,2.11551,0.101126,2.36799,16.3437,-0.380607,0.253591,5.0864,-0.198408,-0.359952,-2.48729e-14,1.09332e-15,-31.789,-1.20089,-70.6146,34.3788,37.7597,-36.5078,-45.5491,7.12502,-9.59976,284.69,-2.48729e-14,1.09332e-15,-34.3218,-16.7354,59.7092,73.9892,-0.87113,-29.7672,7.19121,7.12502,-3.09264,37.1485,-36.5738,25.5704,5.67442,54.453,-9.85951,0.474945,-29.0326,-25.2185,-16.2715,-20.217,47.0756,18.0796,-18.8039,8.32352
-18.0867,17.8158,0.129256,202.966,-94.6347,-202.247,16.5745,2.41355,4.1581,3.10715,3.7124,-0.517275,-5.64219,1.67993,-3.67033,1.90268,-0.0539321,1.82861,17.3733,-0.567538,-0.00180143,4.90056,-0.335243,-0.340811,1.42317e-14,-9.96408e-15,-31.6932,-1.87712,-68.6818,33.4404,39.2703,-36.2041,-45.1872,7.12502,-9.3067,285.038,1.42317e-14,-9.96408e-15,-35.0935,-14.0931,56.3835,71.3631,-2.22168,-28.9155,8.32989,7.12502,-2.27012,38.2976,-34.9074,24.6821,5.2584,56.4686,-7.23533,-7.89857,-27.9873,-24.9343,-13.8606,-21.7223,47.3617,15.5573,-16.0192,12.662
-18.0609,17.8376,0.138469,199.526,-95.4233,-199.039,16.3214,2.24381,4.33425,2.99623,3.54361,-0.158471,-5.65168,1.59803,-3.34482,1.86254,-0.120966,1.55843,17.8421,-0.626059,-0.307599,5.05057,-0.401361,-0.395283,-6.42074e-14,-2.98177e-15,-31.5726,-2.98681,-66.8367,32.6151,40.4718,-35.7404,-45.1124,7.12502,-8.85933,285.094,-6.42074e-14,-2.98177e-15,-36.0383,-11.233,53.1202,68.2416,-4.56949,-28.2043,10.8199,7.12502,-1.5832,40.7938,-32.6889,22.5947,6.30006,58.5245,-3.67702,-14.2537,-21.2119,-24.1388,-10.9835,-22.9151,47.2484,12.2208,-16.457,6.04237
-18.0334,17.8092,0.142302,198.597,-96.0519,-198.434,16.1789,2.04632,4.53719,2.86274,3.34045,0.112613,-5.73944,1.49488,-3.12836,1.89839,-0.130177,1.59608,18.2049,-0.634091,-0.47233,5.15641,-0.417415,-0.455197,-2.56929e-14,1.39149e-15,-31.5362,-4.55244,-65.3275,32.0335,41.0754,-35.2598,-45.3341,7.12502,-8.39547,284.853,-2.56929e-14,1.39149e-15,-36.9694,-8.37334,49.7827,64.8915,-6.31718,-29.3433,8.75667,7.12502,-2.68321,38.7195,-30.4833,20.4362,7.65978,60.7756,0.340598,-19.0064,-7.47537,-23.3706,-8.18755,-23.6755,47.0925,10.4981,-15.8677,9.26814
-18.0074,17.771,0.142706,200.542,-96.527,-200.801,16.1984,1.86351,5.02441,2.67979,3.20708,0.26741,-5.93847,1.41476,-3.21861,2.07114,-0.153784,2.04556,18.4253,-0.678208,-0.58502,5.19482,-0.421811,-0.568244,9.19379e-15,3.18055e-15,-31.9156,-6.48131,-64.2231,31.9274,41.1186,-35.0445,-46.014,7.12502,-8.1877,284.165,9.19379e-15,3.18055e-15,-37.8055,-6.12613,46.4423,61.5627,-6.50091,-30.0613,8.41965,7.12502,-3.37665,38.3727,-28.2891,18.2193,9.60675,63.0708,1.88084,-19.37,-0.248526,-22.6946,-5.57841,-23.7935,46.9947,8.55998,-17.4806,2.60952
-17.9756,17.708,0.130723,202.873,-96.8524,-203.496,16.2046,1.72362,5.50067,2.50551,3.12199,0.329517,-6.11347,1.35731,-3.4094,2.30364,-0.187024,2.63183,18.4557,-0.742772,-0.607583,5.16434,-0.420492,-0.675418,-5.91384e-15,-1.39149e-15,-32.5628,-8.3815,-63.5228,32.2659,40.4347,-35.2037,-46.9418,7.12502,-8.34137,283.243,-5.91384e-15,-1.39149e-15,-38.4688,-4.37751,43.3644,58.1781,-5.77107,-30.332,9.12019,7.12502,-3.63802,39.0689,-26.4163,15.7166,11.7779,65.4249,1.7093,-15.6403,-6.4872,-22.4428,-3.93829,-23.636,47.2852,7.34395,-17.7974,3.54735
-17.9344,17.6648,0.108815,200.463,-96.9132,-201.099,15.8777,1.69116,5.16015,2.36135,3.012,0.263486,-6.11472,1.31234,-3.25528,2.47807,-0.224886,2.92196,18.3957,-0.833098,-0.401331,5.11675,-0.436533,-0.661949,1.963e-14,-1.27222e-14,-33.1606,-10.1444,-63.0811,32.8163,39.439,-35.4486,-47.6884,7.12502,-8.57775,282.506,1.963e-14,-1.27222e-14,-38.8872,-2.55189,40.7431,54.7366,-5.21356,-29.9961,10.7917,7.12502,-3.31371,40.7457,-25.0449,12.6853,13.2702,67.4847,-0.161116,-10.2466,-15.4942,-22.7651,-2.54,-24.1056,47.8674,6.98574,-17.7617,7.14264
-17.8846,17.6379,0.078615,196.392,-96.9965,-196.812,15.3511,1.65636,4.50997,2.21261,2.83949,0.174439,-6.02921,1.24734,-2.93083,2.69266,-0.242063,3.10372,18.3605,-0.888135,-0.223026,5.07081,-0.445086,-0.637766,-6.63195e-14,-7.95139e-16,-33.7338,-11.8435,-62.8832,33.4949,38.7294,-35.7068,-48.1677,7.12502,-8.82688,282.037,-6.63195e-14,-7.95139e-16,-39.1648,-0.417097,38.5492,51.3914,-5.13937,-29.1103,13.5323,7.12502,-2.4582,43.4979,-24.0454,9.17566,14.6017,69.084,-0.36786,-5.70022,-18.8375,-23.5446,-0.988955,-24.9129,48.7913,6.01051,-17.7123,1.77871
-17.826,17.628,0.0439407,194.524,-97.2541,-194.794,14.8941,1.53764,4.14487,2.11596,2.61068,0.152866,-5.91571,1.14885,-2.68784,2.95373,-0.24107,3.28385,18.3259,-0.922261,-0.0156744,5.01813,-0.443221,-0.603348,9.74045e-15,-7.95139e-16,-34.2302,-13.3616,-63.0741,34.1794,38.2137,-35.8715,-48.3966,7.12502,-8.9858,281.815,9.74045e-15,-7.95139e-16,-39.312,2.14161,36.6791,48.1506,-5.34199,-28.2983,16.4077,7.12502,-1.67399,46.3809,-22.8827,5.50073,16.4505,70.0052,-0.200411,-1.37345,-19.113,-24.4177,1.06443,-25.6018,49.8862,6.83041,-15.2069,2.98154
-17.7607,17.6347,0.0128828,193.51,-97.607,-193.732,14.5137,1.35938,3.97356,2.11188,2.3348,0.16011,-5.73855,1.02402,-2.51772,3.0978,-0.23043,3.52683,18.4142,-0.944067,0.132465,5.023,-0.434049,-0.598714,3.45637e-14,4.37326e-15,-34.49,-14.6147,-63.6313,34.6888,37.7836,-35.6245,-48.4125,7.12502,-8.7475,281.789,3.45637e-14,4.37326e-15,-39.3002,5.31644,35.0315,44.9658,-6.12254,-28.2181,18.5413,7.12502,-1.59657,48.5151,-21.369,1.8745,18.5195,70.2183,-0.270605,2.46344,-21.2173,-25.1587,3.61555,-26.4242,50.9989,6.50681,-12.6053,-0.514702
-17.6935,17.6599,-0.00572373,193.281,-97.8998,-193.485,14.1404,1.149,4.01117,2.15119,2.04812,0.195903,-5.51139,0.890243,-2.4354,3.24175,-0.191749,3.72435,18.5364,-0.925191,0.252612,5.03901,-0.409721,-0.59409,-1.63997e-15,1.18277e-14,-34.4595,-15.5159,-64.4745,34.9191,37.4163,-35.5162,-48.4782,7.12502,-8.64298,281.719,-1.63997e-15,1.18277e-14,-39.3965,8.97383,33.6352,42.0764,-7.08971,-29.1358,20.5871,7.12502,-2.4829,50.5524,-20.0571,-1.82471,20.6,69.565,-0.269312,5.85078,-18.6175,-25.6299,6.42908,-27.3632,51.8629,5.47308,-9.36167,-2.62365
-17.6228,17.6781,-0.0129076,195.532,-97.8709,-195.698,13.7764,0.979643,4.40339,2.15783,1.87167,0.293785,-5.30641,0.802916,-2.51092,3.37572,-0.121546,3.9145,18.7403,-0.846333,0.222041,5.08208,-0.365121,-0.633908,-5.39203e-15,-7.95139e-16,-34.1884,-16.0315,-65.5991,34.8171,36.8798,-36.0698,-48.6171,7.12502,-9.1772,281.603,-5.39203e-15,-7.95139e-16,-39.8629,12.6057,32.621,39.8397,-6.70062,-30.7657,23.2794,7.12502,-4.05689,53.2205,-18.2886,-5.25651,22.7802,68.2755,-3.23599,6.82868,-14.7665,-26.2221,9.66226,-28.3095,52.3127,3.35333,-5.82261,-10.5357
-17.5453,17.6702,-0.00690315,200.441,-97.3846,-200.384,13.3181,0.845071,5.01528,2.05367,1.7705,0.405199,-5.15587,0.747101,-2.71,3.55198,0.0502746,4.1473,19.0039,-0.606539,0.00516421,5.13911,-0.251082,-0.734303,-1.59773e-14,-6.06293e-15,-33.683,-16.0012,-67.1665,34.4586,35.5336,-36.6571,-48.2918,7.12502,-9.74379,281.954,-1.59773e-14,-6.06293e-15,-40.9904,15.8758,31.8082,38.4248,-4.58181,-33.0465,26.0713,7.12502,-6.25912,55.9589,-16.9191,-7.72365,24.977,66.3689,-5.69871,7.99139,-21.1183,-26.5947,12.9467,-29.3134,52.1008,0.560462,-1.44148,-13.7572
-17.4683,17.6946,0.0209717,206.175,-96.4581,-205.581,12.6518,0.70788,5.49921,1.81497,1.63281,0.400097,-5.03752,0.674137,-2.95169,3.9281,0.357204,4.47799,19.1811,-0.152148,-0.374489,5.14217,-0.0384189,-0.894775,-4.67144e-15,2.98177e-16,-33.0127,-15.389,-69.186,34.0705,33.5489,-36.7083,-47.715,7.12502,-9.79318,282.533,-4.67144e-15,2.98177e-16,-42.7662,18.5573,31.0458,37.5669,-2.21825,-35.2736,29.3235,7.12502,-8.40882,59.1361,-15.4271,-9.48383,26.8538,63.9484,-9.4665,8.11534,-30.3669,-27.7676,15.3171,-30.492,51.3999,-2.28901,3.55051,-11.6163
-17.3753,17.6228,0.054297,212.462,-95.1502,-211.082,11.9181,0.891493,6.08356,1.6675,1.90693,0.214327,-4.73602,0.80776,-3.50153,3.54678,0.479854,4.66138,19.2857,0.0152323,-0.519664,5.24225,0.050089,-0.966377,-1.14053e-14,-2.98177e-15,-32.1207,-15.4812,-70.9182,33.7836,31.8963,-36.5515,-47.1802,7.12502,-9.64197,283.06,-1.14053e-14,-2.98177e-15,-43.7264,20.8378,31.2675,36.7758,-1.20513,-36.755,32.1561,7.12502,-9.83832,61.9062,-15.2048,-9.45287,27.8816,61.5231,-9.81705,7.29568,-16.4134,-27.9398,17.1012,-32.2136,50.2459,-6.3679,7.04862,-6.07722
-17.278,17.542,0.0976812,223.358,-93.6625,-221.096,11.1539,0.983638,6.42954,1.48043,2.02529,0.0595926,-4.479,0.868177,-3.85602,3.29739,0.730032,5.08174,19.2701,0.432819,-1.13357,5.29108,0.2476,-1.21485,-2.01269e-14,-2.127e-14,-31.0031,-15.0562,-72.8568,33.6966,31.0378,-35.9192,-46.7537,7.12502,-9.03186,283.46,-2.01269e-14,-2.127e-14,-45.4594,22.7098,31.6275,36.5865,-0.999483,-37.6679,32.8747,7.12502,-10.719,62.5812,-14.8005,-9.1427,28.5542,58.9795,-11.6415,1.92404,-17.2132,-28.5807,17.6852,-33.9372,49.0957,-9.71182,9.84544,-4.56569
-17.1699,17.4221,0.14652,250.435,-92.4684,-247.376,10.4669,0.887221,6.5905,1.33574,1.87782,0.0950366,-4.26191,0.799972,-3.87042,3.36113,1.26366,5.45899,18.9871,1.30473,-2.07212,5.22504,0.642737,-1.54046,-2.83765e-14,-5.76476e-15,-29.7653,-13.6639,-75.0168,33.859,30.9654,-34.8949,-46.7849,7.12502,-8.04334,283.388,-2.83765e-14,-5.76476e-15,-48.0975,24.3065,32.0761,36.9831,-0.703931,-37.9466,32.1201,7.12502,-10.9878,61.8125,-14.418,-9.63292,28.8199,56.7567,-14.3158,-2.00321,-16.1633,-28.9654,15.8302,-34.1452,47.9052,-14.6112,8.15639,9.9136
-17.0512,17.2718,0.192237,297.94,-92.3862,-294.399,10.1983,1.12604,6.9243,1.48731,2.2024,0.179651,-3.90613,0.970372,-3.99883,3.10766,1.65693,4.95068,18.0256,1.88211,-2.01954,4.98181,0.906034,-1.41144,-1.0635e-14,2.38542e-15,-28.3235,-12.5383,-76.6719,34.487,29.3393,-33.7985,-47.3414,7.12502,-6.98508,282.794,-1.0635e-14,2.38542e-15,-49.3794,25.4987,34.2254,37.5208,0.482242,-37.9006,31.0187,7.12502,-10.9434,60.7135,-13.6705,-9.05578,28.6326,54.6114,-17.3735,0.164061,-17.0632,-29.1642,13.6464,-33.7528,47.3069,-15.8178,7.69454,-3.53778
-16.9166,17.0853,0.229091,330.739,-93.4756,-327.142,10.5155,1.35076,6.91152,1.68125,2.50795,0.212004,-3.84379,1.12492,-4.00302,3.07729,1.97071,4.78853,16.9404,2.38519,-2.21818,4.66774,1.14423,-1.42476,1.68967e-15,-7.95139e-15,-26.9541,-11.1283,-78.2762,34.7811,28.7457,-33.5989,-47.3517,7.12502,-6.79242,282.777,1.68967e-15,-7.95139e-15,-50.203,25.6785,37.3816,38.4336,3.4491,-37.6982,30.2602,7.12502,-10.7482,59.9652,-12.4759,-8.43092,28.1547,52.6,-22.0291,-0.591022,-19.876,-29.0519,11.8945,-33.1641,47.157,-19.3979,4.58544,-7.18629
-16.7658,16.9664,0.257923,344.071,-95.0128,-340.637,11.4239,1.43017,6.82292,1.71229,2.66513,0.204576,-4.30006,1.18302,-4.01771,3.5847,2.29712,5.08445,15.5571,2.90739,-2.5942,4.68287,1.41866,-1.71418,-1.53064e-14,2.22639e-14,-25.7878,-9.5804,-79.9467,34.6548,29.5158,-32.8064,-47.4724,7.12502,-6.02727,282.633,-1.53064e-14,2.22639e-14,-50.7932,25.0631,40.9494,39.4055,7.21423,-36.8302,29.804,7.12502,-9.91079,59.5507,-11.1159,-6.9595,27.4953,50.5504,-26.0792,-0.627492,-24.7301,-30.0798,14.0204,-34.0515,47.7629,-19.8179,3.96164,0.795919
-16.5968,16.9303,0.316441,351.795,-96.0902,-348.541,12.7315,1.33387,7.03886,1.78691,2.64471,0.0102703,-4.92771,1.13947,-4.39448,3.31426,2.63922,5.28098,15.0317,3.41252,-2.86505,4.57773,1.67365,-1.8222,-1.0635e-14,-4.37326e-15,-24.3613,-8.426,-81.373,34.123,31.2485,-31.5695,-48.2176,7.12502,-4.83308,281.858,-1.0635e-14,-4.37326e-15,-50.2895,24.7562,44.8613,39.9836,10.1988,-34.8919,29.4442,7.12502,-8.04043,59.2713,-10.2666,-6.0833,26.3814,48.4328,-28.5053,0.796968,-22.0681,-31.6608,15.7935,-35.1565,48.796,-18.9851,5.04456,0.795002
-16.4106,16.8841,0.369408,356.414,-97.0432,-353.568,14.3561,1.19792,6.96581,1.96647,2.55674,0.0404907,-5.64889,1.06264,-4.36969,2.90451,3.04645,5.3004,14.5976,4.01535,-3.27978,4.54135,1.96103,-1.94353,-1.22253e-14,1.74931e-14,-23.0637,-6.59686,-82.2989,33.2457,32.1572,-31.1553,-47.2326,7.12502,-4.43311,282.834,-1.22253e-14,1.74931e-14,-49.4008,25.0036,48.8071,40.455,11.5616,-30.8626,29.019,7.12502,-4.15042,58.9583,-9.44825,-6.01073,25.446,46.7797,-30.7263,0.872462,-24.0887,-32.6249,16.4319,-35.6613,49.9014,-17.7217,5.05652,-2.79086
-16.2073,16.8879,0.431612,347.298,-97.7694,-343.569,15.1134,0.960683,8.91097,1.76149,2.65795,0.618121,-6.21208,1.03416,-4.90244,3.06857,3.29193,5.07066,13.6618,4.41035,-3.56456,4.18845,2.14561,-1.98394,1.15295e-14,4.77083e-15,-22.1667,-4.66139,-82.5539,32.9102,32.8073,-32.3175,-45.4727,7.12502,-5.55525,284.62,1.15295e-14,4.77083e-15,-48.141,24.9535,53.2702,41.301,11.5633,-31.3186,27.0214,7.12502,-4.5908,56.9517,-10.5029,-6.96435,26.9537,45.213,-30.9458,2.94817,-15.7275,-34.9412,16.2452,-34.5104,50.8389,-15.5987,5.40529,-11.2493
-16.0182,16.9487,0.482314,352.084,-98.1145,-347.525,15.5494,1.09223,8.76669,1.65973,2.86621,0.74896,-6.54696,1.11924,-4.74125,3.40523,3.32873,4.72296,12.7363,4.49854,-3.65189,3.78576,2.18332,-1.94811,-1.41137e-14,-7.15625e-15,-21.4734,-3.17802,-82.2529,32.9397,33.2939,-32.166,-42.5425,7.12502,-5.40905,287.547,-1.41137e-14,-7.15625e-15,-46.3889,23.9707,58.3529,42.7117,11.1657,-31.5959,25.9939,7.12502,-4.85852,55.9182,-11.7646,-7.98005,26.5497,44.1638,-30.6676,4.54361,-7.98231,-36.8384,15.5923,-34.9235,51.1479,-12.9972,4.80272,-14.9761
-15.8371,17.0575,0.524082,352.057,-98.2953,-346.778,15.646,1.03547,9.21705,1.95585,2.8466,0.819997,-6.26229,1.11491,-4.91031,2.81881,3.43964,4.60731,12.4399,4.61661,-3.35813,3.78123,2.25166,-1.81542,1.0138e-14,-1.74931e-14,-20.1434,-1.90547,-82.2,32.918,33.3809,-32.5205,-42.2451,7.12502,-5.75126,287.853,1.0138e-14,-1.74931e-14,-43.9495,22.2587,63.2551,44.5467,11.1144,-32.3525,25.9799,7.12502,-5.58907,55.8862,-12.6942,-8.86187,26.9316,42.983,-29.6091,1.80234,-18.3911,-38.2788,13.9948,-33.7308,51.1943,-10.3741,1.90943,3.48149
-15.664,17.211,0.546065,355.55,-98.0375,-349.72,16.2332,0.840871,8.66696,1.87968,2.56058,0.772388,-6.73404,0.96353,-4.62146,3.15626,3.54437,5.29118,12.1877,4.81206,-3.85089,3.68287,2.36565,-2.10493,-1.94809e-14,1.59028e-15,-19.593,-0.937445,-81.8877,33.1243,34.383,-30.8918,-40.2017,7.12502,-4.17863,289.86,-1.94809e-14,1.59028e-15,-42.4693,19.2366,67.4249,46.7478,11.5434,-32.7231,26.5998,7.12502,-5.94691,56.4963,-13.5463,-8.5848,26.426,41.7199,-27.7711,4.49956,-9.87025,-39.1345,13.1799,-33.4373,50.8318,-6.18967,0.159461,1.38868
-15.5004,17.3652,0.544497,360.592,-97.4297,-354.304,16.2765,0.752883,7.97774,2.1962,2.28671,0.55979,-6.47119,0.864447,-4.40058,3.00169,3.52545,5.73045,11.975,4.76628,-3.65076,3.64335,2.37169,-2.11459,-1.80894e-14,6.36111e-15,-18.8844,-0.755629,-81.3008,33.7128,35.0217,-31.8904,-41.1659,7.12502,-5.14293,288.917,-1.80894e-14,6.36111e-15,-40.4845,14.6822,71.5101,49.0887,12.1256,-32.3605,26.9115,7.12502,-5.59682,56.8176,-14.0256,-8.19499,25.7818,40.177,-25.3002,5.3979,-6.93702,-39.6418,12.7437,-33.3853,50.3684,-1.18941,-2.65427,0.432548
-15.3536,17.5528,0.528603,362.644,-96.4368,-355.901,16.4685,0.442693,7.43574,2.32123,1.79054,0.574118,-6.52466,0.635761,-3.97995,2.96256,3.58634,6.14245,11.9754,4.82548,-3.47015,3.66382,2.42447,-2.12541,1.78906e-14,5.56597e-15,-18.7864,-0.352512,-80.4821,34.6704,35.2877,-32.3289,-40.2996,7.12502,-5.56632,289.794,1.78906e-14,5.56597e-15,-39.6047,9.34337,74.7675,51.9236,12.441,-32.0487,25.8597,7.12502,-5.29571,55.7735,-14.3046,-7.67253,25.6118,38.5267,-22.413,5.95388,-4.47212,-39.6973,10.8518,-31.6413,49.8111,4.52302,-8.46834,-11.4113
-15.2216,17.7327,0.508282,359.687,-95.2478,-352.55,16.5611,0.0100832,7.38706,2.51693,1.21214,0.740018,-6.43814,0.361514,-3.65123,2.91826,3.64739,6.14997,11.7201,4.85635,-2.9169,3.56309,2.45852,-1.93623,-2.64384e-14,-7.15625e-15,-18.8643,-0.0752366,-79.4115,35.8536,35.1028,-32.8966,-39.6635,7.12502,-6.11443,290.445,-2.64384e-14,-7.15625e-15,-39.0826,4.05337,77.1309,54.7499,11.2956,-32.2524,22.8446,7.12502,-5.4924,52.7534,-14.5066,-6.18034,25.8964,36.9901,-21.5796,4.56547,-18.461,-39.6046,8.13393,-28.8687,49.4436,13.7685,-16.2496,-10.5032
-15.0994,17.8891,0.488962,353.854,-94.1861,-346.408,16.6883,-0.378356,7.41486,2.69501,0.710649,0.925907,-6.37488,0.121234,-3.36005,2.75276,3.63682,6.42597,11.6455,4.82954,-2.86516,3.5753,2.4586,-1.96671,5.1684e-15,-1.35174e-14,-19.2208,-0.162415,-78.0565,37.1008,34.7916,-33.4142,-39.4977,7.12502,-6.61411,290.626,5.1684e-15,-1.35174e-14,-38.7138,-0.747509,78.6173,57.0627,7.77478,-32.1798,18.2757,7.12502,-5.42236,48.1863,-14.6586,-3.41448,26.0621,35.7007,-19.4593,4.83386,-21.4948,-39.5356,4.65973,-25.7014,49.4528,25.9243,-20.5754,10.2504
-14.9861,18.0054,0.478826,351.877,-93.1424,-344.197,16.8145,-0.744516,7.12862,2.77246,0.185378,0.946414,-6.42037,-0.127869,-3.06251,2.73743,3.61192,6.79029,11.6846,4.7932,-2.90494,3.6061,2.45387,-2.04703,3.97569e-16,7.95139e-15,-19.9465,-0.550865,-76.5208,38.1851,34.7213,-33.9458,-39.8456,7.12502,-7.1272,290.294,3.97569e-16,7.95139e-15,-38.4135,-5.12161,79.2665,58.6091,2.32831,-32.3199,12.3646,7.12502,-5.55762,42.2718,-14.9143,0.100933,25.419,34.9574,-17.5215,6.30675,-24.0403,-39.1418,0.338513,-22.8242,50.1436,29.8117,-22.6068,19.2396
-14.8779,18.1089,0.48565,353.261,-92.2146,-345.344,16.8533,-1.06845,6.88971,2.78382,-0.2821,0.871056,-6.47836,-0.350378,-2.90509,2.78171,3.55711,7.18983,11.7925,4.72591,-3.03422,3.65304,2.43246,-2.16663,2.18663e-15,-7.95139e-15,-20.8542,-1.20044,-74.6701,38.8691,35.1268,-34.8366,-40.1881,7.12502,-7.98706,289.983,2.18663e-15,-7.95139e-15,-37.9081,-9.39542,79.3144,59.4784,-3.8835,-33.3743,6.10663,7.12502,-6.57556,35.9845,-15.3327,4.45031,24.1454,34.6713,-16.3347,9.25596,-28.4244,-38.6204,-5.0187,-19.741,51.5564,25.6751,-22.928,18.4313
-14.7758,18.1757,0.503436,353.758,-91.7559,-345.494,16.7084,-1.25397,6.78596,2.7404,-0.55033,0.858872,-6.47312,-0.47703,-2.80061,2.8385,3.47778,7.53295,11.9203,4.63685,-3.26477,3.70466,2.39508,-2.31246,-4.77083e-15,1.98785e-14,-21.7989,-1.91295,-72.4093,39.0577,36.1607,-35.8215,-40.2817,7.12502,-8.93759,289.928,-4.77083e-15,1.98785e-14,-37.2776,-13.4455,78.8896,60.1256,-10.3459,-34.7739,1.39022,7.12502,-7.92655,31.2216,-16.1954,9.78089,22.6073,34.8366,-15.9894,13.7489,-30.8478,-38.4535,-10.4476,-16.4092,53.5192,17.6722,-22.9938,0.560239
-14.6845,18.2094,0.522922,352.573,-91.7117,-343.844,16.3314,-1.31715,6.69637,2.66575,-0.669001,0.871419,-6.35907,-0.527851,-2.71334,2.69612,3.45882,7.88483,12.169,4.61996,-3.54424,3.84414,2.39258,-2.47387,1.68967e-14,-3.37934e-14,-22.749,-2.65456,-69.9065,38.8253,37.6486,-36.4655,-40.5084,7.12502,-9.559,289.728,1.68967e-14,-3.37934e-14,-36.7003,-17.1791,77.9289,61.0005,-16.0023,-36.302,-1.52274,7.12502,-9.40116,28.2476,-17.4755,15.5209,20.9365,35.037,-15.9039,19.3897,-29.0294,-38.4825,-15.4804,-12.9348,55.7756,12.69,-22.5784,-5.69848
-14.6006,18.212,0.543529,371.09,-91.8411,-361.824,15.7808,-1.36029,5.88791,2.53588,-0.893876,0.7614,-6.21173,-0.613451,-2.33149,2.77162,3.61161,7.72174,12.16,4.81342,-3.40103,3.82777,2.4846,-2.38889,8.54774e-15,-1.59028e-15,-23.5886,-3.0818,-67.2672,38.1739,38.9538,-36.9161,-40.7853,7.12502,-9.99367,289.472,8.54774e-15,-1.59028e-15,-36.4193,-20.3487,76.5791,62.176,-20.0247,-37.6422,-3.05537,7.12502,-10.6942,26.6525,-19.2143,20.6236,18.5383,35.3149,-16.0987,24.8996,-28.1286,-38.4549,-20.0235,-10.3336,57.9709,12.7121,-22.6649,-6.33536
-14.5211,18.1901,0.565864,361.494,-91.9982,-351.919,15.3905,-1.50268,5.92948,2.42407,-1.08515,0.873219,-6.13281,-0.704112,-2.20019,2.85552,3.77193,7.66494,12.2354,5.02779,-3.40063,3.85112,2.58676,-2.37298,-2.18663e-15,2.82274e-14,-24.4462,-3.58874,-64.4756,37.1794,40.0184,-37.1549,-40.9683,7.12502,-10.224,289.3,-2.18663e-15,2.82274e-14,-36.3787,-23.2178,74.9547,63.4495,-22.3684,-38.3476,-3.62428,7.12502,-11.3745,26.0472,-20.7083,24.7239,17.4915,35.618,-21.4827,26.9197,-38.0161,-38.1482,-23.8097,-7.2301,60.1204,16.9146,-23.134,-0.788127
-14.4504,18.1562,0.582949,365.697,-92.0289,-355.907,14.8965,-1.62834,5.46918,2.33099,-1.34792,0.866832,-5.974,-0.81681,-1.90165,2.89324,3.86603,7.76647,12.4109,5.15815,-3.51165,3.92502,2.65058,-2.42712,-3.37934e-14,4.49253e-14,-25.3352,-4.62876,-61.4221,35.8907,41.5643,-36.3053,-41.383,7.12502,-9.40434,288.847,-3.37934e-14,4.49253e-14,-36.4174,-25.8071,73.138,64.7068,-23.0683,-38.5279,-3.91864,7.12502,-11.5484,25.7432,-21.633,26.4039,16.6982,35.8774,-19.4365,28.521,-33.4382,-37.7289,-27.2476,-5.129,62.1284,20.8247,-24.2064,-5.16454
-14.384,18.0968,0.6058,374.46,-91.8304,-364.731,14.538,-1.80249,5.04391,2.3103,-1.66548,0.800543,-5.81371,-0.958374,-1.67687,3.05908,3.9163,7.69581,12.4245,5.21391,-3.34165,3.89231,2.67913,-2.35585,-7.55382e-15,3.18055e-15,-26.2976,-5.80572,-58.2943,34.1038,41.5794,-36.5891,-41.2256,7.12502,-9.67819,289.017,-7.55382e-15,3.18055e-15,-36.2336,-28.1564,71.2016,65.6021,-22.414,-38.5009,-3.97066,7.12502,-11.5223,25.6926,-21.5104,25.9925,16.6504,35.9496,-17.6493,27.5115,-27.9224,-36.9624,-30.4269,-3.86692,64.0239,26.8747,-20.3895,3.12029
-14.3257,18.0153,0.614823,331.273,-91.7859,-322.116,14.6315,-2.04942,6.02918,2.40236,-1.82339,1.19855,-5.79273,-1.05489,-1.77675,3.26659,3.92817,7.54129,12.5491,5.20977,-3.10518,3.88123,2.67578,-2.24929,-9.34288e-15,-5.56597e-15,-27.402,-7.70309,-54.7522,32.2246,42.699,-35.6907,-41.6572,7.12502,-8.81135,288.547,-9.34288e-15,-5.56597e-15,-35.8251,-30.2121,69.2433,65.8725,-21.003,-38.2898,-3.65945,7.12502,-11.3188,26.0151,-20.3394,24.4586,19.0141,35.7924,-17.041,25.7411,-21.935,-35.2487,-32.8138,-1.78086,65.7567,29.9665,-17.7068,0.887328
-14.2765,17.946,0.621916,304.194,-92.3644,-295.797,14.9379,-2.263,6.84507,2.48976,-1.94751,1.58501,-5.88791,-1.13535,-1.7913,3.55941,3.94003,7.18864,12.6905,5.19182,-2.70719,3.84425,2.66115,-2.05346,4.69132e-14,-3.18055e-14,-28.6187,-10.1851,-50.7584,30.1303,44.5732,-34.8874,-42.3865,7.12502,-8.03605,287.786,4.69132e-14,-3.18055e-14,-35.3116,-31.677,67.3964,65.6439,-19.6899,-37.9101,-3.09183,7.12502,-10.9525,26.6025,-18.8233,23.0122,21.1052,35.216,-14.5109,24.6406,-8.54394,-32.7037,-34.6603,-0.823361,67.09,30.5225,-15.3249,-4.04045
-14.2316,17.8887,0.629727,289.86,-93.3104,-282.349,15.4718,-2.47952,7.72464,2.60672,-2.04096,2.04827,-6.07252,-1.20656,-1.75509,3.58813,3.9415,7.09879,13.1403,5.19594,-2.88412,4.00443,2.65089,-2.0988,3.49861e-14,-1.27222e-14,-29.8434,-13.1243,-46.41,28.0521,47.2967,-34.3456,-42.8231,7.12502,-7.51314,287.33,3.49861e-14,-1.27222e-14,-34.7708,-32.2646,65.6634,65.042,-18.9974,-37.4591,-2.35665,7.12502,-10.5175,27.3602,-17.3064,21.4685,23.0831,34.4878,-16.2128,23.8289,-11.5733,-29.6168,-35.9076,-0.550204,67.9545,30.2965,-14.7049,-6.93438
-14.1802,17.8479,0.656399,280.024,-96.3265,-272.273,15.2329,-2.84305,10.8704,2.42161,-1.99935,3.00592,-6.19647,-1.26861,-2.48814,3.56898,4.03435,6.84647,13.4327,5.31741,-2.96609,4.11372,2.69391,-2.07765,1.39149e-14,-5.1684e-15,-31.1073,-16.4311,-42.0067,26.3516,50.7973,-33.7208,-42.752,7.12502,-6.91005,287.381,1.39149e-14,-5.1684e-15,-34.3341,-31.9207,63.9826,64.1561,-18.7416,-37.1185,-1.99386,7.12502,-10.1889,27.7394,-17.328,19.8101,26.5702,33.915,-17.5595,23.826,-14.6564,-28.0108,-35.7439,2.39991,68.4076,32.3542,-15.43,-1.59799
-14.1357,17.8246,0.679683,284.561,-97.3074,-276.257,14.939,-2.75858,11.5992,2.1528,-1.77676,3.30513,-6.30895,-1.18989,-2.61794,3.54839,4.14447,6.72657,13.5893,5.47092,-3.08413,4.18363,2.75812,-2.09171,4.96962e-15,1.66979e-14,-32.6912,-19.9328,-37.7978,25.2815,54.6849,-33.2114,-42.7972,7.12502,-6.41832,287.32,4.96962e-15,1.66979e-14,-34.1088,-30.8628,62.358,63.1763,-18.5932,-37.0932,-1.86559,7.12502,-10.1645,27.8689,-18.1767,19.8976,27.4137,33.9983,-20.163,22.3845,-22.8598,-26.2428,-34.3531,2.36819,68.183,34.7929,-15.4883,3.48556
-14.0906,17.837,0.725249,292.476,-96.6759,-283.334,14.1812,-2.61012,11.0073,2.03057,-1.77125,2.96119,-6.01892,-1.15811,-2.68566,3.48412,4.29036,6.80596,13.4287,5.68007,-3.19123,4.15857,2.86251,-2.13508,6.55989e-15,3.53837e-14,-34.2893,-23.7303,-34.0911,24.7505,58.501,-33.4993,-43.0183,7.12502,-6.69628,287.108,6.55989e-15,3.53837e-14,-33.6447,-29.0575,60.5451,62.1353,-18.0618,-37.1472,-1.42256,7.12502,-10.2166,28.3093,-19.6477,19.9531,26.2013,34.6541,-19.5684,21.7177,-21.8474,-24.723,-32.4098,0.0348102,67.3751,36.2285,-15.9753,2.39082
-14.0417,17.8787,0.765047,310.575,-95.3092,-300.685,13.6003,-2.39081,9.08896,1.97709,-1.84415,2.22652,-5.73596,-1.13328,-2.41166,3.59733,4.49467,6.84664,13.0371,5.96462,-3.15403,4.01297,3.00807,-2.12244,-2.37548e-14,-1.11319e-14,-35.482,-26.2272,-31.8294,24.6664,59.7977,-33.1571,-43.7984,7.12502,-6.36588,286.317,-2.37548e-14,-1.11319e-14,-33.2598,-26.6023,58.8171,60.9148,-16.8431,-37.2653,-0.799415,7.12502,-10.3306,28.9269,-21.4455,20.3683,23.7783,36.1025,-17.7187,20.6986,-18.2711,-23.03,-29.5531,-4.00401,65.9231,36.6879,-12.9688,4.78588
-13.9851,17.9358,0.795011,331.329,-95.0515,-321.086,13.6848,-2.20132,7.61062,1.96542,-1.81786,1.55764,-5.77213,-1.08759,-2.30084,3.73852,4.65262,6.86085,12.6691,6.17314,-2.98676,3.85962,3.11818,-2.06427,1.49089e-15,-2.38542e-15,-36.6083,-27.9687,-30.4179,24.6326,59.7511,-33.6699,-44.9359,7.12502,-6.86093,285.195,1.49089e-15,-2.38542e-15,-32.9728,-23.9585,57.363,59.5151,-15.0012,-37.6438,-0.0279403,7.12502,-10.6957,29.6798,-22.8575,20.7211,22.3348,37.9416,-15.8788,18.8082,-15.6689,-21.0579,-25.647,-7.63946,64.0652,36.5309,-12.9339,-0.919541
-13.9173,17.9955,0.821088,348.075,-95.4567,-337.714,13.7898,-1.9902,6.45473,2.2711,-1.75096,0.888009,-5.48593,-1.02179,-2.37916,3.65277,4.7428,6.99511,12.1504,6.29062,-2.83393,3.69673,3.18946,-2.03204,8.64713e-15,1.90833e-14,-37.46,-29.2119,-30.0793,24.779,58.7018,-34.3926,-46.4333,7.12502,-7.55851,283.722,8.64713e-15,1.90833e-14,-32.1635,-21.1312,55.9836,58.0114,-12.742,-37.893,0.792121,7.12502,-10.9361,30.4873,-23.8227,20.079,21.7422,39.9913,-15.3568,15.6317,-23.8172,-19.1234,-20.867,-10.9036,62.0041,35.7636,-13.4877,-0.452011
-13.8438,18.0483,0.84565,361.143,-96.0662,-350.771,14.1628,-1.83707,5.33546,2.50169,-1.73819,0.202599,-5.43524,-0.995579,-2.47199,3.69248,4.8257,7.0728,11.6565,6.38998,-2.55036,3.51075,3.25095,-1.94934,-1.0635e-14,-1.68967e-15,-38.1961,-29.6772,-30.4825,25.0327,57.3604,-35.324,-47.1325,7.12502,-8.45742,283.057,-1.0635e-14,-1.68967e-15,-31.4585,-18.122,54.895,56.4067,-10.8151,-37.7586,1.54979,7.12502,-10.8064,31.2518,-24.4838,18.115,21.6381,42.0701,-12.9873,12.0913,-21.5719,-17.3685,-15.4523,-14.0156,59.9091,32.2358,-14.0197,-4.25637
-13.7679,18.0901,0.863232,371.443,-96.6784,-360.916,14.4874,-1.67411,4.1958,2.62437,-1.72045,-0.41592,-5.46977,-0.97156,-2.48096,3.6225,4.86241,6.97998,11.3375,6.40921,-2.1716,3.39038,3.26703,-1.8045,-6.53505e-15,-4.24902e-15,-38.8338,-29.3894,-31.5579,25.5718,56.0393,-34.9767,-48.227,7.12502,-8.12232,281.949,-6.53505e-15,-4.24902e-15,-30.6864,-14.8833,54.1703,54.6633,-9.53978,-37.8727,2.66529,7.12502,-10.9165,32.3615,-25.3328,14.9333,21.9194,44.0672,-11.1182,8.06837,-22.7723,-16.1015,-9.63247,-16.8546,57.86,24.9671,-15.1676,-18.3207
-13.6973,18.1172,0.879864,380.56,-97.1746,-369.734,14.6131,-1.47307,3.07674,2.68326,-1.65799,-0.944716,-5.45806,-0.926157,-2.41728,3.44144,4.78095,6.87105,11.171,6.27745,-1.94949,3.34285,3.20405,-1.71121,-2.00027e-15,1.20265e-14,-39.5012,-28.4386,-33.1136,26.2214,53.2595,-35.4388,-49.7783,7.12502,-8.56828,280.416,-2.00027e-15,1.20265e-14,-29.8077,-11.7527,53.9048,52.9981,-8.26535,-38.1418,3.59182,7.12502,-11.176,33.2742,-26.3223,10.5174,22.5671,45.8413,-8.94424,2.84986,-20.575,-15.238,-3.71292,-19.6111,55.8661,20.6919,-11.0215,-15.7364
-13.6401,18.1207,0.901185,389.029,-97.5537,-377.856,14.554,-1.30418,2.05823,2.70083,-1.6237,-1.40113,-5.39215,-0.89596,-2.33032,3.17225,4.63548,6.82744,11.1311,6.06673,-1.87554,3.36199,3.10141,-1.67891,-1.93815e-15,-1.93815e-15,-40.2569,-27.5804,-34.641,26.9721,50.4074,-35.5422,-49.796,7.12502,-8.668,280.402,-1.93815e-15,-1.93815e-15,-29.0173,-8.84414,54.0672,51.476,-6.8726,-37.6718,3.69514,7.12502,-10.7227,33.4015,-27.1884,5.38076,23.4587,47.0191,-7.61051,-3.54011,-16.1215,-14.5642,2.1179,-22.3734,53.9011,15.6624,-6.47671,-18.7493
-13.5923,18.0915,0.925051,396.096,-97.6816,-384.361,14.2611,-1.23372,1.33755,2.59339,-1.65796,-1.69895,-5.33742,-0.901965,-2.23371,2.83593,4.49691,6.76143,11.1747,5.86382,-1.8433,3.42447,3.00124,-1.65497,-2.01518e-14,-1.67973e-14,-40.9331,-26.8216,-36.2229,27.7365,47.7683,-35.5198,-49.7215,7.12502,-8.64646,280.476,-2.01518e-14,-1.67973e-14,-28.3909,-6.07476,54.6127,50.1035,-5.35525,-36.4358,3.93997,7.12502,-9.53031,33.7044,-28.1043,-0.00326383,24.7522,47.6419,-8.20595,-9.84616,-9.55913,-14.1953,7.68098,-24.8242,52.0418,11.8671,-1.17815,-13.795
-13.5648,18.0622,0.947956,401.518,-97.5305,-389.031,13.5667,-1.20287,1.02968,2.47019,-1.66229,-1.79348,-5.08143,-0.895085,-2.16837,2.61566,4.3236,6.47934,11.0628,5.62385,-1.75739,3.39762,2.87587,-1.57943,-2.30342e-14,6.60959e-15,-41.5054,-26.3586,-37.7114,28.4978,45.4529,-35.5931,-49.7935,7.12502,-8.71718,280.407,-2.30342e-14,6.60959e-15,-27.7551,-3.46099,55.544,48.9931,-3.46932,-35.3148,4.97986,7.12502,-8.4486,34.7909,-29.3816,-5.51007,26.5612,47.6271,-10.2663,-15.0402,-5.11113,-13.8811,12.7942,-26.8237,50.1792,9.21615,3.60119,-12.9788
-13.5449,18.012,0.97098,405.046,-97.2285,-391.684,12.7762,-1.20052,0.923706,2.17458,-1.65314,-1.67592,-4.95095,-0.881768,-1.99718,2.58598,4.16845,6.12607,11.044,5.42202,-1.76078,3.37159,2.7631,-1.52346,1.82676e-14,-2.24611e-14,-41.8713,-25.7175,-39.2588,29.2445,42.9733,-35.6055,-49.5121,7.12502,-8.72913,280.688,1.82676e-14,-2.24611e-14,-27.6816,-0.94421,56.7439,48.3837,-1.69994,-35.4308,5.50752,7.12502,-8.56057,35.314,-30.6711,-10.0478,28.4255,47.226,-11.5224,-18.1276,-5.2859,-13.64,17.0902,-28.4289,48.3308,4.24714,8.42443,-8.94115
-13.5256,17.9305,0.999677,410.407,-97.1847,-396.065,11.9104,-1.25544,0.388632,1.76696,-1.77555,-1.5867,-4.88743,-0.92647,-1.5933,2.4709,4.11204,5.95977,11.1802,5.35855,-1.9498,3.43801,2.72036,-1.55636,1.20886e-14,1.85118e-14,-41.7378,-25.0201,-41.0062,29.8053,40.6243,-35.496,-48.1527,7.12502,-8.62342,282.043,1.20886e-14,1.85118e-14,-28.2947,1.49288,57.9829,48.3919,-0.04293,-36.7754,4.461,7.12502,-9.85797,34.2102,-31.9027,-13.172,29.3035,46.6554,-14.1503,-18.9178,-3.502,-13.5953,20.1549,-30.412,46.6291,0.519673,10.1606,-17.3055
-13.5178,17.8492,1.03353,409.239,-96.5825,-394.058,11.1423,-1.37386,0.740188,1.42809,-1.85488,-1.24928,-4.81858,-0.963004,-1.43882,2.26243,4.15189,5.92521,11.2788,5.42478,-2.18082,3.52239,2.74563,-1.62154,1.56294e-14,4.77083e-15,-41.0891,-24.7094,-42.6962,29.9742,39.5689,-35.2932,-45.7783,7.12502,-8.4277,284.41,1.56294e-14,4.77083e-15,-29.371,3.66274,59.1381,48.9111,1.64346,-37.9649,3.11534,7.12502,-11.0054,32.8068,-32.4316,-14.4636,30.2902,45.9575,-16.2036,-18.2485,-9.13184,-13.7315,21.1611,-30.8229,45.2942,-2.94085,11.1652,-14.1916
-13.4919,17.7126,1.08558,408.258,-95.9269,-392.51,10.717,-1.54988,1.31854,1.1006,-1.99791,-1.01564,-4.94082,-1.03965,-1.50496,2.09215,4.16829,5.9007,11.3383,5.44666,-2.24989,3.57803,2.7538,-1.63644,2.88238e-14,-1.47101e-14,-40.3345,-24.8451,-44.0919,29.7554,40.3698,-35.3532,-43.5019,7.12502,-8.48568,286.689,2.88238e-14,-1.47101e-14,-30.6724,5.35605,60.0761,49.6015,2.54769,-37.7937,2.86462,7.12502,-10.8403,32.5648,-32.2831,-13.6174,30.0191,45.4168,-19.014,-16.903,-10.2791,-13.4618,20.4154,-30.7929,44.5916,-4.94911,9.90564,-23.6716
-13.4576,17.5807,1.14117,401.444,-95.0287,-385.659,10.9705,-1.73909,2.41727,0.880348,-2.08944,-0.71695,-5.34519,-1.10739,-1.78795,2.16367,4.18481,5.87243,11.1974,5.47215,-2.20641,3.51329,2.76707,-1.61777,-4.34841e-15,-9.79014e-15,-39.5384,-25.2274,-45.3062,29.3569,42.9854,-35.5093,-42.5771,7.12502,-8.63632,287.62,-4.34841e-15,-9.79014e-15,-32.0441,6.62649,60.7392,50.0949,2.47617,-36.1301,3.71228,7.12502,-9.23531,33.49,-31.2226,-11.9711,29.9129,44.5521,-19.7009,-16.6779,-14.4081,-13.0116,17.9078,-29.503,44.936,-7.58742,6.87664,-18.6631
-13.4307,17.4725,1.18225,385.914,-94.1765,-370.715,11.8818,-1.90036,3.71067,0.852452,-2.08613,-0.300338,-5.91489,-1.14032,-2.05501,2.51515,4.22972,5.46216,10.7043,5.51897,-1.71682,3.24111,2.78945,-1.38975,-1.13804e-14,1.49089e-14,-38.8851,-25.6687,-46.298,29.2177,46.5566,-34.4796,-41.1671,7.12502,-7.64248,288.991,-1.13804e-14,1.49089e-14,-33.3956,7.14708,61.433,50.2747,1.95258,-34.2732,5.0541,7.12502,-7.4433,34.9032,-29.8501,-10.1204,30.3216,43.9094,-20.4145,-16.3526,-15.2244,-12.2071,15.6716,-27.3113,46.0597,-8.68678,2.37631,-0.71637
