JuanDHNZ/ProyectoFinalCD/preprocessing/sports_trials_csv/93_05.csv
root1,root2,root3,root4,root5,root6,lowerback1,lowerback2,lowerback3,upperback1,upperback2,upperback3,thorax1,thorax2,thorax3,lowerneck1,lowerneck2,lowerneck3,upperneck1,upperneck2,upperneck3,head1,head2,head3,rclavicle1,rclavicle2,rhumerus1,rhumerus2,rhumerus3,rradius1,rwrist1,rhand1,rhand2,rfingers1,rthumb1,rthumb2,lclavicle1,lclavicle2,lhumerus1,lhumerus2,lhumerus3,lradius1,lwrist1,lhand1,lhand2,lfingers1,lthumb1,lthumb2,rfemur1,rfemur2,rfemur3,rtibia1,rfoot1,rfoot2,rtoes1,lfemur1,lfemur2,lfemur3,ltibia1,lfoot1,lfoot2,ltoes1
-1.81058,17.119,4.85713,172.894,-78.7316,-171.034,15.893,-4.07892,2.02082,5.22675,-5.48764,-2.61929,-3.76006,-2.83216,-2.84226,0.160344,8.3642,8.91937,5.44543,11.366,-7.65984,2.54128,5.65875,-3.39234,-7.196e-14,-3.02153e-14,-45.4732,-14.9553,-57.4507,92.2939,-38.7293,-9.95722,-31.2569,7.12502,16.0248,-60.6141,-7.196e-14,-3.02153e-14,-36.0941,-1.74834,76.067,76.0529,10.3899,-27.6004,5.89446,7.12502,-0.99993,35.8719,-25.144,8.80674,26.3527,47.9317,-21.6877,-3.91698,-9.55301,-27.6153,9.62743,-20.5987,54.2924,-13.091,-13.4861,-14.26
-1.73436,17.1172,4.82999,169.748,-79.5053,-167.491,16.3525,-4.46768,2.41219,5.1766,-5.91459,-2.43415,-4.10374,-3.04247,-2.74421,0.337858,8.50738,8.90623,5.04635,11.5736,-7.94474,2.42668,5.76259,-3.48097,4.05521e-14,5.56597e-14,-45.1944,-15.132,-57.6758,92.3196,-38.6517,-9.70434,-31.2394,7.12502,16.2683,-60.5769,4.05521e-14,5.56597e-14,-35.1105,-2.44388,75.7127,76.7946,9.98292,-27.664,5.37361,7.12502,-1.06135,35.3507,-25.6527,7.91724,26.9882,47.5815,-21.4897,-3.66939,-9.14673,-29.3212,9.5157,-19.8566,55.9604,-11.9297,-13.896,-18.1329
-1.65681,17.132,4.80699,166.882,-80.4675,-164.037,16.5998,-4.87918,2.603,5.12718,-6.39706,-2.19439,-4.31304,-3.27765,-2.47472,0.453296,8.64207,8.82598,4.58184,11.765,-8.27568,2.30083,5.85681,-3.5729,-3.57812e-15,-7.95139e-15,-44.9428,-15.1328,-57.7876,92.4447,-38.7175,-9.53334,-31.303,7.12502,16.433,-60.627,-3.57812e-15,-7.95139e-15,-33.6549,-3.03429,75.3264,77.5022,9.59867,-27.5136,5.03847,7.12502,-0.916166,35.0162,-26.2597,6.72221,27.396,46.9823,-21.0667,-3.27191,-8.76518,-31.0377,9.02274,-19.3151,57.1598,-10.8564,-14.7131,-21.076
-1.58769,17.166,4.78781,164.142,-81.1601,-160.721,16.7463,-5.12958,2.64862,5.11264,-6.69457,-1.93978,-4.40018,-3.4215,-2.15587,0.505725,8.71757,8.79658,4.24584,11.8712,-8.54103,2.21579,5.90923,-3.65168,5.00937e-14,-9.54166e-15,-44.7617,-15.1095,-57.8102,92.6207,-38.9015,-9.50115,-31.5826,7.12502,16.464,-60.904,5.00937e-14,-9.54166e-15,-31.9446,-3.67111,74.9015,78.3333,9.4999,-27.3774,4.61378,7.12502,-0.784618,34.5921,-26.7517,5.64575,27.7381,46.2643,-20.5864,-2.79605,-8.37783,-32.4735,8.63936,-18.8461,58.2058,-10.2352,-15.6777,-23.1374
-1.52515,17.2162,4.77041,162.069,-81.6099,-158.187,16.8663,-5.27469,2.42913,4.79415,-6.8845,-1.72505,-4.76407,-3.5079,-1.74015,2.36346,8.66321,9.14057,3.35747,11.899,-9.00536,1.70255,5.96769,-3.95121,6.63941e-14,-1.59028e-15,-45.2005,-14.488,-57.7742,92.8254,-39.1067,-9.47453,-31.7376,7.12502,16.4896,-61.0569,6.63941e-14,-1.59028e-15,-30.9189,-4.44988,74.4116,79.4337,9.6927,-27.4142,4.47919,7.12502,-0.820154,34.4574,-26.9956,4.75751,27.9857,45.3288,-20.0335,-2.24321,-7.96776,-33.3893,8.43314,-18.5186,59.0415,-9.94254,-16.5587,-23.8177
-1.46402,17.2752,4.75455,160.344,-82.0735,-156.024,16.9774,-5.24284,2.307,5.18991,-6.8689,-1.50523,-4.35893,-3.5044,-1.45931,1.13726,8.72882,8.86998,3.2899,11.9096,-9.00699,1.86571,5.9465,-3.85153,-8.46823e-14,-1.74931e-14,-44.4428,-14.9003,-57.8891,92.8596,-39.257,-9.62923,-31.6711,7.12502,16.3407,-61.0027,-8.46823e-14,-1.74931e-14,-28.3807,-5.2723,73.9915,80.7746,9.78676,-27.6074,4.63202,7.12502,-1.00673,34.6094,-27.1114,3.87932,28.1455,44.1881,-19.4079,-1.69526,-7.82104,-33.9489,8.29399,-18.3798,59.8421,-10.4649,-16.8448,-25.2805
-1.40232,17.3394,4.73841,157.855,-82.4104,-153.061,17.147,-5.35278,2.06187,4.7289,-7.00744,-1.26351,-4.8883,-3.56133,-0.999024,3.18606,8.63414,9.21468,2.64241,11.8975,-9.36631,1.38426,5.98966,-4.12757,-1.23246e-14,1.59028e-14,-44.8811,-14.0746,-57.8094,92.6934,-39.5166,-9.79435,-31.5028,7.12502,16.1817,-60.8473,-1.23246e-14,1.59028e-14,-27.4164,-6.11482,73.3905,81.9554,9.67815,-27.8628,4.56525,7.12502,-1.25339,34.5413,-27.1896,3.22399,28.4329,42.9018,-18.6052,-1.097,-7.97666,-34.227,8.42436,-18.2065,60.7483,-12.1132,-16.0343,-28.8941
-1.34434,17.4101,4.72421,155.41,-82.6762,-150.217,17.2886,-5.3945,1.92595,5.05101,-7.08995,-1.09527,-4.58515,-3.6069,-0.736908,1.86523,8.76852,9.28055,3.09267,12.0147,-9.3373,1.74383,6.0178,-4.04651,1.14898e-13,1.27222e-14,-43.6413,-14.7599,-58.2169,91.833,-39.4115,-9.54506,-31.1542,7.12502,16.4217,-60.4791,1.14898e-13,1.27222e-14,-24.1384,-6.7732,72.374,82.3487,9.56699,-28.1015,4.45474,7.12502,-1.48391,34.4293,-27.1223,2.71888,28.6923,41.5361,-17.6248,-0.500716,-8.05519,-34.0773,8.69596,-18.0887,61.7973,-13.9791,-14.364,-31.971
-1.29323,17.4849,4.71853,153.934,-83.0936,-148.367,17.3066,-5.49081,1.71223,5.17732,-7.25213,-1.00985,-4.42885,-3.68775,-0.50185,1.50103,8.80581,9.38071,3.26868,12.0478,-9.28763,1.86094,6.0269,-4.02277,-2.50469e-14,-1.59028e-14,-42.7515,-15.3118,-58.5393,90.8842,-39.1364,-9.10496,-30.785,7.12502,16.8454,-60.0743,-2.50469e-14,-1.59028e-14,-21.1565,-7.41885,71.2665,82.5125,9.227,-28.281,4.29783,7.12502,-1.65729,34.2711,-26.9884,2.01427,28.7081,40.1614,-16.7377,-0.340327,-8.16885,-33.5444,8.86804,-18.2562,62.9362,-14.9448,-12.3772,-32.3598
-1.23934,17.5562,4.71605,152.598,-83.3896,-146.517,17.2647,-5.61896,1.49613,4.7528,-7.42286,-0.890403,-4.82183,-3.75807,-0.199192,3.16835,8.74428,9.50615,2.81257,12.0545,-9.23542,1.46186,6.07016,-4.12108,1.63003e-14,2.22639e-14,-42.9068,-14.9591,-58.5852,90.3105,-39.0113,-9.00977,-30.4772,7.12502,16.937,-59.7587,1.63003e-14,2.22639e-14,-19.4216,-8.04224,70.2187,82.9043,8.87092,-28.2565,4.1725,7.12502,-1.63364,34.146,-27.0749,1.42383,28.7686,38.8591,-16.0301,-0.234777,-8.93678,-32.9244,9.18112,-18.4242,64.1262,-14.8136,-10.6215,-30.3535
-1.17756,17.6165,4.71195,151.216,-83.5811,-144.43,17.1549,-5.65392,1.40774,4.76092,-7.4736,-0.735351,-4.72406,-3.7818,0.00961781,2.5941,8.86419,9.3293,2.7994,12.1674,-8.98954,1.53538,6.11541,-3.98857,-2.38542e-14,1.43125e-14,-42.3936,-15.034,-58.8003,90.1219,-39.0357,-9.19557,-30.2767,7.12502,16.7582,-59.5734,-2.38542e-14,1.43125e-14,-16.6002,-8.3655,69.0656,83.2781,8.8342,-28.0444,3.94863,7.12502,-1.42876,33.9236,-27.4753,1.03341,28.9059,37.7024,-15.4584,0.396972,-9.76785,-32.3895,9.61124,-18.54,65.2828,-13.8935,-9.09771,-27.5111
-1.11349,17.662,4.71061,149.324,-83.9075,-141.69,16.9195,-5.73667,1.36931,4.54548,-7.56621,-0.57331,-4.80326,-3.81981,0.208762,2.84014,8.88875,9.47838,2.41886,12.2129,-9.1758,1.40797,6.14724,-4.08602,-7.196e-14,3.65764e-14,-42.4747,-14.688,-58.7806,90.4037,-39.344,-9.47812,-30.3252,7.12502,16.4862,-59.6447,-7.196e-14,3.65764e-14,-14.308,-8.7227,68.1097,83.5932,8.43169,-28.0353,3.23036,7.12502,-1.41998,33.2054,-28.126,0.51019,29.0259,36.7219,-14.846,1.03973,-10.0399,-31.8594,9.86961,-18.7184,66.2735,-12.3114,-7.37825,-24.7149
-1.05595,17.6975,4.71588,147.087,-84.189,-138.697,16.7112,-5.8496,1.41399,4.31189,-7.68444,-0.414632,-4.92645,-3.87049,0.368227,3.32154,8.90725,9.66072,1.89093,12.2645,-9.4985,1.21058,6.18821,-4.24484,-1.53462e-13,1.74931e-14,-42.4055,-14.3891,-58.7533,90.5067,-39.5566,-9.82086,-30.5159,7.12502,16.1562,-59.8626,-1.53462e-13,1.74931e-14,-12.174,-9.06448,67.2091,83.6921,7.48909,-28.4514,2.74923,7.12502,-1.82188,32.7212,-28.7875,-0.126349,29.1849,35.9745,-14.2052,1.65672,-9.65304,-30.9595,10.0699,-18.8856,66.9267,-10.4626,-5.54178,-22.8377
-1.0059,17.727,4.72753,145.38,-84.4447,-136.486,16.642,-5.95389,1.42818,4.20255,-7.80476,-0.290132,-4.99151,-3.92562,0.515313,3.62546,8.93411,9.67397,1.3284,12.3053,-9.71601,1.01408,6.22006,-4.34033,-2.70347e-14,-1.43125e-14,-42.0435,-14.2447,-58.7258,90.4466,-39.6017,-10.0858,-30.69,7.12502,15.901,-60.0572,-2.70347e-14,-1.43125e-14,-9.98253,-9.30013,66.3268,83.6856,6.39324,-28.7972,2.9809,7.12502,-2.15587,32.9498,-29.3136,-0.857562,29.2676,35.5297,-13.6911,2.24384,-9.1068,-29.5421,10.2101,-19.1121,67.0567,-8.79353,-3.72704,-22.863
-0.951452,17.7423,4.74286,144.332,-84.7944,-134.983,16.6008,-5.92055,1.49202,4.54749,-7.76224,-0.17937,-4.59425,-3.91502,0.557687,1.95992,9.04611,9.29873,1.23197,12.3322,-9.6705,1.23073,6.197,-4.18553,-2.10712e-14,-9.54166e-15,-41.0891,-14.9284,-58.5914,90.5224,-39.7403,-10.2323,-30.8583,7.12502,15.76,-60.2367,-2.10712e-14,-9.54166e-15,-6.73762,-9.31454,65.5872,83.4786,5.37753,-28.8002,3.1632,7.12502,-2.15877,33.132,-29.9229,-1.53947,29.1925,35.3113,-13.3853,2.47138,-10.0378,-27.9199,10.1275,-19.4676,66.5433,-7.39311,-2.17406,-22.3864
-0.887647,17.7377,4.76292,144.23,-85.1795,-134.333,16.5533,-5.99076,1.40973,4.49821,-7.86112,-0.135822,-4.60536,-3.96085,0.666062,1.87674,9.17451,9.36623,0.707837,12.483,-9.91391,1.12397,6.27521,-4.27047,6.75868e-15,-1.19271e-14,-40.8027,-15.0204,-58.4418,90.8146,-40.0577,-10.2841,-31.0444,7.12502,15.71,-60.4267,6.75868e-15,-1.19271e-14,-4.74605,-9.17802,65.0081,83.3523,4.30137,-28.7029,3.11002,7.12502,-2.0648,33.0798,-30.8316,-1.96298,28.9708,35.3562,-13.2669,2.65409,-11.4041,-26.295,9.86816,-19.9596,65.3405,-6.34137,-0.881964,-20.9994
-0.849656,17.729,4.79275,147.02,-84.9077,-137.177,16.8743,-5.84426,1.42607,4.60334,-7.6695,-0.131917,-4.66391,-3.86981,0.649234,2.00526,9.31244,9.51786,0.199764,12.6634,-10.337,1.0087,6.37332,-4.43034,2.54444e-14,-1.11319e-14,-40.6827,-15.0201,-58.1775,91.2249,-40.5166,-10.301,-31.2182,7.12502,15.6938,-60.6018,2.54444e-14,-1.11319e-14,-3.06963,-8.89377,64.7818,82.9852,2.91422,-28.5434,2.91248,7.12502,-1.91078,32.8837,-31.0812,-1.883,28.8817,35.6263,-13.2236,3.09379,-11.3073,-23.5989,10.162,-20.1616,63.2597,-5.84583,0.180701,-21.5911
-0.794147,17.709,4.82311,146.538,-84.9185,-136.39,16.9973,-5.87146,1.55059,4.61307,-7.67704,-0.0338029,-4.72058,-3.87391,0.69777,1.99142,9.46187,9.71937,-0.234903,12.8527,-10.8683,0.950978,6.47253,-4.61938,4.77083e-15,-2.54444e-14,-40.399,-14.8975,-57.9015,91.6368,-41.0607,-10.4046,-31.4423,7.12502,15.594,-60.8337,4.77083e-15,-2.54444e-14,-1.25542,-8.45195,64.6103,82.2079,1.43746,-28.3486,2.42517,7.12502,-1.72256,32.398,-31.9553,-1.85783,28.8483,36.2082,-13.1303,3.16355,-11.1226,-21.3142,9.83265,-20.341,60.2657,-5.3286,0.912319,-21.0136
-0.725577,17.6785,4.85855,144.251,-85.075,-133.519,16.9577,-5.99241,1.78502,4.52129,-7.78083,0.117483,-4.80648,-3.92275,0.751924,1.90587,9.61005,9.77073,-0.639597,13.0284,-11.1291,0.885505,6.56264,-4.70261,1.02573e-13,1.43125e-14,-40.0413,-14.7059,-57.5488,92.0082,-41.6203,-10.481,-31.7103,7.12502,15.5204,-61.1074,1.02573e-13,1.43125e-14,0.413598,-7.95918,64.5344,81.3377,0.0563511,-28.0863,1.77898,7.12502,-1.46924,31.7537,-33.32,-1.94836,28.8634,37.0198,-13.0646,3.09171,-12.1116,-19.3351,9.11728,-20.5227,56.5969,-5.96915,0.956135,-26.4302
-0.652562,17.6306,4.89633,142.55,-85.259,-131.098,16.7806,-6.15058,1.91452,4.3683,-7.9508,0.254357,-4.87393,-4.00206,0.851257,1.88978,9.83692,9.82392,-1.00016,13.3157,-11.277,0.826312,6.7098,-4.75034,4.33351e-14,1.98785e-14,-39.57,-14.3959,-57.2672,92.2905,-42.1533,-10.6581,-32.0783,7.12502,15.3499,-61.4886,4.33351e-14,1.98785e-14,1.59412,-7.276,64.6611,80.6645,-1.08515,-27.8117,1.4732,7.12502,-1.20409,31.4495,-35.0807,-1.953,28.7897,38.1919,-12.9047,2.96065,-13.3033,-17.7722,8.10098,-20.746,52.3447,-9.04137,-0.998432,-23.6724
-0.578756,17.5938,4.93155,143.898,-85.4569,-131.72,16.6244,-6.26751,1.75222,4.1898,-8.11919,0.299902,-4.95392,-4.07775,1.01707,1.94313,10.0907,10.1243,-1.33331,13.6526,-11.6642,0.804275,6.88401,-4.90464,7.15625e-15,-1.66979e-14,-39.0033,-13.9841,-57.1122,92.4829,-42.681,-10.9603,-32.4944,7.12502,15.0588,-61.9267,7.15625e-15,-1.66979e-14,2.46644,-6.66116,64.7388,80.0887,-1.85305,-27.6922,1.58274,7.12502,-1.08864,31.5597,-37.0082,-1.64157,28.4219,39.7288,-12.6661,2.75696,-13.2329,-16.1331,7.49132,-21.1963,48.3282,-12.2836,-2.67917,-22.7801
-0.499733,17.56,4.96077,147.975,-85.6025,-134.98,16.4515,-6.29179,1.40656,3.92951,-8.196,0.290845,-5.09391,-4.10441,1.20971,2.04276,10.2598,10.4623,-1.62734,13.8817,-12.0106,0.776235,7.00504,-5.05885,-1.44318e-13,2.94201e-14,-38.5804,-13.5271,-56.897,92.6868,-43.2295,-11.0593,-32.7142,7.12502,14.9634,-62.1536,-1.44318e-13,2.94201e-14,3.04457,-6.42769,64.7448,79.5419,-2.32211,-27.9668,1.73813,7.12502,-1.35389,31.7136,-39.2383,-0.958185,27.8508,41.6231,-12.1988,2.40951,-12.5107,-15.095,7.06328,-21.7868,44.7226,-14.998,-3.30543,-25.7389
-0.416458,17.5237,4.98229,154.7,-85.8748,-140.79,16.2596,-6.32252,0.796958,3.58112,-8.32455,0.232805,-5.2865,-4.14985,1.50851,2.12723,10.4459,10.4787,-1.92987,14.1223,-11.8553,0.689829,7.12918,-5.01858,-1.19271e-14,1.59028e-14,-38.2246,-12.9824,-56.7193,92.8972,-43.7508,-11.0709,-32.7862,7.12502,14.9522,-62.2265,-1.19271e-14,1.59028e-14,3.25952,-6.3272,64.7285,79.1076,-2.41718,-28.2412,2.20241,7.12502,-1.61889,32.176,-41.8618,-0.181925,26.9979,43.8449,-11.3349,1.88721,-13.3379,-14.919,6.38515,-22.5613,41.9113,-16.5254,-4.94137,-16.2368
-0.341711,17.5041,4.99699,165.18,-86.4088,-150.551,16.1829,-6.42876,-0.0715794,3.33674,-8.60851,0.0474662,-5.40644,-4.26952,1.85093,2.11867,10.6933,10.5423,-2.31119,14.4357,-11.7435,0.609607,7.28699,-4.99158,5.1684e-14,1.43125e-14,-37.8031,-12.559,-56.7943,93.0726,-44.1166,-11.191,-33.0229,7.12502,14.8365,-62.4718,5.1684e-14,1.43125e-14,3.45086,-6.24741,64.4547,78.7364,-1.82884,-27.7075,3.02766,7.12502,-1.10344,33.0046,-44.3419,0.382454,25.7395,46.2267,-10.3774,1.15104,-16.235,-14.9207,6.08354,-23.711,39.8707,-18.0229,-4.04587,-21.6272
-0.276131,17.477,5.00496,178.636,-87.0487,-163.643,16.2596,-6.58107,-0.853783,3.30824,-8.95481,-0.225046,-5.39703,-4.42762,2.06914,2.02262,10.9026,10.8478,-2.75141,14.6927,-12.0705,0.572819,7.41626,-5.12591,-8.98507e-14,-6.36111e-15,-37.513,-12.4079,-57.0151,93.3353,-44.2122,-11.483,-33.4363,7.12502,14.5552,-62.9056,-8.98507e-14,-6.36111e-15,3.69657,-6.29725,64.1157,78.1885,-1.06822,-26.8911,3.57954,7.12502,-0.314888,33.559,-46.3831,0.73316,24.3725,48.6301,-9.4379,0.23837,-17.4006,-14.752,5.92699,-24.8414,38.3827,-18.7174,-4.36862,-19.9726
-0.221561,17.459,5.00557,193.728,-87.715,-178.611,16.4805,-6.77487,-1.33229,3.34302,-9.30627,-0.433152,-5.42778,-4.59265,2.20486,2.06947,11.0333,10.8454,-3.27129,14.8404,-12.2343,0.442835,7.49603,-5.18686,2.94201e-14,-5.725e-14,-37.5408,-12.2736,-57.1216,93.7241,-44.1485,-11.8114,-33.7381,7.12502,14.2387,-63.23,2.94201e-14,-5.725e-14,3.68017,-6.49044,64.1319,77.2357,-0.753625,-26.6679,3.46832,7.12502,-0.0993819,33.448,-47.932,0.883741,23.2602,50.8385,-8.99486,-0.645278,-15.3707,-14.6139,5.8483,-25.6515,37.4586,-19.1145,-4.48243,-20.2725
-0.188066,17.4548,5.00501,210.649,-88.4114,-195.607,16.7218,-6.99168,-1.36395,3.3836,-9.60554,-0.52691,-5.51415,-4.73625,2.21335,2.36392,11.0589,10.5515,-3.77513,14.8579,-12.2143,0.226519,7.51894,-5.17624,1.35969e-13,2.8625e-14,-37.8253,-12.1789,-57.0527,94.0613,-44.0518,-11.9658,-33.7336,7.12502,14.09,-63.2359,1.35969e-13,2.8625e-14,3.44751,-6.98145,64.4093,75.8391,-0.674624,-26.8496,3.1395,7.12502,-0.274856,33.1191,-48.8176,0.863911,22.5596,52.7965,-10.4523,-1.1688,-14.8793,-14.3834,5.78703,-26.0084,36.852,-19.1916,-4.44125,-21.86
-0.177859,17.4567,5.00755,233.781,-89.0095,-218.987,16.8956,-7.14551,-0.977409,3.45791,-9.74352,-0.542143,-5.58892,-4.80792,2.03797,2.74541,10.987,10.2176,-4.08798,14.7552,-12.3438,0.0482343,7.4869,-5.20788,1.27222e-14,1.59028e-15,-38.3594,-12.2928,-56.8236,94.3416,-44.0148,-12.1206,-33.5491,7.12502,13.9407,-63.0617,1.27222e-14,1.59028e-15,2.85349,-7.59324,65.1215,74.2359,-0.78918,-27.0062,3.04956,7.12502,-0.426065,33.0289,-49.0173,0.811244,22.265,54.4879,-13.0759,-1.05618,-16.367,-14.041,5.79267,-26.0052,36.5683,-18.9124,-4.69165,-22.4293
-0.18518,17.4641,5.01027,272.165,-89.2084,-257.67,17.0057,-7.2174,-0.511688,3.50186,-9.75655,-0.529289,-5.67454,-4.81919,1.81861,2.98389,10.8848,9.8623,-3.97139,14.6197,-12.5839,0.0226413,7.43402,-5.24393,3.49861e-14,-1.43125e-14,-39.08,-12.4416,-56.4865,94.6337,-44.0752,-12.294,-33.3965,7.12502,13.7736,-62.9206,3.49861e-14,-1.43125e-14,1.81514,-8.04239,66.3982,72.3648,-0.877655,-27.2406,2.9836,7.12502,-0.652421,32.9624,-48.8442,0.760257,22.1579,55.902,-14.619,-0.604316,-17.7169,-13.7276,5.84931,-25.9735,36.5596,-18.359,-4.91229,-22.4831
-0.208964,17.4746,5.00863,299.829,-88.9981,-285.678,17.0472,-7.22808,-0.170225,3.52334,-9.70996,-0.50841,-5.72678,-4.80057,1.65329,3.06537,10.8701,9.54023,-3.47682,14.6156,-12.8488,0.151763,7.43731,-5.26137,-9.14409e-15,3.57812e-14,-39.7584,-12.5979,-56.145,94.7781,-44.1491,-12.2754,-33.1723,7.12502,13.7916,-62.6952,-9.14409e-15,3.57812e-14,0.513848,-8.41778,67.9159,70.1542,-0.494592,-27.7611,2.98267,7.12502,-1.15515,32.9593,-48.3382,0.704076,22.1534,56.9629,-14.721,-0.00992136,-19.5055,-13.4579,5.89779,-25.9963,36.8585,-17.6387,-5.3123,-21.1145
-0.255114,17.4884,5.00045,312.388,-88.6184,-298.623,16.916,-7.19186,0.0310217,3.55938,-9.6273,-0.485898,-5.64819,-4.76609,1.53138,3.14004,10.9551,9.20209,-2.91711,14.7515,-13.0795,0.312314,7.50624,-5.25759,9.54166e-15,-5.725e-14,-40.3274,-12.9077,-55.8227,94.7247,-44.2217,-12.3988,-33.033,7.12502,13.6727,-62.5639,9.54166e-15,-5.725e-14,-1.25012,-8.83856,69.5746,67.9639,0.428951,-28.4502,3.55735,7.12502,-1.82074,33.5293,-47.4381,0.560533,22.2173,57.5413,-14.1554,0.736042,-20.9688,-13.2935,5.90553,-26.0629,37.5949,-16.8899,-5.63055,-20.2264
-0.322069,17.4996,4.9853,318.702,-88.2426,-305.302,16.5962,-7.11169,0.24782,3.57452,-9.48591,-0.476698,-5.49617,-4.70436,1.35187,3.82638,10.8055,9.08968,-2.72164,14.5908,-13.3793,0.255869,7.4489,-5.37337,-6.48038e-14,7.95139e-15,-41.0483,-13.3274,-55.4694,94.7314,-44.4202,-12.9505,-33.1751,7.12502,13.1409,-62.741,-6.48038e-14,7.95139e-15,-3.51776,-9.25279,71.3449,65.78,1.52875,-28.7949,4.13064,7.12502,-2.15366,34.0995,-46.2036,0.423057,22.3723,57.5308,-13.3409,1.32655,-21.8713,-13.4197,6.05538,-26.0944,38.9971,-16.1922,-5.44527,-21.518
-0.403458,17.496,4.96499,324.232,-87.9595,-311.186,16.1421,-7.03158,0.59073,3.59035,-9.32697,-0.487057,-5.29347,-4.63606,1.06476,4.39829,10.6816,8.96198,-2.37322,14.4696,-13.4119,0.244304,7.40131,-5.39435,3.97569e-15,-3.57812e-14,-41.8532,-13.8264,-55.1063,94.7584,-44.7864,-13.4229,-33.2825,7.12502,12.6856,-62.8773,3.97569e-15,-3.57812e-14,-6.09768,-9.3994,73.1059,63.4854,2.16184,-28.754,4.04718,7.12502,-2.11415,34.0165,-44.6478,0.293826,22.6781,56.8881,-12.8316,1.71672,-21.9578,-13.9302,6.50115,-25.9781,41.2372,-15.2656,-5.31176,-21.8717
-0.493838,17.4684,4.93995,331.799,-87.5867,-319.083,15.5628,-7.03451,1.00321,3.66453,-9.27265,-0.50989,-4.97259,-4.62096,0.729158,4.6695,10.6653,8.84843,-1.89175,14.4898,-13.2163,0.319794,7.40911,-5.32067,6.44062e-14,1.98785e-14,-42.5062,-14.4317,-54.8164,94.7474,-45.1102,-13.812,-33.4361,7.12502,12.3104,-63.0537,6.44062e-14,1.98785e-14,-8.86978,-9.33248,74.7272,61.1841,2.64205,-28.963,3.96088,7.12502,-2.31599,33.928,-42.9592,-0.00249275,23.0465,55.7968,-13.5413,1.56711,-20.3791,-15.0104,7.12947,-25.7578,44.4991,-13.9839,-5.00032,-21.5887
-0.576481,17.4335,4.90543,341.313,-86.8766,-328.644,14.8773,-7.14481,1.46252,3.62535,-9.3503,-0.469906,-4.71196,-4.66586,0.455127,4.68685,10.6309,8.77095,-1.29133,14.4826,-12.9067,0.462306,7.39146,-5.19988,-3.97569e-15,-3.81667e-14,-43.3456,-15.0324,-54.4071,94.9851,-45.3666,-14.4689,-33.9543,7.12502,11.677,-63.6089,-3.97569e-15,-3.81667e-14,-11.7979,-9.28499,76.2388,58.8033,2.9106,-28.7262,4.50878,7.12502,-2.08732,34.4783,-41.5251,-0.458924,23.3915,54.4593,-15.4751,0.319504,-19.1526,-16.9933,7.71818,-25.4999,48.6158,-12.2138,-4.2142,-22.1035
-0.634535,17.3687,4.86066,349.75,-85.7215,-336.694,14.0788,-7.33136,1.95615,3.33683,-9.51646,-0.315322,-4.64173,-4.74822,0.301914,4.77634,10.5053,8.73283,-0.72602,14.3538,-12.5653,0.5706,7.31565,-5.08676,1.0297e-13,1.19271e-14,-44.6462,-15.5131,-53.6487,95.5431,-45.7395,-15.0599,-34.3606,7.12502,11.107,-64.0466,1.0297e-13,1.19271e-14,-14.8574,-9.18507,77.716,56.2964,2.67104,-27.3624,5.29834,7.12502,-0.770142,35.2767,-40.8352,-1.09668,23.7398,53.3254,-17.4735,-0.558281,-17.083,-20.0988,8.01566,-25.2947,53.494,-10.1673,-3.21916,-23.3062
-0.708934,17.2868,4.82389,354.287,-85.1754,-341.538,13.6593,-7.26357,2.47963,3.38263,-9.36406,-0.284094,-4.4407,-4.68024,-0.0312755,4.88901,10.3017,8.88327,-0.339598,14.1199,-12.3669,0.6362,7.1933,-5.0544,5.64548e-14,-6.36111e-15,-46.1971,-16.0598,-52.7724,96.3603,-46.1726,-15.3859,-34.3759,7.12502,10.7925,-64.0786,5.64548e-14,-6.36111e-15,-17.9271,-8.92583,78.9976,53.9127,2.47662,-25.6238,5.95819,7.12502,0.909063,35.936,-39.5729,-1.34546,24.204,52.5038,-19.5212,-1.50792,-16.0167,-22.5907,8.71835,-24.9183,58.818,-9.02015,-2.11349,-23.828
-0.773926,17.1931,4.79404,356.606,-84.7955,-344.571,13.7528,-7.13642,2.84773,3.5264,-9.14813,-0.251938,-4.38378,-4.57892,-0.233582,4.83794,10.0928,8.90267,0.00948434,13.8591,-12.2368,0.710418,7.05413,-5.01524,5.60573e-14,-5.56597e-15,-47.803,-16.4813,-51.686,97.2861,-46.602,-15.3495,-34.4863,7.12502,10.8277,-64.1871,5.60573e-14,-5.56597e-15,-21.4031,-8.34525,80.2371,52.0234,2.26942,-24.115,6.78355,7.12502,2.36627,36.7502,-38.2229,-1.68288,24.5976,52.1451,-21.3693,-2.30265,-16.0421,-24.7835,9.12188,-24.591,64.4841,-9.33353,-0.505605,-23.7992
-0.82762,17.1134,4.77406,362.817,-84.5214,-351.713,14.1493,-6.9295,3.77555,3.74344,-8.7344,-0.0859945,-4.46089,-4.38453,-0.60448,4.57303,9.79259,8.60519,0.281662,13.4409,-11.9752,0.749693,6.83024,-4.88691,-5.98342e-14,4.96962e-14,-49.5354,-17.0737,-50.2163,98.2012,-46.9571,-14.9746,-34.6639,7.12502,11.1893,-64.3455,-5.98342e-14,4.96962e-14,-25.1362,-7.60882,81.5639,50.4517,1.83275,-23.111,7.38883,7.12502,3.33593,37.3425,-36.863,-2.31144,25.5081,51.9751,-22.6081,-2.74771,-17.0147,-26.8582,9.24374,-23.7595,70.3335,-10.9836,1.91633,-24.0335
-0.843011,17.0414,4.75082,370.321,-84.9891,-360.657,15.5958,-6.47397,4.458,4.06107,-7.97922,0.10192,-4.92543,-4.02515,-0.786301,4.39732,9.53319,8.45494,0.306179,13.0777,-11.8824,0.731002,6.64262,-4.84007,4.45278e-14,2.14687e-14,-51.113,-17.6634,-48.8628,99.0978,-47.1988,-14.5167,-34.6431,7.12502,11.6308,-64.3003,4.45278e-14,2.14687e-14,-29.025,-6.14093,82.5635,48.8378,1.18984,-22.9813,7.19721,7.12502,3.46117,37.1489,-35.2796,-2.14375,26.5393,51.8609,-22.9998,-2.9274,-17.6836,-28.6046,9.81035,-22.6034,76.3123,-13.3279,4.09045,-20.9073
-0.86378,16.9882,4.74998,388.08,-85.2588,-380.24,17.346,-6.24311,5.92846,4.57457,-7.36055,0.366017,-5.4102,-3.74687,-1.29662,4.35761,9.46235,8.5825,0.0979608,12.9773,-12.0472,0.685275,6.5967,-4.91502,2.16675e-14,-8.34896e-15,-52.1418,-17.9921,-48.0172,99.8725,-47.419,-14.2011,-34.6834,7.12502,11.9351,-64.3231,2.16675e-14,-8.34896e-15,-33.1221,-3.63276,82.7992,47.1792,0.37556,-23.3384,7.2131,7.12502,3.11626,37.1701,-33.1003,-2.06627,28.2449,51.5182,-23.1919,-2.27039,-15.6893,-29.8545,10.3375,-20.472,82.1855,-15.5755,4.69126,-17.4039
-0.873843,16.9483,4.7635,408.801,-84.6523,-402.323,18.789,-6.24781,7.93525,4.96467,-6.91686,0.690904,-5.88823,-3.56486,-2.04127,4.33217,9.47452,8.7888,-0.14989,12.9905,-12.2097,0.642555,6.60877,-4.99892,3.08116e-14,-2.94201e-14,-52.8291,-18.1589,-47.5503,100.523,-47.6844,-14.0834,-34.7523,7.12502,12.0487,-64.3854,3.08116e-14,-2.94201e-14,-37.412,-0.540797,82.2554,45.458,-0.899335,-23.8015,7.95208,7.12502,2.66909,37.9151,-31.4065,-2.19854,30.3457,51.1093,-23.2018,-1.18126,-11.642,-31.7388,10.4672,-17.903,87.7637,-17.025,4.04154,-17.299
-0.874446,16.917,4.7763,423.103,-83.2249,-417.578,19.9406,-6.38737,10.0775,5.24581,-6.5866,1.07291,-6.30975,-3.44515,-2.80247,4.36924,9.49143,8.9292,-0.419805,13.0079,-12.1641,0.565466,6.62347,-5.01587,-1.21259e-14,2.0276e-14,-53.3388,-18.3244,-47.2927,101.042,-48.0019,-14.0765,-34.4096,7.12502,12.0554,-64.0424,-1.21259e-14,2.0276e-14,-41.7259,2.7915,81.0303,43.5678,-2.94205,-24.481,8.89448,7.12502,2.0128,38.8647,-30.0943,-2.41689,32.6571,50.5478,-23.0612,-0.528176,-9.86707,-34.2409,10.232,-15.0684,92.9163,-17.8905,2.00542,-17.5836
-0.880953,16.9314,4.77657,421.604,-83.9774,-416.606,20.6478,-6.16992,9.28812,5.47453,-6.42405,0.834646,-6.35842,-3.35954,-2.62549,4.47727,9.42048,8.91834,-0.763457,12.899,-11.9333,0.419415,6.576,-4.96679,-3.91606e-14,4.45278e-14,-53.7074,-18.7508,-47.037,101.272,-48.2151,-14.1924,-33.9462,7.12502,11.9436,-63.5855,-3.91606e-14,4.45278e-14,-45.8364,6.05467,79.3221,41.4374,-5.7621,-24.937,10.0897,7.12502,1.57237,40.0636,-29.2824,-2.6417,31.8933,50.09,-22.8777,-0.338465,-10.4507,-36.858,9.06656,-15.6544,96.9239,-18.4417,0.0166083,-18.5374
-0.885221,16.9671,4.77696,419.161,-84.4297,-414.631,21.2819,-5.95535,8.69203,5.72967,-6.24092,0.723002,-6.34114,-3.26608,-2.43261,4.37306,9.25614,9.01336,-0.914691,12.6703,-11.8552,0.368576,6.4605,-4.96448,7.17613e-14,-4.09496e-14,-53.9395,-19.4035,-46.7501,101.18,-48.2048,-14.2638,-33.7982,7.12502,11.8747,-63.4415,7.17613e-14,-4.09496e-14,-49.7517,9.05468,77.2979,39.1551,-8.94703,-25.0537,11.1077,7.12502,1.45975,41.0825,-28.4166,-2.64739,31.3486,49.4737,-22.5755,-0.698625,-11.6538,-39.6118,7.66206,-16.0395,100.141,-18.5167,-1.95273,-20.449
-0.887294,17.0186,4.77699,416.757,-84.7097,-412.554,21.8046,-5.77087,8.07355,6.00001,-6.11796,0.679453,-6.24748,-3.20133,-2.14691,4.00885,9.13703,9.42495,-0.857939,12.5153,-12.0081,0.463614,6.37353,-5.05458,2.78299e-15,7.95139e-16,-53.9031,-20.1019,-46.6798,100.806,-48.0796,-14.1249,-33.5858,7.12502,12.0086,-63.2213,2.78299e-15,7.95139e-16,-53.5044,11.6125,75.0998,36.9512,-11.269,-24.5502,11.8469,7.12502,1.946,41.8178,-27.6277,-2.31923,30.9611,48.7174,-22.163,-1.34121,-12.2052,-42.5667,6.14256,-16.2959,102.459,-18.3071,-3.82208,-21.9883
-0.884488,17.0817,4.77802,415.806,-84.7056,-411.878,22.309,-5.59039,7.75985,6.26616,-5.93795,0.702153,-6.16308,-3.11397,-1.97626,3.72546,9.01826,9.826,-0.892976,12.357,-12.0661,0.510723,6.28732,-5.12332,-3.12092e-14,2.70347e-14,-53.9595,-20.8762,-46.6326,100.298,-48.0345,-13.9723,-33.1154,7.12502,12.1558,-62.7422,-3.12092e-14,2.70347e-14,-56.9988,13.2422,73.2184,34.8487,-12.1285,-23.2847,12.6393,7.12502,3.16817,42.5955,-26.7465,-1.79616,30.9198,47.6346,-21.6554,-2.00114,-10.8915,-45.5623,4.4791,-16.144,103.879,-18.1245,-5.4568,-23.7937
-0.87774,17.1593,4.7871,415.593,-84.5755,-411.974,22.9058,-5.32712,7.84492,6.50494,-5.55238,0.781507,-6.16229,-2.93361,-2.01915,3.49554,8.7518,9.93098,-1.01247,11.9817,-11.9664,0.471442,6.09381,-5.11479,8.94531e-15,-1.09332e-14,-54.4802,-21.8142,-46.1746,99.8385,-48.241,-13.9822,-32.6308,7.12502,12.1463,-62.2582,8.94531e-15,-1.09332e-14,-60.1159,13.7044,72.155,32.7475,-12.5466,-22.4738,13.046,7.12502,3.95123,42.9891,-25.7021,-1.25174,31.0088,46.3138,-21.2433,-2.68791,-9.04384,-48.3191,2.58318,-15.8063,104.228,-17.654,-6.79026,-25.809
-0.865173,17.242,4.80074,416.78,-84.6307,-413.522,23.6574,-4.92602,7.9016,6.7556,-4.9843,0.895195,-6.20018,-2.66838,-2.05803,3.15802,8.40693,9.85061,-1.14417,11.4831,-11.8927,0.423423,5.83595,-5.08509,5.56597e-15,-4.13472e-14,-55.1115,-22.8376,-45.4219,99.3378,-48.6961,-13.8767,-32.1358,7.12502,12.248,-61.7572,5.56597e-15,-4.13472e-14,-62.9339,13.4403,71.823,30.7959,-13.1182,-21.8597,13.2181,7.12502,4.54424,43.1494,-24.5549,-0.528901,31.007,44.8516,-20.3135,-3.48678,-9.39434,-50.6902,0.811247,-15.4833,103.388,-17.7345,-8.12125,-25.8602
-0.850489,17.325,4.81393,418.206,-84.9425,-415.434,24.628,-4.45279,7.68677,7.05177,-4.38008,0.981445,-6.27696,-2.38818,-1.98122,2.70273,8.09043,9.76519,-1.29297,11.0122,-11.9584,0.40152,5.58966,-5.08976,-2.99171e-14,1.799e-14,-55.5366,-23.8505,-44.6316,98.743,-49.3308,-13.6946,-31.5561,7.12502,12.4236,-61.1669,-2.99171e-14,1.799e-14,-65.4967,12.8086,72.0151,29.1492,-13.5216,-20.8252,13.5585,7.12502,5.54313,43.466,-23.2827,0.228532,30.7981,43.4447,-19.6508,-4.13595,-9.02797,-52.4668,-0.705938,-15.3269,101.342,-17.7886,-9.01888,-26.098
-0.840576,17.4064,4.83261,418.794,-85.3282,-416.543,25.6046,-4.04399,7.48222,7.40581,-3.87639,0.983159,-6.3072,-2.15708,-1.98183,2.06117,7.86258,9.76035,-1.46453,10.648,-12.1232,0.425519,5.39152,-5.12523,1.79652e-14,-2.56432e-14,-55.7484,-24.8328,-43.9879,98.0973,-49.9182,-13.641,-31.043,7.12502,12.4753,-60.6506,1.79652e-14,-2.56432e-14,-67.707,12.0929,72.3573,27.6028,-14.19,-19.4623,14.1545,7.12502,6.85892,44.0234,-21.9879,0.74098,30.4466,42.1483,-19.1572,-4.48782,-7.86446,-53.6891,-2.09386,-15.3327,98.1829,-18.3856,-8.90201,-27.3847
-0.8337,17.4581,4.8557,419.254,-85.7783,-417.358,26.3388,-3.7015,7.28447,7.76515,-3.48747,0.90978,-6.22494,-1.97785,-2.05158,1.22625,7.77793,9.6648,-1.61556,10.4616,-12.1152,0.492034,5.27507,-5.08027,-2.77118e-14,-1.95927e-14,-55.8287,-25.7157,-43.5088,97.4278,-50.148,-13.1942,-30.6418,7.12502,12.906,-60.2227,-2.77118e-14,-1.95927e-14,-69.7641,11.6742,72.2381,26.0684,-15.8626,-18.1104,14.9546,7.12502,8.1638,44.7769,-21.0275,1.12242,30.0049,41.0771,-18.6378,-4.76828,-8.09451,-54.7592,-3.29602,-15.3986,94.1323,-19.3575,-7.80433,-28.7047
-0.825161,17.5139,4.87183,422.054,-86.3029,-420.279,26.7935,-3.28898,7.00319,8.06993,-3.04783,0.859649,-6.05732,-1.77112,-2.07902,0.890515,7.6338,9.65994,-2.25487,10.197,-12.2971,0.341751,5.13934,-5.14494,-2.82771e-14,1.99033e-14,-55.9337,-26.5219,-42.995,96.898,-50.1126,-12.2913,-30.167,7.12502,13.7763,-59.6908,-2.82771e-14,1.99033e-14,-71.7026,11.5743,71.467,24.3602,-18.2065,-17.8183,16.0352,7.12502,8.4457,45.8463,-20.4164,1.74967,29.5794,40.165,-18.0198,-5.10628,-9.52663,-55.542,-4.06306,-15.3472,89.0613,-20.1044,-6.45998,-28.6822
-0.819143,17.56,4.88504,428.802,-86.7584,-426.918,26.9873,-2.82392,6.81044,8.26203,-2.52072,0.865585,-5.88351,-1.52003,-2.13063,0.663452,7.54393,9.58159,-2.86096,10.0119,-12.4383,0.186121,5.04642,-5.18717,-1.35671e-14,4.96962e-16,-56.1989,-27.1855,-42.3537,96.629,-50.2009,-11.7239,-29.8486,7.12502,14.323,-59.3346,-1.35671e-14,4.96962e-16,-73.5072,11.7126,69.8895,22.2704,-20.5417,-18.2555,17.184,7.12502,8.02372,47.0117,-20.1685,2.60328,29.2673,39.4714,-17.6399,-5.40649,-10.347,-56.0354,-4.47055,-15.1077,83.0988,-20.2383,-5.37587,-27.4641
-0.819821,17.5923,4.89983,436.899,-87.3064,-434.759,26.9805,-2.37863,6.58067,8.33391,-2.0279,0.806679,-5.75517,-1.28122,-2.22398,0.667349,7.51658,9.59811,-3.52844,9.92022,-12.7596,0.000310533,5.00894,-5.30692,-3.67752e-15,5.26779e-15,-56.7319,-27.5867,-41.5635,96.6962,-50.605,-11.5929,-29.8958,7.12502,14.4493,-59.3727,-3.67752e-15,5.26779e-15,-75.4611,12.2781,66.6425,19.9109,-23.528,-20.9555,19.15,7.12502,5.41731,49.0607,-20.1255,3.32816,28.7498,38.9039,-17.6047,-5.51593,-10.6248,-56.107,-4.80918,-14.9954,76.2617,-20.0425,-4.47921,-25.8758
-0.822318,17.6141,4.91536,448.806,-88.0662,-446.371,26.8726,-2.00192,6.08595,8.33096,-1.6926,0.61653,-5.67868,-1.11535,-2.25992,1.00263,7.65958,9.86156,-4.37451,10.0657,-13.3859,-0.23407,5.10453,-5.5696,-2.18663e-15,4.17448e-15,-57.2776,-27.6732,-40.9012,97.0373,-51.0955,-11.4434,-30.1407,7.12502,14.5933,-59.6073,-2.18663e-15,4.17448e-15,-77.862,13.3418,61.1082,17.5191,-27.6885,-26.6553,24.8804,7.12502,-0.0871454,54.8601,-20.2066,3.84347,27.9021,38.4614,-17.7268,-5.27297,-9.88394,-55.7212,-5.15965,-15.1054,68.7029,-19.4065,-4.19432,-23.4671
-0.82123,17.6292,4.93124,473.082,-88.5333,-470.391,26.825,-1.80498,5.54092,8.23488,-1.58649,0.397414,-5.75602,-1.0624,-2.22237,1.72966,8.117,10.3937,-5.39206,10.6514,-14.3176,-0.493074,5.4397,-5.97791,-1.88845e-14,5.56597e-15,-57.4612,-27.3216,-40.6855,97.421,-51.3283,-11.2961,-30.4293,7.12502,14.7352,-59.8856,-1.88845e-14,5.56597e-15,-81.1819,14.8616,52.669,15.3683,-33.2758,-30.1505,32.3506,7.12502,-3.4628,62.3022,-20.4086,4.15863,27.1811,38.2399,-18.0411,-4.75906,-8.52842,-54.9456,-5.55809,-14.971,60.7465,-18.0175,-4.66306,-21.0814
-0.814112,17.639,4.94723,501.589,-88.391,-498.766,26.8205,-1.69971,5.23322,8.06177,-1.52572,0.201856,-5.94528,-1.03279,-2.27809,3.07015,8.71973,11.0841,-6.62041,11.4642,-15.5471,-0.844351,5.92296,-6.53872,-4.87022e-15,-5.36719e-15,-57.6678,-26.7216,-40.5208,97.9109,-51.3694,-11.2657,-30.6888,7.12502,14.7645,-60.1429,-4.87022e-15,-5.36719e-15,-85.6652,16.2231,40.2564,13.487,-41.5425,-28.6492,36.4453,7.12502,-2.01292,66.4155,-20.5731,4.2427,26.7373,38.1391,-18.3813,-4.0394,-7.79755,-53.874,-6.04616,-14.4396,53.0069,-16.6314,-4.78939,-23.5748
-0.81314,17.6058,4.96652,520.008,-87.7724,-517.24,26.7923,-1.629,4.98944,7.9805,-1.51196,-0.0354968,-6.02522,-1.02585,-2.40349,4.52829,9.37813,11.2182,-8.17803,12.3515,-15.7583,-1.3934,6.43976,-6.73466,-2.64384e-14,-3.43897e-14,-57.738,-26.1012,-40.606,98.57,-51.3921,-11.0726,-30.8401,7.12502,14.9506,-60.2805,-2.64384e-14,-3.43897e-14,-90.8915,16.6361,24.6263,11.9466,-52.0987,-15.0965,22.2412,7.12502,11.0717,51.9291,-20.6236,4.19884,26.4366,38.1926,-18.6793,-3.11247,-7.60327,-52.8007,-6.69515,-13.5406,46.1804,-12.8988,-6.18033,-24.4934
-0.811969,17.5701,4.98587,523.057,-86.8184,-520.454,26.7563,-1.23257,5.47587,8.34471,-0.935898,0.0119573,-5.55275,-0.749278,-2.814,3.59189,9.77626,10.4748,-8.71344,12.7215,-15.5819,-1.40559,6.60602,-6.51927,8.74653e-15,5.96354e-15,-57.9922,-26.8275,-39.8432,99.2825,-51.5327,-10.7133,-30.871,7.12502,15.2967,-60.2853,8.74653e-15,5.96354e-15,-94.9101,16.3531,8.09367,10.696,-64.6892,-15.3581,23.6282,7.12502,10.8194,53.3295,-20.5923,4.17996,26.5987,38.3426,-18.9918,-2.12851,-7.60182,-51.7966,-7.27821,-12.1923,41.0222,-9.58351,-7.578,-22.254
-0.810936,17.534,5.00811,520.483,-85.9021,-518.051,26.7694,-1.23423,5.89416,8.33041,-0.836738,0.0312826,-5.56371,-0.704417,-3.06282,4.02104,10.3358,10.3559,-9.38166,13.4431,-15.7458,-1.5716,6.99794,-6.57993,-5.96354e-15,1.35174e-14,-57.8229,-26.4276,-39.94,99.8849,-51.641,-10.7073,-31.0023,7.12502,15.3025,-60.4162,-5.96354e-15,1.35174e-14,-98.8865,14.5175,-7.12898,10.0473,-75.8472,-13.5571,26.1544,7.12502,12.5562,55.7571,-20.5503,3.92941,27.051,38.5467,-19.4074,-0.98916,-7.1612,-51.0127,-7.54266,-11.0245,38.1368,-8.59786,-8.93359,-24.9845
-0.820506,17.4836,5.03776,516.802,-85.0821,-514.531,26.7672,-1.41322,6.49164,8.26834,-0.910939,0.0628942,-5.63556,-0.743534,-3.34705,4.52288,11.0114,10.3279,-9.85449,14.3415,-16.0946,-1.64705,7.48521,-6.70061,-3.926e-15,-6.36111e-15,-57.258,-25.9145,-40.3745,100.199,-51.5101,-11.0496,-31.272,7.12502,14.9727,-60.7107,-3.926e-15,-6.36111e-15,-98.8018,14.5795,-7.01139,9.58505,-73.0056,-11.7086,28.1393,7.12502,14.3378,57.6242,-20.4832,3.48021,27.5874,38.797,-19.8861,0.255608,-6.59593,-50.3672,-6.97048,-10.7226,37.4317,-7.52444,-10.6915,-22.5384
-0.844586,17.425,5.0715,505.913,-83.8432,-503.794,26.8219,-1.78071,7.96812,8.20771,-0.985202,0.337163,-5.72477,-0.788156,-3.86488,4.95978,11.6904,10.3726,-10.2093,15.2531,-16.4825,-1.66347,7.97615,-6.83229,-1.19271e-14,-2.3556e-14,-56.4741,-25.4653,-40.9669,100.223,-51.2152,-11.1809,-31.4679,7.12502,14.8462,-60.916,-1.19271e-14,-2.3556e-14,-98.7839,14.6985,-6.97311,9.16394,-70.6485,-10.4204,30.3295,7.12502,15.5787,59.7221,-20.2441,3.3437,29.1352,38.9619,-20.2165,1.07556,-6.60072,-49.6367,-5.55583,-10.1492,38.6022,-7.18906,-11.2436,-26.3713
-0.882655,17.4007,5.1034,506.683,-83.577,-504.532,26.6245,-1.98895,8.05966,8.13408,-1.23836,0.266387,-5.74401,-0.908166,-3.91814,5.61576,12.2981,11.0078,-10.698,16.0864,-17.4954,-1.65082,8.44744,-7.25597,2.19409e-14,3.71727e-14,-55.7607,-25.1795,-41.6159,100.067,-50.8267,-10.9439,-31.4107,7.12502,15.0746,-60.8419,2.19409e-14,3.71727e-14,-98.6495,15.0613,-6.94412,8.85228,-68.6154,-8.82227,30.9469,7.12502,17.1175,60.2129,-20.2224,3.11569,29.0517,39.0952,-20.496,1.78559,-6.68293,-49.1111,-4.6285,-11.0867,40.8413,-5.43261,-11.0335,-24.7377
-0.930865,17.3953,5.12886,505.831,-83.2923,-503.665,26.5108,-2.15495,8.25452,8.0428,-1.39783,0.270836,-5.81122,-0.986223,-3.97526,6.557,12.9032,12.5275,-11.2049,16.9715,-19.5796,-1.47535,8.98262,-8.13651,-8.33537e-15,-3.05321e-15,-55.2876,-25.009,-42.1867,99.7406,-50.4028,-10.7185,-31.2434,7.12502,15.2916,-60.6581,-8.33537e-15,-3.05321e-15,-98.3332,15.6781,-6.83664,8.81285,-66.9999,-8.70573,31.3042,7.12502,17.2297,60.5603,-20.0073,2.95732,29.1516,38.9771,-20.7115,2.35553,-6.35362,-48.4573,-3.87245,-11.7421,43.9135,-3.99685,-10.3335,-21.1421
-0.983504,17.4193,5.14499,507.415,-83.1442,-505.155,26.3848,-2.16226,8.04305,7.91426,-1.4548,0.21538,-5.90305,-1.01368,-3.89838,7.05875,13.5167,12.9785,-11.5661,17.8484,-20.1131,-1.42123,9.45897,-8.35912,5.10628e-15,-1.07841e-14,-54.9611,-25.0197,-42.7438,99.1581,-49.9581,-10.7166,-31.1277,7.12502,15.2935,-60.5422,5.10628e-15,-1.07841e-14,-97.9433,16.2957,-6.64351,9.38398,-65.5897,-8.93081,30.6553,7.12502,17.013,59.9303,-19.7779,3.07378,28.9198,38.6875,-20.8471,2.63225,-6.76568,-47.6484,-3.27223,-12.5586,47.265,-2.80755,-9.31941,-16.3984
-1.03855,17.4671,5.1597,509.833,-82.9869,-507.26,26.0257,-2.09702,7.75542,7.73484,-1.44872,0.117771,-5.93036,-1.00464,-3.84753,6.70646,13.8453,14.4258,-10.9767,18.4216,-21.4276,-0.807493,9.73682,-8.83121,1.77415e-14,-1.01877e-14,-54.7492,-25.1427,-43.3451,98.4185,-49.4542,-10.7475,-30.8547,7.12502,15.2637,-60.2715,1.77415e-14,-1.01877e-14,-97.4672,17.0834,-6.46732,10.2497,-64.3563,-9.97727,28.9163,7.12502,16.0055,58.2751,-19.6224,3.28765,28.5931,38.1577,-20.8966,2.71794,-8.76549,-46.9577,-2.69269,-13.3822,50.7762,-2.15252,-8.09889,-15.7604
-1.0984,17.5249,5.18079,512.459,-82.8256,-509.377,25.4678,-2.04918,7.569,7.48243,-1.44373,-0.0206637,-5.9411,-0.992347,-3.90143,6.87566,14.3175,14.7478,-10.8549,19.1387,-21.6017,-0.621076,10.1009,-8.86628,-2.30093e-14,1.81888e-14,-54.6581,-25.1922,-43.9143,97.6115,-49.0606,-10.6874,-30.3735,7.12502,15.3216,-59.7859,-2.30093e-14,1.81888e-14,-93.4566,19.2472,4.01319,11.1216,-53.584,-10.7251,28.9918,7.12502,15.2853,58.407,-19.5798,3.37046,28.2124,37.5125,-21.1181,2.95465,-11.0873,-46.3571,-2.06702,-14.2717,54.1265,-2.05706,-7.17725,-17.1132
-1.15952,17.587,5.20741,516.428,-82.732,-512.738,24.8216,-2.03064,7.31767,7.17886,-1.4965,-0.268161,-5.97123,-1.0061,-4.02143,7.37644,14.8758,13.9789,-11.0218,19.9114,-20.6146,-0.816565,10.4925,-8.46243,-1.88845e-15,-4.17448e-15,-54.4898,-25.2362,-44.5471,96.5958,-48.7063,-10.4943,-29.8963,7.12502,15.5076,-59.2944,-1.88845e-15,-4.17448e-15,-89.2969,20.7762,12.9312,12.3208,-44.4903,-10.4658,28.7944,7.12502,15.535,58.1904,-19.6766,3.29148,27.5879,36.8862,-21.5622,3.54999,-13.4156,-45.6785,-1.37879,-15.4443,57.0535,-2.28873,-6.55678,-17.9674
-1.2209,17.6466,5.23448,520.546,-82.5761,-516.155,24.0842,-1.54361,7.50157,6.30627,-0.749389,-0.180604,-6.47893,-0.64941,-4.25359,8.73669,14.3472,13.2019,-10.4105,19.3256,-19.7684,-1.14168,10.2402,-8.26633,-6.66395e-15,3.01749e-15,-56.2707,-25.1782,-42.8525,95.5326,-48.5464,-10.2112,-29.56,7.12502,15.7803,-58.9367,-6.66395e-15,3.01749e-15,-84.0625,20.1043,23.0196,13.9275,-36.132,-13.0376,27.6136,7.12502,13.057,57.1849,-19.9489,3.11921,26.9536,36.3499,-21.9232,4.20225,-16.0803,-44.9231,-0.571051,-16.6607,59.3209,-2.52171,-6.12147,-19.5286
-1.28458,17.6901,5.25993,523.88,-82.3438,-518.76,23.304,-1.11269,7.84487,6.51683,-0.204393,-0.316756,-5.77454,-0.357179,-4.75657,5.6991,14.4745,12.228,-8.86301,19.305,-19.0438,-0.384102,10.0708,-7.56231,2.08724e-15,2.48481e-15,-56.0698,-26.9612,-42.4428,94.2517,-48.1814,-10.0323,-29.3343,7.12502,15.9526,-58.6973,2.08724e-15,2.48481e-15,-77.8434,20.6319,32.0504,15.76,-28.9852,-14.7877,26.6382,7.12502,11.3695,56.3099,-20.3481,2.88506,26.4628,35.9715,-22.0046,4.94157,-17.8104,-44.0939,0.292912,-17.75,60.8148,-2.60446,-5.95046,-21.4232
-1.34616,17.7289,5.28288,526.771,-82.1048,-520.973,22.5327,-1.04572,7.6769,5.97931,-0.148043,-0.466826,-5.971,-0.326192,-4.83948,5.88236,14.281,12.0793,-8.02821,19.1473,-18.4103,-0.283868,9.9689,-7.34857,2.42269e-14,9.88954e-15,-56.1796,-26.659,-42.5057,93.2814,-48.1422,-10.0324,-29.1093,7.12502,15.9524,-58.4724,2.42269e-14,9.88954e-15,-73.7014,19.3828,39.1706,18.067,-22.3741,-15.104,26.6183,7.12502,11.0644,56.3067,-20.7664,2.61235,26.0459,35.7572,-22.2058,5.51542,-18.8558,-43.0242,1.12711,-18.7636,61.3961,-2.55261,-5.94707,-23.4946
-1.40827,17.7529,5.30324,528.583,-81.9425,-522.241,21.8598,-0.968026,7.64038,5.6656,-0.067096,-0.547108,-5.96012,-0.279416,-4.92598,5.1312,13.9765,11.565,-6.85955,18.7594,-17.6168,-0.0183388,9.71027,-6.96101,1.06847e-15,-1.16786e-14,-56.1143,-26.7065,-42.4409,92.5551,-48.351,-10.0552,-28.7606,7.12502,15.9304,-58.1255,1.06847e-15,-1.16786e-14,-69.6601,18.4761,44.5374,20.4796,-17.7175,-18.1286,24.5124,7.12502,8.14622,54.3354,-21.1364,2.26028,25.7705,35.7928,-22.8319,5.55598,-20.1481,-41.6896,1.91394,-19.6278,61.1582,-2.11879,-5.89904,-25.2729
-1.46932,17.7643,5.32477,531.09,-81.9594,-524.358,21.1821,-1.21736,7.09516,4.96219,-0.476719,-0.657975,-6.4432,-0.4818,-4.62652,6.13575,13.4316,11.2165,-6.06961,18.1641,-16.4486,-0.191952,9.4132,-6.67201,-1.34801e-14,-1.59525e-14,-56.1218,-25.2479,-42.7708,92.0963,-48.68,-10.0258,-28.6757,7.12502,15.9588,-58.0383,-1.34801e-14,-1.59525e-14,-67.3856,17.2838,48.2781,23.3325,-13.6317,-19.5697,22.9582,7.12502,6.75524,52.8304,-21.5203,1.7612,25.3361,36.1335,-23.5407,5.66057,-21.1264,-40.1314,2.61191,-20.633,60.2255,-1.8433,-7.00129,-25.0737
-1.52373,17.7529,5.34853,533.158,-82.0567,-526.105,20.5839,-0.942037,7.30219,5.39897,-0.165419,-0.712017,-5.60837,-0.299155,-4.88046,1.19651,12.529,9.91461,-3.07014,16.788,-15.0236,1.04737,8.47091,-5.66852,1.09332e-15,-6.90777e-15,-55.8144,-26.7573,-42.1058,91.6441,-48.745,-9.86432,-28.6915,7.12502,16.1143,-58.0415,1.09332e-15,-6.90777e-15,-61.8269,16.6887,52.8541,25.7689,-10.8374,-20.6059,21.0394,7.12502,5.75486,50.9413,-22.107,1.22622,24.9526,36.9279,-23.8863,5.86497,-22.0545,-38.5657,3.26648,-21.5687,58.8535,-0.985578,-7.50971,-23.7247
-1.57488,17.7113,5.37281,532.169,-82.1244,-524.942,19.9859,-1.07726,7.37907,5.23363,-0.341811,-0.654694,-5.50018,-0.376987,-4.81635,0.343173,11.5096,8.61047,-1.81269,15.4192,-13.2562,1.13182,7.73219,-4.96632,-7.51655e-15,4.06018e-14,-55.6838,-26.3983,-41.9566,91.2961,-48.682,-9.59753,-28.5807,7.12502,16.3712,-57.9097,-7.51655e-15,4.06018e-14,-58.483,15.5923,56.116,28.946,-7.56474,-21.5856,18.9682,7.12502,4.80889,48.8936,-22.834,0.771289,25.0317,38.3464,-23.8577,5.89794,-22.6427,-36.9021,3.98252,-22.0316,57.2293,-0.379703,-7.27907,-21.6144
-1.62264,17.6414,5.39878,530.437,-82.1266,-523.282,19.61,-1.06417,7.67078,5.37373,-0.305959,-0.601251,-5.14301,-0.345867,-4.93209,-1.55135,10.1654,6.93713,-0.296293,13.5901,-10.7657,1.53515,6.75014,-4.38703,1.1455e-14,1.93815e-14,-55.5585,-26.7755,-41.5715,91.0789,-48.572,-9.3817,-28.7356,7.12502,16.579,-58.0474,1.1455e-14,1.93815e-14,-54.3885,14.5594,59.1549,32.5816,-4.13024,-21.6283,17.8118,7.12502,4.76768,47.7382,-23.6951,0.523163,25.19,40.5282,-23.7624,6.05408,-21.7994,-35.0463,4.72368,-22.345,55.4385,-1.51436,-7.78614,-19.5453
-1.66514,17.5468,5.43194,530.041,-82.1706,-523.138,19.2949,-1.52463,7.11533,4.87946,-0.97783,-0.579107,-5.60743,-0.683001,-4.42979,-0.07345,8.9551,6.29078,0.213246,12.0291,-9.45944,1.13868,6.00539,-3.96849,2.83268e-14,-2.58917e-14,-55.0887,-24.9008,-42.039,91.0161,-48.7218,-9.43553,-29.2746,7.12502,16.5272,-58.5908,2.83268e-14,-2.58917e-14,-52.8307,13.9128,60.6302,37.0523,-0.80043,-21.72,18.2311,7.12502,4.6791,48.1595,-24.8657,0.296675,25.0566,43.5224,-23.5776,6.72359,-19.3007,-33.1731,5.22235,-22.7905,53.5967,-5.37594,-9.34622,-13.5732
-1.69814,17.4457,5.47768,530.778,-82.36,-524.201,19.0432,-1.73234,6.99542,5.06482,-1.31313,-0.686144,-5.31737,-0.833892,-4.39985,-1.44796,7.43528,4.76936,1.43664,9.9818,-7.67888,1.39643,4.94014,-3.08002,2.08227e-14,2.28602e-15,-54.3485,-24.8524,-42.0683,90.9231,-48.9467,-9.71002,-29.6199,7.12502,16.2629,-58.9578,2.08227e-14,2.28602e-15,-49.2835,13.1745,62.784,41.1219,0.793228,-24.0673,17.572,7.12502,2.4124,47.5381,-26.4822,-0.157368,24.6196,47.3207,-22.9734,6.85415,-22.8884,-31.479,5.19376,-23.3423,51.878,-8.28443,-10.9955,-8.28651
-1.70971,17.3554,5.52749,530.915,-82.5582,-524.665,18.9668,-2.04899,6.88276,5.19611,-1.77244,-0.809058,-5.19481,-1.05254,-4.36109,-1.60419,5.62668,3.38635,1.65744,7.55261,-6.08167,1.18688,3.72821,-2.36963,8.15017e-15,-1.88845e-14,-53.4829,-24.6787,-42.3,90.8781,-48.9758,-9.7852,-29.5263,7.12502,16.1905,-58.8701,8.15017e-15,-1.88845e-14,-45.8738,12.4737,64.5072,45.3857,2.21928,-26.6015,16.0948,7.12502,-0.0351691,46.0745,-28.6437,-0.475828,24.2083,51.7936,-21.2666,7.53732,-25.1906,-30.1909,4.65268,-23.6713,50.4819,-10.5803,-12.0287,-4.29088
-1.69834,17.2756,5.57257,530.957,-82.9195,-525.148,19.2297,-2.59583,6.49296,5.19535,-2.55396,-1.00355,-5.42889,-1.43865,-4.15355,-1.49581,4.23394,2.60021,1.82313,5.68326,-4.68622,1.04511,2.80444,-1.82077,-2.96189e-14,8.94531e-15,-52.5082,-23.9533,-42.9963,90.9471,-48.6325,-9.69746,-29.6221,7.12502,16.275,-58.9591,-2.96189e-14,8.94531e-15,-42.8911,11.9687,65.41,50.028,4.09984,-27.6953,15.7656,7.12502,-1.09159,45.7425,-31.2074,-0.688183,23.7063,56.7339,-18.0703,8.64329,-28.1892,-29.206,3.681,-23.9628,49.4961,-12.7799,-12.0358,-4.23075
-1.67134,17.2065,5.61032,534.958,-83.7587,-529.885,19.8479,-3.26203,5.52228,5.19431,-3.59926,-1.35357,-5.85391,-1.9518,-3.69396,-0.93124,2.87487,2.05119,1.78289,3.86277,-3.67746,0.825126,1.90752,-1.44194,8.94531e-15,-2.0276e-14,-51.5537,-23.0759,-43.8312,90.9744,-47.996,-9.59624,-29.9961,7.12502,16.3724,-59.3251,8.94531e-15,-2.0276e-14,-39.9761,11.4761,65.8522,54.6954,5.43695,-27.9169,15.5482,7.12502,-1.30562,45.5239,-33.8783,-1.08815,22.4917,61.8741,-13.9419,10.2258,-31.3468,-28.2226,2.51948,-24.9121,48.8558,-14.4003,-11.4008,-5.74895
-1.63234,17.1496,5.63276,546.274,-84.789,-542.136,20.6341,-3.67231,4.11471,5.39316,-4.43422,-1.78746,-6.08009,-2.35296,-3.11286,-0.812698,1.20487,1.1499,1.78347,1.6283,-2.53286,0.712197,0.79639,-0.952786,-1.59028e-14,2.3059e-14,-50.9077,-22.9443,-44.1814,90.8591,-47.2815,-9.21708,-30.057,7.12502,16.7375,-59.3555,-1.59028e-14,2.3059e-14,-36.2331,10.3356,66.6067,59.0544,5.87231,-27.9125,15.4663,7.12502,-1.3014,45.4421,-36.5645,-1.45796,20.549,66.9007,-9.73272,11.3059,-34.7077,-27.2343,1.63469,-26.5051,48.4287,-14.9188,-10.9168,-5.48196
-1.58577,17.1086,5.6358,565.087,-85.3688,-561.831,21.4476,-3.88141,2.40759,5.9835,-5.13222,-2.32495,-5.83714,-2.68964,-2.51301,-2.11118,-0.455714,0.308142,1.93422,-0.591752,-1.20115,0.935099,-0.309489,-0.42675,3.57812e-15,-1.74931e-14,-49.8965,-23.702,-44.8245,90.65,-46.5662,-8.59801,-29.6467,7.12502,17.3334,-58.8938,3.57812e-15,-1.74931e-14,-31.2468,9.03784,67.248,62.768,4.94252,-28.2807,14.8622,7.12502,-1.65699,44.8355,-39.2692,-1.54506,18.3133,71.4934,-7.06851,11.261,-40.4414,-26.3851,1.21431,-28.2755,48.0541,-14.506,-10.9623,-4.10868
-1.54187,17.0859,5.62869,581.563,-85.4801,-579.029,22.2245,-4.31912,0.635681,6.05734,-6.12648,-2.73782,-6.09696,-3.16533,-1.63926,-0.79712,-1.51718,-0.2259,1.18474,-2.01631,-0.400794,0.484977,-1.01192,-0.0973539,1.70955e-14,3.10104e-14,-49.0275,-23.0091,-45.9627,90.5454,-46.1485,-8.16749,-29.2876,7.12502,17.7477,-58.4976,1.70955e-14,3.10104e-14,-27.5463,8.2839,66.9293,65.9172,2.48232,-28.4088,13.5496,7.12502,-1.78073,43.5219,-41.8577,-1.30029,16.5727,75.38,-6.71926,11.0783,-41.165,-25.6624,1.22393,-29.5248,47.6228,-13.7275,-11.3797,-3.32409
-1.50326,17.0946,5.62648,591.646,-85.87,-589.616,22.7681,-4.65025,0.0753533,6.36257,-6.70858,-2.80779,-6.01353,-3.45279,-1.21322,-0.484676,-2.67127,-1.23432,0.731983,-3.55622,0.45864,0.329965,-1.77965,0.32242,3.61788e-14,3.65764e-14,-48.1908,-23.1768,-46.6345,90.4026,-45.882,-8.30512,-29.4935,7.12502,17.6152,-58.7156,3.61788e-14,3.65764e-14,-22.5709,7.33248,67.2031,67.7683,-1.33113,-28.6597,12.7648,7.12502,-2.02301,42.7349,-44.2634,-0.900214,15.7991,78.352,-7.89617,10.8059,-38.8558,-25.0283,1.45327,-29.8663,47.0335,-12.9046,-11.9535,-3.53842
-1.46598,17.1393,5.63606,600.595,-86.4422,-598.78,23.0658,-5.11462,0.0389946,6.59329,-7.3258,-2.76259,-5.92058,-3.75731,-0.959624,-0.146579,-3.56139,-2.1961,0.408689,-4.74731,1.12654,0.228582,-2.37505,0.685907,7.95139e-14,-3.18055e-15,-47.1102,-23.1537,-47.5611,90.1138,-45.5599,-8.73653,-29.7749,7.12502,17.2,-59.0337,7.95139e-14,-3.18055e-15,-17.5356,6.65361,67.2862,68.6944,-5.62663,-29.2783,11.6863,7.12502,-2.62053,41.65,-46.6351,-0.398226,15.4879,80.3491,-9.34419,9.88788,-36.8886,-24.5454,1.59331,-29.8041,46.2266,-12.0256,-12.3713,-3.49422
-1.43296,17.2097,5.65325,607.247,-86.9056,-605.486,23.2174,-5.5488,0.145505,6.77281,-7.8611,-2.65515,-5.8125,-4.02169,-0.750379,0.106354,-4.221,-3.04779,0.205673,-5.63398,1.43412,0.174694,-2.81952,0.925127,3.1408e-14,4.13472e-14,-45.8034,-22.9075,-48.5278,89.6311,-45.2446,-8.88938,-29.6634,7.12502,17.0529,-58.9349,3.1408e-14,4.13472e-14,-12.7342,6.32076,67.322,69.2176,-9.22265,-29.4051,10.234,7.12502,-2.74296,40.1961,-48.8738,0.355678,15.3418,81.3462,-10.5628,8.45153,-34.0954,-24.0716,1.415,-29.6245,45.1624,-11.1741,-12.2064,-2.9145
-1.39995,17.2967,5.67179,611.372,-87.4061,-609.495,23.2495,-5.9405,0.341276,6.94833,-8.31021,-2.43439,-5.63907,-4.24543,-0.505571,0.188267,-4.69414,-3.62083,-0.0456198,-6.27175,1.31334,0.113206,-3.13911,0.985162,-1.10922e-13,-3.97569e-15,-44.1309,-22.6626,-49.4925,88.8337,-44.7977,-8.92569,-29.4952,7.12502,17.018,-58.7697,-1.10922e-13,-3.97569e-15,-8.16644,6.285,67.4372,69.5731,-11.2366,-29.1653,9.18293,7.12502,-2.51139,39.1479,-50.9756,1.33289,15.3798,81.304,-11.6808,6.78751,-30.9947,-23.6788,0.670696,-29.2694,43.9289,-10.6751,-11.2003,-3.91325
-1.38341,17.3987,5.69783,606.404,-87.6683,-604.442,23.2456,-6.15825,0.388264,7.14695,-8.57438,-2.20983,-5.39577,-4.38336,-0.234226,0.327998,-4.9811,-3.96984,-0.443487,-6.67076,0.903793,-0.0246938,-3.3378,0.924752,-5.1684e-15,1.51076e-14,-42.2992,-22.3536,-50.4025,87.8345,-44.2717,-8.82257,-29.3478,7.12502,17.1172,-58.6138,-5.1684e-15,1.51076e-14,-4.08809,6.43279,67.6276,69.9815,-11.4786,-28.9743,8.4934,7.12502,-2.32685,38.4605,-52.6422,2.71971,15.2998,80.1725,-12.9357,5.11777,-29.1768,-23.051,-0.364484,-28.997,42.5286,-10.7359,-9.34533,-6.54675
-1.35227,17.4961,5.71205,601.315,-88.0043,-598.95,23.2405,-6.41085,0.303548,7.15692,-8.89347,-1.88274,-5.32078,-4.53961,0.244144,0.572936,-5.08223,-4.10105,-0.943392,-6.83742,0.287467,-0.231629,-3.41749,0.772769,-2.26615e-14,-2.14687e-14,-40.4148,-21.8726,-51.3181,86.7721,-44.039,-8.31005,-29.0427,7.12502,17.6105,-58.2652,-2.26615e-14,-2.14687e-14,-0.552377,6.80373,67.753,70.3872,-10.2439,-28.7559,8.15377,7.12502,-2.11594,38.123,-54.3526,4.03571,15.2944,78.0644,-13.9558,3.38561,-28.2343,-22.8452,-1.70068,-28.6005,41.1461,-10.6572,-7.19133,-9.22472
-1.35517,17.6148,5.73364,566.781,-87.7195,-564.458,23.4699,-6.32388,0.371991,7.36159,-8.76749,-1.59544,-5.17234,-4.49291,0.485678,0.667164,-5.11974,-4.12335,-1.49869,-6.92156,-0.278249,-0.434612,-3.45366,0.617608,2.70347e-14,3.97569e-15,-38.4474,-21.3668,-52.2384,85.6686,-44.0431,-7.98907,-28.7801,7.12502,17.9194,-57.9746,2.70347e-14,3.97569e-15,2.90278,7.22628,67.7495,70.5154,-8.26889,-28.7896,8.17143,7.12502,-2.1485,38.1404,-54.9808,6.38537,15.6854,74.8087,-14.7947,1.76629,-27.4112,-22.0527,-1.93002,-27.845,39.7984,-10.7132,-5.0192,-12.0945
-1.34781,17.7171,5.758,547.193,-87.276,-544.681,23.5202,-6.37653,0.605316,7.50935,-8.7782,-1.3193,-5.0227,-4.50885,0.647522,0.668124,-5.16078,-4.18913,-1.99861,-7.00534,-0.588193,-0.595597,-3.48976,0.544684,1.40342e-13,-2.8625e-14,-36.6284,-20.8041,-53.058,84.6416,-44.0527,-8.21815,-28.7331,7.12502,17.6989,-57.9476,1.40342e-13,-2.8625e-14,6.24795,7.49982,67.6125,70.3937,-6.61686,-29.1114,8.37811,7.12502,-2.4593,38.3437,-55.4741,8.16349,15.9427,70.6971,-15.4526,0.435816,-27.642,-21.6616,-2.17686,-27.1849,38.6736,-10.4583,-3.3369,-12.9896
-1.33298,17.7917,5.78345,535.431,-86.8626,-532.669,23.6014,-6.54478,0.886862,7.55234,-8.92323,-1.11865,-5.02261,-4.58251,0.752564,0.676505,-5.14172,-4.20401,-2.29627,-6.99903,-0.761271,-0.694542,-3.4829,0.50127,4.92986e-14,-7.95139e-15,-34.8825,-20.1469,-53.9244,83.6505,-44.0414,-8.48859,-28.8134,7.12502,17.4387,-58.0511,4.92986e-14,-7.95139e-15,9.26195,7.79964,67.288,70.0602,-5.67372,-29.0773,8.46423,7.12502,-2.42641,38.4302,-55.6977,9.53824,16.0236,65.8105,-15.9984,-0.436422,-27.603,-21.4876,-2.40122,-26.6468,37.7706,-10.0612,-2.16799,-12.337
-1.31618,17.8407,5.8083,526.822,-86.2974,-523.853,23.6949,-6.69898,1.25563,7.58105,-9.03557,-1.01478,-5.07304,-4.63811,0.702627,0.685502,-5.10576,-4.09264,-2.47874,-6.95958,-0.842432,-0.759581,-3.46129,0.462963,8.34896e-15,-1.82882e-14,-33.8608,-19.2047,-54.3976,83.2656,-44.5547,-8.56247,-28.8921,7.12502,17.3676,-58.1362,8.34896e-15,-1.82882e-14,12.1536,8.10654,66.8639,69.4338,-5.40925,-28.5422,8.46721,7.12502,-1.90955,38.4384,-55.6082,10.8629,16.0753,60.3392,-16.4357,-1.039,-26.6782,-21.4389,-2.46618,-26.0674,37.1454,-9.81963,-1.34361,-12.6227
-1.3033,17.8662,5.83104,519.807,-85.6622,-516.766,23.7611,-6.80864,1.78123,7.64906,-9.06178,-0.964557,-5.09799,-4.65283,0.481236,0.767551,-5.08547,-4.00034,-2.65942,-6.9368,-0.756044,-0.829583,-3.44804,0.480914,3.06128e-14,-5.80451e-14,-33.03,-18.4937,-54.7769,82.9049,-44.9677,-8.45907,-28.7734,7.12502,17.4671,-58.0087,3.06128e-14,-5.80451e-14,15.0346,8.32307,66.516,68.5256,-5.96532,-27.8029,8.47762,7.12502,-1.19555,38.454,-55.1174,12.1352,16.1848,54.4592,-16.7073,-1.50191,-26.0064,-21.3333,-2.62399,-25.3401,36.7564,-9.92224,-0.877319,-13.5261
-1.29275,17.86,5.85372,517.393,-85.0076,-514.352,23.7248,-6.81032,2.12795,7.72246,-8.99702,-0.980561,-5.05009,-4.62449,0.248219,0.912748,-5.02348,-3.90842,-2.82324,-6.85915,-0.669269,-0.905999,-3.4071,0.500433,-1.06549e-13,3.02153e-14,-32.4742,-17.8661,-54.9363,82.7306,-45.2639,-8.23922,-28.7571,7.12502,17.6787,-57.9735,-1.06549e-13,3.02153e-14,17.6719,8.56745,66.3449,67.5483,-7.08804,-27.1434,8.37339,7.12502,-0.558617,38.3524,-54.4719,13.3327,16.0408,48.4653,-17.2176,-1.39573,-25.2411,-21.2567,-2.91524,-24.7852,36.5787,-10.3366,-0.702068,-16.2958
-1.27992,17.8206,5.8807,518.914,-84.3413,-515.762,23.4966,-6.7154,2.27171,7.69174,-8.85355,-1.07816,-5.00411,-4.5537,0.00269198,1.17825,-4.91071,-3.67976,-2.87771,-6.71512,-0.722286,-0.978894,-3.33302,0.456292,3.02153e-14,-2.94201e-14,-32.3563,-17.1317,-54.8775,82.8675,-45.4443,-8.19761,-29.0119,7.12502,17.7187,-58.2246,3.02153e-14,-2.94201e-14,19.7299,8.80042,66.3781,66.7173,-8.2678,-26.7894,8.17147,7.12502,-0.216652,38.1511,-54.0847,14.3779,15.5921,42.7069,-17.7236,-0.731406,-25.7052,-21.4247,-3.00847,-24.571,36.5794,-10.8681,-0.784121,-19.3123
-1.26429,17.7639,5.90587,520.307,-83.8595,-517.099,23.32,-6.62023,2.43863,7.59445,-8.69809,-1.19394,-5.06072,-4.47361,-0.266406,1.37244,-4.77598,-3.48084,-2.64936,-6.52807,-0.763231,-0.950465,-3.24062,0.411622,5.40694e-14,-1.35174e-14,-32.6296,-16.4749,-54.6355,83.2246,-45.5776,-8.43899,-29.4683,7.12502,17.4864,-58.7018,5.40694e-14,-1.35174e-14,21.2136,8.82544,66.655,66.1303,-9.14856,-26.6743,8.11359,7.12502,-0.10547,38.0933,-53.8628,15.2078,15.1019,37.8378,-18.46,1.01608,-27.4306,-21.6615,-2.88638,-24.543,36.8324,-11.3865,-1.06075,-18.1205
-1.24148,17.7135,5.92413,521.946,-83.5909,-518.884,23.3112,-6.46113,2.49428,7.55516,-8.48579,-1.28161,-5.11402,-4.36928,-0.447386,1.20709,-4.6444,-3.46448,-2.14422,-6.32599,-0.708748,-0.767124,-3.14585,0.408788,6.12257e-14,-3.65764e-14,-33.1621,-16.1404,-54.1565,83.7571,-45.7874,-8.67059,-30.0726,7.12502,17.2635,-59.3258,6.12257e-14,-3.65764e-14,22.2464,8.46851,67.069,65.8762,-9.0774,-26.6749,8.24471,7.12502,-0.106078,38.2244,-53.8511,15.9963,14.4942,34.5359,-19.2218,2.62664,-27.1983,-21.8091,-2.74987,-24.7112,37.2375,-11.7514,-1.10295,-16.2102
-1.21744,17.65,5.93228,525.46,-83.2986,-522.62,23.4196,-6.14757,2.23992,7.50973,-8.1424,-1.36133,-5.18561,-4.20295,-0.475349,0.864394,-4.44907,-3.18053,-1.52944,-6.03744,-1.03541,-0.542713,-3.00956,0.241571,5.56597e-15,-2.78299e-14,-34.0478,-16.0221,-53.4838,84.4834,-46.0846,-8.77191,-30.4363,7.12502,17.166,-59.698,5.56597e-15,-2.78299e-14,22.5789,7.68227,67.421,66.0043,-7.93118,-27.1784,8.73466,7.12502,-0.59235,38.7136,-53.9636,16.1021,14.4437,33.3945,-18.8671,4.79969,-27.5463,-22.0117,-2.56433,-25.1263,37.8037,-12.1266,-0.827167,-17.0151
-1.19962,17.5928,5.9425,533.079,-83.0264,-530.498,23.6005,-5.73281,1.52688,7.44867,-7.78102,-1.55754,-5.2725,-4.02803,-0.372115,0.636322,-4.10702,-2.58456,-1.05391,-5.5673,-1.78133,-0.40214,-2.78093,-0.092219,5.92378e-14,-2.54444e-14,-35.1089,-16.0518,-52.7372,85.3084,-46.3165,-8.78871,-30.3937,7.12502,17.1498,-59.6568,5.92378e-14,-2.54444e-14,21.9418,6.69748,67.8626,66.572,-6.82647,-28.2567,9.84141,7.12502,-1.63382,39.8149,-54.3064,15.9358,14.0559,34.7273,-19.2938,5.86759,-30.7779,-22.1266,-2.35049,-26.1688,38.3581,-12.5354,-0.560966,-16.9656
-1.19907,17.5341,5.95212,541.036,-82.5041,-538.629,23.8396,-5.24264,0.747684,7.35058,-7.33917,-1.72445,-5.42014,-3.81254,-0.215709,0.609551,-3.59693,-2.17451,-0.877969,-4.89021,-2.49406,-0.375606,-2.44472,-0.376357,9.30312e-14,3.18055e-15,-36.1062,-16.2733,-51.9592,86.0687,-46.4297,-8.92111,-30.2811,7.12502,17.0224,-59.5552,9.30312e-14,3.18055e-15,20.4474,5.61514,68.4995,67.4865,-6.28714,-29.4456,11.2292,7.12502,-2.78208,41.1908,-55.0275,15.7934,13.5701,38.2275,-19.7413,7.01678,-29.9641,-22.2706,-2.01709,-27.3334,38.905,-12.9299,-0.396258,-16.0487
-1.20279,17.5088,5.95017,542.91,-81.5928,-540.485,24.0892,-4.68034,0.54752,7.22371,-6.65642,-1.66212,-5.64147,-3.47899,-0.202496,0.618162,-2.88626,-1.66679,-0.839036,-3.95556,-3.45863,-0.395632,-1.97834,-0.756157,-5.56597e-15,1.66979e-14,-37.0659,-16.7245,-51.262,86.6961,-46.3203,-9.14943,-29.9928,7.12502,16.8026,-59.2858,-5.56597e-15,1.66979e-14,18.3772,4.27663,69.1165,68.5952,-5.97173,-30.627,12.4409,7.12502,-3.92295,42.3845,-55.8466,16.1875,13.8105,43.4464,-20.6169,5.59939,-34.7281,-22.4657,-1.53228,-27.597,39.1932,-13.2473,-0.168521,-15.9448
-1.21585,17.5028,5.94429,542.041,-80.684,-539.514,24.2713,-4.26202,0.722356,7.15698,-6.066,-1.48578,-5.79179,-3.1937,-0.26228,0.480492,-1.8814,-0.897346,-0.712501,-2.62628,-4.84688,-0.354651,-1.31964,-1.32627,-8.70677e-14,-2.22639e-14,-37.5316,-17.2104,-50.8964,87.0148,-45.9076,-9.0603,-29.5954,7.12502,16.8884,-58.8811,-8.70677e-14,-2.22639e-14,15.6689,2.97024,69.581,69.759,-5.83157,-31.6076,13.1688,7.12502,-4.8698,43.0928,-56.6841,16.9144,14.3072,49.5791,-20.1197,3.42391,-37.5924,-22.6114,-1.23131,-27.382,39.3643,-13.6401,0.27112,-16.0575
-1.22857,17.5405,5.9464,540.866,-79.9799,-538.179,24.3595,-4.08151,1.03622,7.13421,-5.74357,-1.23385,-5.85565,-3.04036,-0.252716,0.289492,-0.594209,-0.188048,-0.434222,-0.910745,-6.35133,-0.21393,-0.47521,-1.94055,1.06151e-13,3.18055e-15,-37.3536,-17.5394,-50.8718,87.0589,-45.3999,-8.91985,-29.5211,7.12502,17.0236,-58.7952,1.06151e-13,3.18055e-15,12.2275,1.96364,70.1538,70.8086,-5.87323,-32.3899,13.1092,7.12502,-5.62514,43.0145,-57.5666,17.5857,14.8863,56.4495,-19.5159,1.23799,-37.3271,-22.6005,-1.20057,-27.0818,39.1978,-13.8243,1.16007,-17.0221
-1.24956,17.5733,5.95272,538.542,-79.3317,-535.556,24.2526,-3.97165,1.66537,7.17023,-5.43601,-0.903531,-5.77529,-2.89727,-0.348958,0.12135,0.815954,0.616343,-0.0577773,0.985684,-7.86165,0.00701857,0.454274,-2.58511,-1.78906e-14,2.14687e-14,-37.0088,-17.8995,-50.9462,87.0239,-45.1443,-9.08185,-29.5462,7.12502,16.8677,-58.8336,-1.78906e-14,2.14687e-14,8.33439,0.964574,71.0234,71.6801,-5.99373,-33.023,12.4979,7.12502,-6.23638,42.3861,-58.298,18.3324,15.647,63.3456,-19.2814,-1.26557,-35.5438,-22.6383,-1.33684,-26.5112,38.8677,-13.786,2.29816,-18.7711
-1.26719,17.649,5.96008,535.44,-78.6828,-531.919,23.9548,-3.86496,2.51434,7.16522,-5.07791,-0.511603,-5.65035,-2.72747,-0.527851,0.223417,2.28601,1.71853,0.198972,2.96597,-9.47062,0.208737,1.43309,-3.3305,1.98785e-14,1.35174e-14,-36.6778,-18.2887,-51.0123,86.8753,-45.1618,-9.37183,-29.4126,7.12502,16.5885,-58.7236,1.98785e-14,1.35174e-14,4.06915,-0.306511,72.061,72.2143,-6.06817,-33.4254,11.782,7.12502,-6.62486,41.6584,-59.1748,18.9853,16.7087,70.2056,-19.8595,-2.59554,-31.162,-22.7416,-1.6096,-25.6204,38.2365,-13.5792,3.23621,-19.5068
-1.28536,17.7196,5.96491,532.994,-78.1526,-528.711,23.577,-3.81964,3.25344,6.95871,-4.80801,-0.0844,-5.69264,-2.59315,-0.5764,0.871724,3.8436,2.99005,0.347385,5.07067,-11.1906,0.36285,2.49254,-4.17223,2.28602e-14,-3.85642e-14,-36.489,-18.3568,-50.9881,86.7795,-45.2481,-9.73958,-29.3044,7.12502,16.2344,-58.6447,2.28602e-14,-3.85642e-14,-0.485276,-1.7592,73.2259,72.0272,-5.82473,-33.8416,10.9766,7.12502,-7.02667,40.8399,-59.99,19.4259,17.6273,76.6805,-19.9517,-3.82894,-30.6247,-23.0911,-1.99916,-24.7595,37.5883,-13.3626,4.05667,-19.3576
-1.30498,17.7886,5.97254,531.87,-77.8958,-526.829,23.1315,-3.84981,3.74636,6.65781,-4.69085,0.286493,-5.79524,-2.52962,-0.502864,1.95929,5.41639,4.24436,0.519395,7.22994,-13.1646,0.476693,3.5941,-4.60531,5.32743e-14,-3.18055e-15,-36.4656,-18.1866,-50.8199,86.7748,-45.3188,-10.0413,-29.2692,7.12502,15.9439,-58.633,5.32743e-14,-3.18055e-15,-4.83558,-3.39851,74.497,70.835,-4.70862,-33.7209,10.4737,7.12502,-6.91016,40.3409,-60.538,19.4744,18.2149,82.8051,-20.6349,-4.05439,-28.877,-23.4237,-2.35664,-24.2546,36.8945,-13.1117,4.69826,-18.6171
-1.31712,17.8478,5.97994,530.51,-77.8609,-524.775,22.7101,-3.84864,4.431,6.80031,-4.55286,0.578638,-5.44019,-2.46657,-0.645694,1.61433,6.91151,5.66059,0.858508,9.3367,-14.647,0.961312,4.62514,-5.21251,8.18993e-14,-5.80451e-14,-36.2919,-18.7955,-50.5914,86.9425,-45.4343,-10.0867,-29.1131,7.12502,15.9002,-58.4803,8.18993e-14,-5.80451e-14,-8.87376,-4.91893,76.2701,69.6842,-3.53965,-32.8175,10.082,7.12502,-6.03805,39.976,-60.6803,19.1673,18.8679,88.4972,-21.2603,-3.81903,-27.5323,-23.8085,-2.55747,-23.7757,36.3695,-12.8449,4.9743,-17.1254
-1.31732,17.8918,5.98416,528.562,-77.839,-522.166,22.4754,-3.84407,5.1869,6.77477,-4.37655,0.827579,-5.36686,-2.38205,-0.864875,2.21023,8.21797,7.34556,0.594709,11.1734,-16.049,1.1565,5.58307,-5.86929,-7.0171e-14,3.18055e-15,-36.2917,-19.3501,-50.3092,86.8393,-45.3865,-9.81256,-28.9022,7.12502,16.1641,-58.2482,-7.0171e-14,3.18055e-15,-13.0084,-6.15548,78.1056,67.983,-2.69391,-31.6047,9.33508,7.12502,-4.86708,39.2592,-60.5041,18.7229,19.7058,93.7832,-21.6691,-3.26519,-26.2943,-24.3316,-2.52121,-23.196,36.0532,-12.5964,5.0859,-15.9007
-1.32084,17.9135,5.9869,527.955,-77.6059,-521.151,22.4032,-3.65218,5.70189,6.8068,-4.02236,0.914114,-5.29621,-2.21185,-1.16432,2.81581,9.3427,8.76246,0.218572,12.7681,-17.0513,1.30014,6.42895,-6.35884,1.90833e-14,-2.3059e-14,-36.5584,-20.022,-49.7975,86.7626,-45.4878,-9.38827,-28.8268,7.12502,16.5727,-58.1391,1.90833e-14,-2.3059e-14,-17.035,-7.22921,79.9941,65.8752,-1.98251,-29.5755,8.60365,7.12502,-2.90748,38.5636,-59.8754,18.343,20.3665,98.757,-21.9675,-2.70554,-27.0158,-24.7248,-2.2021,-22.9525,35.9912,-12.6642,5.21056,-15.4061
-1.32977,17.9064,5.98862,528.437,-77.1987,-521.524,22.4122,-3.34879,5.97705,7.00331,-3.60391,0.832556,-5.07561,-2.00987,-1.52892,3.37745,10.3883,10.0282,-0.410173,14.2405,-17.9285,1.38108,7.22167,-6.78177,4.79071e-14,-5.18828e-14,-36.9725,-20.6841,-49.2367,86.8554,-45.7954,-9.15023,-28.9226,7.12502,16.8018,-58.2157,4.79071e-14,-5.18828e-14,-20.9489,-8.11091,81.6888,63.4675,-1.36136,-27.4646,8.30953,7.12502,-0.868839,38.2875,-58.7774,17.9778,20.8262,103.375,-22.3288,-2.11463,-27.7067,-24.9285,-1.79584,-22.9686,36.2244,-13.1221,5.33306,-15.1645
-1.33524,17.8727,5.99148,529.298,-76.9631,-522.405,22.5184,-3.1569,6.10801,7.17154,-3.3549,0.656719,-4.94249,-1.889,-1.86107,4.32646,11.4137,11.3253,-1.3978,15.689,-18.983,1.34274,8.03271,-7.28683,4.05521e-14,-5.50634e-14,-37.6522,-20.6818,-48.7217,87.4483,-46.4057,-9.19807,-29.1202,7.12502,16.7558,-58.4171,4.05521e-14,-5.50634e-14,-25.0168,-8.73768,83.1214,60.9115,-0.744676,-26.446,8.80602,7.12502,0.114949,38.7857,-57.4129,17.2876,21.0187,107.566,-22.5324,-1.08563,-26.6682,-25.1447,-1.57187,-23.1659,36.7537,-13.757,5.45662,-15.5344
-1.33527,17.8113,5.99818,530.461,-76.9142,-523.718,22.772,-2.98428,6.17708,7.33792,-3.13519,0.473649,-4.8829,-1.78406,-2.1519,5.46823,12.311,12.6526,-2.4928,16.9893,-20.4463,1.2972,8.78784,-7.941,9.93923e-16,-3.77691e-15,-38.5773,-20.3041,-48.0338,88.4657,-47.2368,-9.54226,-29.2613,7.12502,16.4244,-58.586,9.93923e-16,-3.77691e-15,-29.7835,-8.92583,84.6889,58.7021,-0.473289,-26.234,9.17877,7.12502,0.319715,39.1583,-55.6626,16.1994,20.9486,111.356,-22.6498,-0.154538,-25.8149,-25.4208,-1.56396,-23.5601,37.6387,-14.5912,5.72395,-16.5085
-1.35218,17.7312,6.00915,531.347,-76.4019,-525.125,23.2645,-2.59275,6.28205,7.67195,-2.64056,0.309637,-4.73041,-1.55097,-2.51511,6.11191,12.9672,13.1425,-3.5349,17.8763,-20.9077,1.13476,9.30398,-8.15905,2.62396e-14,-4.37326e-15,-39.9026,-20.1302,-46.8354,89.6851,-48.1183,-9.86574,-29.5883,7.12502,16.1129,-58.9385,2.62396e-14,-4.37326e-15,-33.9679,-8.74034,86.0344,55.6751,-0.685816,-26.4228,9.03459,7.12502,0.137394,39.0143,-52.9793,15.4676,20.8242,114.581,-23.0101,0.365947,-25.7011,-25.3589,-1.38511,-23.9078,38.7798,-15.8548,6.12823,-15.939
-1.35969,17.6301,6.01757,532.089,-76.0043,-526.318,23.7733,-2.28749,6.17225,7.81625,-2.27507,0.195524,-4.79386,-1.38281,-2.66509,7.2713,13.5068,13.7318,-4.66483,18.6473,-21.467,0.87106,9.79087,-8.48022,-7.02704e-14,-9.93923e-15,-40.9763,-19.9171,-45.694,90.3927,-48.6348,-9.47684,-29.9716,7.12502,16.4874,-59.2911,-7.02704e-14,-9.93923e-15,-38.4522,-7.59764,86.8863,52.4454,-1.10316,-26.6648,9.61871,7.12502,-0.0963243,39.5984,-49.9927,14.4536,20.3112,117.44,-23.9292,1.18465,-24.5152,-25.4984,-1.379,-24.2291,40.0216,-17.0244,6.3226,-13.8496
-1.37027,17.5454,6.02684,532.675,-75.5499,-527.191,24.1134,-2.07905,5.82056,7.68092,-2.0579,0.115366,-5.08944,-1.28566,-2.60099,9.29731,13.9804,14.3338,-5.8966,19.4081,-21.8183,0.422172,10.312,-8.83281,7.7526e-15,7.55382e-15,-42.1428,-19.047,-44.7172,91.019,-49.2536,-8.42814,-30.0486,7.12502,17.4968,-59.2812,7.7526e-15,7.55382e-15,-43.5349,-5.18321,86.92,49.3269,-1.13334,-25.4995,10.4395,7.12502,1.02911,40.4168,-47.4174,12.9919,19.9743,119.229,-24.1321,-0.20226,-28.5274,-25.8296,-1.32941,-24.4604,41.386,-18.0414,6.46799,-12.7864
-1.38973,17.4726,6.0348,536.256,-74.9522,-530.998,24.3381,-1.42521,5.07812,8.01771,-1.44665,-0.185127,-4.77625,-0.993103,-2.67757,8.8879,14.4442,14.5494,-6.29791,19.9953,-22.2682,0.557827,10.608,-8.91549,4.87022e-14,-9.93923e-16,-43.2702,-19.6405,-43.5213,91.606,-49.9974,-7.63168,-30.0058,7.12502,18.2632,-59.1685,4.87022e-14,-9.93923e-16,-47.0306,-2.9315,86.3071,45.8154,-1.07151,-25.4536,12.4318,7.12502,1.07349,42.4089,-44.7025,11.5444,18.1666,120.261,-24.7391,-1.01193,-30.9589,-26.0876,-1.12967,-25.508,42.3454,-18.7541,6.83824,-13.2093
-1.38973,17.4726,6.0348,536.256,-74.9522,-530.998,24.3381,-1.42521,5.07812,8.01771,-1.44665,-0.185127,-4.77625,-0.993103,-2.67757,8.8879,14.4442,14.5494,-6.29791,19.9953,-22.2682,0.557827,10.608,-8.91549,4.87022e-14,-9.93923e-16,-43.2702,-19.6405,-43.5213,91.606,-49.9974,-7.63168,-30.0058,7.12502,18.2632,-59.1685,4.87022e-14,-9.93923e-16,-47.0306,-2.9315,86.3071,45.8154,-1.07151,-25.4536,12.4318,7.12502,1.07349,42.4089,-44.7025,11.5444,18.1666,120.261,-24.7391,-1.01193,-30.9589,-26.0876,-1.12967,-25.508,42.3454,-18.7541,6.83824,-13.2093
-1.38973,17.4726,6.0348,536.256,-74.9522,-530.998,24.3381,-1.42521,5.07812,8.01771,-1.44665,-0.185127,-4.77625,-0.993103,-2.67757,8.8879,14.4442,14.5494,-6.29791,19.9953,-22.2682,0.557827,10.608,-8.91549,4.87022e-14,-9.93923e-16,-43.2702,-19.6405,-43.5213,91.606,-49.9974,-7.63168,-30.0058,7.12502,18.2632,-59.1685,4.87022e-14,-9.93923e-16,-47.0306,-2.9315,86.3071,45.8154,-1.07151,-25.4536,12.4318,7.12502,1.07349,42.4089,-44.7025,11.5444,18.1666,120.261,-24.7391,-1.01193,-30.9589,-26.0876,-1.12967,-25.508,42.3454,-18.7541,6.83824,-13.2093
-1.38973,17.4726,6.0348,536.256,-74.9522,-530.998,24.3381,-1.42521,5.07812,8.01771,-1.44665,-0.185127,-4.77625,-0.993103,-2.67757,8.8879,14.4442,14.5494,-6.29791,19.9953,-22.2682,0.557827,10.608,-8.91549,4.87022e-14,-9.93923e-16,-43.2702,-19.6405,-43.5213,91.606,-49.9974,-7.63168,-30.0058,7.12502,18.2632,-59.1685,4.87022e-14,-9.93923e-16,-47.0306,-2.9315,86.3071,45.8154,-1.07151,-25.4536,12.4318,7.12502,1.07349,42.4089,-44.7025,11.5444,18.1666,120.261,-24.7391,-1.01193,-30.9589,-26.0876,-1.12967,-25.508,42.3454,-18.7541,6.83824,-13.2093
-1.38973,17.4726,6.0348,536.256,-74.9522,-530.998,24.3381,-1.42521,5.07812,8.01771,-1.44665,-0.185127,-4.77625,-0.993103,-2.67757,8.8879,14.4442,14.5494,-6.29791,19.9953,-22.2682,0.557827,10.608,-8.91549,4.87022e-14,-9.93923e-16,-43.2702,-19.6405,-43.5213,91.606,-49.9974,-7.63168,-30.0058,7.12502,18.2632,-59.1685,4.87022e-14,-9.93923e-16,-47.0306,-2.9315,86.3071,45.8154,-1.07151,-25.4536,12.4318,7.12502,1.07349,42.4089,-44.7025,11.5444,18.1666,120.261,-24.7391,-1.01193,-30.9589,-26.0876,-1.12967,-25.508,42.3454,-18.7541,6.83824,-13.2093
-1.58465,17.5954,6.04346,536.125,-72.1649,-526.489,22.1321,1.01746,7.02704,7.34903,2.13078,0.0962466,-3.9911,0.816088,-4.40586,9.62171,14.9743,14.654,-7.15805,20.7158,-23.1559,0.445961,11.0683,-9.23076,-3.48867e-14,-2.38542e-15,-50.7379,-22.3782,-38.4312,92.8853,-54.4504,-8.72814,-28.7818,7.12502,17.2081,-58.0398,-3.48867e-14,-2.38542e-15,-62.9224,11.4967,68.7617,25.544,-15.2483,-21.6965,15.2921,7.12502,4.70186,45.2199,-31.2988,10.1321,15.1931,105.863,-22.2141,-3.87533,-20.387,-29.7338,0.00856949,-23.6064,41.9318,-18.3786,7.82577,-16.4101
-1.62042,17.6665,6.04557,534.555,-71.9202,-523.953,21.7724,1.28065,7.82007,7.10722,2.65981,0.359079,-3.97125,1.08217,-4.68882,9.66395,14.9554,14.7266,-6.7138,20.7543,-23.3993,0.610441,11.0888,-9.29229,1.96797e-14,-4.01545e-14,-51.7179,-22.9074,-37.6832,92.4325,-55.2653,-8.81153,-28.5232,7.12502,17.1278,-57.7882,1.96797e-14,-4.01545e-14,-66.3628,14.7432,61.2443,21.8031,-20.6563,-20.6774,14.6091,7.12502,5.6858,44.5128,-28.2126,10.4104,15.4636,99.2752,-22.2813,-5.82615,-20.3257,-30.2146,-0.227666,-22.6136,41.3378,-17.9613,7.94027,-16.5617
-1.64962,17.7306,6.04389,533.03,-71.6245,-521.468,20.6925,1.6358,8.76277,7.39235,3.18891,0.563463,-2.97902,1.39741,-5.06168,9.30504,14.8797,14.7016,-6.63013,20.6235,-23.7387,0.707347,11.0171,-9.36602,1.10325e-13,3.3197e-14,-52.1667,-24.1378,-37.0217,91.7732,-55.9669,-8.9324,-28.2424,7.12502,17.0115,-57.5175,1.10325e-13,3.3197e-14,-69.5982,18.1352,52.0004,18.6083,-26.9503,-18.9148,14.3646,7.12502,7.38738,44.2156,-25.072,10.7273,15.8087,92.1951,-22.7322,-7.76177,-19.6869,-31.0325,-0.50184,-21.5673,41.4292,-17.9765,7.97647,-16.1954
-1.66213,17.7678,6.03749,530.976,-71.2326,-518.177,20.0678,1.95939,9.73967,7.18191,3.77834,0.877773,-2.74097,1.70822,-5.36589,8.79216,14.8081,14.1502,-6.23547,20.473,-22.9717,0.721139,10.8857,-9.01076,-1.94809e-14,-1.31198e-14,-52.9204,-24.7402,-36.1793,91.1582,-56.5905,-8.68395,-27.8883,7.12502,17.2506,-57.1426,-1.94809e-14,-1.31198e-14,-74.091,20.494,41.4706,16.2556,-33.9155,-16.6181,15.4983,7.12502,9.60383,45.2594,-22.3557,11.0676,16.4649,84.7526,-22.5354,-9.46976,-16.1462,-32.362,-0.792248,-20.1376,41.8029,-17.9491,8.1909,-15.8342
-1.63248,17.7608,6.02349,528.795,-70.684,-514.663,19.9787,2.28878,10.5602,6.65884,4.43948,1.23402,-3.11417,2.01022,-5.5839,8.70487,14.6791,14.1675,-6.05125,20.3152,-22.9045,0.752039,10.7948,-8.99348,-1.37161e-14,2.42517e-14,-53.7877,-24.9445,-35.3582,90.7078,-57.1689,-8.27944,-27.5761,7.12502,17.64,-56.7959,-1.37161e-14,2.42517e-14,-78.8518,21.3077,31.287,14.8119,-39.9197,-17.6434,13.5007,7.12502,8.61448,43.3049,-20.1987,11.6463,17.2901,77.1526,-23.2437,-11.1707,-15.959,-34.2345,-0.946913,-18.4627,42.6167,-17.8689,8.41475,-15.1025
-1.64626,17.7184,6.01615,527.112,-70.5702,-511.992,19.4435,2.36091,11.4135,6.30624,4.69429,1.42458,-3.11233,2.13901,-5.8808,8.73724,14.6311,13.9757,-6.08767,20.231,-22.4638,0.647412,10.7434,-8.85035,-3.89618e-14,3.18055e-15,-54.4378,-24.8313,-34.7959,90.4128,-57.7004,-7.93934,-27.2689,7.12502,17.9672,-56.459,-3.89618e-14,3.18055e-15,-82.8753,20.7804,23.0567,14.1368,-42.9672,-17.6209,12.8522,7.12502,8.63617,42.6555,-17.1335,11.8398,17.6803,69.0883,-24.0428,-12.0497,-14.4954,-35.7475,-1.39502,-17.3461,43.7762,-18.3369,8.3979,-13.9887
-1.68275,17.6649,6.01307,525.826,-70.5351,-509.784,18.5153,2.39075,12.2902,6.05055,4.82113,1.50036,-2.80221,2.23005,-6.25458,8.68183,14.6028,13.8512,-6.0878,20.1785,-22.0855,0.588747,10.7028,-8.72143,2.50469e-14,1.43125e-14,-54.9982,-24.6176,-34.4131,90.3267,-57.9803,-7.5581,-27.0033,7.12502,18.334,-56.1593,2.50469e-14,1.43125e-14,-85.7782,19.5582,16.6271,13.8614,-43.9921,-16.9284,11.9581,7.12502,9.30439,41.7328,-14.2552,12.0798,17.7993,60.8959,-24.5355,-11.8044,-13.4694,-37.1,-1.83806,-16.5129,45.0305,-19.2473,8.16666,-13.029
-1.70698,17.5904,6.00739,524.965,-70.3978,-507.945,17.4879,2.4815,13.0018,5.73498,4.97861,1.5373,-2.50612,2.33549,-6.57435,8.76968,14.5767,13.9011,-6.13008,20.1558,-21.8609,0.536856,10.6878,-8.6741,1.74931e-14,-9.14409e-15,-55.8903,-24.1343,-33.9022,90.68,-58.4138,-7.16088,-26.9613,7.12502,18.7161,-56.0809,1.74931e-14,-9.14409e-15,-87.9183,18.1475,10.8792,13.7253,-45.0237,-15.7963,12.2147,7.12502,10.3966,41.9377,-11.9111,12.7387,17.8487,52.7837,-24.7723,-11.5407,-14.8444,-38.5827,-1.91641,-15.8019,46.295,-20.1331,7.71485,-12.3958
-1.729,17.5237,5.99689,524.522,-70.4045,-506.823,16.6256,2.52634,13.4169,5.47696,5.02885,1.4961,-2.27416,2.38387,-6.80396,8.78864,14.5661,13.924,-6.07365,20.1577,-21.5335,0.513993,10.6757,-8.5791,-3.39922e-14,1.98785e-15,-56.4816,-23.7975,-33.6317,90.8831,-58.455,-6.58456,-27.1637,7.12502,19.2703,-56.2289,-3.39922e-14,1.98785e-15,-89.44,16.8749,5.42686,13.5887,-46.9762,-15.2094,11.7191,7.12502,10.9628,41.4129,-9.78946,13.882,17.7954,45.1674,-25.0944,-11.1225,-14.1507,-39.7478,-1.75255,-15.4366,47.3956,-20.8576,6.87471,-11.151
-1.73743,17.4525,5.97657,524.671,-70.463,-506.72,16.2838,2.56947,13.4308,5.19155,5.08924,1.34124,-2.37654,2.4104,-6.97622,8.61882,14.5096,13.7392,-5.72591,20.0934,-20.6777,0.510588,10.5992,-8.27677,2.32578e-14,1.35174e-14,-57.2428,-23.4059,-33.4723,91.1437,-58.1356,-5.64591,-27.3301,7.12502,20.1727,-56.3027,2.32578e-14,1.35174e-14,-90.2594,15.736,0.349782,13.3769,-50.0066,-15.3609,10.4344,7.12502,10.8167,40.1359,-7.61454,15.4175,17.6266,38.2937,-25.1136,-10.8008,-14.437,-40.4873,-1.34629,-15.4717,48.2993,-21.3086,5.88869,-9.99192
-1.72615,17.4013,5.94678,525.788,-70.3477,-508.022,16.8964,2.69042,12.7825,4.64439,5.32092,1.11708,-3.30278,2.45241,-6.97144,9.01909,14.3547,13.8625,-5.39097,19.9727,-20.0211,0.458075,10.5247,-8.13431,4.4329e-14,2.38542e-15,-58.3994,-22.6683,-33.2548,91.5067,-57.8938,-5.21812,-27.4122,7.12502,20.5838,-56.3409,4.4329e-14,2.38542e-15,-90.4152,14.5332,-3.81625,13.1671,-53.4192,-15.6603,10.5802,7.12502,10.5279,40.2965,-5.83803,17.203,17.2719,32.7281,-24.7363,-10.3569,-14.9485,-40.6314,-0.562009,-15.9336,48.8071,-21.4753,5.01244,-9.46725
-1.69514,17.3829,5.91224,527.752,-70.1574,-510.559,17.7221,2.8964,11.7644,4.43839,5.55156,0.806682,-3.99979,2.52009,-6.85976,9.34635,14.2077,13.908,-5.36009,19.8123,-19.6704,0.351622,10.4447,-8.08163,-7.21588e-14,1.07344e-14,-59.1534,-22.5235,-33.2684,91.8694,-57.6636,-5.59842,-27.597,7.12502,20.2184,-56.5648,-7.21588e-14,1.07344e-14,-90.0975,14.3665,-7.08324,12.9298,-56.9642,-16.0402,12.0188,7.12502,10.1613,41.7534,-4.63223,18.5032,16.7085,28.764,-24.1632,-9.76495,-17.0278,-40.1943,0.318544,-16.7688,48.8312,-21.3937,4.38878,-9.30586
-1.64626,17.3886,5.87367,530.616,-69.9753,-514.149,18.3223,3.08515,10.2783,4.61191,5.56796,0.490274,-4.25289,2.52443,-6.42055,9.55528,14.2005,13.8031,-5.56479,19.7837,-19.7247,0.249591,10.4471,-8.11593,-1.19271e-15,1.8487e-14,-58.9852,-22.8224,-33.7925,92.1497,-57.2235,-5.76773,-27.6482,7.12502,20.0556,-56.6331,-1.19271e-15,1.8487e-14,-89.8371,15.2084,-9.19132,12.6541,-59.8796,-16.5036,12.5541,7.12502,9.7143,42.3101,-4.38388,18.6436,15.8514,26.8068,-23.8867,-9.01226,-19.0907,-39.4845,1.01047,-17.9179,48.4254,-21.1259,4.09555,-9.27018
-1.59312,17.427,5.82975,533.356,-69.6584,-517.428,18.9237,3.27197,8.93107,4.69562,5.59373,0.139704,-4.58242,2.52699,-6.09916,9.71353,14.2045,13.7352,-5.65274,19.7812,-19.7704,0.196563,10.4574,-8.13994,1.0953e-13,-2.34566e-14,-58.7049,-23.1585,-34.565,92.3533,-56.7154,-5.87822,-27.6266,7.12502,19.9494,-56.6226,1.0953e-13,-2.34566e-14,-88.7713,16.3189,-8.08122,12.5178,-59.773,-17.3525,12.8142,7.12502,8.89519,42.6067,-5.22679,17.9056,15.1762,26.6142,-24.0165,-7.90862,-20.4637,-38.7676,1.52886,-18.8507,47.6502,-20.6984,4.06052,-8.99394
-1.53746,17.4729,5.78286,534.443,-69.1716,-518.546,19.2381,3.31574,8.24148,4.64524,5.54343,0.00147039,-4.86972,2.48976,-5.88286,9.71725,14.372,13.4364,-5.57172,19.9774,-19.6418,0.207282,10.5545,-8.04333,1.80894e-14,9.93923e-16,-57.5581,-23.6028,-35.95,92.0721,-55.8426,-6.39429,-27.7344,7.12502,19.4533,-56.7813,1.80894e-14,9.93923e-16,-86.9979,17.4134,-3.20595,12.7186,-55.9846,-18.7485,12.0003,7.12502,7.54794,41.8456,-7.13616,16.7597,15.3739,27.6847,-24.2327,-6.3966,-20.9234,-38.4129,1.86158,-18.8689,46.7065,-20.1272,4.30044,-8.86
-1.48143,17.541,5.73939,534.129,-68.663,-517.905,18.3532,3.26455,8.49688,5.19345,5.37734,-0.0878479,-3.79676,2.47246,-5.98551,9.38133,14.5868,13.1876,-5.91934,20.1697,-19.9332,0.201226,10.6591,-8.0642,-2.5345e-14,1.42131e-14,-55.752,-24.7532,-37.8061,91.895,-55.0518,-6.86608,-27.7868,7.12502,18.9996,-56.8789,-2.5345e-14,1.42131e-14,-84.412,19.5235,3.44309,13.2282,-50.6599,-19.7995,12.5214,7.12502,6.53338,42.4006,-9.63802,15.4329,16.3925,29.2914,-24.3156,-4.89421,-21.4339,-38.254,2.02534,-18.1477,45.6175,-19.5611,4.56522,-8.38017
-1.41734,17.625,5.69447,533.735,-68.2195,-517.111,17.969,3.13142,8.67056,5.312,5.184,-0.14873,-3.4725,2.3979,-6.07598,9.59532,14.7201,13.2467,-6.1008,20.3508,-20.1877,0.180285,10.773,-8.15923,3.26752e-14,-1.04362e-14,-54.2377,-25.3395,-39.7304,91.8785,-54.3312,-7.45004,-27.6513,7.12502,18.4379,-56.7975,3.26752e-14,-1.04362e-14,-80.6715,20.4315,12.5594,14.3022,-42.8193,-20.9858,13.3402,7.12502,5.38805,43.2517,-12.2665,14.5568,17.6354,30.8437,-24.3357,-3.66948,-22.1932,-38.0961,2.2229,-17.3552,44.3491,-18.8933,4.72607,-7.43759
-1.34674,17.7092,5.64415,533.858,-67.8936,-516.783,17.7994,3.01168,8.61974,5.27132,5.00607,-0.255755,-3.45069,2.31393,-6.12021,9.61987,14.8291,13.1842,-6.0621,20.4964,-20.1223,0.197721,10.8454,-8.11971,4.12478e-14,9.83984e-15,-52.8767,-25.9352,-41.6364,91.9456,-53.5215,-8.29251,-27.5696,7.12502,17.6274,-56.7905,4.12478e-14,9.83984e-15,-76.1535,20.3577,22.6726,16.1018,-33.7091,-22.2991,14.2631,7.12502,4.11994,44.203,-15.0583,14.3834,18.7129,31.9975,-24.388,-2.80066,-22.6209,-37.9173,2.48367,-16.7916,42.8363,-17.9599,4.9956,-7.53196
-1.28392,17.8153,5.58905,534.529,-67.8108,-517.07,17.63,2.89767,8.34405,5.25051,4.79518,-0.403529,-3.43103,2.21461,-6.07576,9.32046,14.9172,13.0288,-5.85357,20.5937,-20.0025,0.292003,10.8746,-8.01691,1.34726e-13,2.15681e-14,-51.5398,-26.716,-43.428,91.9387,-52.4006,-8.98109,-27.5588,7.12502,16.9646,-56.8379,1.34726e-13,2.15681e-14,-71.4998,19.6875,31.9467,18.5495,-25.1785,-23.5423,15.2383,7.12502,2.91943,45.198,-18.008,14.207,19.5214,32.6635,-25.224,-1.38461,-22.8529,-37.5582,2.71641,-16.5772,41.1259,-16.8304,5.29643,-9.10507
-1.22343,17.9287,5.52699,535.366,-68.0422,-517.634,17.4836,2.72948,7.89059,5.22121,4.49015,-0.525771,-3.46505,2.06605,-5.88968,8.76139,15.0342,12.8147,-5.27303,20.7424,-19.7826,0.525665,10.9067,-7.82997,6.15239e-14,-3.33958e-14,-50.2206,-27.4267,-45.1048,91.8231,-51.065,-9.48529,-27.5019,7.12502,16.4793,-56.822,6.15239e-14,-3.33958e-14,-67.06,18.5151,39.9393,21.375,-17.899,-24.9195,16.3784,7.12502,1.58928,46.3522,-20.8346,13.7928,20.2236,32.8323,-25.7288,0.129775,-23.0606,-37.163,2.9989,-16.5864,39.453,-15.4684,5.20479,-10.4348
-1.15985,18.0157,5.4577,535.705,-68.6308,-517.777,17.3338,2.40341,7.52652,5.22129,3.9953,-0.581317,-3.48796,1.82438,-5.6468,8.15358,15.1314,12.829,-4.64942,20.8902,-19.801,0.831616,10.9383,-7.73407,1.32192e-14,-3.35946e-14,-48.8606,-28.0645,-46.8055,91.7239,-49.8552,-9.99085,-27.5339,7.12502,15.9925,-56.8937,1.32192e-14,-3.35946e-14,-62.9852,17.1674,46.5312,24.4217,-12.0403,-26.5778,17.1249,7.12502,-0.012311,47.1047,-23.3416,13.4728,21.0455,32.5802,-26.1316,1.58511,-22.4698,-36.9146,3.34881,-16.5596,38.0871,-13.9206,4.62053,-11.7761
-1.09468,18.0724,5.38788,535.386,-69.5623,-517.338,17.2441,1.91105,7.39937,5.2479,3.32676,-0.596472,-3.51909,1.49665,-5.46511,8.01371,15.1015,12.9205,-4.79692,20.8315,-19.8647,0.81943,10.9063,-7.76266,-9.34288e-15,-6.55989e-15,-47.5753,-28.697,-48.5165,91.7457,-48.8483,-10.7827,-27.7769,7.12502,15.2298,-57.1964,-9.34288e-15,-6.55989e-15,-59.1846,15.7606,51.9175,27.8235,-7.12384,-28.1171,17.3958,7.12502,-1.49901,47.3703,-25.6197,13.369,21.9177,32.1228,-26.0581,3.07006,-22.1153,-36.9147,3.66696,-16.4774,37.2858,-12.5358,3.6908,-13.7097
-1.02563,18.0983,5.32337,534.469,-70.8174,-516.309,17.2089,1.29407,7.55528,5.23779,2.55316,-0.575854,-3.61576,1.11469,-5.38843,8.04641,15.0314,12.9941,-5.14644,20.711,-19.8023,0.69412,10.8524,-7.78516,-1.2921e-14,-1.78906e-14,-46.5584,-29.1851,-50.0331,91.9133,-48.1124,-11.7637,-28.2253,7.12502,14.2847,-57.7139,-1.2921e-14,-1.78906e-14,-55.8023,14.1655,56.443,31.8997,-2.45756,-29.0506,17.3344,7.12502,-2.40057,47.3006,-27.819,13.3098,22.7222,31.7269,-25.3526,4.91779,-23.3852,-37.3519,3.76493,-16.3197,37.2308,-11.3765,2.46564,-14.4948
-0.949452,18.0993,5.26359,533.047,-72.4208,-514.869,17.3223,0.564245,7.8515,5.20406,1.67144,-0.521846,-3.82982,0.673977,-5.33715,8.05408,14.9789,13.583,-5.22305,20.6881,-20.4882,0.810954,10.8555,-8.06354,-6.12257e-14,1.59028e-14,-45.9574,-29.4307,-51.2118,92.3411,-47.6023,-12.6825,-28.5846,7.12502,13.3993,-58.1337,-6.12257e-14,1.59028e-14,-52.812,12.463,60.2214,36.4726,1.58152,-29.6409,16.7833,7.12502,-2.97066,46.7424,-29.8919,12.9454,23.4062,31.5737,-22.3255,7.58275,-22.7104,-38.12,3.49892,-16.1585,37.881,-10.3131,1.06586,-14.1169
-0.861621,18.0652,5.20915,531.232,-74.3736,-513.306,17.7359,-0.201664,8.21625,5.20168,0.776064,-0.457589,-4.17468,0.219467,-5.30783,7.38349,14.9248,13.1853,-4.92874,20.5557,-19.6364,0.839488,10.7301,-7.70263,2.38542e-14,-7.95139e-16,-46.0188,-29.5693,-51.7229,93.1544,-46.999,-13.1957,-28.7201,7.12502,12.9045,-58.3011,2.38542e-14,-7.95139e-16,-49.5975,10.6035,63.3993,41.1014,4.40621,-29.7078,15.5521,7.12502,-3.03528,45.5102,-31.5797,12.1455,23.8029,32.1375,-19.7188,11.4044,-16.0337,-39.0493,2.8369,-16.1458,39.2632,-9.6653,-0.457549,-12.1518
-0.767402,17.9808,5.14851,529.034,-77.2714,-511.683,18.2099,-1.14734,8.52802,5.27714,-0.358252,-0.409443,-4.51072,-0.348741,-5.19757,6.91763,14.7216,13.0279,-4.67631,20.2522,-19.2852,0.881325,10.5427,-7.55578,3.37934e-14,-2.98177e-14,-46.5768,-29.7684,-51.5379,94.2224,-46.2501,-13.2856,-29.2184,7.12502,12.8179,-58.8049,3.37934e-14,-2.98177e-14,-46.1619,8.64197,66.0335,46.1111,6.30478,-28.8369,14.0487,7.12502,-2.19419,44.0172,-32.6347,11.0064,23.6303,33.5508,-15.9868,13.5921,0.292207,-40.1286,1.44777,-16.5383,41.3269,-9.47673,-2.32688,-10.0913
-0.63707,17.831,5.06782,527.009,-79.8257,-510.473,19.1764,-1.87007,8.19068,5.31846,-1.27349,-0.360819,-5.10991,-0.818863,-4.73889,6.53582,14.5036,12.5984,-4.57241,19.9008,-18.4015,0.773093,10.3291,-7.24041,-3.65764e-14,-1.94809e-14,-47.3076,-29.7798,-51.1813,95.6232,-45.7007,-13.6203,-30.3184,7.12502,12.4952,-59.9248,-3.65764e-14,-1.94809e-14,-42.8172,6.69381,68.1252,51.6123,7.37621,-28.0328,12.9256,7.12502,-1.41762,42.9006,-32.9742,10.7314,23.1891,35.935,-18.8895,6.02314,-15.9426,-41.3147,0.455735,-17.0611,43.8387,-9.6628,-4.50829,-11.3267
-0.478537,17.6301,4.96488,524.201,-82.1402,-508.716,20.548,-2.45443,7.26602,5.35724,-2.09581,-0.209802,-5.87613,-1.2407,-3.81948,6.72037,14.329,12.3493,-4.93584,19.6282,-17.7995,0.504392,10.1937,-7.09384,-5.1684e-15,-3.18055e-15,-48.0825,-29.3556,-50.8207,97.4069,-45.5549,-14.0643,-31.4721,7.12502,12.0671,-61.1042,-5.1684e-15,-3.18055e-15,-39.4349,4.85943,69.7963,57.225,7.48338,-27.8172,12.5881,7.12502,-1.20938,42.5644,-33.3871,10.6753,22.9313,38.8439,-20.4272,5.11436,-14.7737,-42.4975,-0.149459,-17.5537,46.6689,-10.1552,-7.21209,-14.3101
-0.324828,17.4659,4.86041,521.278,-84.6473,-507.032,21.7489,-3.85738,5.11968,5.47648,-4.30265,-0.395689,-6.51038,-2.29611,-2.15983,8.58758,15.0225,14.2681,-6.15587,20.81,-19.0983,0.382518,10.8949,-7.83425,-2.82274e-14,2.38542e-14,-47.6801,-26.7384,-53.0964,99.7178,-45.5145,-14.3504,-32.2948,7.12502,11.7912,-61.9429,-2.82274e-14,2.38542e-14,-37.043,5.28002,69.1826,62.998,6.96409,-27.6929,13.1209,7.12502,-1.0893,43.0978,-34.3155,9.70926,22.6548,42.0517,-21.3609,2.41137,-13.0883,-43.247,-0.799818,-18.4468,49.6004,-11.2316,-9.84332,-16.1742
-0.18578,17.3375,4.77116,511.784,-87.0904,-499.102,22.8821,-4.27215,4.40332,5.85288,-4.96361,-0.269922,-6.66665,-2.61233,-1.37794,8.70588,14.8608,14.1239,-6.01316,20.5957,-19.076,0.351681,10.7928,-7.83465,-3.4191e-14,3.4191e-14,-48.7108,-26.5568,-52.1718,101.444,-45.5357,-14.7717,-32.9372,7.12502,11.3849,-62.6082,-3.4191e-14,3.4191e-14,-32.6407,3.32654,70.8525,67.8992,5.34572,-28.1542,14.1288,7.12502,-1.53485,44.103,-34.3191,7.59552,22.7037,44.5521,-21.8967,0.977495,-14.4574,-43.4246,-1.48828,-19.3938,53.1287,-13.492,-11.4405,-17.2976
-0.0511501,17.2184,4.69508,472.175,-89.0394,-461.203,24.2603,-4.64151,3.67812,6.29606,-5.59581,-0.352786,-6.86252,-2.91764,-0.796962,8.33348,14.8305,14.1698,-5.36212,20.5902,-18.6634,0.554928,10.7493,-7.65488,-3.22031e-14,5.28767e-14,-49.7769,-26.3035,-51.4589,102.943,-45.5349,-14.9846,-33.4832,7.12502,11.1796,-63.1653,-3.22031e-14,5.28767e-14,-28.0733,1.61109,71.8996,72.507,4.01171,-27.4991,14.4147,7.12502,-0.902129,44.3925,-33.918,5.56223,22.5873,46.6908,-22.6894,0.174369,-13.1155,-43.0911,-1.87344,-20.5157,56.6979,-15.9067,-11.3922,-18.5706
0.0801559,17.079,4.63486,440.464,-83.8204,-429.644,24.5146,-5.61508,8.75408,6.24668,-5.51202,0.872332,-7.31803,-2.94586,-2.30191,8.25381,14.8117,14.2558,-4.85997,20.6192,-17.9252,0.640256,10.727,-7.42027,1.19271e-15,-7.15625e-15,-50.4916,-25.9681,-51.0511,103.7,-45.3137,-14.8154,-33.8026,7.12502,11.3427,-63.4758,1.19271e-15,-7.15625e-15,-23.7121,-0.0794658,72.3913,76.4128,2.49498,-27.4657,13.6295,7.12502,-0.869834,43.6075,-34.5486,4.68191,28.5902,47.782,-22.8411,-0.730345,-11.6227,-45.0749,-0.865665,-15.1731,61.0145,-16.9812,-10.9992,-19.0625
0.169654,17.0131,4.59764,434.633,-83.8243,-423.656,24.2582,-5.78893,8.23932,6.29851,-5.89524,0.686466,-7.15136,-3.11419,-2.11748,8.63819,15.0528,14.1762,-5.10274,20.9656,-17.2312,0.472935,10.8944,-7.2311,4.45278e-14,-4.13472e-14,-50.0567,-25.3953,-51.763,104.053,-44.9592,-14.8403,-33.8107,7.12502,11.3188,-63.4853,4.45278e-14,-4.13472e-14,-19.2946,-0.802956,72.3503,79.7208,1.54377,-27.2495,12.3622,7.12502,-0.661023,42.3409,-35.5058,3.66562,28.6446,48.6009,-22.9232,-0.411251,-11.2976,-45.9391,0.168041,-15.8603,64.6395,-18.4964,-9.32657,-21.005
0.246905,16.9909,4.55692,431.992,-83.5675,-421.296,24.6747,-6.00966,7.64088,6.41848,-6.30305,0.594765,-7.22477,-3.30309,-1.7255,9.54464,15.4226,14.4192,-5.59166,21.5464,-17.2857,0.309206,11.2211,-7.33666,2.3059e-14,1.98785e-14,-49.3065,-24.3732,-52.8279,104.299,-44.954,-15.2913,-33.9064,7.12502,10.8838,-63.6043,2.3059e-14,1.98785e-14,-14.893,-1.09011,72.0746,82.3938,1.58627,-26.8778,11.697,7.12502,-0.302076,41.6765,-35.4747,2.73338,29.1095,48.6024,-22.8045,0.106958,-11.626,-45.7358,1.639,-16.2595,67.9393,-18.5433,-7.56805,-19.9288
0.314963,17.0124,4.51484,430.97,-83.5205,-420.383,24.9969,-6.13255,6.59902,6.52502,-6.70358,0.530249,-7.20993,-3.4823,-1.06634,10.3245,15.7645,15.1164,-5.66163,22.1533,-18.0336,0.430547,11.5747,-7.65173,6.67916e-14,-7.95139e-14,-48.2678,-23.1244,-54.0875,104.333,-45.0929,-15.6275,-34.2135,7.12502,10.5595,-63.9282,6.67916e-14,-7.95139e-14,-10.4533,-1.14087,71.6882,84.3,2.05959,-26.9174,11.7096,7.12502,-0.340302,41.689,-35.4055,1.98575,29.3906,48.2274,-22.506,0.600014,-11.9328,-45.1244,3.23478,-16.7888,70.4143,-18.8777,-6.55839,-21.3185
0.364825,17.0791,4.47941,430.88,-83.4162,-420.347,25.1951,-6.18904,5.74827,6.63152,-6.98967,0.413684,-7.13812,-3.60962,-0.618361,10.8767,16.098,15.7624,-5.47944,22.7534,-18.3396,0.607018,11.8972,-7.79713,-2.54444e-14,2.46493e-14,-47.0366,-22.2174,-55.5131,103.743,-44.7591,-15.5346,-34.3108,7.12502,10.6491,-64.0209,-2.54444e-14,2.46493e-14,-6.0415,-1.44152,71.2445,85.482,2.33349,-27.3013,11.9507,7.12502,-0.711111,41.9293,-34.9745,1.35268,29.7214,47.1393,-22.0089,1.18995,-11.616,-44.0309,4.82056,-17.1856,72.2972,-17.1844,-5.56374,-17.7366
0.405868,17.1761,4.45263,431.24,-83.1344,-420.56,25.2647,-6.24158,5.27787,6.63656,-7.17583,0.285,-7.14548,-3.692,-0.431567,11.1524,16.3347,16.3844,-5.11233,23.2115,-18.314,0.815782,12.1224,-7.81928,1.60618e-13,-2.38542e-14,-45.4596,-21.5094,-56.8965,102.279,-44.0446,-15.395,-34.3927,7.12502,10.7837,-64.0959,1.60618e-13,-2.38542e-14,-1.69708,-1.97448,70.778,85.8313,2.23543,-27.787,11.9598,7.12502,-1.18017,41.9363,-34.5021,0.797515,30.1906,45.5784,-21.254,1.8199,-11.3448,-42.7575,6.2915,-17.4207,73.6113,-15.1658,-4.23538,-16.3182
0.444579,17.2801,4.43049,430.762,-82.6616,-419.723,25.2551,-6.37244,5.11292,6.52924,-7.37642,0.18353,-7.26765,-3.78152,-0.378783,11.3541,16.4192,16.8788,-4.83773,23.434,-18.0609,0.925996,12.2199,-7.785,-3.18055e-14,1.59028e-14,-45.0147,-20.7467,-57.946,101.546,-43.79,-15.4457,-34.5924,7.12502,10.7349,-64.2981,-3.18055e-14,1.59028e-14,2.34602,-2.51244,70.3614,85.4635,1.76536,-28.267,10.9969,7.12502,-1.64379,40.9703,-34.1147,0.204137,30.776,43.7379,-20.2365,2.34922,-11.3151,-41.4576,7.44039,-17.5195,74.4083,-12.7442,-2.62511,-14.8519
0.479763,17.3836,4.40971,427.935,-82.3174,-416.425,24.9598,-6.47358,4.95709,6.51472,-7.56568,0.00223963,-7.15528,-3.8657,-0.456545,11.4357,16.3011,17.345,-4.84277,23.348,-17.9095,0.930461,12.1648,-7.81267,2.46493e-14,-7.95139e-15,-44.7001,-20.4372,-58.8191,100.708,-43.8749,-15.5079,-34.4716,7.12502,10.6749,-64.1804,2.46493e-14,-7.95139e-15,6.36319,-3.32516,70.0174,84.5473,1.35462,-28.7202,9.83496,7.12502,-2.08147,39.8046,-33.7485,-0.337386,31.0065,41.8518,-19.2447,2.59695,-11.214,-39.9877,8.21816,-17.8921,74.656,-10.3895,-1.01396,-14.9504
0.512156,17.4874,4.3866,424.702,-82.089,-412.627,24.2372,-6.38917,4.80321,6.76009,-7.55096,-0.00585272,-6.50501,-3.85766,-0.476008,10.7237,16.1734,16.9137,-4.90991,23.0274,-17.7428,0.895996,11.9783,-7.68359,-3.49861e-14,2.54444e-14,-44.1222,-20.5256,-59.1241,99.8355,-44.1638,-15.6332,-34.3811,7.12502,10.554,-64.0961,-3.49861e-14,2.54444e-14,10.7109,-4.33966,70.1412,83.2012,1.3021,-29.1921,9.04178,7.12502,-2.53725,39.0064,-33.4853,-0.367434,30.935,40.1042,-18.0368,2.1624,-14.5807,-38.3504,8.87348,-18.4002,74.3331,-8.20753,0.399822,-16.109
0.540802,17.58,4.36044,421.703,-81.9422,-409.069,24.1372,-6.37073,4.2558,6.54013,-7.62903,0.0845327,-6.626,-3.88436,-0.0488928,10.3608,16.0812,16.6271,-4.65127,22.8372,-17.5531,0.939737,11.8656,-7.56835,1.02573e-13,-6.04305e-14,-43.8745,-19.7565,-59.2817,99.0665,-44.6175,-15.942,-34.5059,7.12502,10.2561,-64.2359,1.02573e-13,-6.04305e-14,13.6341,-5.09771,70.4365,81.9607,1.44311,-29.3386,8.71549,7.12502,-2.6787,38.6784,-33.3967,0.0684573,30.6709,38.6685,-16.9459,1.54466,-15.7779,-36.47,9.46408,-18.9154,73.3665,-6.20925,1.56749,-16.6719
0.567458,17.6501,4.33812,417.639,-81.8736,-404.417,23.8628,-6.34099,3.64629,6.38224,-7.72137,0.157862,-6.58313,-3.91774,0.374696,9.75788,15.9489,16.139,-4.33851,22.5488,-17.1798,0.976118,11.6905,-7.3625,-2.94201e-14,0,-43.6343,-19.1065,-59.2982,98.4992,-45.2915,-16.1778,-34.4094,7.12502,10.0286,-64.1505,-2.94201e-14,0,16.182,-5.77104,71.0994,80.8597,1.63372,-29.6443,9.266,7.12502,-2.97396,39.225,-33.6157,0.517003,30.1547,37.6723,-16.0487,0.638337,-16.1981,-34.4206,9.82375,-19.5857,71.7146,-4.46416,2.52622,-16.9628
0.597825,17.7048,4.3361,411.714,-81.7428,-397.626,23.2176,-6.46703,3.30923,6.17974,-7.96399,0.131972,-6.45037,-4.02343,0.549038,9.07009,15.746,15.7279,-4.00316,22.1715,-16.8817,1.03897,11.4698,-7.18587,2.70347e-14,-1.74931e-14,-43.4569,-18.5838,-59.2265,98.0395,-45.9573,-16.4307,-34.3323,7.12502,9.78464,-64.085,2.70347e-14,-1.74931e-14,18.341,-6.46576,71.8723,79.8851,1.97738,-30.2009,9.33542,7.12502,-3.5115,39.2862,-34.6031,0.273221,29.5228,37.3271,-15.3051,-0.171674,-17.8545,-32.4715,9.66648,-20.5417,69.2978,-3.72428,3.56514,-18.8068
0.634847,17.7368,4.35571,404.586,-81.5935,-389.47,22.3851,-6.66731,3.13269,5.91508,-8.27202,0.0195269,-6.32091,-4.16089,0.541794,8.5818,15.4887,15.478,-3.87099,21.7511,-16.9071,1.06388,11.2452,-7.15242,7.39479e-14,-4.77083e-15,-43.4115,-18.1487,-58.9805,97.6845,-46.4661,-16.9044,-34.6813,7.12502,9.32754,-64.4549,7.39479e-14,-4.77083e-15,19.9659,-7.28211,72.7054,78.9853,2.45465,-30.2722,8.71699,7.12502,-3.58032,38.6667,-36.1061,-0.367686,28.5585,37.6315,-14.7123,0.0457519,-16.1371,-30.4754,9.11053,-21.7857,66.0011,-3.76535,5.07747,-21.2895
0.670549,17.7434,4.37218,399.073,-81.4669,-383.296,21.8724,-6.70934,2.85195,5.75329,-8.39131,-0.00624362,-6.20571,-4.21134,0.654172,7.97391,15.2475,14.6533,-3.85819,21.2795,-16.3674,0.937943,10.9802,-6.89109,4.13472e-14,4.13472e-14,-43.5049,-17.8341,-58.4431,97.5752,-47.0916,-17.3387,-35.23,7.12502,8.90852,-65.0219,4.13472e-14,4.13472e-14,20.9899,-8.13528,73.7862,78.2545,2.85609,-30.0453,8.23022,7.12502,-3.36123,38.1835,-37.3026,-1.03644,27.8808,38.7367,-14.717,-0.19104,-17.4037,-27.9151,8.62015,-22.7082,61.7817,-3.88781,6.65815,-24.6652
0.697112,17.7379,4.38527,395.186,-81.4214,-379.081,21.5571,-6.64425,2.49892,5.73047,-8.39129,-0.0352696,-6.0261,-4.20861,0.780095,7.38635,14.9037,14.7288,-3.73094,20.7699,-16.7839,1.04701,10.7145,-7.00471,7.39479e-14,-7.95139e-15,-43.6328,-17.6299,-57.865,97.7134,-47.9,-17.6249,-35.5951,7.12502,8.63236,-65.3986,7.39479e-14,-7.95139e-15,21.5678,-8.95561,74.8135,77.628,3.13543,-29.837,7.66325,7.12502,-3.16003,37.6196,-38.7594,-1.37595,27.3221,40.4624,-14.5095,-0.396288,-17.0225,-24.9167,8.1299,-23.2333,56.9299,-4.67034,6.78127,-30.5653
0.727283,17.6922,4.41071,391.825,-81.5491,-375.374,21.1375,-6.58135,2.21455,5.64304,-8.37972,-0.100858,-5.87765,-4.20005,0.820209,6.81528,14.676,14.0433,-3.58929,20.3543,-16.1308,0.971268,10.4736,-6.71595,9.78021e-14,-3.33958e-14,-43.7443,-17.3186,-57.2285,97.9466,-48.6358,-17.8614,-35.8168,7.12502,8.40412,-65.6296,9.78021e-14,-3.33958e-14,21.5142,-9.76458,75.6614,77.0904,3.3773,-29.7831,6.96317,7.12502,-3.10799,36.9203,-40.6149,-1.89013,26.8305,42.8867,-14.2761,-0.386108,-18.7566,-22.0166,7.55979,-23.7336,51.8682,-7.66943,4.73175,-31.7697
0.764771,17.6476,4.44208,389.01,-81.9455,-372.182,20.7753,-6.44822,1.8591,5.45889,-8.28851,-0.232715,-5.86261,-4.14963,0.822818,6.72318,14.4215,14.017,-3.57568,19.9989,-16.2828,0.95167,10.2966,-6.77864,4.92986e-14,-6.36111e-15,-43.917,-17.045,-56.6816,98.2611,-49.1838,-18.152,-36.1579,7.12502,8.12368,-65.9818,4.92986e-14,-6.36111e-15,20.8091,-10.7485,76.2191,76.5914,3.62756,-30.1258,6.21783,7.12502,-3.43897,36.1698,-42.802,-2.07286,26.2043,45.8211,-13.5573,-0.111702,-21.512,-19.3514,7.48753,-24.3495,47.4086,-10.3958,1.99284,-28.2256
0.809673,17.6015,4.46782,386.197,-82.4511,-369.031,20.5981,-6.28912,1.38456,5.24042,-8.17922,-0.32207,-5.95712,-4.08745,0.954702,6.42695,14.284,12.9434,-3.65831,19.6912,-15.4444,0.732164,10.1227,-6.41065,-1.11319e-14,5.56597e-15,-44.05,-16.7986,-56.1214,98.6956,-49.5673,-18.3655,-36.5444,7.12502,7.91754,-66.3761,-1.11319e-14,5.56597e-15,19.5601,-11.6385,76.7684,76.0537,3.45713,-30.4071,5.56665,7.12502,-3.7106,35.5141,-45.2823,-1.79956,25.4033,49.2312,-12.1802,0.440936,-24.5013,-17.5947,7.61061,-24.9746,43.6474,-12.1949,0.665467,-29.6974
0.85699,17.5503,4.48857,382.58,-82.7596,-365.122,20.484,-6.24775,0.969191,5.07096,-8.20774,-0.364347,-6.03208,-4.09259,1.14292,5.85555,14.2757,10.1306,-4.03323,19.4116,-13.0451,0.149462,9.93894,-5.38026,1.66979e-14,-4.6118e-14,-44.0488,-16.545,-55.6001,99.2456,-49.8637,-18.289,-36.7431,7.12502,7.99137,-66.5721,1.66979e-14,-4.6118e-14,17.8162,-12.1844,77.2944,75.5793,2.22558,-29.8535,5.47158,7.12502,-3.17598,35.4277,-48.0362,-1.60157,24.5789,52.8549,-9.97048,1.30712,-26.8055,-16.4244,7.73336,-25.621,40.9178,-14.0863,-0.952903,-31.012
0.895238,17.5102,4.5006,376.97,-82.8648,-359.327,20.4231,-6.26772,0.408805,4.93688,-8.34893,-0.438564,-6.0795,-4.15106,1.40771,5.64088,14.2484,9.94681,-4.14379,19.3356,-13.326,0.154339,9.90604,-5.42634,3.4191e-14,-5.56597e-15,-44.0615,-16.3124,-55.2199,99.8343,-50.0818,-18.2638,-36.8263,7.12502,8.01571,-66.6543,3.4191e-14,-5.56597e-15,15.4682,-12.741,77.6495,75.1547,0.627575,-28.9618,5.48782,7.12502,-2.31478,35.455,-50.7841,-1.55422,23.5853,56.3834,-7.22725,2.18994,-27.5473,-15.5502,7.73653,-26.488,38.8836,-15.4099,-1.90362,-31.9788
0.918634,17.4825,4.49776,370.641,-82.8565,-352.947,20.4842,-6.21191,-0.339677,4.82549,-8.43323,-0.515795,-6.13806,-4.17965,1.76882,5.66821,14.2202,10.4918,-4.1833,19.325,-14.2111,0.282445,9.91816,-5.74397,8.98507e-14,2.38542e-15,-44.2857,-16.2547,-54.9007,100.446,-50.1958,-18.4833,-36.9438,7.12502,7.8039,-66.7798,8.98507e-14,2.38542e-15,12.4775,-13.5414,78.0089,74.6911,-0.410657,-28.4644,4.99075,7.12502,-1.83448,34.9626,-53.1568,-1.40997,22.5361,59.4483,-4.72847,2.49806,-26.9581,-14.79,7.68744,-27.3802,37.4302,-15.934,-2.59148,-29.0827
0.919782,17.4651,4.49271,366.016,-82.7343,-348.384,20.529,-6.13375,-0.846402,4.78958,-8.43683,-0.514087,-6.12832,-4.17498,2.0541,5.76486,14.1701,11.3627,-4.1735,19.3165,-15.4747,0.486764,9.93819,-6.21462,-4.21423e-14,-6.99722e-14,-44.6652,-16.3849,-54.556,101.038,-50.2862,-18.6726,-36.9177,7.12502,7.62119,-66.7603,-4.21423e-14,-6.99722e-14,9.24692,-14.3276,78.584,73.5317,-1.35853,-28.1908,4.92405,7.12502,-1.57024,34.898,-54.8541,-1.27352,21.7596,61.7176,-2.78196,2.06768,-25.3149,-14.0964,7.61967,-27.9878,36.4571,-16.0298,-3.48709,-22.7559
0.889943,17.4643,4.50089,364.559,-82.5913,-347.156,20.4304,-6.13164,-0.70344,4.86201,-8.40432,-0.482633,-6.01466,-4.16601,1.98461,5.90395,14.1181,11.5073,-4.23389,19.2572,-15.9858,0.507556,9.9256,-6.39595,7.23576e-14,-1.11319e-14,-44.9456,-16.6453,-54.3765,101.298,-50.1568,-18.8583,-36.7399,7.12502,7.4419,-66.589,7.23576e-14,-1.11319e-14,5.86013,-14.9585,79.3264,71.3491,-2.4818,-27.9955,4.96447,7.12502,-1.38161,34.9397,-55.6135,-1.13652,21.4154,62.9976,-3.45532,1.55674,-22.5033,-13.442,7.52286,-28.214,35.8881,-16.0297,-3.13768,-22.0233
0.836225,17.4836,4.51883,366.573,-82.5983,-349.536,20.2778,-6.17026,0.0356077,4.96215,-8.30267,-0.424868,-5.92326,-4.12983,1.5944,6.3592,14.1113,11.6548,-4.27031,19.2788,-16.7249,0.520384,9.97138,-6.66345,5.40694e-14,-6.67916e-14,-45.096,-16.9615,-54.3791,101.149,-49.7473,-18.9917,-36.5934,7.12502,7.31319,-66.447,5.40694e-14,-6.67916e-14,2.13507,-15.2744,80.2689,68.3157,-3.77896,-27.5239,5.03391,7.12502,-0.926048,35.0116,-55.5828,-0.822683,21.6508,63.2649,-5.03925,0.914705,-19.7428,-12.903,7.44393,-27.9904,35.7368,-15.9564,-1.68198,-27.4334
0.766255,17.5128,4.53401,369.755,-82.8587,-353.124,20.1293,-6.12244,0.773524,5.00734,-8.0909,-0.357696,-5.88946,-4.03756,1.1919,6.41762,14.068,10.865,-3.8635,19.1932,-15.9696,0.46122,9.91302,-6.3411,8.18993e-14,1.90833e-14,-45.3364,-17.2812,-54.458,100.834,-49.2611,-18.9504,-36.4269,7.12502,7.35306,-66.2791,8.18993e-14,1.90833e-14,-1.86076,-15.0945,81.4194,64.439,-5.23791,-26.3051,6.46758,7.12502,0.25105,36.4472,-55.0599,-0.256963,22.1942,62.6627,-6.91411,-0.00960613,-18.7068,-12.5311,7.2151,-27.5752,36.1008,-15.7063,-0.246335,-31.3774
0.67474,17.5471,4.54216,373.586,-83.3922,-357.329,19.8386,-5.97014,1.30843,4.97879,-7.79169,-0.363433,-5.83966,-3.89986,0.790849,6.89719,14.0906,9.13941,-3.76591,19.1283,-14.0202,0.0379618,9.86287,-5.61763,8.11041e-14,-2.06736e-14,-45.8403,-17.5511,-54.6942,100.524,-48.9674,-19.0123,-36.3947,7.12502,7.29323,-66.249,8.11041e-14,-2.06736e-14,-6.16213,-14.1796,82.5621,59.9155,-6.5921,-24.5774,7.85576,7.12502,1.91974,37.8269,-54.1569,0.687204,22.7861,61.3983,-7.95536,-0.987507,-18.6936,-12.4822,7.01625,-27.0949,37.17,-15.1619,1.03406,-32.6175
0.562183,17.5811,4.54168,379.785,-83.9992,-363.773,19.4112,-5.83505,1.85236,4.9617,-7.51345,-0.279992,-5.68846,-3.7731,0.469383,7.07317,14.2223,11.434,-2.85548,19.5673,-16.2362,0.78466,10.1045,-6.47305,9.30312e-14,3.26007e-14,-46.1492,-17.6776,-55.008,100.182,-48.8679,-19.1483,-36.269,7.12502,7.16203,-66.1278,9.30312e-14,3.26007e-14,-10.45,-11.9502,83.6508,54.9741,-7.94702,-23.0873,8.72191,7.12502,3.35882,38.6752,-53.0393,1.98042,23.4779,59.7157,-7.74667,-1.33772,-18.3798,-12.9354,7.22854,-26.4005,38.9364,-13.8319,2.27145,-33.204
0.450218,17.5954,4.52582,383.633,-83.8045,-367.491,18.794,-6.02332,2.39359,4.71759,-7.65218,-0.238117,-5.69183,-3.84107,0.204012,7.36437,14.386,12.559,-2.26718,19.9595,-16.9855,1.15786,10.3077,-6.79742,1.59028e-15,3.73715e-14,-46.6561,-17.61,-55.4659,99.7926,-48.7908,-19.3265,-35.6471,7.12502,6.98997,-65.5116,1.59028e-15,3.73715e-14,-14.8673,-8.73649,84.2395,49.7538,-9.31061,-21.9292,9.89664,7.12502,4.47712,39.8293,-52.1222,2.68937,23.9953,58.0037,-6.44529,-0.542754,-19.6083,-14.2943,7.03142,-25.7875,41.5847,-11.7165,3.23299,-34.1647
