JuanDHNZ/ProyectoFinalCD/preprocessing/sports_trials_csv/93_07.csv
root1,root2,root3,root4,root5,root6,lowerback1,lowerback2,lowerback3,upperback1,upperback2,upperback3,thorax1,thorax2,thorax3,lowerneck1,lowerneck2,lowerneck3,upperneck1,upperneck2,upperneck3,head1,head2,head3,rclavicle1,rclavicle2,rhumerus1,rhumerus2,rhumerus3,rradius1,rwrist1,rhand1,rhand2,rfingers1,rthumb1,rthumb2,lclavicle1,lclavicle2,lhumerus1,lhumerus2,lhumerus3,lradius1,lwrist1,lhand1,lhand2,lfingers1,lthumb1,lthumb2,rfemur1,rfemur2,rfemur3,rtibia1,rfoot1,rfoot2,rtoes1,lfemur1,lfemur2,lfemur3,ltibia1,lfoot1,lfoot2,ltoes1
41.2422,16.945,2.96375,-41.867,-88.5573,39.2678,12.4001,-0.372899,-0.863139,2.07996,-0.781511,-1.57811,-4.78045,-0.420264,-1.03368,3.23936,1.70665,3.94796,-1.25959,2.3976,-1.92214,-0.861636,1.20144,-1.29968,1.2921e-15,-1.19271e-14,-34.6712,-7.99372,-82.534,17.2636,28.7362,-16.0883,-34.8244,7.12502,10.115,-64.5612,1.2921e-15,-1.19271e-14,-37.1397,-9.01846,93.2141,47.8831,-0.70012,-14.1577,22.1642,7.12502,11.9771,51.8016,-23.7342,0.130987,20.9331,61.0638,-19.4195,-2.01812,-25.5893,-3.8535,-1.15335,-26.7106,34.441,-27.2086,-4.83671,-18.6258
41.1317,17.0006,2.97522,-33.8413,-88.6549,31.8183,10.8388,-0.0381555,-1.00182,2.77303,-0.303614,-1.1779,-3.18687,-0.188125,-0.615359,2.9495,1.39424,4.13927,-1.87743,1.95646,-2.75422,-1.01402,0.986286,-1.59598,-8.94531e-16,8.34896e-15,-34.2938,-8.53089,-81.5227,16.4084,30.023,-13.6132,-36.2617,7.12502,12.5021,-65.8677,-8.94531e-16,8.34896e-15,-35.7677,-9.30099,93.7844,49.101,-0.112916,-13.9436,23.4154,7.12502,12.1835,53.0406,-25.3568,-0.0235522,21.2495,59.9878,-18.1781,-2.12729,-31.572,-3.4529,-1.15261,-26.4548,33.1644,-26.8232,-5.02176,-18.8315
41.0104,17.042,2.98641,-20.4507,-88.9119,19.0703,10.5708,-0.0638134,-0.620699,2.60177,-0.27655,-0.978907,-3.21779,-0.172163,-0.62753,2.79909,1.42502,4.07863,-1.86885,1.98032,-3.12556,-0.982746,1.00289,-1.70304,-3.27995e-15,3.57812e-15,-34.8836,-8.22721,-81.0452,15.7158,28.7752,-11.848,-35.6407,7.12502,14.2035,-65.1351,-3.27995e-15,3.57812e-15,-35.8527,-8.84121,93.8741,50.8428,0.429785,-15.0093,23.9597,7.12502,11.1558,53.6432,-26.8052,0.0316645,21.7479,58.211,-16.9554,-2.04884,-34.0171,-3.22224,-0.920374,-25.9993,32.1052,-26.8307,-4.95609,-21.0727
40.8816,17.0802,2.99641,0.690979,-89.1045,-1.45161,10.5237,-0.193466,-0.138927,2.32695,-0.382149,-0.837557,-3.48007,-0.223236,-0.738249,2.73466,1.42737,3.7894,-1.74615,1.97093,-3.15735,-0.934909,1.00061,-1.65962,-2.23633e-15,5.96354e-15,-35.5591,-7.02499,-81.2419,15.1243,26.6729,-11.2413,-36.0063,7.12502,14.788,-65.4587,-2.23633e-15,5.96354e-15,-36.2515,-8.38382,93.8552,52.741,1.05328,-15.9453,25.0745,7.12502,10.2529,54.8046,-28.2044,0.226725,22.2222,56.2268,-15.5016,-1.56244,-31.7182,-2.91661,-0.64708,-25.5104,30.9813,-26.5501,-5.33538,-21.1911
40.7531,17.1157,3.00195,12.2855,-89.0153,-12.4251,10.0435,-0.204408,-0.0656432,2.37748,-0.375438,-0.638637,-3.16138,-0.218525,-0.575856,2.70805,1.42116,3.75584,-2.18891,1.94764,-3.37323,-1.06979,0.990564,-1.72803,1.44119e-15,-4.77083e-15,-35.8048,-6.65898,-80.9561,14.4966,25.6201,-10.102,-36.7848,7.12502,15.8854,-66.1532,1.44119e-15,-4.77083e-15,-36.1114,-8.39366,94.0364,54.5386,2.00754,-16.2639,25.3662,7.12502,9.94554,55.1113,-29.5167,0.270342,22.4621,53.8434,-15.6433,-1.30583,-26.7434,-2.64457,-0.464193,-25.2353,29.9094,-25.9259,-6.02463,-19.4479
40.624,17.1466,3.00345,19.248,-88.7589,-18.844,10.2833,-0.301604,0.0454445,2.13621,-0.481004,-0.462632,-3.54493,-0.268949,-0.440648,2.74457,1.52522,3.73384,-2.60336,2.07554,-3.49506,-1.20189,1.05552,-1.77138,-6.65929e-15,7.95139e-16,-36.4257,-7.1105,-80.116,13.8135,26.1926,-8.98982,-36.7036,7.12502,16.9562,-65.9835,-6.65929e-15,7.95139e-16,-36.3395,-8.52955,94.2498,56.1627,2.75544,-16.8606,25.0184,7.12502,9.36981,54.7901,-30.6393,0.221024,22.6809,51.1825,-14.8337,-2.0442,-29.7859,-2.28523,-0.337472,-24.9425,28.8094,-25.1358,-6.63455,-17.1317
40.4969,17.1708,3.00144,18.0868,-88.2149,-17.2334,10.3681,-0.518031,0.18576,2.1556,-0.747654,-0.326196,-3.57371,-0.402042,-0.342299,2.8737,1.65973,3.67335,-3.51398,2.23529,-3.56863,-1.50867,1.13531,-1.80246,-5.29264e-15,-1.39149e-15,-36.6997,-8.41983,-78.8034,13.0987,28.6152,-8.0345,-35.786,7.12502,17.8756,-64.9845,-5.29264e-15,-1.39149e-15,-36.1076,-8.90272,94.3823,57.38,3.4562,-17.9708,23.8497,7.12502,8.29855,53.6667,-31.5536,-0.0374877,22.7617,48.3504,-15.6475,-1.88589,-21.237,-1.81256,-0.464685,-24.6906,27.6646,-24.1339,-7.35352,-13.8347
40.3653,17.192,2.99506,13.6289,-87.6293,-12.3176,10.4766,-0.717537,0.19317,2.19038,-1.00913,-0.249515,-3.59828,-0.531773,-0.230994,2.86706,1.62023,3.76261,-4.1972,2.16328,-3.72624,-1.72899,1.0982,-1.87897,-8.15017e-15,2.98177e-15,-37.0851,-10.0384,-77.3238,12.6505,31.7156,-6.95102,-35.1572,7.12502,18.9179,-64.2572,-8.15017e-15,2.98177e-15,-35.8084,-9.61569,94.5399,58.3242,4.08888,-20.0197,22.1902,7.12502,6.32081,52.0759,-32.4024,-0.301158,22.6323,45.4598,-15.8882,-2.02307,-19.0005,-1.30981,-0.583815,-24.5684,26.4699,-23.3511,-8.02245,-11.9495
40.2179,17.2085,2.98777,12.8952,-87.3631,-11.1893,10.5904,-0.77166,0.220468,2.23915,-1.07747,-0.20034,-3.61037,-0.56643,-0.184875,2.87879,1.64091,3.94893,-4.87357,2.17607,-3.86255,-1.94848,1.101,-1.96867,-5.2181e-15,5.96354e-15,-37.6345,-11.6032,-75.9446,12.4857,34.7238,-6.30854,-34.8084,7.12502,19.5357,-63.8469,-5.2181e-15,5.96354e-15,-35.4813,-10.5513,94.6995,59.0198,4.30477,-21.5772,20.6702,7.12502,4.81707,50.5954,-33.115,-0.235944,22.5141,42.6086,-15.2887,-2.11226,-18.8754,-0.638283,-0.527417,-24.4332,25.2159,-22.8269,-8.57193,-10.663
40.0587,17.217,2.9787,12.0491,-87.2031,-10.0195,10.7837,-0.79743,0.249198,2.27284,-1.10938,-0.184357,-3.68246,-0.583232,-0.177401,2.82564,1.71338,4.14933,-5.38638,2.26071,-3.97405,-2.1012,1.13816,-2.05125,2.55935e-15,0,-38.3455,-13.468,-74.3303,12.4049,38.7687,-6.02502,-34.2065,7.12502,19.8083,-63.2172,2.55935e-15,0,-35.1088,-11.5005,94.8204,59.3427,4.13987,-22.8938,18.4497,7.12502,3.54564,48.3999,-33.7105,-0.0947232,22.3229,39.9017,-13.7619,-1.79397,-17.1064,0.221511,-0.443301,-24.3335,23.8416,-22.1261,-9.19679,-8.70643
39.8942,17.2186,2.96449,7.94745,-87.0708,-5.5874,10.9205,-0.813687,0.0835823,2.33327,-1.15327,-0.216274,-3.69277,-0.604491,-0.109621,2.80607,1.81912,4.32224,-5.92754,2.38996,-4.05452,-2.2684,1.19662,-2.12163,-1.9307e-14,1.03368e-14,-38.9691,-15.6707,-72.534,12.2511,43.2365,-5.94652,-33.8013,7.12502,19.8838,-62.8041,-1.9307e-14,1.03368e-14,-34.6256,-12.3972,94.8879,59.2801,3.7913,-24.0297,16.0365,7.12502,2.44863,46.0022,-34.3174,0.069893,21.8829,37.4643,-11.8641,-1.03012,-15.2911,1.11326,-0.230681,-24.3863,22.41,-21.3798,-9.71363,-7.7746
39.7229,17.2214,2.94603,1.18668,-87.0577,1.48873,10.9409,-0.756864,-0.303847,2.45777,-1.12841,-0.283196,-3.56841,-0.590939,0.0346869,2.85193,1.97029,4.51716,-6.58242,2.58082,-4.12699,-2.48332,1.28375,-2.19946,-1.51573e-15,-5.1684e-15,-39.2668,-17.3474,-71.2988,12.1024,45.8231,-6.32301,-33.9493,7.12502,19.5218,-62.9893,-1.51573e-15,-5.1684e-15,-34.029,-13.2385,94.9108,58.9098,3.21764,-24.6727,14.4152,7.12502,1.82763,44.3871,-34.8651,0.330262,21.2717,35.3803,-10.5339,-0.180356,-14.8589,2.06379,-0.00691083,-24.6208,20.9635,-20.9126,-9.80159,-8.25132
39.539,17.2107,2.92392,-5.74206,-87.1825,8.71929,10.9161,-0.665327,-0.720605,2.54239,-1.05825,-0.330585,-3.46034,-0.554768,0.209312,2.95324,2.18945,4.68673,-7.17605,2.86521,-4.21238,-2.68482,1.41852,-2.28087,1.19519e-14,5.36719e-15,-39.366,-18.0118,-70.8332,12.0617,46.3446,-7.0831,-34.5641,7.12502,18.7909,-63.6764,1.19519e-14,5.36719e-15,-33.4832,-13.7809,94.8746,58.0508,2.18113,-25.6235,12.9915,7.12502,0.909353,42.9693,-35.4015,0.748136,20.6949,33.7793,-10.1349,0.572741,-13.8692,3.07582,0.285492,-24.8488,19.5602,-20.6816,-9.72834,-10.0674
39.3407,17.1903,2.9002,-12.3134,-87.409,15.5939,10.9302,-0.587035,-1.05306,2.49994,-0.992285,-0.347477,-3.50754,-0.518876,0.370475,3.04802,2.26829,4.74483,-7.21695,2.97426,-4.26783,-2.70976,1.47373,-2.31603,3.47873e-16,1.75924e-14,-39.4951,-18.6881,-70.2923,11.9018,47.0075,-7.94649,-35.0452,7.12502,17.9603,-64.236,3.47873e-16,1.75924e-14,-33.1455,-13.8089,94.7954,56.8651,0.996292,-26.4662,12.2738,7.12502,0.0954673,42.2535,-35.9121,1.30707,20.1979,32.716,-10.3781,1.03278,-11.7127,4.10832,0.733126,-24.9762,18.2284,-20.5233,-9.70206,-12.858
39.1315,17.1636,2.87514,-18.251,-87.5337,21.8165,10.8695,-0.541767,-1.33075,2.44878,-0.961036,-0.340078,-3.52305,-0.500124,0.529755,3.20062,2.47771,4.83825,-7.29778,3.26087,-4.35151,-2.74895,1.6176,-2.37431,3.62782e-15,-5.86415e-15,-39.5782,-20.0652,-69.2881,11.5163,48.7083,-8.43722,-35.1878,7.12502,17.4881,-64.4212,3.62782e-15,-5.86415e-15,-32.813,-13.4486,94.6684,55.2385,-0.391628,-27.2722,11.8126,7.12502,-0.682943,41.7913,-36.3318,1.65687,19.8473,32.2853,-10.5195,0.987147,-10.6614,5.09574,1.08473,-25.034,17.1026,-20.3741,-9.52687,-15.573
38.9073,17.1347,2.84728,-20.9151,-87.6341,24.7264,10.5429,-0.505744,-1.50642,2.51164,-0.922122,-0.246586,-3.27388,-0.48152,0.715387,3.31837,2.6913,4.93604,-7.44965,3.54337,-4.51749,-2.80432,1.7607,-2.46222,8.17502e-15,2.08724e-15,-39.522,-21.9072,-68.0211,11.0468,50.9113,-8.33813,-35.2324,7.12502,17.5835,-64.4573,8.17502e-15,2.08724e-15,-32.3639,-12.7906,94.5231,53.2805,-1.77666,-27.6072,11.2963,7.12502,-1.00657,41.2737,-36.604,1.68694,19.871,32.5277,-10.0284,0.486344,-10.9435,6.07256,1.26858,-24.9264,16.1965,-19.9653,-9.3767,-16.5702
38.6591,17.0994,2.81819,-23.0617,-87.9232,27.0705,11.0876,-0.704061,-1.27208,2.00555,-1.16143,-0.252242,-4.10105,-0.587982,0.623308,3.24547,3.0829,4.66457,-6.94584,4.07499,-4.37789,-2.59837,2.03322,-2.36435,-1.03989e-14,-1.09332e-15,-40.0049,-23.2117,-66.8077,10.5519,53.3904,-8.37583,-34.7303,7.12502,17.5472,-63.9585,-1.03989e-14,-1.09332e-15,-32.9029,-11.0976,94.0377,51.0138,-3.173,-27.1273,10.0161,7.12502,-0.543,39.9952,-36.6702,1.64425,20.2165,33.4202,-8.98117,-0.482086,-14.9726,7.06447,1.25732,-24.7722,15.5894,-19.7105,-9.09965,-17.4133
38.3937,17.0614,2.79134,-26.8639,-88.4486,31.0589,10.4046,-0.695467,-1.10771,2.15869,-1.11505,-0.124657,-3.56519,-0.571217,0.643862,3.17902,3.42143,4.56062,-6.92825,4.5076,-4.57004,-2.55623,2.25688,-2.41713,-6.70898e-15,-1.3418e-15,-39.5625,-25.0978,-65.7223,10.0275,55.8145,-8.32851,-34.2142,7.12502,17.5927,-63.4382,-6.70898e-15,-1.3418e-15,-32.6104,-9.63314,93.7025,48.5998,-4.08337,-26.2024,10.755,7.12502,0.350228,40.7345,-36.5624,1.58368,20.8218,34.756,-8.02695,-1.74463,-16.4875,7.96577,0.959722,-24.6712,15.3951,-19.9316,-8.2397,-20.4666
38.1243,17.0284,2.7669,-29.8343,-89.2152,34.2256,10.0499,-0.642887,-0.690533,2.09502,-0.986427,0.0598331,-3.44118,-0.509741,0.578672,3.22206,3.68242,4.45037,-6.87745,4.83939,-4.79892,-2.52763,2.43308,-2.48092,6.29899e-15,-1.11941e-14,-38.6189,-25.0512,-66.2591,9.64175,55.8317,-7.63844,-34.4189,7.12502,18.2567,-63.5822,6.29899e-15,-1.11941e-14,-32.6988,-7.65584,93.2395,45.9408,-4.66381,-25.4915,15.9015,7.12502,1.03687,45.8787,-36.4701,1.49221,21.7351,36.2523,-7.16406,-2.88157,-17.464,8.80054,0.378554,-24.4973,15.4073,-19.7378,-7.28869,-21.921
37.8505,17.0066,2.73841,-82.9,-90.1471,87.5132,10.3773,-0.552173,-0.0982675,1.61518,-0.780344,0.358974,-4.12831,-0.40497,0.537291,3.27449,3.88746,4.40206,-6.57021,5.10433,-5.09669,-2.41563,2.57827,-2.57009,-4.31735e-15,8.15017e-15,-38.2166,-24.8957,-66.4797,9.45032,55.8161,-6.76912,-34.4804,7.12502,19.0929,-63.5632,-4.31735e-15,8.15017e-15,-33.5571,-5.49784,92.8826,43.4103,-5.43855,-25.7836,15.8797,7.12502,0.754781,45.8581,-36.4387,1.49833,22.8076,37.5989,-8.8638,-3.42059,-18.405,9.23317,-0.437095,-24.1197,16.2659,-19.3604,-6.76961,-20.3109
37.5081,16.9885,2.72863,-29.6259,-92.0847,33.8872,9.83895,-0.21702,1.1022,1.83314,-0.208004,0.62833,-3.61061,-0.137993,0.0593366,3.3686,4.23007,4.29281,-6.69301,5.53873,-5.36945,-2.44667,2.80586,-2.65733,-1.73937e-15,-8.34896e-15,-36.998,-24.8477,-67.2328,9.18133,55.6629,-6.304,-34.6435,7.12502,19.5401,-63.6816,-1.73937e-15,-8.34896e-15,-34.1115,-2.81138,92.0644,40.8527,-6.39368,-25.6095,13.9813,7.12502,0.922891,43.959,-35.4776,2.15715,24.2685,38.6012,-10.6371,-2.3733,-17.7799,10.3576,-0.514038,-23.586,17.678,-19.8668,-5.24059,-23.2882
37.2403,16.9759,2.70516,-33.054,-93.3574,37.4741,9.99442,-0.180482,2.17363,1.56725,-0.0259884,0.891056,-3.97201,-0.0622916,-0.292938,3.48899,4.58793,4.1625,-6.69711,6.00346,-5.54837,-2.4435,3.04757,-2.70754,1.49089e-15,9.14409e-15,-35.6487,-24.7307,-68.1809,8.6779,55.5675,-6.39653,-34.5441,7.12502,19.4511,-63.5912,1.49089e-15,9.14409e-15,-35.1433,0.227199,90.8888,38.4115,-7.45202,-25.2317,13.6141,7.12502,1.28779,43.59,-35.0966,2.31659,25.4722,39.1788,-11.406,-1.05735,-16.136,10.1464,-0.690073,-22.9614,19.9085,-19.5646,-3.82341,-28.3764
36.9306,16.9852,2.6605,-46.9441,-93.6125,50.9995,10.1637,-0.600562,3.18572,1.5361,-0.460605,1.16479,-4.11268,-0.293941,-0.517628,3.58323,4.91457,4.07983,-6.62538,6.4311,-5.72375,-2.41075,3.26953,-2.76082,2.31087e-15,2.18663e-15,-34.1152,-24.6633,-69.3451,8.14512,55.8081,-6.55829,-34.459,7.12502,19.2956,-63.5218,2.31087e-15,2.18663e-15,-36.5594,3.29447,89.4213,36.378,-8.28323,-24.8517,13.9257,7.12502,1.65481,43.8991,-33.6386,1.93495,26.5418,39.413,-12.1092,-0.887814,-15.182,10.1518,-1.39679,-22.0045,22.9083,-18.1029,-4.0446,-27.8485
36.6258,16.9971,2.62903,-46.0507,-94.4415,49.908,10.1993,-0.696551,4.06453,1.46433,-0.485128,1.2991,-4.2138,-0.321908,-0.866882,3.66986,5.22875,4.05169,-6.47539,6.84658,-5.92672,-2.34825,3.48507,-2.82951,-8.62228e-15,2.99171e-14,-32.3993,-24.6668,-70.6744,7.713,55.994,-6.80567,-35.3695,7.12502,19.0577,-64.4558,-8.62228e-15,2.99171e-14,-38.2353,6.0281,87.8945,34.8081,-8.47794,-24.8351,15.1815,7.12502,1.67082,45.1547,-32.3058,1.94686,27.4376,39.4389,-13.0111,-0.423025,-15.4991,9.36406,-1.19549,-21.4124,26.9776,-15.9027,-4.19253,-25.1437
36.3134,17.0214,2.59258,-43.9206,-95.0797,47.4643,10.3543,-0.773464,4.69503,1.34362,-0.502414,1.34919,-4.43188,-0.346009,-1.16336,3.79164,5.50698,4.06608,-6.18062,7.22689,-6.08385,-2.24557,3.68153,-2.88579,9.21864e-15,-8.15017e-15,-30.7705,-24.693,-71.9943,7.3733,56.4093,-7.33207,-37.1047,7.12502,18.5514,-66.2401,9.21864e-15,-8.15017e-15,-40.082,8.54091,86.1783,32.9507,-8.46946,-25.1999,15.4122,7.12502,1.31854,45.3879,-30.6407,2.06095,28.0225,39.3085,-14.2975,-0.221276,-15.4654,8.27197,-0.642494,-20.9195,31.6346,-12.6932,-3.63057,-26.2566
36.0002,17.0436,2.55086,-40.7979,-95.519,43.9549,10.5325,-0.786079,5.03825,1.2235,-0.464533,1.31278,-4.6581,-0.339359,-1.39656,3.9097,5.70252,4.14916,-5.8185,7.50702,-6.1857,-2.12488,3.82483,-2.93121,-1.05356e-14,2.88238e-15,-29.5626,-24.7866,-73.05,7.66726,57.3318,-7.97588,-38.3952,7.12502,17.932,-67.5885,-1.05356e-14,2.88238e-15,-41.9095,10.5343,84.4355,30.9335,-8.47048,-25.5254,16.0551,7.12502,1.00417,46.0324,-28.8161,2.33402,28.2684,39.0731,-15.714,-0.12746,-13.52,6.70647,-0.0586093,-20.5577,36.8827,-8.32294,-2.65212,-30.1485
35.7098,17.0826,2.50058,-40.5085,-95.4605,43.4709,10.5935,-0.851232,5.14406,1.11431,-0.529075,1.28281,-4.81221,-0.377187,-1.47629,3.92088,5.78402,4.25104,-5.4621,7.63438,-6.24091,-1.99646,3.88857,-2.95714,1.31695e-15,1.94809e-14,-28.6086,-25.0542,-73.758,8.6887,58.1385,-8.53311,-38.6371,7.12502,17.3958,-67.8787,1.31695e-15,1.94809e-14,-43.4574,11.9975,82.8103,28.9475,-8.53425,-25.2555,16.6152,7.12502,1.26476,46.5912,-27.1628,2.27736,28.2951,38.6321,-16.9383,0.0839027,-10.333,4.25481,-0.0736332,-20.2336,42.5101,-2.75179,-2.3057,-36.7972
35.4185,17.1171,2.45698,-41.6435,-95.4863,44.4871,10.3271,-0.839014,5.47779,1.11356,-0.492458,1.29059,-4.66468,-0.362248,-1.66325,3.97234,5.77787,4.37945,-5.23673,7.64227,-6.29433,-1.92485,3.89254,-2.99236,2.16178e-14,-9.14409e-15,-27.8629,-25.4392,-74.1052,10.2595,58.6481,-8.73592,-38.0345,7.12502,17.2006,-67.2932,2.16178e-14,-9.14409e-15,-44.8295,13.1344,81.2799,27.1331,-8.98155,-24.644,17.2813,7.12502,1.85541,47.253,-25.4683,1.98372,28.4846,37.9145,-17.9281,0.665722,-7.68657,1.35675,-0.206934,-19.774,48.1383,5.65164,-0.416503,-24.6415
35.1458,17.1604,2.4134,-49.5112,-95.4229,52.6081,9.93591,-0.970587,6.23654,0.912413,-0.594701,1.42225,-4.67148,-0.429148,-1.93817,4.22528,5.7362,4.52294,-5.19658,7.60382,-6.34495,-1.95318,3.87577,-3.0451,1.2275e-14,-2.34566e-14,-25.6909,-16.0434,-79.2321,12.5574,48.4617,-8.65275,-38.8346,7.12502,17.2807,-68.0863,1.2275e-14,-2.34566e-14,-46.374,14.3565,79.4665,25.535,-10.3417,-23.2769,16.6322,7.12502,3.17571,46.5883,-24.0744,1.17499,29.1152,36.8871,-18.5944,0.935346,-6.95572,-2.42746,-0.852844,-18.8422,53.6766,12.9772,1.14998,-12.8331
34.8388,17.2046,2.38836,-52.4663,-96.4123,55.4311,9.78542,-0.798826,7.61203,0.82214,-0.2241,1.59138,-4.65777,-0.276874,-2.58217,4.28809,5.44875,4.66586,-4.72436,7.24773,-6.35265,-1.82647,3.69713,-3.05529,8.17502e-15,5.56597e-15,-24.8363,-7.92286,-82.8603,15.5528,39.9541,-8.68356,-39.3116,7.12502,17.251,-68.5659,8.17502e-15,5.56597e-15,-47.9971,14.9506,78.0744,24.5077,-12.1491,-22.0697,17.4437,7.12502,4.34151,47.3792,-22.0029,0.534064,30.282,35.593,-19.2999,1.57905,-8.29967,-5.59834,-0.633903,-17.4759,58.6864,19.0755,0.75575,0.623819
34.5728,17.2451,2.35167,-60.3317,-96.934,63.448,10.0122,-0.890678,8.815,0.463467,-0.159813,1.80064,-5.16321,-0.298567,-3.03836,4.2552,5.20721,4.9201,-4.21148,6.95879,-6.35239,-1.66281,3.54879,-3.07931,7.90169e-15,-1.21259e-14,-24.7122,-1.3775,-85.4101,19.0046,33.1712,-9.19871,-39.4374,7.12502,16.7552,-68.7344,7.90169e-15,-1.21259e-14,-49.6526,15.297,76.7129,23.6739,-13.6042,-20.7913,17.4643,7.12502,5.57588,47.371,-20.3327,-0.685664,31.383,34.1402,-19.863,2.14805,-10.2197,-9.3805,-1.08951,-16.0374,63.184,18.7016,-1.24917,0.0951843
34.2798,17.2801,2.3235,-63.0277,-97.8116,65.8949,9.77343,-0.716434,9.97024,0.637563,0.154324,2.0076,-4.80546,-0.154644,-3.50917,4.28826,4.97297,5.20812,-4.1494,6.66351,-6.43948,-1.65594,3.39962,-3.15735,-8.02593e-15,5.96354e-16,-24.3169,3.69089,-87.0657,22.5813,27.7877,-9.84028,-39.4128,7.12502,16.1375,-68.761,-8.02593e-15,5.96354e-16,-50.704,14.971,76.3611,23.3042,-14.4755,-20.2469,18.2205,7.12502,6.10149,48.1126,-18.0704,-1.68525,32.3684,32.602,-20.3045,3.336,-10.9617,-12.3615,-0.973121,-14.7591,66.785,14.4938,-3.9376,-10.6872
33.9958,17.3128,2.28676,-65.5799,-98.4568,68.1618,10.0929,-0.653459,10.8064,0.56042,0.377924,2.17916,-5.03436,-0.0791955,-3.82296,4.36057,4.81589,5.37296,-3.92736,6.47834,-6.37001,-1.606,3.30468,-3.1581,5.2181e-16,1.5704e-14,-24.25,7.7032,-88.1767,26.1566,23.6256,-10.4798,-39.4303,7.12502,15.5216,-68.8273,5.2181e-16,1.5704e-14,-52.1077,14.5855,75.954,23.1482,-15.1236,-20.1219,17.2829,7.12502,6.22213,47.1715,-15.9189,-2.78323,33.1267,31.1685,-20.4645,4.10168,-14.5902,-15.3621,-0.901691,-13.7175,69.5008,10.6611,-5.36968,-14.0846
33.7118,17.3421,2.24743,-66.5982,-98.8962,68.8708,9.78271,-0.494738,11.3135,0.913769,0.562379,2.27569,-4.4509,0.0374337,-4.02689,4.46175,4.66194,5.47475,-4.16547,6.27771,-6.31946,-1.71388,3.20285,-3.16872,7.82715e-15,4.37326e-15,-23.492,10.7075,-88.7069,29.5489,20.642,-11.0795,-39.1794,7.12502,14.9439,-68.6203,7.82715e-15,4.37326e-15,-52.8022,14.147,75.9329,23.2689,-15.0874,-19.8146,17.3259,7.12502,6.51876,47.2056,-13.9033,-3.72812,33.5703,29.9075,-20.4753,4.35401,-20.6295,-18.3129,-0.734974,-13.035,71.2353,7.85456,-5.60208,-16.324
33.4267,17.3567,2.20894,-66.1635,-99.1574,68.1446,10.3336,-0.285132,11.4903,0.767956,0.952295,2.30979,-4.85454,0.198702,-4.14591,4.4485,4.42119,5.63391,-3.89429,5.98096,-6.18297,-1.64209,3.04985,-3.13928,5.36719e-15,-8.54774e-15,-23.3699,12.7292,-88.9267,32.792,18.6333,-11.4867,-38.7187,7.12502,14.5516,-68.1883,5.36719e-15,-8.54774e-15,-54.1263,13.2556,75.9845,23.5273,-14.7112,-19.8004,17.2063,7.12502,6.53254,47.0856,-11.9936,-4.44399,33.7052,28.8652,-20.7243,4.71277,-23.2595,-21.1183,-0.530998,-12.7031,72.1015,5.03357,-5.36537,-18.4652
33.1403,17.358,2.17224,-65.4178,-99.095,67.193,10.6933,-0.157953,11.4323,0.656876,1.17576,2.21973,-5.14054,0.291334,-4.246,4.36416,4.21236,5.70723,-3.63549,5.72036,-5.96082,-1.56362,2.91356,-3.06359,-8.12532e-15,-4.33351e-14,-23.1039,14.3351,-89.057,35.9397,16.9185,-11.617,-39.024,7.12502,14.426,-68.5026,-8.12532e-15,-4.33351e-14,-55.3917,12.4307,76.0529,23.8611,-14.1029,-20.1699,16.2706,7.12502,6.17575,46.1605,-10.2596,-5.29326,33.4636,28.0172,-21.5392,5.76536,-20.7853,-23.7178,-0.534611,-12.806,72.1185,1.64315,-5.00525,-18.9788
32.8454,17.358,2.13822,-63.9176,-98.9763,65.6585,10.3178,0.0442231,11.3199,0.800157,1.36046,2.09771,-4.74592,0.410864,-4.33292,4.32017,3.99446,5.79497,-3.59139,5.44023,-5.80605,-1.56127,2.76877,-3.02096,-5.36719e-15,-1.90833e-14,-22.3579,15.5843,-88.9467,38.6156,16.2376,-12.4233,-39.3045,7.12502,13.649,-68.837,-5.36719e-15,-1.90833e-14,-56.2145,11.7945,76.1831,24.1723,-13.5677,-20.6191,15.3975,7.12502,5.74213,45.2997,-8.73685,-6.1706,33.0926,27.2516,-22.5571,7.36643,-15.172,-26.2008,-0.618247,-13.0461,71.253,-1.65952,-4.52613,-19.3926
32.5466,17.3611,2.10464,-61.7059,-98.955,63.5745,9.94114,0.250738,11.2728,0.836304,1.57047,1.96071,-4.45999,0.532868,-4.47248,4.36548,3.83414,5.76866,-3.58933,5.23717,-5.55535,-1.58814,2.66285,-2.93011,2.93207e-15,-2.14687e-14,-21.5406,16.6165,-88.8407,41.0641,15.615,-12.9489,-39.5767,7.12502,13.1424,-69.1425,2.93207e-15,-2.14687e-14,-57.0592,11.3829,76.1091,24.4837,-13.0763,-20.8118,14.8729,7.12502,5.55602,44.78,-7.33355,-7.01372,32.7523,26.3933,-23.0137,8.84085,-11.2539,-28.6313,-0.669046,-13.215,69.4565,-4.24478,-4.09373,-18.2053
32.2482,17.3782,2.07027,-59.3974,-98.9007,61.4419,9.62936,0.418399,11.1723,0.84574,1.73634,1.82156,-4.24706,0.629765,-4.57783,4.48909,3.70755,5.61409,-3.72807,5.07268,-5.27291,-1.67525,2.57719,-2.8119,6.78353e-15,2.54444e-14,-20.6784,17.4675,-88.6966,43.3564,15.0229,-13.221,-39.7523,7.12502,12.8802,-69.3349,6.78353e-15,2.54444e-14,-57.8351,11.1255,75.9761,24.7815,-12.5693,-20.6846,15.3441,7.12502,5.67883,45.248,-5.84923,-7.73257,32.3474,25.2757,-23.0083,10.1758,-9.30267,-30.7869,-0.745866,-13.4073,66.7106,-5.9912,-3.85548,-18.4321
31.9407,17.4031,2.03976,-56.4038,-98.9418,58.5652,9.34544,0.593763,11.1264,0.88839,1.91902,1.68414,-4.00964,0.735972,-4.71178,4.5221,3.62003,5.50201,-3.82233,4.95577,-5.08872,-1.72507,2.51594,-2.73113,2.6165e-14,4.57205e-15,-19.7775,18.2254,-88.5491,45.3364,14.5306,-12.9816,-41.4596,7.12502,13.1109,-71.0275,2.6165e-14,4.57205e-15,-58.5209,11.0158,75.7973,24.9436,-12.1859,-20.5456,16.434,7.12502,5.81308,46.3342,-4.09547,-8.06013,31.9409,23.8113,-23.4437,10.9128,-10.9787,-32.4018,-0.788211,-13.6023,63.1155,-6.92789,-3.29872,-21.5565
31.6264,17.4182,2.01298,-52.5582,-99.1784,54.6644,9.4154,1.49243,11.5811,0.802818,3.1604,1.01262,-3.87524,1.34857,-5.81852,4.403,2.75857,7.08226,-3.70517,3.89818,-5.15397,-1.70486,1.96615,-3.0213,2.37113e-14,5.31749e-15,-19.3739,16.1986,-88.4302,47.1175,14.4982,-11.668,-42.9451,7.12502,14.3769,-72.4272,2.37113e-14,5.31749e-15,-58.5091,8.45668,75.9454,24.834,-11.7875,-20.5838,16.3854,7.12502,5.77621,46.2867,-1.96011,-7.95267,31.5865,21.9508,-23.3126,11.3262,-12.3138,-33.4217,-0.738786,-13.7677,58.8699,-7.79253,-2.43707,-26.7681
31.3141,17.4288,1.98476,-48.4725,-99.5075,50.3858,9.57741,1.72052,11.5471,0.946344,3.46299,0.863735,-3.74938,1.51084,-5.99318,4.03092,2.62954,7.14788,-3.6105,3.70452,-5.19639,-1.61833,1.86631,-3.03243,-3.90736e-14,-2.23633e-16,-18.4488,16.8203,-88.359,48.545,14.1242,-9.99948,-41.5151,7.12502,15.9841,-70.8756,-3.90736e-14,-2.23633e-16,-58.8197,8.71514,75.4957,24.6377,-11.9572,-20.6876,15.5403,7.12502,5.67601,45.4443,0.494151,-7.37785,31.261,19.6851,-22.6874,11.2528,-12.6232,-34.0162,-0.635466,-13.9188,54.1696,-8.19023,-2.2916,-19.7674
31,17.435,1.9566,-44.8291,-99.9938,46.516,9.58038,2.02002,11.5812,1.15065,3.83999,0.752625,-3.45219,1.72147,-6.161,3.80164,2.36492,7.31543,-3.53135,3.33911,-5.36538,-1.57239,1.68333,-3.10848,2.19222e-14,3.97569e-15,-17.5198,17.3005,-88.2163,49.6507,13.7396,-16.3771,-37.5334,7.12502,9.83634,-67.2837,2.19222e-14,3.97569e-15,-58.8436,8.97972,75.1287,24.5764,-11.4869,-20.2638,16.8151,7.12502,6.08518,46.7077,3.19848,-6.51965,31.0687,17.0275,-21.7039,10.9734,-12.19,-34.4149,-0.335132,-13.9995,49.2468,-8.37307,-1.93678,-14.9131
30.6797,17.4324,1.93163,-41.9836,-100.779,43.392,9.62086,2.18348,11.7391,1.57761,4.03206,0.799734,-2.9743,1.85537,-6.20307,3.06099,2.3438,6.84995,-3.53443,3.24447,-5.15621,-1.45406,1.62915,-2.92996,-4.63603e-14,3.77691e-15,-16.0973,18.3454,-88.03,50.4504,13.3695,-16.2652,-37.8166,7.12502,9.94429,-67.5617,-4.63603e-14,3.77691e-15,-58.4924,10.2072,74.3966,23.9981,-12.1275,-20.1116,16.9751,7.12502,6.23205,46.8634,6.36677,-5.80149,31.048,13.6951,-20.3335,11.028,-12.3968,-34.6188,0.412502,-13.9807,44.3375,-8.55466,-0.832298,-14.683
30.3524,17.4247,1.90915,-39.77,-101.777,40.8125,9.75238,2.66455,12.3745,1.7416,4.72664,0.628227,-2.6707,2.21809,-6.79976,3.68174,1.9462,6.6501,-4.08915,2.7559,-4.55026,-1.78575,1.37595,-2.70465,-2.29721e-14,1.99903e-14,-15.4831,18.073,-88.0967,50.824,13.8689,-17.6784,-37.0233,7.12502,8.58067,-66.829,-2.29721e-14,1.99903e-14,-58.2044,10.2339,73.6702,23.1676,-13.0525,-19.9303,16.8924,7.12502,6.4071,46.7755,10.232,-4.21578,31.2502,9.23481,-18.2756,10.4394,-14.1064,-34.5995,1.46793,-13.8808,39.7542,-9.32782,0.0763094,-16.2334
30.0167,17.4205,1.88651,-38.1974,-102.82,38.7549,9.90662,3.01213,12.9453,2.07226,5.22372,0.588988,-2.24167,2.49883,-7.19153,3.56885,1.62555,6.3227,-4.17898,2.31775,-4.1523,-1.8258,1.15099,-2.50062,-4.37202e-14,-1.98288e-14,-14.5924,18.2939,-88.0912,50.8744,14.0939,-18.0518,-36.8897,7.12502,8.22037,-66.7098,-4.37202e-14,-1.98288e-14,-57.7397,11.137,72.5576,22.1927,-14.6322,-19.5871,16.5391,7.12502,6.73843,46.4119,16.6148,-2.67703,31.6629,-9.54166e-15,-13.8618,10.5346,-15.4477,-34.3708,2.53852,-13.6848,35.7866,-8.85067,0.154541,-14.7616
29.6723,17.3988,1.86496,-37.0245,-103.752,37.0643,10.3991,3.01109,13.2423,2.37995,5.28505,0.695686,-2.15182,2.53918,-7.27009,2.92434,1.63205,5.49181,-4.03309,2.26713,-3.72869,-1.6718,1.12501,-2.19141,-2.95847e-14,-2.88983e-14,-13.582,19.5224,-88.1706,50.5007,14.2356,-18.191,-36.8742,7.12502,8.08597,-66.6995,-2.95847e-14,-2.88983e-14,-57.629,13.4264,70.738,21.2675,-16.8655,-19.34,15.7032,7.12502,6.97694,45.5682,18.4056,-1.23195,31.9009,3.18055e-15,-13.8262,10.3129,-14.7564,-34.076,3.50475,-13.5361,32.6847,-8.90577,-0.241664,-14.9695
29.319,17.3645,1.84791,-36.2154,-104.456,35.8801,10.3804,3.11628,13.5527,2.64081,5.41838,0.733189,-1.80332,2.636,-7.3952,2.83904,1.39823,5.24264,-4.08295,1.93691,-3.73469,-1.69036,0.962855,-2.1414,-1.32471e-14,1.33186e-14,-12.8234,20.2467,-88.2474,49.7452,14.4122,-18.3511,-36.7971,7.12502,7.93151,-66.6283,-1.32471e-14,1.33186e-14,-57.556,15.3355,68.9989,20.4557,-18.8902,-19.5371,14.4239,7.12502,6.78672,44.2951,20.0473,0.0127391,32.0665,-2.22639e-14,-13.7639,10.1601,-15.6107,-33.9437,4.37741,-13.604,30.6833,-8.99023,-0.917402,-15.6728
28.9531,17.3159,1.8344,-35.8118,-104.864,35.2979,10.2071,3.09549,13.7723,2.73195,5.37374,0.74764,-1.59831,2.63116,-7.47803,3.13678,1.31269,4.78882,-4.38467,1.8196,-3.51389,-1.84956,0.90667,-1.99395,2.22515e-14,2.41026e-15,-12.3701,21.0648,-88.5053,48.6398,14.7329,-18.0097,-37.0177,7.12502,8.26101,-66.8362,2.22515e-14,2.41026e-15,-57.7609,17.0305,67.4653,19.8616,-20.2494,-20.2862,12.9783,7.12502,6.06354,42.8715,21.5304,0.98438,32.1722,-6.67916e-14,-13.9188,9.93304,-19.1738,-34.196,5.02409,-13.9003,29.8201,-9.36886,-1.53093,-17.4891
28.5719,17.2613,1.81865,-35.359,-104.985,34.7816,9.93416,3.0561,13.7703,2.67463,5.28744,0.683358,-1.52259,2.59439,-7.52054,3.42611,1.29008,4.68709,-4.58545,1.79588,-3.47301,-1.96873,0.896381,-1.96964,-2.81342e-14,1.75427e-14,-12.384,21.6735,-88.9546,47.347,15.2746,-17.6823,-37.2068,7.12502,8.57693,-67.0126,-2.81342e-14,1.75427e-14,-58.0362,18.2289,66.253,19.4731,-20.95,-21.3893,12.1614,7.12502,4.99845,42.0825,22.9486,1.75329,32.101,9.54166e-15,-13.5458,10.0342,-21.2363,-34.1872,5.29056,-14.3769,30.1005,-10.1366,-1.60026,-17.6351
28.179,17.1889,1.79513,-34.7581,-104.899,34.079,9.69329,3.05368,13.5002,2.52402,5.2428,0.529964,-1.5734,2.56845,-7.52121,3.70133,1.08402,4.69694,-4.58345,1.54538,-3.24978,-2.02959,0.768126,-1.89631,-3.50482e-14,1.25234e-14,-12.8321,21.7748,-89.5954,45.8959,15.8392,-17.1448,-37.4594,7.12502,9.0956,-67.2433,-3.50482e-14,1.25234e-14,-58.144,18.877,65.4121,19.3475,-20.739,-22.1379,12.2019,7.12502,4.27558,42.1387,24.4656,2.3813,31.8682,-5.08889e-14,-12.6349,10.3859,-21.9419,-33.9254,5.25856,-15.0098,31.2824,-10.1756,-0.887977,-18.8124
27.7747,17.1186,1.76254,-34.464,-104.616,33.604,9.56904,2.98292,12.994,2.35843,5.10574,0.396785,-1.74936,2.48731,-7.37355,3.67997,0.749846,4.49471,-4.33234,1.11356,-2.77504,-1.96195,0.546696,-1.68984,-2.47487e-14,1.27222e-14,-13.6751,21.5233,-90.3168,44.4601,16.5549,-15.8676,-37.6121,7.12502,10.3279,-67.3385,-2.47487e-14,1.27222e-14,-58.0552,19.4008,64.8806,19.441,-19.7233,-22.3843,12.3811,7.12502,4.03769,42.3226,26.1064,2.79546,31.5975,3.81667e-14,-11.8166,10.6918,-22.9892,-33.3295,5.17575,-15.7336,33.1007,-9.75263,-0.229166,-21.3599
27.358,17.0588,1.72317,-34.4307,-104.107,33.4472,9.45603,2.80272,12.2514,2.17736,4.80536,0.311303,-2.00555,2.32036,-7.03266,3.25141,0.501859,4.07309,-4.00049,0.774161,-2.12199,-1.78806,0.369269,-1.38644,-9.91439e-15,-2.10712e-14,-14.9646,21.1438,-91.0718,43.2319,17.5014,-14.4239,-37.5918,7.12502,11.7203,-67.2439,-9.91439e-15,-2.10712e-14,-57.8404,20.0217,64.536,19.5974,-18.5803,-22.6332,12.2659,7.12502,3.79729,42.2118,27.6824,2.98976,31.2775,4.77083e-14,-10.8323,11.0595,-25.168,-32.8683,5.4271,-16.7533,35.1314,-8.64352,0.805881,-31.0526
26.9322,17.0498,1.68208,-33.988,-103.342,32.9892,9.20961,2.62079,11.31,1.9515,4.47057,0.121264,-2.24128,2.14157,-6.67896,3.14368,0.215131,3.79399,-4.14789,0.396027,-1.55013,-1.82615,0.16954,-1.1455,2.55438e-14,1.11319e-14,-16.6233,20.2608,-91.9436,41.9564,18.4793,-13.8973,-37.0461,7.12502,12.2281,-66.6687,2.55438e-14,1.11319e-14,-57.2802,20.3714,64.4314,19.6788,-17.6093,-22.9091,12.307,7.12502,3.53086,42.2575,29.021,3.05062,30.7122,3.18055e-15,-8.99265,11.7491,-28.5106,-32.9951,4.2161,-17.2506,37.1426,-6.77346,1.78009,-23.5396
26.508,17.0425,1.64295,-32.8031,-102.329,31.7891,8.92447,2.4896,10.199,1.74457,4.17987,-0.200658,-2.41889,1.99335,-6.36685,3.2687,-0.261671,3.46353,-4.50141,-0.218721,-0.760095,-1.97428,-0.154893,-0.82374,2.58172e-14,-3.97569e-15,-18.4629,18.5267,-92.7643,40.4512,19.1861,-14.6649,-35.2414,7.12502,11.4879,-64.9066,2.58172e-14,-3.97569e-15,-56.1392,20.3029,64.7801,19.6178,-17.1803,-23.1106,12.8574,7.12502,3.33627,42.811,30.2755,3.00081,29.8595,-6.36111e-14,-5.82491,12.6514,-31.7251,-32.9182,2.71583,-18.0105,39.061,-5.85231,2.48548,-19.3772
26.0851,17.0444,1.60229,-30.6128,-101.123,29.4961,8.79109,2.39753,8.83244,1.53392,3.93218,-0.572643,-2.68169,1.86533,-5.97376,3.40095,-0.865736,3.00057,-4.85905,-1.00252,0.137633,-2.12033,-0.565806,-0.438705,2.57923e-14,1.23246e-14,-20.4623,16.2238,-93.3467,38.6715,19.5057,-15.6621,-33.9426,7.12502,10.5261,-63.659,2.57923e-14,1.23246e-14,-54.6389,20.0951,65.3247,19.3976,-17.5962,-23.0933,13.3907,7.12502,3.35301,43.344,25.6413,2.80447,28.7129,11.6707,-6.87548,12.9916,-34.0059,-32.2809,1.20631,-19.1616,40.6056,-6.40825,2.83449,-16.921
25.676,17.019,1.56002,-27.8283,-100.08,26.5879,8.33925,2.40895,7.46012,1.52842,3.78162,-0.884614,-2.53137,1.81118,-5.4907,3.48543,-1.49945,2.43141,-5.14639,-1.82902,1.09248,-2.22423,-0.998012,-0.0141334,-5.01931e-14,9.54166e-15,-22.2403,13.7345,-93.5559,36.5281,19.7834,-16.1783,-35.3319,7.12502,10.0282,-65.073,-5.01931e-14,9.54166e-15,-52.6994,20.1748,65.8328,19.1136,-18.6049,-23.0729,13.146,7.12502,3.37266,43.099,22.2055,2.85427,27.7199,20.4546,-4.41953,13.7153,-35.7886,-31.4021,-0.164474,-20.3208,41.8785,-7.52716,3.22308,-17.5123
25.2741,17.048,1.52125,-25.5492,-99.5165,24.3197,8.32955,2.4308,6.54379,1.20482,3.74055,-1.16795,-2.91168,1.77736,-5.28101,3.54135,-2.16382,2.06006,-4.97397,-2.7033,1.79154,-2.16717,-1.44406,0.294857,-2.24627e-14,8.74653e-15,-24.3761,11.0958,-93.7315,34.0558,20.4983,-16.7517,-37.1587,7.12502,9.47491,-66.9257,-2.24627e-14,8.74653e-15,-51.0985,19.9332,66.3553,19.3876,-19.1141,-23.143,12.9631,7.12502,3.30496,42.9172,18.7148,2.84329,26.8629,28.0015,1.11051,15.0027,-34.1852,-30.306,-0.983868,-21.0625,42.6495,-8.98176,3.11875,-16.5155
24.884,17.0924,1.49026,-23.1453,-99.334,22.0314,8.3029,2.34713,5.74873,0.969076,3.56276,-1.31763,-3.2071,1.6822,-4.98152,3.21344,-2.7522,1.89762,-4.73614,-3.50742,1.89129,-2.02552,-1.83983,0.368721,8.74653e-15,0,-26.0626,8.97258,-93.6286,31.2194,21.5455,-17.4292,-37.3546,7.12502,8.82116,-67.1502,8.74653e-15,0,-49.5578,19.9452,67.2338,20.4463,-18.6667,-23.0817,13.4133,7.12502,3.36418,43.3665,14.8799,3.31157,26.2138,34.897,9.82593,16.3075,-32.0891,-29.1333,-1.10744,-21.6808,42.9462,-10.3575,2.66498,-16.405
24.5189,17.1406,1.45884,-19.6643,-98.8644,18.6344,8.18113,2.03253,4.67595,0.988103,3.03312,-1.50813,-3.23163,1.43032,-4.51859,2.3479,-3.08463,1.94151,-4.47418,-3.99045,1.66535,-1.79093,-2.06998,0.283849,-4.13969e-14,-7.15625e-15,-27.1196,7.17117,-93.3415,28.5142,22.2414,-16.8476,-37.7378,7.12502,9.38238,-67.509,-4.13969e-14,-7.15625e-15,-47.8365,19.8391,68.567,22.1913,-16.9587,-23.3593,13.5613,7.12502,3.09611,43.5186,10.9899,3.9505,25.4655,41.1391,17.9947,16.1682,-25.8673,-27.7237,-1.08599,-22.6179,42.6226,-11.3329,2.18013,-16.4415
24.1241,17.2065,1.43904,-12.6998,-99.0769,11.6848,7.69687,1.98108,3.54701,0.842499,2.83791,-1.88297,-3.17042,1.3452,-4.2351,3.20165,-3.42035,1.53663,-5.04462,-4.40642,2.11492,-2.11028,-2.29172,0.528651,-5.62064e-14,1.74931e-14,-28.7224,5.0337,-92.89,26.1351,23.0199,-15.3675,-38.2025,7.12502,10.8103,-67.9043,-5.62064e-14,1.74931e-14,-46.7211,18.6888,70.1071,24.5414,-14.0113,-24.0292,13.6618,7.12502,2.44913,43.6275,7.2634,5.11113,24.1826,46.8868,23.1291,16.8077,-15.8462,-25.8621,-0.396264,-23.8861,41.8781,-12.4178,1.93666,-15.4887
23.7588,17.2795,1.41555,-6.21279,-99.5112,5.1602,7.70621,1.89197,2.37632,0.615791,2.6037,-2.24398,-3.4695,1.23061,-3.93576,3.72774,-3.70889,1.37139,-5.27289,-4.78021,2.19398,-2.27359,-2.48125,0.608651,1.79403e-14,8.74653e-15,-30.1773,2.74291,-92.1221,23.6337,24.7943,-13.809,-38.3775,7.12502,12.3132,-67.995,1.79403e-14,8.74653e-15,-45.7342,17.2155,71.6561,27.3464,-10.695,-24.5174,14.5109,7.12502,1.9777,44.4815,3.50417,6.15983,22.8746,52.1146,23.2673,17.8307,-21.2477,-23.9029,0.736136,-25.0919,40.7886,-13.2762,1.51223,-16.3322
23.4097,17.3339,1.39754,0.153241,-100.545,-1.40622,7.94731,1.96611,1.16694,0.416062,2.57077,-2.64243,-3.84987,1.21716,-3.68286,4.03769,-3.93354,1.29936,-5.26643,-5.08194,2.08552,-2.32752,-2.62703,0.603807,2.15681e-14,-2.8625e-14,-31.574,0.531411,-91.1546,21.8638,25.5281,-10.0739,-40.9523,7.12502,15.9125,-70.3185,2.15681e-14,-2.8625e-14,-44.8313,15.5378,73.077,30.4376,-7.99601,-24.8874,15.8391,7.12502,1.6203,45.8126,-0.251174,7.38727,21.3158,56.7578,20.9163,18.6424,-21.0272,-21.7728,2.14814,-26.3899,39.4866,-14.0608,0.940238,-17.5085
23.0959,17.3724,1.36624,6.72166,-100.693,-8.329,8.64466,1.37528,-0.687134,0.6252,1.58335,-2.72994,-4.1407,0.748848,-2.63854,2.59476,-3.62199,0.683055,-4.95535,-4.73685,2.00567,-1.95199,-2.43435,0.629726,-6.70898e-15,-1.43125e-14,-32.0088,0.464015,-90.4902,21.2131,23.7678,-4.13664,-46.3311,7.12502,21.6227,-75.1438,-6.70898e-15,-1.43125e-14,-43.4037,15.5325,74.1539,33.3548,-6.68459,-25.6317,16.7664,7.12502,0.901415,46.7443,-3.85695,7.52792,19.6639,60.7699,16.2516,18.5721,-20.7534,-19.596,2.90862,-27.8287,38.1154,-14.2046,0.0299332,-17.6654
22.741,17.4064,1.3531,10.8825,-101.888,-12.9554,8.84367,1.40896,-1.82148,0.617141,1.4814,-3.02092,-4.28704,0.709132,-2.29732,2.83221,-3.65691,0.582181,-5.20958,-4.78919,1.86514,-2.07824,-2.45775,0.614382,-3.69739e-14,2.62396e-14,-33.4005,-5.80063,-86.1193,16.9932,36.4397,-8.58374,-37.1549,7.12502,17.3471,-66.4007,-3.69739e-14,2.62396e-14,-42.3546,14.2625,75.0818,36.1201,-6.27035,-26.3065,17.0239,7.12502,0.249714,47.0035,-7.24373,8.40212,18.0959,63.9631,11.3466,17.8496,-17.1667,-17.1993,3.877,-29.0839,36.8357,-14.8145,-0.134888,-16.8036
22.4111,17.4364,1.33489,13.6241,-102.334,-15.9188,9.30614,1.17022,-2.6544,0.454993,1.03918,-3.1232,-4.74097,0.503093,-1.89567,2.60218,-3.59946,0.377316,-4.97784,-4.73687,1.62448,-1.96235,-2.4186,0.562265,-6.06293e-15,-4.77083e-15,-35.1732,-10.4208,-82.098,15.0836,43.7937,-8.92368,-35.4125,7.12502,17.0199,-64.6868,-6.06293e-15,-4.77083e-15,-41.2968,12.9715,75.9404,38.8706,-6.7548,-26.4217,17.3087,7.12502,0.138445,47.2884,-10.7766,8.51236,17.0296,66.2638,6.84718,15.2067,-19.5527,-15.2009,4.15925,-29.9091,35.7648,-15.4234,-0.379618,-16.0624
22.0758,17.4605,1.3187,14.462,-102.411,-16.8492,9.66556,0.843224,-2.92483,0.288808,0.555287,-3.05444,-5.12642,0.273899,-1.61679,2.47578,-3.58012,0.0547179,-4.84604,-4.73219,1.49146,-1.89231,-2.40555,0.569061,-7.03201e-15,3.57812e-14,-37.3183,-14.3786,-77.8001,13.9112,49.9915,-10.0825,-34.2007,7.12502,15.9042,-63.5676,-7.03201e-15,3.57812e-14,-40.1345,11.528,76.8231,41.6802,-7.99168,-26.012,18.898,7.12502,0.534125,48.8771,-14.1167,8.33843,16.6118,67.5481,2.32805,11.5264,-21.3927,-13.4315,4.13039,-30.2375,34.9578,-16.0448,-0.487691,-16.8198
21.7401,17.4768,1.30341,12.8589,-102.183,-15.0666,9.41744,0.478414,-2.5974,0.343569,0.147716,-2.74561,-4.93058,0.0724023,-1.41741,1.94544,-3.43929,-0.572454,-4.59524,-4.55882,1.79575,-1.69762,-2.31311,0.747508,3.40419e-14,-3.10104e-14,-39.2409,-17.6592,-73.463,13.0738,54.8245,-11.2822,-33.7072,7.12502,14.7486,-63.1625,3.40419e-14,-3.10104e-14,-38.5396,10.1088,77.7921,44.4056,-9.62221,-25.6016,20.2653,7.12502,0.930576,50.243,-17.384,8.0461,16.978,67.8346,-1.414,7.38827,-20.8032,-12.0903,4.16092,-29.8843,34.4349,-16.7016,-0.816184,-18.0699
21.3991,17.4925,1.28718,9.90038,-101.984,-11.8101,8.52019,0.152852,-2.06594,0.725511,-0.148399,-2.29047,-4.02911,-0.0810623,-1.19434,1.69339,-3.48474,-0.654528,-5.0107,-4.64386,1.38653,-1.79335,-2.34787,0.636823,-5.51627e-14,1.43125e-14,-40.7249,-20.914,-68.9253,12.2815,59.0112,-11.4186,-34.6356,7.12502,14.6172,-64.1005,-5.51627e-14,1.43125e-14,-36.4625,8.93878,78.6769,46.6934,-11.5398,-26.0497,19.1749,7.12502,0.497736,49.1541,-20.4559,7.76609,17.6876,67.1161,-4.49666,3.28587,-19.0069,-10.9143,4.59179,-29.1701,34.0634,-17.3019,-1.55356,-17.9632
21.0514,17.5036,1.26843,7.45889,-101.911,-9.11242,8.21329,-0.0972113,-1.58789,0.709406,-0.401065,-1.94377,-3.87548,-0.207482,-1.07349,2.39247,-3.81544,0.188379,-5.85175,-5.12705,0.0990848,-2.24549,-2.57624,0.136744,4.32357e-15,-7.95139e-16,-42.9413,-23.4587,-64.3642,11.7955,62.581,-11.0989,-36.0956,7.12502,14.9252,-65.5378,4.32357e-15,-7.95139e-16,-34.9276,7.53361,79.2281,48.8016,-13.0277,-26.8125,17.5,7.12502,-0.238997,47.4796,-23.1464,7.49872,18.273,65.4309,-7.18404,-0.537846,-17.7827,-9.6576,5.07188,-28.5854,33.6877,-17.7877,-2.40349,-16.2006
20.7051,17.5107,1.24696,6.06249,-101.813,-7.54223,8.48131,-0.308668,-1.32474,0.388441,-0.651891,-1.69817,-4.36083,-0.328005,-0.936993,2.15707,-3.68981,-0.595828,-5.2269,-4.94727,0.755329,-1.95998,-2.48553,0.451826,-1.963e-14,4.77083e-15,-45.5383,-24.8667,-60.1792,11.6034,65.5384,-10.9918,-37.1315,7.12502,15.0284,-66.5661,-1.963e-14,4.77083e-15,-33.718,5.91349,79.63,50.8258,-14.0249,-27.5138,16.3382,7.12502,-0.916299,46.316,-25.3998,7.20393,18.6602,62.7893,-9.30675,-3.98356,-16.5847,-8.25811,5.36998,-28.2403,33.1632,-18.1868,-3.10489,-14.9932
20.367,17.5202,1.22211,5.60296,-101.43,-6.98831,8.61886,-0.614149,-1.31967,0.298075,-1.04792,-1.47136,-4.53048,-0.518963,-0.654707,2.50807,-3.82116,-0.489974,-5.54923,-5.14192,0.397408,-2.13961,-2.57564,0.341328,2.19409e-14,-1.07344e-14,-47.6335,-26.1296,-56.2072,11.3541,68.4304,-11.1359,-37.3945,7.12502,14.8895,-66.8394,2.19409e-14,-1.07344e-14,-32.2922,4.41711,79.9529,52.943,-14.8608,-28.1978,15.6276,7.12502,-1.57698,45.6015,-27.1695,6.71878,18.8931,59.2042,-10.8091,-6.81327,-14.4795,-6.68896,5.47718,-28.0654,32.3718,-18.3463,-3.66005,-15.0535
20.0369,17.534,1.19278,5.46263,-100.741,-6.7586,8.79177,-0.975051,-1.31561,0.0988615,-1.52332,-1.31651,-4.83235,-0.74826,-0.432668,3.3359,-3.95116,-0.430829,-5.85503,-5.32185,0.286289,-2.39516,-2.66044,0.327594,2.49723e-15,1.70955e-14,-50.2256,-27.8152,-51.515,10.9808,71.9588,-11.8712,-36.9469,7.12502,14.1811,-66.4428,2.49723e-15,1.70955e-14,-31.2603,2.74099,80.0876,55.2364,-15.0981,-28.7564,15.1591,7.12502,-2.11647,45.1283,-28.4912,6.0428,19.12,54.7496,-11.8837,-8.78338,-13.6809,-4.96285,5.30815,-27.9058,31.2172,-18.203,-4.13279,-14.8229
19.7039,17.552,1.16417,5.79444,-100.081,-7.08828,9.33255,-1.33655,-1.32611,-0.220821,-2.01553,-1.23208,-5.4677,-0.98292,-0.258334,3.49735,-3.86512,-0.850979,-5.3522,-5.19332,0.763519,-2.23391,-2.59948,0.539199,-2.66744e-14,1.51076e-14,-53.0733,-29.4836,-46.4378,10.642,75.8795,-12.5116,-36.5142,7.12502,13.5639,-66.0524,-2.66744e-14,1.51076e-14,-30.4108,1.21838,80.0708,57.3732,-14.8105,-29.0715,14.4513,7.12502,-2.42073,44.4173,-29.4081,5.23688,19.2521,49.5709,-12.5793,-9.62149,-15.2449,-2.9955,5.16859,-27.8477,29.6894,-17.856,-4.37815,-14.5692
19.36,17.5667,1.13678,7.80745,-99.2511,-9.31038,8.45327,-1.73022,-1.80592,0.463202,-2.55338,-1.11057,-4.23053,-1.25238,0.168276,4.24088,-4.06916,-0.508925,-6.526,-5.49822,0.247346,-2.78578,-2.74215,0.369845,-2.85877e-14,-4.37326e-15,-54.7806,-32.0213,-41.6424,10.2908,80.0466,-12.3516,-36.5339,7.12502,13.7181,-66.0617,-2.85877e-14,-4.37326e-15,-28.2551,0.285887,80.1505,59.2694,-13.9766,-29.1081,13.7859,7.12502,-2.4561,43.7515,-29.8008,4.03642,19.1006,43.8382,-12.7222,-9.40414,-14.6867,-0.715834,5.06057,-28.0393,28.0012,-17.4015,-4.62746,-14.4301
19.0122,17.5716,1.10377,11.393,-98.1737,-13.1504,8.74848,-2.30265,-2.39923,0.840065,-3.37332,-0.979714,-3.94986,-1.65538,0.734152,2.82783,-3.88883,-0.861125,-5.99026,-5.25172,0.525525,-2.32873,-2.62636,0.462127,-5.86415e-15,5.36719e-15,-57.9558,-35.7746,-34.2699,9.89383,86.7802,-12.0783,-36.269,7.12502,13.9816,-65.7789,-5.86415e-15,5.36719e-15,-26.3896,-0.26079,80.0765,60.9629,-13.0109,-29.3543,13.164,7.12502,-2.69388,43.1268,-29.8763,2.62654,18.8326,37.9136,-12.6639,-7.03451,-17.0211,1.69914,5.12669,-28.2049,26.2045,-16.6487,-5.43301,-13.3901
18.6662,17.5574,1.06282,14.3721,-97.1721,-16.2967,8.95319,-2.77601,-2.811,1.15296,-4.04128,-0.825507,-3.68043,-1.98852,1.20018,2.28922,-3.91062,-0.608321,-6.22507,-5.29763,0.176777,-2.32513,-2.64917,0.302109,5.47155e-14,1.78906e-15,-62.1321,-39.4087,-26.1819,9.5904,93.5047,-11.6263,-35.9611,7.12502,14.4171,-65.4403,5.47155e-14,1.78906e-15,-24.524,-1.13805,80.0009,62.1692,-12.4399,-29.8212,12.9406,7.12502,-3.14483,42.8972,-29.933,1.44187,18.8183,32.0634,-12.6215,-4.26683,-17.9462,4.01696,5.44845,-28.0245,24.4313,-15.7278,-6.31886,-13.3332
18.317,17.556,1.01764,16.527,-96.2163,-18.604,8.97178,-3.18944,-3.01927,1.27161,-4.60257,-0.653266,-3.51512,-2.26795,1.55261,2.86363,-3.8226,-0.94865,-6.75854,-5.18674,0.508771,-2.58976,-2.59398,0.484679,-6.29278e-14,-2.18663e-15,-67.6441,-42.1713,-17.0538,9.49648,100.214,-11.0157,-35.5706,7.12502,15.0054,-65.0069,-6.29278e-14,-2.18663e-15,-23.2251,-2.0503,79.9323,63.1885,-11.8747,-30.2913,13.0179,7.12502,-3.59872,42.9672,-29.7711,0.858354,18.7481,26.8466,-11.9259,-1.71627,-17.0713,6.28055,5.2843,-27.716,22.7618,-14.8836,-6.76667,-12.8822
17.9582,17.5423,0.969744,20.8301,-95.2791,-23.0668,8.80126,-3.60825,-3.29513,1.12762,-5.17303,-0.530755,-3.50812,-2.54349,1.88676,4.77541,-3.72194,-1.55171,-7.65686,-5.0769,1.02605,-3.22555,-2.53309,0.817607,1.78782e-14,1.51076e-14,-74.0312,-43.7644,-7.14706,9.42689,106.682,-11.038,-34.8802,7.12502,14.9839,-64.3181,1.78782e-14,1.51076e-14,-22.7956,-2.76889,79.9201,64.0963,-11.5355,-30.7769,12.887,7.12502,-4.0677,42.8279,-29.5524,0.394635,18.4639,22.5395,-11.9576,0.0461415,-17.2418,8.4322,4.61599,-27.6167,21.3868,-14.0662,-7.14526,-9.74237
17.5886,17.5148,0.920091,28.0098,-94.4293,-30.3865,9.54801,-3.94648,-3.44019,0.822158,-5.66986,-0.488777,-4.19731,-2.76462,2.13941,4.56585,-3.69147,-1.84907,-7.32718,-5.03198,1.25879,-3.0595,-2.51165,0.929208,2.31708e-14,-9.64106e-15,-81.1087,-44.9295,3.3616,9.38553,113.587,-11.9591,-34.1253,7.12502,14.0964,-63.6272,2.31708e-14,-9.64106e-15,-22.3761,-3.50432,79.9756,64.7576,-11.8152,-31.0456,13.1282,7.12502,-4.32713,43.064,-29.3718,0.0617315,17.9859,19.7889,-12.016,1.25162,-17.468,10.4572,3.91267,-27.6185,20.2769,-13.3549,-7.36276,-8.58265
17.2103,17.4715,0.866714,34.0952,-93.6319,-36.5668,9.37189,-4.2114,-3.53718,1.27974,-6.00967,-0.255488,-3.56728,-2.95564,2.43204,3.73015,-3.81595,-1.47524,-7.75312,-5.21929,0.741406,-3.06749,-2.60169,0.691352,4.29546e-14,-3.52843e-15,-88.9558,-46.7862,14.5935,9.42836,120.415,-12.8933,-33.8467,7.12502,13.1961,-63.4091,4.29546e-14,-3.52843e-15,-20.6111,-3.83229,80.1592,64.914,-12.4298,-31.2427,13.4574,7.12502,-4.51753,43.3892,-29.3679,0.0642849,17.7621,18.7777,-11.5566,1.5221,-16.5428,12.2526,3.1649,-27.3938,19.6381,-12.8776,-7.30516,-10.688
16.8214,17.4163,0.810093,35.2395,-92.8862,-37.7758,9.18733,-4.42457,-3.08671,1.3497,-6.23085,-0.0558297,-3.40335,-3.07519,2.39328,3.16009,-3.58634,-2.23508,-7.23455,-4.89001,1.42721,-2.75296,-2.44254,1.00359,-1.38668e-14,-8.10048e-15,-97.3063,-46.8372,26.0333,9.60443,126.161,-11.7471,-34.8726,7.12502,14.3007,-64.3601,-1.38668e-14,-8.10048e-15,-19.7109,-4.30474,80.373,64.7608,-12.7848,-31.4323,13.0578,7.12502,-4.70054,42.9856,-29.3518,0.589651,17.89,19.5022,-11.0399,-0.67702,-15.4681,13.791,2.35144,-26.8972,19.5403,-12.4139,-6.97312,-12.9421
16.4168,17.3517,0.754608,30.7355,-92.2447,-33.3608,8.96656,-4.56203,-2.44496,1.28039,-6.33233,0.210029,-3.38579,-3.13078,2.30877,3.20603,-3.49187,-2.51592,-6.94965,-4.77658,1.39452,-2.66246,-2.37709,1.03295,-3.4545e-14,9.44227e-15,-105.371,-45.625,37.23,10.3685,136.024,-13.5658,-33.0656,7.12502,12.5478,-62.6688,-3.4545e-14,9.44227e-15,-19.481,-4.7609,80.8363,64.6046,-12.957,-31.249,12.5833,7.12502,-4.52356,42.515,-29.1902,0.975955,18.3763,21.4305,-9.99048,-3.15875,-17.7856,15.0483,1.49867,-26.3418,20.1696,-12.1968,-6.38349,-16.2182
15.9875,17.276,0.705495,23.0066,-91.9474,-25.9864,8.82376,-4.58309,-1.92479,1.26591,-6.29686,0.498569,-3.34654,-3.11914,2.30355,3.86237,-3.60618,-2.054,-7.28782,-5.00574,0.236369,-2.9353,-2.46137,0.61497,-2.8625e-14,8.15017e-15,-107.828,-45.2031,40.6973,10.7042,137.594,-10.2199,-34.716,7.12502,15.7719,-64.0934,-2.8625e-14,8.15017e-15,-19.8299,-5.12794,81.6269,64.5177,-13.3004,-31.1098,12.622,7.12502,-4.38914,42.5565,-28.658,0.744489,19.0826,24.1906,-9.16054,-4.50784,-23.4342,16.682,0.821062,-26.0209,20.8658,-12.1345,-5.75623,-21.5234
15.5463,17.1865,0.659428,23.8177,-91.6769,-27.0743,8.51323,-4.65311,-1.54843,1.14139,-6.34159,0.691568,-3.32,-3.14378,2.27786,4.05343,-3.4656,-2.27357,-6.92215,-4.86752,-0.30351,-2.85769,-2.36945,0.47324,2.25869e-14,-3.18055e-15,-113.138,-43.6724,48.178,11.1748,143.194,-8.84782,-36.0987,7.12502,17.0929,-65.3668,2.25869e-14,-3.18055e-15,-20.7799,-5.50637,82.5635,64.3966,-13.468,-31.2556,12.8599,7.12502,-4.52995,42.7915,-28.0263,-0.164136,19.6655,27.0538,-10.5186,-5.503,-18.6697,18.1386,-0.0588449,-26.1237,21.7893,-11.4927,-5.22032,-24.7295
15.0849,17.1723,0.615359,23.8361,-91.5067,-27.2845,7.98889,-4.68341,-1.13639,1.00936,-6.33115,0.8857,-3.1887,-3.14338,2.20795,3.50209,-3.00123,-2.95489,-5.76639,-4.24656,-0.372419,-2.36208,-2.05534,0.516088,-8.37753e-14,1.51076e-14,-117.483,-42.0271,54.2734,11.5904,148.417,-8.38601,-37.1622,7.12502,17.5374,-66.3912,-8.37753e-14,1.51076e-14,-22.102,-5.81053,83.6515,64.2318,-13.2982,-31.4175,12.5665,7.12502,-4.68627,42.4946,-27.9778,-1.4432,20.3574,29.8391,-8.25239,-5.85502,-30.6325,19.0482,-0.966126,-26.3174,23.4178,-9.8309,-4.5273,-24.6867
14.6225,17.1693,0.574111,22.0342,-91.238,-25.6054,7.45515,-4.68416,-0.645412,0.868381,-6.27898,1.14793,-3.0633,-3.12304,2.16022,2.97487,-2.59813,-3.20717,-4.69025,-3.71095,-0.969501,-1.92734,-1.78493,0.33154,2.53699e-14,-9.54166e-15,-120.833,-40.6777,58.7966,11.8509,152.435,-8.70305,-37.8417,7.12502,17.2323,-67.0976,2.53699e-14,-9.54166e-15,-23.5234,-5.94593,85.0185,63.7016,-13.2322,-31.0652,12.4044,7.12502,-4.34606,42.3398,-28.1095,-1.29866,20.2393,32.2567,-6.53028,-3.39493,-27.0793,19.1983,-2.04271,-26.5317,26.2062,-7.86221,-3.46166,-24.7959
14.1881,17.172,0.534643,-10.6552,-90.4531,7.11175,7.13917,-4.77551,0.266124,0.619245,-6.31542,1.54844,-3.19681,-3.14848,2.05983,2.55153,-2.25293,-2.96013,-3.75842,-3.25545,-2.10276,-1.57996,-1.55759,-0.0885159,6.01075e-14,1.59028e-14,-123.111,-39.8892,61.4698,11.9116,154.991,-8.65242,-38.168,7.12502,17.281,-67.4197,6.01075e-14,1.59028e-14,-25.1546,-5.98041,86.5745,62.8814,-13.4442,-30.2559,12.1206,7.12502,-3.5646,42.0706,-27.9042,-1.93312,20.8252,34.2253,-4.38794,-1.05945,-16.2229,18.3362,-3.36078,-26.22,30.2019,-4.05878,-2.08895,-20.0252
13.7651,17.1707,0.493142,-77.7645,-91.5754,74.053,7.08234,-4.6583,1.9867,0.471577,-6.01244,2.17985,-3.43549,-3.0215,1.74087,2.38924,-1.96742,-2.32109,-3.14475,-2.88856,-3.5088,-1.39203,-1.37493,-0.642731,-5.86539e-14,3.97569e-15,-123.14,-40.6939,60.5225,11.6509,154.544,-8.98347,-37.4532,7.12502,16.9623,-66.7325,-5.86539e-14,3.97569e-15,-26.947,-5.95535,88.1695,61.7916,-13.6726,-30.1003,10.4145,7.12502,-3.41435,40.3669,-26.8987,-2.03921,22.667,35.5998,-5.53221,-2.45856,-18.8879,16.7852,-3.68251,-24.6468,35.3823,-0.00915347,-0.497152,-25.6878
13.3681,17.1688,0.445707,-84.621,-93.3202,80.7386,7.21652,-4.47571,3.88001,0.385387,-5.60528,2.88203,-3.71512,-2.85349,1.40303,2.06493,-1.68389,-1.46158,-2.50141,-2.50497,-4.99166,-1.16997,-1.19353,-1.26169,-7.60786e-14,2.3059e-14,-121.783,-42.7247,57.1687,11.1961,151.937,-8.26947,-36.7058,7.12502,17.6495,-65.9248,-7.60786e-14,2.3059e-14,-28.5131,-5.97115,89.6998,60.1255,-13.7362,-30.0761,9.23763,7.12502,-3.39098,39.1904,-25.6275,-1.48254,24.7967,36.5317,-6.84873,-2.91865,-17.5119,14.4062,-3.668,-22.4924,41.2445,6.02321,2.02222,-18.3778
12.9858,17.1742,0.401582,-87.6828,-94.7138,83.488,7.51531,-4.26232,5.42964,0.416609,-5.17736,3.38589,-3.93601,-2.67418,1.05271,1.88514,-1.59068,-0.209834,-2.17454,-2.38346,-6.59462,-1.08365,-1.14021,-1.99624,-3.63714e-14,3.33958e-14,-119.72,-45.3386,52.5264,10.6561,148.134,-8.26947,-35.7806,7.12502,17.6495,-64.9995,-3.63714e-14,3.33958e-14,-29.9889,-6.05838,91.0796,58.072,-13.7643,-29.5751,8.97416,7.12502,-2.90715,38.9341,-23.9807,-1.03859,26.4428,36.9561,-8.42838,-3.65676,-15.6231,11.7103,-3.72702,-20.7114,47.1595,12.8967,6.33671,-4.85853
12.6237,17.1959,0.35278,-91.241,-95.7977,86.7552,7.88611,-4.06969,6.56677,0.477967,-4.79915,3.74859,-4.13105,-2.51381,0.78938,1.21976,-1.2993,0.414548,-1.39485,-1.93096,-7.1279,-0.724081,-0.944335,-2.29125,9.23728e-15,7.95139e-15,-108.664,-51.3303,35.9488,9.86991,135.327,-7.3003,-35.4856,7.12502,18.582,-64.6181,9.23728e-15,7.95139e-15,-31.4639,-6.07366,92.2481,55.8564,-13.8419,-28.5606,8.57297,7.12502,-1.92736,38.544,-22.1498,-1.14899,27.791,36.8969,-10.0926,-4.1632,-14.6562,8.71662,-3.99448,-19.2129,52.7679,19.1405,9.99766,2.37683
12.2688,17.2298,0.299902,-93.5562,-96.9417,88.7393,8.21173,-3.83739,7.66958,0.640435,-4.37783,4.06398,-4.18306,-2.32983,0.478611,0.887984,-1.09137,1.30001,-1.1063,-1.62529,-7.72758,-0.580844,-0.80485,-2.65674,2.004e-14,-1.27222e-14,-94.0161,-55.2474,16.0885,9.06695,122.689,-7.58905,-35.9413,7.12502,18.3042,-65.1001,2.004e-14,-1.27222e-14,-32.7688,-5.96096,93.1824,53.417,-13.9697,-26.7375,8.66642,7.12502,-0.166512,38.6461,-20.1173,-1.58213,29.2518,36.3906,-11.1544,-4.44948,-16.2244,5.66077,-4.24798,-17.5748,57.8103,25.8963,10.9777,4.45521
11.9213,17.2701,0.246118,-96.0487,-98.0995,90.8469,8.58634,-3.6326,8.74239,0.830371,-3.9879,4.32524,-4.22494,-2.16016,0.132322,0.542871,-0.856908,1.31035,-0.77549,-1.2641,-7.1019,-0.393428,-0.634609,-2.45384,-1.90088e-15,-2.3059e-14,-76.9172,-55.7737,-5.89043,8.46883,109.725,-9.22891,-37.0008,7.12502,16.7261,-66.3002,-1.90088e-15,-2.3059e-14,-34.0293,-5.59897,93.8424,50.7881,-14.0287,-24.6726,8.90937,7.12502,1.8278,38.8813,-17.9171,-2.15442,30.6662,35.5908,-11.8976,-4.65675,-16.4117,2.56189,-4.57083,-15.8794,62.2394,29.1842,10.1213,-1.97285
11.578,17.3231,0.19684,-98.0477,-99.0061,92.405,9.02634,-3.43691,9.59304,1.01641,-3.61482,4.46025,-4.2917,-1.9939,-0.220376,1.20556,-0.608848,1.29079,-1.48355,-0.94889,-6.3445,-0.708127,-0.450107,-2.20245,-3.23274e-14,3.57812e-14,-60.5829,-52.8309,-26.7492,8.36656,96.8978,-11.3953,-38.0282,7.12502,14.6397,-67.4914,-3.23274e-14,3.57812e-14,-35.3464,-4.98471,94.177,48.0145,-13.7178,-22.7922,9.01466,7.12502,3.64373,38.9633,-15.5598,-2.70275,31.7352,34.5756,-12.6803,-4.78208,-14.7578,-0.348421,-4.84194,-14.5064,65.9323,27.8468,5.79713,0.472517
11.2441,17.3532,0.154932,-99.2961,-99.5756,93.2225,9.43554,-3.20116,10.1853,1.21975,-3.21262,4.44476,-4.30524,-1.80446,-0.600783,0.810861,-0.515867,2.08582,-1.15618,-0.791646,-6.53853,-0.537794,-0.383615,-2.41176,-3.07744e-14,4.13472e-14,-47.1986,-47.1559,-44.2187,8.69564,84.9048,-12.7337,-38.8464,7.12502,13.3499,-68.3987,-3.07744e-14,4.13472e-14,-36.5189,-4.07476,94.0896,44.8257,-13.4581,-21.0865,9.33457,7.12502,5.29081,39.2485,-13.3354,-3.23768,32.4339,33.5859,-13.2883,-5.08379,-15.9126,-3.2508,-5.02231,-13.599,69.0143,22.9445,1.77533,-5.98023
10.9209,17.3803,0.115973,-100.082,-99.9762,93.8103,9.70131,-2.96813,10.6472,1.36309,-2.83635,4.34548,-4.29422,-1.62377,-1.00326,0.87262,-0.326818,2.56977,-1.34275,-0.52701,-6.26375,-0.59535,-0.247793,-2.41185,-1.99033e-14,4.53229e-14,-37.1403,-39.3274,-57.9539,9.4938,73.4932,-12.8687,-39.5015,7.12502,13.2197,-69.0623,-1.99033e-14,4.53229e-14,-37.4707,-2.51191,93.387,41.1997,-13.6414,-19.4706,10.1615,7.12502,6.85088,40.0306,-11.4375,-3.69422,32.9365,32.6153,-13.6669,-5.29977,-19.5299,-6.46231,-5.11825,-12.9377,71.3714,17.8062,-1.55854,-10.5776
10.6049,17.394,0.0768512,-100.118,-100.238,93.9144,9.78225,-2.73984,10.9717,1.42383,-2.49553,4.2056,-4.26062,-1.45754,-1.37618,1.25373,-0.290494,2.81049,-1.47948,-0.462245,-5.90979,-0.700073,-0.208604,-2.34025,-1.64494e-14,7.196e-14,-30.042,-29.7821,-68.3917,10.9596,61.9305,-12.5127,-40.1501,7.12502,13.5629,-69.6883,-1.64494e-14,7.196e-14,-38.3801,-0.195615,92.0032,37.3108,-14.0343,-18.6849,11.0728,7.12502,7.60926,40.916,-10.0011,-3.97397,33.2943,31.8567,-14.4585,-5.27994,-19.8652,-9.93651,-4.97098,-12.4386,73.0152,13.3133,-3.34787,-13.6537
10.2822,17.4222,0.0382755,-98.9426,-100.165,92.9536,9.6663,-2.42259,10.9796,1.45988,-2.09359,3.97723,-4.12385,-1.25024,-1.68636,1.48442,-0.189942,2.96645,-1.57311,-0.311636,-5.53596,-0.760808,-0.130631,-2.24773,-3.38555e-14,-2.38542e-15,-25.3634,-20.1464,-75.7559,12.909,51.7227,-12.6686,-40.4521,7.12502,13.4126,-70.0003,-3.38555e-14,-2.38542e-15,-39.4211,2.84054,89.8291,33.1765,-15.0796,-19.2334,11.4097,7.12502,7.07987,41.2713,-8.77667,-4.14391,33.298,31.2576,-16.0381,-5.04402,-15.4623,-13.322,-4.51019,-12.2972,73.6994,9.88876,-3.70118,-15.1071
9.95755,17.4481,0.00388706,-96.7372,-99.7242,91.103,9.44672,-2.02966,10.706,1.44661,-1.62667,3.60473,-3.968,-1.00407,-2.00244,1.54969,-0.203495,3.14126,-1.50068,-0.310462,-5.20015,-0.748094,-0.131649,-2.16873,4.72114e-15,-1.94809e-14,-22.2324,-13.2066,-80.1998,14.7875,45.8207,-13.546,-39.8566,7.12502,12.5668,-69.4587,4.72114e-15,-1.94809e-14,-40.7328,6.65366,86.6199,29.1478,-16.9107,-20.253,11.5778,7.12502,6.09559,41.4701,-7.72975,-4.31605,32.8766,30.8258,-17.274,-4.56981,-13.5505,-16.6027,-3.83559,-12.612,73.5057,5.74777,-3.7199,-16.7787
9.63402,17.4656,-0.0290817,-94.009,-99.2938,88.8224,9.23839,-1.66933,10.4646,1.40182,-1.19433,3.20943,-3.85445,-0.777977,-2.34909,1.65353,-0.215432,3.08993,-1.49316,-0.311662,-4.70915,-0.76044,-0.133352,-1.99877,-2.02139e-14,4.37326e-15,-19.637,-6.85444,-83.4697,16.8568,40.925,-14.2469,-39.6521,7.12502,11.891,-69.2944,-2.02139e-14,4.37326e-15,-42.2869,11.2338,82.2805,25.3253,-19.2245,-21.4723,11.9028,7.12502,4.91834,41.8257,-6.72283,-4.45796,32.4476,30.4022,-18.2131,-3.99537,-13.474,-19.7382,-3.08216,-12.9564,72.459,2.1535,-3.64924,-16.7669
9.30755,17.4783,-0.0624376,-91.2085,-99.1007,86.515,8.9678,-1.31322,10.4439,1.32212,-0.751957,2.85201,-3.7403,-0.551858,-2.77482,1.2978,0.105412,3.80699,-1.29647,0.126044,-5.0184,-0.621884,0.0794543,-2.23238,6.89534e-16,-4.57205e-15,-17.5066,-0.863435,-85.8559,19.2864,36.1516,-14.686,-39.7572,7.12502,11.4676,-69.4235,6.89534e-16,-4.57205e-15,-44.3378,16.4255,76.5683,21.6187,-22.338,-22.8841,12.7522,7.12502,3.55502,42.7023,-5.71019,-4.61208,32.2608,29.9393,-19.0257,-3.49295,-13.6403,-22.6643,-2.29015,-13.064,70.5227,-1.0962,-3.70815,-16.2575
8.97329,17.4959,-0.0912774,-87.9537,-98.8805,83.7372,8.71771,-0.841971,10.5076,1.09944,-0.13296,2.36803,-3.76045,-0.248322,-3.39595,1.89188,-0.0262089,4.23471,-1.37281,-0.0179866,-4.87386,-0.756282,0.0128022,-2.26439,1.39149e-15,-3.22031e-14,-15.9382,3.85611,-87.4293,21.9066,32.0486,-14.974,-39.6845,7.12502,11.1898,-69.3661,1.39149e-15,-3.22031e-14,-47.5521,21.8157,68.9475,18.3507,-27.0625,-24.0897,14.5792,7.12502,2.39069,44.5456,-4.56799,-5.10716,31.9188,29.218,-19.797,-2.658,-13.6327,-25.1922,-1.47571,-13.2958,67.6327,-3.86508,-3.88128,-18.4223
8.63137,17.5163,-0.113431,-84.3543,-98.6688,80.5,8.64463,-0.473639,10.5877,0.989347,0.360266,1.91763,-3.76583,-0.00578607,-3.97321,1.99312,-0.192258,4.30904,-1.23824,-0.22445,-4.63348,-0.740567,-0.0912513,-2.19577,-2.34581e-15,-2.1506e-14,-14.284,8.03174,-88.4252,24.7016,28.3925,-15.0288,-40.014,7.12502,11.1369,-69.6984,-2.34581e-15,-2.1506e-14,-52.3349,28.2759,58.5281,15.5444,-34.5791,-25.0832,16.6204,7.12502,1.43124,46.5953,-3.07662,-5.99562,31.3941,28.0522,-20.5405,-1.36686,-13.5615,-27.1293,-0.751844,-13.6177,63.806,-6.10381,-4.00034,-19.6816
8.28475,17.537,-0.133108,-80.8034,-98.7081,77.1986,8.65808,-0.134482,10.8613,0.928284,0.837991,1.57546,-3.75901,0.226014,-4.54199,2.23996,-0.289525,4.41935,-1.62218,-0.352306,-4.63661,-0.911364,-0.152719,-2.21827,-8.57569e-15,-2.3556e-14,-12.6718,11.6354,-88.876,27.5767,25.0989,-15.1116,-40.2134,7.12502,11.0571,-69.9022,-8.57569e-15,-2.3556e-14,-59.8321,34.9294,44.3206,13.2644,-45.2146,-26.0076,17.8798,7.12502,0.538383,47.8589,-1.1906,-6.63319,31.0822,26.3878,-20.9652,-0.271699,-14.0104,-28.5645,-0.12721,-13.6969,59.1519,-7.71476,-4.13158,-20.095
7.93606,17.5654,-0.156062,-76.3546,-98.947,72.9241,8.79875,0.194825,11.0744,0.88121,1.314,1.38701,-3.8033,0.454264,-4.91637,2.40704,-0.161464,4.2888,-1.7075,-0.177577,-4.47867,-0.957172,-0.0643295,-2.14616,-2.37237e-14,-1.19271e-15,-10.9885,15.0534,-88.8745,30.299,22.0587,-15.2361,-39.847,7.12502,10.937,-69.5422,-2.37237e-14,-1.19271e-15,-70.3209,39.9437,26.9049,11.8816,-56.689,-26.625,18.0523,7.12502,-0.0578632,48.032,0.985723,-6.65807,30.9798,24.2412,-20.9984,0.444366,-14.6805,-29.6356,0.54293,-13.5545,53.841,-8.40768,-4.41306,-20.4501
7.58602,17.5919,-0.176697,-71.5099,-99.3949,68.1999,8.99947,0.520975,11.3057,0.901105,1.79068,1.30636,-3.8057,0.685685,-5.18823,2.43671,-0.126242,3.9215,-1.79941,-0.139668,-4.2736,-0.986405,-0.0450259,-2.01353,-1.03244e-14,6.75868e-15,-9.1881,18.0498,-88.49,32.8798,19.6806,-15.5263,-39.5075,7.12502,10.6571,-69.2173,-1.03244e-14,6.75868e-15,-81.6425,42.036,9.12769,11.2629,-66.4979,-26.6008,18.7985,7.12502,-0.0344861,48.7782,3.41884,-6.45268,30.9962,21.6395,-20.7624,1.13368,-15.0594,-30.3758,1.14001,-13.1905,48.1528,-8.71498,-4.86244,-20.4121
7.23273,17.6013,-0.189281,-67.4783,-100.014,64.2433,9.17148,0.81792,11.7072,1.00807,2.23302,1.26011,-3.69437,0.906095,-5.51259,1.73608,0.154631,4.23576,-1.76501,0.209334,-4.76984,-0.84139,0.124173,-2.23456,-4.41053e-15,-2.3059e-14,-7.29731,20.527,-87.8279,35.3975,17.9842,-15.8069,-39.323,7.12502,10.3864,-69.0465,-4.41053e-15,-2.3059e-14,-91.9407,41.6196,-7.18761,11.0213,-75.3963,-26.2195,21.0737,7.12502,0.333736,51.0532,6.10287,-6.22776,31.0978,18.6771,-20.3034,1.76086,-15.5462,-30.8437,1.40528,-12.5782,42.3807,-8.79192,-5.28312,-19.3594
6.87098,17.6013,-0.191861,-63.8002,-100.563,60.6262,9.24376,1.11779,12.1234,1.13163,2.66425,1.13721,-3.49964,1.12806,-5.92027,1.79259,-0.0558725,3.69957,-2.01441,-0.0830913,-4.38696,-0.93963,-0.0212893,-2.00974,-2.80783e-15,-4.67144e-14,-5.45721,22.1928,-87.1078,37.7239,16.9039,-15.9204,-38.9988,7.12502,10.2769,-68.7278,-2.80783e-15,-4.67144e-14,-99.2393,39.5729,-19.6405,11.0185,-82.8379,-25.9327,22.6464,7.12502,0.610793,52.6252,9.05832,-5.95817,31.0181,15.1896,-19.5309,2.3687,-16.2544,-31.1873,1.33271,-11.9457,36.965,-8.86151,-5.66403,-18.4369
6.5008,17.5889,-0.183614,-60.1575,-101.147,57.0476,9.22853,1.44451,12.6229,1.25565,3.12538,0.973064,-3.23374,1.37034,-6.41486,1.84454,-0.204149,3.43649,-2.28804,-0.291353,-4.23032,-1.04145,-0.124255,-1.91044,4.97583e-14,-1.43125e-14,-3.69171,23.3703,-86.3395,39.825,16.0485,-15.9427,-38.6858,7.12502,10.2554,-68.4158,4.97583e-14,-1.43125e-14,-102.297,37.3551,-26.0263,11.1037,-86.5733,-25.646,23.2981,7.12502,0.887623,53.2759,12.3361,-5.76855,30.7813,11.0256,-18.3339,3.32816,-16.5782,-31.6344,0.963847,-11.1717,32.3927,-9.37098,-6.12799,-18.5229
6.13004,17.5853,-0.17762,-56.8169,-101.908,53.7571,9.23275,1.78387,13.0654,1.37993,3.60084,0.89534,-2.97325,1.62144,-6.78366,1.83941,-0.234968,3.36903,-2.54578,-0.344525,-4.28273,-1.12421,-0.14957,-1.91636,-1.59773e-14,-3.10104e-14,-2.03264,24.7011,-85.4105,41.8607,14.9927,-16.231,-38.3993,7.12502,9.97735,-68.1429,-1.59773e-14,-3.10104e-14,-102.468,35.6197,-27.642,11.1525,-86.7651,-25.2064,24.1333,7.12502,1.31218,54.109,16.4165,-3.93677,31.104,5.25054,-15.7934,2.98535,-16.7632,-32.0469,0.688657,-10.2424,29.0645,-9.67699,-5.38359,-18.2971
5.7586,17.5616,-0.176107,-54.2244,-102.66,51.3036,9.05062,2.09139,13.2504,1.54119,3.97827,0.931952,-2.60798,1.83631,-6.86202,1.64641,-0.161695,3.34577,-2.7304,-0.263819,-4.42565,-1.1466,-0.109622,-1.96048,-5.3001e-14,-1.23246e-14,-0.397214,25.8755,-84.3983,43.6761,14.2105,-16.8767,-37.7808,7.12502,9.35432,-67.5533,-5.3001e-14,-1.23246e-14,-101.28,34.3049,-26.3355,11.1726,-84.787,-24.8658,24.5017,7.12502,1.64118,54.4751,20.2071,-2.23511,31.6425,1.59028e-14,-13.3887,2.54194,-18.2503,-32.5203,0.908248,-9.52219,27.1675,-10.1213,-4.50763,-18.6745
5.38155,17.5109,-0.166671,-53.2702,-103.249,50.5467,8.70988,2.26268,13.4352,1.7306,4.1465,1.04965,-2.17343,1.9533,-6.82222,1.50717,-0.121121,3.29192,-3.02082,-0.231864,-4.60094,-1.21399,-0.0926491,-2.0101,4.61677e-14,4.37326e-15,1.21941,26.725,-83.3997,45.132,13.8232,-17.3849,-37.1737,7.12502,8.86393,-66.9675,4.61677e-14,4.37326e-15,-99.3806,33.2633,-23.0402,11.1514,-81.3915,-24.5271,24.4529,7.12502,1.96826,54.4235,21.365,-0.869518,32.1461,-4.45278e-14,-13.4134,1.65331,-20.7502,-33.0852,1.60028,-9.20916,26.7773,-10.8865,-4.28505,-20.9143
4.99277,17.4355,-0.152613,-53.0391,-103.64,50.2767,8.75217,2.3241,13.538,1.80356,4.23393,1.11058,-2.09667,2.00239,-6.81981,1.71764,-0.126323,3.27484,-3.37449,-0.248119,-4.64003,-1.3643,-0.0968973,-2.02357,-9.83984e-15,2.8625e-14,2.1525,27.0299,-82.934,46.3965,13.8406,-17.6702,-37.0554,7.12502,8.58859,-66.8607,-9.83984e-15,2.8625e-14,-96.8161,32.2019,-18.2909,11.142,-76.5995,-23.8466,24.7032,7.12502,2.62548,54.6668,22.8253,0.260922,32.5124,6.99722e-14,-13.3906,0.945615,-23.0691,-33.1948,1.65279,-8.91933,27.634,-11.4553,-4.08092,-19.9725
4.59264,17.355,-0.142678,-52.9476,-103.81,49.9097,9.13225,2.30428,13.3755,1.79368,4.2535,1.06348,-2.32396,1.997,-6.807,1.98514,-0.115274,3.39285,-3.58377,-0.223015,-4.50573,-1.47695,-0.083888,-2.00462,3.19049e-14,3.57812e-14,2.23579,26.9785,-83.1024,47.7065,14.0129,-17.7885,-37.5231,7.12502,8.47441,-67.3331,3.19049e-14,3.57812e-14,-93.7094,30.979,-12.196,11.2442,-70.355,-22.8879,24.9127,7.12502,3.55135,54.8628,24.5846,1.231,32.6966,-2.8625e-14,-13.3393,0.334441,-24.8065,-32.7668,1.3148,-8.79201,29.1236,-11.5793,-3.10396,-18.3743
4.1784,17.2475,-0.133662,-53.2152,-103.533,49.8293,9.40196,2.20194,12.8687,1.83544,4.10771,0.894711,-2.48576,1.92145,-6.71114,1.96081,-0.141456,3.69206,-3.52111,-0.237534,-4.32919,-1.45384,-0.0975631,-1.99974,6.85807e-15,-3.57812e-15,1.92857,26.9213,-83.4699,48.9343,13.9211,-17.9552,-38.063,7.12502,8.31359,-67.8794,6.85807e-15,-3.57812e-15,-91.7136,29.7937,-7.87585,11.3362,-65.672,-22.1393,24.1832,7.12502,4.27425,54.1201,26.5088,1.8732,32.5675,4.13472e-14,-13.1442,-0.146722,-26.586,-32.1368,1.3666,-9.44265,31.2136,-11.0337,-2.17619,-21.2935
3.74556,17.1705,-0.123888,-52.8448,-102.801,49.1995,9.40799,2.12991,11.9262,1.8292,3.92504,0.577483,-2.57837,1.83748,-6.51126,1.5336,-0.073965,4.1642,-3.1351,-0.129275,-4.19601,-1.25273,-0.0549015,-2.03743,-2.93207e-14,-4.49253e-14,1.16017,26.6601,-84.0449,49.9449,13.8692,-18.281,-38.3035,7.12502,7.99912,-68.1321,-2.93207e-14,-4.49253e-14,-91.5378,28.8768,-7.27612,11.2427,-64.6054,-21.8088,22.6565,7.12502,4.59342,52.5867,28.3584,2.37919,31.9799,-1.59028e-14,-12.5406,-0.428549,-29.0838,-31.4199,1.49169,-10.7547,33.2585,-10.4557,-0.574498,-29.2005
3.29855,17.1533,-0.113193,-52.1921,-102.079,48.6122,9.07206,2.10536,10.991,1.65513,3.77747,0.220572,-2.64525,1.76863,-6.34283,0.751056,0.02971,5.04316,-2.28034,0.0140643,-4.42699,-0.844143,0.00543581,-2.26534,2.78299e-15,3.18055e-14,-0.526208,26.0727,-85.0437,51.3098,13.9986,-18.5247,-38.5643,7.12502,7.76392,-68.4017,2.78299e-15,3.18055e-14,-92.2666,28.2228,-8.68076,11.0376,-65.5124,-21.5514,21.2643,7.12502,4.84196,51.189,29.7966,2.93022,31.4325,-1.59028e-14,-11.2037,-0.53905,-32.0303,-31.417,2.37394,-12.4465,35.3488,-8.28834,1.43639,-38.9442
2.84031,17.1881,-0.101943,-51.4855,-101.402,48.182,8.66334,2.10542,10.2175,1.29495,3.68469,-0.259887,-2.83541,1.71419,-6.40089,0.785492,-0.0878969,5.29594,-1.8804,-0.110536,-3.68979,-0.728124,-0.0616218,-2.06518,2.93207e-15,4.77083e-15,-3.11416,25.0333,-86.6532,52.7662,14.1393,-18.8632,-38.8339,7.12502,7.43715,-68.6832,2.93207e-15,4.77083e-15,-93.5146,27.8137,-11.8477,10.748,-68.0408,-21.1357,20.2833,7.12502,5.24331,50.1985,30.9305,3.49636,30.9725,-1.27222e-14,-8.95626,-0.423353,-34.7209,-31.9165,1.60732,-13.0954,37.186,-6.76419,1.95463,-23.6603
2.3809,17.1893,-0.0902288,-49.7775,-100.531,46.6907,8.42992,2.15804,9.3039,0.857608,3.66527,-0.919643,-3.18528,1.6871,-6.58802,0.74796,-0.251777,5.42663,-1.2534,-0.30413,-2.61865,-0.52977,-0.161649,-1.73506,6.70898e-15,5.56597e-15,-5.85366,23.8192,-88.4853,53.4109,13.991,-19.3622,-39.1741,7.12502,6.95553,-69.0398,6.70898e-15,5.56597e-15,-95.0431,27.682,-16.3084,10.4406,-72.0891,-20.3681,19.8664,7.12502,5.98443,49.7619,27.3271,4.05819,30.1724,9.63138,-10.3538,-1.15887,-37.1699,-31.9488,0.952662,-14.1683,39.078,-5.02524,2.60633,-12.3746
1.93062,17.192,-0.0768999,-46.8327,-99.4686,43.8363,8.2286,2.2352,8.04734,0.550225,3.63297,-1.55221,-3.43841,1.6673,-6.54587,0.53964,-0.355673,5.40378,-0.558503,-0.44629,-1.58687,-0.279477,-0.231473,-1.39639,-4.25896e-14,1.27222e-14,-9.09556,22.2836,-90.2062,54.1725,14.0522,-19.5837,-39.047,7.12502,6.74168,-68.9197,-4.25896e-14,1.27222e-14,-97.4551,27.9713,-22.1353,10.1987,-77.9299,-19.3891,19.6621,7.12502,6.92957,49.5287,24.6675,4.55333,29.231,17.3691,-9.35781,-1.15901,-39.155,-31.2162,0.438554,-15.7869,40.5686,-5.64406,2.22903,-15.1515
1.50805,17.1674,-0.0588898,-43.2987,-98.432,40.3584,8.11119,2.28812,6.72408,0.33137,3.56191,-2.05187,-3.66178,1.63436,-6.32013,0.347566,-0.402943,5.42092,-0.00585271,-0.525515,-0.890983,-0.0767562,-0.266609,-1.1775,-2.38542e-15,-1.27222e-14,-12.175,21.1104,-91.5718,54.2768,13.8319,-20.0149,-38.2272,7.12502,6.32544,-68.1128,-2.38542e-15,-1.27222e-14,-101.104,28.3819,-29.4399,10.0745,-85.5137,-18.5398,19.2807,7.12502,7.74933,49.1187,21.9533,5.04938,28.2952,24.8656,-6.90488,-0.866039,-39.682,-30.5049,-0.48577,-17.2952,41.8688,-6.84524,2.12942,-15.1401
1.09359,17.2133,-0.0331147,-39.7896,-97.5891,36.877,8.11885,2.23899,5.59859,0.187949,3.37951,-2.38389,-3.88842,1.54696,-6.02126,0.31415,-0.616408,4.86506,0.552653,-0.826993,0.0239526,0.0970161,-0.410691,-0.794567,-5.72003e-14,2.54444e-14,-15.0855,20.4492,-92.7659,53.6788,13.4003,-20.5787,-37.8095,7.12502,5.78115,-67.7106,-5.72003e-14,2.54444e-14,-104.426,28.9584,-34.6557,10.0103,-91.2558,-17.8762,19.2877,7.12502,8.38981,49.1011,18.6542,5.06454,27.2137,31.999,-1.17988,0.384841,-38.2256,-29.3816,-1.25126,-18.6105,42.6092,-8.18754,1.8813,-14.8545
0.691901,17.2624,-0.000892151,-35.654,-96.8073,32.7367,8.12878,2.099,4.53091,0.154089,3.07882,-2.62096,-4.01421,1.4081,-5.63701,-0.0981728,-0.579835,4.21594,1.2862,-0.8244,0.846503,0.393397,-0.397354,-0.435218,-1.01132e-14,-5.56597e-15,-17.7836,20.2653,-93.7812,52.5475,12.7089,-20.7379,-38.2057,7.12502,5.62741,-68.111,-1.01132e-14,-5.56597e-15,-100.04,32.5911,-23.9265,9.73369,-82.9876,-16.8467,21.0771,7.12502,9.38325,50.8482,15.2664,4.83252,25.97,38.7298,6.62525,1.282,-31.5876,-28.0046,-1.65491,-19.9766,42.8184,-9.34749,1.56218,-16.1428
0.304269,17.322,0.0328843,-30.0352,-96.1951,27.2011,8.08485,2.10189,3.58121,0.0647846,2.97389,-2.91192,-4.12837,1.36399,-5.39441,-0.428503,-0.433605,4.36917,1.92397,-0.66868,1.00893,0.646283,-0.306327,-0.414498,1.24986e-14,2.8625e-14,-20.4425,19.7563,-94.6633,50.8957,11.9751,-20.3876,-38.2449,7.12502,5.96559,-68.1409,1.24986e-14,2.8625e-14,-94.0511,35.6063,-12.1725,9.34904,-74.5897,-16.725,21.8574,7.12502,9.50068,51.6232,11.6514,4.75649,24.7654,44.9217,14.0726,0.990517,-20.5434,-26.4581,-1.68166,-21.3086,42.4226,-10.3273,1.24174,-17.3623
-0.072291,17.389,0.0614529,-22.0227,-95.8718,19.271,8.04095,2.22504,2.57749,-0.0590529,3.01897,-3.2442,-4.26113,1.39429,-5.18162,-0.229339,-0.45583,5.00097,2.27965,-0.699081,0.707233,0.721674,-0.314412,-0.614191,-2.06985e-14,1.59028e-15,-23.027,18.8556,-95.5,48.7402,11.5607,-19.6712,-37.5689,7.12502,6.65719,-67.4443,-2.06985e-14,1.59028e-15,-86.7803,37.4615,0.380299,9.20294,-65.9512,-17.0648,21.2022,7.12502,9.17283,50.9827,7.97807,4.97227,23.5793,50.5984,19.4743,1.60207,-11.2206,-24.757,-1.24501,-22.614,41.6924,-11.1526,0.731644,-17.1568
-0.440262,17.4542,0.0881459,-12.8858,-95.7168,10.0331,8.17184,2.20827,1.46872,-0.0680136,2.86721,-3.51064,-4.40071,1.33114,-4.82446,-0.118737,-0.277585,5.45657,2.44528,-0.46112,0.519737,0.760241,-0.191206,-0.748321,-2.48481e-16,-4.77083e-14,-25.2523,18.3088,-96.2785,46.0202,11.2993,-18.6358,-36.7723,7.12502,7.65672,-66.6137,-2.48481e-16,-4.77083e-14,-79.4237,37.9565,12.8039,9.70322,-57.0915,-17.2612,19.6526,7.12502,8.98333,49.4414,4.50875,5.19378,22.3258,55.7664,21.2984,2.76849,-6.57296,-22.7678,-0.561736,-23.9336,40.7006,-11.7064,0.0615154,-17.1419
-0.795538,17.5136,0.11498,-5.05006,-95.6915,2.02434,8.46999,2.00653,0.473782,0.0028265,2.48195,-3.64532,-4.56627,1.15283,-4.37137,0.281051,-0.143644,5.13031,2.39382,-0.264963,0.882885,0.681119,-0.09692,-0.577177,7.60351e-15,2.54444e-14,-27.0549,18.2282,-96.9265,42.7255,11.3935,-17.5701,-35.9205,7.12502,8.6852,-65.7218,7.60351e-15,2.54444e-14,-72.4267,37.2246,24.6554,11.1013,-48.288,-17.0079,18.0666,7.12502,9.2277,47.8447,1.12127,5.3016,21.2233,60.367,18.1639,3.89184,-15.2698,-20.6929,0.157911,-25.0411,39.5413,-12.1325,-0.55078,-18.3409
-1.14034,17.5635,0.141119,2.84929,-95.6552,-6.05722,8.81949,1.68916,-0.51207,0.0999968,1.93943,-3.72648,-4.73355,0.898567,-3.84552,0.20843,0.28347,5.0851,2.50531,0.300313,0.784297,0.740035,0.187485,-0.597819,3.47873e-16,0,-28.6014,18.1316,-97.3133,39.0355,12.4313,-16.6439,-35.0231,7.12502,9.57895,-64.7854,3.47873e-16,0,-61.2695,31.9115,44.0338,13.5258,-32.4873,-17.4369,18.5045,7.12502,8.81375,48.3005,-2.23618,5.30935,20.1726,64.3462,15.1376,4.90619,-14.9874,-18.6281,0.868568,-26.1076,38.3323,-12.5673,-1.34195,-19.388
-1.4804,17.6034,0.166208,12.2421,-95.566,-15.7302,9.19253,1.40088,-1.55576,0.219139,1.41861,-3.84036,-4.87417,0.656678,-3.31902,0.467234,0.59197,4.91331,2.47803,0.726666,0.839846,0.696062,0.397791,-0.549344,1.99033e-14,1.11319e-14,-30.0976,17.1754,-97.2101,35.2821,14.7088,-15.5074,-34.6172,7.12502,10.6754,-64.326,1.99033e-14,1.11319e-14,-54.4704,26.4761,56.4274,16.6059,-22.0874,-18.7857,18.2567,7.12502,7.51203,48.1033,-5.46896,5.17397,19.0387,67.5925,12.5726,5.44258,-13.4698,-16.4973,1.46525,-27.2708,37.202,-13.0312,-2.40176,-18.7737
-1.81224,17.6311,0.19053,21.3087,-95.477,-25.0247,9.53467,1.16148,-2.49961,0.323607,0.972479,-3.89679,-4.99325,0.452121,-2.79363,0.807286,0.891757,5.11215,2.20516,1.16031,0.539989,0.568566,0.608712,-0.674672,-1.45113e-14,-3.81667e-14,-31.5462,15.2617,-96.4357,31.784,17.8938,-14.1955,-35.0346,7.12502,11.9406,-64.674,-1.45113e-14,-3.81667e-14,-49.9551,21.9917,64.4807,20.0796,-15.7349,-20.2099,17.6424,7.12502,6.13721,47.5335,-8.68517,4.91748,18.0409,70.0538,10.4618,5.88217,-10.5261,-14.537,1.76244,-28.307,36.2494,-13.3563,-3.23344,-17.2982
-2.13705,17.6527,0.216453,26.0574,-95.105,-29.7823,9.70923,0.852647,-2.84578,0.436165,0.528021,-3.74404,-4.99085,0.242517,-2.37842,1.23071,0.808683,4.84016,2.04005,1.07886,0.479426,0.444124,0.561953,-0.649298,-1.81143e-14,7.95139e-16,-32.7418,12.6093,-94.8864,28.3928,21.7327,-13.5297,-35.5603,7.12502,12.5826,-65.1614,-1.81143e-14,7.95139e-16,-46.452,18.3997,70.1681,23.8808,-11.9576,-21.3743,17.1573,7.12502,5.01297,47.078,-11.9355,4.58192,17.765,71.6746,7.58215,5.49853,-11.1357,-12.9359,1.77982,-28.7142,35.5317,-13.5808,-3.97029,-16.1242
-2.46154,17.6706,0.24224,28.7025,-94.3536,-32.2798,9.66065,0.477869,-2.71849,0.589996,0.0760674,-3.4632,-4.81038,0.022299,-2.08976,1.17925,0.612232,4.58229,2.2282,0.81195,0.363421,0.503506,0.430206,-0.642122,8.27441e-15,-5.40694e-14,-33.6891,8.93824,-92.4469,24.9872,26.3558,-12.9799,-35.8866,7.12502,13.1126,-65.4543,8.27441e-15,-5.40694e-14,-43.2646,15.4059,74.3252,27.5879,-10.3664,-22.5226,16.8595,7.12502,3.90412,46.8035,-15.1055,3.99586,18.0051,72.409,5.21056,4.43308,-8.87623,-11.6426,1.71988,-28.6522,35.1059,-13.8811,-5.01247,-14.3827
-2.78714,17.6787,0.265745,34.6494,-93.6175,-38.0299,9.53264,0.140882,-2.69833,0.725194,-0.337378,-3.20117,-4.60159,-0.178037,-1.7683,1.20082,0.483085,4.53942,2.3103,0.64761,0.0126184,0.523238,0.348481,-0.744354,-5.29264e-15,-1.66979e-14,-34.6852,4.31498,-89.097,21.7302,31.6455,-12.346,-36.4285,7.12502,13.7235,-65.956,-5.29264e-15,-1.66979e-14,-40.2763,12.5768,77.5102,31.0655,-10.3194,-23.7306,16.8503,7.12502,2.73751,46.8124,-18.0854,3.30846,18.139,72.2942,1.53835,2.68131,-10.1474,-10.5455,1.72032,-28.6873,34.8972,-14.1825,-6.14516,-12.4589
-3.11288,17.68,0.286137,40.2374,-92.8703,-43.4004,9.45552,-0.141468,-2.52513,0.793971,-0.663455,-2.8885,-4.48746,-0.336532,-1.49539,1.26784,0.422337,4.71272,2.42639,0.581581,-0.548059,0.550072,0.316812,-0.949609,-8.24956e-15,-6.36111e-15,-35.9894,-1.23664,-84.7426,18.7945,37.694,-12.4081,-37.2202,7.12502,13.6637,-66.7517,-8.24956e-15,-6.36111e-15,-37.5377,9.76339,80.0143,34.4026,-11.17,-24.9462,16.9998,7.12502,1.56357,46.9739,-20.8312,2.80673,18.5216,71.3033,-1.82023,0.884886,-8.90102,-9.52086,1.85915,-28.4886,34.747,-14.3746,-7.22743,-11.7253
-3.44022,17.6774,0.30801,52.3439,-92.1007,-55.3275,9.37165,-0.467262,-2.31791,0.926137,-1.04526,-2.58996,-4.30291,-0.525135,-1.25112,1.17075,0.425965,4.66931,2.61306,0.584337,-0.783365,0.624999,0.319389,-1.01646,7.95139e-16,-3.10104e-14,-37.5919,-7.73658,-79.1831,16.2189,44.987,-12.7495,-37.8001,7.12502,13.3346,-67.3535,7.95139e-16,-3.10104e-14,-34.7582,7.15271,81.934,37.5815,-12.4257,-25.7875,17.266,7.12502,0.750956,47.2445,-23.2076,2.18617,18.8894,69.4147,-4.89183,-0.75596,-9.2615,-8.38963,2.01433,-28.268,34.5062,-14.4601,-8.3976,-10.8525
-3.76946,17.6709,0.329058,79.6682,-91.8792,-82.5191,9.27766,-0.801235,-2.51532,1.12614,-1.48768,-2.37965,-4.03354,-0.741419,-0.866935,1.49441,0.604409,4.039,2.28624,0.828882,-0.336601,0.470334,0.434542,-0.768847,-6.90777e-15,-1.90833e-14,-39.8648,-15.1487,-72.1251,14.0559,53.7208,-12.9708,-38.1165,7.12502,13.1214,-67.6836,-6.90777e-15,-1.90833e-14,-31.9735,4.76604,83.3466,40.5728,-13.8039,-26.587,17.0315,7.12502,-0.0212158,47.0112,-25.2256,1.5173,18.831,66.6687,-7.47473,-2.07157,-12.1025,-7.09827,2.05941,-28.4489,34.0719,-14.4416,-9.47346,-9.43448
-4.10276,17.6703,0.345557,102.496,-92.1684,-105.245,9.21513,-1.06247,-2.90287,1.31114,-1.85485,-2.16108,-3.78561,-0.919523,-0.380101,0.57105,0.467019,4.23613,3.13286,0.607975,-0.855544,0.885335,0.332594,-0.966066,4.17448e-15,4.77083e-15,-43.3496,-22.5808,-63.6948,12.5127,62.6005,-12.7967,-38.4695,7.12502,13.2892,-68.0259,4.17448e-15,4.77083e-15,-29.3034,2.48936,84.3666,43.2432,-15.2366,-27.8654,16.1694,7.12502,-1.25588,46.1454,-26.8635,1.05669,18.7138,63.0221,-9.38565,-3.00326,-14.3263,-5.61407,2.04499,-28.6833,33.308,-14.209,-10.4618,-6.83087
-4.44323,17.6748,0.362159,120.602,-92.8313,-123.316,9.1235,-1.34174,-3.36782,1.58659,-2.24951,-1.92471,-3.41536,-1.11597,0.165939,-0.0828796,0.260907,4.55867,3.5768,0.322262,-1.60946,1.13433,0.19005,-1.26559,-1.03865e-14,7.95139e-16,-47.8087,-29.1862,-54.3371,11.5007,70.8352,-12.0036,-38.77,7.12502,14.0536,-68.2748,-1.03865e-14,7.95139e-16,-26.5106,0.203435,85.1202,45.6849,-16.0577,-28.989,15.3159,7.12502,-2.34108,45.2828,-27.9718,0.398819,18.5456,58.5426,-10.8466,-3.84242,-15.8475,-3.85874,1.97613,-28.9162,32.1943,-13.831,-11.5024,-3.06322
-4.78837,17.6852,0.377176,134.62,-93.8456,-137.296,9.32817,-1.75381,-3.44656,1.67125,-2.81288,-1.91842,-3.42233,-1.39572,0.287353,-0.46033,0.100275,4.95759,3.89428,0.0981814,-2.05144,1.29717,0.0795194,-1.48282,-2.5842e-15,1.27222e-14,-53.733,-34.7007,-44.1886,10.9167,78.7481,-10.9139,-38.9285,7.12502,15.1035,-68.3575,-2.5842e-15,1.27222e-14,-24.0953,-2.2311,85.2293,48.14,-16.1631,-29.6641,14.6275,7.12502,-2.99309,44.5862,-28.633,-0.38381,18.3322,53.3014,-12.401,-4.24801,-14.8443,-1.9614,2.06373,-29.0323,30.8647,-13.2556,-12.6277,-0.843136
-5.13516,17.6904,0.386032,142.712,-94.8913,-145.27,9.36862,-2.18156,-3.6627,1.77251,-3.39514,-1.79212,-3.30258,-1.68469,0.605168,-0.431509,0.0740615,4.91426,3.7867,0.0664206,-2.05767,1.25662,0.0623638,-1.4767,3.67503e-14,1.98785e-15,-59.4751,-38.064,-34.8842,10.6977,84.6692,-10.2146,-39.0252,7.12502,15.777,-68.4022,3.67503e-14,1.98785e-15,-21.7594,-4.16363,85.0887,50.5027,-16.2122,-30.1492,13.9468,7.12502,-3.46157,43.8984,-29.1179,-1.02861,18.2372,47.5833,-13.1561,-4.01863,-12.7886,0.0464006,2.39269,-28.9761,29.1364,-12.3858,-13.6238,-0.274019
-5.48597,17.6777,0.390156,147.253,-95.8543,-149.65,9.328,-2.55529,-3.95468,1.86871,-3.90708,-1.62945,-3.13094,-1.93957,0.988238,-0.119779,0.0870629,4.63337,3.36758,0.0971411,-1.82659,1.06889,0.0747765,-1.34906,1.48343e-14,-1.59028e-15,-64.2043,-39.6238,-27.4179,10.6337,88.0722,-9.95055,-39.1765,7.12502,16.0313,-68.5332,1.48343e-14,-1.59028e-15,-19.5178,-5.67814,84.7671,52.7274,-16.1085,-30.1826,13.0659,7.12502,-3.49382,43.017,-29.416,-1.99083,18.4699,41.5229,-13.2377,-4.58199,-20.872,2.11935,2.63155,-28.8807,27.1406,-11.7582,-14.1877,-1.26636
-5.84333,17.718,0.392848,152.142,-96.6664,-154.355,9.18919,-2.89669,-4.02352,1.9749,-4.34412,-1.38386,-2.89999,-2.16077,1.31512,0.0641301,0.0905782,4.40501,3.00597,0.111153,-1.69565,0.922779,0.0785974,-1.2648,-5.29264e-14,6.75868e-15,-67.9524,-40.2054,-21.4494,10.585,89.4002,-9.61979,-39.7094,7.12502,16.3498,-69.0402,-5.29264e-14,6.75868e-15,-17.3248,-6.86211,84.4149,54.7392,-15.3924,-29.8632,12.0017,7.12502,-3.1854,41.9576,-29.4427,-2.46606,18.6947,35.4833,-13.0027,-4.08188,-17.6075,4.25478,2.69188,-28.4833,24.9403,-11.1108,-14.5813,-2.57482
-6.20902,17.7334,0.39317,155.873,-97.4458,-157.867,9.01623,-3.21602,-4.10945,2.07361,-4.75154,-1.10674,-2.65049,-2.3684,1.67457,-0.165129,0.0856912,4.35316,2.92637,0.100256,-1.81827,0.936897,0.070792,-1.29525,-1.46355e-14,1.09332e-14,-69.0293,-39.3478,-19.6164,10.8172,87.8212,-9.25221,-39.0695,7.12502,16.7036,-68.3708,-1.46355e-14,1.09332e-14,-15.2229,-7.82233,84.0583,56.5381,-14.0685,-29.7693,11.0524,7.12502,-3.0947,41.0097,-29.5103,-2.91623,18.9393,29.8304,-12.6377,-4.14623,-18.5104,6.42631,2.69007,-28.0395,22.6571,-9.99508,-15.0745,-2.17618
-6.58386,17.7253,0.394413,158.144,-98.1864,-159.897,8.7368,-3.49066,-4.22979,2.16877,-5.10007,-0.871867,-2.34513,-2.54928,1.99177,-0.529508,0.0415882,4.5101,2.96152,0.0327578,-2.10845,1.01001,0.035266,-1.41754,5.08143e-14,1.43125e-14,-69.6958,-38.3739,-18.4741,10.9902,85.7605,-9.10471,-38.7361,7.12502,16.8456,-68.0254,5.08143e-14,1.43125e-14,-13.2361,-8.73653,83.6571,58.0656,-12.6112,-30.0433,10.3096,7.12502,-3.35925,40.2629,-29.9113,-3.29516,19.0566,25.1626,-13.015,-4.02155,-19.1039,8.70255,2.57641,-27.6775,20.1875,-8.46142,-15.4891,-0.250319
-6.96416,17.7181,0.39427,160.163,-98.8213,-161.699,8.33686,-3.71025,-4.23766,2.27465,-5.36112,-0.666513,-1.97707,-2.68975,2.1943,-0.643947,-0.00123235,4.56522,2.84223,-0.0265942,-2.21313,0.990758,0.00411116,-1.46113,-6.83322e-15,-3.8763e-15,-70.0792,-37.2467,-18.0465,11.1242,83.3602,-9.37564,-38.3952,7.12502,16.5848,-67.7065,-6.83322e-15,-3.8763e-15,-11.3466,-9.54269,83.2393,59.2901,-11.4889,-30.3088,9.93895,7.12502,-3.61569,39.888,-30.0253,-3.80941,19.3505,21.7273,-12.2894,-3.79167,-19.7695,10.8012,2.27832,-27.2776,18.1381,-6.98594,-15.7592,2.24731
-7.35083,17.6929,0.392627,160.441,-99.4489,-161.846,8.09852,-3.84771,-4.37077,2.32233,-5.53782,-0.572817,-1.76194,-2.78383,2.35643,-0.687137,-0.0819095,4.5683,2.73854,-0.135836,-2.21221,0.961674,-0.0511327,-1.462,9.68206e-14,1.19271e-15,-70.5475,-36.1224,-17.8261,11.2801,81.1495,-9.51333,-38.2517,7.12502,16.4523,-67.574,9.68206e-14,1.19271e-15,-9.72292,-10.1599,82.9206,60.3081,-10.8324,-30.3678,9.91056,7.12502,-3.67261,39.8587,-30.3308,-4.84505,19.7502,19.9658,-12.2042,-3.70309,-20.6603,12.7803,1.83053,-27.17,16.6017,-5.81832,-15.7769,2.87343
-7.74218,17.6325,0.389793,160.061,-99.85,-161.462,8.14869,-3.89346,-4.46796,2.29427,-5.60755,-0.511675,-1.79812,-2.81696,2.4835,-1.0777,-0.24633,4.77647,3.00717,-0.370602,-2.41442,1.10609,-0.16821,-1.57028,-3.18677e-14,1.13804e-14,-71.2684,-35.273,-17.2262,11.3699,79.8371,-9.30095,-38.2257,7.12502,16.6567,-67.531,-3.18677e-14,1.13804e-14,-8.57383,-10.5177,82.7335,61.2123,-10.3566,-30.1404,9.89379,7.12502,-3.45302,39.8456,-30.6096,-5.75856,20.2325,20.2639,-12.9791,-3.89781,-20.5172,14.625,1.33602,-27.1595,15.6733,-5.0219,-15.4374,0.511854
-8.14237,17.5642,0.389091,159.994,-99.9534,-161.555,8.41136,-3.92934,-4.38724,2.2415,-5.65993,-0.39932,-1.99046,-2.83708,2.58323,-1.27677,-0.262851,4.86328,3.28052,-0.395091,-2.67813,1.22727,-0.182133,-1.67478,-4.21059e-14,4.51925e-15,-71.9741,-34.6999,-16.366,11.3726,79.5565,-9.17488,-38.0112,7.12502,16.7781,-67.3063,-4.21059e-14,4.51925e-15,-7.99052,-10.5331,82.6368,62.0448,-10.1536,-30.0765,9.91541,7.12502,-3.39136,39.8682,-30.6188,-6.38999,20.8838,21.837,-13.2535,-4.14186,-20.0011,16.199,0.84286,-27.0359,15.6882,-4.4783,-15.083,-1.73113
-8.55734,17.4902,0.394014,159.219,-100.018,-160.969,8.57038,-3.97473,-4.2908,2.21982,-5.71846,-0.32476,-2.09824,-2.8633,2.62624,1.01846,0.223209,3.23446,1.1022,0.324099,-0.91714,0.174947,0.17007,-0.812476,3.83033e-14,-2.48481e-16,-72.9782,-34.6687,-14.7607,11.3115,80.5894,-9.00039,-37.7128,7.12502,16.9461,-66.9936,3.83033e-14,-2.48481e-16,-7.77495,-10.4306,82.6432,62.7663,-10.4578,-30.3362,10.4316,7.12502,-3.64211,40.3802,-30.027,-6.9348,21.3716,24.1337,-12.36,-4.32074,-21.1372,17.4049,0.284344,-27.0833,16.6117,-4.00169,-14.9849,-2.20351
-8.98405,17.4023,0.400449,158.752,-99.9359,-160.596,8.4442,-3.96331,-3.98323,2.2192,-5.66824,-0.257012,-2.05606,-2.83985,2.51186,-1.32268,-0.188392,4.22374,3.26315,-0.289343,-2.42756,1.23076,-0.133657,-1.47957,-4.89507e-15,1.2921e-15,-74.5604,-35.2236,-12.1731,11.194,82.7567,-8.60174,-37.6091,7.12502,17.3298,-66.8565,-4.89507e-15,1.2921e-15,-7.92002,-10.4063,82.7591,63.4718,-10.8854,-30.425,11.329,7.12502,-3.72793,41.2762,-29.4883,-7.0294,21.835,26.6657,-12.9227,-5.37737,-21.0122,18.5,-0.319624,-27.1212,17.5964,-3.05401,-14.6236,-1.5569
-9.42404,17.3186,0.409177,159.228,-99.6261,-161.154,8.25499,-3.9038,-3.38009,2.10232,-5.52549,-0.128004,-2.12708,-2.76532,2.29053,1.00713,0.0940141,2.14537,1.16321,0.138887,-0.367584,0.189339,0.0745222,-0.460409,-3.23025e-15,1.39149e-15,-76.7815,-36.0011,-8.56036,11.0349,85.8592,-8.46726,-37.7245,7.12502,17.4592,-66.9604,-3.23025e-15,1.39149e-15,-8.77169,-10.4008,83.0679,64.2194,-11.2252,-30.6385,11.8432,7.12502,-3.93401,41.7866,-28.7453,-7.27605,22.7132,29.0018,-12.3448,-6.29514,-24.1284,19.3742,-0.793768,-26.9497,19.0053,-1.61756,-13.9835,-1.33917
-9.88255,17.3164,0.419105,159.739,-99.1997,-161.694,8.0446,-3.81718,-2.75942,1.85748,-5.34412,0.0672198,-2.31335,-2.66767,2.12821,1.1564,0.043797,1.74277,1.35297,0.0717635,-0.52476,0.221325,0.039856,-0.441925,-5.0044e-14,-1.98785e-15,-79.5298,-36.9539,-3.9752,10.8216,89.8364,-8.57825,-37.9083,7.12502,17.3524,-67.1537,-5.0044e-14,-1.98785e-15,-10.2616,-10.2806,83.6849,64.8399,-11.7622,-31.0618,12.0251,7.12502,-4.34278,41.9606,-28.9162,-6.22202,22.8351,31.1982,-10.8315,-8.0892,-22.5113,19.7176,-1.19339,-26.7458,21.1931,0.246394,-13.0871,-3.07189
-10.3422,17.3198,0.432543,161.426,-98.7265,-163.34,7.65452,-3.74913,-1.97515,1.69093,-5.16957,0.368209,-2.32026,-2.58074,1.96633,1.09322,0.0636304,1.43409,1.61749,0.0978804,-0.933628,0.312155,0.0507469,-0.51623,-4.17696e-14,-1.98785e-15,-82.7651,-38.3747,1.49244,10.566,94.573,-8.60298,-37.9208,7.12502,17.3286,-67.1683,-4.17696e-14,-1.98785e-15,-11.9935,-9.9839,84.5668,65.2399,-12.498,-31.4301,12.1897,7.12502,-4.69842,42.1176,-29.1642,-5.07833,22.9337,32.9951,-7.37619,-6.12648,-18.1228,19.3227,-1.79788,-26.4569,24.4576,2.53468,-11.7962,-5.64853
-10.7892,17.3053,0.450394,166.335,-98.2867,-168.242,7.28793,-3.751,-0.741635,1.60096,-5.06026,0.806988,-2.28163,-2.53195,1.70161,0.750039,0.15855,1.1352,1.99402,0.224774,-1.33864,0.484816,0.109256,-0.591551,1.86361e-14,-2.78299e-15,-86.5309,-40.086,7.68323,10.2905,99.6455,-8.85537,-37.3956,7.12502,17.0857,-66.6643,1.86361e-14,-2.78299e-15,-13.9656,-9.59655,85.5713,65.3988,-13.2349,-31.9414,12.0363,7.12502,-5.19212,41.9527,-28.5676,-5.39976,24.1394,34.5533,-6.42207,-4.60473,-11.1109,18.2575,-2.47346,-25.6844,28.8205,6.42241,-9.53298,-0.000363056
-11.2212,17.3184,0.45356,176.373,-97.6862,-178.315,7.17042,-3.7273,0.919618,1.48305,-4.89189,1.44744,-2.42563,-2.45742,1.42239,0.0105308,0.249949,1.69158,2.74266,0.366794,-2.61185,0.848867,0.168228,-1.08317,4.91495e-14,-1.51076e-14,-88.0572,-41.6237,10.1117,10.1859,102.618,-7.51619,-37.3046,7.12502,18.3743,-66.4568,4.91495e-14,-1.51076e-14,-16.2603,-9.1489,86.5772,65.3288,-13.8917,-32.4177,11.745,7.12502,-5.65203,41.6496,-27.7425,-4.66465,25.9424,35.7592,-6.27685,-4.24662,-29.5538,16.1656,-2.58317,-23.8901,34.1009,10.7845,-6.96592,-3.0941
-11.6212,17.2935,0.447884,188.774,-97.2944,-190.776,7.28496,-3.70777,2.55154,1.37468,-4.73011,2.09327,-2.67956,-2.3917,1.18297,-0.271046,0.352199,2.14212,2.93142,0.518619,-3.53475,0.968177,0.234711,-1.45341,9.83984e-15,-1.35174e-14,-88.6664,-43.3998,10.9561,10.0629,104.424,-6.32807,-37.0884,7.12502,19.517,-66.1288,9.83984e-15,-1.35174e-14,-18.7101,-8.63898,87.4762,65.094,-14.1811,-32.4954,11.6411,7.12502,-5.72701,41.5437,-26.7228,-3.3559,27.8001,36.739,-7.66024,-6.10703,-13.3821,13.7126,-2.61284,-21.8204,39.7586,15.624,-3.62448,1.4232
-12.0033,17.3014,0.451097,195.705,-97.3589,-197.755,7.56026,-3.78258,3.63548,1.26679,-4.72567,2.42748,-3.00238,-2.40319,0.954695,-0.338371,0.444218,2.44982,2.83148,0.646634,-4.05694,0.958712,0.295611,-1.67343,8.0806e-14,-2.54444e-14,-82.807,-44.8748,2.33149,9.90934,99.5472,-6.04605,-36.7247,7.12502,19.7881,-65.7374,8.0806e-14,-2.54444e-14,-21.214,-8.22813,88.2657,64.6578,-13.9678,-32.1092,11.4462,7.12502,-5.35416,41.3586,-25.4913,-3.3796,28.9509,37.1836,-8.91898,-6.20837,-12.877,10.5391,-3.11518,-20.6558,45.2829,22.7732,0.212702,0.809609
-12.3788,17.3329,0.448459,200.16,-97.4934,-202.296,7.81797,-3.79919,4.42133,1.24298,-4.66749,2.60394,-3.21664,-2.3861,0.718358,-0.193298,0.436374,2.56323,2.41276,0.628944,-4.07251,0.803105,0.292688,-1.69661,2.48481e-16,-2.70347e-14,-76.8847,-45.7514,-6.39717,9.91614,93.4714,-6.49686,-36.5709,7.12502,19.3547,-65.6277,2.48481e-16,-2.70347e-14,-23.6298,-8.0504,89.0167,64.0075,-13.5148,-30.9892,11.5088,7.12502,-4.27267,41.4457,-24.0967,-4.16184,29.8478,37.292,-10.2418,-5.85891,-13.1075,7.35945,-3.73375,-19.7979,50.4166,30.2052,3.36954,3.80241
-12.7555,17.3729,0.432527,204.469,-97.7599,-206.712,7.91807,-3.78586,5.11307,1.32382,-4.59143,2.77565,-3.22549,-2.35779,0.510358,0.0691281,0.363022,2.45848,1.81025,0.51808,-3.66576,0.564026,0.247114,-1.54601,3.97569e-15,6.36111e-15,-70.8142,-46.135,-15.1921,10.0878,87.424,-7.26058,-36.4994,7.12502,18.6202,-65.6282,3.97569e-15,6.36111e-15,-25.8559,-7.979,89.7166,63.1367,-13.0997,-29.3534,11.9034,7.12502,-2.69299,41.8661,-22.5053,-4.93159,30.7514,37.1099,-11.4668,-5.58487,-12.3718,4.11478,-4.31456,-18.7813,55.0499,36.2385,4.19158,3.14274
-13.1196,17.4074,0.414208,205.929,-98.2839,-208.19,7.98511,-3.87748,5.57761,1.3779,-4.67347,2.89087,-3.23554,-2.4047,0.386422,0.300891,0.241705,2.1848,1.3042,0.346211,-3.13197,0.359991,0.167849,-1.32774,6.09772e-14,8.74653e-15,-60.2774,-43.7753,-29.9106,10.4244,76.8017,-7.88784,-36.9729,7.12502,18.0168,-66.1585,6.09772e-14,8.74653e-15,-27.8754,-7.79313,90.3636,61.8416,-13.0424,-27.0835,11.9879,7.12502,-0.500706,41.967,-20.9067,-5.97019,31.3157,36.6317,-12.7066,-5.39168,-15.8467,0.686264,-5.12707,-18.0402,59.2485,38.4676,3.14148,2.31489
-13.4766,17.4237,0.401148,210.604,-98.4042,-213.408,8.60994,-3.78435,6.20166,1.54011,-4.45793,3.12972,-3.43219,-2.3105,0.303266,0.560619,0.073943,1.79483,1.01519,0.117386,-2.65267,0.220088,0.0567593,-1.10923,6.80837e-15,3.02153e-14,-50.15,-38.6144,-44.202,11.1232,65.11,-10.1826,-37.1109,7.12502,15.8078,-66.4855,6.80837e-15,3.02153e-14,-29.7957,-7.35359,91.0513,60.0225,-13.4759,-23.7638,11.8512,7.12502,2.7055,41.8138,-18.6932,-6.46163,32.1352,35.9761,-13.99,-4.98603,-10.5373,-2.04964,-5.26323,-17.0313,62.9626,35.5763,1.13649,0.442077
-13.8215,17.4469,0.377769,218.959,-98.5936,-222.135,9.27035,-3.58039,7.03428,1.56837,-4.05257,3.56447,-3.77529,-2.13209,0.29036,0.465143,-0.0847189,1.76997,1.22338,-0.0929535,-2.58888,0.294655,-0.0497759,-1.08552,3.3197e-14,-3.10104e-14,-42.2819,-31.6284,-55.8818,12.4045,53.7947,-11.0536,-37.557,7.12502,14.9689,-66.996,3.3197e-14,-3.10104e-14,-31.7246,-6.67664,91.6616,57.8189,-14.3285,-20.6841,11.6009,7.12502,5.67931,41.5048,-16.611,-6.26861,33.4812,35.1191,-14.5126,-4.98457,-11.0344,-5.07551,-5.04632,-15.4484,66.1267,31.8726,-1.04518,-3.35977
-14.1734,17.4461,0.364246,227.471,-98.5863,-231.094,9.8281,-3.30349,7.86623,1.65879,-3.5566,3.79166,-3.9986,-1.90712,0.0340893,0.497847,-0.158428,1.966,1.37833,-0.188257,-2.5908,0.334538,-0.0968456,-1.1201,-3.56322e-14,1.35174e-14,-36.9345,-25.2661,-64.1235,13.9802,45.4117,-11.56,-37.9612,7.12502,14.481,-67.4359,-3.56322e-14,1.35174e-14,-33.6489,-5.84861,91.9082,55.2477,-15.4158,-18.6754,10.9466,7.12502,7.61846,40.7893,-14.3048,-6.07524,34.5493,34.1939,-15.3591,-4.65313,-10.203,-7.79592,-4.53765,-14.2275,68.6193,25.1061,-2.83872,-6.90785
-14.5306,17.4652,0.35789,234.549,-98.5797,-238.304,10.0712,-3.06925,8.67706,1.59023,-3.13063,3.81944,-4.22002,-1.71732,-0.426159,0.911127,-0.228329,1.99517,1.34673,-0.278422,-2.29009,0.254255,-0.138403,-1.02986,8.64713e-15,2.70347e-14,-32.966,-19.3309,-70.333,15.5066,39.2673,-12.3746,-37.6043,7.12502,13.696,-67.1336,8.64713e-15,2.70347e-14,-35.7066,-4.83573,91.8275,52.3281,-16.3584,-17.5518,9.97983,7.12502,8.70291,39.7804,-12.2439,-6.17862,35.2221,33.2659,-15.9765,-4.53989,-19.2876,-10.6076,-4.12282,-13.463,70.2867,18.0975,-3.72288,-12.9132
-14.8866,17.4877,0.35165,243.144,-98.1746,-246.834,9.63335,-2.64237,8.98465,1.86107,-2.61838,3.78894,-3.66585,-1.45006,-0.7335,0.836149,-0.279089,2.17083,1.32081,-0.346236,-2.24521,0.25711,-0.171432,-1.04586,2.34069e-14,-1.03368e-14,-29.0059,-13.6187,-75.3785,16.9127,34.638,-14.411,-37.7461,7.12502,11.7328,-67.3975,2.34069e-14,-1.03368e-14,-37.0953,-3.57605,91.4973,49.0887,-16.8904,-17.3355,9.33603,7.12502,8.91162,39.1278,-10.4833,-5.90469,35.4938,32.5408,-16.9974,-3.29881,-10.7699,-13.3745,-3.48742,-13.1241,71.0901,11.6331,-2.89811,-17.598
-15.2335,17.5105,0.339682,251.85,-97.5468,-255.162,9.12491,-2.18662,8.82581,1.94912,-2.10024,3.63973,-3.24908,-1.17579,-0.895944,0.847902,-0.291845,2.2757,1.32315,-0.362902,-2.1484,0.255486,-0.178849,-1.03343,1.08835e-14,-5.24792e-14,-25.6536,-8.35931,-79.1842,18.3725,31.7534,-15.4408,-37.647,7.12502,10.7396,-67.3525,1.08835e-14,-5.24792e-14,-38.5195,-2.05796,90.8935,45.6413,-17.0068,-17.7158,9.40579,7.12502,8.54462,39.2129,-9.19141,-5.45541,35.3338,31.9357,-17.5124,-2.63335,-11.5547,-16.3572,-3.06891,-13.2273,71.0167,6.15326,-0.977179,-18.1876
-15.5748,17.5228,0.326749,261.588,-97.1336,-264.46,8.75467,-1.77361,8.71796,1.9131,-1.60173,3.46115,-3.04311,-0.919092,-1.09663,0.947025,-0.302612,2.45641,1.34183,-0.374268,-2.11934,0.244362,-0.183192,-1.055,-5.76476e-15,3.18055e-14,-22.7075,-3.48439,-82.1295,19.8859,29.8634,-14.9313,-38.4091,7.12502,11.231,-68.0885,-5.76476e-15,3.18055e-14,-40.0387,-0.179475,89.903,42.0612,-16.9631,-18.2815,10.1793,7.12502,7.99867,40.0079,-8.01956,-5.24201,35.1474,31.4297,-18.2031,-1.80659,-11.7484,-19.2927,-2.78838,-13.2691,70.1332,1.61242,0.655645,-15.4081
-15.9207,17.5311,0.318927,271.522,-96.9112,-274.027,8.51543,-1.41427,8.69156,1.84311,-1.14762,3.2444,-2.94961,-0.688786,-1.36656,1.03724,-0.325434,2.75045,1.39718,-0.399494,-2.2203,0.245251,-0.194315,-1.13704,-2.28602e-15,-2.46493e-14,-20.008,1.34398,-84.4257,21.3824,28.0504,-14.4269,-37.9227,7.12502,11.7175,-67.575,-2.28602e-15,-2.46493e-14,-41.5951,2.01049,88.5133,38.3653,-16.8964,-19.138,11.2384,7.12502,7.17194,41.0968,-6.69509,-5.43975,34.8097,30.8091,-18.8584,-0.642484,-11.212,-21.8863,-2.7151,-13.3618,68.3873,-2.12912,1.66442,-12.9859
-16.2755,17.55,0.315618,281.227,-96.8022,-283.455,8.32039,-1.12428,8.84093,1.82862,-0.771473,2.89077,-2.82959,-0.495512,-1.86398,1.01754,-0.315919,2.9797,1.4247,-0.385591,-2.17351,0.257123,-0.186132,-1.16191,6.31141e-15,-4.17448e-14,-17.384,5.93416,-86.2305,22.787,26.4904,-14.2978,-38.7108,7.12502,11.8419,-68.356,6.31141e-15,-4.17448e-14,-43.0856,4.44851,86.534,34.6015,-16.8838,-20.1406,12.1139,7.12502,6.20407,42.003,-5.11615,-5.97516,34.2482,29.8563,-18.9563,0.838004,-11.2357,-24.0058,-2.83582,-13.5536,65.7234,-5.30405,2.41849,-12.4235
-16.6346,17.5822,0.309952,290.508,-96.9599,-292.549,8.22646,-0.859653,9.21493,1.8425,-0.403274,2.47224,-2.73104,-0.307916,-2.54927,1.07389,-0.284914,3.21821,1.28964,-0.342171,-2.04787,0.207404,-0.162975,-1.16306,3.97569e-16,7.55382e-15,-14.8214,9.97115,-87.5723,24.1444,25.2978,-14.618,-38.3049,7.12502,11.5331,-67.9676,3.97569e-16,7.55382e-15,-44.6321,7.15228,83.8302,30.8857,-17.2677,-20.7281,12.8914,7.12502,5.63684,42.7964,-3.19579,-6.48811,33.7162,28.4489,-19.2319,2.14896,-12.0151,-25.6902,-3.06116,-13.5922,62.2092,-8.06624,2.84263,-13.5747
-16.9966,17.6174,0.300402,299.075,-97.3412,-301.035,8.23473,-0.546246,9.48541,1.88617,0.0292609,2.16857,-2.63977,-0.0884669,-3.06262,1.31055,-0.26149,3.33479,0.877557,-0.304512,-1.88743,0.0428992,-0.143942,-1.13177,-1.31446e-14,-2.14687e-14,-12.373,13.5986,-88.304,25.6432,24.1267,-14.8211,-37.9024,7.12502,11.3373,-67.576,-1.31446e-14,-2.14687e-14,-46.2297,10.54,80.3832,27.1525,-18.6141,-20.7179,13.8177,7.12502,5.64675,43.7225,-0.908074,-6.74081,33.2106,26.5243,-19.4097,3.13457,-14.1905,-26.9098,-3.301,-13.5293,57.9626,-10.3705,3.10862,-15.8911
-17.3618,17.6523,0.291134,306.277,-98.0418,-308.235,8.35068,-0.216203,9.8388,1.95979,0.499572,1.99718,-2.56273,0.147539,-3.48705,1.32126,-0.305427,3.42288,0.644752,-0.361818,-1.94242,-0.032138,-0.173059,-1.16395,-2.21148e-14,-6.75868e-15,-10.0871,17.0842,-88.5678,27.4271,22.6598,-14.7151,-38.1022,7.12502,11.4395,-67.7701,-2.21148e-14,-6.75868e-15,-48.1338,14.7163,75.9262,23.5512,-21.2856,-20.4021,14.8087,7.12502,5.95158,44.7051,1.66137,-6.80783,32.823,24.1561,-19.3453,4.48948,-13.928,-27.7167,-3.48987,-13.2365,53.134,-12.0362,3.42288,-15.7297
-17.7305,17.6824,0.283624,311.669,-98.908,-313.564,8.42102,0.0891831,10.3021,2.01957,0.942003,1.87254,-2.46813,0.369494,-3.92,1.60385,-0.264102,3.32871,0.107007,-0.300334,-1.78539,-0.241699,-0.144011,-1.09879,2.6662e-14,1.74931e-14,-7.9098,20.3074,-88.5034,29.3069,20.9429,-14.7559,-38.2714,7.12502,11.4001,-67.9414,2.6662e-14,1.74931e-14,-50.7193,19.276,70.2448,20.3088,-25.3986,-19.9836,15.9414,7.12502,6.35569,45.8261,4.41131,-6.84334,32.4907,21.3121,-18.5861,6.30001,-10.2803,-28.4287,-3.71469,-12.7983,48.0378,-13.1653,4.00138,-16.0178
-18.1058,17.7065,0.280605,317.852,-99.4164,-319.568,8.27949,0.42356,10.3287,2.0732,1.36331,1.6022,-2.26481,0.592655,-4.25637,1.52452,-0.238056,3.34412,-0.168284,-0.267749,-1.63636,-0.311653,-0.129971,-1.05518,-3.27995e-15,4.77083e-15,-5.69701,22.9665,-88.1276,31.0489,19.2492,-15.0623,-37.9593,7.12502,11.1046,-67.6455,-3.27995e-15,4.77083e-15,-54.2134,24.2654,62.7815,17.3692,-31.306,-19.4229,17.1867,7.12502,6.89695,47.0543,7.1976,-7.10825,31.4992,18.152,-17.7322,8.04399,-9.03318,-29.1137,-3.84108,-13.0294,42.8408,-13.6294,4.74658,-13.519
-18.4836,17.7085,0.258749,320.373,-101.013,-321.999,8.37347,0.89734,11.1433,2.12901,2.05818,1.64572,-2.12243,0.939169,-4.72735,1.50084,-0.267115,3.28647,-0.380181,-0.307816,-1.50005,-0.373058,-0.151895,-1.0026,1.51076e-14,-3.37934e-14,-3.60373,24.8296,-87.6517,32.6812,18.0454,-15.4897,-37.5039,7.12502,10.6924,-67.2118,1.51076e-14,-3.37934e-14,-59.4137,29.7957,52.4014,14.7242,-39.4269,-18.9838,17.9695,7.12502,7.32082,47.8229,10.3159,-6.32804,31.8787,14.5332,-16.6332,8.95659,-11.0416,-29.6236,-3.16789,-12.0599,37.9787,-14.1961,5.09608,-17.4151
-18.8676,17.6954,0.26118,322.709,-101.975,-324.039,8.19441,1.21112,11.8732,2.11344,2.5061,1.52148,-1.92458,1.16974,-5.29474,1.65782,-0.360591,3.08341,-0.645732,-0.431095,-1.42019,-0.482642,-0.214556,-0.942534,-5.2827e-14,-7.95139e-15,-1.68239,26.1128,-87.1706,34.2867,17.2507,-15.5615,-37.2372,7.12502,10.6232,-66.9487,-5.2827e-14,-7.95139e-15,-67.2551,35.1289,38.4321,12.669,-49.715,-18.5196,18.5941,7.12502,7.76884,48.4313,13.6142,-6.47697,31.4351,10.1672,-14.9415,10.7275,-11.1988,-30.4615,-2.71782,-11.7475,33.7359,-14.5534,3.1384,-7.94173
-19.2548,17.6932,0.24343,326.364,-103.214,-327.325,7.85414,1.69926,12.1016,2.16851,3.11428,1.41858,-1.54841,1.49614,-5.55883,1.78968,-0.386909,2.98718,-1.09867,-0.464705,-1.37024,-0.644452,-0.233561,-0.911439,-2.127e-14,2.18663e-15,0.251223,27.2253,-86.6136,35.903,16.1684,-15.3388,-37.0957,7.12502,10.838,-66.7961,-2.127e-14,2.18663e-15,-77.5968,38.8207,21.56,11.4361,-61.4369,-18.0948,19.229,7.12502,8.17882,49.0507,18.3043,-4.43008,31.5008,2.68516,-10.9861,10.779,-10.7388,-31.2718,-1.32516,-11.7598,30.5543,-14.1255,1.7903,-13.954
-19.6485,17.6829,0.22367,328.334,-104.543,-328.986,7.43351,2.1538,12.5538,2.32815,3.66692,1.37299,-1.00716,1.80841,-5.86348,1.64201,-0.400913,3.16267,-1.46361,-0.48743,-1.50204,-0.734924,-0.247346,-0.983314,-9.11925e-15,-1.25234e-14,2.09046,28.1367,-86.0362,37.5732,14.9385,-15.5915,-36.8436,7.12502,10.5942,-66.5566,-9.11925e-15,-1.25234e-14,-89.8897,40.0364,2.11672,10.7814,-74.6641,-18.0174,19.4745,7.12502,8.25357,49.2933,20.6729,-2.50741,31.8947,0,-9.65869,10.4906,-12.6315,-32.1564,0.367621,-11.7228,28.4595,-13.093,0.0785065,-14.8147
-20.0476,17.6379,0.208244,329.174,-105.586,-329.616,7.40228,2.45084,12.9997,2.25035,4.09222,1.35879,-0.954675,2.02022,-6.14685,1.84251,-0.415416,3.18499,-1.74067,-0.50066,-1.48711,-0.855372,-0.255404,-0.98347,-4.55962e-14,1.98785e-16,3.11904,28.7663,-85.7971,39.3198,14.0523,-16.0236,-36.6901,7.12502,10.1774,-66.4239,-4.55962e-14,1.98785e-16,-99.5943,38.0937,-13.6239,10.6028,-85.1964,-17.9531,19.8633,7.12502,8.3156,49.6797,21.8699,-0.940666,32.2379,1.01778e-13,-9.83013,10.1671,-15.3208,-32.7797,2.08519,-11.9904,27.5157,-11.9207,-1.94184,-15.7141
-20.454,17.5746,0.193206,330.337,-106.124,-330.791,7.46213,2.64321,12.9897,2.24533,4.35643,1.26782,-0.93388,2.15422,-6.25421,1.99059,-0.453983,3.09667,-2.01617,-0.547849,-1.34052,-0.966093,-0.281559,-0.922925,1.64122e-14,-3.04141e-14,3.80649,29.1433,-85.6663,41.1219,13.4435,-16.0991,-36.7876,7.12502,10.1046,-66.525,1.64122e-14,-3.04141e-14,-103.336,35.8292,-20.3248,10.6674,-89.182,-17.9669,20.7513,7.12502,8.30229,50.5681,23.3243,0.266557,32.1185,-4.45278e-14,-10.0008,9.88337,-18.0876,-33.0873,3.02675,-12.6464,27.7381,-11.2943,-4.08454,-12.7721
-20.8706,17.5027,0.174307,331.119,-106.414,-331.751,7.65045,2.78755,12.8371,2.24261,4.56681,1.16352,-1.00356,2.25598,-6.30348,2.01888,-0.533489,3.07544,-2.12626,-0.650687,-1.1912,-1.00644,-0.335515,-0.871428,-4.12727e-14,6.95746e-16,3.97583,29.2277,-85.6998,43.0482,13.0132,-15.9035,-37.0361,7.12502,10.2932,-66.7642,-4.12727e-14,6.95746e-16,-104.623,34.0262,-23.2377,10.7131,-90.4608,-18.3926,21.4859,7.12502,7.89142,51.3187,24.967,1.20768,31.9196,5.08889e-14,-9.98132,9.90726,-20.2484,-33.0029,3.34529,-13.3039,28.754,-11.1232,-4.15124,-16.2744
