JuanDHNZ/ProyectoFinalCD/preprocessing/sports_trials_csv/93_02.csv
root1,root2,root3,root4,root5,root6,lowerback1,lowerback2,lowerback3,upperback1,upperback2,upperback3,thorax1,thorax2,thorax3,lowerneck1,lowerneck2,lowerneck3,upperneck1,upperneck2,upperneck3,head1,head2,head3,rclavicle1,rclavicle2,rhumerus1,rhumerus2,rhumerus3,rradius1,rwrist1,rhand1,rhand2,rfingers1,rthumb1,rthumb2,lclavicle1,lclavicle2,lhumerus1,lhumerus2,lhumerus3,lradius1,lwrist1,lhand1,lhand2,lfingers1,lthumb1,lthumb2,rfemur1,rfemur2,rfemur3,rtibia1,rfoot1,rfoot2,rtoes1,lfemur1,lfemur2,lfemur3,ltibia1,lfoot1,lfoot2,ltoes1
-14.3538,17.5607,1.59415,-176.855,-86.8053,177.501,6.73905,0.425475,5.30647,-5.29544,1.18019,1.19455,-9.34917,0.237972,-1.87258,-3.29344,-9.60786,-6.81834,9.58271,-12.4334,-1.68984,4.08007,-6.50978,-0.00144134,5.96354e-16,2.3059e-14,-57.9072,-42.4918,-23.0584,42.1072,-24.6095,-32.6453,-66.9415,7.12502,174.128,-83.1598,5.96354e-16,2.3059e-14,-34.1425,23.258,-5.83802,116.499,4.77879,-17.183,18.989,7.12502,9.05877,48.7745,-12.7354,4.9509,17.0226,38.3387,-23.7897,-4.42923,-20.1141,-10.4565,2.40118,-18.5607,37.7132,-22.4717,-2.38078,-19.5619
-14.3421,17.5607,1.57595,-172.095,-87.6898,172.575,6.74964,0.310371,5.18597,-5.14416,1.00026,1.01539,-9.19943,0.161463,-1.97093,-2.57718,-10.8064,-7.9182,9.11916,-14.1007,-0.993148,3.98504,-7.32962,0.348925,3.77691e-15,-8.74653e-15,-54.9434,-41.0968,-26.0383,43.0572,-23.9329,-32.0894,-67.5742,7.12502,174.665,-82.513,3.77691e-15,-8.74653e-15,-37.1192,23.3153,-5.4997,115.064,4.69747,-16.5643,18.7619,7.12502,9.65569,48.5206,-12.4242,4.50941,16.9585,38.3451,-23.7827,-4.92367,-20.4334,-10.4167,1.98625,-18.6462,37.657,-22.2054,-2.59772,-20.0454
-14.3218,17.5603,1.55745,-165.634,-88.4384,165.974,6.84458,0.173846,5.12656,-5.02983,0.806653,0.869151,-9.14251,0.0717733,-2.06702,-1.55735,-11.859,-9.33778,8.55943,-15.6327,0.090199,3.90072,-8.07985,0.894516,-4.37326e-15,1.59028e-14,-52.0628,-39.4872,-28.99,44.2112,-23.3483,-31.8762,-67.946,7.12502,174.871,-82.1361,-4.37326e-15,1.59028e-14,-40.2953,22.6699,-5.23811,113.83,4.98583,-16.8177,19.3935,7.12502,9.41123,49.1633,-12.2041,4.1337,16.9798,38.3524,-23.7612,-5.26478,-20.1766,-10.4498,1.60695,-18.6453,37.6586,-21.9788,-2.83033,-20.1798
-14.299,17.5599,1.53953,-151.845,-88.9838,152.042,7.00474,0.0585959,5.07414,-4.97293,0.645653,0.701937,-9.18531,-0.00733682,-2.19413,-0.194026,-12.75,-11.1272,7.98865,-17.0298,1.50922,3.86748,-8.7725,1.63027,-4.37326e-15,-3.97569e-15,-49.4354,-37.6917,-31.7865,45.515,-22.9114,-31.9649,-67.9082,7.12502,174.785,-82.176,-4.37326e-15,-3.97569e-15,-43.2904,21.8582,-4.68047,112.611,5.33885,-17.1899,19.9599,7.12502,9.05213,49.7457,-12.0094,3.86317,16.9677,38.3439,-23.7714,-5.45331,-19.5673,-10.4669,1.3291,-18.6635,37.6504,-21.7511,-3.11154,-20.0227
-14.2862,17.5597,1.52115,-127.033,-89.4787,127.097,6.98834,-0.0569966,5.17177,-4.88344,0.490764,0.582374,-9.08889,-0.0876848,-2.35384,0.522487,-13.4088,-11.563,7.86948,-17.998,1.53839,3.81261,-9.2672,1.68936,-3.97569e-16,5.56597e-15,-46.9473,-35.9974,-34.2964,46.7734,-22.4435,-31.9171,-67.4901,7.12502,174.831,-82.5929,-3.97569e-16,5.56597e-15,-45.6634,21.8664,-3.65867,110.834,4.93056,-17.4309,20.0824,7.12502,8.81954,49.8781,-11.7812,3.5787,17.1272,38.3338,-23.7722,-5.72184,-19.5084,-10.4589,1.1257,-18.4957,37.6534,-21.5378,-3.47577,-19.7682
-14.2773,17.5581,1.50559,-52.0096,-89.4441,51.9629,6.87541,-0.227047,5.1892,-4.78139,0.246172,0.446572,-8.93003,-0.205221,-2.47263,1.10413,-13.9087,-12.0709,7.87507,-18.7512,1.68175,3.83982,-9.65678,1.79501,1.3418e-15,-1.66979e-14,-44.5776,-34.3687,-36.6335,48.1038,-21.875,-32.0531,-67.5636,7.12502,174.7,-82.5227,1.3418e-15,-1.66979e-14,-48.1925,21.6552,-2.68751,109.345,3.84951,-17.4961,20.5292,7.12502,8.75658,50.3275,-11.5467,2.97801,17.1413,38.3124,-23.8168,-5.81451,-19.6333,-10.4625,0.868636,-18.4447,37.6738,-21.331,-3.83042,-19.6998
-14.263,17.5565,1.49272,-33.8104,-88.9236,33.668,6.8373,-0.359466,5.10672,-4.70518,0.0423778,0.245124,-8.84073,-0.301261,-2.61184,1.81608,-14.2611,-12.5244,8.0216,-19.3607,2.15039,3.52579,-9.95542,1.80036,-5.46658e-16,3.57812e-15,-42.5306,-32.737,-38.8154,49.6065,-21.3554,-32.9662,-67.7534,7.12502,173.818,-82.3568,-5.46658e-16,3.57812e-15,-50.5369,21.361,-1.67679,107.898,2.24648,-16.7387,20.2631,7.12502,9.48743,50.0295,-11.3709,2.24718,16.9545,38.2656,-23.8866,-5.63783,-19.5975,-10.4972,0.601219,-18.5722,37.7272,-21.165,-4.0331,-19.8604
-14.2467,17.5575,1.47295,-19.6867,-88.7985,19.4923,6.77072,-0.389571,5.24289,-4.61401,0.00561561,0.166965,-8.70692,-0.32414,-2.7666,2.26718,-14.5368,-12.7469,8.08569,-19.809,2.30483,3.54364,-10.187,1.86844,0,0,-40.4995,-31.1121,-40.8917,50.9836,-21.0036,-33.5112,-67.6876,7.12502,173.292,-82.4387,0,0,-52.6269,21.0623,-0.395688,106.476,0.838416,-16.1621,19.4963,7.12502,10.0437,49.2366,-11.3259,2.00269,17.237,38.215,-23.8158,-5.66072,-19.8698,-10.5802,0.469461,-18.2714,37.7916,-21.0666,-4.11432,-20.0344
-14.2317,17.5576,1.4501,-2.23371,-88.7662,1.96699,6.62827,-0.410423,5.42853,-4.48188,-0.0132947,0.180379,-8.48298,-0.334711,-2.85426,2.61439,-14.6961,-12.8679,8.1667,-20.0869,2.43738,3.55989,-10.3316,1.92236,6.80837e-15,-1.03368e-14,-38.3969,-29.483,-42.807,52.1458,-20.2812,-34.8904,-70.3963,7.12502,171.961,-79.7766,6.80837e-15,-1.03368e-14,-54.6602,20.8371,0.91335,105.042,-0.444892,-15.6887,18.7124,7.12502,10.5004,48.4301,-11.2879,2.00216,17.7348,38.1716,-23.6844,-5.71524,-19.9071,-10.6163,0.358184,-17.7822,37.8431,-21.0177,-4.14629,-20.108
-14.2161,17.5564,1.43157,-1.38864,-88.6065,0.991141,6.55394,-0.46833,5.32498,-4.35708,-0.113345,0.0988101,-8.31179,-0.37196,-2.86944,2.99546,-14.7457,-12.9389,8.19885,-20.2236,2.59263,3.54334,-10.4046,1.9929,2.33572e-15,2.38542e-15,-36.5657,-27.9846,-44.4321,53.3243,-18.8304,-34.1724,-69.212,7.12502,172.654,-80.9356,2.33572e-15,2.38542e-15,-56.5488,20.7164,2.10765,103.454,-1.59325,-15.1587,18.4481,7.12502,11.0117,48.1393,-11.1689,1.7488,17.7944,38.1169,-23.7026,-5.47315,-19.3392,-10.575,0.161318,-17.701,37.8838,-20.966,-4.1658,-19.8319
-14.1998,17.557,1.41278,-6.04861,-88.461,5.50789,6.64722,-0.536377,5.07373,-4.27938,-0.23243,-0.0172183,-8.29005,-0.416171,-2.83539,3.22192,-14.7425,-12.9585,8.28868,-20.2684,2.73877,3.55601,-10.4304,2.04661,2.98177e-15,-5.96354e-15,-34.9686,-26.4139,-45.9837,54.7489,-17.5479,-32.3255,-65.2315,7.12502,174.437,-84.8615,2.98177e-15,-5.96354e-15,-58.2412,20.6097,3.38173,101.762,-1.97714,-14.6409,15.8202,7.12502,11.511,45.4841,-11.0396,1.41186,17.6889,38.0537,-23.86,-5.26475,-18.9831,-10.5143,-0.0178826,-17.782,37.9164,-20.9243,-4.13824,-19.7321
-14.1855,17.5578,1.39213,-1.80085,-88.3996,1.14118,6.75051,-0.588092,5.02564,-4.21627,-0.302937,-0.0502142,-8.28795,-0.446859,-2.83374,3.23695,-14.7421,-12.9174,8.48003,-20.2828,2.79464,3.61545,-10.4411,2.04855,-4.67144e-15,-3.57812e-15,-33.4926,-24.6239,-47.5152,56.34,-16.6658,-31.9569,-65.8363,7.12502,174.793,-84.2477,-4.67144e-15,-3.57812e-15,-59.6847,20.3637,5.12451,100.401,-2.23286,-15.2727,17.0372,7.12502,10.9017,46.7342,-10.9383,1.14201,17.8734,37.9931,-24.0109,-5.19408,-19.0525,-10.4681,-0.127751,-17.5824,37.9484,-20.8924,-4.15214,-19.7207
-14.173,17.5563,1.37641,6.1099,-88.2956,-6.84736,6.73575,-0.634176,5.1868,-4.13405,-0.350518,-0.0584017,-8.19728,-0.475006,-2.92687,3.17815,-14.7665,-12.9044,8.66091,-20.3189,2.84474,3.68709,-10.4612,2.04469,4.99446e-15,-6.36111e-15,-32.1954,-22.7157,-48.9121,58.0071,-15.7662,-31.7028,-65.2221,7.12502,175.038,-84.8559,4.99446e-15,-6.36111e-15,-60.9332,20.2997,6.79116,98.888,-2.10712,-15.7461,17.8345,7.12502,10.4451,47.555,-10.851,0.738375,18.153,37.9327,-24.0772,-5.0363,-19.5223,-10.4638,-0.199034,-17.2617,37.9927,-20.8811,-4.13642,-20.071
-14.1617,17.5527,1.36364,8.00909,-88.2121,-8.86785,6.69861,-0.66309,5.21503,-4.04881,-0.392655,-0.10307,-8.08806,-0.493434,-2.9849,3.31495,-14.7773,-12.983,8.68608,-20.3654,2.97104,3.69791,-10.4862,2.09499,4.22417e-16,-7.95139e-16,-31.1717,-20.7207,-50.1518,59.8229,-14.8534,-31.661,-64.5157,7.12502,175.079,-85.5615,4.22417e-16,-7.95139e-16,-62.0651,20.31,8.32132,97.2786,-2.00341,-15.5756,17.1739,7.12502,10.6096,46.8861,-10.7032,0.288449,18.23,37.8733,-24.1112,-4.81434,-20.0763,-10.3999,-0.220653,-17.1483,38.04,-20.9209,-3.81385,-21.8641
-14.1508,17.5507,1.34709,6.0518,-88.316,-7.01493,6.66401,-0.624459,5.02155,-4.09314,-0.365969,-0.158908,-8.11047,-0.473119,-2.93889,3.91606,-14.7036,-13.1116,8.55436,-20.3632,3.09792,3.58922,-10.4944,2.20131,6.4605e-15,2.38542e-15,-30.5205,-18.6836,-51.2063,61.6828,-13.7917,-31.787,-63.8186,7.12502,174.957,-86.2614,6.4605e-15,2.38542e-15,-63.1685,20.0975,9.73162,95.6584,-2.28189,-14.866,15.5737,7.12502,11.294,45.2496,-10.6202,0.0940437,18.1909,37.8155,-24.1133,-4.63579,-20.1587,-10.334,-0.189131,-17.184,38.0744,-20.9625,-3.4725,-23.351
-14.1401,17.5518,1.33157,4.14482,-88.4872,-5.07973,6.59743,-0.643715,4.84479,-3.91721,-0.418978,-0.219901,-7.88362,-0.481058,-2.89783,3.0459,-14.7468,-12.7615,8.87806,-20.2841,2.88723,3.76226,-10.4423,2.02183,8.52289e-15,-5.96354e-15,-29.203,-17.0912,-52.5495,63.2741,-12.3997,-31.9022,-63.0435,7.12502,174.846,-87.0392,8.52289e-15,-5.96354e-15,-64.1866,20.5174,10.8755,93.8597,-3.12403,-13.8419,14.6654,7.12502,12.2815,44.2847,-10.6856,0.0241934,18.1433,37.7444,-24.0869,-4.40827,-19.7882,-10.4008,-0.217508,-17.2204,38.0985,-21.0037,-3.36085,-23.366
-14.1299,17.5519,1.31987,8.55215,-88.6081,-9.44071,6.52394,-0.66333,4.91717,-3.84848,-0.445387,-0.25429,-7.77066,-0.494467,-2.97199,2.54555,-14.7559,-12.6421,9.15938,-20.229,2.80974,3.90362,-10.4114,1.93632,-3.72721e-16,1.80894e-14,-28.2122,-15.3775,-53.7344,64.8279,-10.9599,-32.1348,-62.1967,7.12502,174.621,-87.8916,-3.72721e-16,1.80894e-14,-65.0913,20.8558,11.8619,91.9296,-4.4669,-12.8192,15.7984,7.12502,13.2675,45.3561,-10.7299,-0.140631,18.2407,37.6499,-24.0667,-4.04042,-19.5618,-10.4824,-0.300773,-17.0783,38.1215,-21.0022,-3.41619,-22.4376
-14.1217,17.5513,1.30699,21.954,-88.7201,-22.8283,6.49838,-0.675844,5.1333,-3.86046,-0.441772,-0.241531,-7.77217,-0.504273,-3.08063,2.4896,-14.7063,-12.6357,9.23783,-20.1646,2.88166,3.93849,-10.3786,1.95236,6.83322e-15,8.74653e-15,-27.5681,-13.5157,-54.8533,66.4685,-9.53674,-32.3251,-61.405,7.12502,174.437,-88.688,6.83322e-15,8.74653e-15,-65.9938,21.1924,12.6342,90.1715,-6.04587,-11.4563,20.1155,7.12502,14.5809,49.583,-10.7465,-0.280859,18.5541,37.5361,-24.0127,-3.7539,-19.7986,-10.5065,-0.302533,-16.7228,38.1543,-20.983,-3.59263,-20.8868
-14.1187,17.5529,1.29466,34.707,-88.8288,-35.5635,6.43452,-0.687694,5.24214,-3.89973,-0.451408,-0.249828,-7.78038,-0.516477,-3.14944,2.66408,-14.6326,-12.7195,9.15319,-20.1053,3.08505,3.90931,-10.3473,2.04141,8.97016e-15,-2.98177e-15,-27.0493,-11.6764,-55.9377,68.029,-8.07608,-32.3232,-60.4949,7.12502,174.439,-89.598,8.97016e-15,-2.98177e-15,-66.8465,21.4905,13.2812,88.67,-7.40525,-9.39244,10.7649,7.12502,16.5686,40.0776,-10.7781,-0.491704,18.7634,37.4188,-23.9753,-3.38407,-19.7849,-10.5001,-0.212899,-16.4667,38.1969,-21.0656,-3.61745,-20.5163
-14.1164,17.5554,1.28267,46.8294,-88.941,-47.6243,6.35853,-0.693541,5.25028,-3.95525,-0.464834,-0.278545,-7.79778,-0.526496,-3.18271,2.75647,-14.5708,-12.8539,9.1293,-20.0565,3.32116,3.92078,-10.3218,2.13494,3.81418e-15,1.19271e-14,-26.578,-9.92924,-56.9888,69.4171,-6.60362,-32.311,-59.2083,7.12502,174.451,-269.116,3.81418e-15,1.19271e-14,-67.5567,21.7189,14.0361,87.3706,-8.06012,-11.0854,14.5985,7.12502,14.9382,44.0398,-10.8738,-0.791648,18.86,37.3355,-23.968,-2.82688,-19.5265,-10.5352,-0.0729818,-16.303,38.2125,-21.1459,-3.5971,-20.7462
-14.1106,17.5592,1.26915,67.2409,-88.9491,-67.8989,6.26981,-0.678345,5.29703,-4.03061,-0.44422,-0.263454,-7.82608,-0.521595,-3.19568,2.63386,-14.5011,-12.8698,9.26767,-19.9629,3.42823,3.98772,-10.2745,2.15784,-7.03201e-15,7.25564e-15,-26.1965,-8.17807,-58.0172,70.775,-5.17891,-32.3481,-58.4096,7.12502,174.415,-268.316,-7.03201e-15,7.25564e-15,-68.1631,21.8219,15.0913,86.3745,-7.86425,-11.5488,14.8674,7.12502,14.4918,44.3413,-11.0803,-0.891624,19.1018,37.2849,-23.9316,-2.48297,-19.6652,-10.6343,0.103737,-16.0199,38.1674,-21.1428,-3.69274,-19.9901
-14.1063,17.5638,1.25762,87.5556,-88.9977,-88.1001,6.13753,-0.633714,5.1906,-4.06083,-0.403497,-0.272724,-7.77561,-0.496021,-3.15115,2.34101,-14.4414,-12.6779,9.47637,-19.8326,3.22469,4.04881,-10.2106,2.05638,3.72721e-15,1.09332e-15,-25.887,-6.43801,-58.9683,72.1536,-3.90218,-32.4631,-58.0889,7.12502,174.304,-267.992,3.72721e-15,1.09332e-15,-68.5538,21.719,16.7849,85.6529,-6.46565,-13.8108,15.8341,7.12502,12.3115,45.4516,-11.2758,-0.886787,19.1599,37.259,-23.9187,-2.16172,-19.7074,-10.6629,0.272333,-15.9408,38.0829,-21.1619,-3.63241,-19.5437
-14.1057,17.5698,1.24791,108.043,-89.0463,-108.558,6.01632,-0.603669,4.98076,-4.03725,-0.392864,-0.306526,-7.67504,-0.477578,-3.07059,2.13855,-14.39,-12.548,9.50871,-19.7174,3.03679,4.05043,-10.1525,1.98043,-9.69075e-15,1.27222e-14,-25.5892,-4.63946,-59.8912,73.4705,-2.86809,-32.6389,-57.6569,7.12502,174.134,-267.556,-9.69075e-15,1.27222e-14,-68.7213,21.4502,19.0444,85.0285,-3.52983,-18.8386,20.3021,7.12502,7.46092,50.1505,-11.3703,-0.892302,19.058,37.2473,-23.921,-1.7658,-19.4358,-10.5672,0.383894,-16.0249,37.9682,-21.2054,-3.50192,-19.2634
-14.1046,17.5732,1.23873,122.915,-88.8983,-123.414,5.96206,-0.606685,4.90412,-4.00935,-0.408438,-0.320503,-7.61358,-0.479397,-3.0405,1.97463,-14.3518,-12.5538,9.46568,-19.6397,3.04715,4.05864,-10.1092,1.97887,-4.9075e-15,-7.65321e-15,-25.3312,-2.78025,-60.8306,74.7963,-2.04986,-32.5539,-57.7261,7.12502,174.216,-267.627,-4.9075e-15,-7.65321e-15,-69.5646,22.3338,18.167,82.6099,-7.78991,-12.8486,11.8085,7.12502,13.2391,41.368,-11.4515,-0.856152,19.0907,37.2614,-23.9226,-1.51154,-19.2846,-10.4743,0.462325,-15.9824,37.8437,-21.2439,-3.42972,-18.8434
-14.1002,17.576,1.23031,135.451,-88.7654,-135.922,5.92729,-0.612783,4.7757,-3.94245,-0.433953,-0.368811,-7.52194,-0.482584,-3.01644,1.62537,-14.338,-12.3428,9.42986,-19.5525,2.87716,4.05881,-10.0569,1.88733,8.74653e-15,5.26779e-15,-25.1176,-1.07082,-61.7649,76.2065,-1.53441,-32.26,-57.9844,7.12502,174.5,-267.893,8.74653e-15,5.26779e-15,-69.6903,22.5104,19.4754,81.1712,-7.59503,-14.1702,11.6906,7.12502,11.965,41.3286,-11.5659,-0.856825,19.034,37.2877,-23.9539,-1.23751,-19.1141,-10.4187,0.551083,-16.0281,37.7224,-21.2796,-3.26213,-19.0066
-14.095,17.5767,1.22443,145.071,-88.6264,-145.55,5.92829,-0.646358,4.64944,-3.87021,-0.493989,-0.41878,-7.4486,-0.503257,-2.99093,1.34169,-14.2927,-12.0078,9.27485,-19.4198,2.59822,3.98614,-9.98077,1.76535,-2.39784e-15,5.71506e-15,-24.9899,0.605141,-62.7368,77.5448,-1.03041,-32.2375,-57.2991,7.12502,174.522,-267.208,-2.39784e-15,5.71506e-15,-69.809,22.6534,20.6545,79.3308,-7.84961,-15.3316,11.0376,7.12502,10.845,40.7376,-11.648,-0.947058,18.9406,37.3232,-24.0021,-0.91263,-18.8224,-10.3365,0.594971,-16.1108,37.6393,-21.3331,-3.04635,-19.2758
-14.0903,17.5767,1.21968,149.454,-88.4531,-149.963,5.97729,-0.725524,4.57431,-3.84168,-0.603992,-0.412042,-7.45467,-0.552506,-2.92767,1.28802,-14.1958,-11.8988,9.0477,-19.2644,2.51812,3.89513,-9.89672,1.74841,-7.83336e-15,9.34288e-15,-24.9612,2.44005,-63.7543,78.7437,-0.319368,-32.238,-56.0111,7.12502,174.521,-265.92,-7.83336e-15,9.34288e-15,-70.0488,22.6365,21.7972,77.2634,-8.43324,-15.871,10.4703,7.12502,10.3246,40.1969,-11.6958,-1.00585,18.9391,37.3684,-24.0219,-0.679889,-18.748,-10.2376,0.570423,-16.1109,37.5723,-21.3973,-2.89057,-19.3049
-14.083,17.5769,1.21467,151.729,-88.2921,-152.221,5.92149,-0.818555,4.48606,-3.7621,-0.737444,-0.371421,-7.34587,-0.608013,-2.81923,1.24511,-14.1128,-11.8888,8.76501,-19.135,2.54296,3.80701,-9.82326,1.77337,5.41688e-15,-2.88238e-15,-24.8759,4.3451,-64.7267,79.8778,0.132479,-31.965,-54.6529,7.12502,174.785,-264.569,5.41688e-15,-2.88238e-15,-70.1613,22.6965,23.0424,75.0378,-9.13406,-16.6807,10.3524,7.12502,9.54346,40.1162,-11.8037,-0.983392,18.977,37.4335,-24.0227,-0.558228,-18.9093,-10.213,0.572695,-16.0783,37.4983,-21.4128,-2.79101,-19.2364
-14.0758,17.5771,1.21167,156.217,-88.1545,-156.697,6.19477,-0.886218,4.39731,-3.90112,-0.824082,-0.409533,-7.66026,-0.656863,-2.79545,1.33458,-14.0408,-11.7803,8.67479,-19.0365,2.40065,3.73424,-9.77595,1.73957,5.16219e-15,5.1684e-15,-25.2749,6.39977,-65.7337,81.0078,0.429659,-31.8599,-53.2682,7.12502,174.887,-263.187,5.16219e-15,5.1684e-15,-70.1073,22.4333,24.2686,72.6008,-9.74949,-17.2145,11.062,7.12502,9.02834,40.8488,-11.9051,-0.935688,18.9078,37.5079,-24.059,-0.446114,-18.7915,-10.1846,0.658076,-16.1473,37.4281,-21.4155,-2.68363,-19.3527
-14.0705,17.5775,1.20967,165.82,-88.0417,-166.326,6.11421,-0.96449,4.08859,-3.74929,-0.969069,-0.514468,-7.45669,-0.70718,-2.71571,1.17612,-14.0081,-11.6563,8.45683,-18.9686,2.48412,3.68369,-9.72722,1.75047,1.83565e-15,4.96962e-15,-25.2622,8.37115,-66.8328,81.9483,1.0021,-32.2317,-52.4256,7.12502,174.528,-262.335,1.83565e-15,4.96962e-15,-69.8091,22.657,25.487,70.0562,-10.418,-16.4449,12.0212,7.12502,9.77091,41.7746,-11.9725,-0.894962,18.6029,37.5948,-24.0991,-0.281285,-18.643,-10.1034,0.772538,-16.4461,37.3648,-21.4521,-2.55861,-19.4979
-14.0636,17.5769,1.20953,169.87,-87.9323,-170.354,6.13563,-1.06289,3.95408,-3.71589,-1.11727,-0.586021,-7.44327,-0.774019,-2.69658,1.23518,-13.9933,-11.768,8.28866,-18.9733,2.79299,3.66296,-9.71959,1.86141,-2.96904e-14,-4.05024e-15,-25.478,10.423,-67.9603,82.7774,1.74318,-32.4748,-52.0255,7.12502,174.293,-261.929,-2.96904e-14,-4.05024e-15,-69.5098,22.6334,26.7983,67.5441,-10.7872,-15.5901,12.4152,7.12502,10.5956,42.1281,-12.1011,-0.970964,18.4566,37.7025,-24.1202,-0.0756858,-18.6658,-10.0929,0.853602,-16.5775,37.2922,-21.4231,-2.47102,-19.4973
-14.0555,17.5758,1.21507,169.061,-87.864,-169.508,6.16434,-1.18002,4.05629,-3.69737,-1.26556,-0.617677,-7.45593,-0.852639,-2.76823,1.33369,-14.0034,-11.8442,8.09617,-19.007,2.99475,3.61708,-9.7289,1.94029,6.29122e-15,-4.44781e-15,-25.8335,12.5424,-69.0442,83.5082,2.50335,-31.9857,-51.2424,7.12502,174.765,-261.158,6.29122e-15,-4.44781e-15,-69.0694,22.6347,28.1729,64.8952,-10.6642,-15.0128,12.3318,7.12502,11.1524,42.0154,-12.204,-1.20681,18.4535,37.7433,-24.1429,0.195255,-18.6735,-10.1412,0.876716,-16.5559,37.2929,-21.4116,-2.4023,-19.6041
-14.0468,17.5759,1.22553,175.993,-87.8423,-176.426,6.18632,-1.29474,3.90438,-3.64536,-1.4401,-0.731183,-7.42559,-0.932049,-2.78015,1.32995,-13.996,-11.7629,7.91433,-18.9896,3.00919,3.55425,-9.71296,1.94367,-2.3264e-15,-7.45443e-16,-26.2619,14.6909,-70.1453,84.1348,3.26787,-31.229,-49.6296,7.12502,175.496,-259.562,-2.3264e-15,-7.45443e-16,-68.4859,22.7583,29.592,62.1767,-10.3176,-14.3705,11.6523,7.12502,11.7718,41.3014,-12.2906,-1.55228,18.0827,37.7732,-24.2013,0.551657,-18.8217,-10.1629,0.840813,-16.9024,37.299,-21.4748,-2.28086,-19.8685
-14.0399,17.5766,1.21112,165.343,-87.1807,-165.786,6.32015,-1.24571,4.14969,-3.60536,-1.33182,-0.534457,-7.45379,-0.884934,-2.72291,1.29398,-13.9637,-11.5587,7.82139,-18.9309,2.90146,3.49778,-9.67895,1.89512,1.6081e-14,-4.31114e-15,-26.8551,16.8709,-71.312,84.675,3.98531,-30.7576,-47.8487,7.12502,175.951,-257.79,1.6081e-14,-4.31114e-15,-67.8672,22.7231,31.1254,59.624,-9.95416,-13.411,11.6399,7.12502,12.697,41.2339,-12.3595,-0.506181,18.8876,37.6624,-23.9267,0.000622071,-19.158,-10.1793,1.14303,-16.2006,37.435,-21.6305,-2.12961,-20.2532
-14.0367,17.576,1.21963,167.187,-87.2092,-167.647,6.30156,-1.37828,4.09604,-3.50267,-1.51948,-0.596305,-7.34836,-0.971618,-2.73496,1.07468,-13.9654,-11.2812,7.58675,-18.8691,2.51123,3.76018,-9.65808,1.94508,-2.68984e-14,3.48805e-15,-27.4566,19.0086,-72.5235,85.0821,4.74341,-30.7373,-46.7035,7.12502,175.971,-256.645,-2.68984e-14,3.48805e-15,-67.1914,22.8119,32.583,57.1221,-9.82845,-12.2325,13.2385,7.12502,13.8329,42.7585,-12.3352,-0.884041,18.6989,37.6138,-23.9592,0.377516,-19.3509,-10.1695,1.13957,-16.3443,37.4763,-21.6729,-2.11294,-20.3596
-14.0342,17.5755,1.21119,155.694,-86.59,-156.238,6.35027,-1.3902,4.65678,-3.33396,-1.46624,-0.365805,-7.20367,-0.959553,-2.81525,0.93251,-14.0064,-11.2092,7.48596,-18.9054,2.56118,3.75077,-9.66722,1.94056,2.19424e-14,2.13694e-15,-28.0661,20.9938,-73.7606,85.2893,5.68801,-30.9737,-46.1281,7.12502,175.742,-256.065,2.19424e-14,2.13694e-15,-66.3633,23.1305,33.8914,54.4503,-10.1169,-12.0466,13.5005,7.12502,14.0121,43.0083,-12.2205,-0.152057,19.684,37.4767,-23.7309,0.0528837,-19.1491,-10.0853,1.38096,-15.4069,37.5857,-21.716,-2.18771,-19.666
-14.0305,17.579,1.21588,162.374,-86.7415,-162.877,6.34397,-1.44323,4.24226,-3.30498,-1.58572,-0.516191,-7.16934,-1.00087,-2.72575,0.986305,-14.0547,-11.4004,7.41531,-18.9937,2.85379,3.78232,-9.7072,2.06067,6.7711e-15,-1.71452e-15,-28.9483,22.8122,-75.0564,85.3445,6.83141,-31.1153,-45.6214,7.12502,175.605,-255.556,6.7711e-15,-1.71452e-15,-65.43,23.2588,35.2762,51.7788,-10.4571,-12.6909,12.2462,7.12502,13.3912,41.7958,-12.2795,-0.291704,19.1816,37.4372,-23.6794,0.27767,-18.6444,-10.1463,1.32737,-15.9058,37.5921,-21.7252,-2.16315,-19.2133
-14.0272,17.5793,1.22249,161.625,-86.6955,-162.155,6.47383,-1.5109,4.31421,-3.29493,-1.66489,-0.542102,-7.24396,-1.04484,-2.78073,0.740528,-14.0482,-10.4615,7.48705,-18.9058,1.99511,3.6268,-9.65956,1.64224,7.84889e-15,1.49089e-15,-29.9546,24.6089,-76.4799,85.1725,8.03718,-31.1092,-44.4937,7.12502,175.611,-254.428,7.84889e-15,1.49089e-15,-64.5078,23.139,36.8424,49.3173,-10.4475,-13.2353,11.7365,7.12502,12.8663,41.3199,-12.2519,-0.445434,19.1981,37.3969,-23.6806,0.423023,-18.7519,-10.1282,1.35324,-15.8745,37.619,-21.738,-2.0665,-19.6575
-14.02,17.5791,1.22884,159.338,-86.5723,-159.865,6.64045,-1.61213,4.43912,-3.31445,-1.77758,-0.503599,-7.37455,-1.10785,-2.79149,0.722525,-13.9949,-10.1197,7.50029,-18.8148,1.67293,3.54874,-9.61461,1.49925,-2.79479e-14,-2.03754e-15,-30.9446,26.4706,-77.9822,84.7318,9.11931,-30.9606,-42.3316,7.12502,175.755,-252.269,-2.79479e-14,-2.03754e-15,-63.7091,22.89,38.5536,47.217,-10.4237,-13.1829,12.5835,7.12502,12.9169,42.1637,-12.3122,-0.46405,19.3656,37.444,-23.6946,0.441439,-18.9936,-10.1321,1.35404,-15.7131,37.5856,-21.7255,-1.9454,-19.9275
-14.0083,17.5808,1.23369,163.301,-86.5938,-163.772,6.79731,-1.7059,4.11862,-3.36603,-1.93017,-0.556051,-7.52256,-1.17195,-2.64151,0.690813,-13.9316,-10.0154,7.61516,-18.7221,1.52886,3.55952,-9.57274,1.43892,-1.53126e-14,6.11263e-15,-31.9821,28.2755,-79.4949,84.168,10.0871,-30.2582,-41.7269,7.12502,176.433,-251.677,-1.53126e-14,6.11263e-15,-62.9971,22.7233,40.1499,45.4505,-10.6958,-11.8799,14.0298,7.12502,14.1728,43.5263,-12.4545,-0.395077,19.1068,37.4636,-23.6229,0.485255,-18.7126,-10.2431,1.2641,-16.0008,37.6036,-21.7446,-1.89747,-19.3698
-13.9979,17.5821,1.23481,164.402,-86.472,-164.837,6.91608,-1.76926,3.95702,-3.35907,-2.02591,-0.559973,-7.58496,-1.21156,-2.53872,0.511857,-13.8723,-9.87636,7.80654,-18.6183,1.36038,3.61713,-9.52496,1.35156,2.0596e-14,-5.91384e-15,-33.0194,30.0656,-81.0955,83.4738,10.8977,-29.4439,-41.1087,7.12502,177.22,-251.07,2.0596e-14,-5.91384e-15,-62.3598,22.757,41.4263,43.8031,-11.0107,-10.4033,13.8398,7.12502,15.5953,43.2311,-12.5705,-0.0693297,19.1098,37.4872,-23.5365,0.403595,-18.0604,-10.3156,1.28827,-16.0375,37.624,-21.758,-1.83098,-19.3745
-13.9944,17.5821,1.23614,161.969,-86.276,-162.418,6.9861,-1.83244,4.0386,-3.30782,-2.09616,-0.516,-7.57788,-1.24736,-2.52731,0.360565,-13.8154,-9.69847,7.92892,-18.5194,1.19313,3.64162,-9.4772,1.2643,1.64619e-14,-4.77083e-15,-34.0267,31.6226,-82.6731,82.4154,11.7764,-28.3689,-38.8636,7.12502,178.258,-248.836,1.64619e-14,-4.77083e-15,-61.7463,22.7086,42.7635,42.3816,-11.0826,-9.83653,12.7779,7.12502,16.1411,42.1258,-12.5924,0.278653,19.3726,37.5257,-23.5268,0.231774,-17.506,-10.2975,1.43117,-15.7977,37.6166,-21.7661,-1.82854,-19.64
-13.997,17.5811,1.24125,163.117,-86.2563,-163.589,6.98597,-1.89723,3.91386,-3.26063,-2.19835,-0.557477,-7.53126,-1.29057,-2.48753,0.294321,-13.7707,-9.52391,7.99972,-18.4434,1.00259,3.6315,-9.44147,1.17807,-2.84883e-14,-2.88238e-15,-35.2186,33.0171,-84.3451,81.2852,12.4326,-27.2386,-37.0764,7.12502,179.349,-247.055,-2.84883e-14,-2.88238e-15,-61.0065,22.5074,44.4318,41.3182,-10.5579,-9.5817,12.9671,7.12502,16.3864,42.2949,-12.5647,0.29793,19.2825,37.547,-23.5533,0.19247,-17.595,-10.2621,1.5449,-15.8783,37.6139,-21.7751,-1.94681,-19.3287
-13.9955,17.5814,1.24893,166.062,-86.3299,-166.503,6.99394,-1.96884,3.68401,-3.26174,-2.32254,-0.636392,-7.53929,-1.34244,-2.42405,0.349119,-13.7204,-9.42963,7.9974,-18.3769,0.904146,3.59419,-9.40967,1.14374,2.94574e-14,3.57812e-15,-36.4991,34.4145,-86.0908,79.8898,12.9067,-26.1888,-35.4345,7.12502,180.363,-245.414,2.94574e-14,3.57812e-15,-60.2515,22.0475,46.475,40.6912,-9.16476,-9.8412,13.7706,7.12502,16.1366,43.1189,-12.6056,0.209827,19.0179,37.542,-23.5178,0.261043,-17.7652,-10.3205,1.58026,-16.1306,37.6391,-21.7721,-1.94504,-19.5989
-13.9887,17.5832,1.25615,166.084,-86.3708,-166.441,7.00236,-2.05581,3.59942,-3.28346,-2.44833,-0.65014,-7.57334,-1.40122,-2.3727,0.483584,-13.6415,-9.33694,7.90077,-18.284,0.887244,3.51741,-9.36109,1.14697,1.27098e-14,-9.0447e-15,-37.7966,35.8464,-87.9122,78.2329,13.4008,-25.1448,-33.9369,7.12502,181.372,-243.912,1.27098e-14,-9.0447e-15,-59.4303,21.2213,48.9392,40.3894,-7.51667,-10.5614,14.6103,7.12502,15.443,44.0134,-12.7426,0.223147,18.991,37.5742,-23.477,0.248029,-17.6966,-10.4451,1.59434,-16.1601,37.6276,-21.7133,-1.88115,-20.1023
-13.9828,17.5835,1.25764,162.517,-86.3309,-162.833,7.03608,-2.14005,3.63661,-3.27112,-2.54989,-0.561866,-7.58461,-1.45005,-2.2853,0.479398,-13.5599,-9.19428,7.90024,-18.169,0.776048,3.4824,-9.30359,1.10017,-9.18137e-15,-1.88845e-15,-39.1639,37.204,-89.7785,76.4434,14.0248,-24.411,-33.2696,7.12502,182.08,-243.239,-9.18137e-15,-1.88845e-15,-58.4233,20.1983,51.6849,40.1666,-6.84505,-10.9803,15.3518,7.12502,15.0395,44.7856,-12.811,0.499838,19.2934,37.6087,-23.4338,-0.124158,-17.9611,-10.5219,1.6383,-15.8868,37.6141,-21.6211,-1.93364,-19.8915
-13.9815,17.5837,1.26718,166.744,-86.7587,-167.058,7.04856,-2.3076,3.21923,-3.25179,-2.82278,-0.657833,-7.57267,-1.5652,-2.11382,0.34102,-13.4905,-9.02819,8.03886,-18.0549,0.591372,3.51045,-9.25012,1.01049,1.9866e-14,1.35174e-14,-40.587,38.5439,-91.6486,74.4794,14.7348,-23.8668,-33.2714,7.12502,182.606,-243.235,1.9866e-14,1.35174e-14,-57.3033,18.8483,54.7406,40.0682,-7.33846,-10.7683,15.6839,7.12502,15.2436,45.1023,-12.7779,0.248826,18.8477,37.6637,-23.527,-0.260313,-18.1202,-10.5637,1.47828,-16.3245,37.5718,-21.5011,-2.0598,-19.4321
-13.9821,17.5847,1.2733,169.701,-87.1272,-170.032,7.07634,-2.4344,2.8702,-3.2267,-3.03067,-0.710019,-7.55813,-1.6506,-1.94338,0.308971,-13.4419,-8.89426,8.08062,-17.9832,0.491549,3.50083,-9.21473,0.961409,1.6729e-14,-1.98785e-15,-41.9859,39.6791,-93.4137,72.3179,15.5851,-23.0908,-32.9244,7.12502,183.355,-242.878,1.6729e-14,-1.98785e-15,-55.9512,16.9114,58.2858,40.0621,-8.17633,-10.0329,16.0522,7.12502,15.952,45.4153,-12.7124,0.193238,18.5814,37.6912,-23.5459,-0.547551,-18.0815,-10.5952,1.36228,-16.5995,37.5423,-21.3664,-2.17077,-19.3526
-13.9826,17.5849,1.28038,171.414,-87.5669,-171.753,7.07961,-2.55642,2.60597,-3.19642,-3.22291,-0.742838,-7.52503,-1.73191,-1.80351,0.420978,-13.4285,-8.85137,7.9756,-17.9798,0.558372,3.44598,-9.20842,0.989691,1.0958e-14,-8.94531e-16,-43.3784,40.566,-95.0575,69.9553,16.6062,-22.271,-32.2173,7.12502,184.147,-242.157,1.0958e-14,-8.94531e-16,-54.2892,14.3547,62.2731,40.0236,-8.87819,-9.55105,16.1571,7.12502,16.4159,45.4825,-12.6252,0.000843976,18.3893,37.6844,-23.5498,-0.803802,-18.2223,-10.6619,1.23867,-16.7828,37.529,-21.2106,-2.27042,-19.8734
-13.9875,17.5849,1.28578,167.837,-87.9777,-168.129,6.97146,-2.69864,2.53326,-3.16698,-3.42158,-0.717164,-7.43579,-1.82406,-1.71363,0.471172,-13.432,-8.78628,7.93468,-17.9951,0.630802,3.42429,-9.21159,1.0076,3.44394e-14,9.93923e-17,-44.8209,41.3714,-96.7166,67.4402,17.6103,-21.739,-31.5565,7.12502,184.661,-241.485,3.44394e-14,9.93923e-17,-52.5827,11.224,66.4602,40.131,-9.49169,-9.49047,15.6447,7.12502,16.4743,44.9653,-12.5279,-0.169388,18.4424,37.5955,-23.5367,-1.07778,-18.4466,-10.8054,1.12994,-16.7165,37.5963,-21.0995,-2.46553,-20.3627
-13.9941,17.586,1.28719,153.641,-88.2381,-153.863,6.82392,-2.82313,2.69279,-3.14296,-3.5671,-0.583256,-7.33436,-1.89844,-1.64974,0.452804,-13.4609,-8.78313,7.99994,-18.0363,0.661356,3.45598,-9.23239,1.0095,7.45443e-15,6.75868e-15,-46.318,41.8482,-98.2713,64.9696,18.7991,-21.3426,-31.153,7.12502,185.044,-241.073,7.45443e-15,6.75868e-15,-50.9523,7.53852,70.7618,40.4773,-10.0637,-9.43338,14.9391,7.12502,16.5292,44.2551,-12.4329,-0.11291,18.8714,37.4481,-23.452,-1.54638,-18.6332,-10.9985,1.00981,-16.3049,37.7315,-21.0073,-2.75936,-20.1752
-13.9957,17.5873,1.29133,136.029,-88.5184,-136.199,6.84043,-2.93313,2.76162,-3.20224,-3.69897,-0.456153,-7.41047,-1.96429,-1.53394,0.541449,-13.5119,-8.92778,8.09334,-18.1186,0.713261,3.49923,-9.27917,1.04297,-7.47927e-15,-1.98785e-16,-47.8528,41.8655,-99.5359,62.5927,20.4268,-20.6895,-30.8566,7.12502,185.674,-240.761,-7.47927e-15,-1.98785e-16,-49.4987,3.35553,75.1067,41.0094,-10.4916,-9.42152,14.0562,7.12502,16.5406,43.3712,-12.3189,-0.151878,19.1638,37.2804,-23.3423,-2.03566,-18.9172,-11.228,0.788258,-16.029,37.8997,-20.9076,-3.05391,-19.6529
-13.9911,17.589,1.29805,112.773,-88.7779,-112.848,6.9559,-3.05204,2.72986,-3.33548,-3.85436,-0.388105,-7.62124,-2.04024,-1.41257,0.720597,-13.5593,-8.94277,8.10211,-18.2013,0.700342,3.47412,-9.32356,1.04968,-5.52435e-14,2.38542e-15,-49.1922,41.6224,-100.528,60.1118,22.2516,-20.3298,-30.6088,7.12502,186.021,-240.503,-5.52435e-14,2.38542e-15,-48.3642,-1.24453,79.346,41.8615,-10.6388,-9.71241,13.354,7.12502,16.2606,42.6921,-12.2468,-0.269306,19.2748,37.0912,-23.2,-2.52181,-19.2251,-11.5601,0.552162,-15.9264,38.102,-20.7959,-3.30658,-19.7081
-13.9825,17.591,1.30448,82.5249,-88.7641,-82.4914,7.0261,-3.21034,2.71432,-3.41329,-4.06278,-0.333039,-7.75096,-2.14168,-1.30971,0.778846,-13.5816,-8.8156,8.0796,-18.2327,0.614031,3.43285,-9.33821,1.00954,-4.82674e-15,-2.08724e-15,-50.0923,41.1812,-101.173,57.4957,23.9844,-20.318,-30.6503,7.12502,186.033,-240.544,-4.82674e-15,-2.08724e-15,-47.5432,-5.99982,83.3068,43.1964,-10.6561,-10.5167,12.9756,7.12502,15.486,42.3754,-12.2229,-0.421906,19.3893,36.9571,-23.0749,-3.00834,-19.358,-11.9106,0.311652,-15.8235,38.2525,-20.629,-3.48376,-20.4508
-13.981,17.5915,1.29719,73.4076,-88.2203,-73.3679,7.10978,-3.30289,2.84361,-3.43151,-4.15574,-0.115492,-7.81674,-2.18771,-1.13422,0.864245,-13.5671,-9.0654,8.09488,-18.2383,0.872871,3.48131,-9.34205,1.12878,-4.65032e-14,7.85199e-15,-50.7427,40.5192,-101.501,54.8756,25.4586,-19.8872,-30.7619,7.12502,186.449,-240.644,-4.65032e-14,7.85199e-15,-46.974,-10.4434,86.7867,44.852,-11.0669,-11.561,12.3742,7.12502,14.48,41.8489,-12.1274,0.0410095,20.0495,36.854,-22.8953,-3.81844,-19.3453,-12.0992,0.253928,-15.2254,38.3685,-20.4719,-3.64035,-20.9675
-13.988,17.5933,1.30353,54.8775,-88.0687,-54.7997,7.02508,-3.47327,2.58159,-3.44892,-4.4132,-0.108091,-7.77658,-2.30041,-0.948474,1.08359,-13.536,-9.69843,8.06015,-18.261,1.5328,3.58003,-9.35466,1.43801,3.36257e-14,-9.93923e-17,-51.1905,39.6173,-101.506,52.367,26.8303,-19.196,-31.0262,7.12502,187.116,-240.887,3.36257e-14,-9.93923e-17,-46.5001,-14.51,89.7492,46.6703,-11.966,-11.967,11.678,7.12502,14.0888,41.1804,-12.0083,-0.269033,19.8983,36.7914,-22.8989,-4.17685,-19.6561,-12.253,0.0425596,-15.379,38.4206,-20.3184,-3.94232,-20.8247
-13.9954,17.5946,1.31253,39.7436,-87.7448,-39.5834,6.85584,-3.67242,2.35263,-3.46328,-4.70784,-0.1011,-7.68619,-2.43337,-0.782998,1.1041,-13.4602,-9.95267,8.11902,-18.1786,1.7612,3.64815,-9.31684,1.54963,1.78037e-14,-7.95139e-16,-51.4069,38.5982,-101.147,50.046,27.97,-18.607,-31.4499,7.12502,187.684,-241.29,1.78037e-14,-7.95139e-16,-46.1945,-18.2775,92.2557,48.8381,-13.313,-11.7509,10.9082,7.12502,14.297,40.396,-11.934,-0.645224,19.7196,36.742,-22.9002,-4.58778,-20.3818,-12.423,-0.165797,-15.5629,38.4421,-20.1619,-4.28228,-20.7215
-14.0042,17.5947,1.32023,32.6678,-87.231,-32.453,6.73059,-3.88799,2.29687,-3.49397,-5.0016,-0.0339832,-7.64678,-2.57334,-0.648227,0.939668,-13.3146,-9.64776,8.27317,-17.9491,1.42256,3.64382,-9.20638,1.39656,-8.47879e-14,-2.38542e-15,-51.5029,37.5019,-100.556,47.8664,28.5736,-18.0104,-31.5572,7.12502,188.26,-241.376,-8.47879e-14,-2.38542e-15,-46.1648,-21.6522,94.2966,51.4503,-15.231,-11.6801,9.89093,7.12502,14.3653,39.3739,-11.8453,-1.04106,19.746,36.7348,-22.9409,-4.84352,-20.5781,-12.5406,-0.364923,-15.5263,38.4214,-19.9805,-4.57673,-20.8256
-14.0107,17.5977,1.32593,25.8952,-86.7217,-25.6092,6.6883,-4.13647,2.10492,-3.56744,-5.35401,-0.00910554,-7.69299,-2.73668,-0.466967,0.799666,-13.0948,-9.31681,8.40784,-17.6298,1.16325,3.63095,-9.04887,1.27289,-6.15611e-15,-4.77083e-15,-51.4535,36.2577,-99.7878,45.8069,28.8259,-17.4942,-31.4417,7.12502,188.758,-241.24,-6.15611e-15,-4.77083e-15,-46.2173,-24.3579,95.7321,54.3275,-17.4877,-11.8271,8.78153,7.12502,14.2236,38.2745,-11.7728,-1.48986,19.6343,36.6903,-22.9914,-4.93541,-20.2049,-12.7159,-0.662539,-15.6153,38.4243,-19.7949,-4.82227,-20.8103
-14.0071,17.604,1.32452,20.8848,-86.1962,-20.3726,6.62426,-4.40177,1.8228,-3.68102,-5.73829,0.0290238,-7.75712,-2.91105,-0.218149,0.717492,-12.8209,-9.21729,8.46763,-17.2598,1.18702,3.63728,-8.86352,1.28079,-4.00737e-14,-2.68359e-15,-51.1685,34.9143,-98.7633,43.8856,28.8792,-17.1991,-31.509,7.12502,189.043,-241.295,-4.00737e-14,-2.68359e-15,-46.0905,-26.4955,96.6283,57.2231,-19.443,-12.0889,7.74032,7.12502,13.9713,37.2509,-11.919,-1.61778,19.573,36.6263,-22.9253,-5.37576,-19.9549,-13.1262,-1.022,-15.7069,38.4558,-19.5888,-4.99648,-20.7482
-14.0145,17.6056,1.32455,23.8193,-86.0726,-23.3397,6.5809,-4.47674,1.84529,-3.64881,-5.8288,0.148805,-7.68918,-2.95306,-0.098741,0.660582,-12.5271,-8.99997,8.43104,-16.8531,1.06957,3.5748,-8.65841,1.23534,7.25378e-14,8.94531e-15,-50.7519,33.4912,-97.4984,42.1536,28.7833,-16.7678,-32.028,7.12502,189.459,-241.796,7.25378e-14,8.94531e-15,-45.802,-28.3629,97.2077,60.1081,-20.8897,-12.3948,6.78203,7.12502,13.6765,36.3127,-11.8312,-1.33399,19.8805,36.5593,-22.8316,-5.73648,-19.8894,-13.1002,-1.02396,-15.4381,38.4719,-19.5751,-5.05136,-20.6189
-14.0164,17.6086,1.32466,22.9875,-85.7032,-22.3836,6.51998,-4.66088,1.75704,-3.72816,-6.07961,0.259387,-7.72331,-3.06942,0.0981467,0.434448,-12.1626,-8.48244,8.53489,-16.3163,0.572149,3.51663,-8.39343,1.01634,-4.34096e-14,-5.96354e-16,-50.3325,32.0042,-96.0863,40.6263,28.5752,-16.5448,-32.8745,7.12502,189.675,-242.632,-4.34096e-14,-5.96354e-16,-45.5933,-29.8499,97.5513,63.1029,-22.0285,-12.9445,5.83184,7.12502,13.1467,35.3974,-11.879,-1.44568,19.9884,36.4979,-22.7266,-5.94554,-19.8896,-13.3166,-1.25667,-15.3506,38.4892,-19.4578,-5.12103,-20.5807
-14.0267,17.6098,1.32951,20.4304,-85.5919,-19.807,6.53037,-4.79825,1.50962,-3.80839,-6.28742,0.28483,-7.78909,-3.15822,0.293719,0.135883,-11.708,-7.91233,8.75311,-15.6562,0.0400668,3.50494,-8.07023,0.774759,-9.69075e-15,-1.98785e-15,-49.8614,30.3592,-94.5244,39.2288,28.4776,-16.789,-33.2754,7.12502,189.439,-243.044,-9.69075e-15,-1.98785e-15,-45.5554,-30.9519,97.6599,66.2261,-22.8852,-13.5494,5.20958,7.12502,12.5636,34.8118,-11.8022,-1.6787,19.7971,36.4527,-22.6987,-5.88186,-20.0721,-13.3067,-1.36367,-15.529,38.4788,-19.4176,-5.26479,-20.1779
-14.0338,17.6117,1.32832,23.091,-85.6922,-22.438,6.50693,-4.82251,1.46907,-3.85096,-6.31792,0.393742,-7.80437,-3.16852,0.433576,-0.041272,-11.1925,-7.36787,8.80092,-14.9363,-0.316944,3.43669,-7.70958,0.607752,-8.76516e-15,-5.36719e-15,-49.2485,28.512,-92.7853,37.949,28.5926,-17.0171,-33.3148,7.12502,189.219,-243.093,-8.76516e-15,-5.36719e-15,-45.4753,-31.7644,97.4881,69.3819,-23.6684,-13.6855,4.8818,7.12502,12.4323,34.4921,-11.8548,-1.43573,20.0124,36.4561,-22.5962,-6.10565,-20.486,-13.273,-1.26452,-15.3384,38.4289,-19.38,-5.39846,-19.3054
-14.0338,17.6159,1.32461,24.4491,-85.8028,-23.7178,6.44843,-4.84701,1.27838,-3.84878,-6.36298,0.504357,-7.73389,-3.17848,0.652635,-0.192813,-10.6157,-6.87607,8.65871,-14.1407,-0.555963,3.3179,-7.30403,0.495341,1.01877e-15,-1.93815e-15,-48.415,26.5379,-90.8475,36.7593,28.9018,-17.4318,-33.8215,7.12502,188.819,-243.617,1.01877e-15,-1.93815e-15,-45.205,-32.3249,97.0543,72.4339,-24.4967,-13.8109,4.57161,7.12502,12.3115,34.1892,-12.0134,-1.15418,20.1238,36.4955,-22.4537,-6.35528,-20.8514,-13.3003,-1.22117,-15.2703,38.3235,-19.3115,-5.3682,-18.8476
-14.0454,17.6189,1.33088,21.9788,-86.1031,-21.2322,6.32651,-4.84539,0.908974,-3.82847,-6.39759,0.506612,-7.59932,-3.17812,0.847519,-0.259675,-9.9842,-6.39923,8.41936,-13.2796,-0.790003,3.15695,-6.86455,0.394835,5.64517e-14,2.48481e-15,-47.6082,24.4892,-88.8402,35.7193,29.307,-18.2705,-34.7736,7.12502,188.009,-244.602,5.64517e-14,2.48481e-15,-44.935,-32.6481,96.5223,75.2939,-25.1665,-14.1521,4.33065,7.12502,11.9825,33.9677,-12.0487,-1.22099,19.7666,36.5487,-22.4648,-6.05718,-20.8108,-13.1542,-1.10561,-15.6105,38.207,-19.3778,-5.21682,-19.0702
-14.0655,17.6163,1.34175,21.2234,-86.6736,-20.6879,6.38079,-4.74989,0.64958,-3.79396,-6.29428,0.482106,-7.5673,-3.11466,0.952974,-0.262507,-9.27253,-5.62269,8.20743,-12.3096,-1.29253,2.95609,-6.37212,0.167473,-3.34774e-14,-4.12478e-15,-46.9452,22.4678,-86.9337,34.7692,29.5631,-19.2607,-35.7017,7.12502,187.054,-245.564,-3.34774e-14,-4.12478e-15,-44.7985,-32.7443,95.9451,77.9882,-25.5632,-14.4776,3.97993,7.12502,11.6686,33.635,-11.834,-1.28254,19.4173,36.6292,-22.608,-5.52881,-20.948,-12.6563,-0.707586,-15.909,38.0796,-19.5635,-5.03029,-19.7947
-14.0723,17.6158,1.34849,23.9633,-87.1213,-23.4199,6.33447,-4.67888,0.556899,-3.80741,-6.20459,0.545995,-7.53751,-3.06501,1.05475,-0.33939,-8.47682,-4.39361,7.97206,-11.2093,-2.22212,2.71724,-5.81424,-0.266186,-1.60759e-14,-6.95746e-15,-46.1115,20.3401,-84.9891,33.7384,29.9157,-20.3006,-36.5759,7.12502,186.05,-246.47,-1.60759e-14,-6.95746e-15,-44.6397,-32.6945,95.2594,80.634,-25.5865,-14.8941,3.8693,7.12502,11.2669,33.5467,-11.9262,-1.19314,19.3548,36.7298,-22.6635,-5.32176,-21.6369,-12.4886,-0.432302,-15.9687,37.9679,-19.6561,-4.8106,-20.3475
-14.0727,17.6176,1.35792,24.9591,-87.3852,-24.2674,6.09473,-4.67607,0.473239,-3.75238,-6.20571,0.611252,-7.32332,-3.06304,1.14221,-0.554731,-7.66442,-3.07684,7.6186,-10.0829,-3.22747,2.489,-5.24008,-0.746758,-3.25199e-14,-4.69629e-15,-45.0362,17.9791,-82.93,32.6825,30.3056,-21.4375,-37.4208,7.12502,184.952,-247.343,-3.25199e-14,-4.69629e-15,-44.3113,-32.4921,94.4088,83.1904,-25.7649,-15.2401,4.02645,7.12502,10.9332,33.7218,-12.178,-1.34728,19.2202,36.8231,-22.7045,-5.04475,-22.1592,-12.5489,-0.446325,-16.1061,37.8969,-19.6945,-4.55647,-20.4838
-14.0777,17.6203,1.3685,22.3324,-87.5544,-21.3968,5.76654,-4.72485,0.342711,-3.73232,-6.28363,0.641238,-7.0941,-3.09857,1.22139,-0.798927,-6.88033,-2.20194,7.3287,-9.01845,-3.71777,2.36974,-4.69519,-1.01285,6.73538e-14,5.31749e-15,-44.0159,15.5329,-80.9251,31.6833,30.3407,-22.6926,-38.2972,7.12502,183.74,-248.244,6.73538e-14,5.31749e-15,-44.0529,-32.0764,93.5092,85.4517,-26.515,-15.6793,3.70488,7.12502,10.5095,33.4222,-12.4993,-1.69854,18.9297,36.9116,-22.7784,-4.63296,-22.1402,-12.75,-0.621627,-16.3874,37.872,-19.772,-4.27464,-20.4191
-14.0865,17.6189,1.37204,25.6107,-87.9256,-24.7139,5.82972,-4.67084,0.279816,-3.73712,-6.21382,0.683575,-7.12461,-3.05951,1.29759,-0.853149,-6.18007,-1.6985,7.14351,-8.09295,-3.71319,2.30408,-4.21673,-1.06864,-1.2393e-14,8.10048e-15,-43.3187,13.0637,-79.1338,30.7897,30.0185,-24.4291,-39.4345,7.12502,182.063,-249.404,-1.2393e-14,8.10048e-15,-44.0866,-31.643,92.7166,87.4175,-27.1517,-16.506,3.09914,7.12502,9.71197,32.8552,-12.5188,-1.5892,18.8639,36.9721,-22.8605,-4.26924,-21.4902,-12.6081,-0.454633,-16.4365,37.8879,-19.9237,-4.17476,-20.1188
-14.0918,17.6146,1.37467,38.8842,-88.3826,-38.1997,6.09407,-4.5146,0.387509,-3.69528,-5.98984,0.709719,-7.24338,-2.95094,1.2611,-0.822056,-5.61655,-1.22133,6.92803,-7.35832,-3.60008,2.22117,-3.82987,-1.08814,2.54506e-14,2.33572e-15,-42.7468,10.4431,-77.4839,29.8729,29.8163,-26.2968,-40.6006,7.12502,180.259,-250.58,2.54506e-14,2.33572e-15,-44.1693,-31.3343,91.961,89.1655,-27.2944,-17.387,2.69704,7.12502,8.8619,32.491,-12.323,-1.25464,18.9941,36.8769,-22.8368,-3.8928,-20.9984,-12.3205,-0.0612948,-16.2866,38.0659,-20.1635,-4.15418,-20.0465
-14.0935,17.6082,1.38369,55.0824,-88.5502,-54.5541,6.28037,-4.40594,0.657766,-3.60533,-5.81355,0.738831,-7.28108,-2.87482,1.13319,-0.969203,-5.14533,-0.722998,6.72007,-6.73938,-3.53079,2.17228,-3.50238,-1.13577,1.38342e-14,4.37326e-15,-42.0637,7.72823,-75.8125,28.9163,30.0082,-27.2547,-41.6776,7.12502,179.334,-251.656,1.38342e-14,4.37326e-15,-44.0955,-31.0274,91.2338,90.6148,-27.2775,-18.1561,2.6101,7.12502,8.11968,32.4341,-12.1568,-1.35364,19.1276,36.7501,-22.7787,-3.48319,-21.5065,-12.1396,0.145378,-16.1228,38.274,-20.4017,-4.07202,-20.0447
-14.0993,17.5968,1.35717,99.3904,-87.3679,-99.1699,6.58553,-4.03253,1.56511,-3.42826,-5.19091,1.23776,-7.30808,-2.59891,1.09081,-1.11653,-4.71784,-0.405711,6.51337,-6.1823,-3.31952,2.13595,-3.20688,-1.11076,-2.14687e-14,-7.95139e-16,-41.4465,5.07833,-74.169,28.093,30.4704,-27.4675,-42.7433,7.12502,179.128,-252.721,-2.14687e-14,-7.95139e-16,-44.0644,-30.6638,90.6499,91.8208,-27.2879,-18.6447,2.84159,7.12502,7.64805,32.6833,-11.9382,0.53175,20.9772,36.6198,-22.4005,-4.30116,-22.0385,-11.7583,0.855248,-14.3961,38.5038,-20.7144,-3.88853,-19.7709
-14.1036,17.5911,1.3614,106.196,-87.2926,-106.008,6.60013,-3.93221,1.5804,-3.39132,-5.05357,1.2544,-7.27672,-2.53175,1.08099,-1.1274,-4.35534,-0.394195,6.30362,-5.72363,-2.77188,2.09151,-2.95883,-0.927014,7.95698e-14,0,-40.9427,2.45789,-72.635,27.2899,31.0303,-28.2131,-43.5188,7.12502,178.408,-253.493,7.95698e-14,0,-44.1269,-30.3343,90.1647,92.9455,-27.1058,-18.4027,3.21222,7.12502,7.88168,33.0453,-11.9087,0.557914,20.9455,36.6016,-22.4522,-4.05923,-22.1952,-11.6924,0.98742,-14.4158,38.6266,-20.8826,-3.76538,-19.8093
-14.1086,17.5901,1.37892,108.025,-87.9804,-107.699,6.36753,-3.96229,1.15493,-3.366,-5.15114,1.03403,-7.09707,-2.56608,1.07806,-1.27784,-4.07751,-0.458016,6.16151,-5.37826,-2.11524,2.09584,-2.76784,-0.705114,-2.51587e-14,1.63003e-14,-40.397,0.0405767,-71.3603,26.4268,31.1819,-29.3467,-43.9011,7.12502,177.313,-253.864,-2.51587e-14,1.63003e-14,-44.0616,-30.1057,89.6128,93.9212,-26.7212,-17.5003,3.32919,7.12502,8.7526,33.1277,-12.0324,-0.190024,20.0274,36.641,-22.6484,-3.40526,-22.0504,-11.8265,0.781313,-15.2829,38.6812,-20.9788,-3.61319,-19.995
-14.1168,17.5861,1.39258,113.338,-88.3653,-112.988,6.13543,-3.95297,0.921529,-3.24824,-5.17092,0.889647,-6.83011,-2.57023,1.03389,-1.48711,-3.84976,-0.408853,6.01,-5.0956,-1.60266,2.09844,-2.60965,-0.549635,-3.9788e-14,2.48481e-15,-39.8879,-1.86989,-70.4599,25.7085,30.8253,-29.3013,-44.2524,7.12502,177.357,-254.216,-3.9788e-14,2.48481e-15,-43.9202,-29.9018,89.0531,94.6123,-26.3944,-16.6566,3.10042,7.12502,9.56672,32.8632,-12.1065,-0.763393,19.4174,36.8238,-22.8966,-2.74863,-21.6655,-11.7464,0.618924,-15.8412,38.5838,-20.9999,-3.46641,-19.5612
-14.1273,17.5837,1.40282,119.434,-88.4533,-119.12,5.97031,-3.92565,0.887415,-3.1672,-5.14171,0.842918,-6.65044,-2.55679,0.983297,-1.51762,-3.64923,-0.271287,5.83946,-4.84522,-1.30294,2.05384,-2.47195,-0.471172,-6.96802e-14,-1.26228e-14,-39.6285,-3.31146,-69.7731,25.3034,30.6979,-27.3832,-44.9044,7.12502,179.21,-254.883,-6.96802e-14,-1.26228e-14,-43.9386,-29.753,88.7291,95.0368,-26.1886,-16.3549,3.01409,7.12502,9.85774,32.7633,-12.1258,-1.23778,19.1377,37.0102,-23.1334,-2.21727,-21.8762,-11.5848,0.559697,-16.0732,38.4766,-20.9899,-3.32946,-19.1493
-14.1326,17.5839,1.41184,126.648,-88.6204,-126.369,5.96577,-3.89428,0.760794,-3.1875,-5.11457,0.776924,-6.66417,-2.53926,0.98208,-1.44281,-3.50696,-0.0761687,5.71652,-4.66723,-1.18659,1.99943,-2.37507,-0.459716,4.21672e-14,-4.96962e-16,-39.5616,-4.41499,-69.2294,25.0766,31.0072,-28.6372,-44.6803,7.12502,177.999,-254.651,4.21672e-14,-4.96962e-16,-44.1697,-29.7671,88.6464,95.3354,-26.0086,-16.3265,3.1166,7.12502,9.88519,32.8645,-12.1567,-1.65205,18.7837,37.1346,-23.2957,-1.80147,-22.2387,-11.4731,0.515587,-16.3951,38.4245,-20.9978,-3.22396,-18.7917
-14.1312,17.583,1.4191,133.921,-88.6695,-133.622,6.03929,-3.84876,0.701254,-3.2573,-5.06057,0.743824,-6.77853,-2.51,0.983542,-1.46106,-3.40673,0.117878,5.70384,-4.54303,-1.1128,1.99651,-2.30708,-0.466639,9.64106e-15,-7.55382e-15,-39.4709,-5.19698,-68.8816,24.8702,31.4061,-28.6361,-44.7803,7.12502,178,-254.751,9.64106e-15,-7.55382e-15,-44.4785,-29.8027,88.6342,95.5883,-25.9153,-16.0462,3.15923,7.12502,10.1556,32.8941,-12.2593,-1.77871,18.5595,37.239,-23.4016,-1.529,-21.9774,-11.4698,0.463428,-16.6119,38.4211,-21.0321,-3.14979,-18.0669
-14.132,17.5802,1.42808,136.599,-88.6919,-136.244,6.04573,-3.8548,0.749841,-3.32356,-5.06493,0.748613,-6.85656,-2.51406,0.966226,-1.5666,-3.31171,0.206239,5.75108,-4.42575,-0.974253,2.03275,-2.24342,-0.438782,-2.81405e-15,5.1684e-15,-39.3519,-5.59579,-68.7406,24.8014,31.7717,-28.6481,-44.7448,7.12502,177.988,-254.715,-2.81405e-15,5.1684e-15,-44.7289,-29.7762,88.6489,95.7327,-25.9853,-15.6419,3.14792,7.12502,10.5456,32.8634,-12.3584,-2.01502,18.4116,37.3466,-23.539,-1.2084,-21.6796,-11.513,0.368695,-16.7422,38.4166,-21.06,-2.97512,-18.0597
-14.1342,17.5725,1.43653,139.787,-88.8431,-139.435,6.04843,-3.88157,0.715369,-3.35299,-5.10552,0.725204,-6.88837,-2.53289,0.967489,-1.60307,-3.2364,0.219192,5.72068,-4.33416,-0.797884,2.03366,-2.19279,-0.38424,-2.47984e-14,-7.95139e-15,-39.2653,-5.69237,-68.7785,24.8673,31.9262,-28.6123,-44.5624,7.12502,178.023,-254.533,-2.47984e-14,-7.95139e-15,-44.9298,-29.8492,88.7366,95.7924,-26.073,-15.4428,3.13405,7.12502,10.7377,32.8396,-12.3782,-2.45442,18.1458,37.4546,-23.6864,-0.822527,-21.6821,-11.5019,0.22738,-16.9739,38.427,-21.1128,-2.84208,-18.1266
-14.1364,17.5695,1.43814,148.784,-88.9406,-148.51,6.09424,-3.84547,0.550628,-3.35437,-5.07334,0.68875,-6.90497,-2.50994,1.02011,-1.59909,-3.20997,0.239555,5.72567,-4.30651,-0.671451,2.03715,-2.17554,-0.347577,-8.71795e-14,-2.5842e-15,-39.1903,-5.65661,-68.9293,25.0273,32.0921,-28.7242,-44.4088,7.12502,177.915,-254.378,-8.71795e-14,-2.5842e-15,-45.1522,-30.0773,88.8939,95.8105,-26.0297,-15.3425,3.12914,7.12502,10.8344,32.8297,-12.2978,-2.53185,17.8922,37.501,-23.756,-0.688684,-21.6595,-11.404,0.163358,-17.2138,38.4391,-21.2121,-2.86776,-17.5656
-14.1371,17.5699,1.43524,153.166,-88.8569,-152.951,6.13183,-3.79036,0.4879,-3.36182,-5.0038,0.706352,-6.92784,-2.47212,1.0679,-1.62095,-3.19809,0.256566,5.79031,-4.29575,-0.606263,2.06336,-2.16858,-0.331242,-1.56294e-14,-6.75868e-15,-39.1182,-5.41526,-69.2078,25.3727,32.2903,-29.1683,-44.2031,7.12502,177.486,-254.168,-1.56294e-14,-6.75868e-15,-45.3751,-30.3071,89.0861,95.7474,-25.8725,-15.164,3.06513,7.12502,11.0066,32.7566,-12.2415,-2.22848,17.8943,37.5049,-23.7173,-0.827092,-21.5568,-11.3447,0.233451,-17.2319,38.4833,-21.2786,-2.90159,-17.3524
-14.1368,17.5758,1.43016,143.34,-88.5232,-143.108,6.10795,-3.75728,0.799862,-3.37344,-4.92394,0.847399,-6.94147,-2.44423,1.03173,-1.59895,-3.14914,0.285931,5.74193,-4.23304,-0.564269,2.0442,-2.13548,-0.320506,5.39079e-14,1.59028e-15,-39.0133,-5.01306,-69.6008,25.8107,32.1609,-29.0108,-44.2317,7.12502,177.638,-254.198,5.39079e-14,1.59028e-15,-45.5923,-30.4269,89.2903,95.6805,-25.7486,-14.9503,3.06913,7.12502,11.2127,32.7495,-12.2733,-1.77173,18.3865,37.4509,-23.6055,-1.08549,-21.3968,-11.3697,0.392154,-16.7853,38.5146,-21.2669,-2.85197,-17.6983
-14.1394,17.575,1.42337,136.211,-88.1303,-135.953,6.02276,-3.742,1.1352,-3.37236,-4.86585,1.0173,-6.90537,-2.42815,1.01001,-1.58798,-3.07679,0.301901,5.71959,-4.13801,-0.538332,2.03559,-2.08708,-0.312465,-5.74736e-14,9.93923e-15,-38.8956,-4.51707,-70.0449,26.2836,31.8078,-28.293,-44.6278,7.12502,178.331,-254.601,-5.74736e-14,9.93923e-15,-45.8211,-30.4688,89.515,95.6231,-25.5902,-14.8736,3.08881,7.12502,11.2866,32.7651,-12.2963,-1.29862,18.9216,37.3994,-23.5231,-1.34847,-21.3353,-11.392,0.531826,-16.2835,38.5394,-21.2424,-2.8327,-17.8461
-14.1482,17.5746,1.41949,137.989,-88.1117,-137.78,5.9005,-3.75755,1.07009,-3.33262,-4.89259,1.05188,-6.78391,-2.43857,1.07362,-1.67207,-3.00469,0.334357,5.80996,-4.04098,-0.588233,2.07887,-2.03947,-0.334262,3.09483e-14,-1.98785e-15,-38.7831,-3.98491,-70.4957,26.8195,31.48,-27.9417,-44.7598,7.12502,178.67,-254.735,3.09483e-14,-1.98785e-15,-45.9801,-30.5003,89.7279,95.5164,-25.3538,-14.711,2.93272,7.12502,11.4434,32.6004,-12.2172,-1.10404,18.9044,37.3635,-23.4968,-1.44823,-21.4556,-11.2908,0.538899,-16.3087,38.5212,-21.2531,-2.88308,-17.402
-14.1564,17.5766,1.41616,142.453,-88.2524,-142.324,5.8364,-3.78291,0.870023,-3.32734,-4.94763,1.00063,-6.7283,-2.45824,1.13185,-1.62896,-2.9778,0.424557,5.88893,-4.00537,-0.673543,2.09348,-2.02265,-0.375511,6.86677e-14,-4.17448e-15,-38.8093,-3.47213,-70.9649,27.483,31.1646,-27.7041,-44.3756,7.12502,178.9,-254.353,6.86677e-14,-4.17448e-15,-46.2028,-30.5849,89.9625,95.4236,-25.2248,-14.4425,2.8363,7.12502,11.7025,32.4894,-12.1341,-1.05676,18.6923,37.3676,-23.4883,-1.47036,-21.2691,-11.1496,0.480489,-16.5319,38.4664,-21.2788,-2.87855,-17.11
-14.1636,17.5784,1.41067,142.82,-88.2832,-142.778,5.83872,-3.81253,0.825346,-3.37004,-4.99214,0.990516,-6.77172,-2.47828,1.15354,-1.47879,-2.96475,0.523506,5.98683,-3.99046,-0.744182,2.09516,-2.01618,-0.412297,-2.65874e-15,-1.0138e-14,-38.9879,-2.92895,-71.4292,28.2151,30.7864,-27.587,-43.912,7.12502,179.013,-253.889,-2.65874e-15,-1.0138e-14,-46.528,-30.6768,90.2587,95.3423,-25.2289,-14.2929,2.82935,7.12502,11.8467,32.4742,-12.0152,-0.884454,18.7009,37.3495,-23.4757,-1.56881,-20.7048,-11.0094,0.477785,-16.5435,38.4192,-21.302,-2.85389,-17.3734
-14.1722,17.5767,1.40445,140.983,-88.237,-141.046,5.81906,-3.82914,0.86393,-3.36472,-5.00918,1.03059,-6.75441,-2.48775,1.17405,-1.41259,-2.91026,0.543933,6.07732,-3.91896,-0.769833,2.11245,-1.98165,-0.422202,1.29459e-14,-7.7526e-15,-38.984,-2.5361,-71.7696,28.608,30.4537,-27.9436,-43.8945,7.12502,178.669,-253.87,1.29459e-14,-7.7526e-15,-46.6898,-30.7546,90.5725,95.1523,-25.5023,-14.241,2.89825,7.12502,11.8967,32.5403,-11.8148,-0.579437,18.8285,37.2578,-23.4294,-1.76499,-20.3294,-10.871,0.534596,-16.4352,38.4473,-21.369,-2.88544,-17.7668
-14.1725,17.573,1.39592,134.988,-87.9534,-135.06,5.7534,-3.79986,1.15214,-3.33787,-4.94021,1.15038,-6.70304,-2.4649,1.12522,-1.44168,-2.83951,0.529844,6.12801,-3.82376,-0.78171,2.13499,-1.93501,-0.42277,3.57564e-14,-2.38542e-15,-38.697,-2.31561,-72.0251,28.5775,30.3426,-28.3136,-44.1986,7.12502,178.311,-254.172,3.57564e-14,-2.38542e-15,-46.6211,-30.8934,90.8515,94.8281,-25.9461,-14.3218,3.13594,7.12502,11.8188,32.7824,-11.6985,-0.107366,19.2897,37.0736,-23.2706,-2.13759,-20.4283,-10.924,0.629115,-16.0114,38.5788,-21.4139,-2.92865,-17.9964
-14.1684,17.5718,1.38833,129.045,-87.5755,-129.067,5.57116,-3.75028,1.58295,-3.25038,-4.83618,1.26644,-6.53274,-2.43168,0.977981,-1.61894,-2.76538,0.61683,6.20076,-3.72212,-0.877477,2.18807,-1.88456,-0.46958,-3.86388e-14,1.98785e-16,-38.3014,-2.05645,-72.3273,28.4859,30.4201,-28.8766,-44.1628,7.12502,177.767,-254.131,-3.86388e-14,1.98785e-16,-46.3696,-31.1262,91.0121,94.4897,-26.1631,-14.437,3.23248,7.12502,11.7077,32.8853,-11.6497,0.271371,19.8603,36.8415,-23.0802,-2.45979,-20.532,-11.0984,0.722242,-15.4771,38.7752,-21.4236,-2.92812,-18.4327
-14.1667,17.5722,1.37866,126.033,-87.207,-126.068,5.89051,-3.69064,1.9301,-3.50588,-4.71248,1.39052,-7.00682,-2.38366,0.938786,-1.48786,-2.68653,0.669452,6.5666,-3.615,-1.06048,2.28141,-1.83814,-0.536362,7.86442e-14,6.95746e-15,-38.6121,-1.38829,-72.614,28.6078,30.9012,-29.5879,-43.8926,7.12502,177.08,-253.852,7.86442e-14,6.95746e-15,-46.9076,-31.2558,91.6334,94.2652,-26.2102,-14.5586,3.08438,7.12502,11.5905,32.7439,-11.5497,0.728625,20.3766,36.6096,-22.8659,-2.81411,-20.499,-11.196,0.832452,-15.0043,38.9971,-21.5156,-2.86517,-19.234
-14.1629,17.5719,1.36709,124.773,-86.8158,-124.862,5.9657,-3.61964,2.14088,-3.51605,-4.58844,1.5532,-7.06439,-2.32915,0.983031,-1.45179,-2.59905,0.847154,6.72035,-3.48991,-1.34538,2.31892,-1.78073,-0.655057,4.17696e-14,-1.78906e-15,-38.5306,-0.455904,-73.075,28.5279,31.8172,-29.9769,-43.935,7.12502,176.705,-253.889,4.17696e-14,-1.78906e-15,-47.065,-31.3221,92.1492,94.028,-26.117,-14.7612,3.08159,7.12502,11.395,32.752,-11.4276,1.25617,20.8812,36.382,-22.6264,-3.20278,-20.6834,-11.2527,0.922257,-14.542,39.2393,-21.7008,-2.86855,-19.6295
-14.1578,17.5708,1.35651,124.181,-86.4549,-124.313,6.00545,-3.51674,2.34383,-3.48376,-4.42546,1.67721,-7.05835,-2.25593,0.981508,-1.35094,-2.52678,1.20272,6.6751,-3.3823,-1.73132,2.27533,-1.72889,-0.832455,-1.13307e-14,-2.5842e-15,-38.3786,1.03636,-73.8985,28.1082,32.3558,-30.576,-43.8196,7.12502,176.126,-253.764,-1.13307e-14,-2.5842e-15,-47.2254,-31.5296,92.7504,93.7069,-25.9024,-15.0602,3.31513,7.12502,11.1067,33.0012,-11.3112,1.65033,21.3179,36.1306,-22.3973,-3.42816,-20.6694,-11.3366,0.979033,-14.1269,39.5256,-21.9253,-2.9463,-19.689
-14.1533,17.569,1.33617,124.097,-85.5624,-124.349,6.1211,-3.23055,2.87214,-3.37943,-3.98083,1.9136,-7.03233,-2.05693,0.883882,-1.43489,-2.52094,1.40207,6.65826,-3.36467,-2.00337,2.27821,-1.72228,-0.953726,5.48646e-14,-1.31198e-14,-38.343,2.90717,-74.9595,27.5333,33.8948,-31.3911,-44.0334,7.12502,175.339,-253.962,5.48646e-14,-1.31198e-14,-47.3497,-32.061,93.5229,93.184,-25.453,-15.6415,3.4527,7.12502,10.546,33.1681,-11.1824,2.59271,22.3066,35.9216,-22.1313,-3.85729,-20.3739,-11.2894,1.22731,-13.1948,39.7944,-22.1303,-2.98602,-19.6199
-14.1495,17.5609,1.31236,124.512,-84.166,-125.085,6.51366,-2.81666,3.73973,-3.22138,-3.31707,2.24474,-7.11683,-1.76409,0.682104,-1.58157,-2.53471,1.45331,6.66246,-3.37471,-2.1678,2.30286,-1.7303,-1.01804,9.96408e-15,-6.36111e-15,-38.389,5.12931,-76.2526,26.9024,35.7618,-31.2021,-44.4635,7.12502,175.522,-254.396,9.96408e-15,-6.36111e-15,-47.6281,-32.7215,94.5024,92.5107,-24.7071,-16.7168,3.31714,7.12502,9.50859,33.0826,-10.9873,3.80833,23.7428,35.9862,-22.0792,-4.30179,-20.2733,-10.8508,1.63203,-11.8242,39.8296,-22.2436,-2.94257,-19.395
-14.1478,17.5525,1.31692,126.901,-84.116,-127.614,6.53191,-2.58419,3.85563,-3.05406,-3.00346,2.10867,-6.95601,-1.61454,0.428206,-1.50579,-2.5271,1.54567,6.30679,-3.36067,-2.22911,2.17011,-1.71957,-1.04526,1.48592e-14,9.74045e-15,-38.4382,7.908,-78.1313,26.1282,37.0916,-30.6596,-44.9111,7.12502,176.046,-254.854,1.48592e-14,9.74045e-15,-47.9962,-33.3323,95.5011,91.7258,-23.4911,-18.1488,2.91447,7.12502,8.12669,32.7382,-10.9477,3.59187,23.5503,36.1648,-22.3933,-3.89724,-20.2656,-10.6107,1.62983,-11.9893,39.8069,-22.3515,-2.73285,-20.1442
-14.1447,17.5531,1.36539,140.151,-86.6692,-140.66,5.86939,-2.64913,2.28762,-2.86282,-3.30297,1.10632,-6.34235,-1.70538,0.247421,-1.44287,-2.53417,1.62756,5.71021,-3.37373,-2.11426,1.96406,-1.71643,-1.01156,4.44035e-14,-1.23246e-14,-38.4893,10.89,-80.4622,25.4874,38.0688,-29.7706,-44.7104,7.12502,176.904,-254.668,4.44035e-14,-1.23246e-14,-48.2382,-34.0027,96.4315,90.8962,-21.4812,-19.4034,2.55575,7.12502,6.91573,32.4228,-11.2612,0.88776,20.1935,36.5396,-23.1603,-2.14284,-20.2657,-10.821,0.752357,-15.1595,39.6368,-22.3568,-2.38954,-21.2144
-14.1333,17.5392,1.36528,140.585,-86.5384,-141.387,5.81184,-2.39224,2.5942,-2.36736,-2.94817,0.929586,-5.80652,-1.53847,-0.16707,-1.65343,-2.54489,1.67238,5.20238,-3.39707,-1.89735,1.8388,-1.71854,-0.946941,-1.1573e-14,6.55989e-15,-38.6721,14.7873,-83.5112,25.1784,37.8754,-28.1541,-43.7031,7.12502,178.465,-253.677,-1.1573e-14,6.55989e-15,-48.3124,-34.4986,97.1544,89.9097,-18.6905,-20.0604,1.59341,7.12502,6.28147,31.4803,-11.1523,0.893161,20.2614,36.9004,-23.359,-2.15479,-20.5208,-10.4819,0.595547,-15.1092,39.5872,-22.314,-2.23832,-20.9433
-14.1097,17.5277,1.37327,144.638,-85.8356,-145.757,6.34703,-1.96311,3.20694,-2.12474,-2.31585,0.712058,-5.87626,-1.24976,-0.792337,-1.7312,-2.55406,1.64014,4.83666,-3.42389,-1.50669,1.74024,-1.72193,-0.814972,3.8791e-14,-9.14409e-15,-39.8035,20.1961,-87.7805,25.5527,35.8632,-25.6824,-42.4161,7.12502,180.853,-252.394,3.8791e-14,-9.14409e-15,-49.0799,-34.6857,98.107,88.4251,-17.7868,-21.2201,1.03599,7.12502,5.16182,30.9531,-11.1932,1.09078,20.418,37.306,-23.5535,-1.75664,-20.7953,-10.0765,0.762687,-14.9611,39.5575,-22.3604,-1.88285,-20.3309
-14.088,17.5156,1.36872,146.137,-85.4785,-147.652,6.84403,-1.61318,3.55393,-1.80153,-1.81222,0.49353,-5.81842,-1.01216,-1.26582,-1.76138,-2.57308,1.38772,4.34112,-3.46243,-0.914404,1.59892,-1.73167,-0.581778,-1.4929e-14,1.68967e-15,-41.6551,26.6011,-92.9266,26.725,32.908,-23.1966,-40.6247,7.12502,183.253,-250.58,-1.4929e-14,1.68967e-15,-49.6534,-34.3681,98.7194,86.5449,-17.421,-22.1946,-0.219801,7.12502,4.22083,29.7181,-10.9772,1.57142,20.5922,37.563,-23.6048,-1.95531,-20.9349,-9.72401,0.627484,-14.87,39.7268,-22.4696,-1.73493,-19.4936
-14.0602,17.507,1.37778,153.025,-85.1899,-154.819,7.33663,-1.16638,3.64311,-1.53901,-1.20802,0.137846,-5.80198,-0.719014,-1.75489,-1.93995,-2.62408,0.990264,4.0255,-3.53791,-0.35413,1.54456,-1.76371,-0.342324,1.19737e-15,4.72114e-16,-44.2224,33.3389,-98.5475,28.7646,29.7346,-20.4736,-38.5552,7.12502,185.883,-248.454,1.19737e-15,4.72114e-16,-50.063,-33.6862,99.143,84.0143,-17.7742,-23.3001,-1.88453,7.12502,3.15329,28.0719,-11.0359,1.65023,20.1201,37.8753,-23.6768,-1.5108,-21.0811,-9.47232,0.494421,-15.3801,39.8455,-22.7145,-1.44753,-18.398
-14.039,17.494,1.3843,161.106,-84.8107,-163.284,7.87587,-0.715762,3.51856,-1.26629,-0.621869,-0.253173,-5.78957,-0.428401,-2.16414,-2.22169,-2.65331,0.69995,3.93231,-3.58386,0.0674356,1.57681,-1.78186,-0.16843,-5.90142e-17,6.95746e-16,-47.4771,40.1399,-104.485,31.666,26.4341,-16.4776,-36.6944,7.12502,189.739,-246.449,-5.90142e-17,6.95746e-16,-50.3465,-32.3528,99.1814,80.8954,-18.744,-24.5894,-1.99574,7.12502,1.9081,27.9755,-10.9973,1.60408,19.4367,38.237,-23.8868,-0.841273,-21.1645,-9.02447,0.632065,-16.0555,39.9252,-22.9701,-1.13369,-18.1382
-14.0199,17.4895,1.38171,165.035,-83.8919,-167.16,8.05336,-0.209859,3.63587,-1.16972,0.0568612,-0.490514,-5.7447,-0.0997218,-2.56615,-2.31674,-2.60989,0.616209,3.82081,-3.53277,0.336651,1.56464,-1.75214,-0.0707287,-7.14382e-17,-1.09332e-15,-51.9548,47.2354,-111.288,35.2034,23.2973,-11.7749,-35.0509,7.12502,194.274,-244.54,-7.14382e-17,-1.09332e-15,-50.527,-30.1924,98.6516,77.3471,-20.2851,-25.3178,-1.97701,7.12502,1.20466,27.9993,-11.4847,2.26353,19.3288,38.6194,-23.9697,-0.49676,-20.8764,-9.02388,1.0531,-16.2319,39.9807,-23.2173,-0.379446,-19.5638
-13.9977,17.4884,1.37645,166.873,-82.7909,-168.742,8.11558,0.26141,3.80247,-1.1757,0.697379,-0.626805,-5.73707,0.208314,-2.88568,-2.37962,-2.51723,0.700026,3.81843,-3.41349,0.358849,1.57401,-1.69076,-0.076338,1.33714e-14,-3.57812e-15,-57.4512,54.0937,-118.573,39.4561,19.7036,-7.41857,-33.6252,7.12502,198.468,-242.768,1.33714e-14,-3.57812e-15,-50.4453,-27.2916,97.5502,73.2048,-22.0053,-25.4962,-1.13265,7.12502,1.03233,28.8446,-12.2101,3.26988,19.472,38.9569,-23.924,-0.301722,-20.1908,-9.29316,1.69213,-16.1674,40.086,-23.4354,0.499644,-21.736
-13.9901,17.4849,1.3779,169.62,-81.562,-171.284,8.01315,0.74243,3.85691,-1.13478,1.32913,-0.814821,-5.5809,0.5193,-3.19011,-2.67942,-2.41479,0.833333,4.12546,-3.28421,0.261288,1.72179,-1.62452,-0.133614,-2.02543e-14,8.54774e-15,-63.6047,60.2037,-125.791,44.2899,16.9958,-5.14591,-32.8698,7.12502,200.653,-241.791,-2.02543e-14,8.54774e-15,-50.1361,-23.844,95.9366,68.4816,-23.747,-25.627,0.58519,7.12502,0.905979,30.563,-12.8443,4.25152,19.3582,39.2244,-23.8754,0.140469,-19.3821,-9.43123,2.56457,-16.3107,40.2534,-23.7867,1.0851,-22.7556
-13.9777,17.4802,1.37925,169.865,-80.3607,-171.18,7.88466,1.15161,4.22674,-1.17363,1.90119,-0.926438,-5.48686,0.790161,-3.58199,-3.05762,-2.30115,0.91423,4.57453,-3.14483,0.244448,1.93352,-1.55175,-0.159172,-3.93066e-15,-2.38542e-15,-70.2437,65.5896,-132.836,49.7612,14.5386,-2.36606,-32.7531,7.12502,203.322,-241.36,-3.93066e-15,-2.38542e-15,-49.8684,-20.0916,93.865,63.4764,-25.601,-25.8348,3.31898,7.12502,0.705269,33.2976,-13.5969,5.29523,19.6078,39.4804,-23.7152,0.338511,-19.1411,-9.74114,3.38708,-16.0986,40.4303,-24.1077,1.48711,-22.9326
-13.9667,17.4758,1.37996,169.491,-79.1413,-170.384,7.69706,1.5155,4.70607,-1.2602,2.42312,-1.00152,-5.40236,1.03297,-3.98675,-3.30305,-2.18136,0.997161,4.95311,-2.99959,0.28662,2.10135,-1.47512,-0.16328,3.00584e-15,2.98177e-15,-77.076,70.4813,-139.542,55.6594,12.2481,0.146033,-32.7428,7.12502,205.73,-241.023,3.00584e-15,2.98177e-15,-49.7053,-16.352,91.4799,58.3052,-27.4438,-26.0501,6.38432,7.12502,0.497318,36.3635,-14.397,6.31076,19.9898,39.7482,-23.5912,0.451078,-19.4461,-10.098,4.16356,-15.7505,40.5755,-24.5025,1.80567,-22.3068
-13.9567,17.474,1.3824,171.678,-78.2392,-172.239,7.53513,1.7542,4.66561,-1.3438,2.71856,-1.25109,-5.35819,1.17639,-4.2543,-3.46137,-2.0544,1.17154,5.26523,-2.84875,0.317335,2.23129,-1.39455,-0.183945,-5.98082e-15,-2.38542e-15,-83.733,75.0794,-145.772,61.5478,10.2081,2.87669,-31.7042,7.12502,208.343,-239.579,-5.98082e-15,-2.38542e-15,-49.5354,-12.7013,88.7459,52.8979,-29.2496,-25.8723,8.74798,7.12502,0.669055,38.7267,-15.1303,7.02812,19.7056,40.0181,-23.5583,0.705942,-19.5048,-10.4291,4.77233,-16.0697,40.713,-24.9364,2.33137,-22.5388
-13.9448,17.4692,1.38454,173.698,-77.3958,-174.067,7.52766,1.92041,4.57064,-1.41083,2.91683,-1.52723,-5.39383,1.27043,-4.51457,-3.60208,-1.9353,1.4234,5.56833,-2.71226,0.316717,2.35449,-1.32021,-0.227498,4.0389e-14,-3.97569e-15,-91.3797,79.5478,-152.742,67.3749,7.7067,6.6257,-29.5094,7.12502,211.919,-236.731,4.0389e-14,-3.97569e-15,-49.3712,-9.27112,85.7391,47.4637,-30.8173,-24.7486,10.5031,7.12502,1.7544,40.4756,-15.7235,7.69899,19.3662,40.2892,-23.5868,0.98995,-19.4398,-10.6402,5.34395,-16.4479,40.8477,-25.2862,2.93112,-23.569
-13.9304,17.4602,1.38229,173.781,-76.4552,-174.062,7.67237,2.06136,4.76564,-1.46669,3.12425,-1.65617,-5.4957,1.35987,-4.79279,-3.72525,-1.83954,1.67065,5.90755,-2.60614,0.276394,2.48695,-1.26175,-0.283841,7.88849e-15,1.19271e-15,-102.143,83.8744,-162.57,73.0878,4.90799,10.2921,-27.8399,7.12502,215.403,-234.301,7.88849e-15,1.19271e-15,-49.2724,-6.46813,82.8701,41.9658,-31.8598,-23.4708,11.8718,7.12502,2.98845,41.8306,-16.1532,8.5598,19.5108,40.5575,-23.6188,1.04058,-19.8757,-10.6929,5.90412,-16.3308,40.9884,-25.6075,3.0363,-22.9872
-13.9088,17.453,1.37613,173.814,-75.5776,-173.973,7.85713,2.14126,4.86106,-1.53734,3.24636,-1.72456,-5.65258,1.4087,-4.94539,-3.92225,-1.74406,1.79817,6.25161,-2.49555,0.246187,2.63759,-1.20264,-0.31736,-2.2166e-14,3.97569e-15,-137.254,87.9589,-196.586,78.5029,2.19554,14.6068,-26.7144,7.12502,219.481,-232.095,-2.2166e-14,3.97569e-15,-49.1543,-4.48101,80.397,36.0318,-32.9169,-22.8524,12.4649,7.12502,3.58568,42.4145,-16.6147,9.50572,19.6931,40.7846,-23.5057,0.980387,-20.3147,-10.8391,6.46036,-16.1535,41.1717,-25.838,3.03464,-22.3255
-13.8866,17.445,1.36916,174.349,-74.7343,-174.334,7.94422,2.16917,4.77664,-1.56799,3.2753,-1.79272,-5.73156,1.42096,-4.97914,-4.23845,-1.66794,1.8895,6.52603,-2.40565,0.167849,2.78793,-1.15566,-0.361539,-1.46573e-14,6.36111e-15,-73.7139,93.6393,-131.786,83.6896,-0.837144,19.4738,-26.272,7.12502,224.045,-230.138,-1.46573e-14,6.36111e-15,-48.9516,-3.24285,78.3432,29.8867,-34.779,-21.9092,12.58,7.12502,4.49645,42.5123,-17.1142,10.4313,19.711,40.9702,-23.3325,1.04485,-20.0068,-11.0729,7.05793,-16.1135,41.3707,-26.0316,3.22353,-22.626
-13.8727,17.4346,1.37031,174.484,-74.1173,-174.345,7.97807,2.02121,4.86548,-1.55452,3.0848,-1.84526,-5.75211,1.32231,-5.06453,-4.46328,-1.58873,2.14931,6.70451,-2.31543,0.015426,2.88714,-1.10786,-0.456591,-2.64694e-14,1.98785e-15,-90.3005,98.5382,-147,88.608,-4.30359,24.6136,-26.1331,7.12502,228.806,-227.961,-2.64694e-14,1.98785e-15,-48.8771,-2.42498,76.5767,24.1232,-37.6926,-19.9892,12.0549,7.12502,6.35026,41.9397,-17.4807,10.9391,19.747,41.1442,-23.2754,1.279,-19.6355,-11.2277,7.4915,-16.0443,41.5163,-26.1196,3.76086,-24.6224
-13.8671,17.4254,1.37548,174.683,-73.7196,-174.487,8.05204,1.70715,4.93744,-1.59404,2.67246,-1.91442,-5.87993,1.10923,-5.13581,-4.46658,-1.45679,2.58223,6.84809,-2.16582,-0.112055,2.9333,-1.02679,-0.568491,-2.84324e-14,-1.03368e-14,-96.6022,103.604,-151.944,93.0531,-8.03695,29.3631,-25.6213,7.12502,233.133,-225.029,-2.84324e-14,-1.03368e-14,-49.199,-1.51623,74.71,19.1349,-42.2206,-17.0277,10.4946,7.12502,9.20864,40.2736,-17.7326,11.0494,19.6937,41.2777,-23.2666,1.69053,-19.5906,-11.2975,7.81062,-16.0603,41.6159,-26.0887,4.53556,-27.8585
-13.8642,17.4206,1.36919,175.408,-73.19,-175.169,8.11265,1.40224,4.61252,-1.66908,2.2309,-1.96909,-6.05711,0.893539,-4.96146,-4.45041,-1.30169,2.98595,6.98409,-1.98781,-0.175894,2.9759,-0.930149,-0.653703,2.92897e-14,2.06736e-14,-101.131,108.76,-155.119,97.0099,-11.8368,31.954,-24.7336,7.12502,235.455,-222.538,2.92897e-14,2.06736e-14,-49.9227,-0.0497483,72.2543,15.2471,-49.1621,-12.6366,8.16259,7.12502,13.4435,37.7088,-17.9566,11.4789,19.5278,41.3404,-23.2025,1.95634,-19.4104,-11.2981,8.27293,-16.1862,41.6585,-26.1978,4.81448,-29.0496
-13.8612,17.421,1.35954,175.1,-72.5709,-174.705,8.06508,1.06729,4.48907,-1.69868,1.77526,-1.86979,-6.12128,0.672649,-4.72865,-4.56204,-1.13496,3.3373,7.03161,-1.7864,-0.306053,3.01414,-0.825089,-0.751297,1.7052e-15,7.15625e-15,-105.221,114.128,-157.749,100.423,-15.2219,33.211,-23.6877,7.12502,236.568,-220.628,1.7052e-15,7.15625e-15,-50.9048,2.60221,68.6559,12.506,-58.4275,-7.5153,5.45592,7.12502,18.3752,34.608,-18.1977,12.2036,19.764,41.3313,-23.0744,1.88622,-19.4437,-11.3383,8.76381,-15.9212,41.6177,-26.293,4.77319,-28.6204
-13.8663,17.4255,1.35957,174.569,-72.2035,-174.013,7.95706,0.580309,4.59917,-1.73056,1.13784,-1.78046,-6.16607,0.354304,-4.61371,-4.49988,-0.918185,3.87427,6.95812,-1.50635,-0.66067,2.97987,-0.685404,-0.948362,4.75033e-14,0,-108.641,119.481,-159.672,103.224,-17.9329,34.5524,-22.2839,7.12502,237.747,-218.231,4.75033e-14,0,-52.3823,6.3265,63.7923,10.6377,-68.2733,-3.87215,3.15752,7.12502,21.8767,31.9408,-18.3236,12.4806,20.016,41.2762,-23.0332,1.89841,-19.7312,-11.3236,9.05665,-15.6501,41.4604,-26.2505,4.84665,-28.5476
-13.8807,17.4359,1.36641,175.366,-72.1017,-174.73,7.87208,0.00217113,4.32626,-1.84815,0.333273,-1.79326,-6.33363,-0.0398502,-4.36873,-4.1805,-0.650738,4.46819,6.85818,-1.14449,-1.10696,2.89425,-0.507541,-1.18032,1.67926e-14,1.47101e-14,-111.497,124.66,-160.968,105.495,-20.4061,35.4573,-20.9075,7.12502,238.535,-216.139,1.67926e-14,1.47101e-14,-53.8251,6.42588,63.5852,9.33382,-70.4385,-3.12177,3.15824,7.12502,22.5971,31.8556,-18.3685,12.2763,19.7112,41.217,-23.1223,2.18218,-20.0097,-11.2023,9.13883,-15.9458,41.1483,-26.1962,5.04071,-28.9137
-13.8993,17.4507,1.37298,176.847,-72.0428,-176.111,7.83093,-0.555987,3.65846,-2.03858,-0.477923,-1.71122,-6.58994,-0.421655,-3.79591,-4.02358,-0.345839,4.77637,6.94815,-0.729648,-1.43039,2.91001,-0.304121,-1.32534,-2.2882e-14,-7.55382e-15,-114.056,129.736,-161.739,107.259,-22.7272,36.0602,-19.7081,7.12502,239.057,-214.442,-2.2882e-14,-7.55382e-15,-55.3876,6.68624,63.6645,8.40601,-71.0798,-4.56728,4.1163,7.12502,21.2091,32.976,-18.4402,11.9749,19.1529,41.1043,-23.2041,2.47393,-20.3942,-11.1078,9.17319,-16.5029,40.8127,-26.2499,5.17987,-29.0035
-13.9248,17.4671,1.37953,178.754,-72.0273,-177.932,7.75279,-1.09399,2.88675,-2.19488,-1.27713,-1.65193,-6.76418,-0.788338,-3.18719,-4.17322,-0.021512,4.8916,7.17664,-0.306545,-1.54093,3.03251,-0.092956,-1.37058,-7.81131e-14,-1.78906e-14,-116.626,134.744,-162.397,108.56,-24.767,36.6551,-18.9561,7.12502,239.569,-213.181,-7.81131e-14,-1.78906e-14,-56.6722,7.11125,63.9721,7.67164,-70.7664,-6.77817,5.46633,7.12502,19.0842,34.55,-18.498,11.501,18.4276,40.9962,-23.3841,2.87167,-20.4122,-10.9738,9.22509,-17.2233,40.4461,-26.3537,5.16905,-28.5749
-13.943,17.4774,1.3706,177.081,-71.373,-176.05,7.66571,-1.45006,3.07977,-2.22273,-1.70729,-1.25866,-6.77103,-0.997653,-2.82339,-4.37695,0.347356,5.20079,7.22457,0.168787,-1.72563,3.10959,0.145689,-1.4706,-1.18525e-14,-2.78299e-15,-119.275,139.764,-163.056,109.529,-26.6691,36.2044,-19.4442,7.12502,239.181,-214.056,-1.18525e-14,-2.78299e-15,-57.4625,7.62733,64.3672,7.02115,-69.8161,-9.26679,6.8368,7.12502,16.6896,36.1393,-18.5993,12.1002,19.1525,40.855,-23.2658,2.92327,-19.792,-10.8191,9.65944,-16.4928,40.1365,-26.3476,5.19172,-28.0072
-13.9629,17.486,1.37036,176.394,-70.9887,-175.174,7.44493,-1.87768,3.31134,-2.22373,-2.25197,-1.10374,-6.68974,-1.26994,-2.72087,-4.29326,0.780162,5.7825,7.05491,0.735964,-2.03761,3.06945,0.430982,-1.65441,-1.73346e-14,3.57812e-15,-121.974,144.614,-163.789,110.148,-28.1266,34.4604,-20.046,7.12502,237.666,-216.063,-1.73346e-14,3.57812e-15,-57.9252,8.01866,64.6565,6.44387,-68.5786,-11.0491,7.65089,7.12502,14.9732,37.0896,-18.7141,12.1199,19.4593,40.7653,-23.181,3.32124,-19.1838,-10.6803,9.83813,-16.1648,39.7531,-26.274,5.22686,-27.592
-13.9976,17.4991,1.37771,177.509,-70.804,-176.2,7.13055,-2.32679,3.61938,-2.3046,-2.86099,-1.49795,-6.6808,-1.59482,-3.23404,-3.88778,1.19135,6.50717,6.83734,1.26489,-2.11739,2.95547,0.707534,-1.78819,-2.69477e-14,6.75868e-15,-124.963,149.027,-165.04,110.2,-29.0134,31.4942,-19.2725,7.12502,235.045,-217.378,-2.69477e-14,6.75868e-15,-58.1882,7.89552,64.5544,5.99507,-67.298,-11.4064,7.6278,7.12502,14.629,37.0918,-18.7501,11.536,19.0002,40.6517,-23.2613,4.06392,-19.1004,-10.5064,9.88188,-16.6083,39.4541,-26.3946,5.09429,-26.755
-14.0457,17.5133,1.38864,179.552,-70.6011,-178.254,6.79031,-2.85375,3.13784,-2.26322,-3.63665,-1.68551,-6.49011,-1.95954,-3.0704,-3.91192,1.78979,7.35245,6.69344,2.04241,-2.57789,2.97745,1.09964,-2.06561,4.37078e-14,7.55382e-15,-127.438,153.671,-165.916,109.778,-29.7448,29.1874,-18.0076,7.12502,232.975,-217.516,4.37078e-14,7.55382e-15,-58.0638,8.46003,64.6511,5.44524,-66.2121,-11.0146,7.54596,7.12502,15.0064,36.9822,-18.7115,10.5935,18.1261,40.6047,-23.6499,5.04578,-19.4653,-10.1785,9.92234,-17.4754,39.0739,-26.5025,5.01561,-25.857
-14.058,17.5212,1.39096,178.905,-70.0769,-177.236,6.62811,-3.20261,3.36597,-2.3479,-4.07257,-1.46185,-6.5229,-2.17959,-2.91127,-3.84144,2.32843,8.02899,6.48008,2.75691,-3.00856,2.96101,1.45649,-2.30601,6.90777e-15,-1.19271e-15,-130.069,157.829,-166.317,109.548,-31.7535,25.6853,-18.9392,7.12502,229.79,-220.272,6.90777e-15,-1.19271e-15,-57.4456,8.87183,65.0402,4.84585,-65.4349,-10.161,7.74316,7.12502,15.8286,37.1161,-19.0842,10.7591,18.4671,40.5613,-23.6018,5.26986,-19.7633,-10.2888,10.0773,-17.1589,38.7265,-26.3287,5.14543,-25.2827
-14.0844,17.5256,1.39405,179.145,-69.7766,-177.317,6.78373,-3.5923,3.23553,-2.61545,-4.59188,-1.27703,-6.91212,-2.43385,-2.5567,-3.64372,2.84092,8.6175,6.49919,3.45052,-3.43808,3.00554,1.80411,-2.53408,-1.27346e-15,4.77083e-15,-132.573,161.596,-166.732,108.893,-32.8817,25.9497,-18.976,7.12502,230.032,-220.182,-1.27346e-15,4.77083e-15,-57.26,8.99208,65.4219,4.9771,-65.0258,-8.62162,7.99149,7.12502,17.3106,37.2406,-19.1894,10.6843,18.3826,40.5251,-23.6812,5.42284,-21.2332,-10.1564,10.1615,-17.2507,38.3731,-26.2896,5.12673,-24.7864
-14.1189,17.5315,1.39833,180.203,-69.6271,-178.284,6.82539,-3.99483,2.85651,-2.87176,-5.16406,-1.18564,-7.20801,-2.70285,-2.15785,-3.37621,3.33034,9.171,6.53051,4.11903,-3.80468,3.04453,2.14117,-2.73705,4.18442e-14,1.47101e-14,-135.173,165.065,-167.277,108.026,-33.4974,25.5086,-19.0609,7.12502,229.628,-220.477,4.18442e-14,1.47101e-14,-56.7813,9.03226,65.8161,5.02348,-65.229,-7.44183,8.52432,7.12502,18.4458,37.6697,-19.2342,10.2311,17.9281,40.4531,-23.7957,5.79349,-22.6674,-10.001,10.1466,-17.693,38.1067,-26.507,4.6999,-22.7826
-14.1545,17.5387,1.40365,180.995,-69.4705,-179.011,6.38431,-4.29792,2.67273,-2.78148,-5.59686,-1.17186,-6.86691,-2.90471,-2.01833,-3.19328,3.78206,9.59853,6.2649,4.72641,-3.95571,2.98672,2.44715,-2.84357,1.09642e-14,2.06736e-14,-138.237,168.555,-168.022,107.171,-34.2012,22.8793,-19.6358,7.12502,227.207,-222.21,1.09642e-14,2.06736e-14,-55.3825,8.93134,66.313,4.91261,-65.8264,-7.0633,9.12311,7.12502,18.8099,38.2336,-19.2544,9.58216,17.5905,40.3831,-23.7646,6.75232,-20.6206,-9.80621,10.1691,-18.0302,37.8004,-26.5946,4.43278,-21.3651
-14.1904,17.5445,1.40816,181.099,-69.3279,-179.087,6.25182,-4.61261,2.63241,-2.84941,-6.01732,-1.03551,-6.87015,-3.10748,-1.80525,-2.79422,4.23745,9.98886,6.08932,5.36477,-4.14735,2.92575,2.76884,-2.95965,-7.67619e-14,-6.75868e-15,-141.095,171.661,-168.879,105.993,-34.6919,20.7992,-19.605,7.12502,225.279,-222.994,-7.67619e-14,-6.75868e-15,-54.1372,8.66523,66.7687,5.02041,-66.1064,-7.05662,9.4721,7.12502,18.8164,38.582,-19.1451,9.03527,17.5377,40.2788,-23.7993,7.40504,-19.3432,-9.56733,10.2461,-18.0925,37.5311,-26.5434,4.40098,-21.0463
-14.2216,17.5512,1.40879,180.883,-69.154,-178.778,6.19702,-4.91386,2.57654,-2.98041,-6.41282,-0.786874,-6.96562,-3.29511,-1.46153,-2.38659,4.70949,10.4435,5.98272,6.03667,-4.49429,2.90438,3.10644,-3.14222,1.77602e-14,1.78906e-15,-144.159,174.647,-169.767,105.066,-35.0466,17.9078,-19.4745,7.12502,222.581,-223.867,1.77602e-14,1.78906e-15,-52.9668,8.29292,67.1803,5.56269,-66.044,-7.11425,9.51515,7.12502,18.7609,38.6304,-19.0527,8.8436,17.643,40.1113,-23.9007,7.43792,-20.2916,-9.42363,10.2118,-17.9889,37.3703,-26.6776,3.86344,-18.5143
-14.2472,17.5629,1.40805,180.396,-68.9705,-178.117,6.13976,-5.17226,2.5428,-3.12261,-6.74321,-0.441827,-7.05462,-3.44903,-1.03872,-1.92295,5.16786,10.8323,5.8235,6.7062,-4.89304,2.85984,3.4408,-3.33365,1.97729e-14,3.97569e-15,-147.117,177.494,-170.552,104.11,-35.146,14.896,-19.9801,7.12502,219.754,-225.28,1.97729e-14,3.97569e-15,-51.6593,7.79228,67.6323,6.32788,-65.9784,-7.20134,9.05997,7.12502,18.6772,38.1833,-19.0538,8.72177,17.9,39.9213,-23.9318,7.50989,-20.4276,-9.4132,10.1928,-17.7422,37.2728,-26.7826,3.35204,-16.1866
-14.2681,17.5732,1.40834,179.629,-68.9079,-177.117,6.13762,-5.4169,2.63368,-3.31347,-7.04188,-0.0592671,-7.23266,-3.59277,-0.640429,-1.28974,5.54119,11.147,5.77193,7.30707,-5.54883,2.54135,3.7204,-3.23768,2.55221e-14,1.12313e-14,-150.115,180.263,-171.862,102.956,-34.6329,13.2749,-21.6449,7.12502,218.225,-227.382,2.55221e-14,1.12313e-14,-50.5241,6.93976,68.0276,7.72822,-65.9494,-7.28065,8.01184,7.12502,18.6009,37.1425,-19.0918,8.55852,18.2866,39.7458,-23.8939,7.61909,-20.036,-9.5053,10.2163,-17.368,37.1824,-26.6792,3.25432,-15.6897
-14.2901,17.5801,1.41154,179.714,-69.0471,-177.084,6.09267,-5.65942,2.44532,-3.43143,-7.37205,0.185174,-7.28819,-3.74146,-0.238715,-0.647716,5.84155,11.585,5.3656,7.79044,-6.03376,2.39174,3.96261,-3.45555,-2.41787e-14,-1.55052e-14,-153.374,183.064,-172.976,101.842,-33.6612,11.4712,-23.2891,7.12502,216.52,-229.476,-2.41787e-14,-1.55052e-14,-49.2021,5.87617,68.41,9.31931,-65.8216,-7.72506,6.88445,7.12502,18.1734,36.0555,-19.0434,8.20618,18.2533,39.5845,-23.8334,7.82296,-19.3604,-9.54654,10.1341,-17.3914,37.085,-26.5644,3.01024,-14.7753
-14.3167,17.5859,1.41798,180.308,-69.3356,-177.707,6.0318,-5.8867,2.08226,-3.45387,-7.70125,0.342102,-7.21581,-3.88254,0.156357,-0.0038728,6.09047,12.1513,4.82989,8.21628,-6.7346,2.21663,4.1752,-3.76508,1.4907e-13,6.91243e-15,-156.83,185.757,-173.998,100.933,-33.0604,7.11319,-25.2726,7.12502,212.383,-232.401,1.4907e-13,6.91243e-15,-47.6324,4.69354,68.8509,11.037,-65.3993,-7.94219,5.73944,7.12502,17.9645,34.9298,-18.8643,7.53918,17.9472,39.4412,-23.8862,8.20661,-18.5038,-9.4533,9.99778,-17.6697,36.9681,-26.4506,2.63962,-13.7473
-14.3402,17.5883,1.42448,180.285,-69.6964,-177.702,6.07626,-6.10674,1.92067,-3.50351,-7.99705,0.5569,-7.24699,-4.01475,0.51121,0.427564,6.34063,12.529,4.58418,8.61707,-7.22197,2.14861,4.37739,-3.97181,1.15061e-13,2.6339e-15,-160.27,188.557,-175.128,99.8502,-32.1349,3.65666,-26.7735,7.12502,209.088,-234.522,1.15061e-13,2.6339e-15,-45.9243,-1.83708,74.7041,12.9104,-57.4399,-7.82432,6.16019,7.12502,18.0779,35.3401,-18.636,6.93687,17.9022,39.3159,-23.9872,8.42185,-17.6807,-9.34689,9.82775,-17.6955,36.8334,-26.2867,2.51089,-13.7739
-14.3561,17.594,1.42833,180.337,-70.0919,-177.706,6.12515,-6.30049,1.64165,-3.57361,-8.26756,0.796829,-7.27737,-4.12859,0.952909,0.627162,6.60504,12.7287,4.56847,9.00366,-7.44107,2.16893,4.57307,-4.05868,1.09412e-13,1.59028e-15,-163.648,191.462,-176.388,98.702,-31.9383,1.0522,-28.5602,7.12502,206.598,-236.712,1.09412e-13,1.59028e-15,-44.7569,-7.80641,79.3438,15.0264,-50.7631,-7.54911,6.62772,7.12502,18.3426,35.7829,-18.5023,6.57785,17.8742,39.1746,-24.0036,8.30538,-17.4519,-9.35846,9.60614,-17.7309,36.7187,-26.1553,2.50572,-14.2594
-14.3694,17.6035,1.43136,180.409,-70.4572,-177.656,6.07769,-6.41907,1.33109,-3.62775,-8.44128,1.06308,-7.22183,-4.19444,1.41171,0.676595,6.85205,12.9418,4.69973,9.3539,-7.67713,2.25675,4.74963,-4.14601,-1.16009e-13,4.17448e-15,-167.054,194.618,-177.686,97.2704,-31.1382,-2.57296,-30.3668,7.12502,203.124,-238.999,-1.16009e-13,4.17448e-15,-43.8294,-13.0879,82.9103,17.4442,-45.4789,-6.99314,6.79325,7.12502,18.8774,35.8972,-18.4905,6.30941,17.8662,39.0164,-23.9674,8.13535,-17.9063,-9.49923,9.39153,-17.754,36.6988,-26.0911,2.37892,-14.2951
-14.3828,17.6102,1.43859,179.805,-70.8172,-176.927,6.03425,-6.39989,1.37423,-3.72572,-8.39875,1.35765,-7.26277,-4.1701,1.6888,0.826407,6.96397,12.9252,4.8718,9.53389,-7.84543,2.30964,4.84022,-4.18875,1.98163e-15,1.21259e-14,-170.811,197.662,-178.498,95.8227,-29.6727,-6.3249,-32.7082,7.12502,199.52,-241.748,1.98163e-15,1.21259e-14,-43.4906,-18.6957,86.4164,20.1774,-41.4306,-7.26649,7.2119,7.12502,18.6145,36.3413,-18.3904,6.03531,18.0858,38.8223,-23.9078,8.0294,-18.1313,-9.62752,9.19099,-17.5318,36.7329,-26.0171,2.2034,-14.1214
-14.3919,17.6075,1.45008,178.997,-71.1612,-176.027,6.04036,-6.27623,1.55804,-3.87988,-8.20543,1.62536,-7.41904,-4.07827,1.85675,1.21315,6.93479,12.7614,4.86283,9.55062,-8.06897,2.24846,4.84846,-4.2462,6.3959e-14,1.78906e-14,-174.779,200.603,-178.878,94.2212,-27.666,-9.69742,-33.7591,7.12502,196.275,-243.096,6.3959e-14,1.78906e-14,-43.6,-24.5698,89.8768,23.3437,-36.8151,-5.34124,7.37066,7.12502,20.4655,36.3121,-18.2499,5.82784,18.3502,38.6329,-23.7985,7.86577,-17.9098,-9.76548,8.98902,-17.2622,36.828,-25.9693,2.03187,-13.9584
-14.4026,17.6108,1.46245,178.251,-71.4856,-175.184,6.01246,-6.25321,1.63463,-3.95611,-8.15656,1.89103,-7.45659,-4.05335,2.08679,1.51231,7.01054,12.8962,4.91722,9.70143,-8.35815,2.25245,4.92704,-4.35852,4.52235e-14,-1.07344e-14,-178.433,203.632,-179.378,92.5784,-25.4092,-13.133,-36.6956,7.12502,192.965,-246.273,4.52235e-14,-1.07344e-14,-44.0651,-30.4769,93.036,26.6595,-33.3123,-4.33664,7.27066,7.12502,21.4307,36.1054,-18.1383,5.69964,18.5817,38.4552,-23.7158,7.60154,-18.0185,-9.90847,8.79601,-17.035,36.9277,-25.9548,1.9179,-14.0333
-14.4193,17.6114,1.47711,177.58,-71.8304,-174.488,5.94609,-6.38371,1.59027,-3.84307,-8.32343,2.15395,-7.24905,-4.13041,2.38273,1.2987,7.36905,13.2371,5.18879,10.1843,-8.68249,2.45395,5.16629,-4.47156,8.32038e-14,-5.56597e-15,-181.002,207.443,-180.757,89.9885,-22.9667,-16.7714,-39.1343,7.12502,189.456,-248.902,8.32038e-14,-5.56597e-15,-44.1977,-35.6443,95.2324,30.0404,-30.3394,-4.64603,7.39699,7.12502,21.1335,36.2652,-17.9723,5.46532,18.7395,38.3629,-23.7818,7.34602,-18.6079,-9.92735,8.62443,-16.8699,36.9737,-25.9121,1.87961,-14.4206
-14.4369,17.6094,1.49322,177.66,-72.218,-174.679,5.93749,-6.52281,1.28611,-3.64451,-8.52685,2.3183,-6.95753,-4.21591,2.71752,0.872795,7.78885,13.5907,5.44511,10.7292,-9.05422,2.69919,5.43066,-4.58533,1.47212e-13,-4.37326e-15,-183.883,211.052,-181.685,87.8036,-21.4017,-21.3393,-44.6786,7.12502,185.047,-254.599,1.47212e-13,-4.37326e-15,-44.0346,-40.4283,96.7476,33.4155,-27.8614,-4.91002,7.39726,7.12502,20.8799,36.2936,-17.7279,5.09198,18.5884,38.3324,-23.9513,7.11834,-19.4137,-9.79904,8.43892,-17.0132,36.9145,-25.8182,1.87627,-14.982
-14.4524,17.6106,1.50796,178.56,-72.7329,-175.729,5.95298,-6.57606,0.795246,-3.5333,-8.6356,2.38682,-6.76048,-4.24829,3.05204,0.639971,8.07275,13.802,5.60057,11.1106,-9.40429,2.85857,5.61333,-4.6877,-1.67103e-14,-1.39149e-14,-187.339,214.393,-181.913,85.8485,-20.5982,-23.3349,-47.2097,7.12502,183.12,-257.167,-1.67103e-14,-1.39149e-14,-44.4087,-45.6968,98.572,36.9543,-26.2659,-5.50296,8.0861,7.12502,20.3101,37.0441,-17.5023,4.62383,18.1553,38.3469,-24.1313,6.91533,-19.8203,-9.67394,8.17608,-17.442,36.8163,-25.6813,1.78953,-15.3151
-14.4657,17.6144,1.52279,179.076,-73.3315,-176.325,5.96781,-6.56543,0.505119,-3.52147,-8.64106,2.49887,-6.69526,-4.23731,3.32259,0.601319,8.21946,13.7535,5.71509,11.3228,-9.61502,2.9331,5.71253,-4.72738,1.31198e-14,-4.37326e-15,-191.182,217.533,-181.577,83.8862,-20.3031,-23.2032,-48.5353,7.12502,183.247,-258.49,1.31198e-14,-4.37326e-15,-44.755,-50.8612,100.114,40.8691,-23.8893,-3.69918,8.67258,7.12502,22.0428,37.4364,-17.3182,4.16355,17.8738,38.3794,-24.2248,6.77509,-19.4974,-9.60576,7.87759,-17.7049,36.6897,-25.4907,1.56128,-14.9497
-14.4752,17.6153,1.53892,178.773,-73.9457,-176.026,5.96569,-6.55467,0.498163,-3.5257,-8.61999,2.68548,-6.66953,-4.22469,3.5161,0.573303,8.32722,13.6693,5.82953,11.4876,-9.87382,3.00128,5.78598,-4.77977,1.28266e-13,-7.15625e-15,-195.119,220.304,-180.917,81.9141,-20.2043,-24.2385,-49.4906,7.12502,182.247,-259.459,1.28266e-13,-7.15625e-15,-45.3199,-56.1979,101.589,44.9623,-22.1977,-2.52934,9.53333,7.12502,23.1656,38.1604,-17.1923,3.86111,17.8772,38.4148,-24.2496,6.50782,-19.23,-9.60307,7.62232,-17.6765,36.5647,-25.2575,1.27421,-14.3681
-14.4842,17.6162,1.55577,179.133,-74.6825,-176.484,5.95254,-6.57,0.307031,-3.48335,-8.6527,2.784,-6.57162,-4.233,3.71658,0.487608,8.45069,13.6211,5.94217,11.6679,-10.1368,3.08293,5.86591,-4.83491,-5.76227e-14,-1.35174e-14,-199.29,222.463,-179.829,79.9528,-19.7895,-26.0582,-51.0129,7.12502,180.49,-260.992,-5.76227e-14,-1.35174e-14,-45.6042,-61.3093,102.435,49.3908,-21.2235,-2.61253,10.3542,7.12502,23.0858,38.9913,-16.9795,3.58528,17.6516,38.4464,-24.3516,6.01626,-19.413,-9.56082,7.36438,-17.8736,36.4851,-24.99,1.00804,-14.3461
-14.4918,17.6157,1.5713,180.475,-75.4991,-177.984,5.96779,-6.60809,-0.165827,-3.43401,-8.74247,2.79162,-6.45105,-4.25879,3.98227,0.270663,8.61677,13.3564,6.12272,11.8758,-10.0725,3.17768,5.95892,-4.7474,3.99557e-14,-1.35174e-14,-203.681,223.853,-178.474,78.0112,-18.8881,-28.113,-53.1615,7.12502,178.505,-263.136,3.99557e-14,-1.35174e-14,-44.6876,-65.6196,101.741,54.1239,-21.2735,-2.29625,11.2417,7.12502,23.3892,39.8404,-16.6663,3.40697,17.1514,38.4661,-24.4704,5.31792,-19.7471,-9.51799,7.07402,-18.3414,36.4537,-24.7099,0.773432,-14.8453
-14.4974,17.6131,1.58393,181.342,-76.3057,-178.879,5.90465,-6.66157,-0.449911,-3.41694,-8.83709,2.82773,-6.34265,-4.29574,4.16919,-0.441631,8.94436,12.6959,6.76513,12.2331,-9.39649,3.44698,6.12003,-4.37058,2.92338e-14,3.18055e-15,-208.022,224.762,-177.259,76.0509,-17.6999,-28.4932,-54.3012,7.12502,178.138,-264.273,2.92338e-14,3.18055e-15,-43.6112,-71.11,100.407,59.6674,-19.83,-2.40868,13.0389,7.12502,23.2814,41.6513,-16.4449,3.31088,16.8751,38.4788,-24.5265,4.47068,-20.3595,-9.62007,6.76699,-18.6023,36.4385,-24.4073,0.466968,-14.942
-14.5037,17.6142,1.59616,181.244,-77.121,-178.723,5.74415,-6.66486,-0.372305,-3.39116,-8.83438,2.87658,-6.22792,-4.30098,4.15263,-2.07738,9.39538,11.8847,8.28103,12.6758,-8.3454,4.10424,6.30995,-3.78789,4.9808e-14,4.13472e-14,-212.497,225.639,-176.008,74.0519,-16.5707,-29.1794,-55.6847,7.12502,177.475,-265.65,4.9808e-14,4.13472e-14,-39.1029,-75.821,95.4236,65.3493,-19.7055,-2.27881,14.11,7.12502,23.406,42.7067,-16.2905,3.09037,16.8895,38.4548,-24.5409,3.70186,-21.249,-9.79177,6.39728,-18.5835,36.4334,-24.1001,0.0730318,-14.404
-14.5112,17.6154,1.60854,181.406,-77.9177,-178.824,5.57638,-6.58358,-0.290691,-3.38714,-8.72006,2.88544,-6.14606,-4.25064,4.08357,-1.27934,8.91291,11.9994,7.17879,12.1303,-9.20033,3.64227,6.0356,-4.16674,1.27607e-13,1.74931e-14,-216.962,225.673,-174.625,71.9528,-16.5015,-29.5078,-57.5859,7.12502,177.158,-267.547,1.27607e-13,1.74931e-14,-27.5411,-79.8166,83.306,71.1919,-19.7678,-1.79334,14.8142,7.12502,23.8716,43.3507,-16.1565,2.80599,16.8143,38.3867,-24.4839,3.19734,-21.703,-9.97359,6.04478,-18.6326,36.4603,-23.8056,-0.336584,-14.2871
-14.5205,17.6187,1.61655,182.038,-78.6884,-179.416,5.47119,-6.43994,-0.326536,-3.45983,-8.53241,2.87635,-6.1709,-4.15617,4.06831,-1.06784,8.6228,11.5844,6.8394,11.7751,-9.42115,3.45515,5.84757,-4.21365,-2.70471e-14,3.57812e-14,-221.279,225.432,-173.435,70.0072,-16.7515,-30.0211,-59.0315,7.12502,176.662,-268.985,-2.70471e-14,3.57812e-14,-2.66068,-82.3102,57.8493,77.0991,-19.7284,-1.39178,15.1705,7.12502,24.2566,43.6561,-15.9734,2.59014,16.6607,38.2796,-24.392,2.70673,-21.718,-10.1296,5.80568,-18.7528,36.4886,-23.4433,-0.649183,-15.3658
-14.5293,17.622,1.62687,182.338,-79.4972,-179.715,5.48012,-6.29406,-0.2358,-3.62451,-8.33129,2.86124,-6.37846,-4.05552,4.00216,-1.05789,8.42273,11.11,6.91673,11.5226,-9.41887,3.42168,5.70883,-4.15828,3.3694e-14,7.95139e-16,-225.113,224.48,-172.709,68.0232,-17.3829,-29.9549,-60.6812,7.12502,176.726,-89.3642,3.3694e-14,7.95139e-16,29.481,-81.9093,25.0812,83.0422,-19.2954,-1.01909,15.215,7.12502,24.6139,43.6524,-15.7047,2.25559,16.5931,38.1516,-24.3526,2.19475,-21.821,-10.2394,5.52843,-18.7907,36.5274,-23.0649,-0.935616,-16.3479
-14.5366,17.623,1.64028,182.331,-80.2425,-179.715,5.8548,-6.18244,-0.0650648,-4.05028,-8.1667,2.86113,-7.08121,-3.96309,3.98441,-0.743698,8.21998,10.6745,7.16562,11.2951,-9.4134,3.39535,5.58805,-4.11626,1.43398e-13,1.66979e-14,-228.286,223.017,-172.581,65.8517,-17.7982,-30.2451,-61.1267,7.12502,176.446,-88.9231,1.43398e-13,1.66979e-14,48.1122,-79.3532,5.61772,88.9929,-18.4972,-0.750308,14.947,7.12502,24.8715,43.349,-15.4445,1.8233,16.5634,38.0169,-24.3526,1.89729,-21.6064,-10.323,5.22729,-18.786,36.5669,-22.8002,-1.22282,-16.7357
-14.5439,17.6242,1.64451,181.414,-80.7661,-178.789,5.9646,-5.99385,0.125171,-4.13254,-7.89726,2.8289,-7.27865,-3.83506,3.84201,-1.1715,8.07021,10.1831,7.53455,11.0748,-9.2251,3.51575,5.45685,-3.97417,1.63003e-14,-2.14687e-14,-231.569,222.459,-172.432,63.3109,-17.0395,-28.2184,-63.7467,7.12502,178.403,-86.2796,1.63003e-14,-2.14687e-14,56.7448,-75.0979,-4.10709,94.7675,-17.4386,-1.35437,13.9575,7.12502,24.2925,42.4383,-15.2395,1.74443,16.7442,37.8871,-24.3173,1.49113,-21.313,-10.3854,5.04808,-18.5994,36.592,-22.65,-1.35751,-17.5618
-14.5514,17.6262,1.64469,181.222,-81.2158,-178.592,5.75852,-5.72746,0.131238,-4.01238,-7.54548,2.7313,-7.06409,-3.66959,3.66226,-1.79307,7.87257,9.58689,7.83225,10.7743,-8.9393,3.6299,5.28302,-3.78491,2.59662e-14,-7.15625e-15,-234.531,222.039,-172.852,61.0463,-18.2455,-28.7981,-63.9558,7.12502,177.843,-86.0754,2.59662e-14,-7.15625e-15,59.5757,-69.9308,-7.97278,100.254,-15.8624,-2.54068,14.7499,7.12502,23.1547,43.3783,-15.0715,1.77588,16.8003,37.7824,-24.2815,1.01035,-21.3711,-10.4294,4.85704,-18.5462,36.5794,-22.5088,-1.53904,-17.8331
-14.558,17.6291,1.64482,182.179,-81.6285,-179.532,5.59568,-5.43398,-0.0364139,-4.00731,-7.17504,2.58675,-6.98169,-3.48399,3.54338,-2.24082,7.62062,8.98861,8.23324,10.4183,-8.6073,3.74187,5.08588,-3.5915,-1.4469e-13,2.8625e-14,-237.262,221.77,-173.405,58.6869,-19.9174,-29.7437,-64.088,7.12502,176.93,-85.9544,-1.4469e-13,2.8625e-14,59.3193,-64.5695,-8.70288,105.361,-13.8916,-4.22903,16.3449,7.12502,21.534,45.1678,-14.9584,1.74369,16.6615,37.709,-24.268,0.634815,-21.5178,-10.4745,4.63397,-18.6772,36.5225,-22.357,-1.87844,-17.1176
-14.5631,17.6318,1.64118,182.248,-81.9033,-179.571,5.65821,-5.10302,-0.101177,-4.17886,-6.74362,2.47672,-7.22915,-3.26521,3.43907,-2.50833,7.36735,8.35671,8.80628,10.0746,-8.17806,3.87405,4.89857,-3.36772,2.66371e-14,-8.74653e-15,-239.467,221.097,-174.501,56.3173,-22.006,-30.719,-64.8006,7.12502,175.988,-85.2574,2.66371e-14,-8.74653e-15,57.6564,-59.181,-8.04881,109.977,-11.8213,-5.92456,16.9536,7.12502,19.9049,45.9543,-14.8871,1.87563,16.6954,37.657,-24.2045,0.254951,-21.7217,-10.4956,4.50103,-18.6451,36.4353,-22.2285,-2.19613,-16.3211
-14.569,17.634,1.63654,182.337,-82.1142,-179.628,5.73579,-4.75808,-0.138921,-4.36396,-6.29373,2.33117,-7.5075,-3.03937,3.28076,-2.79058,7.10187,7.75162,9.42044,9.71642,-7.76588,4.02629,4.7028,-3.1533,1.90833e-14,-4.77083e-15,-241.46,220.494,-175.806,53.8572,-23.229,-31.2248,-65.2438,7.12502,175.5,-84.824,1.90833e-14,-4.77083e-15,55.1562,-53.4475,-6.49753,113.995,-9.64043,-6.74471,17.2829,7.12502,19.1163,46.3635,-14.8299,2.01605,16.7185,37.5994,-24.1212,-0.0226789,-21.6989,-10.5135,4.44166,-18.6255,36.3558,-22.1343,-2.35741,-16.2035
-14.5775,17.6364,1.63446,182.67,-82.3232,-179.884,5.67536,-4.41543,-0.164968,-4.50482,-5.84871,2.16361,-7.66018,-2.821,3.07361,-3.19993,6.81868,7.22227,10.0896,9.33725,-7.45552,4.22737,4.49086,-2.9783,1.11245e-13,-1.74931e-14,-243.548,220.559,-176.675,51.1126,-22.6842,-30.7458,-65.4736,7.12502,175.962,-84.5849,1.11245e-13,-1.74931e-14,52.283,-47.2157,-4.43815,117.306,-7.24274,-6.71839,17.4767,7.12502,19.1416,46.5547,-14.8031,1.95067,16.6846,37.5066,-24.0729,-0.177837,-21.8362,-10.5863,4.3925,-18.661,36.3188,-22.111,-2.33333,-16.8778
-14.5863,17.6394,1.63547,181.768,-82.5203,-178.863,5.64454,-4.08408,0.0285216,-4.70516,-5.39815,2.04269,-7.90829,-2.61031,2.79929,-3.46481,6.54343,6.71794,10.7801,8.98311,-7.21859,4.42095,4.28947,-2.83384,1.52567e-14,7.95139e-16,-245.652,221.18,-176.95,47.9319,-20.7901,-30.0421,-65.6256,7.12502,176.642,-84.4211,1.52567e-14,7.95139e-16,49.6999,-40.8037,-2.79069,119.783,-5.52086,-7.40957,17.8089,7.12502,18.4769,46.9513,-14.7977,1.69522,16.8188,37.3897,-24.035,-0.246605,-22.4538,-10.6974,4.31909,-18.5305,36.3122,-22.1699,-2.21041,-17.754
-14.5952,17.6433,1.63512,180.114,-82.6143,-177.075,5.68671,-3.75857,0.317874,-4.95842,-4.94449,1.96339,-8.25673,-2.40289,2.52206,-3.59073,6.31233,6.2452,11.4343,8.70449,-7.10649,4.59544,4.12091,-2.73336,-4.41302e-14,-6.75868e-15,-248.071,222.534,-176.181,44.3921,-17.3959,-29.4028,-65.509,7.12502,177.259,-84.5289,-4.41302e-14,-6.75868e-15,47.3773,-34.3278,-1.69134,121.535,-4.31023,-8.31961,18.665,7.12502,17.6013,47.8883,-14.8224,1.51954,17.062,37.27,-23.9726,-0.240405,-22.8419,-10.8241,4.29884,-18.2905,36.3211,-22.2794,-2.04971,-18.7894
-14.6062,17.6477,1.63213,179.451,-82.6165,-176.262,5.62447,-3.45303,0.430483,-5.13013,-4.53258,1.90217,-8.43403,-2.20927,2.34992,-3.99591,6.19578,5.72034,12.1242,8.59045,-7.07596,4.84262,4.01843,-2.62982,-1.45113e-14,-2.34566e-14,-248.827,222.506,-177.567,41.022,-15.5408,-27.9645,-65.5101,7.12502,178.648,-84.5144,-1.45113e-14,-2.34566e-14,44.9997,-27.8313,-0.986671,122.445,-4.35237,-9.77397,19.4276,7.12502,16.2013,48.7706,-14.9055,1.48917,17.1685,37.1729,-23.9297,-0.173428,-22.8677,-10.9672,4.34434,-18.1837,36.3282,-22.3778,-1.92497,-19.2899
-14.6152,17.6514,1.62993,179.658,-82.6215,-176.3,5.58024,-3.10716,0.49527,-5.30613,-4.07566,1.7624,-8.6278,-1.99357,2.11599,-4.44889,6.02378,5.32852,12.7954,8.40823,-7.15515,5.09989,3.87924,-2.58587,-3.39922e-14,4.77083e-15,-249.973,222.886,-178.206,37.5648,-13.2096,-28.5727,-65.5368,7.12502,178.061,-84.4922,-3.39922e-14,4.77083e-15,42.7362,-21.2651,-0.463084,122.717,-3.88776,-10.6358,20.3038,7.12502,15.3714,49.7124,-15.0396,1.42268,17.1476,37.1118,-23.945,-0.0320618,-22.819,-11.1385,4.32909,-18.2174,36.3227,-22.4914,-1.85524,-18.7553
-14.6226,17.6529,1.63034,180.112,-82.5743,-176.623,5.75838,-2.54445,0.697854,-5.61956,-3.3269,1.42484,-9.12668,-1.64956,1.57587,-4.53784,5.59584,5.32254,13.3698,7.87134,-7.3882,5.26515,3.58358,-2.69075,-2.69353e-14,5.56597e-15,-252.837,223.435,-176.879,34.4191,-10.2245,-29.0514,-65.1266,7.12502,177.599,-84.9072,-2.69353e-14,5.56597e-15,41.1295,-15.191,-0.443161,122.556,-3.57481,-9.98466,20.6003,7.12502,15.9984,49.9597,-15.1702,1.423,17.0777,37.0904,-23.8665,0.130198,-22.5693,-11.2662,4.24709,-18.318,36.3159,-22.6415,-1.75472,-17.8628
-14.634,17.6534,1.63311,180.111,-82.4093,-176.561,6.06524,-2.04796,0.943952,-5.8551,-2.64519,1.26395,-9.59816,-1.3384,1.1994,-4.91551,5.35189,5.02623,13.8924,7.62331,-7.74759,5.47672,3.39966,-2.76194,1.08835e-14,8.74653e-15,-256.107,224.475,-174.301,31.6095,-6.12149,-29.124,-64.7878,7.12502,177.529,-85.2468,1.08835e-14,8.74653e-15,38.8542,-9.44601,-0.679635,121.926,-3.11397,-9.13698,21.8433,7.12502,16.8146,51.1353,-15.2416,1.64719,17.0521,37.0794,-23.7723,0.267843,-22.0887,-11.2802,4.21382,-18.3738,36.3341,-22.8404,-1.51199,-17.5947
-14.6438,17.6541,1.63291,179.532,-82.0925,-175.919,6.10841,-1.49216,1.2514,-5.83366,-1.87203,1.14135,-9.62138,-0.987965,0.787519,-5.51943,5.17023,4.84749,14.1641,7.47354,-8.32322,5.66955,3.25619,-2.90989,3.17559e-14,-9.93923e-15,-260.088,225.871,-170.758,29.136,-1.20157,-28.5686,-64.3719,7.12502,178.065,-85.6571,3.17559e-14,-9.93923e-15,36.3826,-3.98492,-1.10725,120.933,-2.75332,-8.31691,22.2544,7.12502,17.6039,51.4775,-15.3729,2.20644,17.1496,37.1457,-23.7617,0.16447,-22.0582,-11.2679,4.29137,-18.3267,36.3444,-23.084,-1.05265,-18.3214
-14.6455,17.658,1.62459,178.653,-81.5766,-174.848,6.43701,-0.953473,1.50095,-6.0197,-1.11436,1.14694,-10.0292,-0.639568,0.556653,-6.02,5.14959,4.61057,14.5246,7.56411,-8.92467,5.88935,3.21837,-3.04287,3.52843e-15,5.1684e-15,-263.534,226.761,-167.811,27.087,3.82819,-28.7248,-64.0084,7.12502,177.914,-86.022,3.52843e-15,5.1684e-15,33.327,0.655971,-1.598,120.041,-2.68518,-7.62008,23.0656,7.12502,18.2744,52.2272,-15.7003,3.26229,17.3971,37.2088,-23.4682,-0.305087,-22.3388,-11.4392,4.45644,-18.1639,36.388,-23.2884,-0.597413,-18.7297
-14.6474,17.6566,1.6326,182.441,-81.5721,-178.33,6.74777,-0.549766,1.39981,-6.36964,-0.598485,0.924389,-10.6045,-0.397599,0.30855,-6.21951,5.17017,4.37283,14.775,7.71137,-9.51261,6.0276,3.2152,-3.1753,-2.98177e-16,1.03368e-14,-265.718,226.818,-166.663,25.6739,7.34522,-29.5119,-64.1902,7.12502,177.154,-85.8491,-2.98177e-16,1.03368e-14,29.859,4.55898,-2.42583,119.171,-1.95012,-8.86529,23.8984,7.12502,17.0761,53.168,-16.1384,3.16793,16.7424,37.3116,-23.3699,-0.0810442,-22.0914,-11.8288,4.47414,-18.8179,36.4422,-23.3018,-0.480209,-18.9905
-14.6541,17.6571,1.6321,182.209,-81.2088,-177.848,6.70397,0.120258,1.87515,-6.47917,0.34428,0.776992,-10.6914,0.0116605,-0.264313,-6.18331,5.06419,4.21095,14.6639,7.65846,-10.0917,5.99935,3.13998,-3.33884,8.94531e-15,-1.23246e-14,-267.651,226.649,-166.203,24.7783,9.66593,-29.4309,-64.0334,7.12502,177.232,-86.0048,8.94531e-15,-1.23246e-14,26.2185,8.09488,-3.51991,118.159,-0.852597,-10.1113,23.9018,7.12502,15.8765,53.2709,-16.4926,3.60417,16.8157,37.3777,-23.3006,-0.135842,-21.8699,-12.0822,4.75277,-18.7513,36.53,-23.3097,-0.507307,-18.8099
-14.6658,17.6551,1.63128,181.112,-80.8974,-176.629,6.78731,0.818689,2.49156,-6.65274,1.35004,0.672808,-10.903,0.437786,-0.881713,-5.88858,5.04234,4.14758,14.6593,7.72311,-10.7373,5.97459,3.12429,-3.53711,-1.42131e-14,-2.38542e-15,-268.943,226.141,-166.47,24.2483,11.3885,-29.0225,-63.092,7.12502,177.627,-86.9415,-1.42131e-14,-2.38542e-15,22.1362,10.9033,-4.5629,117.25,-0.249163,-10.2198,24.5214,7.12502,15.7719,53.8988,-16.6564,3.86988,17.0448,37.4534,-23.4045,-0.219974,-21.8754,-12.1606,5.06986,-18.5054,36.6143,-23.2053,-0.84086,-17.6483
-14.6764,17.6532,1.63165,181.004,-80.7757,-176.425,6.89852,1.41894,2.95382,-6.74215,2.20771,0.536368,-11.0221,0.804251,-1.42729,-5.71827,5.32362,4.75824,14.767,8.19097,-11.6972,6.08068,3.31306,-3.91341,1.98785e-15,-1.70955e-14,-269.089,225.734,-168.34,24.1027,12.149,-29.1303,-62.3362,7.12502,177.522,-87.6985,1.98785e-15,-1.70955e-14,17.9197,13.175,-5.35089,116.25,-0.251941,-9.94981,24.879,7.12502,16.032,54.2357,-16.741,3.9233,17.0899,37.482,-23.6775,-0.287805,-21.8465,-12.2688,5.24957,-18.4338,36.7182,-23.0424,-1.11225,-17.1472
-14.6848,17.6511,1.63353,181.684,-80.802,-177.073,6.98745,1.9588,3.29971,-6.67465,2.96785,0.348736,-10.9398,1.13865,-1.94517,-5.96801,5.81665,5.1476,15.0836,8.93255,-12.1883,6.33096,3.63619,-4.06854,3.50855e-14,2.22639e-14,-268.599,225.648,-170.972,24.0359,12.7693,-29.3866,-62.0626,7.12502,177.275,-87.9751,3.50855e-14,2.22639e-14,13.5004,15.0081,-6.02355,115.251,-0.461808,-10.4192,24.709,7.12502,15.5799,54.1015,-16.7577,3.83839,16.9746,37.5142,-23.8517,-0.320489,-21.8687,-12.3358,5.27737,-18.5307,36.8073,-22.9192,-1.333,-16.9075
-14.6944,17.6464,1.63868,182.853,-81.0811,-178.307,7.12872,2.44668,3.6307,-6.58328,3.65508,0.113832,-10.85,1.43906,-2.49445,-6.4154,6.44796,5.25437,15.7133,9.86052,-12.2244,6.70589,4.04554,-4.00318,2.28851e-14,1.70955e-14,-267.838,225.584,-173.641,23.8537,13.6681,-29.5549,-61.9517,7.12502,177.112,-88.0881,2.28851e-14,1.70955e-14,8.75091,16.3485,-6.60116,114.551,-0.722848,-10.9173,25.0269,7.12502,15.1002,54.4561,-16.6218,3.50198,16.749,37.532,-23.9196,-0.357687,-21.9883,-12.3081,5.22839,-18.7347,36.9021,-22.8036,-1.7656,-16.0999
-14.7081,17.6418,1.64529,183.489,-81.5491,-179.043,7.31489,2.89664,4.07462,-6.5278,4.30908,-0.105003,-10.8101,1.71366,-3.08696,-6.39678,7.0458,5.80697,16.0841,10.7309,-12.6128,6.957,4.45195,-4.1378,-4.01794e-14,-1.51076e-14,-266.733,225.36,-176.53,23.7295,14.3615,-29.6507,-61.5406,7.12502,177.02,-88.5005,-4.01794e-14,-1.51076e-14,4.0366,17.2245,-6.67861,113.948,-1.10935,-11.4302,25.2569,7.12502,14.6061,54.7226,-16.3595,3.06247,16.6163,37.5109,-24.0332,-0.475009,-22.1085,-12.2693,5.11809,-18.8391,37.0334,-22.6569,-2.09664,-16.1103
-14.7206,17.6391,1.64983,182.526,-82.1007,-178.184,7.45522,3.2977,4.67926,-6.43925,4.92352,-0.229751,-10.6899,1.96545,-3.65585,-6.45089,7.75985,6.30835,16.6415,11.7715,-12.8733,7.29942,4.93433,-4.19761,-2.48729e-14,9.14409e-15,-265.45,225.236,-179.271,23.6267,15.1162,-29.5918,-60.7281,7.12502,177.077,-89.3122,-2.48729e-14,9.14409e-15,-0.42273,18.0514,-6.15666,113.184,-1.61004,-12.0084,24.5994,7.12502,14.0489,54.1045,-16.039,2.76904,16.752,37.459,-24.1316,-0.700547,-22.0371,-12.2617,4.93357,-18.6702,37.1888,-22.4947,-2.32016,-16.4292
-14.7247,17.6373,1.65242,181.372,-82.8051,-177.096,7.57497,3.69061,5.25867,-6.3373,5.51781,-0.416221,-10.5249,2.21117,-4.26889,-5.20777,8.00316,6.43905,15.9887,12.0892,-13.0811,6.92119,5.15645,-4.2967,2.65874e-15,9.93923e-16,-264.029,225.164,-182.124,23.5838,15.6002,-29.3724,-60.2977,7.12502,177.289,-89.7398,2.65874e-15,9.93923e-16,-4.49455,19.0592,-5.34375,112.318,-2.35251,-12.0154,24.0919,7.12502,14.0421,53.5975,-15.7384,2.55523,16.9106,37.3506,-24.1405,-1.01866,-21.6302,-12.3813,4.723,-18.4767,37.3807,-22.2572,-2.64651,-16.3158
-14.7318,17.6362,1.65807,182.997,-83.7675,-178.8,7.56851,4.04551,5.55137,-6.19076,6.0017,-0.765931,-10.24,2.42845,-4.86513,-5.23589,8.85942,7.56843,16.5272,13.3026,-13.468,7.33629,5.75673,-4.47462,-2.65874e-14,2.78299e-15,-262.382,225.035,-185.389,23.8347,15.468,-29.3229,-60.6854,7.12502,177.336,-89.3514,-2.65874e-14,2.78299e-15,-8.53076,19.8638,-4.59034,111.717,-3.0157,-11.5196,24.6922,7.12502,14.5199,54.1641,-15.397,1.93874,16.6668,37.243,-24.2204,-1.24739,-21.5268,-12.539,4.48832,-18.6671,37.6037,-21.9415,-3.08042,-16.3229
-14.7554,17.6315,1.64286,181.354,-84.6329,-177.431,7.5234,4.32618,5.79822,-5.97789,6.39616,-0.874485,-9.89168,2.62297,-5.15262,-4.45033,9.75087,8.35755,16.3143,14.5261,-13.702,7.34803,6.41755,-4.57011,-1.6524e-14,-5.96354e-15,-260.221,224.726,-189.105,24.4086,14.8398,-29.5474,-61.0814,7.12502,177.12,-88.9583,-1.6524e-14,-5.96354e-15,-12.3993,21.0011,-3.21161,110.743,-3.74672,-12.1384,24.548,7.12502,13.9236,54.0618,-14.7734,1.86731,16.919,37.1579,-24.3156,-2.06149,-22.1639,-12.3843,4.38487,-18.3791,37.8197,-21.6785,-3.73154,-15.965
-14.7467,17.628,1.62064,177.651,-85.4662,-173.804,7.95971,4.52079,6.0013,-6.09058,6.71493,-0.928067,-10.2116,2.7401,-5.41811,-3.18964,10.6587,9.23449,15.9095,15.7939,-14.0437,7.24947,7.12442,-4.73213,-1.04486e-13,-9.54166e-15,-257.658,223.786,-193.363,25.244,13.619,-29.2093,-60.6129,7.12502,177.446,-89.4226,-1.04486e-13,-9.54166e-15,-16.3867,21.6045,-2.07129,109.96,-4.22246,-11.8673,24.3661,7.12502,14.1848,53.8618,-14.5518,2.3603,17.4194,37.1634,-24.174,-3.37429,-22.6672,-12.5637,4.17842,-17.9245,37.9589,-21.3095,-4.33816,-15.0283
-14.7472,17.6232,1.60228,175.864,-86.604,-172.08,7.74708,4.62655,5.93628,-5.84698,6.82257,-1.01789,-9.79387,2.82544,-5.45269,-4.29976,11.9597,8.58619,17.1617,17.5027,-12.4797,7.86951,7.91996,-3.84071,2.91344e-14,1.88845e-15,-254.974,223.202,-197.375,26.0581,12.5441,-28.5349,-60.1673,7.12502,178.097,-89.8614,2.91344e-14,1.88845e-15,-19.4334,24.151,0.329972,108.129,-5.84928,-10.6892,24.0297,7.12502,15.3199,53.4422,-14.2176,2.31894,17.5789,37.0633,-24.101,-4.3365,-22.6822,-12.8294,3.8057,-17.792,38.2848,-21.067,-5.11586,-13.7434
-14.771,17.6138,1.59444,188.313,-88.3287,-184.795,7.42662,4.71157,5.5632,-5.57616,6.82996,-1.44788,-9.28783,2.87619,-5.65264,-0.962558,12.315,10.9412,14.4249,18.1178,-14.9193,6.92783,8.44555,-5.12021,-4.37761e-14,8.94531e-15,-253.057,222.497,-200.733,26.8806,11.2061,-28.7134,-60.8423,7.12502,177.925,-89.188,-4.37761e-14,8.94531e-15,-22.0011,25.861,2.6771,106.55,-7.09164,-10.9353,23.3532,7.12502,15.0828,52.7837,-13.488,1.02362,16.9673,37.0391,-24.39,-4.55986,-22.3973,-12.7564,3.13965,-18.3371,38.4997,-20.8016,-5.94669,-13.1442
