JuanDHNZ/ProyectoFinalCD/preprocessing/sports_trials_csv/93_03.csv
root1,root2,root3,root4,root5,root6,lowerback1,lowerback2,lowerback3,upperback1,upperback2,upperback3,thorax1,thorax2,thorax3,lowerneck1,lowerneck2,lowerneck3,upperneck1,upperneck2,upperneck3,head1,head2,head3,rclavicle1,rclavicle2,rhumerus1,rhumerus2,rhumerus3,rradius1,rwrist1,rhand1,rhand2,rfingers1,rthumb1,rthumb2,lclavicle1,lclavicle2,lhumerus1,lhumerus2,lhumerus3,lradius1,lwrist1,lhand1,lhand2,lfingers1,lthumb1,lthumb2,rfemur1,rfemur2,rfemur3,rtibia1,rfoot1,rfoot2,rtoes1,lfemur1,lfemur2,lfemur3,ltibia1,lfoot1,lfoot2,ltoes1
-11.9353,18.0088,2.97796,165.406,-79.1982,-164.384,4.24973,-0.10768,2.72479,-2.13014,-0.0152694,-0.78456,-4.59019,-0.106018,-2.34042,2.09324,4.40858,5.60784,-1.14892,5.95685,-5.20209,-0.376571,2.99927,-2.65537,3.62782e-15,-1.59028e-15,-33.4276,10.8291,-92.5687,23.5233,34.8259,-13.6987,-30.1072,7.12502,12.4196,-59.7182,3.62782e-15,-1.59028e-15,-37.7408,4.55986,83.6009,27.7427,-13.5517,-23.5156,9.07067,7.12502,2.94517,39.0301,-6.61585,2.66539,22.2205,24.3913,-18.3531,1.87834,-10.0259,-10.4187,1.80191,-19.0001,30.109,-15.062,-3.16079,-26.0879
-11.9488,18.0089,2.97305,166.847,-79.2744,-165.875,4.09629,-0.0748298,2.42937,-2.11504,0.00237247,-0.87239,-4.48536,-0.0882308,-2.2662,2.25832,4.41442,5.6932,-1.29049,5.97207,-5.18909,-0.44693,3.00806,-2.67454,-2.3382e-14,7.95139e-16,-33.5673,10.1942,-92.1315,23.2774,35.2949,-13.2661,-30.2369,7.12502,12.8367,-59.8222,-2.3382e-14,7.95139e-16,-37.9257,5.41106,83.0448,27.1345,-14.2462,-23.2661,9.031,7.12502,3.1861,38.9869,-6.64847,2.52126,21.8984,24.5964,-18.5696,1.93562,-10.3508,-10.241,1.7638,-19.3198,29.9025,-14.9809,-3.12516,-25.8716
-11.9579,18.0092,2.97033,167.431,-79.3973,-166.506,4.01139,-0.0874415,2.31627,-2.10269,-0.0258826,-0.929376,-4.42564,-0.0989699,-2.25913,2.4609,4.44762,5.86331,-1.51715,6.02594,-5.23694,-0.544247,3.0363,-2.7326,-1.78037e-14,-1.31198e-14,-33.7101,9.62502,-91.7289,23.0052,35.7858,-13.0342,-30.3965,7.12502,13.0602,-59.9676,-1.78037e-14,-1.31198e-14,-38.1176,6.22224,82.4627,26.5213,-14.8099,-23.1823,9.0519,7.12502,3.26701,39.0066,-6.55512,2.37339,21.7363,24.5908,-18.6149,1.99161,-10.4264,-10.1703,1.62988,-19.4798,29.9101,-14.9668,-3.19202,-25.0372
-11.9602,18.0077,2.96544,167.019,-79.4509,-166.106,4.00613,-0.0845375,2.38568,-2.10531,-0.0183055,-0.93629,-4.42521,-0.0973959,-2.30594,2.6821,4.37371,6.03814,-1.91756,5.93515,-5.25266,-0.710023,2.9909,-2.78567,-3.28119e-14,-8.74653e-15,-33.8313,8.94973,-91.3017,22.7056,36.223,-12.9638,-30.4298,7.12502,13.1281,-59.9965,-3.28119e-14,-8.74653e-15,-38.2985,7.04546,81.8222,25.9195,-15.4375,-23.1526,8.95199,7.12502,3.29575,38.9063,-6.47875,2.44081,21.8297,24.5501,-18.59,1.87787,-10.2738,-10.1604,1.50732,-19.4008,29.9525,-14.9614,-3.21132,-24.6293
-11.9621,18.0048,2.95932,165.678,-79.4125,-164.765,4.07583,-0.0570109,2.6317,-2.14839,0.0370289,-0.889658,-4.50703,-0.078212,-2.40075,3.31534,4.04144,5.86371,-2.63508,5.50714,-4.9983,-1.08757,2.77799,-2.7043,-2.80783e-14,1.03368e-14,-34.0178,8.36115,-90.9143,22.4028,36.5075,-12.7475,-30.443,7.12502,13.3366,-59.9962,-2.80783e-14,1.03368e-14,-38.4851,7.91541,81.1075,25.2073,-16.241,-22.9875,9.01287,7.12502,3.45517,38.9646,-6.37522,2.56476,22.1468,24.4096,-18.4821,1.76879,-10.1089,-10.1945,1.43245,-19.1029,30.0854,-14.988,-3.23488,-24.019
-11.9667,18.0024,2.95139,163.947,-79.3121,-163.045,4.1708,-0.0269503,2.94167,-2.22614,0.102279,-0.813796,-4.63866,-0.0572768,-2.50238,3.81836,3.91959,5.95995,-3.17777,5.3661,-4.93874,-1.35874,2.70719,-2.73051,2.01269e-15,6.36111e-15,-34.2785,7.8143,-90.5506,22.1118,36.8071,-12.6586,-30.4951,7.12502,13.4223,-60.0426,2.01269e-15,6.36111e-15,-38.7859,8.71621,80.3719,24.4946,-16.9411,-22.8821,9.1291,7.12502,3.55698,39.0792,-6.22603,2.73724,22.571,24.2258,-18.3948,1.5796,-10.4484,-10.2169,1.35488,-18.7027,30.2674,-15.0908,-3.30577,-22.9724
-11.9701,18.0018,2.94023,162.638,-79.1966,-161.769,4.22865,0.0152698,3.12173,-2.2623,0.175011,-0.742929,-4.70479,-0.0272934,-2.53648,4.0651,3.97571,6.06691,-3.4537,5.45895,-4.83835,-1.4863,2.75059,-2.73295,1.27719e-14,-3.18055e-15,-34.4795,7.13673,-90.118,21.8118,37.2639,-12.7381,-30.4389,7.12502,13.3456,-59.9915,1.27719e-14,-3.18055e-15,-39.0974,9.65852,79.5471,23.844,-17.7294,-22.8186,9.17594,7.12502,3.6183,39.125,-6.06912,3.05234,22.9413,24.0565,-18.3191,1.26795,-10.9101,-10.2218,1.28954,-18.3734,30.4387,-15.2273,-3.2959,-22.4568
-11.9679,18.0014,2.92912,161.909,-79.1391,-161.092,4.30735,0.0599357,3.16152,-2.25734,0.241767,-0.702465,-4.73997,0.00482086,-2.5228,4.27534,4.0328,6.14516,-3.7766,5.55202,-4.68315,-1.6251,2.79165,-2.7124,-1.92076e-14,1.19271e-15,-34.5942,6.49138,-89.6825,21.5142,37.6947,-12.5989,-30.4047,7.12502,13.4798,-59.9484,-1.92076e-14,1.19271e-15,-39.2979,10.8244,78.5933,23.1247,-18.6971,-22.7243,9.35196,7.12502,3.70936,39.2994,-5.97627,3.37124,23.1816,23.959,-18.1508,1.01237,-10.7247,-10.2156,1.2653,-18.1805,30.5416,-15.3041,-3.22241,-22.6495
-11.9682,17.9999,2.92175,161.702,-79.212,-160.921,4.37886,0.0978731,3.15047,-2.29832,0.293597,-0.719304,-4.81993,0.028502,-2.53911,4.5348,4.06567,6.30126,-4.11035,5.61982,-4.57705,-1.77556,2.81945,-2.72474,1.82882e-14,-1.07344e-14,-34.785,5.85118,-89.2537,21.2164,38.0623,-12.0326,-30.5724,7.12502,14.0256,-60.0792,1.82882e-14,-1.07344e-14,-39.5228,11.9809,77.5893,22.3186,-19.6874,-22.7619,9.41684,7.12502,3.67304,39.3649,-5.93474,3.46454,23.2405,23.9706,-18.0754,0.843525,-10.579,-10.1936,1.21292,-18.1529,30.5497,-15.3084,-3.22106,-22.7507
-11.9775,17.9967,2.91742,162.124,-79.4533,-161.396,4.3547,0.124881,3.0592,-2.35019,0.319299,-0.800248,-4.85846,0.0411312,-2.57413,4.69411,4.06871,6.45154,-4.24666,5.64601,-4.47977,-1.84633,2.82742,-2.72957,3.57812e-15,7.95139e-16,-35.0371,5.06502,-88.7662,20.8427,38.6627,-11.0958,-30.9022,7.12502,14.9282,-60.3443,3.57812e-15,7.95139e-16,-39.8383,13.1738,76.5083,21.5225,-20.8844,-22.7759,9.47383,7.12502,3.65954,39.4222,-5.84542,3.2839,23.073,24.0543,-18.2087,0.808185,-10.1515,-10.1027,1.06925,-18.3338,30.5009,-15.264,-3.28289,-22.7045
-11.9903,17.9941,2.91491,163.189,-79.7722,-162.557,4.23803,0.161635,2.86806,-2.33512,0.347059,-0.91591,-4.77428,0.060612,-2.58798,4.7495,4.05973,6.40025,-4.30834,5.6469,-4.19087,-1.88478,2.82066,-2.62741,1.6524e-14,2.38542e-15,-35.2286,4.19915,-88.2119,20.502,39.3618,-10.9567,-30.8091,7.12502,15.0622,-60.2411,1.6524e-14,2.38542e-15,-40.1128,14.4237,75.3978,20.7148,-22.2428,-22.6595,9.64822,7.12502,3.77189,39.5946,-5.73208,2.94656,22.7264,24.1604,-18.6816,0.883705,-9.60952,-9.96213,0.935599,-18.6788,30.443,-15.2574,-3.29759,-23.1059
-11.9984,17.9928,2.91287,163.307,-79.9939,-162.726,4.11825,0.218585,2.88401,-2.31725,0.417978,-0.971813,-4.68239,0.096107,-2.65957,4.81813,4.0641,6.25748,-4.42819,5.66531,-3.78532,-1.94873,2.8199,-2.47282,9.44227e-15,8.74653e-15,-35.4224,3.52552,-87.7391,20.303,39.6181,-11.9541,-30.2811,7.12502,14.1012,-59.7827,9.44227e-15,8.74653e-15,-40.3632,15.6343,74.307,19.9257,-23.5467,-22.8274,9.44339,7.12502,3.60974,39.3926,-5.70292,2.63171,22.6051,24.2843,-19.7384,0.872256,-10.0313,-9.88444,0.867798,-18.7935,30.3907,-15.2496,-3.30721,-23.4281
-12.0002,17.9897,2.90786,162.342,-80.1136,-161.768,4.07347,0.267967,3.06254,-2.33024,0.494025,-0.962768,-4.66459,0.128481,-2.7564,4.83125,4.10574,6.26324,-4.4857,5.73286,-3.55277,-1.97185,2.84604,-2.40013,-2.17669e-14,-1.74931e-14,-35.5898,3.09288,-87.4069,20.0865,39.8076,-12.4843,-29.9744,7.12502,13.5903,-59.5108,-2.17669e-14,-1.74931e-14,-40.6591,16.781,73.2428,19.2836,-24.5341,-23.3066,8.95282,7.12502,3.147,38.9093,-5.70675,2.50374,22.7553,24.4149,-18.6502,0.778347,-12.6803,-9.85239,0.766301,-18.6439,30.3516,-15.1675,-3.43624,-22.638
-12.0012,17.986,2.89801,162.314,-80.2435,-161.816,4.1294,0.293201,2.98128,-2.33459,0.523648,-0.981989,-4.69912,0.14475,-2.73363,4.82077,4.15278,6.39866,-4.49305,5.80722,-3.49031,-1.96661,2.87867,-2.40494,1.66731e-14,-7.95139e-16,-35.6442,2.6415,-87.1052,19.7694,40.3607,-12.2472,-29.9449,7.12502,13.8187,-59.4659,1.66731e-14,-7.95139e-16,-40.9578,17.7665,72.2749,18.7301,-25.0473,-23.761,8.7098,7.12502,2.70816,38.6724,-5.60291,2.53265,22.7475,24.4883,-17.6426,0.328248,-18.5163,-9.77736,0.687758,-18.665,30.3732,-15.142,-3.52315,-22.3197
-12.0054,17.9846,2.88835,162.97,-80.4922,-162.583,4.17835,0.273603,2.75336,-2.35802,0.482313,-1.02984,-4.75499,0.129216,-2.65242,5.0099,4.13416,6.51361,-4.5895,5.80397,-3.45199,-2.03119,2.87341,-2.42246,-2.20403e-14,-1.59028e-14,-35.693,2.12263,-86.79,19.3966,41.0123,-11.6896,-29.9461,7.12502,14.3561,-59.4297,-2.20403e-14,-1.59028e-14,-41.2925,18.5722,71.4119,18.2242,-25.3223,-24.0231,8.95693,7.12502,2.45503,38.9226,-5.44448,2.37697,22.5572,24.5041,-17.7283,0.30135,-18.5108,-9.7026,0.618852,-18.8684,30.4511,-15.2052,-3.49903,-23.1169
-12.0052,17.9851,2.88155,162.067,-80.7126,-161.664,4.12536,0.272895,2.87807,-2.41928,0.488145,-1.01527,-4.78797,0.126679,-2.70788,5.27353,4.05837,6.51776,-4.73098,5.72467,-3.35511,-2.13284,2.82999,-2.40317,1.40889e-14,2.06736e-14,-35.7824,1.37755,-86.3429,19.0353,41.9357,-10.9775,-29.7428,7.12502,15.0421,-59.1764,1.40889e-14,2.06736e-14,-41.6089,19.1892,70.6831,17.8091,-25.7146,-23.981,9.38771,7.12502,2.49573,39.3529,-5.43752,2.18851,22.6683,24.5224,-17.7199,0.237106,-18.4205,-9.76942,0.497933,-18.773,30.5225,-15.2149,-3.47386,-23.7432
-11.9975,17.9856,2.87119,160.316,-80.7603,-159.865,4.10786,0.348573,3.16168,-2.44644,0.60953,-0.95142,-4.79686,0.178271,-2.81103,5.31516,3.98178,6.47782,-4.80848,5.62623,-3.26689,-2.17464,2.77776,-2.36826,8.67198e-15,-3.18055e-15,-35.7904,0.471232,-85.8268,18.7557,43.0496,-11.0733,-29.4072,7.12502,14.9499,-58.8476,8.67198e-15,-3.18055e-15,-41.8041,19.7121,70.093,17.5216,-26.2955,-23.8265,9.55171,7.12502,2.64491,39.5151,-5.49166,2.41133,23.0428,24.5394,-17.587,-0.103206,-18.1907,-9.88571,0.447441,-18.4405,30.5798,-15.1599,-3.45005,-24.1935
-11.9935,17.9847,2.8593,160.086,-80.9326,-159.705,4.19156,0.390549,3.10944,-2.44165,0.665467,-0.946405,-4.8359,0.207273,-2.78198,5.27058,3.9069,6.36954,-4.81982,5.52022,-3.1679,-2.18076,2.72343,-2.31235,-3.32964e-15,-1.43125e-14,-35.7577,-0.0724708,-85.5086,18.5552,43.6431,-12.0497,-29.2951,7.12502,14.0091,-58.803,-3.32964e-15,-1.43125e-14,-41.9588,20.0536,69.7091,17.405,-26.62,-23.7269,9.73316,7.12502,2.74115,39.6953,-5.4034,2.58051,23.0878,24.523,-17.4999,-0.398984,-17.9738,-9.88589,0.388879,-18.4335,30.6475,-15.1391,-3.45784,-24.5396
-11.9964,17.9822,2.85092,160.53,-81.2866,-160.254,4.25273,0.356727,2.93192,-2.47069,0.609046,-0.983471,-4.9059,0.182641,-2.71701,5.35228,3.83951,6.15613,-4.80831,5.43105,-2.95291,-2.20633,2.677,-2.20368,-5.61567e-15,-4.77083e-15,-35.8014,-0.343817,-85.3363,18.4074,43.8648,-12.7417,-29.3324,7.12502,13.3422,-58.8853,-5.61567e-15,-4.77083e-15,-42.1204,20.0212,69.5775,17.4165,-26.3976,-23.3759,10.1836,7.12502,3.08007,40.1411,-5.23732,2.35027,22.8907,24.478,-17.5201,-0.44515,-17.8779,-9.82722,0.246835,-18.6392,30.7193,-15.1481,-3.53579,-24.618
-11.9985,17.978,2.8402,160.045,-81.5128,-159.873,4.30654,0.32773,2.89521,-2.47744,0.571112,-0.951727,-4.9467,0.164845,-2.66089,5.39206,3.80559,5.92477,-4.80514,5.38262,-2.73093,-2.22515,2.65055,-2.08957,-3.17559e-14,-8.74653e-15,-35.7864,-0.471787,-85.2491,18.3043,44.0562,-13.259,-29.2772,7.12502,12.8435,-58.862,-3.17559e-14,-8.74653e-15,-42.2094,19.6977,69.7403,17.6231,-25.6513,-22.8068,10.6094,7.12502,3.62965,40.5583,-5.05733,2.25664,22.9108,24.4331,-17.548,-0.584725,-18.0787,-9.74359,0.124188,-18.6382,30.7788,-15.155,-3.61902,-24.5029
-11.9971,17.9738,2.82797,158.454,-81.5967,-158.392,4.40735,0.308636,3.03373,-2.44098,0.562838,-0.851191,-4.96663,0.15842,-2.63452,5.29593,3.76971,5.76012,-4.78443,5.32052,-2.65437,-2.20893,2.62029,-2.02988,-4.52235e-15,3.18055e-15,-35.6793,-0.353301,-85.2826,18.2847,44.0797,-14.068,-29.0822,7.12502,12.0635,-58.7145,-4.52235e-15,3.18055e-15,-42.2257,19.0313,70.274,18.0751,-24.4123,-22.4994,10.7984,7.12502,3.92651,40.742,-4.87636,2.35851,23.1799,24.3907,-17.532,-0.926539,-18.9457,-9.6578,-0.00028409,-18.407,30.8414,-15.1804,-3.63383,-24.6266
-11.9945,17.9706,2.82087,156.916,-81.7591,-156.914,4.51824,0.274362,3.22813,-2.45154,0.53653,-0.793886,-5.0422,0.138404,-2.68346,5.20257,3.71275,5.67598,-4.69514,5.232,-2.6731,-2.16782,2.5795,-2.01346,-1.85367e-14,3.97569e-16,-35.674,-0.193926,-85.3659,18.464,43.8445,-14.6367,-28.9437,7.12502,11.5151,-58.6074,-1.85367e-14,3.97569e-16,-42.2165,17.9706,71.0698,18.6761,-22.8761,-22.4716,10.7104,7.12502,3.95339,40.6534,-4.7664,2.22125,23.3571,24.3625,-17.5289,-1.03892,-19.0152,-9.64017,-0.1824,-18.2366,30.9007,-15.1494,-3.68446,-24.5464
-11.9917,17.9675,2.81725,156.729,-82.1067,-156.746,4.53957,0.224349,3.22707,-2.45662,0.468474,-0.833436,-5.06426,0.103465,-2.7184,5.14487,3.64763,5.67542,-4.63743,5.13688,-2.76908,-2.1406,2.53577,-2.03909,1.32192e-14,2.38542e-15,-35.6476,0.104584,-85.5885,18.7948,43.2766,-14.8851,-29.1075,7.12502,11.2756,-58.7845,1.32192e-14,2.38542e-15,-42.1292,16.7161,72.0024,19.4327,-21.2258,-22.436,10.5738,7.12502,3.98772,40.5163,-4.73735,1.83637,23.2051,24.3918,-17.5809,-0.839393,-17.6074,-9.67576,-0.40171,-18.3622,30.9246,-15.0509,-3.80492,-24.1565
-11.9883,17.9658,2.81553,157.321,-82.5731,-157.363,4.49791,0.152619,3.10194,-2.40927,0.359165,-0.907515,-4.99862,0.0541544,-2.7148,5.07586,3.56491,5.68601,-4.64828,5.01463,-2.93134,-2.13377,2.47906,-2.08929,-3.35449e-15,1.39149e-14,-35.5073,0.673573,-85.9541,19.1546,42.5167,-15.0178,-29.3554,7.12502,11.1476,-59.0393,-3.35449e-15,1.39149e-14,-41.967,15.5016,72.9765,20.2665,-19.5982,-22.4026,10.48,7.12502,4.01998,40.4218,-4.73768,1.36443,22.8854,24.507,-17.7011,-0.813413,-18.5286,-9.69754,-0.668232,-18.6609,30.9017,-14.985,-3.85045,-24.299
-11.9805,17.9656,2.81371,157.477,-83.0181,-157.508,4.51979,0.0856444,3.01772,-2.41292,0.263445,-0.933578,-5.02161,0.00854987,-2.68639,5.05292,3.46155,5.58371,-4.65642,4.86257,-3.03246,-2.13955,2.408,-2.10012,-8.4732e-15,7.95139e-16,-35.4893,1.35049,-86.3057,19.6849,41.6609,-15.0739,-29.3527,7.12502,11.0935,-59.0395,-8.4732e-15,7.95139e-16,-41.8222,14.2716,74.0136,21.1096,-18.0643,-22.45,10.3552,7.12502,3.97422,40.2978,-4.80203,0.961761,22.664,24.638,-17.8005,-0.813074,-18.5089,-9.77845,-0.969162,-18.8774,30.8903,-14.9119,-3.90788,-24.3451
-11.9688,17.9658,2.80907,156.914,-83.3838,-156.89,4.55197,0.028797,2.97534,-2.43452,0.186944,-0.906529,-5.06786,-0.0286042,-2.62801,5.10205,3.36525,5.42479,-4.70275,4.72272,-3.07202,-2.17277,2.34211,-2.08408,-2.76062e-14,-6.36111e-15,-35.5145,2.01151,-86.6082,20.4243,40.8557,-14.9969,-29.1139,7.12502,11.1678,-58.7967,-2.76062e-14,-6.36111e-15,-41.7065,12.9477,75.1317,22.0902,-16.5077,-22.542,10.33,7.12502,3.88542,40.2743,-4.90393,0.740135,22.6029,24.7004,-17.7923,-0.931084,-18.435,-9.95852,-1.16774,-18.938,30.9552,-14.8002,-4.0746,-24.2254
-11.9545,17.9655,2.79638,154.353,-83.4555,-154.295,4.633,0.0102701,3.12464,-2.41555,0.181699,-0.770569,-5.09491,-0.0337256,-2.57051,4.99937,3.2744,5.31927,-4.63778,4.5834,-3.17145,-2.13921,2.27787,-2.0897,6.08778e-15,-8.74653e-15,-35.4395,2.61035,-86.8894,21.2856,40.1523,-14.7661,-28.9014,7.12502,11.3904,-58.5721,6.08778e-15,-8.74653e-15,-41.5505,11.7177,76.1905,23.1754,-15.0015,-22.5708,10.4835,7.12502,3.85759,40.4283,-4.96796,0.980215,22.9744,24.7074,-17.6644,-1.30521,-18.1463,-10.1411,-1.14395,-18.5923,31.0832,-14.7069,-4.26394,-24.5032
-11.9372,17.9643,2.77634,151.226,-83.2681,-151.17,4.82326,0.0350108,3.3176,-2.41108,0.244834,-0.565631,-5.19498,-0.00682263,-2.47268,4.80215,3.19049,5.27102,-4.40703,4.45162,-3.33218,-2.03154,2.2193,-2.11923,-2.38542e-15,1.59028e-15,-35.4199,3.5864,-87.37,22.292,38.9066,-14.6736,-28.912,7.12502,11.4795,-58.5777,-2.38542e-15,1.59028e-15,-41.4526,10.5193,77.2056,24.3629,-13.5214,-22.4887,10.7797,7.12502,3.93687,40.7231,-5.01288,1.5785,23.5956,24.7182,-17.4677,-1.86491,-17.9402,-10.2777,-0.998182,-18.0177,31.2138,-14.6346,-4.49476,-24.5536
-11.9228,17.9626,2.76246,149.917,-83.3407,-149.934,5.0525,0.0372893,3.27902,-2.42131,0.25849,-0.469323,-5.33588,0.000511585,-2.35351,4.77636,3.106,5.2237,-4.17496,4.33097,-3.45608,-1.95522,2.16589,-2.14248,-2.26118e-15,1.98785e-15,-35.535,5.04987,-88.0826,23.4591,36.7128,-14.797,-29.2868,7.12502,11.3606,-58.9591,-2.26118e-15,1.98785e-15,-41.4831,9.11823,78.3148,25.6908,-11.9216,-22.529,10.987,7.12502,3.89797,40.9311,-4.98051,1.77464,23.7946,24.7695,-17.3865,-2.17987,-17.8601,-10.3239,-0.997096,-17.8244,31.3137,-14.5618,-4.78632,-24.3151
-11.9099,17.9594,2.7574,149.817,-83.7789,-149.973,5.31385,0.00285963,3.09774,-2.3917,0.206259,-0.514467,-5.45723,-0.0211173,-2.29502,4.76948,2.98054,5.21052,-3.90445,4.15894,-3.60003,-1.87175,2.08692,-2.17715,1.49089e-15,8.34896e-15,-35.6654,6.29712,-88.7224,24.8617,34.2237,-14.9663,-29.6847,7.12502,11.1973,-59.3659,1.49089e-15,8.34896e-15,-41.4833,7.52165,79.5129,27.1173,-10.3185,-22.6367,11.1466,7.12502,3.79393,41.0926,-4.88553,1.45742,23.5556,24.8791,-17.4916,-2.22673,-17.9112,-10.3079,-1.19948,-18.0307,31.3926,-14.441,-5.08232,-24.379
-11.892,17.9558,2.75325,149.232,-84.2677,-149.511,5.58913,-0.0814902,2.97802,-2.28791,0.0896082,-0.587211,-5.51253,-0.0749439,-2.2928,4.59123,2.85483,5.16544,-3.54634,3.98033,-3.68644,-1.73106,2.00266,-2.18067,1.76421e-15,-4.77083e-15,-35.6783,7.32616,-89.2859,26.5996,32.0483,-14.9831,-29.7736,7.12502,11.181,-59.4557,1.76421e-15,-4.77083e-15,-41.3659,5.82911,80.7107,28.6254,-8.65918,-22.868,11.2127,7.12502,3.57055,41.1625,-4.86986,1.09374,23.3228,25.0986,-17.6189,-2.20807,-17.3041,-10.3113,-1.46738,-18.2307,31.448,-14.2845,-5.34909,-24.4385
-11.866,17.952,2.74546,146.182,-84.496,-146.533,5.89359,-0.172963,3.14826,-2.10552,-0.00891485,-0.572374,-5.50164,-0.126124,-2.36359,4.22369,2.76619,5.03662,-3.11394,3.84432,-3.6394,-1.53446,1.93625,-2.12045,-6.42323e-15,3.97569e-16,-35.5328,8.45543,-89.8659,28.6183,30.0078,-15.0912,-30.0966,7.12502,11.0768,-59.7843,-6.42323e-15,3.97569e-16,-41.0963,4.31764,81.7212,30.1425,-7.5275,-23.417,10.3384,7.12502,3.04041,40.2965,-4.99561,0.988109,23.4974,25.4393,-17.8404,-2.39385,-17.2812,-10.3901,-1.75636,-18.0419,31.5294,-14.1803,-5.53658,-24.002
-11.8289,17.9459,2.73379,144.135,-84.6618,-144.54,6.33553,-0.229291,3.21221,-1.91492,-0.0657641,-0.58859,-5.55761,-0.154561,-2.41122,3.53093,2.80734,5.01647,-2.34454,3.87826,-3.5792,-1.16509,1.95283,-2.06515,3.41661e-15,9.93923e-15,-35.3239,9.53846,-90.4561,30.8133,27.8123,-15.4163,-30.6804,7.12502,10.7633,-60.3846,3.41661e-15,9.93923e-15,-40.798,3.05521,82.5073,31.7047,-7.03565,-23.5952,9.42124,7.12502,2.86835,39.3817,-5.24478,1.12963,23.6356,25.8703,-17.9801,-2.66996,-16.8984,-10.5823,-2.07709,-17.9192,31.714,-14.1572,-5.56957,-23.7423
-11.7807,17.937,2.71702,144.461,-84.9345,-144.907,6.91927,-0.259406,2.95876,-1.7544,-0.114312,-0.661511,-5.72373,-0.171451,-2.34009,2.87078,3.06499,5.34663,-1.46249,4.20923,-3.90194,-0.743451,2.12117,-2.20156,-6.07536e-15,8.74653e-15,-35.1368,10.4782,-90.9934,33.1882,25.5433,-15.8722,-31.071,7.12502,10.3235,-60.7976,-6.07536e-15,8.74653e-15,-40.6067,1.64294,83.3687,33.4083,-6.08167,-23.3418,9.53369,7.12502,3.11299,39.4907,-5.61543,1.51395,23.5464,26.4279,-18.0689,-3.11705,-16.0268,-10.8904,-2.45092,-18.0704,32.0134,-14.1978,-5.37405,-24.0988
-11.7236,17.9252,2.70098,143.297,-85.1657,-143.688,7.483,-0.310341,2.87285,-1.56537,-0.176694,-0.689918,-5.84963,-0.199321,-2.31445,2.7205,3.05886,5.34844,-1.1021,4.19706,-4.01443,-0.602251,2.11715,-2.22911,8.07563e-16,-3.18055e-15,-34.8256,11.481,-91.4594,35.6465,23.3094,-16.6744,-31.476,7.12502,9.54955,-61.2396,8.07563e-16,-3.18055e-15,-40.4467,0.140448,84.2724,35.3101,-4.82318,-23.3357,9.38765,7.12502,3.11889,39.3446,-6.21419,1.92076,23.6171,27.1945,-18.1948,-3.73435,-15.7085,-11.3873,-2.87519,-18.0783,32.406,-14.2194,-5.06646,-24.8182
-11.6561,17.9107,2.68912,141.631,-85.4394,-141.89,8.08696,-0.420947,2.88739,-1.32788,-0.311587,-0.75161,-5.95235,-0.266352,-2.37001,2.91227,2.98257,5.38528,-1.35907,4.09945,-4.14449,-0.718311,2.06987,-2.28675,5.90142e-16,7.95139e-16,-34.2979,12.5903,-91.9109,38.1023,21.3935,-17.4953,-32.008,7.12502,8.75737,-61.8063,5.90142e-16,7.95139e-16,-40.2532,-1.148,84.999,37.3159,-3.80724,-23.4145,8.93912,7.12502,3.04276,38.8972,-7.04415,2.21888,23.6644,28.1762,-18.3811,-4.33113,-15.1343,-12.067,-3.28234,-18.0987,32.9145,-14.1491,-4.83764,-25.313
-11.5748,17.8935,2.67119,141.335,-85.6207,-141.472,8.81436,-0.478056,2.80287,-0.968802,-0.386568,-0.835789,-5.99186,-0.299117,-2.39967,3.05162,2.94479,5.38485,-1.90596,4.04653,-4.15498,-0.918216,2.04172,-2.30261,3.90115e-15,1.70955e-14,-33.4138,13.5746,-92.2038,40.4837,20.2045,-17.887,-32.3717,7.12502,8.37943,-62.1855,3.90115e-15,1.70955e-14,-39.8333,-2.3471,85.6165,39.2558,-2.97834,-23.3906,8.84374,7.12502,3.06588,38.8014,-8.05089,2.76796,23.7082,29.3396,-18.5981,-4.97769,-13.507,-12.8475,-3.62724,-18.1267,33.5832,-14.1256,-4.59335,-25.5884
-11.4848,17.8702,2.64762,140.774,-85.6814,-140.793,9.57576,-0.474719,2.77891,-0.473043,-0.378541,-0.913756,-5.90023,-0.290673,-2.46801,2.94071,2.91754,5.39188,-2.5126,3.99607,-4.09322,-1.0952,2.01051,-2.29147,-1.39149e-15,-3.57812e-15,-32.1867,14.3302,-92.3087,42.7073,19.7191,-18.2727,-32.3102,7.12502,8.00713,-62.1385,-1.39149e-15,-3.57812e-15,-39.2211,-3.63081,86.1861,41.2493,-2.18626,-23.1851,9.19479,7.12502,3.26436,39.1495,-9.23263,3.38445,23.8656,30.7235,-18.7787,-5.56657,-11.9262,-13.7285,-3.97606,-18.0198,34.3988,-14.2498,-4.296,-26.1756
-11.3896,17.8374,2.62295,139.8,-85.7268,-139.686,10.4806,-0.495426,2.81724,0.0170971,-0.395396,-0.997718,-5.89583,-0.299245,-2.57435,2.72622,2.94614,5.48591,-3.08181,4.01825,-4.04427,-1.23728,2.01322,-2.29811,-1.2424e-15,-7.95139e-16,-30.997,14.9864,-92.4068,44.9234,19.4353,-19.0311,-31.6975,7.12502,7.27509,-61.5524,-1.2424e-15,-7.95139e-16,-38.7912,-4.89155,86.6902,43.4708,-1.30236,-23.0186,9.57705,7.12502,3.42512,39.5293,-10.5488,3.82083,24.0422,32.3208,-18.8865,-6.04431,-11.3276,-14.7133,-4.30746,-17.8537,35.341,-14.4306,-4.10969,-26.2022
-11.2847,17.7935,2.59233,141.183,-85.8029,-140.897,11.5838,-0.502399,2.63502,0.461371,-0.422299,-1.10761,-6.04758,-0.311285,-2.58172,2.5078,3.08152,5.57519,-3.76091,4.17964,-3.99533,-1.40728,2.08312,-2.30785,-2.03754e-15,-4.77083e-15,-29.9272,15.5955,-92.512,47.1656,19.0427,-19.4854,-31.2653,7.12502,6.83658,-61.1349,-2.03754e-15,-4.77083e-15,-38.5496,-6.01278,87.0976,45.7193,-0.729952,-23.1767,9.30484,7.12502,3.27244,39.2595,-12.026,4.17692,24.0588,34.0788,-18.8083,-6.44493,-11.781,-15.8187,-4.49126,-17.817,36.385,-14.6019,-4.0152,-25.3135
-11.1705,17.743,2.55354,144.095,-86.0003,-143.626,12.7533,-0.490593,2.23389,0.955983,-0.465505,-1.23837,-6.17847,-0.327293,-2.48381,2.38939,3.07188,5.44116,-4.61327,4.14311,-3.85272,-1.66747,2.05326,-2.25115,2.38542e-15,1.19271e-14,-28.6885,16.0937,-92.5127,49.153,18.6285,-19.7683,-31.1751,7.12502,6.56353,-61.0534,2.38542e-15,1.19271e-14,-38.1766,-7.07069,87.4317,47.7344,-0.662283,-23.7474,8.76498,7.12502,2.7213,38.7274,-13.629,4.40783,23.9192,35.9319,-19.0671,-6.81554,-12.2638,-17.005,-4.56562,-17.9222,37.4751,-14.7333,-3.96278,-24.8066
-11.052,17.6893,2.51136,147.048,-86.3632,-146.465,13.9241,-0.484393,1.78347,1.57668,-0.5402,-1.35659,-6.17201,-0.358641,-2.33746,2.27684,3.06151,5.38102,-5.76121,4.09164,-3.90485,-2.02379,2.01405,-2.27945,4.37326e-15,2.38542e-15,-27.1628,16.6304,-92.3221,50.7299,18.2348,-20.6264,-30.6167,7.12502,5.73504,-60.5191,4.37326e-15,2.38542e-15,-37.5714,-8.13371,87.7972,49.5317,-0.712204,-24.4351,8.24003,7.12502,2.0571,38.2099,-15.186,4.49065,23.6937,37.7937,-19.3742,-7.06454,-11.298,-18.1696,-4.64046,-18.1143,38.5951,-14.8088,-3.98054,-25.6222
-10.9306,17.6341,2.46643,150.895,-86.8692,-150.275,15.2067,-0.49419,1.28236,2.22212,-0.659301,-1.46395,-6.19538,-0.415287,-2.13999,2.24322,3.06539,5.33315,-7.00654,4.05088,-4.05614,-2.4295,1.98071,-2.34909,-1.39149e-15,-1.82882e-14,-25.6316,17.1834,-92.0498,51.9643,18.018,-21.5792,-30.0145,7.12502,4.81512,-59.9398,-1.39149e-15,-1.82882e-14,-36.9924,-9.21862,88.2626,51.1461,-0.777183,-24.8143,7.70625,7.12502,1.69094,37.6793,-16.571,4.43972,23.3724,39.5511,-19.6984,-7.31868,-10.8879,-19.3219,-4.76475,-18.4002,39.781,-14.8583,-4.09323,-26.6877
-10.8069,17.5748,2.41883,153.571,-87.4561,-152.884,16.5837,-0.56267,0.895266,2.79843,-0.848533,-1.54242,-6.33848,-0.512466,-1.9583,1.94471,2.92034,5.3582,-7.83313,3.79463,-4.33103,-2.66029,1.84412,-2.45254,-1.19271e-15,-1.82882e-14,-24.2215,17.6087,-91.8216,52.8586,18.1099,-22.4386,-29.8621,7.12502,3.98519,-59.8045,-1.19271e-15,-1.82882e-14,-36.4559,-10.2739,88.7738,52.4866,-0.966658,-25.0599,7.76345,7.12502,1.45369,37.7382,-17.8601,4.17144,23.1071,41.1306,-20.0507,-7.51722,-11.4532,-20.6191,-5.0305,-18.5947,41.0858,-14.7925,-4.43397,-25.7383
-10.6846,17.5089,2.37053,148.636,-88.0646,-147.814,17.9266,-0.71361,0.839633,3.28827,-1.0848,-1.51905,-6.5497,-0.638792,-1.84049,1.53482,2.6305,5.56994,-8.30313,3.32745,-4.92119,-2.75952,1.61002,-2.68171,-1.59028e-15,0,-23.0521,17.842,-91.5961,53.4472,18.6098,-23.5023,-29.9063,7.12502,2.95805,-59.8656,-1.59028e-15,0,-35.9268,-11.2484,89.3208,53.4936,-0.962964,-25.1636,8.35838,7.12502,1.3536,38.3338,-19.1043,3.7292,23.1154,42.5432,-20.3315,-7.82206,-13.2899,-22.115,-5.41329,-18.4823,42.5588,-14.5862,-4.96223,-23.3867
-10.5626,17.4384,2.3179,128.696,-88.4687,-127.707,19.2688,-0.897569,1.04313,3.62535,-1.29475,-1.33882,-6.91585,-0.754599,-1.70079,1.78085,2.58273,5.60081,-9.02703,3.21388,-5.36582,-3.05401,1.55962,-2.86235,-1.59028e-15,-2.78299e-15,-22.3992,17.9228,-91.392,53.8314,19.3989,-24.4358,-30.0372,7.12502,2.05644,-60.0071,-1.59028e-15,-2.78299e-15,-35.6348,-12.2385,89.991,54.2337,-0.66038,-25.2815,8.58201,7.12502,1.23965,38.5582,-20.289,3.33178,23.4831,43.8087,-21.385,-7.94932,-11.1377,-23.757,-5.70318,-18.009,44.2341,-14.4681,-5.51027,-22.1886
-10.4425,17.3608,2.26384,98.959,-88.4058,-97.7942,20.5444,-1.06159,1.46531,4.17543,-1.43219,-1.09045,-7.00635,-0.841384,-1.62546,1.27535,2.77923,5.30733,-9.71788,3.39784,-5.40761,-3.18599,1.64399,-2.8306,6.55989e-15,0,-21.4111,17.9155,-90.9987,53.9482,19.9966,-25.0278,-30.2835,7.12502,1.48473,-60.2581,6.55989e-15,0,-34.7159,-13.4473,90.5948,54.6915,-0.302198,-25.3247,8.45104,7.12502,1.198,38.4274,-21.4667,2.87997,24.0736,44.9916,-20.5414,-9.13478,-20.4243,-25.5046,-5.8204,-17.3363,46.1201,-14.3995,-6.14346,-22.0759
-10.3303,17.2789,2.2165,77.0103,-87.7161,-75.5768,21.6322,-1.29471,2.28344,4.64274,-1.55517,-0.786223,-7.08458,-0.926104,-1.71729,1.1682,2.83306,5.05845,-10.618,3.40313,-5.45619,-3.47906,1.64179,-2.82362,-1.39149e-14,-1.55052e-14,-20.685,17.827,-90.653,53.7666,20.273,-25.445,-30.6404,7.12502,1.08181,-60.6174,-1.39149e-14,-1.55052e-14,-33.7803,-14.7587,91.2302,55.0848,-0.0956893,-25.0939,9.15463,7.12502,1.42088,39.1296,-22.7447,2.20225,24.9447,46.1595,-20.4068,-9.67235,-23.7782,-27.4414,-5.90197,-16.3947,48.1603,-14.2023,-6.90445,-21.7147
-10.2164,17.1922,2.17185,65.6841,-86.5705,-63.6232,22.4152,-1.59776,3.43792,4.93602,-1.66194,-0.387023,-7.19136,-1.00383,-1.90233,1.12202,2.7661,4.90606,-11.4166,3.23757,-5.67334,-3.76003,1.56024,-2.88835,1.98785e-14,2.50469e-14,-20.1434,17.5902,-90.244,53.1943,20.23,-25.6762,-30.8142,7.12502,0.85845,-60.7922,1.98785e-14,2.50469e-14,-32.8308,-16.2461,91.9916,55.4871,-0.0204909,-24.9221,10.5492,7.12502,1.58681,40.523,-24.4249,1.43086,26.0631,47.2834,-20.5078,-9.99507,-24.2918,-29.9024,-6.07618,-15.1498,50.2161,-13.7318,-7.76048,-20.4651
-10.0916,17.103,2.12397,56.6849,-85.2928,-53.5365,22.7803,-1.99606,4.50607,5.07864,-1.89611,0.0294278,-7.25068,-1.13563,-1.98533,0.868273,2.72934,4.72934,-11.9887,3.10635,-5.904,-3.92133,1.49776,-2.94202,4.17448e-15,1.98785e-14,-19.7555,17.2759,-89.8178,52.2926,20.1273,-25.6926,-31.0052,7.12502,0.842624,-60.9832,4.17448e-15,1.98785e-14,-31.7952,-17.629,92.656,55.8378,-0.0851336,-24.8788,10.8801,7.12502,1.62863,40.8536,-26.7053,0.551712,27.0465,48.3688,-20.6751,-10.0977,-22.2387,-32.9757,-6.49072,-13.9722,52.1598,-12.8873,-8.60838,-18.6735
-9.99061,17.041,2.08886,52.7963,-84.4876,-48.8647,23.2486,-2.24817,5.25469,5.29052,-2.02321,0.311232,-7.27656,-1.2127,-2.05879,0.760445,2.678,4.44081,-12.6168,2.96832,-5.98102,-4.13566,1.43331,-2.92759,1.72943e-14,7.55382e-15,-19.6845,16.8198,-89.4734,51.1477,20.1837,-25.6476,-31.4591,7.12502,0.886138,-61.437,1.72943e-14,7.55382e-15,-30.7887,-18.7562,93.1262,56.3145,-0.678736,-25.1413,9.90461,7.12502,1.37513,39.8799,-28.5101,-0.178886,27.6287,49.2913,-21.3468,-9.45355,-15.0488,-35.3475,-6.78909,-13.2429,53.8461,-12.1601,-9.22279,-16.7109
-9.89181,16.9989,2.05649,48.2197,-83.8263,-43.5709,23.7915,-2.45854,5.78444,5.47226,-2.13868,0.538042,-7.36827,-1.28151,-2.06585,0.730775,2.55842,4.18351,-13.6003,2.69346,-6.29062,-4.01406,1.33736,-2.70683,-6.95746e-16,-3.22031e-14,-19.8652,16.1961,-89.102,49.6906,20.1646,-25.65,-31.7091,7.12502,0.883786,-61.687,-6.95746e-16,-3.22031e-14,-29.9103,-19.8027,93.5014,57.3323,-1.79334,-25.5671,8.72352,7.12502,0.963854,38.7011,-30.1317,-1.02708,27.9317,50.0402,-21.0833,-9.48771,-14.6047,-37.4604,-7.23292,-12.8045,55.2912,-11.6826,-9.55026,-16.3382
-9.79648,16.9656,2.02589,45.6276,-83.1264,-40.5215,24.5384,-2.69694,6.32597,5.70027,-2.27181,0.80346,-7.51045,-1.3621,-2.0233,0.733177,2.52423,4.02439,-14.2101,2.55854,-6.58105,-4.2028,1.28595,-2.77538,-1.86858e-14,2.00773e-14,-20.1234,15.7257,-88.7368,47.8221,19.9975,-25.5494,-32.0443,7.12502,0.980946,-62.0218,-1.86858e-14,2.00773e-14,-29.1717,-20.6046,93.7188,59.1729,-2.74559,-25.3489,8.01964,7.12502,1.17463,37.9962,-31.3289,-1.73254,28.3464,50.541,-21.1881,-9.40158,-12.8265,-39.0814,-7.54044,-12.3386,56.5513,-11.7661,-9.77862,-19.3274
-9.70713,16.9442,1.99873,44.1084,-82.3684,-38.6566,25.3375,-3.04597,6.89144,5.90573,-2.52657,1.07167,-7.71124,-1.50271,-1.94528,0.915211,2.60412,3.84386,-14.8871,2.58271,-6.83615,-4.43522,1.31804,-2.83918,-8.54774e-15,-1.63003e-14,-20.5315,15.4704,-88.4912,45.5519,19.8604,-25.2857,-32.708,7.12502,1.23568,-62.6841,-8.54774e-15,-1.63003e-14,-28.5586,-21.185,93.7331,61.7282,-2.96034,-25.2175,8.03076,7.12502,1.30151,38.0065,-32.2625,-2.32842,28.8425,50.822,-20.8486,-9.52686,-12.8815,-40.4194,-7.77341,-11.8656,57.7531,-12.0426,-10.488,-22.3865
-9.6254,16.944,1.97314,41.3097,-81.8168,-35.4397,25.9667,-3.31328,7.16743,6.09799,-2.76095,1.21671,-7.83333,-1.62505,-1.84584,1.06358,2.62479,3.63148,-15.5712,2.54791,-6.87095,-4.67339,1.31141,-2.82764,1.27222e-14,-7.95139e-16,-21.1411,14.8199,-88.2304,43.0678,20.0254,-24.9368,-33.2561,7.12502,1.5726,-63.2301,1.27222e-14,-7.95139e-16,-27.8337,-21.9978,93.5515,64.8424,-2.21492,-25.7519,8.88854,7.12502,0.785333,38.8668,-33.1067,-2.83891,28.977,50.8897,-20.708,-9.59814,-11.5688,-41.5777,-7.97945,-11.8114,58.9732,-12.187,-11.9335,-23.0625
-9.55349,16.9647,1.94809,37.7105,-81.5365,-31.3153,26.3443,-3.41714,7.09682,6.27245,-2.89789,1.25178,-7.83285,-1.69041,-1.71124,1.24011,2.53876,3.46088,-16.2285,2.3871,-6.79007,-4.91762,1.2352,-2.78215,-2.98674e-14,-2.18663e-15,-21.96,13.668,-87.8926,40.5091,20.4671,-23.937,-33.8637,7.12502,2.53821,-63.8283,-2.98674e-14,-2.18663e-15,-26.9397,-22.998,93.1484,68.4785,-1.15318,-26.1197,9.3327,7.12502,0.43017,39.312,-33.8911,-3.1416,28.7349,50.7263,-20.3536,-9.74419,-11.0901,-42.4326,-7.9673,-12.2268,60.3019,-13.115,-13.0893,-26.7618
-9.49206,17.002,1.92711,34.9122,-81.2952,-27.8897,26.5229,-3.48333,7.02522,6.36698,-2.9939,1.2666,-7.81985,-1.73428,-1.61758,1.45085,2.44258,3.41595,-16.7192,2.21535,-6.83672,-5.11349,1.15653,-2.79405,2.48481e-16,1.51573e-14,-22.9815,12.3743,-87.5408,37.864,20.834,-22.3609,-34.9983,7.12502,4.06026,-64.9393,2.48481e-16,1.51573e-14,-25.9021,-23.9792,92.5226,72.1834,-0.696092,-27.0979,7.71542,7.12502,-0.514599,37.6945,-34.6002,-3.31968,28.489,50.2905,-19.9009,-9.85203,-11.0917,-43.0117,-7.64324,-12.7847,61.8029,-12.7501,-14.2097,-23.3884
-9.4387,17.0552,1.91313,33.3302,-81.0117,-25.6799,26.6228,-3.54725,7.10597,6.44984,-3.04915,1.32266,-7.78026,-1.7607,-1.58106,1.41934,2.38037,3.35166,-16.9689,2.08687,-6.94258,-5.19112,1.10012,-2.81483,1.96548e-14,-3.762e-14,-24.1482,10.8643,-87.0573,35.3169,21.1333,-21.4438,-34.9961,7.12502,4.94587,-64.9184,1.96548e-14,-3.762e-14,-24.5555,-25.0663,91.7334,76.2641,-0.2041,-28.16,7.40398,7.12502,-1.54047,37.3782,-35.0961,-3.44851,28.3817,49.5448,-18.8394,-10.0743,-13.8285,-43.3248,-7.07171,-13.3037,63.4352,-13.3021,-14.3902,-23.7757
-9.38763,17.1318,1.90469,31.6957,-80.7714,-23.4031,26.6492,-3.60952,7.09536,6.50343,-3.12753,1.3882,-7.73514,-1.79588,-1.47677,1.41225,2.34375,3.22614,-17.1994,1.99657,-7.01307,-5.2666,1.06509,-2.8159,2.45126e-14,-2.98177e-14,-25.4894,9.33808,-86.4608,33.1182,20.9623,-20.8383,-34.4847,7.12502,5.5305,-64.3925,2.45126e-14,-2.98177e-14,-22.9549,-25.9612,90.7134,80.144,-0.622858,-28.8376,7.07935,7.12502,-2.19491,37.0478,-35.4045,-3.53671,28.1811,48.4714,-17.668,-10.1595,-15.3907,-43.4457,-6.42933,-13.9159,65.0739,-13.8465,-13.9482,-23.7011
-9.33509,17.2303,1.90085,29.1191,-80.5183,-20.0723,26.5396,-3.72858,6.92154,6.45397,-3.3205,1.41341,-7.7435,-1.88128,-1.28931,1.58529,2.33327,3.17481,-17.4106,1.948,-7.13869,-5.3629,1.05492,-2.851,-5.92937e-14,3.58371e-14,-27.0126,8.03695,-85.8326,30.8191,21.5748,-21.1285,-34.3029,7.12502,5.25027,-64.2179,-5.92937e-14,3.58371e-14,-21.1967,-26.583,89.483,83.8245,-1.49809,-28.355,7.5223,7.12502,-1.72882,37.495,-35.6796,-3.73397,27.775,47.1218,-16.5538,-10.1838,-16.0009,-43.4892,-5.87898,-14.7222,66.5896,-13.9448,-12.8389,-23.7274
-9.28959,17.3436,1.90107,26.2715,-80.3548,-16.6644,26.6534,-3.82744,6.62825,6.38839,-3.5032,1.40743,-7.87528,-1.9629,-1.06029,1.69517,2.32015,3.10345,-17.4788,1.91901,-7.16673,-5.40506,1.0493,-2.84941,1.78083e-14,-8.88319e-16,-28.7574,6.67027,-85.0655,28.7357,23.0754,-21.5789,-33.7968,7.12502,4.81536,-63.7221,1.78083e-14,-8.88319e-16,-19.1344,-27.0396,88.0572,87.201,-2.43757,-27.8544,8.08335,7.12502,-1.24527,38.0595,-35.5858,-3.97561,27.2618,45.5496,-15.5587,-10.0556,-15.9628,-42.9537,-5.25191,-15.6448,67.8368,-13.4685,-11.6109,-22.7193
-9.25285,17.4596,1.90642,23.6443,-80.2957,-13.4431,26.6411,-3.851,6.31903,6.31828,-3.60627,1.37114,-7.94359,-2.00467,-0.888841,1.65389,2.28701,3.06639,-17.4494,1.87455,-7.14791,-5.39213,1.02763,-2.83405,8.51047e-15,-5.44049e-14,-30.7065,5.14862,-84.1281,27.1613,24.9089,-21.3428,-33.237,7.12502,5.04337,-63.157,8.51047e-15,-5.44049e-14,-16.6906,-27.3407,86.3985,90.1731,-3.59355,-27.5779,7.80958,7.12502,-0.978248,37.7871,-35.4438,-4.20091,26.7037,43.8653,-14.9112,-9.72488,-16.5823,-42.1328,-4.52121,-16.589,68.7808,-12.5989,-10.0737,-22.1171
-9.22009,17.5719,1.91688,21.4541,-80.1743,-10.6009,26.4363,-3.91183,6.10534,6.25705,-3.74605,1.33796,-7.91163,-2.06317,-0.766701,1.56221,2.24995,3.12719,-17.4461,1.80709,-7.25077,-5.37648,0.994136,-2.87214,4.96962e-17,4.54223e-14,-32.6281,3.97685,-83.2375,25.7766,26.3975,-20.8611,-32.9058,7.12502,5.50843,-62.8142,4.96962e-17,4.54223e-14,-13.9005,-27.3338,84.4984,92.6489,-4.70293,-27.33,7.0738,7.12502,-0.738839,37.0523,-35.2843,-4.45912,26.2049,42.0807,-14.5701,-9.71606,-19.2932,-41.1801,-3.82783,-17.4135,69.3705,-11.1551,-8.13548,-21.6231
-9.18312,17.6731,1.92738,19.645,-79.9652,-8.03037,26.1185,-4.04554,5.84962,6.13206,-3.98654,1.34,-7.89462,-2.16744,-0.552894,1.60188,2.26253,3.1557,-17.571,1.81353,-7.27088,-5.42092,0.996355,-2.88634,8.77137e-15,1.98288e-14,-34.4829,3.44846,-82.5567,24.5015,27.2856,-20.7897,-32.8159,7.12502,5.57743,-62.7225,8.77137e-15,1.98288e-14,-10.8887,-26.9991,82.4156,94.6007,-5.39209,-27.4165,6.60171,7.12502,-0.822339,36.5799,-35.3123,-4.67827,25.7563,40.3479,-13.6158,-9.78821,-20.8492,-40.2789,-3.24322,-18.0797,69.6052,-9.21046,-6.24155,-19.5382
-9.16771,17.7741,1.94952,18.7725,-80.377,-6.79527,26.004,-3.98037,5.45539,6.12843,-4.01732,1.28326,-7.82527,-2.17442,-0.389488,1.7558,2.3298,3.16187,-17.8005,1.91173,-7.16382,-5.515,1.03949,-2.86462,2.70347e-14,6.71519e-15,-36.3156,3.03365,-81.8559,23.5296,28.186,-20.4363,-32.4331,7.12502,5.91858,-62.3305,2.70347e-14,6.71519e-15,-7.81385,-26.4112,80.297,96.1389,-5.93977,-27.6564,6.96652,7.12502,-1.05407,36.9437,-34.8966,-4.63462,25.3785,38.7151,-12.2276,-9.01305,-20.0448,-38.5469,-2.13615,-18.6996,69.3427,-7.77467,-4.42363,-18.2968
-9.14201,17.8547,1.97206,17.7774,-80.4969,-5.11804,25.4947,-4.03634,5.19334,6.05598,-4.17912,1.26083,-7.6457,-2.24165,-0.241586,1.7846,2.43209,3.22426,-17.977,2.03454,-7.222,-5.56616,1.09829,-2.90301,1.20513e-14,-1.04983e-15,-38.0544,2.47361,-80.9875,22.7743,29.3448,-19.9953,-31.6606,7.12502,6.34431,-61.5456,1.20513e-14,-1.04983e-15,-4.79053,-25.5259,78.3247,97.4384,-6.54137,-27.8875,8.19192,7.12502,-1.27722,38.1678,-35.0068,-4.89457,25.073,37.3448,-11.1534,-8.22816,-19.5776,-37.1647,-1.41328,-19.2391,68.642,-6.88155,-2.56266,-18.9464
-9.10869,17.9158,1.99461,16.3821,-80.4623,-3.10042,25.0732,-4.1898,4.918,5.96124,-4.45783,1.25227,-7.53541,-2.36491,-0.0293579,1.75194,2.58113,3.359,-18.0563,2.20124,-7.47158,-5.56908,1.18546,-3.01344,2.06736e-14,-3.14577e-14,-39.7193,2.27524,-80.2458,22.145,30.2171,-19.9357,-31.1006,7.12502,6.40186,-60.9839,2.06736e-14,-3.14577e-14,-1.84899,-24.2516,76.4598,98.2129,-6.73823,-27.9562,7.26642,7.12502,-1.34365,37.2419,-35.2359,-5.23643,24.7487,36.2869,-10.3656,-7.80905,-20.2707,-35.6596,-0.96667,-19.7083,67.4658,-6.4382,-0.985494,-20.3088
-9.0716,17.956,2.01862,14.5168,-80.4661,-0.820579,24.8665,-4.35865,4.53551,5.87517,-4.77439,1.19866,-7.51786,-2.50628,0.217304,1.80248,2.76919,3.47521,-18.1258,2.44897,-7.58681,-5.58081,1.30779,-3.0833,-5.80948e-14,2.50966e-14,-41.3254,2.31594,-79.6719,21.6657,30.8,-19.9465,-30.698,7.12502,6.39142,-60.5816,-5.80948e-14,2.50966e-14,0.967463,-22.804,74.6427,98.7394,-7.08747,-27.8567,6.87089,7.12502,-1.24756,36.847,-35.4716,-5.5417,24.3559,35.6441,-9.70932,-7.53302,-21.2679,-33.8609,-0.631839,-20.1617,65.8745,-6.37445,0.097679,-21.3425
-9.02212,17.9736,2.04086,12.6972,-80.5535,1.39353,24.7301,-4.47471,4.06139,5.79821,-5.04209,1.15519,-7.51184,-2.62367,0.514125,1.75082,2.97905,3.45573,-18.174,2.7499,-7.48609,-5.57186,1.44834,-3.06207,1.03368e-14,-1.48095e-14,-42.8349,2.40773,-79.141,21.4287,31.1901,-20.1474,-30.4167,7.12502,6.19755,-60.306,1.03368e-14,-1.48095e-14,3.75503,-21.2862,72.9934,98.9008,-7.49162,-27.7237,6.96887,7.12502,-1.11908,36.9457,-35.9456,-5.63028,23.9327,35.3608,-9.10551,-7.41565,-21.4279,-32.0885,-0.382353,-20.5598,63.914,-6.50552,0.819171,-21.1115
-8.95704,17.9705,2.06159,12.0344,-80.7788,2.37137,24.741,-4.54004,3.58398,5.7501,-5.23583,1.19779,-7.53325,-2.70725,0.892297,1.62609,3.21937,3.46994,-18.2109,3.07842,-7.47087,-5.54294,1.60365,-3.07273,1.26228e-14,-7.55382e-15,-44.226,2.79575,-78.7376,21.5009,31.063,-20.4411,-30.1591,7.12502,5.91398,-60.0566,1.26228e-14,-7.55382e-15,6.48932,-19.6163,71.5607,98.7091,-7.73404,-27.6055,7.02994,7.12502,-1.00485,37.0073,-36.5974,-5.35796,23.6599,35.4032,-8.59555,-7.45946,-20.5776,-30.3547,-0.0709992,-20.7232,61.6198,-6.29785,1.44698,-20.8558
-8.89193,17.9538,2.09559,12.1309,-80.9712,2.36128,24.8795,-4.6689,3.39595,5.74706,-5.44114,1.21656,-7.59227,-2.80202,1.09352,1.65842,3.44994,3.66966,-18.3186,3.38411,-7.61068,-5.55634,1.74944,-3.16696,-3.97569e-16,2.44505e-14,-45.6532,3.44636,-78.5861,21.9656,30.1107,-20.2941,-29.7542,7.12502,6.05586,-59.6477,-3.97569e-16,2.44505e-14,9.03032,-17.9359,70.332,98.2797,-7.67862,-27.3826,7.06491,7.12502,-0.789638,37.0432,-37.1701,-5.26588,23.5534,35.7667,-8.46898,-7.39069,-19.9565,-28.3376,0.15046,-20.7483,58.9772,-5.87938,1.81598,-21.5892
-8.82936,17.9239,2.14303,11.5826,-81.1419,2.94526,24.9355,-4.81495,3.31569,5.7721,-5.6548,1.14316,-7.59631,-2.90295,1.12853,1.80609,3.63272,3.89551,-18.4916,3.63741,-7.68778,-5.61321,1.86599,-3.24774,-4.94974e-14,5.76476e-15,-47.1598,4.48076,-78.8556,22.8346,28.5216,-19.93,-29.5273,7.12502,6.40739,-59.4104,-4.94974e-14,5.76476e-15,11.4611,-16.3612,69.3415,97.5661,-7.42591,-27.1566,7.0983,7.12502,-0.571319,37.0773,-37.8581,-5.38276,23.3378,36.4829,-8.45007,-7.23296,-19.5723,-26.2063,0.137158,-20.9138,55.99,-6.14604,1.31112,-23.289
-8.75854,17.8751,2.19891,11.9919,-81.495,2.69436,24.8043,-4.91073,3.29922,5.80049,-5.79519,1.08964,-7.50465,-2.97087,1.11059,2.00238,3.8244,4.07468,-18.6983,3.91003,-7.70758,-5.68993,1.99178,-3.30593,6.55989e-15,4.57205e-15,-48.5869,6.14957,-79.6276,23.9231,26.5459,-19.9299,-29.4861,7.12502,6.40749,-59.3692,6.55989e-15,4.57205e-15,13.7957,-14.7915,68.5513,96.5473,-7.08772,-27.0508,6.98661,7.12502,-0.469187,36.9658,-38.8973,-5.41257,23.252,37.4669,-8.37132,-7.00342,-19.2128,-24.4351,0.07778,-20.9863,52.9616,-7.66,-0.244247,-23.1311
-8.67156,17.8014,2.25984,13.7151,-82.0372,1.22425,24.6417,-4.97627,3.34563,5.80123,-5.87917,1.05916,-7.43039,-3.01263,1.06375,2.21598,4.0504,4.16875,-18.9363,4.23938,-7.63133,-5.78075,2.14389,-3.32395,9.26337e-14,-1.94809e-14,-49.9184,8.37923,-80.8409,25.175,24.2906,-20.3295,-29.6014,7.12502,6.02167,-59.4958,9.26337e-14,-1.94809e-14,15.9423,-13.1911,67.9001,95.2917,-6.89057,-26.7912,6.96829,7.12502,-0.218403,36.9479,-40.3422,-5.37865,23.3727,38.7942,-8.42866,-6.58125,-19.681,-23.0612,0.0282407,-20.9136,50.0583,-9.83769,-2.68737,-17.1171
-8.57608,17.7408,2.31884,14.6279,-82.6345,0.612087,24.5528,-5.01288,3.19602,5.76046,-5.97092,0.981527,-7.42682,-3.05376,1.08611,2.34394,4.29061,4.21595,-19.0618,4.60612,-7.46161,-5.8238,2.30989,-3.30155,2.38542e-15,-1.70955e-14,-51.2289,10.7721,-82.246,26.6631,22.1635,-20.6903,-29.6894,7.12502,5.67333,-59.5935,2.38542e-15,-1.70955e-14,17.8258,-11.6507,67.3803,93.8707,-7.06311,-26.375,7.07034,7.12502,0.18351,37.05,-41.9953,-5.35905,23.3655,40.4394,-8.47112,-6.11089,-20.4364,-22.0275,0.0663498,-21.0674,47.7646,-12.1534,-4.17555,-19.1027
-8.48021,17.6805,2.37718,13.7287,-83.1337,1.7291,24.5732,-5.05885,2.89111,5.70833,-6.11195,0.841106,-7.48364,-3.11503,1.15216,2.42736,4.52314,4.39645,-19.022,4.96841,-7.39065,-5.80074,2.47332,-3.32667,-6.59965e-14,9.14409e-15,-52.6236,13.0108,-83.6087,28.517,20.3821,-20.7023,-29.4251,7.12502,5.66175,-59.3295,-6.59965e-14,9.14409e-15,19.3875,-10.306,66.9863,92.3973,-7.40608,-26.0062,7.03254,7.12502,0.53978,37.0116,-43.7531,-5.45308,23.1184,42.4952,-8.28098,-5.65347,-20.254,-21.322,-0.086661,-21.4699,45.9851,-13.8858,-5.55955,-17.436
-8.37671,17.6223,2.42672,10.925,-83.5677,4.70142,24.782,-5.09955,2.34072,5.61617,-6.30204,0.658681,-7.66014,-3.19317,1.34401,2.57061,4.7417,4.67911,-19.0026,5.31448,-7.36799,-5.79019,2.62629,-3.38538,3.26007e-14,-3.26007e-14,-54.0664,15.0432,-84.8699,30.7633,18.9794,-20.4977,-28.9845,7.12502,5.85935,-58.8835,3.26007e-14,-3.26007e-14,20.6599,-9.10971,66.6493,90.8907,-7.59938,-25.6863,6.95864,7.12502,0.8487,36.9367,-45.7382,-5.52248,22.6684,44.9188,-7.51895,-5.06401,-19.0268,-21.0357,-0.157193,-22.1191,44.7948,-15.4468,-6.15273,-17.3077
-8.2755,17.5649,2.46348,6.20218,-83.8474,9.60613,25.014,-5.1139,1.58406,5.51039,-6.5129,0.471601,-7.8396,-3.27551,1.65565,2.76964,4.8914,4.90363,-19.12,5.56162,-7.29504,-5.84148,2.72901,-3.42003,-6.24184e-14,-1.31198e-14,-55.4671,16.7356,-85.9235,33.2909,17.9349,-20.5323,-28.6828,7.12502,5.82588,-58.5828,-6.24184e-14,-1.31198e-14,21.6526,-8.17062,66.3567,89.4359,-7.67456,-25.4373,7.21618,7.12502,1.08918,37.1931,-47.9753,-5.81572,22.1747,47.6326,-6.48013,-4.251,-19.7152,-20.9713,-0.0749673,-22.9667,43.849,-16.4924,-6.3508,-16.5782
-8.19411,17.5211,2.49543,-0.83072,-83.8734,16.72,25.1324,-5.13064,0.761934,5.48551,-6.76142,0.217788,-7.8676,-3.37796,1.9272,2.99592,4.9651,5.09984,-19.3427,5.68911,-7.26028,-5.93748,2.77545,-3.46113,3.29983e-14,2.14687e-14,-56.7378,18.0477,-86.775,35.9469,17.0623,-20.8325,-28.7094,7.12502,5.53605,-58.6171,3.29983e-14,2.14687e-14,22.2365,-7.58393,66.0863,88.1569,-7.81024,-25.3307,7.66447,7.12502,1.19216,37.6409,-50.1507,-6.52432,21.5877,50.391,-4.8477,-3.63986,-21.8236,-20.8088,0.0410409,-24.0392,43.0346,-17.1729,-6.56379,-15.5308
-8.12265,17.4959,2.51932,-7.22508,-83.8372,23.1114,25.2387,-5.14326,0.0514593,5.49815,-6.98307,-0.0434405,-7.85693,-3.47196,2.11628,3.15706,5.01769,5.31616,-19.5009,5.76753,-7.35514,-5.99915,2.80575,-3.54052,-6.83819e-14,3.18055e-15,-57.7391,19.0605,-87.4111,38.5895,16.2789,-20.9532,-28.9351,7.12502,5.41949,-58.8458,-6.83819e-14,3.18055e-15,22.4354,-7.19381,65.8146,86.9139,-7.98674,-25.2235,7.85784,7.12502,1.2957,37.8337,-52.1699,-7.12585,21.0958,52.9331,-3.2334,-3.40746,-22.2481,-20.5567,0.313755,-24.9679,42.2614,-17.7901,-6.76244,-15.6617
-8.05949,17.484,2.53495,-10.4914,-83.87,26.3365,25.329,-5.14358,-0.305091,5.49344,-7.08961,-0.193564,-7.8839,-3.51623,2.19331,3.20428,5.05792,5.39972,-19.4899,5.81953,-7.45003,-5.99379,2.83406,-3.58794,1.07344e-14,3.26007e-14,-58.4412,19.662,-87.6584,41.1142,15.7958,-21.2608,-29.0501,7.12502,5.12254,-58.9681,1.07344e-14,3.26007e-14,22.2832,-7.01266,65.7058,85.6266,-8.10938,-24.9518,7.80344,7.12502,1.55807,37.7775,-53.8799,-7.50434,21.0048,55.0752,-1.57601,-3.43721,-19.9814,-20.301,0.795222,-25.4493,41.4732,-18.2527,-7.07352,-16.2865
-8.01525,17.4813,2.55576,-12.6073,-83.8774,28.3085,25.3749,-5.18873,-0.363253,5.48717,-7.17696,-0.336767,-7.92463,-3.55649,2.10219,3.29627,5.10078,5.29824,-19.4449,5.88835,-7.40046,-5.99647,2.87502,-3.56049,-3.77691e-14,2.38542e-15,-58.8964,19.948,-87.6594,43.3667,15.8744,-22.0224,-29.0249,7.12502,4.38713,-58.9595,-3.77691e-14,2.38542e-15,21.5777,-7.04227,65.8479,84.3928,-8.20729,-24.7646,7.75982,7.12502,1.73894,37.7325,-55.0733,-8.01838,21.1026,56.7897,-0.177225,-3.42597,-17.5864,-19.9044,1.21709,-25.8002,40.7201,-18.6107,-7.31959,-16.2439
-7.99492,17.486,2.58412,-14.5073,-83.9161,29.9625,25.3409,-5.28008,-0.192663,5.50486,-7.27194,-0.540823,-7.93449,-3.60674,1.81142,3.41269,5.13277,5.15382,-19.3743,5.94444,-7.33046,-5.99858,2.91251,-3.5191,2.14687e-14,-2.22639e-14,-59.0174,20.0425,-87.5369,45.295,16.1753,-22.5014,-28.9774,7.12502,3.92457,-58.921,2.14687e-14,-2.22639e-14,20.3272,-7.26226,66.1368,83.1847,-8.24887,-24.9325,7.66205,7.12502,1.57671,37.636,-55.7147,-8.52028,21.1915,58.1003,0.329942,-3.17457,-16.1803,-19.2974,1.43858,-26.1195,40.0298,-18.9381,-7.25678,-15.8909
-7.9926,17.4971,2.6037,-15.7205,-84.1074,30.9666,25.1896,-5.29167,0.0223232,5.49608,-7.24681,-0.68908,-7.91472,-3.60088,1.50991,3.41914,5.14405,5.0687,-19.1123,5.95659,-7.41039,-5.91619,2.93747,-3.52303,1.15693e-13,-5.80451e-14,-58.7142,19.9114,-87.1995,46.8586,16.1885,-22.6601,-29.165,7.12502,3.77134,-59.1114,1.15693e-13,-5.80451e-14,18.6708,-7.72193,66.59,81.8928,-8.29878,-25.2805,7.29289,7.12502,1.24067,37.269,-55.9812,-8.58109,21.2718,59.0222,-0.316511,-2.83649,-14.3191,-18.7184,1.54667,-26.2601,39.3698,-19.0699,-6.86442,-16.5932
-8.00661,17.5197,2.60971,-18.0156,-84.3004,33.1183,24.9818,-5.19451,-0.0203697,5.44162,-7.1413,-0.791166,-7.88035,-3.55107,1.3742,3.2925,5.15479,5.10099,-18.6556,5.96015,-7.63465,-5.74069,2.96128,-3.5805,-2.8625e-14,-1.11319e-14,-58.028,19.6462,-86.7327,47.961,16.0695,-22.9997,-29.5853,7.12502,3.44338,-59.5373,-2.8625e-14,-1.11319e-14,16.5374,-8.33071,67.2719,80.6527,-8.59751,-25.5126,7.08505,7.12502,1.01653,37.0624,-55.9361,-8.34561,21.1621,59.5635,-1.78654,-2.38587,-12.0696,-18.2271,1.53682,-26.4257,38.7331,-18.8428,-6.42921,-17.1996
-8.0454,17.5561,2.61169,-20.5429,-84.3609,35.4818,24.7205,-5.11991,-0.103095,5.39422,-7.0745,-0.898565,-7.80594,-3.5198,1.26194,3.11281,5.16658,5.12249,-18.1795,5.98447,-7.7305,-5.555,2.98446,-3.59413,-8.11041e-14,-4.77083e-15,-56.9734,19.3368,-86.2652,48.6214,15.9873,-23.4719,-30.0553,7.12502,2.98737,-60.0141,-8.11041e-14,-4.77083e-15,13.9791,-8.98794,68.1407,79.4196,-9.18746,-25.7041,7.27343,7.12502,0.831534,37.2516,-55.4716,-8.23209,20.9967,59.7141,-3.45993,-1.85733,-11.3418,-17.6574,1.37679,-26.6008,38.1617,-18.3084,-6.26412,-15.9993
-8.10264,17.597,2.60351,-21.1071,-84.3673,35.908,24.3988,-5.08035,-0.0682176,5.31395,-7.01381,-0.941273,-7.74147,-3.49154,1.15318,3.07305,5.1527,5.01404,-17.8024,6.00037,-7.60034,-5.43909,2.99702,-3.52336,-6.67916e-14,-1.51076e-14,-55.5844,18.8689,-85.7801,48.8347,16.0617,-24.1104,-30.5787,7.12502,2.37069,-60.5453,-6.67916e-14,-1.51076e-14,11.1656,-9.71224,69.1624,77.9275,-9.96636,-26.057,7.36571,7.12502,0.490707,37.3449,-54.6829,-8.17061,21.048,59.4738,-4.39222,-1.52753,-12.1351,-17.1252,1.13099,-26.5562,37.7318,-17.6117,-6.08791,-14.5411
-8.17184,17.6417,2.57466,-21.1843,-84.5195,35.9098,24.032,-4.93053,-0.171189,5.2043,-6.83785,-0.923958,-7.66275,-3.40508,1.14943,3.06232,5.11553,4.91289,-17.4069,5.99146,-7.44377,-5.32515,2.99602,-3.44537,3.53837e-14,2.54444e-14,-53.8376,18.1669,-85.2875,48.5903,16.3433,-25.0939,-31.2204,7.12502,1.42085,-61.1955,3.53837e-14,2.54444e-14,8.07765,-10.4916,70.2939,76.2534,-10.8386,-26.4797,7.32593,7.12502,0.0824398,37.3057,-53.659,-7.74841,21.2171,58.8586,-4.49316,-1.28524,-14.0028,-16.7785,1.09942,-26.3437,37.5335,-16.9175,-5.30043,-16.3886
-8.25347,17.6885,2.53713,-20.6117,-84.8913,35.2721,23.6465,-4.72188,-0.254797,5.0912,-6.57747,-0.872917,-7.57663,-3.27862,1.1465,3.02041,5.10274,4.80154,-16.9847,6.01921,-7.25574,-5.19718,3.01114,-3.356,1.02175e-13,-2.94201e-14,-51.7094,17.5234,-84.9187,47.7955,16.8842,-26.3698,-31.8841,7.12502,0.188547,-61.8638,1.02175e-13,-2.94201e-14,4.96359,-11.2055,71.4691,74.1462,-11.4529,-26.9987,7.07793,7.12502,-0.418836,37.0573,-52.3944,-6.98067,21.4793,57.905,-4.25252,-0.804974,-15.6716,-16.6084,1.3876,-25.9564,37.7096,-16.3294,-4.24168,-20.0222
-8.34551,17.7257,2.50428,-17.2926,-85.1932,31.8868,23.2231,-4.63625,-0.0256692,4.94615,-6.39458,-0.784194,-7.53371,-3.19218,1.03298,3.16468,5.10557,4.63219,-16.6837,6.0761,-6.99948,-5.1416,3.04169,-3.24733,-4.49253e-14,3.57812e-14,-49.3145,16.9828,-84.6773,46.4302,17.8319,-27.2867,-32.2415,7.12502,-0.697025,-62.2201,-4.49253e-14,3.57812e-14,2.0946,-11.8599,72.6729,71.3064,-11.3938,-27.5902,6.83393,7.12502,-0.990077,36.8114,-50.9443,-6.36022,21.9109,56.7373,-3.91515,-0.050801,-16.8632,-16.5959,1.51462,-25.3798,38.3675,-15.8677,-3.53101,-21.9199
-8.44511,17.7455,2.47345,-12.2838,-85.3511,26.845,22.6539,-4.60813,0.36472,4.82748,-6.24942,-0.68361,-7.3992,-3.12839,0.840513,3.29879,5.09279,4.62365,-16.3535,6.10123,-6.90648,-5.06534,3.05779,-3.21327,4.29375e-14,-1.90833e-14,-46.6834,16.2005,-84.4563,44.7749,19.0927,-27.7951,-32.7637,7.12502,-1.188,-62.7402,4.29375e-14,-1.90833e-14,-1.95951,-12.4532,74.169,69.2218,-11.0764,-28.1699,7.35618,7.12502,-1.55004,37.3303,-49.3929,-5.9234,22.4505,55.4427,-3.82356,0.872144,-18.2233,-16.8291,1.43533,-24.7359,39.5534,-15.4381,-3.01997,-23.6431
-8.54808,17.7366,2.439,-9.13379,-85.5037,23.7029,22.2184,-4.54682,0.790369,4.56932,-6.06665,-0.75409,-7.50726,-3.04236,0.453662,3.31226,5.03005,4.86326,-15.7399,6.07452,-6.91475,-4.87247,3.04271,-3.23693,-8.26944e-14,-7.95139e-16,-44.2234,15.01,-84.4482,43.1004,20.6208,-28.2616,-33.338,7.12502,-1.6386,-63.3114,-8.26944e-14,-7.95139e-16,-5.80203,-13.0858,75.5662,66.4463,-10.6295,-28.6756,8.16885,7.12502,-2.03845,38.1389,-47.8778,-5.47096,22.8805,54.0717,-4.65449,1.41119,-20.7225,-17.3795,1.50212,-24.2637,41.2366,-14.9174,-2.64651,-25.5453
-8.65473,17.704,2.39777,-5.45454,-85.6423,20.0489,21.4301,-4.40517,1.11468,4.48536,-5.80847,-0.741059,-7.21457,-2.92626,0.156693,3.30803,4.93703,4.91128,-15.2635,5.98975,-6.84494,-4.73225,3.00216,-3.20681,4.77083e-14,4.53229e-14,-41.5283,13.812,-84.3939,41.5665,21.8862,-28.3181,-33.47,7.12502,-1.69313,-63.4431,4.77083e-14,4.53229e-14,-9.19889,-13.2744,77.0863,63.2065,-10.0445,-28.8934,8.4962,7.12502,-2.24872,38.4641,-46.3929,-5.12053,23.4564,52.6105,-6.74345,0.703436,-20.0985,-18.2389,1.65202,-23.7616,43.4723,-14.434,-2.32506,-26.6463
-8.76718,17.6707,2.34713,-0.109698,-85.6941,14.5914,20.7403,-4.255,1.45818,4.44818,-5.53526,-0.64971,-6.91067,-2.80203,-0.0615855,3.16176,4.86376,4.83474,-14.6177,5.93083,-6.71109,-4.52163,2.97668,-3.12924,8.74653e-14,-3.97569e-15,-38.9667,12.8311,-84.5053,40.3867,22.5258,-28.3856,-33.6325,7.12502,-1.7583,-63.605,8.74653e-14,-3.97569e-15,-12.6587,-13.0142,78.7308,59.8182,-9.28926,-29.0215,8.69624,7.12502,-2.37245,38.6628,-44.7177,-4.98579,24.2525,51.0578,-9.22441,-0.710089,-20.8057,-19.2169,1.88049,-23.1056,46.3292,-13.9584,-2.04789,-27.79
-8.8746,17.625,2.28328,7.84239,-85.8642,6.32039,20.4189,-4.00036,1.77536,4.42781,-5.12654,-0.462154,-6.76375,-2.61028,-0.168517,2.86243,4.82436,4.81453,-13.8793,5.90376,-6.6898,-4.24982,2.96802,-3.09009,4.53229e-14,5.56597e-15,-36.6356,12.0467,-84.757,39.7777,22.7584,-28.6846,-33.7979,7.12502,-2.04707,-63.7678,4.53229e-14,5.56597e-15,-16.0462,-12.2863,80.3372,56.0852,-8.84836,-29.11,9.3306,7.12502,-2.45792,39.2962,-42.9122,-4.74316,25.345,49.5385,-11.0986,-1.8488,-17.2781,-20.3898,2.34567,-22.1568,49.8395,-13.0803,-1.83006,-29.2122
-8.96775,17.5517,2.221,19.6261,-86.0519,-5.91543,20.3429,-3.67553,2.28872,4.45167,-4.5844,-0.228923,-6.70275,-2.35791,-0.354898,2.55267,4.76877,4.73225,-13.2597,5.85836,-6.53765,-4.02116,2.94352,-3.00399,-3.22031e-14,1.66979e-14,-34.5247,11.5087,-85.1416,39.9923,22.6344,-27.8652,-34.4331,7.12502,-1.25575,-64.4092,-3.22031e-14,1.66979e-14,-19.2649,-11.2446,81.723,52.1164,-8.75509,-29.256,10.3141,7.12502,-2.59899,40.278,-41.1992,-4.44809,26.6891,48.2347,-12.9892,-2.5831,-12.7312,-21.9697,2.85057,-20.9459,54.0365,-11.3299,-1.38272,-29.1307
-9.04788,17.4703,2.17471,26.8862,-86.0004,-13.7444,20.5327,-3.37977,2.85358,4.49465,-4.07298,-0.100506,-6.76749,-2.12245,-0.660016,2.11071,4.62709,4.61766,-12.5771,5.69352,-6.34289,-3.76122,2.85686,-2.89219,2.78299e-15,8.34896e-15,-32.6864,11.2371,-85.5006,41.1519,22.3337,-28.2226,-34.4239,7.12502,-1.60092,-64.3976,2.78299e-15,8.34896e-15,-22.431,-10.0072,82.9227,48.1584,-9.05041,-29.4217,11.3254,7.12502,-2.75894,41.2873,-39.6751,-4.44477,27.5559,47.3194,-15.3874,-3.00759,-12.1,-23.8714,3.00873,-20.1127,58.7475,-8.51866,-0.188687,-27.4126
-9.11152,17.3894,2.13606,31.396,-85.8177,-18.9391,21.0386,-3.05847,3.47643,4.57307,-3.50666,0.0267436,-6.95169,-1.86436,-1.00302,1.48326,4.40724,4.57971,-11.5623,5.435,-6.13515,-3.74021,2.69697,-3.05934,-2.98177e-15,1.59028e-15,-31.0467,10.994,-85.5528,43.3019,22.4052,-27.9034,-34.1263,7.12502,-1.29264,-64.1021,-2.98177e-15,1.59028e-15,-25.4659,-8.34436,83.8915,44.2353,-10.0449,-28.9336,12.485,7.12502,-2.28763,42.4525,-38.3969,-4.53513,28.169,46.8795,-17.21,-3.47342,-15.2525,-26.0834,2.84242,-19.4591,63.8708,-5.05106,1.57933,-25.0853
-9.17502,17.3164,2.10592,41.1597,-85.8879,-29.9842,22.1919,-2.57198,4.21966,4.88253,-2.6871,0.203471,-7.19611,-1.49619,-1.42061,0.882884,4.18945,4.4629,-11.1845,5.12442,-6.10908,-3.51425,2.54045,-2.98483,0,-1.82882e-14,-29.4037,10.8814,-85.3558,46.3465,22.7361,-27.8884,-34.5873,7.12502,-1.2781,-64.5632,0,-1.82882e-14,-28.4242,-6.03059,84.3884,40.5546,-11.7162,-27.851,13.6031,7.12502,-1.24202,43.5792,-36.6894,-4.56413,29.0352,46.7611,-18.0451,-3.59688,-16.3833,-27.7871,2.86985,-18.5289,69.1533,-1.50385,3.19195,-21.8967
-9.21325,17.2428,2.07539,52.7963,-85.3482,-42.7015,23.2606,-2.21684,5.39752,5.20789,-1.91615,0.557753,-7.36105,-1.16094,-1.90052,0.512741,3.97871,4.28345,-11.268,4.80899,-6.08179,-3.49613,2.3816,-2.92557,-2.26615e-14,-2.68359e-15,-27.6001,10.9969,-84.9468,50.1291,22.9123,-27.8074,-35.7118,7.12502,-1.19991,-65.6881,-2.26615e-14,-2.68359e-15,-31.5205,-3.21986,84.3241,37.4202,-13.933,-26.8938,14.5041,7.12502,-0.317545,44.4836,-35.4517,-4.73944,30.382,46.7867,-18.2846,-2.95937,-7.51966,-30.1659,2.47698,-17.0619,74.5732,0.660006,3.49882,-16.1462
-9.23967,17.1771,2.05131,63.8242,-84.1417,-54.8495,24.3741,-1.96308,7.15546,5.63166,-1.11534,1.07588,-7.40425,-0.824061,-2.55438,0.242358,3.75507,4.1055,-11.6524,4.45919,-6.10681,-3.60305,2.20561,-2.89816,-4.89507e-15,3.55328e-15,-25.595,11.2221,-84.2156,54.3414,22.8901,-28.5948,-37.7117,7.12502,-1.96036,-67.6824,-4.89507e-15,3.55328e-15,-34.7865,-0.299483,83.7206,34.8427,-16.5458,-26.5949,15.2983,7.12502,-0.0288513,45.2781,-34.0969,-4.90096,32.2026,46.7024,-18.2813,-3.29017,-16.1984,-32.717,1.94156,-14.9591,79.912,0.701583,2.8333,-17.1236
-9.26209,17.1379,2.04073,70.5377,-83.0112,-62.7476,25.6829,-1.71448,8.78492,6.10636,-0.323331,1.52166,-7.43931,-0.492946,-3.2209,-0.138349,3.52325,3.86095,-12.0402,4.09596,-6.07141,-3.69285,2.02156,-2.83376,6.21202e-15,9.64106e-15,-23.284,11.188,-83.0004,58.7952,24.2875,-28.3945,-38.4058,7.12502,-1.76693,-68.3782,6.21202e-15,9.64106e-15,-38.1227,2.32902,82.7178,32.4625,-19.8083,-25.8551,15.5971,7.12502,0.685727,45.5758,-32.5284,-5.34002,33.7189,46.4034,-18.5061,-2.89558,-18.6136,-35.1598,1.30077,-13.1763,84.7912,0.0179572,1.81931,-16.8583
-9.27764,17.1353,2.03583,73.0595,-82.4589,-66.2605,27.0281,-1.41417,9.73289,6.52983,0.387386,1.81655,-7.5247,-0.191897,-3.65389,-0.526564,3.28039,3.74566,-12.4128,3.70362,-6.22107,-3.77282,1.82454,-2.8558,-1.53064e-14,-1.27222e-14,-20.5972,10.7557,-81.3594,63.2369,26.6683,-28.3507,-37.3603,7.12502,-1.72466,-67.3331,-1.53064e-14,-1.27222e-14,-41.608,4.74812,81.3212,30.5257,-23.1892,-25.0221,15.2572,7.12502,1.49021,45.2317,-31.1137,-6.04839,34.4492,45.8245,-18.5731,-2.10108,-17.1811,-37.8372,0.382336,-12.3175,88.8858,-1.17357,0.956531,-18.4721
-9.28942,17.1676,2.02787,73.1303,-82.4456,-66.9595,28.1482,-1.03032,9.96029,6.87313,1.00893,2.01726,-7.59761,0.0807251,-3.76554,-0.756421,3.05103,3.76825,-12.8713,3.32266,-6.47941,-3.91145,1.6334,-2.94941,-5.1684e-15,-1.23246e-14,-17.5478,10.1685,-79.4879,67.379,28.8565,-28.3253,-36.8791,7.12502,-1.70009,-66.8521,-5.1684e-15,-1.23246e-14,-45.3575,6.65071,79.813,29.3266,-25.8736,-24.7571,14.2208,7.12502,1.74614,44.1934,-30.023,-6.53502,34.4827,45.0053,-18.2353,-1.14751,-10.5779,-40.912,-0.781539,-12.2211,92.0737,-2.60305,0.273194,-21.5727
-9.30355,17.2268,2.01885,72.3331,-82.6644,-66.5171,29.0483,-0.594901,9.85871,7.17819,1.58603,2.18359,-7.61846,0.341092,-3.7213,-1.02861,2.81481,3.73534,-13.2729,2.94057,-6.64068,-4.02535,1.44031,-2.99638,1.07344e-14,-1.82882e-14,-14.1616,9.31502,-77.446,71.071,30.9039,-29.2923,-37.1851,7.12502,-2.63403,-67.1486,1.07344e-14,-1.82882e-14,-48.9566,7.96375,78.3822,28.1654,-27.3654,-25.5518,12.2526,7.12502,0.978634,42.2301,-29.0496,-6.56086,34.1765,43.9783,-17.7952,-1.10529,-11.0207,-44.1164,-2.11746,-12.4102,94.3173,-4.36066,-0.432653,-23.5605
-9.3189,17.3022,2.01233,70.5808,-82.851,-64.8422,29.6241,-0.170691,9.82521,7.49564,2.1299,2.34857,-7.4684,0.595576,-3.70635,-1.27843,2.53057,3.69952,-14.1258,2.44417,-6.95689,-3.8453,1.22234,-2.80314,1.11319e-14,1.35174e-14,-10.4691,8.12714,-75.2594,74.1493,32.4082,-30.7865,-37.4891,7.12502,-4.07692,-67.4298,1.11319e-14,1.35174e-14,-52.055,8.70312,77.126,26.6468,-27.8616,-26.3338,10.2942,7.12502,0.223393,40.2738,-28.2213,-6.32,33.8117,42.7533,-17.3491,-1.21118,-9.95424,-47.4333,-3.70915,-12.5362,95.6336,-5.92267,-1.28095,-22.3871
-9.32969,17.3944,2.00711,67.562,-82.9686,-61.6071,29.9404,0.179098,9.89492,7.76956,2.58549,2.44964,-7.24583,0.815454,-3.78895,-1.61918,2.12459,3.80048,-14.5157,1.83098,-7.06873,-3.93671,0.905426,-2.84104,2.0276e-14,8.74653e-15,-6.69977,6.56316,-73.1943,76.616,33.333,-30.9448,-39.8271,7.12502,-4.22985,-69.7648,2.0276e-14,8.74653e-15,-54.5798,9.08701,75.8997,24.7153,-27.6791,-25.8004,10.0036,7.12502,0.738508,39.982,-27.6342,-5.99695,33.429,41.3547,-16.7561,-1.42439,-8.98762,-50.9065,-5.48843,-12.5299,95.9652,-6.82474,-2.48162,-20.9294
-9.34028,17.5064,2.00658,63.7122,-83.0767,-57.448,30.2458,0.465322,10.1105,7.99399,3.00307,2.45051,-7.06134,1.01736,-4.05474,-2.55347,1.70448,4.58932,-14.2448,1.15248,-7.83337,-3.72035,0.535904,-3.18066,-4.53229e-14,-1.03368e-14,-3.07852,4.42027,-71.3966,78.5265,33.617,-31.7407,-39.8133,7.12502,-4.99832,-69.7344,-4.53229e-14,-1.03368e-14,-56.6766,9.41853,74.3518,22.4644,-27.7424,-24.5319,9.76586,7.12502,1.96367,39.7366,-27.0685,-5.73902,32.9474,39.824,-15.8311,-1.49873,-8.11742,-54.1084,-7.30243,-12.4938,95.1862,-7.50675,-3.91548,-21.5629
-9.35203,17.6315,2.01017,58.9654,-83.3477,-52.3435,30.5302,0.769985,10.2579,8.21548,3.41771,2.37809,-6.86607,1.2223,-4.363,-2.89313,1.25772,4.38613,-14.6874,0.528116,-7.45315,-3.84312,0.206811,-3.01911,2.54444e-14,2.54444e-14,0.536283,2.02271,-69.6565,79.7562,33.0108,-32.5371,-40.0232,7.12502,-5.76735,-69.9247,2.54444e-14,2.54444e-14,-58.6667,9.62705,72.4421,20.3532,-28.735,-22.9867,8.33098,7.12502,3.45596,38.2827,-26.5216,-5.54646,32.1868,38.2263,-14.8423,-1.53958,-10.1778,-56.8532,-9.03371,-12.6357,93.2907,-8.16123,-4.98947,-23.6027
-9.36537,17.7636,2.01369,53.3321,-83.7495,-46.3943,30.8977,1.0713,10.1976,8.43446,3.77382,2.28378,-6.73299,1.3978,-4.56255,-3.12907,0.867923,4.15194,-15.1754,-0.0265477,-7.16296,-3.98879,-0.0797573,-2.88169,-1.74931e-14,1.59028e-14,4.2557,-0.24507,-67.9661,80.2351,32.0055,-32.1579,-40.8261,7.12502,-5.40122,-70.7372,-1.74931e-14,1.59028e-14,-60.7338,9.92442,70.0366,18.622,-31.2773,-20.8613,6.7322,7.12502,5.50826,36.6406,-25.9478,-5.44253,31.2169,36.65,-14.0187,-1.3528,-11.1413,-58.9806,-10.5286,-12.9379,90.3518,-8.69904,-5.2336,-25.6373
-9.38256,17.8878,2.01592,47.862,-84.0785,-40.6774,31.6611,1.28773,10.2186,8.21846,4.12709,2.01756,-6.61707,1.56853,-4.60961,-3.27553,0.520954,3.98728,-15.603,-0.53302,-7.03935,-4.12484,-0.335862,-2.80717,2.22639e-14,-1.98785e-14,8.04818,-2.48132,-66.4332,79.9505,31.4027,-31.7604,-41.1481,7.12502,-5.0174,-71.0687,2.22639e-14,-1.98785e-14,-62.872,10.6836,66.6514,17.0908,-35.8288,-18.6079,5.05277,7.12502,7.68359,34.8932,-25.3416,-5.43666,30.3165,35.2209,-12.8516,-0.994399,-14.9587,-60.5308,-11.6797,-13.1859,86.522,-9.13608,-4.80438,-26.0541
-9.40086,17.9963,2.01806,41.9863,-84.4008,-34.4344,31.9502,1.54073,10.1025,8.33491,4.41653,1.96955,-6.57376,1.70844,-4.69512,-3.38146,0.227128,3.86826,-15.9535,-0.981262,-7.08745,-4.23936,-0.556077,-2.79355,-3.65764e-14,1.90833e-14,11.8488,-4.43778,-65.0726,78.8568,30.2844,-32.1066,-41.1082,7.12502,-5.35166,-71.0207,-3.65764e-14,1.90833e-14,-65.0653,12.2135,61.6742,15.4856,-42.241,-16.9861,2.97184,7.12502,9.24877,32.749,-24.9379,-5.43731,29.373,34.0051,-11.922,-0.461301,-17.2493,-61.7953,-12.5716,-13.4085,81.9429,-9.49471,-4.37222,-25.4855
-9.42223,18.0921,2.02421,34.3068,-84.7515,-26.3104,32.0551,1.75105,9.86369,8.42951,4.5999,1.89517,-6.50644,1.80332,-4.70845,-2.8319,0.0581417,3.25203,-16.8933,-1.22329,-6.68324,-4.63045,-0.649855,-2.56326,-8.26944e-14,-6.36111e-15,15.6794,-6.23544,-63.9204,77.2106,30.2609,-31.1718,-41.7492,7.12502,-4.44899,-71.6824,-8.26944e-14,-6.36111e-15,-67.5667,14.3976,54.9966,13.9223,-49.9821,-16.3063,1.08058,7.12502,9.90468,30.8276,-24.7635,-5.48001,28.2273,33.0431,-11.146,0.250235,-18.0222,-62.6388,-13.3774,-13.6982,76.7805,-9.83187,-4.37373,-23.9693
-9.44653,18.1695,2.03081,27.0497,-85.0098,-18.6722,32.093,1.92136,9.64401,8.50062,4.74071,1.88726,-6.44756,1.87587,-4.64704,-2.9569,-0.12892,3.06142,-16.9753,-1.5342,-6.9158,-4.65061,-0.786472,-2.59471,1.82882e-14,-1.43125e-14,19.6321,-7.60584,-62.8913,74.6553,30.493,-30.2698,-42.3137,7.12502,-3.57801,-72.2635,1.82882e-14,-1.43125e-14,-70.4223,16.1792,48.1133,12.6922,-57.2075,-16.6762,-0.0012986,7.12502,9.54773,29.7624,-24.7096,-5.55659,27.1964,32.3789,-10.7656,1.10587,-18.0781,-62.9745,-14.0119,-13.8577,71.3115,-9.97171,-4.7405,-22.0142
-9.47337,18.214,2.03517,22.2556,-85.2132,-13.5503,31.6651,2.12713,9.41866,8.96228,4.85732,2.19294,-6.39779,1.93449,-4.60608,-2.77758,-0.214131,2.91299,-17.194,-1.72965,-7.30675,-4.75794,-0.851609,-2.68667,-1.27222e-14,1.59028e-15,23.672,-8.60941,-62.0471,71.3044,30.8584,-29.6472,-42.8413,7.12502,-2.97675,-72.8003,-1.27222e-14,1.59028e-15,-73.6701,17.6022,40.7494,11.6471,-64.3067,-18.4803,-0.671278,7.12502,7.80681,29.1646,-24.7462,-5.60048,26.4932,32.0363,-10.8488,1.97185,-18.8454,-62.9846,-14.329,-13.8254,65.8589,-9.85096,-5.36703,-22.0874
-9.5077,18.2187,2.04122,19.3751,-85.4004,-10.4563,31.4459,2.24039,9.36668,9.02633,4.96409,2.32251,-6.22762,1.99485,-4.45172,-2.3116,-0.219189,2.88412,-17.5325,-1.83205,-7.79991,-4.94663,-0.86217,-2.83441,1.90833e-14,3.97569e-14,27.5433,-9.22315,-61.3817,67.4811,30.8865,-29.4041,-42.8968,7.12502,-2.74194,-72.859,1.90833e-14,3.97569e-14,-76.7105,18.3219,34.5208,11.1048,-68.4427,-18.4641,0.651849,7.12502,7.82245,30.4871,-24.8016,-5.63089,26.0484,32.0562,-11.2942,2.74342,-19.7209,-62.6776,-14.4218,-13.7466,60.734,-9.95426,-6.0001,-24.7545
-9.54804,18.1923,2.04913,17.0875,-85.5666,-8.20984,31.304,2.28657,9.35641,9.06463,5.01137,2.47944,-6.12924,2.02083,-4.27585,-1.66034,-0.184693,2.7897,-17.7908,-1.8577,-8.20401,-5.13825,-0.826536,-2.94551,-1.11319e-14,-1.74931e-14,30.989,-9.45276,-60.9001,63.5523,30.5541,-29.1373,-42.6366,7.12502,-2.48435,-72.6019,-1.11319e-14,-1.74931e-14,-79.5609,18.3498,29.0793,10.7979,-70.9385,-18.3918,1.12845,7.12502,7.89221,30.9611,-24.8064,-5.7011,25.7419,32.4852,-11.9505,3.24612,-19.1675,-61.9993,-14.4564,-13.7652,56.3084,-9.22065,-6.25152,-23.9662
-9.58823,18.1389,2.05869,13.7829,-85.7378,-5.22392,31.2993,2.28055,9.27571,9.10101,4.98383,2.63182,-6.1133,2.00471,-4.04901,-0.12829,-0.0567745,1.50991,-19.0441,-1.61707,-6.97323,-5.77103,-0.645466,-2.3577,1.27222e-14,2.70347e-14,33.8677,-9.2337,-60.5367,59.7642,29.401,-29.303,-42.6751,7.12502,-2.64431,-72.6384,1.27222e-14,2.70347e-14,-81.5918,17.5468,26.3455,10.7637,-70.5478,-17.9073,1.10031,7.12502,8.35981,30.9149,-24.7364,-5.82523,25.4271,33.282,-12.6869,3.43624,-17.7701,-61.117,-14.4783,-13.9919,52.8246,-7.44235,-6.25316,-19.4327
-9.62854,18.0566,2.06987,11.5203,-85.8723,-3.47857,31.3556,2.21327,9.2736,9.14452,4.90499,2.78294,-6.11425,1.9618,-3.85368,-1.62729,-0.208186,2.91566,-16.6513,-1.9508,-9.35843,-4.80155,-0.824981,-3.316,-6.36111e-15,-1.11319e-14,36.1053,-8.64764,-60.2496,56.3029,27.7779,-29.3092,-42.684,7.12502,-2.65037,-72.6473,-6.36111e-15,-1.11319e-14,-83.4418,16.8277,23.6701,10.7907,-70.7272,-17.0468,0.725483,7.12502,9.1902,30.5052,-24.5768,-5.94801,25.2369,34.3375,-13.7366,3.43239,-17.7907,-59.9749,-14.3562,-14.3512,50.6054,-5.70693,-6.04855,-20.0968
-9.67393,17.955,2.08562,16.0008,-85.8161,-8.55873,31.2874,2.00868,9.79137,9.17824,4.79974,3.02785,-6.02455,1.90923,-3.82909,-1.49916,-0.1628,2.96214,-16.1139,-1.88814,-9.7832,-4.65555,-0.775135,-3.45387,3.33958e-14,3.18055e-15,37.6758,-7.94211,-60.0731,53.3874,26.9257,-28.7578,-43.6074,7.12502,-2.11782,-73.5766,3.33958e-14,3.18055e-15,-85.0958,16.3002,20.5002,10.7339,-72.1619,-15.8043,0.380292,7.12502,10.3889,30.1036,-24.3492,-6.09801,25.5791,35.5007,-14.8261,3.49065,-16.1143,-58.8371,-14.1374,-14.284,49.642,-4.4143,-6.36986,-19.3065
-9.72295,17.8487,2.10674,25.1428,-85.5959,-18.3711,31.1917,1.72765,10.7118,9.1978,4.7135,3.32687,-5.89703,1.86561,-3.97289,-1.33104,-0.124244,2.95716,-15.6577,-1.81864,-10.0486,-4.54049,-0.725611,-3.53353,-5.56597e-14,-3.02153e-14,38.4127,-7.02979,-59.8605,51.2379,26.1605,-28.5747,-43.4601,7.12502,-1.94095,-73.431,-5.56597e-14,-3.02153e-14,-86.1745,15.7992,18.337,10.6588,-73.4777,-14.5495,0.231135,7.12502,11.5992,29.8901,-24.0091,-6.2551,26.3109,36.6213,-15.8901,3.58181,-14.5914,-57.5784,-13.6878,-14.0524,49.7653,-4.04819,-6.8705,-22.3207
-9.77943,17.7564,2.12923,33.5345,-85.4217,-27.4562,31.2012,1.50068,11.502,9.18382,4.6686,3.56952,-5.8595,1.83617,-4.12519,-0.977265,-0.089697,2.95799,-15.4284,-1.75642,-10.1884,-4.52657,-0.677337,-3.57664,-1.74931e-14,-5.40694e-14,38.3629,-6.07048,-59.8798,49.8906,25.9251,-28.5765,-42.7596,7.12502,-1.94274,-72.7305,-1.74931e-14,-5.40694e-14,-86.5193,15.2979,18.596,10.7338,-73.1748,-13.5238,0.166989,7.12502,12.5882,29.7677,-23.532,-6.35509,26.9635,37.5679,-16.7869,3.67923,-14.1873,-56.0005,-12.8986,-14.1093,50.6501,-3.81257,-6.97584,-23.6027
-9.85219,17.6901,2.15254,41.3554,-85.2357,-35.7755,31.4776,1.23867,12.2416,8.71528,4.64909,3.5421,-5.82939,1.81246,-4.16721,-0.539771,-0.0329421,3.007,-15.3746,-1.67448,-10.2927,-4.57907,-0.618823,-3.6197,-3.65764e-14,-1.74931e-14,37.7448,-4.92938,-60.0252,49.1239,26.0686,-28.3538,-43.036,7.12502,-1.72761,-73.0087,-3.65764e-14,-1.74931e-14,-86.6547,15.1599,19.73,10.8996,-72.3973,-13.0369,0.176599,7.12502,13.0576,29.7479,-23.1062,-6.44884,27.5584,38.3041,-17.4337,3.89656,-14.2496,-54.4865,-11.8522,-14.2659,51.8653,-3.10287,-6.86775,-21.8668
-9.9403,17.6555,2.17527,48.702,-85.0441,-43.3329,31.3434,1.09398,12.667,8.5313,4.61748,3.71005,-5.94785,1.7824,-4.19765,-0.235386,0.0652438,3.06035,-15.2407,-1.52782,-10.3908,-4.57987,-0.534491,-3.66352,5.88403e-14,2.06736e-14,36.4974,-3.51792,-60.098,49.0434,26.6369,-27.6015,-43.8195,7.12502,-1.00105,-73.7969,5.88403e-14,2.06736e-14,-86.3712,15.3107,22.3443,11.0467,-70.2867,-13.1099,0.17447,7.12502,12.9872,29.7502,-22.8348,-6.49049,28.0941,38.8139,-17.7133,4.32395,-14.1971,-53.065,-10.6555,-14.4296,53.1585,-1.77297,-6.37486,-18.4381
-10.0404,17.6506,2.19897,53.9497,-85.153,-48.5233,30.7197,1.16706,12.4918,8.7184,4.58157,3.99642,-6.12114,1.7639,-4.15785,-0.093358,0.172372,3.09032,-15.0021,-1.35142,-10.4209,-4.51886,-0.444421,-3.6818,-2.22639e-14,-4.77083e-14,34.5539,-1.87368,-60.1604,49.5183,26.8358,-28.6517,-41.0736,7.12502,-2.01528,-71.0439,-2.22639e-14,-4.77083e-14,-84.943,15.3291,28.8051,11.4734,-64.4381,-13.4566,0.229451,7.12502,12.653,29.8262,-22.6849,-6.44353,28.189,39.0713,-17.8072,4.95621,-14.4917,-51.6435,-9.40095,-14.9421,54.2732,-0.657602,-5.71829,-17.7098
-10.145,17.6726,2.22436,58.1769,-85.5634,-52.4877,30.1579,1.26006,12.0893,8.59546,4.53076,3.88651,-6.04188,1.75612,-4.02283,-0.171059,0.29554,3.06823,-14.7664,-1.13407,-10.2636,-4.41861,-0.347882,-3.63359,9.54166e-15,-9.54166e-15,32.2428,-0.400994,-60.6653,50.3455,28.2499,-28.5271,-42.7524,7.12502,-1.89495,-72.7237,9.54166e-15,-9.54166e-15,-82.5382,15.0839,37.9559,12.5366,-55.7679,-13.9925,0.453931,7.12502,12.1363,30.0819,-22.6127,-6.31981,27.8911,39.0829,-17.7736,5.69286,-15.0195,-50.2283,-8.03919,-15.8287,55.0947,0.221779,-4.98794,-17.7275
-10.2504,17.7176,2.25023,62.9809,-85.9789,-56.9323,29.5826,1.30546,11.7018,8.41516,4.43241,3.65953,-6.01356,1.72593,-4.01304,-0.252982,0.407419,2.99533,-14.5061,-0.901535,-9.88582,-4.31036,-0.250808,-3.50776,-2.38542e-14,6.36111e-15,29.3944,1.33598,-61.42,51.052,28.4389,-29.7712,-42.2375,7.12502,-3.09649,-72.1947,-2.38542e-14,6.36111e-15,-79.7174,14.1878,47.9845,14.3992,-45.7913,-14.332,0.73601,7.12502,11.8089,30.3831,-22.5151,-6.16926,27.5581,38.8879,-17.5712,6.36889,-15.5423,-48.8321,-6.61794,-16.7504,55.5264,0.572347,-4.42322,-17.4166
-10.3572,17.7748,2.27677,69.2739,-86.4713,-62.7836,29.1095,1.3744,11.272,8.09605,4.39148,3.3423,-6.17823,1.7134,-4.10661,-0.0983229,0.441934,2.91214,-14.3073,-0.766732,-9.41885,-4.26874,-0.196391,-3.35055,3.18055e-14,2.70347e-14,25.9483,2.84336,-62.6335,51.6241,28.9382,-30.6707,-41.362,7.12502,-3.96518,-71.3048,3.18055e-14,2.70347e-14,-77.2063,13.1403,55.9165,16.7705,-37.4663,-14.5939,0.610529,7.12502,11.5564,30.2719,-22.4158,-5.91041,27.1431,38.5519,-17.3966,6.73687,-17.8083,-47.4686,-5.19513,-17.7161,55.5329,0.353305,-4.08927,-17.9791
-10.4642,17.8403,2.30354,77.6455,-87.1168,-70.6026,28.5242,1.49824,10.6648,7.80879,4.35072,2.94576,-6.25879,1.71029,-4.18194,0.0633062,0.454193,2.80542,-14.2763,-0.688624,-8.98828,-4.28315,-0.166497,-3.20118,4.77083e-14,3.18055e-15,22.3573,4.10706,-64.1926,51.9095,29.6037,-30.5794,-41.8531,7.12502,-3.87695,-71.7976,4.77083e-14,3.18055e-15,-74.7408,12.4269,61.6034,19.3873,-30.8994,-15.1723,0.408029,7.12502,10.9985,30.0999,-22.4352,-5.5336,26.5348,38.1353,-17.1546,6.89055,-20.424,-46.2048,-3.8953,-18.7967,55.123,-0.026744,-3.85272,-20.3916
-10.5704,17.9057,2.32956,87.5464,-87.7147,-79.9203,27.8487,1.55948,10.0397,7.5976,4.20521,2.52096,-6.21692,1.66513,-4.23726,0.119534,0.479675,2.67135,-14.3519,-0.612929,-8.59002,-4.31237,-0.138607,-3.05834,-1.43125e-14,-1.11319e-14,18.7548,5.38886,-65.8543,51.7066,29.2025,-30.6077,-40.838,7.12502,-3.90433,-70.782,-1.43125e-14,-1.11319e-14,-72.111,11.6026,66.4937,22.5037,-24.6209,-16.0146,0.933953,7.12502,10.1861,30.6674,-22.5173,-5.16229,25.8885,37.7124,-16.7787,7.00182,-21.4019,-45.0281,-2.80418,-19.8529,54.3624,-0.258968,-3.90449,-22.2276
-10.6753,17.9595,2.35376,102.684,-88.0032,-94.5737,27.2814,1.58621,9.57573,7.42323,4.06855,2.13282,-6.16777,1.61956,-4.34655,0.140615,0.498013,2.58106,-14.436,-0.552012,-8.23056,-4.33916,-0.119964,-2.93454,-1.11319e-14,-1.59028e-15,15.1263,6.48711,-67.5843,51.1233,29.2551,-29.7047,-40.4,7.12502,-3.03226,-70.3582,-1.11319e-14,-1.59028e-15,-69.4304,10.8619,70.1076,25.7693,-19.7981,-17.2289,1.84589,7.12502,9.0145,31.6333,-22.5447,-4.63015,25.4898,37.389,-16.4018,6.81428,-22.3813,-43.8481,-1.74013,-20.6217,53.354,-0.336316,-4.26288,-23.0125
-10.781,18.0003,2.38026,114.848,-87.9702,-106.319,26.6767,1.53799,9.3564,7.28455,3.89764,1.81621,-6.04563,1.55778,-4.49993,0.331529,0.498331,2.4599,-14.7037,-0.531722,-7.87971,-4.45296,-0.114275,-2.80915,5.40694e-14,2.22639e-14,11.5137,7.57622,-69.3393,49.8272,28.6454,-30.1714,-38.297,7.12502,-3.483,-68.2483,5.40694e-14,2.22639e-14,-66.6007,10.3435,72.5789,28.8378,-16.6996,-18.6975,2.89771,7.12502,7.59713,32.7413,-22.6006,-4.17234,25.3542,37.2949,-16.246,6.37446,-23.2596,-42.7238,-0.95845,-21.0496,52.2284,-0.133371,-4.66383,-22.7091
-10.888,18.0236,2.40632,122.537,-88.1163,-113.595,25.9347,1.42838,9.02021,7.15415,3.61059,1.49504,-5.87001,1.4452,-4.55316,0.753797,0.468585,2.36206,-15.1553,-0.577974,-7.63754,-4.66556,-0.131245,-2.72129,-1.43125e-14,1.43125e-14,7.83675,8.32575,-71.2193,48.0788,28.4449,-29.5786,-38.9713,7.12502,-2.91054,-68.9311,-1.43125e-14,1.43125e-14,-63.6669,9.57047,74.7106,31.9379,-14.4756,-20.2981,4.22636,7.12502,6.05207,34.1199,-22.809,-3.91063,25.0506,37.5503,-16.5071,5.82234,-23.4267,-41.6762,-0.569656,-21.5958,51.0762,0.534028,-5.07559,-21.1114
-10.9939,18.0134,2.42847,139.53,-88.4284,-130.218,25.1641,1.3872,8.33665,7.0502,3.32168,1.08858,-5.6679,1.33476,-4.50292,1.05025,0.442829,2.44034,-15.3996,-0.612252,-7.54513,-4.79253,-0.148728,-2.70753,-1.59028e-15,-3.73715e-14,4.14208,8.73673,-73.1478,46.0109,28.0984,-29.5288,-38.4105,7.12502,-2.86244,-68.3711,-1.59028e-15,-3.73715e-14,-60.7617,8.45446,76.4822,35.25,-13.0001,-21.8653,5.70069,7.12502,4.53882,35.6321,-23.2388,-3.50495,24.4113,38.3447,-17.1165,5.20164,-23.1142,-40.6637,-0.19213,-22.4733,50.0121,1.63592,-5.39158,-19.7035
-11.0985,17.9803,2.45363,164.764,-88.5999,-155.193,24.3628,1.3603,7.58265,7.02194,3.03258,0.681946,-5.36479,1.22601,-4.40968,1.37152,0.526871,2.33675,-15.6993,-0.473299,-7.21915,-4.93292,-0.0823421,-2.59862,2.8625e-14,5.56597e-15,0.554071,8.84361,-74.9509,43.66,27.7535,-29.3774,-37.7185,7.12502,-2.71622,-67.681,2.8625e-14,5.56597e-15,-57.8266,7.31797,77.7759,38.6903,-12.1104,-23.2149,6.98668,7.12502,3.23559,36.9419,-23.8198,-3.21982,23.6575,39.7638,-17.8721,4.68367,-22.6964,-39.5449,0.0985951,-23.4221,49.001,2.96571,-5.42528,-19.1135
-11.2028,17.9179,2.48663,188.408,-88.5,-178.779,23.6468,1.32014,6.91162,7.04891,2.75945,0.333168,-5.03329,1.12016,-4.30743,1.41999,0.50703,2.16642,-15.6376,-0.459148,-6.89952,-4.92275,-0.0826631,-2.47023,3.02153e-14,7.95139e-16,-3.00477,8.6122,-76.5835,41.073,27.5946,-29.2343,-36.9993,7.12502,-2.57796,-66.9634,3.02153e-14,7.95139e-16,-54.705,6.20338,78.7783,42.0071,-11.7585,-24.1993,8.27868,7.12502,2.2849,38.2462,-24.5482,-3.27264,22.9524,41.9744,-18.6806,4.22687,-23.5069,-38.1998,0.180398,-24.2678,48.0195,4.32192,-5.17265,-17.0083
-11.3001,17.836,2.52704,204.083,-88.1969,-194.545,23.1147,1.26569,6.31151,7.04775,2.50869,0.0115268,-4.81537,1.01555,-4.23107,1.47658,0.459729,2.1206,-15.4128,-0.478323,-6.70123,-4.86484,-0.0993166,-2.3978,-5.92378e-14,-6.36111e-15,-6.61297,8.00307,-78.078,38.3779,27.524,-29.1673,-36.2995,7.12502,-2.51331,-66.2645,-5.92378e-14,-6.36111e-15,-51.5124,5.05641,79.5593,45.3601,-11.8247,-25.1725,9.28855,7.12502,1.34492,39.2641,-25.6586,-3.49009,22.2964,44.9995,-19.1635,3.89854,-25.3022,-36.7413,0.0979648,-24.981,46.9911,2.2781,-8.17731,-12.669
-11.3837,17.7328,2.57232,215.995,-87.8855,-206.644,22.7309,1.14256,5.68435,7.0305,2.17972,-0.294929,-4.69713,0.865819,-4.10983,1.60978,0.481462,2.16521,-15.1665,-0.392555,-6.50822,-4.80836,-0.0660886,-2.34724,-2.78299e-15,-1.19271e-14,-10.2555,7.04097,-79.3886,35.7899,27.6752,-29.0799,-35.4981,7.12502,-2.4289,-65.464,-2.78299e-15,-1.19271e-14,-48.4062,4.14148,80.0154,49.0208,-12.5169,-26.8863,8.65567,7.12502,-0.310291,38.6352,-27.3446,-4.09912,21.5826,48.8459,-18.7418,4.48515,-25.4876,-35.4018,-0.200406,-25.6419,46.0411,-0.913925,-9.78311,-14.0217
-11.4547,17.62,2.62442,221.609,-87.5942,-212.688,22.6384,0.946468,5.18896,7.0742,1.79114,-0.603633,-4.65515,0.679672,-4.05995,1.71656,0.533529,2.34567,-14.9358,-0.253487,-6.28472,-4.74967,-0.0157462,-2.31254,-1.23246e-14,2.3059e-14,-13.9573,5.58907,-80.4821,33.5182,28.5663,-28.1958,-34.0397,7.12502,-1.57501,-64.0137,-1.23246e-14,2.3059e-14,-45.4503,3.52109,80.1556,53.1678,-13.6558,-28.4868,7.41527,7.12502,-1.85612,37.3869,-29.3011,-4.8054,20.9113,53.3822,-17.1824,5.83236,-24.8163,-34.0857,-0.567905,-26.1943,45.4131,-3.51897,-10.9629,-10.7763
-11.5103,17.5091,2.67573,213.726,-87.5453,-205.493,22.9183,0.684953,5.14111,7.19101,1.42351,-0.802589,-4.70248,0.495294,-4.16055,1.73653,0.598797,2.68356,-14.8148,-0.0945091,-6.03683,-4.70874,0.0324882,-2.29811,2.94201e-14,-1.15295e-14,-17.6965,3.97656,-81.2993,31.639,29.8895,-28.7654,-34.5303,7.12502,-2.12511,-64.4994,2.94201e-14,-1.15295e-14,-42.5802,2.94238,80.1124,57.7511,-14.3353,-29.6561,6.62422,7.12502,-2.98536,36.5831,-31.3967,-5.1531,20.7982,58.3804,-14.3381,7.24466,-26.6129,-32.894,-0.84107,-26.1937,45.2911,-6.04222,-11.3694,-7.23755
-11.5448,17.3957,2.71372,194.56,-87.539,-187.213,23.5961,0.395166,5.32546,7.33886,1.08883,-0.842342,-4.90909,0.316383,-4.23564,1.74188,0.735778,2.94298,-14.8136,0.169839,-5.62698,-4.69841,0.127258,-2.2259,-6.16232e-15,-9.93923e-15,-21.4627,2.77278,-81.8431,30.0599,30.7866,-29.2051,-34.9531,7.12502,-2.54976,-64.9176,-6.16232e-15,-9.93923e-15,-39.6671,2.27636,79.9107,62.7024,-14.238,-30.1433,6.61755,7.12502,-3.4558,36.5693,-33.7089,-5.0207,21.1956,63.6384,-10.0706,8.6749,-28.4628,-31.9618,-1.04387,-25.6573,45.6838,-8.48286,-10.8836,-7.01287
-11.5623,17.2945,2.74282,191.337,-87.3975,-185.075,24.6634,0.131305,4.81141,7.50486,0.626889,-1.02977,-5.31902,0.0663812,-4.0366,1.73133,0.903926,2.90452,-14.8236,0.492969,-4.93786,-4.69029,0.250636,-2.01995,7.65321e-15,-4.57205e-15,-25.3042,1.79533,-82.1353,28.8582,31.729,-27.741,-34.0874,7.12502,-1.13573,-64.0641,7.65321e-15,-4.57205e-15,-36.7903,1.52128,79.5153,68.0788,-13.5033,-29.4342,8.77003,7.12502,-2.77106,38.7318,-36.1201,-4.95792,20.7514,68.8643,-5.23507,10.1311,-30.2937,-31.0383,-1.34709,-25.8111,46.2862,-10.192,-10.0892,-8.09109
-11.5724,17.202,2.76451,214.671,-87.1292,-209.458,25.7481,-0.0963026,3.13487,7.69054,-0.114603,-1.52768,-5.74419,-0.314872,-3.41303,1.77709,1.08094,2.85672,-14.9351,0.811194,-4.3251,-4.72468,0.375333,-1.83737,-2.38542e-15,-1.46107e-14,-29.117,0.998412,-82.2628,28.0334,32.7942,-27.3302,-34.0511,7.12502,-0.73904,-64.0296,-2.38542e-15,-1.46107e-14,-33.8182,0.762768,78.8896,73.3466,-12.4373,-29.3117,10.2869,7.12502,-2.65274,40.2502,-38.837,-5.37824,18.8578,74.0631,-1.45977,11.4267,-29.6023,-30.081,-1.80535,-27.2838,46.65,-10.8701,-9.59594,-9.19885
-11.5779,17.1513,2.78035,236.609,-86.6278,-232.134,26.5269,-0.425685,1.47493,7.87174,-1.0199,-2.02867,-5.9953,-0.764964,-2.73229,1.94994,1.30594,2.96038,-15.2589,1.1617,-3.98176,-4.84284,0.521076,-1.76803,-1.10325e-14,-3.37934e-15,-32.7751,0.495459,-82.3267,27.5414,33.7565,-28.6745,-34.2032,7.12502,-2.03737,-64.1732,-1.10325e-14,-3.37934e-15,-30.4749,0.0179086,78.0493,78.0765,-11.4891,-30.1351,8.87888,7.12502,-3.44794,38.8307,-41.6636,-5.79766,16.937,78.5932,0.858599,11.7917,-27.2562,-29.2474,-2.2138,-28.7748,46.6119,-10.824,-9.58739,-10.372
-11.584,17.1123,2.78677,259.755,-84.1604,-255.284,26.6092,-0.563877,-1.78881,7.92323,-2.12894,-2.90867,-5.98036,-1.30168,-1.47748,2.07434,1.57455,3.02209,-15.5796,1.54942,-3.77875,-4.95041,0.693164,-1.73721,-1.17283e-14,-1.2921e-14,-36.1883,0.243001,-82.2584,27.1672,34.9024,-29.5648,-34.2162,7.12502,-2.89716,-64.1763,-1.17283e-14,-1.2921e-14,-26.702,-0.739009,77.0793,82.1529,-11.0673,-30.6935,7.73152,7.12502,-3.98714,37.674,-45.3393,-6.80079,13.1122,82.6148,1.84501,11.4841,-27.0327,-28.9333,-2.65089,-32.1613,46.1187,-10.2579,-9.86018,-10.273
-11.5915,17.1387,2.79643,265.506,-83.9765,-261.515,27.3283,-1.03969,-2.4588,8.09127,-2.98044,-3.08237,-6.13537,-1.7211,-1.00512,2.02783,1.89036,3.06371,-15.678,1.97233,-3.80666,-4.95693,0.89757,-1.77272,1.88845e-14,7.15625e-15,-39.2168,0.387751,-82.1541,27.1746,35.1279,-26.5744,-33.1963,7.12502,-0.00906545,-63.176,1.88845e-14,7.15625e-15,-22.6408,-1.2679,75.9499,85.5544,-11.5846,-30.8711,7.68045,7.12502,-4.15862,37.6196,-47.5791,-6.94572,12.4286,85.1657,1.42243,9.52735,-27.6761,-28.0283,-2.67049,-32.5789,45.4777,-9.6181,-10.2226,-10.3815
-11.5958,17.2038,2.81217,264.413,-85.0187,-260.664,27.8136,-1.54683,-1.99532,8.23384,-3.52639,-2.95978,-6.23211,-1.99067,-0.949085,1.9138,2.27531,3.28061,-15.7074,2.46256,-4.11928,-4.92066,1.14236,-1.92656,2.70347e-14,5.96354e-15,-41.8879,0.741542,-82.072,27.0633,35.6758,-27.921,-32.8785,7.12502,-1.30963,-62.8542,2.70347e-14,5.96354e-15,-18.558,-1.46816,74.626,88.3369,-12.9228,-30.9567,7.54044,7.12502,-4.2413,37.478,-49.7147,-6.15401,13.4484,86.5523,0.537118,6.80821,-27.2117,-27.4142,-2.57414,-31.462,44.7494,-9.18005,-10.1444,-11.0707
-11.6034,17.291,2.82135,251.579,-86.4013,-247.935,28.1216,-1.868,-1.38183,8.35841,-3.77099,-2.69713,-6.26103,-2.11692,-0.923057,1.8405,2.73185,3.60385,-15.7875,3.0297,-4.62977,-4.89496,1.4308,-2.16294,5.1684e-15,-1.43125e-14,-44.1819,1.71627,-82.3856,27.2137,34.7723,-26.4832,-32.8658,7.12502,0.0790108,-62.8455,5.1684e-15,-1.43125e-14,-14.6788,-1.4631,73.2612,90.56,-14.2315,-31.3416,7.2702,7.12502,-4.61303,37.2,-51.6973,-4.41606,15.1696,86.744,-0.131875,3.92747,-26.1079,-26.9209,-2.40479,-29.6556,43.9552,-9.02222,-9.61139,-11.3241
-11.6169,17.3886,2.83096,222.061,-87.2474,-218.357,28.2991,-2.12249,-0.858082,8.43866,-3.94536,-2.41868,-6.26983,-2.20849,-0.853591,1.83197,3.25766,3.99355,-15.9096,3.67767,-5.28456,-4.87906,1.76471,-2.45914,-2.46493e-14,-1.19271e-14,-46.0612,2.87222,-82.7047,27.3449,33.8503,-27.8738,-32.1392,7.12502,-1.26406,-62.1152,-2.46493e-14,-1.19271e-14,-11.0275,-1.28734,71.8862,92.3521,-15.0735,-31.7192,6.7751,7.12502,-4.97757,36.6966,-53.4722,-2.33978,16.8687,85.9772,-0.929666,1.29265,-23.243,-26.4475,-2.45089,-27.7543,43.0118,-8.96544,-8.74046,-10.8718
-11.6337,17.517,2.84666,195.686,-86.7774,-191.727,28.408,-2.26281,-0.892908,8.41328,-4.13958,-2.35696,-6.34627,-2.30479,-0.696006,1.88961,3.84766,4.52975,-16.0915,4.43107,-5.9057,-4.87705,2.1409,-2.77467,2.78299e-14,2.3059e-14,-47.7181,4.25254,-83.2631,27.6181,32.6347,-27.6106,-31.5412,7.12502,-1.00985,-61.5186,2.78299e-14,2.3059e-14,-7.65232,-1.10644,70.3404,93.7642,-15.1659,-32.0604,6.05689,7.12502,-5.30709,35.9704,-55.0025,-0.150989,17.759,84.2842,-1.45063,-0.186076,-21.4274,-25.9573,-2.75516,-26.462,41.7634,-8.79886,-7.52456,-10.5629
-11.661,17.6438,2.85892,181,-85.5993,-176.757,28.5141,-2.28726,-1.29349,8.34194,-4.29243,-2.35379,-6.45186,-2.37956,-0.40584,1.87692,4.50676,5.07452,-16.1904,5.30765,-6.35151,-4.82698,2.56691,-3.03619,3.18055e-14,1.59028e-14,-49.1621,6.07351,-84.0965,27.9343,31.5425,-27.4032,-30.6285,7.12502,-0.809556,-60.6067,3.18055e-14,1.59028e-14,-4.68178,-0.836427,68.6063,94.8259,-14.4656,-32.5672,5.51066,7.12502,-5.79636,35.4114,-56.1814,2.23213,18.3429,81.7508,-2.06804,-0.500007,-20.6623,-25.3688,-3.01264,-25.3171,40.3637,-8.55668,-6.14218,-10.9769
-11.6923,17.7762,2.87323,171.446,-84.3769,-166.946,28.5707,-2.38915,-1.60701,8.35685,-4.51765,-2.29852,-6.43624,-2.4931,-0.0894366,1.80944,5.18842,5.52762,-16.3919,6.21994,-6.64568,-4.79714,3.00266,-3.23458,-5.40694e-14,1.59028e-15,-50.249,8.02827,-84.9201,28.4455,30.5314,-27.2213,-29.6012,7.12502,-0.63387,-59.58,-5.40694e-14,1.59028e-15,-1.93959,-0.333323,66.8533,95.5998,-13.4327,-32.873,5.31978,7.12502,-6.09161,35.2122,-56.7711,4.49761,18.9049,78.3034,-2.86558,-0.124144,-20.6594,-24.6316,-3.25621,-24.063,38.8903,-8.22409,-4.91232,-11.6168
-11.7154,17.8927,2.89265,166.346,-83.1834,-161.513,28.4897,-2.51255,-1.87488,8.38032,-4.76365,-2.37962,-6.35795,-2.61636,0.0497297,2.0808,5.79628,6.04091,-16.9734,7.06625,-6.75596,-4.94518,3.38771,-3.40458,3.10104e-14,6.83819e-14,-51.1035,9.47542,-85.6305,29.2629,29.2517,-27.0475,-29.1434,7.12502,-0.465998,-59.1226,3.10104e-14,6.83819e-14,0.592209,0.232381,65.0777,96.1369,-12.3527,-32.7449,4.92376,7.12502,-5.96793,34.8197,-57.0891,6.52682,19.2268,74.1168,-3.55249,0.610694,-21.6521,-24.0836,-3.35527,-23.0031,37.5406,-7.77014,-3.81932,-12.9933
-11.7313,17.9829,2.91638,164.075,-81.8289,-158.91,28.4659,-2.43643,-1.99016,8.43357,-4.7307,-2.55204,-6.29431,-2.60882,-0.0876288,1.87766,6.22065,6.36757,-17.3605,7.65936,-6.59332,-4.9869,3.63236,-3.42907,-4.05521e-14,-4.45278e-14,-51.7179,10.0681,-85.9608,30.2831,27.9847,-27.6084,-29.2162,7.12502,-1.00768,-59.1936,-4.05521e-14,-4.45278e-14,3.42775,0.411728,63.5357,96.2369,-11.2862,-32.5262,4.39222,7.12502,-5.75677,34.294,-57.1361,8.49253,19.3748,69.2833,-4.11583,1.56687,-23.0781,-23.6975,-3.15454,-22.1411,36.4039,-7.31494,-2.78305,-14.6502
-11.7508,18.0615,2.93746,162.164,-80.9526,-156.901,28.676,-2.50464,-2.08237,8.46173,-4.88353,-2.74786,-6.37385,-2.68609,-0.189849,1.76383,6.63063,6.73179,-17.5877,8.2547,-6.41375,-4.9935,3.87987,-3.45148,-2.62396e-14,8.74653e-14,-52.5161,10.5105,-86.2239,31.4707,27.3392,-29.1271,-29.2097,7.12502,-2.47445,-59.1751,-2.62396e-14,8.74653e-14,6.12878,0.409212,61.993,95.9466,-10.3808,-32.3667,4.25857,7.12502,-5.60276,34.1645,-56.5474,9.94243,19.3988,63.915,-4.82332,2.32377,-22.9537,-23.1576,-3.07884,-21.4857,35.5417,-6.94077,-2.07724,-14.6276
-11.7691,18.1113,2.96283,160.52,-80.1096,-155.25,28.826,-2.58478,-2.10332,8.4986,-5.02989,-2.94571,-6.42133,-2.76092,-0.340123,1.79774,6.99851,7.06007,-17.791,8.80728,-6.21769,-5.02262,4.11013,-3.46639,-1.27222e-14,-2.8625e-14,-53.2192,10.8526,-86.4315,33.1587,25.1815,-28.9433,-29.6565,7.12502,-2.29697,-59.6239,-1.27222e-14,-2.8625e-14,8.65062,0.421567,60.5961,95.4063,-9.88494,-32.0647,4.52255,7.12502,-5.31118,34.436,-55.6348,11.1533,19.4764,58.1324,-5.46363,2.87472,-22.3554,-22.7008,-2.84325,-20.9158,35.0304,-6.82724,-1.51772,-14.0518
-11.7904,18.1292,2.98529,158.481,-79.3576,-153.227,28.7833,-2.64284,-1.95033,8.59206,-5.08426,-3.07165,-6.3211,-2.79544,-0.553049,1.79701,7.24512,7.30068,-17.9717,9.17422,-6.08994,-5.05092,4.25856,-3.48079,3.02153e-14,3.49861e-14,-53.6407,10.8265,-86.3399,34.6508,23.2429,-28.499,-30.7332,7.12502,-1.86785,-60.7048,3.02153e-14,3.49861e-14,11.1201,0.334161,59.605,94.581,-9.97585,-31.603,4.96953,7.12502,-4.86536,34.8937,-54.4262,12.0682,19.7386,52.105,-6.0498,3.30876,-23.1452,-22.4074,-2.59844,-20.2805,34.8516,-7.10327,-1.2553,-14.4402
-11.8081,18.115,2.99969,156.566,-78.6948,-151.297,28.6591,-2.64208,-1.82542,8.63252,-5.05529,-3.12818,-6.23208,-2.78619,-0.703658,1.90042,7.40253,7.49522,-18.1742,9.42248,-5.98241,-5.11214,4.35367,-3.49664,-3.18055e-15,3.33958e-14,-53.865,10.5575,-86.0882,35.8393,21.6223,-28.9868,-30.1203,7.12502,-2.33896,-60.0873,-3.18055e-15,3.33958e-14,13.3671,0.0756391,58.9872,93.4287,-10.658,-31.1057,5.318,7.12502,-4.38518,35.2526,-53.1619,12.7922,20.0599,46.0215,-6.39721,3.74169,-22.9304,-22.3913,-2.4165,-19.6026,35.0497,-7.69205,-1.39126,-13.7085
-11.8186,18.0713,3.01206,155.346,-78.03,-150.116,28.565,-2.58351,-1.84917,8.61329,-4.99238,-3.18381,-6.21181,-2.75748,-0.775985,2.06983,7.53577,7.5244,-18.3065,9.67342,-5.62902,-5.18592,4.4462,-3.41259,1.74931e-14,1.11319e-14,-53.888,10.3724,-85.9156,36.9235,20.1773,-29.4509,-31.2424,7.12502,-2.78714,-61.204,1.74931e-14,1.11319e-14,15.165,-0.212899,58.5906,92.0607,-11.7273,-30.6493,5.63207,7.12502,-3.94448,35.5753,-52.0139,13.3898,20.3595,40.3645,-6.67657,4.31455,-21.2358,-22.5009,-2.14686,-19.0352,35.4879,-8.35005,-1.65711,-12.3703
-11.8293,18.0068,3.02608,155.038,-77.6166,-150.067,28.5707,-2.5198,-2.06717,8.63651,-4.99532,-3.33679,-6.18601,-2.76343,-0.819658,2.25277,7.60238,7.5562,-18.3945,9.84666,-5.2071,-5.25828,4.49589,-3.30545,9.54166e-15,0,-53.6871,10.1931,-85.7677,37.9926,19.1008,-29.8444,-31.3159,7.12502,-3.16723,-61.2721,9.54166e-15,0,16.5077,-0.55509,58.3989,90.6281,-12.8737,-30.163,5.73598,7.12502,-3.47491,35.6874,-50.8641,13.5212,20.5472,35.4435,-7.49362,5.18575,-19.867,-22.5324,-1.79844,-18.8962,36.2079,-9.16501,-2.00004,-12.8335
-11.835,17.9546,3.03676,155.338,-77.5959,-150.698,28.5591,-2.4725,-2.43542,8.64762,-5.06198,-3.54495,-6.15912,-2.79848,-0.818489,2.54806,7.48756,7.56387,-18.5281,9.77958,-4.78184,-5.38039,4.42744,-3.19371,6.83819e-14,5.88403e-14,-53.4375,10.0217,-85.7325,39.1797,18.1765,-30.1847,-31.416,7.12502,-3.49585,-61.3671,6.83819e-14,5.88403e-14,17.4954,-1.10006,58.5031,89.0946,-13.7682,-29.6573,5.55013,7.12502,-2.98654,35.509,-49.7203,13.0379,20.7236,31.9447,-9.03129,5.68825,-20.4761,-22.6094,-1.38755,-19.143,37.1459,-9.9612,-2.40469,-14.2465
-11.8351,17.8795,3.03825,156.534,-77.6498,-152.052,28.4066,-2.37523,-3.0083,8.55454,-5.10295,-3.73094,-6.16189,-2.81486,-0.689196,2.89234,7.25195,7.3216,-18.6649,9.54186,-4.29394,-5.53699,4.28743,-3.01987,-4.6118e-14,-3.18055e-14,-53.1217,9.9128,-85.7372,40.5524,17.5209,-29.9765,-32.7886,7.12502,-3.29473,-62.7429,-4.6118e-14,-3.18055e-14,18.0878,-1.73189,58.8275,87.4228,-14.24,-29.3259,5.57133,7.12502,-2.66644,35.5344,-49.3836,12.5715,20.7003,30.0262,-9.78596,5.97562,-19.8794,-23.0628,-0.801922,-19.5554,38.2857,-10.4684,-2.67239,-15.3444
-11.8286,17.7956,3.02998,158.223,-77.4801,-153.913,28.3702,-2.15397,-3.7936,8.47006,-5.05587,-3.8938,-6.18973,-2.79161,-0.437559,2.93541,6.98204,6.95787,-18.634,9.21308,-3.83524,-5.59669,4.1167,-2.81133,1.27222e-14,6.36111e-14,-52.516,10.0052,-85.8961,42.1656,17.118,-31.1948,-32.4986,7.12502,-4.47125,-62.4314,1.27222e-14,6.36111e-14,18.2157,-2.29112,59.182,85.7806,-14.326,-29.299,5.9251,7.12502,-2.6405,35.8885,-49.3006,12.4456,20.6345,30.3443,-10.884,5.05607,-20.6965,-23.583,-0.0727613,-19.8994,39.4597,-10.7438,-3.18503,-14.8166
-11.8254,17.7243,3.02013,159.51,-77.1368,-155.493,28.5312,-1.90742,-4.49281,8.4479,-4.97787,-4.05792,-6.25023,-2.75815,-0.238808,2.51592,6.57618,6.26437,-18.2775,8.6785,-3.05639,-5.51411,3.85149,-2.41362,-1.74931e-14,1.11319e-14,-51.546,10.3063,-86.2804,43.9136,17.0507,-30.6246,-33.9058,7.12502,-3.92061,-63.8495,-1.74931e-14,1.11319e-14,17.7835,-2.76531,59.5168,84.1973,-14.3519,-29.432,6.38789,7.12502,-2.76896,36.3497,-49.525,12.4475,20.7432,32.3284,-11.3121,4.21081,-21.2001,-23.8968,0.70115,-20.088,40.6112,-11.0317,-4.15188,-12.881
-11.8255,17.6751,3.01548,161.329,-76.6758,-157.553,28.7077,-1.66504,-5.16901,8.39723,-4.91334,-4.28748,-6.35885,-2.72922,-0.12001,1.75755,5.93524,5.26532,-17.5715,7.82183,-1.97741,-5.29453,3.4384,-1.84208,-8.74653e-14,-7.31528e-14,-50.2719,10.6826,-86.8541,45.7604,17.0887,-32.4781,-32.8108,7.12502,-5.7103,-62.7138,-8.74653e-14,-7.31528e-14,16.6901,-3.16005,59.8144,82.6056,-14.5021,-29.6175,6.8914,7.12502,-2.94808,36.8508,-49.6143,12.8147,20.5109,35.9529,-12.4846,1.99395,-22.3588,-24.0944,1.5016,-20.3819,41.516,-11.4155,-4.71913,-12.8744
-11.8344,17.6373,3.01592,163.587,-76.0735,-160.013,28.8743,-1.45472,-5.81916,8.34335,-4.9,-4.60757,-6.47639,-2.72542,-0.10079,1.21376,5.09828,4.86283,-17.2009,6.6406,-1.65927,-5.15453,2.86835,-1.60618,8.11041e-14,1.11319e-13,-48.676,11.2852,-87.6635,47.9838,17.7273,-31.3684,-33.571,7.12502,-4.63891,-63.5002,8.11041e-14,1.11319e-13,14.8587,-3.45047,60.0201,81.0844,-14.6044,-29.8717,7.33697,7.12502,-3.19358,37.2928,-50.0692,13.4466,20.0666,40.5933,-12.7015,-0.203578,-24.1968,-24.131,2.15216,-20.7791,42.0893,-11.9027,-4.60933,-14.6472
-11.8525,17.6233,3.02269,165.165,-75.5192,-161.732,28.9739,-1.43417,-6.20324,8.34235,-5.04818,-4.93516,-6.52103,-2.80237,-0.192836,0.413626,4.25258,4.13976,-16.5181,5.44394,-1.20467,-4.88027,2.30956,-1.26845,3.97569e-14,1.59028e-14,-46.7038,12.4026,-88.7953,50.3065,18.0772,-34.1277,-33.3186,7.12502,-7.30285,-63.1726,3.97569e-14,1.59028e-14,12.4266,-3.54649,60.1722,79.4386,-14.843,-29.8966,7.76884,7.12502,-3.21763,37.7243,-50.562,13.9714,19.7107,46.0148,-13.1821,-2.06682,-23.3674,-23.9713,2.49731,-21.0814,42.2639,-12.3047,-4.18074,-15.9729
-11.8718,17.6351,3.02841,165.847,-75.0145,-162.44,28.929,-1.55373,-6.38118,8.39658,-5.2842,-5.16361,-6.43975,-2.92538,-0.271539,0.000603952,3.36474,3.48505,-16.425,4.1551,-1.17205,-4.82889,1.70564,-1.09193,1.11319e-14,-5.08889e-14,-44.3097,14.0819,-90.1198,52.5963,18.2102,-34.7051,-33.6746,7.12502,-7.86015,-63.5085,1.11319e-14,-5.08889e-14,9.66303,-3.35594,60.4406,77.4275,-15.8144,-29.2501,8.86301,7.12502,-2.59329,38.827,-51.0432,14.4207,19.5584,51.7597,-13.1297,-3.77296,-23.5576,-23.7243,2.65488,-21.159,42.0654,-12.5181,-3.53615,-16.6864
-11.8893,17.6767,3.02832,166.263,-74.4958,-162.792,28.6969,-1.60708,-6.49532,8.42929,-5.37649,-5.25831,-6.28891,-2.97857,-0.294349,-0.236662,2.34122,2.7435,-16.2743,2.6779,-1.25557,-4.78409,1.02232,-0.933376,-2.06736e-14,-2.22639e-14,-41.7563,16.0709,-91.3468,54.7554,17.9878,-34.8277,-33.7363,7.12502,-7.97844,-63.5657,-2.06736e-14,-2.22639e-14,6.479,-3.45712,61.2618,75.0508,-15.9417,-29.0428,9.16669,7.12502,-2.39304,39.133,-51.639,14.8974,19.5093,57.6902,-13.1661,-5.33488,-19.1939,-23.3962,2.64862,-21.1033,41.5185,-12.5438,-2.78414,-15.584
-11.9053,17.7367,3.02707,166.685,-74.1475,-163.016,28.4769,-1.58702,-6.60575,8.28155,-5.34295,-5.17262,-6.33097,-2.95128,-0.154707,-0.223666,1.10132,1.69425,-15.9478,0.946845,-1.10635,-4.72662,0.223138,-0.64371,-2.06736e-14,0,-39.3438,18.0938,-92.2201,56.8234,18.1431,-34.7052,-33.9547,7.12502,-7.86028,-63.7885,-2.06736e-14,0,2.87512,-3.60984,62.8439,72.2878,-16.4141,-28.6429,9.89,7.12502,-2.00682,39.8603,-52.1959,15.1416,19.4715,63.5516,-14.1007,-6.60469,-17.7109,-23.1027,2.38716,-21.0745,40.7165,-12.3808,-1.92286,-13.5909
-11.9162,17.8126,3.02511,165.488,-73.7795,-161.505,28.3504,-1.59858,-6.30289,8.13477,-5.22104,-4.93626,-6.44154,-2.87711,-0.104511,-0.756381,-0.266366,0.481011,-14.6535,-0.878269,-0.433814,-4.72127,-0.644168,-0.181286,1.11319e-14,-2.8625e-14,-36.6733,20.0983,-92.9097,58.6194,19.165,-34.2478,-34.2234,7.12502,-7.41873,-64.0733,1.11319e-14,-2.8625e-14,-0.66044,-3.79582,64.5454,68.9334,-16.8328,-27.6924,10.834,7.12502,-1.08881,40.811,-52.3801,15.4417,19.8201,69.3414,-15.1549,-7.0765,-15.913,-22.8126,2.09451,-20.5438,39.7386,-12.1073,-0.904708,-13.3819
-11.9229,17.9004,3.02294,163.395,-73.2694,-159.047,28.1131,-1.57327,-5.61356,8.17393,-4.9416,-4.7045,-6.32737,-2.74631,-0.338858,-1.60742,-1.7711,-0.748362,-13.5694,-2.8294,0.591333,-4.13163,-1.59371,0.428721,5.24792e-14,9.54166e-15,-33.4158,21.832,-93.3417,60.0896,20.8308,-33.7756,-34.0729,7.12502,-6.96294,-63.9384,5.24792e-14,9.54166e-15,-3.73363,-4.03994,66.2233,65.0417,-16.8702,-27.3313,12.2036,7.12502,-0.740095,42.1821,-52.3349,15.7685,20.579,74.8007,-15.6238,-7.74287,-17.9923,-22.5194,1.98392,-19.6916,38.7195,-11.8633,0.258505,-14.6891
-11.9312,17.9889,3.02641,162.313,-72.9199,-157.539,27.8416,-1.56134,-5.22638,8.13337,-4.76391,-4.50761,-6.2584,-2.65714,-0.408358,-2.01103,-3.23996,-2.12452,-12.5748,-4.68388,1.87128,-3.62182,-2.49892,1.10887,-4.45278e-14,-1.27222e-14,-30.1038,23.7445,-93.5597,61.4598,22.2986,-33.5457,-33.7187,7.12502,-6.74104,-63.5914,-4.45278e-14,-1.27222e-14,-6.68399,-4.02213,67.9646,60.6123,-16.5521,-27.3542,13.1302,7.12502,-0.762193,43.1086,-52.2115,15.7642,21.0367,80.0456,-16.3196,-8.03482,-16.9294,-22.3769,1.92912,-19.2318,37.7535,-11.5662,1.43231,-15.8746
-11.9382,18.0615,3.03399,161.874,-72.6062,-156.504,27.5762,-1.64115,-5.18912,7.81771,-4.78809,-4.3155,-6.46673,-2.64018,-0.213444,-1.28995,-4.49154,-2.63279,-12.1551,-6.33858,2.30545,-3.54353,-3.3103,1.38342,-2.54444e-14,-1.27222e-14,-27.0953,26.2138,-93.8991,62.8401,22.8914,-33.6251,-33.3599,7.12502,-6.8177,-63.2301,-2.54444e-14,-1.27222e-14,-9.69396,-3.5241,69.5104,55.6521,-16.1739,-27.1341,13.6765,7.12502,-0.549565,43.6556,-52.0443,15.5487,21.2711,85.0168,-17.6808,-7.45354,-13.5274,-22.5867,1.92199,-18.9498,36.9367,-11.2509,2.47145,-15.3591
-11.9382,18.1224,3.04577,161.591,-72.1108,-155.437,27.213,-1.56116,-4.98215,7.53589,-4.54712,-4.0312,-6.5997,-2.50104,-0.102513,-1.09976,-5.76046,-3.50502,-11.3933,-7.97769,3.05849,-3.20454,-4.1139,1.78505,8.5875e-14,3.18055e-15,-23.6498,28.3229,-93.5897,64.2609,22.7726,-33.6106,-33.1154,7.12502,-6.80371,-62.9861,8.5875e-14,3.18055e-15,-13.4877,-2.86215,71.4326,51.6775,-15.8604,-26.8939,13.8881,7.12502,-0.317617,43.8676,-51.9293,15.4398,21.4645,89.6351,-17.611,-7.03788,-17.3844,-23.1333,2.27816,-18.6402,36.3292,-11.0749,3.43199,-14.2838
-11.9381,18.1659,3.06038,161.013,-71.5663,-154.092,26.8151,-1.47907,-4.54846,7.3214,-4.24866,-3.77796,-6.66015,-2.34209,-0.174858,-0.94568,-6.88455,-4.43747,-10.46,-9.39285,4.04281,-2.77347,-4.81135,2.24235,-6.67916e-14,-8.90555e-14,-19.8651,30.1893,-92.9565,65.6524,22.2977,-33.3163,-33.2151,7.12502,-6.51961,-63.0947,-6.67916e-14,-8.90555e-14,-16.639,-2.07477,73.0933,47.2809,-15.5571,-26.4245,13.746,7.12502,0.135786,43.7257,-51.5607,15.3644,21.6985,93.8165,-17.7623,-6.27551,-18.5532,-23.7558,2.90823,-18.2795,35.9702,-11.2027,4.2058,-12.6227
-11.9412,18.1808,3.07556,160.287,-71.1151,-152.645,26.3689,-1.40697,-3.96222,7.19171,-3.92775,-3.53927,-6.61051,-2.18054,-0.359958,-0.742196,-7.89894,-5.36679,-9.52305,-10.6655,5.09206,-2.33221,-5.44104,2.70648,0,2.8625e-14,-15.6998,31.7532,-91.7943,67.1716,21.6326,-33.2648,-33.5945,7.12502,-6.46984,-63.4756,0,2.8625e-14,-19.4645,-1.08374,74.5287,42.8453,-15.6284,-24.9264,13.0238,7.12502,1.58269,42.9977,-50.8133,15.1911,21.8393,97.5316,-17.872,-5.25579,-18.8142,-24.4012,3.26464,-17.8576,35.8385,-11.7438,4.69161,-9.50336
-11.9456,18.1669,3.0922,159.772,-70.8469,-151.516,26.0101,-1.31442,-3.47391,7.10373,-3.61918,-3.28676,-6.54579,-2.02716,-0.467116,-0.523772,-8.79608,-5.90587,-8.65702,-11.827,5.60697,-1.95667,-6.01342,2.92562,-9.06458e-14,-6.04305e-14,-11.2698,32.9182,-90.0379,68.9039,21.1405,-33.7419,-33.4313,7.12502,-6.93044,-63.2979,-9.06458e-14,-6.04305e-14,-22.3785,0.3548,75.8013,38.7218,-15.8991,-25.3836,12.5134,7.12502,1.14105,42.4901,-49.6858,14.8196,21.7387,100.819,-17.9966,-4.42043,-19.9922,-25.0268,3.15862,-17.4793,35.9716,-12.509,4.78566,-8.24523
-11.9528,18.1218,3.10859,159.035,-70.7593,-150.502,25.9797,-1.16671,-3.01848,7.13259,-3.28667,-3.06061,-6.51167,-1.87017,-0.582043,-0.295781,-9.58348,-6.05087,-7.89122,-12.8621,5.80157,-1.65998,-6.52629,2.97508,-1.90833e-14,-6.67916e-14,-6.63594,33.5283,-87.8832,70.6942,20.9983,-33.3019,-32.9135,7.12502,-6.50566,-62.7935,-1.90833e-14,-6.67916e-14,-25.4607,2.34098,76.697,35.433,-17.4609,-23.6247,12.8822,7.12502,2.83985,42.843,-47.9444,14.2021,21.4779,103.643,-18.2834,-3.73624,-20.6555,-25.4339,2.83526,-17.0892,36.4679,-13.294,4.32313,-9.4608
-11.9588,18.0511,3.12403,158.216,-70.7515,-149.622,26.1978,-0.944275,-2.5679,7.22164,-2.88991,-2.90151,-6.53466,-1.68733,-0.781656,0.0851666,-10.2594,-5.9383,-7.38164,-13.7538,6.01172,-1.49683,-6.9764,3.00943,-9.54166e-15,-4.77083e-15,-1.90385,33.4944,-85.5187,72.5193,20.8492,-30.9822,-32.3689,7.12502,-4.26591,-62.306,-9.54166e-15,-4.77083e-15,-28.7967,4.30348,77.1617,32.7572,-18.6327,-22.3114,13.5726,7.12502,4.10805,43.5127,-45.7848,13.5367,20.9417,105.891,-18.4598,-2.71831,-18.3987,-25.8617,2.70491,-16.7503,37.3653,-13.9465,3.39385,-10.6415
-11.9523,17.9659,3.13294,157.424,-70.7385,-148.824,26.6117,-0.6992,-2.28088,7.30949,-2.52112,-2.76265,-6.64541,-1.51828,-0.898928,0.68411,-10.8682,-6.51869,-7.08314,-14.5313,7.24889,-1.31622,-7.38312,3.51256,-3.18055e-14,-2.70347e-14,2.84197,33.0538,-83.1177,74.2554,20.6558,-33.5347,-33.6449,7.12502,-6.73043,-63.518,-3.18055e-14,-2.70347e-14,-32.5473,6.54046,77.0634,30.8409,-19.6744,-21.7554,14.5664,7.12502,4.64494,44.4954,-43.4784,12.9203,20.2824,107.544,-18.2683,-1.60656,-14.8247,-26.515,2.95968,-16.4419,38.5724,-14.4136,2.1616,-10.699
-11.9336,17.872,3.13177,156.433,-70.7702,-147.934,27.0243,-0.462771,-2.08019,7.59453,-2.20768,-2.69094,-6.53301,-1.38813,-1.02846,0.944901,-11.3075,-6.74551,-6.79112,-15.085,8.28189,-1.12288,-7.68176,3.87457,-3.97569e-14,-6.20208e-14,7.66457,32.141,-80.7825,75.7353,20.6705,-33.5876,-34.672,7.12502,-6.78144,-64.5434,-3.97569e-14,-6.20208e-14,-36.4439,9.08705,76.2368,29.5628,-20.9421,-23.0168,15.2884,7.12502,3.42686,45.2406,-40.9283,12.2284,19.6409,108.564,-18.5985,-1.72678,-16.6121,-27.1554,3.40604,-16.1208,39.8389,-14.7706,0.798682,-9.97834
-11.9155,17.7884,3.12643,156.233,-71.111,-147.946,27.2655,-0.159734,-2.0779,8.09225,-1.89278,-2.82763,-6.09878,-1.26911,-1.2805,1.0952,-11.7056,-6.56388,-6.68711,-15.586,9.11032,-1.01746,-7.96098,4.10631,3.65764e-14,-5.88403e-14,12.3679,30.4008,-78.5875,76.8342,21.0522,-32.6448,-35.3574,7.12502,-5.87128,-65.2561,3.65764e-14,-5.88403e-14,-40.2288,11.0474,75.0592,28.9405,-22.2218,-24.0579,16.1972,7.12502,2.4214,46.1632,-37.9718,11.3464,18.4348,108.72,-19.2104,-1.81651,-18.279,-27.5472,3.78275,-16.2984,40.7727,-15.0296,-0.357919,-9.46709
