JuanDHNZ/ProyectoFinalCD/preprocessing/sports_trials_csv/93_01.csv
root1,root2,root3,root4,root5,root6,lowerback1,lowerback2,lowerback3,upperback1,upperback2,upperback3,thorax1,thorax2,thorax3,lowerneck1,lowerneck2,lowerneck3,upperneck1,upperneck2,upperneck3,head1,head2,head3,rclavicle1,rclavicle2,rhumerus1,rhumerus2,rhumerus3,rradius1,rwrist1,rhand1,rhand2,rfingers1,rthumb1,rthumb2,lclavicle1,lclavicle2,lhumerus1,lhumerus2,lhumerus3,lradius1,lwrist1,lhand1,lhand2,lfingers1,lthumb1,lthumb2,rfemur1,rfemur2,rfemur3,rtibia1,rfoot1,rfoot2,rtoes1,lfemur1,lfemur2,lfemur3,ltibia1,lfoot1,lfoot2,ltoes1
-9.87431,16.2878,3.92436,154.618,-83.5687,-158.687,13.1542,-0.513149,4.38442,1.15102,-0.147389,-0.710369,-6.17966,-0.222616,-3.20215,2.72665,3.24625,2.48496,-3.45761,4.35683,-2.06476,-1.43016,2.18056,-1.14737,8.62228e-15,-1.59028e-15,-11.9616,27.779,-68.6383,78.6012,37.2232,31.5869,-25.4753,7.12502,55.1277,-43.5212,8.62228e-15,-1.59028e-15,-16.5087,-23.7902,63.4154,80.2702,-24.0955,16.1753,6.05802,7.12502,40.9568,30.9881,-19.7811,0.846377,20.2508,60.8835,-32.1254,-4.07141,-15.1864,-19.3213,6.5835,-15.2069,62.2438,-26.5105,-11.9484,-15.4426
-9.87149,16.2882,3.92435,154.309,-83.5896,-158.361,13.0652,-0.52913,4.40377,1.20392,-0.170836,-0.69139,-6.07579,-0.231402,-3.18817,2.62119,3.20567,2.32965,-3.43955,4.30085,-1.87364,-1.41383,2.15056,-1.0572,9.56651e-15,1.07344e-14,-11.9279,27.7608,-68.6311,78.5984,37.1981,31.793,-25.5567,7.12502,55.3113,-43.4678,9.56651e-15,1.07344e-14,-16.3919,-23.7832,63.3954,80.2651,-24.1601,16.2174,5.92146,7.12502,40.9963,30.839,-19.8155,0.819454,20.2817,60.8876,-32.102,-4.13702,-15.4003,-19.353,6.53393,-15.1769,62.2387,-26.439,-12.1193,-14.6837
-9.86824,16.2881,3.92419,154.464,-83.6555,-158.53,13.0677,-0.548715,4.38454,1.19819,-0.200605,-0.714601,-6.08598,-0.246022,-3.19653,2.65348,3.15216,2.29223,-3.42422,4.23175,-1.79364,-1.41832,2.11526,-1.02515,-9.24349e-15,-3.97569e-16,-11.9607,27.769,-68.6917,78.5428,37.1111,31.9511,-25.5598,7.12502,55.452,-43.3664,-9.24349e-15,-3.97569e-16,-16.3404,-23.88,63.3643,80.2446,-24.1348,16.2495,5.91493,7.12502,41.0265,30.8229,-19.7996,0.772648,20.2285,60.88,-32.1905,-4.16481,-15.2676,-19.3571,6.48629,-15.2314,62.2196,-26.4787,-11.9551,-15.5112
-9.8656,16.2887,3.92141,154.423,-83.6313,-158.565,13.1658,-0.541931,4.38437,1.16034,-0.186235,-0.721768,-6.1797,-0.241742,-3.20712,2.82815,3.08985,2.27618,-3.43811,4.15381,-1.74324,-1.45622,2.07628,-1.00966,1.6027e-14,-1.15295e-14,-12.0416,27.7848,-68.7682,78.4543,37.0086,32.0083,-25.539,7.12502,55.5028,-43.3076,1.6027e-14,-1.15295e-14,-16.3823,-23.9817,63.3859,80.2492,-24.099,16.1868,5.95719,7.12502,40.9676,30.8839,-19.7206,0.812208,20.2496,60.8792,-32.4661,-4.10767,-14.5501,-19.2741,6.52478,-15.2005,62.2054,-26.551,-11.7665,-16.4076
-9.85934,16.2881,3.91721,154.78,-83.6363,-159.201,13.5133,-0.527008,4.28574,1.17935,-0.169452,-0.741536,-6.35124,-0.236057,-3.17641,2.98453,3.04455,2.30158,-3.48923,4.09787,-1.73916,-1.5008,2.04832,-1.01622,-1.10077e-14,-3.97569e-16,-12.1167,27.7388,-68.8094,78.4091,36.9943,32.0501,-25.5573,7.12502,55.5401,-43.298,-1.10077e-14,-3.97569e-16,-16.4046,-24.0235,63.427,80.2723,-24.1587,16.0023,5.83417,7.12502,40.7943,30.8156,-19.4368,0.824869,20.2048,60.8884,-32.5273,-3.86862,-13.5103,-18.9556,6.5246,-15.21,62.1784,-26.5503,-11.889,-15.9263
-9.85797,16.2874,3.91861,155.845,-83.5808,-160.063,13.2446,-0.476611,4.24175,1.142,-0.119635,-0.769067,-6.23699,-0.207628,-3.18903,3.04627,3.00885,2.35166,-3.57802,4.05194,-1.77048,-1.53964,2.0251,-1.03668,-1.19022e-14,1.47101e-14,-12.1019,27.6556,-68.7806,78.408,37.0352,32.0109,-25.5293,7.12502,55.5052,-43.2962,-1.19022e-14,1.47101e-14,-16.3099,-24.02,63.4114,80.2516,-24.2383,15.9285,5.67155,7.12502,40.7249,30.6747,-19.7339,0.855115,20.1152,60.9348,-32.5099,-3.84689,-13.6204,-19.1923,6.56466,-15.3306,62.1819,-26.5989,-11.8353,-15.9449
-9.84723,16.2823,3.91785,155.874,-83.5461,-160.043,13.2514,-0.46947,4.22875,1.12806,-0.110353,-0.756609,-6.25475,-0.203078,-3.17022,2.86533,2.87359,2.31908,-3.46169,3.86882,-1.70974,-1.47631,1.93279,-1.00257,-1.32689e-14,-7.95139e-16,-12.0647,27.6209,-68.7301,78.4275,37.0234,31.7953,-25.4788,7.12502,55.3134,-43.3884,-1.32689e-14,-7.95139e-16,-16.2007,-23.9896,63.3768,80.1984,-24.3252,15.8554,5.52132,7.12502,40.6562,30.546,-19.8734,0.87814,20.1411,60.9871,-32.4858,-3.92915,-13.9424,-19.294,6.58941,-15.3225,62.1819,-26.6085,-11.7367,-16.43
-9.84189,16.2819,3.92139,156.128,-83.5266,-160.279,13.2306,-0.468374,4.25382,1.13511,-0.106856,-0.763997,-6.23544,-0.201606,-3.19282,2.62485,2.46014,1.84016,-3.12436,3.31171,-1.22352,-1.35245,1.6524,-0.749891,6.55989e-15,7.15625e-15,-12.0065,27.5855,-68.6568,78.4191,37.0451,31.4735,-25.4298,7.12502,55.0266,-43.5493,6.55989e-15,7.15625e-15,-16.122,-23.9264,63.3668,80.2031,-24.3891,15.9149,5.50911,7.12502,40.7121,30.5163,-19.948,0.875989,20.0991,61.0331,-32.4906,-3.90988,-13.9452,-19.3213,6.57392,-15.365,62.157,-26.5474,-11.8358,-15.9607
-9.8362,16.2847,3.92707,156.965,-83.5697,-161.105,13.2102,-0.474035,4.22239,1.15157,-0.1229,-0.800093,-6.20794,-0.208312,-3.2102,2.35225,2.22693,1.65639,-2.88205,2.99663,-1.01259,-1.23869,1.49392,-0.640397,-1.16786e-15,2.78299e-15,-11.8881,27.5025,-68.561,78.3692,37.1865,31.1619,-25.3781,7.12502,54.7484,-43.6972,-1.16786e-15,2.78299e-15,-16.0595,-23.8225,63.3579,80.2779,-24.4224,16.0419,5.67755,7.12502,40.8315,30.6473,-20.0035,0.81289,19.9457,61.0731,-32.5009,-3.94835,-14.3176,-19.3347,6.5052,-15.515,62.0972,-26.4425,-12.0077,-15.0481
-9.82892,16.2841,3.92991,158.536,-83.5992,-162.694,13.2435,-0.457466,4.04799,1.14722,-0.127712,-0.839185,-6.23119,-0.207189,-3.152,2.15665,2.14584,1.65962,-2.6936,2.88693,-0.979908,-1.14752,1.43897,-0.623686,1.39149e-15,-4.37326e-15,-11.8242,27.4429,-68.495,78.3585,37.3007,30.9336,-25.4717,7.12502,54.5443,-43.935,1.39149e-15,-4.37326e-15,-16.088,-23.7008,63.3908,80.3956,-24.4576,15.8914,5.86031,7.12502,40.6901,30.8744,-20.0517,0.792832,19.7285,61.1254,-32.5139,-4.0982,-15.2885,-19.3147,6.49662,-15.7324,62.0319,-26.4076,-12.0092,-14.8721
-9.82326,16.2834,3.93135,160.882,-83.6987,-165.09,13.278,-0.445709,3.75086,1.15229,-0.159704,-0.909668,-6.24709,-0.216305,-3.05237,2.00195,2.09405,1.70229,-2.50092,2.81722,-0.982989,-1.06095,1.4043,-0.626083,2.38542e-15,4.37326e-15,-11.8229,27.3966,-68.4656,78.412,37.3343,30.9737,-25.5717,7.12502,54.5802,-44.0097,2.38542e-15,4.37326e-15,-16.122,-23.6103,63.4203,80.5015,-24.4903,15.7973,6.05225,7.12502,40.6016,31.094,-20.0638,0.742545,19.3898,61.1866,-32.5492,-4.03776,-15.4549,-19.2663,6.4414,-16.0697,61.9795,-26.4117,-11.8541,-15.1657
-9.81893,16.2824,3.93303,161.79,-83.7655,-166.029,13.2876,-0.467573,3.63522,1.15728,-0.208443,-0.950429,-6.25079,-0.237725,-3.02099,1.99957,2.06396,1.76541,-2.46228,2.77851,-1.00683,-1.04798,1.38488,-0.642972,9.7156e-15,7.15625e-15,-11.8169,27.3594,-68.4564,78.4731,37.3554,31.3341,-25.4415,7.12502,54.9022,-43.6507,9.7156e-15,7.15625e-15,-16.15,-23.5311,63.4086,80.6415,-24.5165,15.9605,6.261,7.12502,40.755,31.2548,-20.0729,0.704238,19.2396,61.2391,-32.598,-3.92688,-15.2662,-19.2505,6.3682,-16.2121,61.9826,-26.4623,-11.7808,-15.401
-9.81224,16.2784,3.93337,160.573,-83.7121,-164.786,13.3063,-0.496689,3.76024,1.1239,-0.223675,-0.908977,-6.29833,-0.249083,-3.04537,2.12242,2.03562,1.68649,-2.56499,2.7421,-0.931789,-1.10352,1.36616,-0.609164,2.16178e-15,-3.18055e-15,-11.8228,27.349,-68.4405,78.5118,37.3972,31.5668,-25.3042,7.12502,55.1098,-43.3632,2.16178e-15,-3.18055e-15,-16.2691,-23.4326,63.4327,80.8881,-24.529,16.1578,6.28402,7.12502,40.9403,31.2193,-20.1456,0.739237,19.4123,61.2793,-32.6029,-3.91846,-15.1923,-19.3272,6.38964,-16.0366,62.0566,-26.5927,-11.7394,-16.04
-9.80305,16.2737,3.93157,158.849,-83.5565,-163.014,13.3606,-0.501473,3.95068,1.07824,-0.193253,-0.840416,-6.37523,-0.240421,-3.08671,2.26943,2.01172,1.45299,-2.75622,2.71112,-0.69385,-1.19485,1.3487,-0.500635,1.61513e-15,-3.97569e-16,-11.8117,27.3444,-68.4106,78.5259,37.4473,31.4687,-25.2622,7.12502,55.0223,-43.3848,1.61513e-15,-3.97569e-16,-16.364,-23.3828,63.4544,81.1341,-24.5378,16.2584,6.26958,7.12502,41.0348,31.1749,-20.2619,0.864549,19.7125,61.3087,-32.5348,-4.00055,-15.1269,-19.4638,6.5088,-15.7351,62.1648,-26.6566,-11.7753,-16.4468
-9.79495,16.269,3.92987,157.563,-83.4162,-161.713,13.4136,-0.508972,4.07952,1.07243,-0.178444,-0.78969,-6.41005,-0.237015,-3.10893,2.30442,1.99045,1.37486,-2.88251,2.68368,-0.577722,-1.24335,1.3333,-0.453201,-6.18717e-15,-4.37326e-15,-11.7374,27.3512,-68.3646,78.5393,37.4725,31.2358,-25.1394,7.12502,54.8144,-43.4115,-6.18717e-15,-4.37326e-15,-16.3785,-23.3826,63.4395,81.3451,-24.5047,16.2805,6.42263,7.12502,41.0556,31.3213,-20.3326,0.981453,19.9551,61.338,-32.4778,-4.10265,-15.1255,-19.5556,6.6135,-15.48,62.2742,-26.6081,-12.0089,-15.8818
-9.79054,16.2665,3.9314,157.754,-83.4146,-161.911,13.3963,-0.525481,4.04325,1.09378,-0.208417,-0.804799,-6.38007,-0.250078,-3.09863,2.30273,1.96955,1.45852,-2.92583,2.65728,-0.617287,-1.25557,1.31958,-0.479338,9.83984e-15,-3.97569e-16,-11.6583,27.3565,-68.3356,78.5426,37.4775,31.0229,-25.0715,7.12502,54.6242,-43.4785,9.83984e-15,-3.97569e-16,-16.4199,-23.4017,63.4319,81.5759,-24.4289,16.1313,6.34676,7.12502,40.9154,31.29,-20.3562,0.966463,19.9262,61.3791,-32.5379,-4.01349,-14.5862,-19.5809,6.65027,-15.4918,62.34,-26.541,-12.2105,-15.1567
-9.7867,16.264,3.9324,158.687,-83.3771,-162.847,13.3838,-0.493196,3.95915,1.08952,-0.181628,-0.851872,-6.37523,-0.235208,-3.1059,2.35906,1.92045,1.47343,-2.97404,2.59505,-0.555662,-1.28178,1.28707,-0.463042,-1.4884e-14,-1.23246e-14,-11.6358,27.3216,-68.3448,78.5043,37.4814,30.8389,-25.1442,7.12502,54.4596,-43.6667,-1.4884e-14,-1.23246e-14,-16.5042,-23.5028,63.4543,81.8359,-24.2698,15.8979,6.05681,7.12502,40.6962,31.069,-20.415,1.00386,19.817,61.4367,-32.5533,-3.92343,-14.3993,-19.5893,6.76282,-15.5757,62.3693,-26.4457,-12.4227,-14.3075
-9.78182,16.259,3.93171,159.255,-83.2821,-163.449,13.429,-0.442235,3.91593,1.09529,-0.121444,-0.883369,-6.38921,-0.205479,-3.12626,2.36504,1.8538,1.43639,-3.00658,2.50817,-0.448516,-1.29566,1.24204,-0.422699,1.44119e-15,7.95139e-15,-11.5833,27.2874,-68.3272,78.4476,37.4431,30.6838,-25.1896,7.12502,54.3206,-43.8085,1.44119e-15,7.95139e-15,-16.5626,-23.6095,63.505,82.1043,-24.0174,15.7736,5.90551,7.12502,40.5794,30.9541,-20.4548,1.08571,19.7813,61.513,-32.5685,-3.88774,-14.4984,-19.5577,6.92909,-15.5768,62.3887,-26.3553,-12.6598,-13.5117
-9.77723,16.2547,3.93442,159.684,-83.3111,-163.908,13.4891,-0.454303,3.88484,1.09865,-0.142288,-0.913585,-6.42091,-0.216088,-3.13709,2.30985,1.82132,1.43471,-2.99188,2.46403,-0.441021,-1.28199,1.21988,-0.418479,-3.72721e-15,2.10712e-14,-11.5035,27.3416,-68.2788,78.3996,37.3527,30.7384,-25.1837,7.12502,54.3695,-43.7688,-3.72721e-15,2.10712e-14,-16.6171,-23.6532,63.5727,82.2967,-23.8003,15.8586,5.85821,7.12502,40.6592,30.882,-20.4728,1.00273,19.6915,61.6,-32.6026,-3.90904,-14.75,-19.5404,6.98906,-15.6401,62.394,-26.3547,-12.7598,-13.4805
-9.77216,16.2502,3.93777,160.547,-83.3863,-164.779,13.524,-0.481353,3.78333,1.09777,-0.194909,-0.952261,-6.44548,-0.24017,-3.11081,2.23397,1.79575,1.43537,-2.94659,2.42906,-0.427356,-1.25505,1.20235,-0.412365,-5.49143e-15,1.66979e-14,-11.4366,27.455,-68.2399,78.344,37.2697,30.8475,-25.1672,7.12502,54.4673,-43.6843,-5.49143e-15,1.66979e-14,-16.6536,-23.7062,63.6193,82.4132,-23.6378,16.0748,5.90526,7.12502,40.8624,30.8652,-20.5331,0.897773,19.53,61.6942,-32.5955,-3.94067,-15.0963,-19.563,7.00749,-15.7853,62.4041,-26.4029,-12.6696,-14.3148
-9.76804,16.2464,3.93972,162.127,-83.4706,-166.407,13.4992,-0.485178,3.59314,1.13982,-0.236374,-1.02573,-6.38974,-0.25492,-3.07274,2.19912,1.75494,1.38036,-2.9282,2.37648,-0.284348,-1.24585,1.17432,-0.357644,7.00716e-15,1.31198e-14,-11.3897,27.5134,-68.2376,78.2993,37.216,31.0117,-25.2209,7.12502,54.6142,-43.635,7.00716e-15,1.31198e-14,-16.6093,-23.7993,63.6226,82.5028,-23.5376,16.1935,5.97648,7.12502,40.9739,30.9012,-20.5621,0.806862,19.2787,61.8147,-32.5875,-4.04827,-15.891,-19.5249,7.00815,-16.0178,62.3837,-26.4252,-12.5404,-15.1257
